%
(971-23-P-0229_LEXAN OUTER PLATE FALCON SIDE_1537)
(T1  D=0.1537 CR=0. - ZMIN=-0.235 - FLAT END MILL)
G90 G94 G17 G91.1
G64 P0.001 Q0.001
G20
G53 G0 Z0.
(.3 CIRCLUAR THROUGH HOLE)
M9
T1 M6
S22000 M3
G4 P10.
G54
M7
G0 X-0.7631 Y-0.7401
G43 Z0.6 H1
G0 Z0.13
G1 Z0.0654 F40.
G19 G2 Y-0.7554 Z0.05 J-0.0154 K0.
G1 Y-0.7631
G17 G3 X-0.7513 Y-0.775 I0.0118 J0.
Y-0.7277 Z0. I0. J0.0236
Y-0.775 Z-0.05 I0. J-0.0236
Y-0.7277 Z-0.1 I0. J0.0236
Y-0.775 Z-0.15 I0. J-0.0237
Y-0.7277 Z-0.2 I0. J0.0237
X-0.7704 Y-0.7652 Z-0.235 I0. J-0.0237
X-0.7322 Y-0.7374 I0.0191 J0.0139
X-0.7704 Y-0.7652 I-0.0191 J-0.0139
X-0.7539 Y-0.7678 I0.0096 J0.007
G1 X-0.7477 Y-0.7633
X-0.7453 Y-0.7615 Z-0.2347
X-0.7429 Y-0.7598 Z-0.2338
X-0.7408 Y-0.7583 Z-0.2324
X-0.7389 Y-0.7569 Z-0.2305
X-0.7374 Y-0.7558 Z-0.2282
X-0.7362 Y-0.755 Z-0.2255
X-0.7355 Y-0.7544 Z-0.2226
X-0.7353 Y-0.7543 Z-0.2196
G0 Z0.4
X-0.4151 Y-0.967
Z0.13
G1 Z0.0654 F40.
G19 G2 Y-0.9824 Z0.05 J-0.0154 K0.
G1 Y-0.9901
G17 G3 X-0.4066 Y-0.9985 I0.0085 J0.
Y-0.9647 Z0. I0. J0.0169
Y-0.9985 Z-0.05 I0. J-0.0169
Y-0.9647 Z-0.1 I0. J0.0169
Y-0.9985 Z-0.15 I0. J-0.0169
Y-0.9647 Z-0.2 I0. J0.0169
X-0.4203 Y-0.9916 Z-0.235 I0. J-0.0169
X-0.3929 Y-0.9717 I0.0137 J0.0099
X-0.4203 Y-0.9916 I-0.0137 J-0.0099
X-0.4085 Y-0.9934 I0.0068 J0.005
G1 X-0.4023 Y-0.9889
X-0.3998 Y-0.9871 Z-0.2347
X-0.3975 Y-0.9855 Z-0.2338
X-0.3953 Y-0.9839 Z-0.2324
X-0.3935 Y-0.9825 Z-0.2305
X-0.3919 Y-0.9814 Z-0.2282
X-0.3908 Y-0.9806 Z-0.2255
X-0.3901 Y-0.98 Z-0.2226
X-0.3898 Y-0.9799 Z-0.2196
G0 Z0.4
X0.3982 Y-0.967
Z0.13
G1 Z0.0654 F40.
G19 G2 Y-0.9824 Z0.05 J-0.0154 K0.
G1 Y-0.9901
G17 G3 X0.4066 Y-0.9985 I0.0085 J0.
Y-0.9647 Z0. I0. J0.0169
Y-0.9985 Z-0.05 I0. J-0.0169
Y-0.9647 Z-0.1 I0. J0.0169
Y-0.9985 Z-0.15 I0. J-0.0169
Y-0.9647 Z-0.2 I0. J0.0169
X0.3929 Y-0.9916 Z-0.235 I0. J-0.0169
X0.4203 Y-0.9717 I0.0137 J0.0099
X0.3929 Y-0.9916 I-0.0137 J-0.0099
X0.4047 Y-0.9934 I0.0068 J0.005
G1 X0.4109 Y-0.9889
X0.4134 Y-0.9871 Z-0.2347
X0.4157 Y-0.9855 Z-0.2338
X0.4179 Y-0.9839 Z-0.2324
X0.4197 Y-0.9825 Z-0.2305
X0.4213 Y-0.9814 Z-0.2282
X0.4224 Y-0.9806 Z-0.2255
X0.4231 Y-0.98 Z-0.2226
X0.4234 Y-0.9799 Z-0.2196
G0 Z0.4
X0.7395 Y-0.7401
Z0.13
G1 Z0.0654 F40.
G19 G2 Y-0.7554 Z0.05 J-0.0154 K0.
G1 Y-0.7631
G17 G3 X0.7513 Y-0.775 I0.0118 J0.
Y-0.7277 Z0. I0. J0.0236
Y-0.775 Z-0.05 I0. J-0.0236
Y-0.7277 Z-0.1 I0. J0.0236
Y-0.775 Z-0.15 I0. J-0.0237
Y-0.7277 Z-0.2 I0. J0.0237
X0.7322 Y-0.7652 Z-0.235 I0. J-0.0237
X0.7704 Y-0.7374 I0.0191 J0.0139
X0.7322 Y-0.7652 I-0.0191 J-0.0139
X0.7487 Y-0.7678 I0.0096 J0.007
G1 X0.7549 Y-0.7633
X0.7573 Y-0.7615 Z-0.2347
X0.7597 Y-0.7598 Z-0.2338
X0.7618 Y-0.7583 Z-0.2324
X0.7637 Y-0.7569 Z-0.2305
X0.7652 Y-0.7558 Z-0.2282
X0.7664 Y-0.755 Z-0.2255
X0.7671 Y-0.7544 Z-0.2226
X0.7673 Y-0.7543 Z-0.2196
G0 Z0.4
X0.4846 Y-2.4941
Z0.13
G1 Z0.0654 F40.
G19 G2 Y-2.5095 Z0.05 J-0.0154 K0.
G1 Y-2.5172
G17 G3 X0.5 Y-2.5325 I0.0154 J0.
Y-2.4675 Z0. I0. J0.0325
Y-2.5325 Z-0.05 I0. J-0.0325
Y-2.4675 Z-0.1 I0. J0.0325
Y-2.5325 Z-0.15 I0. J-0.0325
Y-2.4675 Z-0.2 I0. J0.0325
X0.4737 Y-2.5191 Z-0.235 I0. J-0.0325
X0.5263 Y-2.4809 I0.0263 J0.0191
X0.4737 Y-2.5191 I-0.0263 J-0.0191
X0.4952 Y-2.5225 I0.0124 J0.009
G1 X0.5014 Y-2.518
X0.5038 Y-2.5162 Z-0.2347
X0.5061 Y-2.5145 Z-0.2338
X0.5083 Y-2.513 Z-0.2324
X0.5102 Y-2.5116 Z-0.2305
X0.5117 Y-2.5105 Z-0.2282
X0.5129 Y-2.5097 Z-0.2255
X0.5136 Y-2.5091 Z-0.2226
X0.5138 Y-2.509 Z-0.2196
G0 Z0.4
X-0.5154 Y-2.4941
Z0.13
G1 Z0.0654 F40.
G19 G2 Y-2.5095 Z0.05 J-0.0154 K0.
G1 Y-2.5172
G17 G3 X-0.5 Y-2.5325 I0.0154 J0.
Y-2.4675 Z0. I0. J0.0325
Y-2.5325 Z-0.05 I0. J-0.0325
Y-2.4675 Z-0.1 I0. J0.0325
Y-2.5325 Z-0.15 I0. J-0.0325
Y-2.4675 Z-0.2 I0. J0.0325
X-0.5263 Y-2.5191 Z-0.235 I0. J-0.0325
X-0.4737 Y-2.4809 I0.0263 J0.0191
X-0.5263 Y-2.5191 I-0.0263 J-0.0191
X-0.5048 Y-2.5225 I0.0124 J0.009
G1 X-0.4986 Y-2.518
X-0.4962 Y-2.5162 Z-0.2347
X-0.4939 Y-2.5145 Z-0.2338
X-0.4917 Y-2.513 Z-0.2324
X-0.4898 Y-2.5116 Z-0.2305
X-0.4883 Y-2.5105 Z-0.2282
X-0.4871 Y-2.5097 Z-0.2255
X-0.4864 Y-2.5091 Z-0.2226
X-0.4862 Y-2.509 Z-0.2196
G0 Z0.4
X-2.8153 Y-2.3647
Z0.13
G1 Z0.0654 F40.
G19 G2 Y-2.38 Z0.05 J-0.0154 K0.
G1 Y-2.3877
G17 G3 X-2.8035 Y-2.3995 I0.0118 J0.
Y-2.3522 Z0. I0. J0.0237
Y-2.3995 Z-0.05 I0. J-0.0237
Y-2.3522 Z-0.1 I0. J0.0237
Y-2.3995 Z-0.15 I0. J-0.0237
Y-2.3522 Z-0.2 I0. J0.0237
X-2.8226 Y-2.3898 Z-0.235 I0. J-0.0237
X-2.7843 Y-2.362 I0.0191 J0.0139
X-2.8226 Y-2.3898 I-0.0191 J-0.0139
X-2.8061 Y-2.3924 I0.0096 J0.007
G1 X-2.7999 Y-2.3879
X-2.7974 Y-2.3861 Z-0.2347
X-2.7951 Y-2.3844 Z-0.2338
X-2.7929 Y-2.3829 Z-0.2324
X-2.7911 Y-2.3815 Z-0.2305
X-2.7895 Y-2.3804 Z-0.2282
X-2.7884 Y-2.3795 Z-0.2255
X-2.7877 Y-2.379 Z-0.2226
X-2.7874 Y-2.3789 Z-0.2196
G0 Z0.4
X-3.5475 Y-3.4684
Z0.13
G1 Z0.0654 F40.
G19 G2 Y-3.4838 Z0.05 J-0.0154 K0.
G1 Y-3.4914
G17 G3 X-3.5357 Y-3.5033 I0.0118 J0.
Y-3.456 Z0. I0. J0.0236
X-3.5586 Y-3.4741 Z-0.0212 I0. J-0.0236
X-3.5127 Y-3.4851 Z-0.0713 I0.023 J-0.0055
X-3.5249 Y-3.4585 Z-0.0925 I-0.023 J0.0055
X-3.5464 Y-3.5007 Z-0.1425 I-0.0107 J-0.0211
X-3.5249 Y-3.4585 Z-0.1925 I0.0107 J0.0211
X-3.5548 Y-3.4935 Z-0.235 I-0.0107 J-0.0211
X-3.5165 Y-3.4657 I0.0191 J0.0139
X-3.5548 Y-3.4935 I-0.0191 J-0.0139
X-3.5383 Y-3.4961 I0.0096 J0.007
G1 X-3.532 Y-3.4916
X-3.5296 Y-3.4899 Z-0.2347
X-3.5273 Y-3.4882 Z-0.2338
X-3.5251 Y-3.4866 Z-0.2324
X-3.5233 Y-3.4852 Z-0.2305
X-3.5217 Y-3.4841 Z-0.2282
X-3.5206 Y-3.4833 Z-0.2255
X-3.5199 Y-3.4828 Z-0.2226
X-3.5196 Y-3.4826 Z-0.2196
G0 Z0.4
X-4.6475 Y-3.4684
Z0.13
G1 Z0.0654 F40.
G19 G2 Y-3.4838 Z0.05 J-0.0154 K0.
G1 Y-3.4914
G17 G3 X-4.6357 Y-3.5033 I0.0118 J0.
Y-3.456 Z0. I0. J0.0236
Y-3.5033 Z-0.05 I0. J-0.0236
Y-3.456 Z-0.1 I0. J0.0236
Y-3.5033 Z-0.15 I0. J-0.0236
Y-3.456 Z-0.2 I0. J0.0236
X-4.6548 Y-3.4935 Z-0.235 I0. J-0.0236
X-4.6165 Y-3.4657 I0.0191 J0.0139
X-4.6548 Y-3.4935 I-0.0191 J-0.0139
X-4.6383 Y-3.4961 I0.0096 J0.007
G1 X-4.632 Y-3.4916
X-4.6296 Y-3.4899 Z-0.2347
X-4.6273 Y-3.4882 Z-0.2338
X-4.6251 Y-3.4866 Z-0.2324
X-4.6233 Y-3.4852 Z-0.2305
X-4.6217 Y-3.4841 Z-0.2282
X-4.6206 Y-3.4833 Z-0.2255
X-4.6199 Y-3.4828 Z-0.2226
X-4.6196 Y-3.4826 Z-0.2196
G0 Z0.4
X-5.5703 Y-4.798
Z0.13
G1 Z0.0654 F40.
G19 G3 Y-4.7827 Z0.05 J0.0154 K0.
G1 Y-4.775
G17 G3 X-5.5857 Y-4.7596 I-0.0154 J0.
Y-4.8246 Z0. I0. J-0.0325
Y-4.7596 Z-0.05 I0. J0.0325
Y-4.8246 Z-0.1 I0. J-0.0325
Y-4.7596 Z-0.15 I0. J0.0325
Y-4.8246 Z-0.2 I0. J-0.0325
X-5.5593 Y-4.773 Z-0.235 I0. J0.0325
X-5.612 Y-4.8112 I-0.0263 J-0.0191
X-5.5593 Y-4.773 I0.0263 J0.0191
X-5.5808 Y-4.7696 I-0.0124 J-0.009
G1 X-5.587 Y-4.7741
X-5.5894 Y-4.7759 Z-0.2347
X-5.5918 Y-4.7776 Z-0.2338
X-5.5939 Y-4.7791 Z-0.2324
X-5.5958 Y-4.7805 Z-0.2305
X-5.5974 Y-4.7816 Z-0.2282
X-5.5985 Y-4.7825 Z-0.2255
X-5.5992 Y-4.783 Z-0.2226
X-5.5995 Y-4.7832 Z-0.2196
G0 Z0.4
X-5.601 Y-6.1612
Z0.13
G1 Z0.0654 F40.
G19 G2 Y-6.1766 Z0.05 J-0.0154 K0.
G1 Y-6.1843
G17 G3 X-5.5857 Y-6.1996 I0.0154 J0.
Y-6.1346 Z0. I0. J0.0325
Y-6.1996 Z-0.05 I0. J-0.0325
Y-6.1346 Z-0.1 I0. J0.0325
Y-6.1996 Z-0.15 I0. J-0.0325
Y-6.1346 Z-0.2 I0. J0.0325
X-5.612 Y-6.1862 Z-0.235 I0. J-0.0325
X-5.5593 Y-6.148 I0.0263 J0.0191
X-5.612 Y-6.1862 I-0.0263 J-0.0191
X-5.5905 Y-6.1896 I0.0124 J0.009
G1 X-5.5843 Y-6.1851
X-5.5819 Y-6.1834 Z-0.2347
X-5.5795 Y-6.1817 Z-0.2338
X-5.5774 Y-6.1801 Z-0.2324
X-5.5755 Y-6.1787 Z-0.2305
X-5.5739 Y-6.1776 Z-0.2282
X-5.5728 Y-6.1768 Z-0.2255
X-5.5721 Y-6.1763 Z-0.2226
X-5.5718 Y-6.1761 Z-0.2196
G0 Z0.4
X-4.6475 Y-7.4684
Z0.13
G1 Z0.0654 F40.
G19 G2 Y-7.4838 Z0.05 J-0.0154 K0.
G1 Y-7.4914
G17 G3 X-4.6357 Y-7.5033 I0.0118 J0.
Y-7.456 Z0. I0. J0.0236
Y-7.5033 Z-0.05 I0. J-0.0236
Y-7.456 Z-0.1 I0. J0.0236
Y-7.5033 Z-0.15 I0. J-0.0236
Y-7.456 Z-0.2 I0. J0.0236
X-4.6548 Y-7.4935 Z-0.235 I0. J-0.0236
X-4.6165 Y-7.4657 I0.0191 J0.0139
X-4.6548 Y-7.4935 I-0.0191 J-0.0139
X-4.6383 Y-7.4961 I0.0096 J0.007
G1 X-4.632 Y-7.4916
X-4.6296 Y-7.4899 Z-0.2347
X-4.6273 Y-7.4882 Z-0.2338
X-4.6251 Y-7.4866 Z-0.2324
X-4.6233 Y-7.4852 Z-0.2305
X-4.6217 Y-7.4841 Z-0.2282
X-4.6206 Y-7.4833 Z-0.2255
X-4.6199 Y-7.4828 Z-0.2226
X-4.6196 Y-7.4826 Z-0.2196
G0 Z0.4
X-3.5475 Y-7.4684
Z0.13
G1 Z0.0654 F40.
G19 G2 Y-7.4838 Z0.05 J-0.0154 K0.
G1 Y-7.4914
G17 G3 X-3.5357 Y-7.5033 I0.0118 J0.
Y-7.456 Z0. I0. J0.0236
X-3.5586 Y-7.4741 Z-0.0212 I0. J-0.0236
X-3.5127 Y-7.4851 Z-0.0713 I0.023 J-0.0055
X-3.5586 Y-7.4741 Z-0.1213 I-0.023 J0.0055
X-3.5127 Y-7.4851 Z-0.1713 I0.023 J-0.0055
X-3.5586 Y-7.4741 Z-0.2213 I-0.023 J0.0055
X-3.5548 Y-7.4935 Z-0.235 I0.023 J-0.0055
X-3.5165 Y-7.4657 I0.0191 J0.0139
X-3.5548 Y-7.4935 I-0.0191 J-0.0139
X-3.5383 Y-7.4961 I0.0096 J0.007
G1 X-3.532 Y-7.4916
X-3.5296 Y-7.4899 Z-0.2347
X-3.5273 Y-7.4882 Z-0.2338
X-3.5251 Y-7.4866 Z-0.2324
X-3.5233 Y-7.4852 Z-0.2305
X-3.5217 Y-7.4841 Z-0.2282
X-3.5206 Y-7.4833 Z-0.2255
X-3.5199 Y-7.4828 Z-0.2226
X-3.5196 Y-7.4826 Z-0.2196
G0 Z0.4
X-2.9776 Y-5.9988
Z0.13
G1 Z0.0654 F40.
G19 G2 Y-6.0142 Z0.05 J-0.0154 K0.
G1 Y-6.0219
G17 G3 X-2.9623 Y-6.0373 I0.0154 J0.
Y-5.925 Z0. I0. J0.0561
Y-6.0373 Z-0.05 I0. J-0.0561
Y-5.925 Z-0.1 I0. J0.0561
Y-6.0373 Z-0.15 I0. J-0.0561
Y-5.925 Z-0.2 I0. J0.0562
X-3.0077 Y-6.0141 Z-0.235 I0. J-0.0562
X-2.9168 Y-5.9481 I0.0454 J0.033
X-3.0077 Y-6.0141 I-0.0454 J-0.033
X-2.9862 Y-6.0175 I0.0124 J0.009
G1 X-2.98 Y-6.013
X-2.9776 Y-6.0112 Z-0.2347
X-2.9752 Y-6.0096 Z-0.2338
X-2.9731 Y-6.008 Z-0.2324
X-2.9712 Y-6.0066 Z-0.2305
X-2.9697 Y-6.0055 Z-0.2282
X-2.9685 Y-6.0047 Z-0.2255
X-2.9678 Y-6.0041 Z-0.2226
X-2.9676 Y-6.004 Z-0.2196
G0 Z0.4
X-2.9776 Y-4.9958
Z0.13
G1 Z0.0654 F40.
G19 G2 Y-5.0112 Z0.05 J-0.0154 K0.
G1 Y-5.0189
G17 G3 X-2.9623 Y-5.0343 I0.0154 J0.
Y-4.922 Z0. I0. J0.0561
Y-5.0343 Z-0.05 I0. J-0.0561
Y-4.922 Z-0.1 I0. J0.0561
Y-5.0343 Z-0.15 I0. J-0.0561
Y-4.922 Z-0.2 I0. J0.0562
X-3.0077 Y-5.0111 Z-0.235 I0. J-0.0562
X-2.9168 Y-4.9451 I0.0454 J0.033
X-3.0077 Y-5.0111 I-0.0454 J-0.033
X-2.9862 Y-5.0145 I0.0124 J0.009
G1 X-2.98 Y-5.01
X-2.9776 Y-5.0082 Z-0.2347
X-2.9752 Y-5.0066 Z-0.2338
X-2.9731 Y-5.005 Z-0.2324
X-2.9712 Y-5.0036 Z-0.2305
X-2.9697 Y-5.0025 Z-0.2282
X-2.9685 Y-5.0017 Z-0.2255
X-2.9678 Y-5.0011 Z-0.2226
X-2.9676 Y-5.001 Z-0.2196
G0 Z0.4
X-0.5991 Y-4.9737
Z0.13
G1 Z0.0654 F40.
G19 G2 Y-4.9891 Z0.05 J-0.0154 K0.
G1 Y-4.9968
G17 G3 X-0.5837 Y-5.0121 I0.0154 J0.
Y-4.9471 Z0. I0. J0.0325
Y-5.0121 Z-0.05 I0. J-0.0325
Y-4.9471 Z-0.1 I0. J0.0325
Y-5.0121 Z-0.15 I0. J-0.0325
Y-4.9471 Z-0.2 I0. J0.0325
X-0.61 Y-4.9987 Z-0.235 I0. J-0.0325
X-0.5574 Y-4.9605 I0.0263 J0.0191
X-0.61 Y-4.9987 I-0.0263 J-0.0191
X-0.5885 Y-5.0021 I0.0124 J0.009
G1 X-0.5823 Y-4.9976
X-0.5799 Y-4.9959 Z-0.2347
X-0.5775 Y-4.9942 Z-0.2338
X-0.5754 Y-4.9926 Z-0.2324
X-0.5735 Y-4.9912 Z-0.2305
X-0.572 Y-4.9901 Z-0.2282
X-0.5708 Y-4.9893 Z-0.2255
X-0.5701 Y-4.9888 Z-0.2226
X-0.5699 Y-4.9886 Z-0.2196
G0 Z0.4
X-0.5683 Y-5.9855
Z0.13
G1 Z0.0654 F40.
G19 G3 Y-5.9702 Z0.05 J0.0154 K0.
G1 Y-5.9625
G17 G3 X-0.5837 Y-5.9471 I-0.0154 J0.
Y-6.0121 Z0. I0. J-0.0325
Y-5.9471 Z-0.05 I0. J0.0325
Y-6.0121 Z-0.1 I0. J-0.0325
Y-5.9471 Z-0.15 I0. J0.0325
Y-6.0121 Z-0.2 I0. J-0.0325
X-0.5574 Y-5.9605 Z-0.235 I0. J0.0325
X-0.61 Y-5.9987 I-0.0263 J-0.0191
X-0.5574 Y-5.9605 I0.0263 J0.0191
X-0.5788 Y-5.9571 I-0.0124 J-0.009
G1 X-0.5851 Y-5.9616
X-0.5875 Y-5.9634 Z-0.2347
X-0.5898 Y-5.9651 Z-0.2338
X-0.592 Y-5.9666 Z-0.2324
X-0.5938 Y-5.968 Z-0.2305
X-0.5954 Y-5.9691 Z-0.2282
X-0.5965 Y-5.97 Z-0.2255
X-0.5972 Y-5.9705 Z-0.2226
X-0.5975 Y-5.9707 Z-0.2196
G0 Z0.4
X4.3914 Y-7.7591
Z0.13
G1 Z0.0654 F40.
G19 G3 Y-7.7437 Z0.05 J0.0154 K0.
G1 Y-7.736
G17 G3 X4.3796 Y-7.7242 I-0.0118 J0.
Y-7.7715 Z0. I0. J-0.0236
Y-7.7242 Z-0.05 I0. J0.0236
Y-7.7715 Z-0.1 I0. J-0.0236
Y-7.7242 Z-0.15 I0. J0.0236
Y-7.7715 Z-0.2 I0. J-0.0236
X4.3987 Y-7.734 Z-0.235 I0. J0.0236
X4.3604 Y-7.7618 I-0.0191 J-0.0139
X4.3987 Y-7.734 I0.0191 J0.0139
X4.3822 Y-7.7314 I-0.0096 J-0.007
G1 X4.376 Y-7.7359
X4.3735 Y-7.7376 Z-0.2347
X4.3712 Y-7.7393 Z-0.2338
X4.3691 Y-7.7409 Z-0.2324
X4.3672 Y-7.7423 Z-0.2305
X4.3656 Y-7.7434 Z-0.2282
X4.3645 Y-7.7442 Z-0.2255
X4.3638 Y-7.7447 Z-0.2226
X4.3635 Y-7.7449 Z-0.2196
G0 Z0.6
(.3 CIRCULAR THROUGH HOLE)
M7
G0 X0.0187 Y-0.0238
Z0.6
Z0.2
G1 Z0.1148 F13.333
G3 X0.0195 Y-0.025 Z0.1084 I0.0382 J0.0238 F55.
X0.0219 Y-0.0283 Z0.1031 I0.0374 J0.025
X0.0259 Y-0.0326 Z0.1 I0.035 J0.0283
X0.0878 Y0.0326 Z0.0621 I0.031 J0.0326
X0.0259 Y-0.0326 Z0.0242 I-0.031 J-0.0326
X0.0878 Y0.0326 Z-0.0136 I0.031 J0.0326
X0.0259 Y-0.0326 Z-0.0515 I-0.031 J-0.0326
X0.0878 Y0.0326 Z-0.0894 I0.031 J0.0326
X0.0118 Y0. Z-0.1175 I-0.031 J-0.0326
X0.0882 I0.0381 J0. F60.
X-0.0882 I-0.0882 J0.
X0.1881 I0.1382 J0.
X-0.1881 I-0.1881 J0.
X0.2881 I0.2381 J0.
X-0.2881 I-0.2881 J0.
X0.3881 I0.3381 J0.
X-0.3881 I-0.3881 J0.
X0.4881 I0.4381 J0.
X-0.4881 I-0.4881 J0.
X0.5881 I0.5381 J0.
X-0.5881 I-0.5881 J0.
X0.6881 I0.6381 J0.
X-0.6881 I-0.6881 J0.
X0.7882 I0.7381 J0.
X-0.7882 I-0.7882 J0.
X0.7882 I0.7882 J0.
X0.7432 Y0.045 Z-0.1275 I-0.045 J0. F55.
G1 X0.0568 Z-0.225
G3 X0.0118 Y0. Z-0.235 I0. J-0.045
X0.0882 I0.0381 J0. F60.
X-0.0882 I-0.0882 J0.
X0.1881 I0.1382 J0.
X-0.1881 I-0.1881 J0.
X0.2881 I0.2381 J0.
X-0.2881 I-0.2881 J0.
X0.3881 I0.3381 J0.
X-0.3881 I-0.3881 J0.
X0.4881 I0.4381 J0.
X-0.4881 I-0.4881 J0.
X0.5881 I0.5381 J0.
X-0.5881 I-0.5881 J0.
X0.6881 I0.6381 J0.
X-0.6881 I-0.6881 J0.
X0.7882 I0.7381 J0.
X-0.7882 I-0.7882 J0.
X0.7982 I0.7932 J0.
X-0.7982 I-0.7982 J0.
X0.7982 I0.7982 J0.
X0.797 Y0.0057 Z-0.2338 I-0.0154 J0.
X0.7945 Y0.01 Z-0.2305 I-0.0143 J-0.0057
X0.792 Y0.0123 Z-0.2255 I-0.0117 J-0.01
X0.7911 Y0.0129 Z-0.2196 I-0.0093 J-0.0123
G0 Z0.6
(SHAPE THROUGH HOLE)
M7
G0 X-4.0191 Y-3.9412
Z0.6
Z0.1
G3 X-4.0916 Y-4.068 Z0.0596 I-0.0362 J-0.0634 F50.
X-4.0191 Y-3.9412 Z0.0191 I0.0362 J0.0634
X-4.0916 Y-4.068 Z-0.0213 I-0.0362 J-0.0634
X-4.0191 Y-3.9412 Z-0.0618 I0.0362 J0.0634
X-4.0916 Y-4.068 Z-0.1022 I-0.0362 J-0.0634
X-4.0191 Y-3.9412 Z-0.1427 I0.0362 J0.0634
X-4.0916 Y-4.068 Z-0.1831 I-0.0362 J-0.0634
X-3.9823 Y-4.0046 Z-0.21 I0.0362 J0.0634
X-4.1283 I-0.073 J0.
X-3.9826 Y-4.0105 I0.073 J0.
G1 X-3.9823 Y-4.0046
G3 X-3.964 Y-3.9595 I-0.0873 J0.0618 F60.
X-4.0917 Y-3.8862 I-0.1059 J-0.0367
G1 X-4.0995 Y-3.8861
X-4.1073 Y-3.8866
X-4.1151 Y-3.8878
X-4.1228 Y-3.8896
X-4.1302 Y-3.892
X-4.1375 Y-3.8949
X-4.1445 Y-3.8985
X-4.1512 Y-3.9026
X-4.1576 Y-3.9072
X-4.1636 Y-3.9123
X-4.1691 Y-3.9178
X-4.1742 Y-3.9238
X-4.1788 Y-3.9302
X-4.1828 Y-3.9369
X-4.1863 Y-3.9439
X-4.1893 Y-3.9512
X-4.1916 Y-3.9587
X-4.1934 Y-3.9663
X-4.1945 Y-3.9741
X-4.195 Y-3.9819
X-4.1949 Y-3.9898
X-4.1942 Y-3.9976
X-4.1928 Y-4.0053
X-4.1908 Y-4.0129
X-4.1883 Y-4.0204
X-4.1851 Y-4.0275
X-4.1814 Y-4.0345
X-4.1771 Y-4.0411
X-4.1724 Y-4.0473
X-4.1671 Y-4.0531
X-4.1614 Y-4.0585
X-4.1553 Y-4.0634
X-4.1488 Y-4.0679
X-4.142 Y-4.0717
X-4.1349 Y-4.0751
X-4.1275 Y-4.0778
X-4.12 Y-4.08
X-4.1123 Y-4.0815
X-4.1045 Y-4.0825
X-4.0966 Y-4.0828
X-4.0888 Y-4.0825
X-4.081 Y-4.0815
X-4.0733 Y-4.0799
X-4.0658 Y-4.0778
X-4.0584 Y-4.075
G3 X-3.9644 Y-3.9596 I0.0119 J0.0864
G1 X-3.9651 Y-3.9586
X-3.968 Y-3.9579 Z-0.2097
X-3.9708 Y-3.9573 Z-0.2088
X-3.9734 Y-3.9567 Z-0.2074
X-3.9757 Y-3.9562 Z-0.2055
X-3.9775 Y-3.9558 Z-0.2032
X-3.9789 Y-3.9555 Z-0.2005
X-3.9798 Y-3.9553 Z-0.1976
X-3.9801 Y-3.9552 Z-0.1946
G0 Z0.4
X-1.2072 Y-5.3922
Z0.1
G3 X-1.2796 Y-5.519 Z0.0596 I-0.0362 J-0.0634 F50.
X-1.2072 Y-5.3922 Z0.0191 I0.0362 J0.0634
X-1.2796 Y-5.519 Z-0.0213 I-0.0362 J-0.0634
X-1.2072 Y-5.3922 Z-0.0618 I0.0362 J0.0634
X-1.2796 Y-5.519 Z-0.1022 I-0.0362 J-0.0634
X-1.2072 Y-5.3922 Z-0.1427 I0.0362 J0.0634
X-1.2796 Y-5.519 Z-0.1831 I-0.0362 J-0.0634
X-1.1704 Y-5.4556 Z-0.21 I0.0362 J0.0634
X-1.3164 I-0.073 J0.
X-1.1707 Y-5.4615 I0.073 J0.
G1 X-1.1704 Y-5.4556
G3 X-1.1591 Y-5.4245 I-0.0563 J0.0382 F60.
G1 X-1.1594 Y-5.4088
X-1.1698 Y-5.3725
G3 X-1.3492 Y-5.4527 I-0.0891 J-0.0414
G1 X-1.3609 Y-5.4642
X-1.363 Y-5.4724
X-1.3646 Y-5.4807
X-1.3655 Y-5.4891
X-1.3658 Y-5.4975
X-1.3655 Y-5.5059
X-1.3646 Y-5.5143
X-1.363 Y-5.5226
X-1.3609 Y-5.5308
X-1.3581 Y-5.5388
X-1.3548 Y-5.5465
X-1.3509 Y-5.554
X-1.3465 Y-5.5612
X-1.3416 Y-5.568
X-1.3361 Y-5.5745
X-1.3302 Y-5.5805
X-1.3239 Y-5.5861
X-1.3172 Y-5.5912
X-1.3101 Y-5.5958
X-1.3027 Y-5.5999
X-1.295 Y-5.6034
X-1.2871 Y-5.6063
X-1.279 Y-5.6087
X-1.2707 Y-5.6104
X-1.2624 Y-5.6115
X-1.254 Y-5.612
X-1.2455 Y-5.6119
X-1.2371 Y-5.6112
X-1.2288 Y-5.6098
X-1.2206 Y-5.6078
G3 X-1.1591 Y-5.4245 I-0.2419 J0.1831
X-1.1675 Y-5.4116 I-0.0153 J-0.0009
X-1.2241 Y-5.4284 I-0.0194 J-0.0385
X-1.2287 Y-5.5785 I0.136 J-0.0793
X-1.2215 Y-5.5914 I0.1407 J0.0707 F50.
G2 X-1.2209 Y-5.6067 I-0.013 J-0.0082
G1 X-1.2372 Y-5.6351 F60.
G2 X-1.4297 Y-5.5841 I-0.0801 J0.0866
G1 X-1.3828 Y-5.5024
X-1.3609 Y-5.4642
G2 X-1.3397 Y-5.4593 I0.013 J-0.0081
X-1.3302 Y-5.4799 I-0.0109 J-0.0175
X-1.4014 Y-5.571 I-0.1168 J0.0178
X-1.4193 Y-5.5769 I-0.0455 J0.109 F50.
G3 X-1.4289 Y-5.5838 I0.0036 J-0.0149
G1 X-1.4309 Y-5.5874 F60.
X-1.4356 Y-5.5961
X-1.4434 Y-5.6117
G3 X-1.296 Y-5.75 I0.1193 J-0.0206
G2 X-1.2372 Y-5.6351 I0.8731 J-0.3745
G3 X-1.2377 Y-5.6198 I-0.0136 J0.0072
X-1.2613 Y-5.6115 I-0.017 J-0.0107
X-1.306 Y-5.7207 I0.0259 J-0.0744
X-1.2982 Y-5.7333 I0.0706 J0.0349 F50.
G2 X-1.2963 Y-5.7485 I-0.0123 J-0.0093
G1 X-1.3071 Y-5.7717 F60.
G2 X-1.5014 Y-5.735 I-0.0854 J0.0809
G1 X-1.481 Y-5.6897
X-1.459 Y-5.6429
X-1.4434 Y-5.6117
G2 X-1.4226 Y-5.6055 I0.0135 J-0.0074
X-1.4131 Y-5.6227 I-0.0087 J-0.016
X-1.4748 Y-5.7193 I-0.1179 J0.0073
X-1.4921 Y-5.7269 I-0.0561 J0.1039 F50.
G3 X-1.5008 Y-5.7347 I0.0051 J-0.0145
G1 X-1.5016 Y-5.7365 F60.
X-1.5132 Y-5.7607
X-1.5139 Y-5.7692
X-1.5141 Y-5.7779
X-1.5136 Y-5.7865
X-1.5125 Y-5.795
X-1.5108 Y-5.8035
X-1.5084 Y-5.8118
X-1.5055 Y-5.8199
X-1.5021 Y-5.8278
X-1.498 Y-5.8354
X-1.4935 Y-5.8427
X-1.4884 Y-5.8496
X-1.4828 Y-5.8562
X-1.4768 Y-5.8624
X-1.4703 Y-5.8681
X-1.4635 Y-5.8733
X-1.4563 Y-5.878
X-1.4487 Y-5.8822
X-1.4409 Y-5.8859
X-1.4329 Y-5.889
X-1.4246 Y-5.8915
X-1.4162 Y-5.8933
X-1.4077 Y-5.8946
X-1.3991 Y-5.8953
X-1.3905 Y-5.8954
X-1.3819 Y-5.8948
X-1.3734 Y-5.8936
X-1.3649 Y-5.8918
G3 X-1.3124 Y-5.7833 I-0.5923 J0.3535
G1 X-1.3071 Y-5.7717
G3 X-1.309 Y-5.7565 I-0.0142 J0.006
X-1.3455 Y-5.7558 I-0.0185 J-0.014
X-1.3679 Y-5.8625 I0.0913 J-0.0749
X-1.363 Y-5.8765 I0.1138 J0.0318 F50.
G2 X-1.365 Y-5.8917 I-0.0142 J-0.006
G1 X-1.384 Y-5.9151 F60.
X-1.392 Y-5.9237
X-1.3995 Y-5.9284
X-1.4074 Y-5.9325
X-1.4154 Y-5.936
X-1.4237 Y-5.9391
X-1.4322 Y-5.9415
X-1.4409 Y-5.9433
X-1.4496 Y-5.9445
X-1.4584 Y-5.9452
X-1.4672
X-1.4761 Y-5.9446
X-1.4848 Y-5.9434
X-1.4935 Y-5.9416
X-1.502 Y-5.9392
X-1.5103 Y-5.9363
X-1.5184 Y-5.9327
X-1.5262 Y-5.9287
X-1.5337 Y-5.9241
X-1.5409 Y-5.9189
X-1.5478 Y-5.9133
X-1.5542 Y-5.9073
X-1.5602 Y-5.9008
X-1.5657 Y-5.8939
X-1.5707 Y-5.8867
X-1.5753 Y-5.8791
X-1.5793 Y-5.8712
X-1.5827 Y-5.8631
X-1.5856 Y-5.8547
X-1.5879 Y-5.8462
G3 X-1.5132 Y-5.7607 I-0.0846 J0.1493
G2 X-1.5002 Y-5.7524 I0.0136 J-0.0071
X-1.4708 Y-5.7903 I0.0013 J-0.0294
X-1.5562 Y-5.8457 I-0.0754 J0.0226
X-1.5706 Y-5.8425 I0.0099 J0.0781 F50.
G3 X-1.5856 Y-5.8457 I-0.0048 J-0.0146
G1 X-1.6023 Y-5.8617 F60.
G3 X-1.4957 Y-6.026 I0.1058 J-0.0482
X-1.392 Y-5.9237 I-2.1755 J2.3078
X-1.3891 Y-5.9086 I-0.0116 J0.0101
X-1.458 Y-5.891 I-0.0402 J-0.0138
X-1.4952 Y-5.9964 I0.0795 J-0.0873
X-1.492 Y-6.0109 I0.1167 J0.018 F50.
G2 X-1.4957 Y-6.0258 I-0.0148 J-0.0042
G1 X-1.5184 Y-6.0477 F60.
G2 X-1.6942 Y-5.9487 I-0.0545 J0.1089
G1 X-1.6668 Y-5.9237
X-1.6652 Y-5.9222
X-1.6023 Y-5.8617
G2 X-1.5873 Y-5.8585 I0.0103 J-0.0114
X-1.5748 Y-5.8773 I-0.0056 J-0.0172
X-1.6632 Y-5.9487 I-0.0785 J0.0067
X-1.6777 Y-5.9454 I0.0099 J0.0781 F50.
G3 X-1.6927 Y-5.9486 I-0.0048 J-0.0146
G1 X-1.7121 Y-5.9673 F60.
G3 X-1.6254 Y-6.1397 I0.1082 J-0.0536
X-1.6164 Y-6.1183 I-0.0047 J0.0146
G1 X-1.6184 Y-6.1142
X-1.687 Y-5.9745
X-1.6882 Y-5.9721 F50.
G3 X-1.7121 Y-5.9673 I-0.0138 J-0.0068
X-1.6112 Y-6.1368 I0.0504 J-0.0848 F60.
X-1.5741 Y-6.0975 I-0.0504 J0.0848
G1 X-1.5357 Y-6.0641
X-1.5246 Y-6.0537
X-1.5184 Y-6.0477
G3 X-1.5246 Y-6.0225 I-0.0111 J0.0107
G1 X-1.5274 Y-6.0215 Z-0.2097
X-1.5301 Y-6.0206 Z-0.2088
X-1.5326 Y-6.0198 Z-0.2074
X-1.5348 Y-6.019 Z-0.2055
X-1.5367 Y-6.0184 Z-0.2032
X-1.538 Y-6.0179 Z-0.2005
X-1.5388 Y-6.0177 Z-0.1976
X-1.5391 Y-6.0176 Z-0.1946
G0 Z0.4
X-0.223 Y-4.0348
Z0.1
G3 X-0.2955 Y-4.1616 Z0.0596 I-0.0362 J-0.0634 F50.
X-0.223 Y-4.0348 Z0.0191 I0.0362 J0.0634
X-0.2955 Y-4.1616 Z-0.0213 I-0.0362 J-0.0634
X-0.223 Y-4.0348 Z-0.0618 I0.0362 J0.0634
X-0.2955 Y-4.1616 Z-0.1022 I-0.0362 J-0.0634
X-0.223 Y-4.0348 Z-0.1427 I0.0362 J0.0634
X-0.2955 Y-4.1616 Z-0.1831 I-0.0362 J-0.0634
X-0.1862 Y-4.0982 Z-0.21 I0.0362 J0.0634
X-0.3323 I-0.073 J0.
X-0.1865 Y-4.1041 I0.073 J0.
G1 X-0.1862 Y-4.0982
G3 X-0.1762 Y-4.0569 I-0.0182 J0.0263 F60.
G1 X-0.1815 Y-4.0514
X-0.1794 Y-4.0385
X-0.1806 Y-4.0308
X-0.1823 Y-4.0231
X-0.1846 Y-4.0156
X-0.1874 Y-4.0083
X-0.1908 Y-4.0013
X-0.1947 Y-3.9945
X-0.1991 Y-3.988
X-0.204 Y-3.9819
X-0.2093 Y-3.9762
X-0.2151 Y-3.9709
X-0.2212 Y-3.966
X-0.2277 Y-3.9617
X-0.2345 Y-3.9578
X-0.2415 Y-3.9544
X-0.2488 Y-3.9516
X-0.2563 Y-3.9494
X-0.264 Y-3.9477
X-0.2717 Y-3.9466
X-0.2795 Y-3.9461
X-0.2874
X-0.2952 Y-3.9468
X-0.3029 Y-3.9481
X-0.3105 Y-3.9499
X-0.3179 Y-3.9523
X-0.3252 Y-3.9553
X-0.3322 Y-3.9588
X-0.3389 Y-3.9628
X-0.3453 Y-3.9673
X-0.3513 Y-3.9723
X-0.3569 Y-3.9777
X-0.3621 Y-3.9836
X-0.3669 Y-3.9898
X-0.3727 Y-4.0046
X-0.3937 Y-4.0385
G3 X-0.2931 Y-4.2033 I0.0915 J-0.0572
X-0.1041 Y-4.1274 I0.0751 J0.0863
X-0.1203 Y-4.124 I-0.0107 J-0.011
G1 X-0.1329 Y-4.1289
X-0.2868 Y-4.1878
X-0.287 Y-4.1879 F50.
G3 X-0.2923 Y-4.2132 I0.0055 J-0.0144
G1 X-0.2646 Y-4.2386 F60.
X-0.2593 Y-4.2438
X-0.2194 Y-4.2754
X-0.2124 Y-4.2809
X-0.1971 Y-4.2854
G3 X-0.1132 Y-4.275 I0.0316 J0.0891
X-0.1261 Y-4.2496 I-0.0116 J0.0101
G1 X-0.1936 Y-4.2555
G3 X-0.2034 Y-4.2602 I0.0013 J-0.0153
X-0.1971 Y-4.2854 I0.0111 J-0.0106 F50.
X-0.1333 Y-4.0982 I0.0271 J0.0953 F60.
G1 X-0.1655 Y-4.0682
X-0.1762 Y-4.0569
G3 X-0.1985 Y-4.0781 I-0.0111 J-0.0106
X-0.1762 Y-4.0569 I0.0111 J0.0106
X-0.1821 Y-4.0531 I-0.0111 J-0.0106
G1 X-0.1974 Y-4.0475
G3 X-0.208 Y-4.0763 I-0.0053 J-0.0144
X-0.1886 Y-4.068 I0.0053 J0.0144
X-0.1794 Y-4.0385 I-0.1316 J0.0573 F50.
G1 X-0.174 Y-4.0046 F60.
X-0.1674 Y-3.9766
G3 X-0.3415 Y-3.8767 I-0.1176 J-0.0033
G1 X-0.3493 Y-3.911
X-0.3603 Y-3.9578
X-0.3685 Y-3.9886
G3 X-0.364 Y-4.0033 I0.015 J-0.0034
X-0.3281 Y-4.001 I0.0168 J0.0181
X-0.3262 Y-3.9028 I-0.0606 J0.0502
X-0.3363 Y-3.892 I-0.0625 J-0.0479 F50.
G2 X-0.3411 Y-3.8774 I0.0102 J0.0115
G1 X-0.3379 Y-3.8641 F60.
X-0.3349 Y-3.8513
G2 X-0.1354 Y-3.8447 I0.1019 J-0.0605
G1 X-0.1515 Y-3.911
X-0.163 Y-3.9578
X-0.1674 Y-3.9766
G2 X-0.1956 Y-3.9802 I-0.0148 J0.004
X-0.2025 Y-3.9521 I0.0454 J0.026
X-0.1588 Y-3.8651 I0.118 J-0.0048
X-0.1433 Y-3.8545 I0.0743 J-0.0918 F50.
G3 X-0.1361 Y-3.8452 I-0.0077 J0.0133
G1 X-0.1296 Y-3.8173 F60.
X-0.1306 Y-3.8088
X-0.1323 Y-3.8004
X-0.1345 Y-3.7922
X-0.1373 Y-3.7841
X-0.1407 Y-3.7762
X-0.1447 Y-3.7686
X-0.1492 Y-3.7613
X-0.1542 Y-3.7543
X-0.1597 Y-3.7478
X-0.1656 Y-3.7416
X-0.1719 Y-3.7358
X-0.1787 Y-3.7306
X-0.1858 Y-3.7258
X-0.1933 Y-3.7215
X-0.201 Y-3.7178
X-0.2089 Y-3.7147
X-0.2171 Y-3.7121
X-0.2254 Y-3.7101
X-0.2339 Y-3.7087
X-0.2424 Y-3.7079
X-0.251 Y-3.7078
X-0.2595 Y-3.7082
X-0.2681 Y-3.7093
X-0.2765 Y-3.7109
X-0.2847 Y-3.7132
X-0.2928 Y-3.716
X-0.3007 Y-3.7195
X-0.3021 Y-3.7221
X-0.3029 Y-3.725
X-0.3032 Y-3.728
X-0.3029 Y-3.731
X-0.302 Y-3.7339
X-0.3005 Y-3.7365
X-0.2985 Y-3.7389
X-0.296 Y-3.7407
X-0.2909 Y-3.7438
X-0.1546 Y-3.8251
X-0.1523 Y-3.8264 F50.
G3 X-0.1296 Y-3.8173 I0.0079 J0.0132
G1 X-0.1187 Y-3.7717 F60.
X-0.1186 Y-3.7705
X-0.1202 Y-3.7338
G3 X-0.3118 Y-3.7698 I-0.0953 J-0.0204
G1 X-0.3269 Y-3.8173
X-0.3349 Y-3.8513
G3 X-0.316 Y-3.8692 I0.0151 J-0.003
G1 X-0.3131 Y-3.8684 Z-0.2097
X-0.3103 Y-3.8677 Z-0.2088
X-0.3078 Y-3.8671 Z-0.2074
X-0.3055 Y-3.8665 Z-0.2055
X-0.3036 Y-3.8661 Z-0.2032
X-0.3023 Y-3.8657 Z-0.2005
X-0.3014 Y-3.8655 Z-0.1976
X-0.3011 Y-3.8654 Z-0.1946
G0 Z0.4
X0.9955 Y-3.8008
Z0.1
G3 X0.923 Y-3.9275 Z0.0596 I-0.0362 J-0.0634 F50.
X0.9955 Y-3.8008 Z0.0191 I0.0362 J0.0634
X0.923 Y-3.9275 Z-0.0213 I-0.0362 J-0.0634
X0.9955 Y-3.8008 Z-0.0618 I0.0362 J0.0634
X0.923 Y-3.9275 Z-0.1022 I-0.0362 J-0.0634
X0.9955 Y-3.8008 Z-0.1427 I0.0362 J0.0634
X0.923 Y-3.9275 Z-0.1831 I-0.0362 J-0.0634
X1.0322 Y-3.8641 Z-0.21 I0.0362 J0.0634
X0.8862 I-0.073 J0.
X1.032 Y-3.8701 I0.073 J0.
G1 X1.0322 Y-3.8641
G3 X1.0419 Y-3.8322 I-0.0282 J0.026 F60.
G1 X1.0366 Y-3.8173
X1.0199 Y-3.7705
G3 X0.8232 Y-3.7926 I-0.0929 J-0.06
G1 X0.8326 Y-3.8173
X0.8659 Y-3.911
X0.8832 Y-3.9578
G3 X1.0862 Y-3.9519 I0.0999 J0.061
G1 X1.0705 Y-3.911
X1.053 Y-3.8629
X1.0419 Y-3.8322
G3 X1.0299 Y-3.8227 I-0.0143 J-0.0057
X1.0119 Y-3.8328 I-0.0024 J-0.0167
X1.0584 Y-3.938 I0.0724 J-0.0309
X1.0728 Y-3.9416 I0.0259 J0.0744 F50.
G2 X1.0848 Y-3.9511 I-0.0022 J-0.0152
G1 X1.0935 Y-3.9755 F60.
G2 X0.9305 Y-4.0901 I-0.115 J-0.0097
X0.8832 Y-3.9578 I6.4201 J2.3721
X0.9049 Y-3.9394 I0.0146 J0.0047
X0.9114 Y-3.9443 I-0.0112 J-0.0217
X0.9384 Y-4.0607 I-0.0857 J-0.0813
X0.9314 Y-4.0782 I-0.1128 J0.0351 F50.
G3 X0.9306 Y-4.0899 I0.0138 J-0.0068
G1 X0.9337 Y-4.0982 F60.
X0.9402 Y-4.1162
G3 X1.14 Y-4.1025 I0.0955 J0.0709
G1 X1.1211 Y-4.0514
X1.0998 Y-3.9933
X1.0935 Y-3.9755
G3 X1.0736 Y-3.9669 I-0.0143 J-0.0057
X1.0601 Y-3.987 I0.0078 J-0.0198
X1.1144 Y-4.0847 I0.1181 J0.0017
X1.131 Y-4.0936 I0.0638 J0.0994 F50.
G2 X1.1392 Y-4.102 I-0.0061 J-0.0141
G1 X1.1467 Y-4.1233 F60.
X1.1491 Y-4.1299
G2 X0.9849 Y-4.2424 I-0.12 J-0.001
G1 X0.9402 Y-4.1162
G2 X0.9501 Y-4.0969 I0.0146 J0.0047
X0.9754 Y-4.1049 I0.007 J-0.0218
X0.9934 Y-4.2122 I-0.0944 J-0.071
X0.9862 Y-4.2296 I-0.1124 J0.0363 F50.
G3 X0.9853 Y-4.2413 I0.0137 J-0.007
G1 X0.9935 Y-4.2639 F60.
G3 X1.1939 Y-4.2515 I0.0964 J0.0677
G2 X1.1491 Y-4.1299 I10.3386 J3.8844
G3 X1.137 Y-4.1203 I-0.0143 J-0.0057
X1.1228 Y-4.1276 I-0.002 J-0.0136
X1.1669 Y-4.2381 I0.07 J-0.0361
X1.1813 Y-4.2416 I0.0259 J0.0744 F50.
G2 X1.1934 Y-4.2512 I-0.0022 J-0.0152
G1 X1.2029 Y-4.2778 F60.
G2 X1.0388 Y-4.3918 I-0.1196 J-0.0029
G1 X1.0183 Y-4.3322
X1.0061 Y-4.2985
X0.9935 Y-4.2639
G2 X1.0034 Y-4.2446 I0.0146 J0.0047
X1.0281 Y-4.2521 I0.007 J-0.0214
X1.0475 Y-4.3617 I-0.0929 J-0.0729
X1.0402 Y-4.3791 I-0.1123 J0.0367 F50.
G3 X1.0392 Y-4.3908 I0.0137 J-0.007
G1 X1.0491 Y-4.4183 F60.
G3 X1.2482 Y-4.4013 I0.0939 J0.0751
G1 X1.2223 Y-4.3322
X1.2056 Y-4.2854
G3 X1.1935 Y-4.2759 I-0.0143 J-0.0057
X1.171 Y-4.2901 I-0.003 J-0.0203
X1.2206 Y-4.3878 I0.0752 J-0.0232
X1.235 Y-4.3913 I0.0256 J0.0745 F50.
G2 X1.2471 Y-4.4008 I-0.0022 J-0.0152
G1 X1.2562 Y-4.4258 F60.
G2 X1.0928 Y-4.5416 I-0.1189 J-0.0054
G3 X1.0491 Y-4.4183 I-4.2293 J-1.429
G2 X1.0524 Y-4.4033 I0.0146 J0.0047
X1.0684 Y-4.3997 I0.0106 J-0.0096
X1.1054 Y-4.5139 I-0.03 J-0.0728
X1.0965 Y-4.5257 I-0.067 J0.0414 F50.
G3 X1.0931 Y-4.5407 I0.0113 J-0.0104
G1 X1.1022 Y-4.5663 F60.
G3 X1.3018 Y-4.5506 I0.0948 J0.0723
G1 X1.2873 Y-4.5127
X1.2562 Y-4.4258
G3 X1.2441 Y-4.4164 I-0.0143 J-0.0057
X1.2326 Y-4.4218 I-0.0016 J-0.0114
G1 X1.2319 Y-4.423
G3 X1.2744 Y-4.5373 I0.068 J-0.0398
X1.2889 Y-4.5407 I0.0254 J0.0745 F50.
G2 X1.301 Y-4.5502 I-0.0022 J-0.0152
G1 X1.3068 Y-4.5663 F60.
X1.3093 Y-4.5733
G2 X1.1465 Y-4.6908 I-0.1176 J-0.0086
G1 X1.1363 Y-4.6599
X1.1195 Y-4.6131
X1.1022 Y-4.5663
G2 X1.1055 Y-4.5513 I0.0147 J0.0046
X1.1191 Y-4.5475 I0.0099 J-0.0091
G1 X1.1201 Y-4.5478
G2 X1.1592 Y-4.6634 I-0.0276 J-0.0738
X1.1502 Y-4.6752 I-0.0667 J0.0418 F50.
G3 X1.1468 Y-4.6901 I0.0113 J-0.0105
G1 X1.1525 Y-4.7067 F60.
X1.1549 Y-4.7138
G3 X1.3541 Y-4.7019 I0.0959 J0.0684
X1.3093 Y-4.5733 I-6.6276 J-2.2333
X1.2894 Y-4.5647 I-0.0143 J-0.0057
X1.2769 Y-4.5827 I0.0073 J-0.0185
X1.3291 Y-4.6838 I0.1181 J-0.003
X1.3455 Y-4.693 I0.0658 J0.0981 F50.
G2 X1.3535 Y-4.7016 I-0.0064 J-0.014
G1 X1.3552 Y-4.7067 F60.
X1.3625 Y-4.7301
G2 X1.1944 Y-4.8399 I-0.1207 J0.0011
G1 X1.1832 Y-4.8003
X1.1684 Y-4.7535
X1.1549 Y-4.7138
G2 X1.1584 Y-4.6988 I0.0147 J0.0044
X1.1737 Y-4.6955 I0.01 J-0.0094
X1.2083 Y-4.8124 I-0.0305 J-0.0726
X1.1989 Y-4.8238 I-0.0651 J0.0443 F50.
G3 X1.1949 Y-4.8386 I0.0109 J-0.0109
G1 X1.1975 Y-4.8471 F60.
X1.2033 Y-4.8651
G3 X1.4027 Y-4.8562 I0.0968 J0.0699
G2 X1.3625 Y-4.7301 I4.0164 J1.3486
G3 X1.3509 Y-4.7201 I-0.0145 J-0.0051
X1.3392 Y-4.725 I-0.0021 J-0.0112
G1 X1.3384 Y-4.7262
G3 X1.376 Y-4.8415 I0.0665 J-0.0421
X1.3902 Y-4.8457 I0.029 J0.0732 F50.
G2 X1.4018 Y-4.8557 I-0.0029 J-0.0151
G1 X1.4097 Y-4.8812 F60.
G2 X1.2418 Y-4.9905 I-0.119 J-0.0008
G1 X1.227 Y-4.9407
X1.2125 Y-4.8939
X1.2033 Y-4.8651
G2 X1.207 Y-4.8502 I0.0148 J0.0042
X1.2207 Y-4.8474 I0.0089 J-0.0087
X1.2553 Y-4.9633 I-0.0311 J-0.0724
X1.246 Y-4.9748 I-0.0656 J0.0435 F50.
G3 X1.2422 Y-4.9897 I0.011 J-0.0107
G1 X1.2494 Y-5.0126 F60.
G3 X1.4498 Y-5.0081 I0.0988 J0.0636
G1 X1.443 Y-4.9875
X1.4279 Y-4.9397
X1.4097 Y-4.8812
G3 X1.3814 Y-4.8796 I-0.0145 J-0.0051
X1.3768 Y-4.9149 I0.051 J-0.0246
X1.4252 Y-4.9894 I0.116 J0.0223
X1.4414 Y-4.999 I0.0676 J0.0969 F50.
G2 X1.4493 Y-5.0077 I-0.0067 J-0.0138
G1 X1.4575 Y-5.0344 F60.
G2 X1.2892 Y-5.1418 I-0.1192 J0.0011
G1 X1.2709 Y-5.0812
X1.2563 Y-5.0344
X1.2494 Y-5.0126
G2 X1.2601 Y-4.9936 I0.0148 J0.0041
X1.2844 Y-5.0022 I0.006 J-0.0216
X1.299 Y-5.1122 I-0.0961 J-0.0687
X1.291 Y-5.1292 I-0.1107 J0.0413 F50.
G3 X1.2896 Y-5.1409 I0.0134 J-0.0076
G1 X1.2979 Y-5.1675 F60.
G3 X1.4976 Y-5.1602 I0.0974 J0.0689
G1 X1.4868 Y-5.128
X1.4649 Y-5.0578
X1.4575 Y-5.0344
G3 X1.4459 Y-5.0244 I-0.0145 J-0.0051
X1.4336 Y-5.0296 I-0.0022 J-0.0118
X1.4708 Y-5.1455 I0.0662 J-0.0426
X1.485 Y-5.1496 I0.029 J0.0732 F50.
G2 X1.4967 Y-5.1596 I-0.0029 J-0.0151
G1 X1.5014 Y-5.1748 F60.
X1.5054 Y-5.1877
G2 X1.3366 Y-5.294 I-0.1202 J0.0036
G1 X1.3221 Y-5.245
X1.3147 Y-5.2216
X1.2979 Y-5.1675
G2 X1.3018 Y-5.1526 I0.0148 J0.0041
X1.3151 Y-5.1499 I0.0086 J-0.0085
X1.3504 Y-5.2665 I-0.0301 J-0.0727
X1.341 Y-5.278 I-0.0654 J0.0438 F50.
G3 X1.3371 Y-5.2929 I0.0109 J-0.0108
G1 X1.3441 Y-5.3152 F60.
G3 X1.5472 Y-5.309 I0.0997 J0.0635
G1 X1.5307 Y-5.2684
X1.5162 Y-5.2216
X1.5054 Y-5.1877
G3 X1.4938 Y-5.1777 I-0.0145 J-0.0051
X1.471 Y-5.1897 I-0.0038 J-0.0203
X1.5197 Y-5.2964 I0.0722 J-0.0315
X1.5342 Y-5.2995 I0.0235 J0.0751 F50.
G2 X1.5465 Y-5.3086 I-0.0018 J-0.0153
G1 X1.5491 Y-5.3152 F60.
X1.5521 Y-5.318
G2 X1.4125 Y-5.4498 I-0.1036 J-0.0301
X1.3441 Y-5.3152 I0.1198 J0.1456
X1.348 Y-5.3004 I0.0148 J0.004
X1.3647 Y-5.2987 I0.0093 J-0.0092
X1.4134 Y-5.4219 I-0.0666 J-0.0975
X1.4093 Y-5.4361 I-0.1153 J0.0256 F50.
G3 X1.412 Y-5.4512 I0.0145 J-0.0052
G1 X1.416 Y-5.4556 F60.
X1.4279 Y-5.467
X1.4498 Y-5.4853
G3 X1.6397 Y-5.3916 I0.0627 J0.1122
G2 X1.5521 Y-5.318 I0.5271 J0.7165
G3 X1.537 Y-5.3149 I-0.0102 J-0.0115
X1.5216 Y-5.3534 I0.0086 J-0.0258
X1.6075 Y-5.3937 I0.0696 J0.0368
X1.6217 Y-5.3892 I-0.0163 J0.077 F50.
G2 X1.6369 Y-5.3912 I0.0059 J-0.0142
G1 X1.6539 Y-5.405 F60.
G2 X1.5625 Y-5.579 I-0.0993 J-0.0588
X1.4498 Y-5.4853 I7.7306 J9.4193
X1.445 Y-5.4707 I0.0103 J0.0114
X1.5117 Y-5.4451 I0.0416 J-0.0087
X1.5598 Y-5.5497 I-0.0697 J-0.0954
X1.5577 Y-5.5644 I-0.1178 J0.0092 F50.
G3 X1.5625 Y-5.5789 I0.0151 J-0.0031
G1 X1.5831 Y-5.5961 F60.
G3 X1.7533 Y-5.487 I0.0509 J0.1079
G1 X1.7147 Y-5.4556
X1.6622 Y-5.4118
X1.6539 Y-5.405
G3 X1.6386 Y-5.4031 I-0.0093 J-0.0122
X1.6291 Y-5.4189 I0.0061 J-0.0144
X1.7228 Y-5.4891 I0.0784 J0.007
X1.737 Y-5.4849 I-0.0153 J0.0772 F50.
G2 X1.7522 Y-5.487 I0.0058 J-0.0143
G1 X1.7706 Y-5.5024 F60.
G2 X1.6876 Y-5.684 I-0.0973 J-0.0653
G3 X1.5831 Y-5.5961 I-6.2305 J-7.2949
G2 X1.5819 Y-5.5743 I0.0103 J0.0114
X1.6057 Y-5.5685 I0.0162 J-0.0145
X1.6799 Y-5.6542 I-0.0412 J-0.1107
X1.6824 Y-5.6729 I-0.1154 J-0.025 F50.
G3 X1.6875 Y-5.6835 I0.0153 J0.0008
G1 X1.7091 Y-5.7015 F60.
G3 X1.8738 Y-5.588 I0.0453 J0.1106
G2 X1.7706 Y-5.5024 I4.448 J5.4681
G3 X1.749 Y-5.5051 I-0.0095 J-0.0121
X1.7479 Y-5.532 I0.0183 J-0.0143
X1.8425 Y-5.5857 I0.099 J0.0644
X1.8613 Y-5.5849 I0.0044 J0.118 F50.
G2 X1.8727 Y-5.588 I0.0019 J-0.0153
G1 X1.8823 Y-5.5961 F60.
X1.8937 Y-5.6057
G2 X1.8106 Y-5.7868 I-0.1005 J-0.0635
G1 X1.756 Y-5.7408
X1.7508 Y-5.7365
X1.7091 Y-5.7015
G2 X1.7043 Y-5.6869 I0.0103 J0.0114
X1.7133 Y-5.6781 I0.0112 J-0.0023
G1 X1.7148 Y-5.6778
G2 X1.8072 Y-5.7565 I0.0138 J-0.0775
X1.8056 Y-5.7712 I-0.0787 J0.0012 F50.
G3 X1.8105 Y-5.7858 I0.0151 J-0.0031
G1 X1.8306 Y-5.8025 F60.
G3 X1.9953 Y-5.6889 I0.0464 J0.109
G1 X1.9434 Y-5.6463
X1.8965 Y-5.6082
X1.8937 Y-5.6057
G3 X1.8785 Y-5.6035 I-0.0095 J-0.0121
X1.8708 Y-5.615 I0.0045 J-0.0113
X1.9495 Y-5.6927 I0.0787 J0.001
X1.9651 Y-5.6911 I0. J0.0787
X1.9793 Y-5.6868 I-0.0156 J0.0772 F50.
G2 X1.9945 Y-5.6889 I0.0058 J-0.0142
G1 X2.017 Y-5.7077 F60.
G2 X1.9326 Y-5.8888 I-0.1028 J-0.0623
G3 X1.8306 Y-5.8025 I-2.4692 J-2.8176
G2 X1.8257 Y-5.7879 I0.0102 J0.0115
X1.8339 Y-5.7797 I0.0104 J-0.0021
G1 X1.8364 Y-5.7792
G2 X1.9294 Y-5.8583 I0.0143 J-0.0774
X1.9277 Y-5.873 I-0.0787 J0.0017 F50.
G3 X1.9324 Y-5.8876 I0.015 J-0.0032
G1 X1.9522 Y-5.9042 F60.
G3 X2.1176 Y-5.7914 I0.0469 J0.1089
G1 X2.1072 Y-5.7833
X2.084 Y-5.7639
X2.017 Y-5.7077
G3 X2.0018 Y-5.7056 I-0.0095 J-0.0121
X1.9936 Y-5.7171 I0.0049 J-0.0121
G1 X1.994 Y-5.7239
X1.995 Y-5.7308
X1.9966 Y-5.7375
X1.9987 Y-5.744
X2.0014 Y-5.7503
X2.0047 Y-5.7564
X2.0085 Y-5.7622
X2.0128 Y-5.7676
X2.0175 Y-5.7726
X2.0226 Y-5.7772
X2.0282 Y-5.7813
X2.034 Y-5.7849
X2.0402 Y-5.788
X2.0466 Y-5.7905
X2.0532 Y-5.7925
X2.0599 Y-5.7939
X2.0668 Y-5.7946
X2.0737 Y-5.7948
X2.0806 Y-5.7944
X2.0874 Y-5.7934
G3 X2.1016 Y-5.7892 I-0.015 J0.0773 F50.
G2 X2.1168 Y-5.7914 I0.0057 J-0.0143
G1 X2.1357 Y-5.8073 F60.
G2 X2.0544 Y-5.9902 I-0.0975 J-0.0662
G1 X2.0371 Y-5.9754
X2.0314 Y-5.9705
X1.9522 Y-5.9042
G2 X1.9511 Y-5.8825 I0.0103 J0.0114
X1.9759 Y-5.8768 I0.0164 J-0.0148
X2.0465 Y-5.9603 I-0.0446 J-0.1094
X2.0491 Y-5.9789 I-0.1152 J-0.0259 F50.
G3 X2.0543 Y-5.9895 I0.0153 J0.0009
G1 X2.0741 Y-6.0059 F60.
G3 X2.2392 Y-5.8923 I0.0469 J0.1086
G2 X2.1357 Y-5.8073 I1.7656 J2.2568
G3 X2.111 Y-5.8213 I-0.0095 J-0.0121
X2.1243 Y-5.8506 I0.0535 J0.0066
X2.2083 Y-5.8901 I0.0882 J0.0786
X2.2271 Y-5.8892 I0.0041 J0.118 F50.
G2 X2.2385 Y-5.8923 I0.0019 J-0.0153
G1 X2.2605 Y-5.9107 F60.
G2 X2.1768 Y-6.0922 I-0.1018 J-0.0631
G3 X2.0741 Y-6.0059 I-3.2446 J-3.7538
G2 X2.0728 Y-5.9842 I0.0102 J0.0115
X2.1001 Y-5.978 I0.0179 J-0.0158
X2.1691 Y-6.0618 I-0.0465 J-0.1086
X2.1715 Y-6.0805 I-0.1155 J-0.0248 F50.
G3 X2.1766 Y-6.0911 I0.0153 J0.0008
G1 X2.1953 Y-6.1067 F60.
G3 X2.3615 Y-5.9947 I0.0486 J0.1072
G1 X2.2761 Y-5.9237
X2.2605 Y-5.9107
G3 X2.2453 Y-5.9086 I-0.0094 J-0.0121
X2.2375 Y-5.9202 I0.0047 J-0.0116
X2.3314 Y-5.9968 I0.0787 J0.0006
X2.3456 Y-5.9926 I-0.0152 J0.0773 F50.
G2 X2.3608 Y-5.9948 I0.0057 J-0.0143
G1 X2.3827 Y-6.0131 F60.
G2 X2.2984 Y-6.1941 I-0.1021 J-0.0626
G1 X2.2246 Y-6.1313
X2.1976 Y-6.1086
X2.1953 Y-6.1067
G2 X2.1941 Y-6.085 I0.0102 J0.0115
X2.2194 Y-6.0791 I0.0168 J-0.0151
X2.2906 Y-6.1637 I-0.0442 J-0.1095
X2.2931 Y-6.1824 I-0.1155 J-0.0249 F50.
G3 X2.2982 Y-6.193 I0.0153 J0.0008
G1 X2.312 Y-6.2046 F60.
X2.3183 Y-6.21
G3 X2.4836 Y-6.0965 I0.0465 J0.1093
G2 X2.3827 Y-6.0131 I3.071 J3.818
G3 X2.3675 Y-6.011 I-0.0094 J-0.0121
X2.3578 Y-6.0261 I0.0058 J-0.0144
X2.4533 Y-6.0992 I0.0786 J0.0039
X2.4674 Y-6.0947 I-0.0168 J0.0769 F50.
G2 X2.4826 Y-6.0965 I0.006 J-0.0141
G1 X2.5006 Y-6.1109 F60.
G2 X2.4213 Y-6.2954 I-0.0953 J-0.0683
G1 X2.3687 Y-6.2514
X2.3652 Y-6.2485
X2.3183 Y-6.21
G2 X2.3174 Y-6.1883 I0.0104 J0.0113
X2.3444 Y-6.1824 I0.0176 J-0.0162
X2.4135 Y-6.2656 I-0.0462 J-0.1087
X2.4161 Y-6.2842 I-0.1153 J-0.0255 F50.
G3 X2.4212 Y-6.2948 I0.0153 J0.0009
G1 X2.4252 Y-6.2982 F60.
X2.4421 Y-6.3123
G3 X2.6058 Y-6.198 I0.0448 J0.1103
G1 X2.5569 Y-6.1578
X2.5058 Y-6.1151
X2.5006 Y-6.1109
G3 X2.4791 Y-6.114 I-0.0092 J-0.0123
X2.4779 Y-6.1386 I0.0176 J-0.0132
X2.5747 Y-6.1956 I0.1012 J0.0609
X2.5935 Y-6.1948 I0.0044 J0.118 F50.
G2 X2.6048 Y-6.198 I0.0019 J-0.0153
G1 X2.6256 Y-6.2155 F60.
G2 X2.5427 Y-6.3975 I-0.1001 J-0.0644
G3 X2.4421 Y-6.3123 I-4.1172 J-4.7586
G2 X2.4374 Y-6.2977 I0.0103 J0.0114
X2.4474 Y-6.2881 I0.0121 J-0.0026
X2.5395 Y-6.3673 I0.0134 J-0.0776
X2.5378 Y-6.382 I-0.0787 J0.0016 F50.
G3 X2.5425 Y-6.3966 I0.015 J-0.0032
G1 X2.5649 Y-6.4154 F60.
G3 X2.7281 Y-6.3007 I0.0431 J0.1122
G2 X2.6256 Y-6.2155 I6.2098 J7.5716
G3 X2.604 Y-6.2181 I-0.0095 J-0.0121
X2.6028 Y-6.2435 I0.0173 J-0.0136
X2.6968 Y-6.2981 I0.0997 J0.0634
X2.7157 Y-6.2975 I0.0056 J0.118 F50.
G2 X2.727 Y-6.3007 I0.0017 J-0.0153
G1 X2.7401 Y-6.312 F60.
X2.7477 Y-6.318
G2 X2.6655 Y-6.4995 I-0.1 J-0.0641
X2.5649 Y-6.4154 I6.6416 J8.0431
X2.5602 Y-6.4008 I0.0103 J0.0114
X2.57 Y-6.3907 I0.0128 J-0.0027
G1 X2.5768 Y-6.3899
X2.5837 Y-6.3896
X2.5906 Y-6.3899
X2.5974 Y-6.3909
X2.6042 Y-6.3924
X2.6107 Y-6.3945
X2.6171 Y-6.3972
X2.6232 Y-6.4004
X2.629 Y-6.4042
X2.6344 Y-6.4084
X2.6395 Y-6.4131
X2.6441 Y-6.4183
X2.6482 Y-6.4238
X2.6519 Y-6.4296
X2.655 Y-6.4358
X2.6576 Y-6.4422
X2.6596 Y-6.4488
X2.661 Y-6.4555
X2.6618 Y-6.4624
X2.662 Y-6.4693
G2 X2.6605 Y-6.484 I-0.0787 J0.0009 F50.
G3 X2.6653 Y-6.4986 I0.0151 J-0.0031
G1 X2.6873 Y-6.5167 F60.
G3 X2.8501 Y-6.4012 I0.0433 J0.1115
G1 X2.8377 Y-6.3918
X2.787 Y-6.3495
X2.7477 Y-6.318
G3 X2.7324 Y-6.3163 I-0.0092 J-0.0123
X2.7258 Y-6.3265 I0.0044 J-0.0101
G1 Y-6.3284
G3 X2.8196 Y-6.4033 I0.0787 J0.0024
X2.8338 Y-6.3991 I-0.0151 J0.0773 F50.
G2 X2.849 Y-6.4013 I0.0057 J-0.0143
G1 X2.8702 Y-6.4191 F60.
G2 X2.7871 Y-6.6012 I-0.1007 J-0.0641
G3 X2.6873 Y-6.5167 I-3.5698 J-4.1127
G2 X2.6824 Y-6.5021 I0.0102 J0.0115
X2.6941 Y-6.491 I0.0137 J-0.0028
X2.7053 Y-6.4902 I0.0111 J-0.078
X2.784 Y-6.5709 I0. J-0.0787
X2.7822 Y-6.5856 I-0.0787 J0.0019 F50.
G3 X2.7869 Y-6.6002 I0.015 J-0.0032
G1 X2.8068 Y-6.6169 F60.
G3 X2.9719 Y-6.5041 I0.0467 J0.1088
G1 X2.9491 Y-6.4854
X2.9276 Y-6.4674
X2.8702 Y-6.4191
G3 X2.855 Y-6.4169 I-0.0095 J-0.0121
X2.8482 Y-6.4267 I0.004 J-0.01
G1 Y-6.4289
G3 X2.9417 Y-6.506 I0.0787 J0.0003
X2.9559 Y-6.5019 I-0.0148 J0.0773 F50.
G2 X2.9711 Y-6.5041 I0.0057 J-0.0143
G1 X2.9894 Y-6.5196 F60.
G2 X2.9114 Y-6.702 I-0.0958 J-0.0669
G1 X2.8807 Y-6.6793
X2.8731 Y-6.6726
X2.8068 Y-6.6169
G2 X2.8057 Y-6.5952 I0.0103 J0.0114
X2.8181 Y-6.5915 I0.0093 J-0.0084
X2.9018 Y-6.6728 I-0.0298 J-0.1143
X2.9056 Y-6.6912 I-0.1134 J-0.033 F50.
G3 X2.9114 Y-6.7015 I0.0153 J0.0019
G1 X2.9276 Y-6.7132 F60.
X2.9624 Y-6.7195
X2.9703 Y-6.7191
X2.9781 Y-6.7181
X2.9858 Y-6.7165
X2.9934 Y-6.7143
X3.0008 Y-6.7115
X3.0079 Y-6.7081
X3.0147 Y-6.7042
X3.0212 Y-6.6997
X3.0274 Y-6.6948
X3.0331 Y-6.6893
X3.0383 Y-6.6834
X3.0431 Y-6.6772
X3.0473 Y-6.6705
X3.051 Y-6.6635
X3.0542 Y-6.6563
X3.0567 Y-6.6489
X3.0587 Y-6.6412
X3.06 Y-6.6334
X3.0607 Y-6.6256
X3.0608 Y-6.6177
X3.0603 Y-6.6098
X3.0591 Y-6.6021
X3.0573 Y-6.5944
X3.0549 Y-6.5869
X3.0519 Y-6.5796
X3.0484 Y-6.5725
X3.0443 Y-6.5658
X3.0396 Y-6.5594
X3.0345 Y-6.5534
X3.0289 Y-6.5479
X3.0229 Y-6.5428
X3.0165 Y-6.5382
X3.0098 Y-6.5341
X3.0027 Y-6.5305
X2.9954 Y-6.5276
X2.9879 Y-6.5252
G0 X2.9894 Y-6.5196 Z0.4
X1.0187 Y-3.8165
Z-0.1793
G1 Z-0.1946 F50.
Y-3.8162 Z-0.1976
X1.0189 Y-3.8153 Z-0.2005
X1.0192 Y-3.8139 Z-0.2032
X1.0196 Y-3.8121 Z-0.2055
X1.02 Y-3.8098 Z-0.2074
X1.0205 Y-3.8072 Z-0.2088
X1.0211 Y-3.8043 Z-0.2097
X1.0216 Y-3.8014 Z-0.21
G3 X1.0199 Y-3.7705 I-0.0611 J0.012
G1 X1.0031 Y-3.7237 F60.
X0.9945 Y-3.7003
X0.9895 Y-3.6933
X0.9839 Y-3.6867
X0.9779 Y-3.6805
X0.9715 Y-3.6747
X0.9648 Y-3.6693
X0.9576 Y-3.6644
X0.9502 Y-3.66
X0.9424 Y-3.6562
X0.9345 Y-3.6529
X0.9263 Y-3.6501
X0.9179 Y-3.6479
X0.9094 Y-3.6463
X0.9009 Y-3.6453
X0.8922 Y-3.6448
X0.8836 Y-3.645
X0.875 Y-3.6457
X0.8664 Y-3.647
X0.858 Y-3.649
X0.8497 Y-3.6514
X0.8417 Y-3.6545
X0.8338 Y-3.6581
X0.8262 Y-3.6622
X0.8189 Y-3.6668
X0.812 Y-3.672
X0.8054 Y-3.6775
X0.7992 Y-3.6836
X0.7934 Y-3.69
X0.7881 Y-3.6968
X0.7987 Y-3.7237
X0.8156 Y-3.7705
X0.8237 Y-3.7928
G3 X0.8358 Y-3.8022 I0.0143 J0.0058
X0.8669 Y-3.769 I0.0039 J0.0275
X0.8159 Y-3.711 I-0.077 J-0.0163
X0.8015 Y-3.7074 I-0.0261 J-0.0743 F50.
G2 X0.7895 Y-3.6978 I0.0023 J0.0152
G1 X0.7821 Y-3.6769 F60.
G2 X0.9478 Y-3.5691 I0.1169 J0.0015
G3 X0.9945 Y-3.7003 I11.627 J4.0659
G2 X0.973 Y-3.7188 I-0.0146 J-0.0048
X0.9624 Y-3.7104 I0.0155 J0.0305
X0.9398 Y-3.5986 I0.0901 J0.0764
X0.9468 Y-3.5812 I0.1127 J-0.0354 F50.
G3 X0.9477 Y-3.5694 I-0.0137 J0.0069
G1 X0.9381 Y-3.5436 F60.
G3 X0.7369 Y-3.5558 I-0.0967 J-0.0704
G1 X0.748 Y-3.5833
X0.7718 Y-3.6484
X0.7821 Y-3.6769
G3 X0.7942 Y-3.6864 I0.0143 J0.0057
X0.8111 Y-3.6773 I0.0023 J0.016
X0.7645 Y-3.5689 I-0.0712 J0.0336
X0.75 Y-3.5656 I-0.0246 J-0.0748 F50.
G2 X0.7378 Y-3.5563 I0.002 J0.0152
G1 X0.7303 Y-3.5365 F60.
X0.7276 Y-3.5189
G2 X0.8453 Y-3.4118 I0.1188 J-0.0123
X0.9381 Y-3.5436 I-0.101 J-0.1696
X0.935 Y-3.5586 I-0.0146 J-0.0049
G1 X0.9288 Y-3.5588
X0.9233 Y-3.5531
G2 X0.8591 Y-3.4376 I0.2018 J0.1877
G1 X0.8556 Y-3.4232 F50.
G3 X0.8453 Y-3.4118 I-0.015 J-0.0032
X0.7276 Y-3.5189 I-0.0322 J-0.0829 F60.
X0.7518 Y-3.5285 I0.0151 J0.0029
G1 X0.7542 Y-3.5267 Z-0.2097
X0.7565 Y-3.525 Z-0.2088
X0.7587 Y-3.5234 Z-0.2074
X0.7606 Y-3.5221 Z-0.2055
X0.7621 Y-3.5209 Z-0.2032
X0.7633 Y-3.5201 Z-0.2005
X0.764 Y-3.5196 Z-0.1976
X0.7642 Y-3.5194 Z-0.1946
G0 Z0.4
X1.3235 Y-1.554
Z0.1
G3 X1.2511 Y-1.6807 Z0.0596 I-0.0362 J-0.0634 F50.
X1.3235 Y-1.554 Z0.0191 I0.0362 J0.0634
X1.2511 Y-1.6807 Z-0.0213 I-0.0362 J-0.0634
X1.3235 Y-1.554 Z-0.0618 I0.0362 J0.0634
X1.2511 Y-1.6807 Z-0.1022 I-0.0362 J-0.0634
X1.3235 Y-1.554 Z-0.1427 I0.0362 J0.0634
X1.2511 Y-1.6807 Z-0.1831 I-0.0362 J-0.0634
X1.3603 Y-1.6173 Z-0.21 I0.0362 J0.0634
X1.2143 I-0.073 J0.
X1.3601 Y-1.6233 I0.073 J0.
G1 X1.3603 Y-1.6173
G3 X1.3739 Y-1.5791 I-0.0432 J0.0369 F60.
G1 X1.3722 Y-1.5705
X1.3649 Y-1.5343
G3 X1.1715 Y-1.5139 I-0.1029 J-0.0487
X1.1846 Y-1.5329 I0.0149 J-0.0037
G1 X1.1894 Y-1.5334
X1.3455 Y-1.5518
X1.3479 Y-1.5521 F50.
G3 X1.3649 Y-1.5343 I0.0018 J0.0153
X1.1674 Y-1.5236 I-0.0987 J0.0053 F60.
X1.1764 Y-1.5705 I0.0987 J-0.0053
G1 X1.1857 Y-1.6173
X1.195 Y-1.6642
X1.2027 Y-1.7004
G3 X1.4034 Y-1.7186 I0.1054 J0.0467
G1 X1.3915 Y-1.6642
X1.381 Y-1.6155
X1.3739 Y-1.5791
G3 X1.3634 Y-1.5679 I-0.015 J-0.0035
X1.3097 Y-1.6164 I-0.0123 J-0.0404
X1.3778 Y-1.7016 I0.1159 J0.0229
X1.3918 Y-1.7067 I0.0477 J0.1081 F50.
G2 X1.4023 Y-1.7179 I-0.0044 J-0.0147
G1 X1.4087 Y-1.7492 F60.
G2 X1.2298 Y-1.8367 I-0.1171 J0.0128
G1 X1.2049 Y-1.711
X1.2027 Y-1.7004
G2 X1.2152 Y-1.6826 I0.0151 J0.0026
X1.2359 Y-1.6917 I0.0035 J-0.0202
X1.2426 Y-1.8084 I-0.0991 J-0.0642
X1.2329 Y-1.8245 I-0.1058 J0.0525 F50.
G3 X1.2302 Y-1.836 I0.0125 J-0.0089
G1 X1.2334 Y-1.8514 F60.
X1.2353 Y-1.8612
G3 X1.4353 Y-1.8782 I0.1052 J0.0533
G2 X1.4087 Y-1.7492 I1.9543 J0.4712
G3 X1.3981 Y-1.738 I-0.0149 J-0.0036
X1.3829 Y-1.743 I-0.004 J-0.0135
X1.4101 Y-1.8613 I0.0625 J-0.0479
X1.4239 Y-1.8667 I0.0353 J0.0704 F50.
G2 X1.4346 Y-1.8777 I-0.0042 J-0.0148
G1 X1.4391 Y-1.8982 F60.
X1.4405 Y-1.9053
G2 X1.2618 Y-1.9941 I-0.1185 J0.0142
G1 X1.2525 Y-1.945
X1.2426 Y-1.8982
X1.2353 Y-1.8612
G2 X1.248 Y-1.8436 I0.0152 J0.0025
X1.2716 Y-1.8549 I0.0037 J-0.0226
X1.2747 Y-1.9656 I-0.1028 J-0.0582
X1.265 Y-1.9818 I-0.1058 J0.0525 F50.
G3 X1.2623 Y-1.9932 I0.0125 J-0.0089
G1 X1.2678 Y-2.0202 F60.
G3 X1.4673 Y-2.034 I0.1042 J0.0578
G1 X1.4405 Y-1.9053
G3 X1.43 Y-1.8941 I-0.0149 J-0.0036
X1.4165 Y-1.8981 I-0.0037 J-0.0123
X1.4422 Y-2.0167 I0.0619 J-0.0487
X1.4559 Y-2.0222 I0.0362 J0.0699 F50.
G2 X1.4665 Y-2.0334 I-0.0044 J-0.0147
G1 X1.4675 Y-2.0386 F60.
X1.4711 Y-2.0575
G2 X1.2935 Y-2.1499 I-0.1174 J0.0087
G1 X1.2903 Y-2.1322
X1.281 Y-2.0854
X1.2678 Y-2.0202
G2 X1.2732 Y-2.0058 I0.0152 J0.0025
X1.2846 Y-2.0046 I0.0066 J-0.008
G1 X1.2869 Y-2.0058
G2 X1.3095 Y-2.1243 I-0.0385 J-0.0687
X1.2991 Y-2.1348 I-0.061 J0.0497 F50.
G3 X1.2939 Y-2.1493 I0.0099 J-0.0118
G1 X1.2996 Y-2.1762 F60.
G3 X1.499 Y-2.189 I0.1039 J0.0581
G2 X1.4711 Y-2.0575 I3.0338 J0.7102
G3 X1.4527 Y-2.0459 I-0.015 J-0.0034
X1.435 Y-2.0659 I0.0051 J-0.0223
X1.476 Y-2.1679 I0.1175 J-0.0121
X1.4912 Y-2.1789 I0.0766 J0.0899 F50.
G2 X1.4982 Y-2.1884 I-0.008 J-0.0131
G1 X1.5034 Y-2.2134 F60.
G2 X1.328 Y-2.3066 I-0.1173 J0.0092
G1 X1.3192 Y-2.2727
X1.2998 Y-2.1775
X1.2996 Y-2.1762
G2 X1.3121 Y-2.1584 I0.0151 J0.0027
X1.3263 Y-2.1642 I0.0025 J-0.0141
X1.3388 Y-2.2778 I-0.0965 J-0.0681
X1.3302 Y-2.2945 I-0.109 J0.0454 F50.
G3 X1.3283 Y-2.3061 I0.0131 J-0.0081
G1 X1.3319 Y-2.3195 F60.
X1.3342 Y-2.3252
X1.3432 Y-2.3447
X1.3492 Y-2.3511
X1.3555 Y-2.357
X1.3622 Y-2.3626
X1.3693 Y-2.3676
X1.3767 Y-2.3722
X1.3844 Y-2.3762
X1.3923 Y-2.3797
X1.4005 Y-2.3826
X1.4089 Y-2.385
X1.4174 Y-2.3868
X1.426 Y-2.3881
X1.4347 Y-2.3887
X1.4434
X1.452 Y-2.3882
X1.4607 Y-2.387
X1.4692 Y-2.3853
X1.4776 Y-2.383
X1.4858 Y-2.3801
X1.4938 Y-2.3767
X1.5015 Y-2.3727
X1.5089 Y-2.3683
X1.5161 Y-2.3633
X1.5228 Y-2.3578
X1.5292 Y-2.3519
X1.5352 Y-2.3456
X1.5407 Y-2.3389
X1.5458 Y-2.3318
X1.5503 Y-2.3244
G2 X1.5034 Y-2.2134 I0.2116 J0.1549
G3 X1.4927 Y-2.2023 I-0.0149 J-0.0036
X1.4555 Y-2.2264 I-0.0082 J-0.0281
X1.5201 Y-2.3147 I0.078 J-0.0107
X1.5349 Y-2.3159 I0.0133 J0.0776 F50.
G2 X1.5484 Y-2.3233 I0.0003 J-0.0154
G1 X1.5589 Y-2.3422 F60.
G2 X1.4098 Y-2.4701 I-0.1143 J-0.0176
X1.3432 Y-2.3447 I2.179 J1.2376
X1.3514 Y-2.3245 I0.0141 J0.006
X1.3684 Y-2.3266 I0.0067 J-0.0157
X1.4136 Y-2.4399 I-0.0713 J-0.0941
X1.4091 Y-2.4582 I-0.1165 J0.0191 F50.
G3 X1.4099 Y-2.4699 I0.0146 J-0.0049
G1 X1.424 Y-2.4959 F60.
G3 X1.6216 Y-2.4542 I0.0851 J0.0857
G2 X1.5589 Y-2.3422 I11.6089 J6.5709
G3 X1.5454 Y-2.3348 I-0.0132 J-0.0079
X1.5292 Y-2.3476 I0.0003 J-0.0172
X1.5921 Y-2.4452 I0.0762 J-0.02
X1.6069 Y-2.4463 I0.0132 J0.0776 F50.
G2 X1.6203 Y-2.4537 I0.0003 J-0.0154
G1 X1.6238 Y-2.4599 F60.
X1.6322 Y-2.4755
G2 X1.4883 Y-2.6139 I-0.1153 J-0.0241
G3 X1.424 Y-2.4959 I-4.4135 J-2.3289
G2 X1.4309 Y-2.4753 I0.0138 J0.0069
X1.4541 Y-2.4785 I0.0093 J-0.0185
X1.4916 Y-2.5833 I-0.0793 J-0.0876
X1.4874 Y-2.6016 I-0.1168 J0.0172 F50.
G3 X1.4884 Y-2.6134 I0.0147 J-0.0046
G1 X1.5034 Y-2.6399 F60.
G3 X1.6979 Y-2.5911 I0.0807 J0.0904
G2 X1.6322 Y-2.4755 I2.0206 J1.2232
G3 X1.6189 Y-2.4679 I-0.0132 J-0.0078
X1.6074 Y-2.4758 I0.0001 J-0.0124
X1.6682 Y-2.5824 I0.0732 J-0.0289
X1.683 Y-2.5834 I0.0125 J0.0777 F50.
G2 X1.6965 Y-2.5906 I0.0005 J-0.0154
G1 X1.7021 Y-2.6003 F60.
X1.7091 Y-2.6138
G2 X1.5659 Y-2.7543 I-0.1164 J-0.0245
G3 X1.5034 Y-2.6399 I-3.636 J-1.9118
G2 X1.5041 Y-2.6245 I0.0136 J0.0071
X1.5184 Y-2.6187 I0.0113 J-0.0072
X1.5737 Y-2.725 I-0.0177 J-0.0767
X1.5669 Y-2.7381 I-0.073 J0.0295 F50.
G3 X1.5661 Y-2.7534 I0.0129 J-0.0083
G1 X1.5793 Y-2.7772 F60.
G3 X1.7736 Y-2.7308 I0.0822 J0.0862
G2 X1.7091 Y-2.6138 I7.0024 J3.9412
G3 X1.6809 Y-2.6176 I-0.0133 J-0.0077
X1.6826 Y-2.6507 I0.0525 J-0.014
X1.7456 Y-2.7172 I0.1105 J0.0416
X1.7634 Y-2.7234 I0.0475 J0.1081 F50.
G2 X1.7728 Y-2.7305 I-0.0039 J-0.0149
G1 X1.7783 Y-2.7407 F60.
X1.785 Y-2.7528
G2 X1.6425 Y-2.8933 I-0.1154 J-0.0255
G3 X1.5793 Y-2.7772 I-23.4972 J-12.7259
G2 X1.5801 Y-2.7618 I0.0137 J0.007
X1.5926 Y-2.7565 I0.0102 J-0.0066
X1.6506 Y-2.8641 I-0.0147 J-0.0774
X1.6436 Y-2.8772 I-0.0727 J0.0303 F50.
G3 X1.6427 Y-2.8925 I0.0128 J-0.0085
G1 X1.6555 Y-2.9162 F60.
G3 X1.8501 Y-2.8697 I0.0824 J0.0856
G1 X1.8298 Y-2.8344
X1.8028 Y-2.7847
X1.785 Y-2.7528
G3 X1.7716 Y-2.7454 I-0.0132 J-0.0079
X1.7622 Y-2.7517 I0.0002 J-0.0105
G1 X1.7611 Y-2.7544
G3 X1.821 Y-2.8608 I0.0733 J-0.0288
X1.8358 Y-2.8619 I0.0133 J0.0776 F50.
G2 X1.8493 Y-2.8694 I0.0003 J-0.0154
G1 X1.8558 Y-2.8812 F60.
X1.8636 Y-2.8955
X1.8647 Y-2.9039
X1.8652 Y-2.9123
Y-2.9207
X1.8645 Y-2.9291
X1.8633 Y-2.9374
X1.8615 Y-2.9456
X1.8591 Y-2.9536
X1.8561 Y-2.9615
X1.8527 Y-2.9692
X1.8487 Y-2.9766
X1.8441 Y-2.9837
X1.8392 Y-2.9904
X1.8337 Y-2.9968
X1.8278 Y-3.0028
X1.8215 Y-3.0084
X1.8149 Y-3.0135
X1.8079 Y-3.0182
X1.8006 Y-3.0223
X1.793 Y-3.026
X1.7852 Y-3.0291
X1.7772 Y-3.0316
X1.769 Y-3.0336
X1.7607 Y-3.035
X1.7523 Y-3.0358
X1.7439 Y-3.0361
X1.7355 Y-3.0357
X1.7272 Y-3.0348
X1.7189 Y-3.0333
G3 X1.6555 Y-2.9162 I-3.0011 J-1.5478
G2 X1.6742 Y-2.8947 I0.0138 J0.0069
X1.7006 Y-2.9139 I-0.0172 J-0.0515
X1.7225 Y-3.002 I-0.0948 J-0.0704
X1.7182 Y-3.0204 I-0.1168 J0.0178 F50.
G3 X1.7192 Y-3.0321 I0.0146 J-0.0047
G1 X1.7327 Y-3.0563 F60.
G3 X1.9269 Y-3.0096 I0.0818 J0.0871
G2 X1.8636 Y-2.8955 I6.2476 J3.5412
G3 X1.8503 Y-2.888 I-0.0132 J-0.0078
X1.8377 Y-2.897 I0.0001 J-0.0134
X1.8978 Y-3.0004 I0.0743 J-0.026
X1.9126 Y-3.0017 I0.0142 J0.0775 F50.
G2 X1.926 Y-3.0093 I0.0001 J-0.0154
G1 X1.9326 Y-3.0216 F60.
X1.9386 Y-3.0323
G2 X1.7961 Y-3.1721 I-0.1159 J-0.0244
X1.7327 Y-3.0563 I9.1049 J5.0584
X1.7334 Y-3.041 I0.0137 J0.007
X1.745 Y-3.036 I0.0095 J-0.0061
G1 X1.7465 Y-3.0363
G2 X1.8038 Y-3.1427 I-0.0158 J-0.0771
X1.797 Y-3.1559 I-0.0731 J0.0293 F50.
G3 X1.7962 Y-3.1713 I0.0129 J-0.0083
G1 X1.8028 Y-3.183 F60.
X1.81 Y-3.1959
G3 X2.0037 Y-3.1482 I0.0812 J0.0876
G1 X1.9386 Y-3.0323
G3 X1.9105 Y-3.0365 I-0.0132 J-0.0079
X1.9114 Y-3.0633 I0.047 J-0.0117
X1.9757 Y-3.1344 I0.1122 J0.0368
X1.9934 Y-3.1407 I0.048 J0.1079 F50.
G2 X2.0028 Y-3.1478 I-0.0039 J-0.0149
G1 X2.0104 Y-3.162 F60.
X2.0152 Y-3.1706
G2 X1.8727 Y-3.3111 I-0.1157 J-0.0252
G1 X1.81 Y-3.1959
G2 X1.8108 Y-3.1806 I0.0137 J0.007
X1.8251 Y-3.1747 I0.0114 J-0.0074
X1.8808 Y-3.2819 I-0.017 J-0.0769
X1.8738 Y-3.295 I-0.0727 J0.0303 F50.
G3 X1.8729 Y-3.3103 I0.0128 J-0.0085
G1 X1.8869 Y-3.336 F60.
G3 X2.0806 Y-3.2875 I0.0806 J0.0892
G1 X2.0618 Y-3.2556
X2.0365 Y-3.2088
X2.0152 Y-3.1706
G3 X2.0017 Y-3.1632 I-0.0131 J-0.008
X1.9922 Y-3.1696 I0.0002 J-0.0106
G1 X1.9912 Y-3.1721
G3 X2.0512 Y-3.2786 I0.0732 J-0.0289
X2.066 Y-3.2797 I0.0132 J0.0776 F50.
G2 X2.0794 Y-3.2871 I0.0003 J-0.0154
G1 X2.084 Y-3.2953 F60.
X2.0879 Y-3.3024
X2.0926 Y-3.311
G2 X1.9491 Y-3.4507 I-0.117 J-0.0233
G3 X1.8869 Y-3.336 I-3.2321 J-1.6795
G2 X1.8878 Y-3.3207 I0.0138 J0.0069
X1.9006 Y-3.315 I0.0109 J-0.0072
G1 X1.9016 Y-3.3152
G2 X1.9569 Y-3.4213 I-0.0178 J-0.0767
X1.95 Y-3.4345 I-0.073 J0.0294 F50.
G3 X1.9493 Y-3.4498 I0.0129 J-0.0083
G1 X1.9625 Y-3.4735 F60.
G3 X2.1569 Y-3.4271 I0.0821 J0.0862
G2 X2.0926 Y-3.311 I5.2487 J2.9839
G3 X2.0792 Y-3.3034 I-0.0133 J-0.0078
X2.0697 Y-3.3098 I0.0001 J-0.0104
G1 X2.0687 Y-3.3123
G3 X2.1279 Y-3.4178 I0.0736 J-0.0281
X2.1427 Y-3.4191 I0.0144 J0.0774 F50.
G2 X2.156 Y-3.4267 I0.0001 J-0.0154
G1 X2.1647 Y-3.4429 F60.
X2.1683 Y-3.4493
G2 X2.0263 Y-3.5897 I-0.1154 J-0.0253
X1.9625 Y-3.4735 I6.24 J3.5018
X1.9809 Y-3.4518 I0.0137 J0.007
X2.0029 Y-3.4666 I-0.0146 J-0.0455
X2.0294 Y-3.5589 I-0.0904 J-0.076
X2.0253 Y-3.5773 I-0.117 J0.0163 F50.
G3 X2.0265 Y-3.589 I0.0147 J-0.0045
G1 X2.0407 Y-3.6138 F60.
G3 X2.234 Y-3.5654 I0.0807 J0.0883
G2 X2.1683 Y-3.4493 I13.0852 J7.4849
G3 X2.1472 Y-3.4441 I-0.0132 J-0.0079
X2.1384 Y-3.4633 I0.0097 J-0.0161
X2.2061 Y-3.5515 I0.1165 J0.0193
X2.2238 Y-3.5579 I0.0488 J0.1076 F50.
G2 X2.2331 Y-3.5651 I-0.004 J-0.0148
G1 X2.2426 Y-3.5833 F60.
X2.2453 Y-3.588
G2 X2.1032 Y-3.7285 I-0.1154 J-0.0253
X2.0407 Y-3.6138 I4.7484 J2.6637
X2.0413 Y-3.5984 I0.0136 J0.0071
X2.0559 Y-3.5923 I0.0116 J-0.0073
X2.1112 Y-3.6993 I-0.0174 J-0.0768
X2.1043 Y-3.7124 I-0.0727 J0.0301 F50.
G3 X2.1034 Y-3.7277 I0.0128 J-0.0084
G1 X2.1154 Y-3.7496 F60.
G3 X2.3091 Y-3.7068 I0.0833 J0.0827
G1 X2.3076 Y-3.7043
X2.3056 Y-3.7022
X2.3033 Y-3.7005
X2.3007 Y-3.6993
X2.298 Y-3.6985
X2.2952 Y-3.6983
X2.2923 Y-3.6985
X2.281 Y-3.7005
X2.1288 Y-3.7272
X2.1265 Y-3.7276 F50.
G3 X2.1154 Y-3.7496 I0.0027 J-0.0151
X2.2141 Y-3.8423 I0.1225 J0.0316 F60.
X2.2935 Y-3.6778 I0.01 J0.0967
G1 X2.2692 Y-3.6301
X2.2453 Y-3.588
X2.2513 Y-3.5805
X2.2569 Y-3.5727
X2.2619 Y-3.5646
X2.2664 Y-3.5561
X2.2704 Y-3.5474
X2.2738 Y-3.5384
X2.2767 Y-3.5293
X2.2789 Y-3.5199
X2.2806 Y-3.5105
X2.2817 Y-3.501
X2.2822 Y-3.4914
X2.282 Y-3.4818
X2.2813 Y-3.4723
X2.28 Y-3.4628
X2.2781 Y-3.4534
X2.2756 Y-3.4441
X2.2725 Y-3.435
X2.2689 Y-3.4262
X2.2647 Y-3.4175
X2.26 Y-3.4092
X2.2548 Y-3.4012
X2.249 Y-3.3935
X2.2429 Y-3.3862
X2.2362 Y-3.3793
X2.2292 Y-3.3728
X2.1279 Y-3.1806
X2.0261 Y-2.9887
X1.9239 Y-2.7971
X1.8212 Y-2.6056
X1.718 Y-2.4145
X1.6143 Y-2.2236
G2 X1.521 Y-1.8003 I4.993 J1.3227
G3 X1.4218 Y-1.4197 I-1.2642 J-0.1262
G1 X1.4151 Y-1.4112
X1.4078 Y-1.403
X1.4001 Y-1.3952
X1.392 Y-1.3879
X1.3835 Y-1.3811
X1.3746 Y-1.3748
X1.3653 Y-1.369
X1.3558 Y-1.3637
X1.3459 Y-1.3589
X1.3358 Y-1.3548
X1.3255 Y-1.3512
X1.315 Y-1.3482
X1.3044 Y-1.3458
X1.2936 Y-1.3441
X1.2827 Y-1.3429
X1.2718 Y-1.3423
X1.2609 Y-1.3424
X1.25 Y-1.3431
X1.2392 Y-1.3444
X1.2284 Y-1.3464
X1.2178 Y-1.3489
X1.2073 Y-1.3521
X1.1971 Y-1.3558
X1.187 Y-1.3601
X1.1772 Y-1.365
X1.1678 Y-1.3704
X1.1586 Y-1.3763
X1.1498 Y-1.3828
X1.1414 Y-1.3897
X1.1334 Y-1.3971
X1.1258 Y-1.405
X1.1186 Y-1.4133
X1.112 Y-1.422
X1.1059 Y-1.431
X1.1003 Y-1.4404
X1.0952 Y-1.45
X1.0907 Y-1.46
X1.0867 Y-1.4702
X1.0834 Y-1.4805
X1.0806 Y-1.4911
X1.0784 Y-1.5018
X1.0769 Y-1.5126
X1.076 Y-1.5235
X1.0757 Y-1.5344
X1.076 Y-1.5453
X1.0769 Y-1.5562
X1.0785 Y-1.567
X1.0806 Y-1.5777
X1.0834 Y-1.5883
X1.0868 Y-1.5987
X1.0907 Y-1.6089
X1.0952 Y-1.6188
G3 X1.2709 Y-2.4367 I4.6473 J0.5705
G2 X1.3662 Y-2.5981 I-1.1596 J-0.7929
G1 X1.506 Y-2.8533
X1.6464 Y-3.1082
X1.7874 Y-3.3628
X1.9288 Y-3.6171
X2.0708 Y-3.8711
X2.0785 Y-3.879
X2.0866 Y-3.8865
X2.0951 Y-3.8935
X2.104 Y-3.9
X2.1133 Y-3.906
X2.1228 Y-3.9115
X2.1327 Y-3.9164
X2.1429 Y-3.9208
X2.1532 Y-3.9245
X2.1638 Y-3.9277
X2.1745 Y-3.9303
X2.1854 Y-3.9322
X2.1963 Y-3.9336
X2.2073 Y-3.9343
X2.2184 Y-3.9344
X2.2294 Y-3.9338
X2.2404 Y-3.9327
X2.2512 Y-3.9309
X2.262 Y-3.9285
X2.2726 Y-3.9255
X2.2831 Y-3.9219
X2.2933 Y-3.9177
X2.3032 Y-3.913
X2.3129 Y-3.9076
X2.3223 Y-3.9018
X2.3313 Y-3.8954
X2.3399 Y-3.8885
X2.3481 Y-3.8812
X2.3559 Y-3.8734
X2.3633 Y-3.8652
X2.3701 Y-3.8565
X2.3765 Y-3.8475
X2.3823 Y-3.8382
X2.3876 Y-3.8285
X2.3924 Y-3.8185
X2.3966 Y-3.8083
X2.4001 Y-3.7979
X2.4031 Y-3.7873
X2.4055 Y-3.7765
X2.4073 Y-3.7656
X2.4084 Y-3.7546
X2.409 Y-3.7436
X2.4089 Y-3.7326
X2.4081 Y-3.7216
X2.4068 Y-3.7106
X2.4048 Y-3.6998
X2.4023 Y-3.689
X2.3991 Y-3.6785
G2 X2.3749 Y-3.4838 I0.89 J0.2092
G1 X2.3747 Y-3.483
X2.3744 Y-3.4822
X2.259 Y-3.2107
X2.1477 Y-3.0034
X2.0367 Y-2.796
X1.9262 Y-2.5884
X1.816 Y-2.3806
X1.7063 Y-2.1725
G2 X1.5895 Y-1.6345 I8.4199 J2.1096
G1 X1.481 Y-1.3801
X1.4746 Y-1.3692
X1.4677 Y-1.3586
X1.4603 Y-1.3483
X1.4524 Y-1.3384
X1.444 Y-1.329
X1.4352 Y-1.3199
X1.4259 Y-1.3113
X1.4163 Y-1.3031
X1.4062 Y-1.2954
X1.3958 Y-1.2883
X1.385 Y-1.2816
X1.3739 Y-1.2755
X1.3626 Y-1.27
X1.3509 Y-1.265
X1.3391 Y-1.2605
X1.327 Y-1.2567
X1.3148 Y-1.2535
X1.3024 Y-1.2508
X1.2899 Y-1.2488
X1.2773 Y-1.2474
X1.2647 Y-1.2466
X1.252 Y-1.2464
X1.2394 Y-1.2469
X1.2268 Y-1.248
X1.2143 Y-1.2496
X1.2018 Y-1.2519
X1.1895 Y-1.2549
X1.1773 Y-1.2584
X1.1654 Y-1.2625
X1.1536 Y-1.2671
X1.1421 Y-1.2724
X1.1309 Y-1.2782
X1.1199 Y-1.2846
X1.1093 Y-1.2914
X1.099 Y-1.2988
X1.0891 Y-1.3067
X1.0796 Y-1.3151
X1.0706 Y-1.3239
X1.0619 Y-1.3332
X1.0538 Y-1.3428
X1.0461 Y-1.3529
X1.0389 Y-1.3633
X1.0323 Y-1.3741
X1.0261 Y-1.3851
X1.0206 Y-1.3965
X1.0156 Y-1.4081
X1.0111 Y-1.42
X1.0093 Y-1.6849
G3 X1.2337 Y-2.5812 I2.7167 J0.2037
G2 X1.7178 Y-3.4429 I-30.4266 J-17.6609
G1 X2.0716 Y-3.9549
X2.0811 Y-3.9632
X2.091 Y-3.971
X2.1012 Y-3.9783
X2.1119 Y-3.9851
X2.1228 Y-3.9914
X2.134 Y-3.9971
X2.1456 Y-4.0023
X2.1573 Y-4.0068
X2.1693 Y-4.0108
X2.1814 Y-4.0142
X2.1937 Y-4.017
X2.2061 Y-4.0191
X2.2187 Y-4.0207
X2.2312 Y-4.0216
X2.2438 Y-4.0219
X2.2564 Y-4.0215
X2.269 Y-4.0206
X2.2815 Y-4.019
X2.2939 Y-4.0168
X2.3062 Y-4.014
X2.3184 Y-4.0106
X2.3303 Y-4.0066
X2.3421 Y-4.002
X2.3536 Y-3.9968
X2.3648 Y-3.991
X2.3757 Y-3.9847
X2.3863 Y-3.9779
X2.3965 Y-3.9706
X2.4064 Y-3.9627
X2.4159 Y-3.9544
X2.4249 Y-3.9456
X2.4335 Y-3.9364
X2.4416 Y-3.9267
X2.4493 Y-3.9167
X2.4564 Y-3.9063
X2.463 Y-3.8956
X2.4691 Y-3.8845
X2.4746 Y-3.8732
X2.4795 Y-3.8616
X2.4839 Y-3.8497
X2.4876 Y-3.8377
X2.4908 Y-3.8255
X2.4934 Y-3.8132
X2.4953 Y-3.8007
X2.4966 Y-3.7882
X2.4973 Y-3.7756
X2.3777 Y-3.4898
G3 X2.3651 Y-3.481 I-0.0139 J-0.0065
X2.315 Y-3.5152 I-0.0042 J-0.0477
X2.4718 Y-3.765 I0.1888 J-0.0555
G1 X2.4865 Y-3.7668 F50.
G2 X2.4991 Y-3.7756 I-0.0013 J-0.0153
G1 X2.5301 Y-3.8485 F60.
G2 X2.2191 Y-4.1113 I-0.257 J-0.0113
X2.181 Y-4.1131 I-0.0199 J0.0164
G1 X2.0716 Y-3.9549
G2 X2.0709 Y-3.9396 I0.0129 J0.0083
X2.0955 Y-3.9273 I0.0207 J-0.0107
X2.1862 Y-4.0842 I-0.0202 J-0.1164
X2.1803 Y-4.0978 I-0.1109 J0.0405 F50.
G3 X2.181 Y-4.1131 I0.0137 J-0.007
G1 X2.2084 Y-4.1527 F60.
G3 X2.5453 Y-4.0714 I0.1309 J0.196
X2.5968 Y-4.0055 I-0.0146 J0.0645
G1 X2.5301 Y-3.8485
G3 X2.5175 Y-3.8397 I-0.0139 J-0.0065
X2.4765 Y-3.8764 I-0.0033 J-0.0376
X2.5696 Y-3.9945 I0.1181 J-0.0026
X2.5842 Y-3.9967 I0.025 J0.1154 F50.
G2 X2.5968 Y-4.0055 I-0.0013 J-0.0153
G1 X2.6139 Y-4.0457 F60.
G2 X2.3658 Y-4.2783 I-0.2338 J0.0006
X2.3005 Y-4.2859 I-0.0361 J0.0259
G1 X2.2084 Y-4.1527
G2 X2.2077 Y-4.1374 I0.0129 J0.0083
X2.2689 Y-4.1245 I0.0359 J-0.0185
X2.3058 Y-4.257 I-0.074 J-0.092
X2.2998 Y-4.2706 I-0.1109 J0.0405 F50.
G3 X2.3005 Y-4.2859 I0.0137 J-0.007
G1 X2.3239 Y-4.3197 F60.
X2.334 Y-4.3256
X2.3445 Y-4.331
X2.3551 Y-4.3358
X2.3661 Y-4.34
X2.3772 Y-4.3437
X2.3885 Y-4.3468
X2.3999 Y-4.3493
X2.4115 Y-4.3512
X2.4231 Y-4.3525
X2.4348 Y-4.3532
X2.4465 Y-4.3533
X2.4582 Y-4.3528
X2.4699 Y-4.3517
X2.4815 Y-4.35
X2.4929 Y-4.3477
X2.5043 Y-4.3448
X2.5155 Y-4.3413
X2.5264 Y-4.3372
X2.5372 Y-4.3326
X2.5477 Y-4.3274
X2.5579 Y-4.3217
X2.5678 Y-4.3155
X2.5774 Y-4.3087
X2.5866 Y-4.3015
X2.5955 Y-4.2938
X2.6039 Y-4.2857
X2.6119 Y-4.2771
X2.6194 Y-4.2681
X2.6264 Y-4.2588
X2.633 Y-4.2491
X2.6391 Y-4.2391
X2.6446 Y-4.2287
G3 X2.6756 Y-4.191 I-0.0001 J0.0317
G1 X2.6168 Y-4.0524
G3 X2.6042 Y-4.0436 I-0.0139 J-0.0065
X2.56 Y-4.0973 I-0.0037 J-0.042
X2.6484 Y-4.1799 I0.1135 J0.0328
X2.6631 Y-4.1821 I0.025 J0.1154 F50.
G2 X2.6756 Y-4.191 I-0.0013 J-0.0153
G1 X2.692 Y-4.2294 F60.
G2 X2.4181 Y-4.4462 I-0.2322 J0.012
G1 X2.4144 Y-4.4496
X2.4121 Y-4.4473
X2.3239 Y-4.3197
G2 X2.3232 Y-4.3044 I0.0129 J0.0083
X2.3895 Y-4.2939 I0.037 J-0.0191
X2.4174 Y-4.4183 I-0.0831 J-0.0839
X2.4114 Y-4.4319 I-0.1109 J0.0405 F50.
G3 X2.4121 Y-4.4473 I0.0137 J-0.007
G1 X2.4351 Y-4.4805 F60.
G3 X2.7492 Y-4.3719 I0.1106 J0.1885
G1 X2.7517 Y-4.3698
X2.692 Y-4.2294
G3 X2.6794 Y-4.2206 I-0.0139 J-0.0065
X2.6351 Y-4.2729 I-0.0037 J-0.0418
X2.7244 Y-4.3588 I0.1144 J0.0295
X2.7391 Y-4.361 I0.025 J0.1154 F50.
G2 X2.7517 Y-4.3698 I-0.0013 J-0.0153
G1 X2.7662 Y-4.404 F60.
G2 X2.5241 Y-4.6045 I-0.2026 J-0.0018
G1 X2.5212 Y-4.605
X2.4351 Y-4.4805
G2 X2.4344 Y-4.4652 I0.0129 J0.0083
X2.503 Y-4.4562 I0.0374 J-0.0193
X2.5264 Y-4.5761 I-0.0875 J-0.0793
X2.5205 Y-4.5897 I-0.1109 J0.0405 F50.
G3 X2.5212 Y-4.605 I0.0137 J-0.007
G1 X2.5401 Y-4.6323 F60.
X2.549 Y-4.6383
X2.5582 Y-4.6438
X2.5677 Y-4.6488
X2.5775 Y-4.6532
X2.5875 Y-4.657
X2.5977 Y-4.6603
X2.608 Y-4.6629
X2.6185 Y-4.665
X2.6291 Y-4.6665
X2.6398 Y-4.6673
X2.6505 Y-4.6676
X2.6612 Y-4.6672
X2.6719 Y-4.6662
X2.6825 Y-4.6646
X2.693 Y-4.6625
X2.7033 Y-4.6597
X2.7135 Y-4.6563
X2.7234 Y-4.6523
X2.7332 Y-4.6478
X2.7426 Y-4.6428
X2.7517 Y-4.6372
X2.7605 Y-4.6311
X2.769 Y-4.6245
X2.777 Y-4.6174
X2.7846 Y-4.6099
X2.7918 Y-4.6019
X2.7985 Y-4.5936
X2.8048 Y-4.5849
X2.8105 Y-4.5758
X2.8157 Y-4.5665
X2.8203 Y-4.5568
X2.8244 Y-4.5469
X2.826 Y-4.5447
X2.7662 Y-4.404
G3 X2.7536 Y-4.3952 I-0.0139 J-0.0065
X2.7093 Y-4.4473 I-0.0037 J-0.0418
X2.7988 Y-4.5337 I0.1145 J0.029
X2.8134 Y-4.5359 I0.025 J0.1154 F50.
G2 X2.826 Y-4.5447 I-0.0013 J-0.0153
G1 X2.8407 Y-4.5794 F60.
X2.8408 Y-4.5897
X2.8402 Y-4.6
X2.839 Y-4.6103
X2.8372 Y-4.6205
X2.8349 Y-4.6305
X2.8319 Y-4.6404
X2.8284 Y-4.6501
X2.8244 Y-4.6596
X2.8197 Y-4.6689
X2.8146 Y-4.6778
X2.8089 Y-4.6865
X2.8028 Y-4.6948
X2.7962 Y-4.7027
X2.7891 Y-4.7102
X2.7816 Y-4.7173
X2.7737 Y-4.724
X2.7655 Y-4.7302
X2.7569 Y-4.7359
X2.7479 Y-4.7411
X2.7387 Y-4.7457
X2.7293 Y-4.7499
X2.7196 Y-4.7534
X2.7097 Y-4.7564
X2.6997 Y-4.7588
X2.6895 Y-4.7607
X2.6792 Y-4.7619
X2.6689 Y-4.7625
X2.6586 Y-4.7626
X2.6483 Y-4.762
X2.638 Y-4.7609
X2.6279 Y-4.7591
X2.5401 Y-4.6323
G2 X2.5394 Y-4.617 I0.0129 J0.0083
X2.6063 Y-4.6068 I0.0371 J-0.0191
X2.6331 Y-4.7303 I-0.0841 J-0.0829
X2.6271 Y-4.7438 I-0.1109 J0.0405 F50.
G3 X2.6279 Y-4.7592 I0.0137 J-0.007
G1 X2.6494 Y-4.7904 F60.
G3 X2.8985 Y-4.7152 I0.0929 J0.1423
G1 X2.8407 Y-4.5794
G3 X2.8282 Y-4.5706 I-0.0139 J-0.0065
X2.7843 Y-4.6263 I-0.0037 J-0.0422
X2.8712 Y-4.7042 I0.112 J0.0376
X2.8859 Y-4.7064 I0.025 J0.1154 F50.
G2 X2.8985 Y-4.7152 I-0.0013 J-0.0153
G1 X2.9108 Y-4.7442 F60.
G2 X2.7318 Y-4.9094 I-0.1543 J-0.0124
G1 X2.6494 Y-4.7904
G2 X2.6541 Y-4.7692 I0.0129 J0.0083
X2.6701 Y-4.7685 I0.0085 J-0.0133
X2.7322 Y-4.8792 I-0.0558 J-0.1041
X2.7297 Y-4.8979 I-0.1179 J0.0066 F50.
G3 X2.7318 Y-4.9094 I0.015 J-0.0033
G1 X2.751 Y-4.9372 F60.
X2.7585 Y-4.9426
X2.7664 Y-4.9474
X2.7746 Y-4.9518
X2.7831 Y-4.9556
X2.7918 Y-4.9588
X2.8007 Y-4.9615
X2.8097 Y-4.9636
X2.8189 Y-4.9651
X2.8281 Y-4.966
X2.8374 Y-4.9663
X2.8466 Y-4.9659
X2.8559 Y-4.965
X2.865 Y-4.9635
X2.8741 Y-4.9614
X2.8829 Y-4.9587
X2.8916 Y-4.9554
X2.9001 Y-4.9516
X2.9083 Y-4.9472
X2.9161 Y-4.9423
X2.9237 Y-4.9369
X2.9309 Y-4.931
X2.9376 Y-4.9247
X2.944 Y-4.9179
X2.9499 Y-4.9108
X2.9553 Y-4.9032
X2.9602 Y-4.8954
X2.9646 Y-4.8872
X2.9685 Y-4.8788
X2.9108 Y-4.7442
G3 X2.8982 Y-4.7354 I-0.0139 J-0.0065
X2.8545 Y-4.7921 I-0.0037 J-0.0423
X2.9406 Y-4.8675 I0.1111 J0.04
X2.9553 Y-4.8697 I0.025 J0.1154 F50.
G2 X2.9679 Y-4.8785 I-0.0013 J-0.0153
G1 X2.9808 Y-4.909 F60.
X2.9814 Y-4.9178
Y-4.9267
X2.9808 Y-4.9356
X2.9796 Y-4.9444
X2.9778 Y-4.9531
X2.9755 Y-4.9617
X2.9725 Y-4.9701
X2.969 Y-4.9783
X2.965 Y-4.9862
X2.9604 Y-4.9939
X2.9554 Y-5.0012
X2.9498 Y-5.0081
X2.9438 Y-5.0147
X2.9374 Y-5.0208
X2.9305 Y-5.0265
X2.9233 Y-5.0317
X2.9158 Y-5.0365
X2.908 Y-5.0407
X2.8999 Y-5.0443
X2.8915 Y-5.0475
X2.883 Y-5.05
X2.8743 Y-5.052
X2.8656 Y-5.0534
X2.8567 Y-5.0541
X2.8478 Y-5.0543
X2.8389 Y-5.0539
X2.8301 Y-5.0529
X2.751 Y-4.9372
G2 X2.7556 Y-4.9159 I0.0129 J0.0083
X2.7772 Y-4.916 I0.0107 J-0.0167
X2.8307 Y-5.0216 I-0.0644 J-0.099
X2.8282 Y-5.0403 I-0.1179 J0.0066 F50.
G3 X2.8303 Y-5.0518 I0.015 J-0.0033
G1 X2.847 Y-5.076 F60.
X2.8537 Y-5.0814
X2.8608 Y-5.0862
X2.8682 Y-5.0905
X2.8759 Y-5.0943
X2.8839 Y-5.0975
X2.892 Y-5.1001
X2.9003 Y-5.1022
X2.9088 Y-5.1036
X2.9173 Y-5.1045
X2.9259 Y-5.1048
X2.9344 Y-5.1044
X2.943 Y-5.1035
X2.9514 Y-5.1019
X2.9597 Y-5.0997
X2.9678 Y-5.097
X2.9757 Y-5.0937
X2.9834 Y-5.0898
X2.9907 Y-5.0854
X2.9978 Y-5.0805
X3.0044 Y-5.0751
X3.0107 Y-5.0693
X3.0165 Y-5.063
X3.0219 Y-5.0563
X3.0268 Y-5.0493
X3.0311 Y-5.0419
X3.035 Y-5.0343
X2.9808 Y-4.909
G3 X2.9524 Y-4.9102 I-0.0139 J-0.0065
X2.9506 Y-4.9421 I0.0523 J-0.019
X3.008 Y-5.018 I0.1149 J0.0273
X3.0252 Y-5.0258 I0.0575 J0.1032 F50.
G2 X3.0338 Y-5.0337 I-0.0053 J-0.0144
G1 X3.0452 Y-5.0604 F60.
X3.046 Y-5.0685
X3.0463 Y-5.0766
X3.046 Y-5.0847
X3.0451 Y-5.0928
X3.0436 Y-5.1008
X3.0415 Y-5.1087
X3.0389 Y-5.1164
X3.0357 Y-5.1239
X3.032 Y-5.1311
X3.0277 Y-5.138
X3.023 Y-5.1447
X3.0178 Y-5.1509
X3.0122 Y-5.1568
X3.0061 Y-5.1622
X2.9997 Y-5.1672
X2.9929 Y-5.1717
X2.9858 Y-5.1757
X2.9785 Y-5.1792
X2.9709 Y-5.1821
X2.9631 Y-5.1845
X2.9552 Y-5.1863
X2.9471 Y-5.1875
X2.939 Y-5.1881
X2.9309 Y-5.1882
X2.9228 Y-5.1876
X2.847 Y-5.076
G2 X2.8632 Y-5.0527 I0.0129 J0.0083
X2.8939 Y-5.0707 I-0.0122 J-0.056
X2.9234 Y-5.1556 I-0.0884 J-0.0783
X2.9209 Y-5.1743 I-0.1179 J0.0066 F50.
G3 X2.9229 Y-5.1858 I0.015 J-0.0033
G1 X2.9384 Y-5.2082 F60.
G3 X3.0967 Y-5.1787 I0.0677 J0.0763
G1 X3.0452 Y-5.0604
G3 X3.0326 Y-5.0516 I-0.0139 J-0.0065
X3.0163 Y-5.0616 I-0.0014 J-0.016
X3.068 Y-5.1664 I0.0732 J-0.029
X3.0825 Y-5.1691 I0.0215 J0.0758 F50.
G2 X3.0951 Y-5.1779 I-0.0013 J-0.0153
G1 X3.1049 Y-5.201 F60.
G2 X3.0078 Y-5.3109 I-0.0913 J-0.0172
G1 X2.9384 Y-5.2082
G2 X2.9376 Y-5.1928 I0.0129 J0.0083
X2.9625 Y-5.1828 I0.0183 J-0.0094
X3.0127 Y-5.2797 I-0.0253 J-0.0746
X3.0072 Y-5.2934 I-0.0755 J0.0223 F50.
G3 X3.0079 Y-5.3087 I0.0137 J-0.007
G1 X3.0209 Y-5.3275 F60.
G3 X3.1529 Y-5.3099 I0.0591 J0.0601
G1 X3.1049 Y-5.201
G3 X3.0924 Y-5.1922 I-0.0139 J-0.0065
X3.0667 Y-5.2134 I-0.0021 J-0.0236
X3.1235 Y-5.2972 I0.0783 J-0.008
X3.1381 Y-5.2999 I0.0215 J0.0758 F50.
G2 X3.1507 Y-5.3087 I-0.0013 J-0.0153
G1 X3.1599 Y-5.3303 F60.
G2 X3.0842 Y-5.4218 I-0.075 J-0.0151
G1 X3.0209 Y-5.3275
G2 X3.0202 Y-5.3122 I0.0129 J0.0083
X3.0579 Y-5.3026 I0.0231 J-0.0119
X3.0891 Y-5.39 I-0.0443 J-0.0651
X3.0835 Y-5.4037 I-0.0755 J0.0223 F50.
G3 X3.0843 Y-5.4191 I0.0137 J-0.007
G1 X3.0956 Y-5.4354 F60.
G3 X3.2024 Y-5.4261 I0.0497 J0.0471
G1 X3.1599 Y-5.3303
G3 X3.1473 Y-5.3214 I-0.0139 J-0.0065
X3.1177 Y-5.3559 I-0.0024 J-0.0278
X3.1727 Y-5.4129 I0.0765 J0.0187
X3.1873 Y-5.4156 I0.0215 J0.0758 F50.
G2 X3.1999 Y-5.4244 I-0.0013 J-0.0153
G1 X3.2076 Y-5.4425 F60.
G2 X3.1508 Y-5.5182 I-0.059 J-0.0149
G1 X3.0956 Y-5.4354
G2 X3.0948 Y-5.4201 I0.0129 J0.0083
X3.1425 Y-5.4159 I0.0252 J-0.013
X3.1555 Y-5.486 I-0.0625 J-0.0478
X3.1499 Y-5.4998 I-0.0755 J0.0223 F50.
G3 X3.1507 Y-5.5151 I0.0137 J-0.007
G1 X3.1604 Y-5.5292 F60.
G3 X3.2447 Y-5.5253 I0.0406 J0.0351
G1 X3.2076 Y-5.4425
G3 X3.195 Y-5.4337 I-0.0139 J-0.0065
X3.1683 Y-5.4759 I-0.0025 J-0.028
X3.2148 Y-5.5118 I0.0679 J0.0398
X3.2293 Y-5.5145 I0.0215 J0.0758 F50.
G2 X3.2419 Y-5.5233 I-0.0013 J-0.0153
G1 X3.2486 Y-5.539 F60.
X3.2499 Y-5.5441
X3.2506 Y-5.5494
X3.2507 Y-5.5547
X3.2502 Y-5.5599
X3.2491 Y-5.5651
X3.2475 Y-5.5701
X3.2452 Y-5.5749
X3.2424 Y-5.5794
X3.2392 Y-5.5836
X3.2355 Y-5.5874
X3.2313 Y-5.5907
X3.2269 Y-5.5935
X3.2221 Y-5.5958
X3.2171 Y-5.5975
X3.2119 Y-5.5987
X3.2067 Y-5.5992
X3.1604 Y-5.5292
G2 X3.1597 Y-5.5139 I0.0129 J0.0083
X3.2095 Y-5.5168 I0.0243 J-0.0125
X3.2113 Y-5.5667 I-0.0737 J-0.0276
X3.2058 Y-5.5805 I-0.0755 J0.0223 F50.
G3 X3.2065 Y-5.5958 I0.0137 J-0.007
G1 X3.2148 Y-5.6078 F60.
G3 X3.2766 Y-5.6049 I0.0301 J0.019
G1 X3.2486 Y-5.539
G3 X3.236 Y-5.5302 I-0.0139 J-0.0065
X3.2159 Y-5.574 I-0.0022 J-0.0255
X3.2495 Y-5.5934 I0.0551 J0.0563
X3.264 Y-5.5961 I0.0215 J0.0758 F50.
G2 X3.2766 Y-5.6049 I-0.0013 J-0.0153
G1 X3.2821 Y-5.6178 F60.
X3.2836 Y-5.622
X3.2846 Y-5.6263
X3.285 Y-5.6306
X3.2848 Y-5.635
X3.284 Y-5.6394
X3.2826 Y-5.6436
X3.2807 Y-5.6475
X3.2783 Y-5.6512
X3.2754 Y-5.6546
X3.2721 Y-5.6575
X3.2685 Y-5.6599
X3.2645 Y-5.6619
X3.2604 Y-5.6633
X3.256 Y-5.6641
X3.2516 Y-5.6644
X3.2148 Y-5.6078
G2 X3.2194 Y-5.5866 I0.0129 J0.0083
X3.2395 Y-5.5911 I0.0078 J-0.0122
X3.2514 Y-5.6308 I-0.0668 J-0.0416
X3.2496 Y-5.6496 I-0.0787 J-0.0019 F50.
G3 X3.2517 Y-5.6611 I0.015 J-0.0033
G1 X3.2591 Y-5.6719 F60.
G3 X3.3042 Y-5.6697 I0.0221 J0.0088
G1 X3.2821 Y-5.6178
G3 X3.2695 Y-5.609 I-0.0139 J-0.0065
X3.2557 Y-5.6217 I-0.0011 J-0.0127
X3.2774 Y-5.6569 I0.0394 J0.
X3.2916 Y-5.6609 I0.0176 J0.0352 F50.
G2 X3.3042 Y-5.6697 I-0.0013 J-0.0153
G1 X3.3091 Y-5.6815 F60.
X3.3112 Y-5.6871
X3.3115 Y-5.6931
X3.3105 Y-5.699
X3.3084 Y-5.7046
X3.3054 Y-5.7098
X3.3032 Y-5.7126
X3.2995 Y-5.7155
X3.2949 Y-5.7164
X3.2904 Y-5.7152
X3.2869 Y-5.712
X3.2591 Y-5.6719
G2 X3.2584 Y-5.6566 I0.0129 J0.0083
X3.2821 Y-5.6543 I0.0126 J-0.0065
X3.2903 Y-5.6825 I-0.0309 J-0.0243
X3.2861 Y-5.6967 I-0.0392 J0.0039 F50.
G3 X3.2869 Y-5.712 I0.0137 J-0.007
G1 X3.2946 Y-5.7232 F60.
X3.2982 Y-5.7279
X3.3033 Y-5.7311
X3.309 Y-5.733
X3.315 Y-5.7337
X3.3164
X3.3211 Y-5.7323
X3.3246 Y-5.7289
X3.3261 Y-5.7243
X3.3253 Y-5.7195
G3 X3.3143 Y-5.7055 I-0.0357 J-0.0167
X3.308 Y-5.7027 I-0.0084 J-0.0105
X3.2946 Y-5.7232 I-0.0022 J-0.0132 F50.
G1 X3.3101 Y-5.7456 F60.
X3.3138 Y-5.7504
X3.3187 Y-5.7538
X3.3216 Y-5.755
X3.3263 Y-5.7556
X3.3307 Y-5.7541
X3.334 Y-5.7507
X3.3354 Y-5.7462
X3.3347 Y-5.7415
G3 X3.3282 Y-5.7318 I-0.0357 J-0.0167
X3.3258 Y-5.7298 I-0.0085 J-0.0077
X3.3101 Y-5.7456 I-0.0061 J-0.0097 F50.
G1 X3.3225 Y-5.7636 F60.
X3.3262 Y-5.7684
X3.3309 Y-5.77
X3.3359 Y-5.7692
X3.3398 Y-5.766
X3.3417 Y-5.7613
X3.3409 Y-5.7563
X3.3394 Y-5.7534
G3 X3.3257 Y-5.7498 I-0.0086 J-0.0049 F50.
X3.3225 Y-5.7636 I0.0051 J-0.0084
G1 X3.3316 Y-5.7767 F60.
X3.3353 Y-5.7815
X3.3393 Y-5.7825
X3.3433 Y-5.7814
X3.3463 Y-5.7786
X3.3477 Y-5.7747
X3.347 Y-5.7707
X3.3458 Y-5.7682 F50.
G3 X3.3343 Y-5.7651 I-0.0072 J-0.004
X3.3316 Y-5.7767 I0.0042 J-0.0071
G1 X3.3395 Y-5.7881 F60.
X3.3431 Y-5.7929
X3.3473 Y-5.7934
X3.351 Y-5.7915
X3.353 Y-5.7879
X3.3526 Y-5.7837
X3.3512 Y-5.7811 F50.
G3 X3.3417 Y-5.7785 I-0.006 J-0.0034
X3.3395 Y-5.7881 I0.0035 J-0.0059
G1 X3.346 Y-5.7976 F60.
X3.3497 Y-5.8023
X3.353 Y-5.8028
X3.3561 Y-5.8013
X3.3577 Y-5.7983
X3.3574 Y-5.7949
G3 X3.3557 Y-5.7917 I-0.0357 J-0.0167 F50.
X3.3478 Y-5.7897 I-0.0049 J-0.0029
X3.346 Y-5.7976 I0.0029 J-0.0048
G1 X3.3524 Y-5.8068 F60.
X3.3542 Y-5.8092
X3.3571 Y-5.8098
X3.3597 Y-5.8087
X3.3612 Y-5.8062
X3.3609 Y-5.8033
X3.3604 Y-5.8022 F50.
X3.3517 Y-5.8043
X3.3524 Y-5.8068
X3.3565 Y-5.8127 F60.
X3.3583 Y-5.8151
X3.3614 Y-5.8155
X3.3638 Y-5.8135
X3.3639 Y-5.8103
X3.3632 Y-5.8088 F50.
X3.3559 Y-5.8106
X3.3565 Y-5.8127
X3.3611 Y-5.8193 F60.
X3.362 Y-5.8205
X3.3645 Y-5.8208
X3.3665 Y-5.819
Y-5.8165
X3.3664 Y-5.8162 F50.
X3.3606 Y-5.8177
X3.3611 Y-5.8193
X3.3635 Y-5.8229 F60.
X3.3653 Y-5.8252
X3.3674 Y-5.8253
X3.3688 Y-5.8239
Y-5.8219
X3.368 Y-5.8203 F50.
X3.3631 Y-5.8215
X3.3635 Y-5.8229
X3.3671 Y-5.8281 F60.
X3.368 Y-5.8293
X3.3697
X3.3708 Y-5.8282
Y-5.8266
X3.3706 Y-5.8261 F50.
X3.3668 Y-5.827
X3.3671 Y-5.8281
X3.3695 Y-5.8316 F60.
X3.3704 Y-5.8327
X3.3717
X3.3725 Y-5.8318
Y-5.8306
X3.3722 Y-5.83 F50.
X3.3693 Y-5.8307
X3.3712 Y-5.8339 F60.
X3.3721 Y-5.8351
X3.3731
X3.3737 Y-5.8344
Y-5.8335
X3.3734 Y-5.8327 F50.
X3.371 Y-5.8332
X3.3735 Y-5.8372 F60.
X3.3741 Y-5.8382
X3.3747 Y-5.8391
X3.3751 Y-5.8396
X3.3755 Y-5.8399
X3.376
X3.3764 Y-5.8397
X3.3758 Y-5.8385 F50.
X3.3749 Y-5.8382
X3.3747 Y-5.8391
X3.3756 Y-5.8404 F60.
X3.3764 Y-5.8397
X3.3763 Y-5.8395
X3.3596 Y-5.8137
X3.3425 Y-5.7873
G2 X3.3402 Y-5.7769 I0.0129 J0.0083
G3 X3.3408 Y-5.7685 I-0.0617 J0.0084 F50.
X3.3366 Y-5.7461 I-0.0623 J0.
G1 X3.3091 Y-5.6815 F60.
G3 X3.2834 Y-5.6782 I-0.0139 J-0.0065
G1 X3.2815 Y-5.6805 Z-0.2097
X3.2796 Y-5.6827 Z-0.2088
X3.2779 Y-5.6847 Z-0.2074
X3.2764 Y-5.6865 Z-0.2055
X3.2752 Y-5.688 Z-0.2032
X3.2743 Y-5.6891 Z-0.2005
X3.2738 Y-5.6898 Z-0.1976
X3.2736 Y-5.69 Z-0.1946
G0 Z0.4
X1.7556 Y-3.4689
Z-0.1793
G1 Z-0.1946 F50.
X1.7553 Y-3.4688 Z-0.1976
X1.7545 Y-3.4684 Z-0.2005
X1.7532 Y-3.4678 Z-0.2032
X1.7515 Y-3.467 Z-0.2055
X1.7494 Y-3.466 Z-0.2074
X1.747 Y-3.4649 Z-0.2088
X1.7443 Y-3.4637 Z-0.2097
X1.7416 Y-3.4625 Z-0.21
G2 X1.7176 Y-3.443 I0.0259 J0.0567
G1 X1.1987 Y-2.6928 F60.
G2 X1.0093 Y-2.249 I0.9606 J0.6721
G1 Y-1.6849
G2 X1.0392 Y-1.6803 I0.0154 J-0.0005
G3 X1.0687 Y-1.6718 I0.0145 J0.0052
G1 X1.0199 Y-1.4535
X1.0191 Y-1.4512
X1.0181 Y-1.449
G2 X1.0093 Y-1.4193 I0.0536 J0.0318 F50.
G1 Y-1.3204 F60.
G2 X1.3876 Y-1.1804 I0.249 J-0.0917
G1 X1.3929 Y-1.1765
X1.3948 Y-1.1783
X1.3962 Y-1.1807
X1.481 Y-1.3801
G2 X1.4786 Y-1.3953 I-0.0143 J-0.0055
X1.3959 Y-1.3962 I-0.0417 J0.0337
X1.3851 Y-1.2078 I0.1205 J0.1014
X1.3938 Y-1.1958 I0.1313 J-0.087 F50.
G3 X1.3962 Y-1.1807 I-0.012 J0.0097
G1 X1.3759 Y-1.1328 F60.
G3 X1.1695 Y-1.0721 I-0.1439 J-0.1079
G1 X1.0099 Y-1.235
G3 X1.0093 Y-1.3204 I0.8269 J-0.0479
X1.0318 Y-1.3335 I0.0154 J0.0005
G1 X1.3611 Y-1.156
X1.3688 Y-1.1519 F50.
G3 X1.3759 Y-1.1328 I-0.0073 J0.0135
G1 X1.3385 Y-1.0449 F60.
G3 X1.2235 Y-0.9797 I-0.1065 J-0.0538
G1 X1.2223 Y-0.9823
X1.2216 Y-0.9851
X1.2214 Y-0.988
X1.2216 Y-0.9908
X1.2223 Y-0.9935
X1.2235 Y-0.9959
X1.225 Y-0.9982
X1.2269 Y-1.0001
X1.229 Y-1.0016
X1.2373 Y-1.0075
G3 X1.323 Y-1.0657 I0.1202 J0.0848
X1.3385 Y-1.0449 I0.0011 J0.0153 F50.
G1 X1.3017 Y-0.9582 F60.
G3 X1.2494 Y-0.9235 I-0.0368 J0.0012
X1.2511 Y-0.9373 I0.0145 J-0.0052
G1 X1.2603 Y-0.951
X1.2746 Y-0.9723
G3 X1.2862 Y-0.979 I0.0128 J0.0086
X1.3017 Y-0.9582 I0.0011 J0.0153 F50.
G1 X1.2781 Y-0.9027 F60.
X1.2755 Y-0.8973
X1.2742 Y-0.8957
X1.2707 Y-0.8929
X1.2663 Y-0.8918
X1.2619 Y-0.8928
X1.2583 Y-0.8955
X1.2563 Y-0.8996
X1.2553 Y-0.9053
G3 X1.2596 Y-0.9162 I0.0117 J-0.0017
X1.2781 Y-0.9027 I0.0074 J0.0093 F50.
G1 X1.2707 Y-0.8854 F60.
X1.2702 Y-0.8843
X1.2698 Y-0.8833
X1.2672 Y-0.8779
X1.2648 Y-0.8771
X1.2624 Y-0.8779
X1.2611 Y-0.88
G3 X1.2604 Y-0.8846 I0.0385 J-0.008 F50.
G1 X1.27 Y-0.8863
X1.2698 Y-0.8833
X1.2662 Y-0.8748 F60.
X1.2655 Y-0.873
X1.265 Y-0.8719
X1.2644 Y-0.8707
X1.264 Y-0.8706
X1.2635 Y-0.8708
X1.2633 Y-0.8712
X1.2631 Y-0.8721 F50.
X1.2632 Y-0.8727
X1.2636 Y-0.8732
X1.2642 Y-0.8733
X1.2647 Y-0.873
X1.265 Y-0.8725
Y-0.8719
X1.2639 Y-0.8694 F60.
X1.2635 Y-0.8701
X1.2534 Y-0.9113
G2 X1.1695 Y-1.0721 I-0.4865 J0.1517
G3 X1.1809 Y-1.0954 I0.0131 J-0.0081
G1 X1.1838 Y-1.0958 Z-0.2097
X1.1867 Y-1.0961 Z-0.2088
X1.1893 Y-1.0964 Z-0.2074
X1.1917 Y-1.0966 Z-0.2055
X1.1936 Y-1.0969 Z-0.2032
X1.195 Y-1.097 Z-0.2005
X1.1958 Y-1.0971 Z-0.1976
X1.1961 Z-0.1946
G0 Z-0.1793
X1.5571 Y-1.6016
G1 Z-0.1946 F50.
X1.5573 Y-1.6017 Z-0.1976
X1.558 Y-1.6022 Z-0.2005
X1.5592 Y-1.6031 Z-0.2032
X1.5607 Y-1.6042 Z-0.2055
X1.5626 Y-1.6056 Z-0.2074
X1.5648 Y-1.6072 Z-0.2088
X1.5671 Y-1.6089 Z-0.2097
X1.5695 Y-1.6106 Z-0.21
G2 X1.5891 Y-1.6345 I-0.0368 J-0.0503
G1 X2.259 Y-3.2107 F60.
G2 X2.2558 Y-3.2268 I-0.0143 J-0.0055
G1 X2.2537 Y-3.229 Z-0.2097
X2.2517 Y-3.231 Z-0.2088
X2.2499 Y-3.233 Z-0.2074
X2.2483 Y-3.2346 Z-0.2055
X2.2469 Y-3.236 Z-0.2032
X2.2459 Y-3.2371 Z-0.2005
X2.2453 Y-3.2377 Z-0.1976
X2.2451 Y-3.2379 Z-0.1946
G0 Z-0.1793
X1.2367 Y-2.7187
G1 Z-0.1946 F50.
X1.2365 Y-2.7186 Z-0.1976
X1.2357 Y-2.7182 Z-0.2005
X1.2344 Y-2.7176 Z-0.2032
X1.2326 Y-2.7168 Z-0.2055
X1.2305 Y-2.7158 Z-0.2074
X1.2281 Y-2.7147 Z-0.2088
X1.2255 Y-2.7135 Z-0.2097
X1.2227 Y-2.7123 Z-0.21
G2 X1.1987 Y-2.6928 I0.0259 J0.0567
G1 X1.0366 Y-2.4584 F60.
G2 X1.0093 Y-2.249 I1.7202 J0.3302
X1.0186 Y-2.2354 I0.0154 J-0.0005
G1 X1.0214 Y-2.2343 Z-0.2097
X1.024 Y-2.2331 Z-0.2088
X1.0265 Y-2.2321 Z-0.2074
X1.0286 Y-2.2312 Z-0.2055
X1.0304 Y-2.2304 Z-0.2032
X1.0317 Y-2.2298 Z-0.2005
X1.0325 Y-2.2295 Z-0.1976
X1.0328 Y-2.2294 Z-0.1946
G0 Z0.4
X-4.0494 Y-6.9163
Z0.1
G3 X-4.1219 Y-7.043 Z0.0596 I-0.0362 J-0.0634 F50.
X-4.0494 Y-6.9163 Z0.0191 I0.0362 J0.0634
X-4.1219 Y-7.043 Z-0.0213 I-0.0362 J-0.0634
X-4.0494 Y-6.9163 Z-0.0618 I0.0362 J0.0634
X-4.1219 Y-7.043 Z-0.1022 I-0.0362 J-0.0634
X-4.0494 Y-6.9163 Z-0.1427 I0.0362 J0.0634
X-4.1219 Y-7.043 Z-0.1831 I-0.0362 J-0.0634
X-4.0126 Y-6.9796 Z-0.21 I0.0362 J0.0634
X-4.1587 I-0.073 J0.
X-4.0129 Y-6.9856 I0.073 J0.
G1 X-4.0126 Y-6.9796
G3 X-4.169 Y-6.8567 I-0.0818 J0.0568 F60.
G1 X-4.1771 Y-6.8621
X-4.1849 Y-6.868
X-4.1922 Y-6.8745
X-4.1992 Y-6.8813
X-4.2057 Y-6.8886
X-4.2117 Y-6.8963
X-4.2172 Y-6.9044
X-4.2222 Y-6.9127
X-4.2267 Y-6.9214
X-4.2306 Y-6.9304
X-4.2339 Y-6.9395
X-4.2366 Y-6.9489
X-4.2388 Y-6.9584
X-4.2403 Y-6.9681
X-4.2413 Y-6.9778
X-4.2416 Y-6.9875
X-4.2413 Y-6.9973
X-4.2404 Y-7.007
X-4.2388 Y-7.0166
X-4.2367 Y-7.0262
X-4.234 Y-7.0355
X-4.2307 Y-7.0447
X-4.2268 Y-7.0537
X-4.2223 Y-7.0624
X-4.2173 Y-7.0707
X-4.2118 Y-7.0788
X-4.2058 Y-7.0865
X-4.1994 Y-7.0938
X-4.1924 Y-7.1007
X-4.1851 Y-7.1071
X-4.1774 Y-7.113
X-4.1693 Y-7.1185
X-4.1608 Y-7.1234
X-4.1521 Y-7.1278
X-4.1431 Y-7.1316
X-4.1339 Y-7.1349
X-4.1246 Y-7.1375
X-4.115 Y-7.1396
X-4.1054 Y-7.1411
X-4.0957 Y-7.1419
X-4.0859 Y-7.1421
X-4.0761 Y-7.1417
X-4.0664 Y-7.1407
X-4.0568 Y-7.1391
X-4.0473 Y-7.1369
X-4.038 Y-7.1341
X-4.0288 Y-7.1307
X-4.0199 Y-7.1267
X-4.0113 Y-7.1222
X-4.0029 Y-7.1172
X-3.9949 Y-7.1116
X-3.9873 Y-7.1055
X-3.98 Y-7.099
X-3.9732 Y-7.092
X-3.9669 Y-7.0846
X-3.961 Y-7.0768
X-3.9556 Y-7.0687
X-3.9508 Y-7.0602
X-3.9465 Y-7.0515
X-3.9427 Y-7.0425
X-3.9396 Y-7.0332
X-3.937 Y-7.0238
X-3.9314 Y-7.0146
X-3.9263 Y-7.005
X-3.9218 Y-6.9952
X-3.9179 Y-6.9851
X-3.9145 Y-6.9749
X-3.9117 Y-6.9644
X-3.9096 Y-6.9538
X-3.908 Y-6.9431
X-3.907 Y-6.9324
X-3.9067 Y-6.9216
X-3.907 Y-6.9108
X-3.9079 Y-6.9
X-3.9094 Y-6.8893
X-3.9115 Y-6.8787
X-3.9142 Y-6.8682
X-3.9175 Y-6.858
X-3.9214 Y-6.8479
X-3.9258 Y-6.838
X-3.9308 Y-6.8284
X-3.9363 Y-6.8192
X-3.9424 Y-6.8102
X-3.949 Y-6.8016
X-3.956 Y-6.7934
X-3.9635 Y-6.7856
X-3.9714 Y-6.7783
X-3.9798 Y-6.7714
X-3.9885 Y-6.765
X-3.9975 Y-6.7591
X-4.0069 Y-6.7538
X-4.0166 Y-6.7489
X-4.0265 Y-6.7447
X-4.0367 Y-6.741
X-4.047 Y-6.7379
X-4.0575 Y-6.7354
X-4.0681 Y-6.7334
X-4.0789 Y-6.7321
X-4.0897 Y-6.7315
X-4.1005 Y-6.7314
X-4.1113 Y-6.7319
X-4.122 Y-6.7331
X-4.1327 Y-6.7348
X-4.1432 Y-6.7372
X-4.1536 Y-6.7402
X-4.1638 Y-6.7437
X-4.1738 Y-6.7479
X-4.1835 Y-6.7526
X-4.193 Y-6.7578
X-4.2021 Y-6.7636
X-4.2109 Y-6.7698
X-4.2193 Y-6.7766
X-4.2273 Y-6.7838
X-4.2349 Y-6.7915
X-4.2448 Y-6.7985
X-4.2543 Y-6.8059
X-4.2634 Y-6.8139
X-4.2721 Y-6.8223
X-4.2803 Y-6.8311
X-4.2881 Y-6.8404
X-4.2954 Y-6.85
X-4.3022 Y-6.86
X-4.3084 Y-6.8703
X-4.3141 Y-6.881
X-4.3193 Y-6.8919
X-4.3239 Y-6.903
X-4.3279 Y-6.9144
X-4.3313 Y-6.926
X-4.3342 Y-6.9378
X-4.3364 Y-6.9496
X-4.338 Y-6.9616
X-4.339 Y-6.9736
X-4.3393 Y-6.9857
X-4.339 Y-6.9978
X-4.3382 Y-7.0098
X-4.3367 Y-7.0218
X-4.3345 Y-7.0337
X-4.3318 Y-7.0455
X-4.3285 Y-7.0571
X-4.3246 Y-7.0685
X-4.3201 Y-7.0797
X-4.315 Y-7.0907
X-4.3094 Y-7.1014
X-4.3032 Y-7.1118
X-4.2965 Y-7.1218
X-4.2893 Y-7.1315
X-4.2816 Y-7.1408
X-4.2734 Y-7.1497
X-4.2648 Y-7.1582
X-4.2558 Y-7.1662
X-4.2463 Y-7.1737
X-4.2365 Y-7.1807
X-4.2263 Y-7.1873
X-4.2159 Y-7.1933
X-4.2051 Y-7.1987
X-4.1927 Y-7.2038
X-4.1801 Y-7.2083
X-4.1673 Y-7.2122
X-4.1543 Y-7.2155
X-4.1412 Y-7.2183
X-4.128 Y-7.2203
X-4.1147 Y-7.2218
X-4.1013 Y-7.2227
X-4.088 Y-7.2229
X-4.0746 Y-7.2225
X-4.0612 Y-7.2215
X-4.0479 Y-7.2199
X-4.0348 Y-7.2176
X-4.0217 Y-7.2147
X-4.0088 Y-7.2112
X-3.996 Y-7.2072
X-3.9835 Y-7.2025
X-3.9711 Y-7.1973
X-3.9591 Y-7.1914
X-3.9473 Y-7.1851
X-3.9359 Y-7.1782
X-3.9247 Y-7.1707
X-3.914 Y-7.1628
X-3.9036 Y-7.1543
X-3.8936 Y-7.1454
X-3.8841 Y-7.136
X-3.8749 Y-7.1262
X-3.8663 Y-7.116
X-3.8582 Y-7.1054
X-3.8505 Y-7.0944
X-3.8434 Y-7.0831
X-3.8368 Y-7.0714
X-3.8308 Y-7.0595
X-3.8253 Y-7.0473
X-3.8204 Y-7.0348
X-3.8161 Y-7.0221
X-3.8123 Y-7.0093
X-3.8092 Y-6.9963
X-3.8067 Y-6.9831
X-3.8048 Y-6.9699
X-3.8036 Y-6.9566
X-3.8029 Y-6.9432
Y-6.9298
X-3.8035 Y-6.9164
X-3.8047 Y-6.9031
X-3.8066 Y-6.8899
X-3.809 Y-6.8767
X-3.8121 Y-6.8637
X-3.8158 Y-6.8508
X-3.82 Y-6.8381
X-3.8249 Y-6.8257
X-3.8303 Y-6.8134
X-3.8363 Y-6.8015
X-3.8429 Y-6.7898
X-3.85 Y-6.7784
X-3.8576 Y-6.7674
X-3.8657 Y-6.7568
X-3.8743 Y-6.7465
X-3.8834 Y-6.7367
X-3.8929 Y-6.7273
X-3.9028 Y-6.7184
X-3.9132 Y-6.7099
X-3.9239 Y-6.7019
X-3.935 Y-6.6944
X-3.9464 Y-6.6875
X-3.9582 Y-6.6811
X-3.9702 Y-6.6752
X-3.9825 Y-6.6699
X-3.995 Y-6.6652
X-4.0088 Y-6.6609
X-4.0227 Y-6.6572
X-4.0367 Y-6.6541
X-4.0509 Y-6.6516
X-4.0651 Y-6.6498
X-4.0795 Y-6.6485
X-4.0938 Y-6.6479
X-4.1082 Y-6.6478
X-4.1226 Y-6.6484
X-4.1369 Y-6.6496
X-4.1511 Y-6.6515
X-4.1653 Y-6.6539
X-4.1794 Y-6.657
X-4.1933 Y-6.6606
X-4.207 Y-6.6648
X-4.2206 Y-6.6697
X-4.2339 Y-6.6751
X-4.247 Y-6.681
X-4.2598 Y-6.6876
X-4.2723 Y-6.6946
X-4.2845 Y-6.7022
X-4.2964 Y-6.7104
X-4.3079 Y-6.719
X-4.319 Y-6.7281
X-4.3297 Y-6.7377
X-4.34 Y-6.7477
X-4.3499 Y-6.7582
X-4.3593 Y-6.7691
X-4.3682 Y-6.7803
X-4.3766 Y-6.792
X-4.3845 Y-6.804
X-4.3919 Y-6.8163
X-4.3988 Y-6.829
X-4.4051 Y-6.8419
X-4.4109 Y-6.8551
X-4.416 Y-6.8685
X-4.4206 Y-6.8821
X-4.4246 Y-6.8959
X-4.428 Y-6.9099
X-4.4309 Y-6.924
X-4.433 Y-6.9382
X-4.4346 Y-6.9525
X-4.4356 Y-6.9668
X-4.4359 Y-6.9812
X-4.4357 Y-6.9956
X-4.4348 Y-7.0099
X-4.4333 Y-7.0242
X-4.4312 Y-7.0384
X-4.4285 Y-7.0526
X-4.4251 Y-7.0665
X-4.4212 Y-7.0804
X-4.4167 Y-7.094
X-4.4116 Y-7.1075
X-4.4059 Y-7.1207
X-4.3997 Y-7.1336
X-4.3929 Y-7.1463
X-4.3856 Y-7.1587
X-4.3777 Y-7.1707
X-4.3693 Y-7.1824
X-4.3605 Y-7.1937
X-4.3511 Y-7.2047
X-4.3413 Y-7.2152
X-4.3311 Y-7.2253
X-4.3204 Y-7.2349
X-4.3094 Y-7.2441
X-4.2979 Y-7.2528
X-4.2861 Y-7.261
X-4.2739 Y-7.2687
X-4.2615 Y-7.2758
X-4.2487 Y-7.2824
X-4.2357 Y-7.2884
X-4.2224 Y-7.2939
X-4.2088 Y-7.2988
X-4.1941 Y-7.3033
X-4.1792 Y-7.3072
X-4.1641 Y-7.3105
X-4.149 Y-7.3132
X-4.1337 Y-7.3153
X-4.1183 Y-7.3168
X-4.1029 Y-7.3176
X-4.0875 Y-7.3178
X-4.0721 Y-7.3174
X-4.0567 Y-7.3164
X-4.0414 Y-7.3147
X-4.0262 Y-7.3125
X-4.011 Y-7.3096
X-3.996 Y-7.3061
X-3.9811 Y-7.302
X-3.9664 Y-7.2974
X-3.952 Y-7.2921
X-3.9377 Y-7.2862
X-3.9237 Y-7.2798
X-3.9099 Y-7.2728
X-3.8965 Y-7.2653
X-3.8833 Y-7.2573
X-3.8705 Y-7.2487
X-3.8581 Y-7.2396
X-3.846 Y-7.23
X-3.8343 Y-7.2199
X-3.8231 Y-7.2094
X-3.8123 Y-7.1984
X-3.8019 Y-7.187
X-3.792 Y-7.1752
X-3.7826 Y-7.163
X-3.7736 Y-7.1504
X-3.7652 Y-7.1375
X-3.7573 Y-7.1243
X-3.75 Y-7.1107
X-3.7432 Y-7.0969
X-3.737 Y-7.0828
X-3.7313 Y-7.0684
X-3.7263 Y-7.0539
X-3.7218 Y-7.0391
X-3.7179 Y-7.0242
X-3.7146 Y-7.0092
X-3.712 Y-6.994
X-3.7099 Y-6.9787
X-3.7085 Y-6.9633
X-3.7077 Y-6.948
X-3.7075 Y-6.9325
X-3.7079 Y-6.9171
X-3.7089 Y-6.9018
X-3.7106 Y-6.8864
X-3.7129 Y-6.8712
X-3.7158 Y-6.856
X-3.7193 Y-6.841
X-3.7234 Y-6.8262
X-3.7281 Y-6.8115
X-3.7334 Y-6.797
X-3.7393 Y-6.7828
X-3.7457 Y-6.7688
X-3.7527 Y-6.755
X-3.7602 Y-6.7416
X-3.7683 Y-6.7285
X-3.7769 Y-6.7157
X-3.786 Y-6.7032
X-3.7956 Y-6.6912
X-3.8057 Y-6.6795
X-3.8163 Y-6.6683
X-3.8273 Y-6.6575
X-3.8387 Y-6.6471
X-3.8505 Y-6.6372
X-3.8627 Y-6.6278
X-3.8753 Y-6.6189
X-3.8882 Y-6.6105
X-3.9015 Y-6.6027
X-3.915 Y-6.5954
X-3.9289 Y-6.5886
X-3.943 Y-6.5824
X-3.9574 Y-6.5768
X-3.9719 Y-6.5717
G3 X-4.525 Y-6.9453 I-0.1361 J-0.3947
G1 X-4.5259 Y-6.9619
X-4.5263 Y-6.9786
X-4.526 Y-6.9952
X-4.5251 Y-7.0118
X-4.5236 Y-7.0283
X-4.5215 Y-7.0448
X-4.5187 Y-7.0612
X-4.5154 Y-7.0775
X-4.5114 Y-7.0936
X-4.5068 Y-7.1096
X-4.5017 Y-7.1254
X-4.4959 Y-7.141
X-4.4896 Y-7.1564
X-4.4827 Y-7.1715
X-4.4753 Y-7.1864
X-4.4673 Y-7.2009
X-4.4587 Y-7.2152
X-4.4497 Y-7.2291
X-4.4401 Y-7.2427
X-4.43 Y-7.2559
X-4.4194 Y-7.2687
X-4.4084 Y-7.2812
X-4.3969 Y-7.2932
X-4.385 Y-7.3047
X-4.3726 Y-7.3158
X-4.3598 Y-7.3265
X-4.3467 Y-7.3366
X-4.3331 Y-7.3463
X-4.3193 Y-7.3554
X-4.305 Y-7.3641
X-4.2905 Y-7.3721
X-4.2757 Y-7.3797
X-4.2606 Y-7.3867
X-4.2453 Y-7.3931
X-4.2297 Y-7.3989
X-4.214 Y-7.4041
X-4.198 Y-7.4088
X-4.1819 Y-7.4128
X-4.1656 Y-7.4163
X-4.1492 Y-7.4191
X-4.1328 Y-7.4213
X-4.1162 Y-7.423
X-4.0996 Y-7.4239
X-4.083 Y-7.4243
X-4.0664 Y-7.4241
X-4.0498 Y-7.4232
X-4.0332 Y-7.4217
X-4.0168 Y-7.4196
X-4.0004 Y-7.4168
X-3.9841 Y-7.4135
X-3.9679 Y-7.4096
X-3.9519 Y-7.405
X-3.9361 Y-7.3999
X-3.9205 Y-7.3942
X-3.9052 Y-7.3879
X-3.89 Y-7.381
X-3.8752 Y-7.3736
X-3.8606 Y-7.3656
X-3.8463 Y-7.357
X-3.8324 Y-7.348
X-3.8188 Y-7.3384
X-3.8056 Y-7.3284
X-3.7927 Y-7.3178
X-3.7803 Y-7.3068
X-3.7683 Y-7.2953
X-3.7567 Y-7.2834
X-3.7456 Y-7.271
X-3.7349 Y-7.2583
X-3.7247 Y-7.2451
X-3.7151 Y-7.2316
X-3.7059 Y-7.2177
X-3.6973 Y-7.2035
X-3.6892 Y-7.189
X-3.6816 Y-7.1742
X-3.6746 Y-7.1591
X-3.6682 Y-7.1438
X-3.6623 Y-7.1283
X-3.6571 Y-7.1125
X-3.6524 Y-7.0965
X-3.6483 Y-7.0804
X-3.6423 Y-7.0651
X-3.6368 Y-7.0496
X-3.6319 Y-7.0339
X-3.6276 Y-7.018
X-3.624 Y-7.0019
X-3.6209 Y-6.9858
X-3.6185 Y-6.9695
X-3.6167 Y-6.9531
X-3.6155 Y-6.9367
X-3.6149 Y-6.9203
X-3.615 Y-6.9038
X-3.6157 Y-6.8874
X-3.617 Y-6.8709
X-3.6189 Y-6.8546
X-3.6214 Y-6.8383
X-3.6246 Y-6.8222
X-3.6284 Y-6.8062
X-3.6328 Y-6.7903
X-3.6378 Y-6.7746
X-3.6434 Y-6.7591
X-3.6495 Y-6.7439
X-3.6563 Y-6.7289
X-3.6636 Y-6.7141
X-3.6714 Y-6.6997
X-3.6798 Y-6.6855
X-3.6888 Y-6.6717
X-3.6982 Y-6.6582
X-3.7082 Y-6.6451
X-3.7187 Y-6.6324
X-3.7296 Y-6.6201
X-3.741 Y-6.6082
G3 X-4.0428 Y-6.5117 I-2.3361 J-6.7855
X-4.4176 Y-6.606 I0.0389 J-0.9469
X-4.5996 Y-6.8285 I0.1146 J-0.2794
G2 X-4.5394 Y-7.0997 I-0.5708 J-0.269
G3 X-4.2664 Y-7.4279 I0.5322 J0.1651
G1 X-4.2536 Y-7.4422
X-4.2455 Y-7.4513
X-4.2371 Y-7.4611
G3 X-3.9603 Y-7.5016 I0.1772 J0.2445
G1 X-3.9517 Y-7.4881
X-3.9426 Y-7.4749
X-3.933 Y-7.4621
X-3.9229 Y-7.4497
X-3.9123 Y-7.4376
X-3.9012 Y-7.426
X-3.8897 Y-7.4148
X-3.8777 Y-7.4041
X-3.8654 Y-7.3939
X-3.8527 Y-7.3841
X-3.8396 Y-7.3749
X-3.8261 Y-7.3662
X-3.8123 Y-7.358
X-3.7982 Y-7.3503
X-3.7838 Y-7.3432
G3 X-3.6125 Y-6.9126 I-0.356 J0.391
G2 X-3.5742 Y-6.8327 I0.3591 J-0.1227
G3 X-3.6297 Y-6.6006 I-0.2199 J0.0701
X-3.6407 Y-6.6182 I0.004 J-0.0148
G1 X-3.6393 Y-6.6262
X-3.6023 Y-6.8271
X-3.6015 Y-6.8299
X-3.6002 Y-6.8324
G3 X-3.5742 Y-6.8327 I0.0131 J0.0081 F50.
G2 X-3.521 Y-6.7651 I0.2235 J-0.1212 F60.
G3 X-3.5087 Y-6.6179 I-0.129 J0.085
X-3.518 Y-6.6208 I-0.0041 J-0.0034
G1 X-3.5196 Y-6.6392
X-3.5285 Y-6.7431
X-3.5301 Y-6.761 F50.
G3 X-3.521 Y-6.7651 I0.0053 J-0.0005
X-3.6204 Y-6.6001 I-0.0561 J0.0787 F60.
G2 X-3.7413 Y-6.6087 I-0.0844 J0.3309
G1 X-3.7432 Y-6.6085
X-3.7451 Y-6.6086
X-3.747 Y-6.6089
G2 X-3.8376 Y-6.6337 I-0.3285 J1.0251
X-3.8411 Y-6.6341 I-0.0034 J0.015
G1 X-4.3179 Y-6.6323
X-4.3213 Y-6.6319
G2 X-4.3879 Y-6.614 I0.2458 J1.048
X-4.4117 Y-6.6065 I0.3124 J1.0301 F50.
G3 X-4.4176 Y-6.606 I-0.0038 J-0.0117
G2 X-4.5113 Y-6.6077 I-0.0528 J0.323 F60.
G3 X-4.6678 Y-6.7454 I0.0185 J-0.1788
X-4.6471 Y-6.7469 I0.0112 J0.0106
G1 X-4.6407 Y-6.7419
X-4.5056 Y-6.6347
X-4.5034 Y-6.6325
G3 X-4.5113 Y-6.6077 I-0.0118 J0.0099 F50.
X-4.6781 Y-6.6379 I-0.0681 J-0.0998 F60.
G1 X-4.6808 Y-6.6465
X-4.6829 Y-6.6553
X-4.6844 Y-6.6643
X-4.6853 Y-6.6733
X-4.6856 Y-6.6823
X-4.6854 Y-6.6913
X-4.6846 Y-6.7004
X-4.6831 Y-6.7093
X-4.6811 Y-6.7181
X-4.6786 Y-6.7268
X-4.6754 Y-6.7353
X-4.6717 Y-6.7435
X-4.6675 Y-6.7515
X-4.6628 Y-6.7592
X-4.6576 Y-6.7666
X-4.6519 Y-6.7737
X-4.6458 Y-6.7803
X-4.6393 Y-6.7866
X-4.6323 Y-6.7924
X-4.625 Y-6.7977
X-4.6174 Y-6.8025
X-4.6095 Y-6.8069
X-4.6013 Y-6.8107
X-4.5996 Y-6.8285
X-4.5916 Y-6.8419
X-4.5843 Y-6.8554
G2 X-4.5347 Y-7.1193 I-1.2273 J-0.3672
G3 X-4.2575 Y-7.4378 I0.5949 J0.2378
G1 X-4.2536 Y-7.4422 F50.
X-4.2455 Y-7.4513
X-4.2371 Y-7.4611
G2 X-4.1953 Y-7.5346 I-0.2646 J-0.1989 F60.
G1 X-4.1894 Y-7.5429
X-4.183 Y-7.5509
X-4.1761 Y-7.5585
X-4.1688 Y-7.5657
X-4.1611 Y-7.5724
X-4.153 Y-7.5787
X-4.1446 Y-7.5845
X-4.1358 Y-7.5898
X-4.1268 Y-7.5946
X-4.1174 Y-7.5988
X-4.1079 Y-7.6025
X-4.0981 Y-7.6056
X-4.0882 Y-7.6082
X-4.0782 Y-7.6102
X-4.068 Y-7.6115
X-4.0578 Y-7.6123
X-4.0476 Y-7.6125
X-4.0374 Y-7.6121
X-4.0272 Y-7.6111
X-4.0171 Y-7.6095
X-4.0071 Y-7.6074
X-3.9972 Y-7.6046
X-3.9964 Y-7.6018
X-3.9962 Y-7.5988
X-3.9964 Y-7.596
X-3.9972 Y-7.5932
X-3.9984 Y-7.5906
X-4.0001 Y-7.5883
X-4.0021 Y-7.5864
X-4.0044 Y-7.5849
X-4.0069 Y-7.5838
X-4.0145 Y-7.5807
X-4.1749 Y-7.5157
X-4.1767 Y-7.5151
X-4.1786 Y-7.5147
G3 X-4.1953 Y-7.5346 I-0.0021 J-0.0152 F50.
X-4.0854 Y-7.6636 I0.1211 J-0.0081 F60.
X-3.9714 Y-7.5217 I-0.0277 J0.139
G1 X-3.9603 Y-7.5016
G3 X-3.9609 Y-7.4868 I-0.0137 J0.0069
G1 X-3.9625 Y-7.4851 Z-0.2098
X-3.9641 Y-7.4834 Z-0.2093
X-3.9656 Y-7.4818 Z-0.2084
X-3.9676 Y-7.4811 Z-0.207
X-3.9694 Y-7.4804 Z-0.2054
X-3.9709 Y-7.4799 Z-0.2035
X-3.9721 Y-7.4795 Z-0.2013
X-3.9729 Y-7.4794 Z-0.1992
X-3.9734 Z-0.1969
X-3.9736 Y-7.4793 Z-0.1946
G0 Z0.4
X-4.0709 Y-3.96
Z-0.1793
G1 Z-0.1946 F50.
X-4.0706 Z-0.1976
X-4.0697 Z-0.2005
X-4.0683 Y-3.9601 Z-0.2032
X-4.0664 Z-0.2055
X-4.0641 Y-3.9602 Z-0.2074
X-4.0614 Y-3.9603 Z-0.2088
X-4.0585 Z-0.2097
X-4.0555 Y-3.9604 Z-0.21
G3 X-3.9713 Y-3.9536 I0.0105 J0.3923
G1 X-3.9665 Y-3.9485 F60.
X-3.9621 Y-3.9431
X-3.9583 Y-3.9374
X-3.9549 Y-3.9313
X-3.9521 Y-3.9249
X-3.9499 Y-3.9184
X-3.9482 Y-3.9116
X-3.9471 Y-3.9048
X-3.9466 Y-3.8979
Y-3.8909
X-3.9473 Y-3.884
X-3.9486 Y-3.8772
X-3.9505 Y-3.8705
X-3.9529 Y-3.864
X-3.9558 Y-3.8577
X-3.9593 Y-3.8517
X-3.9633 Y-3.8461
X-3.9678 Y-3.8407
X-3.9727 Y-3.8358
X-3.9781 Y-3.8314
X-3.9837 Y-3.8274
X-3.9897 Y-3.8239
X-3.996 Y-3.8209
X-4.0025 Y-3.8185
X-4.0092 Y-3.8167
X-4.016 Y-3.8154
X-4.0229 Y-3.8148
X-4.0299 Y-3.8147
X-4.0368 Y-3.8152
X-4.0467 Y-3.8116
X-4.0568 Y-3.8085
X-4.067 Y-3.806
X-4.0774 Y-3.8042
X-4.0878 Y-3.8029
X-4.0983 Y-3.8022
X-4.1089
X-4.1194 Y-3.8027
X-4.1298 Y-3.8039
X-4.1402 Y-3.8057
X-4.1505 Y-3.808
X-4.1606 Y-3.811
X-4.1705 Y-3.8145
X-4.1802 Y-3.8186
X-4.1896 Y-3.8233
X-4.1988 Y-3.8285
X-4.2076 Y-3.8342
X-4.2161 Y-3.8405
X-4.2242 Y-3.8472
X-4.232 Y-3.8543
X-4.2392 Y-3.8619
X-4.2461 Y-3.8699
X-4.2524 Y-3.8783
X-4.2583 Y-3.8871
X-4.2636 Y-3.8962
X-4.2684 Y-3.9055
X-4.2727 Y-3.9152
X-4.2764 Y-3.925
X-4.2795 Y-3.9351
X-4.282 Y-3.9453
X-4.284 Y-3.9556
X-4.2853 Y-3.9661
X-4.286 Y-3.9766
X-4.2861 Y-3.9871
X-4.2856 Y-3.9976
X-4.2845 Y-4.0081
X-4.2828 Y-4.0185
X-4.2805 Y-4.0288
X-4.2776 Y-4.0389
X-4.2741 Y-4.0488
X-4.27 Y-4.0585
X-4.2654 Y-4.068
X-4.2603 Y-4.0772
X-4.2546 Y-4.0861
X-4.2484 Y-4.0946
X-4.2417 Y-4.1027
X-4.2346 Y-4.1105
X-4.227 Y-4.1178
X-4.2191 Y-4.1247
X-4.2107 Y-4.1311
X-4.202 Y-4.137
X-4.193 Y-4.1424
X-4.1836 Y-4.1472
X-4.174 Y-4.1515
X-4.1642 Y-4.1553
X-4.1541 Y-4.1584
X-4.1439 Y-4.161
X-4.1336 Y-4.163
X-4.1231 Y-4.1644
X-4.1126 Y-4.1652
X-4.1021 Y-4.1653
X-4.0916 Y-4.1649
X-4.08 Y-4.1658
X-4.0684 Y-4.1661
X-4.0567 Y-4.1658
X-4.0451 Y-4.1648
X-4.0336 Y-4.1633
X-4.0221 Y-4.1611
X-4.0108 Y-4.1583
X-3.9997 Y-4.1549
X-3.9888 Y-4.1509
X-3.9781 Y-4.1464
X-3.9676 Y-4.1413
X-3.9574 Y-4.1356
X-3.9476 Y-4.1294
X-3.9381 Y-4.1227
X-3.929 Y-4.1154
X-3.9202 Y-4.1077
X-3.9119 Y-4.0996
X-3.9041 Y-4.091
X-3.8967 Y-4.082
X-3.8898 Y-4.0726
X-3.8834 Y-4.0629
X-3.8776 Y-4.0528
X-3.8723 Y-4.0425
X-3.8675 Y-4.0319
X-3.8633 Y-4.021
X-3.8598 Y-4.0099
X-3.8568 Y-3.9987
X-3.8544 Y-3.9873
X-3.8526 Y-3.9758
X-3.8515 Y-3.9642
X-3.8509 Y-3.9526
X-3.851 Y-3.9409
X-3.8517 Y-3.9293
X-3.8531 Y-3.9178
X-3.855 Y-3.9063
X-3.8576 Y-3.8949
X-3.8607 Y-3.8837
X-3.8645 Y-3.8727
X-3.8688 Y-3.861
X-3.8737 Y-3.8495
X-3.8792 Y-3.8383
X-3.8852 Y-3.8273
X-3.8917 Y-3.8166
X-3.8988 Y-3.8063
X-3.9063 Y-3.7963
X-3.9144 Y-3.7867
X-3.9228 Y-3.7776
X-3.9318 Y-3.7688
X-3.9411 Y-3.7605
X-3.9508 Y-3.7526
X-3.9609 Y-3.7452
X-3.9714 Y-3.7384
X-3.9822 Y-3.732
X-3.9932 Y-3.7262
X-4.0046 Y-3.7209
X-4.0161 Y-3.7162
X-4.0279 Y-3.7121
X-4.0399 Y-3.7085
X-4.0521 Y-3.7056
X-4.0643 Y-3.7032
X-4.0767 Y-3.7014
X-4.0892 Y-3.7003
X-4.1017 Y-3.6997
X-4.1142 Y-3.6998
X-4.1266 Y-3.7004
X-4.1391 Y-3.7017
X-4.1514 Y-3.7036
X-4.1637 Y-3.7061
X-4.1758 Y-3.7091
X-4.1878 Y-3.7128
X-4.1995 Y-3.717
X-4.2111 Y-3.7218
X-4.2224 Y-3.7272
X-4.2334 Y-3.7331
X-4.2441 Y-3.7395
X-4.2545 Y-3.7465
X-4.2645 Y-3.754
X-4.2742 Y-3.7619
X-4.2834 Y-3.7703
X-4.2923 Y-3.7791
X-4.3007 Y-3.7884
X-4.3086 Y-3.798
X-4.3161 Y-3.8081
X-4.323 Y-3.8184
X-4.3295 Y-3.8292
X-4.3354 Y-3.8402
X-4.3407 Y-3.8515
X-4.3456 Y-3.863
X-4.3498 Y-3.8747
X-4.3674 Y-3.9015
X-4.3702 Y-3.9149
X-4.3724 Y-3.9285
X-4.3739 Y-3.9421
X-4.3749 Y-3.9558
X-4.3752 Y-3.9696
X-4.3749 Y-3.9833
X-4.374 Y-3.997
X-4.3724 Y-4.0106
X-4.3703 Y-4.0242
X-4.3675 Y-4.0376
X-4.3641 Y-4.0509
X-4.3601 Y-4.064
X-4.3556 Y-4.077
X-4.3504 Y-4.0897
X-4.3447 Y-4.1022
X-4.3384 Y-4.1144
X-4.3315 Y-4.1263
X-4.3241 Y-4.1378
X-4.3162 Y-4.1491
X-4.3079 Y-4.1599
X-4.299 Y-4.1704
X-4.2896 Y-4.1804
X-4.2798 Y-4.1901
X-4.2696 Y-4.1992
X-4.259 Y-4.2079
X-4.248 Y-4.2161
X-4.2366 Y-4.2238
X-4.2249 Y-4.2309
X-4.2129 Y-4.2376
X-4.2006 Y-4.2436
X-4.188 Y-4.2491
X-4.1752 Y-4.2541
X-4.1621 Y-4.2584
X-4.1489 Y-4.2621
X-4.1356 Y-4.2653
X-4.1221 Y-4.2678
X-4.1085 Y-4.2697
X-4.0948 Y-4.271
X-4.0811 Y-4.2717
X-4.0674
X-4.0537 Y-4.2711
X-4.04 Y-4.2699
X-4.0264 Y-4.2681
X-4.0129 Y-4.2657
X-3.9995 Y-4.2626
X-3.9863 Y-4.259
X-3.9732 Y-4.2547
X-3.9604 Y-4.2499
X-3.9478 Y-4.2444
X-3.9354 Y-4.2385
X-3.9234 Y-4.2319
X-3.9116 Y-4.2248
X-3.9002 Y-4.2172
X-3.8891 Y-4.2091
X-3.8785 Y-4.2005
X-3.8682 Y-4.1914
X-3.8583 Y-4.1818
X-3.8489 Y-4.1719
X-3.84 Y-4.1615
X-3.8315 Y-4.1507
X-3.8235 Y-4.1395
X-3.8161 Y-4.128
X-3.8092 Y-4.1161
X-3.8028 Y-4.1039
X-3.797 Y-4.0915
X-3.7917 Y-4.0788
X-3.7871 Y-4.0659
X-3.783 Y-4.0528
X-3.7795 Y-4.0395
X-3.7767 Y-4.0261
X-3.7744 Y-4.0126
X-3.7728 Y-3.999
X-3.7699 Y-3.9852
X-3.7676 Y-3.9714
X-3.7658 Y-3.9575
X-3.7647 Y-3.9435
X-3.7642 Y-3.9295
X-3.7644 Y-3.9155
X-3.7651 Y-3.9015
X-3.7664 Y-3.8876
X-3.7683 Y-3.8737
X-3.7709 Y-3.8599
X-3.774 Y-3.8462
X-3.7777 Y-3.8327
X-3.7821 Y-3.8194
X-3.7869 Y-3.8062
X-3.7924 Y-3.7933
X-3.7984 Y-3.7807
X-3.805 Y-3.7683
X-3.8121 Y-3.7562
X-3.8197 Y-3.7444
X-3.8278 Y-3.733
X-3.8364 Y-3.7219
X-3.8455 Y-3.7112
X-3.855 Y-3.701
X-3.865 Y-3.6911
X-3.8753 Y-3.6817
X-3.8861 Y-3.6728
X-3.8973 Y-3.6643
X-3.9088 Y-3.6563
X-3.9207 Y-3.6488
X-3.9329 Y-3.6419
X-3.9453 Y-3.6355
X-3.9581 Y-3.6296
X-3.971 Y-3.6243
X-3.9842 Y-3.6196
X-3.9976 Y-3.6155
X-4.0112 Y-3.6119
X-4.0249 Y-3.6089
X-4.0387 Y-3.6065
X-4.0526 Y-3.6048
X-4.0665 Y-3.6036
X-4.0805 Y-3.6031
X-4.0946
X-4.1086 Y-3.6038
X-4.1225 Y-3.605
X-4.1364 Y-3.6069
X-4.1502 Y-3.6094
X-4.1639 Y-3.6125
X-4.1774 Y-3.6161
X-4.1907 Y-3.6204
X-4.2039 Y-3.6252
X-4.2168 Y-3.6306
X-4.2295 Y-3.6366
X-4.2419 Y-3.6431
X-4.254 Y-3.6501
X-4.2658 Y-3.6577
G3 X-4.4256 Y-3.7978 I0.1025 J-0.2781
G1 X-4.4323 Y-3.8118
X-4.4385 Y-3.8262
X-4.4441 Y-3.8407
X-4.4492 Y-3.8555
X-4.4536 Y-3.8705
X-4.4575 Y-3.8856
X-4.4607 Y-3.9009
X-4.4633 Y-3.9163
X-4.4654 Y-3.9318
X-4.4668 Y-3.9473
X-4.4676 Y-3.9629
X-4.4677 Y-3.9785
X-4.4673 Y-3.9942
X-4.4662 Y-4.0097
X-4.4646 Y-4.0253
X-4.4623 Y-4.0407
X-4.4594 Y-4.056
X-4.4558 Y-4.0713
X-4.4517 Y-4.0863
X-4.447 Y-4.1012
X-4.4417 Y-4.1159
X-4.4359 Y-4.1304
X-4.4294 Y-4.1446
X-4.4224 Y-4.1586
X-4.4149 Y-4.1722
X-4.4068 Y-4.1856
X-4.3982 Y-4.1986
X-4.3891 Y-4.2113
X-4.3795 Y-4.2236
X-4.3694 Y-4.2355
X-4.3588 Y-4.247
X-4.3478 Y-4.2581
X-4.3364 Y-4.2688
X-4.3246 Y-4.2789
X-4.3123 Y-4.2886
X-4.2997 Y-4.2978
X-4.2867 Y-4.3065
X-4.2734 Y-4.3147
X-4.2598 Y-4.3224
X-4.2459 Y-4.3295
X-4.2317 Y-4.336
X-4.2173 Y-4.342
X-4.2027 Y-4.3474
X-4.1878 Y-4.3522
X-4.1728 Y-4.3564
X-4.1576 Y-4.36
X-4.1423 Y-4.363
X-4.1268 Y-4.3654
X-4.1113 Y-4.3672
X-4.0958 Y-4.3684
X-4.0802 Y-4.369
X-4.0645 Y-4.3689
X-4.0489 Y-4.3682
X-4.0334 Y-4.3669
X-4.0179 Y-4.365
X-4.0025 Y-4.3625
X-3.9872 Y-4.3594
X-3.972 Y-4.3556
X-3.957 Y-4.3513
X-3.9422 Y-4.3464
X-3.9276 Y-4.3409
X-3.9132 Y-4.3348
X-3.8991 Y-4.3281
X-3.8852 Y-4.3209
X-3.8717 Y-4.3132
X-3.8584 Y-4.3049
X-3.8455 Y-4.2961
X-3.833 Y-4.2868
X-3.8208 Y-4.277
X-3.8091 Y-4.2668
X-3.7977 Y-4.256
X-3.7868 Y-4.2449
X-3.7763 Y-4.2333
X-3.7663 Y-4.2213
X-3.7568 Y-4.2089
X-3.7478 Y-4.1962
X-3.7393 Y-4.1831
X-3.7313 Y-4.1696
X-3.7239 Y-4.1559
X-3.717 Y-4.1419
X-3.7107 Y-4.1276
X-3.7049 Y-4.1131
X-3.6997 Y-4.0984
X-3.6951 Y-4.0835
X-3.6912 Y-4.0684
X-3.6878 Y-4.0531
X-3.685 Y-4.0378
X-3.6802 Y-4.0231
X-3.676 Y-4.0082
X-3.6724 Y-3.9931
X-3.6694 Y-3.9779
X-3.667 Y-3.9626
X-3.6653 Y-3.9472
X-3.6642 Y-3.9318
X-3.6637 Y-3.9163
X-3.6638 Y-3.9009
X-3.6645 Y-3.8854
X-3.6659 Y-3.87
X-3.6679 Y-3.8546
X-3.6705 Y-3.8394
X-3.6737 Y-3.8242
X-3.6776 Y-3.8092
X-3.682 Y-3.7944
X-3.687 Y-3.7798
X-3.6926 Y-3.7653
X-3.6988 Y-3.7512
X-3.7056 Y-3.7372
X-3.7129 Y-3.7236
X-3.7207 Y-3.7103
X-3.7291 Y-3.6973
X-3.738 Y-3.6846
X-3.7475 Y-3.6723
X-3.7573 Y-3.6604
X-3.7677 Y-3.6489
X-3.7785 Y-3.6379
X-3.7898 Y-3.6272
X-3.8015 Y-3.6171
X-3.8136 Y-3.6074
X-3.826 Y-3.5982
X-3.8389 Y-3.5896
X-3.852 Y-3.5814
X-3.8655 Y-3.5738
X-3.8793 Y-3.5668
X-3.8933 Y-3.5603
X-3.9076 Y-3.5544
X-3.9222 Y-3.549
X-3.9369 Y-3.5443
G3 X-4.2973 Y-3.5554 I-0.1676 J-0.414
X-4.5576 Y-4.002 I0.2359 J-0.4368
X-4.3707 Y-4.3646 I0.4278 J-0.009
X-3.8095 Y-4.3665 I0.282 J0.4384
X-3.5921 Y-4.0917 I-0.2042 J0.385
G1 X-3.6544 Y-3.7946
G3 X-3.9256 Y-3.5081 I-0.7019 J-0.3931
G1 X-3.9414 Y-3.4898
X-3.9456 Y-3.4832
G3 X-4.1963 Y-3.4289 I-0.1712 J-0.1845
G2 X-4.2973 Y-3.5554 I-0.2586 J0.1028
G3 X-4.303 Y-3.5697 I0.0095 J-0.0121
X-4.1902 Y-3.6037 I0.0643 J0.0091
X-4.1832 Y-3.4552 I-0.0882 J0.0786
X-4.1927 Y-3.4438 I-0.0952 J-0.07 F50.
G2 X-4.1963 Y-3.4289 I0.0111 J0.0106
G1 X-4.1932 Y-3.4195 F60.
X-4.1876 Y-3.4008
G2 X-4.0042 Y-3.3432 I0.1262 J-0.0812
G3 X-3.9456 Y-3.4832 I0.5209 J0.1356
G2 X-3.9455 Y-3.4986 I-0.0132 J-0.0078
X-3.9743 Y-3.5039 I-0.0166 J0.0094
X-4.0096 Y-3.3721 I0.0755 J0.0908
X-4.0036 Y-3.3585 I0.1108 J-0.041 F50.
G3 X-4.0042 Y-3.3432 I-0.0136 J0.0071
X-4.1831 Y-3.4005 I-0.0827 J-0.0496 F60.
G0 X-4.1876 Y-3.4008 Z-0.1793
X-3.8544 Y-4.3697
G1 Z-0.1946 F50.
X-3.8541 Z-0.1976
X-3.8533 Y-4.3699 Z-0.2005
X-3.8519 Y-4.3701 Z-0.2032
X-3.85 Y-4.3703 Z-0.2055
X-3.8477 Y-4.3706 Z-0.2074
X-3.845 Y-4.371 Z-0.2088
X-3.8422 Y-4.3714 Z-0.2097
X-3.8392 Y-4.3717 Z-0.21
G3 X-3.8085 Y-4.3681 I0.0083 J0.0618
G2 X-3.7019 Y-4.3491 I0.0955 J-0.2268 F60.
G3 X-3.5291 Y-4.1854 I-0.0417 J0.2171
X-3.5499 Y-4.1846 I-0.0108 J-0.0109
G1 X-3.556 Y-4.1898
X-3.7111 Y-4.322
X-3.7131 Y-4.3241
X-3.7147 Y-4.3265
G3 X-3.7019 Y-4.3491 I0.0136 J-0.0072 F50.
G2 X-3.614 Y-4.3621 I-0.0104 J-0.3734 F60.
G3 X-3.4849 Y-4.301 I0.0081 J0.1498
X-3.5058 Y-4.2818 I-0.0144 J0.0053
X-3.6223 Y-4.3375 I0.0307 J-0.2139
X-3.614 Y-4.3621 I0.012 J-0.0097 F50.
X-3.5225 Y-4.1939 I0.037 J0.0889 F60.
G2 X-3.5921 Y-4.0917 I0.217 J0.2228
G3 X-3.6176 Y-4.0867 I-0.0143 J-0.0055
G1 X-3.6197 Y-4.0888 Z-0.2097
X-3.6216 Y-4.0909 Z-0.2088
X-3.6235 Y-4.0928 Z-0.2074
X-3.6251 Y-4.0945 Z-0.2055
X-3.6264 Y-4.0959 Z-0.2032
X-3.6274 Y-4.0969 Z-0.2005
X-3.628 Y-4.0976 Z-0.1976
X-3.6282 Y-4.0978 Z-0.1946
G0 Z-0.1793
X-4.5371 Y-3.9612
G1 Z-0.1946 F50.
X-4.5373 Y-3.9614 Z-0.1976
X-4.5378 Y-3.9621 Z-0.2005
X-4.5386 Y-3.9633 Z-0.2032
X-4.5398 Y-3.9648 Z-0.2055
X-4.5412 Y-3.9666 Z-0.2074
X-4.5428 Y-3.9688 Z-0.2088
X-4.5445 Y-3.9711 Z-0.2097
X-4.5463 Y-3.9735 Z-0.21
G3 X-4.5581 Y-4.002 I0.0498 J-0.0374
G2 X-4.5948 Y-4.1227 I-0.2936 J0.0232 F60.
G3 X-4.5186 Y-4.3532 I0.2219 J-0.0545
X-4.5079 Y-4.3342 I-0.004 J0.0148
G1 X-4.5097 Y-4.3279
X-4.5671 Y-4.1269
X-4.5678 Y-4.1248
X-4.5688 Y-4.123
G3 X-4.5948 Y-4.1227 I-0.0131 J-0.0081 F50.
G2 X-4.6389 Y-4.1819 I-0.1789 J0.0875 F60.
G3 X-4.6323 Y-4.3609 I0.1306 J-0.0848
X-4.6121 Y-4.3462 I0.0048 J0.0146
G1 Y-4.3444
X-4.6127 Y-4.1927
X-4.613 Y-4.1902
X-4.6136 Y-4.1877
G3 X-4.6389 Y-4.1819 I-0.0145 J-0.0051 F50.
G1 X-4.6457 Y-4.1862 F60.
X-4.652 Y-4.191
X-4.658 Y-4.1963
X-4.6636 Y-4.2021
X-4.6686 Y-4.2082
X-4.6732 Y-4.2148
X-4.6773 Y-4.2216
X-4.6808 Y-4.2288
X-4.6837 Y-4.2363
X-4.6861 Y-4.2439
X-4.6878 Y-4.2517
X-4.6889 Y-4.2596
X-4.6894 Y-4.2676
X-4.6893 Y-4.2756
X-4.6886 Y-4.2835
X-4.6872 Y-4.2914
X-4.6852 Y-4.2991
X-4.6827 Y-4.3067
X-4.6795 Y-4.314
X-4.6758 Y-4.3211
X-4.6716 Y-4.3279
X-4.6668 Y-4.3343
X-4.6615 Y-4.3403
X-4.6558 Y-4.3459
X-4.6497 Y-4.351
X-4.6432 Y-4.3556
X-4.6363 Y-4.3597
X-4.6292 Y-4.3633
X-4.6217 Y-4.3663
X-4.6141 Y-4.3687
X-4.6063 Y-4.3704
X-4.5984 Y-4.3716
X-4.5905 Y-4.3722
X-4.5825 Y-4.3721
X-4.5745 Y-4.3714
X-4.5666 Y-4.3701
X-4.5589 Y-4.3682
X-4.5513 Y-4.3657
X-4.544 Y-4.3626
X-4.5369 Y-4.3589
X-4.5301 Y-4.3547
X-4.5236 Y-4.35
X-4.5176 Y-4.3448
G2 X-4.3707 Y-4.3646 I0.0122 J-0.4626
G3 X-4.3562 Y-4.3616 I0.0045 J0.0147
G1 X-4.3548 Y-4.3596 Z-0.2098
X-4.3534 Y-4.3578 Z-0.2093
X-4.3521 Y-4.356 Z-0.2084
X-4.3516 Y-4.3536 Z-0.2068
X-4.3512 Y-4.3516 Z-0.2049
X-4.3509 Y-4.3499 Z-0.2026
Y-4.3487 Z-0.2001
X-4.351 Y-4.348 Z-0.1974
Y-4.3477 Z-0.1946
G0 Z0.4
X-1.4387 Y-5.8232
Z-0.1793
G1 Z-0.1946 F50.
X-1.4384 Y-5.8234 Z-0.1976
X-1.4376 Y-5.8237 Z-0.2005
X-1.4363 Y-5.8242 Z-0.2032
X-1.4345 Y-5.8249 Z-0.2055
X-1.4324 Y-5.8258 Z-0.2074
X-1.4299 Y-5.8268 Z-0.2088
X-1.4272 Y-5.8279 Z-0.2097
X-1.4245 Y-5.829 Z-0.21
G3 X-1.3431 Y-5.8519 I0.1466 J0.364
X-1.2109 Y-5.7804 I0.0255 J0.1109 F60.
X-1.069 Y-5.3833 I-0.4139 J0.3718
X-1.445 Y-5.4137 I-0.1866 J-0.0327
G2 X-1.7764 Y-5.8983 I-1.4717 J0.6508
G3 X-1.8411 Y-6.108 I0.1222 J-0.1526
X-1.494 Y-6.1492 I0.1836 J0.0639
G2 X-1.1613 Y-5.871 I2.1586 J-2.2436
G3 X-0.9832 Y-5.3364 I-0.4159 J0.4355
G1 X-0.9841 Y-5.3349
X-0.9851 Y-5.3335
G2 X-1.0545 Y-5.2362 I0.2841 J0.2757
G1 X-1.0619 Y-5.2264
X-1.0698 Y-5.217
X-1.0781 Y-5.2079
X-1.0868 Y-5.1993
X-1.096 Y-5.1912
X-1.1056 Y-5.1834
X-1.1155 Y-5.1762
X-1.1257 Y-5.1694
X-1.1363 Y-5.1632
X-1.1471 Y-5.1574
X-1.1583 Y-5.1522
X-1.1696 Y-5.1475
X-1.1812 Y-5.1434
X-1.1929 Y-5.1399
X-1.2049 Y-5.1369
X-1.2169 Y-5.1345
X-1.2291 Y-5.1327
X-1.2413 Y-5.1315
X-1.2535 Y-5.1309
X-1.2658 Y-5.1308
X-1.2781 Y-5.1314
X-1.2903 Y-5.1325
X-1.3025 Y-5.1343
X-1.3145 Y-5.1366
X-1.3265 Y-5.1395
X-1.3382 Y-5.143
X-1.3498 Y-5.1471
X-1.3612 Y-5.1517
X-1.3724 Y-5.1568
X-1.3832 Y-5.1625
X-1.3938 Y-5.1687
X-1.4041 Y-5.1754
X-1.4141 Y-5.1827
X-1.4237 Y-5.1903
X-1.4329 Y-5.1985
X-1.522 Y-5.3417
G2 X-1.7664 Y-5.7435 I-1.9374 J0.9032
G1 X-1.9109 Y-5.9721
X-1.9158 Y-5.9838
X-1.92 Y-5.9956
X-1.9237 Y-6.0076
X-1.9268 Y-6.0198
X-1.9293 Y-6.0321
X-1.9311 Y-6.0446
X-1.9324 Y-6.0571
X-1.933 Y-6.0697
Y-6.0822
X-1.9324 Y-6.0948
X-1.9312 Y-6.1073
X-1.9294 Y-6.1198
X-1.9269 Y-6.1321
X-1.9238 Y-6.1443
X-1.9202 Y-6.1563
X-1.9159 Y-6.1682
X-1.9111 Y-6.1798
X-1.9057 Y-6.1912
X-1.8998 Y-6.2022
X-1.8933 Y-6.213
X-1.8863 Y-6.2235
X-1.8788 Y-6.2336
X-1.8708 Y-6.2433
X-1.8624 Y-6.2526
X-1.8535 Y-6.2615
X-1.8441 Y-6.2699
X-1.8344 Y-6.2778
X-1.8243 Y-6.2853
X-1.8138 Y-6.2923
X-1.803 Y-6.2987
X-1.7919 Y-6.3046
X-1.7805 Y-6.3099
X-1.7688 Y-6.3147
X-1.757 Y-6.3189
X-1.7449 Y-6.3225
X-1.7327 Y-6.3255
X-1.7204 Y-6.3279
X-1.7079 Y-6.3297
X-1.6954 Y-6.3309
X-1.6828 Y-6.3314
X-1.6703
X-1.6577 Y-6.3307
X-1.6452 Y-6.3294
X-1.6328 Y-6.3275
X-1.431 Y-6.2154
X-1.3272 Y-6.1305
X-1.2232 Y-6.0459
X-1.119 Y-5.9616
G2 X-0.9271 Y-5.5687 I0.535 J-0.018
G3 X-0.8776 Y-5.424 I-0.1264 J0.124
G1 X-0.8803 Y-5.4225
X-0.8832 Y-5.4215
X-0.8862 Y-5.421
X-0.8892 Y-5.4212
X-0.8921 Y-5.4218
X-0.8948 Y-5.423
X-0.8972 Y-5.4246
X-0.8993 Y-5.4266
X-0.9009 Y-5.429
X-0.9021 Y-5.4316
X-0.9037 Y-5.4354
X-0.9506 Y-5.5507
X-0.9514 Y-5.5536
X-0.9517 Y-5.5567
X-0.9514 Y-5.5597
G3 X-0.927 Y-5.5687 I0.015 J0.0032 F50.
X-0.845 Y-5.51 I-0.0465 J0.1516 F60.
G1 X-0.8426 Y-5.5039
X-0.8407 Y-5.4977
X-0.8395 Y-5.4913
