%
(971-23-P-0210_ELECTRONICS GUARD 2_1537)
(T1  D=0.1537 CR=0. - ZMIN=-0.0512 - FLAT END MILL)
G90 G94 G17 G91.1
G64 P0.001 Q0.001
G20
G53 G0 Z0.
(2D SLOT CUT)
M9
T1 M6
S13000 M3
G4 P10.
G54
M7
G0 X6.8578 Y-12.7525
G43 Z0.6 H1
G0 Z0.2
G1 Z0.1 F13.333
X6.5106 Z0.0388
Z0.0488
X6.
X5.7569 F20.
Z-0.0512 F13.333
X4.1 F20.
G3 X4.0802 Y-12.7637 I0. J-0.0232
G1 Z0.0488
G3 X4.0768 Y-12.7756 I0.0198 J-0.0119
G1 Y-13.5174
Z-0.0512 F13.333
Y-15.4591 F20.
Z0.0488
Y-16.2128
Z-0.0512 F13.333
Y-16.5756 F20.
G3 X4.1 Y-16.5988 I0.0232 J0.
G1 X5.6548
Z0.0488
X6.4085
Z-0.0512 F13.333
X7.9 F20.
G3 X7.9232 Y-16.5756 I0. J0.0232
G1 Y-12.7756
G3 X7.9 Y-12.7525 I-0.0232 J0.
G1 X6.5106
Z0.0488
X6.
G0 Z0.4
X-0.8578 Y-4.3606
Z0.2
G1 Z0.1 F13.333
X0. Z-0.0512
X5.4224 F20.
Z0.0488
X6.1761
Z-0.0512 F13.333
X7.9 F20.
G2 X8.0769 Y-4.5375 I0. J-0.1768
G1 Y-7.2756
G3 X8.1 Y-7.2988 I0.0232 J0.
G1 X9.8183
Z0.0488
X10.572
Z-0.0512 F13.333
X12.4238 F20.
Y-5.7256
G2 X12.6006 Y-5.5488 I0.1769 J0.
G1 X13.0834
Z0.0488
X13.8371
Z-0.0512 F13.333
X14.4006 F20.
G2 X14.5775 Y-5.7256 I0. J-0.1768
G1 Y-5.7307
Z0.0488
Y-6.4844
Z-0.0512 F13.333
Y-9.6292 F20.
Z0.0488
Y-10.3829
Z-0.0512 F13.333
Y-12.7979 F20.
Z0.0488
Y-13.5516
Z-0.0512 F13.333
Y-14.5256 F20.
G3 X14.6006 Y-14.5488 I0.0232 J0.
G1 X16.7763
G2 X16.9531 Y-14.7256 I0. J-0.1769
G1 Y-16.1604
Z0.0488
Y-16.9141
Z-0.0512 F13.333
Y-18.0256 F20.
G2 X16.7763 Y-18.2025 I-0.1768 J0.
G1 X14.32
Z0.0488
X13.5663
Z-0.0512 F13.333
X12.3894 F20.
Y-19.1356
G2 X12.2125 Y-19.3125 I-0.1769 J0.
G1 X10.3636
Z0.0488
X9.6099
Z-0.0512 F13.333
X5.136 F20.
Z0.0488
X4.3823
Z-0.0512 F13.333
X-2.0184 F20.
Z0.0488
X-2.7721
Z-0.0512 F13.333
X-3.65 F20.
G2 X-3.8268 Y-19.1356 I0. J0.1768
G1 Y-18.2256
G3 X-3.85 Y-18.2025 I-0.0232 J0.
G1 X-7.9658
Z0.0488
X-8.7195
Z-0.0512 F13.333
X-13.3568 F20.
Z0.0488
X-14.1105
Z-0.0512 F13.333
X-16.7763 F20.
G2 X-16.9531 Y-18.0256 I0. J0.1768
G1 Y-16.6892
Z0.0488
Y-15.9355
Z-0.0512 F13.333
Y-14.7256 F20.
G2 X-16.7763 Y-14.5488 I0.1768 J0.
G1 X-16.4902
Z0.0488
X-15.7365
Z-0.0512 F13.333
X-15.2569 F20.
G3 X-15.2337 Y-14.5256 I0. J0.0232
G1 Y-13.4631
Z0.0488
Y-12.7094
Z-0.0512 F13.333
Y-7.7137 F20.
Z0.0488
Y-6.96
Z-0.0512 F13.333
Y-5.7256 F20.
G2 X-15.0569 Y-5.5488 I0.1768 J0.
G1 X-14.2878
Z0.0488
X-13.5341
Z-0.0512 F13.333
X-12.6006 F20.
G2 X-12.4238 Y-5.7256 I0. J-0.1768
G1 Y-7.2988
X-10.7261
Z0.0488
X-9.9724
Z-0.0512 F13.333
X-8.1 F20.
G2 X-7.9232 Y-7.4756 I0. J-0.1768
G1 Y-7.93
Z0.0488
Y-8.6837
Z-0.0512 F13.333
Y-10.3432 F20.
Z0.0488
Y-11.0969
Z-0.0512 F13.333
Y-12.2756 F20.
G3 X-7.9 Y-12.2988 I0.0232 J0.
G1 X-6.8681
Z0.0488
X-6.1144
Z-0.0512 F13.333
X-5.1 F20.
G3 X-5.0769 Y-12.2756 I0. J0.0232
G1 Y-11.493
Z0.0488
Y-10.7393
Z-0.0512 F13.333
Y-6.0837 F20.
Z0.0488
Y-5.33
Z-0.0512 F13.333
Y-4.5375 F20.
G2 X-4.9 Y-4.3606 I0.1769 J0.
G1 X-3.8776
Z0.0488
X-3.1239
Z-0.0512 F13.333
X0. F20.
G0 Z0.6
M9
G53 Z0.
M30
%
