%
(971-23-P-0012_DRIVETRAIN CORNER GUSSET_1508)
(T1  D=0.1508 CR=0. - ZMIN=-0.155 - FLAT END MILL)
G90 G94 G17 G91.1
G64 P0.001 Q0.001
G20
G53 G0 Z0.
(.3 CIRCLUAR THROUGH HOLE 2)
M9
T1 M6
S22000 M3
G4 P10.
G54
M7
G0 X-10.7387 Y-8.9887
G43 Z0.6 H1
G0 Z0.13
G1 Z0.0651 F40.
G18 G3 X-10.7538 Z0.05 I-0.0151 K0.
G1 X-10.7613
G17 G3 X-10.7726 Y-9. I0. J-0.0113
X-10.7274 Z0.0327 I0.0226 J0.
X-10.7726 Z0.0154 I-0.0226 J0.
X-10.7274 Z-0.0018 I0.0226 J0.
X-10.7726 Z-0.0191 I-0.0226 J0.
X-10.7274 Z-0.0364 I0.0226 J0.
X-10.7726 Z-0.0537 I-0.0226 J0.
X-10.7274 Z-0.071 I0.0226 J0.
X-10.7726 Z-0.0882 I-0.0226 J0.
X-10.7274 Z-0.1055 I0.0226 J0.
X-10.7726 Z-0.1228 I-0.0226 J0.
X-10.7274 Z-0.1401 I0.0226 J0.
X-10.7706 Y-8.9906 Z-0.155 I-0.0226 J0.
X-10.7294 Y-9.0094 I0.0206 J-0.0094
X-10.7706 Y-8.9906 I-0.0206 J0.0094
X-10.765 Y-9.0056 I0.0103 J-0.0047
G1 X-10.7581 Y-9.0087
X-10.7554 Y-9.0099 Z-0.1547
X-10.7529 Y-9.0111 Z-0.1539
X-10.7505 Y-9.0122 Z-0.1525
X-10.7484 Y-9.0131 Z-0.1506
X-10.7467 Y-9.0139 Z-0.1483
X-10.7455 Y-9.0145 Z-0.1457
X-10.7447 Y-9.0149 Z-0.1429
X-10.7444 Y-9.015 Z-0.1399
G0 Z0.4
X-11.2387 Y-8.9887
Z0.13
G1 Z0.0651 F40.
G18 G3 X-11.2538 Z0.05 I-0.0151 K0.
G1 X-11.2613
G17 G3 X-11.2726 Y-9. I0. J-0.0113
X-11.2274 Z0.0327 I0.0226 J0.
X-11.2726 Z0.0154 I-0.0226 J0.
X-11.2274 Z-0.0018 I0.0226 J0.
X-11.2726 Z-0.0191 I-0.0226 J0.
X-11.2274 Z-0.0364 I0.0226 J0.
X-11.2726 Z-0.0537 I-0.0226 J0.
X-11.2274 Z-0.071 I0.0226 J0.
X-11.2726 Z-0.0882 I-0.0226 J0.
X-11.2274 Z-0.1055 I0.0226 J0.
X-11.2726 Z-0.1228 I-0.0226 J0.
X-11.2274 Z-0.1401 I0.0226 J0.
X-11.2706 Y-8.9906 Z-0.155 I-0.0226 J0.
X-11.2294 Y-9.0094 I0.0206 J-0.0094
X-11.2706 Y-8.9906 I-0.0206 J0.0094
X-11.265 Y-9.0056 I0.0103 J-0.0047
G1 X-11.2581 Y-9.0087
X-11.2554 Y-9.0099 Z-0.1547
X-11.2529 Y-9.0111 Z-0.1539
X-11.2505 Y-9.0122 Z-0.1525
X-11.2484 Y-9.0131 Z-0.1506
X-11.2467 Y-9.0139 Z-0.1483
X-11.2455 Y-9.0145 Z-0.1457
X-11.2447 Y-9.0149 Z-0.1429
X-11.2444 Y-9.015 Z-0.1399
G0 Z0.4
X-11.7387 Y-8.9887
Z0.13
G1 Z0.0651 F40.
G18 G3 X-11.7538 Z0.05 I-0.0151 K0.
G1 X-11.7613
G17 G3 X-11.7726 Y-9. I0. J-0.0113
X-11.7274 Z0.0327 I0.0226 J0.
X-11.7726 Z0.0154 I-0.0226 J0.
X-11.7274 Z-0.0018 I0.0226 J0.
X-11.7726 Z-0.0191 I-0.0226 J0.
X-11.7274 Z-0.0364 I0.0226 J0.
X-11.7726 Z-0.0537 I-0.0226 J0.
X-11.7274 Z-0.071 I0.0226 J0.
X-11.7726 Z-0.0882 I-0.0226 J0.
X-11.7274 Z-0.1055 I0.0226 J0.
X-11.7726 Z-0.1228 I-0.0226 J0.
X-11.7274 Z-0.1401 I0.0226 J0.
X-11.7706 Y-8.9906 Z-0.155 I-0.0226 J0.
X-11.7295 Y-9.0094 I0.0206 J-0.0094
X-11.7706 Y-8.9906 I-0.0206 J0.0094
X-11.765 Y-9.0056 I0.0103 J-0.0047
G1 X-11.7581 Y-9.0087
X-11.7554 Y-9.0099 Z-0.1547
X-11.7529 Y-9.0111 Z-0.1539
X-11.7505 Y-9.0122 Z-0.1525
X-11.7484 Y-9.0131 Z-0.1506
X-11.7467 Y-9.0139 Z-0.1483
X-11.7455 Y-9.0145 Z-0.1457
X-11.7447 Y-9.0149 Z-0.1429
X-11.7444 Y-9.015 Z-0.1399
G0 Z0.4
X-14.2613 Y-9.0113
Z0.13
G1 Z0.0651 F40.
G18 G2 X-14.2462 Z0.05 I0.0151 K0.
G1 X-14.2387
G17 G3 X-14.2274 Y-9. I0. J0.0113
X-14.2726 Z0.0327 I-0.0226 J0.
X-14.2512 Y-9.0226 Z0.0244 I0.0226 J0.
X-14.2488 Y-8.9774 Z0.0071 I0.0012 J0.0226
X-14.2512 Y-9.0226 Z-0.0102 I-0.0012 J-0.0226
X-14.2464 Y-8.9777 Z-0.0269 I0.0012 J0.0226
X-14.2536 Y-9.0223 Z-0.0442 I-0.0036 J-0.0223
X-14.2279 Y-9.0048 Z-0.0525 I0.0036 J0.0223
X-14.2721 Y-8.9952 Z-0.0698 I-0.0221 J0.0048
X-14.2279 Y-9.0048 Z-0.0871 I0.0221 J-0.0048
X-14.2721 Y-8.9952 Z-0.1043 I-0.0221 J0.0048
X-14.2279 Y-9.0048 Z-0.1216 I0.0221 J-0.0048
X-14.2721 Y-8.9952 Z-0.1389 I-0.0221 J0.0048
X-14.2294 Y-9.0094 Z-0.155 I0.0221 J-0.0048
X-14.2706 Y-8.9906 I-0.0206 J0.0094
X-14.2294 Y-9.0094 I0.0206 J-0.0094
X-14.235 Y-8.9944 I-0.0103 J0.0047
G1 X-14.2419 Y-8.9913
X-14.2446 Y-8.9901 Z-0.1547
X-14.2471 Y-8.9889 Z-0.1539
X-14.2495 Y-8.9878 Z-0.1525
X-14.2516 Y-8.9869 Z-0.1506
X-14.2533 Y-8.9861 Z-0.1483
X-14.2545 Y-8.9855 Z-0.1457
X-14.2553 Y-8.9851 Z-0.1429
X-14.2556 Y-8.985 Z-0.1399
G0 Z0.4
X-14.7387 Y-8.9887
Z0.13
G1 Z0.0651 F40.
G18 G3 X-14.7538 Z0.05 I-0.0151 K0.
G1 X-14.7613
G17 G3 X-14.7726 Y-9. I0. J-0.0113
X-14.7274 Z0.0327 I0.0226 J0.
X-14.7726 Z0.0154 I-0.0226 J0.
X-14.7274 Z-0.0018 I0.0226 J0.
X-14.7726 Z-0.0191 I-0.0226 J0.
X-14.7274 Z-0.0364 I0.0226 J0.
X-14.7726 Z-0.0537 I-0.0226 J0.
X-14.7274 Z-0.071 I0.0226 J0.
X-14.7726 Z-0.0882 I-0.0226 J0.
X-14.7274 Z-0.1055 I0.0226 J0.
X-14.7726 Z-0.1228 I-0.0226 J0.
X-14.7274 Z-0.1401 I0.0226 J0.
X-14.7706 Y-8.9906 Z-0.155 I-0.0226 J0.
X-14.7294 Y-9.0094 I0.0206 J-0.0094
X-14.7706 Y-8.9906 I-0.0206 J0.0094
X-14.765 Y-9.0056 I0.0103 J-0.0047
G1 X-14.7581 Y-9.0087
X-14.7554 Y-9.0099 Z-0.1547
X-14.7529 Y-9.0111 Z-0.1539
X-14.7505 Y-9.0122 Z-0.1525
X-14.7484 Y-9.0131 Z-0.1506
X-14.7467 Y-9.0139 Z-0.1483
X-14.7455 Y-9.0145 Z-0.1457
X-14.7447 Y-9.0149 Z-0.1429
X-14.7444 Y-9.015 Z-0.1399
G0 Z0.4
X-15.2387 Y-7.9887
Z0.13
G1 Z0.0651 F40.
G18 G3 X-15.2538 Z0.05 I-0.0151 K0.
G1 X-15.2613
G17 G3 X-15.2726 Y-8. I0. J-0.0113
X-15.2274 Z0.0327 I0.0226 J0.
X-15.2726 Z0.0154 I-0.0226 J0.
X-15.2274 Z-0.0018 I0.0226 J0.
X-15.2726 Z-0.0191 I-0.0226 J0.
X-15.2274 Z-0.0364 I0.0226 J0.
X-15.2726 Z-0.0537 I-0.0226 J0.
X-15.2274 Z-0.071 I0.0226 J0.
X-15.2726 Z-0.0882 I-0.0226 J0.
X-15.2274 Z-0.1055 I0.0226 J0.
X-15.2726 Z-0.1228 I-0.0226 J0.
X-15.2274 Z-0.1401 I0.0226 J0.
X-15.2706 Y-7.9906 Z-0.155 I-0.0226 J0.
X-15.2295 Y-8.0094 I0.0206 J-0.0094
X-15.2706 Y-7.9906 I-0.0206 J0.0094
X-15.265 Y-8.0056 I0.0103 J-0.0047
G1 X-15.2581 Y-8.0087
X-15.2554 Y-8.0099 Z-0.1547
X-15.2529 Y-8.0111 Z-0.1539
X-15.2505 Y-8.0122 Z-0.1525
X-15.2484 Y-8.0131 Z-0.1506
X-15.2467 Y-8.0139 Z-0.1483
X-15.2455 Y-8.0145 Z-0.1457
X-15.2447 Y-8.0149 Z-0.1429
X-15.2444 Y-8.015 Z-0.1399
G0 Z0.4
X-15.2387 Y-7.4887
Z0.13
G1 Z0.0651 F40.
G18 G3 X-15.2538 Z0.05 I-0.0151 K0.
G1 X-15.2613
G17 G3 X-15.2726 Y-7.5 I0. J-0.0113
X-15.2274 Z0.0327 I0.0226 J0.
X-15.2726 Z0.0154 I-0.0226 J0.
X-15.2274 Z-0.0018 I0.0226 J0.
X-15.2726 Z-0.0191 I-0.0226 J0.
X-15.2274 Z-0.0364 I0.0226 J0.
X-15.2726 Z-0.0537 I-0.0226 J0.
X-15.2274 Z-0.071 I0.0226 J0.
X-15.2726 Z-0.0882 I-0.0226 J0.
X-15.2274 Z-0.1055 I0.0226 J0.
X-15.2726 Z-0.1228 I-0.0226 J0.
X-15.2274 Z-0.1401 I0.0226 J0.
X-15.2706 Y-7.4906 Z-0.155 I-0.0226 J0.
X-15.2295 Y-7.5094 I0.0206 J-0.0094
X-15.2706 Y-7.4906 I-0.0206 J0.0094
X-15.265 Y-7.5056 I0.0103 J-0.0047
G1 X-15.2581 Y-7.5087
X-15.2554 Y-7.5099 Z-0.1547
X-15.2529 Y-7.5111 Z-0.1539
X-15.2505 Y-7.5122 Z-0.1525
X-15.2484 Y-7.5131 Z-0.1506
X-15.2467 Y-7.5139 Z-0.1483
X-15.2455 Y-7.5145 Z-0.1457
X-15.2447 Y-7.5149 Z-0.1429
X-15.2444 Y-7.515 Z-0.1399
G0 Z0.4
X-15.2387 Y-6.9887
Z0.13
G1 Z0.0651 F40.
G18 G3 X-15.2538 Z0.05 I-0.0151 K0.
G1 X-15.2613
G17 G3 X-15.2726 Y-7. I0. J-0.0113
X-15.2274 Z0.0327 I0.0226 J0.
X-15.2726 Z0.0154 I-0.0226 J0.
X-15.2274 Z-0.0018 I0.0226 J0.
X-15.2726 Z-0.0191 I-0.0226 J0.
X-15.2274 Z-0.0364 I0.0226 J0.
X-15.2726 Z-0.0537 I-0.0226 J0.
X-15.2274 Z-0.071 I0.0226 J0.
X-15.2726 Z-0.0882 I-0.0226 J0.
X-15.2274 Z-0.1055 I0.0226 J0.
X-15.2726 Z-0.1228 I-0.0226 J0.
X-15.2274 Z-0.1401 I0.0226 J0.
X-15.2706 Y-6.9906 Z-0.155 I-0.0226 J0.
X-15.2295 Y-7.0094 I0.0206 J-0.0094
X-15.2706 Y-6.9906 I-0.0206 J0.0094
X-15.265 Y-7.0056 I0.0103 J-0.0047
G1 X-15.2581 Y-7.0087
X-15.2554 Y-7.0099 Z-0.1547
X-15.2529 Y-7.0111 Z-0.1539
X-15.2505 Y-7.0122 Z-0.1525
X-15.2484 Y-7.0131 Z-0.1506
X-15.2467 Y-7.0139 Z-0.1483
X-15.2455 Y-7.0145 Z-0.1457
X-15.2447 Y-7.0149 Z-0.1429
X-15.2444 Y-7.015 Z-0.1399
G0 Z0.4
X-15.2387 Y-6.4887
Z0.13
G1 Z0.0651 F40.
G18 G3 X-15.2538 Z0.05 I-0.0151 K0.
G1 X-15.2613
G17 G3 X-15.2726 Y-6.5 I0. J-0.0113
X-15.2274 Z0.0327 I0.0226 J0.
X-15.2726 Z0.0154 I-0.0226 J0.
X-15.2274 Z-0.0018 I0.0226 J0.
X-15.2726 Z-0.0191 I-0.0226 J0.
X-15.2274 Z-0.0364 I0.0226 J0.
X-15.2726 Z-0.0537 I-0.0226 J0.
X-15.2274 Z-0.071 I0.0226 J0.
X-15.2726 Z-0.0882 I-0.0226 J0.
X-15.2274 Z-0.1055 I0.0226 J0.
X-15.2726 Z-0.1228 I-0.0226 J0.
X-15.2274 Z-0.1401 I0.0226 J0.
X-15.2706 Y-6.4906 Z-0.155 I-0.0226 J0.
X-15.2295 Y-6.5094 I0.0206 J-0.0094
X-15.2706 Y-6.4906 I-0.0206 J0.0094
X-15.265 Y-6.5056 I0.0103 J-0.0047
G1 X-15.2581 Y-6.5087
X-15.2554 Y-6.5099 Z-0.1547
X-15.2529 Y-6.5111 Z-0.1539
X-15.2505 Y-6.5122 Z-0.1525
X-15.2484 Y-6.5131 Z-0.1506
X-15.2467 Y-6.5139 Z-0.1483
X-15.2455 Y-6.5145 Z-0.1457
X-15.2447 Y-6.5149 Z-0.1429
X-15.2444 Y-6.515 Z-0.1399
G0 Z0.6
(2D SLOT CUT)
M7
G0 X-12.1183 Y-9.5754
Z0.6
Z0.2
G1 Z0.1 F13.333
X-13.125 Z-0.0775 F40.
X-14.4499 F55.
Z-0.075
X-15.2007
Z-0.0775 F13.333
X-15.625 F55.
G2 X-15.8254 Y-9.375 I0. J0.2004
G1 Y-7.6708
Z-0.075
Y-6.92
Z-0.0775 F13.333
Y-6.375 F55.
G2 X-15.625 Y-6.1746 I0.2004 J0.
G1 X-15.559
Z-0.075
X-14.875
G2 X-14.8082 Y-6.1861 I0. J-0.2004
G1 Z-0.0775 F13.333
G2 X-14.6746 Y-6.375 I-0.0668 J-0.1889 F55.
G1 Y-6.9482
G3 X-14.6601 Y-6.9833 I0.0496 J0.
G1 X-13.2333 Y-8.4101
G3 X-13.1982 Y-8.4246 I0.0351 J0.0351
G1 X-12.1324
Z-0.075
X-11.3816
Z-0.0775 F13.333
X-10.625 F55.
G2 X-10.4246 Y-8.625 I0. J-0.2004
G1 Y-9.375
G2 X-10.625 Y-9.5754 I-0.2004 J0.
G1 X-11.4229
Z-0.075
X-12.1737
Z-0.0775 F13.333
X-13.125 F55.
X-13.5645 Z-0.155 F40.
X-14.4499 F55.
Z-0.075
X-15.2007
Z-0.155 F13.333
X-15.625 F55.
G2 X-15.8254 Y-9.375 I0. J0.2004
G1 Y-7.6708
Z-0.075
Y-6.92
Z-0.155 F13.333
Y-6.375 F55.
G2 X-15.625 Y-6.1746 I0.2004 J0.
G1 X-15.559
Z-0.075
X-14.875
G2 X-14.8082 Y-6.1861 I0. J-0.2004
G1 Z-0.155 F13.333
G2 X-14.6746 Y-6.375 I-0.0668 J-0.1889 F55.
G1 Y-6.9482
G3 X-14.6601 Y-6.9833 I0.0496 J0.
G1 X-13.2333 Y-8.4101
G3 X-13.1982 Y-8.4246 I0.0351 J0.0351
G1 X-12.1324
Z-0.075
X-11.3816
Z-0.155 F13.333
X-10.625 F55.
G2 X-10.4246 Y-8.625 I0. J-0.2004
G1 Y-9.375
G2 X-10.625 Y-9.5754 I-0.2004 J0.
G1 X-11.4229
Z-0.075
X-12.1737
Z-0.155 F13.333
X-13.5645 F55.
G0 Z0.6
M9
G53 Z0.
M30
%
