%
(FUNNEL_1554)
(T1  D=0.1554 CR=0. - ZMIN=-0.3 - FLAT END MILL)
G90 G94 G17 G91.1
G64 P0.001 Q0.001
G20
G53 G0 Z0.
(SMALL HOLE BORE)
M9
T1 M6
S13000 M3
G4 P10.
G54
M7
G0 X-7.5643 Y-5.8899
G43 Z0.6 H1
G0 Z0.13
G1 Z0.0655 F35.
G18 G3 X-7.5799 Z0.05 I-0.0155 K0.
G1 X-7.5877
G17 G3 X-7.5991 Y-5.9013 I0. J-0.0114
X-7.5535 Z0. I0.0228 J0.
X-7.5692 Y-5.8796 Z-0.02 I-0.0228 J0.
X-7.5833 Y-5.923 Z-0.07 I-0.007 J-0.0217
X-7.5578 Y-5.9147 Z-0.09 I0.007 J0.0217
X-7.5947 Y-5.8879 Z-0.14 I-0.0184 J0.0134
X-7.5578 Y-5.9147 Z-0.19 I0.0184 J-0.0134
X-7.5947 Y-5.8879 Z-0.24 I-0.0184 J0.0134
X-7.5578 Y-5.9147 Z-0.29 I0.0184 J-0.0134
X-7.5535 Y-5.9013 Z-0.3 I-0.0184 J0.0134
X-7.5991 I-0.0228 J0.
X-7.5535 I0.0228 J0.
X-7.5649 Y-5.8899 I-0.0114 J0.
G1 X-7.5726
G18 G3 X-7.5882 Z-0.2845 I0. K0.0155
G0 Z0.4
X-7.9474 Y-6.2729
Z0.13
G1 Z0.0655 F35.
G3 X-7.9629 Z0.05 I-0.0155 K0.
G1 X-7.9707
G17 G3 X-7.9821 Y-6.2843 I0. J-0.0114
X-7.9365 Z0. I0.0228 J0.
X-7.9821 Z-0.05 I-0.0228 J0.
X-7.9408 Y-6.2977 Z-0.09 I0.0228 J0.
X-7.9777 Y-6.2709 Z-0.14 I-0.0184 J0.0134
X-7.9408 Y-6.2977 Z-0.19 I0.0184 J-0.0134
X-7.9777 Y-6.2709 Z-0.24 I-0.0184 J0.0134
X-7.9408 Y-6.2977 Z-0.29 I0.0184 J-0.0134
X-7.9365 Y-6.2843 Z-0.3 I-0.0184 J0.0134
X-7.9821 I-0.0228 J0.
X-7.9365 I0.0228 J0.
X-7.9479 Y-6.2729 I-0.0114 J0.
G1 X-7.9556
G18 G3 X-7.9712 Z-0.2845 I0. K0.0155
G0 Z0.4
X-8.3304 Y-6.656
Z0.13
G1 Z0.0655 F35.
G3 X-8.3459 Z0.05 I-0.0155 K0.
G1 X-8.3537
G17 G3 X-8.3651 Y-6.6674 I0. J-0.0114
X-8.3195 Z0. I0.0228 J0.
X-8.3651 Z-0.05 I-0.0228 J0.
X-8.3238 Y-6.6808 Z-0.09 I0.0228 J0.
X-8.3607 Y-6.654 Z-0.14 I-0.0184 J0.0134
X-8.3238 Y-6.6808 Z-0.19 I0.0184 J-0.0134
X-8.3607 Y-6.654 Z-0.24 I-0.0184 J0.0134
X-8.3238 Y-6.6808 Z-0.29 I0.0184 J-0.0134
X-8.3195 Y-6.6674 Z-0.3 I-0.0184 J0.0134
X-8.3651 I-0.0228 J0.
X-8.3195 I0.0228 J0.
X-8.3309 Y-6.656 I-0.0114 J0.
G1 X-8.3387
G18 G3 X-8.3542 Z-0.2845 I0. K0.0155
G0 Z0.4
X-8.0652 Y-6.9211
Z0.13
G1 Z0.0655 F35.
G3 X-8.0808 Z0.05 I-0.0155 K0.
G1 X-8.0885
G17 G3 X-8.0999 Y-6.9325 I0. J-0.0114
X-8.0543 Z0. I0.0228 J0.
X-8.0701 Y-6.9108 Z-0.02 I-0.0228 J0.
X-8.0842 Y-6.9542 Z-0.07 I-0.007 J-0.0217
X-8.0587 Y-6.9459 Z-0.09 I0.007 J0.0217
X-8.0956 Y-6.9191 Z-0.14 I-0.0184 J0.0134
X-8.0587 Y-6.9459 Z-0.19 I0.0184 J-0.0134
X-8.0956 Y-6.9191 Z-0.24 I-0.0184 J0.0134
X-8.0587 Y-6.9459 Z-0.29 I0.0184 J-0.0134
X-8.0543 Y-6.9325 Z-0.3 I-0.0184 J0.0134
X-8.0999 I-0.0228 J0.
X-8.0543 I0.0228 J0.
X-8.0657 Y-6.9211 I-0.0114 J0.
G1 X-8.0735
G18 G3 X-8.089 Z-0.2845 I0. K0.0155
G0 Z0.4
X-8.7134 Y-7.039
Z0.13
G1 Z0.0655 F35.
G3 X-8.7289 Z0.05 I-0.0155 K0.
G1 X-8.7367
G17 G3 X-8.7481 Y-7.0504 I0. J-0.0114
X-8.7025 Z0. I0.0228 J0.
X-8.7183 Y-7.0287 Z-0.02 I-0.0228 J0.
X-8.7324 Y-7.0721 Z-0.07 I-0.007 J-0.0217
X-8.7069 Y-7.0638 Z-0.09 I0.007 J0.0217
X-8.7438 Y-7.037 Z-0.14 I-0.0184 J0.0134
X-8.7069 Y-7.0638 Z-0.19 I0.0184 J-0.0134
X-8.7324 Y-7.0287 Z-0.23 I-0.0184 J0.0134
X-8.7183 Y-7.0721 Z-0.28 I0.007 J-0.0217
X-8.7025 Y-7.0504 Z-0.3 I-0.007 J0.0217
X-8.7481 I-0.0228 J0.
X-8.7025 I0.0228 J0.
X-8.7139 Y-7.039 I-0.0114 J0.
G1 X-8.7217
G18 G3 X-8.7372 Z-0.2845 I0. K0.0155
G0 Z0.4
X-9.0964 Y-7.422
Z0.13
G1 Z0.0655 F35.
G3 X-9.112 Z0.05 I-0.0155 K0.
G1 X-9.1197
G17 G3 X-9.1311 Y-7.4334 I0. J-0.0114
X-9.0855 Z0. I0.0228 J0.
X-9.1013 Y-7.4117 Z-0.02 I-0.0228 J0.
X-9.1154 Y-7.4551 Z-0.07 I-0.007 J-0.0217
X-9.0899 Y-7.4468 Z-0.09 I0.007 J0.0217
X-9.1268 Y-7.42 Z-0.14 I-0.0184 J0.0134
X-9.0899 Y-7.4468 Z-0.19 I0.0184 J-0.0134
X-9.1268 Y-7.42 Z-0.24 I-0.0184 J0.0134
X-9.0899 Y-7.4468 Z-0.29 I0.0184 J-0.0134
X-9.0855 Y-7.4334 Z-0.3 I-0.0184 J0.0134
X-9.1311 I-0.0228 J0.
X-9.0855 I0.0228 J0.
X-9.0969 Y-7.422 I-0.0114 J0.
G1 X-9.1047
G18 G3 X-9.1202 Z-0.2845 I0. K0.0155
G0 Z0.4
X-9.4794 Y-7.805
Z0.13
G1 Z0.0655 F35.
G3 X-9.495 Z0.05 I-0.0155 K0.
G1 X-9.5027
G17 G3 X-9.5141 Y-7.8164 I0. J-0.0114
X-9.4685 Z0. I0.0228 J0.
X-9.5141 Z-0.05 I-0.0228 J0.
X-9.4729 Y-7.8298 Z-0.09 I0.0228 J0.
X-9.5098 Y-7.803 Z-0.14 I-0.0184 J0.0134
X-9.4729 Y-7.8298 Z-0.19 I0.0184 J-0.0134
X-9.5098 Y-7.803 Z-0.24 I-0.0184 J0.0134
X-9.4729 Y-7.8298 Z-0.29 I0.0184 J-0.0134
X-9.4685 Y-7.8164 Z-0.3 I-0.0184 J0.0134
X-9.5141 I-0.0228 J0.
X-9.4685 I0.0228 J0.
X-9.4799 Y-7.805 I-0.0114 J0.
G1 X-9.4877
G18 G3 X-9.5032 Z-0.2845 I0. K0.0155
G0 Z0.4
X-9.2143 Y-8.0702
Z0.13
G1 Z0.0655 F35.
G3 X-9.2298 Z0.05 I-0.0155 K0.
G1 X-9.2376
G17 G3 X-9.249 Y-8.0816 I0. J-0.0114
X-9.2034 Z0. I0.0228 J0.
X-9.249 Z-0.05 I-0.0228 J0.
X-9.2077 Y-8.095 Z-0.09 I0.0228 J0.
X-9.2446 Y-8.0682 Z-0.14 I-0.0184 J0.0134
Y-8.095 Z-0.16 I0.0184 J-0.0134
X-9.2077 Y-8.0682 Z-0.21 I0.0184 J0.0134
X-9.2446 Y-8.095 Z-0.26 I-0.0184 J-0.0134
X-9.2034 Y-8.0816 Z-0.3 I0.0184 J0.0134
X-9.249 I-0.0228 J0.
X-9.2034 I0.0228 J0.
X-9.2148 Y-8.0702 I-0.0114 J0.
G1 X-9.2225
G18 G3 X-9.2381 Z-0.2845 I0. K0.0155
G0 Z0.4
X-9.8624 Y-8.188
Z0.13
G1 Z0.0655 F35.
G3 X-9.878 Z0.05 I-0.0155 K0.
G1 X-9.8858
G17 G3 X-9.8972 Y-8.1994 I0. J-0.0114
X-9.8516 Z0. I0.0228 J0.
X-9.8972 Z-0.05 I-0.0228 J0.
X-9.8559 Y-8.2128 Z-0.09 I0.0228 J0.
X-9.8928 Y-8.186 Z-0.14 I-0.0184 J0.0134
X-9.8559 Y-8.2128 Z-0.19 I0.0184 J-0.0134
X-9.8928 Y-8.186 Z-0.24 I-0.0184 J0.0134
X-9.8559 Y-8.2128 Z-0.29 I0.0184 J-0.0134
X-9.8516 Y-8.1994 Z-0.3 I-0.0184 J0.0134
X-9.8972 I-0.0228 J0.
X-9.8516 I0.0228 J0.
X-9.863 Y-8.188 I-0.0114 J0.
G1 X-9.8707
G18 G3 X-9.8863 Z-0.2845 I0. K0.0155
G0 Z0.4
X-10.2455 Y-8.571
Z0.13
G1 Z0.0655 F35.
G3 X-10.261 Z0.05 I-0.0155 K0.
G1 X-10.2688
G17 G3 X-10.2802 Y-8.5824 I0. J-0.0114
X-10.2346 Z0. I0.0228 J0.
X-10.2802 Z-0.05 I-0.0228 J0.
X-10.2346 Z-0.1 I0.0228 J0.
X-10.2802 Z-0.15 I-0.0228 J0.
X-10.2758 Y-8.5958 Z-0.16 I0.0228 J0.
X-10.2389 Y-8.569 Z-0.21 I0.0184 J0.0134
X-10.2644 Y-8.5608 Z-0.23 I-0.0184 J-0.0134
X-10.2503 Y-8.6041 Z-0.28 I0.007 J-0.0217
X-10.2346 Y-8.5824 Z-0.3 I-0.007 J0.0217
X-10.2802 I-0.0228 J0.
X-10.2346 I0.0228 J0.
X-10.246 Y-8.571 I-0.0114 J0.
G1 X-10.2537
G18 G3 X-10.2693 Z-0.2845 I0. K0.0155
G0 Z0.4
X-10.6285 Y-8.9541
Z0.13
G1 Z0.0655 F35.
G3 X-10.644 Z0.05 I-0.0155 K0.
G1 X-10.6518
G17 G3 X-10.6632 Y-8.9655 I0. J-0.0114
X-10.6176 Z0. I0.0228 J0.
X-10.6632 Z-0.05 I-0.0228 J0.
X-10.6176 Z-0.1 I0.0228 J0.
X-10.6632 Z-0.15 I-0.0228 J0.
X-10.6588 Y-8.9789 Z-0.16 I0.0228 J0.
X-10.6219 Y-8.952 Z-0.21 I0.0184 J0.0134
X-10.6474 Y-8.9438 Z-0.23 I-0.0184 J-0.0134
X-10.6333 Y-8.9871 Z-0.28 I0.007 J-0.0217
X-10.6176 Y-8.9655 Z-0.3 I-0.007 J0.0217
X-10.6632 I-0.0228 J0.
X-10.6176 I0.0228 J0.
X-10.629 Y-8.9541 I-0.0114 J0.
G1 X-10.6368
G18 G3 X-10.6523 Z-0.2845 I0. K0.0155
G0 Z0.4
X-10.3633 Y-9.2192
Z0.13
G1 Z0.0655 F35.
G3 X-10.3789 Z0.05 I-0.0155 K0.
G1 X-10.3866
G17 G3 X-10.398 Y-9.2306 I0. J-0.0114
X-10.3524 Z0. I0.0228 J0.
X-10.398 Z-0.05 I-0.0228 J0.
X-10.3524 Z-0.1 I0.0228 J0.
X-10.398 Z-0.15 I-0.0228 J0.
X-10.3524 Z-0.2 I0.0228 J0.
X-10.398 Z-0.25 I-0.0228 J0.
X-10.3524 Z-0.3 I0.0228 J0.
X-10.398 I-0.0228 J0.
X-10.3524 I0.0228 J0.
X-10.3638 Y-9.2192 I-0.0114 J0.
G1 X-10.3716
G18 G3 X-10.3871 Z-0.2845 I0. K0.0155
G0 Z0.4
X-9.6562 Y-9.9263
Z0.13
G1 Z0.0655 F35.
G3 X-9.6717 Z0.05 I-0.0155 K0.
G1 X-9.6795
G17 G3 X-9.6909 Y-9.9377 I0. J-0.0114
X-9.6453 Z0. I0.0228 J0.
X-9.6909 Z-0.05 I-0.0228 J0.
X-9.6497 Y-9.9511 Z-0.09 I0.0228 J0.
X-9.6866 Y-9.9243 Z-0.14 I-0.0184 J0.0134
Y-9.9511 Z-0.16 I0.0184 J-0.0134
X-9.6497 Y-9.9243 Z-0.21 I0.0184 J0.0134
X-9.6866 Y-9.9511 Z-0.26 I-0.0184 J-0.0134
X-9.6453 Y-9.9377 Z-0.3 I0.0184 J0.0134
X-9.6909 I-0.0228 J0.
X-9.6453 I0.0228 J0.
X-9.6567 Y-9.9263 I-0.0114 J0.
G1 X-9.6645
G18 G3 X-9.68 Z-0.2845 I0. K0.0155
G0 Z0.4
X-9.391 Y-10.1915
Z0.13
G1 Z0.0655 F35.
G3 X-9.4066 Z0.05 I-0.0155 K0.
G1 X-9.4144
G17 G3 X-9.4258 Y-10.2029 I0. J-0.0114
X-9.3802 Z0. I0.0228 J0.
X-9.4258 Z-0.05 I-0.0228 J0.
X-9.3845 Y-10.2163 Z-0.09 I0.0228 J0.
X-9.4214 Y-10.1895 Z-0.14 I-0.0184 J0.0134
Y-10.2163 Z-0.16 I0.0184 J-0.0134
X-9.3845 Y-10.1895 Z-0.21 I0.0184 J0.0134
X-9.4214 Y-10.2163 Z-0.26 I-0.0184 J-0.0134
X-9.3802 Y-10.2029 Z-0.3 I0.0184 J0.0134
X-9.4258 I-0.0228 J0.
X-9.3802 I0.0228 J0.
X-9.3916 Y-10.1915 I-0.0114 J0.
G1 X-9.3993
G18 G3 X-9.4149 Z-0.2845 I0. K0.0155
G0 Z0.4
X-9.008 Y-9.8085
Z0.13
G1 Z0.0655 F35.
G3 X-9.0236 Z0.05 I-0.0155 K0.
G1 X-9.0313
G17 G3 X-9.0427 Y-9.8199 I0. J-0.0114
X-8.9971 Z0. I0.0228 J0.
X-9.0427 Z-0.05 I-0.0228 J0.
X-9.0015 Y-9.8333 Z-0.09 I0.0228 J0.
X-9.0384 Y-9.8065 Z-0.14 I-0.0184 J0.0134
Y-9.8333 Z-0.16 I0.0184 J-0.0134
X-9.0015 Y-9.8065 Z-0.21 I0.0184 J0.0134
X-9.0384 Y-9.8333 Z-0.26 I-0.0184 J-0.0134
X-8.9971 Y-9.8199 Z-0.3 I0.0184 J0.0134
X-9.0427 I-0.0228 J0.
X-8.9971 I0.0228 J0.
X-9.0085 Y-9.8085 I-0.0114 J0.
G1 X-9.0163
G18 G3 X-9.0318 Z-0.2845 I0. K0.0155
G0 Z0.4
X-8.625 Y-9.4255
Z0.13
G1 Z0.0655 F35.
G3 X-8.6405 Z0.05 I-0.0155 K0.
G1 X-8.6483
G17 G3 X-8.6597 Y-9.4369 I0. J-0.0114
X-8.6141 Z0. I0.0228 J0.
X-8.6597 Z-0.05 I-0.0228 J0.
X-8.6185 Y-9.4503 Z-0.09 I0.0228 J0.
X-8.6554 Y-9.4235 Z-0.14 I-0.0184 J0.0134
Y-9.4503 Z-0.16 I0.0184 J-0.0134
X-8.6185 Y-9.4235 Z-0.21 I0.0184 J0.0134
X-8.6554 Y-9.4503 Z-0.26 I-0.0184 J-0.0134
X-8.6141 Y-9.4369 Z-0.3 I0.0184 J0.0134
X-8.6597 I-0.0228 J0.
X-8.6141 I0.0228 J0.
X-8.6255 Y-9.4255 I-0.0114 J0.
G1 X-8.6333
G18 G3 X-8.6488 Z-0.2845 I0. K0.0155
G0 Z0.4
X-8.242 Y-9.0424
Z0.13
G1 Z0.0655 F35.
G3 X-8.2575 Z0.05 I-0.0155 K0.
G1 X-8.2653
G17 G3 X-8.2767 Y-9.0538 I0. J-0.0114
X-8.2311 Z0. I0.0228 J0.
X-8.2469 Y-9.0322 Z-0.02 I-0.0228 J0.
X-8.2609 Y-9.0755 Z-0.07 I-0.007 J-0.0217
X-8.2355 Y-9.0672 Z-0.09 I0.007 J0.0217
X-8.2723 Y-9.0404 Z-0.14 I-0.0184 J0.0134
X-8.2355 Y-9.0672 Z-0.19 I0.0184 J-0.0134
X-8.2723 Y-9.0404 Z-0.24 I-0.0184 J0.0134
X-8.2355 Y-9.0672 Z-0.29 I0.0184 J-0.0134
X-8.2311 Y-9.0538 Z-0.3 I-0.0184 J0.0134
X-8.2767 I-0.0228 J0.
X-8.2311 I0.0228 J0.
X-8.2425 Y-9.0424 I-0.0114 J0.
G1 X-8.2503
G18 G3 X-8.2658 Z-0.2845 I0. K0.0155
G0 Z0.4
X-8.5072 Y-8.7773
Z0.13
G1 Z0.0655 F35.
G3 X-8.5227 Z0.05 I-0.0155 K0.
G1 X-8.5305
G17 G3 X-8.5419 Y-8.7887 I0. J-0.0114
X-8.4963 Z0. I0.0228 J0.
X-8.5419 Z-0.05 I-0.0228 J0.
X-8.5006 Y-8.8021 Z-0.09 I0.0228 J0.
X-8.5375 Y-8.7753 Z-0.14 I-0.0184 J0.0134
Y-8.8021 Z-0.16 I0.0184 J-0.0134
X-8.5006 Y-8.7753 Z-0.21 I0.0184 J0.0134
X-8.5375 Y-8.8021 Z-0.26 I-0.0184 J-0.0134
X-8.4963 Y-8.7887 Z-0.3 I0.0184 J0.0134
X-8.5419 I-0.0228 J0.
X-8.4963 I0.0228 J0.
X-8.5077 Y-8.7773 I-0.0114 J0.
G1 X-8.5154
G18 G3 X-8.531 Z-0.2845 I0. K0.0155
G0 Z0.4
X-7.859 Y-8.6594
Z0.13
G1 Z0.0655 F35.
G3 X-7.8745 Z0.05 I-0.0155 K0.
G1 X-7.8823
G17 G3 X-7.8937 Y-8.6708 I0. J-0.0114
X-7.8481 Z0. I0.0228 J0.
X-7.8937 Z-0.05 I-0.0228 J0.
X-7.8481 Z-0.1 I0.0228 J0.
X-7.8937 Z-0.15 I-0.0228 J0.
X-7.8893 Y-8.6842 Z-0.16 I0.0228 J0.
X-7.8524 Y-8.6574 Z-0.21 I0.0184 J0.0134
X-7.8779 Y-8.6491 Z-0.23 I-0.0184 J-0.0134
X-7.8638 Y-8.6925 Z-0.28 I0.007 J-0.0217
X-7.8481 Y-8.6708 Z-0.3 I-0.007 J0.0217
X-7.8937 I-0.0228 J0.
X-7.8481 I0.0228 J0.
X-7.8595 Y-8.6594 I-0.0114 J0.
G1 X-7.8673
G18 G3 X-7.8828 Z-0.2845 I0. K0.0155
G0 Z0.4
X-7.476 Y-8.2764
Z0.13
G1 Z0.0655 F35.
G3 X-7.4915 Z0.05 I-0.0155 K0.
G1 X-7.4993
G17 G3 X-7.5107 Y-8.2878 I0. J-0.0114
X-7.4651 Z0. I0.0228 J0.
X-7.5107 Z-0.05 I-0.0228 J0.
X-7.4694 Y-8.3012 Z-0.09 I0.0228 J0.
X-7.5063 Y-8.2744 Z-0.14 I-0.0184 J0.0134
X-7.4694 Y-8.3012 Z-0.19 I0.0184 J-0.0134
X-7.5063 Y-8.2744 Z-0.24 I-0.0184 J0.0134
X-7.4694 Y-8.3012 Z-0.29 I0.0184 J-0.0134
X-7.4651 Y-8.2878 Z-0.3 I-0.0184 J0.0134
X-7.5107 I-0.0228 J0.
X-7.4651 I0.0228 J0.
X-7.4765 Y-8.2764 I-0.0114 J0.
G1 X-7.4842
G18 G3 X-7.4998 Z-0.2845 I0. K0.0155
G0 Z0.4
X-7.3581 Y-7.6282
Z0.13
G1 Z0.0655 F35.
G3 X-7.3736 Z0.05 I-0.0155 K0.
G1 X-7.3814
G17 G3 X-7.3928 Y-7.6396 I0. J-0.0114
X-7.3472 Z0. I0.0228 J0.
X-7.3928 Z-0.05 I-0.0228 J0.
X-7.3472 Z-0.1 I0.0228 J0.
X-7.3928 Z-0.15 I-0.0228 J0.
X-7.3885 Y-7.653 Z-0.16 I0.0228 J0.
X-7.3516 Y-7.6262 Z-0.21 I0.0184 J0.0134
X-7.3771 Y-7.6179 Z-0.23 I-0.0184 J-0.0134
X-7.363 Y-7.6613 Z-0.28 I0.007 J-0.0217
X-7.3472 Y-7.6396 Z-0.3 I-0.007 J0.0217
X-7.3928 I-0.0228 J0.
X-7.3472 I0.0228 J0.
X-7.3586 Y-7.6282 I-0.0114 J0.
G1 X-7.3664
G18 G3 X-7.3819 Z-0.2845 I0. K0.0155
G0 Z0.4
X-7.0929 Y-7.8934
Z0.13
G1 Z0.0655 F35.
G3 X-7.1085 Z0.05 I-0.0155 K0.
G1 X-7.1163
G17 G3 X-7.1277 Y-7.9048 I0. J-0.0114
X-7.0821 Z0. I0.0228 J0.
X-7.1277 Z-0.05 I-0.0228 J0.
X-7.0864 Y-7.9182 Z-0.09 I0.0228 J0.
X-7.1233 Y-7.8914 Z-0.14 I-0.0184 J0.0134
Y-7.9182 Z-0.16 I0.0184 J-0.0134
X-7.0864 Y-7.8914 Z-0.21 I0.0184 J0.0134
X-7.1233 Y-7.9182 Z-0.26 I-0.0184 J-0.0134
X-7.0821 Y-7.9048 Z-0.3 I0.0184 J0.0134
X-7.1277 I-0.0228 J0.
X-7.0821 I0.0228 J0.
X-7.0935 Y-7.8934 I-0.0114 J0.
G1 X-7.1012
G18 G3 X-7.1168 Z-0.2845 I0. K0.0155
G0 Z0.4
X-6.7099 Y-7.5104
Z0.13
G1 Z0.0655 F35.
G3 X-6.7255 Z0.05 I-0.0155 K0.
G1 X-6.7332
G17 G3 X-6.7446 Y-7.5218 I0. J-0.0114
X-6.699 Z0. I0.0228 J0.
X-6.7148 Y-7.5001 Z-0.02 I-0.0228 J0.
X-6.7289 Y-7.5435 Z-0.07 I-0.007 J-0.0217
X-6.7034 Y-7.5352 Z-0.09 I0.007 J0.0217
X-6.7403 Y-7.5084 Z-0.14 I-0.0184 J0.0134
X-6.7034 Y-7.5352 Z-0.19 I0.0184 J-0.0134
X-6.7403 Y-7.5084 Z-0.24 I-0.0184 J0.0134
X-6.7034 Y-7.5352 Z-0.29 I0.0184 J-0.0134
X-6.699 Y-7.5218 Z-0.3 I-0.0184 J0.0134
X-6.7446 I-0.0228 J0.
X-6.699 I0.0228 J0.
X-6.7104 Y-7.5104 I-0.0114 J0.
G1 X-6.7182
G18 G3 X-6.7337 Z-0.2845 I0. K0.0155
G0 Z0.4
X-6.3269 Y-7.1274
Z0.13
G1 Z0.0655 F35.
G3 X-6.3425 Z0.05 I-0.0155 K0.
G1 X-6.3502
G17 G3 X-6.3616 Y-7.1388 I0. J-0.0114
X-6.316 Z0. I0.0228 J0.
X-6.3616 Z-0.05 I-0.0228 J0.
X-6.316 Z-0.1 I0.0228 J0.
X-6.3616 Z-0.15 I-0.0228 J0.
X-6.3573 Y-7.1522 Z-0.16 I0.0228 J0.
X-6.3204 Y-7.1254 Z-0.21 I0.0184 J0.0134
X-6.3459 Y-7.1171 Z-0.23 I-0.0184 J-0.0134
X-6.3318 Y-7.1604 Z-0.28 I0.007 J-0.0217
X-6.316 Y-7.1388 Z-0.3 I-0.007 J0.0217
X-6.3616 I-0.0228 J0.
X-6.316 I0.0228 J0.
X-6.3274 Y-7.1274 I-0.0114 J0.
G1 X-6.3352
G18 G3 X-6.3507 Z-0.2845 I0. K0.0155
G0 Z0.6
G17
(2D POCKET)
M7
G0 X-7.1225 Y-6.6649
Z0.6
Z0.2
G1 Z0.1 F13.333
G3 X-7.2369 Y-6.7582 Z0.0591 I-0.0572 J-0.0466
X-7.1225 Y-6.6649 Z0.0182 I0.0572 J0.0466
X-7.2369 Y-6.7582 Z-0.0227 I-0.0572 J-0.0466
X-7.1225 Y-6.6649 Z-0.0636 I0.0572 J0.0466
X-7.2369 Y-6.7582 Z-0.1044 I-0.0572 J-0.0466
X-7.1225 Y-6.6649 Z-0.1453 I0.0572 J0.0466
X-7.2369 Y-6.7582 Z-0.1862 I-0.0572 J-0.0466
X-7.1225 Y-6.6649 Z-0.2271 I0.0572 J0.0466
X-7.2369 Y-6.7582 Z-0.268 I-0.0572 J-0.0466
X-7.1059 Y-6.7115 Z-0.3 I0.0572 J0.0466
X-7.1922 I-0.0431 J0. F35.
X-6.9583 I0.117 J0.
X-7.3398 I-0.1908 J0.
X-6.8106 I0.2646 J0.
X-7.4874 I-0.3384 J0.
X-6.8106 I0.3384 J0.
G2 X-6.7501 Y-6.6115 I0.113 J0.
G3 X-6.7135 Y-6.5004 I-0.039 J0.0744
X-7.6331 Y-6.7115 I-0.4356 J-0.2111
X-6.665 I0.4841 J0.
X-6.7135 Y-6.5004 I-0.4841 J0.
G0 Z0.4
X-6.3247 Y-6.2831
Z0.2
G1 Z0.1 F13.333
G2 X-6.7896 Y-5.5976 Z-0.0537 I0.3247 J0.7206
G3 X-6.8351 Y-5.5997 Z-0.0663 I-0.0228 J-0.001
X-6.0372 Y-6.3977 Z-0.2848 I0.8352 J0.0372
X-6.0133 Y-6.3759 Z-0.2911 I0.001 J0.0228
X-6.0351 Y-6.3521 Z-0.2974 I-0.0228 J0.001
G2 X-6.0499 Y-6.3513 Z-0.3 I0.0351 J0.7896
X-6.7896 Y-5.5976 I0.0499 J0.7888 F35.
G3 X-6.8351 Y-5.5997 I-0.0228 J-0.001
X-6.0372 Y-6.3977 I0.8352 J0.0372
X-6.0133 Y-6.3759 I0.001 J0.0228
X-6.0351 Y-6.3521 I-0.0228 J0.001
G2 X-6.0499 Y-6.3513 I0.0351 J0.7896
G0 Z0.4
X-5.9754 Y-5.5159
Z0.2
G1 Z0.1 F13.333
G3 X-6.0899 Y-5.6091 Z0.0591 I-0.0572 J-0.0466
X-5.9754 Y-5.5159 Z0.0182 I0.0572 J0.0466
X-6.0899 Y-5.6091 Z-0.0227 I-0.0572 J-0.0466
X-5.9754 Y-5.5159 Z-0.0636 I0.0572 J0.0466
X-6.0899 Y-5.6091 Z-0.1044 I-0.0572 J-0.0466
X-5.9754 Y-5.5159 Z-0.1453 I0.0572 J0.0466
X-6.0899 Y-5.6091 Z-0.1862 I-0.0572 J-0.0466
X-5.9754 Y-5.5159 Z-0.2271 I0.0572 J0.0466
X-6.0899 Y-5.6091 Z-0.268 I-0.0572 J-0.0466
X-5.9589 Y-5.5625 Z-0.3 I0.0572 J0.0466
X-6.0411 I-0.0411 J0. F35.
X-5.8112 I0.115 J0.
X-6.1888 I-0.1888 J0.
X-5.6636 I0.2626 J0.
X-6.3364 I-0.3364 J0.
X-5.516 I0.4102 J0.
X-6.484 I-0.484 J0.
X-5.516 I0.484 J0.
G0 Z0.4
X-5.7419 Y-4.8155
Z0.2
G1 Z0.1 F13.333
G2 X-5.2104 Y-5.5274 Z-0.0663 I-0.2581 J-0.747
G3 X-5.1649 Y-5.5253 Z-0.079 I0.0228 J0.001
X-5.9628 Y-4.7273 Z-0.2974 I-0.8351 J-0.0371
X-5.9768 Y-4.7313 Z-0.3 I-0.001 J-0.0228
X-5.9649 Y-4.7729 I0.0129 J-0.0188 F35.
G2 X-5.2104 Y-5.5274 I-0.0351 J-0.7896
G3 X-5.1649 Y-5.5253 I0.0228 J0.001
X-5.9628 Y-4.7273 I-0.8351 J-0.0371
X-5.9768 Y-4.7313 I-0.001 J-0.0228
G0 Z0.4
X-8.2715 Y-7.814
Z0.2
G1 Z0.1 F13.333
G3 X-8.386 Y-7.9072 Z0.0591 I-0.0572 J-0.0466
X-8.2715 Y-7.814 Z0.0182 I0.0572 J0.0466
X-8.386 Y-7.9072 Z-0.0227 I-0.0572 J-0.0466
X-8.2715 Y-7.814 Z-0.0636 I0.0572 J0.0466
X-8.386 Y-7.9072 Z-0.1044 I-0.0572 J-0.0466
X-8.2715 Y-7.814 Z-0.1453 I0.0572 J0.0466
X-8.386 Y-7.9072 Z-0.1862 I-0.0572 J-0.0466
X-8.2715 Y-7.814 Z-0.2271 I0.0572 J0.0466
X-8.386 Y-7.9072 Z-0.268 I-0.0572 J-0.0466
X-8.2549 Y-7.8606 Z-0.3 I0.0572 J0.0466
X-8.3412 I-0.0431 J0. F35.
X-8.1073 I0.117 J0.
X-8.4889 I-0.1908 J0.
X-7.9597 I0.2646 J0.
X-8.6365 I-0.3384 J0.
X-7.9597 I0.3384 J0.
G2 X-7.8991 Y-7.7605 I0.113 J0.
G3 X-7.8625 Y-7.6495 I-0.039 J0.0744
X-8.7821 Y-7.8606 I-0.4356 J-0.2111
X-7.814 I0.4841 J0.
X-7.8625 Y-7.6495 I-0.4841 J0.
G0 Z0.4
X-9.4206 Y-8.963
Z0.2
G1 Z0.1 F13.333
G3 X-9.5351 Y-9.0563 Z0.0591 I-0.0572 J-0.0466
X-9.4206 Y-8.963 Z0.0182 I0.0572 J0.0466
X-9.5351 Y-9.0563 Z-0.0227 I-0.0572 J-0.0466
X-9.4206 Y-8.963 Z-0.0636 I0.0572 J0.0466
X-9.5351 Y-9.0563 Z-0.1044 I-0.0572 J-0.0466
X-9.4206 Y-8.963 Z-0.1453 I0.0572 J0.0466
X-9.5351 Y-9.0563 Z-0.1862 I-0.0572 J-0.0466
X-9.4206 Y-8.963 Z-0.2271 I0.0572 J0.0466
X-9.5351 Y-9.0563 Z-0.268 I-0.0572 J-0.0466
X-9.404 Y-9.0096 Z-0.3 I0.0572 J0.0466
X-9.4903 I-0.0431 J0. F35.
X-9.2564 I0.117 J0.
X-9.6379 I-0.1908 J0.
X-9.1087 I0.2646 J0.
X-9.7855 I-0.3384 J0.
X-9.1087 I0.3384 J0.
G2 X-9.0482 Y-8.9096 I0.113 J0.
G3 X-9.0116 Y-8.7985 I-0.039 J0.0744
X-9.9312 Y-9.0096 I-0.4356 J-0.2111
X-8.9631 I0.4841 J0.
X-9.0116 Y-8.7985 I-0.4841 J0.
G0 Z0.6
(2D CONTOUR)
M7
G0 X-9.4936 Y-10.5715
Z0.6
Z0.2
G1 Z0.1 F13.333
G2 X-9.6789 Y-10.4788 Z0.0628 I0.0464 J0.3244
G1 X-10.6326 Y-9.5251 Z-0.175
X-10.7227 Y-9.435
Z-0.1975
X-10.9163 Y-9.2414 Z-0.2457
G2 X-11.0084 Y-8.9595 Z-0.3 I0.2318 J0.2317
X-10.9649 Y-8.84 I0.3239 J-0.0501 F60.
G1 Z-0.175
G2 X-10.9163 Y-8.7779 I0.2804 J-0.1697
G1 X-10.1547 Y-8.0163
Z-0.3 F13.333
X-8.5389 Y-6.4005 F60.
Z-0.175
X-7.7219 Y-5.5835
Z-0.3 F13.333
X-6.8505 Y-4.7121 F60.
G2 X-5.1496 Y-4.712 I0.8505 J-0.8504
X-5.1495 Y-6.4129 I-0.8504 J-0.8505
G1 X-5.7364 Y-6.9998
Z-0.175
X-6.5534 Y-7.8168
Z-0.3 F13.333
X-7.9821 Y-9.2455 F60.
Z-0.175
X-8.7991 Y-10.0625
Z-0.3 F13.333
X-9.2154 Y-10.4788 F60.
G2 X-9.6789 I-0.2317 J0.2317
G1 X-9.9057 Y-10.252
Z-0.175
X-10.7227 Y-9.435
Z-0.3 F13.333
X-10.9163 Y-9.2414 F60.
G2 X-11.0084 Y-8.9595 I0.2318 J0.2317
G0 Z0.6
M9
G53 Z0.
M30
%
