%
(971-23-P-0058_DISTAL SPROCKET_1492)
(T1  D=0.1492 CR=0. - ZMIN=-0.2175 - FLAT END MILL)
G90 G94 G17 G91.1
G64 P0.001 Q0.001
G20
G53 G0 Z0.
(.3 CIRCLUAR THROUGH HOLE 2)
M9
T1 M6
S22000 M3
G4 P10.
G54
M7
G0 X3.7996 Y-0.3193
G43 Z0.6 H1
G0 Z0.13
G1 Z0.0649 F40.
G19 G2 Y-0.3342 Z0.05 J-0.0149 K0.
G1 Y-0.3417
G17 G3 X3.8092 Y-0.3513 I0.0096 J0.
Y-0.313 Z0.0335 I0. J0.0192
Y-0.3513 Z0.0169 I0. J-0.0192
Y-0.313 Z0.0004 I0. J0.0192
Y-0.3513 Z-0.0161 I0. J-0.0192
Y-0.313 Z-0.0327 I0. J0.0192
Y-0.3513 Z-0.0492 I0. J-0.0192
Y-0.313 Z-0.0657 I0. J0.0192
Y-0.3513 Z-0.0822 I0. J-0.0192
Y-0.313 Z-0.0988 I0. J0.0192
Y-0.3513 Z-0.1153 I0. J-0.0192
Y-0.313 Z-0.1318 I0. J0.0192
Y-0.3513 Z-0.1484 I0. J-0.0192
Y-0.313 Z-0.1649 I0. J0.0192
Y-0.3513 Z-0.1814 I0. J-0.0192
Y-0.313 Z-0.198 I0. J0.0192
Y-0.3513 Z-0.2145 I0. J-0.0192
X3.8196 Y-0.3482 Z-0.2175 I0. J0.0192
X3.7988 Y-0.316 I-0.0104 J0.0161
X3.8196 Y-0.3482 I0.0104 J-0.0161
X3.8224 Y-0.335 I-0.0052 J0.0081
G1 X3.8184 Y-0.3287
X3.8168 Y-0.3263 Z-0.2172
X3.8153 Y-0.3239 Z-0.2164
X3.8139 Y-0.3217 Z-0.215
X3.8127 Y-0.3198 Z-0.2131
X3.8117 Y-0.3183 Z-0.2109
X3.8109 Y-0.3171 Z-0.2083
X3.8105 Y-0.3164 Z-0.2055
X3.8103 Y-0.3162 Z-0.2026
G0 Z0.4
X3.6735 Y0.8508
Z0.0092
G1 Z-0.0559 F40.
G19 G2 Y0.8359 Z-0.0708 J-0.0149 K0.
G1 Y0.8285
G17 G3 X3.6864 Y0.8155 I0.013 J0.
Y0.8673 Z-0.0885 I0. J0.0259
Y0.8155 Z-0.1062 I0. J-0.0259
Y0.8673 Z-0.124 I0. J0.0259
Y0.8155 Z-0.1417 I0. J-0.0259
Y0.8673 Z-0.1594 I0. J0.0259
Y0.8155 Z-0.1771 I0. J-0.0259
Y0.8673 Z-0.1948 I0. J0.0259
Y0.8155 Z-0.2126 I0. J-0.0259
X3.7064 Y0.8248 Z-0.2175 I0. J0.0259
X3.6665 Y0.858 I-0.0199 J0.0166
X3.7064 Y0.8248 I0.0199 J-0.0166
X3.7047 Y0.8431 I-0.01 J0.0083
G1 X3.699 Y0.8478
X3.6967 Y0.8497 Z-0.2172
X3.6946 Y0.8515 Z-0.2164
X3.6926 Y0.8532 Z-0.215
X3.6908 Y0.8546 Z-0.2131
X3.6894 Y0.8558 Z-0.2109
X3.6884 Y0.8567 Z-0.2083
X3.6877 Y0.8572 Z-0.2055
X3.6875 Y0.8574 Z-0.2026
G0 Z0.4
X2.9467 Y2.3704
Z0.13
G1 Z0.0649 F40.
G19 G2 Y2.3555 Z0.05 J-0.0149 K0.
G1 Y2.348
G17 G3 X2.9563 Y2.3384 I0.0096 J0.
Y2.3767 Z0.0335 I0. J0.0191
Y2.3384 Z0.0169 I0. J-0.0191
Y2.3767 Z0.0004 I0. J0.0191
Y2.3384 Z-0.0161 I0. J-0.0191
Y2.3767 Z-0.0327 I0. J0.0191
Y2.3384 Z-0.0492 I0. J-0.0191
Y2.3767 Z-0.0657 I0. J0.0191
Y2.3384 Z-0.0822 I0. J-0.0191
Y2.3767 Z-0.0988 I0. J0.0191
Y2.3384 Z-0.1153 I0. J-0.0191
Y2.3767 Z-0.1318 I0. J0.0192
Y2.3384 Z-0.1484 I0. J-0.0192
Y2.3767 Z-0.1649 I0. J0.0192
Y2.3384 Z-0.1814 I0. J-0.0192
Y2.3767 Z-0.198 I0. J0.0192
Y2.3384 Z-0.2145 I0. J-0.0192
X2.9667 Y2.3415 Z-0.2175 I0. J0.0192
X2.9459 Y2.3737 I-0.0104 J0.0161
X2.9667 Y2.3415 I0.0104 J-0.0161
X2.9695 Y2.3547 I-0.0052 J0.0081
G1 X2.9655 Y2.361
X2.9639 Y2.3634 Z-0.2172
X2.9624 Y2.3658 Z-0.2164
X2.961 Y2.3679 Z-0.215
X2.9598 Y2.3698 Z-0.2131
X2.9588 Y2.3714 Z-0.2109
X2.958 Y2.3726 Z-0.2083
X2.9576 Y2.3733 Z-0.2055
X2.9574 Y2.3735 Z-0.2026
G0 Z0.4
X1.6277 Y3.4162
Z0.0092
G1 Z-0.0559 F40.
G19 G2 Y3.4013 Z-0.0708 J-0.0149 K0.
G1 Y3.3938
G17 G3 X1.6406 Y3.3809 I0.0129 J0.
Y3.4327 Z-0.0885 I0. J0.0259
Y3.3809 Z-0.1062 I0. J-0.0259
Y3.4327 Z-0.124 I0. J0.0259
Y3.3809 Z-0.1417 I0. J-0.0259
Y3.4327 Z-0.1594 I0. J0.0259
Y3.3809 Z-0.1771 I0. J-0.0259
Y3.4327 Z-0.1948 I0. J0.0259
Y3.3809 Z-0.2126 I0. J-0.0259
X1.6605 Y3.3902 Z-0.2175 I0. J0.0259
X1.6207 Y3.4234 I-0.0199 J0.0166
X1.6605 Y3.3902 I0.0199 J-0.0166
X1.6589 Y3.4085 I-0.01 J0.0083
G1 X1.6531 Y3.4132
X1.6509 Y3.4151 Z-0.2172
X1.6487 Y3.4169 Z-0.2164
X1.6468 Y3.4185 Z-0.215
X1.645 Y3.42 Z-0.2131
X1.6436 Y3.4212 Z-0.2109
X1.6425 Y3.422 Z-0.2083
X1.6419 Y3.4226 Z-0.2055
X1.6417 Y3.4228 Z-0.2026
G0 Z0.4
X-0.0129 Y3.8464
Z0.13
G1 Z0.0649 F40.
G19 G2 Y3.8315 Z0.05 J-0.0149 K0.
G1 Y3.824
G17 G3 X0. Y3.8111 I0.0129 J0.
Y3.8629 Z0.0323 I0. J0.0259
Y3.8111 Z0.0146 I0. J-0.0259
Y3.8629 Z-0.0032 I0. J0.0259
Y3.8111 Z-0.0209 I0. J-0.0259
Y3.8629 Z-0.0386 I0. J0.0259
Y3.8111 Z-0.0563 I0. J-0.0259
Y3.8629 Z-0.074 I0. J0.0259
Y3.8111 Z-0.0918 I0. J-0.0259
Y3.8629 Z-0.1095 I0. J0.0259
Y3.8111 Z-0.1272 I0. J-0.0259
Y3.8629 Z-0.1449 I0. J0.0259
Y3.8111 Z-0.1627 I0. J-0.0259
Y3.8629 Z-0.1804 I0. J0.0259
Y3.8111 Z-0.1981 I0. J-0.0259
X0.0256 Y3.8409 Z-0.2078 I0. J0.0259
X-0.0076 Y3.8618 Z-0.2175 I-0.0256 J-0.0039
X0.0076 Y3.8122 I0.0076 J-0.0248
X-0.0076 Y3.8618 I-0.0076 J0.0248
X-0.0162 Y3.8456 I0.0038 J-0.0124
G1 X-0.014 Y3.8384
X-0.0131 Y3.8356 Z-0.2172
X-0.0123 Y3.833 Z-0.2164
X-0.0116 Y3.8305 Z-0.215
X-0.0109 Y3.8283 Z-0.2131
X-0.0103 Y3.8266 Z-0.2109
X-0.0099 Y3.8253 Z-0.2083
X-0.0097 Y3.8244 Z-0.2055
X-0.0096 Y3.8242 Z-0.2026
G0 Z0.4
X-1.6536 Y3.4162
Z0.0092
G1 Z-0.0559 F40.
G19 G2 Y3.4013 Z-0.0708 J-0.0149 K0.
G1 Y3.3938
G17 G3 X-1.6406 Y3.3809 I0.0129 J0.
Y3.4327 Z-0.0885 I0. J0.0259
Y3.3809 Z-0.1062 I0. J-0.0259
Y3.4327 Z-0.124 I0. J0.0259
Y3.3809 Z-0.1417 I0. J-0.0259
Y3.4327 Z-0.1594 I0. J0.0259
Y3.3809 Z-0.1771 I0. J-0.0259
Y3.4327 Z-0.1948 I0. J0.0259
Y3.3809 Z-0.2126 I0. J-0.0259
X-1.6207 Y3.3902 Z-0.2175 I0. J0.0259
X-1.6605 Y3.4234 I-0.0199 J0.0166
X-1.6207 Y3.3902 I0.0199 J-0.0166
X-1.6224 Y3.4085 I-0.01 J0.0083
G1 X-1.6281 Y3.4132
X-1.6304 Y3.4151 Z-0.2172
X-1.6325 Y3.4169 Z-0.2164
X-1.6345 Y3.4185 Z-0.215
X-1.6362 Y3.42 Z-0.2131
X-1.6377 Y3.4212 Z-0.2109
X-1.6387 Y3.422 Z-0.2083
X-1.6394 Y3.4226 Z-0.2055
X-1.6396 Y3.4228 Z-0.2026
G0 Z0.4
X-2.9659 Y2.3704
Z0.13
G1 Z0.0649 F40.
G19 G2 Y2.3555 Z0.05 J-0.0149 K0.
G1 Y2.348
G17 G3 X-2.9563 Y2.3384 I0.0096 J0.
Y2.3767 Z0.0335 I0. J0.0191
Y2.3384 Z0.0169 I0. J-0.0191
Y2.3767 Z0.0004 I0. J0.0191
Y2.3384 Z-0.0161 I0. J-0.0191
Y2.3767 Z-0.0327 I0. J0.0191
Y2.3384 Z-0.0492 I0. J-0.0191
Y2.3767 Z-0.0657 I0. J0.0191
Y2.3384 Z-0.0822 I0. J-0.0191
Y2.3767 Z-0.0988 I0. J0.0191
Y2.3384 Z-0.1153 I0. J-0.0191
Y2.3767 Z-0.1318 I0. J0.0192
Y2.3384 Z-0.1484 I0. J-0.0192
Y2.3767 Z-0.1649 I0. J0.0192
Y2.3384 Z-0.1814 I0. J-0.0192
Y2.3767 Z-0.198 I0. J0.0192
Y2.3384 Z-0.2145 I0. J-0.0192
X-2.9459 Y2.3415 Z-0.2175 I0. J0.0192
X-2.9667 Y2.3737 I-0.0104 J0.0161
X-2.9459 Y2.3415 I0.0104 J-0.0161
X-2.9431 Y2.3547 I-0.0052 J0.0081
G1 X-2.9471 Y2.361
X-2.9487 Y2.3634 Z-0.2172
X-2.9502 Y2.3658 Z-0.2164
X-2.9516 Y2.3679 Z-0.215
X-2.9528 Y2.3698 Z-0.2131
X-2.9538 Y2.3714 Z-0.2109
X-2.9546 Y2.3726 Z-0.2083
X-2.955 Y2.3733 Z-0.2055
X-2.9552 Y2.3735 Z-0.2026
G0 Z0.4
X-3.6994 Y0.8508
Z0.0092
G1 Z-0.0559 F40.
G19 G2 Y0.8359 Z-0.0708 J-0.0149 K0.
G1 Y0.8285
G17 G3 X-3.6864 Y0.8155 I0.0129 J0.
Y0.8673 Z-0.0885 I0. J0.0259
Y0.8155 Z-0.1062 I0. J-0.0259
Y0.8673 Z-0.124 I0. J0.0259
Y0.8155 Z-0.1417 I0. J-0.0259
Y0.8673 Z-0.1594 I0. J0.0259
Y0.8155 Z-0.1771 I0. J-0.0259
Y0.8673 Z-0.1948 I0. J0.0259
Y0.8155 Z-0.2126 I0. J-0.0259
X-3.6665 Y0.8248 Z-0.2175 I0. J0.0259
X-3.7064 Y0.858 I-0.0199 J0.0166
X-3.6665 Y0.8248 I0.0199 J-0.0166
X-3.6682 Y0.8431 I-0.01 J0.0083
G1 X-3.6739 Y0.8478
X-3.6762 Y0.8497 Z-0.2172
X-3.6783 Y0.8515 Z-0.2164
X-3.6803 Y0.8532 Z-0.215
X-3.682 Y0.8546 Z-0.2131
X-3.6835 Y0.8558 Z-0.2109
X-3.6845 Y0.8567 Z-0.2083
X-3.6852 Y0.8572 Z-0.2055
X-3.6854 Y0.8574 Z-0.2026
G0 Z0.4
X-3.8188 Y-0.3193
Z0.13
G1 Z0.0649 F40.
G19 G2 Y-0.3342 Z0.05 J-0.0149 K0.
G1 Y-0.3417
G17 G3 X-3.8092 Y-0.3513 I0.0096 J0.
Y-0.313 Z0.0335 I0. J0.0192
Y-0.3513 Z0.0169 I0. J-0.0192
Y-0.313 Z0.0004 I0. J0.0192
Y-0.3513 Z-0.0161 I0. J-0.0192
Y-0.313 Z-0.0327 I0. J0.0192
Y-0.3513 Z-0.0492 I0. J-0.0192
Y-0.313 Z-0.0657 I0. J0.0192
Y-0.3513 Z-0.0822 I0. J-0.0192
Y-0.313 Z-0.0988 I0. J0.0192
Y-0.3513 Z-0.1153 I0. J-0.0192
Y-0.313 Z-0.1318 I0. J0.0192
Y-0.3513 Z-0.1484 I0. J-0.0192
Y-0.313 Z-0.1649 I0. J0.0192
Y-0.3513 Z-0.1814 I0. J-0.0192
Y-0.313 Z-0.198 I0. J0.0192
Y-0.3513 Z-0.2145 I0. J-0.0192
X-3.7988 Y-0.3482 Z-0.2175 I0. J0.0192
X-3.8196 Y-0.316 I-0.0104 J0.0161
X-3.7988 Y-0.3482 I0.0104 J-0.0161
X-3.796 Y-0.335 I-0.0052 J0.0081
G1 X-3.8 Y-0.3287
X-3.8016 Y-0.3263 Z-0.2172
X-3.8031 Y-0.3239 Z-0.2164
X-3.8045 Y-0.3217 Z-0.215
X-3.8057 Y-0.3198 Z-0.2131
X-3.8067 Y-0.3183 Z-0.2109
X-3.8075 Y-0.3171 Z-0.2083
X-3.8079 Y-0.3164 Z-0.2055
X-3.8081 Y-0.3162 Z-0.2026
G0 Z0.4
X-2.9693 Y-2.3481
Z0.0092
G1 Z-0.0559 F40.
G19 G2 Y-2.3631 Z-0.0708 J-0.0149 K0.
G1 Y-2.3705
G17 G3 X-2.9563 Y-2.3835 I0.013 J0.
Y-2.3317 Z-0.0885 I0. J0.0259
Y-2.3835 Z-0.1062 I0. J-0.0259
Y-2.3317 Z-0.124 I0. J0.0259
Y-2.3835 Z-0.1417 I0. J-0.0259
Y-2.3317 Z-0.1594 I0. J0.0259
Y-2.3835 Z-0.1771 I0. J-0.0259
Y-2.3317 Z-0.1948 I0. J0.0259
Y-2.3835 Z-0.2126 I0. J-0.0259
X-2.9364 Y-2.3741 Z-0.2175 I0. J0.0259
X-2.9762 Y-2.341 I-0.0199 J0.0166
X-2.9364 Y-2.3741 I0.0199 J-0.0166
X-2.9381 Y-2.3559 I-0.01 J0.0083
G1 X-2.9438 Y-2.3511
X-2.946 Y-2.3493 Z-0.2172
X-2.9482 Y-2.3475 Z-0.2164
X-2.9502 Y-2.3458 Z-0.215
X-2.9519 Y-2.3444 Z-0.2131
X-2.9533 Y-2.3432 Z-0.2109
X-2.9544 Y-2.3423 Z-0.2083
X-2.955 Y-2.3418 Z-0.2055
X-2.9553 Y-2.3416 Z-0.2026
G0 Z0.4
X-1.6502 Y-3.394
Z0.13
G1 Z0.0649 F40.
G19 G2 Y-3.4089 Z0.05 J-0.0149 K0.
G1 Y-3.4164
G17 G3 X-1.6406 Y-3.4259 I0.0096 J0.
Y-3.3876 Z0.0335 I0. J0.0192
Y-3.4259 Z0.0169 I0. J-0.0192
Y-3.3876 Z0.0004 I0. J0.0192
Y-3.4259 Z-0.0161 I0. J-0.0192
Y-3.3876 Z-0.0327 I0. J0.0192
Y-3.4259 Z-0.0492 I0. J-0.0192
Y-3.3876 Z-0.0657 I0. J0.0192
Y-3.4259 Z-0.0822 I0. J-0.0192
Y-3.3876 Z-0.0988 I0. J0.0192
Y-3.4259 Z-0.1153 I0. J-0.0192
Y-3.3876 Z-0.1318 I0. J0.0192
Y-3.4259 Z-0.1484 I0. J-0.0192
Y-3.3876 Z-0.1649 I0. J0.0192
Y-3.4259 Z-0.1814 I0. J-0.0191
Y-3.3876 Z-0.198 I0. J0.0191
Y-3.4259 Z-0.2145 I0. J-0.0191
X-1.6303 Y-3.4229 Z-0.2175 I0. J0.0191
X-1.651 Y-3.3907 I-0.0104 J0.0161
X-1.6303 Y-3.4229 I0.0104 J-0.0161
X-1.6274 Y-3.4097 I-0.0052 J0.0081
G1 X-1.6314 Y-3.4034
X-1.633 Y-3.4009 Z-0.2172
X-1.6345 Y-3.3986 Z-0.2164
X-1.6359 Y-3.3964 Z-0.215
X-1.6371 Y-3.3945 Z-0.2131
X-1.6381 Y-3.393 Z-0.2109
X-1.6389 Y-3.3918 Z-0.2083
X-1.6393 Y-3.3911 Z-0.2055
X-1.6395 Y-3.3908 Z-0.2026
G0 Z0.4
X-0.0129 Y-3.7718
Z0.0092
G1 Z-0.0559 F40.
G19 G2 Y-3.7867 Z-0.0708 J-0.0149 K0.
G1 Y-3.7942
G17 G3 X0. Y-3.8071 I0.0129 J0.
Y-3.7553 Z-0.0885 I0. J0.0259
Y-3.8071 Z-0.1062 I0. J-0.0259
Y-3.7553 Z-0.124 I0. J0.0259
Y-3.8071 Z-0.1417 I0. J-0.0259
Y-3.7553 Z-0.1594 I0. J0.0259
Y-3.8071 Z-0.1771 I0. J-0.0259
Y-3.7553 Z-0.1948 I0. J0.0259
Y-3.8071 Z-0.2126 I0. J-0.0259
X0.0199 Y-3.7978 Z-0.2175 I0. J0.0259
X-0.0199 Y-3.7647 I-0.0199 J0.0166
X0.0199 Y-3.7978 I0.0199 J-0.0166
X0.0182 Y-3.7796 I-0.01 J0.0083
G1 X0.0125 Y-3.7748
X0.0103 Y-3.7729 Z-0.2172
X0.0081 Y-3.7712 Z-0.2164
X0.0061 Y-3.7695 Z-0.215
X0.0044 Y-3.7681 Z-0.2131
X0.003 Y-3.7669 Z-0.2109
X0.0019 Y-3.766 Z-0.2083
X0.0013 Y-3.7654 Z-0.2055
X0.001 Y-3.7653 Z-0.2026
G0 Z0.4
X1.631 Y-3.394
Z0.13
G1 Z0.0649 F40.
G19 G2 Y-3.4089 Z0.05 J-0.0149 K0.
G1 Y-3.4164
G17 G3 X1.6406 Y-3.4259 I0.0096 J0.
Y-3.3876 Z0.0335 I0. J0.0192
Y-3.4259 Z0.0169 I0. J-0.0192
Y-3.3876 Z0.0004 I0. J0.0192
Y-3.4259 Z-0.0161 I0. J-0.0192
Y-3.3876 Z-0.0327 I0. J0.0192
Y-3.4259 Z-0.0492 I0. J-0.0192
Y-3.3876 Z-0.0657 I0. J0.0192
Y-3.4259 Z-0.0822 I0. J-0.0192
Y-3.3876 Z-0.0988 I0. J0.0192
Y-3.4259 Z-0.1153 I0. J-0.0192
Y-3.3876 Z-0.1318 I0. J0.0192
Y-3.4259 Z-0.1484 I0. J-0.0192
Y-3.3876 Z-0.1649 I0. J0.0192
Y-3.4259 Z-0.1814 I0. J-0.0191
Y-3.3876 Z-0.198 I0. J0.0191
Y-3.4259 Z-0.2145 I0. J-0.0191
X1.651 Y-3.4229 Z-0.2175 I0. J0.0191
X1.6303 Y-3.3907 I-0.0104 J0.0161
X1.651 Y-3.4229 I0.0104 J-0.0161
X1.6539 Y-3.4097 I-0.0052 J0.0081
G1 X1.6498 Y-3.4034
X1.6482 Y-3.4009 Z-0.2172
X1.6467 Y-3.3986 Z-0.2164
X1.6453 Y-3.3964 Z-0.215
X1.6441 Y-3.3945 Z-0.2131
X1.6431 Y-3.393 Z-0.2109
X1.6424 Y-3.3918 Z-0.2083
X1.6419 Y-3.3911 Z-0.2055
X1.6417 Y-3.3908 Z-0.2026
G0 Z0.4
X2.9434 Y-2.3481
Z0.0092
G1 Z-0.0559 F40.
G19 G2 Y-2.3631 Z-0.0708 J-0.0149 K0.
G1 Y-2.3705
G17 G3 X2.9563 Y-2.3835 I0.0129 J0.
Y-2.3317 Z-0.0885 I0. J0.0259
Y-2.3835 Z-0.1062 I0. J-0.0259
Y-2.3317 Z-0.124 I0. J0.0259
Y-2.3835 Z-0.1417 I0. J-0.0259
Y-2.3317 Z-0.1594 I0. J0.0259
Y-2.3835 Z-0.1771 I0. J-0.0259
Y-2.3317 Z-0.1948 I0. J0.0259
Y-2.3835 Z-0.2126 I0. J-0.0259
X2.9762 Y-2.3741 Z-0.2175 I0. J0.0259
X2.9364 Y-2.341 I-0.0199 J0.0166
X2.9762 Y-2.3741 I0.0199 J-0.0166
X2.9745 Y-2.3559 I-0.01 J0.0083
G1 X2.9688 Y-2.3511
X2.9666 Y-2.3493 Z-0.2172
X2.9644 Y-2.3475 Z-0.2164
X2.9624 Y-2.3458 Z-0.215
X2.9607 Y-2.3444 Z-0.2131
X2.9593 Y-2.3432 Z-0.2109
X2.9582 Y-2.3423 Z-0.2083
X2.9576 Y-2.3418 Z-0.2055
X2.9573 Y-2.3416 Z-0.2026
G0 Z0.6
(SHAPE POCKET)
M7
G0 X-1.6563 Y-4.1328
Z0.6
Z0.1
G3 X-1.5381 Y-4.0546 Z0.0607 I0.0591 J0.0391 F50.
X-1.6563 Y-4.1328 Z0.0215 I-0.0591 J-0.0391
X-1.5381 Y-4.0546 Z-0.0178 I0.0591 J0.0391
X-1.6563 Y-4.1328 Z-0.057 I-0.0591 J-0.0391
X-1.5381 Y-4.0546 Z-0.0963 I0.0591 J0.0391
X-1.6563 Y-4.1328 Z-0.1355 I-0.0591 J-0.0391
X-1.5264 Y-4.0937 Z-0.1675 I0.0591 J0.0391
X-1.6681 I-0.0709 J0.
X-1.5264 I0.0709 J0.
X-1.5357 Y-3.9729 I-0.0491 J0.057 F60.
G2 X-1.6666 Y-4.0089 I-0.2167 J0.5318
G3 X-1.647 Y-4.237 I0.0363 J-0.1118
G2 X-1.5047 Y-4.1601 I0.1526 J-0.1123
G3 X-1.4477 Y-3.9369 I-0.0516 J0.132
G2 X-1.5357 Y-3.9729 I-0.7469 J1.7005
G3 X-1.5446 Y-3.9848 I0.0058 J-0.0137
X-1.5098 Y-4.0122 I0.0257 J-0.0032
X-1.4635 Y-3.9655 I-0.0277 J0.0737
X-1.4597 Y-3.9507 I-0.074 J0.027 F50.
G2 X-1.4503 Y-3.9391 I0.0147 J-0.0023
G1 X-1.4304 Y-3.9321 F60.
G2 X-1.3424 Y-4.1025 I-0.0088 J-0.1124
G3 X-1.5047 Y-4.1601 I0.4019 J-1.3898
G2 X-1.5175 Y-4.1337 I-0.004 J0.0144
G3 X-1.5146 Y-4.1123 I-0.0088 J0.0121
X-1.5361 Y-4.1103 I-0.0117 J-0.0093
G1 X-1.634 Y-4.1949
G3 X-1.6392 Y-4.2062 I0.0098 J-0.0113
G2 X-1.6469 Y-4.2361 I-0.0623 J0.0001 F50.
G1 X-1.6544 Y-4.2486 F60.
G2 X-1.83 Y-4.1422 I-0.0621 J0.0956
G1 X-1.8332 Y-4.14
X-1.8345 Y-4.1386
G2 X-1.7521 Y-3.9529 I0.1603 J0.04
G1 X-1.7496 Y-3.955
X-1.736 Y-3.9678
X-1.7159 Y-3.9873
G2 X-1.7123 Y-4.0017 I-0.0108 J-0.0103
X-1.7282 Y-4.0082 I-0.0105 J0.003
X-1.747 Y-3.9822 I0.0198 J0.034
X-1.7472 Y-3.967 I0.0385 J0.0081 F50.
G3 X-1.7521 Y-3.9529 I-0.0147 J0.0027
G1 X-1.7679 Y-3.9404 F60.
G3 X-1.9143 Y-4.0319 I-0.037 J-0.1036
G1 X-1.9134 Y-4.0345
X-1.912 Y-4.037
X-1.9101 Y-4.0391
X-1.9078 Y-4.0408
X-1.9051 Y-4.0421
X-1.9023 Y-4.0427
X-1.8993 Y-4.0428
X-1.8964 Y-4.0423
X-1.8936 Y-4.0411
X-1.8911 Y-4.0394
X-1.8889 Y-4.0375 Z-0.1672
X-1.8868 Y-4.0356 Z-0.1664
X-1.8849 Y-4.0339 Z-0.165
X-1.8832 Y-4.0324 Z-0.1631
X-1.8818 Y-4.0311 Z-0.1609
X-1.8808 Y-4.0302 Z-0.1583
X-1.8802 Y-4.0297 Z-0.1555
X-1.88 Y-4.0295 Z-0.1526
G0 Z0.4
X-1.8156 Y-4.0999
Z-0.1377
G1 Z-0.1526 F50.
X-1.8158 Y-4.1002 Z-0.1555
X-1.8162 Y-4.1009 Z-0.1583
X-1.817 Y-4.102 Z-0.1609
X-1.818 Y-4.1036 Z-0.1631
X-1.8192 Y-4.1055 Z-0.165
X-1.8206 Y-4.1077 Z-0.1664
X-1.8221 Y-4.11 Z-0.1672
X-1.8236 Y-4.1125 Z-0.1675
G3 X-1.8333 Y-4.1419 I0.0525 J-0.0335
G1 X-1.8347 Y-4.1862 F60.
X-1.8436 Y-4.2221
G3 X-1.6586 Y-4.2479 I0.0929 J-0.0098
G1 X-1.6572 Y-4.2461
X-1.6561 Y-4.2441
X-1.6554 Y-4.2418
X-1.6552 Y-4.2393
X-1.6555 Y-4.2368
X-1.6564 Y-4.2344
X-1.6578 Y-4.2321
X-1.6596 Y-4.23
X-1.6619 Y-4.2284
X-1.6645 Y-4.2272
X-1.6674 Y-4.2265
G3 X-1.6716 Y-4.2271 I0. J-0.0149
G1 X-1.6691 Y-4.2365
X-1.6662 Y-4.229
G3 X-1.8049 Y-4.1446 I-0.1626 J-0.111
X-1.824 Y-4.1432 I-0.0239 J-0.1954 F50.
G2 X-1.8345 Y-4.1386 I0.0004 J0.0149
X-1.921 Y-4.0042 I0.2217 J0.2378 F60.
X-1.7675 Y-3.94 I0.092 J-0.0043
G1 X-1.7657 Y-3.942
X-1.7642 Y-3.9443
X-1.7632 Y-3.9469
X-1.7626 Y-3.9495
Y-3.9522
X-1.763 Y-3.9548
X-1.7635 Y-3.9577 Z-0.1672
X-1.7641 Y-3.9604 Z-0.1664
X-1.7646 Y-3.9629 Z-0.165
X-1.7651 Y-3.9651 Z-0.1631
X-1.7655 Y-3.967 Z-0.1609
X-1.7658 Y-3.9683 Z-0.1583
X-1.7659 Y-3.9691 Z-0.1555
X-1.766 Y-3.9694 Z-0.1526
G0 Z0.4
X-1.4589 Y-3.957
Z-0.1377
G1 Z-0.1526 F50.
X-1.4587 Y-3.9568 Z-0.1555
X-1.4581 Y-3.9562 Z-0.1583
X-1.4573 Y-3.9551 Z-0.1609
X-1.4561 Y-3.9537 Z-0.1631
X-1.4546 Y-3.952 Z-0.165
X-1.4529 Y-3.95 Z-0.1664
X-1.4511 Y-3.9478 Z-0.1672
X-1.4493 Y-3.9456 Z-0.1675
G2 X-1.4304 Y-3.9321 I0.0357 J-0.0301
G1 X-1.4122 Y-3.9258 F60.
X-1.366 Y-3.9152
G2 X-1.2449 Y-4.078 I-0.0077 J-0.1321
G1 X-1.2735 Y-4.0931
X-1.3197 Y-4.098
X-1.3426 Y-4.1024
G2 X-1.3565 Y-4.097 I-0.0023 J0.0147
X-1.3551 Y-4.0823 I0.0083 J0.0066
X-1.2732 Y-4.0696 I0.0511 J-0.0599
X-1.2598 Y-4.0769 I-0.0307 J-0.0725 F50.
G3 X-1.2449 Y-4.078 I0.0084 J0.0124
G1 X-1.2387 Y-4.0735 F60.
X-1.2329 Y-4.0686
X-1.2274 Y-4.0632
X-1.2225 Y-4.0574
X-1.2179 Y-4.0512
X-1.2139 Y-4.0447
X-1.2104 Y-4.0379
X-1.2075 Y-4.0308
X-1.2051 Y-4.0236
X-1.2034 Y-4.0161
X-1.2022 Y-4.0086
X-1.2016 Y-4.0009
Y-3.9933
X-1.2022 Y-3.9856
X-1.2035 Y-3.9781
X-1.2053 Y-3.9707
X-1.2077 Y-3.9634
X-1.2107 Y-3.9563
X-1.2142 Y-3.9495
X-1.2182 Y-3.9431
X-1.2228 Y-3.9369
X-1.2278 Y-3.9311
X-1.2333 Y-3.9258
X-1.2391 Y-3.9209
X-1.2454 Y-3.9164
X-1.2519 Y-3.9125
X-1.2588 Y-3.9091
X-1.2659 Y-3.9063
X-1.2732 Y-3.904
X-1.2807 Y-3.9024
X-1.2883 Y-3.9013
X-1.2959 Y-3.9008
X-1.3035 Y-3.9009
X-1.3112 Y-3.9017
X-1.3187 Y-3.903
X-1.3261 Y-3.9049
X-1.3333 Y-3.9074
X-1.3403 Y-3.9105
X-1.3471 Y-3.9141
X-1.3535 Y-3.9182
X-1.3596 Y-3.9229
X-1.3635 Y-3.9152
X-1.3679 Y-3.9079
X-1.3729 Y-3.9009
X-1.3783 Y-3.8943
X-1.3842 Y-3.8881
X-1.3906 Y-3.8823
X-1.3973 Y-3.877
X-1.4044 Y-3.8722
X-1.4118 Y-3.8679
X-1.4196 Y-3.8641
X-1.4275 Y-3.8609
X-1.4357 Y-3.8583
X-1.444 Y-3.8563
X-1.4525 Y-3.8549
X-1.461 Y-3.8541
X-1.4696 Y-3.8539
X-1.4781 Y-3.8544
X-1.4867 Y-3.8554
X-1.4951 Y-3.8571
X-1.5033 Y-3.8593
X-1.5114 Y-3.8622
X-1.5193 Y-3.8656
X-1.5269 Y-3.8695
X-1.5342 Y-3.8741
X-1.5411 Y-3.8791
X-1.5538 Y-3.8817
X-1.5665 Y-3.8837
X-1.5794 Y-3.8852
X-1.5923 Y-3.886
X-1.6052 Y-3.8863
X-1.6181 Y-3.8859
X-1.631 Y-3.885
X-1.6438 Y-3.8834
X-1.6565 Y-3.8812
X-1.6692 Y-3.8785
X-1.6817 Y-3.8752
X-1.694 Y-3.8712
X-1.7061 Y-3.8668
X-1.718 Y-3.8617
X-1.7296 Y-3.8561
X-1.741 Y-3.85
X-1.7521 Y-3.8433
X-1.7628 Y-3.8362
X-1.7732 Y-3.8285
X-1.7832 Y-3.8204
G3 X-1.9467 Y-4.1592 I-0.0284 J-0.1952
X-1.5679 Y-4.2967 I0.1968 J-0.0485
G2 X-1.1937 Y-4.159 I1.141 J-2.5218
G1 X-1.1707 Y-4.1416
X-1.1628 Y-4.1341
X-1.1554 Y-4.1262
X-1.1484 Y-4.1179
X-1.142 Y-4.1092
X-1.1361 Y-4.1001
X-1.1307 Y-4.0907
X-1.1258 Y-4.081
X-1.1215 Y-4.071
X-1.1178 Y-4.0609
X-1.1147 Y-4.0505
X-1.1123 Y-4.0399
X-1.1104 Y-4.0292
X-1.1091 Y-4.0185
X-1.1085 Y-4.0076
Y-3.9968
X-1.1091 Y-3.986
X-1.1104 Y-3.9752
X-1.1123 Y-3.9645
X-1.1148 Y-3.954
X-1.1179 Y-3.9436
X-1.1216 Y-3.9334
X-1.1259 Y-3.9234
X-1.1307 Y-3.9137
X-1.1361 Y-3.9043
X-1.1421 Y-3.8953
X-1.1485 Y-3.8866
X-1.1555 Y-3.8782
X-1.1629 Y-3.8703
X-1.1708 Y-3.8629
X-1.1791 Y-3.8559
X-1.1877 Y-3.8494
X-1.1968 Y-3.8434
X-1.2062 Y-3.838
X-1.2158 Y-3.8331
X-1.2258 Y-3.8287
X-1.2359 Y-3.825
X-1.2463 Y-3.8218
X-1.2569 Y-3.8193
X-1.2675 Y-3.8174
X-1.2783 Y-3.8161
X-1.2891 Y-3.8154
X-1.3 Y-3.8153
G3 X-1.5276 Y-3.7713 I-0.1647 J-0.241
G2 X-1.8076 Y-3.7518 I-0.1149 J0.3701
G3 X-2.0987 Y-3.9609 I-0.0467 J-0.2421
G1 X-1.9835 Y-4.3538
G3 X-1.7192 Y-4.5047 I0.2253 J0.0877
G1 X-1.104 Y-4.1685
G3 X-1.0862 Y-3.8176 I-0.1457 J0.1833
G1 X-1.1593 Y-3.7977
X-1.1824 Y-3.7902
X-1.3908 Y-3.7189
G3 X-1.4346 Y-3.7285 I-0.0159 J-0.0322
G2 X-1.5276 Y-3.7713 I-0.1554 J0.215
G3 X-1.5326 Y-3.7965 I0.005 J-0.014
G1 X-1.5325
X-1.1304 Y-4.1576
X-1.1207 Y-4.1663 F50.
G3 X-1.104 Y-4.1685 I0.01 J0.0111
G1 X-0.986 Y-4.104 F60.
G3 X-0.9526 Y-3.854 I-0.1445 J0.1466
G1 X-1.0862 Y-3.8176
G3 X-1.1042 Y-3.8287 I-0.0034 J-0.0145
X-1.0962 Y-3.8504 I0.0204 J-0.0048
X-0.9809 Y-3.8646 I0.0703 J0.0949
X-0.9638 Y-3.8559 I-0.0451 J0.1092 F50.
G2 X-0.9526 Y-3.854 I0.0079 J-0.0127
G1 X-0.9277 Y-3.8608 F60.
X-0.915 Y-3.8636
X-0.907 Y-3.8675
X-0.8993 Y-3.8718
X-0.8918 Y-3.8766
X-0.8848 Y-3.882
X-0.878 Y-3.8877
X-0.8717 Y-3.8939
X-0.8658 Y-3.9006
X-0.8604 Y-3.9076
X-0.8554 Y-3.9149
X-0.851 Y-3.9226
X-0.847 Y-3.9305
X-0.8436 Y-3.9387
X-0.8408 Y-3.9471
X-0.8385 Y-3.9556
X-0.8368 Y-3.9643
X-0.8356 Y-3.9731
X-0.8351 Y-3.982
Y-3.9908
X-0.8357 Y-3.9997
X-0.837 Y-4.0084
X-0.8388 Y-4.0171
X-0.8411 Y-4.0257
X-0.986 Y-4.104
G2 X-1.0009 Y-4.1032 I-0.0067 J0.0133
X-1.0082 Y-4.0427 I0.0219 J0.0333
X-0.8703 Y-4.017 I0.0864 J-0.0805
X-0.857 Y-4.0245 I-0.0515 J-0.1063 F50.
G3 X-0.8421 Y-4.0254 I0.0082 J0.0125
G1 X-0.812 Y-4.0089 F60.
G3 X-0.7796 Y-3.8904 I-0.0544 J0.0786
G1 X-0.7825 Y-3.89
X-0.7854 Y-3.8901
X-0.7883 Y-3.8908
X-0.7909 Y-3.892
X-0.7932 Y-3.8937
X-0.7952 Y-3.8957
X-0.7968 Y-3.898
X-0.7979 Y-3.9006
X-0.8017 Y-3.9103
X-0.8326 Y-3.9902
X-0.8333 Y-3.9926
X-0.8336 Y-3.995
G3 X-0.812 Y-4.0089 I0.0149 J-0.0005 F50.
G1 X-0.7425 Y-3.9709 F60.
G3 X-0.7107 Y-3.9058 I-0.0168 J0.0485
X-0.7239 Y-3.9101 I-0.0025 J-0.0147
G1 X-0.7354 Y-3.9219
X-0.7599 Y-3.9472
G3 X-0.7641 Y-3.9571 I0.0107 J-0.0104
X-0.7425 Y-3.9709 I0.0149 J-0.0005 F50.
G1 X-0.6835 Y-3.9387 F60.
X-0.6792 Y-3.9364
X-0.6787 Y-3.936
X-0.6705 Y-3.9295
X-0.67 Y-3.9289
X-0.6685 Y-3.9264
X-0.668 Y-3.9234
G3 X-0.6962 Y-3.9088 I-0.0201 J-0.0042
G1 X-0.9046 Y-3.8659
X-0.915 Y-3.8636
G3 X-0.9319 Y-3.883 I-0.0027 J-0.0147
G1 X-0.931 Y-3.8857 Z-0.1672
X-0.9301 Y-3.8884 Z-0.1664
X-0.9293 Y-3.8909 Z-0.165
X-0.9286 Y-3.893 Z-0.1631
X-0.928 Y-3.8948 Z-0.1609
X-0.9276 Y-3.8961 Z-0.1583
X-0.9273 Y-3.8969 Z-0.1555
X-0.9272 Y-3.8971 Z-0.1526
G0 Z-0.1377
X-1.9798 Y-4.3084
G1 Z-0.1526 F50.
Y-4.3087 Z-0.1555
X-1.9801 Y-4.3095 Z-0.1583
X-1.9804 Y-4.3108 Z-0.1609
X-1.9809 Y-4.3126 Z-0.1631
X-1.9814 Y-4.3148 Z-0.165
X-1.9821 Y-4.3173 Z-0.1664
X-1.9828 Y-4.32 Z-0.1672
X-1.9835 Y-4.3229 Z-0.1675
G3 Y-4.3538 I0.0604 J-0.0155
G1 X-1.9427 Y-4.4927 F60.
X-1.9396 Y-4.5014
X-1.936 Y-4.5098
X-1.9317 Y-4.518
X-1.9269 Y-4.5258
X-1.9216 Y-4.5333
X-1.9157 Y-4.5404
X-1.9094 Y-4.5471
X-1.9027 Y-4.5533
X-1.8955 Y-4.5591
X-1.888 Y-4.5644
X-1.8801 Y-4.5691
X-1.8719 Y-4.5733
X-1.8635 Y-4.5769
X-1.8548 Y-4.5799
X-1.8524 Y-4.5783
X-1.8504 Y-4.5763
X-1.8488 Y-4.574
X-1.8476 Y-4.5715
X-1.8469 Y-4.5687
X-1.8467 Y-4.566
X-1.847 Y-4.5632
X-1.8478 Y-4.5606
X-1.8491 Y-4.5582
X-1.8507 Y-4.556
X-1.8539 Y-4.5524
G3 X-1.9246 Y-4.4746 I-0.1269 J-0.0444
X-1.9427 Y-4.4927 I-0.0037 J-0.0145 F50.
X-1.9095 Y-4.5985 I0.2998 J0.0361 F60.
G1 X-1.9077 Y-4.6002
X-1.9072 Y-4.6006
X-1.9047 Y-4.6016
X-1.904 Y-4.6018
G3 X-1.8902 Y-4.5981 I0.0017 J0.0213
G1 X-1.7192 Y-4.5047
G3 Y-4.479 I-0.0076 J0.0128
G1 X-1.7217 Y-4.4776 Z-0.1672
X-1.7241 Y-4.4761 Z-0.1664
X-1.7263 Y-4.4748 Z-0.165
X-1.7283 Y-4.4737 Z-0.1631
X-1.7299 Y-4.4727 Z-0.1609
X-1.7311 Y-4.472 Z-0.1583
X-1.7318 Y-4.4716 Z-0.1555
X-1.732 Y-4.4714 Z-0.1526
G0 Z-0.1377
X-1.7768 Y-3.7853
G1 Z-0.1526 F50.
X-1.777 Y-3.7851 Z-0.1555
X-1.7774 Y-3.7844 Z-0.1583
X-1.7782 Y-3.7832 Z-0.1609
X-1.7792 Y-3.7817 Z-0.1631
X-1.7804 Y-3.7798 Z-0.165
X-1.7818 Y-3.7776 Z-0.1664
X-1.7833 Y-3.7753 Z-0.1672
X-1.7849 Y-3.7728 Z-0.1675
G3 X-1.8076 Y-3.7518 I-0.0523 J-0.0339
G2 X-1.8809 Y-3.7053 I0.4907 J0.8544 F60.
G3 X-2.1414 Y-3.8153 I-0.0732 J-0.1901
G1 X-2.0987 Y-3.9609
G3 X-2.0876 Y-3.9708 I0.0142 J0.0047
X-2.0374 Y-3.9235 I0.0085 J0.0412
X-2.1155 Y-3.8293 I-0.1168 J-0.0174
X-2.1303 Y-3.8252 I-0.0387 J-0.1116 F50.
G2 X-2.1414 Y-3.8153 I0.003 J0.0146
G1 X-2.1533 Y-3.7748 F60.
G2 X-1.9728 Y-3.5962 I0.1726 J0.0061
G3 X-1.8809 Y-3.7053 I0.3363 J0.1898
G2 X-1.8813 Y-3.7264 I-0.0107 J-0.0104
X-1.9284 Y-3.7291 I-0.0251 J0.026
X-1.9741 Y-3.6264 I0.0721 J0.0936
X-1.9711 Y-3.6075 I0.1178 J-0.0091 F50.
G3 X-1.9728 Y-3.5962 I-0.0145 J0.0035
G1 X-1.9772 Y-3.5896 F60.
X-1.9836 Y-3.578
G3 X-2.1988 Y-3.6196 I-0.092 J-0.1017
G1 X-2.1533 Y-3.7748
G3 X-2.1421 Y-3.7847 I0.0142 J0.0047
X-2.1339 Y-3.7856 I0.0082 J0.0396
G1 X-2.1304 Y-3.7854
X-2.1269 Y-3.785
G3 X-2.0935 Y-3.7452 I-0.007 J0.0398
X-2.1729 Y-3.6336 I-0.1181 J0.0001
X-2.1877 Y-3.6295 I-0.0387 J-0.1116 F50.
G2 X-2.1988 Y-3.6196 I0.003 J0.0146
G1 X-2.2076 Y-3.5896 F60.
Y-3.5804
X-2.2069 Y-3.5714
X-2.2057 Y-3.5623
X-2.2038 Y-3.5534
X-2.2014 Y-3.5446
X-2.1984 Y-3.536
X-2.1948 Y-3.5277
X-2.1907 Y-3.5195
X-2.1861 Y-3.5117
X-2.1809 Y-3.5042
X-2.1753 Y-3.497
X-2.1692 Y-3.4902
X-2.1627 Y-3.4839
X-2.1557 Y-3.478
X-2.1484 Y-3.4725
X-2.1408 Y-3.4676
X-2.1328 Y-3.4632
X-2.1246 Y-3.4593
X-2.1161 Y-3.4559
X-2.1075 Y-3.4531
X-2.0986 Y-3.451
X-2.0897 Y-3.4493
X-2.0806 Y-3.4483
X-2.0715 Y-3.4479
X-2.0624 Y-3.4481
X-2.0533 Y-3.4489
X-2.0443 Y-3.4503
X-2.0354 Y-3.4523
X-2.0267 Y-3.4548
X-2.0182 Y-3.458
G3 X-1.9836 Y-3.578 I0.3624 J0.0395
G2 X-1.9862 Y-3.5926 I-0.014 J-0.0051
X-2.0286 Y-3.5962 I-0.023 J0.0194
X-2.0359 Y-3.4831 I0.0509 J0.0601
X-2.0246 Y-3.4729 I0.0582 J-0.053 F50.
G3 X-2.0187 Y-3.4592 I-0.0089 J0.012
G1 X-2.0199 Y-3.4506 F60.
X-2.0221 Y-3.4379
X-2.0223 Y-3.4361
X-2.0226 Y-3.4347
G3 X-2.0397 Y-3.4067 I-0.0464 J-0.0092
X-2.0601 Y-3.4271 I-0.0074 J-0.0129
G1 X-2.0503 Y-3.4441
G3 X-2.0428 Y-3.4505 I0.0129 J0.0074
X-2.0226 Y-3.4347 I0.0054 J0.0139 F50.
X-2.0539 Y-3.3979 I-0.0368 J0.0004 F60.
X-2.2507 Y-3.4466 I-0.0697 J-0.1402
G1 X-2.2076 Y-3.5896
G3 X-2.1965 Y-3.5995 I0.0142 J0.0047
X-2.1464 Y-3.5495 I0.0086 J0.0415
X-2.2233 Y-3.4616 I-0.1157 J-0.0237
X-2.2381 Y-3.4575 I-0.0387 J-0.1116 F50.
G2 X-2.2492 Y-3.4476 I0.003 J0.0146
G1 X-2.2572 Y-3.4204 F60.
G2 X-2.1882 Y-3.3117 I0.0945 J0.0164
G1 X-2.1781 Y-3.3197
X-2.155 Y-3.3351
X-2.0539 Y-3.3979
G2 X-2.0618 Y-3.4252 I-0.0083 J-0.0124
G1 X-2.2308 Y-3.4303
X-2.2426 Y-3.4307 F50.
G2 X-2.2572 Y-3.4204 I-0.0005 J0.0149
G1 X-2.2792 Y-3.3452 F60.
G2 X-2.2512 Y-3.2703 I0.0566 J0.0215
G1 X-2.1878 Y-3.3132
G2 X-2.1817 Y-3.3268 I-0.0088 J-0.0121
X-2.2292 Y-3.3403 I-0.0264 J0.0028
X-2.2453 Y-3.2992 I0.0623 J0.0481
X-2.2452 Y-3.2839 I0.0784 J0.007 F50.
G3 X-2.2512 Y-3.2703 I-0.0148 J0.0016
G1 X-2.2622 Y-3.2628 F60.
G3 X-2.3018 Y-3.2684 I-0.0183 J-0.0132
X-2.2785 Y-3.2928 I0.0374 J0.0124
X-2.2611 Y-3.2897 I0.0062 J0.016
X-2.2622 Y-3.2628 I-0.0112 J0.013 F50.
X-2.3036 Y-3.249 I-0.0233 J-0.0008 F60.
G1 X-2.3038 Y-3.2494
G3 X-2.2792 Y-3.3452 I0.109 J-0.0232
X-2.2542 Y-3.3507 I0.0142 J0.0047
G1 X-2.2522 Y-3.3486 Z-0.1672
X-2.2503 Y-3.3465 Z-0.1664
X-2.2485 Y-3.3446 Z-0.165
X-2.247 Y-3.343 Z-0.1631
X-2.2457 Y-3.3416 Z-0.1609
X-2.2448 Y-3.3406 Z-0.1583
X-2.2442 Y-3.34 Z-0.1555
X-2.244 Y-3.3398 Z-0.1526
G0 Z0.6
X-0.5925 Y-4.7342
Z0.1
G3 X-0.4743 Y-4.6559 Z0.0607 I0.0591 J0.0391 F50.
X-0.5925 Y-4.7342 Z0.0215 I-0.0591 J-0.0391
X-0.4743 Y-4.6559 Z-0.0178 I0.0591 J0.0391
X-0.5925 Y-4.7342 Z-0.057 I-0.0591 J-0.0391
X-0.4743 Y-4.6559 Z-0.0963 I0.0591 J0.0391
X-0.5925 Y-4.7342 Z-0.1355 I-0.0591 J-0.0391
X-0.4625 Y-4.6951 Z-0.1675 I0.0591 J0.0391
X-0.6043 I-0.0709 J0.
X-0.4625 I0.0709 J0.
X-0.4657 Y-4.5791 I-0.0482 J0.0567 F60.
G1 X-0.5334 Y-4.5924
X-0.5806 Y-4.6025
X-0.6101 Y-4.608
G3 X-0.6413 Y-4.804 I0.0381 J-0.1065
X-0.4513 Y-4.7664 I-2.5304 J13.2689
X-0.3713 Y-4.5591 I-0.0398 J0.1345
G1 X-0.3947 Y-4.5648
X-0.4409 Y-4.5743
X-0.4657 Y-4.5791
G3 X-0.4765 Y-4.5893 I0.0034 J-0.0145
X-0.444 Y-4.6248 I0.0267 J-0.0081
X-0.391 Y-4.5851 I-0.0163 J0.077
X-0.3851 Y-4.571 I-0.0693 J0.0374 F50.
G2 X-0.3742 Y-4.5609 I0.0143 J-0.0044
G1 X-0.355 Y-4.5572 F60.
G2 X-0.2956 Y-4.7422 I-0.0237 J-0.1097
G3 X-0.4513 Y-4.7664 I0.0098 J-0.5766
G2 X-0.4652 Y-4.7611 I-0.0024 J0.0147
X-0.4283 Y-4.6691 I0.0439 J0.0357
X-0.3156 Y-4.7208 I0.0145 J-0.1172
X-0.3079 Y-4.734 I-0.0982 J-0.0656 F50.
G3 X-0.2955 Y-4.7423 I0.0134 J0.0066
G1 X-0.2691 Y-4.7431 F60.
G3 X-0.2112 Y-4.5633 I-0.0377 J0.1114
X-0.355 Y-4.5572 I-0.0802 J-0.1938
X-0.366 Y-4.5673 I0.0033 J-0.0145
X-0.3368 Y-4.6139 I0.0347 J-0.0107
X-0.235 Y-4.5805 I0.018 J0.1167
X-0.225 Y-4.569 I-0.0837 J0.0833 F50.
G2 X-0.2112 Y-4.5633 I0.0118 J-0.0091
G1 X-0.2097 Y-4.5635 F60.
X-0.1795 Y-4.5669
X-0.1719 Y-4.5707
X-0.1646 Y-4.575
X-0.1576 Y-4.5798
X-0.151 Y-4.5852
X-0.1448 Y-4.5909
X-0.139 Y-4.5971
X-0.1337 Y-4.6037
X-0.1288 Y-4.6107
X-0.1245 Y-4.618
X-0.1207 Y-4.6256
X-0.1175 Y-4.6334
X-0.1148 Y-4.6415
X-0.1127 Y-4.6497
X-0.1112 Y-4.6581
X-0.1103 Y-4.6665
X-0.11 Y-4.675
X-0.1104 Y-4.6835
X-0.1113 Y-4.6919
X-0.1128 Y-4.7003
X-0.115 Y-4.7085
X-0.1177 Y-4.7165
X-0.121 Y-4.7244
X-0.1248 Y-4.7319
X-0.1292 Y-4.7392
X-0.134 Y-4.7461
X-0.1394 Y-4.7527
X-0.1452 Y-4.7589
G2 X-0.2691 Y-4.7431 I1.1794 J9.7332
X-0.2815 Y-4.7348 I0.001 J0.0149
X-0.2766 Y-4.7152 I0.0141 J0.007
X-0.1646 Y-4.7357 I0.0462 J-0.0638
X-0.1575 Y-4.7492 I-0.0658 J-0.0432 F50.
G3 X-0.1458 Y-4.7584 I0.0138 J0.0056
G1 X-0.1171 Y-4.7613 F60.
X-0.1089 Y-4.759
X-0.1008 Y-4.7561
X-0.0929 Y-4.7526
X-0.0853 Y-4.7486
X-0.0781 Y-4.744
X-0.0711 Y-4.739
X-0.0646 Y-4.7334
X-0.0585 Y-4.7273
X-0.0528 Y-4.7209
X-0.0477 Y-4.714
X-0.043 Y-4.7068
X-0.0389 Y-4.6992
X-0.0353 Y-4.6914
X-0.0324 Y-4.6834
X-0.03 Y-4.6751
X-0.0282 Y-4.6667
X-0.027 Y-4.6582
X-0.0265 Y-4.6496
Y-4.641
X-0.0272 Y-4.6325
X-0.0286 Y-4.624
X-0.0305 Y-4.6156
X-0.033 Y-4.6074
X-0.0362 Y-4.5994
X-0.0399 Y-4.5917
X-0.0441 Y-4.5842
X-0.0489 Y-4.5771
G2 X-0.1795 Y-4.5669 I0.0077 J0.9428
G3 X-0.193 Y-4.5733 I-0.0012 J-0.0149
X-0.1919 Y-4.5971 I0.0163 J-0.0112
X-0.071 Y-4.5978 I0.0608 J0.0501
X-0.0623 Y-4.5852 I-0.0602 J0.0507 F50.
G2 X-0.0495 Y-4.5775 I0.0131 J-0.0072
G1 X-0.0246 Y-4.5779 F60.
X-0.0168 Y-4.581
X-0.0092 Y-4.5847
X-0.002 Y-4.5889
X0.005 Y-4.5937
X0.0116 Y-4.5989
X0.0178 Y-4.6046
X0.0236 Y-4.6108
X0.0289 Y-4.6173
X0.0337 Y-4.6242
X0.0379 Y-4.6315
X0.0417 Y-4.639
X0.0449 Y-4.6468
X0.0475 Y-4.6548
X0.0495 Y-4.663
X0.0509 Y-4.6713
X0.0517 Y-4.6797
X0.0518 Y-4.6881
X0.0514 Y-4.6965
X0.0504 Y-4.7049
X0.0487 Y-4.7131
X0.0464 Y-4.7212
X0.0436 Y-4.7291
X0.0402 Y-4.7368
X0.0362 Y-4.7443
X0.0317 Y-4.7514
X0.0267 Y-4.7581
X0.0212 Y-4.7645
X-0.0246 Y-4.7644
X-0.0709 Y-4.7639
X-0.1171 Y-4.7613
G2 X-0.1299 Y-4.7445 I0.002 J0.0148
X-0.1186 Y-4.7302 I0.0178 J-0.0025
X-0.0035 Y-4.7468 I0.043 J-0.11
X0.0107 Y-4.7597 I-0.0722 J-0.0935 F50.
G3 X0.0211 Y-4.7644 I0.0109 J0.0102
G1 X0.0517 Y-4.7641 F60.
X0.0598 Y-4.7611
X0.0676 Y-4.7575
X0.0751 Y-4.7533
X0.0823 Y-4.7487
X0.0891 Y-4.7435
X0.0956 Y-4.7378
X0.1016 Y-4.7316
X0.1072 Y-4.7251
X0.1122 Y-4.7182
X0.1168 Y-4.7109
X0.1208 Y-4.7033
X0.1243 Y-4.6954
X0.1272 Y-4.6873
X0.1294 Y-4.679
X0.1311 Y-4.6706
X0.1322 Y-4.6621
X0.1327 Y-4.6535
X0.1325 Y-4.6449
X0.1317 Y-4.6364
X0.1303 Y-4.6279
X0.1283 Y-4.6195
X0.1257 Y-4.6113
X0.1225 Y-4.6034
X0.1187 Y-4.5956
X0.1144 Y-4.5882
X0.1096 Y-4.5811
X0.1042 Y-4.5744
X0.0679 Y-4.5773
X0.0216 Y-4.5779
X-0.0246
G3 X-0.0373 Y-4.5858 I0.0005 J-0.0149
X-0.0331 Y-4.6097 I0.0174 J-0.0093
X0.0839 Y-4.5969 I0.0528 J0.0584
X0.0915 Y-4.5837 I-0.0642 J0.0456 F50.
G2 X0.1036 Y-4.575 I0.0136 J-0.0061
G1 X0.1141 Y-4.5743 F60.
X0.1268 Y-4.5728
X0.1349 Y-4.5751
X0.1428 Y-4.578
X0.1505 Y-4.5814
X0.1579 Y-4.5854
X0.165 Y-4.5899
X0.1718 Y-4.5949
X0.1781 Y-4.6004
X0.184 Y-4.6064
X0.1895 Y-4.6128
X0.1945 Y-4.6195
X0.199 Y-4.6267
X0.203 Y-4.6341
X0.2064 Y-4.6418
X0.2092 Y-4.6497
X0.2114 Y-4.6578
X0.2131 Y-4.6661
X0.2141 Y-4.6744
X0.2145 Y-4.6828
X0.2143 Y-4.6912
X0.2135 Y-4.6996
X0.212 Y-4.7079
X0.21 Y-4.716
X0.2073 Y-4.724
X0.2041 Y-4.7318
X0.2004 Y-4.7393
X0.196 Y-4.7465
X0.1912 Y-4.7534
G2 X0.0517 Y-4.7641 I-0.1578 J1.1369
X0.039 Y-4.7564 I0.0004 J0.0149
X0.0713 Y-4.6967 I0.0355 J0.0194
X0.1679 Y-4.7349 I0.0093 J-0.1177
X0.1774 Y-4.7469 I-0.0873 J-0.0796 F50.
G3 X0.1909 Y-4.7532 I0.0122 J0.0085
G1 X0.2066 Y-4.7513 F60.
X0.2193 Y-4.7495
X0.2269 Y-4.746
X0.2342 Y-4.7419
X0.2411 Y-4.7374
X0.2478 Y-4.7324
X0.254 Y-4.7269
X0.2599 Y-4.7209
X0.2653 Y-4.7146
X0.2703 Y-4.7079
X0.2748 Y-4.7009
X0.2787 Y-4.6936
X0.2822 Y-4.686
X0.2851 Y-4.6782
X0.2874 Y-4.6702
X0.2892 Y-4.6621
X0.2904 Y-4.6538
X0.291 Y-4.6455
Y-4.6372
X0.2905 Y-4.6289
X0.2893 Y-4.6207
X0.2876 Y-4.6125
X0.2852 Y-4.6045
X0.2824 Y-4.5967
X0.279 Y-4.5891
X0.275 Y-4.5818
X0.2706 Y-4.5747
X0.2656 Y-4.568
X0.2602 Y-4.5617
X0.2544 Y-4.5557
G2 X0.1268 Y-4.5728 I-0.3351 J2.0155
G3 X0.1151 Y-4.5821 I0.0022 J-0.0148
X0.1224 Y-4.6066 I0.0192 J-0.0076
X0.2368 Y-4.5804 I0.0454 J0.0643
X0.2428 Y-4.5663 I-0.0689 J0.0381 F50.
G2 X0.2539 Y-4.5563 I0.0142 J-0.0046
G1 X0.2765 Y-4.5523 F60.
G2 X0.3486 Y-4.7443 I-0.0184 J-0.1164
G3 X0.2193 Y-4.7495 I-0.046 J-0.466
G2 X0.2057 Y-4.7434 I-0.0015 J0.0148
X0.1982 Y-4.7203 I0.0319 J0.0232
X0.2142 Y-4.6885 I0.0395 J0.
X0.3323 Y-4.7185 I0.0468 J-0.0634
X0.3374 Y-4.7329 I-0.0713 J-0.0334 F50.
G3 X0.3477 Y-4.7436 I0.0145 J0.0036
G1 X0.3653 Y-4.748 F60.
G3 X0.4352 Y-4.5734 I-0.0181 J0.1086
X0.2765 Y-4.5523 I-0.1468 J-0.4951
X0.2655 Y-4.5623 I0.0031 J-0.0146
X0.2979 Y-4.6215 I0.0442 J-0.0143
X0.3278 Y-4.6254 I0.03 J0.1142
G1 X0.3279
G3 X0.4116 Y-4.5906 I0. J0.1181
X0.4216 Y-4.579 I-0.0837 J0.0833 F50.
G2 X0.4354 Y-4.5733 I0.0118 J-0.0091
G1 X0.4379 Y-4.5737 F60.
X0.468 Y-4.5796
X0.4754 Y-4.5839
X0.4825 Y-4.5887
X0.4892 Y-4.594
X0.4955 Y-4.5998
X0.5013 Y-4.606
X0.5068 Y-4.6126
X0.5117 Y-4.6195
X0.5161 Y-4.6269
X0.52 Y-4.6345
X0.5233 Y-4.6423
X0.526 Y-4.6504
X0.5282 Y-4.6587
X0.5298 Y-4.6671
X0.5307 Y-4.6756
X0.5311 Y-4.6841
X0.5308 Y-4.6927
X0.5299 Y-4.7012
X0.5285 Y-4.7096
X0.5264 Y-4.7179
X0.5237 Y-4.726
X0.5205 Y-4.7339
X0.5167 Y-4.7415
X0.5123 Y-4.7489
X0.5075 Y-4.7559
X0.5021 Y-4.7626
X0.4963 Y-4.7688
X0.49 Y-4.7746
X0.4841 Y-4.7728
X0.3916 Y-4.7546
X0.3653 Y-4.748
G2 X0.355 Y-4.7373 I0.0041 J0.0143
X0.3631 Y-4.7179 I0.0171 J0.0042
X0.4729 Y-4.7494 I0.04 J-0.0678
X0.4786 Y-4.7636 I-0.0699 J-0.0363 F50.
G3 X0.4894 Y-4.7739 I0.0143 J0.0042
G1 X0.5108 Y-4.7784 F60.
X0.5191 Y-4.7775
X0.5273 Y-4.776
X0.5353 Y-4.774
X0.5432 Y-4.7713
X0.5509 Y-4.7681
X0.5583 Y-4.7643
X0.5654 Y-4.76
X0.5722 Y-4.7552
X0.5786 Y-4.75
X0.5847 Y-4.7442
X0.5902 Y-4.7381
X0.5954 Y-4.7315
X0.6 Y-4.7246
X0.6041 Y-4.7174
X0.6077 Y-4.7099
X0.6107 Y-4.7021
X0.6131 Y-4.6942
X0.615 Y-4.6861
X0.6163 Y-4.6779
X0.6169 Y-4.6696
X0.617 Y-4.6613
X0.6164 Y-4.653
X0.6153 Y-4.6447
X0.6135 Y-4.6366
X0.6112 Y-4.6286
X0.6083 Y-4.6208
X0.6048 Y-4.6133
X0.6008 Y-4.606
G2 X0.468 Y-4.5796 I0.3951 J2.3333
G3 X0.4509 Y-4.592 I-0.0023 J-0.0147
X0.4647 Y-4.6192 I0.0257 J-0.0041
X0.5731 I0.0542 J0.1049
X0.5894 Y-4.609 I-0.0542 J0.1049 F50.
G2 X0.6004 Y-4.6062 I0.0089 J-0.012
G1 X0.6229 Y-4.6103 F60.
X0.6303 Y-4.6141
X0.6374 Y-4.6185
X0.6442 Y-4.6233
X0.6507 Y-4.6286
X0.6567 Y-4.6344
X0.6623 Y-4.6406
X0.6674 Y-4.6472
X0.6721 Y-4.6542
X0.6762 Y-4.6614
X0.6798 Y-4.669
X0.6828 Y-4.6767
X0.6853 Y-4.6847
X0.6871 Y-4.6928
X0.6884 Y-4.7011
X0.6891 Y-4.7094
X0.6892 Y-4.7178
X0.6886 Y-4.7261
X0.6875 Y-4.7344
X0.6858 Y-4.7425
X0.6834 Y-4.7505
X0.6805 Y-4.7584
X0.6771 Y-4.766
X0.6731 Y-4.7733
X0.6686 Y-4.7803
X0.6636 Y-4.787
X0.6581 Y-4.7933
X0.6522 Y-4.7992
X0.6458 Y-4.8046
G2 X0.5108 Y-4.7784 I2.4147 J12.7778
X0.4999 Y-4.7603 I0.0035 J0.0145
X0.5154 Y-4.7456 I0.0191 J-0.0047
X0.6245 Y-4.7825 I0.0215 J-0.1161
X0.6361 Y-4.7977 I-0.0876 J-0.0793 F50.
G3 X0.6455 Y-4.8042 I0.0125 J0.0081
G1 X0.6691 Y-4.8085 F60.
X0.6774 Y-4.8074
X0.6856 Y-4.8057
X0.6936 Y-4.8035
X0.7015 Y-4.8007
X0.7091 Y-4.7973
X0.7165 Y-4.7934
X0.7236 Y-4.789
X0.7303 Y-4.7841
X0.7367 Y-4.7787
X0.7426 Y-4.7729
X0.7482 Y-4.7666
X0.7532 Y-4.76
X0.7578 Y-4.753
X0.7619 Y-4.7457
X0.7654 Y-4.7382
X0.7684 Y-4.7304
X0.7708 Y-4.7224
X0.7726 Y-4.7143
X0.7738 Y-4.706
X0.7745 Y-4.6977
Y-4.6893
X0.774 Y-4.681
X0.7728 Y-4.6728
X0.7711 Y-4.6646
X0.7688 Y-4.6566
X0.7659 Y-4.6488
X0.7624 Y-4.6412
X0.7584 Y-4.6339
X0.7154 Y-4.6271
X0.6691 Y-4.6191
X0.6229 Y-4.6103
G3 X0.6088 Y-4.634 I-0.0022 J-0.0148
X0.641 Y-4.6566 I0.0502 J0.0374
X0.7307 Y-4.6476 I0.0339 J0.1131
X0.7468 Y-4.6372 I-0.0558 J0.1041 F50.
G2 X0.7579 Y-4.6342 I0.0091 J-0.0118
G1 X0.7848 Y-4.6387 F60.
X0.7921 Y-4.6429
X0.7992 Y-4.6476
X0.8058 Y-4.6529
X0.8121 Y-4.6586
X0.8179 Y-4.6647
X0.8233 Y-4.6713
X0.8282 Y-4.6782
X0.8326 Y-4.6855
X0.8364 Y-4.6931
X0.8397 Y-4.7009
X0.8424 Y-4.709
X0.8445 Y-4.7172
X0.8459 Y-4.7255
X0.8468 Y-4.734
X0.8471 Y-4.7424
X0.8467 Y-4.7509
X0.8458 Y-4.7593
X0.8442 Y-4.7677
X0.842 Y-4.7759
X0.8393 Y-4.7839
X0.8359 Y-4.7917
X0.832 Y-4.7992
X0.8276 Y-4.8064
X0.8226 Y-4.8133
X0.8172 Y-4.8198
X0.8113 Y-4.8259
X0.805 Y-4.8316
X0.7616 Y-4.8239
X0.6691 Y-4.8085
G2 X0.6577 Y-4.7907 I0.0031 J0.0146
X0.6755 Y-4.7735 I0.0218 J-0.0047
X0.7835 Y-4.8097 I0.021 J-0.1162
X0.7953 Y-4.8248 I-0.0869 J-0.08 F50.
G3 X0.8047 Y-4.8313 I0.0125 J0.0082
G1 X0.8079 Y-4.8318 F60.
X0.8437 Y-4.8313
X0.8542 Y-4.8311
X0.8787 Y-4.8141
G3 X0.9173 Y-4.7628 I-0.0616 J0.0865
X0.891 Y-4.7501 I-0.0145 J0.0037
G1 X0.8588 Y-4.7926
G3 X0.8558 Y-4.8026 I0.0119 J-0.009
X0.8787 Y-4.8141 I0.0149 J0.001 F50.
G1 X0.9004 Y-4.7992 F60.
X0.9101 Y-4.7876
X0.9206 Y-4.7517
G3 X0.7856 Y-4.6423 I-0.1094 J0.003
G1 X0.7834 Y-4.6416
X0.781 Y-4.6414
X0.7785 Y-4.6418
X0.7762 Y-4.6426
X0.7739 Y-4.6439
X0.772 Y-4.6457
X0.7704 Y-4.6478
X0.7692 Y-4.6503
X0.7685 Y-4.6531
X0.7684 Y-4.656
X0.7689 Y-4.6589
X0.77 Y-4.6616 Z-0.1672
X0.771 Y-4.6642 Z-0.1664
X0.772 Y-4.6666 Z-0.165
X0.7728 Y-4.6687 Z-0.1631
X0.7734 Y-4.6704 Z-0.1609
X0.7739 Y-4.6717 Z-0.1583
X0.7743 Y-4.6725 Z-0.1555
X0.7744 Y-4.6728 Z-0.1526
G0 Z-0.1377
X-0.5654 Y-4.6163
G1 Z-0.1526 F50.
X-0.5656 Y-4.6162 Z-0.1555
X-0.5664 Y-4.6159 Z-0.1583
X-0.5677 Y-4.6155 Z-0.1609
X-0.5695 Y-4.6148 Z-0.1631
X-0.5716 Y-4.614 Z-0.165
X-0.574 Y-4.6132 Z-0.1664
X-0.5766 Y-4.6122 Z-0.1672
X-0.5794 Y-4.6112 Z-0.1675
G3 X-0.6009 Y-4.6073 I-0.0216 J-0.0585
G1 X-0.6055 Y-4.6075
X-0.6101 Y-4.608
X-0.6259 Y-4.6109 F60.
X-0.6722 Y-4.6196
X-0.6941 Y-4.6234
G3 X-0.7393 Y-4.8211 I0.0539 J-0.1163
G1 X-0.6722 Y-4.809
X-0.6408 Y-4.8034
G3 X-0.6297 Y-4.7934 I-0.0031 J0.0146
X-0.6589 Y-4.7566 I-0.0268 J0.0087
X-0.7206 Y-4.7961 I0.0067 J-0.0785
X-0.7268 Y-4.8101 I0.0684 J-0.0389 F50.
G2 X-0.738 Y-4.82 I-0.0141 J0.0047
G1 X-0.759 Y-4.8235 F60.
X-0.7671 Y-4.8217
X-0.7751 Y-4.8192
X-0.783 Y-4.8162
X-0.7905 Y-4.8126
X-0.7978 Y-4.8085
X-0.8048 Y-4.8039
X-0.8114 Y-4.7987
X-0.8176 Y-4.7931
X-0.8234 Y-4.7871
X-0.8288 Y-4.7806
X-0.8336 Y-4.7738
X-0.838 Y-4.7666
X-0.8418 Y-4.7591
X-0.845 Y-4.7514
X-0.8477 Y-4.7435
X-0.8498 Y-4.7354
X-0.8513 Y-4.7271
X-0.8522 Y-4.7188
X-0.8525 Y-4.7104
X-0.8522 Y-4.7021
X-0.8512 Y-4.6937
X-0.8497 Y-4.6855
X-0.8475 Y-4.6774
X-0.8448 Y-4.6695
X-0.8415 Y-4.6618
X-0.8377 Y-4.6543
X-0.8333 Y-4.6472
G2 X-0.6941 Y-4.6234 I3.2263 J-18.4432
X-0.6803 Y-4.629 I0.002 J-0.0148
X-0.7052 Y-4.6949 I-0.0326 J-0.0253
X-0.8088 Y-4.6641 I-0.0218 J0.1161
X-0.8192 Y-4.6528 I0.0817 J0.0853 F50.
G3 X-0.833 Y-4.6474 I-0.0116 J-0.0093
G1 X-0.8572 Y-4.652 F60.
X-0.8811 Y-4.669
G3 X-0.9203 Y-4.7573 I0.064 J-0.0813
X-0.8925 Y-4.7592 I0.0143 J0.0044
X-0.858 Y-4.6802 I-0.0937 J0.088
X-0.8811 Y-4.669 I-0.0149 J-0.0012 F50.
X-0.9 Y-4.8041 I0.0554 J-0.0766 F60.
X-0.7642 Y-4.8174 I0.0743 J0.0585
G1 X-0.7593 Y-4.8259
X-0.754 Y-4.8341
X-0.7481 Y-4.842
X-0.7417 Y-4.8494
X-0.7349 Y-4.8565
X-0.7276 Y-4.8631
X-0.72 Y-4.8692
X-0.7119 Y-4.8749
X-0.7035 Y-4.88
X-0.6949 Y-4.8846
X-0.6859 Y-4.8886
X-0.6767 Y-4.892
X-0.6673 Y-4.8949
X-0.6578 Y-4.8972
X-0.6481 Y-4.8988
X-0.6384 Y-4.8999
X-0.6286 Y-4.9003
X-0.6187 Y-4.9001
X-0.609 Y-4.8993
X-0.5993 Y-4.8979
X-0.5897 Y-4.8958
X-0.5802 Y-4.8932
X-0.5709 Y-4.89
X-0.5619 Y-4.8861
X-0.5531 Y-4.8818
X-0.5446 Y-4.8769
G2 X0.0662 Y-4.872 I0.3219 J-2.0734
X0.6697 Y-4.918 I0.2198 J-1.0997
G3 X0.8769 Y-4.9187 I0.1054 J0.5377
X1.0043 Y-4.688 I-0.0506 J0.1785
G1 X0.9987 Y-4.6767
X0.9926 Y-4.6656
X0.9859 Y-4.6549
X0.9788 Y-4.6445
X0.9711 Y-4.6345
X0.963 Y-4.6248
X0.9544 Y-4.6155
X0.9454 Y-4.6067
X0.9359 Y-4.5983
X0.9261 Y-4.5904
X0.9158 Y-4.583
X0.9053 Y-4.5761
X0.8944 Y-4.5697
X0.8832 Y-4.5639
X0.8717 Y-4.5586
X0.86 Y-4.5539
X0.8481 Y-4.5497
X0.836 Y-4.5461
X0.8237 Y-4.5432
X0.8113 Y-4.5408
X0.7988 Y-4.539
X0.7863 Y-4.5379
X0.7736 Y-4.5373
X0.761 Y-4.5374
X0.7484 Y-4.538
G3 X0.1748 Y-4.4666 I-0.4621 J-1.3715
G2 X-0.3417 Y-4.4482 I-0.1837 J2.1069
X-0.8831 Y-4.5614 I-5.3706 J24.3412
G3 X-0.8177 Y-4.9275 I0.0589 J-0.1784
X-0.4008 Y-4.9598 I0.2438 J0.4409
G2 X0.0871 Y-4.965 I0.1866 J-5.3249
X0.6009 Y-5.0038 I0.1755 J-1.0987
G3 X0.7169 Y-5.0182 I0.1119 J0.4277
G1 X0.9247 Y-4.9837
X0.9365 Y-4.98
X0.9481 Y-4.9757
X0.9595 Y-4.9709
X0.9706 Y-4.9656
X0.9815 Y-4.9596
X0.992 Y-4.9532
X1.0022 Y-4.9463
X1.0121 Y-4.9389
X1.0216 Y-4.931
X1.0307 Y-4.9226
X1.0394 Y-4.9138
X1.0477 Y-4.9046
X1.0554 Y-4.895
X1.0628 Y-4.8851
X1.0696 Y-4.8748
X1.0759 Y-4.8641
X1.0817 Y-4.8532
X1.0869 Y-4.842
X1.0916 Y-4.8306
X1.0957 Y-4.819
X1.0993 Y-4.8071
X1.1022 Y-4.7951
X1.1046 Y-4.783
X1.1064 Y-4.7708
X1.1076 Y-4.7585
X1.1082 Y-4.7462
Y-4.7338
X1.1076 Y-4.7215
X1.1063 Y-4.7092
X1.1045 Y-4.6969
X1.1021 Y-4.6848
X1.0991 Y-4.6728
X1.0955 Y-4.661
X1.0914 Y-4.6494
X1.0867 Y-4.638
X1.0814 Y-4.6268
X1.0756 Y-4.6159
X1.0693 Y-4.6053
X1.0624 Y-4.595
X1.0551 Y-4.585
X1.0473 Y-4.5755
X1.039 Y-4.5663
X0.8784 Y-4.4774
G3 X-0.0523 Y-4.3844 I-0.6402 J-1.7047
X-0.8073 Y-4.4496 I-0.2508 J-1.4999
G1 X-0.8113 Y-4.4408
X-0.8121 Y-4.4411
X-0.9972 Y-4.5423
X-1.0072 Y-4.5495
X-1.0169 Y-4.5571
X-1.0262 Y-4.5652
X-1.0351 Y-4.5738
X-1.0435 Y-4.5827
X-1.0515 Y-4.5921
X-1.059 Y-4.6019
X-1.0661 Y-4.612
X-1.0726 Y-4.6224
X-1.0787 Y-4.6332
X-1.0842 Y-4.6442
X-1.0891 Y-4.6555
X-1.0935 Y-4.667
X-1.0973 Y-4.6787
X-1.1006 Y-4.6906
X-1.1032 Y-4.7027
X-1.1053 Y-4.7148
X-1.1068 Y-4.7271
X-1.1077 Y-4.7394
X-1.1079 Y-4.7517
X-1.1076 Y-4.764
X-1.1067 Y-4.7763
X-1.1052 Y-4.7885
X-1.103 Y-4.8007
X-1.1003 Y-4.8127
X-1.097 Y-4.8246
X-1.0931 Y-4.8363
X-1.0887 Y-4.8478
X-1.0837 Y-4.859
X-1.0782 Y-4.87
X-1.0721 Y-4.8808
X-1.0655 Y-4.8912
X-1.0584 Y-4.9013
X-1.0509 Y-4.911
X-1.0428 Y-4.9203
X-1.0343 Y-4.9293
X-1.0254 Y-4.9378
X-1.0161 Y-4.9458
X-1.0064 Y-4.9535
X-0.9964 Y-4.9606
X-0.986 Y-4.9672
X-0.9753 Y-4.9733
X-0.974 Y-4.9751
X-0.9526 Y-4.9791
X-0.6962 Y-5.0216
X-0.673 Y-5.0244
X-0.4415 Y-5.0499
G3 X0.3473 Y-5.0564 I0.463 J8.2775
G1 X0.4153 Y-5.0527
X0.4384 Y-5.0502
X0.6932 Y-5.0222
X0.7169 Y-5.0182
G3 X0.7281 Y-5.0083 I-0.003 J0.0146
X0.7109 Y-4.955 I-0.0446 J0.015
X0.3664 Y-5.0342 I-0.1372 J-0.1923
G1 X0.3595 Y-5.0478 F50.
G2 X0.3473 Y-5.0564 I-0.0135 J0.0063
G1 X0.1606 Y-5.0667 F60.
X0.1374 Y-5.0678
X-0.1173
X-0.1404
X-0.3952 Y-5.0538
X-0.4183 Y-5.0524
X-0.4415 Y-5.0499
G2 X-0.452 Y-5.043 I0.0022 J0.0148
G1 X-0.4615 Y-5.0278
X-0.8134 Y-4.4679
X-0.8171 Y-4.4619 F50.
G2 X-0.8121 Y-4.4411 I0.0126 J0.0079
G1 X-0.592 Y-4.3208 F60.
G2 X-0.0228 Y-4.2834 I0.3432 J-0.8728
X0.5303 Y-4.2871 I0.2678 J-1.3152
G1 X0.8784 Y-4.4774
G2 X0.8632 Y-4.503 I-0.0076 J-0.0128
X0.858 Y-4.4825 I0.0076 J0.0128
X0.8785 Y-4.4774 I0.0128 J-0.0076
G1 X1.0178 Y-4.5611
G2 X1.0025 Y-4.5867 I-0.0077 J-0.0128
X1.0096 Y-4.559 I0.0077 J0.0128
X1.0398 Y-4.5656 I0.0023 J-0.0623 F50.
G1 X1.1331 Y-4.6166 F60.
G2 X1.1409 Y-4.9379 I-0.1873 J-0.1653
G1 X0.971 Y-4.9758
X0.9526 Y-4.9791
X0.9247 Y-4.9837
G2 X0.9109 Y-4.978 I-0.0019 J0.0148
X0.9252 Y-4.9011 I0.0417 J0.032
X1.1163 Y-4.9218 I0.0821 J-0.1344
X1.1269 Y-4.9329 I-0.109 J-0.1137 F50.
G3 X1.1409 Y-4.9379 I0.0113 J0.0097
G1 X1.1922 Y-4.9265 F60.
G3 X1.2828 Y-4.6984 I-0.0918 J0.1686
G1 X1.1331 Y-4.6166
G3 X1.1182 Y-4.6174 I-0.0067 J-0.0133
X1.1088 Y-4.6716 I0.0207 J-0.0315
X1.2546 Y-4.7068 I0.0943 J0.0711
X1.268 Y-4.6992 I-0.0515 J0.1063 F50.
G2 X1.2828 Y-4.6984 I0.0082 J-0.0125
G1 X1.3183 Y-4.7178 F60.
G2 X1.3516 Y-4.8843 I-0.083 J-0.1032
G1 X1.2489 Y-4.9132
X1.2257 Y-4.919
X1.1922 Y-4.9265
G2 X1.1781 Y-4.9215 I-0.0027 J0.0147
X1.1687 Y-4.8962 I0.0295 J0.0253
X1.1858 Y-4.8641 I0.0388 J0.
X1.326 Y-4.8698 I0.0662 J-0.0978
X1.3373 Y-4.8802 I-0.074 J-0.0921 F50.
G3 X1.3516 Y-4.8843 I0.0108 J0.0103
G1 X1.3878 Y-4.8741 F60.
G3 X1.4408 Y-4.7832 I-0.0347 J0.0811
G1 X1.4381 Y-4.782
X1.4352 Y-4.7812
X1.4322 Y-4.7811
X1.4293 Y-4.7815
X1.4265 Y-4.7824
X1.424 Y-4.7838
X1.4218 Y-4.7856
X1.42 Y-4.7878
X1.4138 Y-4.796
X1.3724 Y-4.8506
X1.3709 Y-4.8531
X1.3699 Y-4.8558
G3 X1.3842 Y-4.8746 I0.0144 J-0.0039 F50.
G1 X1.3861 Y-4.8745
X1.3878 Y-4.8741
X1.4573 Y-4.8546 F60.
G3 X1.4941 Y-4.8138 I0.0076 J0.0302
X1.4398 Y-4.8345 I-0.0177 J-0.0352
X1.4392 Y-4.8363 I0.0139 J-0.0055
X1.4573 Y-4.8546 I0.0145 J-0.0037 F50.
X1.5121 Y-4.8319 I0.0156 J0.0398 F60.
G1 Y-4.8312
X1.5118 Y-4.8287
X1.5117 Y-4.8281
X1.5103 Y-4.8255
X1.5097 Y-4.8249
X1.5008 Y-4.8175
X1.3183 Y-4.7178
G3 X1.2967 Y-4.7317 I-0.0067 J-0.0133
G1 X1.2969 Y-4.7346 Z-0.1672
X1.297 Y-4.7374 Z-0.1664
Y-4.7399 Z-0.165
X1.2971 Y-4.7422 Z-0.1631
X1.2972 Y-4.7441 Z-0.1609
Y-4.7454 Z-0.1583
X1.2973 Y-4.7463 Z-0.1555
Y-4.7466 Z-0.1526
G0 Z-0.1377
X0.5597 Y-4.3218
G1 Z-0.1526 F50.
X0.5596 Y-4.3216 Z-0.1555
X0.5591 Y-4.3208 Z-0.1583
X0.5584 Y-4.3197 Z-0.1609
X0.5575 Y-4.3181 Z-0.1631
X0.5563 Y-4.3161 Z-0.165
X0.555 Y-4.3139 Z-0.1664
X0.5536 Y-4.3115 Z-0.1672
X0.5521 Y-4.309 Z-0.1675
G3 X0.5303 Y-4.2871 I-0.0536 J-0.0317
G1 X0.3556 Y-4.1917 F60.
G3 X0.3032 Y-4.174 I-0.0398 J-0.0314
X0.3042 Y-4.2006 I0.0072 J-0.0131
G1 X0.3417 Y-4.218
G3 X0.3556 Y-4.2173 I0.0063 J0.0135
Y-4.1917 I-0.0076 J0.0128 F50.
X0.2764 Y-4.19 I-0.0402 J-0.0279 F60.
G2 X-0.2741 Y-4.1921 I-0.2768 J0.4044
G3 X-0.3264 Y-4.1757 I-0.0416 J-0.041
X-0.3246 Y-4.2023 I0.0076 J-0.0128
G1 X-0.2881 Y-4.2177
G3 X-0.2756 Y-4.2173 I0.0058 J0.0138
X-0.2738 Y-4.1917 I-0.0067 J0.0133 F50.
X-0.3242 Y-4.1745 I-0.0341 J-0.0177 F60.
G1 X-0.592 Y-4.3208
G3 Y-4.3465 I0.0076 J-0.0128
G1 X-0.5895 Y-4.348 Z-0.1672
X-0.5871 Y-4.3494 Z-0.1664
X-0.5848 Y-4.3507 Z-0.165
X-0.5829 Y-4.3519 Z-0.1631
X-0.5813 Y-4.3528 Z-0.1609
X-0.5801 Y-4.3535 Z-0.1583
X-0.5794 Y-4.354 Z-0.1555
X-0.5791 Y-4.3541 Z-0.1526
G0 Z-0.1377
X-0.9521 Y-4.5362
G1 Z-0.1526 F50.
X-0.9524 Z-0.1555
X-0.9532 Z-0.1583
X-0.9546 Z-0.1609
X-0.9564 Y-4.5361 Z-0.1631
X-0.9587 Y-4.536 Z-0.165
X-0.9613 Y-4.5359 Z-0.1664
X-0.9641 Y-4.5358 Z-0.1672
X-0.967 Y-4.5357 Z-0.1675
G3 X-0.9972 Y-4.5423 I-0.0023 J-0.0623
G1 X-1.1282 Y-4.6138 F60.
G3 X-1.1426 Y-4.9375 I0.1756 J-0.17
G1 X-0.976 Y-4.9747
G3 X-0.9619 Y-4.9697 I0.0027 J0.0147
X-0.9679 Y-4.9151 I-0.0286 J0.0245
X-1.1179 Y-4.9216 I-0.0711 J-0.0943
X-1.1285 Y-4.9326 I0.0789 J-0.0879 F50.
G2 X-1.1426 Y-4.9375 I-0.0113 J0.0097
G1 X-1.1952 Y-4.9258 F60.
G2 X-1.284 Y-4.699 I0.0931 J0.1672
G1 X-1.1282 Y-4.6138
G2 X-1.1133 Y-4.6147 I0.0067 J-0.0133
X-1.1025 Y-4.661 I-0.0189 J-0.0288
X-1.2558 Y-4.7074 I-0.1018 J0.0599
X-1.2691 Y-4.6999 I0.0515 J0.1063 F50.
G3 X-1.284 Y-4.699 I-0.0082 J-0.0125
G1 X-1.3214 Y-4.7194 F60.
G3 X-1.3529 Y-4.8839 I0.0847 J-0.1015
G1 X-1.2519 Y-4.9124
X-1.2288 Y-4.9183
X-1.1952 Y-4.9258
G3 X-1.1811 Y-4.9208 I0.0027 J0.0147
X-1.1898 Y-4.8619 I-0.0299 J0.0257
X-1.3274 Y-4.8694 I-0.0635 J-0.0996
X-1.3386 Y-4.8798 I0.074 J-0.0921 F50.
G2 X-1.3529 Y-4.8839 I-0.0108 J0.0103
G1 X-1.3862 Y-4.8746 F60.
G2 X-1.4412 Y-4.7835 I0.0309 J0.0808
G1 X-1.3214 Y-4.7194
G2 X-1.3015 Y-4.7398 I0.0067 J-0.0133
G1 X-1.3642 Y-4.8572
X-1.3695 Y-4.8671 F50.
G2 X-1.3862 Y-4.8746 I-0.0132 J0.007
G1 X-1.4603 Y-4.8537 F60.
G2 X-1.4944 Y-4.814 I-0.0061 J0.0292
G1 X-1.4391 Y-4.7837
G2 X-1.4194 Y-4.8046 I0.0067 J-0.0133
G1 X-1.438 Y-4.8366
X-1.4439 Y-4.8467 F50.
G2 X-1.4603 Y-4.8537 I-0.0129 J0.0075
X-1.5121 Y-4.8316 I-0.0148 J0.037 F60.
X-1.4944 Y-4.814 I0.0206 J-0.003
X-1.4792 Y-4.815 I0.0067 J-0.0133
G1 X-1.4768 Y-4.8167 Z-0.1672
X-1.4745 Y-4.8183 Z-0.1664
X-1.4724 Y-4.8197 Z-0.165
X-1.4705 Y-4.821 Z-0.1631
X-1.469 Y-4.8221 Z-0.1609
X-1.4679 Y-4.8229 Z-0.1583
X-1.4672 Y-4.8233 Z-0.1555
X-1.4669 Y-4.8235 Z-0.1526
G0 Z0.6
X1.6739 Y-4.2254
Z0.1
G3 X1.792 Y-4.1471 Z0.0607 I0.0591 J0.0391 F50.
X1.6739 Y-4.2254 Z0.0215 I-0.0591 J-0.0391
X1.792 Y-4.1471 Z-0.0178 I0.0591 J0.0391
X1.6739 Y-4.2254 Z-0.057 I-0.0591 J-0.0391
X1.792 Y-4.1471 Z-0.0963 I0.0591 J0.0391
X1.6739 Y-4.2254 Z-0.1355 I-0.0591 J-0.0391
X1.8038 Y-4.1862 Z-0.1675 I0.0591 J0.0391
X1.6621 I-0.0709 J0.
X1.8038 I0.0709 J0.
X1.6534 Y-4.0626 I-0.0775 J0.0591 F60.
X1.5783 Y-4.1842 I0.0327 J-0.1042
G2 X1.6726 Y-4.2787 I-0.0056 J-0.0998
G1 X1.6867 Y-4.2953
X1.7175 Y-4.314
X1.7189 Y-4.3149
X1.7202 Y-4.3156
G3 X1.7422 Y-4.323 I0.0257 J0.0401
X1.7465 Y-4.2942 I-0.0011 J0.0149
G1 X1.7338 Y-4.2893
G3 X1.7214 Y-4.29 I-0.0054 J-0.0139
X1.7202 Y-4.3156 I0.007 J-0.0132 F50.
G1 X1.7329 Y-4.3234 F60.
X1.7688 Y-4.3219
G3 X1.8344 Y-4.1863 I-0.014 J0.0905
G1 X1.8282 Y-4.14
X1.8544 Y-4.1136
G3 X1.7532 Y-3.9528 I-0.0981 J0.0505
G1 X1.7512 Y-3.9548
X1.7496 Y-3.9572
X1.7486 Y-3.9599
X1.7481 Y-3.9627
Y-3.9656
X1.7487 Y-3.9685
X1.7499 Y-3.9711
X1.7549 Y-3.9798
X1.8292 Y-4.1067
X1.8313 Y-4.1103 F50.
G3 X1.8544 Y-4.1136 I0.0129 J0.0075
G1 X1.8717 Y-4.0962 F60.
X1.8743 Y-4.0937
X1.9053 Y-4.0544
G3 X1.8636 Y-3.9267 I-0.0825 J0.0437
X1.7374 Y-3.9728 I-0.0408 J-0.084
G1 X1.7003 Y-4.0012
X1.6867 Y-4.0126
X1.6404 Y-4.007
G3 X1.4904 Y-4.1562 I-0.0062 J-0.1438
G1 X1.5017 Y-4.1591
X1.5479 Y-4.1739
X1.5809 Y-4.1838
G3 X1.5952 Y-4.1799 I0.0038 J0.0144
X1.5846 Y-4.1365 I-0.0186 J0.0184
X1.5203 Y-4.1439 I-0.0239 J-0.075
X1.508 Y-4.153 I0.0404 J-0.0676 F50.
G2 X1.4934 Y-4.1561 I-0.01 J0.0111
G1 X1.4736 Y-4.1489 F60.
G2 X1.5054 Y-3.9611 I0.0827 J0.0826
G1 X1.5479 Y-3.9778
X1.5942 Y-3.993
X1.6404 Y-4.007
G2 X1.6503 Y-4.0182 I-0.0048 J-0.0141
X1.5893 Y-4.0696 I-0.0447 J-0.0089
X1.517 Y-3.9881 I0.0423 J0.1103
X1.5143 Y-3.973 I0.1146 J0.0287 F50.
G3 X1.5054 Y-3.9611 I-0.0148 J-0.0017
G1 X1.5017 Y-3.9596 F60.
X1.4808 Y-3.951
G3 X1.3551 Y-4.1054 I-0.0131 J-0.1177
G2 X1.4736 Y-4.1489 I-0.3067 J-1.0189
G3 X1.4881 Y-4.1458 I0.0046 J0.0142
X1.4905 Y-4.0945 I-0.0242 J0.0268
X1.3811 Y-4.0882 I-0.0579 J-0.0533
X1.3706 Y-4.0993 I0.0515 J-0.0596 F50.
G2 X1.3568 Y-4.1049 I-0.0117 J0.0092
G1 X1.3368 Y-4.1014 F60.
X1.3299 Y-4.0967
X1.3234 Y-4.0914
X1.3174 Y-4.0858
X1.3117 Y-4.0796
X1.3065 Y-4.0731
X1.3019 Y-4.0662
X1.2977 Y-4.059
X1.2942 Y-4.0515
X1.2911 Y-4.0437
X1.2887 Y-4.0357
X1.2869 Y-4.0276
X1.2857 Y-4.0194
X1.2851 Y-4.0111
Y-4.0027
X1.2858 Y-3.9944
X1.287 Y-3.9862
X1.2889 Y-3.9781
X1.2914 Y-3.9702
X1.2945 Y-3.9624
X1.2981 Y-3.9549
X1.3023 Y-3.9477
X1.307 Y-3.9409
X1.3122 Y-3.9344
X1.3179 Y-3.9283
X1.324 Y-3.9227
X1.3306 Y-3.9175
X1.3375 Y-3.9128
G2 X1.4808 Y-3.951 I-0.0348 J-0.4184
X1.4895 Y-3.9631 I-0.0061 J-0.0136
X1.4622 Y-3.9944 I-0.0283 J-0.0029
X1.3558 Y-3.9352 I-0.004 J0.118
X1.349 Y-3.9215 I0.1024 J0.0589 F50.
G3 X1.3372 Y-3.9124 I-0.0138 J-0.0057
G1 X1.3167 Y-3.9104 F60.
X1.2935 Y-3.9101
G3 X1.2028 Y-4.0306 I0.0244 J-0.1128
X1.2289 Y-4.0349 I0.0142 J0.0047
G1 X1.3047 Y-3.9339
X1.3055 Y-3.9328
G3 X1.2935 Y-3.9101 I-0.0127 J0.0078 F50.
X1.2858 Y-4.0974 I-0.0039 J-0.0937 F60.
X1.3155 Y-4.0938 I0.0039 J0.0937
G1 X1.3368 Y-4.1014
X1.3386 Y-4.1119
X1.3409 Y-4.1223
X1.3439 Y-4.1325
X1.3474 Y-4.1425
X1.3514 Y-4.1524
X1.356 Y-4.162
X1.3612 Y-4.1713
X1.3668 Y-4.1803
X1.373 Y-4.189
X1.3796 Y-4.1974
X1.3867 Y-4.2053
X1.3942 Y-4.2129
X1.4021 Y-4.22
X1.4104 Y-4.2266
X1.4191 Y-4.2328
X1.4281 Y-4.2385
X1.4374 Y-4.2437
X1.447 Y-4.2483
X1.4568 Y-4.2524
X1.4669 Y-4.256
X1.4771 Y-4.259
X1.4875 Y-4.2614
X1.4979 Y-4.2632
X1.5085 Y-4.2644
X1.5191 Y-4.2651
X1.5298
G3 X1.8134 Y-4.4025 I0.2232 J0.0993
G1 X1.8237 Y-4.3981
X1.8337 Y-4.3932
X1.8434 Y-4.3876
X1.8528 Y-4.3816
X1.8618 Y-4.375
X1.8704 Y-4.368
X1.8787 Y-4.3605
X1.8865 Y-4.3525
X1.8938 Y-4.3441
X1.9007 Y-4.3353
X1.907 Y-4.3261
X1.9128 Y-4.3166
X1.9181 Y-4.3068
X1.9229 Y-4.2967
X1.927 Y-4.2863
X1.9306 Y-4.2758
X1.9336 Y-4.265
X1.9359 Y-4.2541
X1.9377 Y-4.2431
X1.9388 Y-4.232
X1.9393 Y-4.2209
X1.9392 Y-4.2097
X1.9385 Y-4.1986
X1.9371 Y-4.1875
G3 X1.9588 Y-3.8943 I-0.1242 J0.1566
X1.6648 Y-3.8967 I-0.1459 J-0.1366
X1.2754 Y-3.8078 I-0.6632 J-2.0088
G1 X1.2447 Y-3.8224
X1.216 Y-3.8329
G3 X1.2202 Y-4.1697 I0.0726 J-0.1675
G1 X1.2368 Y-4.1874
X1.2539 Y-4.2047
X1.2713 Y-4.2215
X1.2891 Y-4.238
X1.3074 Y-4.254
X1.3259 Y-4.2696
X1.3449 Y-4.2847
X1.3642 Y-4.2994
X1.3838 Y-4.3137
X1.4038 Y-4.3275
X1.4241 Y-4.3407
X1.4447 Y-4.3536
X1.4656 Y-4.3659
X1.4867 Y-4.3777
X1.6773 Y-4.4818
G3 X1.9696 Y-4.4011 I0.0947 J0.2269
G1 X2.0825 Y-4.0162
X2.084 Y-4.0041
X2.0849 Y-3.9919
X2.0852 Y-3.9796
X2.0848 Y-3.9674
X2.0839 Y-3.9552
X2.0823 Y-3.943
X2.0801 Y-3.931
X2.0773 Y-3.9191
X2.0739 Y-3.9073
X2.0699 Y-3.8957
X2.0654 Y-3.8844
X2.0603 Y-3.8733
X2.0546 Y-3.8624
X2.0484 Y-3.8519
X2.0416 Y-3.8417
X2.0344 Y-3.8318
X2.0266 Y-3.8223
X2.0184 Y-3.8133
X2.0097 Y-3.8046
X2.0007 Y-3.7964
X1.9912 Y-3.7887
X1.9813 Y-3.7814
X1.9711 Y-3.7747
X1.9605 Y-3.7685
X1.9497 Y-3.7628
X1.9386 Y-3.7577
X1.9272 Y-3.7532
X1.9156 Y-3.7492
X1.9038 Y-3.7458
X1.8919 Y-3.743
X1.8799 Y-3.7409
X1.8677 Y-3.7393
X1.8555 Y-3.7384
X1.8433 Y-3.738
X1.8311 Y-3.7383
G2 X1.4746 Y-3.7516 I-0.1908 J0.3295
G3 X1.3781 Y-3.7233 I-0.0839 J-0.1071
X1.3788 Y-3.7514 I0.0053 J-0.0139
G1 X1.462 Y-3.7785
G3 X1.4739 Y-3.7773 I0.0046 J0.0142
X1.4746 Y-3.7517 I-0.0073 J0.013 F50.
X1.3994 Y-3.7165 I-0.0623 J-0.0352 F60.
G1 X1.3878 Y-3.7199
X1.1794 Y-3.7912
X1.1583 Y-3.798
X1.1331 Y-3.8048
G3 X1.0513 Y-4.1397 I0.1117 J-0.2047
G1 X1.4868 Y-4.3777
G3 X1.5059 Y-4.3562 I0.0067 J0.0133
G1 X1.156 Y-3.8218
X1.149 Y-3.8112 F50.
G3 X1.1331 Y-3.8048 I-0.0125 J-0.0082
G1 X1.0173 Y-3.8364 F60.
G3 X0.9269 Y-4.0717 I0.1024 J-0.1744
G1 X1.0513 Y-4.1397
G3 X1.0662 Y-4.1388 I0.0067 J0.0133
X1.0632 Y-4.0659 I-0.0233 J0.0356
X0.9551 Y-4.0633 I-0.0566 J-0.1037
X0.9418 Y-4.0709 I0.0515 J-0.1063 F50.
G2 X0.9269 Y-4.0717 I-0.0082 J0.0125
G1 X0.8921 Y-4.0527 F60.
G2 X0.8597 Y-3.8752 I0.0867 J0.1076
G1 X0.9016 Y-3.8666
X0.9247 Y-3.8616
X1.0173 Y-3.8364
G2 X1.0316 Y-3.8407 I0.0034 J-0.0145
X1.0205 Y-3.909 I-0.0317 J-0.0299
X0.8842 Y-3.8915 I-0.0559 J0.104
X0.8737 Y-3.8804 I0.0804 J0.0865 F50.
G3 X0.8597 Y-3.8752 I-0.0115 J-0.0095
G1 X0.8321 Y-3.8808 F60.
G3 X0.7652 Y-3.9847 I0.0251 J-0.0896
G1 X0.7679 Y-3.9859
X0.7707 Y-3.9866
X0.7736 Y-3.9868
X0.7764 Y-3.9864
X0.7791 Y-3.9856
X0.7815 Y-3.9842
X0.7837 Y-3.9825
X0.7855 Y-3.9804
X0.7922 Y-3.9721
X0.8462 Y-3.9049
X0.8476 Y-3.9028
X0.8487 Y-3.9004
G3 X0.8321 Y-3.8808 I-0.0141 J0.0049 F50.
G1 X0.7499 Y-3.8977 F60.
G3 X0.7036 Y-3.9497 I0.0022 J-0.0486
X0.7177 Y-3.9493 I0.0067 J0.0133
G1 X0.7318 Y-3.9413
X0.7597 Y-3.9254
G3 X0.7665 Y-3.9173 I-0.0074 J0.013
X0.7499 Y-3.8977 I-0.0141 J0.0049 F50.
G1 X0.6932 Y-3.9094 F60.
X0.6844 Y-3.9118
X0.6772 Y-3.9138
X0.6727 Y-3.9154
X0.6723 Y-3.9157
X0.6704 Y-3.9172
X0.67 Y-3.9176
X0.6688 Y-3.9197
X0.6685 Y-3.9204
X0.668 Y-3.9232
X0.6681 Y-3.924
X0.6685 Y-3.9261
G3 X0.6792 Y-3.9364 I0.0188 J0.0089
G1 X0.8921 Y-4.0527
G3 X0.9137 Y-4.0388 I0.0067 J0.0133
G1 X0.9136 Y-4.0359 Z-0.1672
X0.9135 Y-4.0331 Z-0.1664
X0.9134 Y-4.0306 Z-0.165
X0.9133 Y-4.0283 Z-0.1631
Y-4.0264 Z-0.1609
X0.9132 Y-4.0251 Z-0.1583
Y-4.0242 Z-0.1555
Y-4.0239 Z-0.1526
G0 Z0.4
X1.8036 Y-3.7741
Z-0.1377
G1 Z-0.1526 F50.
X1.8037 Y-3.7739 Z-0.1555
X1.8041 Y-3.7731 Z-0.1583
X1.8048 Y-3.7719 Z-0.1609
X1.8056 Y-3.7702 Z-0.1631
X1.8067 Y-3.7682 Z-0.165
X1.8078 Y-3.7659 Z-0.1664
X1.8091 Y-3.7635 Z-0.1672
X1.8105 Y-3.7609 Z-0.1675
G2 X1.831 Y-3.7378 I0.0553 J-0.0286
G1 X1.8509 Y-3.7254 F60.
X1.8741 Y-3.7108
X1.8809 Y-3.7053
G2 X2.1393 Y-3.8226 I0.0682 J-0.1929
G1 X2.0825 Y-4.0162
G2 X2.0714 Y-4.0261 I-0.0142 J0.0047
X2.0599 Y-4.022 I-0.0024 J0.0114
G1 X2.0584 Y-4.02
G2 X2.1134 Y-3.8366 I0.0937 J0.0718
X2.1281 Y-3.8325 I0.0387 J-0.1116 F50.
G3 X2.1393 Y-3.8226 I-0.003 J0.0146
G1 X2.1519 Y-3.7793 F60.
G3 X1.9714 Y-3.5983 I-0.1746 J0.0065
G2 X1.8809 Y-3.7053 I-0.3318 J0.1887
G3 X1.8773 Y-3.7198 I0.0107 J-0.0104
X1.8862 Y-3.7281 I0.0113 J0.0032
G1 X1.8887 Y-3.7285
G3 X1.9771 Y-3.6272 I0.0133 J0.0776
X1.9711 Y-3.6132 I-0.0751 J-0.0237 F50.
G2 X1.9714 Y-3.5983 I0.0131 J0.0072
G1 X1.9772 Y-3.5896 F60.
X1.9836 Y-3.578
G2 X2.1977 Y-3.6234 I0.0889 J-0.1085
G1 X2.1519 Y-3.7793
G2 X2.1408 Y-3.7892 I-0.0142 J0.0047
X2.0924 Y-3.7504 I-0.0082 J0.0394
X2.1718 Y-3.6373 I0.1181 J0.0014
X2.1866 Y-3.6333 I0.0387 J-0.1116 F50.
G3 X2.1977 Y-3.6234 I-0.003 J0.0146
G1 X2.2076 Y-3.5896 F60.
X2.2072 Y-3.5803
X2.2063 Y-3.571
X2.2047 Y-3.5619
X2.2025 Y-3.5528
X2.1997 Y-3.544
X2.1963 Y-3.5353
X2.1923 Y-3.5269
X2.1878 Y-3.5188
X2.1828 Y-3.511
X2.1772 Y-3.5035
X2.1712 Y-3.4965
X2.1647 Y-3.4898
X2.1577 Y-3.4836
X2.1504 Y-3.4779
X2.1427 Y-3.4727
X2.1347 Y-3.468
X2.1264 Y-3.4638
X2.1178 Y-3.4602
X2.109 Y-3.4572
X2.1 Y-3.4548
X2.0909 Y-3.453
X2.0817 Y-3.4518
X2.0724 Y-3.4513
X2.0631
X2.0539 Y-3.452
X2.0447 Y-3.4533
X2.0356 Y-3.4552
X2.0266 Y-3.4577
X2.0179 Y-3.4608
G2 X1.9836 Y-3.578 I-0.3626 J0.0425
G3 X1.9862 Y-3.5926 I0.014 J-0.0051
X2.0104 Y-3.6039 I0.0242 J0.0204
X2.0327 Y-3.5947 I0. J0.0317
X2.0356 Y-3.4857 I-0.0554 J0.056
X2.0242 Y-3.4755 I-0.0582 J-0.053 F50.
G2 X2.0183 Y-3.4618 I0.0089 J0.012
G1 X2.0199 Y-3.4506 F60.
X2.0211 Y-3.4436
G2 X2.2484 Y-3.4504 I0.1116 J-0.0712
G1 X2.2076 Y-3.5896
G2 X2.1887 Y-3.599 I-0.0142 J0.0047
X2.1779 Y-3.5867 I0.0051 J0.0154
X2.2246 Y-3.469 I0.116 J0.0221
X2.241 Y-3.459 I0.0694 J-0.0956 F50.
G3 X2.2484 Y-3.4504 I-0.0067 J0.0133
G1 X2.2572 Y-3.4204 F60.
G3 X2.1859 Y-3.3132 I-0.0971 J0.0127
X2.0268 Y-3.4169 I0.2864 J-0.6131
X2.0211 Y-3.4436 I0.0359 J-0.0217
X2.038 Y-3.4603 I0.0148 J-0.0019
G1 X2.0414 Y-3.4598
X2.2309 Y-3.4326
X2.2452 Y-3.4305 F50.
G3 X2.2572 Y-3.4204 I-0.0021 J0.0148
G1 X2.2792 Y-3.3452 F60.
G3 X2.2497 Y-3.2713 I-0.0569 J0.0201
X2.2437 Y-3.2851 I0.0088 J-0.0121
G1 X2.2454 Y-3.3001
G3 X2.2542 Y-3.3507 I0.0617 J-0.0154
X2.2792 Y-3.3452 I0.0109 J0.0102 F50.
G1 X2.2996 Y-3.2758 F60.
X2.301 Y-3.2699
X2.3012 Y-3.2637
X2.3005 Y-3.2569
X2.2992 Y-3.2521
X2.2975 Y-3.2489
X2.2945 Y-3.2468
X2.2909 Y-3.2462
X2.2875 Y-3.2473
G3 X2.2723 Y-3.2658 I0.0214 J-0.033
X2.2746 Y-3.2805 I0.0135 J-0.0054
X2.2996 Y-3.2758 I0.0112 J0.0093 F50.
G1 X2.3032 Y-3.2634 F60.
X2.3044 Y-3.2525
Y-3.2518
X2.3037 Y-3.2492
G3 X2.2677 Y-3.2591 I-0.0156 J-0.0138
G1 X2.1854 Y-3.3148
G3 X2.1879 Y-3.3404 I0.0088 J-0.0121
G1 X2.1905 Y-3.3416 Z-0.1672
X2.1931 Y-3.3428 Z-0.1664
X2.1954 Y-3.3439 Z-0.165
X2.1974 Y-3.3448 Z-0.1631
X2.1991 Y-3.3456 Z-0.1609
X2.2004 Y-3.3462 Z-0.1583
X2.2011 Y-3.3466 Z-0.1555
X2.2014 Y-3.3467 Z-0.1526
G0 Z-0.1377
X1.6478 Y-4.4471
G1 Z-0.1526 F50.
X1.648 Y-4.4473 Z-0.1555
X1.6484 Y-4.4481 Z-0.1583
X1.6491 Y-4.4492 Z-0.1609
X1.65 Y-4.4508 Z-0.1631
X1.6512 Y-4.4528 Z-0.165
X1.6525 Y-4.455 Z-0.1664
X1.6539 Y-4.4574 Z-0.1672
X1.6554 Y-4.4599 Z-0.1675
G3 X1.6773 Y-4.4818 I0.0536 J0.0317
G1 X1.8046 Y-4.5514 F60.
G3 X1.9272 Y-4.5493 I0.0592 J0.1227
G1 X1.9277 Y-4.5465
Y-4.5436
X1.9272 Y-4.5408
X1.9262 Y-4.5381
X1.9248 Y-4.5357
X1.9229 Y-4.5336
X1.9207 Y-4.5319
X1.9183 Y-4.5306
X1.9156 Y-4.5298
X1.9129 Y-4.5295
X1.9083 Y-4.5292
G3 X1.8046 Y-4.5257 I-0.0561 J-0.1237
Y-4.5514 I0.0076 J-0.0128 F50.
X1.9041 Y-4.6018 I0.1476 J0.1681 F60.
G1 X1.9047 Y-4.6016
X1.9069 Y-4.6007
X1.9074 Y-4.6005
X1.9097 Y-4.5983
X1.9147 Y-4.5883
X1.9696 Y-4.4011
G3 X1.9552 Y-4.3825 I-0.0145 J0.0037
G1 X1.9533 Y-4.3826
X1.9515 Y-4.3829
X1.9486 Y-4.3837 Z-0.1672
X1.9459 Y-4.3843 Z-0.1664
X1.9434 Y-4.385 Z-0.165
X1.9412 Y-4.3856 Z-0.1631
X1.9394 Y-4.386 Z-0.1609
X1.9381 Y-4.3864 Z-0.1583
X1.9373 Y-4.3866 Z-0.1555
X1.937 Z-0.1526
G0 Z0.6
X3.2464 Y-3.254
Z0.1
G3 X3.3646 Y-3.1757 Z0.0607 I0.0591 J0.0391 F50.
X3.2464 Y-3.254 Z0.0215 I-0.0591 J-0.0391
X3.3646 Y-3.1757 Z-0.0178 I0.0591 J0.0391
X3.2464 Y-3.254 Z-0.057 I-0.0591 J-0.0391
X3.3646 Y-3.1757 Z-0.0963 I0.0591 J0.0391
X3.2464 Y-3.254 Z-0.1355 I-0.0591 J-0.0391
X3.3764 Y-3.2148 Z-0.1675 I0.0591 J0.0391
X3.2347 I-0.0709 J0.
X3.3764 I0.0709 J0.
X3.3503 Y-3.0831 I-0.0521 J0.0581 F60.
G2 X3.2045 Y-3.1842 I-0.9423 J1.2029
G1 X3.1991 Y-3.1901
X3.1942 Y-3.1964
X3.1897 Y-3.203
X3.1858 Y-3.21
X3.1824 Y-3.2173
X3.1796 Y-3.2247
X3.1773 Y-3.2324
X3.1757 Y-3.2402
X3.1746 Y-3.2482
X3.1741 Y-3.2562
X3.1743 Y-3.2642
X3.175 Y-3.2721
X3.1764 Y-3.28
X3.1783 Y-3.2878
X3.1809 Y-3.2954
X3.184 Y-3.3027
X3.1876 Y-3.3099
X3.1918 Y-3.3167
X3.1965 Y-3.3232
X3.2016 Y-3.3293
X3.2072 Y-3.335
X3.2133 Y-3.3402
X3.2197 Y-3.345
X3.2264 Y-3.3493
X3.2335 Y-3.3531
X3.2408 Y-3.3563
X3.2484 Y-3.359
X3.2561 Y-3.361
X3.2639 Y-3.3625
X3.2719 Y-3.3634
G3 X3.4353 Y-3.253 I-1.3247 J2.1371
X3.4205 Y-3.0222 I-0.0921 J0.1099
G2 X3.3503 Y-3.0831 I-0.836 J0.8928
G3 X3.345 Y-3.097 I0.0094 J-0.0116
X3.3951 Y-3.1124 I0.0289 J0.0047
X3.4165 Y-3.0548 I-0.0573 J0.054
X3.4143 Y-3.0397 I-0.0787 J-0.0036 F50.
G2 X3.4185 Y-3.0254 I0.0145 J0.0036
G1 X3.432 Y-3.0133 F60.
G2 X3.571 Y-3.1378 I0.0315 J-0.1047
X3.4353 Y-3.253 I-1.0729 J1.1264
X3.4205 Y-3.2542 I-0.0085 J0.0123
X3.4043 Y-3.2179 I0.013 J0.0276
X3.5424 Y-3.1365 I0.1131 J-0.034
X3.5571 Y-3.1406 I-0.025 J-0.1154 F50.
G3 X3.5718 Y-3.138 I0.005 J0.0141
G1 X3.583 Y-3.1277 F60.
X3.5887 Y-3.1223
X3.5948 Y-3.1178
X3.5997 Y-3.1107
X3.6041 Y-3.1034
X3.6079 Y-3.0957
X3.6111 Y-3.0878
X3.6138 Y-3.0797
X3.6158 Y-3.0714
X3.6173 Y-3.063
X3.6181 Y-3.0544
X3.6183 Y-3.0459
X3.6179 Y-3.0374
X3.6169 Y-3.0289
X3.6152 Y-3.0205
X3.613 Y-3.0122
X3.6102 Y-3.0042
X3.6067 Y-2.9963
X3.6027 Y-2.9888
X3.5982 Y-2.9815
X3.5932 Y-2.9746
X3.5876 Y-2.9681
X3.5817 Y-2.962
X3.5752 Y-2.9563
X3.5684 Y-2.9512
X3.5613 Y-2.9465
X3.5538 Y-2.9424
X3.546 Y-2.9388
X3.538 Y-2.9358
X3.5298 Y-2.9334
G3 X3.432 Y-3.0133 I0.3633 J-0.5449
X3.442 Y-3.039 I0.0103 J-0.0108
X3.4927 Y-3.0148 I0.0013 J0.0625
X3.5195 Y-2.9622 I-0.1244 J0.0965
X3.5237 Y-2.9435 I-0.1512 J0.044 F50.
G2 X3.5297 Y-2.9338 I0.0147 J-0.0024
G1 X3.5368 Y-2.9291 F60.
X3.5522 Y-2.9187
X3.5602 Y-2.9164
X3.5683 Y-2.9147
X3.5765 Y-2.9136
X3.5848 Y-2.9131
X3.5931 Y-2.9132
X3.6014 Y-2.9139
X3.6096 Y-2.9151
X3.6177 Y-2.9169
X3.6256 Y-2.9193
X3.6334 Y-2.9222
X3.6409 Y-2.9257
X3.6482 Y-2.9297
X3.6551 Y-2.9342
X3.6617 Y-2.9392
X3.668 Y-2.9447
X3.6739 Y-2.9505
X3.6793 Y-2.9568
X3.6843 Y-2.9634
X3.6888 Y-2.9704
X3.6928 Y-2.9777
X3.6962 Y-2.9852
X3.6991 Y-2.993
X3.7015 Y-3.0009
X3.7033 Y-3.009
X3.7046 Y-3.0172
X3.7052 Y-3.0255
X3.7053 Y-3.0338
X3.7047 Y-3.042
G3 X3.5948 Y-3.1178 I0.709 J-1.1464
G2 X3.58 Y-3.119 I-0.0085 J0.0123
X3.5726 Y-3.1065 I0.0055 J0.0117
X3.6749 Y-3.0363 I0.0786 J-0.0049
X3.689 Y-3.0423 I-0.0237 J-0.0751 F50.
G3 X3.7039 Y-3.0419 I0.0072 J0.0131
G1 X3.7224 Y-3.0298 F60.
X3.7277 Y-3.0233
X3.7325 Y-3.0165
X3.7368 Y-3.0093
X3.7405 Y-3.0019
X3.7437 Y-2.9942
X3.7464 Y-2.9863
X3.7484 Y-2.9782
X3.7499 Y-2.9699
X3.7508 Y-2.9616
X3.7511 Y-2.9533
X3.7507 Y-2.9449
X3.7498 Y-2.9367
X3.7482 Y-2.9284
X3.7461 Y-2.9204
X3.7434 Y-2.9125
X3.7401 Y-2.9048
X3.7363 Y-2.8974
X3.7319 Y-2.8902
X3.7271 Y-2.8834
X3.7218 Y-2.877
X3.716 Y-2.871
X3.7098 Y-2.8654
X3.7032 Y-2.8603
X3.6962 Y-2.8557
X3.689 Y-2.8515
X3.6814 Y-2.848
X3.6736 Y-2.8449
X3.6657 Y-2.8425
G2 X3.5522 Y-2.9187 I-8.2784 J12.2099
G3 X3.5489 Y-2.9395 I0.0088 J-0.0121
X3.5762 Y-2.9488 I0.0202 J0.0147
X3.6553 Y-2.8715 I-0.0334 J0.1133
X3.6596 Y-2.8528 I-0.1125 J0.0361 F50.
G2 X3.6655 Y-2.843 I0.0148 J-0.0022
G1 X3.6755 Y-2.8361 F60.
X3.684 Y-2.8304
X3.692 Y-2.8279
X3.7002 Y-2.8259
X3.7084 Y-2.8246
X3.7168 Y-2.8239
X3.7251 Y-2.8238
X3.7335 Y-2.8242
X3.7418 Y-2.8253
X3.75 Y-2.827
X3.7581 Y-2.8293
X3.7659 Y-2.8322
X3.7736 Y-2.8356
X3.7809 Y-2.8396
X3.788 Y-2.8441
X3.7947 Y-2.8491
X3.801 Y-2.8545
X3.807 Y-2.8605
X3.8124 Y-2.8668
X3.8174 Y-2.8735
X3.8219 Y-2.8806
X3.8259 Y-2.8879
X3.8294 Y-2.8956
X3.8322 Y-2.9034
X3.8345 Y-2.9115
X3.8362 Y-2.9197
X3.8373 Y-2.928
X3.8378 Y-2.9364
X3.8377 Y-2.9447
X3.837 Y-2.9531
G3 X3.7224 Y-3.0298 I2.5685 J-3.9575
G2 X3.7002 Y-3.0135 I-0.0077 J0.0128
X3.7221 Y-2.9786 I0.0638 J-0.0157
X3.8062 Y-2.9518 I0.0753 J-0.091
X3.8251 Y-2.9548 I-0.0088 J-0.1178 F50.
G3 X3.8364 Y-2.953 I0.0035 J0.0145
G1 X3.8602 Y-2.9373 F60.
X3.8651 Y-2.9303
X3.8695 Y-2.923
X3.8734 Y-2.9154
X3.8767 Y-2.9075
X3.8795 Y-2.8994
X3.8816 Y-2.8912
X3.8831 Y-2.8827
X3.884 Y-2.8743
X3.8843 Y-2.8657
X3.884 Y-2.8572
X3.8831 Y-2.8487
X3.8815 Y-2.8403
X3.8794 Y-2.832
X3.8766 Y-2.8239
X3.8733 Y-2.8161
X3.8694 Y-2.8085
X3.8649 Y-2.8012
X3.86 Y-2.7942
X3.8545 Y-2.7876
X3.8486 Y-2.7815
X3.8423 Y-2.7757
X3.8355 Y-2.7705
X3.8284 Y-2.7658
X3.821 Y-2.7616
X3.8132 Y-2.7579
X3.8053 Y-2.7548
X3.7971 Y-2.7523
G2 X3.684 Y-2.8304 I-1.6919 J2.3295
G3 X3.6808 Y-2.8512 I0.0088 J-0.0121
X3.7104 Y-2.8609 I0.0215 J0.0157
X3.7875 Y-2.7816 I-0.0363 J0.1124
X3.7914 Y-2.7628 I-0.1134 J0.0331 F50.
G2 X3.797 Y-2.7529 I0.0148 J-0.0018
G1 X3.8143 Y-2.7403 F60.
X3.819 Y-2.737
X3.8272 Y-2.7348
X3.8355 Y-2.7331
X3.8439 Y-2.7321
X3.8524 Y-2.7317
X3.8609 Y-2.7319
X3.8694 Y-2.7327
X3.8777 Y-2.7342
X3.886 Y-2.7362
X3.8941 Y-2.7389
X3.9019 Y-2.7421
X3.9095 Y-2.7459
X3.9168 Y-2.7502
X3.9238 Y-2.755
X3.9304 Y-2.7604
X3.9366 Y-2.7662
X3.9424 Y-2.7724
X3.9476 Y-2.7791
X3.9524 Y-2.7861
X3.9567 Y-2.7934
X3.9604 Y-2.8011
X3.9636 Y-2.809
X3.9661 Y-2.8171
X3.9681 Y-2.8253
X3.9695 Y-2.8337
X3.9702 Y-2.8422
X3.9704 Y-2.8507
X3.9699 Y-2.8591
X3.9531 Y-2.8703
X3.9242 Y-2.891
X3.8602 Y-2.9373
G2 X3.8453 Y-2.9377 I-0.0078 J0.0127
X3.8394 Y-2.9274 I0.0055 J0.01
G1 X3.8395 Y-2.9246
G2 X3.9404 Y-2.854 I0.0786 J-0.0049
X3.9545 Y-2.8597 I-0.0223 J-0.0755 F50.
G3 X3.9694 Y-2.8591 I0.0069 J0.0132
G1 X3.9903 Y-2.8448 F60.
G3 X3.9427 Y-2.6672 I-0.0912 J0.0707
X3.9328 Y-2.6847 I0.0047 J-0.0142
G1 X3.9348 Y-2.6933
X3.9673 Y-2.8331
X3.9679 Y-2.8355 F50.
G3 X3.9903 Y-2.8448 I0.0145 J0.0034
X3.9048 Y-2.6717 I-0.0428 J0.0865 F60.
X3.8642 Y-2.7096 I0.0428 J-0.0865
G1 X3.819 Y-2.737
G3 X3.822 Y-2.7625 I0.0091 J-0.0119
G1 X3.8246 Y-2.7637 Z-0.1672
X3.8272 Y-2.7648 Z-0.1664
X3.8296 Y-2.7658 Z-0.165
X3.8316 Y-2.7668 Z-0.1631
X3.8333 Y-2.7675 Z-0.1609
X3.8346 Y-2.7681 Z-0.1583
X3.8354 Y-2.7684 Z-0.1555
X3.8356 Y-2.7685 Z-0.1526
G0 Z-0.1377
X3.2493 Y-3.176
G1 Z-0.1526 F50.
X3.249 Z-0.1555
X3.2482 Z-0.1583
X3.2468 Z-0.1609
X3.245 Z-0.1631
X3.2427 Y-3.1761 Z-0.165
X3.2401 Z-0.1664
X3.2373 Z-0.1672
X3.2344 Y-3.1762 Z-0.1675
G3 X3.2045 Y-3.1842 I0.0007 J-0.0623
G1 X3.1668 Y-3.2073 F60.
X3.1556 Y-3.2148
X3.1381 Y-3.2278
G3 X3.2147 Y-3.4372 I0.1041 J-0.0806
G1 X3.2378 Y-3.3999
X3.2593 Y-3.3732
X3.2719 Y-3.3637
G3 X3.264 Y-3.3373 I-0.0094 J0.0116
X3.2431 Y-3.3435 I-0.0029 J-0.0281
X3.2144 Y-3.4047 I0.05 J-0.0608
X3.2168 Y-3.4237 I0.0787 J0.0003 F50.
G2 X3.2152 Y-3.435 I-0.0145 J-0.0037
G1 X3.213 Y-3.4383 F60.
X3.2082 Y-3.4461
X3.2065 Y-3.4487
G2 X3.0362 Y-3.3699 I-0.0609 J0.0919
X3.1381 Y-3.2278 I0.316 J-0.119
X3.1529 Y-3.2266 I0.0084 J-0.0123
X3.1742 Y-3.2691 I-0.0166 J-0.0349
X3.0644 Y-3.3638 I-0.1158 J0.0233
X3.0491 Y-3.3636 I-0.006 J0.118 F50.
G3 X3.0356 Y-3.37 I-0.0012 J-0.0149
G1 X3.0165 Y-3.3999 F60.
X3.0144 Y-3.4082
X3.0129 Y-3.4167
X3.012 Y-3.4252
X3.0117 Y-3.4338
X3.012 Y-3.4424
X3.013 Y-3.4509
X3.0145 Y-3.4593
X3.0166 Y-3.4677
X3.0194 Y-3.4758
X3.0226 Y-3.4837
X3.0265 Y-3.4914
X3.0309 Y-3.4988
X3.0358 Y-3.5059
X3.0411 Y-3.5126
X3.047 Y-3.5189
X3.0532 Y-3.5247
X3.0599 Y-3.5301
X3.067 Y-3.535
X3.0743 Y-3.5394
X3.082 Y-3.5433
X3.0899 Y-3.5466
X3.098 Y-3.5494
X3.1063 Y-3.5516
X3.1148 Y-3.5531
X3.1233 Y-3.5541
X3.1319 Y-3.5545
X3.1405 Y-3.5542
X3.1493 Y-3.5386
X3.1668 Y-3.5111
X3.2065 Y-3.4487
G3 X3.2067 Y-3.4338 I-0.0129 J0.0076
X3.1816 Y-3.4245 I-0.018 J-0.0102
X3.134 Y-3.5241 I0.0268 J-0.074
X3.1403 Y-3.5381 I0.0745 J0.0256 F50.
G2 X3.1404 Y-3.553 I-0.0129 J-0.0075
G1 X3.1272 Y-3.5743 F60.
X3.1204 Y-3.5794
X3.1133 Y-3.584
X3.1058 Y-3.588
X3.0981 Y-3.5915
X3.0901 Y-3.5945
X3.082 Y-3.5968
X3.0737 Y-3.5985
X3.0653 Y-3.5996
X3.0568 Y-3.6001
X3.0483 Y-3.6
X3.0399 Y-3.5992
X3.0315 Y-3.5978
X3.0232 Y-3.5958
X3.0152 Y-3.5933
X3.0073 Y-3.5901
X2.9997 Y-3.5863
X2.9924 Y-3.5821
X2.9854 Y-3.5772
X2.9788 Y-3.5719
X2.9726 Y-3.5661
X2.9668 Y-3.5599
X2.9616 Y-3.5533
X2.9568 Y-3.5463
X2.9525 Y-3.5389
X2.9488 Y-3.5313
X2.9457 Y-3.5234
X2.9432 Y-3.5153
G3 X3.0165 Y-3.3999 I-31.4902 J20.0783
G2 X3.0434 Y-3.4056 I0.0123 J-0.0085
X3.0359 Y-3.4507 I-0.066 J-0.0121
X2.9716 Y-3.5044 I-0.103 J0.0579
X2.953 Y-3.5092 I-0.0386 J0.1116 F50.
G3 X2.9433 Y-3.5153 I0.0025 J-0.0147
G1 X2.9355 Y-3.5272 F60.
X2.9278 Y-3.5386
X2.9258 Y-3.5469
X2.9245 Y-3.5553
X2.9237 Y-3.5637
X2.9236 Y-3.5722
X2.9241 Y-3.5806
X2.9251 Y-3.589
X2.9268 Y-3.5973
X2.9291 Y-3.6055
X2.932 Y-3.6135
X2.9355 Y-3.6212
X2.9395 Y-3.6287
X2.944 Y-3.6358
X2.949 Y-3.6427
X2.9545 Y-3.6491
X2.9605 Y-3.6551
X2.9669 Y-3.6607
X2.9737 Y-3.6658
X2.9808 Y-3.6704
X2.9882 Y-3.6744
X2.9959 Y-3.6779
X3.0039 Y-3.6809
X3.012 Y-3.6832
X3.0203 Y-3.685
X3.0287 Y-3.6862
X3.0372 Y-3.6867
X3.0456 Y-3.6866
X3.0541 Y-3.686
G3 X3.1272 Y-3.5743 I-4.626 J3.1064
X3.1271 Y-3.5594 I-0.0129 J0.0074
X3.1174 Y-3.5542 I-0.009 J-0.0052
G1 X3.1137 Y-3.5546
G3 X3.0484 Y-3.6565 I0.0097 J-0.0781
X3.0544 Y-3.6705 I0.0751 J0.0237 F50.
G2 X3.054 Y-3.6854 I-0.0131 J-0.0072
G1 X3.0412 Y-3.705 F60.
X3.0347 Y-3.7103
X3.0279 Y-3.7151
X3.0208 Y-3.7194
X3.0133 Y-3.7232
X3.0056 Y-3.7264
X2.9977 Y-3.7291
X2.9897 Y-3.7311
X2.9815 Y-3.7326
X2.9732 Y-3.7335
X2.9648 Y-3.7338
X2.9565 Y-3.7335
X2.9482 Y-3.7326
X2.94 Y-3.7311
X2.932 Y-3.729
X2.9241 Y-3.7263
X2.9164 Y-3.7231
X2.9089 Y-3.7193
X2.9018 Y-3.715
X2.895 Y-3.7102
X2.8886 Y-3.7049
X2.8825 Y-3.6992
X2.8769 Y-3.693
X2.8718 Y-3.6864
X2.8671 Y-3.6795
X2.8629 Y-3.6723
X2.8593 Y-3.6648
X2.8563 Y-3.6571
X2.8538 Y-3.6491
X2.9278 Y-3.5386
G2 X2.9414 Y-3.5326 I0.0121 J-0.0088
X2.9514 Y-3.5408 I-0.0012 J-0.0118
G1 X2.9519 Y-3.5423
G2 X2.8832 Y-3.6431 I-0.0755 J-0.0223
X2.868 Y-3.6429 I-0.0068 J0.0784 F50.
G3 X2.8543 Y-3.6489 I-0.0016 J-0.0148
G1 X2.843 Y-3.6656 F60.
X2.8385 Y-3.6721
X2.8365 Y-3.6803
X2.8352 Y-3.6887
X2.8344 Y-3.6971
X2.8342 Y-3.7056
X2.8347 Y-3.7141
X2.8358 Y-3.7225
X2.8375 Y-3.7308
X2.8397 Y-3.7389
X2.8426 Y-3.7469
X2.846 Y-3.7546
X2.85 Y-3.7621
X2.8545 Y-3.7693
X2.8596 Y-3.7761
X2.8651 Y-3.7825
X2.871 Y-3.7886
X2.8774 Y-3.7941
X2.8842 Y-3.7992
X2.8913 Y-3.8038
X2.8987 Y-3.8079
X2.9064 Y-3.8114
X2.9144 Y-3.8143
X2.9225 Y-3.8167
X2.9308 Y-3.8184
X2.9392 Y-3.8196
X2.9476 Y-3.8202
X2.9561 Y-3.8201
X2.9646 Y-3.8194
G2 X3.0412 Y-3.705 I31.7861 J-21.2061
G3 X3.0249 Y-3.6828 I-0.0128 J0.0077
X2.9914 Y-3.7034 I0.0152 J-0.0623
X2.9634 Y-3.7887 I0.0898 J-0.0767
X2.9663 Y-3.8076 I0.1178 J0.0085 F50.
G2 X2.9645 Y-3.8189 I-0.0145 J-0.0035
G1 X2.9496 Y-3.8413 F60.
X2.9428 Y-3.8465
X2.9356 Y-3.8511
X2.928 Y-3.8551
X2.9202 Y-3.8586
X2.9122 Y-3.8615
X2.9039 Y-3.8639
X2.8955 Y-3.8656
X2.887 Y-3.8667
X2.8785 Y-3.8671
X2.8699 Y-3.867
X2.8614 Y-3.8662
X2.8529 Y-3.8648
X2.8446 Y-3.8627
X2.8365 Y-3.8601
X2.8286 Y-3.8569
X2.8209 Y-3.8531
X2.8135 Y-3.8487
X2.8065 Y-3.8438
X2.7998 Y-3.8385
X2.7936 Y-3.8326
X2.7878 Y-3.8263
X2.7824 Y-3.8196
X2.7776 Y-3.8125
X2.7733 Y-3.8051
X2.7696 Y-3.7974
X2.7664 Y-3.7895
X2.7639 Y-3.7813
G3 X2.8385 Y-3.6721 I-11.1365 J7.6915
G2 X2.8522 Y-3.6662 I0.012 J-0.0089
X2.8652 Y-3.6774 I-0.0017 J-0.0151
X2.7934 Y-3.7762 I-0.0761 J-0.0202
X2.7782 Y-3.7756 I-0.0044 J0.0786 F50.
G3 X2.7643 Y-3.7812 I-0.0021 J-0.0148
G1 X2.7505 Y-3.8002 F60.
X2.7481 Y-3.8081
X2.7462 Y-3.8161
X2.7449 Y-3.8243
X2.7442 Y-3.8325
X2.7441 Y-3.8408
X2.7446 Y-3.849
X2.7456 Y-3.8572
X2.7473 Y-3.8653
X2.7495 Y-3.8733
X2.7523 Y-3.881
X2.7556 Y-3.8886
X2.7595 Y-3.8959
X2.7639 Y-3.9029
X2.7688 Y-3.9096
X2.7741 Y-3.9159
X2.7799 Y-3.9218
X2.7861 Y-3.9272
X2.7926 Y-3.9322
X2.7996 Y-3.9368
X2.8068 Y-3.9408
X2.8142 Y-3.9443
X2.822 Y-3.9473
X2.8299 Y-3.9496
X2.8379 Y-3.9515
X2.8461 Y-3.9527
X2.8543 Y-3.9534
X2.8626
X2.8708 Y-3.9529
X2.9133 Y-3.8934
X2.9357 Y-3.8624
X2.9496 Y-3.8413
G3 X2.9447 Y-3.8208 I-0.0127 J0.0078
X2.9209 Y-3.8216 I-0.0113 J-0.0185
X2.8708 Y-3.9221 I0.0679 J-0.0966
X2.873 Y-3.9412 I0.118 J0.004 F50.
G2 X2.8708 Y-3.9524 I-0.0146 J-0.0029
G1 X2.8689 Y-3.955 F60.
X2.856 Y-3.9739
G2 X2.6737 Y-3.9174 I-0.0703 J0.0954
X2.7505 Y-3.8002 I0.7051 J-0.3781
X2.7643 Y-3.7946 I0.0118 J-0.0092
X2.777 Y-3.8121 I-0.0021 J-0.0149
X2.6996 Y-3.9034 I-0.1164 J0.0202
X2.6848 Y-3.9075 I-0.0389 J0.1115 F50.
G3 X2.6737 Y-3.9174 I0.0031 J-0.0146
G1 X2.6709 Y-3.9246 F60.
X2.6688 Y-3.9319
X2.6672 Y-3.9394
X2.6662 Y-3.947
X2.6659 Y-3.9546
X2.6662 Y-3.9622
X2.6671 Y-3.9698
X2.6687 Y-3.9773
X2.6708 Y-3.9846
X2.6736 Y-3.9918
X2.6769 Y-3.9987
X2.6807 Y-4.0053
X2.6851 Y-4.0115
X2.69 Y-4.0174
X2.6954 Y-4.0228
X2.7011 Y-4.0278
X2.7073 Y-4.0324
X2.7138 Y-4.0363
X2.7207 Y-4.0398
X2.7277 Y-4.0427
X2.735 Y-4.0449
X2.7425 Y-4.0466
X2.7501 Y-4.0477
X2.7577 Y-4.0481
X2.7653 Y-4.0479
X2.7729 Y-4.0471
X2.7804 Y-4.0457
X2.7878 Y-4.0436
X2.795 Y-4.041
X2.8019 Y-4.0378
X2.8086 Y-4.034
X2.8149 Y-4.0297
X2.8208 Y-4.0249
X2.8263 Y-4.0197
X2.8314 Y-4.0139
X2.836 Y-4.0078
X2.8401 Y-4.0014
X2.8436 Y-3.9946
X2.8466 Y-3.9876
X2.849 Y-3.9803
X2.8508 Y-3.9729
X2.8603 Y-3.9754
X2.87 Y-3.9773
X2.8797 Y-3.9786
X2.8896 Y-3.9792
X2.8994 Y-3.9793
X2.9092 Y-3.9787
X2.919 Y-3.9775
X2.9287 Y-3.9757
X2.9382 Y-3.9733
X2.9476 Y-3.9703
X2.9568 Y-3.9667
X2.9657 Y-3.9625
X2.9743 Y-3.9578
X2.9827 Y-3.9525
X2.9906 Y-3.9467
X2.9982 Y-3.9404
X3.0054 Y-3.9337
X3.0121 Y-3.9265
X3.0184 Y-3.9189
X3.0242 Y-3.911
X3.0294 Y-3.9026
X3.0342 Y-3.894
X3.0383 Y-3.8851
X3.0419 Y-3.8759
X3.0449 Y-3.8665
X3.0474 Y-3.857
G3 X3.33 Y-3.4541 I-6.1434 J4.6112
G2 X4.0661 Y-2.9077 I6.1301 J-7.4875
G3 X4.0772 Y-2.6244 I-0.1215 J0.1466
X3.768 Y-2.6608 I-0.136 J-0.1767
X3.0282 Y-3.2028 I4.2434 J-6.5681
G2 X2.6208 Y-3.8132 I-27.4701 J17.8962
G3 X2.8818 Y-4.0944 I0.1417 J-0.1302
X3.234 Y-3.7756 I-0.1883 J0.562
G2 X3.6278 Y-3.3606 I0.9036 J-0.4631
X3.8946 Y-3.155 I1.153 J-1.2198
G3 X4.0536 Y-3.0438 I-0.8154 J1.3362
G1 X4.1896 Y-2.8537
X4.1954 Y-2.8427
X4.2006 Y-2.8314
X4.2052 Y-2.8198
X4.2093 Y-2.808
X4.2127 Y-2.7961
X4.2156 Y-2.784
X4.2178 Y-2.7718
X4.2194 Y-2.7594
X4.2204 Y-2.747
X4.2208 Y-2.7346
X4.2205 Y-2.7221
X4.2197 Y-2.7097
X4.2181 Y-2.6974
X4.216 Y-2.6851
X4.2133 Y-2.673
X4.2099 Y-2.661
X4.206 Y-2.6492
X4.2015 Y-2.6376
X4.1963 Y-2.6263
X4.1907 Y-2.6152
X4.1844 Y-2.6045
X4.1777 Y-2.594
X4.1704 Y-2.5839
X4.1626 Y-2.5742
X4.1544 Y-2.5649
X4.1457 Y-2.556
X4.1365 Y-2.5476
X4.127 Y-2.5396
X4.117 Y-2.5322
X4.1067 Y-2.5252
X4.0961 Y-2.5188
X4.0851 Y-2.5129
X4.0739 Y-2.5076
X4.0624 Y-2.5028
X4.0507 Y-2.4986
X4.0388 Y-2.495
X4.0267 Y-2.4921
X4.0145 Y-2.4897
X4.0022 Y-2.488
X3.9898 Y-2.4868
X3.7783 Y-2.5474
G3 X2.918 Y-3.1747 I2.181 J-3.895
G2 X2.565 Y-3.7154 I-6.0488 J3.5629
G1 X2.4993 Y-3.9424
X2.4976 Y-3.9548
X2.4965 Y-3.9671
X2.496 Y-3.9796
X2.4961 Y-3.992
X2.4969 Y-4.0044
X2.4983 Y-4.0168
X2.5003 Y-4.029
X2.5029 Y-4.0412
X2.5062 Y-4.0532
X2.51 Y-4.065
X2.5144 Y-4.0766
X2.5194 Y-4.088
X2.5249 Y-4.0992
X2.531 Y-4.11
X2.5376 Y-4.1205
X2.5448 Y-4.1307
X2.5524 Y-4.1405
X2.5606 Y-4.1499
X2.5692 Y-4.1589
X2.5782 Y-4.1674
X2.5876 Y-4.1755
X2.5975 Y-4.1831
X2.6077 Y-4.1902
X2.6182 Y-4.1967
X2.6291 Y-4.2028
X2.6403 Y-4.2083
X2.6517 Y-4.2132
X2.6633 Y-4.2175
X2.6752 Y-4.2213
X2.6872 Y-4.2244
X2.6994 Y-4.227
X2.7116 Y-4.2289
X2.724 Y-4.2303
X2.7364 Y-4.231
X2.7488
X2.7612 Y-4.2305
X2.7736 Y-4.2293
X2.7859 Y-4.2275
X2.7981 Y-4.2252
X2.8235 Y-4.2103
X2.8466 Y-4.1947
X3.055 Y-4.0456
X3.0757 Y-4.0296
X3.2634 Y-3.8791
G2 X3.5125 Y-3.5719 I3.8964 J-2.9042
X3.8265 Y-3.3237 I12.8277 J-15.9071
G1 X3.8655 Y-3.2802
X3.8776 Y-3.2653
X4.0275 Y-3.0782
X4.0443 Y-3.0569
X4.0536 Y-3.0438
G3 X4.0546 Y-3.029 I-0.0124 J0.0083
X3.9898 Y-2.9997 I-0.0502 J-0.0249
X3.8243 Y-3.2945 I0.0611 J-0.2282
G1 X3.8291 Y-3.309 F50.
G2 X3.8265 Y-3.3237 I-0.014 J-0.0051
G1 X3.6921 Y-3.4738 F60.
X3.6802 Y-3.4868
X3.495 Y-3.672
X3.4848 Y-3.6822
X3.278 Y-3.8675
X3.2634 Y-3.8791
G2 X3.2513 Y-3.8817 I-0.0089 J0.012
G1 X3.2336 Y-3.8779
X2.5838 Y-3.7356
X2.577 Y-3.7342 F50.
G2 X2.5657 Y-3.7159 I0.0032 J0.0146
G1 X2.6382 Y-3.4687 F60.
X2.6494 Y-3.4423
X2.6611 Y-3.4162
X2.6734 Y-3.3903
X2.6862 Y-3.3647
X2.6995 Y-3.3394
X2.7134 Y-3.3144
X2.7278 Y-3.2897
X2.7427 Y-3.2652
X2.7581 Y-3.2411
X2.7741 Y-3.2173
X2.7905 Y-3.1939
X2.8074 Y-3.1708
X2.8248 Y-3.1481
X2.8427 Y-3.1257
X2.8611 Y-3.1038
X2.8799 Y-3.0822
X2.8991 Y-3.061
X2.9188 Y-3.0403
X2.939 Y-3.0199
X2.9595 Y-3.
X2.9805 Y-2.9805
X3.0019 Y-2.9615
X3.0237 Y-2.9429
X3.0458 Y-2.9248
X3.0684 Y-2.9072
X3.0913 Y-2.89
X3.1145 Y-2.8733
X3.1381 Y-2.8572
X3.1621 Y-2.8415
X3.1864 Y-2.8263
X3.211 Y-2.8116
X3.2358 Y-2.7975
G2 X3.4065 Y-2.6564 I0.6944 J-0.6663
G1 X3.7783 Y-2.5474
G2 X3.7969 Y-2.5619 I0.0037 J-0.0145
G1 X3.7968 Y-2.5637
X3.7964 Y-2.5656
G2 X3.7905 Y-2.5741 I-0.0145 J0.0037
G3 X3.8068 Y-2.5991 I0.0085 J-0.0123
G1 X3.9608 Y-2.5046
X3.9624 Y-2.5035
X3.9639 Y-2.5021
G2 X3.9899 Y-2.4854 I0.0456 J-0.0424 F50.
G1 X4.0739 Y-2.4607 F60.
G2 X4.3091 Y-2.668 I-0.0002 J-0.2373
G1 X4.2091 Y-2.8253
X4.1934 Y-2.8485
X4.1896 Y-2.8537
G2 X4.1759 Y-2.8594 I-0.0118 J0.0091
X4.1309 Y-2.7932 I0.007 J0.0531
X4.2803 Y-2.6741 I0.1527 J-0.0383
X4.2956 Y-2.6745 I0.0033 J-0.1574 F50.
G3 X4.3091 Y-2.668 I0.0011 J0.0149
G1 X4.3357 Y-2.6261 F60.
G3 X4.2452 Y-2.4105 I-0.1742 J0.0536
G1 X4.0739 Y-2.4607
G3 X4.0639 Y-2.4719 I0.0047 J-0.0142
X4.0882 Y-2.5115 I0.0333 J-0.0069
X4.2312 Y-2.4364 I0.0314 J0.1139
X4.2352 Y-2.4216 I-0.1116 J0.0387 F50.
G2 X4.2452 Y-2.4105 I0.0146 J-0.003
G1 X4.2823 Y-2.3996 F60.
G2 X4.4166 Y-2.4852 I0.0162 J-0.1229
G1 X4.3558 Y-2.5937
X4.3517 Y-2.6009
X4.3357 Y-2.6261
G2 X4.3223 Y-2.6325 I-0.0123 J0.0084
X4.2862 Y-2.583 I0.0031 J0.0401
X4.3883 Y-2.4931 I0.1149 J-0.0274
X4.4036 Y-2.4924 I0.0128 J-0.1174 F50.
G3 X4.4166 Y-2.4852 I0.0003 J0.0149
G1 X4.4337 Y-2.4548 F60.
G3 X4.4107 Y-2.3607 I-0.0737 J0.0318
G1 X4.4079 Y-2.3617
X4.4054 Y-2.3632
X4.4033 Y-2.3651
X4.4015 Y-2.3673
X4.4002 Y-2.3698
X4.3994 Y-2.3725
X4.399 Y-2.3752
X4.3992 Y-2.378
X4.4003 Y-2.3887
X4.4061 Y-2.4485
X4.4067 Y-2.4516
X4.408 Y-2.4545
G3 X4.4337 Y-2.4548 I0.0129 J0.0075 F50.
G1 X4.4675 Y-2.3945 F60.
G3 X4.4652 Y-2.346 I-0.02 J0.0233
X4.4385 Y-2.3883 I0.0124 J-0.0374
X4.4414 Y-2.3956 I0.0156 J0.002
X4.4675 Y-2.3945 I0.0127 J0.0092 F50.
X4.4856 Y-2.3472 I-0.0151 J0.0329 F60.
G1 X4.4832 Y-2.3451
G3 X4.4675 Y-2.3453 I-0.0076 J-0.0194
G1 X4.2823 Y-2.3996
G3 X4.2768 Y-2.4247 I0.0047 J-0.0142
G1 X4.2789 Y-2.4267 Z-0.1672
X4.281 Y-2.4286 Z-0.1664
X4.2829 Y-2.4304 Z-0.165
X4.2845 Y-2.4319 Z-0.1631
X4.2859 Y-2.4332 Z-0.1609
X4.2869 Y-2.4341 Z-0.1583
X4.2875 Y-2.4347 Z-0.1555
X4.2877 Y-2.4349 Z-0.1526
G0 Z-0.1377
X3.4519 Y-2.6602
G1 Z-0.1526 F50.
X3.4516 Y-2.6601 Z-0.1555
X3.4508 Y-2.6599 Z-0.1583
X3.4495 Y-2.6595 Z-0.1609
X3.4477 Y-2.6591 Z-0.1631
X3.4455 Y-2.6585 Z-0.165
X3.443 Y-2.6579 Z-0.1664
X3.4403 Y-2.6572 Z-0.1672
X3.4375 Y-2.6565 Z-0.1675
G3 X3.4065 Y-2.6564 I-0.0155 J-0.0604
X3.2208 Y-2.7842 I0.0819 J-0.318 F60.
G2 X3.0319 Y-2.846 I-0.3179 J0.6525
G3 X2.752 Y-3.0808 I0.2408 J-0.5712
G0 Z0.4
X3.0768 Y-2.8533
Z-0.1377
G1 Z-0.1526 F50.
X3.0765 Y-2.8532 Z-0.1555
X3.0757 Y-2.853 Z-0.1583
X3.0744 Y-2.8525 Z-0.1609
X3.0727 Y-2.8519 Z-0.1631
X3.0705 Y-2.8512 Z-0.165
X3.0681 Y-2.8503 Z-0.1664
X3.0654 Y-2.8494 Z-0.1672
X3.0627 Y-2.8485 Z-0.1675
G3 X3.0319 Y-2.846 I-0.0203 J-0.0589
G2 X2.9083 Y-2.8495 I-0.0753 J0.4763 F60.
G3 X2.8107 Y-2.8806 I-0.0252 J-0.0897
X2.8288 Y-2.8988 I0.0145 J-0.0037
X2.9169 Y-2.8737 I0.0157 J0.112
X2.9083 Y-2.8495 I-0.0115 J0.0095 F50.
X2.8264 Y-2.8403 I-0.0487 J-0.0644 F60.
X2.8188 Y-2.8528 I0.0124 J-0.016
G1 X2.6382 Y-3.4687
G0 Z0.4
X2.5269 Y-3.9063
Z-0.1377
G1 Z-0.1526 F50.
X2.5267 Y-3.9065 Z-0.1555
X2.5261 Y-3.907 Z-0.1583
X2.5251 Y-3.908 Z-0.1609
X2.5237 Y-3.9092 Z-0.1631
X2.5221 Y-3.9108 Z-0.165
X2.5202 Y-3.9125 Z-0.1664
X2.5181 Y-3.9145 Z-0.1672
X2.516 Y-3.9164 Z-0.1675
G3 X2.4993 Y-3.9424 I0.0424 J-0.0456
G1 X2.4602 Y-4.0759 F60.
G3 X2.6638 Y-4.3117 I0.2385 J0.0001
G1 X2.7984 Y-4.2263
G3 X2.8048 Y-4.2128 I-0.0084 J0.0123
X2.7513 Y-4.1771 I-0.0408 J-0.0031
X2.6701 Y-4.283 I0.0367 J-0.1123
X2.6702 Y-4.2983 I0.1179 J-0.0063 F50.
G2 X2.6638 Y-4.3117 I-0.0149 J-0.0011
G1 X2.6236 Y-4.3373 F60.
G2 X2.4099 Y-4.2473 I-0.0533 J0.1724
G1 X2.4602 Y-4.0759
G2 X2.4713 Y-4.066 I0.0142 J-0.0047
X2.5108 Y-4.09 I0.0069 J-0.0332
X2.4358 Y-4.2333 I-0.1138 J-0.0317
X2.421 Y-4.2374 I-0.0387 J0.1116 F50.
G3 X2.4099 Y-4.2473 I0.003 J-0.0146
G1 X2.399 Y-4.2843 F60.
G3 X2.4831 Y-4.4178 I0.1218 J-0.0165
G1 X2.5973 Y-4.3538
X2.6151 Y-4.3427
X2.6236 Y-4.3373
G3 X2.6301 Y-4.3238 I-0.0084 J0.0123
X2.5799 Y-4.2876 I-0.0404 J-0.0031
X2.491 Y-4.3894 I0.0285 J-0.1146
X2.4903 Y-4.4047 I0.1174 J-0.0128 F50.
G2 X2.4831 Y-4.4178 I-0.0149 J-0.0003
G1 X2.453 Y-4.4347 F60.
G2 X2.3603 Y-4.4121 I-0.0314 J0.0726
G1 X2.399 Y-4.2843
G2 X2.4277 Y-4.2855 I0.0142 J-0.0047
G1 X2.4569 Y-4.4067
X2.4597 Y-4.4185 F50.
G2 X2.453 Y-4.4347 I-0.0145 J-0.0035
G1 X2.3908 Y-4.4696 F60.
G2 X2.3458 Y-4.4659 I-0.0211 J0.0195
G1 X2.3619 Y-4.4108
G2 X2.3908 Y-4.413 I0.0142 J-0.0047
G1 X2.3956 Y-4.4414
X2.3978 Y-4.4543 F50.
G2 X2.3908 Y-4.4696 I-0.0147 J-0.0025
X2.3451 Y-4.4831 I-0.0264 J0.0052 F60.
X2.3458 Y-4.4659 I0.0349 J0.0072
X2.3572 Y-4.456 I0.0142 J-0.0047
G1 X2.3601 Y-4.4554 Z-0.1672
X2.3629 Y-4.4549 Z-0.1664
X2.3654 Y-4.4545 Z-0.165
X2.3676 Y-4.4541 Z-0.1631
X2.3694 Y-4.4537 Z-0.1609
X2.3708 Y-4.4535 Z-0.1583
X2.3716 Y-4.4533 Z-0.1555
X2.3719 Z-0.1526
G0 Z0.6
X4.0327 Y-1.7275
Z0.1
G3 X4.1509 Y-1.6492 Z0.0607 I0.0591 J0.0391 F50.
X4.0327 Y-1.7275 Z0.0215 I-0.0591 J-0.0391
X4.1509 Y-1.6492 Z-0.0178 I0.0591 J0.0391
X4.0327 Y-1.7275 Z-0.057 I-0.0591 J-0.0391
X4.1509 Y-1.6492 Z-0.0963 I0.0591 J0.0391
X4.0327 Y-1.7275 Z-0.1355 I-0.0591 J-0.0391
X4.1627 Y-1.6884 Z-0.1675 I0.0591 J0.0391
X4.0209 I-0.0709 J0.
X4.1627 I0.0709 J0.
X4.1818 Y-1.6305 I-0.0296 J0.0419 F60.
G1 X4.1381 Y-1.6115
X4.123 Y-1.5959
X4.1228 Y-1.5947
G3 X3.9454 Y-1.7139 I-0.0789 J-0.0743
X4.0037 Y-1.8165 I0.105 J-0.0082
G1 X4.0067 Y-1.815
X4.0456 Y-1.7833
X4.0918 Y-1.7937
X4.1138 Y-1.8032
X4.1227 Y-1.804
X4.1316 Y-1.8042
X4.1405 Y-1.8038
X4.1494 Y-1.8029
X4.1582 Y-1.8013
X4.1669 Y-1.7992
X4.1754 Y-1.7966
X4.1837 Y-1.7934
X4.1919 Y-1.7896
X4.1997 Y-1.7853
X4.2072 Y-1.7806
X4.2145 Y-1.7753
X4.2213 Y-1.7696
X4.2278 Y-1.7634
X4.2339 Y-1.7569
X4.2395 Y-1.7499
X4.2447 Y-1.7426
X4.2493 Y-1.735
X4.2535 Y-1.7271
X4.2571 Y-1.719
X4.2602 Y-1.7106
X4.2628 Y-1.702
X4.2648 Y-1.6933
X4.2662 Y-1.6845
X4.267 Y-1.6756
X4.2673 Y-1.6667
G3 X4.1818 Y-1.6305 I-2.0139 J-4.6413
G1 X4.1793 Y-1.6298
X4.1768 Y-1.6295
X4.1742 Y-1.6296
X4.1716 Y-1.6302
X4.1693 Y-1.6313
X4.1671 Y-1.6327
G3 X4.1744 Y-1.6799 I0.0171 J-0.0215
X4.2376 Y-1.6768 I0.0281 J0.0736
X4.2506 Y-1.6687 I-0.0351 J0.0705 F50.
G2 X4.2653 Y-1.6667 I0.0091 J-0.0118
G1 X4.2768 Y-1.6719 F60.
X4.2874 Y-1.6809
X4.2936 Y-1.6869
X4.2989 Y-1.6936
X4.3034 Y-1.7016
X4.3043 Y-1.7031
G2 X4.2733 Y-1.8339 I-0.123 J-0.04
X4.1138 Y-1.8032 I-0.0372 J0.2369
X4.1048 Y-1.7895 I0.0059 J0.0137
X4.1204 Y-1.7746 I0.0149 J0.
G3 X4.122 Y-1.7448 I0.0008 J0.0149
X4.1154 Y-1.746 I-0.0008 J-0.0149
G1 X4.0324 Y-1.7808
G3 X4.0242 Y-1.7895 I0.0058 J-0.0138
G2 X4.0067 Y-1.815 I-0.0585 J0.0214 F50.
G1 X3.9993 Y-1.821 F60.
X3.9921 Y-1.8271
G2 X3.85 Y-1.7039 I-0.0332 J0.1053
G3 X3.9318 Y-1.5831 I-0.0628 J0.1306
G1 X3.9328 Y-1.5745
X3.9345 Y-1.5659
X3.9367 Y-1.5574
X3.9395 Y-1.5491
X3.9429 Y-1.5411
X3.9468 Y-1.5333
X3.9512 Y-1.5258
X3.9562 Y-1.5186
X3.9617 Y-1.5117
X3.9676 Y-1.5053
X3.9739 Y-1.4993
X3.9807 Y-1.4938
X3.9878 Y-1.4887
X3.9953 Y-1.4841
X4.003 Y-1.4801
X4.011 Y-1.4766
X4.0193 Y-1.4737
X4.0277 Y-1.4714
X4.0362 Y-1.4696
X4.0449 Y-1.4685
X4.0536 Y-1.4679
X4.0624 Y-1.468
X4.0711 Y-1.4687
X4.0797 Y-1.4699
X4.0883 Y-1.4718
X4.0966 Y-1.4743
X4.1048 Y-1.4773
X4.1128 Y-1.4809
X4.1136 Y-1.5033
X4.1169 Y-1.5496
X4.1228 Y-1.5947
G2 X4.1167 Y-1.6083 I-0.0149 J-0.0014
X4.078 Y-1.5992 I-0.0154 J0.0214
X4.0688 Y-1.5622 I0.0695 J0.037
X4.0931 Y-1.5053 I0.0787 J0.
X4.1051 Y-1.4959 I0.0545 J-0.0569 F50.
G3 X4.1119 Y-1.4827 I-0.008 J0.0126
G1 X4.1103 Y-1.462 F60.
G3 X3.9209 Y-1.4333 I-0.1035 J-0.0436
G1 X3.9265 Y-1.5033
X3.93 Y-1.5496
X3.9318 Y-1.5831
G3 X3.955 Y-1.5942 I0.0149 J0.0013
G1 X3.9574 Y-1.5926 Z-0.1672
X3.9597 Y-1.591 Z-0.1664
X3.9619 Y-1.5896 Z-0.165
X3.9638 Y-1.5883 Z-0.1631
X3.9653 Y-1.5873 Z-0.1609
X3.9664 Y-1.5865 Z-0.1583
X3.9671 Y-1.586 Z-0.1555
X3.9674 Y-1.5859 Z-0.1526
G0 Z0.4
X3.8923 Y-1.6882
Z-0.1377
G1 Z-0.1526 F50.
X3.892 Y-1.6883 Z-0.1555
X3.8912 Y-1.6884 Z-0.1583
X3.8898 Y-1.6887 Z-0.1609
X3.888 Y-1.689 Z-0.1631
X3.8858 Y-1.6894 Z-0.165
X3.8832 Y-1.6899 Z-0.1664
X3.8805 Y-1.6904 Z-0.1672
X3.8776 Y-1.6909 Z-0.1675
G3 X3.8495 Y-1.7038 I0.0111 J-0.0613
G1 X3.8263 Y-1.724 F60.
X3.8216 Y-1.731
X3.8175 Y-1.7382
X3.8138 Y-1.7458
X3.8107 Y-1.7536
X3.8082 Y-1.7616
X3.8062 Y-1.7698
X3.8049 Y-1.778
X3.8041 Y-1.7864
X3.8039 Y-1.7948
X3.8043 Y-1.8032
X3.8053 Y-1.8115
X3.8068 Y-1.8197
X3.809 Y-1.8278
X3.8117 Y-1.8358
X3.815 Y-1.8435
X3.8188 Y-1.851
X3.8231 Y-1.8581
X3.828 Y-1.865
X3.8333 Y-1.8715
X3.839 Y-1.8776
X3.8452 Y-1.8833
X3.8517 Y-1.8885
X3.8586 Y-1.8933
X3.8658 Y-1.8976
X3.8733 Y-1.9013
X3.8811 Y-1.9045
X3.8891 Y-1.9072
X3.8972 Y-1.9092
G3 X3.9921 Y-1.8271 I-10.1936 J11.88
X3.9964 Y-1.8129 I-0.0102 J0.0109
X3.9803 Y-1.8 I-0.0163 J-0.0038
X3.9005 Y-1.8792 I-0.0011 J-0.0787
X3.9021 Y-1.8944 I0.0787 J0.0004 F50.
G2 X3.8973 Y-1.9085 I-0.0146 J-0.003
G1 X3.8838 Y-1.9197 F60.
X3.8774 Y-1.9251
G2 X3.7194 Y-1.815 I-0.0402 J0.1108
X3.8263 Y-1.724 I18.3084 J-21.3988
X3.841 Y-1.7216 I0.0094 J-0.0116
X3.8543 Y-1.7775 I-0.0124 J-0.0325
X3.7488 Y-1.8148 I-0.0874 J0.0794
X3.7338 Y-1.8115 I0.0181 J0.1167 F50.
G3 X3.7194 Y-1.815 I-0.0042 J-0.0143
G1 X3.7075 Y-1.8271 F60.
X3.6921 Y-1.851
G3 X3.7012 Y-1.9525 I0.0899 J-0.043
X3.728 Y-1.9419 I0.0119 J0.0089
G1 X3.7192 Y-1.858
X3.7187 Y-1.8554
X3.7177 Y-1.8529
G3 X3.6921 Y-1.851 I-0.0134 J-0.0066 F50.
G1 X3.6886 Y-1.8578 F60.
X3.6856 Y-1.8648
X3.6832 Y-1.872
X3.6814 Y-1.8794
X3.6802 Y-1.887
X3.6797 Y-1.8945
X3.6798 Y-1.9022
X3.6805 Y-1.9097
X3.6819 Y-1.9172
X3.6838 Y-1.9246
X3.6864 Y-1.9318
X3.6895 Y-1.9387
X3.6932 Y-1.9454
X3.6975 Y-1.9517
X3.7022 Y-1.9576
X3.7074 Y-1.9632
X3.7131 Y-1.9683
X3.7192 Y-1.9729
X3.7256 Y-1.977
X3.7323 Y-1.9805
X3.7393 Y-1.9835
X3.7466 Y-1.9859
X3.754 Y-1.9877
X3.7615 Y-1.9888
X3.7691 Y-1.9894
X3.7767 Y-1.9893
X3.7843 Y-1.9886
X3.7918 Y-1.9872
X3.7991 Y-1.9853
X3.8063 Y-1.9827
X3.8132 Y-1.9796
X3.8199 Y-1.9759
X3.8262 Y-1.9716
X3.8322 Y-1.9669
X3.8377 Y-1.9617
X3.8428 Y-1.956
X3.8474 Y-1.95
X3.8515 Y-1.9435
X3.855 Y-1.9368
X3.8774 Y-1.9251
G3 X3.8722 Y-1.8999 I-0.0101 J0.011
G1 X3.8694 Y-1.899 Z-0.1672
X3.8668 Y-1.8981 Z-0.1664
X3.8644 Y-1.8973 Z-0.165
X3.8622 Y-1.8965 Z-0.1631
X3.8605 Y-1.8959 Z-0.1609
X3.8592 Y-1.8955 Z-0.1583
X3.8584 Y-1.8952 Z-0.1555
X3.8581 Y-1.8951 Z-0.1526
G0 Z0.4
X4.31 Y-1.7466
Z-0.1377
G1 Z-0.1526 F50.
Y-1.7463 Z-0.1555
Y-1.7455 Z-0.1583
Y-1.7441 Z-0.1609
X4.3101 Y-1.7423 Z-0.1631
Y-1.74 Z-0.165
X4.3102 Y-1.7374 Z-0.1664
X4.3103 Y-1.7346 Z-0.1672
Y-1.7317 Z-0.1675
G3 X4.3034 Y-1.7016 I-0.0623 J0.0015
G1 X4.296 Y-1.6884 F60.
X4.2874 Y-1.6809
G3 X4.2726 Y-1.6787 I-0.0093 J-0.0116
X4.2713 Y-1.691 I0.0025 J-0.0065
G1 X4.2737 Y-1.6923
X4.2762 Y-1.6933
G3 X4.2912 Y-1.6959 I0.0141 J0.0367 F50.
G2 X4.3043 Y-1.7031 I0.0003 J-0.0149
X4.2733 Y-1.8339 I-0.0692 J-0.0527 F60.
X4.2588 Y-1.8293 I-0.0034 J0.0145
G1 X4.2569 Y-1.8271 Z-0.1672
X4.255 Y-1.825 Z-0.1664
X4.2533 Y-1.8231 Z-0.165
X4.2518 Y-1.8214 Z-0.1631
X4.2506 Y-1.82 Z-0.1609
X4.2497 Y-1.819 Z-0.1583
X4.2491 Y-1.8184 Z-0.1555
X4.2489 Y-1.8182 Z-0.1526
G0 Z0.4
X4.0974 Y-1.5057
Z-0.1377
G1 Z-0.1526 F50.
X4.0975 Y-1.5054 Z-0.1555
X4.0979 Y-1.5047 Z-0.1583
X4.0985 Y-1.5034 Z-0.1609
X4.0993 Y-1.5018 Z-0.1631
X4.1003 Y-1.4997 Z-0.165
X4.1014 Y-1.4974 Z-0.1664
X4.1027 Y-1.4949 Z-0.1672
X4.104 Y-1.4923 Z-0.1675
G3 X4.1103 Y-1.462 I-0.0559 J0.0275
G1 X4.1051 Y-1.3981 F60.
X4.1025 Y-1.39
X4.0992 Y-1.3821
X4.0955 Y-1.3744
X4.0912 Y-1.367
X4.0864 Y-1.36
X4.0811 Y-1.3533
X4.0754 Y-1.3469
X4.0692 Y-1.341
X4.0626 Y-1.3356
X4.0557 Y-1.3306
X4.0484 Y-1.3261
X4.0409 Y-1.3222
X4.033 Y-1.3187
X4.025 Y-1.3159
X4.0168 Y-1.3136
X4.0084 Y-1.3119
X3.9999 Y-1.3108
X3.9914 Y-1.3103
X3.9829 Y-1.3104
X3.9744 Y-1.3111
X3.9659 Y-1.3124
X3.9576 Y-1.3142
X3.9494 Y-1.3167
X3.9414 Y-1.3197
X3.9337 Y-1.3233
X3.9262 Y-1.3274
X3.9257 Y-1.3303
X3.9258 Y-1.3331
X3.9264 Y-1.3359
X3.9276 Y-1.3385
X3.9292 Y-1.3409
X3.9312 Y-1.3429
X3.9335 Y-1.3445
X3.9362 Y-1.3456
X3.9389 Y-1.3462
X3.9418 Y-1.3463
X3.9445 Y-1.3458
X3.9474 Y-1.3451 Z-0.1672
X3.9501 Y-1.3444 Z-0.1664
X3.9526 Y-1.3437 Z-0.165
X3.9548 Y-1.3432 Z-0.1631
X3.9566 Y-1.3427 Z-0.1609
X3.9579 Y-1.3424 Z-0.1583
X3.9587 Y-1.3421 Z-0.1555
X3.959 Z-0.1526
G0 Z0.4
X3.9378 Y-1.4671
Z-0.1377
G1 Z-0.1526 F50.
X3.9376 Y-1.4668 Z-0.1555
X3.9371 Y-1.4661 Z-0.1583
X3.9363 Y-1.465 Z-0.1609
X3.9353 Y-1.4635 Z-0.1631
X3.9339 Y-1.4617 Z-0.165
X3.9325 Y-1.4595 Z-0.1664
X3.9308 Y-1.4573 Z-0.1672
X3.9291 Y-1.4549 Z-0.1675
G2 X3.9208 Y-1.4332 I0.0381 J0.027
X4.0012 Y-1.2721 I0.0965 J0.0525 F60.
X4.1051 Y-1.3981 I-0.0033 J-0.1085
X4.098 Y-1.4115 I-0.0149 J-0.0007
G1 X4.0955 Y-1.413 Z-0.1672
X4.0931 Y-1.4145 Z-0.1664
X4.0909 Y-1.4158 Z-0.165
X4.089 Y-1.417 Z-0.1631
X4.0874 Y-1.418 Z-0.1609
X4.0862 Y-1.4187 Z-0.1583
X4.0855 Y-1.4191 Z-0.1555
X4.0852 Y-1.4193 Z-0.1526
G0 Z-0.1377
X4.0481 Y-1.6416
G1 Z-0.1526 F50.
X4.0484 Z-0.1555
X4.0492 Y-1.6414 Z-0.1583
X4.0506 Y-1.641 Z-0.1609
X4.0524 Y-1.6406 Z-0.1631
X4.0546 Y-1.64 Z-0.165
X4.0571 Y-1.6394 Z-0.1664
X4.0598 Y-1.6387 Z-0.1672
X4.0626 Y-1.638 Z-0.1675
G3 X4.1395 Y-1.6093 I-0.094 J0.3691
G1 X4.148 Y-1.5997 F60.
X4.1561 Y-1.5896
X4.1637 Y-1.5793
X4.1708 Y-1.5685
X4.1774 Y-1.5574
X4.1834 Y-1.5461
X4.1889 Y-1.5344
X4.1937 Y-1.5225
X4.1981 Y-1.5104
X4.2018 Y-1.4981
X4.2049 Y-1.4856
X4.2074 Y-1.4729
X4.2093 Y-1.4602
X4.2106 Y-1.4474
X4.2112 Y-1.4346
X4.2113 Y-1.4217
X4.2107 Y-1.4088
X4.2095 Y-1.396
X4.2076 Y-1.3833
X4.2052 Y-1.3706
X4.2021 Y-1.3581
X4.1985 Y-1.3458
X4.1942 Y-1.3336
X4.1894 Y-1.3217
X4.184 Y-1.31
X4.178 Y-1.2986
X4.1715 Y-1.2875
X4.1645 Y-1.2767
X4.1591 Y-1.2677
X4.1531 Y-1.2589
X4.1466 Y-1.2505
X4.1397 Y-1.2425
X4.1322 Y-1.2349
X4.1244 Y-1.2278
X4.1162 Y-1.2211
X4.1076 Y-1.215
X4.0986 Y-1.2093
X4.0893 Y-1.2042
X4.0798 Y-1.1996
X4.07 Y-1.1956
X4.0599 Y-1.1921
X4.0497 Y-1.1893
X4.0394 Y-1.187
X4.0289 Y-1.1854
X4.0183 Y-1.1844
X4.0078 Y-1.184
X3.9972 Y-1.1842
X3.9866 Y-1.185
X3.9761 Y-1.1864
X3.9657 Y-1.1885
X3.9554 Y-1.1911
X3.9453 Y-1.1944
X3.9355 Y-1.1982
X3.9258 Y-1.2026
X3.9164 Y-1.2075
X3.9074 Y-1.213
X3.8987 Y-1.219
X3.8903 Y-1.2255
X3.8823 Y-1.2325
X3.8748 Y-1.24
X3.8677 Y-1.2478
X3.861 Y-1.2561
X3.8549 Y-1.2647
X3.8493 Y-1.2737
X3.8442 Y-1.283
X3.8396 Y-1.2926
X3.8356 Y-1.3024
X3.8322 Y-1.3124
X3.8294 Y-1.3227
X3.8272 Y-1.333
X3.8256 Y-1.3435
X3.8246 Y-1.354
X3.8243 Y-1.3646
X3.8245 Y-1.3752
X3.8254 Y-1.3858
X3.8269 Y-1.3963
X3.8289 Y-1.4067
G2 X3.8221 Y-1.5751 I-1.5588 J-0.0212
G3 X3.5921 Y-1.8451 I0.7264 J-0.8518
X3.9268 Y-2.0012 I0.1829 J-0.0447
G1 X3.9571 Y-1.9869
X3.9809 Y-1.9677
G2 X4.1912 Y-1.9438 I0.1185 J-0.1052
G3 X4.3177 Y-1.587 I0.0243 J0.1922
X4.2912 Y-1.3298 I-2.0572 J-0.0823
G1 X4.2296 Y-1.2158
X4.2228 Y-1.205
X4.2155 Y-1.1946
X4.2076 Y-1.1845
X4.1993 Y-1.1748
X4.1905 Y-1.1655
X4.1813 Y-1.1567
X4.1717 Y-1.1483
X4.1616 Y-1.1404
X4.1512 Y-1.133
X4.1405 Y-1.1262
X4.1294 Y-1.1198
X4.118 Y-1.114
X4.1064 Y-1.1087
X4.0945 Y-1.1041
X4.0824 Y-1.1
X4.0701 Y-1.0965
X4.0577 Y-1.0936
X4.0452 Y-1.0913
X4.0325 Y-1.0896
X4.0198 Y-1.0885
X4.007 Y-1.0881
X3.9942 Y-1.0883
X3.9815 Y-1.0891
X3.9688 Y-1.0905
X3.9562 Y-1.0925
X3.9437 Y-1.0951
X3.9314 Y-1.0984
X3.9192 Y-1.1022
X3.9072 Y-1.1066
X3.8955 Y-1.1116
X3.884 Y-1.1172
X3.8728 Y-1.1233
X3.8619 Y-1.13
X3.8513 Y-1.1372
X3.8411 Y-1.1448
X3.8313 Y-1.153
X3.8219 Y-1.1616
X3.8129 Y-1.1707
X3.8044 Y-1.1802
X3.7964 Y-1.1901
X3.7888 Y-1.2004
X3.7818 Y-1.2111
X3.7431 Y-1.32
G2 X3.7062 Y-1.5434 I-1.9888 J0.2138
G3 X3.6156 Y-1.6409 I2.3107 J-2.2357
X3.6317 Y-1.661 I0.0139 J-0.0053
G1 X3.6345 Y-1.6606 Z-0.1672
X3.6373 Y-1.6602 Z-0.1664
X3.6399 Y-1.6598 Z-0.165
X3.6421 Y-1.6595 Z-0.1631
X3.6439 Y-1.6593 Z-0.1609
X3.6453 Y-1.6591 Z-0.1583
X3.6461 Y-1.6589 Z-0.1555
X3.6464 Z-0.1526
G0 Z0.4
X3.7725 Y-1.2853
Z-0.1377
G1 Z-0.1526 F50.
X3.7722 Y-1.2855 Z-0.1555
X3.7716 Y-1.286 Z-0.1583
X3.7705 Y-1.2869 Z-0.1609
X3.7691 Y-1.2881 Z-0.1631
X3.7674 Y-1.2895 Z-0.165
X3.7654 Y-1.2912 Z-0.1664
X3.7633 Y-1.293 Z-0.1672
X3.761 Y-1.2949 Z-0.1675
G3 X3.7431 Y-1.32 I0.0401 J-0.0477
G1 X3.7108 Y-1.4127 F60.
X3.7034 Y-1.432
X3.6142 Y-1.6442
X3.6107 Y-1.6523
X3.5181 Y-1.8393
G3 X3.7283 Y-2.1669 I0.2387 J-0.0781
G1 X3.9312 Y-2.1074
G2 X4.1039 Y-2.0308 I0.2488 J-0.3276
G3 X4.1781 Y-2.035 I0.0482 J0.1925
X4.17 Y-2.0063 I-0.0042 J0.0143
G1 X3.9001 Y-2.0785
G3 X3.9003 Y-2.1074 I0.0039 J-0.0144
X3.9312 I0.0155 J0.0604 F50.
G1 X4.3517 Y-1.9841 F60.
G3 X4.502 Y-1.7142 I-0.0903 J0.227
G1 X4.2919 Y-1.3297
G3 X4.2811 Y-1.3225 I-0.0128 J-0.0076
G1 X4.2637 Y-1.3201
X3.7921 Y-1.2534
G2 X3.7796 Y-1.2416 I0.0021 J0.0148
X3.7812 Y-1.2107 I0.0611 J0.0124 F50.
G1 X3.7834 Y-1.2042 F60.
X3.7909 Y-1.1811
X3.8123 Y-1.1046
G2 X4.1187 Y-1.0129 I0.2082 J-0.1379
G1 X4.2296 Y-1.2158
G2 X4.2288 Y-1.2307 I-0.0133 J-0.0067
X4.1605 Y-1.2441 I-0.0407 J0.0267
X4.1101 Y-1.041 I0.089 J0.1299
X4.1179 Y-1.0278 I0.1394 J-0.0732 F50.
G3 X4.1187 Y-1.0129 I-0.0125 J0.0082
G1 X4.0904 Y-0.9611 F60.
G3 X3.8587 Y-0.9354 I-0.1319 J-0.1316
G1 X3.8556 Y-0.9495
X3.8493 Y-0.9727
X3.8123 Y-1.1046
G3 X3.8165 Y-1.1189 I0.0145 J-0.0035
X3.8782 Y-1.1155 I0.0292 J0.0306
X3.8748 Y-0.96 I-0.0906 J0.0758
X3.8637 Y-0.9494 I-0.0872 J-0.0797 F50.
G2 X3.8587 Y-0.9354 I0.0096 J0.0114
G1 X3.8671 Y-0.8962 F60.
X3.8707 Y-0.8884
X3.8749 Y-0.8809
X3.8796 Y-0.8737
X3.8848 Y-0.8668
X3.8905 Y-0.8603
X3.8965 Y-0.8542
X3.903 Y-0.8485
X3.9098 Y-0.8433
X3.917 Y-0.8385
X3.9245 Y-0.8342
X3.9322 Y-0.8305
X3.9402 Y-0.8273
X3.9484 Y-0.8246
X3.9567 Y-0.8225
X3.9652 Y-0.821
X3.9738 Y-0.8201
X3.9824 Y-0.8197
X3.991 Y-0.8199
X3.9995 Y-0.8207
X4.008 Y-0.8221
X4.0164 Y-0.8241
X4.0904 Y-0.9611
G2 X4.0896 Y-0.976 I-0.0133 J-0.0067
X4.0224 Y-0.9794 I-0.0348 J0.0229
X4.0077 Y-0.8533 I0.0916 J0.0745
X4.0153 Y-0.84 I0.1063 J-0.0515 F50.
G3 X4.0161 Y-0.8251 I-0.0125 J0.0082
G1 X3.9995 Y-0.7947 F60.
G3 X3.8937 Y-0.7659 I-0.0708 J-0.0512
G1 X3.8933 Y-0.7688
X3.8934 Y-0.7717
X3.8941 Y-0.7746
X3.8952 Y-0.7772
X3.8968 Y-0.7795
X3.8988 Y-0.7815
X3.9011 Y-0.7831
X3.9036 Y-0.7842
X3.9134 Y-0.7882
X3.9806 Y-0.8152
X3.9831 Y-0.816
X3.9856 Y-0.8163
G3 X3.9995 Y-0.7947 I0.0005 J0.0149 F50.
G1 X3.9635 Y-0.7289 F60.
G3 X3.9209 Y-0.6992 I-0.0371 J-0.0078
X3.9173 Y-0.7226 I0.0071 J-0.0131
G1 X3.9197 Y-0.7252
X3.9394 Y-0.7459
G3 X3.9497 Y-0.7505 I0.0108 J0.0103
X3.9635 Y-0.7289 I0.0005 J0.0149 F50.
X3.8981 Y-0.73 I-0.0327 J-0.0006 F60.
X3.9002 Y-0.7411 I0.0327 J0.0006
G1 X3.8671 Y-0.8962
G3 X3.8865 Y-0.9129 I0.0147 J-0.0026
G1 X3.8893 Y-0.912 Z-0.1672
X3.8919 Y-0.9111 Z-0.1664
X3.8944 Y-0.9103 Z-0.165
X3.8965 Y-0.9095 Z-0.1631
X3.8983 Y-0.9089 Z-0.1609
X3.8996 Y-0.9085 Z-0.1583
X3.9004 Y-0.9082 Z-0.1555
X3.9007 Y-0.9081 Z-0.1526
G0 Z-0.1377
X4.3064 Y-1.9804
G1 Z-0.1526 F50.
X4.3066 Z-0.1555
X4.3075 Y-1.9807 Z-0.1583
X4.3088 Y-1.981 Z-0.1609
X4.3106 Y-1.9815 Z-0.1631
X4.3128 Y-1.982 Z-0.165
X4.3153 Y-1.9827 Z-0.1664
X4.318 Y-1.9834 Z-0.1672
X4.3208 Y-1.9841 Z-0.1675
G3 X4.3517 I0.0155 J0.0604
G1 X4.4907 Y-1.9434 F60.
G3 X4.579 Y-1.8529 I-0.0436 J0.1309
G1 X4.5774 Y-1.8505
X4.5753 Y-1.8484
X4.573 Y-1.8467
X4.5704 Y-1.8455
X4.5676 Y-1.8449
X4.5648 Y-1.8447
X4.562 Y-1.845
X4.5594 Y-1.8459
X4.5569 Y-1.8472
X4.5548 Y-1.8489
X4.5513 Y-1.852
G3 X4.4725 Y-1.9252 I0.0488 J-0.1315
X4.4907 Y-1.9434 I0.0145 J-0.0037 F50.
G1 X4.5883 Y-1.9147 F60.
X4.5982 Y-1.9097
X4.5986 Y-1.9094
X4.6003 Y-1.9076
X4.6007 Y-1.907
X4.6017 Y-1.9046
G3 X4.5982 Y-1.8903 I-0.0198 J0.0027
G1 X4.502 Y-1.7142
G3 X4.4763 I-0.0128 J-0.0076
G1 X4.4748 Y-1.7167 Z-0.1672
X4.4734 Y-1.7192 Z-0.1664
X4.4721 Y-1.7214 Z-0.165
X4.471 Y-1.7233 Z-0.1631
X4.47 Y-1.7249 Z-0.1609
X4.4693 Y-1.7261 Z-0.1583
X4.4689 Y-1.7268 Z-0.1555
X4.4687 Y-1.7271 Z-0.1526
G0 Z-0.1377
X3.7645 Y-2.1393
G1 Z-0.1526 F50.
X3.7643 Y-2.1395 Z-0.1555
X3.7637 Y-2.1401 Z-0.1583
X3.7628 Y-2.1411 Z-0.1609
X3.7615 Y-2.1425 Z-0.1631
X3.76 Y-2.1441 Z-0.165
X3.7582 Y-2.146 Z-0.1664
X3.7563 Y-2.1481 Z-0.1672
X3.7544 Y-2.1502 Z-0.1675
G2 X3.7283 Y-2.1669 I-0.0456 J0.0424
G1 X3.6443 Y-2.1915 F60.
G2 X3.4218 Y-2.0112 I-0.0059 J0.2202
G1 X3.4998 Y-1.8758
X3.5115 Y-1.8527
X3.5181 Y-1.8393
G2 X3.5308 Y-1.8314 I0.0131 J-0.0071
X3.5489 Y-1.8435 I0.0006 J-0.0188
X3.4503 Y-2.0037 I-0.1101 J-0.0427
X3.435 Y-2.0042 I-0.0114 J0.1176 F50.
G3 X3.4218 Y-2.0112 I-0.0005 J-0.0149
G1 X3.3973 Y-2.0539 F60.
G3 X3.3898 Y-2.1205 I0.0881 J-0.0436
X3.4177 Y-2.1154 I0.0131 J0.0072
X3.4229 Y-2.0545 I-0.0646 J0.0363
X3.3973 Y-2.0539 I-0.013 J-0.0073 F50.
X3.4068 Y-2.1537 I0.0452 J-0.0461 F60.
G1 X3.4123 Y-2.1665
G3 X3.4786 Y-2.2401 I0.0782 J0.0037
X3.4859 Y-2.2171 I-0.0047 J0.0142
G1 X3.4843 Y-2.2149
X3.4382 Y-2.1522
G3 X3.4281 Y-2.1462 I-0.012 J-0.0088
X3.4123 Y-2.1665 I-0.0019 J-0.0148 F50.
X3.4438 Y-2.2468 I0.093 J-0.0098 F60.
X3.4718 Y-2.2421 I0.0093 J0.0306
G1 X3.6443 Y-2.1915
G3 X3.6498 Y-2.1664 I-0.0047 J0.0142
G1 X3.6477 Y-2.1645 Z-0.1672
X3.6456 Y-2.1626 Z-0.1664
X3.6437 Y-2.1608 Z-0.165
X3.6421 Y-2.1593 Z-0.1631
X3.6407 Y-2.158 Z-0.1609
X3.6397 Y-2.1571 Z-0.1583
X3.6391 Y-2.1565 Z-0.1555
X3.6389 Y-2.1563 Z-0.1526
G0 Z0.6
X4.5415 Y-0.016
Z0.1
G3 X4.6597 Y0.0623 Z0.0607 I0.0591 J0.0391 F50.
X4.5415 Y-0.016 Z0.0215 I-0.0591 J-0.0391
X4.6597 Y0.0623 Z-0.0178 I0.0591 J0.0391
X4.5415 Y-0.016 Z-0.057 I-0.0591 J-0.0391
X4.6597 Y0.0623 Z-0.0963 I0.0591 J0.0391
X4.5415 Y-0.016 Z-0.1355 I-0.0591 J-0.0391
X4.6715 Y0.0231 Z-0.1675 I0.0591 J0.0391
X4.5297 I-0.0709 J0.
X4.6715 I0.0709 J0.
X4.6836 Y0.0509 I-0.0308 J0.03 F60.
G1 X4.6813 Y0.0694
X4.683 Y0.0764
X4.6826 Y0.0841
X4.6817 Y0.0918
X4.6801 Y0.0993
X4.678 Y0.1067
X4.6753 Y0.114
X4.672 Y0.121
X4.6683 Y0.1277
X4.664 Y0.1342
X4.6592 Y0.1402
X4.654 Y0.1459
X4.6484 Y0.1512
X4.6424 Y0.1561
X4.636 Y0.1604
X4.6293 Y0.1643
X4.6224 Y0.1676
X4.6152 Y0.1704
X4.6078 Y0.1727
X4.6002 Y0.1743
X4.5926 Y0.1754
X4.5849 Y0.1759
X4.5772 Y0.1758
X4.5695 Y0.1751
X4.5619 Y0.1738
X4.5544 Y0.172
X4.547 Y0.1696
X4.5399 Y0.1666
X4.533 Y0.1631
X4.5264 Y0.159
X4.5202 Y0.1545
X4.5143 Y0.1495
X4.5088 Y0.1441
G3 X4.5111 Y-0.0508 I0.3416 J-0.0934
X4.7058 Y-0.0884 I0.1077 J0.0347
G2 X4.6836 Y0.0509 I17.4576 J2.854
G3 X4.6742 Y0.0625 I-0.0147 J-0.0024
X4.62 Y0.0202 I-0.0143 J-0.0375
X4.6818 Y-0.0701 I0.1173 J0.0139
X4.6957 Y-0.0764 I0.0555 J0.1042 F50.
G2 X4.7052 Y-0.0879 I-0.0053 J-0.014
G1 X4.7088 Y-0.1156 F60.
X4.7073 Y-0.1239
X4.7052 Y-0.1321
X4.7025 Y-0.14
X4.6993 Y-0.1478
X4.6954 Y-0.1553
X4.6911 Y-0.1625
X4.6862 Y-0.1693
X4.6808 Y-0.1758
X4.675 Y-0.1818
X4.6687 Y-0.1875
X4.6621 Y-0.1926
X4.6551 Y-0.1973
X4.6477 Y-0.2014
X4.6401 Y-0.205
X4.6323 Y-0.208
X4.6242 Y-0.2104
X4.616 Y-0.2122
X4.6077 Y-0.2135
X4.5993 Y-0.2141
X4.5909
X4.5825 Y-0.2135
X4.5742 Y-0.2122
X4.566 Y-0.2104
X4.5579 Y-0.208
X4.5501 Y-0.205
X4.5425 Y-0.2014
X4.5351 Y-0.1972
X4.5281 Y-0.1926
G3 X4.5111 Y-0.0508 I-1.2765 J-0.0812
G2 X4.5169 Y-0.037 I0.0148 J0.0019
X4.59 Y-0.0697 I0.0277 J-0.0363
X4.5478 Y-0.1699 I-0.1177 J-0.0094
X4.5354 Y-0.1789 I-0.0755 J0.0908 F50.
G3 X4.5285 Y-0.1921 I0.008 J-0.0126
G1 X4.5297 Y-0.2082 F60.
X4.5311 Y-0.2209
X4.5349 Y-0.2286
X4.5392 Y-0.2359
X4.5441 Y-0.243
X4.5495 Y-0.2497
X4.5554 Y-0.2559
X4.5617 Y-0.2617
X4.5684 Y-0.2671
X4.5754 Y-0.2719
X4.5828 Y-0.2762
X4.5905 Y-0.28
X4.5985 Y-0.2832
X4.6067 Y-0.2858
X4.615 Y-0.2878
X4.6234 Y-0.2892
X4.632 Y-0.29
X4.6406 Y-0.2901
X4.6491 Y-0.2896
X4.6576 Y-0.2885
X4.666 Y-0.2868
X4.6743 Y-0.2845
X4.6823 Y-0.2816
X4.6901 Y-0.2781
X4.6977 Y-0.274
X4.7049 Y-0.2694
X4.7118 Y-0.2643
X4.7183 Y-0.2587
X4.7244 Y-0.2527
X4.7171 Y-0.2082
X4.7135 Y-0.1619
X4.7088 Y-0.1156
G3 X4.6917 Y-0.1034 I-0.0147 J-0.0024
X4.6671 Y-0.1285 I0.0049 J-0.0293
X4.7027 Y-0.2307 I0.1169 J-0.0166
X4.7176 Y-0.2427 I0.0814 J0.0856 F50.
G2 X4.7239 Y-0.2523 I-0.0084 J-0.0123
G1 X4.7242 Y-0.2544 F60.
X4.7284 Y-0.2722
G2 X4.5568 Y-0.3578 I-0.1121 J0.0099
X4.5311 Y-0.2209 I0.9199 J0.2435
X4.5376 Y-0.2074 I0.0149 J0.0011
X4.6024 Y-0.2356 I0.0235 J-0.0345
X4.5729 Y-0.3331 I-0.1167 J-0.0179
X4.5619 Y-0.3438 I-0.0873 J0.0796 F50.
G3 X4.5568 Y-0.3578 I0.0096 J-0.0114
G1 X4.5628 Y-0.3856 F60.
X4.5671 Y-0.3929
X4.572 Y-0.3999
X4.5774 Y-0.4066
X4.5833 Y-0.4128
X4.5895 Y-0.4186
X4.5962 Y-0.4239
X4.6033 Y-0.4287
X4.6107 Y-0.4329
X4.6184 Y-0.4367
X4.6263 Y-0.4398
X4.6344 Y-0.4424
X4.6427 Y-0.4443
X4.6512 Y-0.4457
X4.6597 Y-0.4464
X4.6682 Y-0.4465
X4.6767 Y-0.446
X4.6852 Y-0.4449
X4.6935 Y-0.4431
X4.7018 Y-0.4408
X4.7098 Y-0.4379
X4.7175 Y-0.4343
X4.725 Y-0.4303
X4.7322 Y-0.4256
X4.739 Y-0.4205
X4.7455 Y-0.4149
X4.7515 Y-0.4088
X4.757 Y-0.4023
G3 X4.7284 Y-0.2722 I-6.0324 J-1.2583
X4.7011 Y-0.2687 I-0.0144 J-0.0039
X4.6944 Y-0.295 I0.044 J-0.0252
X4.7346 Y-0.3814 I0.1181 J0.0025
X4.75 Y-0.3928 I0.0778 J0.0889 F50.
G2 X4.7567 Y-0.4021 I-0.0079 J-0.0127
G1 X4.7616 Y-0.427 F60.
X4.7605 Y-0.4352
X4.7589 Y-0.4433
X4.7567 Y-0.4513
X4.7539 Y-0.4591
X4.7506 Y-0.4666
X4.7468 Y-0.474
X4.7424 Y-0.481
X4.7376 Y-0.4877
X4.7323 Y-0.494
X4.7265 Y-0.5
X4.7204 Y-0.5055
X4.7139 Y-0.5106
X4.707 Y-0.5152
X4.6998 Y-0.5193
X4.6924 Y-0.5229
X4.6847 Y-0.5259
X4.6768 Y-0.5284
X4.6688 Y-0.5303
X4.6606 Y-0.5317
X4.6524 Y-0.5324
X4.6441 Y-0.5326
X4.6359 Y-0.5322
X4.6277 Y-0.5312
X4.6196 Y-0.5296
X4.6116 Y-0.5275
X4.6038 Y-0.5247
X4.5962 Y-0.5215
X4.5888 Y-0.5177
X4.5739 Y-0.4394
X4.5644 Y-0.3932
X4.5628 Y-0.3856
G2 X4.5749 Y-0.3683 I0.0147 J0.0026
X4.6 Y-0.3804 I0.0042 J-0.0235
X4.6018 Y-0.4896 I-0.1038 J-0.0563
X4.5918 Y-0.506 I-0.1056 J0.0529 F50.
G3 X4.5892 Y-0.5171 I0.0121 J-0.0088
G1 X4.5921 Y-0.532 F60.
X4.5944 Y-0.5432
X4.5988 Y-0.5505
X4.6036 Y-0.5575
X4.609 Y-0.5641
X4.6148 Y-0.5704
X4.6211 Y-0.5761
X4.6278 Y-0.5814
X4.6348 Y-0.5862
X4.6422 Y-0.5905
X4.6498 Y-0.5942
X4.6578 Y-0.5973
X4.6659 Y-0.5999
X4.6742 Y-0.6019
X4.6826 Y-0.6032
X4.6911 Y-0.6039
X4.6996 Y-0.604
X4.7081 Y-0.6035
X4.7166 Y-0.6024
X4.7249 Y-0.6006
X4.7331 Y-0.5983
X4.7411 Y-0.5953
X4.7488 Y-0.5918
X4.7563 Y-0.5877
X4.7635 Y-0.5831
X4.7703 Y-0.578
X4.7767 Y-0.5724
X4.7827 Y-0.5663
X4.7882 Y-0.5598
X4.7825 Y-0.532
X4.7731 Y-0.4857
X4.7616 Y-0.427
G3 X4.7437 Y-0.4159 I-0.0145 J-0.0034
X4.7267 Y-0.4345 I0.005 J-0.0216
X4.7659 Y-0.5389 I0.1171 J-0.0156
X4.7813 Y-0.5503 I0.0779 J0.0888 F50.
G2 X4.7879 Y-0.5596 I-0.0079 J-0.0127
G1 X4.7929 Y-0.5852 F60.
X4.7917 Y-0.5937
X4.7899 Y-0.602
X4.7875 Y-0.6103
X4.7845 Y-0.6183
