%
(971-23-P-0058_DISTAL SPROCKET_1537V2)
(T1  D=0.1537 CR=0. - ZMIN=-0.2075 - FLAT END MILL)
G90 G94 G17 G91.1
G64 P0.001 Q0.001
G20
G53 G0 Z0.
(.3 CIRCLUAR THROUGH HOLE)
M9
T1 M6
S22000 M3
G4 P10.
G54
M7
G0 X3.8007 Y-0.3175
G43 Z0.6 H1
G0 Z0.13
G1 Z0.0654 F40.
G19 G2 Y-0.3329 Z0.05 J-0.0154 K0.
G1 Y-0.3406
G17 G3 X3.8092 Y-0.349 I0.0085 J0.
Y-0.3152 Z0. I0. J0.0169
Y-0.349 Z-0.05 I0. J-0.0169
Y-0.3152 Z-0.1 I0. J0.0169
Y-0.349 Z-0.15 I0. J-0.0169
Y-0.3152 Z-0.2 I0. J0.0169
X3.8015 Y-0.3171 Z-0.2075 I0. J-0.0169
X3.8169 Y-0.3472 I0.0077 J-0.0151
X3.8015 Y-0.3171 I-0.0077 J0.0151
X3.7978 Y-0.3284 I0.0038 J-0.0075
G1 X3.8013 Y-0.3353
X3.8027 Y-0.3379 Z-0.2072
X3.804 Y-0.3405 Z-0.2063
X3.8052 Y-0.3429 Z-0.2049
X3.8062 Y-0.3449 Z-0.203
X3.8071 Y-0.3467 Z-0.2007
X3.8078 Y-0.3479 Z-0.198
X3.8082 Y-0.3487 Z-0.1951
X3.8083 Y-0.349 Z-0.1921
G0 Z0.4
X3.6746 Y0.8526
Z0.0092
G1 Z-0.0554 F40.
G19 G2 Y0.8373 Z-0.0708 J-0.0154 K0.
G1 Y0.8296
G17 G3 X3.6864 Y0.8178 I0.0118 J0.
Y0.8651 Z-0.1208 I0. J0.0236
Y0.8178 Z-0.1708 I0. J-0.0236
X3.704 Y0.8573 Z-0.2075 I0. J0.0236
X3.6689 Y0.8255 I-0.0175 J-0.0159
X3.704 Y0.8573 I0.0175 J0.0159
X3.6873 Y0.8581 I-0.0088 J-0.0079
G1 X3.6816 Y0.853
X3.6794 Y0.8509 Z-0.2072
X3.6772 Y0.849 Z-0.2063
X3.6752 Y0.8472 Z-0.2049
X3.6735 Y0.8457 Z-0.203
X3.6721 Y0.8444 Z-0.2007
X3.6711 Y0.8434 Z-0.198
X3.6704 Y0.8428 Z-0.1951
X3.6702 Y0.8426 Z-0.1921
G0 Z0.4
X2.9479 Y2.3722
Z0.13
G1 Z0.0654 F40.
G19 G2 Y2.3568 Z0.05 J-0.0154 K0.
G1 Y2.3491
G17 G3 X2.9563 Y2.3407 I0.0085 J0.
Y2.3745 Z0. I0. J0.0169
Y2.3407 Z-0.05 I0. J-0.0169
Y2.3745 Z-0.1 I0. J0.0169
Y2.3407 Z-0.15 I0. J-0.0169
Y2.3745 Z-0.2 I0. J0.0169
X2.9486 Y2.3726 Z-0.2075 I0. J-0.0169
X2.964 Y2.3425 I0.0077 J-0.0151
X2.9486 Y2.3726 I-0.0077 J0.0151
X2.9449 Y2.3613 I0.0038 J-0.0075
G1 X2.9484 Y2.3544
X2.9498 Y2.3517 Z-0.2072
X2.9511 Y2.3492 Z-0.2063
X2.9523 Y2.3468 Z-0.2049
X2.9534 Y2.3447 Z-0.203
X2.9542 Y2.343 Z-0.2007
X2.9549 Y2.3418 Z-0.198
X2.9553 Y2.341 Z-0.1951
X2.9554 Y2.3407 Z-0.1921
G0 Z0.4
X1.6288 Y3.418
Z0.0092
G1 Z-0.0554 F40.
G19 G2 Y3.4026 Z-0.0708 J-0.0154 K0.
G1 Y3.395
G17 G3 X1.6406 Y3.3831 I0.0118 J0.
Y3.4304 Z-0.1208 I0. J0.0236
Y3.3831 Z-0.1708 I0. J-0.0236
X1.6582 Y3.4227 Z-0.2075 I0. J0.0237
X1.6231 Y3.3909 I-0.0175 J-0.0159
X1.6582 Y3.4227 I0.0175 J0.0159
X1.6415 Y3.4235 I-0.0088 J-0.0079
G1 X1.6358 Y3.4183
X1.6335 Y3.4163 Z-0.2072
X1.6314 Y3.4144 Z-0.2063
X1.6294 Y3.4126 Z-0.2049
X1.6277 Y3.411 Z-0.203
X1.6263 Y3.4098 Z-0.2007
X1.6252 Y3.4088 Z-0.198
X1.6246 Y3.4082 Z-0.1951
X1.6244 Y3.408 Z-0.1921
G0 Z0.4
X-0.0118 Y3.8482
Z0.13
G1 Z0.0654 F40.
G19 G2 Y3.8329 Z0.05 J-0.0154 K0.
G1 Y3.8252
G17 G3 X0. Y3.8134 I0.0118 J0.
Y3.8606 Z0. I0. J0.0236
Y3.8134 Z-0.05 I0. J-0.0236
Y3.8606 Z-0.1 I0. J0.0236
Y3.8134 Z-0.15 I0. J-0.0236
Y3.8606 Z-0.2 I0. J0.0236
X-0.0107 Y3.8581 Z-0.2075 I0. J-0.0236
X0.0107 Y3.8159 I0.0107 J-0.0211
X-0.0107 Y3.8581 I-0.0107 J0.0211
X-0.0159 Y3.8422 I0.0054 J-0.0105
G1 X-0.0124 Y3.8353
X-0.0111 Y3.8326 Z-0.2072
X-0.0097 Y3.8301 Z-0.2063
X-0.0085 Y3.8277 Z-0.2049
X-0.0075 Y3.8256 Z-0.203
X-0.0066 Y3.8239 Z-0.2007
X-0.006 Y3.8227 Z-0.198
X-0.0056 Y3.8219 Z-0.1951
X-0.0054 Y3.8216 Z-0.1921
G0 Z0.4
X-1.6524 Y3.418
Z0.0092
G1 Z-0.0554 F40.
G19 G2 Y3.4026 Z-0.0708 J-0.0154 K0.
G1 Y3.395
G17 G3 X-1.6406 Y3.3831 I0.0118 J0.
Y3.4304 Z-0.1208 I0. J0.0236
Y3.3831 Z-0.1708 I0. J-0.0236
X-1.6231 Y3.4227 Z-0.2075 I0. J0.0237
X-1.6582 Y3.3909 I-0.0175 J-0.0159
X-1.6231 Y3.4227 I0.0175 J0.0159
X-1.6398 Y3.4235 I-0.0088 J-0.0079
G1 X-1.6455 Y3.4183
X-1.6477 Y3.4163 Z-0.2072
X-1.6499 Y3.4144 Z-0.2063
X-1.6518 Y3.4126 Z-0.2049
X-1.6535 Y3.411 Z-0.203
X-1.655 Y3.4098 Z-0.2007
X-1.656 Y3.4088 Z-0.198
X-1.6567 Y3.4082 Z-0.1951
X-1.6569 Y3.408 Z-0.1921
G0 Z0.4
X-2.9648 Y2.3722
Z0.13
G1 Z0.0654 F40.
G19 G2 Y2.3568 Z0.05 J-0.0154 K0.
G1 Y2.3491
G17 G3 X-2.9563 Y2.3407 I0.0085 J0.
Y2.3745 Z0. I0. J0.0169
Y2.3407 Z-0.05 I0. J-0.0169
Y2.3745 Z-0.1 I0. J0.0169
Y2.3407 Z-0.15 I0. J-0.0169
Y2.3745 Z-0.2 I0. J0.0169
X-2.964 Y2.3726 Z-0.2075 I0. J-0.0169
X-2.9486 Y2.3425 I0.0077 J-0.0151
X-2.964 Y2.3726 I-0.0077 J0.0151
X-2.9677 Y2.3613 I0.0038 J-0.0075
G1 X-2.9642 Y2.3544
X-2.9628 Y2.3517 Z-0.2072
X-2.9615 Y2.3492 Z-0.2063
X-2.9603 Y2.3468 Z-0.2049
X-2.9592 Y2.3447 Z-0.203
X-2.9584 Y2.343 Z-0.2007
X-2.9577 Y2.3418 Z-0.198
X-2.9573 Y2.341 Z-0.1951
X-2.9572 Y2.3407 Z-0.1921
G0 Z0.4
X-3.6983 Y0.8526
Z0.0092
G1 Z-0.0554 F40.
G19 G2 Y0.8373 Z-0.0708 J-0.0154 K0.
G1 Y0.8296
G17 G3 X-3.6864 Y0.8178 I0.0118 J0.
Y0.8651 Z-0.1208 I0. J0.0236
Y0.8178 Z-0.1708 I0. J-0.0237
X-3.6689 Y0.8573 Z-0.2075 I0. J0.0237
X-3.704 Y0.8255 I-0.0175 J-0.0159
X-3.6689 Y0.8573 I0.0175 J0.0159
X-3.6856 Y0.8581 I-0.0088 J-0.0079
G1 X-3.6913 Y0.853
X-3.6935 Y0.8509 Z-0.2072
X-3.6957 Y0.849 Z-0.2063
X-3.6976 Y0.8472 Z-0.2049
X-3.6994 Y0.8457 Z-0.203
X-3.7008 Y0.8444 Z-0.2007
X-3.7018 Y0.8434 Z-0.198
X-3.7025 Y0.8428 Z-0.1951
X-3.7027 Y0.8426 Z-0.1921
G0 Z0.4
X-3.8176 Y-0.3175
Z0.13
G1 Z0.0654 F40.
G19 G2 Y-0.3329 Z0.05 J-0.0154 K0.
G1 Y-0.3406
G17 G3 X-3.8092 Y-0.349 I0.0085 J0.
Y-0.3152 Z0. I0. J0.0169
Y-0.349 Z-0.05 I0. J-0.0169
Y-0.3152 Z-0.1 I0. J0.0169
Y-0.349 Z-0.15 I0. J-0.0169
Y-0.3152 Z-0.2 I0. J0.0169
X-3.8169 Y-0.3171 Z-0.2075 I0. J-0.0169
X-3.8015 Y-0.3472 I0.0077 J-0.0151
X-3.8169 Y-0.3171 I-0.0077 J0.0151
X-3.8205 Y-0.3284 I0.0038 J-0.0075
G1 X-3.8171 Y-0.3353
X-3.8157 Y-0.3379 Z-0.2072
X-3.8144 Y-0.3405 Z-0.2063
X-3.8132 Y-0.3429 Z-0.2049
X-3.8121 Y-0.3449 Z-0.203
X-3.8113 Y-0.3467 Z-0.2007
X-3.8106 Y-0.3479 Z-0.198
X-3.8102 Y-0.3487 Z-0.1951
X-3.8101 Y-0.349 Z-0.1921
G0 Z0.4
X-2.9681 Y-2.3463
Z0.0092
G1 Z-0.0554 F40.
G19 G2 Y-2.3617 Z-0.0708 J-0.0154 K0.
G1 Y-2.3694
G17 G3 X-2.9563 Y-2.3812 I0.0118 J0.
Y-2.3339 Z-0.1208 I0. J0.0237
Y-2.3812 Z-0.1708 I0. J-0.0236
X-2.9388 Y-2.3417 Z-0.2075 I0. J0.0236
X-2.9738 Y-2.3734 I-0.0175 J-0.0159
X-2.9388 Y-2.3417 I0.0175 J0.0159
X-2.9555 Y-2.3409 I-0.0088 J-0.0079
G1 X-2.9612 Y-2.346
X-2.9634 Y-2.348 Z-0.2072
X-2.9655 Y-2.35 Z-0.2063
X-2.9675 Y-2.3518 Z-0.2049
X-2.9692 Y-2.3533 Z-0.203
X-2.9706 Y-2.3546 Z-0.2007
X-2.9717 Y-2.3556 Z-0.198
X-2.9723 Y-2.3561 Z-0.1951
X-2.9726 Y-2.3563 Z-0.1921
G0 Z0.4
X-1.6491 Y-3.3922
Z0.13
G1 Z0.0654 F40.
G19 G2 Y-3.4076 Z0.05 J-0.0154 K0.
G1 Y-3.4152
G17 G3 X-1.6406 Y-3.4237 I0.0085 J0.
Y-3.3899 Z0. I0. J0.0169
X-1.6539 Y-3.3963 Z-0.0144 I0. J-0.0169
X-1.6274 Y-3.4173 Z-0.0644 I0.0133 J-0.0105
X-1.6242 Y-3.4028 Z-0.0788 I-0.0133 J0.0105
X-1.6571 Y-3.4107 Z-0.1287 I-0.0164 J-0.0039
X-1.6242 Y-3.4028 Z-0.1787 I0.0164 J0.0039
X-1.6483 Y-3.3917 Z-0.2075 I-0.0164 J-0.0039
X-1.633 Y-3.4218 I0.0077 J-0.0151
X-1.6483 Y-3.3917 I-0.0077 J0.0151
X-1.652 Y-3.4031 I0.0038 J-0.0075
G1 X-1.6485 Y-3.4099
X-1.6471 Y-3.4126 Z-0.2072
X-1.6458 Y-3.4152 Z-0.2063
X-1.6446 Y-3.4176 Z-0.2049
X-1.6436 Y-3.4196 Z-0.203
X-1.6427 Y-3.4213 Z-0.2007
X-1.6421 Y-3.4226 Z-0.198
X-1.6417 Y-3.4234 Z-0.1951
X-1.6415 Y-3.4236 Z-0.1921
G0 Z0.4
X-0.0118 Y-3.77
Z0.0092
G1 Z-0.0554 F40.
G19 G2 Y-3.7854 Z-0.0708 J-0.0154 K0.
G1 Y-3.7931
G17 G3 X0. Y-3.8049 I0.0118 J0.
Y-3.7576 Z-0.1208 I0. J0.0237
Y-3.8049 Z-0.1708 I0. J-0.0237
X0.0175 Y-3.7654 Z-0.2075 I0. J0.0236
X-0.0175 Y-3.7971 I-0.0175 J-0.0159
X0.0175 Y-3.7654 I0.0175 J0.0159
X0.0008 Y-3.7645 I-0.0088 J-0.0079
G1 X-0.0049 Y-3.7697
X-0.0071 Y-3.7717 Z-0.2072
X-0.0092 Y-3.7737 Z-0.2063
X-0.0112 Y-3.7754 Z-0.2049
X-0.0129 Y-3.777 Z-0.203
X-0.0143 Y-3.7783 Z-0.2007
X-0.0154 Y-3.7792 Z-0.198
X-0.016 Y-3.7798 Z-0.1951
X-0.0163 Y-3.78 Z-0.1921
G0 Z0.4
X1.6322 Y-3.3922
Z0.13
G1 Z0.0654 F40.
G19 G2 Y-3.4076 Z0.05 J-0.0154 K0.
G1 Y-3.4152
G17 G3 X1.6406 Y-3.4237 I0.0085 J0.
Y-3.3899 Z0. I0. J0.0169
X1.6274 Y-3.3963 Z-0.0144 I0. J-0.0169
X1.6539 Y-3.4173 Z-0.0644 I0.0133 J-0.0105
X1.6571 Y-3.4028 Z-0.0788 I-0.0133 J0.0105
X1.6242 Y-3.4107 Z-0.1287 I-0.0164 J-0.0039
X1.6571 Y-3.4028 Z-0.1787 I0.0164 J0.0039
X1.633 Y-3.3917 Z-0.2075 I-0.0164 J-0.0039
X1.6483 Y-3.4218 I0.0077 J-0.0151
X1.633 Y-3.3917 I-0.0077 J0.0151
X1.6293 Y-3.4031 I0.0038 J-0.0075
G1 X1.6327 Y-3.4099
X1.6341 Y-3.4126 Z-0.2072
X1.6354 Y-3.4152 Z-0.2063
X1.6366 Y-3.4176 Z-0.2049
X1.6377 Y-3.4196 Z-0.203
X1.6385 Y-3.4213 Z-0.2007
X1.6392 Y-3.4226 Z-0.198
X1.6396 Y-3.4234 Z-0.1951
X1.6397 Y-3.4236 Z-0.1921
G0 Z0.4
X2.9445 Y-2.3463
Z0.0092
G1 Z-0.0554 F40.
G19 G2 Y-2.3617 Z-0.0708 J-0.0154 K0.
G1 Y-2.3694
G17 G3 X2.9563 Y-2.3812 I0.0118 J0.
Y-2.3339 Z-0.1208 I0. J0.0237
Y-2.3812 Z-0.1708 I0. J-0.0236
X2.9738 Y-2.3417 Z-0.2075 I0. J0.0236
X2.9388 Y-2.3734 I-0.0175 J-0.0159
X2.9738 Y-2.3417 I0.0175 J0.0159
X2.9571 Y-2.3409 I-0.0088 J-0.0079
G1 X2.9514 Y-2.346
X2.9492 Y-2.348 Z-0.2072
X2.9471 Y-2.35 Z-0.2063
X2.9451 Y-2.3518 Z-0.2049
X2.9434 Y-2.3533 Z-0.203
X2.942 Y-2.3546 Z-0.2007
X2.9409 Y-2.3556 Z-0.198
X2.9403 Y-2.3561 Z-0.1951
X2.94 Y-2.3563 Z-0.1921
G0 Z0.6
(SHAPE POCKET)
M7
G0 X-4.5521 Y-0.0126
Z0.6
Z0.1
G3 X-4.6173 Y0.118 Z0.0385 I-0.0326 J0.0653 F50.
X-4.5521 Y-0.0126 Z-0.0229 I0.0326 J-0.0653
X-4.6173 Y0.118 Z-0.0844 I-0.0326 J0.0653
X-4.5521 Y-0.0126 Z-0.1458 I0.0326 J-0.0653
X-4.5117 Y0.0527 Z-0.1675 I-0.0326 J0.0653
X-4.6577 I-0.073 J0.
X-4.5119 Y0.0468 I0.073 J0.
G1 X-4.5117 Y0.0527
G3 X-4.6681 Y0.1757 I-0.0818 J0.0568 F60.
G1 X-4.6762 Y0.1702
X-4.6839 Y0.1643
X-4.6913 Y0.1579
X-4.6982 Y0.151
X-4.7047 Y0.1437
X-4.7107 Y0.136
X-4.7163 Y0.128
X-4.7213 Y0.1196
X-4.7257 Y0.1109
X-4.7296 Y0.102
X-4.733 Y0.0928
X-4.7357 Y0.0834
X-4.7379 Y0.0739
X-4.7394 Y0.0643
X-4.7403 Y0.0546
X-4.7406 Y0.0448
X-4.7403 Y0.035
X-4.7394 Y0.0253
X-4.7379 Y0.0157
X-4.7358 Y0.0062
X-4.733 Y-0.0032
X-4.7297 Y-0.0124
X-4.7258 Y-0.0213
X-4.7214 Y-0.03
X-4.7164 Y-0.0384
X-4.7109 Y-0.0465
X-4.7049 Y-0.0542
X-4.6984 Y-0.0615
X-4.6915 Y-0.0683
X-4.6841 Y-0.0748
X-4.6764 Y-0.0807
X-4.6683 Y-0.0862
X-4.6599 Y-0.0911
X-4.6512 Y-0.0955
X-4.6422 Y-0.0993
X-4.633 Y-0.1025
X-4.6236 Y-0.1052
X-4.6141 Y-0.1073
X-4.6044 Y-0.1087
X-4.5947 Y-0.1096
X-4.585 Y-0.1098
X-4.5752 Y-0.1094
X-4.5655 Y-0.1084
X-4.5559 Y-0.1068
X-4.5464 Y-0.1046
X-4.537 Y-0.1018
X-4.5279 Y-0.0984
X-4.519 Y-0.0944
X-4.5103 Y-0.0899
X-4.502 Y-0.0848
X-4.494 Y-0.0793
X-4.4863 Y-0.0732
X-4.4791 Y-0.0667
X-4.4723 Y-0.0597
X-4.4659 Y-0.0523
X-4.4601 Y-0.0445
X-4.4547 Y-0.0363
X-4.4498 Y-0.0279
X-4.4455 Y-0.0191
X-4.4418 Y-0.0101
X-4.4386 Y-0.0009
X-4.436 Y0.0085
X-4.4304 Y0.0178
X-4.4254 Y0.0273
X-4.4209 Y0.0371
X-4.4169 Y0.0472
X-4.4136 Y0.0575
X-4.4108 Y0.0679
X-4.4086 Y0.0785
X-4.407 Y0.0892
X-4.4061 Y0.1
X-4.4057 Y0.1108
X-4.406 Y0.1216
X-4.4069 Y0.1323
X-4.4084 Y0.143
X-4.4105 Y0.1536
X-4.4132 Y0.1641
X-4.4165 Y0.1744
X-4.4204 Y0.1845
X-4.4249 Y0.1943
X-4.4299 Y0.2039
X-4.4354 Y0.2132
X-4.4415 Y0.2221
X-4.448 Y0.2307
X-4.4551 Y0.2389
X-4.4626 Y0.2467
X-4.4705 Y0.254
X-4.4788 Y0.2609
X-4.4875 Y0.2673
X-4.4966 Y0.2732
X-4.506 Y0.2786
X-4.5156 Y0.2834
X-4.5256 Y0.2877
X-4.5357 Y0.2914
X-4.5461 Y0.2945
X-4.5566 Y0.297
X-4.5672 Y0.2989
X-4.5779 Y0.3002
X-4.5887 Y0.3009
X-4.5995 Y0.301
X-4.6103 Y0.3004
X-4.621 Y0.2993
X-4.6317 Y0.2975
X-4.6423 Y0.2951
X-4.6526 Y0.2922
X-4.6628 Y0.2886
X-4.6728 Y0.2845
X-4.6826 Y0.2798
X-4.692 Y0.2745
X-4.7011 Y0.2688
X-4.7099 Y0.2625
X-4.7184 Y0.2557
X-4.7264 Y0.2485
X-4.734 Y0.2408
X-4.7439 Y0.2339
X-4.7534 Y0.2264
X-4.7625 Y0.2185
X-4.7711 Y0.2101
X-4.7794 Y0.2012
X-4.7872 Y0.192
X-4.7944 Y0.1823
X-4.8012 Y0.1723
X-4.8075 Y0.162
X-4.8132 Y0.1514
X-4.8184 Y0.1405
X-4.823 Y0.1293
X-4.827 Y0.1179
X-4.8304 Y0.1063
X-4.8332 Y0.0946
X-4.8354 Y0.0827
X-4.837 Y0.0707
X-4.838 Y0.0587
X-4.8384 Y0.0466
X-4.8381 Y0.0345
X-4.8372 Y0.0225
X-4.8357 Y0.0105
X-4.8336 Y-0.0014
X-4.8309 Y-0.0132
X-4.8275 Y-0.0248
X-4.8236 Y-0.0362
X-4.8191 Y-0.0474
X-4.814 Y-0.0584
X-4.8084 Y-0.069
X-4.8022 Y-0.0794
X-4.7955 Y-0.0895
X-4.7883 Y-0.0992
X-4.7806 Y-0.1085
X-4.7725 Y-0.1174
X-4.7639 Y-0.1258
X-4.7548 Y-0.1338
X-4.7454 Y-0.1414
X-4.7356 Y-0.1484
X-4.7254 Y-0.1549
X-4.7149 Y-0.1609
X-4.7041 Y-0.1664
X-4.6918 Y-0.1715
X-4.6792 Y-0.176
X-4.6664 Y-0.1799
X-4.6534 Y-0.1832
X-4.6403 Y-0.1859
X-4.6271 Y-0.188
X-4.6138 Y-0.1895
X-4.6004 Y-0.1903
X-4.587 Y-0.1906
X-4.5736 Y-0.1902
X-4.5603 Y-0.1892
X-4.547 Y-0.1875
X-4.5338 Y-0.1853
X-4.5207 Y-0.1824
X-4.5078 Y-0.1789
X-4.4951 Y-0.1748
X-4.4825 Y-0.1702
X-4.4702 Y-0.1649
X-4.4582 Y-0.1591
X-4.4464 Y-0.1527
X-4.4349 Y-0.1458
X-4.4238 Y-0.1384
X-4.413 Y-0.1304
X-4.4026 Y-0.122
X-4.3927 Y-0.1131
X-4.3831 Y-0.1037
X-4.374 Y-0.0939
X-4.3654 Y-0.0837
X-4.3572 Y-0.0731
X-4.3496 Y-0.0621
X-4.3424 Y-0.0507
X-4.3359 Y-0.0391
X-4.3298 Y-0.0271
X-4.3243 Y-0.0149
X-4.3194 Y-0.0025
X-4.3151 Y0.0102
X-4.3114 Y0.023
X-4.3083 Y0.0361
X-4.3058 Y0.0492
X-4.3039 Y0.0625
X-4.3026 Y0.0758
X-4.302 Y0.0891
X-4.3019 Y0.1025
X-4.3026 Y0.1159
X-4.3038 Y0.1292
X-4.3056 Y0.1425
X-4.3081 Y0.1556
X-4.3111 Y0.1687
X-4.3148 Y0.1815
X-4.3191 Y0.1942
X-4.324 Y0.2067
X-4.3294 Y0.2189
X-4.3354 Y0.2309
X-4.3419 Y0.2425
X-4.349 Y0.2539
X-4.3566 Y0.2649
X-4.3647 Y0.2755
X-4.3733 Y0.2858
X-4.3824 Y0.2956
X-4.3919 Y0.305
X-4.4019 Y0.314
X-4.4122 Y0.3225
X-4.423 Y0.3304
X-4.4341 Y0.3379
X-4.4455 Y0.3449
X-4.4573 Y0.3513
X-4.4693 Y0.3571
X-4.4816 Y0.3624
X-4.4941 Y0.3671
X-4.5078 Y0.3714
X-4.5217 Y0.3751
X-4.5358 Y0.3782
X-4.5499 Y0.3807
X-4.5642 Y0.3826
X-4.5785 Y0.3838
X-4.5929 Y0.3845
X-4.6073
X-4.6216 Y0.3839
X-4.6359 Y0.3827
X-4.6502 Y0.3809
X-4.6644 Y0.3784
X-4.6784 Y0.3754
X-4.6923 Y0.3717
X-4.7061 Y0.3675
X-4.7196 Y0.3627
X-4.7329 Y0.3573
X-4.746 Y0.3513
X-4.7588 Y0.3448
X-4.7714 Y0.3377
X-4.7836 Y0.3301
X-4.7954 Y0.322
X-4.8069 Y0.3133
X-4.818 Y0.3042
X-4.8288 Y0.2946
X-4.8391 Y0.2846
X-4.8489 Y0.2741
X-4.8583 Y0.2633
X-4.8672 Y0.252
X-4.8757 Y0.2403
X-4.8836 Y0.2283
X-4.891 Y0.216
X-4.8979 Y0.2034
X-4.9042 Y0.1905
X-4.9099 Y0.1773
X-4.9151 Y0.1639
X-4.9197 Y0.1502
X-4.9237 Y0.1364
X-4.9271 Y0.1225
X-4.9299 Y0.1084
X-4.9321 Y0.0942
X-4.9337 Y0.0799
X-4.9347 Y0.0655
X-4.935 Y0.0511
X-4.9347 Y0.0368
X-4.9339 Y0.0224
X-4.9324 Y0.0081
X-4.9302 Y-0.0061
X-4.9275 Y-0.0202
X-4.9242 Y-0.0342
X-4.9203 Y-0.048
X-4.9157 Y-0.0617
X-4.9106 Y-0.0751
X-4.905 Y-0.0883
X-4.8987 Y-0.1013
X-4.8919 Y-0.114
X-4.8846 Y-0.1263
X-4.8768 Y-0.1384
X-4.8684 Y-0.1501
X-4.8595 Y-0.1614
X-4.8502 Y-0.1723
X-4.8404 Y-0.1829
X-4.8302 Y-0.193
X-4.8195 Y-0.2026
X-4.8084 Y-0.2118
X-4.797 Y-0.2205
X-4.7852 Y-0.2287
X-4.773 Y-0.2363
X-4.7605 Y-0.2435
X-4.7478 Y-0.2501
X-4.7347 Y-0.2561
X-4.7214 Y-0.2616
X-4.7079 Y-0.2665
X-4.6932 Y-0.271
X-4.6782 Y-0.2749
X-4.6632 Y-0.2782
X-4.648 Y-0.2809
X-4.6327 Y-0.283
X-4.6174 Y-0.2844
X-4.602 Y-0.2853
X-4.5866 Y-0.2855
X-4.5712 Y-0.2851
X-4.5558 Y-0.284
X-4.5405 Y-0.2824
X-4.5252 Y-0.2801
X-4.5101 Y-0.2773
X-4.4951 Y-0.2738
X-4.4802 Y-0.2697
X-4.4655 Y-0.265
X-4.451 Y-0.2598
X-4.4367 Y-0.2539
X-4.4227 Y-0.2475
X-4.409 Y-0.2405
X-4.3955 Y-0.233
X-4.3824 Y-0.2249
X-4.3696 Y-0.2163
X-4.3571 Y-0.2072
X-4.3451 Y-0.1977
X-4.3334 Y-0.1876
X-4.3221 Y-0.1771
X-4.3113 Y-0.1661
X-4.3009 Y-0.1547
X-4.291 Y-0.1429
X-4.2816 Y-0.1307
X-4.2727 Y-0.1181
X-4.2643 Y-0.1052
X-4.2564 Y-0.0919
X-4.2491 Y-0.0784
X-4.2423 Y-0.0645
X-4.236 Y-0.0504
X-4.2304 Y-0.0361
X-4.2253 Y-0.0215
X-4.2208 Y-0.0068
X-4.217 Y0.0081
X-4.2137 Y0.0232
X-4.211 Y0.0384
X-4.209 Y0.0536
X-4.2075 Y0.069
X-4.2067 Y0.0844
X-4.2065 Y0.0998
X-4.207 Y0.1152
X-4.208 Y0.1306
X-4.2097 Y0.1459
X-4.212 Y0.1611
X-4.2149 Y0.1763
X-4.2184 Y0.1913
X-4.2225 Y0.2062
X-4.2272 Y0.2208
X-4.2324 Y0.2353
X-4.2383 Y0.2496
X-4.2448 Y0.2636
X-4.2518 Y0.2773
X-4.2593 Y0.2907
X-4.2674 Y0.3039
X-4.276 Y0.3167
X-4.2851 Y0.3291
X-4.2947 Y0.3412
X-4.3048 Y0.3528
X-4.3153 Y0.3641
X-4.3263 Y0.3749
X-4.3377 Y0.3852
X-4.3496 Y0.3951
X-4.3618 Y0.4045
X-4.3744 Y0.4134
X-4.3873 Y0.4218
X-4.4005 Y0.4297
X-4.4141 Y0.437
X-4.428 Y0.4437
X-4.4421 Y0.45
X-4.4564 Y0.4556
X-4.471 Y0.4606
G3 X-5.024 Y0.087 I-0.1361 J-0.3947
G1 X-5.025 Y0.0704
X-5.0253 Y0.0538
X-5.0251 Y0.0372
X-5.0242 Y0.0206
X-5.0227 Y0.004
X-5.0205 Y-0.0125
X-5.0178 Y-0.0289
X-5.0144 Y-0.0451
X-5.0105 Y-0.0613
X-5.0059 Y-0.0773
X-5.0007 Y-0.0931
X-4.995 Y-0.1087
X-4.9887 Y-0.124
X-4.9818 Y-0.1392
X-4.9743 Y-0.154
X-4.9663 Y-0.1686
X-4.9578 Y-0.1828
X-4.9487 Y-0.1968
X-4.9391 Y-0.2104
X-4.9291 Y-0.2236
X-4.9185 Y-0.2364
X-4.9074 Y-0.2488
X-4.8959 Y-0.2608
X-4.884 Y-0.2724
X-4.8716 Y-0.2835
X-4.8589 Y-0.2941
X-4.8457 Y-0.3043
X-4.8322 Y-0.314
X-4.8183 Y-0.3231
X-4.8041 Y-0.3317
X-4.7896 Y-0.3398
X-4.7748 Y-0.3473
X-4.7597 Y-0.3543
X-4.7443 Y-0.3607
X-4.7288 Y-0.3666
X-4.713 Y-0.3718
X-4.6971 Y-0.3765
X-4.6809 Y-0.3805
X-4.6647 Y-0.384
X-4.6483 Y-0.3868
X-4.6318 Y-0.389
X-4.6153 Y-0.3906
X-4.5987 Y-0.3916
X-4.5821 Y-0.392
X-4.5655 Y-0.3917
X-4.5489 Y-0.3908
X-4.5323 Y-0.3894
X-4.5158 Y-0.3872
X-4.4994 Y-0.3845
X-4.4831 Y-0.3812
X-4.467 Y-0.3772
X-4.451 Y-0.3727
X-4.4352 Y-0.3676
X-4.4196 Y-0.3618
X-4.4042 Y-0.3555
X-4.3891 Y-0.3487
X-4.3742 Y-0.3412
X-4.3596 Y-0.3332
X-4.3454 Y-0.3247
X-4.3314 Y-0.3157
X-4.3178 Y-0.3061
X-4.3046 Y-0.296
X-4.2918 Y-0.2855
X-4.2793 Y-0.2744
X-4.2673 Y-0.263
X-4.2557 Y-0.251
X-4.2446 Y-0.2387
X-4.234 Y-0.2259
X-4.2238 Y-0.2128
X-4.2141 Y-0.1993
X-4.2049 Y-0.1854
X-4.1963 Y-0.1712
X-4.1882 Y-0.1567
X-4.1807 Y-0.1419
X-4.1737 Y-0.1268
X-4.1672 Y-0.1115
X-4.1614 Y-0.0959
X-4.1561 Y-0.0802
X-4.1515 Y-0.0642
X-4.1474 Y-0.0481
G3 X-4.129 Y0.2242 I-0.3702 J0.1617
G1 X-4.2211 Y0.3866
X-4.2319 Y0.4004
X-4.2432 Y0.4139
X-4.2549 Y0.427
X-4.2671 Y0.4396
X-4.2797 Y0.4518
X-4.2928 Y0.4635
X-4.3063 Y0.4748
X-4.3201 Y0.4856
X-4.3344 Y0.4958
X-4.349 Y0.5056
X-4.3639 Y0.5148
X-4.3792 Y0.5235
X-4.3948 Y0.5316
X-4.4106 Y0.5392
X-4.4267 Y0.5462
X-4.4431 Y0.5526
X-4.4596 Y0.5584
X-4.4764 Y0.5636
X-4.4933 Y0.5683
X-4.5104 Y0.5723
X-4.5276 Y0.5757
X-4.545 Y0.5785
X-4.5624 Y0.5806
X-4.5799 Y0.5822
X-4.5974 Y0.5831
X-4.615 Y0.5834
X-4.6325 Y0.583
X-4.6501 Y0.582
X-4.6676 Y0.5804
X-4.685 Y0.5782
X-4.7023 Y0.5754
X-4.7195 Y0.5719
X-4.7366 Y0.5678
X-4.7535 Y0.5631
X-4.7703 Y0.5578
X-4.7868 Y0.552
X-4.8031 Y0.5455
X-4.8192 Y0.5384
X-4.835 Y0.5308
X-4.8505 Y0.5226
X-4.8658 Y0.5139
X-4.8807 Y0.5046
X-4.8953 Y0.4948
X-4.9095 Y0.4845
X-4.9233 Y0.4737
X-4.9367 Y0.4624
X-4.9497 Y0.4506
X-4.9623 Y0.4384
X-4.9745 Y0.4257
X-4.9862 Y0.4126
X-4.9974 Y0.3991
X-5.0081 Y0.3852
X-5.0183 Y0.3709
X-5.028 Y0.3562
X-5.0372 Y0.3413
X-5.0458 Y0.326
X-5.0539 Y0.3104
X-5.0648 Y0.1523
X-5.0657 Y0.1289
Y-0.1289
G3 X-4.6509 Y-0.4842 I0.4525 J0.1085
X-4.1925 Y-0.3198 I0.0659 J0.5378
G2 X-4.0723 Y-0.0509 I0.3725 J-0.0052
G3 X-4.0282 Y0.0465 I-0.0898 J0.0993
X-4.0549 Y0.0457 I-0.0131 J-0.008
G1 X-4.0956 Y-0.0312
G3 X-4.097 Y-0.0417 I0.0136 J-0.0072
X-4.0726 Y-0.0505 I0.015 J0.0033 F50.
X-4.0074 Y0.003 I-0.02 J0.0908 F60.
X-4.0115 Y0.017 I-0.0209 J0.0015
G1 X-4.129 Y0.2242
G3 X-4.1425 Y0.2315 I-0.0131 J-0.008
X-4.2166 Y0.2051 I0.0033 J-0.1265
X-4.2124 Y-0.2964 I0.1927 J-0.2491
G1 X-4.2003 Y-0.305 F50.
G2 X-4.1936 Y-0.3188 I-0.0086 J-0.0127
X-4.261 Y-0.4569 I-0.2207 J0.0222 F60.
X-4.6951 Y-0.5759 I-0.3216 J0.3217
X-5.0542 Y-0.3766 I0.1042 J0.6108
G1 X-5.0648 Y-0.1523
X-5.0657 Y-0.1289
G2 X-5.0575 Y-0.1158 I0.0154 J-0.0005
X-5.0064 Y-0.1257 I0.0195 J-0.0366
X-5.0331 Y-0.3537 I-0.1205 J-0.1014
X-5.0454 Y-0.362 I-0.0937 J0.1266 F50.
G3 X-5.0529 Y-0.3754 I0.0079 J-0.0132
G1 X-5.0523 Y-0.3866 F60.
X-5.0508 Y-0.41
X-5.0458 Y-0.4569
G3 X-4.7195 Y-0.6707 I0.3528 J0.1824
X-4.3669 Y-0.6465 I0.1313 J0.6683
G1 X-4.261 Y-0.4569
G3 X-4.2617 Y-0.4415 I-0.0136 J0.0071
X-4.3445 Y-0.4316 I-0.0455 J-0.0288
X-4.3755 Y-0.6164 I0.1093 J-0.1134
X-4.3682 Y-0.6293 I0.1404 J0.0714 F50.
G2 X-4.3675 Y-0.6446 I-0.013 J-0.0082
G1 X-4.4006 Y-0.7029 F60.
G2 X-4.8039 Y-0.7426 I-0.232 J0.2875
X-5.0268 Y-0.6429 I0.0511 J0.4131
G1 X-5.0458 Y-0.4569
G2 X-5.0391 Y-0.443 I0.0153 J0.0011
X-5.0023 Y-0.4465 I0.0163 J-0.024
X-5.0075 Y-0.6189 I-0.0832 J-0.0838
X-5.0192 Y-0.628 I-0.0781 J0.0886 F50.
G3 X-5.0259 Y-0.6418 I0.0086 J-0.0127
G1 X-5.0231 Y-0.6677 F60.
X-5.0197 Y-0.6912
X-5.0176 Y-0.704
G3 X-4.7161 Y-0.8621 I0.2757 J0.1593
X-4.4901 Y-0.8606 I0.1107 J0.3371
G1 X-4.4006 Y-0.7029
G3 X-4.4012 Y-0.6875 I-0.0136 J0.0071
X-4.4426 Y-0.6758 I-0.0273 J-0.0173
X-4.4978 Y-0.8322 I0.0516 J-0.1062
X-4.4907 Y-0.8452 I0.1069 J0.0502 F50.
G2 X-4.4901 Y-0.8606 I-0.013 J-0.0082
G1 X-4.5136 Y-0.902 F60.
G2 X-4.8429 Y-0.9342 I-0.1868 J0.2095
X-4.9898 Y-0.8763 I0.0092 J0.2385
G1 X-5.0176 Y-0.704
G2 X-5.0117 Y-0.6899 I0.0152 J0.0019
X-4.9611 Y-0.6968 I0.0218 J-0.0287
X-4.9726 Y-0.8524 I-0.0942 J-0.0713
X-4.9839 Y-0.8621 I-0.0827 J0.0843 F50.
G3 X-4.9898 Y-0.8763 I0.0093 J-0.0122
G1 X-4.9819 Y-0.9254 F60.
X-4.9746 Y-0.9368
X-4.9668 Y-0.9478
X-4.9585 Y-0.9584
X-4.9498 Y-0.9687
X-4.9405 Y-0.9785
X-4.9309 Y-0.9879
X-4.9208 Y-0.9969
X-4.9103 Y-1.0053
X-4.8994 Y-1.0133
X-4.8882 Y-1.0208
X-4.8767 Y-1.0278
X-4.8648 Y-1.0342
X-4.8527 Y-1.04
X-4.8403 Y-1.0453
X-4.8276 Y-1.05
X-4.8148 Y-1.0542
X-4.8018 Y-1.0577
X-4.7887 Y-1.0607
X-4.7754 Y-1.063
X-4.762 Y-1.0647
X-4.7486 Y-1.0658
X-4.7351 Y-1.0663
X-4.7216 Y-1.0662
X-4.7082 Y-1.0654
X-4.6948 Y-1.0641
X-4.6814 Y-1.0621
X-4.6682 Y-1.0595
X-4.6551 Y-1.0563
G3 X-4.5999 Y-1.0542 I0.0266 J0.0279
G1 X-4.5136 Y-0.902
G3 X-4.5142 Y-0.8867 I-0.0136 J0.0071
X-4.5635 Y-0.8755 I-0.0303 J-0.0192
X-4.6077 Y-1.0258 I0.0627 J-0.1001
X-4.6005 Y-1.0388 I0.1069 J0.0502 F50.
G2 X-4.5999 Y-1.0542 I-0.013 J-0.0082
G1 X-4.6239 Y-1.0965 F60.
G2 X-4.9454 Y-1.0975 I-0.1614 J0.2234
G1 X-4.9786 Y-0.9445
X-4.9819 Y-0.9254
G2 X-4.9759 Y-0.9113 I0.0152 J0.0019
X-4.9265 Y-0.9167 I0.0219 J-0.0288
X-4.9296 Y-1.0728 I-0.0902 J-0.0763
X-4.9402 Y-1.0831 I-0.0871 J0.0798 F50.
G3 X-4.9454 Y-1.0975 I0.0099 J-0.0117
G1 X-4.9355 Y-1.1434 F60.
G3 X-4.7035 Y-1.2369 I0.1746 J0.0986
G1 X-4.6239 Y-1.0965
G3 X-4.6246 Y-1.0812 I-0.0136 J0.0071
X-4.6871 Y-1.074 I-0.0342 J-0.0217
X-4.7113 Y-1.2085 I0.0827 J-0.0844
X-4.7042 Y-1.2215 I0.1069 J0.0502 F50.
G2 X-4.7035 Y-1.2369 I-0.013 J-0.0082
G1 X-4.7238 Y-1.2727 F60.
X-4.73 Y-1.2794
X-4.7365 Y-1.2857
X-4.7435 Y-1.2915
X-4.7508 Y-1.2969
X-4.7585 Y-1.3018
X-4.7665 Y-1.3061
X-4.7748 Y-1.3099
X-4.7833 Y-1.3131
X-4.792 Y-1.3157
X-4.8008 Y-1.3178
X-4.8098 Y-1.3192
X-4.8189 Y-1.3201
X-4.828 Y-1.3203
X-4.837 Y-1.32
X-4.8461 Y-1.319
X-4.855 Y-1.3174
X-4.8639 Y-1.3152
X-4.8725 Y-1.3125
X-4.881 Y-1.3091
X-4.8892 Y-1.3052
X-4.8971 Y-1.3008
X-4.9217 Y-1.2066
X-4.9355 Y-1.1434
G2 X-4.9303 Y-1.1289 I0.0151 J0.0027
X-4.8713 Y-1.1389 I0.0253 J-0.0298
X-4.8818 Y-1.2739 I-0.1017 J-0.06
X-4.8919 Y-1.2847 I-0.0912 J0.075 F50.
G3 X-4.8963 Y-1.2995 I0.0106 J-0.0112
G1 X-4.8871 Y-1.3333 F60.
G3 X-4.7891 Y-1.3909 I0.0845 J0.0317
G1 X-4.7878 Y-1.388
X-4.787 Y-1.3849
X-4.7868 Y-1.3817
X-4.7872 Y-1.3787
X-4.7882 Y-1.3757
X-4.7897 Y-1.3731
X-4.7916 Y-1.3708
X-4.7939 Y-1.369
X-4.8013 Y-1.3635
X-4.8629 Y-1.3174
X-4.8658 Y-1.3157
X-4.8689 Y-1.3147
G3 X-4.8871 Y-1.3333 I-0.0032 J-0.015 F50.
G1 X-4.8669 Y-1.4069 F60.
G3 X-4.8212 Y-1.4442 I0.0352 J-0.0035
X-4.848 Y-1.3875 I-0.0349 J0.0182
G1 X-4.8493 Y-1.3873
G3 X-4.8669 Y-1.4069 I-0.002 J-0.0159 F50.
G1 X-4.8524 Y-1.4599 F60.
X-4.8521 Y-1.4606
X-4.8483 Y-1.4679
X-4.8476 Y-1.4691
X-4.8469 Y-1.4699
X-4.8457 Y-1.4709
X-4.8452 Y-1.4711
X-4.8434 Y-1.4717
X-4.8426 Y-1.4716
X-4.8411 Y-1.4715
G3 X-4.8309 Y-1.4614 I-0.0092 J0.0195
G1 X-4.7238 Y-1.2727
G3 X-4.7369 Y-1.2502 I-0.0136 J0.0071
G1 X-4.7398 Y-1.2501 Z-0.1672
X-4.7427 Y-1.25 Z-0.1663
X-4.7454 Y-1.2499 Z-0.1649
X-4.7477 Y-1.2498 Z-0.163
X-4.7496 Y-1.2497 Z-0.1607
X-4.751 Y-1.2496 Z-0.158
X-4.7519 Z-0.1551
X-4.7522 Z-0.1521
G0 Z-0.1368
X-5.042 Y0.2679
G1 Z-0.1521 F50.
X-5.0421 Y0.2681 Z-0.1551
X-5.0425 Y0.2689 Z-0.158
X-5.0432 Y0.2702 Z-0.1607
X-5.0441 Y0.2719 Z-0.163
X-5.0452 Y0.2739 Z-0.1649
X-5.0464 Y0.2763 Z-0.1663
X-5.0478 Y0.2788 Z-0.1672
X-5.0491 Y0.2815 Z-0.1675
G2 X-5.0563 Y0.3116 I0.0552 J0.0289
G1 X-5.0523 Y0.3866 F60.
X-5.0508 Y0.41
X-5.0489 Y0.4272
G2 X-4.6908 Y0.6732 I0.3808 J-0.1706
X-4.3555 Y0.6257 I0.0889 J-0.5789
G1 X-4.2211 Y0.3866
G2 X-4.2277 Y0.3658 I-0.0136 J-0.0071
X-4.2991 Y0.3773 I-0.028 J0.0537
X-4.36 Y0.5945 I0.1694 J0.1646
G1 X-4.355 Y0.6127 F50.
G3 X-4.3561 Y0.6244 I-0.0147 J0.0046
G1 X-4.3929 Y0.6894 F60.
G3 X-4.7461 Y0.7551 I-0.2252 J-0.228
X-5.0284 Y0.6277 I0.0564 J-0.5014
G1 X-5.0489 Y0.4272
G3 X-5.0422 Y0.4134 I0.0153 J-0.0011
X-5.0282 Y0.4129 I0.0074 J0.011
X-5.0091 Y0.6038 I-0.059 J0.1023
X-5.0208 Y0.6129 I-0.0781 J-0.0886 F50.
G2 X-5.0275 Y0.6267 I0.0086 J0.0127
G1 X-5.0231 Y0.6677 F60.
X-5.0197 Y0.6912
G2 X-4.7158 Y0.8594 I0.2808 J-0.1487
X-4.4871 Y0.8553 I0.1083 J-0.3436
G1 X-4.3929 Y0.6894
G2 X-4.3936 Y0.674 I-0.0136 J-0.0071
X-4.4216 Y0.6635 I-0.021 J0.0133
X-4.4948 Y0.827 I0.0337 J0.1132
X-4.4877 Y0.84 I0.1069 J-0.0502 F50.
G3 X-4.4871 Y0.8553 I-0.013 J0.0082
G1 X-4.5136 Y0.902 F60.
X-4.5244 Y0.9103
X-4.5356 Y0.9181
X-4.5471 Y0.9254
X-4.5589 Y0.9322
X-4.5711 Y0.9384
X-4.5835 Y0.9441
X-4.5961 Y0.9493
X-4.6089 Y0.9539
X-4.622 Y0.9579
X-4.6352 Y0.9613
X-4.6485 Y0.9641
X-4.662 Y0.9663
X-4.6755 Y0.9679
X-4.6891 Y0.969
X-4.7027 Y0.9694
X-4.7164 Y0.9692
X-4.73 Y0.9684
X-4.7436 Y0.967
X-4.7571 Y0.965
X-4.7704 Y0.9624
X-4.7837 Y0.9592
X-4.7968 Y0.9554
X-4.8097 Y0.9511
X-4.8224 Y0.9461
X-4.8349 Y0.9407
X-4.8471 Y0.9346
X-4.8591 Y0.928
X-4.8707 Y0.9209
G3 X-4.99 Y0.8726 I0.0255 J-0.234
G1 X-4.9908 Y0.8698
X-5.0197 Y0.6912
G3 X-5.0135 Y0.6771 I0.0153 J-0.0017
X-4.9698 Y0.6812 I0.0195 J0.0266
X-4.9737 Y0.8459 I-0.0866 J0.0804
X-4.9849 Y0.8556 I-0.0827 J-0.0843 F50.
G2 X-4.9908 Y0.8698 I0.0093 J0.0122
G1 X-4.9836 Y0.9149 F60.
G2 X-4.6866 Y1.0544 I0.2385 J-0.1218
X-4.5983 Y1.0513 I0.0421 J-0.0613
G1 X-4.5136 Y0.902
G2 X-4.5142 Y0.8867 I-0.0136 J-0.0071
X-4.5672 Y0.8762 I-0.0315 J0.02
X-4.606 Y1.0229 I0.068 J0.0966
X-4.5989 Y1.0359 I0.1069 J-0.0502 F50.
G3 X-4.5983 Y1.0513 I-0.013 J0.0082
G1 X-4.6199 Y1.0894 F60.
G3 X-4.9437 Y1.0982 I-0.1675 J-0.2033
G1 X-4.9454 Y1.0959
X-4.9463 Y1.0933
X-4.9786 Y0.9445
X-4.9819 Y0.9254
X-4.9836 Y0.9149
G3 X-4.9776 Y0.9007 I0.0152 J-0.0019
X-4.9364 Y0.903 I0.0193 J0.0254
X-4.9305 Y1.0685 I-0.0812 J0.0858
X-4.9412 Y1.0788 I-0.0871 J-0.0798 F50.
G2 X-4.9463 Y1.0933 I0.0099 J0.0117
G1 X-4.937 Y1.1363 F60.
G2 X-4.702 Y1.2341 I0.1771 J-0.0942
G1 X-4.6199 Y1.0894
G2 X-4.6205 Y1.0741 I-0.0136 J-0.0071
X-4.6788 Y1.0651 I-0.0331 J0.021
X-4.7098 Y1.2058 I0.0759 J0.0905
X-4.7026 Y1.2188 I0.1069 J-0.0502 F50.
G3 X-4.702 Y1.2341 I-0.013 J0.0082
G1 X-4.7209 Y1.2675 F60.
X-4.7267 Y1.2743
X-4.733 Y1.2807
X-4.7396 Y1.2866
X-4.7467 Y1.2921
X-4.7541 Y1.2971
X-4.7617 Y1.3016
X-4.7697 Y1.3056
X-4.7779 Y1.3091
X-4.7864 Y1.312
X-4.795 Y1.3144
X-4.8037 Y1.3161
X-4.8126 Y1.3173
X-4.8215 Y1.3179
X-4.8304 Y1.318
X-4.8393 Y1.3174
X-4.8481 Y1.3163
X-4.8569 Y1.3145
X-4.8655 Y1.3122
X-4.8739 Y1.3094
X-4.8822 Y1.306
X-4.8902 Y1.302
X-4.8979 Y1.2975
X-4.9217 Y1.2066
X-4.937 Y1.1363
G3 X-4.9318 Y1.1218 I0.0151 J-0.0027
X-4.8762 Y1.1294 I0.0244 J0.0288
X-4.8826 Y1.2708 I-0.0977 J0.0664
X-4.8928 Y1.2817 I-0.0912 J-0.075 F50.
G2 X-4.8972 Y1.2964 I0.0106 J0.0112
G1 X-4.8871 Y1.3333 F60.
G2 X-4.788 Y1.3889 I0.0847 J-0.035
G1 X-4.7209 Y1.2675
G2 X-4.7415 Y1.2467 I-0.0136 J-0.0071
G1 X-4.8698 Y1.3114
X-4.879 Y1.316 F50.
G2 X-4.8871 Y1.3333 I0.0069 J0.0137
G1 X-4.8669 Y1.4069 F60.
G2 X-4.8206 Y1.4433 I0.0355 J0.0024
G1 X-4.7884 Y1.3864
G2 X-4.7949 Y1.3657 I-0.0136 J-0.0071
X-4.8145 Y1.3719 I-0.0067 J0.0128
X-4.823 Y1.4131 I0.07 J0.036
X-4.8196 Y1.4315 I0.0786 J-0.0051 F50.
G3 X-4.8206 Y1.4433 I-0.0147 J0.0046
G1 X-4.8278 Y1.4558 F60.
X-4.8286 Y1.4573
X-4.8292 Y1.4585
X-4.8317 Y1.4623
X-4.8323 Y1.4631
G3 X-4.8369 Y1.4647 I-0.0039 J-0.0036
X-4.8406 Y1.4566 I0.0007 J-0.0052 F50.
G1 X-4.8384 Y1.4531
G3 X-4.8292 Y1.4585 I0.0044 J0.0029
G1 X-4.8309 Y1.4614 F60.
X-4.8315 Y1.4621
X-4.8334 Y1.4643
X-4.8342 Y1.4652
X-4.8353 Y1.4666
X-4.8393 Y1.4707
G3 X-4.8424 Y1.4711 I-0.0022 J-0.0048
X-4.8457 Y1.4627 I0.0009 J-0.0052 F50.
G1 X-4.8436 Y1.4601
G3 X-4.8362 Y1.4591 I0.0042 J0.0032
X-4.8353 Y1.4666 I-0.0033 J0.0042
G1 X-4.8381 Y1.4698 F60.
X-4.8388 Y1.4705
X-4.8403 Y1.4713
X-4.8411 Y1.4715
X-4.8426 Y1.4716
X-4.8434 Y1.4717
X-4.8452 Y1.4711
G3 X-4.8669 Y1.4069 I0.0362 J-0.0481
X-4.8673 Y1.4034 I0.015 J-0.0035
X-4.8629 Y1.3926 I0.0154 J0.
G1 X-4.8609 Y1.3913 Z-0.1673
X-4.859 Y1.3901 Z-0.1668
X-4.8571 Y1.3889 Z-0.1659
X-4.8552 Y1.3886 Z-0.1647
X-4.8535 Y1.3883 Z-0.1632
X-4.852 Y1.388 Z-0.1615
X-4.8506 Y1.3881 Z-0.1594
X-4.8496 Y1.3882 Z-0.1571
X-4.849 Y1.3883 Z-0.1547
X-4.8488 Z-0.1521
G0 Z0.4
X-4.0116 Y-1.7405
Z0.1
G3 X-4.0768 Y-1.6098 Z0.0385 I-0.0326 J0.0653 F50.
X-4.0116 Y-1.7405 Z-0.0229 I0.0326 J-0.0653
X-4.0768 Y-1.6098 Z-0.0844 I-0.0326 J0.0653
X-4.0116 Y-1.7405 Z-0.1458 I0.0326 J-0.0653
X-3.9711 Y-1.6751 Z-0.1675 I-0.0326 J0.0653
X-4.1172 I-0.073 J0.
X-3.9714 Y-1.6811 I0.073 J0.
G1 X-3.9711 Y-1.6751
G3 X-4.1275 Y-1.5522 I-0.0818 J0.0568 F60.
G1 X-4.1356 Y-1.5576
X-4.1434 Y-1.5636
X-4.1507 Y-1.57
X-4.1577 Y-1.5768
X-4.1642 Y-1.5841
X-4.1702 Y-1.5918
X-4.1757 Y-1.5999
X-4.1807 Y-1.6082
X-4.1852 Y-1.6169
X-4.1891 Y-1.6259
X-4.1924 Y-1.635
X-4.1952 Y-1.6444
X-4.1973 Y-1.6539
X-4.1988 Y-1.6636
X-4.1998 Y-1.6733
X-4.2001 Y-1.683
X-4.1998 Y-1.6928
X-4.1989 Y-1.7025
X-4.1973 Y-1.7121
X-4.1952 Y-1.7217
X-4.1925 Y-1.731
X-4.1892 Y-1.7402
X-4.1853 Y-1.7492
X-4.1808 Y-1.7579
X-4.1759 Y-1.7662
X-4.1703 Y-1.7743
X-4.1643 Y-1.782
X-4.1579 Y-1.7893
X-4.1509 Y-1.7962
X-4.1436 Y-1.8026
X-4.1359 Y-1.8085
X-4.1278 Y-1.814
X-4.1193 Y-1.8189
X-4.1106 Y-1.8233
X-4.1016 Y-1.8271
X-4.0924 Y-1.8304
X-4.0831 Y-1.833
X-4.0735 Y-1.8351
X-4.0639 Y-1.8366
X-4.0542 Y-1.8374
X-4.0444 Y-1.8376
X-4.0347 Y-1.8372
X-4.0249 Y-1.8362
X-4.0153 Y-1.8346
X-4.0058 Y-1.8324
X-3.9965 Y-1.8296
X-3.9873 Y-1.8262
X-3.9784 Y-1.8222
X-3.9698 Y-1.8177
X-3.9614 Y-1.8127
X-3.9534 Y-1.8071
X-3.9458 Y-1.801
X-3.9386 Y-1.7945
X-3.9317 Y-1.7875
X-3.9254 Y-1.7801
X-3.9195 Y-1.7723
X-3.9141 Y-1.7642
X-3.9093 Y-1.7557
X-3.905 Y-1.747
X-3.9012 Y-1.738
X-3.8981 Y-1.7287
X-3.8955 Y-1.7193
X-3.8899 Y-1.7101
X-3.8848 Y-1.7005
X-3.8803 Y-1.6907
X-3.8764 Y-1.6806
X-3.873 Y-1.6704
X-3.8702 Y-1.6599
X-3.8681 Y-1.6493
X-3.8665 Y-1.6386
X-3.8655 Y-1.6279
X-3.8652 Y-1.6171
X-3.8655 Y-1.6063
X-3.8664 Y-1.5955
X-3.8679 Y-1.5848
X-3.87 Y-1.5742
X-3.8727 Y-1.5637
X-3.876 Y-1.5535
X-3.8799 Y-1.5434
X-3.8843 Y-1.5335
X-3.8893 Y-1.5239
X-3.8949 Y-1.5147
X-3.9009 Y-1.5057
X-3.9075 Y-1.4971
X-3.9145 Y-1.4889
X-3.922 Y-1.4811
X-3.9299 Y-1.4738
X-3.9383 Y-1.4669
X-3.947 Y-1.4605
X-3.956 Y-1.4546
X-3.9654 Y-1.4493
X-3.9751 Y-1.4444
X-3.985 Y-1.4402
X-3.9952 Y-1.4365
X-4.0055 Y-1.4334
X-4.016 Y-1.4309
X-4.0267 Y-1.4289
X-4.0374 Y-1.4276
X-4.0482 Y-1.427
X-4.059 Y-1.4269
X-4.0698 Y-1.4274
X-4.0805 Y-1.4286
X-4.0912 Y-1.4303
X-4.1017 Y-1.4327
X-4.1121 Y-1.4357
X-4.1223 Y-1.4392
X-4.1323 Y-1.4434
X-4.142 Y-1.4481
X-4.1515 Y-1.4533
X-4.1606 Y-1.4591
X-4.1694 Y-1.4653
X-4.1778 Y-1.4721
X-4.1858 Y-1.4793
X-4.1934 Y-1.487
X-4.2033 Y-1.494
X-4.2128 Y-1.5014
X-4.2219 Y-1.5094
X-4.2306 Y-1.5178
X-4.2388 Y-1.5266
X-4.2466 Y-1.5359
X-4.2539 Y-1.5455
X-4.2607 Y-1.5555
X-4.2669 Y-1.5658
X-4.2726 Y-1.5765
X-4.2778 Y-1.5874
X-4.2824 Y-1.5985
X-4.2864 Y-1.6099
X-4.2898 Y-1.6215
X-4.2927 Y-1.6333
X-4.2949 Y-1.6451
X-4.2965 Y-1.6571
X-4.2975 Y-1.6692
X-4.2978 Y-1.6812
X-4.2976 Y-1.6933
X-4.2967 Y-1.7053
X-4.2952 Y-1.7173
X-4.2931 Y-1.7292
X-4.2903 Y-1.741
X-4.287 Y-1.7526
X-4.2831 Y-1.764
X-4.2786 Y-1.7752
X-4.2735 Y-1.7862
X-4.2679 Y-1.7969
X-4.2617 Y-1.8073
X-4.255 Y-1.8173
X-4.2478 Y-1.827
X-4.2401 Y-1.8363
X-4.2319 Y-1.8452
X-4.2233 Y-1.8537
X-4.2143 Y-1.8617
X-4.2048 Y-1.8692
X-4.195 Y-1.8762
X-4.1849 Y-1.8828
X-4.1744 Y-1.8888
X-4.1636 Y-1.8942
X-4.1512 Y-1.8993
X-4.1386 Y-1.9038
X-4.1258 Y-1.9077
X-4.1128 Y-1.911
X-4.0997 Y-1.9138
X-4.0865 Y-1.9158
X-4.0732 Y-1.9173
X-4.0598 Y-1.9182
X-4.0465 Y-1.9184
X-4.0331 Y-1.918
X-4.0197 Y-1.917
X-4.0065 Y-1.9154
X-3.9933 Y-1.9131
X-3.9802 Y-1.9102
X-3.9673 Y-1.9067
X-3.9545 Y-1.9027
X-3.942 Y-1.898
X-3.9297 Y-1.8928
X-3.9176 Y-1.8869
X-3.9058 Y-1.8806
X-3.8944 Y-1.8737
X-3.8832 Y-1.8662
X-3.8725 Y-1.8583
X-3.8621 Y-1.8498
X-3.8521 Y-1.8409
X-3.8426 Y-1.8315
X-3.8335 Y-1.8217
X-3.8248 Y-1.8115
X-3.8167 Y-1.8009
X-3.809 Y-1.7899
X-3.8019 Y-1.7786
X-3.7953 Y-1.7669
X-3.7893 Y-1.755
X-3.7838 Y-1.7428
X-3.7789 Y-1.7303
X-3.7746 Y-1.7176
X-3.7708 Y-1.7048
X-3.7677 Y-1.6918
X-3.7652 Y-1.6786
X-3.7633 Y-1.6654
X-3.7621 Y-1.6521
X-3.7614 Y-1.6387
Y-1.6253
X-3.762 Y-1.6119
X-3.7632 Y-1.5986
X-3.7651 Y-1.5854
X-3.7675 Y-1.5722
X-3.7706 Y-1.5592
X-3.7743 Y-1.5463
X-3.7785 Y-1.5336
X-3.7834 Y-1.5212
X-3.7888 Y-1.5089
X-3.7948 Y-1.497
X-3.8014 Y-1.4853
X-3.8085 Y-1.4739
X-3.8161 Y-1.4629
X-3.8242 Y-1.4523
X-3.8328 Y-1.442
X-3.8419 Y-1.4322
X-3.8514 Y-1.4228
X-3.8613 Y-1.4139
X-3.8717 Y-1.4054
X-3.8824 Y-1.3974
X-3.8935 Y-1.3899
X-3.905 Y-1.383
X-3.9167 Y-1.3766
X-3.9287 Y-1.3707
X-3.941 Y-1.3654
X-3.9536 Y-1.3607
X-3.9673 Y-1.3564
X-3.9812 Y-1.3527
X-3.9952 Y-1.3496
X-4.0094 Y-1.3471
X-4.0236 Y-1.3453
X-4.038 Y-1.344
X-4.0523 Y-1.3434
X-4.0667 Y-1.3433
X-4.0811 Y-1.3439
X-4.0954 Y-1.3451
X-4.1097 Y-1.347
X-4.1238 Y-1.3494
X-4.1379 Y-1.3525
X-4.1518 Y-1.3561
X-4.1655 Y-1.3603
X-4.1791 Y-1.3652
X-4.1924 Y-1.3706
X-4.2055 Y-1.3765
X-4.2183 Y-1.3831
X-4.2308 Y-1.3901
X-4.243 Y-1.3977
X-4.2549 Y-1.4059
X-4.2664 Y-1.4145
X-4.2775 Y-1.4236
X-4.2882 Y-1.4332
X-4.2985 Y-1.4432
X-4.3084 Y-1.4537
X-4.3178 Y-1.4646
X-4.3267 Y-1.4758
X-4.3351 Y-1.4875
X-4.343 Y-1.4995
X-4.3504 Y-1.5118
X-4.3573 Y-1.5245
X-4.3636 Y-1.5374
X-4.3694 Y-1.5506
X-4.3745 Y-1.564
X-4.3791 Y-1.5776
X-4.3831 Y-1.5914
X-4.3866 Y-1.6054
X-4.3894 Y-1.6195
X-4.3916 Y-1.6337
X-4.3931 Y-1.648
X-4.3941 Y-1.6623
X-4.3945 Y-1.6767
X-4.3942 Y-1.6911
X-4.3933 Y-1.7054
X-4.3918 Y-1.7197
X-4.3897 Y-1.7339
X-4.387 Y-1.7481
X-4.3836 Y-1.762
X-4.3797 Y-1.7759
X-4.3752 Y-1.7895
X-4.3701 Y-1.803
X-4.3644 Y-1.8162
X-4.3582 Y-1.8291
X-4.3514 Y-1.8418
X-4.3441 Y-1.8542
X-4.3362 Y-1.8662
X-4.3278 Y-1.8779
X-4.319 Y-1.8892
X-4.3097 Y-1.9002
X-4.2999 Y-1.9107
X-4.2896 Y-1.9208
X-4.279 Y-1.9304
X-4.2679 Y-1.9396
X-4.2564 Y-1.9483
X-4.2446 Y-1.9565
X-4.2325 Y-1.9642
X-4.22 Y-1.9713
X-4.2072 Y-1.9779
X-4.1942 Y-1.984
X-4.1809 Y-1.9894
X-4.1674 Y-1.9943
X-4.1526 Y-1.9988
X-4.1377 Y-2.0027
X-4.1226 Y-2.006
X-4.1075 Y-2.0087
X-4.0922 Y-2.0108
X-4.0768 Y-2.0123
X-4.0614 Y-2.0131
X-4.046 Y-2.0133
X-4.0306 Y-2.0129
X-4.0152 Y-2.0119
X-3.9999 Y-2.0102
X-3.9847 Y-2.008
X-3.9695 Y-2.0051
X-3.9545 Y-2.0016
X-3.9396 Y-1.9975
X-3.9249 Y-1.9929
X-3.9105 Y-1.9876
X-3.8962 Y-1.9817
X-3.8822 Y-1.9753
X-3.8684 Y-1.9683
X-3.855 Y-1.9608
X-3.8418 Y-1.9528
X-3.829 Y-1.9442
X-3.8166 Y-1.9351
X-3.8045 Y-1.9255
X-3.7929 Y-1.9154
X-3.7816 Y-1.9049
X-3.7708 Y-1.8939
X-3.7604 Y-1.8825
X-3.7505 Y-1.8707
X-3.7411 Y-1.8585
X-3.7321 Y-1.8459
X-3.7237 Y-1.833
X-3.7159 Y-1.8198
X-3.7085 Y-1.8062
X-3.7017 Y-1.7924
X-3.6955 Y-1.7783
X-3.6898 Y-1.7639
X-3.6848 Y-1.7494
X-3.6803 Y-1.7346
X-3.6764 Y-1.7197
X-3.6731 Y-1.7047
X-3.6705 Y-1.6895
X-3.6684 Y-1.6742
X-3.667 Y-1.6588
X-3.6662 Y-1.6435
X-3.666 Y-1.628
X-3.6664 Y-1.6126
X-3.6675 Y-1.5973
X-3.6691 Y-1.5819
X-3.6714 Y-1.5667
X-3.6743 Y-1.5515
X-3.6778 Y-1.5365
X-3.6819 Y-1.5217
X-3.6866 Y-1.507
X-3.6919 Y-1.4925
X-3.6978 Y-1.4783
X-3.7042 Y-1.4643
X-3.7112 Y-1.4505
X-3.7187 Y-1.4371
X-3.7268 Y-1.424
X-3.7354 Y-1.4112
X-3.7445 Y-1.3987
X-3.7541 Y-1.3867
X-3.7642 Y-1.375
X-3.7748 Y-1.3638
X-3.7858 Y-1.353
X-3.7972 Y-1.3426
X-3.809 Y-1.3327
X-3.8212 Y-1.3233
X-3.8338 Y-1.3144
X-3.8467 Y-1.306
X-3.86 Y-1.2982
X-3.8736 Y-1.2909
X-3.8874 Y-1.2841
X-3.9015 Y-1.2779
X-3.9159 Y-1.2723
X-3.9304 Y-1.2672
G3 X-4.3142 Y-1.3282 I-0.1381 J-0.3692
G1 X-4.4512 Y-1.5697
G3 X-4.3223 Y-2.0196 I0.3604 J-0.1401
G1 X-4.0424 Y-2.0969
G3 X-3.6014 Y-1.7884 I0.0314 J0.4246
X-3.5833 Y-1.7128 I-0.0794 J0.059
G1 X-3.6019 Y-1.6752
X-3.6135 Y-1.6517
X-3.6234 Y-1.6283
X-3.7021 Y-1.4409
X-3.7115 Y-1.4174
X-3.7523 Y-1.3003
G3 X-4.1606 Y-1.155 I-0.3041 J-0.2083
X-4.2277 Y-1.1758 I-0.0116 J-0.0812
G1 X-4.3142 Y-1.3282
G3 X-4.3136 Y-1.3436 I0.0136 J-0.0071
X-4.2646 Y-1.3548 I0.0301 J0.0191
X-4.22 Y-1.2042 I-0.0622 J0.1004
X-4.2271 Y-1.1912 I-0.1069 J-0.0502 F50.
G2 X-4.2277 Y-1.1758 I0.013 J0.0082
G1 X-4.1987 Y-1.1246 F60.
G2 X-3.8221 Y-1.1096 I0.1972 J-0.2181
G1 X-3.8158 Y-1.106
X-3.8141 Y-1.1081
X-3.813 Y-1.1106
X-3.7927 Y-1.1832
X-3.785 Y-1.2066
X-3.7523 Y-1.3003
G2 X-3.7557 Y-1.3153 I-0.0147 J-0.0045
X-3.7791 Y-1.3206 I-0.0156 J0.0144
X-3.8273 Y-1.1363 I0.0434 J0.1098
X-3.8173 Y-1.1254 I0.0917 J-0.0745 F50.
G3 X-3.813 Y-1.1106 I-0.0106 J0.0111
G1 X-3.8283 Y-1.0559 F60.
G3 X-4.1099 Y-0.9681 I-0.2008 J-0.1485
G1 X-4.1987 Y-1.1246
G3 X-4.198 Y-1.1399 I0.0136 J-0.0071
X-4.1549 Y-1.1516 I0.028 J0.0177
X-4.1021 Y-0.9964 I-0.0541 J0.105
X-4.1092 Y-0.9834 I-0.1069 J-0.0502 F50.
G2 X-4.1099 Y-0.9681 I0.013 J0.0082
G1 X-4.0883 Y-0.9301 F60.
X-4.0815 Y-0.9226
X-4.0742 Y-0.9156
X-4.0665 Y-0.909
X-4.0584 Y-0.9029
X-4.0499 Y-0.8973
X-4.0412 Y-0.8922
X-4.0321 Y-0.8876
X-4.0228 Y-0.8836
X-4.0132 Y-0.8802
X-4.0035 Y-0.8774
X-3.9936 Y-0.8751
X-3.9836 Y-0.8735
X-3.9735 Y-0.8725
X-3.9634 Y-0.872
X-3.9532 Y-0.8722
X-3.9431 Y-0.8731
X-3.9331 Y-0.8745
X-3.9231 Y-0.8765
X-3.9133 Y-0.8791
X-3.9037 Y-0.8824
X-3.8943 Y-0.8861
X-3.8851 Y-0.8905
X-3.8763 Y-0.8954
X-3.8677 Y-0.9008
X-3.8581 Y-0.9489
X-3.8541 Y-0.9639
X-3.8283 Y-1.0559
G2 X-3.8326 Y-1.0706 I-0.0149 J-0.0036
X-3.9036 Y-1.0578 I-0.0308 J0.0323
X-3.8842 Y-0.9263 I0.1063 J0.0515
X-3.8734 Y-0.916 I0.0868 J-0.0801 F50.
G3 X-3.8682 Y-0.9016 I-0.0099 J0.0118
G1 X-3.8755 Y-0.8674 F60.
G3 X-4.013 Y-0.7945 I-0.1098 J-0.0411
G1 X-4.0142 Y-0.7972
X-4.0149 Y-0.8
X-4.0151 Y-0.8029
X-4.0148 Y-0.8057
X-4.0141 Y-0.8085
X-4.0128 Y-0.811
X-4.0112 Y-0.8132
X-4.0092 Y-0.8151
X-4.0069 Y-0.8166
X-4.0002 Y-0.8207
X-3.8987 Y-0.8831
X-3.8968 Y-0.8842
X-3.8947 Y-0.8849
G3 X-3.8755 Y-0.8674 I0.004 J0.0148 F50.
G1 X-3.8932 Y-0.7849 F60.
G3 X-3.971 Y-0.7233 I-0.072 J-0.011
X-3.969 Y-0.7404 I0.0136 J-0.0071
G1 X-3.9608 Y-0.75
G3 X-3.9123 Y-0.8024 I0.0875 J0.0323
X-3.8932 Y-0.7849 I0.004 J0.0148 F50.
X-3.9133 Y-0.7056 I-0.0942 J0.0183 F60.
X-3.9602 Y-0.7042 I-0.0238 J-0.0105
G1 X-4.0883 Y-0.9301
G3 X-4.0753 Y-0.9526 I0.0136 J-0.0071
G1 X-4.0723 Y-0.9527 Z-0.1672
X-4.0695 Y-0.9528 Z-0.1663
X-4.0668 Y-0.9529 Z-0.1649
X-4.0645 Y-0.953 Z-0.163
X-4.0626 Y-0.9531 Z-0.1607
X-4.0611 Y-0.9532 Z-0.158
X-4.0603 Z-0.1551
X-4.06 Z-0.1521
G0 Z-0.1368
X-3.6172 Y-1.6817
G1 Z-0.1521 F50.
X-3.6169 Y-1.6819 Z-0.1551
X-3.6162 Y-1.6823 Z-0.158
X-3.615 Y-1.6831 Z-0.1607
X-3.6134 Y-1.6842 Z-0.163
X-3.6114 Y-1.6854 Z-0.1649
X-3.6092 Y-1.6869 Z-0.1663
X-3.6068 Y-1.6884 Z-0.1672
X-3.6043 Y-1.6901 Z-0.1675
G2 X-3.5833 Y-1.7128 I-0.0339 J-0.0523
G1 X-3.5495 Y-1.7811 F60.
G2 X-3.7551 Y-2.1231 I-0.3337 J-0.0322
X-3.8132 Y-2.1602 I-0.0543 J0.021
G1 X-4.0424 Y-2.0969
G2 X-4.0528 Y-2.0856 I0.0046 J0.0147
X-4.0212 Y-2.032 I0.0443 J0.0099
X-3.8275 Y-2.1346 I0.0439 J-0.1512
X-3.8236 Y-2.1489 I-0.1497 J-0.0487 F50.
G3 X-3.8132 Y-2.1602 I0.015 J0.0034
G1 X-3.7475 Y-2.1783 F60.
G3 X-3.4669 Y-1.9411 I-0.0327 J0.3231
G1 X-3.4671 Y-1.938
X-3.4682 Y-1.9351
X-3.5026 Y-1.8754
X-3.5091 Y-1.8626
X-3.5495 Y-1.7811
G3 X-3.5625 Y-1.773 I-0.0135 J-0.0073
X-3.6037 Y-1.8145 I-0.0012 J-0.0399
X-3.4966 Y-1.9274 I0.118 J0.0047
X-3.4818 Y-1.9279 I0.011 J0.1176 F50.
G2 X-3.4682 Y-1.9351 I0.0005 J-0.0154
G1 X-3.4455 Y-1.9746 F60.
G2 X-3.5778 Y-2.2251 I-0.2256 J-0.0411
G1 X-3.7475 Y-2.1783
G2 X-3.7578 Y-2.167 I0.0046 J0.0147
X-3.7319 Y-2.125 I0.0345 J0.0077
X-3.5924 Y-2.1996 I0.0284 J-0.1146
X-3.5882 Y-2.2138 I-0.1111 J-0.0401 F50.
G3 X-3.5778 Y-2.2251 I0.015 J0.0034
G1 X-3.5332 Y-2.2375 F60.
G3 X-3.4274 Y-2.2043 I0.0223 J0.1144
G1 X-3.4269 Y-2.2014
Y-2.1985
X-3.4275 Y-2.1956
X-3.4286 Y-2.1929
X-3.4301 Y-2.1905
X-3.4321 Y-2.1883
X-3.4344 Y-2.1866
X-3.437 Y-2.1854
X-3.4398 Y-2.1847
X-3.4426 Y-2.1844
X-3.4454 Y-2.1847
X-3.4467 Y-2.185
G3 X-3.5399 Y-2.2124 I-0.0117 J-0.1327
X-3.5332 Y-2.2375 I0.0113 J-0.0104 F50.
X-3.4478 Y-2.2581 I0.063 J0.0737 F60.
X-3.3855 Y-2.0789 I-7.6563 J2.7633
G1 X-3.4455 Y-1.9746
G3 X-3.4715 Y-1.9744 I-0.013 J-0.0081
G1 X-3.4731 Y-1.9769 Z-0.1672
X-3.4747 Y-1.9793 Z-0.1663
X-3.4761 Y-1.9816 Z-0.1649
X-3.4774 Y-1.9835 Z-0.163
X-3.4784 Y-1.9851 Z-0.1607
X-3.4792 Y-1.9863 Z-0.158
X-3.4797 Y-1.9871 Z-0.1551
X-3.4798 Y-1.9873 Z-0.1521
G0 Z-0.1368
X-4.2765 Y-2.0151
G1 Z-0.1521 F50.
X-4.2768 Y-2.0152 Z-0.1551
X-4.2776 Y-2.0154 Z-0.158
X-4.279 Y-2.0158 Z-0.1607
X-4.2809 Y-2.0163 Z-0.163
X-4.2831 Y-2.0169 Z-0.1649
X-4.2857 Y-2.0176 Z-0.1663
X-4.2884 Y-2.0183 Z-0.1672
X-4.2913 Y-2.0191 Z-0.1675
G2 X-4.3223 Y-2.0196 I-0.0164 J0.0601
G1 X-4.4292 Y-1.9901 F60.
G2 X-4.57 Y-1.7791 I0.1241 J0.2353
G1 X-4.4512 Y-1.5697
G2 X-4.4377 Y-1.5624 I0.0131 J-0.008
X-4.3953 Y-1.6029 I-0.0011 J-0.0437
X-4.5417 Y-1.7715 I-0.1571 J-0.0115
X-4.5565 Y-1.7718 I-0.0107 J0.1571 F50.
G3 X-4.57 Y-1.7791 I-0.0004 J-0.0154
G1 X-4.6009 Y-1.8335 F60.
X-4.6044 Y-1.841
X-4.6073 Y-1.8487
X-4.6097 Y-1.8566
X-4.6116 Y-1.8647
X-4.6129 Y-1.8729
X-4.6136 Y-1.8811
X-4.6137 Y-1.8894
X-4.6132 Y-1.8977
X-4.6122 Y-1.9059
X-4.6106 Y-1.914
X-4.6084 Y-1.922
X-4.6057 Y-1.9298
X-4.6024 Y-1.9374
X-4.5986 Y-1.9448
X-4.5956 Y-1.9453
X-4.5926
X-4.5896 Y-1.9448
X-4.5868 Y-1.9437
X-4.5843 Y-1.9422
X-4.5822 Y-1.9402
X-4.5804 Y-1.9379
X-4.5791 Y-1.9354
X-4.5783 Y-1.9327
X-4.578 Y-1.9299
X-4.5777 Y-1.9257
G3 X-4.5749 Y-1.8331 I-0.1011 J0.0494
X-4.6009 Y-1.8335 I-0.0129 J-0.0084 F50.
G1 X-4.6452 Y-1.9117 F60.
X-4.6487 Y-1.9217
Y-1.9223
Y-1.9239
X-4.6486 Y-1.9245
X-4.6478 Y-1.9263
G3 X-4.6353 Y-1.9332 I0.0157 J0.0137
G1 X-4.4292 Y-1.9901
G3 X-4.4149 Y-1.9861 I0.0036 J0.0149
G1 X-4.4136 Y-1.9841 Z-0.1673
X-4.4124 Y-1.9822 Z-0.1668
X-4.4112 Y-1.9803 Z-0.1659
X-4.4109 Y-1.9784 Z-0.1647
X-4.4106 Y-1.9767 Z-0.1632
X-4.4103 Y-1.9752 Z-0.1615
X-4.4104 Y-1.9738 Z-0.1594
X-4.4105 Y-1.9728 Z-0.1571
X-4.4106 Y-1.9722 Z-0.1546
Y-1.972 Z-0.1521
G0 Z0.4
X-4.012 Y1.61
Z0.1
G3 X-4.0772 Y1.7407 Z0.0385 I-0.0326 J0.0653 F50.
X-4.012 Y1.61 Z-0.0229 I0.0326 J-0.0653
X-4.0772 Y1.7407 Z-0.0844 I-0.0326 J0.0653
X-4.012 Y1.61 Z-0.1458 I0.0326 J-0.0653
X-3.9716 Y1.6753 Z-0.1675 I-0.0326 J0.0653
X-4.1176 I-0.073 J0.
X-3.9718 Y1.6694 I0.073 J0.
G1 X-3.9716 Y1.6753
G3 X-4.128 Y1.7983 I-0.0818 J0.0568 F60.
G1 X-4.1361 Y1.7929
X-4.1438 Y1.7869
X-4.1512 Y1.7805
X-4.1581 Y1.7737
X-4.1646 Y1.7664
X-4.1706 Y1.7587
X-4.1762 Y1.7506
X-4.1812 Y1.7422
X-4.1856 Y1.7336
X-4.1895 Y1.7246
X-4.1929 Y1.7154
X-4.1956 Y1.7061
X-4.1977 Y1.6966
X-4.1993 Y1.6869
X-4.2002 Y1.6772
X-4.2005 Y1.6675
X-4.2002 Y1.6577
X-4.1993 Y1.648
X-4.1978 Y1.6383
X-4.1957 Y1.6288
X-4.1929 Y1.6194
X-4.1896 Y1.6103
X-4.1857 Y1.6013
X-4.1813 Y1.5926
X-4.1763 Y1.5842
X-4.1708 Y1.5762
X-4.1648 Y1.5685
X-4.1583 Y1.5612
X-4.1514 Y1.5543
X-4.144 Y1.5479
X-4.1363 Y1.5419
X-4.1282 Y1.5365
X-4.1198 Y1.5316
X-4.1111 Y1.5272
X-4.1021 Y1.5234
X-4.0929 Y1.5201
X-4.0835 Y1.5175
X-4.074 Y1.5154
X-4.0643 Y1.5139
X-4.0546 Y1.5131
X-4.0449 Y1.5129
X-4.0351 Y1.5132
X-4.0254 Y1.5142
X-4.0158 Y1.5158
X-4.0063 Y1.5181
X-3.9969 Y1.5209
X-3.9878 Y1.5243
X-3.9789 Y1.5282
X-3.9702 Y1.5328
X-3.9619 Y1.5378
X-3.9539 Y1.5434
X-3.9462 Y1.5495
X-3.939 Y1.556
X-3.9322 Y1.563
X-3.9258 Y1.5704
X-3.92 Y1.5782
X-3.9146 Y1.5863
X-3.9097 Y1.5948
X-3.9054 Y1.6035
X-3.9017 Y1.6125
X-3.8985 Y1.6218
X-3.8959 Y1.6312
X-3.8903 Y1.6404
X-3.8853 Y1.65
X-3.8808 Y1.6598
X-3.8768 Y1.6698
X-3.8735 Y1.6801
X-3.8707 Y1.6906
X-3.8685 Y1.7011
X-3.8669 Y1.7118
X-3.866 Y1.7226
X-3.8656 Y1.7334
X-3.8659 Y1.7442
X-3.8668 Y1.755
X-3.8683 Y1.7657
X-3.8704 Y1.7763
X-3.8731 Y1.7867
X-3.8764 Y1.797
X-3.8803 Y1.8071
X-3.8848 Y1.817
X-3.8898 Y1.8265
X-3.8953 Y1.8358
X-3.9014 Y1.8448
X-3.9079 Y1.8534
X-3.915 Y1.8616
X-3.9225 Y1.8693
X-3.9304 Y1.8767
X-3.9387 Y1.8836
X-3.9474 Y1.89
X-3.9565 Y1.8959
X-3.9659 Y1.9012
X-3.9755 Y1.9061
X-3.9855 Y1.9103
X-3.9956 Y1.914
X-4.006 Y1.9171
X-4.0165 Y1.9196
X-4.0271 Y1.9215
X-4.0378 Y1.9228
X-4.0486 Y1.9235
X-4.0594 Y1.9236
X-4.0702 Y1.9231
X-4.0809 Y1.9219
X-4.0916 Y1.9201
X-4.1022 Y1.9178
X-4.1125 Y1.9148
X-4.1227 Y1.9112
X-4.1327 Y1.9071
X-4.1425 Y1.9024
X-4.1519 Y1.8972
X-4.161 Y1.8914
X-4.1698 Y1.8851
X-4.1783 Y1.8784
X-4.1863 Y1.8711
X-4.1939 Y1.8635
X-4.2038 Y1.8565
X-4.2133 Y1.849
X-4.2224 Y1.8411
X-4.231 Y1.8327
X-4.2393 Y1.8239
X-4.2471 Y1.8146
X-4.2543 Y1.805
X-4.2611 Y1.795
X-4.2674 Y1.7847
X-4.2731 Y1.774
X-4.2783 Y1.7631
X-4.2829 Y1.7519
X-4.2869 Y1.7405
X-4.2903 Y1.729
X-4.2931 Y1.7172
X-4.2953 Y1.7053
X-4.2969 Y1.6934
X-4.2979 Y1.6813
X-4.2983 Y1.6693
X-4.298 Y1.6572
X-4.2971 Y1.6451
X-4.2956 Y1.6332
X-4.2935 Y1.6213
X-4.2908 Y1.6095
X-4.2874 Y1.5979
X-4.2835 Y1.5865
X-4.279 Y1.5753
X-4.2739 Y1.5643
X-4.2683 Y1.5536
X-4.2621 Y1.5432
X-4.2554 Y1.5332
X-4.2482 Y1.5235
X-4.2405 Y1.5142
X-4.2324 Y1.5053
X-4.2238 Y1.4968
X-4.2147 Y1.4888
X-4.2053 Y1.4813
X-4.1955 Y1.4742
X-4.1853 Y1.4677
X-4.1748 Y1.4617
X-4.164 Y1.4563
X-4.1517 Y1.4512
X-4.1391 Y1.4467
X-4.1263 Y1.4428
X-4.1133 Y1.4394
X-4.1002 Y1.4367
X-4.087 Y1.4346
X-4.0737 Y1.4332
X-4.0603 Y1.4323
X-4.0469 Y1.4321
X-4.0335 Y1.4325
X-4.0202 Y1.4335
X-4.0069 Y1.4351
X-3.9937 Y1.4374
X-3.9806 Y1.4403
X-3.9677 Y1.4437
X-3.955 Y1.4478
X-3.9424 Y1.4525
X-3.9301 Y1.4577
X-3.9181 Y1.4635
X-3.9063 Y1.4699
X-3.8948 Y1.4768
X-3.8837 Y1.4843
X-3.8729 Y1.4922
X-3.8625 Y1.5007
X-3.8526 Y1.5096
X-3.843 Y1.519
X-3.8339 Y1.5288
X-3.8253 Y1.539
X-3.8171 Y1.5496
X-3.8095 Y1.5606
X-3.8023 Y1.5719
X-3.7958 Y1.5836
X-3.7897 Y1.5955
X-3.7842 Y1.6077
X-3.7793 Y1.6202
X-3.775 Y1.6328
X-3.7713 Y1.6457
X-3.7682 Y1.6587
X-3.7657 Y1.6719
X-3.7638 Y1.6851
X-3.7625 Y1.6984
X-3.7619 Y1.7118
X-3.7618 Y1.7252
X-3.7624 Y1.7385
X-3.7637 Y1.7519
X-3.7655 Y1.7651
X-3.768 Y1.7783
X-3.771 Y1.7913
X-3.7747 Y1.8042
X-3.779 Y1.8169
X-3.7839 Y1.8293
X-3.7893 Y1.8416
X-3.7953 Y1.8535
X-3.8018 Y1.8652
X-3.8089 Y1.8765
X-3.8165 Y1.8875
X-3.8246 Y1.8982
X-3.8332 Y1.9084
X-3.8423 Y1.9183
X-3.8518 Y1.9277
X-3.8618 Y1.9366
X-3.8721 Y1.9451
X-3.8829 Y1.9531
X-3.894 Y1.9606
X-3.9054 Y1.9675
X-3.9172 Y1.9739
X-3.9292 Y1.9798
X-3.9415 Y1.9851
X-3.954 Y1.9898
X-3.9677 Y1.9941
X-3.9816 Y1.9978
X-3.9957 Y2.0009
X-4.0098 Y2.0033
X-4.0241 Y2.0052
X-4.0384 Y2.0065
X-4.0528 Y2.0071
X-4.0671
X-4.0815 Y2.0065
X-4.0958 Y2.0053
X-4.1101 Y2.0035
X-4.1243 Y2.0011
X-4.1383 Y1.998
X-4.1522 Y1.9944
X-4.166 Y1.9901
X-4.1795 Y1.9853
X-4.1928 Y1.9799
X-4.2059 Y1.9739
X-4.2187 Y1.9674
X-4.2313 Y1.9603
X-4.2435 Y1.9527
X-4.2553 Y1.9446
X-4.2668 Y1.936
X-4.2779 Y1.9269
X-4.2887 Y1.9173
X-4.299 Y1.9073
X-4.3088 Y1.8968
X-4.3182 Y1.8859
X-4.3271 Y1.8746
X-4.3356 Y1.863
X-4.3435 Y1.851
X-4.3509 Y1.8387
X-4.3578 Y1.826
X-4.3641 Y1.8131
X-4.3698 Y1.7999
X-4.375 Y1.7865
X-4.3796 Y1.7729
X-4.3836 Y1.7591
X-4.387 Y1.7451
X-4.3898 Y1.731
X-4.392 Y1.7168
X-4.3936 Y1.7025
X-4.3946 Y1.6882
X-4.3949 Y1.6738
X-4.3946 Y1.6594
X-4.3938 Y1.6451
X-4.3923 Y1.6308
X-4.3901 Y1.6165
X-4.3874 Y1.6024
X-4.3841 Y1.5884
X-4.3802 Y1.5746
X-4.3756 Y1.561
X-4.3705 Y1.5475
X-4.3649 Y1.5343
X-4.3586 Y1.5214
X-4.3518 Y1.5087
X-4.3445 Y1.4963
X-4.3367 Y1.4843
X-4.3283 Y1.4726
X-4.3194 Y1.4612
X-4.3101 Y1.4503
X-4.3003 Y1.4398
X-4.2901 Y1.4297
X-4.2794 Y1.4201
X-4.2683 Y1.4109
X-4.2569 Y1.4022
X-4.2451 Y1.394
X-4.2329 Y1.3863
X-4.2204 Y1.3792
X-4.2077 Y1.3726
X-4.1946 Y1.3665
X-4.1813 Y1.3611
X-4.1678 Y1.3562
X-4.1531 Y1.3516
X-4.1381 Y1.3477
X-4.1231 Y1.3444
X-4.1079 Y1.3418
X-4.0926 Y1.3397
X-4.0773 Y1.3382
X-4.0619 Y1.3374
X-4.0465 Y1.3372
X-4.0311 Y1.3376
X-4.0157 Y1.3386
X-4.0004 Y1.3402
X-3.9851 Y1.3425
X-3.97 Y1.3454
X-3.955 Y1.3489
X-3.9401 Y1.3529
X-3.9254 Y1.3576
X-3.9109 Y1.3629
X-3.8966 Y1.3687
X-3.8826 Y1.3752
X-3.8689 Y1.3821
X-3.8554 Y1.3897
X-3.8423 Y1.3977
X-3.8295 Y1.4063
X-3.817 Y1.4154
X-3.805 Y1.425
X-3.7933 Y1.4351
X-3.782 Y1.4456
X-3.7712 Y1.4566
X-3.7608 Y1.468
X-3.7509 Y1.4798
X-3.7415 Y1.492
X-3.7326 Y1.5045
X-3.7242 Y1.5175
X-3.7163 Y1.5307
X-3.709 Y1.5443
X-3.7022 Y1.5581
X-3.6959 Y1.5722
X-3.6903 Y1.5865
X-3.6852 Y1.6011
X-3.6807 Y1.6159
X-3.6769 Y1.6308
X-3.6736 Y1.6458
X-3.6709 Y1.661
X-3.6689 Y1.6763
X-3.6674 Y1.6916
X-3.6666 Y1.707
X-3.6664 Y1.7224
X-3.6669 Y1.7379
X-3.6679 Y1.7532
X-3.6696 Y1.7686
X-3.6719 Y1.7838
X-3.6748 Y1.7989
X-3.6783 Y1.8139
X-3.6824 Y1.8288
X-3.6871 Y1.8435
X-3.6923 Y1.858
X-3.6982 Y1.8722
X-3.7047 Y1.8862
X-3.7117 Y1.9
X-3.7192 Y1.9134
X-3.7273 Y1.9265
X-3.7359 Y1.9393
X-3.745 Y1.9517
X-3.7546 Y1.9638
X-3.7647 Y1.9755
X-3.7752 Y1.9867
X-3.7862 Y1.9975
X-3.7976 Y2.0079
X-3.8095 Y2.0178
X-3.8217 Y2.0272
X-3.8342 Y2.0361
X-3.8472 Y2.0445
X-3.8604 Y2.0523
X-3.874 Y2.0596
X-3.8879 Y2.0664
X-3.902 Y2.0726
X-3.9163 Y2.0782
X-3.9309 Y2.0833
G3 X-4.0137 Y2.1048 I-0.0722 J-0.1075
G1 X-4.2758 Y2.0325
G3 X-4.4844 Y1.6282 I0.184 J-0.351
G1 X-4.3383 Y1.3706
G3 X-3.9868 Y1.2367 I0.2873 J0.2257
G2 X-3.8177 Y1.3203 I0.2885 J-0.3701
G3 X-3.728 Y1.3714 I-0.0093 J0.1207
X-3.7497 Y1.3901 I-0.0145 J0.0051
G1 X-3.8278 Y1.349
G3 X-3.8355 Y1.3393 I0.0072 J-0.0136
X-3.8177 Y1.3203 I0.0149 J-0.0038 F50.
X-3.7426 Y1.3394 I0.0181 J0.0866 F60.
G1 X-3.7369 Y1.3491
X-3.7284 Y1.3706
X-3.6547 Y1.558
X-3.6442 Y1.5815
X-3.6007 Y1.6752
G3 X-3.8428 Y2.152 I-0.4042 J0.0947
G1 X-4.0137 Y2.1048
G3 X-4.0241 Y2.0935 I0.0046 J-0.0147
X-3.9994 Y2.0525 I0.0338 J-0.0076
X-3.8574 Y2.1264 I0.0309 J0.114
X-3.8532 Y2.1407 I-0.1111 J0.0401 F50.
G2 X-3.8428 Y2.152 I0.015 J-0.0034
G1 X-3.7878 Y2.1672 F60.
G2 X-3.512 Y1.8942 I-0.0167 J-0.2927
G1 X-3.4997 Y1.8828
X-3.4994 Y1.8803
X-3.4997 Y1.8778
X-3.5006 Y1.8755
X-3.5495 Y1.785
X-3.5572 Y1.7689
X-3.6007 Y1.6752
G2 X-3.6136 Y1.6668 I-0.0137 J0.007
X-3.6713 Y1.7278 I-0.003 J0.055
X-3.5288 Y1.8672 I0.1565 J-0.0175
X-3.514 Y1.8679 I0.014 J-0.1569 F50.
G3 X-3.5006 Y1.8755 I0.0001 J0.0154
G1 X-3.4696 Y1.9329 F60.
G3 X-3.6146 Y2.215 I-0.2791 J0.0349
G1 X-3.7878 Y2.1672
G3 X-3.7982 Y2.1559 I0.0046 J-0.0147
X-3.7758 Y2.1169 I0.0325 J-0.0073
X-3.6291 Y2.1895 I0.0355 J0.1126
X-3.625 Y2.2037 I-0.1111 J0.0401 F50.
G2 X-3.6146 Y2.215 I0.015 J-0.0034
G1 X-3.5729 Y2.2265 F60.
G2 X-3.3868 Y2.0741 I0.0001 J-0.1898
G1 X-3.4323 Y2.0007
X-3.4443 Y1.9797
X-3.4696 Y1.9329
G2 X-3.4829 Y1.9253 I-0.0133 J0.0078
X-3.5233 Y1.9765 I0.0002 J0.0417
X-3.4154 Y2.0674 I0.115 J-0.027
X-3.4005 Y2.0673 I0.0071 J-0.1179 F50.
G3 X-3.3868 Y2.0741 I0.001 J0.0153
G1 X-3.3668 Y2.1062 F60.
X-3.3635 Y2.1146
X-3.3608 Y2.1231
X-3.3586 Y2.1319
X-3.3571 Y2.1407
X-3.3562 Y2.1496
X-3.3559 Y2.1586
X-3.3563 Y2.1676
X-3.3573 Y2.1765
X-3.3589 Y2.1853
X-3.3611 Y2.194
X-3.3639 Y2.2025
X-3.3672 Y2.2109
X-3.3712 Y2.2189
X-3.3757 Y2.2267
X-3.3807 Y2.2341
X-3.3863 Y2.2412
X-3.3923 Y2.2478
X-3.3988 Y2.254
X-3.4056 Y2.2598
X-3.4129 Y2.2651
X-3.4205 Y2.2698
X-3.4233 Y2.2688
X-3.4258 Y2.2673
X-3.4279 Y2.2654
X-3.4297 Y2.2631
X-3.4311 Y2.2606
X-3.4319 Y2.2579
X-3.4323 Y2.2552
X-3.4322 Y2.2524
X-3.4316 Y2.2497
X-3.4297 Y2.2425
X-3.3944 Y2.1108
X-3.3937 Y2.1088
X-3.3928 Y2.1069
G3 X-3.3668 Y2.1062 I0.0132 J0.0079 F50.
G1 X-3.329 Y2.1672 F60.
X-3.3221 Y2.1784
G3 X-3.3503 Y2.2876 I-0.0873 J0.0357
G1 X-3.362 Y2.2847
X-3.5729 Y2.2265
G3 X-3.5796 Y2.2014 I0.0046 J-0.0147
G1 X-3.5776 Y2.1992 Z-0.1672
X-3.5756 Y2.1971 Z-0.1663
X-3.5738 Y2.1951 Z-0.1649
X-3.5722 Y2.1934 Z-0.163
X-3.5709 Y2.192 Z-0.1607
X-3.57 Y2.191 Z-0.158
X-3.5694 Y2.1903 Z-0.1551
X-3.5692 Y2.1901 Z-0.1521
G0 Z-0.1368
X-3.9627 Y1.2758
G1 Z-0.1521 F50.
X-3.9628 Y1.2756 Z-0.1551
X-3.9632 Y1.2748 Z-0.158
X-3.9637 Y1.2734 Z-0.1607
X-3.9644 Y1.2717 Z-0.163
X-3.9653 Y1.2695 Z-0.1649
X-3.9663 Y1.267 Z-0.1663
X-3.9674 Y1.2644 Z-0.1672
X-3.9685 Y1.2616 Z-0.1675
G2 X-3.9868 Y1.2367 I-0.0578 J0.0233
G1 X-3.9946 Y1.2307 F60.
X-4.0221 Y1.2066
X-4.0415 Y1.1895
G2 X-4.2264 Y1.1734 I-0.1061 J0.1486
G1 X-4.3383 Y1.3706
G2 X-4.3146 Y1.3893 I0.0136 J0.0071
G3 X-4.2929 Y1.411 I0.0101 J0.0116
G1 X-4.4581 Y1.6034
X-4.46 Y1.6052
X-4.4622 Y1.6067
G2 X-4.4844 Y1.6282 I0.0309 J0.0541 F50.
G1 X-4.5376 Y1.722 F60.
G2 X-4.4883 Y1.9738 I0.2523 J0.0813
G1 X-4.2758 Y2.0325
G2 X-4.2611 Y2.0281 I0.0036 J-0.0149
X-4.269 Y1.9488 I-0.0382 J-0.0362
X-4.4629 Y1.9592 I-0.0903 J0.129
X-4.4736 Y1.9694 I0.1035 J0.1187 F50.
G3 X-4.4883 Y1.9738 I-0.0112 J-0.0106
G1 X-4.5517 Y1.9563 F60.
X-4.5593 Y1.9533
X-4.5666 Y1.9498
X-4.5737 Y1.9459
X-4.5805 Y1.9414
X-4.587 Y1.9365
X-4.5932 Y1.9311
X-4.5989 Y1.9254
X-4.6043 Y1.9192
X-4.6092 Y1.9127
X-4.6137 Y1.9059
X-4.6177 Y1.8988
X-4.6212 Y1.8915
X-4.6241 Y1.8839
X-4.6266 Y1.8761
X-4.6249 Y1.8736
X-4.6227 Y1.8715
X-4.6202 Y1.8698
X-4.6175 Y1.8685
X-4.6146 Y1.8679
X-4.6116 Y1.8677
X-4.6088 Y1.8681
X-4.606 Y1.8691
X-4.6035 Y1.8705
X-4.6013 Y1.8723
X-4.5984 Y1.8749
G3 X-4.5331 Y1.9382 I-0.0393 J0.106
X-4.5517 Y1.9563 I-0.015 J0.0032 F50.
X-4.6462 Y1.9281 I0.027 J-0.2628 F60.
G1 X-4.6472 Y1.9271
X-4.6478 Y1.9263
X-4.6486 Y1.9245
X-4.6487 Y1.9239
Y1.9223
Y1.9217
X-4.6452 Y1.9117
X-4.5376 Y1.722
G3 X-4.5117 Y1.7217 I0.0131 J0.008
G1 X-4.51 Y1.7242 Z-0.1672
X-4.5084 Y1.7266 Z-0.1663
X-4.507 Y1.7288 Z-0.1649
X-4.5057 Y1.7308 Z-0.163
X-4.5047 Y1.7324 Z-0.1607
X-4.5039 Y1.7335 Z-0.158
X-4.5034 Y1.7343 Z-0.1551
X-4.5033 Y1.7345 Z-0.1521
G0 Z-0.1368
X-4.0202 Y1.2303
G1 Z-0.1521 F50.
X-4.0203 Y1.23 Z-0.1551
X-4.0206 Y1.2292 Z-0.158
X-4.021 Y1.2278 Z-0.1607
X-4.0216 Y1.226 Z-0.163
X-4.0223 Y1.2238 Z-0.1649
X-4.0232 Y1.2213 Z-0.1663
X-4.024 Y1.2185 Z-0.1672
X-4.025 Y1.2157 Z-0.1675
G2 X-4.0415 Y1.1895 I-0.0593 J0.0192
G3 X-4.0963 Y1.122 I0.8453 J-0.7413 F60.
G2 X-4.177 Y1.0864 I-0.0619 J0.0311
G1 X-4.2264 Y1.1734
G2 X-4.2061 Y1.1944 I0.0136 J0.0071
G1 X-4.1066 Y1.1463
X-4.1024 Y1.1443 F50.
G2 X-4.0963 Y1.122 I-0.0067 J-0.0138
G1 X-4.1028 Y1.1129 F60.
X-4.129 Y1.066
X-4.1352 Y1.0555
X-4.1401 Y1.0492
X-4.1403 Y1.0489
X-4.1438 Y1.0467
X-4.1479 Y1.046
X-4.1519 Y1.0471
X-4.1552 Y1.0497
X-4.1581 Y1.0531
X-4.1584 Y1.0535
X-4.177 Y1.0864
G2 X-4.1705 Y1.1071 I0.0136 J0.0071
X-4.1497 Y1.1005 I0.0071 J-0.0136
G1 X-4.1412 Y1.084
X-4.1345 Y1.0708 F50.
G2 X-4.1352 Y1.0555 I-0.0137 J-0.007
G1 X-4.1419 Y1.0458 F60.
X-4.1425 Y1.0451
X-4.1441 Y1.044
X-4.1446 Y1.0438
X-4.1464 Y1.0434
X-4.1469
X-4.1484 Y1.0436
X-4.1491 Y1.0437
X-4.1506 Y1.0445
X-4.1513 Y1.045
X-4.1552 Y1.0497
G2 X-4.1563 Y1.0513 I0.0121 J0.0095
G1 X-4.1571 Y1.0536 Z-0.1673
X-4.1578 Y1.0557 Z-0.1668
X-4.1584 Y1.0578 Z-0.1659
X-4.1585 Y1.0591 Z-0.1651
X-4.158 Y1.0611 Z-0.1636
X-4.1576 Y1.0628 Z-0.1617
X-4.1573 Y1.0642 Z-0.1596
X-4.1571 Y1.0652 Z-0.1572
X-4.157 Y1.0658 Z-0.1548
X-4.1569 Y1.066 Z-0.1521
G0 Z0.4
X-3.1601 Y-3.365
Z0.1
G3 X-3.2253 Y-3.2343 Z0.0385 I-0.0326 J0.0653 F50.
X-3.1601 Y-3.365 Z-0.0229 I0.0326 J-0.0653
X-3.2253 Y-3.2343 Z-0.0844 I-0.0326 J0.0653
X-3.1601 Y-3.365 Z-0.1458 I0.0326 J-0.0653
X-3.1197 Y-3.2997 Z-0.1675 I-0.0326 J0.0653
X-3.2657 I-0.073 J0.
X-3.1199 Y-3.3056 I0.073 J0.
G1 X-3.1197 Y-3.2997
G3 X-3.2761 Y-3.1767 I-0.0818 J0.0568 F60.
G1 X-3.2842 Y-3.1821
X-3.2919 Y-3.1881
X-3.2993 Y-3.1945
X-3.3062 Y-3.2013
X-3.3127 Y-3.2086
X-3.3187 Y-3.2163
X-3.3243 Y-3.2244
X-3.3293 Y-3.2328
X-3.3337 Y-3.2414
X-3.3376 Y-3.2504
X-3.341 Y-3.2596
X-3.3437 Y-3.2689
X-3.3459 Y-3.2784
X-3.3474 Y-3.2881
X-3.3483 Y-3.2978
X-3.3486 Y-3.3076
X-3.3483 Y-3.3173
X-3.3474 Y-3.327
X-3.3459 Y-3.3367
X-3.3438 Y-3.3462
X-3.341 Y-3.3556
X-3.3377 Y-3.3647
X-3.3338 Y-3.3737
X-3.3294 Y-3.3824
X-3.3244 Y-3.3908
X-3.3189 Y-3.3988
X-3.3129 Y-3.4065
X-3.3064 Y-3.4138
X-3.2995 Y-3.4207
X-3.2922 Y-3.4271
X-3.2844 Y-3.4331
X-3.2763 Y-3.4385
X-3.2679 Y-3.4434
X-3.2592 Y-3.4478
X-3.2502 Y-3.4516
X-3.241 Y-3.4549
X-3.2316 Y-3.4576
X-3.2221 Y-3.4596
X-3.2124 Y-3.4611
X-3.2027 Y-3.4619
X-3.193 Y-3.4622
X-3.1832 Y-3.4618
X-3.1735 Y-3.4608
X-3.1639 Y-3.4592
X-3.1544 Y-3.4569
X-3.145 Y-3.4541
X-3.1359 Y-3.4507
X-3.127 Y-3.4468
X-3.1183 Y-3.4422
X-3.11 Y-3.4372
X-3.102 Y-3.4316
X-3.0943 Y-3.4255
X-3.0871 Y-3.419
X-3.0803 Y-3.412
X-3.0739 Y-3.4046
X-3.0681 Y-3.3968
X-3.0627 Y-3.3887
X-3.0578 Y-3.3802
X-3.0535 Y-3.3715
X-3.0498 Y-3.3625
X-3.0466 Y-3.3533
X-3.044 Y-3.3438
X-3.0384 Y-3.3346
X-3.0334 Y-3.325
X-3.0289 Y-3.3152
X-3.0249 Y-3.3052
X-3.0216 Y-3.2949
X-3.0188 Y-3.2844
X-3.0166 Y-3.2739
X-3.015 Y-3.2632
X-3.0141 Y-3.2524
X-3.0138 Y-3.2416
X-3.014 Y-3.2308
X-3.0149 Y-3.22
X-3.0164 Y-3.2093
X-3.0185 Y-3.1987
X-3.0212 Y-3.1883
X-3.0245 Y-3.178
X-3.0284 Y-3.1679
X-3.0329 Y-3.158
X-3.0379 Y-3.1485
X-3.0434 Y-3.1392
X-3.0495 Y-3.1302
X-3.056 Y-3.1216
X-3.0631 Y-3.1134
X-3.0706 Y-3.1057
X-3.0785 Y-3.0983
X-3.0868 Y-3.0914
X-3.0955 Y-3.085
X-3.1046 Y-3.0791
X-3.114 Y-3.0738
X-3.1236 Y-3.069
X-3.1336 Y-3.0647
X-3.1437 Y-3.061
X-3.1541 Y-3.0579
X-3.1646 Y-3.0554
X-3.1752 Y-3.0535
X-3.1859 Y-3.0522
X-3.1967 Y-3.0515
X-3.2075 Y-3.0514
X-3.2183 Y-3.0519
X-3.2291 Y-3.0531
X-3.2397 Y-3.0549
X-3.2503 Y-3.0572
X-3.2606 Y-3.0602
X-3.2708 Y-3.0638
X-3.2808 Y-3.0679
X-3.2906 Y-3.0726
X-3.3 Y-3.0778
X-3.3092 Y-3.0836
X-3.3179 Y-3.0899
X-3.3264 Y-3.0966
X-3.3344 Y-3.1039
X-3.342 Y-3.1115
X-3.3519 Y-3.1185
X-3.3614 Y-3.126
X-3.3705 Y-3.1339
X-3.3791 Y-3.1423
X-3.3874 Y-3.1511
X-3.3952 Y-3.1604
X-3.4024 Y-3.17
X-3.4092 Y-3.18
X-3.4155 Y-3.1903
X-3.4212 Y-3.201
X-3.4264 Y-3.2119
X-3.431 Y-3.2231
X-3.435 Y-3.2345
X-3.4384 Y-3.246
X-3.4412 Y-3.2578
X-3.4434 Y-3.2697
X-3.445 Y-3.2816
X-3.446 Y-3.2937
X-3.4464 Y-3.3057
X-3.4461 Y-3.3178
X-3.4452 Y-3.3299
X-3.4437 Y-3.3418
X-3.4416 Y-3.3537
X-3.4389 Y-3.3655
X-3.4356 Y-3.3771
X-3.4316 Y-3.3885
X-3.4271 Y-3.3997
X-3.4221 Y-3.4107
X-3.4164 Y-3.4214
X-3.4102 Y-3.4318
X-3.4035 Y-3.4418
X-3.3963 Y-3.4515
X-3.3886 Y-3.4608
X-3.3805 Y-3.4697
X-3.3719 Y-3.4782
X-3.3628 Y-3.4862
X-3.3534 Y-3.4937
X-3.3436 Y-3.5008
X-3.3334 Y-3.5073
X-3.3229 Y-3.5133
X-3.3121 Y-3.5187
X-3.2998 Y-3.5238
X-3.2872 Y-3.5283
X-3.2744 Y-3.5322
X-3.2614 Y-3.5356
X-3.2483 Y-3.5383
X-3.2351 Y-3.5404
X-3.2218 Y-3.5418
X-3.2084 Y-3.5427
X-3.195 Y-3.5429
X-3.1816 Y-3.5425
X-3.1683 Y-3.5415
X-3.155 Y-3.5399
X-3.1418 Y-3.5376
X-3.1287 Y-3.5347
X-3.1158 Y-3.5313
X-3.1031 Y-3.5272
X-3.0905 Y-3.5225
X-3.0782 Y-3.5173
X-3.0662 Y-3.5115
X-3.0544 Y-3.5051
X-3.0429 Y-3.4982
X-3.0318 Y-3.4907
X-3.021 Y-3.4828
X-3.0106 Y-3.4743
X-3.0007 Y-3.4654
X-2.9911 Y-3.4561
X-2.982 Y-3.4462
X-2.9734 Y-3.436
X-2.9652 Y-3.4254
X-2.9576 Y-3.4144
X-2.9504 Y-3.4031
X-2.9439 Y-3.3914
X-2.9378 Y-3.3795
X-2.9323 Y-3.3673
X-2.9274 Y-3.3548
X-2.9231 Y-3.3422
X-2.9194 Y-3.3293
X-2.9163 Y-3.3163
X-2.9138 Y-3.3032
X-2.9119 Y-3.2899
X-2.9106 Y-3.2766
X-2.91 Y-3.2632
Y-3.2498
X-2.9106 Y-3.2365
X-2.9118 Y-3.2231
X-2.9136 Y-3.2099
X-2.9161 Y-3.1967
X-2.9192 Y-3.1837
X-2.9228 Y-3.1708
X-2.9271 Y-3.1581
X-2.932 Y-3.1457
X-2.9374 Y-3.1335
X-2.9434 Y-3.1215
X-2.9499 Y-3.1098
X-2.957 Y-3.0985
X-2.9646 Y-3.0875
X-2.9728 Y-3.0768
X-2.9814 Y-3.0666
X-2.9904 Y-3.0567
X-2.9999 Y-3.0473
X-3.0099 Y-3.0384
X-3.0202 Y-3.0299
X-3.031 Y-3.0219
X-3.0421 Y-3.0144
X-3.0535 Y-3.0075
X-3.0653 Y-3.0011
X-3.0773 Y-2.9952
X-3.0896 Y-2.9899
X-3.1021 Y-2.9852
X-3.1158 Y-2.9809
X-3.1297 Y-2.9772
X-3.1438 Y-2.9742
X-3.1579 Y-2.9717
X-3.1722 Y-2.9698
X-3.1865 Y-2.9685
X-3.2009 Y-2.9679
X-3.2153
X-3.2296 Y-2.9685
X-3.2439 Y-2.9697
X-3.2582 Y-2.9715
X-3.2724 Y-2.9739
X-3.2864 Y-2.977
X-3.3003 Y-2.9806
X-3.3141 Y-2.9849
X-3.3276 Y-2.9897
X-3.3409 Y-2.9951
X-3.354 Y-3.0011
X-3.3668 Y-3.0076
X-3.3794 Y-3.0147
X-3.3916 Y-3.0223
X-3.4034 Y-3.0304
X-3.4149 Y-3.039
X-3.4261 Y-3.0481
X-3.4368 Y-3.0577
X-3.4471 Y-3.0677
X-3.4569 Y-3.0782
X-3.4663 Y-3.0891
X-3.4752 Y-3.1004
X-3.4837 Y-3.112
X-3.4916 Y-3.124
X-3.499 Y-3.1363
X-3.5059 Y-3.149
X-3.5122 Y-3.1619
X-3.5179 Y-3.1751
X-3.5231 Y-3.1885
X-3.5277 Y-3.2021
X-3.5317 Y-3.2159
X-3.5351 Y-3.2299
X-3.5379 Y-3.244
X-3.5401 Y-3.2582
X-3.5417 Y-3.2725
X-3.5427 Y-3.2868
X-3.543 Y-3.3012
X-3.5427 Y-3.3156
X-3.5419 Y-3.3299
X-3.5404 Y-3.3442
X-3.5382 Y-3.3585
X-3.5355 Y-3.3726
X-3.5322 Y-3.3866
X-3.5283 Y-3.4004
X-3.5237 Y-3.414
X-3.5186 Y-3.4275
X-3.513 Y-3.4407
X-3.5067 Y-3.4536
X-3.4999 Y-3.4663
X-3.4926 Y-3.4787
X-3.4848 Y-3.4907
X-3.4764 Y-3.5024
X-3.4675 Y-3.5138
X-3.4582 Y-3.5247
X-3.4484 Y-3.5352
X-3.4382 Y-3.5453
X-3.4275 Y-3.5549
X-3.4164 Y-3.5641
X-3.405 Y-3.5728
X-3.3932 Y-3.581
X-3.381 Y-3.5887
X-3.3685 Y-3.5958
X-3.3558 Y-3.6024
X-3.3427 Y-3.6085
X-3.3294 Y-3.6139
X-3.3159 Y-3.6189
X-3.3012 Y-3.6234
X-3.2862 Y-3.6273
X-3.2712 Y-3.6306
X-3.256 Y-3.6332
X-3.2407 Y-3.6353
X-3.2254 Y-3.6368
X-3.21 Y-3.6376
X-3.1946 Y-3.6378
X-3.1792 Y-3.6374
X-3.1638 Y-3.6364
X-3.1485 Y-3.6348
X-3.1332 Y-3.6325
X-3.1181 Y-3.6296
X-3.1031 Y-3.6261
X-3.0882 Y-3.6221
X-3.0735 Y-3.6174
X-3.059 Y-3.6121
X-3.0448 Y-3.6063
X-3.0307 Y-3.5998
X-3.017 Y-3.5929
X-3.0035 Y-3.5853
X-2.9904 Y-3.5773
X-2.9776 Y-3.5687
X-2.9651 Y-3.5596
X-2.9531 Y-3.55
X-2.9414 Y-3.5399
X-2.9301 Y-3.5294
X-2.9193 Y-3.5184
X-2.9089 Y-3.507
X-2.899 Y-3.4952
X-2.8896 Y-3.483
X-2.8807 Y-3.4705
X-2.8723 Y-3.4575
X-2.8644 Y-3.4443
X-2.8571 Y-3.4307
X-2.8503 Y-3.4169
X-2.8441 Y-3.4028
X-2.8384 Y-3.3885
X-2.8333 Y-3.3739
X-2.8289 Y-3.3592
X-2.825 Y-3.3442
X-2.8217 Y-3.3292
X-2.819 Y-3.314
X-2.817 Y-3.2987
X-2.8155 Y-3.2834
X-2.8147 Y-3.268
X-2.8145 Y-3.2526
X-2.815 Y-3.2372
X-2.816 Y-3.2218
X-2.8177 Y-3.2064
X-2.82 Y-3.1912
X-2.8229 Y-3.1761
X-2.8264 Y-3.1611
X-2.8305 Y-3.1462
X-2.8352 Y-3.1315
X-2.8405 Y-3.117
X-2.8463 Y-3.1028
X-2.8528 Y-3.0888
X-2.8598 Y-3.075
X-2.8673 Y-3.0616
X-2.8754 Y-3.0485
X-2.884 Y-3.0357
X-2.8931 Y-3.0233
X-2.9027 Y-3.0112
X-2.9128 Y-2.9995
X-2.9233 Y-2.9883
X-2.9343 Y-2.9775
X-2.9457 Y-2.9671
X-2.9576 Y-2.9572
X-2.9698 Y-2.9478
X-2.9824 Y-2.9389
X-2.9953 Y-2.9306
X-3.0085 Y-2.9227
X-3.0221 Y-2.9154
X-3.036 Y-2.9086
X-3.0501 Y-2.9024
X-3.0644 Y-2.8968
X-3.079 Y-2.8917
G3 X-3.632 Y-3.2654 I-0.1361 J-0.3947
G1 X-3.633 Y-3.282
X-3.6334 Y-3.2986
X-3.6331 Y-3.3152
X-3.6322 Y-3.3318
X-3.6307 Y-3.3483
X-3.6285 Y-3.3648
X-3.6258 Y-3.3812
X-3.6224 Y-3.3975
X-3.6185 Y-3.4136
X-3.6139 Y-3.4296
X-3.6087 Y-3.4454
X-3.603 Y-3.461
X-3.5967 Y-3.4764
X-3.5898 Y-3.4915
X-3.5823 Y-3.5064
X-3.5743 Y-3.5209
X-3.5658 Y-3.5352
X-3.5567 Y-3.5491
X-3.5471 Y-3.5627
X-3.5371 Y-3.5759
X-3.5265 Y-3.5888
X-3.5155 Y-3.6012
X-3.504 Y-3.6132
X-3.492 Y-3.6247
X-3.4797 Y-3.6359
X-3.4669 Y-3.6465
X-3.4537 Y-3.6567
X-3.4402 Y-3.6663
X-3.4263 Y-3.6755
X-3.4121 Y-3.6841
X-3.3976 Y-3.6922
X-3.3828 Y-3.6997
X-3.3677 Y-3.7067
X-3.3524 Y-3.7131
X-3.3368 Y-3.7189
X-3.321 Y-3.7242
X-3.3051 Y-3.7288
X-3.2889 Y-3.7329
X-3.2727 Y-3.7363
X-3.2563 Y-3.7391
X-3.2398 Y-3.7414
X-3.2233 Y-3.743
X-3.2067 Y-3.744
X-3.1901 Y-3.7443
X-3.1735 Y-3.7441
X-3.1569 Y-3.7432
X-3.1403 Y-3.7417
X-3.1238 Y-3.7396
X-3.1074 Y-3.7369
X-3.0911 Y-3.7335
X-3.075 Y-3.7296
X-3.059 Y-3.725
X-3.0432 Y-3.7199
X-3.0276 Y-3.7142
X-3.0122 Y-3.7079
X-2.9971 Y-3.701
X-2.9822 Y-3.6936
X-2.9676 Y-3.6856
X-2.9534 Y-3.6771
X-2.9394 Y-3.668
X-2.9258 Y-3.6584
X-2.9126 Y-3.6484
X-2.8998 Y-3.6378
X-2.8873 Y-3.6268
X-2.8753 Y-3.6153
X-2.8637 Y-3.6034
X-2.8526 Y-3.591
X-2.842 Y-3.5783
X-2.8318 Y-3.5651
X-2.8221 Y-3.5516
X-2.813 Y-3.5378
X-2.8043 Y-3.5236
X-2.7962 Y-3.5091
X-2.7887 Y-3.4942
X-2.7817 Y-3.4792
X-2.7752 Y-3.4638
X-2.7694 Y-3.4483
X-2.7641 Y-3.4325
X-2.7595 Y-3.4166
X-2.7554 Y-3.4005
G3 X-2.7224 Y-3.2186 I-0.3209 J0.1522
G1 X-2.7604 Y-3.0809
G3 X-2.9357 Y-2.8528 I-0.3862 J-0.1155
G1 X-2.9387 Y-2.8532
X-2.9416 Y-2.8542
X-2.9441 Y-2.8557
X-2.9464 Y-2.8576
X-2.9483 Y-2.8599
X-2.9497 Y-2.8624
X-2.9506 Y-2.8652
X-2.9509 Y-2.8681
X-2.9508 Y-2.871
X-2.9501 Y-2.8738
X-2.9489 Y-2.8764
G3 X-2.9477 Y-2.8782 I0.0135 J0.0074
G1 X-2.7877 Y-3.0936
G3 X-2.7785 Y-3.0995 I0.0123 J0.0092
X-2.7604 Y-3.0809 I0.0032 J0.015 F50.
G1 X-2.8186 Y-2.87 F60.
X-2.8185 Y-2.8658
X-2.819 Y-2.8615
X-2.8201 Y-2.8574
X-2.8219 Y-2.8535
X-2.8241 Y-2.8499
X-2.8269 Y-2.8466
X-2.8301 Y-2.8438
X-2.8337 Y-2.8415
X-2.8375 Y-2.8397
X-2.8416 Y-2.8385
X-2.8459 Y-2.8379
X-2.8501
X-2.8544 Y-2.8385
X-2.8584 Y-2.8398
X-2.8623 Y-2.8416
X-2.8659 Y-2.8439
X-2.8691 Y-2.8468
G2 X-3.1838 Y-2.7997 I-0.0864 J0.4986
G3 X-3.6372 Y-2.9952 I-0.0905 J-0.4137
X-3.7116 Y-3.4496 I0.4394 J-0.3052
G1 X-3.6841 Y-3.4792
X-3.6666 Y-3.4973
X-3.4973 Y-3.6666
X-3.4792 Y-3.6841
X-3.3682 Y-3.7838
G3 X-2.8165 Y-3.6891 I0.2126 J0.416
X-2.6601 Y-3.4443 I-0.3771 J0.4133
G1 X-2.7224 Y-3.2186
G3 X-2.7337 Y-3.2082 I-0.0147 J-0.0046
X-2.79 Y-3.2432 I-0.0103 J-0.0462
X-2.6857 Y-3.43 I0.1531 J-0.037
X-2.6714 Y-3.4339 I0.0487 J0.1497 F50.
G2 X-2.6601 Y-3.4443 I-0.0034 J-0.015
G1 X-2.6375 Y-3.5261 F60.
X-2.6389 Y-3.5411
X-2.641 Y-3.5561
X-2.6436 Y-3.5711
X-2.6469 Y-3.5859
X-2.6507 Y-3.6005
X-2.6552 Y-3.615
X-2.6602 Y-3.6293
X-2.6658 Y-3.6434
X-2.6719 Y-3.6572
X-2.6786 Y-3.6708
X-2.6859 Y-3.6841
X-2.6936 Y-3.6971
X-2.7019 Y-3.7098
X-2.7107 Y-3.7221
X-2.72 Y-3.7341
X-2.7298 Y-3.7457
X-2.74 Y-3.7568
X-2.7507 Y-3.7676
X-2.7617 Y-3.7779
X-2.7732 Y-3.7878
X-2.7851 Y-3.7972
X-2.7974 Y-3.8061
X-2.81 Y-3.8145
X-2.8229 Y-3.8224
X-2.8361 Y-3.8297
X-2.8497 Y-3.8366
X-2.8634 Y-3.8428
X-2.8775 Y-3.8485
X-2.8917 Y-3.8537
G2 X-3.1913 Y-3.9341 I-0.2726 J0.4171
G1 X-3.2683 Y-3.872
X-3.29 Y-3.8541
X-3.3682 Y-3.7838
G2 X-3.3725 Y-3.769 I0.0107 J0.0111
X-3.3198 Y-3.7357 I0.0437 J-0.0108
X-3.1942 Y-3.9049 I-0.0312 J-0.1544
X-3.1963 Y-3.9196 I-0.1568 J0.0149 F50.
G3 X-3.1913 Y-3.9341 I0.0151 J-0.0029
G1 X-3.1356 Y-3.979 F60.
G3 X-2.7407 Y-3.8696 I0.1182 J0.341
X-2.5876 Y-3.7067 I-0.1647 J0.3082
G1 X-2.6375 Y-3.5261
G3 X-2.6488 Y-3.5157 I-0.0147 J-0.0046
X-2.6801 Y-3.531 I-0.0061 J-0.0271
X-2.6132 Y-3.6922 I0.107 J-0.0501
X-2.5989 Y-3.6963 I0.0401 J0.1111 F50.
G2 X-2.5876 Y-3.7067 I-0.0034 J-0.015
G1 X-2.5728 Y-3.7603 F60.
G2 X-2.7845 Y-4.0175 I-0.2921 J0.0248
X-2.9822 Y-4.0962 I-0.2335 J0.2988
G1 X-3.0575 Y-4.0406
X-3.0809 Y-4.0231
X-3.1356 Y-3.979
G2 X-3.1407 Y-3.9645 I0.0101 J0.0116
X-3.1237 Y-3.948 I0.0202 J-0.0039
X-2.987 Y-4.0658 I0.0186 J-0.1166
X-2.9881 Y-4.0806 I-0.1181 J0.0011 F50.
G3 X-2.9823 Y-4.0948 I0.0152 J-0.0021
G1 X-2.9403 Y-4.1251 F60.
G3 X-2.6188 Y-4.0206 I0.0887 J0.274
X-2.5265 Y-3.9296 I-0.108 J0.2018
G1 X-2.5269 Y-3.9268
X-2.5728 Y-3.7603
G3 X-2.5841 Y-3.7499 I-0.0147 J-0.0046
X-2.6283 Y-3.779 I-0.0081 J-0.0359
X-2.5524 Y-3.9123 I0.116 J-0.0222
X-2.5382 Y-3.9164 I0.0401 J0.1111 F50.
G2 X-2.5269 Y-3.9268 I-0.0034 J-0.015
G1 X-2.5146 Y-3.9712 F60.
G2 X-2.782 Y-4.2216 I-0.2863 J0.0377
G1 X-2.7843 Y-4.2303
X-2.7872 Y-4.2299
X-2.7898 Y-4.2287
X-2.8466 Y-4.1921
X-2.8614 Y-4.1821
X-2.9403 Y-4.1251
G2 X-2.9461 Y-4.1109 I0.0094 J0.0121
X-2.9204 Y-4.0872 I0.0272 J-0.0037
X-2.7961 Y-4.2 I0.0063 J-0.1179
X-2.7963 Y-4.2148 I-0.118 J-0.0052 F50.
G3 X-2.7898 Y-4.2287 I0.0153 J-0.0013
G1 X-2.7465 Y-4.2565 F60.
G3 X-2.4702 Y-4.1319 I0.0526 J0.2519
G1 X-2.5146 Y-3.9712
G3 X-2.5259 Y-3.9608 I-0.0147 J-0.0046
X-2.5733 Y-3.9953 I-0.0085 J-0.0381
X-2.4958 Y-4.1174 I0.1176 J-0.011
X-2.4815 Y-4.1215 I0.0401 J0.1111 F50.
G2 X-2.4702 Y-4.1319 I-0.0034 J-0.015
G1 X-2.4593 Y-4.1715 F60.
G2 X-2.6047 Y-4.3461 I-0.1781 J0.0005
G1 X-2.6123 Y-4.3418
X-2.6358 Y-4.3278
X-2.7465 Y-4.2565
G2 X-2.753 Y-4.2427 I0.0088 J0.0126
X-2.7152 Y-4.212 I0.0335 J-0.0028
X-2.6125 Y-4.3178 I-0.0149 J-0.1172
X-2.612 Y-4.3326 I-0.1176 J-0.0115 F50.
G3 X-2.6047 Y-4.3461 I0.0154 J-0.0004
G1 X-2.5655 Y-4.3685 F60.
G3 X-2.4174 Y-4.3183 I0.0433 J0.1157
G1 X-2.4593 Y-4.1715
G3 X-2.4706 Y-4.1611 I-0.0147 J-0.0046
X-2.5215 Y-4.2081 I-0.0092 J-0.0411
X-2.4446 Y-4.3027 I0.1169 J0.0165
X-2.4304 Y-4.3068 I0.0401 J0.1111 F50.
G2 X-2.4191 Y-4.3172 I-0.0034 J-0.015
G1 X-2.4111 Y-4.3461 F60.
G2 X-2.4558 Y-4.4329 I-0.0754 J-0.0161
G1 X-2.5655 Y-4.3685
G2 X-2.5579 Y-4.3401 I0.0081 J0.0131
G1 X-2.4372 Y-4.3357
X-2.4263 Y-4.3353 F50.
G2 X-2.4111 Y-4.3461 I0.0006 J-0.0154
G1 X-2.3917 Y-4.4164 F60.
G2 X-2.4089 Y-4.4578 I-0.0179 J-0.0168
G1 X-2.4569 Y-4.4304
G2 X-2.4475 Y-4.402 I0.0081 J0.0131
G1 X-2.4178 Y-4.4046
X-2.4051 Y-4.4056 F50.
G2 X-2.3917 Y-4.4164 I-0.0013 J-0.0153
X-2.3845 Y-4.4656 I-0.0204 J-0.0281 F60.
X-2.4089 Y-4.4578 I-0.0073 J0.0194
X-2.4161 Y-4.443 I0.0081 J0.0131
G1 X-2.4158 Y-4.44 Z-0.1672
X-2.4155 Y-4.4371 Z-0.1663
X-2.4152 Y-4.4345 Z-0.1649
X-2.4149 Y-4.4322 Z-0.163
X-2.4147 Y-4.4303 Z-0.1607
X-2.4145 Y-4.4289 Z-0.158
X-2.4144 Y-4.428 Z-0.1551
Y-4.4277 Z-0.1521
G0 Z-0.1368
X-3.6699 Y-3.4702
G1 Z-0.1521 F50.
X-3.6701 Y-3.4701 Z-0.1551
X-3.671 Y-3.4699 Z-0.158
X-3.6723 Y-3.4694 Z-0.1607
X-3.6742 Y-3.4689 Z-0.163
X-3.6764 Y-3.4682 Z-0.1649
X-3.6789 Y-3.4674 Z-0.1663
X-3.6817 Y-3.4665 Z-0.1672
X-3.6845 Y-3.4656 Z-0.1675
G2 X-3.7108 Y-3.4494 I0.0186 J0.0595
G1 X-3.7838 Y-3.3682 F60.
G2 X-3.72 Y-2.9438 I0.3754 J0.1606
X-3.3336 Y-2.6909 I0.4823 J-0.3152
X-3.1838 Y-2.7998 I-0.7275 J-1.1587
X-3.177 Y-2.8135 I-0.0085 J-0.0128
X-3.2 Y-2.8312 I-0.0192 J0.0012
X-3.3207 Y-2.7173 I0.0315 J0.1543
X-3.3238 Y-2.7028 I0.1522 J0.0404 F50.
G3 X-3.3336 Y-2.6909 I-0.0152 J-0.0025
G1 X-3.3386 Y-2.6892 F60.
X-3.4475 Y-2.6592
G3 X-3.8069 Y-2.8982 I0.0383 J-0.4473
X-3.9151 Y-3.2149 I0.4889 J-0.3439
G1 X-3.872 Y-3.2683
X-3.8541 Y-3.29
X-3.7838 Y-3.3682
G3 X-3.7573 Y-3.3578 I0.0111 J0.0107
X-3.8213 Y-3.2454 I-0.1266 J0.0023
X-3.8859 Y-3.2224 I-0.0975 J-0.171
X-3.9046 Y-3.2201 I-0.0328 J-0.1941 F50.
G2 X-3.9151 Y-3.2149 I0.0011 J0.0153
G1 X-3.9571 Y-3.1628 F60.
G2 X-3.8323 Y-2.782 I0.3531 J0.0951
X-3.6353 Y-2.6062 I0.3975 J-0.2472
G1 X-3.4475 Y-2.6592
G2 X-3.4371 Y-2.6705 I-0.0046 J-0.0147
X-3.4466 Y-2.6932 I-0.0208 J-0.0047
X-3.6202 Y-2.633 I-0.0625 J0.1002
X-3.6244 Y-2.6188 I0.1111 J0.0401 F50.
G3 X-3.6347 Y-2.6075 I-0.015 J-0.0034
G1 X-3.6901 Y-2.5922 F60.
G3 X-3.966 Y-2.7981 I0.0158 J-0.3089
X-4.0675 Y-3.0222 I0.3225 J-0.2813
G1 X-4.0406 Y-3.0575
X-4.0231 Y-3.0809
X-3.9571 Y-3.1628
G3 X-3.9426 Y-3.1678 I0.0116 J0.0101
X-3.9181 Y-3.1355 I-0.0057 J0.0298
X-4.0369 Y-3.0271 I-0.1177 J-0.0097
X-4.0517 Y-3.0282 I0.0011 J-0.1181 F50.
G2 X-4.0659 Y-3.0224 I-0.0021 J0.0152
G1 X-4.0998 Y-2.9755 F60.
G2 X-3.9865 Y-2.6608 I0.2959 J0.0712
X-3.8641 Y-2.5442 I0.1788 J-0.0651
G1 X-3.6901 Y-2.5922
G2 X-3.6797 Y-2.6035 I-0.0046 J-0.0147
X-3.7014 Y-2.6418 I-0.032 J-0.0072
X-3.8495 Y-2.5697 I-0.037 J0.1122
X-3.8537 Y-2.5555 I0.1111 J0.0401 F50.
G3 X-3.8641 Y-2.5442 I-0.015 J-0.0034
G1 X-3.9138 Y-2.5305 F60.
G3 X-4.1819 Y-2.7991 I0.0486 J-0.3165
X-4.1984 Y-2.8369 I0.0095 J-0.0266
G1 X-4.1921 Y-2.8466
X-4.1821 Y-2.8614
X-4.0998 Y-2.9755
G3 X-4.0855 Y-2.9813 I0.0121 J0.0094
X-4.0579 Y-2.9447 I-0.0044 J0.0321
X-4.1697 Y-2.8431 I-0.117 J-0.0164
X-4.1845 Y-2.8434 I-0.0052 J-0.118 F50.
G2 X-4.1984 Y-2.8369 I-0.0013 J0.0153
G1 X-4.2259 Y-2.7941 F60.
G2 X-4.0813 Y-2.486 I0.2832 J0.055
G1 X-4.0784 Y-2.4855
X-4.0754 Y-2.4858
X-3.9138 Y-2.5305
G2 X-3.9034 Y-2.5418 I-0.0046 J-0.0147
X-3.937 Y-2.5888 I-0.0378 J-0.0085
X-4.0609 Y-2.5114 I-0.0127 J0.1174
X-4.065 Y-2.4971 I0.1111 J0.0401 F50.
G3 X-4.0754 Y-2.4858 I-0.015 J-0.0034
G1 X-4.1198 Y-2.4736 F60.
G3 X-4.3171 Y-2.6524 I0.0134 J-0.2129
G1 X-4.2259 Y-2.7941
G3 X-4.212 Y-2.8006 I0.0126 J0.0088
X-4.1773 Y-2.7553 I-0.0032 J0.0383
X-4.2883 Y-2.6587 I-0.1162 J-0.0214
X-4.3032 Y-2.659 I-0.0052 J-0.118 F50.
G2 X-4.3171 Y-2.6524 I-0.0013 J0.0153
G1 X-4.3278 Y-2.6358 F60.
X-4.3418 Y-2.6123
X-4.3446 Y-2.6031
X-4.3469 Y-2.5938
X-4.3486 Y-2.5843
X-4.3496 Y-2.5748
X-4.3501 Y-2.5652
X-4.35 Y-2.5556
X-4.3492 Y-2.546
X-4.3479 Y-2.5365
X-4.3459 Y-2.5271
X-4.3433 Y-2.5178
X-4.3402 Y-2.5087
X-4.3365 Y-2.4998
X-4.3323 Y-2.4912
X-4.3275 Y-2.4829
X-4.3222 Y-2.4749
X-4.3164 Y-2.4672
X-4.3101 Y-2.4599
X-4.3033 Y-2.4531
X-4.2962 Y-2.4467
X-4.2887 Y-2.4407
X-4.2808 Y-2.4352
X-4.2725 Y-2.4303
X-4.1198 Y-2.4736
G2 X-4.1095 Y-2.4849 I-0.0046 J-0.0147
X-4.1516 Y-2.5351 I-0.0403 J-0.009
X-4.2572 Y-2.4572 I0.0055 J0.118
X-4.2614 Y-2.4429 I0.1111 J0.0401 F50.
G3 X-4.2718 Y-2.4316 I-0.015 J-0.0034
G1 X-4.3063 Y-2.4221 F60.
G3 X-4.4149 Y-2.4872 I-0.0145 J-0.099
G1 X-4.4132 Y-2.4896
X-4.4112 Y-2.4917
X-4.4089 Y-2.4934
X-4.4063 Y-2.4947
X-4.4036 Y-2.4955
X-4.4008 Y-2.4957
X-4.398 Y-2.4955
X-4.3954 Y-2.4949
X-4.3929 Y-2.4937
X-4.3854 Y-2.4901
X-4.3042 Y-2.4506
X-4.3017 Y-2.4491
X-4.2996 Y-2.4472
G3 X-4.3063 Y-2.4221 I-0.0113 J0.0104 F50.
G1 X-4.3811 Y-2.4015 F60.
G3 X-4.4482 Y-2.4258 I-0.0226 J-0.0423
X-4.4346 Y-2.433 I0.0131 J0.0081
G1 X-4.4198 Y-2.4326
X-4.3852 Y-2.4315
G3 X-4.3744 Y-2.4266 I-0.0005 J0.0154
X-4.3811 Y-2.4015 I-0.0113 J0.0104 F50.
G1 X-4.4456 Y-2.3836 F60.
X-4.4472 Y-2.3832
X-4.4486 Y-2.3828
X-4.4497 Y-2.3826
X-4.4506 Y-2.3825
G3 X-4.4577 Y-2.3951 I-0.0003 J-0.0081
X-4.4442 Y-2.3861 I0.0067 J0.0045 F50.
X-4.4461 Y-2.3841 I-0.0067 J-0.0045
X-4.4486 Y-2.3828 I-0.0049 J-0.0065
G1 X-4.4493 Y-2.3826 F60.
X-4.45 Y-2.3825
X-4.4515 Y-2.3824
X-4.4533 Y-2.3823
X-4.4545 Y-2.3822
X-4.4605 Y-2.382
X-4.4615 Y-2.3823
X-4.4635 Y-2.3831
X-4.4652 Y-2.3844
X-4.4664 Y-2.3861
G3 X-4.4617 Y-2.3919 I0.005 J-0.0008 F50.
G1 X-4.4553 Y-2.3923
G3 X-4.4545 Y-2.3822 I0.0003 J0.0051
G1 X-4.4609 Y-2.3817 F60.
X-4.4615 Y-2.3818
X-4.4632 Y-2.3824
X-4.4638 Y-2.3827
X-4.4651 Y-2.3839
X-4.4656 Y-2.3845
X-4.4664 Y-2.3861
X-4.4665 Y-2.3866
X-4.4667 Y-2.3882
Y-2.3888
X-4.4637 Y-2.3983
X-4.4635 Y-2.3989
X-4.3418 Y-2.6123
G3 X-4.3286 Y-2.6194 I0.0129 J0.0083
G1 X-4.3263 Y-2.6188 Z-0.1673
X-4.3241 Y-2.6182 Z-0.1668
X-4.322 Y-2.6177 Z-0.1659
X-4.3203 Y-2.6164 Z-0.1645
X-4.3189 Y-2.6152 Z-0.1629
X-4.3177 Y-2.6142 Z-0.161
X-4.3167 Y-2.6134 Z-0.1588
X-4.3162 Y-2.6127 Z-0.1567
X-4.3159 Y-2.6122 Z-0.1544
X-4.3158 Y-2.6121 Z-0.1521
G0 Z0.4
X-3.1994 Y3.1667
Z0.1
G3 X-3.2646 Y3.2974 Z0.0385 I-0.0326 J0.0653 F50.
X-3.1994 Y3.1667 Z-0.0229 I0.0326 J-0.0653
X-3.2646 Y3.2974 Z-0.0844 I-0.0326 J0.0653
X-3.1994 Y3.1667 Z-0.1458 I0.0326 J-0.0653
X-3.159 Y3.2321 Z-0.1675 I-0.0326 J0.0653
X-3.3051 I-0.073 J0.
X-3.1593 Y3.2261 I0.073 J0.
G1 X-3.159 Y3.2321
G3 X-3.3154 Y3.355 I-0.0818 J0.0568 F60.
G1 X-3.3235 Y3.3496
X-3.3313 Y3.3437
X-3.3386 Y3.3372
X-3.3456 Y3.3304
X-3.3521 Y3.3231
X-3.3581 Y3.3154
X-3.3636 Y3.3073
X-3.3686 Y3.299
X-3.3731 Y3.2903
X-3.377 Y3.2813
X-3.3803 Y3.2722
X-3.383 Y3.2628
X-3.3852 Y3.2533
X-3.3867 Y3.2436
X-3.3877 Y3.2339
X-3.388 Y3.2242
X-3.3877 Y3.2144
X-3.3868 Y3.2047
X-3.3852 Y3.1951
X-3.3831 Y3.1855
X-3.3804 Y3.1762
X-3.3771 Y3.167
X-3.3732 Y3.158
X-3.3687 Y3.1494
X-3.3637 Y3.141
X-3.3582 Y3.1329
X-3.3522 Y3.1252
X-3.3458 Y3.1179
X-3.3388 Y3.111
X-3.3315 Y3.1046
X-3.3238 Y3.0987
X-3.3157 Y3.0932
X-3.3072 Y3.0883
X-3.2985 Y3.0839
X-3.2895 Y3.0801
X-3.2803 Y3.0768
X-3.271 Y3.0742
X-3.2614 Y3.0721
X-3.2518 Y3.0706
X-3.2421 Y3.0698
X-3.2323 Y3.0696
X-3.2226 Y3.07
X-3.2128 Y3.071
X-3.2032 Y3.0726
X-3.1937 Y3.0748
X-3.1844 Y3.0776
X-3.1752 Y3.081
X-3.1663 Y3.085
X-3.1577 Y3.0895
X-3.1493 Y3.0945
X-3.1413 Y3.1001
X-3.1337 Y3.1062
X-3.1264 Y3.1127
X-3.1196 Y3.1197
X-3.1133 Y3.1271
X-3.1074 Y3.1349
X-3.102 Y3.143
X-3.0972 Y3.1515
X-3.0929 Y3.1602
X-3.0891 Y3.1692
X-3.086 Y3.1785
X-3.0834 Y3.1879
X-3.0778 Y3.1971
X-3.0727 Y3.2067
X-3.0682 Y3.2165
X-3.0643 Y3.2266
X-3.0609 Y3.2368
X-3.0581 Y3.2473
X-3.056 Y3.2579
X-3.0544 Y3.2686
X-3.0534 Y3.2793
X-3.0531 Y3.2901
X-3.0534 Y3.3009
X-3.0543 Y3.3117
X-3.0558 Y3.3224
X-3.0579 Y3.333
X-3.0606 Y3.3435
X-3.0639 Y3.3538
X-3.0678 Y3.3638
X-3.0722 Y3.3737
X-3.0772 Y3.3833
X-3.0828 Y3.3925
X-3.0888 Y3.4015
X-3.0954 Y3.4101
X-3.1024 Y3.4183
X-3.1099 Y3.4261
X-3.1178 Y3.4334
X-3.1262 Y3.4403
X-3.1349 Y3.4467
X-3.1439 Y3.4526
X-3.1533 Y3.4579
X-3.163 Y3.4628
X-3.1729 Y3.467
X-3.1831 Y3.4707
X-3.1934 Y3.4738
X-3.2039 Y3.4763
X-3.2145 Y3.4783
X-3.2253 Y3.4796
X-3.2361 Y3.4802
X-3.2469 Y3.4803
X-3.2577 Y3.4798
X-3.2684 Y3.4786
X-3.2791 Y3.4769
X-3.2896 Y3.4745
X-3.3 Y3.4715
X-3.3102 Y3.468
X-3.3202 Y3.4638
X-3.3299 Y3.4591
X-3.3394 Y3.4539
X-3.3485 Y3.4481
X-3.3573 Y3.4419
X-3.3657 Y3.4351
X-3.3737 Y3.4279
X-3.3813 Y3.4202
X-3.3912 Y3.4132
X-3.4007 Y3.4058
X-3.4098 Y3.3978
X-3.4185 Y3.3894
X-3.4267 Y3.3806
X-3.4345 Y3.3713
X-3.4418 Y3.3617
X-3.4486 Y3.3517
X-3.4548 Y3.3414
X-3.4605 Y3.3307
X-3.4657 Y3.3198
X-3.4703 Y3.3087
X-3.4743 Y3.2973
X-3.4777 Y3.2857
X-3.4806 Y3.2739
X-3.4828 Y3.2621
X-3.4844 Y3.2501
X-3.4854 Y3.2381
X-3.4857 Y3.226
X-3.4855 Y3.2139
X-3.4846 Y3.2019
X-3.4831 Y3.1899
X-3.4809 Y3.178
X-3.4782 Y3.1662
X-3.4749 Y3.1546
X-3.471 Y3.1432
X-3.4665 Y3.132
X-3.4614 Y3.121
X-3.4558 Y3.1103
X-3.4496 Y3.1
X-3.4429 Y3.0899
X-3.4357 Y3.0802
X-3.428 Y3.0709
X-3.4198 Y3.062
X-3.4112 Y3.0535
X-3.4022 Y3.0455
X-3.3927 Y3.038
X-3.3829 Y3.031
X-3.3727 Y3.0244
X-3.3623 Y3.0184
X-3.3515 Y3.013
X-3.3391 Y3.0079
X-3.3265 Y3.0034
X-3.3137 Y2.9995
X-3.3007 Y2.9962
X-3.2876 Y2.9934
X-3.2744 Y2.9914
X-3.2611 Y2.9899
X-3.2477 Y2.989
X-3.2344 Y2.9888
X-3.221 Y2.9892
X-3.2076 Y2.9902
X-3.1944 Y2.9919
X-3.1812 Y2.9941
X-3.1681 Y2.997
X-3.1552 Y3.0005
X-3.1424 Y3.0045
X-3.1299 Y3.0092
X-3.1176 Y3.0144
X-3.1055 Y3.0203
X-3.0937 Y3.0266
X-3.0823 Y3.0335
X-3.0711 Y3.041
X-3.0604 Y3.0489
X-3.05 Y3.0574
X-3.04 Y3.0663
X-3.0305 Y3.0757
X-3.0214 Y3.0855
X-3.0127 Y3.0957
X-3.0046 Y3.1063
X-2.9969 Y3.1173
X-2.9898 Y3.1286
X-2.9832 Y3.1403
X-2.9772 Y3.1522
X-2.9717 Y3.1644
X-2.9668 Y3.1769
X-2.9625 Y3.1896
X-2.9587 Y3.2024
X-2.9556 Y3.2154
X-2.9531 Y3.2286
X-2.9512 Y3.2418
X-2.95 Y3.2551
X-2.9493 Y3.2685
Y3.2819
X-2.9499 Y3.2953
X-2.9511 Y3.3086
X-2.953 Y3.3218
X-2.9554 Y3.335
X-2.9585 Y3.348
X-2.9622 Y3.3609
X-2.9664 Y3.3736
X-2.9713 Y3.386
X-2.9767 Y3.3983
X-2.9827 Y3.4102
X-2.9893 Y3.4219
X-2.9964 Y3.4333
X-3.004 Y3.4443
X-3.0121 Y3.4549
X-3.0207 Y3.4652
X-3.0298 Y3.475
X-3.0393 Y3.4844
X-3.0492 Y3.4934
X-3.0596 Y3.5018
X-3.0703 Y3.5098
X-3.0814 Y3.5173
X-3.0929 Y3.5242
X-3.1046 Y3.5306
X-3.1166 Y3.5365
X-3.1289 Y3.5418
X-3.1414 Y3.5465
X-3.1552 Y3.5508
X-3.1691 Y3.5545
X-3.1831 Y3.5576
X-3.1973 Y3.5601
X-3.2115 Y3.5619
X-3.2259 Y3.5632
X-3.2402 Y3.5638
X-3.2546 Y3.5639
X-3.269 Y3.5633
X-3.2833 Y3.5621
X-3.2976 Y3.5602
X-3.3117 Y3.5578
X-3.3258 Y3.5547
X-3.3397 Y3.5511
X-3.3534 Y3.5469
X-3.367 Y3.542
X-3.3803 Y3.5366
X-3.3934 Y3.5307
X-3.4062 Y3.5241
X-3.4187 Y3.5171
X-3.4309 Y3.5095
X-3.4428 Y3.5013
X-3.4543 Y3.4927
X-3.4654 Y3.4836
X-3.4761 Y3.474
X-3.4864 Y3.464
X-3.4963 Y3.4535
X-3.5057 Y3.4426
X-3.5146 Y3.4314
X-3.523 Y3.4197
X-3.5309 Y3.4077
X-3.5383 Y3.3954
X-3.5452 Y3.3827
X-3.5515 Y3.3698
X-3.5573 Y3.3566
X-3.5624 Y3.3432
X-3.567 Y3.3296
X-3.571 Y3.3158
X-3.5744 Y3.3018
X-3.5773 Y3.2877
X-3.5795 Y3.2735
X-3.581 Y3.2592
X-3.582 Y3.2449
X-3.5824 Y3.2305
X-3.5821 Y3.2161
X-3.5812 Y3.2018
X-3.5797 Y3.1875
X-3.5776 Y3.1733
X-3.5749 Y3.1592
X-3.5715 Y3.1452
X-3.5676 Y3.1313
X-3.5631 Y3.1177
X-3.558 Y3.1042
X-3.5523 Y3.091
X-3.5461 Y3.0781
X-3.5393 Y3.0654
X-3.532 Y3.053
X-3.5241 Y3.041
X-3.5157 Y3.0293
X-3.5069 Y3.018
X-3.4976 Y3.007
X-3.4878 Y2.9965
X-3.4775 Y2.9864
X-3.4668 Y2.9768
X-3.4558 Y2.9676
X-3.4443 Y2.9589
X-3.4325 Y2.9507
X-3.4203 Y2.943
X-3.4079 Y2.9359
X-3.3951 Y2.9293
X-3.3821 Y2.9233
X-3.3688 Y2.9178
X-3.3552 Y2.9129
X-3.3405 Y2.9084
X-3.3256 Y2.9045
X-3.3105 Y2.9012
X-3.2954 Y2.8985
X-3.2801 Y2.8964
X-3.2647 Y2.8949
X-3.2493 Y2.8941
X-3.2339 Y2.8939
X-3.2185 Y2.8943
X-3.2031 Y2.8953
X-3.1878 Y2.897
X-3.1726 Y2.8992
X-3.1574 Y2.9021
X-3.1424 Y2.9056
X-3.1275 Y2.9097
X-3.1128 Y2.9143
X-3.0984 Y2.9196
X-3.0841 Y2.9255
X-3.0701 Y2.9319
X-3.0563 Y2.9389
X-3.0429 Y2.9464
X-3.0297 Y2.9544
X-3.0169 Y2.963
X-3.0045 Y2.9721
X-2.9924 Y2.9817
X-2.9807 Y2.9918
X-2.9695 Y3.0023
X-2.9587 Y3.0133
X-2.9483 Y3.0247
X-2.9384 Y3.0365
X-2.929 Y3.0487
X-2.92 Y3.0613
X-2.9116 Y3.0742
X-2.9037 Y3.0874
X-2.8964 Y3.101
X-2.8896 Y3.1148
X-2.8834 Y3.1289
X-2.8777 Y3.1433
X-2.8727 Y3.1578
X-2.8682 Y3.1726
X-2.8643 Y3.1875
X-2.861 Y3.2026
X-2.8584 Y3.2177
X-2.8563 Y3.233
X-2.8549 Y3.2484
X-2.8541 Y3.2637
X-2.8539 Y3.2792
X-2.8543 Y3.2946
X-2.8554 Y3.3099
X-2.857 Y3.3253
X-2.8593 Y3.3405
X-2.8622 Y3.3557
X-2.8657 Y3.3707
X-2.8698 Y3.3855
X-2.8745 Y3.4002
X-2.8798 Y3.4147
X-2.8857 Y3.4289
X-2.8921 Y3.4429
X-2.8991 Y3.4567
X-2.9066 Y3.4701
X-2.9147 Y3.4832
X-2.9233 Y3.496
X-2.9324 Y3.5085
X-2.942 Y3.5205
X-2.9521 Y3.5322
X-2.9627 Y3.5434
X-2.9737 Y3.5542
X-2.9851 Y3.5646
X-2.9969 Y3.5745
X-3.0091 Y3.5839
X-3.0217 Y3.5928
X-3.0346 Y3.6012
X-3.0479 Y3.609
X-3.0614 Y3.6164
X-3.0753 Y3.6231
X-3.0894 Y3.6293
X-3.1038 Y3.635
X-3.1183 Y3.64
G3 X-3.6714 Y3.2664 I-0.1361 J-0.3947
G1 X-3.6723 Y3.2498
X-3.6727 Y3.2331
X-3.6724 Y3.2165
X-3.6715 Y3.1999
X-3.67 Y3.1834
X-3.6679 Y3.1669
X-3.6651 Y3.1505
X-3.6618 Y3.1342
X-3.6578 Y3.1181
X-3.6532 Y3.1021
X-3.6481 Y3.0863
X-3.6423 Y3.0707
X-3.636 Y3.0553
X-3.6291 Y3.0402
X-3.6217 Y3.0253
X-3.6137 Y3.0108
X-3.6051 Y2.9965
X-3.5961 Y2.9826
X-3.5865 Y2.969
X-3.5764 Y2.9558
X-3.5658 Y2.943
X-3.5548 Y2.9305
X-3.5433 Y2.9185
X-3.5314 Y2.907
X-3.519 Y2.8959
X-3.5062 Y2.8852
X-3.4931 Y2.8751
X-3.4795 Y2.8654
X-3.4657 Y2.8563
X-3.4515 Y2.8476
X-3.4369 Y2.8396
X-3.4221 Y2.832
X-3.407 Y2.825
X-3.3917 Y2.8186
X-3.3761 Y2.8128
X-3.3604 Y2.8076
X-3.3444 Y2.8029
X-3.3283 Y2.7989
X-3.312 Y2.7954
X-3.2956 Y2.7926
X-3.2792 Y2.7904
X-3.2626 Y2.7887
X-3.246 Y2.7878
X-3.2294 Y2.7874
X-3.2128 Y2.7876
X-3.1962 Y2.7885
X-3.1796 Y2.79
X-3.1632 Y2.7921
X-3.1468 Y2.7949
X-3.1305 Y2.7982
X-3.1143 Y2.8021
X-3.0984 Y2.8067
X-3.0825 Y2.8118
X-3.0669 Y2.8175
X-3.0516 Y2.8238
X-3.0364 Y2.8307
X-3.0216 Y2.8382
X-3.007 Y2.8461
X-2.9927 Y2.8547
X-2.9788 Y2.8637
X-2.9652 Y2.8733
X-2.952 Y2.8833
X-2.9391 Y2.8939
X-2.9267 Y2.9049
X-2.9147 Y2.9164
X-2.9031 Y2.9283
X-2.892 Y2.9407
X-2.8813 Y2.9534
X-2.8711 Y2.9666
X-2.8615 Y2.9801
X-2.8523 Y2.994
X-2.8437 Y3.0082
X-2.8356 Y3.0227
X-2.828 Y3.0375
X-2.821 Y3.0526
X-2.8146 Y3.0679
X-2.8087 Y3.0834
X-2.8035 Y3.0992
X-2.7988 Y3.1152
X-2.7947 Y3.1313
X-2.7888 Y3.1468
X-2.7834 Y3.1626
X-2.7787 Y3.1786
X-2.7745 Y3.1948
X-2.771 Y3.2111
X-2.7681 Y3.2275
X-2.7657 Y3.244
X-2.764 Y3.2606
X-2.7629 Y3.2772
X-2.7625 Y3.2939
X-2.7626 Y3.3105
X-2.7634 Y3.3272
X-2.7648 Y3.3438
X-2.7669 Y3.3603
X-2.7695 Y3.3768
X-2.7728 Y3.3932
X-2.7766 Y3.4094
X-2.7811 Y3.4254
X-2.7862 Y3.4413
X-2.7918 Y3.457
X-2.798 Y3.4725
X-2.8049 Y3.4877
X-2.8122 Y3.5026
X-2.8202 Y3.5173
X-2.8286 Y3.5317
X-2.8376 Y3.5457
X-2.8471 Y3.5594
X-2.8572 Y3.5727
X-2.8677 Y3.5856
X-2.8787 Y3.5982
X-2.8901 Y3.6103
X-2.902 Y3.622
X-2.9143 Y3.6332
X-2.927 Y3.644
X-2.9402 Y3.6542
X-2.9537 Y3.664
X-2.9675 Y3.6733
X-2.9817 Y3.682
X-2.9962 Y3.6902
G3 X-3.4304 Y3.7281 I-0.2546 J-0.4116
G1 X-3.4792 Y3.6841
X-3.4973 Y3.6666
X-3.6666 Y3.4973
X-3.6841 Y3.4792
X-3.7051 Y3.4558
X-3.7133 Y3.4401
X-3.7209 Y3.4241
X-3.728 Y3.4079
X-3.7345 Y3.3915
X-3.7404 Y3.3749
X-3.7458 Y3.358
X-3.7505 Y3.341
X-3.7547 Y3.3238
X-3.7583 Y3.3065
X-3.7613 Y3.2891
X-3.7637 Y3.2716
X-3.7655 Y3.254
X-3.7667 Y3.2364
X-3.7673 Y3.2187
Y3.201
X-3.7666 Y3.1834
X-3.7654 Y3.1657
X-3.7635 Y3.1482
X-3.7611 Y3.1307
X-3.758 Y3.1133
X-3.7544 Y3.096
X-3.7501 Y3.0788
X-3.7453 Y3.0618
X-3.7399 Y3.045
X-3.7339 Y3.0284
X-3.7273 Y3.0119
X-3.7202 Y2.9958
X-3.7125 Y2.9798
X-3.7043 Y2.9642
X-3.6956 Y2.9488
X-3.6863 Y2.9338
X-3.6765 Y2.9191
X-3.6662 Y2.9047
X-3.6554 Y2.8907
X-3.6442 Y2.8771
X-3.6325 Y2.8638
X-3.6203 Y2.851
X-3.6077 Y2.8386
X-3.5947 Y2.8267
X-3.5813 Y2.8151
X-3.5675 Y2.8041
X-3.5533 Y2.7936
X-3.5388 Y2.7835
X-3.5239 Y2.774
X-3.5087 Y2.7649
X-3.4932 Y2.7564
X-3.4774 Y2.7484
X-3.4614 Y2.741
X-3.4451 Y2.7342
X-3.4286 Y2.7279
X-3.4119 Y2.7221
X-3.395 Y2.717
X-3.3779 Y2.7124
X-3.3607 Y2.7084
X-3.3433 Y2.7051
X-3.3259 Y2.7023
X-3.3083 Y2.7001
X-2.9403 Y2.7992
G3 X-2.8125 Y2.8921 I-0.0896 J0.2578
X-2.8363 Y2.9082 I-0.0149 J0.0036
G1 X-2.9527 Y2.8267
G3 X-2.9589 Y2.8173 I0.0088 J-0.0126
X-2.9403 Y2.7992 I0.015 J-0.0032 F50.
X-2.8321 Y2.8311 I-0.0259 J0.2871 F60.
X-2.8251 Y2.8466 I-0.0182 J0.0177
G1 X-2.6892 Y3.3386
X-2.6896 Y3.3563
X-2.6906 Y3.374
X-2.6922 Y3.3917
X-2.6944 Y3.4093
X-2.6972 Y3.4268
X-2.7007 Y3.4442
X-2.7047 Y3.4615
X-2.7093 Y3.4786
X-2.7145 Y3.4955
X-2.7203 Y3.5123
X-2.7266 Y3.5289
X-2.7335 Y3.5452
X-2.741 Y3.5613
X-2.749 Y3.5771
X-2.7576 Y3.5926
X-2.7667 Y3.6078
X-2.7763 Y3.6227
X-2.7864 Y3.6373
X-2.797 Y3.6515
X-2.8081 Y3.6653
X-2.8197 Y3.6787
X-2.8317 Y3.6917
X-2.8442 Y3.7043
X-2.8571 Y3.7165
X-2.8704 Y3.7282
X-2.8841 Y3.7395
X-2.8981 Y3.7503
X-2.9126 Y3.7605
X-2.9274 Y3.7703
X-2.9425 Y3.7796
X-2.9579 Y3.7883
X-2.9736 Y3.7965
X-2.9896 Y3.8042
X-3.0058 Y3.8113
X-3.0223 Y3.8178
X-3.039 Y3.8238
X-3.0559 Y3.8292
X-3.073 Y3.834
X-3.0902 Y3.8382
X-3.1075 Y3.8418
X-3.125 Y3.8448
X-3.1426 Y3.8472
X-3.1602 Y3.849
X-3.1779 Y3.8502
X-3.1956 Y3.8508
X-3.2133
G3 X-3.2879 Y3.8558 I-0.042 J-0.068
G1 X-3.29 Y3.8541
X-3.4304 Y3.7279
G3 X-3.4346 Y3.7132 I0.0107 J-0.0111
X-3.4192 Y3.6999 I0.017 J0.0042
X-3.2907 Y3.8265 I0.0107 J0.1176
X-3.2927 Y3.8412 I-0.1178 J-0.009 F50.
G2 X-3.2879 Y3.8558 I0.0151 J0.0031
G1 X-3.2683 Y3.872 F60.
X-3.2215 Y3.9098
G2 X-2.824 Y3.8019 I0.1163 J-0.3579
G1 X-2.8094 Y3.7919
X-2.7951 Y3.7814
X-2.7813 Y3.7705
X-2.7678 Y3.759
X-2.7547 Y3.7471
X-2.7421 Y3.7348
X-2.7298 Y3.722
X-2.7181 Y3.7088
X-2.7068 Y3.6952
X-2.6959 Y3.6813
X-2.6856 Y3.6669
X-2.6757 Y3.6523
X-2.6664 Y3.6372
X-2.6576 Y3.6219
X-2.6493 Y3.6063
X-2.6416 Y3.5904
X-2.6345 Y3.5742
X-2.6278 Y3.5578
X-2.6892 Y3.3386
G2 X-2.7005 Y3.3282 I-0.0147 J0.0046
X-2.7614 Y3.3699 I-0.011 J0.0492
X-2.6544 Y3.5431 I0.1557 J0.0235
X-2.6401 Y3.5471 I0.0487 J-0.1497 F50.
G3 X-2.6288 Y3.5575 I-0.0034 J0.015
G1 X-2.6116 Y3.6198 F60.
G3 X-2.814 Y3.9148 I-0.316 J0.0002
X-3.0779 Y4.0268 I-0.31 J-0.3635
G1 X-3.0809 Y4.0231
X-3.2215 Y3.9098
G3 X-3.2265 Y3.8953 I0.0101 J-0.0116
X-3.2025 Y3.875 I0.0245 J0.0047
X-3.0824 Y3.9961 I0.002 J0.1181
X-3.0837 Y4.0109 I-0.1181 J-0.003 F50.
G2 X-3.0781 Y4.0252 I0.0152 J0.0023
G1 X-3.0575 Y4.0406 F60.
X-3.034 Y4.0575
G2 X-2.7069 Y3.9571 I0.093 J-0.2801
X-2.5594 Y3.805 I-0.1779 J-0.3202
G1 X-2.6116 Y3.6198
G2 X-2.6229 Y3.6094 I-0.0147 J0.0046
X-2.6494 Y3.6212 I-0.0053 J0.0236
X-2.5862 Y3.7898 I0.1032 J0.0574
X-2.572 Y3.7939 I0.0401 J-0.1111 F50.
G3 X-2.5607 Y3.8043 I-0.0034 J0.015
G1 X-2.5469 Y3.8541 F60.
G3 X-2.7581 Y4.1086 I-0.2843 J-0.021
X-2.8872 Y4.1635 I-0.1227 J-0.1093
G1 X-3.034 Y4.0575
G3 X-3.0399 Y4.0433 I0.0094 J-0.0121
X-3.0069 Y4.0153 I0.0321 J0.0044
X-2.8919 Y4.1345 I-0.0031 J0.1181
X-2.893 Y4.1493 I-0.1181 J-0.0011 F50.
G2 X-2.8872 Y4.1635 I0.0152 J0.0021
G1 X-2.8614 Y4.1821 F60.
X-2.8466 Y4.1921
G2 X-2.5089 Y4.0262 I0.0643 J-0.2958
G1 X-2.5011 Y4.0266
X-2.5006 Y4.0237
X-2.5009 Y4.0207
X-2.5469 Y3.8541
G2 X-2.5583 Y3.8437 I-0.0147 J0.0046
X-2.6024 Y3.8725 I-0.008 J0.0359
X-2.5265 Y4.0062 I0.1159 J0.0225
X-2.5123 Y4.0103 I0.0401 J-0.1111 F50.
G3 X-2.5009 Y4.0207 I-0.0034 J0.015
G1 X-2.4887 Y4.0649 F60.
G3 X-2.6996 Y4.2867 I-0.2542 J-0.0306
G1 X-2.8466 Y4.1921
G3 X-2.8528 Y4.1781 I0.0091 J-0.0124
X-2.8131 Y4.1455 I0.0364 J0.0039
X-2.7059 Y4.258 I-0.0107 J0.1176
X-2.7061 Y4.2728 I-0.118 J0.0052 F50.
G2 X-2.6996 Y4.2867 I0.0153 J0.0013
G1 X-2.6592 Y4.3127 F60.
G2 X-2.4452 Y4.2225 I0.0501 J-0.1801
G1 X-2.4887 Y4.0649
G2 X-2.5 Y4.0545 I-0.0147 J0.0046
X-2.5487 Y4.0918 I-0.0087 J0.039
X-2.4708 Y4.208 I0.118 J0.0051
X-2.4565 Y4.2122 I0.0401 J-0.1111 F50.
G3 X-2.4452 Y4.2225 I-0.0034 J0.015
G1 X-2.435 Y4.2594 F60.
X-2.4343 Y4.2682
X-2.4342 Y4.2769
X-2.4347 Y4.2857
X-2.4358 Y4.2944
X-2.4375 Y4.303
X-2.4399 Y4.3114
X-2.4428 Y4.3197
X-2.4463 Y4.3277
X-2.4504 Y4.3355
X-2.4551 Y4.3429
X-2.4602 Y4.35
X-2.4659 Y4.3567
X-2.472 Y4.363
X-2.4785 Y4.3688
X-2.4854 Y4.3742
X-2.4927 Y4.3791
X-2.5004 Y4.3834
X-2.5083 Y4.3871
X-2.5164 Y4.3903
X-2.5248 Y4.3929
X-2.6123 Y4.3418
X-2.6358 Y4.3278
X-2.6592 Y4.3127
G3 X-2.6657 Y4.2988 I0.0088 J-0.0126
X-2.6107 Y4.2634 I0.0411 J0.0034
X-2.533 Y4.3631 I-0.0398 J0.1112
X-2.5325 Y4.3779 I-0.1176 J0.0115 F50.
G2 X-2.5252 Y4.3915 I0.0154 J0.0004
G1 X-2.4952 Y4.4086 F60.
G2 X-2.3987 Y4.3846 I0.0329 J-0.0735
G1 X-2.435 Y4.2594
G2 X-2.4645 Y4.2598 I-0.0147 J0.0046
G1 X-2.4989 Y4.3807
X-2.5019 Y4.3913 F50.
G2 X-2.4952 Y4.4086 I0.0148 J0.0042
G1 X-2.4319 Y4.4447 F60.
G2 X-2.3857 Y4.438 I0.0215 J-0.014
G1 X-2.4009 Y4.3829
G2 X-2.4307 Y4.3847 I-0.0147 J0.0046
G1 X-2.4367 Y4.4165
X-2.4389 Y4.4288 F50.
G2 X-2.4319 Y4.4447 I0.0151 J0.0028
X-2.3839 Y4.4651 I0.0334 J-0.0118 F60.
X-2.3857 Y4.438 I-0.0189 J-0.0123
X-2.3983 Y4.4274 I-0.0147 J0.0046
G1 X-2.4013 Y4.427 Z-0.1672
X-2.4041 Y4.4266 Z-0.1663
X-2.4068 Y4.4262 Z-0.1649
X-2.4091 Y4.4259 Z-0.163
X-2.411 Y4.4256 Z-0.1607
X-2.4124 Y4.4255 Z-0.158
X-2.4132 Y4.4253 Z-0.1551
X-2.4135 Z-0.1521
G0 Z-0.1368
X-3.6641 Y3.4766
G1 Z-0.1521 F50.
X-3.6644 Y3.4765 Z-0.1551
X-3.6652 Y3.4762 Z-0.158
X-3.6666 Y3.4758 Z-0.1607
X-3.6684 Y3.4752 Z-0.163
X-3.6706 Y3.4746 Z-0.1649
X-3.6732 Y3.4738 Z-0.1663
X-3.6759 Y3.4729 Z-0.1672
X-3.6788 Y3.472 Z-0.1675
G3 X-3.7051 Y3.4558 I0.0186 J-0.0595
G1 X-3.8205 Y3.3273 F60.
G3 X-3.7711 Y2.891 I0.3833 J-0.1776
X-3.4856 Y2.6473 I0.531 J0.3329
G1 X-3.3086 Y2.6975
G3 X-3.2982 Y2.7088 I-0.0046 J0.0147
X-3.3177 Y2.7448 I-0.0304 J0.0068
X-3.4705 Y2.6744 I-0.0417 J-0.1105
X-3.4746 Y2.6601 I0.1111 J-0.0401 F50.
G2 X-3.485 Y2.6488 I-0.015 J0.0034
G1 X-3.5495 Y2.631 F60.
G2 X-3.8421 Y2.8346 I0.0026 J0.3159
X-3.9589 Y3.1621 I0.4319 J0.3387
G1 X-3.872 Y3.2683
X-3.8541 Y3.29
X-3.8205 Y3.3273
G2 X-3.8057 Y3.3316 I0.0111 J-0.0107
X-3.7697 Y3.2578 I-0.0128 J-0.052
X-3.9284 Y3.1651 I-0.1439 J0.0641
X-3.9431 Y3.1672 I0.0149 J0.1568 F50.
G3 X-3.9576 Y3.1622 I-0.0029 J-0.0151
G1 X-3.9946 Y3.1162 F60.
G3 X-3.9194 Y2.775 I0.2848 J-0.1161
X-3.7331 Y2.5791 I0.4081 J0.2015
G1 X-3.5495 Y2.631
G3 X-3.5391 Y2.6423 I-0.0046 J0.0147
X-3.5525 Y2.6711 I-0.0253 J0.0057
X-3.7177 Y2.6061 I-0.0541 J-0.105
X-3.7219 Y2.5919 I0.1111 J-0.0401 F50.
G2 X-3.7322 Y2.5806 I-0.015 J0.0034
G1 X-3.7838 Y2.5663 F60.
X-3.7972 Y2.5682
X-3.8106 Y2.5707
X-3.8238 Y2.5738
X-3.8369 Y2.5774
X-3.8498 Y2.5817
X-3.8625 Y2.5864
X-3.875 Y2.5918
X-3.8872 Y2.5976
X-3.8992 Y2.6041
X-3.9109 Y2.611
X-3.9223 Y2.6184
X-3.9333 Y2.6264
X-3.9439 Y2.6348
X-3.9542 Y2.6436
X-3.9641 Y2.653
X-3.9736 Y2.6627
X-3.9826 Y2.6728
X-3.9912 Y2.6834
X-3.9993 Y2.6943
X-4.0069 Y2.7055
X-4.014 Y2.7171
X-4.0206 Y2.729
X-4.0267 Y2.7411
X-4.0322 Y2.7535
X-4.0371 Y2.7662
X-4.0416 Y2.779
X-4.0454 Y2.792
X-4.0487 Y2.8052
G2 X-4.1098 Y2.9616 I0.1229 J0.1381
G1 X-4.0406 Y3.0575
X-4.0231 Y3.0809
X-3.9946 Y3.1162
G2 X-3.9801 Y3.1213 I0.0116 J-0.0101
X-3.9631 Y3.1039 I-0.004 J-0.0209
X-3.9615 Y3.0844 I-0.1165 J-0.0194
X-4.0808 Y2.9663 I-0.1181 J0.
X-4.0956 Y2.9674 I0.0011 J0.1181 F50.
G3 X-4.1098 Y2.9616 I-0.0021 J-0.0152
G1 X-4.142 Y2.9169 F60.
G3 X-3.9904 Y2.5597 I0.3261 J-0.0724
X-3.9483 Y2.5209 I0.0401 J0.0014
G1 X-3.7838 Y2.5663
G3 X-3.7734 Y2.5777 I-0.0046 J0.0147
X-3.8042 Y2.6231 I-0.0367 J0.0082
X-3.9338 Y2.5465 I-0.0184 J-0.1167
X-3.9379 Y2.5322 I0.1111 J-0.0401 F50.
G2 X-3.9483 Y2.5209 I-0.015 J0.0034
G1 X-3.9946 Y2.5081 F60.
G2 X-4.2361 Y2.763 I0.0402 J0.2799
G1 X-4.2427 Y2.7652
X-4.2423 Y2.7679
X-4.2411 Y2.7704
X-4.1921 Y2.8466
X-4.1821 Y2.8614
X-4.142 Y2.9169
G2 X-4.1278 Y2.9227 I0.0121 J-0.0094
X-4.0996 Y2.8887 I-0.0044 J-0.0323
X-4.2124 Y2.7767 I-0.118 J0.006
X-4.2272 Y2.777 I-0.0052 J0.118 F50.
G3 X-4.2411 Y2.7704 I-0.0013 J-0.0153
G1 X-4.2675 Y2.7295 F60.
G3 X-4.1518 Y2.4647 I0.2263 J-0.0588
G1 X-3.9946 Y2.5081
G3 X-3.9842 Y2.5194 I-0.0046 J0.0147
X-4.0219 Y2.5683 I-0.0391 J0.0088
X-4.1373 Y2.4903 I-0.0043 J-0.118
X-4.1414 Y2.476 I0.1111 J-0.0401 F50.
G2 X-4.1518 Y2.4647 I-0.015 J0.0034
G1 X-4.1949 Y2.4528 F60.
X-4.2049 Y2.453
X-4.2148 Y2.4537
X-4.2247 Y2.455
X-4.2344 Y2.457
X-4.2441 Y2.4595
X-4.2535 Y2.4626
X-4.2628 Y2.4663
X-4.2717 Y2.4706
X-4.2805 Y2.4754
X-4.2889 Y2.4807
X-4.2969 Y2.4866
X-4.3046 Y2.4929
X-4.3119 Y2.4997
X-4.3187 Y2.5069
X-4.3251 Y2.5146
X-4.331 Y2.5226
X-4.3364 Y2.5309
X-4.3412 Y2.5396
X-4.3456 Y2.5486
X-4.3493 Y2.5578
X-4.3525 Y2.5672
X-4.3551 Y2.5768
X-4.3571 Y2.5866
X-4.3418 Y2.6123
X-4.3278 Y2.6358
X-4.2675 Y2.7295
G2 X-4.2536 Y2.736 I0.0126 J-0.0088
X-4.2223 Y2.6975 I-0.0028 J-0.0343
X-4.328 Y2.5945 I-0.1172 J0.0145
X-4.3429 Y2.594 I-0.0115 J0.1176 F50.
G3 X-4.3564 Y2.5867 I-0.0004 J-0.0154
G1 X-4.3763 Y2.5518 F60.
G3 X-4.334 Y2.413 I0.1036 J-0.0443
G1 X-4.3312 Y2.414
X-4.3287 Y2.4155
X-4.3265 Y2.4173
X-4.3247 Y2.4195
X-4.3233 Y2.422
X-4.3224 Y2.4247
X-4.3219 Y2.4274
X-4.322 Y2.4301
X-4.3225 Y2.4328
X-4.3242 Y2.4407
X-4.3482 Y2.5471
X-4.3491 Y2.5497
X-4.3503 Y2.5521
G3 X-4.3763 Y2.5518 I-0.0129 J-0.0084 F50.
G1 X-4.4164 Y2.4816 F60.
G3 X-4.4086 Y2.3939 I0.0501 J-0.0397
X-4.398 Y2.4062 I-0.0046 J0.0147
G1 X-4.3959 Y2.4198
X-4.3881 Y2.4712
G3 X-4.3904 Y2.4819 I-0.0152 J0.0023
X-4.4164 Y2.4816 I-0.0129 J-0.0084 F50.
G1 X-4.4553 Y2.4132 F60.
X-4.4581 Y2.4078
X-4.4599 Y2.4021
X-4.461 Y2.3958
X-4.4611 Y2.393
X-4.4604 Y2.3888
X-4.458 Y2.3853
X-4.4544 Y2.3831
X-4.4502 Y2.3825
G3 X-4.4444 Y2.3886 I-0.0007 J0.0064
G1 X-4.4441 Y2.3956
X-4.4434 Y2.4095 F50.
G3 X-4.4553 Y2.4132 I-0.0065 J0.0003
G1 X-4.4635 Y2.3989 F60.
X-4.4637 Y2.3983
X-4.4667 Y2.3888
X-4.4666 Y2.3877
X-4.4665 Y2.3866
X-4.4664 Y2.3861
X-4.4656 Y2.3845
X-4.4651 Y2.3839
X-4.4638 Y2.3827
X-4.4632 Y2.3824
X-4.4615 Y2.3818
X-4.4609 Y2.3817
X-4.45 Y2.3825
X-4.4493 Y2.3826
X-4.1949 Y2.4528
G3 X-4.1847 Y2.4636 I-0.0046 J0.0147
G1 X-4.1844 Y2.4656 Z-0.1674
X-4.1842 Y2.4675 Z-0.167
X-4.1847 Y2.4699 Z-0.1661
X-4.1853 Y2.4722 Z-0.1647
X-4.1857 Y2.4742 Z-0.163
X-4.1868 Y2.4758 Z-0.1607
X-4.1876 Y2.477 Z-0.158
X-4.1881 Y2.4777 Z-0.1551
X-4.1883 Y2.4779 Z-0.1521
G0 Z0.4
X-1.7069 Y4.1343
Z0.1
G3 X-1.7721 Y4.265 Z0.0385 I-0.0326 J0.0653 F50.
X-1.7069 Y4.1343 Z-0.0229 I0.0326 J-0.0653
X-1.7721 Y4.265 Z-0.0844 I-0.0326 J0.0653
X-1.7069 Y4.1343 Z-0.1458 I0.0326 J-0.0653
X-1.6665 Y4.1996 Z-0.1675 I-0.0326 J0.0653
X-1.8125 I-0.073 J0.
X-1.6668 Y4.1937 I0.073 J0.
G1 X-1.6665 Y4.1996
G3 X-1.8229 Y4.3226 I-0.0818 J0.0568 F60.
G1 X-1.831 Y4.3172
X-1.8388 Y4.3112
X-1.8461 Y4.3048
X-1.8531 Y4.298
X-1.8596 Y4.2907
X-1.8656 Y4.283
X-1.8711 Y4.2749
X-1.8761 Y4.2665
X-1.8806 Y4.2579
X-1.8845 Y4.2489
X-1.8878 Y4.2397
X-1.8905 Y4.2304
X-1.8927 Y4.2209
X-1.8942 Y4.2112
X-1.8952 Y4.2015
X-1.8955 Y4.1918
X-1.8952 Y4.182
X-1.8943 Y4.1723
X-1.8927 Y4.1626
X-1.8906 Y4.1531
X-1.8879 Y4.1437
X-1.8846 Y4.1346
X-1.8807 Y4.1256
X-1.8762 Y4.1169
X-1.8712 Y4.1085
X-1.8657 Y4.1005
X-1.8597 Y4.0928
X-1.8533 Y4.0855
X-1.8463 Y4.0786
X-1.839 Y4.0722
X-1.8312 Y4.0662
X-1.8232 Y4.0608
X-1.8147 Y4.0559
X-1.806 Y4.0515
X-1.797 Y4.0477
X-1.7878 Y4.0444
X-1.7784 Y4.0418
X-1.7689 Y4.0397
X-1.7593 Y4.0382
X-1.7495 Y4.0374
X-1.7398 Y4.0372
X-1.73 Y4.0375
X-1.7203 Y4.0385
X-1.7107 Y4.0402
X-1.7012 Y4.0424
X-1.6919 Y4.0452
X-1.6827 Y4.0486
X-1.6738 Y4.0525
X-1.6652 Y4.0571
X-1.6568 Y4.0621
X-1.6488 Y4.0677
X-1.6412 Y4.0738
X-1.6339 Y4.0803
X-1.6271 Y4.0873
X-1.6208 Y4.0947
X-1.6149 Y4.1025
X-1.6095 Y4.1106
X-1.6047 Y4.1191
X-1.6004 Y4.1278
X-1.5966 Y4.1368
X-1.5935 Y4.1461
X-1.5909 Y4.1555
X-1.5853 Y4.1647
X-1.5802 Y4.1743
X-1.5757 Y4.1841
X-1.5718 Y4.1941
X-1.5684 Y4.2044
X-1.5656 Y4.2149
X-1.5634 Y4.2254
X-1.5619 Y4.2361
X-1.5609 Y4.2469
X-1.5606 Y4.2577
X-1.5609 Y4.2685
X-1.5618 Y4.2793
X-1.5633 Y4.29
X-1.5654 Y4.3006
X-1.5681 Y4.311
X-1.5714 Y4.3213
X-1.5753 Y4.3314
X-1.5797 Y4.3413
X-1.5847 Y4.3508
X-1.5902 Y4.3601
X-1.5963 Y4.3691
X-1.6029 Y4.3777
X-1.6099 Y4.3859
X-1.6174 Y4.3936
X-1.6253 Y4.401
X-1.6336 Y4.4079
X-1.6424 Y4.4143
X-1.6514 Y4.4202
X-1.6608 Y4.4255
X-1.6705 Y4.4304
X-1.6804 Y4.4346
X-1.6905 Y4.4383
X-1.7009 Y4.4414
X-1.7114 Y4.4439
X-1.722 Y4.4458
X-1.7328 Y4.4471
X-1.7435 Y4.4478
X-1.7544 Y4.4479
X-1.7651 Y4.4474
X-1.7759 Y4.4462
X-1.7865 Y4.4444
X-1.7971 Y4.4421
X-1.8075 Y4.4391
X-1.8177 Y4.4356
X-1.8277 Y4.4314
X-1.8374 Y4.4267
X-1.8468 Y4.4215
X-1.856 Y4.4157
X-1.8648 Y4.4095
X-1.8732 Y4.4027
X-1.8812 Y4.3954
X-1.8888 Y4.3878
X-1.8987 Y4.3808
X-1.9082 Y4.3733
X-1.9173 Y4.3654
X-1.926 Y4.357
X-1.9342 Y4.3482
X-1.942 Y4.3389
X-1.9493 Y4.3293
X-1.9561 Y4.3193
X-1.9623 Y4.309
X-1.968 Y4.2983
X-1.9732 Y4.2874
X-1.9778 Y4.2762
X-1.9818 Y4.2648
X-1.9852 Y4.2533
X-1.9881 Y4.2415
X-1.9903 Y4.2296
X-1.9919 Y4.2177
X-1.9928 Y4.2056
X-1.9932 Y4.1936
X-1.9929 Y4.1815
X-1.9921 Y4.1694
X-1.9906 Y4.1575
X-1.9884 Y4.1456
X-1.9857 Y4.1338
X-1.9824 Y4.1222
X-1.9785 Y4.1108
X-1.974 Y4.0996
X-1.9689 Y4.0886
X-1.9633 Y4.0779
X-1.9571 Y4.0675
X-1.9504 Y4.0575
X-1.9432 Y4.0478
X-1.9355 Y4.0385
X-1.9273 Y4.0296
X-1.9187 Y4.0211
X-1.9097 Y4.0131
X-1.9002 Y4.0056
X-1.8904 Y3.9985
X-1.8802 Y3.992
X-1.8698 Y3.986
X-1.859 Y3.9806
X-1.8466 Y3.9754
X-1.8341 Y3.9708
X-1.8213 Y3.9668
X-1.8083 Y3.9633
X-1.7952 Y3.9605
X-1.782 Y3.9584
X-1.7687 Y3.9568
X-1.7553 Y3.9559
X-1.7419 Y3.9556
X-1.7286 Y3.9559
X-1.7152 Y3.9569
X-1.7019 Y3.9584
X-1.6887 Y3.9606
X-1.6756 Y3.9635
X-1.6627 Y3.9669
X-1.6499 Y3.9709
X-1.6373 Y3.9756
X-1.625 Y3.9808
X-1.6129 Y3.9866
X-1.6011 Y3.9929
X-1.5896 Y3.9998
X-1.5785 Y4.0073
X-1.5677 Y4.0152
X-1.5573 Y4.0237
X-1.5473 Y4.0326
X-1.5378 Y4.042
X-1.5287 Y4.0518
X-1.52 Y4.062
X-1.5119 Y4.0726
X-1.5043 Y4.0836
X-1.4972 Y4.095
X-1.4906 Y4.1067
X-1.4846 Y4.1186
X-1.4791 Y4.1309
X-1.4743 Y4.1433
X-1.47 Y4.156
X-1.4663 Y4.1689
X-1.4633 Y4.1819
X-1.4608 Y4.1951
X-1.459 Y4.2084
X-1.4578 Y4.2217
X-1.4572 Y4.2351
X-1.4573 Y4.2485
X-1.4579 Y4.2618
X-1.4593 Y4.2752
X-1.4612 Y4.2884
X-1.4638 Y4.3016
X-1.4669 Y4.3146
X-1.4707 Y4.3274
X-1.4751 Y4.3401
X-1.48 Y4.3525
X-1.4856 Y4.3647
X-1.4917 Y4.3766
X-1.4984 Y4.3882
X-1.5056 Y4.3995
X-1.5133 Y4.4104
X-1.5215 Y4.421
X-1.6735 Y4.5101
G3 X-1.9879 Y4.4371 I-0.105 J-0.2618
G1 X-2.0583 Y4.1821
G3 X-1.8285 Y3.8662 I0.2861 J-0.0333
G2 X-1.6244 Y3.9036 I0.1847 J-0.4332
G3 X-1.3659 Y4.2849 I-0.08 J0.3326
X-1.3794 Y4.3432 I-0.0494 J0.0193
G1 X-1.5194 Y4.4227
G3 X-1.5348 Y4.422 I-0.0071 J-0.0136
X-1.5419 Y4.3592 I0.0217 J-0.0343
X-1.4077 Y4.3354 I0.0839 J0.0831
X-1.3947 Y4.3426 I-0.0502 J0.1069 F50.
G2 X-1.3794 Y4.3432 I0.0082 J-0.013
G1 X-1.3324 Y4.3166 F60.
G2 X-1.3751 Y3.9592 I-0.2107 J-0.1561
X-1.4563 Y3.8684 I-0.1695 J0.0698
G1 X-1.4596 Y3.8691
G3 X-1.6244 Y3.9036 I-0.1748 J-0.4238
G2 X-1.6365 Y3.913 I0.0021 J0.0152
X-1.5909 Y3.9839 I0.0477 J0.0194
X-1.4718 Y3.8958 I0.0048 J-0.118
X-1.469 Y3.8813 I-0.1143 J-0.0299 F50.
G3 X-1.4596 Y3.8691 I0.0152 J0.002
G1 X-1.4409 Y3.862 F60.
X-1.4327 Y3.8576
X-1.4215 Y3.8573
X-1.4102 Y3.8575
X-1.399 Y3.8584
X-1.3878 Y3.8599
X-1.3767 Y3.862
X-1.3658 Y3.8647
X-1.355 Y3.8681
X-1.3444 Y3.872
X-1.3341 Y3.8764
X-1.324 Y3.8815
X-1.3142 Y3.8871
X-1.3048 Y3.8932
X-1.2957 Y3.8999
X-1.287 Y3.907
X-1.2786 Y3.9146
X-1.2708 Y3.9227
X-1.2633 Y3.9311
X-1.2564 Y3.94
X-1.2499 Y3.9492
X-1.244 Y3.9588
X-1.2386 Y3.9687
X-1.2338 Y3.9789
X-1.2295 Y3.9893
X-1.2258 Y4.
X-1.2227 Y4.0108
X-1.2202 Y4.0218
X-1.2184 Y4.0329
X-1.2171 Y4.0441
X-1.2164 Y4.0554
G3 X-1.1923 Y4.2371 I-0.1735 J0.1155
G1 X-1.3324 Y4.3166
G3 X-1.3478 Y4.316 I-0.0071 J-0.0136
X-1.3549 Y4.2532 I0.0217 J-0.0343
X-1.2207 Y4.2293 I0.084 J0.083
X-1.2077 Y4.2365 I-0.0502 J0.1069 F50.
G2 X-1.1923 Y4.2371 I0.0082 J-0.013
G1 X-1.1597 Y4.2186 F60.
G2 X-1.1869 Y3.9 I-0.172 J-0.1458
X-1.3166 Y3.7821 I-0.1493 J0.0339
G1 X-1.3476 Y3.8072
X-1.3706 Y3.8242
X-1.4327 Y3.8576
G2 X-1.4404 Y3.871 I0.0077 J0.0133
X-1.4335 Y3.8818 I0.0121 J0.
G1 X-1.4323 Y3.8824
G2 X-1.3204 Y3.8113 I0.0332 J-0.0714
X-1.3217 Y3.7966 I-0.0787 J-0.0003 F50.
G3 X-1.3166 Y3.7821 I0.0151 J-0.0028
X-1.2534 Y3.7695 I0.037 J0.0208 F60.
G1 X-1.1832 Y3.7914
X-1.171 Y3.7985
X-1.1591 Y3.8062
X-1.1475 Y3.8144
X-1.1363 Y3.823
X-1.1255 Y3.8321
X-1.115 Y3.8417
X-1.105 Y3.8517
X-1.0954 Y3.8621
X-1.0863 Y3.8729
X-1.0776 Y3.8841
X-1.0694 Y3.8957
X-1.0617 Y3.9075
X-1.0546 Y3.9197
X-1.0479 Y3.9322
X-1.0418 Y3.945
X-1.0362 Y3.958
X-1.0311 Y3.9712
X-1.0267 Y3.9846
X-1.0228 Y3.9982
X-1.0195 Y4.012
X-1.0167 Y4.0259
X-1.0146 Y4.0399
X-1.013 Y4.0539
X-1.0121 Y4.0681
X-1.0117 Y4.0822
X-1.012 Y4.0963
X-1.0128 Y4.1105
X-1.0142 Y4.1246
X-1.0163 Y4.1386
X-1.1597 Y4.2186
G3 X-1.1751 Y4.218 I-0.0071 J-0.0136
X-1.1829 Y4.1566 I0.0215 J-0.0339
X-1.0464 Y4.1305 I0.0862 J0.0807
X-1.0334 Y4.1376 I-0.0502 J0.1069 F50.
G2 X-1.0181 Y4.1383 I0.0082 J-0.013
G1 X-0.984 Y4.1189 F60.
G2 X-0.9908 Y3.8462 I-0.1724 J-0.1322
G1 X-1.066 Y3.8271
X-1.0894 Y3.8205
X-1.1832 Y3.7914
G2 X-1.198 Y3.7952 I-0.0041 J0.0148
X-1.2023 Y3.8158 I0.0133 J0.0134
X-1.016 Y3.8612 I0.1095 J-0.0444
X-1.0054 Y3.8508 I-0.0768 J-0.0898 F50.
G3 X-0.9908 Y3.8462 I0.0114 J0.0103
G1 X-0.936 Y3.86 F60.
X-0.9272 Y3.8647
X-0.9186 Y3.8698
X-0.9104 Y3.8755
X-0.9026 Y3.8817
X-0.8952 Y3.8884
X-0.8882 Y3.8955
X-0.8816 Y3.903
X-0.8755 Y3.9109
X-0.8699 Y3.9191
X-0.8648 Y3.9277
X-0.8602 Y3.9366
X-0.8562 Y3.9457
X-0.8528 Y3.9551
X-0.8499 Y3.9646
X-0.8477 Y3.9744
X-0.846 Y3.9842
X-0.8449 Y3.9941
X-0.8445 Y4.0041
X-0.8446 Y4.014
X-0.8454 Y4.024
X-0.8468 Y4.0339
X-0.8487 Y4.0437
X-0.984 Y4.1189
G3 X-0.9994 Y4.1183 I-0.0071 J-0.0136
X-1.0032 Y4.0503 I0.0224 J-0.0354
X-0.8789 Y4.0354 I0.074 J0.092
X-0.8659 Y4.0426 I-0.0502 J0.1069 F50.
G2 X-0.8506 Y4.0432 I0.0082 J-0.013
G1 X-0.82 Y4.0259 F60.
G2 X-0.7943 Y3.8902 I-0.066 J-0.0828
G1 X-0.866 Y3.8775
X-0.8786 Y3.8745
X-0.936 Y3.86
G2 X-0.9506 Y3.8647 I-0.0032 J0.015
X-0.9275 Y3.9374 I0.0326 J0.0297
X-0.8206 Y3.9076 I0.0254 J-0.1153
X-0.8105 Y3.8967 I-0.0815 J-0.0855 F50.
G3 X-0.7961 Y3.8912 I0.0119 J0.0097
G1 X-0.772 Y3.8959 F60.
G3 X-0.7178 Y3.9698 I-0.0144 J0.0674
G1 X-0.7205 Y3.9712
X-0.7233 Y3.972
X-0.7261 Y3.9723
X-0.729 Y3.9721
X-0.7317 Y3.9715
X-0.7343 Y3.9704
X-0.7365 Y3.9689
X-0.7385 Y3.967
X-0.747 Y3.9589
G3 X-0.7892 Y3.9154 I0.0395 J-0.0806
X-0.772 Y3.8959 I0.0148 J-0.0043 F50.
G1 X-0.7017 Y3.9097 F60.
G3 X-0.6752 Y3.9437 I0.0061 J0.0226
X-0.7137 Y3.9425 I-0.0182 J-0.0349
X-0.7223 Y3.9274 I0.0092 J-0.0152
X-0.7017 Y3.9097 I0.0178 J-0.0002 F50.
X-0.6539 Y3.9262 I0.0182 J0.0248 F60.
G1 X-0.6542 Y3.9281
X-0.6544 Y3.9286
G3 X-0.82 Y4.0259 I-0.2861 J-0.2974
X-0.8425 Y4.0129 I-0.0071 J-0.0136
G1 X-0.8426 Y4.0099 Z-0.1672
X-0.8427 Y4.007 Z-0.1663
X-0.8428 Y4.0043 Z-0.1649
