%
(971-23-P-0058_DISTAL SPROCKET_SECOND 1540)
(T1  D=0.154 CR=0. - ZMIN=-0.2175 - FLAT END MILL)
G90 G94 G17 G91.1
G64 P0.001 Q0.001
G20
G53 G0 Z0.
(2D SLOT CUT 2)
M9
T1 M6
S22000 M3
G4 P10.
G54
M7
G0 X0.9653 Y3.3166
G43 Z0.6 H1
G0 Z0.2
G1 Z0.1 F13.333
G3 X0. Y3.4542 Z-0.0725 I-0.9653 J-3.3166 F30.
Y-3.4542 I0. J-3.4542
Y3.4542 I0. J3.4542
X-0.5225 Y3.4145 Z-0.145 I0. J-3.4542
X0.5225 Y-3.4145 I0.5225 J-3.4145
X-0.5225 Y3.4145 I-0.5225 J3.4145
X-1.033 Y3.2962 Z-0.2175 I0.5225 J-3.4145
X1.033 Y-3.2962 I1.033 J-3.2962
X-1.033 Y3.2962 I-1.033 J3.2962
G0 Z0.4
X-5.6347 Y-0.5859
Z0.2
G1 Z0.1 F13.333
G2 X-5.633 Y-0.5851 Z0.0997 I0.2299 J-0.5333 F30.
G3 X-5.6378 Y-0.5367 Z0.0883 I-0.01 J0.0234
G2 X-5.7991 Y-0.4771 Z0.0579 I0.1185 J0.5685
X-5.8543 Y-0.3904 Z0.039 I0.0515 J0.0938
G1 X-5.8547 Y-0.3852 Z0.038
G2 X-5.8114 Y-0.2919 Z0.0191 I0.1068 J0.0072
X-5.6594 Y-0.2116 Z-0.0113 I0.3444 J-0.4676
G3 X-5.661 Y-0.1629 Z-0.0227 I-0.0085 J0.0241
G2 X-5.818 Y-0.0928 Z-0.0531 I0.1558 J0.5595
X-5.8673 Y-0.0026 Z-0.072 I0.0577 J0.0901
G1 Y0. Z-0.0725
Y0.0026
G2 X-5.818 Y0.0928 I0.107 J0.
X-5.661 Y0.1629 I0.3128 J-0.4893
G3 X-5.6594 Y0.2116 I-0.0069 J0.0246
G2 X-5.8114 Y0.2919 I0.1924 J0.5479
X-5.8547 Y0.3852 I0.0635 J0.0861
G1 X-5.8543 Y0.3904
G2 X-5.7991 Y0.4771 I0.1068 J-0.0071
X-5.6378 Y0.5367 I0.2798 J-0.5089
G3 X-5.633 Y0.5851 I-0.0052 J0.025
G2 X-5.7794 Y0.6753 I0.2282 J0.534
G1 X-5.7795 Y0.6754
G2 X-5.8164 Y0.771 I0.0691 J0.0817
G1 X-5.8158 Y0.7761
G2 X-5.8157 Y0.7765 I0.0764 J-0.0097
X-5.7548 Y0.8593 I0.1061 J-0.0142
X-5.59 Y0.9082 I0.2455 J-0.5263
G3 X-5.582 Y0.9561 I-0.0035 J0.0253
G2 X-5.7221 Y1.0558 I0.263 J0.5178
X-5.7527 Y1.154 I0.0743 J0.077
G1 Y1.1542
X-5.7516 Y1.1593
G2 X-5.6855 Y1.2378 I0.1049 J-0.0213
X-5.5178 Y1.2756 I0.2102 J-0.5414
G3 X-5.5066 Y1.323 I-0.0019 J0.0254
G2 X-5.6398 Y1.4317 I0.2966 J0.4993
G1 X-5.6399
G2 X-5.6639 Y1.5316 I0.0792 J0.0719
G1 X-5.6625 Y1.5367
Y1.5368
G2 X-5.5913 Y1.6108 I0.1033 J-0.028
G1 Y1.6109
G2 X-5.4215 Y1.6375 I0.174 J-0.5541
G3 X-5.4072 Y1.684 I-0.0002 J0.0255
G2 X-5.5328 Y1.8013 I0.329 J0.4785
X-5.5503 Y1.9024 I0.0838 J0.0666
G1 X-5.5487 Y1.9073
X-5.5486 Y1.9076
G2 X-5.4726 Y1.9769 I0.1012 J-0.0348
X-5.3014 Y1.9922 I0.137 J-0.5644
G3 X-5.284 Y2.0377 I0.0015 J0.0254
G2 X-5.4017 Y2.1631 I0.36 J0.4558
X-5.4124 Y2.2653 I0.088 J0.0609
G1 X-5.4103 Y2.2702
G2 X-5.33 Y2.3342 I0.0987 J-0.0414
X-5.1581 Y2.3382 I0.0994 J-0.5722
G3 X-5.1378 Y2.3825 I0.0032 J0.0253
G2 X-5.2469 Y2.5153 I0.3893 J0.431
X-5.2509 Y2.618 I0.0918 J0.0549
G1 X-5.2485 Y2.6228
G2 X-5.164 Y2.6814 I0.0957 J-0.0478
X-4.9923 Y2.674 I0.0613 J-0.5775
G3 X-4.9691 Y2.7168 I0.0048 J0.025
G2 X-5.0692 Y2.8566 I0.4169 J0.4043
X-5.0664 Y2.9593 I0.0952 J0.0488
G1 X-5.0663 Y2.9594
X-5.0637 Y2.9639
G2 X-4.9755 Y3.0168 I0.0923 J-0.0541
X-4.8046 Y2.9981 I0.023 J-0.5803
G3 X-4.7787 Y3.0393 I0.0065 J0.0247
G2 X-4.8693 Y3.1853 I0.4427 J0.3759
X-4.8597 Y3.2876 I0.0982 J0.0424
G1 X-4.8595 Y3.288
X-4.8566 Y3.2922
G2 X-4.7653 Y3.3391 I0.0885 J-0.0602
X-4.596 Y3.3091 I-0.0154 J-0.5805
G3 X-4.5674 Y3.3485 I0.0081 J0.0242
G2 X-4.6482 Y3.5002 I0.4666 J0.3458
X-4.6319 Y3.6016 I0.1008 J0.0358
G1 X-4.6317 Y3.6018
X-4.6284 Y3.606
G2 X-4.5342 Y3.6467 I0.0844 J-0.0658
X-4.3672 Y3.6056 I-0.0538 J-0.5783
G3 X-4.3361 Y3.643 I0.0097 J0.0236
G2 X-4.4067 Y3.7998 I0.4884 J0.3142
X-4.3837 Y3.8998 I0.103 J0.029
G1 X-4.3802 Y3.9038
X-4.3801 Y3.9039
G2 X-4.2832 Y3.9384 I0.0799 J-0.0712
X-4.1194 Y3.8864 I-0.0918 J-0.5734
G3 X-4.0858 Y3.9216 I0.0112 J0.0229
G2 X-4.1459 Y4.0827 I0.5081 J0.2813
X-4.1164 Y4.181 I0.1047 J0.0222
G1 X-4.1127 Y4.1847
X-4.1124 Y4.1849
G2 X-4.0136 Y4.2129 I0.075 J-0.0764
X-3.8535 Y4.1501 I-0.1295 J-0.5661
G3 X-3.8177 Y4.1831 I0.0127 J0.0221
G2 X-3.867 Y4.3478 I0.5256 J0.247
X-3.8309 Y4.4441 I0.1059 J0.0152
G1 X-3.8307 Y4.4442
X-3.8268 Y4.4476
G2 X-3.7264 Y4.4689 I0.0697 J-0.0812
X-3.5708 Y4.3958 I-0.1666 J-0.5563
G3 X-3.5329 Y4.4263 I0.0141 J0.0212
G2 X-3.5712 Y4.5939 I0.5408 J0.2117
X-3.5289 Y4.6875 I0.1067 J0.0081
G1 X-3.5286 Y4.6877
X-3.5244 Y4.6908
G2 X-3.4229 Y4.7054 I0.0641 J-0.0857
X-3.2725 Y4.6221 I-0.203 J-0.5441
G3 X-3.2327 Y4.6501 I0.0155 J0.0202
G2 X-3.2598 Y4.8198 I0.5536 J0.1756
X-3.2113 Y4.9105 I0.107 J0.0011
G1 X-3.2111 Y4.9106
X-3.2068 Y4.9134
G2 X-3.1044 Y4.9213 I0.0584 J-0.0896
X-2.9599 Y4.8283 I-0.2385 J-0.5295
G3 X-2.9183 Y4.8536 I0.0168 J0.0192
G2 X-2.9341 Y5.0248 I0.564 J0.1386
X-2.8798 Y5.112 I0.1068 J-0.006
G1 X-2.8752 Y5.1146
X-2.8751
G2 X-2.7724 Y5.1157 I0.0524 J-0.0933
X-2.6343 Y5.0134 I-0.273 J-0.5125
G3 X-2.5911 Y5.0358 I0.0181 J0.018
G2 X-2.5956 Y5.2076 I0.5719 J0.101
X-2.5357 Y5.2911 I0.1062 J-0.013
G1 X-2.5309 Y5.2934
G2 X-2.4282 Y5.2878 I0.0462 J-0.0965
X-2.2972 Y5.1765 I-0.3063 J-0.4934
G3 X-2.2526 Y5.196 I0.0192 J0.0167
G2 X-2.2458 Y5.3678 I0.5773 J0.063
X-2.1804 Y5.4472 I0.1051 J-0.02
X-2.18 Y5.4473 I0.0286 J-0.0715
G1 X-2.1752 Y5.4492
G2 X-2.0734 Y5.4367 I0.0395 J-0.0994
X-1.9501 Y5.317 I-0.3382 J-0.4721
G3 X-1.9043 Y5.3336 I0.0203 J0.0154
G2 X-1.8861 Y5.5045 I0.5802 J0.0247
X-1.8158 Y5.5793 I0.1035 J-0.0269
G1 X-1.8108 Y5.5809
X-1.8106 Y5.581
G2 X-1.7096 Y5.5619 I0.033 J-0.1018
X-1.5944 Y5.4343 I-0.3687 J-0.4487
G3 X-1.5476 Y5.4477 I0.0212 J0.0141
G2 X-1.5182 Y5.6172 I0.5806 J-0.0137
X-1.4429 Y5.6871 I0.1015 J-0.0337
G1 X-1.4378 Y5.6884
G2 X-1.3383 Y5.6627 I0.0263 J-0.1037
X-1.2317 Y5.5278 I-0.3975 J-0.4234
G3 X-1.1842 Y5.5381 I0.0221 J0.0127
G2 X-1.1436 Y5.7052 I0.5784 J-0.0521
X-1.0641 Y5.77 I0.0991 J-0.0403
G1 X-1.0591 Y5.771
G2 X-1.0586 Y5.7711 I0.0143 J-0.0757
X-0.9611 Y5.7388 I0.0193 J-0.1053
X-0.8637 Y5.5971 I-0.4247 J-0.3961
G3 X-0.8156 Y5.6043 I0.0229 J0.0112
G2 X-0.7641 Y5.7683 I0.5737 J-0.0902
X-0.6802 Y5.8278 I0.0962 J-0.0468
G1 X-0.6799
X-0.6748 Y5.8284
G2 X-0.5797 Y5.7898 I0.0122 J-0.1063
X-0.4919 Y5.6419 I-0.4499 J-0.3672
G3 X-0.4434 Y5.6459 I0.0236 J0.0096
G2 X-0.3812 Y5.8062 I0.5665 J-0.1279
X-0.2937 Y5.86 I0.0929 J-0.0531
G1 X-0.2885 Y5.8602
X-0.2882 Y5.8603
G2 X-0.1958 Y5.8154 I0.0053 J-0.1069
X-0.118 Y5.6621 I-0.4732 J-0.3366
G3 X-0.0693 Y5.6629 I0.0242 J0.008
G2 X0.0034 Y5.8187 I0.5568 J-0.1651
X0.0943 Y5.8666 I0.0892 J-0.0591
G1 X0.0995 Y5.8665
X0.0997
G2 X0.189 Y5.8157 I-0.0018 J-0.107
X0.2565 Y5.6575 I-0.4944 J-0.3047
G3 X0.3051 Y5.6551 I0.0247 J0.0064
G2 X0.3879 Y5.8057 I0.5447 J-0.2015
X0.4818 Y5.8475 I0.0851 J-0.0648
X0.4824 I-0.0063 J-0.0767
G1 X0.4875 Y5.847
G2 X0.5729 Y5.7905 I-0.0091 J-0.1066
X0.6299 Y5.6282 I-0.5135 J-0.2713
G3 X0.6782 Y5.6226 I0.0251 J0.0048
G2 X0.7708 Y5.7674 I0.5302 J-0.237
X0.8672 Y5.8029 I0.0806 J-0.0703
G1 X0.8673
X0.8726 Y5.8021
G2 X0.9544 Y5.7399 I-0.0159 J-0.1058
X1.0005 Y5.5743 I-0.5303 J-0.2368
G3 X1.0483 Y5.5655 I0.0253 J0.0031
G2 X1.1503 Y5.7038 I0.5133 J-0.2716
X1.2489 Y5.7329 I0.0758 J-0.0755
G1 X1.2491 Y5.7328
X1.2542 Y5.7317
G2 X1.3316 Y5.6643 I-0.0229 J-0.1045
X1.3667 Y5.4959 I-0.5448 J-0.2012
G3 X1.4138 Y5.484 I0.0255 J0.0015
G2 X1.5247 Y5.6153 I0.4943 J-0.3049
X1.625 Y5.6378 I0.0707 J-0.0803
G1 X1.63 Y5.6364
X1.6302 Y5.6363
G2 X1.7031 Y5.5639 I-0.0297 J-0.1028
X1.7269 Y5.3936 I-0.5569 J-0.1648
G3 X1.7732 Y5.3786 I0.0255 J-0.0002
G2 X1.8925 Y5.5023 I0.4731 J-0.3368
G1 X1.8926 Y5.5024
G2 X1.9941 Y5.5181 I0.0651 J-0.0849
G1 X1.9943 Y5.518
X1.9992 Y5.5162
G2 X2.0671 Y5.4392 I-0.0365 J-0.1006
X2.0796 Y5.2677 I-0.5665 J-0.1276
G3 X2.1248 Y5.2496 I0.0254 J-0.0019
G2 X2.2521 Y5.3652 I0.4498 J-0.3674
X2.3545 Y5.3742 I0.0594 J-0.089
G1 X2.3593 Y5.3721
G2 X2.422 Y5.2907 I-0.043 J-0.098
X2.4232 Y5.1187 I-0.5737 J-0.0899
G3 X2.4671 Y5.0977 I0.0252 J-0.0036
G2 X2.6017 Y5.2046 I0.4245 J-0.3963
X2.7045 Y5.2069 I0.0534 J-0.0927
G1 X2.7092 Y5.2044
G2 X2.7664 Y5.119 I-0.0493 J-0.0949
X2.7562 Y4.9474 I-0.5784 J-0.0518
G3 X2.7986 Y4.9235 I0.025 J-0.0053
G2 X2.94 Y5.0213 I0.3974 J-0.4235
X3.0427 Y5.0167 I0.0472 J-0.096
G1 X3.0428 Y5.0166
X3.0473 Y5.0139
G2 X3.0987 Y4.925 I-0.0556 J-0.0914
X3.0772 Y4.7544 I-0.5806 J-0.0134
G3 X3.1179 Y4.7278 I0.0245 J-0.0069
G2 X3.2654 Y4.816 I0.3684 J-0.4489
X3.3676 Y4.8047 I0.0407 J-0.0989
G1 X3.3719 Y4.8017
Y4.8016
G2 X3.4174 Y4.7095 I-0.0615 J-0.0876
G1 Y4.7094
G2 X3.3847 Y4.5406 I-0.5802 J0.025
G3 X3.4235 Y4.5114 I0.024 J-0.0085
G2 X3.5766 Y4.5897 I0.3381 J-0.4722
X3.6777 Y4.5716 I0.034 J-0.1015
G1 X3.6818 Y4.5684
X3.6819 Y4.5683
G2 X3.7212 Y4.4733 I-0.0671 J-0.0833
X3.6773 Y4.307 I-0.5773 J0.0633
G3 X3.7142 Y4.2753 I0.0234 J-0.0101
G2 X3.8721 Y4.3433 I0.3061 J-0.4935
X3.9719 Y4.3186 I0.0273 J-0.1035
G1 X3.9758 Y4.315
G2 X4.0087 Y4.2175 I-0.0725 J-0.0787
X3.954 Y4.0546 I-0.5718 J0.1013
G3 X3.9886 Y4.0205 I0.0227 J-0.0116
G2 X4.1507 Y4.0779 I0.2728 J-0.5127
G1 X4.1508
G2 X4.2485 Y4.0467 I0.0203 J-0.105
G1 X4.2521 Y4.043
X4.2523 Y4.0428
G2 X4.2787 Y3.9434 I-0.0775 J-0.0738
X4.2133 Y3.7844 I-0.5639 J0.139
G3 X4.2456 Y3.748 I0.0219 J-0.0131
G2 X4.4111 Y3.7946 I0.2383 J-0.5296
X4.5068 Y3.7569 I0.0134 J-0.1061
G1 X4.5101 Y3.7529
G2 X4.5299 Y3.652 I-0.0822 J-0.0685
X4.4542 Y3.4977 I-0.5535 J0.1759
G3 X4.4841 Y3.4593 I0.021 J-0.0145
G2 X4.6523 Y3.4948 I0.2028 J-0.5442
X4.7452 Y3.4509 I0.0064 J-0.1068
G1 X4.7483 Y3.4466
G2 X4.7614 Y3.3446 I-0.0865 J-0.0629
X4.6756 Y3.1956 I-0.5406 J0.2121
G3 X4.7029 Y3.1553 I0.02 J-0.0159
G2 X4.8731 Y3.1797 I0.1664 J-0.5564
X4.9628 Y3.1298 I-0.0007 J-0.107
G1 X4.9656 Y3.1254
X4.9658 Y3.1252
G2 X4.972 Y3.0226 I-0.0906 J-0.0569
X4.8766 Y2.8796 I-0.5255 J0.2473
G3 X4.9011 Y2.8376 I0.0189 J-0.0171
G2 X5.0726 Y2.8507 I0.1292 J-0.5662
X5.1589 Y2.7949 I-0.0078 J-0.1067
G1 X5.1614 Y2.7902
G2 X5.1609 Y2.6874 I-0.0941 J-0.0509
X5.0562 Y2.551 I-0.5079 J0.2815
G3 X5.078 Y2.5075 I0.0177 J-0.0184
G2 X5.2498 Y2.5092 I0.0915 J-0.5735
X5.3323 Y2.4478 I-0.0148 J-0.106
G1 X5.3346 Y2.443
G2 X5.3273 Y2.3405 I-0.0973 J-0.0446
X5.2138 Y2.2113 I-0.4883 J0.3144
G3 X5.2326 Y2.1664 I0.0165 J-0.0195
G2 X5.4043 Y2.1567 I0.0535 J-0.5783
X5.4825 Y2.0901 I-0.0218 J-0.1048
X5.4826 Y2.0896 I-0.0719 J-0.0274
G1 X5.4844 Y2.0848
G2 X5.4703 Y1.9833 I-0.1001 J-0.0378
X5.3485 Y1.8619 I-0.4664 J0.346
G3 X5.3643 Y1.8159 I0.0151 J-0.0205
G2 X5.5349 Y1.7948 I0.0151 J-0.5805
X5.6086 Y1.7232 I-0.0286 J-0.1031
G1 X5.6087 Y1.7229
X5.6102 Y1.7179
G2 X5.5894 Y1.6174 I-0.1023 J-0.0312
X5.4599 Y1.5043 I-0.4425 J0.3761
G3 X5.4726 Y1.4574 I0.0137 J-0.0215
G2 X5.6414 Y1.4251 I-0.0233 J-0.5803
X5.7102 Y1.3488 I-0.0354 J-0.101
G1 X5.7114 Y1.3436
Y1.3435
G2 X5.6841 Y1.2445 I-0.1042 J-0.0245
X5.5474 Y1.1402 I-0.4167 J0.4045
G3 X5.5569 Y1.0925 I0.0123 J-0.0223
G2 X5.7233 Y1.0491 I-0.0616 J-0.5775
X5.7869 Y0.9683 I-0.042 J-0.0984
G1 X5.7877 Y0.9631
G2 X5.7539 Y0.8661 I-0.1055 J-0.0176
X5.6106 Y0.7711 I-0.389 J0.4312
G3 X5.617 Y0.7228 I0.0108 J-0.0231
G2 X5.7802 Y0.6686 I-0.0996 J-0.5721
X5.8382 Y0.584 I-0.0485 J-0.0954
G1 X5.8387 Y0.5789
Y0.5785
G2 X5.7986 Y0.4839 I-0.1065 J-0.0106
X5.6493 Y0.3986 I-0.3597 J0.4559
G3 X5.6525 Y0.35 I0.0093 J-0.0238
G2 X5.8117 Y0.2851 I-0.1372 J-0.5643
X5.864 Y0.1967 I-0.0546 J-0.092
G1 X5.8641 Y0.1964
X5.8642 Y0.1912
G2 X5.8178 Y0.0996 I-0.1069 J-0.0034
X5.6633 Y0.0243 I-0.3288 J0.4787
G3 Y-0.0243 I0.0076 J-0.0243
G2 X5.8178 Y-0.0996 I-0.1743 J-0.554
X5.8642 Y-0.1912 I-0.0606 J-0.0882
G1 X5.8641 Y-0.1964
X5.864 Y-0.1967
G2 X5.8117 Y-0.2851 I-0.1069 J0.0036
X5.6525 Y-0.35 I-0.2964 J0.4994
G3 X5.6493 Y-0.3986 I0.006 J-0.0248
G2 X5.7986 Y-0.4839 I-0.2104 J-0.5413
X5.8387 Y-0.5785 I-0.0663 J-0.084
G1 Y-0.5789
X5.8382 Y-0.584
G2 X5.7802 Y-0.6686 I-0.1064 J0.0108
X5.617 Y-0.7228 I-0.2628 J0.5179
G3 X5.6106 Y-0.7711 I0.0043 J-0.0251
G2 X5.7539 Y-0.8661 I-0.2458 J-0.5262
X5.7877 Y-0.9631 I-0.0717 J-0.0794
G1 X5.7869 Y-0.9683
G2 X5.7234 Y-1.0491 I-0.1055 J0.0175
X5.5569 Y-1.0925 I-0.228 J0.5341
G3 X5.5474 Y-1.1402 I0.0027 J-0.0254
G2 X5.6841 Y-1.2445 I-0.28 J-0.5088
X5.7114 Y-1.3435 I-0.0768 J-0.0745
G1 Y-1.3436
X5.7102 Y-1.3488
G2 X5.6414 Y-1.4251 I-0.1041 J0.0246
X5.4726 Y-1.4574 I-0.1922 J0.548
G3 X5.4599 Y-1.5043 I0.001 J-0.0255
G2 X5.5894 Y-1.6174 I-0.313 J-0.4892
X5.6102 Y-1.7179 I-0.0815 J-0.0693
G1 X5.6087 Y-1.7229
X5.6086 Y-1.7232
G2 X5.5349 Y-1.7948 I-0.1023 J0.0314
X5.3643 Y-1.8159 I-0.1555 J0.5595
G3 X5.3485 Y-1.8619 I-0.0007 J-0.0255
G2 X5.4703 Y-1.9833 I-0.3447 J-0.4674
X5.4844 Y-2.0848 I-0.0859 J-0.0637
G1 X5.4826 Y-2.0896
G2 X5.4825 Y-2.0901 I-0.0721 J0.027
X5.4043 Y-2.1567 I-0.1 J0.0381
X5.2326 Y-2.1664 I-0.1182 J0.5686
G3 X5.2138 Y-2.2113 I-0.0024 J-0.0254
G2 X5.3273 Y-2.3405 I-0.3748 J-0.4436
X5.3346 Y-2.443 I-0.09 J-0.0579
G1 X5.3324 Y-2.4478
G2 X5.2498 Y-2.5092 I-0.0973 J0.0446
X5.078 Y-2.5075 I-0.0803 J0.5752
G3 X5.0562 Y-2.551 I-0.004 J-0.0252
G2 X5.1609 Y-2.6874 I-0.4033 J-0.4178
X5.1614 Y-2.7902 I-0.0936 J-0.0519
G1 X5.1589 Y-2.7949
G2 X5.0726 Y-2.8507 I-0.0941 J0.0509
X4.9011 Y-2.8376 I-0.0422 J0.5792
G3 X4.8766 Y-2.8796 I-0.0057 J-0.0249
G2 X4.972 Y-3.0226 I-0.4301 J-0.3903
X4.9658 Y-3.1252 I-0.0968 J-0.0456
G1 X4.9656 Y-3.1254
X4.9628 Y-3.1298
G2 X4.8731 Y-3.1797 I-0.0905 J0.0571
X4.7029 Y-3.1553 I-0.0038 J0.5807
G3 X4.6756 Y-3.1956 I-0.0073 J-0.0244
G2 X4.7614 Y-3.3446 I-0.4549 J-0.3611
X4.7483 Y-3.4466 I-0.0996 J-0.0391
G1 X4.7452 Y-3.4509
G2 X4.6523 Y-3.4948 I-0.0866 J0.0629
X4.4841 Y-3.4593 I0.0346 J0.5797
G3 X4.4542 Y-3.4977 I-0.0089 J-0.0239
G2 X4.5299 Y-3.652 I-0.4777 J-0.3302
X4.5101 Y-3.7529 I-0.102 J-0.0324
G1 X4.5068 Y-3.7569
G2 X4.4111 Y-3.7946 I-0.0822 J0.0685
X4.2456 Y-3.7481 I0.0728 J0.5762
G3 X4.2133 Y-3.7844 I-0.0105 J-0.0233
G2 X4.2787 Y-3.9434 I-0.4985 J-0.298
X4.2523 Y-4.0428 I-0.1039 J-0.0256
G1 X4.2521 Y-4.043
X4.2485 Y-4.0467
G2 X4.1508 Y-4.0779 I-0.0774 J0.0739
G1 X4.1507
G2 X3.9886 Y-4.0205 I0.1107 J0.5701
G3 X3.954 Y-4.0546 I-0.012 J-0.0225
G2 X4.0087 Y-4.2175 I-0.5171 J-0.2643
X3.9758 Y-4.315 I-0.1054 J-0.0187
G1 X3.9719 Y-4.3186
G2 X3.8721 Y-4.3433 I-0.0725 J0.0788
X3.7142 Y-4.2753 I0.1482 J0.5615
G3 X3.6773 Y-4.307 I-0.0134 J-0.0217
G2 X3.7212 Y-4.4733 I-0.5335 J-0.2295
X3.6819 Y-4.5683 I-0.1064 J-0.0117
G1 X3.6818 Y-4.5684
X3.6777 Y-4.5716
G2 X3.5766 Y-4.5897 I-0.067 J0.0834
X3.4235 Y-4.5114 I0.185 J0.5505
G3 X3.3846 Y-4.5406 I-0.0148 J-0.0207
G2 X3.4174 Y-4.7094 I-0.5475 J-0.1938
G1 Y-4.7095
G2 X3.3719 Y-4.8016 I-0.1069 J-0.0045
G1 Y-4.8017
X3.3676 Y-4.8047
G2 X3.2654 Y-4.816 I-0.0614 J0.0876
X3.1179 Y-4.7278 I0.2209 J0.5371
G3 X3.0772 Y-4.7544 I-0.0162 J-0.0197
G2 X3.0987 Y-4.925 I-0.5591 J-0.1571
X3.0473 Y-5.0139 I-0.107 J0.0024
G1 X3.0428 Y-5.0166
X3.0427 Y-5.0167
G2 X2.94 Y-5.0213 I-0.0556 J0.0914
X2.7986 Y-4.9235 I0.256 J0.5213
G3 X2.7562 Y-4.9474 I-0.0174 J-0.0186
G2 X2.7664 Y-5.119 I-0.5682 J-0.1199
X2.7092 Y-5.2044 I-0.1066 J0.0095
G1 X2.7045 Y-5.2069
G2 X2.6017 Y-5.2046 I-0.0493 J0.0949
X2.4671 Y-5.0977 I0.2899 J0.5032
G3 X2.4232 Y-5.1187 I-0.0186 J-0.0174
G2 X2.422 Y-5.2907 I-0.5749 J-0.0821
X2.3593 Y-5.3721 I-0.1057 J0.0166
G1 X2.3545 Y-5.3742
G2 X2.2521 Y-5.3652 I-0.043 J0.098
X2.1248 Y-5.2496 I0.3225 J0.483
G3 X2.0796 Y-5.2677 I-0.0197 J-0.0161
G2 X2.0671 Y-5.4392 I-0.5791 J-0.0439
X1.9992 Y-5.5162 I-0.1044 J0.0235
G1 X1.9943 Y-5.518
X1.9941 Y-5.5181
G2 X1.8926 Y-5.5024 I-0.0364 J0.1006
G1 X1.8925 Y-5.5023
G2 X1.7732 Y-5.3786 I0.3537 J0.4606
G3 X1.7269 Y-5.3936 I-0.0208 J-0.0148
G2 X1.7031 Y-5.5639 I-0.5807 J-0.0055
X1.6302 Y-5.6363 I-0.1026 J0.0304
G1 X1.63 Y-5.6364
X1.625 Y-5.6378
G2 X1.5247 Y-5.6153 I-0.0296 J0.1028
X1.4138 Y-5.484 I0.3834 J0.4362
G3 X1.3667 Y-5.4959 I-0.0217 J-0.0134
G2 X1.3316 Y-5.6643 I-0.5798 J0.0329
X1.2542 Y-5.7317 I-0.1004 J0.0371
G1 X1.2491 Y-5.7328
X1.2489 Y-5.7329
G2 X1.1503 Y-5.7038 I-0.0228 J0.1045
X1.0483 Y-5.5655 I0.4114 J0.4099
G3 X1.0005 Y-5.5743 I-0.0225 J-0.0119
G2 X0.9544 Y-5.7399 I-0.5764 J0.0711
X0.8726 Y-5.8021 I-0.0977 J0.0436
G1 X0.8673 Y-5.8029
X0.8672
G2 X0.7708 Y-5.7674 I-0.0158 J0.1058
X0.6782 Y-5.6226 I0.4375 J0.3818
G3 X0.6299 Y-5.6282 I-0.0233 J-0.0104
G2 X0.5729 Y-5.7904 I-0.5704 J0.1091
X0.4875 Y-5.847 I-0.0946 J0.05
G1 X0.4824 Y-5.8475
G2 X0.4818 I-0.0069 J0.0767
X0.3879 Y-5.8057 I-0.0088 J0.1067
X0.3051 Y-5.6551 I0.4618 J0.3521
G3 X0.2565 Y-5.6575 I-0.0239 J-0.0088
G2 X0.189 Y-5.8156 I-0.562 J0.1465
X0.0997 Y-5.8665 I-0.0911 J0.0561
G1 X0.0995
X0.0943 Y-5.8666
G2 X0.0034 Y-5.8187 I-0.0017 J0.107
X-0.0693 Y-5.6629 I0.4841 J0.3208
G3 X-0.118 Y-5.6621 I-0.0244 J-0.0072
G2 X-0.1958 Y-5.8154 I-0.551 J0.1834
X-0.2882 Y-5.8603 I-0.0872 J0.062
G1 X-0.2885 Y-5.8602
X-0.2937 Y-5.86
G2 X-0.3812 Y-5.8062 I0.0054 J0.1069
X-0.4434 Y-5.6459 I0.5042 J0.2881
G3 X-0.4919 Y-5.6419 I-0.0249 J-0.0056
G2 X-0.5797 Y-5.7897 I-0.5377 J0.2194
X-0.6748 Y-5.8284 I-0.0829 J0.0677
G1 X-0.6799 Y-5.8278
X-0.6802
G2 X-0.7641 Y-5.7683 I0.0124 J0.1063
X-0.8156 Y-5.6043 I0.5222 J0.2541
G3 X-0.8637 Y-5.5971 I-0.0252 J-0.004
G2 X-0.9611 Y-5.7388 I-0.5221 J0.2544
X-1.0586 Y-5.7711 I-0.0783 J0.073
X-1.0591 Y-5.771 I0.0139 J0.0757
G1 X-1.0641 Y-5.77
G2 X-1.1436 Y-5.7052 I0.0196 J0.1052
X-1.1842 Y-5.5381 I0.5378 J0.2191
G3 X-1.2317 Y-5.5278 I-0.0254 J-0.0023
G2 X-1.3383 Y-5.6627 I-0.5041 J0.2884
X-1.4378 Y-5.6884 I-0.0732 J0.078
G1 X-1.4429 Y-5.6871
G2 X-1.5182 Y-5.6172 I0.0262 J0.1037
X-1.5476 Y-5.4478 I0.5511 J0.1831
G3 X-1.5944 Y-5.4343 I-0.0255 J-0.0006
G2 X-1.7096 Y-5.5619 I-0.484 J0.321
X-1.8106 Y-5.581 I-0.0679 J0.0827
G1 X-1.8108 Y-5.5809
X-1.8158 Y-5.5793
G2 X-1.8861 Y-5.5045 I0.0332 J0.1017
X-1.9043 Y-5.3336 I0.562 J0.1462
G3 X-1.95 Y-5.317 I-0.0255 J0.0011
G2 X-2.0734 Y-5.4367 I-0.4616 J0.3524
X-2.1752 Y-5.4492 I-0.0623 J0.087
G1 X-2.18 Y-5.4473
G2 X-2.1804 Y-5.4472 I0.0281 J0.0717
X-2.2458 Y-5.3678 I0.0398 J0.0994
X-2.2526 Y-5.1961 I0.5705 J0.1088
G3 X-2.2972 Y-5.1765 I-0.0253 J0.0028
G2 X-2.4282 Y-5.2878 I-0.4374 J0.3821
X-2.5308 Y-5.2934 I-0.0564 J0.0909
G1 X-2.5356 Y-5.2911
G2 X-2.5956 Y-5.2076 I0.0462 J0.0965
X-2.5911 Y-5.0358 I0.5764 J0.0708
G3 X-2.6343 Y-5.0134 I-0.0251 J0.0044
G2 X-2.7724 Y-5.1157 I-0.4111 J0.4102
X-2.8751 Y-5.1146 I-0.0503 J0.0944
G1 X-2.8752
X-2.8798 Y-5.112
G2 X-2.9341 Y-5.0248 I0.0525 J0.0932
X-2.9183 Y-4.8536 I0.5798 J0.0326
G3 X-2.9599 Y-4.8283 I-0.0248 J0.0061
G2 X-3.1044 Y-4.9213 I-0.3831 J0.4364
X-3.2068 Y-4.9134 I-0.044 J0.0975
G1 X-3.2111 Y-4.9106
X-3.2113 Y-4.9105
G2 X-3.2598 Y-4.8198 I0.0585 J0.0896
X-3.2327 Y-4.6501 I0.5807 J-0.0058
G3 X-3.2725 Y-4.6221 I-0.0243 J0.0077
G2 X-3.4229 Y-4.7054 I-0.3534 J0.4608
X-3.5244 Y-4.6908 I-0.0374 J0.1002
G1 X-3.5286 Y-4.6877
X-3.5289 Y-4.6875
G2 X-3.5712 Y-4.5939 I0.0643 J0.0855
X-3.5329 Y-4.4263 I0.5791 J-0.0441
G3 X-3.5708 Y-4.3958 I-0.0237 J0.0093
G2 X-3.7264 Y-4.4689 I-0.3222 J0.4832
X-3.8268 Y-4.4476 I-0.0307 J0.1025
G1 X-3.8307 Y-4.4442
X-3.8309 Y-4.4441
G2 X-3.867 Y-4.3478 I0.0698 J0.0811
X-3.8177 Y-4.1831 I0.5749 J-0.0823
G3 X-3.8535 Y-4.1501 I-0.0231 J0.0108
G2 X-4.0136 Y-4.2129 I-0.2896 J0.5034
X-4.1124 Y-4.1849 I-0.0239 J0.1043
G1 X-4.1127 Y-4.1847
X-4.1164 Y-4.181
G2 X-4.1459 Y-4.0827 I0.0751 J0.0762
X-4.0858 Y-3.9216 I0.5682 J-0.1202
G3 X-4.1194 Y-3.8864 I-0.0223 J0.0123
G2 X-4.2832 Y-3.9384 I-0.2557 J0.5214
X-4.3801 Y-3.9039 I-0.0169 J0.1057
G1 X-4.3802 Y-3.9038
X-4.3837 Y-3.8998
G2 X-4.4067 Y-3.7998 I0.08 J0.071
X-4.3361 Y-3.643 I0.559 J-0.1574
G3 X-4.3672 Y-3.6056 I-0.0215 J0.0138
G2 X-4.5342 Y-3.6467 I-0.2207 J0.5372
X-4.6284 Y-3.606 I-0.0099 J0.1065
G1 X-4.6317 Y-3.6018
X-4.6319 Y-3.6016
G2 X-4.6482 Y-3.5002 I0.0845 J0.0656
X-4.5674 Y-3.3485 I0.5473 J-0.194
G3 X-4.596 Y-3.3091 I-0.0205 J0.0152
G2 X-4.7653 Y-3.3391 I-0.1847 J0.5506
X-4.8566 Y-3.2922 I-0.0028 J0.107
G1 X-4.8595 Y-3.288
X-4.8597 Y-3.2876
G2 X-4.8693 Y-3.1853 I0.0886 J0.0599
X-4.7787 Y-3.0393 I0.5333 J-0.2298
G3 X-4.8046 Y-2.9981 I-0.0194 J0.0165
G2 X-4.9755 Y-3.0168 I-0.1479 J0.5616
X-5.0637 Y-2.9639 I0.0042 J0.1069
G1 X-5.0663 Y-2.9594
X-5.0664 Y-2.9593
G2 X-5.0692 Y-2.8566 I0.0924 J0.0539
X-4.9691 Y-2.7168 I0.517 J-0.2645
G3 X-4.9923 Y-2.674 I-0.0183 J0.0178
G2 X-5.164 Y-2.6814 I-0.1104 J0.5701
X-5.2485 Y-2.6228 I0.0112 J0.1064
G1 X-5.2509 Y-2.618
G2 X-5.2469 Y-2.5153 I0.0957 J0.0478
X-5.1378 Y-2.3825 I0.4984 J-0.2981
G3 X-5.1581 Y-2.3382 I-0.0171 J0.0189
G2 X-5.33 Y-2.3342 I-0.0725 J0.5762
X-5.4103 Y-2.2702 I0.0184 J0.1054
G1 X-5.4124 Y-2.2653
G2 X-5.4017 Y-2.1631 I0.0987 J0.0414
X-5.2841 Y-2.0377 I0.4776 J-0.3304
G3 X-5.3014 Y-1.9922 I-0.0158 J0.02
G2 X-5.4726 Y-1.9769 I-0.0343 J0.5797
X-5.5486 Y-1.9076 I0.0252 J0.104
G1 X-5.5487 Y-1.9073
X-5.5503 Y-1.9024
G2 X-5.5328 Y-1.8013 I0.1012 J0.0345
X-5.4072 Y-1.684 I0.4547 J-0.3612
G3 X-5.4214 Y-1.6375 I-0.0144 J0.021
G2 X-5.5913 Y-1.6109 I0.0041 J0.5807
G1 Y-1.6108
G2 X-5.6625 Y-1.5368 I0.0321 J0.1021
G1 Y-1.5367
X-5.6639 Y-1.5316
G2 X-5.6399 Y-1.4317 I0.1033 J0.028
G1 X-5.6398
G2 X-5.5066 Y-1.323 I0.4298 J-0.3906
G3 X-5.5178 Y-1.2756 I-0.0131 J0.0219
G2 X-5.6855 Y-1.2378 I0.0425 J0.5792
X-5.7516 Y-1.1593 I0.0387 J0.0997
G1 X-5.7527 Y-1.1542
Y-1.154
G2 X-5.7221 Y-1.0558 I0.1049 J0.0211
X-5.582 Y-0.9561 I0.4031 J-0.4181
G3 X-5.59 Y-0.9082 I-0.0115 J0.0227
G2 X-5.7548 Y-0.8593 I0.0807 J0.5751
X-5.8157 Y-0.7765 I0.0452 J0.097
X-5.8158 Y-0.7761 I0.0763 J0.0102
G1 X-5.8164 Y-0.771
G2 X-5.7795 Y-0.6754 I0.1061 J0.0139
G1 X-5.7794 Y-0.6753
G2 X-5.633 Y-0.5851 I0.3745 J-0.4438
G3 X-5.6378 Y-0.5367 I-0.01 J0.0234
G2 X-5.7991 Y-0.4771 I0.1185 J0.5685
X-5.8543 Y-0.3904 I0.0515 J0.0938
G1 X-5.8547 Y-0.3852
G2 X-5.8114 Y-0.2919 I0.1068 J0.0072
X-5.6594 Y-0.2116 I0.3444 J-0.4676
G3 X-5.661 Y-0.1629 I-0.0085 J0.0241
G2 X-5.818 Y-0.0928 I0.1558 J0.5595
X-5.8673 Y-0.0026 I0.0577 J0.0901
G1 Y0.
Y0.0026 Z-0.0726
G2 X-5.818 Y0.0928 Z-0.078 I0.107 J0.
X-5.661 Y0.1629 Z-0.0867 I0.3128 J-0.4893
G3 X-5.6594 Y0.2116 Z-0.0899 I-0.0069 J0.0246
G2 X-5.8114 Y0.2919 Z-0.0986 I0.1924 J0.5479
X-5.8547 Y0.3852 Z-0.1039 I0.0635 J0.0861
G1 X-5.8543 Y0.3904 Z-0.1042
G2 X-5.7991 Y0.4771 Z-0.1096 I0.1068 J-0.0071
X-5.6378 Y0.5367 Z-0.1182 I0.2798 J-0.5089
G3 X-5.633 Y0.5851 Z-0.1215 I-0.0052 J0.025
G2 X-5.7794 Y0.6753 Z-0.1301 I0.2282 J0.534
G1 X-5.7795 Y0.6754 Z-0.1302
G2 X-5.8164 Y0.771 Z-0.1355 I0.0691 J0.0817
G1 X-5.8158 Y0.7761 Z-0.1358
G2 X-5.8157 Y0.7765 I0.0764 J-0.0097
X-5.7548 Y0.8593 Z-0.1412 I0.1061 J-0.0142
X-5.6838 Y0.887 Z-0.145 I0.2455 J-0.5263
X-5.59 Y0.9082 I0.1744 J-0.5539
G3 X-5.582 Y0.9561 I-0.0035 J0.0253
G2 X-5.7221 Y1.0558 I0.263 J0.5178
X-5.7527 Y1.154 I0.0743 J0.077
G1 Y1.1542
X-5.7516 Y1.1593
G2 X-5.6855 Y1.2378 I0.1049 J-0.0213
X-5.5178 Y1.2756 I0.2102 J-0.5414
G3 X-5.5066 Y1.323 I-0.0019 J0.0254
G2 X-5.6398 Y1.4317 I0.2966 J0.4993
G1 X-5.6399
G2 X-5.6639 Y1.5316 I0.0792 J0.0719
G1 X-5.6625 Y1.5367
Y1.5368
G2 X-5.5913 Y1.6108 I0.1033 J-0.028
G1 Y1.6109
G2 X-5.4215 Y1.6375 I0.174 J-0.5541
G3 X-5.4072 Y1.684 I-0.0002 J0.0255
G2 X-5.5328 Y1.8013 I0.329 J0.4785
X-5.5503 Y1.9024 I0.0838 J0.0666
G1 X-5.5487 Y1.9073
X-5.5486 Y1.9076
G2 X-5.4726 Y1.9769 I0.1012 J-0.0348
X-5.3014 Y1.9922 I0.137 J-0.5644
G3 X-5.284 Y2.0377 I0.0015 J0.0254
G2 X-5.4017 Y2.1631 I0.36 J0.4558
X-5.4124 Y2.2653 I0.088 J0.0609
G1 X-5.4103 Y2.2702
G2 X-5.33 Y2.3342 I0.0987 J-0.0414
X-5.1581 Y2.3382 I0.0994 J-0.5722
G3 X-5.1378 Y2.3825 I0.0032 J0.0253
G2 X-5.2469 Y2.5153 I0.3893 J0.431
X-5.2509 Y2.618 I0.0918 J0.0549
G1 X-5.2485 Y2.6228
G2 X-5.164 Y2.6814 I0.0957 J-0.0478
X-4.9923 Y2.674 I0.0613 J-0.5775
G3 X-4.9691 Y2.7168 I0.0048 J0.025
G2 X-5.0692 Y2.8566 I0.4169 J0.4043
X-5.0664 Y2.9593 I0.0952 J0.0488
G1 X-5.0663 Y2.9594
X-5.0637 Y2.9639
G2 X-4.9755 Y3.0168 I0.0923 J-0.0541
X-4.8046 Y2.9981 I0.023 J-0.5803
G3 X-4.7787 Y3.0393 I0.0065 J0.0247
G2 X-4.8693 Y3.1853 I0.4427 J0.3759
X-4.8597 Y3.2876 I0.0982 J0.0424
G1 X-4.8595 Y3.288
X-4.8566 Y3.2922
G2 X-4.7653 Y3.3391 I0.0885 J-0.0602
X-4.596 Y3.3091 I-0.0154 J-0.5805
G3 X-4.5674 Y3.3485 I0.0081 J0.0242
G2 X-4.6482 Y3.5002 I0.4666 J0.3458
X-4.6319 Y3.6016 I0.1008 J0.0358
G1 X-4.6317 Y3.6018
X-4.6284 Y3.606
G2 X-4.5342 Y3.6467 I0.0844 J-0.0658
X-4.3672 Y3.6056 I-0.0538 J-0.5783
G3 X-4.3361 Y3.643 I0.0097 J0.0236
G2 X-4.4067 Y3.7998 I0.4884 J0.3142
X-4.3837 Y3.8998 I0.103 J0.029
G1 X-4.3802 Y3.9038
X-4.3801 Y3.9039
G2 X-4.2832 Y3.9384 I0.0799 J-0.0712
X-4.1194 Y3.8864 I-0.0918 J-0.5734
G3 X-4.0858 Y3.9216 I0.0112 J0.0229
G2 X-4.1459 Y4.0827 I0.5081 J0.2813
X-4.1164 Y4.181 I0.1047 J0.0222
G1 X-4.1127 Y4.1847
X-4.1124 Y4.1849
G2 X-4.0136 Y4.2129 I0.075 J-0.0764
X-3.8535 Y4.1501 I-0.1295 J-0.5661
G3 X-3.8177 Y4.1831 I0.0127 J0.0221
G2 X-3.867 Y4.3478 I0.5256 J0.247
X-3.8309 Y4.4441 I0.1059 J0.0152
G1 X-3.8307 Y4.4442
X-3.8268 Y4.4476
G2 X-3.7264 Y4.4689 I0.0697 J-0.0812
X-3.5708 Y4.3958 I-0.1666 J-0.5563
G3 X-3.5329 Y4.4263 I0.0141 J0.0212
G2 X-3.5712 Y4.5939 I0.5408 J0.2117
X-3.5289 Y4.6875 I0.1067 J0.0081
G1 X-3.5286 Y4.6877
X-3.5244 Y4.6908
G2 X-3.4229 Y4.7054 I0.0641 J-0.0857
X-3.2725 Y4.6221 I-0.203 J-0.5441
G3 X-3.2327 Y4.6501 I0.0155 J0.0202
G2 X-3.2598 Y4.8198 I0.5536 J0.1756
X-3.2113 Y4.9105 I0.107 J0.0011
G1 X-3.2111 Y4.9106
X-3.2068 Y4.9134
G2 X-3.1044 Y4.9213 I0.0584 J-0.0896
X-2.9599 Y4.8283 I-0.2385 J-0.5295
G3 X-2.9183 Y4.8536 I0.0168 J0.0192
G2 X-2.9341 Y5.0248 I0.564 J0.1386
X-2.8798 Y5.112 I0.1068 J-0.006
G1 X-2.8752 Y5.1146
X-2.8751
G2 X-2.7724 Y5.1157 I0.0524 J-0.0933
X-2.6343 Y5.0134 I-0.273 J-0.5125
G3 X-2.5911 Y5.0358 I0.0181 J0.018
G2 X-2.5956 Y5.2076 I0.5719 J0.101
X-2.5357 Y5.2911 I0.1062 J-0.013
G1 X-2.5309 Y5.2934
G2 X-2.4282 Y5.2878 I0.0462 J-0.0965
X-2.2972 Y5.1765 I-0.3063 J-0.4934
G3 X-2.2526 Y5.196 I0.0192 J0.0167
G2 X-2.2458 Y5.3678 I0.5773 J0.063
X-2.1804 Y5.4472 I0.1051 J-0.02
X-2.18 Y5.4473 I0.0286 J-0.0715
G1 X-2.1752 Y5.4492
G2 X-2.0734 Y5.4367 I0.0395 J-0.0994
X-1.9501 Y5.317 I-0.3382 J-0.4721
G3 X-1.9043 Y5.3336 I0.0203 J0.0154
G2 X-1.8861 Y5.5045 I0.5802 J0.0247
X-1.8158 Y5.5793 I0.1035 J-0.0269
G1 X-1.8108 Y5.5809
X-1.8106 Y5.581
G2 X-1.7096 Y5.5619 I0.033 J-0.1018
X-1.5944 Y5.4343 I-0.3687 J-0.4487
G3 X-1.5476 Y5.4477 I0.0212 J0.0141
G2 X-1.5182 Y5.6172 I0.5806 J-0.0137
X-1.4429 Y5.6871 I0.1015 J-0.0337
G1 X-1.4378 Y5.6884
G2 X-1.3383 Y5.6627 I0.0263 J-0.1037
X-1.2317 Y5.5278 I-0.3975 J-0.4234
G3 X-1.1842 Y5.5381 I0.0221 J0.0127
G2 X-1.1436 Y5.7052 I0.5784 J-0.0521
X-1.0641 Y5.77 I0.0991 J-0.0403
G1 X-1.0591 Y5.771
G2 X-1.0586 Y5.7711 I0.0143 J-0.0757
X-0.9611 Y5.7388 I0.0193 J-0.1053
X-0.8637 Y5.5971 I-0.4247 J-0.3961
G3 X-0.8156 Y5.6043 I0.0229 J0.0112
G2 X-0.7641 Y5.7683 I0.5737 J-0.0902
X-0.6802 Y5.8278 I0.0962 J-0.0468
G1 X-0.6799
X-0.6748 Y5.8284
G2 X-0.5797 Y5.7898 I0.0122 J-0.1063
X-0.4919 Y5.6419 I-0.4499 J-0.3672
G3 X-0.4434 Y5.6459 I0.0236 J0.0096
G2 X-0.3812 Y5.8062 I0.5665 J-0.1279
X-0.2937 Y5.86 I0.0929 J-0.0531
G1 X-0.2885 Y5.8602
X-0.2882 Y5.8603
G2 X-0.1958 Y5.8154 I0.0053 J-0.1069
X-0.118 Y5.6621 I-0.4732 J-0.3366
G3 X-0.0693 Y5.6629 I0.0242 J0.008
G2 X0.0034 Y5.8187 I0.5568 J-0.1651
X0.0943 Y5.8666 I0.0892 J-0.0591
G1 X0.0995 Y5.8665
X0.0997
G2 X0.189 Y5.8157 I-0.0018 J-0.107
X0.2565 Y5.6575 I-0.4944 J-0.3047
G3 X0.3051 Y5.6551 I0.0247 J0.0064
G2 X0.3879 Y5.8057 I0.5447 J-0.2015
X0.4818 Y5.8475 I0.0851 J-0.0648
X0.4824 I-0.0063 J-0.0767
G1 X0.4875 Y5.847
G2 X0.5729 Y5.7905 I-0.0091 J-0.1066
X0.6299 Y5.6282 I-0.5135 J-0.2713
G3 X0.6782 Y5.6226 I0.0251 J0.0048
G2 X0.7708 Y5.7674 I0.5302 J-0.237
X0.8672 Y5.8029 I0.0806 J-0.0703
G1 X0.8673
X0.8726 Y5.8021
G2 X0.9544 Y5.7399 I-0.0159 J-0.1058
X1.0005 Y5.5743 I-0.5303 J-0.2368
G3 X1.0483 Y5.5655 I0.0253 J0.0031
G2 X1.1503 Y5.7038 I0.5133 J-0.2716
X1.2489 Y5.7329 I0.0758 J-0.0755
G1 X1.2491 Y5.7328
X1.2542 Y5.7317
G2 X1.3316 Y5.6643 I-0.0229 J-0.1045
X1.3667 Y5.4959 I-0.5448 J-0.2012
G3 X1.4138 Y5.484 I0.0255 J0.0015
G2 X1.5247 Y5.6153 I0.4943 J-0.3049
X1.625 Y5.6378 I0.0707 J-0.0803
G1 X1.63 Y5.6364
X1.6302 Y5.6363
G2 X1.7031 Y5.5639 I-0.0297 J-0.1028
X1.7269 Y5.3936 I-0.5569 J-0.1648
G3 X1.7732 Y5.3786 I0.0255 J-0.0002
G2 X1.8925 Y5.5023 I0.4731 J-0.3368
G1 X1.8926 Y5.5024
G2 X1.9941 Y5.5181 I0.0651 J-0.0849
G1 X1.9943 Y5.518
X1.9992 Y5.5162
G2 X2.0671 Y5.4392 I-0.0365 J-0.1006
X2.0796 Y5.2677 I-0.5665 J-0.1276
G3 X2.1248 Y5.2496 I0.0254 J-0.0019
G2 X2.2521 Y5.3652 I0.4498 J-0.3674
X2.3545 Y5.3742 I0.0594 J-0.089
G1 X2.3593 Y5.3721
G2 X2.422 Y5.2907 I-0.043 J-0.098
X2.4232 Y5.1187 I-0.5737 J-0.0899
G3 X2.4671 Y5.0977 I0.0252 J-0.0036
G2 X2.6017 Y5.2046 I0.4245 J-0.3963
X2.7045 Y5.2069 I0.0534 J-0.0927
G1 X2.7092 Y5.2044
G2 X2.7664 Y5.119 I-0.0493 J-0.0949
X2.7562 Y4.9474 I-0.5784 J-0.0518
G3 X2.7986 Y4.9235 I0.025 J-0.0053
G2 X2.94 Y5.0213 I0.3974 J-0.4235
X3.0427 Y5.0167 I0.0472 J-0.096
G1 X3.0428 Y5.0166
X3.0473 Y5.0139
G2 X3.0987 Y4.925 I-0.0556 J-0.0914
X3.0772 Y4.7544 I-0.5806 J-0.0134
G3 X3.1179 Y4.7278 I0.0245 J-0.0069
G2 X3.2654 Y4.816 I0.3684 J-0.4489
X3.3676 Y4.8047 I0.0407 J-0.0989
G1 X3.3719 Y4.8017
Y4.8016
G2 X3.4174 Y4.7095 I-0.0615 J-0.0876
G1 Y4.7094
G2 X3.3847 Y4.5406 I-0.5802 J0.025
G3 X3.4235 Y4.5114 I0.024 J-0.0085
G2 X3.5766 Y4.5897 I0.3381 J-0.4722
X3.6777 Y4.5716 I0.034 J-0.1015
G1 X3.6818 Y4.5684
X3.6819 Y4.5683
G2 X3.7212 Y4.4733 I-0.0671 J-0.0833
X3.6773 Y4.307 I-0.5773 J0.0633
G3 X3.7142 Y4.2753 I0.0234 J-0.0101
G2 X3.8721 Y4.3433 I0.3061 J-0.4935
X3.9719 Y4.3186 I0.0273 J-0.1035
G1 X3.9758 Y4.315
G2 X4.0087 Y4.2175 I-0.0725 J-0.0787
X3.954 Y4.0546 I-0.5718 J0.1013
G3 X3.9886 Y4.0205 I0.0227 J-0.0116
G2 X4.1507 Y4.0779 I0.2728 J-0.5127
G1 X4.1508
G2 X4.2485 Y4.0467 I0.0203 J-0.105
G1 X4.2521 Y4.043
X4.2523 Y4.0428
G2 X4.2787 Y3.9434 I-0.0775 J-0.0738
X4.2133 Y3.7844 I-0.5639 J0.139
G3 X4.2456 Y3.748 I0.0219 J-0.0131
G2 X4.4111 Y3.7946 I0.2383 J-0.5296
X4.5068 Y3.7569 I0.0134 J-0.1061
G1 X4.5101 Y3.7529
G2 X4.5299 Y3.652 I-0.0822 J-0.0685
X4.4542 Y3.4977 I-0.5535 J0.1759
G3 X4.4841 Y3.4593 I0.021 J-0.0145
G2 X4.6523 Y3.4948 I0.2028 J-0.5442
X4.7452 Y3.4509 I0.0064 J-0.1068
G1 X4.7483 Y3.4466
G2 X4.7614 Y3.3446 I-0.0865 J-0.0629
X4.6756 Y3.1956 I-0.5406 J0.2121
G3 X4.7029 Y3.1553 I0.02 J-0.0159
G2 X4.8731 Y3.1797 I0.1664 J-0.5564
X4.9628 Y3.1298 I-0.0007 J-0.107
G1 X4.9656 Y3.1254
X4.9658 Y3.1252
G2 X4.972 Y3.0226 I-0.0906 J-0.0569
X4.8766 Y2.8796 I-0.5255 J0.2473
G3 X4.9011 Y2.8376 I0.0189 J-0.0171
G2 X5.0726 Y2.8507 I0.1292 J-0.5662
X5.1589 Y2.7949 I-0.0078 J-0.1067
G1 X5.1614 Y2.7902
G2 X5.1609 Y2.6874 I-0.0941 J-0.0509
X5.0562 Y2.551 I-0.5079 J0.2815
G3 X5.078 Y2.5075 I0.0177 J-0.0184
G2 X5.2498 Y2.5092 I0.0915 J-0.5735
X5.3323 Y2.4478 I-0.0148 J-0.106
G1 X5.3346 Y2.443
G2 X5.3273 Y2.3405 I-0.0973 J-0.0446
X5.2138 Y2.2113 I-0.4883 J0.3144
G3 X5.2326 Y2.1664 I0.0165 J-0.0195
G2 X5.4043 Y2.1567 I0.0535 J-0.5783
X5.4825 Y2.0901 I-0.0218 J-0.1048
X5.4826 Y2.0896 I-0.0719 J-0.0274
G1 X5.4844 Y2.0848
G2 X5.4703 Y1.9833 I-0.1001 J-0.0378
X5.3485 Y1.8619 I-0.4664 J0.346
G3 X5.3643 Y1.8159 I0.0151 J-0.0205
G2 X5.5349 Y1.7948 I0.0151 J-0.5805
X5.6086 Y1.7232 I-0.0286 J-0.1031
G1 X5.6087 Y1.7229
X5.6102 Y1.7179
G2 X5.5894 Y1.6174 I-0.1023 J-0.0312
X5.4599 Y1.5043 I-0.4425 J0.3761
G3 X5.4726 Y1.4574 I0.0137 J-0.0215
G2 X5.6414 Y1.4251 I-0.0233 J-0.5803
X5.7102 Y1.3488 I-0.0354 J-0.101
G1 X5.7114 Y1.3436
Y1.3435
G2 X5.6841 Y1.2445 I-0.1042 J-0.0245
X5.5474 Y1.1402 I-0.4167 J0.4045
G3 X5.5569 Y1.0925 I0.0123 J-0.0223
G2 X5.7233 Y1.0491 I-0.0616 J-0.5775
X5.7869 Y0.9683 I-0.042 J-0.0984
G1 X5.7877 Y0.9631
G2 X5.7539 Y0.8661 I-0.1055 J-0.0176
X5.6106 Y0.7711 I-0.389 J0.4312
G3 X5.617 Y0.7228 I0.0108 J-0.0231
G2 X5.7802 Y0.6686 I-0.0996 J-0.5721
X5.8382 Y0.584 I-0.0485 J-0.0954
G1 X5.8387 Y0.5789
Y0.5785
G2 X5.7986 Y0.4839 I-0.1065 J-0.0106
X5.6493 Y0.3986 I-0.3597 J0.4559
G3 X5.6525 Y0.35 I0.0093 J-0.0238
G2 X5.8117 Y0.2851 I-0.1372 J-0.5643
X5.864 Y0.1967 I-0.0546 J-0.092
G1 X5.8641 Y0.1964
X5.8642 Y0.1912
G2 X5.8178 Y0.0996 I-0.1069 J-0.0034
X5.6633 Y0.0243 I-0.3288 J0.4787
G3 Y-0.0243 I0.0076 J-0.0243
G2 X5.8178 Y-0.0996 I-0.1743 J-0.554
X5.8642 Y-0.1912 I-0.0606 J-0.0882
G1 X5.8641 Y-0.1964
X5.864 Y-0.1967
G2 X5.8117 Y-0.2851 I-0.1069 J0.0036
X5.6525 Y-0.35 I-0.2964 J0.4994
G3 X5.6493 Y-0.3986 I0.006 J-0.0248
G2 X5.7986 Y-0.4839 I-0.2104 J-0.5413
X5.8387 Y-0.5785 I-0.0663 J-0.084
G1 Y-0.5789
X5.8382 Y-0.584
G2 X5.7802 Y-0.6686 I-0.1064 J0.0108
X5.617 Y-0.7228 I-0.2628 J0.5179
G3 X5.6106 Y-0.7711 I0.0043 J-0.0251
G2 X5.7539 Y-0.8661 I-0.2458 J-0.5262
X5.7877 Y-0.9631 I-0.0717 J-0.0794
G1 X5.7869 Y-0.9683
G2 X5.7234 Y-1.0491 I-0.1055 J0.0175
X5.5569 Y-1.0925 I-0.228 J0.5341
G3 X5.5474 Y-1.1402 I0.0027 J-0.0254
G2 X5.6841 Y-1.2445 I-0.28 J-0.5088
X5.7114 Y-1.3435 I-0.0768 J-0.0745
G1 Y-1.3436
X5.7102 Y-1.3488
G2 X5.6414 Y-1.4251 I-0.1041 J0.0246
X5.4726 Y-1.4574 I-0.1922 J0.548
G3 X5.4599 Y-1.5043 I0.001 J-0.0255
G2 X5.5894 Y-1.6174 I-0.313 J-0.4892
X5.6102 Y-1.7179 I-0.0815 J-0.0693
G1 X5.6087 Y-1.7229
X5.6086 Y-1.7232
G2 X5.5349 Y-1.7948 I-0.1023 J0.0314
X5.3643 Y-1.8159 I-0.1555 J0.5595
G3 X5.3485 Y-1.8619 I-0.0007 J-0.0255
G2 X5.4703 Y-1.9833 I-0.3447 J-0.4674
X5.4844 Y-2.0848 I-0.0859 J-0.0637
G1 X5.4826 Y-2.0896
G2 X5.4825 Y-2.0901 I-0.0721 J0.027
X5.4043 Y-2.1567 I-0.1 J0.0381
X5.2326 Y-2.1664 I-0.1182 J0.5686
G3 X5.2138 Y-2.2113 I-0.0024 J-0.0254
G2 X5.3273 Y-2.3405 I-0.3748 J-0.4436
X5.3346 Y-2.443 I-0.09 J-0.0579
G1 X5.3324 Y-2.4478
G2 X5.2498 Y-2.5092 I-0.0973 J0.0446
X5.078 Y-2.5075 I-0.0803 J0.5752
G3 X5.0562 Y-2.551 I-0.004 J-0.0252
G2 X5.1609 Y-2.6874 I-0.4033 J-0.4178
X5.1614 Y-2.7902 I-0.0936 J-0.0519
G1 X5.1589 Y-2.7949
G2 X5.0726 Y-2.8507 I-0.0941 J0.0509
X4.9011 Y-2.8376 I-0.0422 J0.5792
G3 X4.8766 Y-2.8796 I-0.0057 J-0.0249
G2 X4.972 Y-3.0226 I-0.4301 J-0.3903
X4.9658 Y-3.1252 I-0.0968 J-0.0456
G1 X4.9656 Y-3.1254
X4.9628 Y-3.1298
G2 X4.8731 Y-3.1797 I-0.0905 J0.0571
X4.7029 Y-3.1553 I-0.0038 J0.5807
G3 X4.6756 Y-3.1956 I-0.0073 J-0.0244
G2 X4.7614 Y-3.3446 I-0.4549 J-0.3611
X4.7483 Y-3.4466 I-0.0996 J-0.0391
G1 X4.7452 Y-3.4509
G2 X4.6523 Y-3.4948 I-0.0866 J0.0629
X4.4841 Y-3.4593 I0.0346 J0.5797
G3 X4.4542 Y-3.4977 I-0.0089 J-0.0239
G2 X4.5299 Y-3.652 I-0.4777 J-0.3302
X4.5101 Y-3.7529 I-0.102 J-0.0324
G1 X4.5068 Y-3.7569
G2 X4.4111 Y-3.7946 I-0.0822 J0.0685
X4.2456 Y-3.7481 I0.0728 J0.5762
G3 X4.2133 Y-3.7844 I-0.0105 J-0.0233
G2 X4.2787 Y-3.9434 I-0.4985 J-0.298
X4.2523 Y-4.0428 I-0.1039 J-0.0256
G1 X4.2521 Y-4.043
X4.2485 Y-4.0467
G2 X4.1508 Y-4.0779 I-0.0774 J0.0739
G1 X4.1507
G2 X3.9886 Y-4.0205 I0.1107 J0.5701
G3 X3.954 Y-4.0546 I-0.012 J-0.0225
G2 X4.0087 Y-4.2175 I-0.5171 J-0.2643
X3.9758 Y-4.315 I-0.1054 J-0.0187
G1 X3.9719 Y-4.3186
G2 X3.8721 Y-4.3433 I-0.0725 J0.0788
X3.7142 Y-4.2753 I0.1482 J0.5615
G3 X3.6773 Y-4.307 I-0.0134 J-0.0217
G2 X3.7212 Y-4.4733 I-0.5335 J-0.2295
X3.6819 Y-4.5683 I-0.1064 J-0.0117
G1 X3.6818 Y-4.5684
X3.6777 Y-4.5716
G2 X3.5766 Y-4.5897 I-0.067 J0.0834
X3.4235 Y-4.5114 I0.185 J0.5505
G3 X3.3846 Y-4.5406 I-0.0148 J-0.0207
G2 X3.4174 Y-4.7094 I-0.5475 J-0.1938
G1 Y-4.7095
G2 X3.3719 Y-4.8016 I-0.1069 J-0.0045
G1 Y-4.8017
X3.3676 Y-4.8047
G2 X3.2654 Y-4.816 I-0.0614 J0.0876
X3.1179 Y-4.7278 I0.2209 J0.5371
G3 X3.0772 Y-4.7544 I-0.0162 J-0.0197
G2 X3.0987 Y-4.925 I-0.5591 J-0.1571
X3.0473 Y-5.0139 I-0.107 J0.0024
G1 X3.0428 Y-5.0166
X3.0427 Y-5.0167
G2 X2.94 Y-5.0213 I-0.0556 J0.0914
X2.7986 Y-4.9235 I0.256 J0.5213
G3 X2.7562 Y-4.9474 I-0.0174 J-0.0186
G2 X2.7664 Y-5.119 I-0.5682 J-0.1199
X2.7092 Y-5.2044 I-0.1066 J0.0095
G1 X2.7045 Y-5.2069
G2 X2.6017 Y-5.2046 I-0.0493 J0.0949
X2.4671 Y-5.0977 I0.2899 J0.5032
G3 X2.4232 Y-5.1187 I-0.0186 J-0.0174
G2 X2.422 Y-5.2907 I-0.5749 J-0.0821
X2.3593 Y-5.3721 I-0.1057 J0.0166
G1 X2.3545 Y-5.3742
G2 X2.2521 Y-5.3652 I-0.043 J0.098
X2.1248 Y-5.2496 I0.3225 J0.483
G3 X2.0796 Y-5.2677 I-0.0197 J-0.0161
G2 X2.0671 Y-5.4392 I-0.5791 J-0.0439
X1.9992 Y-5.5162 I-0.1044 J0.0235
G1 X1.9943 Y-5.518
X1.9941 Y-5.5181
G2 X1.8926 Y-5.5024 I-0.0364 J0.1006
G1 X1.8925 Y-5.5023
G2 X1.7732 Y-5.3786 I0.3537 J0.4606
G3 X1.7269 Y-5.3936 I-0.0208 J-0.0148
G2 X1.7031 Y-5.5639 I-0.5807 J-0.0055
X1.6302 Y-5.6363 I-0.1026 J0.0304
G1 X1.63 Y-5.6364
X1.625 Y-5.6378
G2 X1.5247 Y-5.6153 I-0.0296 J0.1028
X1.4138 Y-5.484 I0.3834 J0.4362
G3 X1.3667 Y-5.4959 I-0.0217 J-0.0134
G2 X1.3316 Y-5.6643 I-0.5798 J0.0329
X1.2542 Y-5.7317 I-0.1004 J0.0371
G1 X1.2491 Y-5.7328
X1.2489 Y-5.7329
G2 X1.1503 Y-5.7038 I-0.0228 J0.1045
X1.0483 Y-5.5655 I0.4114 J0.4099
G3 X1.0005 Y-5.5743 I-0.0225 J-0.0119
G2 X0.9544 Y-5.7399 I-0.5764 J0.0711
X0.8726 Y-5.8021 I-0.0977 J0.0436
G1 X0.8673 Y-5.8029
X0.8672
G2 X0.7708 Y-5.7674 I-0.0158 J0.1058
X0.6782 Y-5.6226 I0.4375 J0.3818
G3 X0.6299 Y-5.6282 I-0.0233 J-0.0104
G2 X0.5729 Y-5.7904 I-0.5704 J0.1091
X0.4875 Y-5.847 I-0.0946 J0.05
G1 X0.4824 Y-5.8475
G2 X0.4818 I-0.0069 J0.0767
X0.3879 Y-5.8057 I-0.0088 J0.1067
X0.3051 Y-5.6551 I0.4618 J0.3521
G3 X0.2565 Y-5.6575 I-0.0239 J-0.0088
G2 X0.189 Y-5.8156 I-0.562 J0.1465
X0.0997 Y-5.8665 I-0.0911 J0.0561
G1 X0.0995
X0.0943 Y-5.8666
G2 X0.0034 Y-5.8187 I-0.0017 J0.107
X-0.0693 Y-5.6629 I0.4841 J0.3208
G3 X-0.118 Y-5.6621 I-0.0244 J-0.0072
G2 X-0.1958 Y-5.8154 I-0.551 J0.1834
X-0.2882 Y-5.8603 I-0.0872 J0.062
G1 X-0.2885 Y-5.8602
X-0.2937 Y-5.86
G2 X-0.3812 Y-5.8062 I0.0054 J0.1069
X-0.4434 Y-5.6459 I0.5042 J0.2881
G3 X-0.4919 Y-5.6419 I-0.0249 J-0.0056
G2 X-0.5797 Y-5.7897 I-0.5377 J0.2194
X-0.6748 Y-5.8284 I-0.0829 J0.0677
G1 X-0.6799 Y-5.8278
X-0.6802
G2 X-0.7641 Y-5.7683 I0.0124 J0.1063
X-0.8156 Y-5.6043 I0.5222 J0.2541
G3 X-0.8637 Y-5.5971 I-0.0252 J-0.004
G2 X-0.9611 Y-5.7388 I-0.5221 J0.2544
X-1.0586 Y-5.7711 I-0.0783 J0.073
X-1.0591 Y-5.771 I0.0139 J0.0757
G1 X-1.0641 Y-5.77
G2 X-1.1436 Y-5.7052 I0.0196 J0.1052
X-1.1842 Y-5.5381 I0.5378 J0.2191
G3 X-1.2317 Y-5.5278 I-0.0254 J-0.0023
G2 X-1.3383 Y-5.6627 I-0.5041 J0.2884
X-1.4378 Y-5.6884 I-0.0732 J0.078
G1 X-1.4429 Y-5.6871
G2 X-1.5182 Y-5.6172 I0.0262 J0.1037
X-1.5476 Y-5.4478 I0.5511 J0.1831
G3 X-1.5944 Y-5.4343 I-0.0255 J-0.0006
G2 X-1.7096 Y-5.5619 I-0.484 J0.321
X-1.8106 Y-5.581 I-0.0679 J0.0827
G1 X-1.8108 Y-5.5809
X-1.8158 Y-5.5793
G2 X-1.8861 Y-5.5045 I0.0332 J0.1017
X-1.9043 Y-5.3336 I0.562 J0.1462
G3 X-1.95 Y-5.317 I-0.0255 J0.0011
G2 X-2.0734 Y-5.4367 I-0.4616 J0.3524
X-2.1752 Y-5.4492 I-0.0623 J0.087
G1 X-2.18 Y-5.4473
G2 X-2.1804 Y-5.4472 I0.0281 J0.0717
X-2.2458 Y-5.3678 I0.0398 J0.0994
X-2.2526 Y-5.1961 I0.5705 J0.1088
G3 X-2.2972 Y-5.1765 I-0.0253 J0.0028
G2 X-2.4282 Y-5.2878 I-0.4374 J0.3821
X-2.5308 Y-5.2934 I-0.0564 J0.0909
G1 X-2.5356 Y-5.2911
G2 X-2.5956 Y-5.2076 I0.0462 J0.0965
X-2.5911 Y-5.0358 I0.5764 J0.0708
G3 X-2.6343 Y-5.0134 I-0.0251 J0.0044
G2 X-2.7724 Y-5.1157 I-0.4111 J0.4102
X-2.8751 Y-5.1146 I-0.0503 J0.0944
G1 X-2.8752
X-2.8798 Y-5.112
G2 X-2.9341 Y-5.0248 I0.0525 J0.0932
X-2.9183 Y-4.8536 I0.5798 J0.0326
G3 X-2.9599 Y-4.8283 I-0.0248 J0.0061
G2 X-3.1044 Y-4.9213 I-0.3831 J0.4364
X-3.2068 Y-4.9134 I-0.044 J0.0975
G1 X-3.2111 Y-4.9106
X-3.2113 Y-4.9105
G2 X-3.2598 Y-4.8198 I0.0585 J0.0896
X-3.2327 Y-4.6501 I0.5807 J-0.0058
G3 X-3.2725 Y-4.6221 I-0.0243 J0.0077
G2 X-3.4229 Y-4.7054 I-0.3534 J0.4608
X-3.5244 Y-4.6908 I-0.0374 J0.1002
G1 X-3.5286 Y-4.6877
X-3.5289 Y-4.6875
G2 X-3.5712 Y-4.5939 I0.0643 J0.0855
X-3.5329 Y-4.4263 I0.5791 J-0.0441
G3 X-3.5708 Y-4.3958 I-0.0237 J0.0093
G2 X-3.7264 Y-4.4689 I-0.3222 J0.4832
X-3.8268 Y-4.4476 I-0.0307 J0.1025
G1 X-3.8307 Y-4.4442
X-3.8309 Y-4.4441
G2 X-3.867 Y-4.3478 I0.0698 J0.0811
X-3.8177 Y-4.1831 I0.5749 J-0.0823
G3 X-3.8535 Y-4.1501 I-0.0231 J0.0108
G2 X-4.0136 Y-4.2129 I-0.2896 J0.5034
X-4.1124 Y-4.1849 I-0.0239 J0.1043
G1 X-4.1127 Y-4.1847
X-4.1164 Y-4.181
G2 X-4.1459 Y-4.0827 I0.0751 J0.0762
X-4.0858 Y-3.9216 I0.5682 J-0.1202
G3 X-4.1194 Y-3.8864 I-0.0223 J0.0123
G2 X-4.2832 Y-3.9384 I-0.2557 J0.5214
X-4.3801 Y-3.9039 I-0.0169 J0.1057
G1 X-4.3802 Y-3.9038
X-4.3837 Y-3.8998
G2 X-4.4067 Y-3.7998 I0.08 J0.071
X-4.3361 Y-3.643 I0.559 J-0.1574
G3 X-4.3672 Y-3.6056 I-0.0215 J0.0138
G2 X-4.5342 Y-3.6467 I-0.2207 J0.5372
X-4.6284 Y-3.606 I-0.0099 J0.1065
G1 X-4.6317 Y-3.6018
X-4.6319 Y-3.6016
G2 X-4.6482 Y-3.5002 I0.0845 J0.0656
X-4.5674 Y-3.3485 I0.5473 J-0.194
G3 X-4.596 Y-3.3091 I-0.0205 J0.0152
G2 X-4.7653 Y-3.3391 I-0.1847 J0.5506
X-4.8566 Y-3.2922 I-0.0028 J0.107
G1 X-4.8595 Y-3.288
X-4.8597 Y-3.2876
G2 X-4.8693 Y-3.1853 I0.0886 J0.0599
X-4.7787 Y-3.0393 I0.5333 J-0.2298
G3 X-4.8046 Y-2.9981 I-0.0194 J0.0165
G2 X-4.9755 Y-3.0168 I-0.1479 J0.5616
X-5.0637 Y-2.9639 I0.0042 J0.1069
G1 X-5.0663 Y-2.9594
X-5.0664 Y-2.9593
G2 X-5.0692 Y-2.8566 I0.0924 J0.0539
X-4.9691 Y-2.7168 I0.517 J-0.2645
G3 X-4.9923 Y-2.674 I-0.0183 J0.0178
G2 X-5.164 Y-2.6814 I-0.1104 J0.5701
X-5.2485 Y-2.6228 I0.0112 J0.1064
G1 X-5.2509 Y-2.618
G2 X-5.2469 Y-2.5153 I0.0957 J0.0478
X-5.1378 Y-2.3825 I0.4984 J-0.2981
G3 X-5.1581 Y-2.3382 I-0.0171 J0.0189
G2 X-5.33 Y-2.3342 I-0.0725 J0.5762
X-5.4103 Y-2.2702 I0.0184 J0.1054
G1 X-5.4124 Y-2.2653
G2 X-5.4017 Y-2.1631 I0.0987 J0.0414
X-5.2841 Y-2.0377 I0.4776 J-0.3304
G3 X-5.3014 Y-1.9922 I-0.0158 J0.02
G2 X-5.4726 Y-1.9769 I-0.0343 J0.5797
X-5.5486 Y-1.9076 I0.0252 J0.104
G1 X-5.5487 Y-1.9073
X-5.5503 Y-1.9024
G2 X-5.5328 Y-1.8013 I0.1012 J0.0345
X-5.4072 Y-1.684 I0.4547 J-0.3612
G3 X-5.4214 Y-1.6375 I-0.0144 J0.021
G2 X-5.5913 Y-1.6109 I0.0041 J0.5807
G1 Y-1.6108
G2 X-5.6625 Y-1.5368 I0.0321 J0.1021
G1 Y-1.5367
X-5.6639 Y-1.5316
G2 X-5.6399 Y-1.4317 I0.1033 J0.028
G1 X-5.6398
G2 X-5.5066 Y-1.323 I0.4298 J-0.3906
G3 X-5.5178 Y-1.2756 I-0.0131 J0.0219
G2 X-5.6855 Y-1.2378 I0.0425 J0.5792
X-5.7516 Y-1.1593 I0.0387 J0.0997
G1 X-5.7527 Y-1.1542
Y-1.154
G2 X-5.7221 Y-1.0558 I0.1049 J0.0211
X-5.582 Y-0.9561 I0.4031 J-0.4181
G3 X-5.59 Y-0.9082 I-0.0115 J0.0227
G2 X-5.7548 Y-0.8593 I0.0807 J0.5751
X-5.8157 Y-0.7765 I0.0452 J0.097
X-5.8158 Y-0.7761 I0.0763 J0.0102
G1 X-5.8164 Y-0.771
G2 X-5.7795 Y-0.6754 I0.1061 J0.0139
G1 X-5.7794 Y-0.6753
G2 X-5.633 Y-0.5851 I0.3745 J-0.4438
G3 X-5.6378 Y-0.5367 I-0.01 J0.0234
G2 X-5.7991 Y-0.4771 I0.1185 J0.5685
X-5.8543 Y-0.3904 I0.0515 J0.0938
G1 X-5.8547 Y-0.3852
G2 X-5.8114 Y-0.2919 I0.1068 J0.0072
X-5.6594 Y-0.2116 I0.3444 J-0.4676
G3 X-5.661 Y-0.1629 I-0.0085 J0.0241
G2 X-5.818 Y-0.0928 I0.1558 J0.5595
X-5.8673 Y-0.0026 I0.0577 J0.0901
G1 Y0.
Y0.0026
G2 X-5.818 Y0.0928 I0.107 J0.
X-5.661 Y0.1629 I0.3128 J-0.4893
G3 X-5.6594 Y0.2116 I-0.0069 J0.0246
G2 X-5.8114 Y0.2919 I0.1924 J0.5479
X-5.8547 Y0.3852 I0.0635 J0.0861
G1 X-5.8543 Y0.3904
G2 X-5.7991 Y0.4771 I0.1068 J-0.0071
X-5.6378 Y0.5367 I0.2798 J-0.5089
G3 X-5.633 Y0.5851 I-0.0052 J0.025
G2 X-5.7794 Y0.6753 I0.2282 J0.534
G1 X-5.7795 Y0.6754
G2 X-5.8164 Y0.771 I0.0691 J0.0817
G1 X-5.8158 Y0.7761
G2 X-5.8157 Y0.7765 I0.0764 J-0.0097
X-5.7548 Y0.8593 I0.1061 J-0.0142
X-5.6838 Y0.887 I0.2455 J-0.5263
X-5.59 Y0.9082 Z-0.1498 I0.1744 J-0.5539
G3 X-5.582 Y0.9561 Z-0.1531 I-0.0035 J0.0253
G2 X-5.7221 Y1.0558 Z-0.1617 I0.263 J0.5178
X-5.7527 Y1.154 Z-0.1671 I0.0743 J0.077
G1 Y1.1542
X-5.7516 Y1.1593 Z-0.1674
G2 X-5.6855 Y1.2378 Z-0.1727 I0.1049 J-0.0213
X-5.5178 Y1.2756 Z-0.1814 I0.2102 J-0.5414
G3 X-5.5066 Y1.323 Z-0.1846 I-0.0019 J0.0254
G2 X-5.6398 Y1.4317 Z-0.1933 I0.2966 J0.4993
G1 X-5.6399
G2 X-5.6639 Y1.5316 Z-0.1987 I0.0792 J0.0719
G1 X-5.6625 Y1.5367 Z-0.1989
Y1.5368
G2 X-5.5913 Y1.6108 Z-0.2043 I0.1033 J-0.028
G1 Y1.6109
G2 X-5.4215 Y1.6375 Z-0.213 I0.174 J-0.5541
G3 X-5.4072 Y1.684 Z-0.2162 I-0.0002 J0.0255
G2 X-5.4278 Y1.6989 Z-0.2175 I0.329 J0.4785
X-5.5328 Y1.8013 I0.3497 J0.4637
X-5.5503 Y1.9024 I0.0838 J0.0666
G1 X-5.5487 Y1.9073
X-5.5486 Y1.9076
G2 X-5.4726 Y1.9769 I0.1012 J-0.0348
X-5.3014 Y1.9922 I0.137 J-0.5644
G3 X-5.284 Y2.0377 I0.0015 J0.0254
G2 X-5.4017 Y2.1631 I0.36 J0.4558
X-5.4124 Y2.2653 I0.088 J0.0609
G1 X-5.4103 Y2.2702
G2 X-5.33 Y2.3342 I0.0987 J-0.0414
X-5.1581 Y2.3382 I0.0994 J-0.5722
G3 X-5.1378 Y2.3825 I0.0032 J0.0253
G2 X-5.2469 Y2.5153 I0.3893 J0.431
X-5.2509 Y2.618 I0.0918 J0.0549
G1 X-5.2485 Y2.6228
G2 X-5.164 Y2.6814 I0.0957 J-0.0478
X-4.9923 Y2.674 I0.0613 J-0.5775
G3 X-4.9691 Y2.7168 I0.0048 J0.025
G2 X-5.0692 Y2.8566 I0.4169 J0.4043
X-5.0664 Y2.9593 I0.0952 J0.0488
G1 X-5.0663 Y2.9594
X-5.0637 Y2.9639
G2 X-4.9755 Y3.0168 I0.0923 J-0.0541
X-4.8046 Y2.9981 I0.023 J-0.5803
G3 X-4.7787 Y3.0393 I0.0065 J0.0247
G2 X-4.8693 Y3.1853 I0.4427 J0.3759
X-4.8597 Y3.2876 I0.0982 J0.0424
G1 X-4.8595 Y3.288
X-4.8566 Y3.2922
G2 X-4.7653 Y3.3391 I0.0885 J-0.0602
X-4.596 Y3.3091 I-0.0154 J-0.5805
G3 X-4.5674 Y3.3485 I0.0081 J0.0242
G2 X-4.6482 Y3.5002 I0.4666 J0.3458
X-4.6319 Y3.6016 I0.1008 J0.0358
G1 X-4.6317 Y3.6018
X-4.6284 Y3.606
G2 X-4.5342 Y3.6467 I0.0844 J-0.0658
X-4.3672 Y3.6056 I-0.0538 J-0.5783
G3 X-4.3361 Y3.643 I0.0097 J0.0236
G2 X-4.4067 Y3.7998 I0.4884 J0.3142
X-4.3837 Y3.8998 I0.103 J0.029
G1 X-4.3802 Y3.9038
X-4.3801 Y3.9039
G2 X-4.2832 Y3.9384 I0.0799 J-0.0712
X-4.1194 Y3.8864 I-0.0918 J-0.5734
G3 X-4.0858 Y3.9216 I0.0112 J0.0229
G2 X-4.1459 Y4.0827 I0.5081 J0.2813
X-4.1164 Y4.181 I0.1047 J0.0222
G1 X-4.1127 Y4.1847
X-4.1124 Y4.1849
G2 X-4.0136 Y4.2129 I0.075 J-0.0764
X-3.8535 Y4.1501 I-0.1295 J-0.5661
G3 X-3.8177 Y4.1831 I0.0127 J0.0221
G2 X-3.867 Y4.3478 I0.5256 J0.247
X-3.8309 Y4.4441 I0.1059 J0.0152
G1 X-3.8307 Y4.4442
X-3.8268 Y4.4476
G2 X-3.7264 Y4.4689 I0.0697 J-0.0812
X-3.5708 Y4.3958 I-0.1666 J-0.5563
G3 X-3.5329 Y4.4263 I0.0141 J0.0212
G2 X-3.5712 Y4.5939 I0.5408 J0.2117
X-3.5289 Y4.6875 I0.1067 J0.0081
G1 X-3.5286 Y4.6877
X-3.5244 Y4.6908
G2 X-3.4229 Y4.7054 I0.0641 J-0.0857
X-3.2725 Y4.6221 I-0.203 J-0.5441
G3 X-3.2327 Y4.6501 I0.0155 J0.0202
G2 X-3.2598 Y4.8198 I0.5536 J0.1756
X-3.2113 Y4.9105 I0.107 J0.0011
G1 X-3.2111 Y4.9106
X-3.2068 Y4.9134
G2 X-3.1044 Y4.9213 I0.0584 J-0.0896
X-2.9599 Y4.8283 I-0.2385 J-0.5295
G3 X-2.9183 Y4.8536 I0.0168 J0.0192
G2 X-2.9341 Y5.0248 I0.564 J0.1386
X-2.8798 Y5.112 I0.1068 J-0.006
G1 X-2.8752 Y5.1146
X-2.8751
G2 X-2.7724 Y5.1157 I0.0524 J-0.0933
X-2.6343 Y5.0134 I-0.273 J-0.5125
G3 X-2.5911 Y5.0358 I0.0181 J0.018
G2 X-2.5956 Y5.2076 I0.5719 J0.101
X-2.5357 Y5.2911 I0.1062 J-0.013
G1 X-2.5309 Y5.2934
G2 X-2.4282 Y5.2878 I0.0462 J-0.0965
X-2.2972 Y5.1765 I-0.3063 J-0.4934
G3 X-2.2526 Y5.196 I0.0192 J0.0167
G2 X-2.2458 Y5.3678 I0.5773 J0.063
X-2.1804 Y5.4472 I0.1051 J-0.02
X-2.18 Y5.4473 I0.0286 J-0.0715
G1 X-2.1752 Y5.4492
G2 X-2.0734 Y5.4367 I0.0395 J-0.0994
X-1.9501 Y5.317 I-0.3382 J-0.4721
G3 X-1.9043 Y5.3336 I0.0203 J0.0154
G2 X-1.8861 Y5.5045 I0.5802 J0.0247
X-1.8158 Y5.5793 I0.1035 J-0.0269
G1 X-1.8108 Y5.5809
X-1.8106 Y5.581
G2 X-1.7096 Y5.5619 I0.033 J-0.1018
X-1.5944 Y5.4343 I-0.3687 J-0.4487
G3 X-1.5476 Y5.4477 I0.0212 J0.0141
G2 X-1.5182 Y5.6172 I0.5806 J-0.0137
X-1.4429 Y5.6871 I0.1015 J-0.0337
G1 X-1.4378 Y5.6884
G2 X-1.3383 Y5.6627 I0.0263 J-0.1037
X-1.2317 Y5.5278 I-0.3975 J-0.4234
G3 X-1.1842 Y5.5381 I0.0221 J0.0127
G2 X-1.1436 Y5.7052 I0.5784 J-0.0521
X-1.0641 Y5.77 I0.0991 J-0.0403
G1 X-1.0591 Y5.771
G2 X-1.0586 Y5.7711 I0.0143 J-0.0757
X-0.9611 Y5.7388 I0.0193 J-0.1053
X-0.8637 Y5.5971 I-0.4247 J-0.3961
G3 X-0.8156 Y5.6043 I0.0229 J0.0112
G2 X-0.7641 Y5.7683 I0.5737 J-0.0902
X-0.6802 Y5.8278 I0.0962 J-0.0468
G1 X-0.6799
X-0.6748 Y5.8284
G2 X-0.5797 Y5.7898 I0.0122 J-0.1063
X-0.4919 Y5.6419 I-0.4499 J-0.3672
G3 X-0.4434 Y5.6459 I0.0236 J0.0096
G2 X-0.3812 Y5.8062 I0.5665 J-0.1279
X-0.2937 Y5.86 I0.0929 J-0.0531
G1 X-0.2885 Y5.8602
X-0.2882 Y5.8603
G2 X-0.1958 Y5.8154 I0.0053 J-0.1069
X-0.118 Y5.6621 I-0.4732 J-0.3366
G3 X-0.0693 Y5.6629 I0.0242 J0.008
G2 X0.0034 Y5.8187 I0.5568 J-0.1651
X0.0943 Y5.8666 I0.0892 J-0.0591
G1 X0.0995 Y5.8665
X0.0997
G2 X0.189 Y5.8157 I-0.0018 J-0.107
X0.2565 Y5.6575 I-0.4944 J-0.3047
G3 X0.3051 Y5.6551 I0.0247 J0.0064
G2 X0.3879 Y5.8057 I0.5447 J-0.2015
X0.4818 Y5.8475 I0.0851 J-0.0648
X0.4824 I-0.0063 J-0.0767
G1 X0.4875 Y5.847
G2 X0.5729 Y5.7905 I-0.0091 J-0.1066
X0.6299 Y5.6282 I-0.5135 J-0.2713
G3 X0.6782 Y5.6226 I0.0251 J0.0048
G2 X0.7708 Y5.7674 I0.5302 J-0.237
X0.8672 Y5.8029 I0.0806 J-0.0703
G1 X0.8673
X0.8726 Y5.8021
G2 X0.9544 Y5.7399 I-0.0159 J-0.1058
X1.0005 Y5.5743 I-0.5303 J-0.2368
G3 X1.0483 Y5.5655 I0.0253 J0.0031
G2 X1.1503 Y5.7038 I0.5133 J-0.2716
X1.2489 Y5.7329 I0.0758 J-0.0755
G1 X1.2491 Y5.7328
X1.2542 Y5.7317
G2 X1.3316 Y5.6643 I-0.0229 J-0.1045
X1.3667 Y5.4959 I-0.5448 J-0.2012
G3 X1.4138 Y5.484 I0.0255 J0.0015
G2 X1.5247 Y5.6153 I0.4943 J-0.3049
X1.625 Y5.6378 I0.0707 J-0.0803
G1 X1.63 Y5.6364
X1.6302 Y5.6363
G2 X1.7031 Y5.5639 I-0.0297 J-0.1028
X1.7269 Y5.3936 I-0.5569 J-0.1648
G3 X1.7732 Y5.3786 I0.0255 J-0.0002
G2 X1.8925 Y5.5023 I0.4731 J-0.3368
G1 X1.8926 Y5.5024
G2 X1.9941 Y5.5181 I0.0651 J-0.0849
G1 X1.9943 Y5.518
X1.9992 Y5.5162
G2 X2.0671 Y5.4392 I-0.0365 J-0.1006
X2.0796 Y5.2677 I-0.5665 J-0.1276
G3 X2.1248 Y5.2496 I0.0254 J-0.0019
G2 X2.2521 Y5.3652 I0.4498 J-0.3674
X2.3545 Y5.3742 I0.0594 J-0.089
G1 X2.3593 Y5.3721
G2 X2.422 Y5.2907 I-0.043 J-0.098
X2.4232 Y5.1187 I-0.5737 J-0.0899
G3 X2.4671 Y5.0977 I0.0252 J-0.0036
G2 X2.6017 Y5.2046 I0.4245 J-0.3963
X2.7045 Y5.2069 I0.0534 J-0.0927
G1 X2.7092 Y5.2044
G2 X2.7664 Y5.119 I-0.0493 J-0.0949
X2.7562 Y4.9474 I-0.5784 J-0.0518
G3 X2.7986 Y4.9235 I0.025 J-0.0053
G2 X2.94 Y5.0213 I0.3974 J-0.4235
X3.0427 Y5.0167 I0.0472 J-0.096
G1 X3.0428 Y5.0166
X3.0473 Y5.0139
G2 X3.0987 Y4.925 I-0.0556 J-0.0914
X3.0772 Y4.7544 I-0.5806 J-0.0134
G3 X3.1179 Y4.7278 I0.0245 J-0.0069
G2 X3.2654 Y4.816 I0.3684 J-0.4489
X3.3676 Y4.8047 I0.0407 J-0.0989
G1 X3.3719 Y4.8017
Y4.8016
G2 X3.4174 Y4.7095 I-0.0615 J-0.0876
G1 Y4.7094
G2 X3.3847 Y4.5406 I-0.5802 J0.025
G3 X3.4235 Y4.5114 I0.024 J-0.0085
G2 X3.5766 Y4.5897 I0.3381 J-0.4722
X3.6777 Y4.5716 I0.034 J-0.1015
G1 X3.6818 Y4.5684
X3.6819 Y4.5683
G2 X3.7212 Y4.4733 I-0.0671 J-0.0833
X3.6773 Y4.307 I-0.5773 J0.0633
G3 X3.7142 Y4.2753 I0.0234 J-0.0101
G2 X3.8721 Y4.3433 I0.3061 J-0.4935
X3.9719 Y4.3186 I0.0273 J-0.1035
G1 X3.9758 Y4.315
G2 X4.0087 Y4.2175 I-0.0725 J-0.0787
X3.954 Y4.0546 I-0.5718 J0.1013
G3 X3.9886 Y4.0205 I0.0227 J-0.0116
G2 X4.1507 Y4.0779 I0.2728 J-0.5127
G1 X4.1508
G2 X4.2485 Y4.0467 I0.0203 J-0.105
G1 X4.2521 Y4.043
X4.2523 Y4.0428
G2 X4.2787 Y3.9434 I-0.0775 J-0.0738
X4.2133 Y3.7844 I-0.5639 J0.139
G3 X4.2456 Y3.748 I0.0219 J-0.0131
G2 X4.4111 Y3.7946 I0.2383 J-0.5296
X4.5068 Y3.7569 I0.0134 J-0.1061
G1 X4.5101 Y3.7529
G2 X4.5299 Y3.652 I-0.0822 J-0.0685
X4.4542 Y3.4977 I-0.5535 J0.1759
G3 X4.4841 Y3.4593 I0.021 J-0.0145
G2 X4.6523 Y3.4948 I0.2028 J-0.5442
X4.7452 Y3.4509 I0.0064 J-0.1068
G1 X4.7483 Y3.4466
G2 X4.7614 Y3.3446 I-0.0865 J-0.0629
X4.6756 Y3.1956 I-0.5406 J0.2121
G3 X4.7029 Y3.1553 I0.02 J-0.0159
G2 X4.8731 Y3.1797 I0.1664 J-0.5564
X4.9628 Y3.1298 I-0.0007 J-0.107
G1 X4.9656 Y3.1254
X4.9658 Y3.1252
G2 X4.972 Y3.0226 I-0.0906 J-0.0569
X4.8766 Y2.8796 I-0.5255 J0.2473
G3 X4.9011 Y2.8376 I0.0189 J-0.0171
G2 X5.0726 Y2.8507 I0.1292 J-0.5662
X5.1589 Y2.7949 I-0.0078 J-0.1067
G1 X5.1614 Y2.7902
G2 X5.1609 Y2.6874 I-0.0941 J-0.0509
X5.0562 Y2.551 I-0.5079 J0.2815
G3 X5.078 Y2.5075 I0.0177 J-0.0184
G2 X5.2498 Y2.5092 I0.0915 J-0.5735
X5.3323 Y2.4478 I-0.0148 J-0.106
G1 X5.3346 Y2.443
G2 X5.3273 Y2.3405 I-0.0973 J-0.0446
X5.2138 Y2.2113 I-0.4883 J0.3144
G3 X5.2326 Y2.1664 I0.0165 J-0.0195
G2 X5.4043 Y2.1567 I0.0535 J-0.5783
X5.4825 Y2.0901 I-0.0218 J-0.1048
X5.4826 Y2.0896 I-0.0719 J-0.0274
G1 X5.4844 Y2.0848
G2 X5.4703 Y1.9833 I-0.1001 J-0.0378
X5.3485 Y1.8619 I-0.4664 J0.346
G3 X5.3643 Y1.8159 I0.0151 J-0.0205
G2 X5.5349 Y1.7948 I0.0151 J-0.5805
X5.6086 Y1.7232 I-0.0286 J-0.1031
G1 X5.6087 Y1.7229
X5.6102 Y1.7179
G2 X5.5894 Y1.6174 I-0.1023 J-0.0312
X5.4599 Y1.5043 I-0.4425 J0.3761
G3 X5.4726 Y1.4574 I0.0137 J-0.0215
G2 X5.6414 Y1.4251 I-0.0233 J-0.5803
X5.7102 Y1.3488 I-0.0354 J-0.101
G1 X5.7114 Y1.3436
Y1.3435
G2 X5.6841 Y1.2445 I-0.1042 J-0.0245
X5.5474 Y1.1402 I-0.4167 J0.4045
G3 X5.5569 Y1.0925 I0.0123 J-0.0223
G2 X5.7233 Y1.0491 I-0.0616 J-0.5775
X5.7869 Y0.9683 I-0.042 J-0.0984
G1 X5.7877 Y0.9631
G2 X5.7539 Y0.8661 I-0.1055 J-0.0176
X5.6106 Y0.7711 I-0.389 J0.4312
G3 X5.617 Y0.7228 I0.0108 J-0.0231
G2 X5.7802 Y0.6686 I-0.0996 J-0.5721
X5.8382 Y0.584 I-0.0485 J-0.0954
G1 X5.8387 Y0.5789
Y0.5785
G2 X5.7986 Y0.4839 I-0.1065 J-0.0106
X5.6493 Y0.3986 I-0.3597 J0.4559
G3 X5.6525 Y0.35 I0.0093 J-0.0238
G2 X5.8117 Y0.2851 I-0.1372 J-0.5643
X5.864 Y0.1967 I-0.0546 J-0.092
G1 X5.8641 Y0.1964
X5.8642 Y0.1912
G2 X5.8178 Y0.0996 I-0.1069 J-0.0034
X5.6633 Y0.0243 I-0.3288 J0.4787
G3 Y-0.0243 I0.0076 J-0.0243
G2 X5.8178 Y-0.0996 I-0.1743 J-0.554
X5.8642 Y-0.1912 I-0.0606 J-0.0882
G1 X5.8641 Y-0.1964
X5.864 Y-0.1967
G2 X5.8117 Y-0.2851 I-0.1069 J0.0036
X5.6525 Y-0.35 I-0.2964 J0.4994
G3 X5.6493 Y-0.3986 I0.006 J-0.0248
G2 X5.7986 Y-0.4839 I-0.2104 J-0.5413
X5.8387 Y-0.5785 I-0.0663 J-0.084
G1 Y-0.5789
X5.8382 Y-0.584
G2 X5.7802 Y-0.6686 I-0.1064 J0.0108
X5.617 Y-0.7228 I-0.2628 J0.5179
G3 X5.6106 Y-0.7711 I0.0043 J-0.0251
G2 X5.7539 Y-0.8661 I-0.2458 J-0.5262
X5.7877 Y-0.9631 I-0.0717 J-0.0794
G1 X5.7869 Y-0.9683
G2 X5.7234 Y-1.0491 I-0.1055 J0.0175
X5.5569 Y-1.0925 I-0.228 J0.5341
G3 X5.5474 Y-1.1402 I0.0027 J-0.0254
G2 X5.6841 Y-1.2445 I-0.28 J-0.5088
X5.7114 Y-1.3435 I-0.0768 J-0.0745
G1 Y-1.3436
X5.7102 Y-1.3488
G2 X5.6414 Y-1.4251 I-0.1041 J0.0246
X5.4726 Y-1.4574 I-0.1922 J0.548
G3 X5.4599 Y-1.5043 I0.001 J-0.0255
G2 X5.5894 Y-1.6174 I-0.313 J-0.4892
X5.6102 Y-1.7179 I-0.0815 J-0.0693
G1 X5.6087 Y-1.7229
X5.6086 Y-1.7232
G2 X5.5349 Y-1.7948 I-0.1023 J0.0314
X5.3643 Y-1.8159 I-0.1555 J0.5595
G3 X5.3485 Y-1.8619 I-0.0007 J-0.0255
G2 X5.4703 Y-1.9833 I-0.3447 J-0.4674
X5.4844 Y-2.0848 I-0.0859 J-0.0637
G1 X5.4826 Y-2.0896
G2 X5.4825 Y-2.0901 I-0.0721 J0.027
X5.4043 Y-2.1567 I-0.1 J0.0381
X5.2326 Y-2.1664 I-0.1182 J0.5686
G3 X5.2138 Y-2.2113 I-0.0024 J-0.0254
G2 X5.3273 Y-2.3405 I-0.3748 J-0.4436
X5.3346 Y-2.443 I-0.09 J-0.0579
G1 X5.3324 Y-2.4478
G2 X5.2498 Y-2.5092 I-0.0973 J0.0446
X5.078 Y-2.5075 I-0.0803 J0.5752
G3 X5.0562 Y-2.551 I-0.004 J-0.0252
G2 X5.1609 Y-2.6874 I-0.4033 J-0.4178
X5.1614 Y-2.7902 I-0.0936 J-0.0519
G1 X5.1589 Y-2.7949
G2 X5.0726 Y-2.8507 I-0.0941 J0.0509
X4.9011 Y-2.8376 I-0.0422 J0.5792
G3 X4.8766 Y-2.8796 I-0.0057 J-0.0249
G2 X4.972 Y-3.0226 I-0.4301 J-0.3903
X4.9658 Y-3.1252 I-0.0968 J-0.0456
G1 X4.9656 Y-3.1254
X4.9628 Y-3.1298
G2 X4.8731 Y-3.1797 I-0.0905 J0.0571
X4.7029 Y-3.1553 I-0.0038 J0.5807
G3 X4.6756 Y-3.1956 I-0.0073 J-0.0244
G2 X4.7614 Y-3.3446 I-0.4549 J-0.3611
X4.7483 Y-3.4466 I-0.0996 J-0.0391
G1 X4.7452 Y-3.4509
G2 X4.6523 Y-3.4948 I-0.0866 J0.0629
X4.4841 Y-3.4593 I0.0346 J0.5797
G3 X4.4542 Y-3.4977 I-0.0089 J-0.0239
G2 X4.5299 Y-3.652 I-0.4777 J-0.3302
X4.5101 Y-3.7529 I-0.102 J-0.0324
G1 X4.5068 Y-3.7569
G2 X4.4111 Y-3.7946 I-0.0822 J0.0685
X4.2456 Y-3.7481 I0.0728 J0.5762
G3 X4.2133 Y-3.7844 I-0.0105 J-0.0233
G2 X4.2787 Y-3.9434 I-0.4985 J-0.298
X4.2523 Y-4.0428 I-0.1039 J-0.0256
G1 X4.2521 Y-4.043
X4.2485 Y-4.0467
G2 X4.1508 Y-4.0779 I-0.0774 J0.0739
G1 X4.1507
G2 X3.9886 Y-4.0205 I0.1107 J0.5701
G3 X3.954 Y-4.0546 I-0.012 J-0.0225
G2 X4.0087 Y-4.2175 I-0.5171 J-0.2643
X3.9758 Y-4.315 I-0.1054 J-0.0187
G1 X3.9719 Y-4.3186
G2 X3.8721 Y-4.3433 I-0.0725 J0.0788
X3.7142 Y-4.2753 I0.1482 J0.5615
G3 X3.6773 Y-4.307 I-0.0134 J-0.0217
G2 X3.7212 Y-4.4733 I-0.5335 J-0.2295
X3.6819 Y-4.5683 I-0.1064 J-0.0117
G1 X3.6818 Y-4.5684
X3.6777 Y-4.5716
G2 X3.5766 Y-4.5897 I-0.067 J0.0834
X3.4235 Y-4.5114 I0.185 J0.5505
G3 X3.3846 Y-4.5406 I-0.0148 J-0.0207
G2 X3.4174 Y-4.7094 I-0.5475 J-0.1938
G1 Y-4.7095
G2 X3.3719 Y-4.8016 I-0.1069 J-0.0045
G1 Y-4.8017
X3.3676 Y-4.8047
G2 X3.2654 Y-4.816 I-0.0614 J0.0876
X3.1179 Y-4.7278 I0.2209 J0.5371
G3 X3.0772 Y-4.7544 I-0.0162 J-0.0197
G2 X3.0987 Y-4.925 I-0.5591 J-0.1571
X3.0473 Y-5.0139 I-0.107 J0.0024
G1 X3.0428 Y-5.0166
X3.0427 Y-5.0167
G2 X2.94 Y-5.0213 I-0.0556 J0.0914
X2.7986 Y-4.9235 I0.256 J0.5213
G3 X2.7562 Y-4.9474 I-0.0174 J-0.0186
G2 X2.7664 Y-5.119 I-0.5682 J-0.1199
X2.7092 Y-5.2044 I-0.1066 J0.0095
G1 X2.7045 Y-5.2069
G2 X2.6017 Y-5.2046 I-0.0493 J0.0949
X2.4671 Y-5.0977 I0.2899 J0.5032
G3 X2.4232 Y-5.1187 I-0.0186 J-0.0174
G2 X2.422 Y-5.2907 I-0.5749 J-0.0821
X2.3593 Y-5.3721 I-0.1057 J0.0166
G1 X2.3545 Y-5.3742
G2 X2.2521 Y-5.3652 I-0.043 J0.098
X2.1248 Y-5.2496 I0.3225 J0.483
G3 X2.0796 Y-5.2677 I-0.0197 J-0.0161
G2 X2.0671 Y-5.4392 I-0.5791 J-0.0439
X1.9992 Y-5.5162 I-0.1044 J0.0235
G1 X1.9943 Y-5.518
X1.9941 Y-5.5181
G2 X1.8926 Y-5.5024 I-0.0364 J0.1006
G1 X1.8925 Y-5.5023
G2 X1.7732 Y-5.3786 I0.3537 J0.4606
G3 X1.7269 Y-5.3936 I-0.0208 J-0.0148
G2 X1.7031 Y-5.5639 I-0.5807 J-0.0055
X1.6302 Y-5.6363 I-0.1026 J0.0304
G1 X1.63 Y-5.6364
X1.625 Y-5.6378
G2 X1.5247 Y-5.6153 I-0.0296 J0.1028
X1.4138 Y-5.484 I0.3834 J0.4362
G3 X1.3667 Y-5.4959 I-0.0217 J-0.0134
G2 X1.3316 Y-5.6643 I-0.5798 J0.0329
X1.2542 Y-5.7317 I-0.1004 J0.0371
G1 X1.2491 Y-5.7328
X1.2489 Y-5.7329
G2 X1.1503 Y-5.7038 I-0.0228 J0.1045
X1.0483 Y-5.5655 I0.4114 J0.4099
G3 X1.0005 Y-5.5743 I-0.0225 J-0.0119
G2 X0.9544 Y-5.7399 I-0.5764 J0.0711
X0.8726 Y-5.8021 I-0.0977 J0.0436
G1 X0.8673 Y-5.8029
X0.8672
G2 X0.7708 Y-5.7674 I-0.0158 J0.1058
X0.6782 Y-5.6226 I0.4375 J0.3818
G3 X0.6299 Y-5.6282 I-0.0233 J-0.0104
G2 X0.5729 Y-5.7904 I-0.5704 J0.1091
X0.4875 Y-5.847 I-0.0946 J0.05
G1 X0.4824 Y-5.8475
G2 X0.4818 I-0.0069 J0.0767
X0.3879 Y-5.8057 I-0.0088 J0.1067
X0.3051 Y-5.6551 I0.4618 J0.3521
G3 X0.2565 Y-5.6575 I-0.0239 J-0.0088
G2 X0.189 Y-5.8156 I-0.562 J0.1465
X0.0997 Y-5.8665 I-0.0911 J0.0561
G1 X0.0995
X0.0943 Y-5.8666
G2 X0.0034 Y-5.8187 I-0.0017 J0.107
X-0.0693 Y-5.6629 I0.4841 J0.3208
G3 X-0.118 Y-5.6621 I-0.0244 J-0.0072
G2 X-0.1958 Y-5.8154 I-0.551 J0.1834
X-0.2882 Y-5.8603 I-0.0872 J0.062
G1 X-0.2885 Y-5.8602
X-0.2937 Y-5.86
G2 X-0.3812 Y-5.8062 I0.0054 J0.1069
X-0.4434 Y-5.6459 I0.5042 J0.2881
G3 X-0.4919 Y-5.6419 I-0.0249 J-0.0056
G2 X-0.5797 Y-5.7897 I-0.5377 J0.2194
X-0.6748 Y-5.8284 I-0.0829 J0.0677
G1 X-0.6799 Y-5.8278
X-0.6802
G2 X-0.7641 Y-5.7683 I0.0124 J0.1063
X-0.8156 Y-5.6043 I0.5222 J0.2541
G3 X-0.8637 Y-5.5971 I-0.0252 J-0.004
G2 X-0.9611 Y-5.7388 I-0.5221 J0.2544
X-1.0586 Y-5.7711 I-0.0783 J0.073
X-1.0591 Y-5.771 I0.0139 J0.0757
G1 X-1.0641 Y-5.77
G2 X-1.1436 Y-5.7052 I0.0196 J0.1052
X-1.1842 Y-5.5381 I0.5378 J0.2191
G3 X-1.2317 Y-5.5278 I-0.0254 J-0.0023
G2 X-1.3383 Y-5.6627 I-0.5041 J0.2884
X-1.4378 Y-5.6884 I-0.0732 J0.078
G1 X-1.4429 Y-5.6871
G2 X-1.5182 Y-5.6172 I0.0262 J0.1037
X-1.5476 Y-5.4478 I0.5511 J0.1831
G3 X-1.5944 Y-5.4343 I-0.0255 J-0.0006
G2 X-1.7096 Y-5.5619 I-0.484 J0.321
X-1.8106 Y-5.581 I-0.0679 J0.0827
G1 X-1.8108 Y-5.5809
X-1.8158 Y-5.5793
G2 X-1.8861 Y-5.5045 I0.0332 J0.1017
X-1.9043 Y-5.3336 I0.562 J0.1462
G3 X-1.95 Y-5.317 I-0.0255 J0.0011
G2 X-2.0734 Y-5.4367 I-0.4616 J0.3524
X-2.1752 Y-5.4492 I-0.0623 J0.087
G1 X-2.18 Y-5.4473
G2 X-2.1804 Y-5.4472 I0.0281 J0.0717
X-2.2458 Y-5.3678 I0.0398 J0.0994
X-2.2526 Y-5.1961 I0.5705 J0.1088
G3 X-2.2972 Y-5.1765 I-0.0253 J0.0028
G2 X-2.4282 Y-5.2878 I-0.4374 J0.3821
X-2.5308 Y-5.2934 I-0.0564 J0.0909
G1 X-2.5356 Y-5.2911
G2 X-2.5956 Y-5.2076 I0.0462 J0.0965
X-2.5911 Y-5.0358 I0.5764 J0.0708
G3 X-2.6343 Y-5.0134 I-0.0251 J0.0044
G2 X-2.7724 Y-5.1157 I-0.4111 J0.4102
X-2.8751 Y-5.1146 I-0.0503 J0.0944
G1 X-2.8752
X-2.8798 Y-5.112
G2 X-2.9341 Y-5.0248 I0.0525 J0.0932
X-2.9183 Y-4.8536 I0.5798 J0.0326
G3 X-2.9599 Y-4.8283 I-0.0248 J0.0061
G2 X-3.1044 Y-4.9213 I-0.3831 J0.4364
X-3.2068 Y-4.9134 I-0.044 J0.0975
G1 X-3.2111 Y-4.9106
X-3.2113 Y-4.9105
G2 X-3.2598 Y-4.8198 I0.0585 J0.0896
X-3.2327 Y-4.6501 I0.5807 J-0.0058
G3 X-3.2725 Y-4.6221 I-0.0243 J0.0077
G2 X-3.4229 Y-4.7054 I-0.3534 J0.4608
X-3.5244 Y-4.6908 I-0.0374 J0.1002
G1 X-3.5286 Y-4.6877
X-3.5289 Y-4.6875
G2 X-3.5712 Y-4.5939 I0.0643 J0.0855
X-3.5329 Y-4.4263 I0.5791 J-0.0441
G3 X-3.5708 Y-4.3958 I-0.0237 J0.0093
G2 X-3.7264 Y-4.4689 I-0.3222 J0.4832
X-3.8268 Y-4.4476 I-0.0307 J0.1025
G1 X-3.8307 Y-4.4442
X-3.8309 Y-4.4441
G2 X-3.867 Y-4.3478 I0.0698 J0.0811
X-3.8177 Y-4.1831 I0.5749 J-0.0823
G3 X-3.8535 Y-4.1501 I-0.0231 J0.0108
G2 X-4.0136 Y-4.2129 I-0.2896 J0.5034
X-4.1124 Y-4.1849 I-0.0239 J0.1043
G1 X-4.1127 Y-4.1847
X-4.1164 Y-4.181
G2 X-4.1459 Y-4.0827 I0.0751 J0.0762
X-4.0858 Y-3.9216 I0.5682 J-0.1202
G3 X-4.1194 Y-3.8864 I-0.0223 J0.0123
G2 X-4.2832 Y-3.9384 I-0.2557 J0.5214
X-4.3801 Y-3.9039 I-0.0169 J0.1057
G1 X-4.3802 Y-3.9038
X-4.3837 Y-3.8998
G2 X-4.4067 Y-3.7998 I0.08 J0.071
X-4.3361 Y-3.643 I0.559 J-0.1574
G3 X-4.3672 Y-3.6056 I-0.0215 J0.0138
G2 X-4.5342 Y-3.6467 I-0.2207 J0.5372
X-4.6284 Y-3.606 I-0.0099 J0.1065
G1 X-4.6317 Y-3.6018
X-4.6319 Y-3.6016
G2 X-4.6482 Y-3.5002 I0.0845 J0.0656
X-4.5674 Y-3.3485 I0.5473 J-0.194
G3 X-4.596 Y-3.3091 I-0.0205 J0.0152
G2 X-4.7653 Y-3.3391 I-0.1847 J0.5506
X-4.8566 Y-3.2922 I-0.0028 J0.107
G1 X-4.8595 Y-3.288
X-4.8597 Y-3.2876
G2 X-4.8693 Y-3.1853 I0.0886 J0.0599
X-4.7787 Y-3.0393 I0.5333 J-0.2298
G3 X-4.8046 Y-2.9981 I-0.0194 J0.0165
G2 X-4.9755 Y-3.0168 I-0.1479 J0.5616
X-5.0637 Y-2.9639 I0.0042 J0.1069
G1 X-5.0663 Y-2.9594
X-5.0664 Y-2.9593
G2 X-5.0692 Y-2.8566 I0.0924 J0.0539
X-4.9691 Y-2.7168 I0.517 J-0.2645
G3 X-4.9923 Y-2.674 I-0.0183 J0.0178
G2 X-5.164 Y-2.6814 I-0.1104 J0.5701
X-5.2485 Y-2.6228 I0.0112 J0.1064
G1 X-5.2509 Y-2.618
G2 X-5.2469 Y-2.5153 I0.0957 J0.0478
X-5.1378 Y-2.3825 I0.4984 J-0.2981
G3 X-5.1581 Y-2.3382 I-0.0171 J0.0189
G2 X-5.33 Y-2.3342 I-0.0725 J0.5762
X-5.4103 Y-2.2702 I0.0184 J0.1054
G1 X-5.4124 Y-2.2653
G2 X-5.4017 Y-2.1631 I0.0987 J0.0414
X-5.2841 Y-2.0377 I0.4776 J-0.3304
G3 X-5.3014 Y-1.9922 I-0.0158 J0.02
G2 X-5.4726 Y-1.9769 I-0.0343 J0.5797
X-5.5486 Y-1.9076 I0.0252 J0.104
G1 X-5.5487 Y-1.9073
X-5.5503 Y-1.9024
G2 X-5.5328 Y-1.8013 I0.1012 J0.0345
X-5.4072 Y-1.684 I0.4547 J-0.3612
G3 X-5.4214 Y-1.6375 I-0.0144 J0.021
G2 X-5.5913 Y-1.6109 I0.0041 J0.5807
G1 Y-1.6108
G2 X-5.6625 Y-1.5368 I0.0321 J0.1021
G1 Y-1.5367
X-5.6639 Y-1.5316
G2 X-5.6399 Y-1.4317 I0.1033 J0.028
G1 X-5.6398
G2 X-5.5066 Y-1.323 I0.4298 J-0.3906
G3 X-5.5178 Y-1.2756 I-0.0131 J0.0219
G2 X-5.6855 Y-1.2378 I0.0425 J0.5792
X-5.7516 Y-1.1593 I0.0387 J0.0997
G1 X-5.7527 Y-1.1542
Y-1.154
G2 X-5.7221 Y-1.0558 I0.1049 J0.0211
X-5.582 Y-0.9561 I0.4031 J-0.4181
G3 X-5.59 Y-0.9082 I-0.0115 J0.0227
G2 X-5.7548 Y-0.8593 I0.0807 J0.5751
X-5.8157 Y-0.7765 I0.0452 J0.097
X-5.8158 Y-0.7761 I0.0763 J0.0102
G1 X-5.8164 Y-0.771
G2 X-5.7795 Y-0.6754 I0.1061 J0.0139
G1 X-5.7794 Y-0.6753
G2 X-5.633 Y-0.5851 I0.3745 J-0.4438
G3 X-5.6378 Y-0.5367 I-0.01 J0.0234
G2 X-5.7991 Y-0.4771 I0.1185 J0.5685
X-5.8543 Y-0.3904 I0.0515 J0.0938
G1 X-5.8547 Y-0.3852
G2 X-5.8114 Y-0.2919 I0.1068 J0.0072
X-5.6594 Y-0.2116 I0.3444 J-0.4676
G3 X-5.661 Y-0.1629 I-0.0085 J0.0241
G2 X-5.818 Y-0.0928 I0.1558 J0.5595
X-5.8673 Y-0.0026 I0.0577 J0.0901
G1 Y0.0026
G2 X-5.818 Y0.0928 I0.107 J0.
X-5.661 Y0.1629 I0.3128 J-0.4893
G3 X-5.6594 Y0.2116 I-0.0069 J0.0246
G2 X-5.8114 Y0.2919 I0.1924 J0.5479
X-5.8547 Y0.3852 I0.0635 J0.0861
G1 X-5.8543 Y0.3904
G2 X-5.7991 Y0.4771 I0.1068 J-0.0071
X-5.6378 Y0.5367 I0.2798 J-0.5089
G3 X-5.633 Y0.5851 I-0.0052 J0.025
G2 X-5.7794 Y0.6753 I0.2282 J0.534
G1 X-5.7795 Y0.6754
G2 X-5.8164 Y0.771 I0.0691 J0.0817
G1 X-5.8158 Y0.7761
G2 X-5.8157 Y0.7765 I0.0764 J-0.0097
X-5.7548 Y0.8593 I0.1061 J-0.0142
X-5.59 Y0.9082 I0.2455 J-0.5263
G3 X-5.582 Y0.9561 I-0.0035 J0.0253
G2 X-5.7221 Y1.0558 I0.263 J0.5178
X-5.7527 Y1.154 I0.0743 J0.077
G1 Y1.1542
X-5.7516 Y1.1593
G2 X-5.6855 Y1.2378 I0.1049 J-0.0213
X-5.5178 Y1.2756 I0.2102 J-0.5414
G3 X-5.5066 Y1.323 I-0.0019 J0.0254
G2 X-5.6398 Y1.4317 I0.2966 J0.4993
G1 X-5.6399
G2 X-5.6639 Y1.5316 I0.0792 J0.0719
G1 X-5.6625 Y1.5367
Y1.5368
G2 X-5.5913 Y1.6108 I0.1033 J-0.028
G1 Y1.6109
G2 X-5.4215 Y1.6375 I0.174 J-0.5541
G3 X-5.4072 Y1.684 I-0.0002 J0.0255
G2 X-5.4278 Y1.6989 I0.329 J0.4785
G0 Z0.6
M9
G53 Z0.
M30
%
