%
(971-23-P-0058_DISTAL SPROCKET_1537V2 SECOND)
(T1  D=0.1537 CR=0. - ZMIN=-0.2075 - FLAT END MILL)
G90 G94 G17 G91.1
G64 P0.001 Q0.001
G20
G53 G0 Z0.
(2D SLOT CUT 2)
M9
T1 M6
S22000 M3
G4 P10.
G54
M7
G0 X-5.8441 Y-0.6795
G43 Z0.6 H1
G0 Z0.2
G1 Z0.1 F13.333
G2 X-5.8395 Y-0.6754 Z0.0989 I0.0735 J-0.0775 F40.
G1 X-5.8394 Y-0.6753
G2 X-5.6929 Y-0.5853 Z0.0685 I0.3738 J-0.4442
G3 X-5.6977 Y-0.5366 Z0.057 I-0.0101 J0.0236
G2 X-5.8589 Y-0.4769 Z0.0266 I0.1189 J0.5683
X-5.914 Y-0.3904 Z0.0077 I0.0515 J0.0936
G1 X-5.9144 Y-0.3851 Z0.0068
Y-0.385
G2 X-5.871 Y-0.2919 Z-0.0121 I0.1066 J0.007
X-5.719 Y-0.2117 Z-0.0425 I0.344 J-0.4677
G3 X-5.7206 Y-0.1628 Z-0.054 I-0.0085 J0.0242
G2 X-5.8776 Y-0.0927 Z-0.0844 I0.1558 J0.5593
X-5.9269 Y-0.0027 Z-0.1033 I0.0575 J0.09
G1 Y0. Z-0.1038
Y0.0026 F55.
G2 X-5.8776 Y0.0927 I0.1068 J0.
X-5.7207 Y0.1628 I0.3127 J-0.4892
G3 X-5.719 Y0.2117 I-0.0069 J0.0247
G2 X-5.871 Y0.2919 I0.192 J0.5479
X-5.9144 Y0.385 I0.0633 J0.0861
G1 Y0.3851
X-5.914 Y0.3904
G2 X-5.8589 Y0.4769 I0.1066 J-0.0071
X-5.6977 Y0.5366 I0.28 J-0.5086
G3 X-5.6929 Y0.5853 I-0.0053 J0.0251
G2 X-5.8394 Y0.6753 I0.2274 J0.5342
G1 X-5.8395 Y0.6754
G2 X-5.8765 Y0.7708 I0.0689 J0.0817
G1 X-5.8759 Y0.7759
X-5.8758 Y0.7763
G2 X-5.8152 Y0.8591 I0.1059 J-0.014
X-5.6505 Y0.9081 I0.2462 J-0.5258
G3 X-5.6425 Y0.9564 I-0.0036 J0.0254
G2 X-5.7827 Y1.0558 I0.2619 J0.5182
X-5.8135 Y1.1536 I0.074 J0.0771
G1 X-5.8125 Y1.1588
Y1.1589
G2 X-5.7465 Y1.2376 I0.1048 J-0.0209
X-5.579 Y1.2757 I0.2112 J-0.5408
G3 X-5.5679 Y1.3234 I-0.0019 J0.0256
G2 X-5.7013 Y1.4317 I0.2952 J0.5
G1 Y1.4318
G2 X-5.7256 Y1.5315 I0.0789 J0.072
G1 X-5.7242 Y1.5366
G2 X-5.6534 Y1.6107 I0.1032 J-0.0277
G1 X-5.6533
G2 X-5.4836 Y1.6379 I0.1754 J-0.5535
G3 X-5.4694 Y1.6847 I-0.0003 J0.0257
G2 X-5.5954 Y1.8015 I0.3273 J0.4795
X-5.6132 Y1.9025 I0.0834 J0.0668
G1 X-5.6115 Y1.9075
Y1.9077
G2 X-5.5358 Y1.977 I0.1012 J-0.0344
X-5.3647 Y1.993 I0.1388 J-0.5638
G3 X-5.3475 Y2.0388 I0.0014 J0.0256
G2 X-5.4657 Y2.1636 I0.3579 J0.4572
X-5.4767 Y2.2657 I0.0876 J0.0612
G1 X-5.4766 Y2.266
X-5.4746 Y2.2707
G2 X-5.3948 Y2.3349 I0.0986 J-0.0411
G1 X-5.3947
G2 X-5.2229 Y2.3396 I0.1017 J-0.5716
G3 X-5.2027 Y2.3842 I0.0031 J0.0255
G2 X-5.3124 Y2.5165 I0.3871 J0.4327
X-5.3169 Y2.619 I0.0914 J0.0553
G1 X-5.3167 Y2.6193
X-5.3144 Y2.6239
G2 X-5.2305 Y2.6827 I0.0957 J-0.0474
X-5.0587 Y2.6762 I0.0641 J-0.577
G3 X-5.0356 Y2.7193 I0.0048 J0.0252
G2 X-5.1365 Y2.8585 I0.4145 J0.4065
G1 Y2.8586
G2 X-5.1342 Y2.9611 I0.0949 J0.0491
G1 X-5.1316 Y2.9656
X-5.1315 Y2.9657
G2 X-5.0438 Y3.019 I0.0925 J-0.0534
X-4.8728 Y3.0013 I0.0262 J-0.58
G3 X-4.847 Y3.0429 I0.0064 J0.0249
G2 X-4.9385 Y3.1883 I0.4403 J0.3785
X-4.9295 Y3.2906 I0.0978 J0.0429
G1 X-4.9294 Y3.2907
X-4.9265 Y3.2951
G2 X-4.8355 Y3.3425 I0.0888 J-0.0594
X-4.6661 Y3.3136 I-0.0118 J-0.5805
G3 X-4.6376 Y3.3534 I0.008 J0.0244
G2 X-4.7194 Y3.5045 I0.4641 J0.3489
X-4.7037 Y3.6059 I0.1005 J0.0364
G1 Y3.606
X-4.7005 Y3.6102
G2 X-4.6066 Y3.6516 I0.0847 J-0.0651
X-4.4394 Y3.6117 I-0.0497 J-0.5785
G3 X-4.4083 Y3.6495 I0.0096 J0.0238
G2 X-4.4801 Y3.8057 I0.4858 J0.3179
X-4.4578 Y3.9059 I0.1026 J0.0298
G1 X-4.4577 Y3.906
X-4.4542 Y3.9099
G2 X-4.358 Y3.945 I0.0803 J-0.0705
G1 X-4.3579
G2 X-4.1937 Y3.8943 I-0.0875 J-0.574
G3 X-4.1602 Y3.93 I0.0111 J0.0231
G2 X-4.2216 Y4.0905 I0.5057 J0.2853
X-4.1928 Y4.189 I0.1043 J0.023
G1 X-4.1891 Y4.1928
G2 X-4.0905 Y4.2216 I0.0755 J-0.0756
X-3.93 Y4.1602 I-0.1247 J-0.567
G3 X-3.8943 Y4.1937 I0.0126 J0.0223
G2 X-3.945 Y4.3579 I0.5232 J0.2517
G1 Y4.358
G2 X-3.9099 Y4.4542 I0.1056 J0.016
G1 X-3.906 Y4.4577
X-3.9059 Y4.4578
G2 X-3.8057 Y4.4801 I0.0704 J-0.0803
X-3.6495 Y4.4083 I-0.1617 J-0.5576
G3 X-3.6117 Y4.4394 I0.014 J0.0215
G2 X-3.6516 Y4.6066 I0.5386 J0.2169
X-3.6102 Y4.7005 I0.1064 J0.0092
G1 X-3.606 Y4.7037
X-3.6059
G2 X-3.5046 Y4.7194 I0.065 J-0.0848
X-3.3534 Y4.6376 I-0.1977 J-0.5459
G3 X-3.3136 Y4.6661 I0.0154 J0.0205
G2 X-3.3425 Y4.8355 I0.5516 J0.1812
X-3.2951 Y4.9265 I0.1068 J0.0022
G1 X-3.2907 Y4.9294
X-3.2906 Y4.9295
G2 X-3.1883 Y4.9385 I0.0593 J-0.0888
X-3.0429 Y4.847 I-0.233 J-0.5318
G3 X-3.0013 Y4.8728 I0.0167 J0.0195
G2 X-3.019 Y5.0438 I0.5623 J0.1447
X-2.9657 Y5.1315 I0.1067 J-0.0048
G1 X-2.9656 Y5.1316
X-2.9611 Y5.1342
G2 X-2.8586 Y5.1365 I0.0534 J-0.0926
G1 X-2.8585
G2 X-2.7193 Y5.0356 I-0.2674 J-0.5154
G3 X-2.6762 Y5.0587 I0.018 J0.0183
G2 X-2.6827 Y5.2305 I0.5705 J0.1077
X-2.6239 Y5.3144 I0.1062 J-0.0118
G1 X-2.6193 Y5.3167
X-2.619 Y5.3169
G2 X-2.5165 Y5.3124 I0.0472 J-0.0959
X-2.3842 Y5.2027 I-0.3004 J-0.4968
G3 X-2.3396 Y5.2229 I0.0191 J0.0171
G2 X-2.3349 Y5.3947 I0.5763 J0.0701
G1 Y5.3948
G2 X-2.2707 Y5.4746 I0.1052 J-0.0188
G1 X-2.266 Y5.4766
X-2.2657 Y5.4767
G2 X-2.1636 Y5.4657 I0.0409 J-0.0987
X-2.0388 Y5.3475 I-0.3323 J-0.4761
G3 X-1.993 Y5.3647 I0.0202 J0.0158
G2 X-1.977 Y5.5358 I0.5797 J0.0323
X-1.9077 Y5.6115 I0.1038 J-0.0255
G1 X-1.9075
X-1.9025 Y5.6132
G2 X-1.8015 Y5.5954 I0.0342 J-0.1012
X-1.6847 Y5.4694 I-0.3627 J-0.4533
G3 X-1.6379 Y5.4836 I0.0212 J0.0145
G2 X-1.6107 Y5.6533 I0.5806 J-0.0057
G1 Y5.6534
G2 X-1.5366 Y5.7242 I0.1018 J-0.0324
G1 X-1.5315 Y5.7256
G2 X-1.4318 Y5.7013 I0.0277 J-0.1032
G1 X-1.4317
G2 X-1.3234 Y5.5679 I-0.3916 J-0.4286
G3 X-1.2757 Y5.579 I0.0221 J0.013
G2 X-1.2376 Y5.7465 I0.5789 J-0.0437
X-1.1589 Y5.8125 I0.0996 J-0.0388
G1 X-1.1588
X-1.1536 Y5.8135
G2 X-1.0558 Y5.7827 I0.0207 J-0.1048
X-0.9564 Y5.6425 I-0.4188 J-0.4021
G3 X-0.9081 Y5.6505 I0.0229 J0.0115
G2 X-0.8591 Y5.8152 I0.5749 J-0.0815
X-0.7763 Y5.8758 I0.0968 J-0.0453
G1 X-0.7759 Y5.8759
X-0.7708 Y5.8765
G2 X-0.6754 Y5.8395 I0.0138 J-0.106
G1 X-0.6753 Y5.8394
G2 X-0.5853 Y5.6929 I-0.4442 J-0.3738
G3 X-0.5366 Y5.6977 I0.0236 J0.0101
G2 X-0.4769 Y5.8589 I0.5683 J-0.1189
X-0.3904 Y5.914 I0.0936 J-0.0515
G1 X-0.3851 Y5.9144
X-0.385
G2 X-0.2919 Y5.871 I0.007 J-0.1066
X-0.2117 Y5.719 I-0.4677 J-0.344
G3 X-0.1628 Y5.7206 I0.0242 J0.0085
G2 X-0.0927 Y5.8776 I0.5593 J-0.1558
X-0.0027 Y5.9269 I0.09 J-0.0575
G1 X0.0026
G2 X0.0927 Y5.8776 I0. J-0.1068
X0.1628 Y5.7207 I-0.4892 J-0.3127
G3 X0.2117 Y5.719 I0.0247 J0.0069
G2 X0.2919 Y5.871 I0.5479 J-0.192
X0.385 Y5.9144 I0.0861 J-0.0633
G1 X0.3851
X0.3904 Y5.914
G2 X0.4769 Y5.8589 I-0.0071 J-0.1066
X0.5366 Y5.6977 I-0.5086 J-0.28
G3 X0.5853 Y5.6929 I0.0251 J0.0053
G2 X0.6753 Y5.8394 I0.5342 J-0.2274
G1 X0.6754 Y5.8395
G2 X0.7708 Y5.8765 I0.0817 J-0.0689
G1 X0.7759 Y5.8759
X0.7763 Y5.8758
G2 X0.8591 Y5.8152 I-0.014 J-0.1059
X0.9081 Y5.6505 I-0.5258 J-0.2462
G3 X0.9564 Y5.6425 I0.0254 J0.0036
G2 X1.0558 Y5.7827 I0.5182 J-0.2619
X1.1536 Y5.8135 I0.0771 J-0.074
G1 X1.1588 Y5.8125
X1.1589
G2 X1.2376 Y5.7465 I-0.0209 J-0.1048
X1.2757 Y5.579 I-0.5408 J-0.2112
G3 X1.3234 Y5.5679 I0.0256 J0.0019
G2 X1.4317 Y5.7013 I0.5 J-0.2952
G1 X1.4318
G2 X1.5315 Y5.7256 I0.072 J-0.0789
G1 X1.5366 Y5.7242
G2 X1.6107 Y5.6534 I-0.0277 J-0.1032
G1 Y5.6533
G2 X1.6379 Y5.4836 I-0.5535 J-0.1754
G3 X1.6847 Y5.4694 I0.0257 J0.0003
G2 X1.8015 Y5.5954 I0.4795 J-0.3273
X1.9025 Y5.6132 I0.0668 J-0.0834
G1 X1.9075 Y5.6115
X1.9077
G2 X1.977 Y5.5358 I-0.0344 J-0.1012
X1.993 Y5.3647 I-0.5638 J-0.1388
G3 X2.0388 Y5.3475 I0.0256 J-0.0014
G2 X2.1636 Y5.4657 I0.4572 J-0.3579
X2.2657 Y5.4767 I0.0612 J-0.0876
G1 X2.266 Y5.4766
X2.2707 Y5.4746
G2 X2.3349 Y5.3948 I-0.0411 J-0.0986
G1 Y5.3947
G2 X2.3396 Y5.2229 I-0.5716 J-0.1017
G3 X2.3842 Y5.2027 I0.0255 J-0.0031
G2 X2.5165 Y5.3124 I0.4327 J-0.3871
X2.619 Y5.3169 I0.0553 J-0.0914
G1 X2.6193 Y5.3167
X2.6239 Y5.3144
G2 X2.6827 Y5.2305 I-0.0474 J-0.0957
X2.6762 Y5.0587 I-0.577 J-0.0641
G3 X2.7193 Y5.0356 I0.0252 J-0.0048
G2 X2.8585 Y5.1365 I0.4065 J-0.4145
G1 X2.8586
G2 X2.9611 Y5.1342 I0.0491 J-0.0949
G1 X2.9656 Y5.1316
X2.9657 Y5.1315
G2 X3.019 Y5.0438 I-0.0534 J-0.0925
X3.0013 Y4.8728 I-0.58 J-0.0262
G3 X3.0429 Y4.847 I0.0249 J-0.0064
G2 X3.1883 Y4.9385 I0.3785 J-0.4403
X3.2906 Y4.9295 I0.0429 J-0.0978
G1 X3.2907 Y4.9294
X3.2951 Y4.9265
G2 X3.3425 Y4.8355 I-0.0594 J-0.0888
X3.3136 Y4.6661 I-0.5805 J0.0118
G3 X3.3534 Y4.6376 I0.0244 J-0.008
G2 X3.5045 Y4.7194 I0.3489 J-0.4641
X3.6059 Y4.7037 I0.0364 J-0.1005
G1 X3.606
X3.6102 Y4.7005
G2 X3.6516 Y4.6066 I-0.0651 J-0.0847
X3.6117 Y4.4394 I-0.5785 J0.0497
G3 X3.6495 Y4.4083 I0.0238 J-0.0096
G2 X3.8057 Y4.4801 I0.3179 J-0.4858
X3.9059 Y4.4578 I0.0298 J-0.1026
G1 X3.906 Y4.4577
X3.9099 Y4.4542
G2 X3.945 Y4.358 I-0.0705 J-0.0803
G1 Y4.3579
G2 X3.8943 Y4.1937 I-0.574 J0.0875
G3 X3.93 Y4.1602 I0.0231 J-0.0111
G2 X4.0905 Y4.2216 I0.2853 J-0.5057
X4.189 Y4.1928 I0.023 J-0.1043
G1 X4.1928 Y4.1891
G2 X4.2216 Y4.0905 I-0.0756 J-0.0755
X4.1602 Y3.93 I-0.567 J0.1247
G3 X4.1937 Y3.8943 I0.0223 J-0.0126
G2 X4.3579 Y3.945 I0.2517 J-0.5232
G1 X4.358
G2 X4.4542 Y3.9099 I0.016 J-0.1056
G1 X4.4577 Y3.906
X4.4578 Y3.9059
G2 X4.4801 Y3.8057 I-0.0803 J-0.0704
X4.4083 Y3.6495 I-0.5576 J0.1617
G3 X4.4394 Y3.6117 I0.0215 J-0.014
G2 X4.6066 Y3.6516 I0.2169 J-0.5386
X4.7005 Y3.6102 I0.0092 J-0.1064
G1 X4.7037 Y3.606
Y3.6059
G2 X4.7194 Y3.5046 I-0.0848 J-0.065
X4.6376 Y3.3534 I-0.5459 J0.1977
G3 X4.6661 Y3.3136 I0.0205 J-0.0154
G2 X4.8355 Y3.3425 I0.1812 J-0.5516
X4.9265 Y3.2951 I0.0022 J-0.1068
G1 X4.9294 Y3.2907
X4.9295 Y3.2906
G2 X4.9385 Y3.1883 I-0.0888 J-0.0593
X4.847 Y3.0429 I-0.5318 J0.233
G3 X4.8728 Y3.0013 I0.0195 J-0.0167
G2 X5.0438 Y3.019 I0.1447 J-0.5623
X5.1315 Y2.9657 I-0.0048 J-0.1067
G1 X5.1316 Y2.9656
X5.1342 Y2.9611
G2 X5.1365 Y2.8586 I-0.0926 J-0.0534
G1 Y2.8585
G2 X5.0356 Y2.7193 I-0.5154 J0.2674
G3 X5.0587 Y2.6762 I0.0183 J-0.018
G2 X5.2305 Y2.6827 I0.1077 J-0.5705
X5.3144 Y2.6239 I-0.0118 J-0.1062
G1 X5.3167 Y2.6193
X5.3169 Y2.619
G2 X5.3124 Y2.5165 I-0.0959 J-0.0472
X5.2027 Y2.3842 I-0.4968 J0.3004
G3 X5.2229 Y2.3396 I0.0171 J-0.0191
G2 X5.3947 Y2.3349 I0.0701 J-0.5763
G1 X5.3948
G2 X5.4746 Y2.2707 I-0.0188 J-0.1052
G1 X5.4766 Y2.266
X5.4767 Y2.2657
G2 X5.4657 Y2.1636 I-0.0987 J-0.0409
X5.3475 Y2.0388 I-0.4761 J0.3323
G3 X5.3647 Y1.993 I0.0158 J-0.0202
G2 X5.5358 Y1.977 I0.0323 J-0.5797
X5.6115 Y1.9077 I-0.0255 J-0.1038
G1 Y1.9075
X5.6132 Y1.9025
G2 X5.5954 Y1.8015 I-0.1012 J-0.0342
X5.4694 Y1.6847 I-0.4533 J0.3627
G3 X5.4836 Y1.6379 I0.0145 J-0.0212
G2 X5.6533 Y1.6107 I-0.0057 J-0.5806
G1 X5.6534
G2 X5.7242 Y1.5366 I-0.0324 J-0.1018
G1 X5.7256 Y1.5315
G2 X5.7013 Y1.4318 I-0.1032 J-0.0277
G1 Y1.4317
G2 X5.5679 Y1.3234 I-0.4286 J0.3916
G3 X5.579 Y1.2757 I0.013 J-0.0221
G2 X5.7465 Y1.2376 I-0.0437 J-0.5789
X5.8125 Y1.1589 I-0.0388 J-0.0996
G1 Y1.1588
X5.8135 Y1.1536
G2 X5.7827 Y1.0558 I-0.1048 J-0.0207
X5.6425 Y0.9564 I-0.4021 J0.4188
G3 X5.6505 Y0.9081 I0.0115 J-0.0229
G2 X5.8152 Y0.8591 I-0.0815 J-0.5749
X5.8758 Y0.7763 I-0.0453 J-0.0968
G1 X5.8759 Y0.7759
X5.8765 Y0.7708
G2 X5.8395 Y0.6754 I-0.106 J-0.0138
G1 X5.8394 Y0.6753
G2 X5.6929 Y0.5853 I-0.3738 J0.4442
G3 X5.6977 Y0.5366 I0.0101 J-0.0236
G2 X5.8589 Y0.4769 I-0.1189 J-0.5683
X5.914 Y0.3904 I-0.0515 J-0.0936
G1 X5.9144 Y0.3851
Y0.385
G2 X5.871 Y0.2919 I-0.1066 J-0.007
X5.719 Y0.2117 I-0.344 J0.4677
G3 X5.7206 Y0.1628 I0.0085 J-0.0242
G2 X5.8776 Y0.0927 I-0.1558 J-0.5593
X5.9269 Y0.0027 I-0.0575 J-0.09
G1 Y-0.0026
G2 X5.8776 Y-0.0927 I-0.1068 J0.
X5.7207 Y-0.1628 I-0.3127 J0.4892
G3 X5.719 Y-0.2117 I0.0069 J-0.0247
G2 X5.871 Y-0.2919 I-0.192 J-0.5479
X5.9144 Y-0.385 I-0.0633 J-0.0861
G1 Y-0.3851
X5.914 Y-0.3904
G2 X5.8589 Y-0.4769 I-0.1066 J0.0071
X5.6977 Y-0.5366 I-0.28 J0.5086
G3 X5.6929 Y-0.5853 I0.0053 J-0.0251
G2 X5.8394 Y-0.6753 I-0.2274 J-0.5342
G1 X5.8395 Y-0.6754
G2 X5.8765 Y-0.7708 I-0.0689 J-0.0817
G1 X5.8759 Y-0.7759
X5.8758 Y-0.7763
G2 X5.8152 Y-0.8591 I-0.1059 J0.014
X5.6505 Y-0.9081 I-0.2462 J0.5258
G3 X5.6425 Y-0.9564 I0.0036 J-0.0254
G2 X5.7827 Y-1.0558 I-0.2619 J-0.5182
X5.8135 Y-1.1536 I-0.074 J-0.0771
G1 X5.8125 Y-1.1588
Y-1.1589
G2 X5.7465 Y-1.2376 I-0.1048 J0.0209
X5.579 Y-1.2757 I-0.2112 J0.5408
G3 X5.5679 Y-1.3234 I0.0019 J-0.0256
G2 X5.7013 Y-1.4317 I-0.2952 J-0.5
G1 Y-1.4318
G2 X5.7256 Y-1.5315 I-0.0789 J-0.072
G1 X5.7242 Y-1.5366
G2 X5.6534 Y-1.6107 I-0.1032 J0.0277
G1 X5.6533
G2 X5.4836 Y-1.6379 I-0.1754 J0.5535
G3 X5.4694 Y-1.6847 I0.0003 J-0.0257
G2 X5.5954 Y-1.8015 I-0.3273 J-0.4795
X5.6132 Y-1.9025 I-0.0834 J-0.0668
G1 X5.6115 Y-1.9075
Y-1.9077
G2 X5.5358 Y-1.977 I-0.1012 J0.0344
X5.3647 Y-1.993 I-0.1388 J0.5638
G3 X5.3475 Y-2.0388 I-0.0014 J-0.0256
G2 X5.4657 Y-2.1636 I-0.3579 J-0.4572
X5.4767 Y-2.2657 I-0.0876 J-0.0612
G1 X5.4766 Y-2.266
X5.4746 Y-2.2707
G2 X5.3948 Y-2.3349 I-0.0986 J0.0411
G1 X5.3947
G2 X5.2229 Y-2.3396 I-0.1017 J0.5716
G3 X5.2027 Y-2.3842 I-0.0031 J-0.0255
G2 X5.3124 Y-2.5165 I-0.3871 J-0.4327
X5.3169 Y-2.619 I-0.0914 J-0.0553
G1 X5.3167 Y-2.6193
X5.3144 Y-2.6239
G2 X5.2305 Y-2.6827 I-0.0957 J0.0474
X5.0587 Y-2.6762 I-0.0641 J0.577
G3 X5.0356 Y-2.7193 I-0.0048 J-0.0252
G2 X5.1365 Y-2.8585 I-0.4145 J-0.4065
G1 Y-2.8586
G2 X5.1342 Y-2.9611 I-0.0949 J-0.0491
G1 X5.1316 Y-2.9656
X5.1315 Y-2.9657
G2 X5.0438 Y-3.019 I-0.0925 J0.0534
X4.8728 Y-3.0013 I-0.0262 J0.58
G3 X4.847 Y-3.0429 I-0.0064 J-0.0249
G2 X4.9385 Y-3.1883 I-0.4403 J-0.3785
X4.9295 Y-3.2906 I-0.0978 J-0.0429
G1 X4.9294 Y-3.2907
X4.9265 Y-3.2951
G2 X4.8355 Y-3.3425 I-0.0888 J0.0594
X4.6661 Y-3.3136 I0.0118 J0.5805
G3 X4.6376 Y-3.3534 I-0.008 J-0.0244
G2 X4.7194 Y-3.5045 I-0.4641 J-0.3489
X4.7037 Y-3.6059 I-0.1005 J-0.0364
G1 Y-3.606
X4.7005 Y-3.6102
G2 X4.6066 Y-3.6516 I-0.0847 J0.0651
X4.4394 Y-3.6117 I0.0497 J0.5785
G3 X4.4083 Y-3.6495 I-0.0096 J-0.0238
G2 X4.4801 Y-3.8057 I-0.4858 J-0.3179
X4.4578 Y-3.9059 I-0.1026 J-0.0298
G1 X4.4577 Y-3.906
X4.4542 Y-3.9099
G2 X4.358 Y-3.945 I-0.0803 J0.0705
G1 X4.3579
G2 X4.1937 Y-3.8943 I0.0875 J0.574
G3 X4.1602 Y-3.93 I-0.0111 J-0.0231
G2 X4.2216 Y-4.0905 I-0.5057 J-0.2853
X4.1928 Y-4.189 I-0.1043 J-0.023
G1 X4.1891 Y-4.1928
G2 X4.0905 Y-4.2216 I-0.0755 J0.0756
X3.93 Y-4.1602 I0.1247 J0.567
G3 X3.8943 Y-4.1937 I-0.0126 J-0.0223
G2 X3.945 Y-4.3579 I-0.5232 J-0.2517
G1 Y-4.358
G2 X3.9099 Y-4.4542 I-0.1056 J-0.016
G1 X3.906 Y-4.4577
X3.9059 Y-4.4578
G2 X3.8057 Y-4.4801 I-0.0704 J0.0803
X3.6495 Y-4.4083 I0.1617 J0.5576
G3 X3.6117 Y-4.4394 I-0.014 J-0.0215
G2 X3.6516 Y-4.6066 I-0.5386 J-0.2169
X3.6102 Y-4.7005 I-0.1064 J-0.0092
G1 X3.606 Y-4.7037
X3.6059
G2 X3.5046 Y-4.7194 I-0.065 J0.0848
X3.3534 Y-4.6376 I0.1977 J0.5459
G3 X3.3136 Y-4.6661 I-0.0154 J-0.0205
G2 X3.3425 Y-4.8355 I-0.5516 J-0.1812
X3.2951 Y-4.9265 I-0.1068 J-0.0022
G1 X3.2907 Y-4.9294
X3.2906 Y-4.9295
G2 X3.1883 Y-4.9385 I-0.0593 J0.0888
X3.0429 Y-4.847 I0.233 J0.5318
G3 X3.0013 Y-4.8728 I-0.0167 J-0.0195
G2 X3.019 Y-5.0438 I-0.5623 J-0.1447
X2.9657 Y-5.1315 I-0.1067 J0.0048
G1 X2.9656 Y-5.1316
X2.9611 Y-5.1342
G2 X2.8586 Y-5.1365 I-0.0534 J0.0926
G1 X2.8585
G2 X2.7193 Y-5.0356 I0.2674 J0.5154
G3 X2.6762 Y-5.0587 I-0.018 J-0.0183
G2 X2.6827 Y-5.2305 I-0.5705 J-0.1077
X2.6239 Y-5.3144 I-0.1062 J0.0118
G1 X2.6193 Y-5.3167
X2.619 Y-5.3169
G2 X2.5165 Y-5.3124 I-0.0472 J0.0959
X2.3842 Y-5.2027 I0.3004 J0.4968
G3 X2.3396 Y-5.2229 I-0.0191 J-0.0171
G2 X2.3349 Y-5.3947 I-0.5763 J-0.0701
G1 Y-5.3948
G2 X2.2707 Y-5.4746 I-0.1052 J0.0188
G1 X2.266 Y-5.4766
X2.2657 Y-5.4767
G2 X2.1636 Y-5.4657 I-0.0409 J0.0987
X2.0388 Y-5.3475 I0.3323 J0.4761
G3 X1.993 Y-5.3647 I-0.0202 J-0.0158
G2 X1.977 Y-5.5358 I-0.5797 J-0.0323
X1.9077 Y-5.6115 I-0.1038 J0.0255
G1 X1.9075
X1.9025 Y-5.6132
G2 X1.8015 Y-5.5954 I-0.0342 J0.1012
X1.6847 Y-5.4694 I0.3627 J0.4533
G3 X1.6379 Y-5.4836 I-0.0212 J-0.0145
G2 X1.6107 Y-5.6533 I-0.5806 J0.0057
G1 Y-5.6534
G2 X1.5366 Y-5.7242 I-0.1018 J0.0324
G1 X1.5315 Y-5.7256
G2 X1.4318 Y-5.7013 I-0.0277 J0.1032
G1 X1.4317
G2 X1.3234 Y-5.5679 I0.3916 J0.4286
G3 X1.2757 Y-5.579 I-0.0221 J-0.013
G2 X1.2376 Y-5.7465 I-0.5789 J0.0437
X1.1589 Y-5.8125 I-0.0996 J0.0388
G1 X1.1588
X1.1536 Y-5.8135
G2 X1.0558 Y-5.7827 I-0.0207 J0.1048
X0.9564 Y-5.6425 I0.4188 J0.4021
G3 X0.9081 Y-5.6505 I-0.0229 J-0.0115
G2 X0.8591 Y-5.8152 I-0.5749 J0.0815
X0.7763 Y-5.8758 I-0.0968 J0.0453
G1 X0.7759 Y-5.8759
X0.7708 Y-5.8765
G2 X0.6754 Y-5.8395 I-0.0138 J0.106
G1 X0.6753 Y-5.8394
G2 X0.5853 Y-5.6929 I0.4442 J0.3738
G3 X0.5366 Y-5.6977 I-0.0236 J-0.0101
G2 X0.4769 Y-5.8589 I-0.5683 J0.1189
X0.3904 Y-5.914 I-0.0936 J0.0515
G1 X0.3851 Y-5.9144
X0.385
G2 X0.2919 Y-5.871 I-0.007 J0.1066
X0.2117 Y-5.719 I0.4677 J0.344
G3 X0.1628 Y-5.7206 I-0.0242 J-0.0085
G2 X0.0927 Y-5.8776 I-0.5593 J0.1558
X0.0027 Y-5.9269 I-0.09 J0.0575
G1 X-0.0026
G2 X-0.0927 Y-5.8776 I0. J0.1068
X-0.1628 Y-5.7207 I0.4892 J0.3127
G3 X-0.2117 Y-5.719 I-0.0247 J-0.0069
G2 X-0.2919 Y-5.871 I-0.5479 J0.192
X-0.385 Y-5.9144 I-0.0861 J0.0633
G1 X-0.3851
X-0.3904 Y-5.914
G2 X-0.4769 Y-5.8589 I0.0071 J0.1066
X-0.5366 Y-5.6977 I0.5086 J0.28
G3 X-0.5853 Y-5.6929 I-0.0251 J-0.0053
G2 X-0.6753 Y-5.8394 I-0.5342 J0.2274
G1 X-0.6754 Y-5.8395
G2 X-0.7708 Y-5.8765 I-0.0817 J0.0689
G1 X-0.7759 Y-5.8759
X-0.7763 Y-5.8758
G2 X-0.8591 Y-5.8152 I0.014 J0.1059
X-0.9081 Y-5.6505 I0.5258 J0.2462
G3 X-0.9564 Y-5.6425 I-0.0254 J-0.0036
G2 X-1.0558 Y-5.7827 I-0.5182 J0.2619
X-1.1536 Y-5.8135 I-0.0771 J0.074
G1 X-1.1588 Y-5.8125
X-1.1589
G2 X-1.2376 Y-5.7465 I0.0209 J0.1048
X-1.2757 Y-5.579 I0.5408 J0.2112
G3 X-1.3234 Y-5.5679 I-0.0256 J-0.0019
G2 X-1.4317 Y-5.7013 I-0.5 J0.2952
G1 X-1.4318
G2 X-1.5315 Y-5.7256 I-0.072 J0.0789
G1 X-1.5366 Y-5.7242
G2 X-1.6107 Y-5.6534 I0.0277 J0.1032
G1 Y-5.6533
G2 X-1.6379 Y-5.4836 I0.5535 J0.1754
G3 X-1.6847 Y-5.4694 I-0.0257 J-0.0003
G2 X-1.8015 Y-5.5954 I-0.4795 J0.3273
X-1.9025 Y-5.6132 I-0.0668 J0.0834
G1 X-1.9075 Y-5.6115
X-1.9077
G2 X-1.977 Y-5.5358 I0.0344 J0.1012
X-1.993 Y-5.3647 I0.5638 J0.1388
G3 X-2.0388 Y-5.3475 I-0.0256 J0.0014
G2 X-2.1636 Y-5.4657 I-0.4572 J0.3579
X-2.2657 Y-5.4767 I-0.0612 J0.0876
G1 X-2.266 Y-5.4766
X-2.2707 Y-5.4746
G2 X-2.3349 Y-5.3948 I0.0411 J0.0986
G1 Y-5.3947
G2 X-2.3396 Y-5.2229 I0.5716 J0.1017
G3 X-2.3842 Y-5.2027 I-0.0255 J0.0031
G2 X-2.5165 Y-5.3124 I-0.4327 J0.3871
X-2.619 Y-5.3169 I-0.0553 J0.0914
G1 X-2.6193 Y-5.3167
X-2.6239 Y-5.3144
G2 X-2.6827 Y-5.2305 I0.0474 J0.0957
X-2.6762 Y-5.0587 I0.577 J0.0641
G3 X-2.7193 Y-5.0356 I-0.0252 J0.0048
G2 X-2.8585 Y-5.1365 I-0.4065 J0.4145
G1 X-2.8586
G2 X-2.9611 Y-5.1342 I-0.0491 J0.0949
G1 X-2.9656 Y-5.1316
X-2.9657 Y-5.1315
G2 X-3.019 Y-5.0438 I0.0534 J0.0925
X-3.0013 Y-4.8728 I0.58 J0.0262
G3 X-3.0429 Y-4.847 I-0.0249 J0.0064
G2 X-3.1883 Y-4.9385 I-0.3785 J0.4403
X-3.2906 Y-4.9295 I-0.0429 J0.0978
G1 X-3.2907 Y-4.9294
X-3.2951 Y-4.9265
G2 X-3.3425 Y-4.8355 I0.0594 J0.0888
X-3.3136 Y-4.6661 I0.5805 J-0.0118
G3 X-3.3534 Y-4.6376 I-0.0244 J0.008
G2 X-3.5045 Y-4.7194 I-0.3489 J0.4641
X-3.6059 Y-4.7037 I-0.0364 J0.1005
G1 X-3.606
X-3.6102 Y-4.7005
G2 X-3.6516 Y-4.6066 I0.0651 J0.0847
X-3.6117 Y-4.4394 I0.5785 J-0.0497
G3 X-3.6495 Y-4.4083 I-0.0238 J0.0096
G2 X-3.8057 Y-4.4801 I-0.3179 J0.4858
X-3.9059 Y-4.4578 I-0.0298 J0.1026
G1 X-3.906 Y-4.4577
X-3.9099 Y-4.4542
G2 X-3.945 Y-4.358 I0.0705 J0.0803
G1 Y-4.3579
G2 X-3.8943 Y-4.1937 I0.574 J-0.0875
G3 X-3.93 Y-4.1602 I-0.0231 J0.0111
G2 X-4.0905 Y-4.2216 I-0.2853 J0.5057
X-4.189 Y-4.1928 I-0.023 J0.1043
G1 X-4.1928 Y-4.1891
G2 X-4.2216 Y-4.0905 I0.0756 J0.0755
X-4.1602 Y-3.93 I0.567 J-0.1247
G3 X-4.1937 Y-3.8943 I-0.0223 J0.0126
G2 X-4.3579 Y-3.945 I-0.2517 J0.5232
G1 X-4.358
G2 X-4.4542 Y-3.9099 I-0.016 J0.1056
G1 X-4.4577 Y-3.906
X-4.4578 Y-3.9059
G2 X-4.4801 Y-3.8057 I0.0803 J0.0704
X-4.4083 Y-3.6495 I0.5576 J-0.1617
G3 X-4.4394 Y-3.6117 I-0.0215 J0.014
G2 X-4.6066 Y-3.6516 I-0.2169 J0.5386
X-4.7005 Y-3.6102 I-0.0092 J0.1064
G1 X-4.7037 Y-3.606
Y-3.6059
G2 X-4.7194 Y-3.5046 I0.0848 J0.065
X-4.6376 Y-3.3534 I0.5459 J-0.1977
G3 X-4.6661 Y-3.3136 I-0.0205 J0.0154
G2 X-4.8355 Y-3.3425 I-0.1812 J0.5516
X-4.9265 Y-3.2951 I-0.0022 J0.1068
G1 X-4.9294 Y-3.2907
X-4.9295 Y-3.2906
G2 X-4.9385 Y-3.1883 I0.0888 J0.0593
X-4.847 Y-3.0429 I0.5318 J-0.233
G3 X-4.8728 Y-3.0013 I-0.0195 J0.0167
G2 X-5.0438 Y-3.019 I-0.1447 J0.5623
X-5.1315 Y-2.9657 I0.0048 J0.1067
G1 X-5.1316 Y-2.9656
X-5.1342 Y-2.9611
G2 X-5.1365 Y-2.8586 I0.0926 J0.0534
G1 Y-2.8585
G2 X-5.0356 Y-2.7193 I0.5154 J-0.2674
G3 X-5.0587 Y-2.6762 I-0.0183 J0.018
G2 X-5.2305 Y-2.6827 I-0.1077 J0.5705
X-5.3144 Y-2.6239 I0.0118 J0.1062
G1 X-5.3167 Y-2.6193
X-5.3169 Y-2.619
G2 X-5.3124 Y-2.5165 I0.0959 J0.0472
X-5.2027 Y-2.3842 I0.4968 J-0.3004
G3 X-5.2229 Y-2.3396 I-0.0171 J0.0191
G2 X-5.3947 Y-2.3349 I-0.0701 J0.5763
G1 X-5.3948
G2 X-5.4746 Y-2.2707 I0.0188 J0.1052
G1 X-5.4766 Y-2.266
X-5.4767 Y-2.2657
G2 X-5.4657 Y-2.1636 I0.0987 J0.0409
X-5.3475 Y-2.0388 I0.4761 J-0.3323
G3 X-5.3647 Y-1.993 I-0.0158 J0.0202
G2 X-5.5358 Y-1.977 I-0.0323 J0.5797
X-5.6115 Y-1.9077 I0.0255 J0.1038
G1 Y-1.9075
X-5.6132 Y-1.9025
G2 X-5.5954 Y-1.8015 I0.1012 J0.0342
X-5.4694 Y-1.6847 I0.4533 J-0.3627
G3 X-5.4836 Y-1.6379 I-0.0145 J0.0212
G2 X-5.6533 Y-1.6107 I0.0057 J0.5806
G1 X-5.6534
G2 X-5.7242 Y-1.5366 I0.0324 J0.1018
G1 X-5.7256 Y-1.5315
G2 X-5.7013 Y-1.4318 I0.1032 J0.0277
G1 Y-1.4317
G2 X-5.5679 Y-1.3234 I0.4286 J-0.3916
G3 X-5.579 Y-1.2757 I-0.013 J0.0221
G2 X-5.7465 Y-1.2376 I0.0437 J0.5789
X-5.8125 Y-1.1589 I0.0388 J0.0996
G1 Y-1.1588
X-5.8135 Y-1.1536
G2 X-5.7827 Y-1.0558 I0.1048 J0.0207
X-5.6425 Y-0.9564 I0.4021 J-0.4188
G3 X-5.6505 Y-0.9081 I-0.0115 J0.0229
G2 X-5.8152 Y-0.8591 I0.0815 J0.5749
X-5.8758 Y-0.7763 I0.0453 J0.0968
G1 X-5.8759 Y-0.7759
X-5.8765 Y-0.7708
G2 X-5.8395 Y-0.6754 I0.106 J0.0138
G1 X-5.8394 Y-0.6753
G2 X-5.6929 Y-0.5853 I0.3738 J-0.4442
G3 X-5.6977 Y-0.5366 I-0.0101 J0.0236
G2 X-5.8589 Y-0.4769 I0.1189 J0.5683
X-5.914 Y-0.3904 I0.0515 J0.0936
G1 X-5.9144 Y-0.3851
Y-0.385
G2 X-5.871 Y-0.2919 I0.1066 J0.007
X-5.719 Y-0.2117 I0.344 J-0.4677
G3 X-5.7206 Y-0.1628 I-0.0085 J0.0242
G2 X-5.8776 Y-0.0927 I0.1558 J0.5593
X-5.9269 Y-0.0027 I0.0575 J0.09
G1 Y0.
Y0.0026 Z-0.1039 F40.
G2 X-5.8776 Y0.0927 Z-0.1092 I0.1068 J0.
X-5.7207 Y0.1628 Z-0.1178 I0.3127 J-0.4892
G3 X-5.719 Y0.2117 Z-0.121 I-0.0069 J0.0247
G2 X-5.871 Y0.2919 Z-0.1296 I0.192 J0.5479
X-5.9144 Y0.385 Z-0.1349 I0.0633 J0.0861
G1 Y0.3851
X-5.914 Y0.3904 Z-0.1351
G2 X-5.8589 Y0.4769 Z-0.1404 I0.1066 J-0.0071
X-5.6977 Y0.5366 Z-0.149 I0.28 J-0.5086
G3 X-5.6929 Y0.5853 Z-0.1522 I-0.0053 J0.0251
G2 X-5.8394 Y0.6753 Z-0.1608 I0.2274 J0.5342
G1 X-5.8395 Y0.6754
G2 X-5.8765 Y0.7708 Z-0.1661 I0.0689 J0.0817
G1 X-5.8759 Y0.7759 Z-0.1664
X-5.8758 Y0.7763
G2 X-5.8152 Y0.8591 Z-0.1717 I0.1059 J-0.014
X-5.6505 Y0.9081 Z-0.1803 I0.2462 J-0.5258
G3 X-5.6425 Y0.9564 Z-0.1835 I-0.0036 J0.0254
G2 X-5.7827 Y1.0558 Z-0.1921 I0.2619 J0.5182
X-5.8135 Y1.1536 Z-0.1974 I0.074 J0.0771
G1 X-5.8125 Y1.1588 Z-0.1976
Y1.1589
G2 X-5.7465 Y1.2376 Z-0.203 I0.1048 J-0.0209
X-5.6589 Y1.264 Z-0.2075 I0.2112 J-0.5408
X-5.579 Y1.2757 I0.1236 J-0.5673 F55.
G3 X-5.5679 Y1.3234 I-0.0019 J0.0256
G2 X-5.7013 Y1.4317 I0.2952 J0.5
G1 Y1.4318
G2 X-5.7256 Y1.5315 I0.0789 J0.072
G1 X-5.7242 Y1.5366
G2 X-5.6534 Y1.6107 I0.1032 J-0.0277
G1 X-5.6533
G2 X-5.4836 Y1.6379 I0.1754 J-0.5535
G3 X-5.4694 Y1.6847 I-0.0003 J0.0257
G2 X-5.5954 Y1.8015 I0.3273 J0.4795
X-5.6132 Y1.9025 I0.0834 J0.0668
G1 X-5.6115 Y1.9075
Y1.9077
G2 X-5.5358 Y1.977 I0.1012 J-0.0344
X-5.3647 Y1.993 I0.1388 J-0.5638
G3 X-5.3475 Y2.0388 I0.0014 J0.0256
G2 X-5.4657 Y2.1636 I0.3579 J0.4572
X-5.4767 Y2.2657 I0.0876 J0.0612
G1 X-5.4766 Y2.266
X-5.4746 Y2.2707
G2 X-5.3948 Y2.3349 I0.0986 J-0.0411
G1 X-5.3947
G2 X-5.2229 Y2.3396 I0.1017 J-0.5716
G3 X-5.2027 Y2.3842 I0.0031 J0.0255
G2 X-5.3124 Y2.5165 I0.3871 J0.4327
X-5.3169 Y2.619 I0.0914 J0.0553
G1 X-5.3167 Y2.6193
X-5.3144 Y2.6239
G2 X-5.2305 Y2.6827 I0.0957 J-0.0474
X-5.0587 Y2.6762 I0.0641 J-0.577
G3 X-5.0356 Y2.7193 I0.0048 J0.0252
G2 X-5.1365 Y2.8585 I0.4145 J0.4065
G1 Y2.8586
G2 X-5.1342 Y2.9611 I0.0949 J0.0491
G1 X-5.1316 Y2.9656
X-5.1315 Y2.9657
G2 X-5.0438 Y3.019 I0.0925 J-0.0534
X-4.8728 Y3.0013 I0.0262 J-0.58
G3 X-4.847 Y3.0429 I0.0064 J0.0249
G2 X-4.9385 Y3.1883 I0.4403 J0.3785
X-4.9295 Y3.2906 I0.0978 J0.0429
G1 X-4.9294 Y3.2907
X-4.9265 Y3.2951
G2 X-4.8355 Y3.3425 I0.0888 J-0.0594
X-4.6661 Y3.3136 I-0.0118 J-0.5805
G3 X-4.6376 Y3.3534 I0.008 J0.0244
G2 X-4.7194 Y3.5045 I0.4641 J0.3489
X-4.7037 Y3.6059 I0.1005 J0.0364
G1 Y3.606
X-4.7005 Y3.6102
G2 X-4.6066 Y3.6516 I0.0847 J-0.0651
X-4.4394 Y3.6117 I-0.0497 J-0.5785
G3 X-4.4083 Y3.6495 I0.0096 J0.0238
G2 X-4.4801 Y3.8057 I0.4858 J0.3179
X-4.4578 Y3.9059 I0.1026 J0.0298
G1 X-4.4577 Y3.906
X-4.4542 Y3.9099
G2 X-4.358 Y3.945 I0.0803 J-0.0705
G1 X-4.3579
G2 X-4.1937 Y3.8943 I-0.0875 J-0.574
G3 X-4.1602 Y3.93 I0.0111 J0.0231
G2 X-4.2216 Y4.0905 I0.5057 J0.2853
X-4.1928 Y4.189 I0.1043 J0.023
G1 X-4.1891 Y4.1928
G2 X-4.0905 Y4.2216 I0.0755 J-0.0756
X-3.93 Y4.1602 I-0.1247 J-0.567
G3 X-3.8943 Y4.1937 I0.0126 J0.0223
G2 X-3.945 Y4.3579 I0.5232 J0.2517
G1 Y4.358
G2 X-3.9099 Y4.4542 I0.1056 J0.016
G1 X-3.906 Y4.4577
X-3.9059 Y4.4578
G2 X-3.8057 Y4.4801 I0.0704 J-0.0803
X-3.6495 Y4.4083 I-0.1617 J-0.5576
G3 X-3.6117 Y4.4394 I0.014 J0.0215
G2 X-3.6516 Y4.6066 I0.5386 J0.2169
X-3.6102 Y4.7005 I0.1064 J0.0092
G1 X-3.606 Y4.7037
X-3.6059
G2 X-3.5046 Y4.7194 I0.065 J-0.0848
X-3.3534 Y4.6376 I-0.1977 J-0.5459
G3 X-3.3136 Y4.6661 I0.0154 J0.0205
G2 X-3.3425 Y4.8355 I0.5516 J0.1812
X-3.2951 Y4.9265 I0.1068 J0.0022
G1 X-3.2907 Y4.9294
X-3.2906 Y4.9295
G2 X-3.1883 Y4.9385 I0.0593 J-0.0888
X-3.0429 Y4.847 I-0.233 J-0.5318
G3 X-3.0013 Y4.8728 I0.0167 J0.0195
G2 X-3.019 Y5.0438 I0.5623 J0.1447
X-2.9657 Y5.1315 I0.1067 J-0.0048
G1 X-2.9656 Y5.1316
X-2.9611 Y5.1342
G2 X-2.8586 Y5.1365 I0.0534 J-0.0926
G1 X-2.8585
G2 X-2.7193 Y5.0356 I-0.2674 J-0.5154
G3 X-2.6762 Y5.0587 I0.018 J0.0183
G2 X-2.6827 Y5.2305 I0.5705 J0.1077
X-2.6239 Y5.3144 I0.1062 J-0.0118
G1 X-2.6193 Y5.3167
X-2.619 Y5.3169
G2 X-2.5165 Y5.3124 I0.0472 J-0.0959
X-2.3842 Y5.2027 I-0.3004 J-0.4968
G3 X-2.3396 Y5.2229 I0.0191 J0.0171
G2 X-2.3349 Y5.3947 I0.5763 J0.0701
G1 Y5.3948
G2 X-2.2707 Y5.4746 I0.1052 J-0.0188
G1 X-2.266 Y5.4766
X-2.2657 Y5.4767
G2 X-2.1636 Y5.4657 I0.0409 J-0.0987
X-2.0388 Y5.3475 I-0.3323 J-0.4761
G3 X-1.993 Y5.3647 I0.0202 J0.0158
G2 X-1.977 Y5.5358 I0.5797 J0.0323
X-1.9077 Y5.6115 I0.1038 J-0.0255
G1 X-1.9075
X-1.9025 Y5.6132
G2 X-1.8015 Y5.5954 I0.0342 J-0.1012
X-1.6847 Y5.4694 I-0.3627 J-0.4533
G3 X-1.6379 Y5.4836 I0.0212 J0.0145
G2 X-1.6107 Y5.6533 I0.5806 J-0.0057
G1 Y5.6534
G2 X-1.5366 Y5.7242 I0.1018 J-0.0324
G1 X-1.5315 Y5.7256
G2 X-1.4318 Y5.7013 I0.0277 J-0.1032
G1 X-1.4317
G2 X-1.3234 Y5.5679 I-0.3916 J-0.4286
G3 X-1.2757 Y5.579 I0.0221 J0.013
G2 X-1.2376 Y5.7465 I0.5789 J-0.0437
X-1.1589 Y5.8125 I0.0996 J-0.0388
G1 X-1.1588
X-1.1536 Y5.8135
G2 X-1.0558 Y5.7827 I0.0207 J-0.1048
X-0.9564 Y5.6425 I-0.4188 J-0.4021
G3 X-0.9081 Y5.6505 I0.0229 J0.0115
G2 X-0.8591 Y5.8152 I0.5749 J-0.0815
X-0.7763 Y5.8758 I0.0968 J-0.0453
G1 X-0.7759 Y5.8759
X-0.7708 Y5.8765
G2 X-0.6754 Y5.8395 I0.0138 J-0.106
G1 X-0.6753 Y5.8394
G2 X-0.5853 Y5.6929 I-0.4442 J-0.3738
G3 X-0.5366 Y5.6977 I0.0236 J0.0101
G2 X-0.4769 Y5.8589 I0.5683 J-0.1189
X-0.3904 Y5.914 I0.0936 J-0.0515
G1 X-0.3851 Y5.9144
X-0.385
G2 X-0.2919 Y5.871 I0.007 J-0.1066
X-0.2117 Y5.719 I-0.4677 J-0.344
G3 X-0.1628 Y5.7206 I0.0242 J0.0085
G2 X-0.0927 Y5.8776 I0.5593 J-0.1558
X-0.0027 Y5.9269 I0.09 J-0.0575
G1 X0.0026
G2 X0.0927 Y5.8776 I0. J-0.1068
X0.1628 Y5.7207 I-0.4892 J-0.3127
G3 X0.2117 Y5.719 I0.0247 J0.0069
G2 X0.2919 Y5.871 I0.5479 J-0.192
X0.385 Y5.9144 I0.0861 J-0.0633
G1 X0.3851
X0.3904 Y5.914
G2 X0.4769 Y5.8589 I-0.0071 J-0.1066
X0.5366 Y5.6977 I-0.5086 J-0.28
G3 X0.5853 Y5.6929 I0.0251 J0.0053
G2 X0.6753 Y5.8394 I0.5342 J-0.2274
G1 X0.6754 Y5.8395
G2 X0.7708 Y5.8765 I0.0817 J-0.0689
G1 X0.7759 Y5.8759
X0.7763 Y5.8758
G2 X0.8591 Y5.8152 I-0.014 J-0.1059
X0.9081 Y5.6505 I-0.5258 J-0.2462
G3 X0.9564 Y5.6425 I0.0254 J0.0036
G2 X1.0558 Y5.7827 I0.5182 J-0.2619
X1.1536 Y5.8135 I0.0771 J-0.074
G1 X1.1588 Y5.8125
X1.1589
G2 X1.2376 Y5.7465 I-0.0209 J-0.1048
X1.2757 Y5.579 I-0.5408 J-0.2112
G3 X1.3234 Y5.5679 I0.0256 J0.0019
G2 X1.4317 Y5.7013 I0.5 J-0.2952
G1 X1.4318
G2 X1.5315 Y5.7256 I0.072 J-0.0789
G1 X1.5366 Y5.7242
G2 X1.6107 Y5.6534 I-0.0277 J-0.1032
G1 Y5.6533
G2 X1.6379 Y5.4836 I-0.5535 J-0.1754
G3 X1.6847 Y5.4694 I0.0257 J0.0003
G2 X1.8015 Y5.5954 I0.4795 J-0.3273
X1.9025 Y5.6132 I0.0668 J-0.0834
G1 X1.9075 Y5.6115
X1.9077
G2 X1.977 Y5.5358 I-0.0344 J-0.1012
X1.993 Y5.3647 I-0.5638 J-0.1388
G3 X2.0388 Y5.3475 I0.0256 J-0.0014
G2 X2.1636 Y5.4657 I0.4572 J-0.3579
X2.2657 Y5.4767 I0.0612 J-0.0876
G1 X2.266 Y5.4766
X2.2707 Y5.4746
G2 X2.3349 Y5.3948 I-0.0411 J-0.0986
G1 Y5.3947
G2 X2.3396 Y5.2229 I-0.5716 J-0.1017
G3 X2.3842 Y5.2027 I0.0255 J-0.0031
G2 X2.5165 Y5.3124 I0.4327 J-0.3871
X2.619 Y5.3169 I0.0553 J-0.0914
G1 X2.6193 Y5.3167
X2.6239 Y5.3144
G2 X2.6827 Y5.2305 I-0.0474 J-0.0957
X2.6762 Y5.0587 I-0.577 J-0.0641
G3 X2.7193 Y5.0356 I0.0252 J-0.0048
G2 X2.8585 Y5.1365 I0.4065 J-0.4145
G1 X2.8586
G2 X2.9611 Y5.1342 I0.0491 J-0.0949
G1 X2.9656 Y5.1316
X2.9657 Y5.1315
G2 X3.019 Y5.0438 I-0.0534 J-0.0925
X3.0013 Y4.8728 I-0.58 J-0.0262
G3 X3.0429 Y4.847 I0.0249 J-0.0064
G2 X3.1883 Y4.9385 I0.3785 J-0.4403
X3.2906 Y4.9295 I0.0429 J-0.0978
G1 X3.2907 Y4.9294
X3.2951 Y4.9265
G2 X3.3425 Y4.8355 I-0.0594 J-0.0888
X3.3136 Y4.6661 I-0.5805 J0.0118
G3 X3.3534 Y4.6376 I0.0244 J-0.008
G2 X3.5045 Y4.7194 I0.3489 J-0.4641
X3.6059 Y4.7037 I0.0364 J-0.1005
G1 X3.606
X3.6102 Y4.7005
G2 X3.6516 Y4.6066 I-0.0651 J-0.0847
X3.6117 Y4.4394 I-0.5785 J0.0497
G3 X3.6495 Y4.4083 I0.0238 J-0.0096
G2 X3.8057 Y4.4801 I0.3179 J-0.4858
X3.9059 Y4.4578 I0.0298 J-0.1026
G1 X3.906 Y4.4577
X3.9099 Y4.4542
G2 X3.945 Y4.358 I-0.0705 J-0.0803
G1 Y4.3579
G2 X3.8943 Y4.1937 I-0.574 J0.0875
G3 X3.93 Y4.1602 I0.0231 J-0.0111
G2 X4.0905 Y4.2216 I0.2853 J-0.5057
X4.189 Y4.1928 I0.023 J-0.1043
G1 X4.1928 Y4.1891
G2 X4.2216 Y4.0905 I-0.0756 J-0.0755
X4.1602 Y3.93 I-0.567 J0.1247
G3 X4.1937 Y3.8943 I0.0223 J-0.0126
G2 X4.3579 Y3.945 I0.2517 J-0.5232
G1 X4.358
G2 X4.4542 Y3.9099 I0.016 J-0.1056
G1 X4.4577 Y3.906
X4.4578 Y3.9059
G2 X4.4801 Y3.8057 I-0.0803 J-0.0704
X4.4083 Y3.6495 I-0.5576 J0.1617
G3 X4.4394 Y3.6117 I0.0215 J-0.014
G2 X4.6066 Y3.6516 I0.2169 J-0.5386
X4.7005 Y3.6102 I0.0092 J-0.1064
G1 X4.7037 Y3.606
Y3.6059
G2 X4.7194 Y3.5046 I-0.0848 J-0.065
X4.6376 Y3.3534 I-0.5459 J0.1977
G3 X4.6661 Y3.3136 I0.0205 J-0.0154
G2 X4.8355 Y3.3425 I0.1812 J-0.5516
X4.9265 Y3.2951 I0.0022 J-0.1068
G1 X4.9294 Y3.2907
X4.9295 Y3.2906
G2 X4.9385 Y3.1883 I-0.0888 J-0.0593
X4.847 Y3.0429 I-0.5318 J0.233
G3 X4.8728 Y3.0013 I0.0195 J-0.0167
G2 X5.0438 Y3.019 I0.1447 J-0.5623
X5.1315 Y2.9657 I-0.0048 J-0.1067
G1 X5.1316 Y2.9656
X5.1342 Y2.9611
G2 X5.1365 Y2.8586 I-0.0926 J-0.0534
G1 Y2.8585
G2 X5.0356 Y2.7193 I-0.5154 J0.2674
G3 X5.0587 Y2.6762 I0.0183 J-0.018
G2 X5.2305 Y2.6827 I0.1077 J-0.5705
X5.3144 Y2.6239 I-0.0118 J-0.1062
G1 X5.3167 Y2.6193
X5.3169 Y2.619
G2 X5.3124 Y2.5165 I-0.0959 J-0.0472
X5.2027 Y2.3842 I-0.4968 J0.3004
G3 X5.2229 Y2.3396 I0.0171 J-0.0191
G2 X5.3947 Y2.3349 I0.0701 J-0.5763
G1 X5.3948
G2 X5.4746 Y2.2707 I-0.0188 J-0.1052
G1 X5.4766 Y2.266
X5.4767 Y2.2657
G2 X5.4657 Y2.1636 I-0.0987 J-0.0409
X5.3475 Y2.0388 I-0.4761 J0.3323
G3 X5.3647 Y1.993 I0.0158 J-0.0202
G2 X5.5358 Y1.977 I0.0323 J-0.5797
X5.6115 Y1.9077 I-0.0255 J-0.1038
G1 Y1.9075
X5.6132 Y1.9025
G2 X5.5954 Y1.8015 I-0.1012 J-0.0342
X5.4694 Y1.6847 I-0.4533 J0.3627
G3 X5.4836 Y1.6379 I0.0145 J-0.0212
G2 X5.6533 Y1.6107 I-0.0057 J-0.5806
G1 X5.6534
G2 X5.7242 Y1.5366 I-0.0324 J-0.1018
G1 X5.7256 Y1.5315
G2 X5.7013 Y1.4318 I-0.1032 J-0.0277
G1 Y1.4317
G2 X5.5679 Y1.3234 I-0.4286 J0.3916
G3 X5.579 Y1.2757 I0.013 J-0.0221
G2 X5.7465 Y1.2376 I-0.0437 J-0.5789
X5.8125 Y1.1589 I-0.0388 J-0.0996
G1 Y1.1588
X5.8135 Y1.1536
G2 X5.7827 Y1.0558 I-0.1048 J-0.0207
X5.6425 Y0.9564 I-0.4021 J0.4188
G3 X5.6505 Y0.9081 I0.0115 J-0.0229
G2 X5.8152 Y0.8591 I-0.0815 J-0.5749
X5.8758 Y0.7763 I-0.0453 J-0.0968
G1 X5.8759 Y0.7759
X5.8765 Y0.7708
G2 X5.8395 Y0.6754 I-0.106 J-0.0138
G1 X5.8394 Y0.6753
G2 X5.6929 Y0.5853 I-0.3738 J0.4442
G3 X5.6977 Y0.5366 I0.0101 J-0.0236
G2 X5.8589 Y0.4769 I-0.1189 J-0.5683
X5.914 Y0.3904 I-0.0515 J-0.0936
G1 X5.9144 Y0.3851
Y0.385
G2 X5.871 Y0.2919 I-0.1066 J-0.007
X5.719 Y0.2117 I-0.344 J0.4677
G3 X5.7206 Y0.1628 I0.0085 J-0.0242
G2 X5.8776 Y0.0927 I-0.1558 J-0.5593
X5.9269 Y0.0027 I-0.0575 J-0.09
G1 Y-0.0026
G2 X5.8776 Y-0.0927 I-0.1068 J0.
X5.7207 Y-0.1628 I-0.3127 J0.4892
G3 X5.719 Y-0.2117 I0.0069 J-0.0247
G2 X5.871 Y-0.2919 I-0.192 J-0.5479
X5.9144 Y-0.385 I-0.0633 J-0.0861
G1 Y-0.3851
X5.914 Y-0.3904
G2 X5.8589 Y-0.4769 I-0.1066 J0.0071
X5.6977 Y-0.5366 I-0.28 J0.5086
G3 X5.6929 Y-0.5853 I0.0053 J-0.0251
G2 X5.8394 Y-0.6753 I-0.2274 J-0.5342
G1 X5.8395 Y-0.6754
G2 X5.8765 Y-0.7708 I-0.0689 J-0.0817
G1 X5.8759 Y-0.7759
X5.8758 Y-0.7763
G2 X5.8152 Y-0.8591 I-0.1059 J0.014
X5.6505 Y-0.9081 I-0.2462 J0.5258
G3 X5.6425 Y-0.9564 I0.0036 J-0.0254
G2 X5.7827 Y-1.0558 I-0.2619 J-0.5182
X5.8135 Y-1.1536 I-0.074 J-0.0771
G1 X5.8125 Y-1.1588
Y-1.1589
G2 X5.7465 Y-1.2376 I-0.1048 J0.0209
X5.579 Y-1.2757 I-0.2112 J0.5408
G3 X5.5679 Y-1.3234 I0.0019 J-0.0256
G2 X5.7013 Y-1.4317 I-0.2952 J-0.5
G1 Y-1.4318
G2 X5.7256 Y-1.5315 I-0.0789 J-0.072
G1 X5.7242 Y-1.5366
G2 X5.6534 Y-1.6107 I-0.1032 J0.0277
G1 X5.6533
G2 X5.4836 Y-1.6379 I-0.1754 J0.5535
G3 X5.4694 Y-1.6847 I0.0003 J-0.0257
G2 X5.5954 Y-1.8015 I-0.3273 J-0.4795
X5.6132 Y-1.9025 I-0.0834 J-0.0668
G1 X5.6115 Y-1.9075
Y-1.9077
G2 X5.5358 Y-1.977 I-0.1012 J0.0344
X5.3647 Y-1.993 I-0.1388 J0.5638
G3 X5.3475 Y-2.0388 I-0.0014 J-0.0256
G2 X5.4657 Y-2.1636 I-0.3579 J-0.4572
X5.4767 Y-2.2657 I-0.0876 J-0.0612
G1 X5.4766 Y-2.266
X5.4746 Y-2.2707
G2 X5.3948 Y-2.3349 I-0.0986 J0.0411
G1 X5.3947
G2 X5.2229 Y-2.3396 I-0.1017 J0.5716
G3 X5.2027 Y-2.3842 I-0.0031 J-0.0255
G2 X5.3124 Y-2.5165 I-0.3871 J-0.4327
X5.3169 Y-2.619 I-0.0914 J-0.0553
G1 X5.3167 Y-2.6193
X5.3144 Y-2.6239
G2 X5.2305 Y-2.6827 I-0.0957 J0.0474
X5.0587 Y-2.6762 I-0.0641 J0.577
G3 X5.0356 Y-2.7193 I-0.0048 J-0.0252
G2 X5.1365 Y-2.8585 I-0.4145 J-0.4065
G1 Y-2.8586
G2 X5.1342 Y-2.9611 I-0.0949 J-0.0491
G1 X5.1316 Y-2.9656
X5.1315 Y-2.9657
G2 X5.0438 Y-3.019 I-0.0925 J0.0534
X4.8728 Y-3.0013 I-0.0262 J0.58
G3 X4.847 Y-3.0429 I-0.0064 J-0.0249
G2 X4.9385 Y-3.1883 I-0.4403 J-0.3785
X4.9295 Y-3.2906 I-0.0978 J-0.0429
G1 X4.9294 Y-3.2907
X4.9265 Y-3.2951
G2 X4.8355 Y-3.3425 I-0.0888 J0.0594
X4.6661 Y-3.3136 I0.0118 J0.5805
G3 X4.6376 Y-3.3534 I-0.008 J-0.0244
G2 X4.7194 Y-3.5045 I-0.4641 J-0.3489
X4.7037 Y-3.6059 I-0.1005 J-0.0364
G1 Y-3.606
X4.7005 Y-3.6102
G2 X4.6066 Y-3.6516 I-0.0847 J0.0651
X4.4394 Y-3.6117 I0.0497 J0.5785
G3 X4.4083 Y-3.6495 I-0.0096 J-0.0238
G2 X4.4801 Y-3.8057 I-0.4858 J-0.3179
X4.4578 Y-3.9059 I-0.1026 J-0.0298
G1 X4.4577 Y-3.906
X4.4542 Y-3.9099
G2 X4.358 Y-3.945 I-0.0803 J0.0705
G1 X4.3579
G2 X4.1937 Y-3.8943 I0.0875 J0.574
G3 X4.1602 Y-3.93 I-0.0111 J-0.0231
G2 X4.2216 Y-4.0905 I-0.5057 J-0.2853
X4.1928 Y-4.189 I-0.1043 J-0.023
G1 X4.1891 Y-4.1928
G2 X4.0905 Y-4.2216 I-0.0755 J0.0756
X3.93 Y-4.1602 I0.1247 J0.567
G3 X3.8943 Y-4.1937 I-0.0126 J-0.0223
G2 X3.945 Y-4.3579 I-0.5232 J-0.2517
G1 Y-4.358
G2 X3.9099 Y-4.4542 I-0.1056 J-0.016
G1 X3.906 Y-4.4577
X3.9059 Y-4.4578
G2 X3.8057 Y-4.4801 I-0.0704 J0.0803
X3.6495 Y-4.4083 I0.1617 J0.5576
G3 X3.6117 Y-4.4394 I-0.014 J-0.0215
G2 X3.6516 Y-4.6066 I-0.5386 J-0.2169
X3.6102 Y-4.7005 I-0.1064 J-0.0092
G1 X3.606 Y-4.7037
X3.6059
G2 X3.5046 Y-4.7194 I-0.065 J0.0848
X3.3534 Y-4.6376 I0.1977 J0.5459
G3 X3.3136 Y-4.6661 I-0.0154 J-0.0205
G2 X3.3425 Y-4.8355 I-0.5516 J-0.1812
X3.2951 Y-4.9265 I-0.1068 J-0.0022
G1 X3.2907 Y-4.9294
X3.2906 Y-4.9295
G2 X3.1883 Y-4.9385 I-0.0593 J0.0888
X3.0429 Y-4.847 I0.233 J0.5318
G3 X3.0013 Y-4.8728 I-0.0167 J-0.0195
G2 X3.019 Y-5.0438 I-0.5623 J-0.1447
X2.9657 Y-5.1315 I-0.1067 J0.0048
G1 X2.9656 Y-5.1316
X2.9611 Y-5.1342
G2 X2.8586 Y-5.1365 I-0.0534 J0.0926
G1 X2.8585
G2 X2.7193 Y-5.0356 I0.2674 J0.5154
G3 X2.6762 Y-5.0587 I-0.018 J-0.0183
G2 X2.6827 Y-5.2305 I-0.5705 J-0.1077
X2.6239 Y-5.3144 I-0.1062 J0.0118
G1 X2.6193 Y-5.3167
X2.619 Y-5.3169
G2 X2.5165 Y-5.3124 I-0.0472 J0.0959
X2.3842 Y-5.2027 I0.3004 J0.4968
G3 X2.3396 Y-5.2229 I-0.0191 J-0.0171
G2 X2.3349 Y-5.3947 I-0.5763 J-0.0701
G1 Y-5.3948
G2 X2.2707 Y-5.4746 I-0.1052 J0.0188
G1 X2.266 Y-5.4766
X2.2657 Y-5.4767
G2 X2.1636 Y-5.4657 I-0.0409 J0.0987
X2.0388 Y-5.3475 I0.3323 J0.4761
G3 X1.993 Y-5.3647 I-0.0202 J-0.0158
G2 X1.977 Y-5.5358 I-0.5797 J-0.0323
X1.9077 Y-5.6115 I-0.1038 J0.0255
G1 X1.9075
X1.9025 Y-5.6132
G2 X1.8015 Y-5.5954 I-0.0342 J0.1012
X1.6847 Y-5.4694 I0.3627 J0.4533
G3 X1.6379 Y-5.4836 I-0.0212 J-0.0145
G2 X1.6107 Y-5.6533 I-0.5806 J0.0057
G1 Y-5.6534
G2 X1.5366 Y-5.7242 I-0.1018 J0.0324
G1 X1.5315 Y-5.7256
G2 X1.4318 Y-5.7013 I-0.0277 J0.1032
G1 X1.4317
G2 X1.3234 Y-5.5679 I0.3916 J0.4286
G3 X1.2757 Y-5.579 I-0.0221 J-0.013
G2 X1.2376 Y-5.7465 I-0.5789 J0.0437
X1.1589 Y-5.8125 I-0.0996 J0.0388
G1 X1.1588
X1.1536 Y-5.8135
G2 X1.0558 Y-5.7827 I-0.0207 J0.1048
X0.9564 Y-5.6425 I0.4188 J0.4021
G3 X0.9081 Y-5.6505 I-0.0229 J-0.0115
G2 X0.8591 Y-5.8152 I-0.5749 J0.0815
X0.7763 Y-5.8758 I-0.0968 J0.0453
G1 X0.7759 Y-5.8759
X0.7708 Y-5.8765
G2 X0.6754 Y-5.8395 I-0.0138 J0.106
G1 X0.6753 Y-5.8394
G2 X0.5853 Y-5.6929 I0.4442 J0.3738
G3 X0.5366 Y-5.6977 I-0.0236 J-0.0101
G2 X0.4769 Y-5.8589 I-0.5683 J0.1189
X0.3904 Y-5.914 I-0.0936 J0.0515
G1 X0.3851 Y-5.9144
X0.385
G2 X0.2919 Y-5.871 I-0.007 J0.1066
X0.2117 Y-5.719 I0.4677 J0.344
G3 X0.1628 Y-5.7206 I-0.0242 J-0.0085
G2 X0.0927 Y-5.8776 I-0.5593 J0.1558
X0.0027 Y-5.9269 I-0.09 J0.0575
G1 X-0.0026
G2 X-0.0927 Y-5.8776 I0. J0.1068
X-0.1628 Y-5.7207 I0.4892 J0.3127
G3 X-0.2117 Y-5.719 I-0.0247 J-0.0069
G2 X-0.2919 Y-5.871 I-0.5479 J0.192
X-0.385 Y-5.9144 I-0.0861 J0.0633
G1 X-0.3851
X-0.3904 Y-5.914
G2 X-0.4769 Y-5.8589 I0.0071 J0.1066
X-0.5366 Y-5.6977 I0.5086 J0.28
G3 X-0.5853 Y-5.6929 I-0.0251 J-0.0053
G2 X-0.6753 Y-5.8394 I-0.5342 J0.2274
G1 X-0.6754 Y-5.8395
G2 X-0.7708 Y-5.8765 I-0.0817 J0.0689
G1 X-0.7759 Y-5.8759
X-0.7763 Y-5.8758
G2 X-0.8591 Y-5.8152 I0.014 J0.1059
X-0.9081 Y-5.6505 I0.5258 J0.2462
G3 X-0.9564 Y-5.6425 I-0.0254 J-0.0036
G2 X-1.0558 Y-5.7827 I-0.5182 J0.2619
X-1.1536 Y-5.8135 I-0.0771 J0.074
G1 X-1.1588 Y-5.8125
X-1.1589
G2 X-1.2376 Y-5.7465 I0.0209 J0.1048
X-1.2757 Y-5.579 I0.5408 J0.2112
G3 X-1.3234 Y-5.5679 I-0.0256 J-0.0019
G2 X-1.4317 Y-5.7013 I-0.5 J0.2952
G1 X-1.4318
G2 X-1.5315 Y-5.7256 I-0.072 J0.0789
G1 X-1.5366 Y-5.7242
G2 X-1.6107 Y-5.6534 I0.0277 J0.1032
G1 Y-5.6533
G2 X-1.6379 Y-5.4836 I0.5535 J0.1754
G3 X-1.6847 Y-5.4694 I-0.0257 J-0.0003
G2 X-1.8015 Y-5.5954 I-0.4795 J0.3273
X-1.9025 Y-5.6132 I-0.0668 J0.0834
G1 X-1.9075 Y-5.6115
X-1.9077
G2 X-1.977 Y-5.5358 I0.0344 J0.1012
X-1.993 Y-5.3647 I0.5638 J0.1388
G3 X-2.0388 Y-5.3475 I-0.0256 J0.0014
G2 X-2.1636 Y-5.4657 I-0.4572 J0.3579
X-2.2657 Y-5.4767 I-0.0612 J0.0876
G1 X-2.266 Y-5.4766
X-2.2707 Y-5.4746
G2 X-2.3349 Y-5.3948 I0.0411 J0.0986
G1 Y-5.3947
G2 X-2.3396 Y-5.2229 I0.5716 J0.1017
G3 X-2.3842 Y-5.2027 I-0.0255 J0.0031
G2 X-2.5165 Y-5.3124 I-0.4327 J0.3871
X-2.619 Y-5.3169 I-0.0553 J0.0914
G1 X-2.6193 Y-5.3167
X-2.6239 Y-5.3144
G2 X-2.6827 Y-5.2305 I0.0474 J0.0957
X-2.6762 Y-5.0587 I0.577 J0.0641
G3 X-2.7193 Y-5.0356 I-0.0252 J0.0048
G2 X-2.8585 Y-5.1365 I-0.4065 J0.4145
G1 X-2.8586
G2 X-2.9611 Y-5.1342 I-0.0491 J0.0949
G1 X-2.9656 Y-5.1316
X-2.9657 Y-5.1315
G2 X-3.019 Y-5.0438 I0.0534 J0.0925
X-3.0013 Y-4.8728 I0.58 J0.0262
G3 X-3.0429 Y-4.847 I-0.0249 J0.0064
G2 X-3.1883 Y-4.9385 I-0.3785 J0.4403
X-3.2906 Y-4.9295 I-0.0429 J0.0978
G1 X-3.2907 Y-4.9294
X-3.2951 Y-4.9265
G2 X-3.3425 Y-4.8355 I0.0594 J0.0888
X-3.3136 Y-4.6661 I0.5805 J-0.0118
G3 X-3.3534 Y-4.6376 I-0.0244 J0.008
G2 X-3.5045 Y-4.7194 I-0.3489 J0.4641
X-3.6059 Y-4.7037 I-0.0364 J0.1005
G1 X-3.606
X-3.6102 Y-4.7005
G2 X-3.6516 Y-4.6066 I0.0651 J0.0847
X-3.6117 Y-4.4394 I0.5785 J-0.0497
G3 X-3.6495 Y-4.4083 I-0.0238 J0.0096
G2 X-3.8057 Y-4.4801 I-0.3179 J0.4858
X-3.9059 Y-4.4578 I-0.0298 J0.1026
G1 X-3.906 Y-4.4577
X-3.9099 Y-4.4542
G2 X-3.945 Y-4.358 I0.0705 J0.0803
G1 Y-4.3579
G2 X-3.8943 Y-4.1937 I0.574 J-0.0875
G3 X-3.93 Y-4.1602 I-0.0231 J0.0111
G2 X-4.0905 Y-4.2216 I-0.2853 J0.5057
X-4.189 Y-4.1928 I-0.023 J0.1043
G1 X-4.1928 Y-4.1891
G2 X-4.2216 Y-4.0905 I0.0756 J0.0755
X-4.1602 Y-3.93 I0.567 J-0.1247
G3 X-4.1937 Y-3.8943 I-0.0223 J0.0126
G2 X-4.3579 Y-3.945 I-0.2517 J0.5232
G1 X-4.358
G2 X-4.4542 Y-3.9099 I-0.016 J0.1056
G1 X-4.4577 Y-3.906
X-4.4578 Y-3.9059
G2 X-4.4801 Y-3.8057 I0.0803 J0.0704
X-4.4083 Y-3.6495 I0.5576 J-0.1617
G3 X-4.4394 Y-3.6117 I-0.0215 J0.014
G2 X-4.6066 Y-3.6516 I-0.2169 J0.5386
X-4.7005 Y-3.6102 I-0.0092 J0.1064
G1 X-4.7037 Y-3.606
Y-3.6059
G2 X-4.7194 Y-3.5046 I0.0848 J0.065
X-4.6376 Y-3.3534 I0.5459 J-0.1977
G3 X-4.6661 Y-3.3136 I-0.0205 J0.0154
G2 X-4.8355 Y-3.3425 I-0.1812 J0.5516
X-4.9265 Y-3.2951 I-0.0022 J0.1068
G1 X-4.9294 Y-3.2907
X-4.9295 Y-3.2906
G2 X-4.9385 Y-3.1883 I0.0888 J0.0593
X-4.847 Y-3.0429 I0.5318 J-0.233
G3 X-4.8728 Y-3.0013 I-0.0195 J0.0167
G2 X-5.0438 Y-3.019 I-0.1447 J0.5623
X-5.1315 Y-2.9657 I0.0048 J0.1067
G1 X-5.1316 Y-2.9656
X-5.1342 Y-2.9611
G2 X-5.1365 Y-2.8586 I0.0926 J0.0534
G1 Y-2.8585
G2 X-5.0356 Y-2.7193 I0.5154 J-0.2674
G3 X-5.0587 Y-2.6762 I-0.0183 J0.018
G2 X-5.2305 Y-2.6827 I-0.1077 J0.5705
X-5.3144 Y-2.6239 I0.0118 J0.1062
G1 X-5.3167 Y-2.6193
X-5.3169 Y-2.619
G2 X-5.3124 Y-2.5165 I0.0959 J0.0472
X-5.2027 Y-2.3842 I0.4968 J-0.3004
G3 X-5.2229 Y-2.3396 I-0.0171 J0.0191
G2 X-5.3947 Y-2.3349 I-0.0701 J0.5763
G1 X-5.3948
G2 X-5.4746 Y-2.2707 I0.0188 J0.1052
G1 X-5.4766 Y-2.266
X-5.4767 Y-2.2657
G2 X-5.4657 Y-2.1636 I0.0987 J0.0409
X-5.3475 Y-2.0388 I0.4761 J-0.3323
G3 X-5.3647 Y-1.993 I-0.0158 J0.0202
G2 X-5.5358 Y-1.977 I-0.0323 J0.5797
X-5.6115 Y-1.9077 I0.0255 J0.1038
G1 Y-1.9075
X-5.6132 Y-1.9025
G2 X-5.5954 Y-1.8015 I0.1012 J0.0342
X-5.4694 Y-1.6847 I0.4533 J-0.3627
G3 X-5.4836 Y-1.6379 I-0.0145 J0.0212
G2 X-5.6533 Y-1.6107 I0.0057 J0.5806
G1 X-5.6534
G2 X-5.7242 Y-1.5366 I0.0324 J0.1018
G1 X-5.7256 Y-1.5315
G2 X-5.7013 Y-1.4318 I0.1032 J0.0277
G1 Y-1.4317
G2 X-5.5679 Y-1.3234 I0.4286 J-0.3916
G3 X-5.579 Y-1.2757 I-0.013 J0.0221
G2 X-5.7465 Y-1.2376 I0.0437 J0.5789
X-5.8125 Y-1.1589 I0.0388 J0.0996
G1 Y-1.1588
X-5.8135 Y-1.1536
G2 X-5.7827 Y-1.0558 I0.1048 J0.0207
X-5.6425 Y-0.9564 I0.4021 J-0.4188
G3 X-5.6505 Y-0.9081 I-0.0115 J0.0229
G2 X-5.8152 Y-0.8591 I0.0815 J0.5749
X-5.8758 Y-0.7763 I0.0453 J0.0968
G1 X-5.8759 Y-0.7759
X-5.8765 Y-0.7708
G2 X-5.8395 Y-0.6754 I0.106 J0.0138
G1 X-5.8394 Y-0.6753
G2 X-5.6929 Y-0.5853 I0.3738 J-0.4442
G3 X-5.6977 Y-0.5366 I-0.0101 J0.0236
G2 X-5.8589 Y-0.4769 I0.1189 J0.5683
X-5.914 Y-0.3904 I0.0515 J0.0936
G1 X-5.9144 Y-0.3851
Y-0.385
G2 X-5.871 Y-0.2919 I0.1066 J0.007
X-5.719 Y-0.2117 I0.344 J-0.4677
G3 X-5.7206 Y-0.1628 I-0.0085 J0.0242
G2 X-5.8776 Y-0.0927 I0.1558 J0.5593
X-5.9269 Y-0.0027 I0.0575 J0.09
G1 Y0.
Y0.0026
G2 X-5.8776 Y0.0927 I0.1068 J0.
X-5.7207 Y0.1628 I0.3127 J-0.4892
G3 X-5.719 Y0.2117 I-0.0069 J0.0247
G2 X-5.871 Y0.2919 I0.192 J0.5479
X-5.9144 Y0.385 I0.0633 J0.0861
G1 Y0.3851
X-5.914 Y0.3904
G2 X-5.8589 Y0.4769 I0.1066 J-0.0071
X-5.6977 Y0.5366 I0.28 J-0.5086
G3 X-5.6929 Y0.5853 I-0.0053 J0.0251
G2 X-5.8394 Y0.6753 I0.2274 J0.5342
G1 X-5.8395 Y0.6754
G2 X-5.8765 Y0.7708 I0.0689 J0.0817
G1 X-5.8759 Y0.7759
X-5.8758 Y0.7763
G2 X-5.8152 Y0.8591 I0.1059 J-0.014
X-5.6505 Y0.9081 I0.2462 J-0.5258
G3 X-5.6425 Y0.9564 I-0.0036 J0.0254
G2 X-5.7827 Y1.0558 I0.2619 J0.5182
X-5.8135 Y1.1536 I0.074 J0.0771
G1 X-5.8125 Y1.1588
Y1.1589
G2 X-5.7465 Y1.2376 I0.1048 J-0.0209
X-5.6589 Y1.264 I0.2112 J-0.5408
G0 Z0.6
M9
G53 Z0.
M30
%
