%
(971-23-P-0058_DISTAL SPROCKET_FIRST 1540)
(T1  D=0.154 CR=0. - ZMIN=-0.2175 - FLAT END MILL)
G90 G94 G17 G91.1
G64 P0.001 Q0.001
G20
G53 G0 Z0.
(.3 CIRCLUAR THROUGH HOLE 2)
M9
T1 M6
S22000 M3
G4 P10.
G54
M7
G0 X-2.9681 Y-2.3462
G43 Z0.6 H1
G0 Z0.0092
G1 Z-0.0554 F40.
G19 G2 Y-2.3616 Z-0.0708 J-0.0154 K0.
G1 Y-2.3693
G17 G3 X-2.9563 Y-2.3811 I0.0118 J0.
Y-2.3341 Z-0.0885 I0. J0.0235
Y-2.3811 Z-0.1062 I0. J-0.0235
Y-2.3341 Z-0.124 I0. J0.0235
Y-2.3811 Z-0.1417 I0. J-0.0235
Y-2.3341 Z-0.1594 I0. J0.0235
Y-2.3811 Z-0.1771 I0. J-0.0235
Y-2.3341 Z-0.1948 I0. J0.0235
Y-2.3811 Z-0.2126 I0. J-0.0235
X-2.9382 Y-2.3726 Z-0.2175 I0. J0.0235
X-2.9744 Y-2.3425 I-0.0181 J0.015
X-2.9382 Y-2.3726 I0.0181 J-0.015
X-2.9398 Y-2.3561 I-0.009 J0.0075
G1 X-2.9457 Y-2.3511
X-2.948 Y-2.3492 Z-0.2172
X-2.9502 Y-2.3474 Z-0.2163
X-2.9522 Y-2.3457 Z-0.2149
X-2.954 Y-2.3442 Z-0.213
X-2.9555 Y-2.3429 Z-0.2107
X-2.9566 Y-2.342 Z-0.208
X-2.9573 Y-2.3415 Z-0.2051
X-2.9575 Y-2.3413 Z-0.2021
G0 Z0.4
X-1.649 Y-3.4075
Z0.1146
G1 Z0.05 F40.
Y-3.4152
G3 X-1.6406 Y-3.4235 I0.0084 J0.
Y-3.39 Z0.0335 I0. J0.0168
Y-3.4235 Z0.0169 I0. J-0.0168
Y-3.39 Z0.0004 I0. J0.0168
Y-3.4235 Z-0.0161 I0. J-0.0168
Y-3.39 Z-0.0327 I0. J0.0168
Y-3.4235 Z-0.0492 I0. J-0.0168
Y-3.39 Z-0.0657 I0. J0.0168
Y-3.4235 Z-0.0822 I0. J-0.0168
Y-3.39 Z-0.0988 I0. J0.0168
Y-3.4235 Z-0.1153 I0. J-0.0168
Y-3.39 Z-0.1318 I0. J0.0168
Y-3.4235 Z-0.1484 I0. J-0.0168
Y-3.39 Z-0.1649 I0. J0.0168
Y-3.4235 Z-0.1814 I0. J-0.0168
Y-3.39 Z-0.198 I0. J0.0168
Y-3.4235 Z-0.2145 I0. J-0.0168
X-1.6316 Y-3.4209 Z-0.2175 I0. J0.0168
X-1.6497 Y-3.3927 I-0.0091 J0.0141
X-1.6316 Y-3.4209 I0.0091 J-0.0141
X-1.629 Y-3.4093 I-0.0045 J0.007
G1 X-1.6332 Y-3.4028
G0 Z0.4
X-0.0117 Y-3.7699
Z0.0092
G1 Z-0.0554 F40.
G19 G2 Y-3.7853 Z-0.0708 J-0.0154 K0.
G1 Y-3.793
G17 G3 X0. Y-3.8047 I0.0117 J0.
Y-3.7577 Z-0.0885 I0. J0.0235
Y-3.8047 Z-0.1062 I0. J-0.0235
Y-3.7577 Z-0.124 I0. J0.0235
Y-3.8047 Z-0.1417 I0. J-0.0235
Y-3.7577 Z-0.1594 I0. J0.0235
Y-3.8047 Z-0.1771 I0. J-0.0235
Y-3.7577 Z-0.1948 I0. J0.0235
Y-3.8047 Z-0.2126 I0. J-0.0235
X0.0181 Y-3.7963 Z-0.2175 I0. J0.0235
X-0.0181 Y-3.7662 I-0.0181 J0.015
X0.0181 Y-3.7963 I0.0181 J-0.015
X0.0165 Y-3.7797 I-0.009 J0.0075
G1 X0.0106 Y-3.7748
X0.0083 Y-3.7729 Z-0.2172
X0.0061 Y-3.771 Z-0.2163
X0.0041 Y-3.7693 Z-0.2149
X0.0023 Y-3.7678 Z-0.213
X0.0008 Y-3.7666 Z-0.2107
X-0.0003 Y-3.7657 Z-0.208
X-0.001 Y-3.7651 Z-0.2051
X-0.0012 Y-3.765 Z-0.2021
G0 Z0.4
X1.6322 Y-3.4075
Z0.1146
G1 Z0.05 F40.
Y-3.4152
G3 X1.6406 Y-3.4235 I0.0084 J0.
Y-3.39 Z0.0335 I0. J0.0168
Y-3.4235 Z0.0169 I0. J-0.0168
Y-3.39 Z0.0004 I0. J0.0168
Y-3.4235 Z-0.0161 I0. J-0.0168
Y-3.39 Z-0.0327 I0. J0.0168
Y-3.4235 Z-0.0492 I0. J-0.0168
Y-3.39 Z-0.0657 I0. J0.0168
Y-3.4235 Z-0.0822 I0. J-0.0168
Y-3.39 Z-0.0988 I0. J0.0168
Y-3.4235 Z-0.1153 I0. J-0.0168
Y-3.39 Z-0.1318 I0. J0.0168
Y-3.4235 Z-0.1484 I0. J-0.0168
Y-3.39 Z-0.1649 I0. J0.0168
Y-3.4235 Z-0.1814 I0. J-0.0168
Y-3.39 Z-0.198 I0. J0.0168
Y-3.4235 Z-0.2145 I0. J-0.0168
X1.6497 Y-3.4209 Z-0.2175 I0. J0.0168
X1.6316 Y-3.3927 I-0.0091 J0.0141
X1.6497 Y-3.4209 I0.0091 J-0.0141
X1.6522 Y-3.4093 I-0.0045 J0.007
G1 X1.648 Y-3.4028
G0 Z0.4
X2.9446 Y-2.3462
Z0.0092
G1 Z-0.0554 F40.
G19 G2 Y-2.3616 Z-0.0708 J-0.0154 K0.
G1 Y-2.3693
G17 G3 X2.9563 Y-2.3811 I0.0117 J0.
Y-2.3341 Z-0.0885 I0. J0.0235
Y-2.3811 Z-0.1062 I0. J-0.0235
Y-2.3341 Z-0.124 I0. J0.0235
Y-2.3811 Z-0.1417 I0. J-0.0235
Y-2.3341 Z-0.1594 I0. J0.0235
Y-2.3811 Z-0.1771 I0. J-0.0235
Y-2.3341 Z-0.1948 I0. J0.0235
Y-2.3811 Z-0.2126 I0. J-0.0235
X2.9744 Y-2.3726 Z-0.2175 I0. J0.0235
X2.9382 Y-2.3425 I-0.0181 J0.015
X2.9744 Y-2.3726 I0.0181 J-0.015
X2.9728 Y-2.3561 I-0.009 J0.0075
G1 X2.9669 Y-2.3511
X2.9646 Y-2.3492 Z-0.2172
X2.9624 Y-2.3474 Z-0.2163
X2.9604 Y-2.3457 Z-0.2149
X2.9586 Y-2.3442 Z-0.213
X2.9571 Y-2.3429 Z-0.2107
X2.956 Y-2.342 Z-0.208
X2.9553 Y-2.3415 Z-0.2051
X2.9551 Y-2.3413 Z-0.2021
G0 Z0.4
X3.8008 Y-0.3328
Z0.1146
G1 Z0.05 F40.
Y-0.3405
G3 X3.8092 Y-0.3489 I0.0084 J0.
Y-0.3154 Z0.0335 I0. J0.0168
Y-0.3489 Z0.0169 I0. J-0.0168
Y-0.3154 Z0.0004 I0. J0.0168
Y-0.3489 Z-0.0161 I0. J-0.0168
Y-0.3154 Z-0.0327 I0. J0.0168
Y-0.3489 Z-0.0492 I0. J-0.0168
Y-0.3154 Z-0.0657 I0. J0.0168
Y-0.3489 Z-0.0822 I0. J-0.0168
Y-0.3154 Z-0.0988 I0. J0.0168
Y-0.3489 Z-0.1153 I0. J-0.0168
Y-0.3154 Z-0.1318 I0. J0.0168
Y-0.3489 Z-0.1484 I0. J-0.0168
Y-0.3154 Z-0.1649 I0. J0.0168
Y-0.3489 Z-0.1814 I0. J-0.0168
Y-0.3154 Z-0.198 I0. J0.0168
Y-0.3489 Z-0.2145 I0. J-0.0168
X3.8183 Y-0.3462 Z-0.2175 I0. J0.0168
X3.8001 Y-0.318 I-0.0091 J0.0141
X3.8183 Y-0.3462 I0.0091 J-0.0141
X3.8208 Y-0.3346 I-0.0045 J0.007
G1 X3.8166 Y-0.3281
G0 Z0.4
X3.6747 Y0.8528
Z0.0092
G1 Z-0.0554 F40.
G19 G2 Y0.8374 Z-0.0708 J-0.0154 K0.
G1 Y0.8297
G17 G3 X3.6864 Y0.8179 I0.0118 J0.
Y0.8649 Z-0.0885 I0. J0.0235
Y0.8179 Z-0.1062 I0. J-0.0235
Y0.8649 Z-0.124 I0. J0.0235
Y0.8179 Z-0.1417 I0. J-0.0235
Y0.8649 Z-0.1594 I0. J0.0235
Y0.8179 Z-0.1771 I0. J-0.0235
Y0.8649 Z-0.1948 I0. J0.0235
Y0.8179 Z-0.2126 I0. J-0.0235
X3.7045 Y0.8264 Z-0.2175 I0. J0.0235
X3.6684 Y0.8564 I-0.0181 J0.015
X3.7045 Y0.8264 I0.0181 J-0.015
X3.703 Y0.8429 I-0.009 J0.0075
G1 X3.6971 Y0.8478
X3.6948 Y0.8498 Z-0.2172
X3.6925 Y0.8516 Z-0.2163
X3.6905 Y0.8533 Z-0.2149
X3.6887 Y0.8548 Z-0.213
X3.6872 Y0.856 Z-0.2107
X3.6861 Y0.8569 Z-0.208
X3.6855 Y0.8575 Z-0.2051
X3.6852 Y0.8577 Z-0.2021
G0 Z0.4
X2.9479 Y2.3569
Z0.1146
G1 Z0.05 F40.
Y2.3492
G3 X2.9563 Y2.3408 I0.0084 J0.
Y2.3743 Z0.0335 I0. J0.0167
Y2.3408 Z0.0169 I0. J-0.0167
Y2.3743 Z0.0004 I0. J0.0167
Y2.3408 Z-0.0161 I0. J-0.0167
Y2.3743 Z-0.0327 I0. J0.0167
Y2.3408 Z-0.0492 I0. J-0.0167
Y2.3743 Z-0.0657 I0. J0.0167
Y2.3408 Z-0.0822 I0. J-0.0167
Y2.3743 Z-0.0988 I0. J0.0168
Y2.3408 Z-0.1153 I0. J-0.0168
Y2.3743 Z-0.1318 I0. J0.0168
Y2.3408 Z-0.1484 I0. J-0.0168
Y2.3743 Z-0.1649 I0. J0.0168
Y2.3408 Z-0.1814 I0. J-0.0168
Y2.3743 Z-0.198 I0. J0.0168
Y2.3408 Z-0.2145 I0. J-0.0168
X2.9654 Y2.3435 Z-0.2175 I0. J0.0168
X2.9472 Y2.3717 I-0.0091 J0.0141
X2.9654 Y2.3435 I0.0091 J-0.0141
X2.9679 Y2.3551 I-0.0045 J0.007
G1 X2.9637 Y2.3615
G0 Z0.4
X1.6289 Y3.4181
Z0.0092
G1 Z-0.0554 F40.
G19 G2 Y3.4027 Z-0.0708 J-0.0154 K0.
G1 Y3.395
G17 G3 X1.6406 Y3.3833 I0.0118 J0.
Y3.4303 Z-0.0885 I0. J0.0235
Y3.3833 Z-0.1062 I0. J-0.0235
Y3.4303 Z-0.124 I0. J0.0235
Y3.3833 Z-0.1417 I0. J-0.0235
Y3.4303 Z-0.1594 I0. J0.0235
Y3.3833 Z-0.1771 I0. J-0.0235
Y3.4303 Z-0.1948 I0. J0.0235
Y3.3833 Z-0.2126 I0. J-0.0235
X1.6587 Y3.3918 Z-0.2175 I0. J0.0235
X1.6226 Y3.4218 I-0.0181 J0.015
X1.6587 Y3.3918 I0.0181 J-0.015
X1.6572 Y3.4083 I-0.009 J0.0075
G1 X1.6513 Y3.4132
X1.6489 Y3.4151 Z-0.2172
X1.6467 Y3.417 Z-0.2163
X1.6447 Y3.4187 Z-0.2149
X1.6429 Y3.4202 Z-0.213
X1.6414 Y3.4214 Z-0.2107
X1.6403 Y3.4223 Z-0.208
X1.6396 Y3.4229 Z-0.2051
X1.6394 Y3.4231 Z-0.2021
G0 Z0.4
X-0.0117 Y3.8484
Z0.13
G1 Z0.0654 F40.
G19 G2 Y3.833 Z0.05 J-0.0154 K0.
G1 Y3.8252
G17 G3 X0. Y3.8135 I0.0117 J0.
Y3.8605 Z0.0323 I0. J0.0235
Y3.8135 Z0.0146 I0. J-0.0235
Y3.8605 Z-0.0032 I0. J0.0235
Y3.8135 Z-0.0209 I0. J-0.0235
Y3.8605 Z-0.0386 I0. J0.0235
Y3.8135 Z-0.0563 I0. J-0.0235
Y3.8605 Z-0.074 I0. J0.0235
Y3.8135 Z-0.0918 I0. J-0.0235
Y3.8605 Z-0.1095 I0. J0.0235
Y3.8135 Z-0.1272 I0. J-0.0235
Y3.8605 Z-0.1449 I0. J0.0235
Y3.8135 Z-0.1627 I0. J-0.0235
Y3.8605 Z-0.1804 I0. J0.0235
Y3.8135 Z-0.1981 I0. J-0.0235
X0.0232 Y3.8405 Z-0.2078 I0. J0.0235
X-0.0069 Y3.8595 Z-0.2175 I-0.0232 J-0.0035
X0.0069 Y3.8145 I0.0069 J-0.0225
X-0.0069 Y3.8595 I-0.0069 J0.0225
X-0.0147 Y3.8448 I0.0035 J-0.0112
G1 X-0.0124 Y3.8374
X-0.0115 Y3.8345 Z-0.2172
X-0.0107 Y3.8318 Z-0.2163
X-0.0099 Y3.8292 Z-0.2149
X-0.0092 Y3.827 Z-0.213
X-0.0086 Y3.8252 Z-0.2107
X-0.0082 Y3.8238 Z-0.208
X-0.008 Y3.823 Z-0.2051
X-0.0079 Y3.8227 Z-0.2021
G0 Z0.4
X-1.6524 Y3.4181
Z0.0092
G1 Z-0.0554 F40.
G19 G2 Y3.4027 Z-0.0708 J-0.0154 K0.
G1 Y3.395
G17 G3 X-1.6406 Y3.3833 I0.0118 J0.
Y3.4303 Z-0.0885 I0. J0.0235
Y3.3833 Z-0.1062 I0. J-0.0235
Y3.4303 Z-0.124 I0. J0.0235
Y3.3833 Z-0.1417 I0. J-0.0235
Y3.4303 Z-0.1594 I0. J0.0235
Y3.3833 Z-0.1771 I0. J-0.0235
Y3.4303 Z-0.1948 I0. J0.0235
Y3.3833 Z-0.2126 I0. J-0.0235
X-1.6226 Y3.3918 Z-0.2175 I0. J0.0235
X-1.6587 Y3.4218 I-0.0181 J0.015
X-1.6226 Y3.3918 I0.0181 J-0.015
X-1.6241 Y3.4083 I-0.009 J0.0075
G1 X-1.63 Y3.4132
X-1.6323 Y3.4151 Z-0.2172
X-1.6345 Y3.417 Z-0.2163
X-1.6366 Y3.4187 Z-0.2149
X-1.6384 Y3.4202 Z-0.213
X-1.6398 Y3.4214 Z-0.2107
X-1.6409 Y3.4223 Z-0.208
X-1.6416 Y3.4229 Z-0.2051
X-1.6418 Y3.4231 Z-0.2021
G0 Z0.4
X-2.9647 Y2.3569
Z0.1146
G1 Z0.05 F40.
Y2.3492
G3 X-2.9563 Y2.3408 I0.0084 J0.
Y2.3743 Z0.0335 I0. J0.0167
Y2.3408 Z0.0169 I0. J-0.0167
Y2.3743 Z0.0004 I0. J0.0167
Y2.3408 Z-0.0161 I0. J-0.0167
Y2.3743 Z-0.0327 I0. J0.0167
Y2.3408 Z-0.0492 I0. J-0.0167
Y2.3743 Z-0.0657 I0. J0.0167
Y2.3408 Z-0.0822 I0. J-0.0167
Y2.3743 Z-0.0988 I0. J0.0168
Y2.3408 Z-0.1153 I0. J-0.0168
Y2.3743 Z-0.1318 I0. J0.0168
Y2.3408 Z-0.1484 I0. J-0.0168
Y2.3743 Z-0.1649 I0. J0.0168
Y2.3408 Z-0.1814 I0. J-0.0168
Y2.3743 Z-0.198 I0. J0.0168
Y2.3408 Z-0.2145 I0. J-0.0168
X-2.9472 Y2.3435 Z-0.2175 I0. J0.0168
X-2.9654 Y2.3717 I-0.0091 J0.0141
X-2.9472 Y2.3435 I0.0091 J-0.0141
X-2.9447 Y2.3551 I-0.0045 J0.007
G1 X-2.9489 Y2.3615
G0 Z0.4
X-3.6982 Y0.8528
Z0.0092
G1 Z-0.0554 F40.
G19 G2 Y0.8374 Z-0.0708 J-0.0154 K0.
G1 Y0.8297
G17 G3 X-3.6864 Y0.8179 I0.0117 J0.
Y0.8649 Z-0.0885 I0. J0.0235
Y0.8179 Z-0.1062 I0. J-0.0235
Y0.8649 Z-0.124 I0. J0.0235
Y0.8179 Z-0.1417 I0. J-0.0235
Y0.8649 Z-0.1594 I0. J0.0235
Y0.8179 Z-0.1771 I0. J-0.0235
Y0.8649 Z-0.1948 I0. J0.0235
Y0.8179 Z-0.2126 I0. J-0.0235
X-3.6684 Y0.8264 Z-0.2175 I0. J0.0235
X-3.7045 Y0.8564 I-0.0181 J0.015
X-3.6684 Y0.8264 I0.0181 J-0.015
X-3.6699 Y0.8429 I-0.009 J0.0075
G1 X-3.6758 Y0.8478
X-3.6781 Y0.8498 Z-0.2172
X-3.6803 Y0.8516 Z-0.2163
X-3.6824 Y0.8533 Z-0.2149
X-3.6842 Y0.8548 Z-0.213
X-3.6857 Y0.856 Z-0.2107
X-3.6868 Y0.8569 Z-0.208
X-3.6874 Y0.8575 Z-0.2051
X-3.6877 Y0.8577 Z-0.2021
G0 Z0.4
X-3.8176 Y-0.3328
Z0.1146
G1 Z0.05 F40.
Y-0.3405
G3 X-3.8092 Y-0.3489 I0.0084 J0.
Y-0.3154 Z0.0335 I0. J0.0168
Y-0.3489 Z0.0169 I0. J-0.0168
Y-0.3154 Z0.0004 I0. J0.0168
Y-0.3489 Z-0.0161 I0. J-0.0168
Y-0.3154 Z-0.0327 I0. J0.0168
Y-0.3489 Z-0.0492 I0. J-0.0168
Y-0.3154 Z-0.0657 I0. J0.0168
Y-0.3489 Z-0.0822 I0. J-0.0168
Y-0.3154 Z-0.0988 I0. J0.0168
Y-0.3489 Z-0.1153 I0. J-0.0168
Y-0.3154 Z-0.1318 I0. J0.0168
Y-0.3489 Z-0.1484 I0. J-0.0168
Y-0.3154 Z-0.1649 I0. J0.0168
Y-0.3489 Z-0.1814 I0. J-0.0168
Y-0.3154 Z-0.198 I0. J0.0168
Y-0.3489 Z-0.2145 I0. J-0.0168
X-3.8001 Y-0.3462 Z-0.2175 I0. J0.0168
X-3.8183 Y-0.318 I-0.0091 J0.0141
X-3.8001 Y-0.3462 I0.0091 J-0.0141
X-3.7976 Y-0.3346 I-0.0045 J0.007
G1 X-3.8018 Y-0.3281
G0 Z0.6
(SHAPE POCKET)
M7
G0 X-1.7142 Y-4.2004
Z0.6
Z0.1
G3 X-1.6684 Y-4.0615 Z0.0595 I0.0229 J0.0695 F50.
X-1.7142 Y-4.2004 Z0.019 I-0.0229 J-0.0695
X-1.6684 Y-4.0615 Z-0.0216 I0.0229 J0.0695
X-1.7142 Y-4.2004 Z-0.0621 I-0.0229 J-0.0695
X-1.6684 Y-4.0615 Z-0.1026 I0.0229 J0.0695
X-1.7142 Y-4.2004 Z-0.1431 I-0.0229 J-0.0695
X-1.6181 Y-4.131 Z-0.1675 I0.0229 J0.0695
X-1.7644 I-0.0732 J0.
X-1.6184 Y-4.1369 I0.0732 J0.
G1 X-1.6181 Y-4.131
G3 X-1.6369 Y-4.0054 I-0.0556 J0.0558 F60.
G1 X-1.6444 Y-4.0082
X-1.6913 Y-4.0044
X-1.6928 Y-4.0031
X-1.701 Y-4.001
X-1.7094 Y-3.9994
X-1.7178 Y-3.9985
X-1.7263 Y-3.9982
X-1.7348 Y-3.9984
X-1.7432 Y-3.9993
X-1.7516 Y-4.0008
X-1.7598 Y-4.0028
X-1.7679 Y-4.0055
X-1.7758 Y-4.0087
X-1.7834 Y-4.0124
X-1.7907 Y-4.0167
X-1.7977 Y-4.0215
X-1.8044 Y-4.0268
X-1.8106 Y-4.0325
X-1.8165 Y-4.0387
X-1.8219 Y-4.0452
X-1.8268 Y-4.0521
X-1.8312 Y-4.0594
X-1.835 Y-4.067
X-1.8384 Y-4.0748
X-1.8411 Y-4.0828
X-1.8433 Y-4.091
X-1.8449 Y-4.0993
X-1.846 Y-4.1078
X-1.8464 Y-4.1162
X-1.8462 Y-4.1247
X-1.8439 Y-4.1266
X-1.8413 Y-4.1281
X-1.8386 Y-4.129
X-1.8357 Y-4.1294
X-1.8328 Y-4.1293
X-1.83 Y-4.1287
X-1.8274 Y-4.1276
X-1.825 Y-4.126
X-1.8179 Y-4.1206
X-1.6972 Y-4.0291
X-1.694 Y-4.0267 F50.
G3 X-1.6928 Y-4.0031 I-0.0093 J0.0123
G1 X-1.7078 Y-3.9901 F60.
X-1.7382 Y-3.9635
G3 X-1.8824 Y-3.9925 I-0.0547 J-0.101
G1 X-1.8828 Y-3.9956
X-1.8826 Y-3.9987
X-1.8817 Y-4.0017
X-1.8803 Y-4.0045
X-1.8784 Y-4.0069
X-1.8761 Y-4.0089
X-1.8734 Y-4.0104
X-1.8705 Y-4.0113
X-1.8674 Y-4.0117
X-1.8644 Y-4.0114
X-1.8639 Y-4.0113
X-1.746 Y-3.9899
X-1.7431 Y-3.9891
G3 X-1.7382 Y-3.9635 I-0.0057 J0.0143 F50.
X-1.8808 Y-3.9894 I-0.0598 J-0.0759 F60.
X-1.8377 Y-4.1276 I0.0827 J-0.0501
G1 X-1.8326 Y-4.1779
G3 X-1.7154 Y-4.2869 I0.1359 J0.0286
G1 X-1.7127 Y-4.2858
X-1.7103 Y-4.2843
X-1.7082 Y-4.2823
X-1.7064 Y-4.28
X-1.7052 Y-4.2774
X-1.7044 Y-4.2746
X-1.7042 Y-4.2718
X-1.7045 Y-4.2689
X-1.7053 Y-4.2662
X-1.7065 Y-4.2637
X-1.7082 Y-4.2614
X-1.709 Y-4.2606
X-1.8065 Y-4.1664
X-1.8086 Y-4.1647
X-1.811 Y-4.1634
G3 X-1.8326 Y-4.1779 I-0.0061 J-0.0141 F50.
X-1.646 Y-4.2313 I0.0962 J-0.0163 F60.
G1 X-1.6168 Y-4.2083
X-1.5974 Y-4.1916
X-1.5953 Y-4.191
G3 X-1.5466 Y-3.9721 I-0.0544 J0.127
G1 X-1.5505 Y-3.9752
X-1.5974 Y-3.9908
X-1.6369 Y-4.0054
G3 X-1.6463 Y-4.0176 I0.0059 J-0.0142
X-1.6045 Y-4.0486 I0.0294 J-0.004
X-1.5626 Y-4.0017 I-0.0329 J0.0716
X-1.5593 Y-3.9873 I-0.0748 J0.0246 F50.
G2 X-1.5499 Y-3.975 I0.0153 J-0.002
G1 X-1.5314 Y-3.968 F60.
G2 X-1.4417 Y-4.1401 I-0.0093 J-0.1142
X-1.5953 Y-4.191 I-0.5796 J1.4905
X-1.6101 Y-4.1869 I-0.0039 J0.0149
X-1.6069 Y-4.1343 I0.0252 J0.0249
X-1.4686 Y-4.1283 I0.0732 J-0.0927
X-1.4568 Y-4.1372 I-0.065 J-0.0986 F50.
G3 X-1.4417 Y-4.1401 I0.01 J0.0117
G1 X-1.4184 Y-4.131 F60.
X-1.4097 Y-4.1275
G3 X-1.4164 Y-3.9233 I-0.0714 J0.0999
G1 X-1.4191 Y-3.9245
X-1.4215 Y-3.9262
X-1.4235 Y-3.9282
X-1.4252 Y-3.9306
X-1.4263 Y-3.9332
X-1.427 Y-3.936
X-1.4272 Y-3.9388
X-1.4274 Y-3.9513
X-1.4302 Y-4.1115
Y-4.1127 F50.
G3 X-1.4097 Y-4.1275 I0.0154 J-0.0003
G1 X-1.3627 Y-4.1091 F60.
X-1.3393 Y-4.1008
G3 X-1.2916 Y-3.9483 I-0.0655 J0.1042
X-1.3194 Y-3.952 I-0.013 J-0.0082
G1 X-1.3586 Y-4.0816
X-1.3591 Y-4.084
G3 X-1.3393 Y-4.1008 I0.0153 J-0.002 F50.
X-1.2742 Y-3.9727 I-0.0243 J0.0929 F60.
X-1.409 Y-3.9233 I-0.0894 J-0.0351
X-1.5314 Y-3.968 I0.3088 J-1.0328
X-1.8174 Y-3.8526 I-0.3164 J-0.3717
X-1.9436 Y-4.1553 I0.0254 J-0.1883
X-1.5675 Y-4.2954 I0.2097 J-0.0119
X-1.2134 Y-4.1266 I-0.2513 J0.9829
X-1.2893 Y-3.8388 I-0.1615 J0.1113
X-1.4877 I-0.0991 J-0.3585
G2 X-1.6361 Y-3.7919 I0.1738 J0.8082
X-1.7495 Y-3.7756 I0.0054 J0.44
G1 X-1.7619 Y-3.7728
X-1.7743 Y-3.7705
X-1.7869 Y-3.7689
X-1.7995 Y-3.7678
X-1.8121 Y-3.7674
X-1.8248 Y-3.7676
X-1.8374 Y-3.7684
X-1.85 Y-3.7698
X-1.8625 Y-3.7719
X-1.8749 Y-3.7745
X-1.8871 Y-3.7778
X-1.8992 Y-3.7816
X-1.911 Y-3.786
X-1.9227 Y-3.791
X-1.934 Y-3.7966
X-1.9451 Y-3.8027
X-1.9559 Y-3.8093
X-1.9663 Y-3.8165
X-1.9764 Y-3.8242
X-1.9861 Y-3.8323
X-1.9954 Y-3.8409
X-2.0042 Y-3.85
X-2.0126 Y-3.8594
X-2.0206 Y-3.8693
X-2.028 Y-3.8795
X-2.0349 Y-3.8901
X-2.0414 Y-3.901
X-2.0472 Y-3.9123
X-2.0525 Y-3.9238
X-2.0573 Y-3.9355
X-2.0614 Y-3.9474
X-2.065 Y-3.9596
X-2.068 Y-3.9719
X-2.0704 Y-3.9843
X-2.0722 Y-3.9968
X-2.0733 Y-4.0095
X-2.0739 Y-4.0221
X-2.0738 Y-4.0348
X-2.0019 Y-4.2826
G3 X-1.6082 Y-4.441 I0.2622 J0.0833
G1 X-1.1889 Y-4.2122
X-1.1789 Y-4.2043
X-1.1694 Y-4.1959
X-1.1603 Y-4.1871
X-1.1516 Y-4.1779
X-1.1434 Y-4.1683
X-1.1356 Y-4.1582
X-1.1284 Y-4.1478
X-1.1216 Y-4.1371
X-1.1154 Y-4.1261
X-1.1097 Y-4.1147
X-1.1046 Y-4.1032
X-1.1001 Y-4.0913
X-1.0961 Y-4.0793
X-1.0927 Y-4.0671
X-1.0899 Y-4.0547
X-1.0877 Y-4.0422
X-1.0862 Y-4.0297
X-1.0852 Y-4.017
X-1.0848 Y-4.0044
X-1.0851 Y-3.9917
X-1.086 Y-3.9791
X-1.0874 Y-3.9665
X-1.0895 Y-3.954
X-1.0922 Y-3.9416
X-1.0955 Y-3.9294
X-1.0994 Y-3.9173
X-1.1038 Y-3.9054
X-1.1088 Y-3.8938
X-1.1144 Y-3.8824
X-1.1206 Y-3.8713
X-1.1272 Y-3.8605
X-1.1344 Y-3.8501
X-1.142 Y-3.84
X-1.1502 Y-3.8303
X-1.1588 Y-3.821
X-1.1678 Y-3.8121
X-1.1773 Y-3.8037
X-1.1872 Y-3.7958
X-1.1974 Y-3.7883
X-1.3272 Y-3.7432
G3 X-1.4445 Y-3.7366 I-0.0737 J-0.2648
G1 X-1.4468 Y-3.7384
X-1.4487 Y-3.7405
X-1.4502 Y-3.7429
X-1.4512 Y-3.7456
X-1.4518 Y-3.7484
Y-3.7512
X-1.4513 Y-3.754
X-1.4503 Y-3.7567
X-1.4488 Y-3.7591
X-1.4469 Y-3.7612
X-1.4447 Y-3.7629
G3 X-1.4374 Y-3.7654 I0.0084 J0.0129
G1 X-1.3338 Y-3.773
G3 X-1.322 Y-3.7687 I0.0011 J0.0154
X-1.3272 Y-3.7432 I-0.0107 J0.0111 F50.
X-1.4875 Y-3.7652 I-0.0691 J-0.0915 F60.
G2 X-1.6361 Y-3.7919 I-0.1623 J0.4762
G3 X-1.6485 Y-3.801 I0.0016 J-0.0153
X-1.6379 Y-3.8351 I0.0247 J-0.0111
X-1.223 Y-3.8011 I0.184 J0.3028
G1 X-1.212 Y-3.7912 F50.
G2 X-1.197 Y-3.7877 I0.0105 J-0.0113
G1 X-1.1864 Y-3.7914 F60.
X-1.1629 Y-3.7992
X-1.1011 Y-3.8161
G2 X-1.0095 Y-4.1141 I-0.1306 J-0.2032
G1 X-1.1889 Y-4.2122
G2 X-1.2104 Y-4.1935 I-0.0069 J0.0138
X-1.2052 Y-4.1823 I0.0515 J-0.0171
X-1.0394 Y-4.1101 I0.1343 J-0.0822
X-1.0213 Y-4.115 I-0.0314 J-0.1543 F50.
G3 X-1.0095 Y-4.1141 I0.0048 J0.0146
G1 X-0.9619 Y-4.0881 F60.
G3 X-0.9348 Y-3.8614 I-0.1275 J0.1302
G1 X-1.1011 Y-3.8161
G3 X-1.1158 Y-3.8205 I-0.0035 J-0.015
X-1.1132 Y-3.8737 I0.0269 J-0.0254
X-0.9603 Y-3.8759 I0.0778 J0.0889
X-0.9495 Y-3.8658 I-0.0751 J0.0911 F50.
G2 X-0.9348 Y-3.8614 I0.0112 J-0.0106
G1 X-0.9283 Y-3.8631 F60.
X-0.9048 Y-3.8683
X-0.8977 Y-3.8698
G2 X-0.8269 Y-4.0157 I-0.0469 J-0.1129
G1 X-0.9619 Y-4.0881
G2 X-0.9772 Y-4.0872 I-0.0069 J0.0138
X-0.9792 Y-4.0183 I0.0231 J0.0351
X-0.8568 Y-4.007 I0.0705 J-0.0948
X-0.8439 Y-4.0144 I-0.052 J-0.1061 F50.
G3 X-0.8286 Y-4.0153 I0.0085 J0.0129
G1 X-0.8024 Y-4.001 F60.
G3 X-0.7719 Y-3.894 I-0.0457 J0.0709
G1 X-0.775 Y-3.8935
X-0.7781 Y-3.8937
X-0.7811 Y-3.8944
X-0.7838 Y-3.8956
X-0.7863 Y-3.8973
X-0.7884 Y-3.8993
X-0.79 Y-3.9017
X-0.7912 Y-3.9044
X-0.7952 Y-3.9138
X-0.8235 Y-3.9812
X-0.8245 Y-3.9844
X-0.8247 Y-3.9876
G3 X-0.8024 Y-4.001 I0.0154 J0.0004 F50.
G1 X-0.7406 Y-3.9672 F60.
G3 X-0.712 Y-3.908 I-0.0075 J0.0401
X-0.7249 Y-3.9118 I-0.0026 J-0.0152
G1 X-0.7374 Y-3.9232
X-0.7579 Y-3.9421
G3 X-0.7629 Y-3.9538 I0.0104 J-0.0113
X-0.7406 Y-3.9672 I0.0154 J0.0004 F50.
G1 X-0.6847 Y-3.9366 F60.
X-0.6835 Y-3.9359
X-0.6825 Y-3.9354
X-0.6796 Y-3.9337
X-0.6789 Y-3.9331
G3 X-0.6771 Y-3.9297 I-0.0035 J0.004
X-0.6852 Y-3.9246 I-0.0053 J0.0006 F50.
G1 X-0.6877 Y-3.9262
G3 X-0.6825 Y-3.9354 I0.0028 J-0.0045
G1 X-0.6802 Y-3.9342 F60.
X-0.6788 Y-3.9331
X-0.6779 Y-3.9323
X-0.6767 Y-3.9313
X-0.6722 Y-3.9274
X-0.6716 Y-3.9263
X-0.671 Y-3.9247
X-0.6707 Y-3.9229
X-0.6708 Y-3.9211
X-0.6742 Y-3.921
X-0.6759 Y-3.9234 Z-0.1672
X-0.6776 Y-3.9257 Z-0.1663
X-0.6792 Y-3.9279 Z-0.1649
X-0.6805 Y-3.9298 Z-0.163
X-0.6816 Y-3.9314 Z-0.1607
X-0.6825 Y-3.9325 Z-0.158
X-0.683 Y-3.9332 Z-0.1551
X-0.6832 Y-3.9335 Z-0.1521
G0 Z0.4
X-0.7134 Y-3.9423
Z-0.1367
G1 Z-0.1521 F50.
X-0.7131 Z-0.1551
X-0.7122 Y-3.9422 Z-0.158
X-0.7108 Y-3.942 Z-0.1607
X-0.7089 Y-3.9417 Z-0.163
X-0.7066 Y-3.9414 Z-0.1649
X-0.704 Y-3.941 Z-0.1663
X-0.7011 Y-3.9406 Z-0.1672
X-0.6981 Y-3.9402 Z-0.1675
G3 X-0.6767 Y-3.9313 I-0.0065 J0.0463
G1 X-0.6721 Y-3.9276 F60.
X-0.6718 Y-3.9273
X-0.671 Y-3.9259
X-0.6708 Y-3.9253
X-0.6704 Y-3.9235
X-0.6705 Y-3.9229
X-0.6708 Y-3.9211
G3 X-0.6937 Y-3.9117 I-0.0184 J-0.0121
G1 X-0.8977 Y-3.8698
G0 Z-0.1367
X-1.5783 Y-4.4061
G1 Z-0.1521 F50.
X-1.5785 Y-4.4064 Z-0.1551
X-1.5789 Y-4.4071 Z-0.158
X-1.5797 Y-4.4083 Z-0.1607
X-1.5806 Y-4.41 Z-0.163
X-1.5818 Y-4.412 Z-0.1649
X-1.5832 Y-4.4143 Z-0.1663
X-1.5847 Y-4.4168 Z-0.1672
X-1.5862 Y-4.4194 Z-0.1675
G2 X-1.608 Y-4.4412 I-0.0536 J0.0317
G1 X-1.7613 Y-4.525 F60.
G2 X-1.9371 Y-4.5068 I-0.0727 J0.1566
G1 X-2.0019 Y-4.2826
G2 X-1.9745 Y-4.2697 I0.0149 J0.0038
G3 X-1.9486 Y-4.2531 I0.0125 J0.0091
G1 X-2.0549 Y-4.0645
X-2.0562 Y-4.0625
X-2.0578 Y-4.0608
G2 X-2.0745 Y-4.0348 I0.0424 J0.0456 F50.
G1 X-2.1051 Y-3.9306 F60.
G2 X-1.903 Y-3.6874 I0.2382 J0.0076
G3 X-1.7495 Y-3.7756 I0.2514 J0.2596
G2 X-1.7408 Y-3.7956 I-0.0056 J-0.0143
X-1.7728 Y-3.8189 I-0.0344 J0.0136
X-1.8976 Y-3.7171 I-0.0078 J0.1179
X-1.8987 Y-3.6984 I0.117 J0.0161 F50.
G3 X-1.903 Y-3.6874 I-0.0154 J0.0004
G1 X-1.9183 Y-3.6724 F60.
X-1.9235 Y-3.6672
G3 X-2.1558 Y-3.7575 I-0.0729 J-0.1565
G1 X-2.1051 Y-3.9306
G3 X-2.0936 Y-3.9408 I0.0146 J0.0048
X-2.0555 Y-3.9183 I0.0067 J0.0322
X-2.1301 Y-3.7717 I-0.1128 J0.0349
X-2.1444 Y-3.7677 I-0.0383 J-0.1117 F50.
G2 X-2.1558 Y-3.7575 I0.0031 J0.0151
G1 X-2.167 Y-3.7194 F60.
X-2.1673 Y-3.7097
X-2.167 Y-3.6999
X-2.1661 Y-3.6903
X-2.1646 Y-3.6807
X-2.1625 Y-3.6712
X-2.1597 Y-3.6619
X-2.1564 Y-3.6527
X-2.1525 Y-3.6438
X-2.1481 Y-3.6352
X-2.1431 Y-3.6268
X-2.1376 Y-3.6188
X-2.1316 Y-3.6112
X-2.1251 Y-3.6039
X-2.1182 Y-3.5971
X-2.1108 Y-3.5907
X-2.1031 Y-3.5849
X-2.095 Y-3.5795
X-2.0866 Y-3.5746
X-2.0779 Y-3.5703
X-2.069 Y-3.5665
X-2.0598 Y-3.5634
X-2.0504 Y-3.5608
X-2.0409 Y-3.5588
X-2.0313 Y-3.5574
X-2.0216 Y-3.5566
X-2.0119 Y-3.5564
X-2.0022 Y-3.5569
X-1.9925 Y-3.558
G3 X-1.9235 Y-3.6672 I0.3383 J0.1374
G2 X-1.92 Y-3.6822 I-0.0113 J-0.0105
X-1.958 Y-3.7027 I-0.0294 J0.009
X-2.0043 Y-3.5878 I0.0219 J0.0756
X-1.9958 Y-3.5758 I0.0683 J-0.0392 F50.
G3 X-1.9929 Y-3.5606 I-0.0117 J0.01
G1 X-1.9951 Y-3.5551 F60.
X-2. Y-3.5422
G3 X-2.2097 Y-3.5731 I-0.0947 J-0.0842
G1 X-2.167 Y-3.7194
G3 X-2.1555 Y-3.7296 I0.0146 J0.0048
X-2.1054 Y-3.6828 I0.0085 J0.0411
X-2.1842 Y-3.5871 I-0.117 J-0.016
X-2.1985 Y-3.5832 I-0.0383 J-0.1117 F50.
G2 X-2.21 Y-3.5729 I0.0031 J0.0151
G1 X-2.2188 Y-3.5429 F60.
X-2.2184 Y-3.5339
X-2.2175 Y-3.5249
X-2.2159 Y-3.5161
X-2.2137 Y-3.5073
X-2.211 Y-3.4987
X-2.2077 Y-3.4904
X-2.2038 Y-3.4822
X-2.1994 Y-3.4744
X-2.1945 Y-3.4668
X-2.1891 Y-3.4596
X-2.1833 Y-3.4528
X-2.1769 Y-3.4464
X-2.1702 Y-3.4404
X-2.1631 Y-3.4349
X-2.1556 Y-3.4298
X-2.1478 Y-3.4253
X-2.1397 Y-3.4213
X-2.1314 Y-3.4179
X-2.1229 Y-3.4151
X-2.1141 Y-3.4128
X-2.1053 Y-3.4111
X-2.0964 Y-3.41
X-2.0874 Y-3.4095
X-2.0784 Y-3.4096
X-2.0694 Y-3.4103
X-2.0605 Y-3.4116
X-2.0517 Y-3.4135
X-2.043 Y-3.416
X-2.0345 Y-3.4191
X-2.0263 Y-3.4227
G3 X-2. Y-3.5422 I0.4149 J0.0287
G2 X-2.003 Y-3.5573 I-0.0146 J-0.005
X-2.0319 Y-3.5597 I-0.0157 J0.0137
X-2.0427 Y-3.449 I0.0501 J0.0607
X-2.0323 Y-3.4385 I0.0609 J-0.05 F50.
G3 X-2.027 Y-3.424 I-0.0099 J0.0118
X-2.0545 Y-3.4003 I-0.0294 J-0.0063 F60.
G1 X-2.1015 Y-3.3712
G3 X-2.2592 Y-3.4106 I-0.0554 J-0.1136
G1 X-2.2188 Y-3.5429
G3 X-2.1993 Y-3.5527 I0.0146 J0.0048
X-2.1845 Y-3.5334 I-0.0068 J0.0206
X-2.2334 Y-3.4307 I-0.1179 J0.0068
X-2.2494 Y-3.421 I-0.0691 J-0.0958 F50.
G2 X-2.2571 Y-3.4121 I0.0069 J0.0138
G1 X-2.2647 Y-3.3865 F60.
G2 X-2.213 Y-3.297 I0.077 J0.0152
G1 X-2.1719 Y-3.3269
X-2.1484 Y-3.342
X-2.1015 Y-3.3712
G2 X-2.1103 Y-3.3993 I-0.0086 J-0.0128
G1 X-2.2384 Y-3.3972
X-2.2503 Y-3.397 F50.
G2 X-2.2647 Y-3.3865 I0.0003 J0.0154
G1 X-2.284 Y-3.3204 F60.
G2 X-2.2626 Y-3.2655 I0.0301 J0.0199
G1 X-2.2121 Y-3.2996
G2 X-2.2059 Y-3.3137 I-0.0091 J-0.0124
X-2.2159 Y-3.323 I-0.0104 J0.0011
X-2.2552 Y-3.2942 I-0.0013 J0.0393
X-2.2564 Y-3.2795 I0.0379 J0.0105 F50.
G3 X-2.2626 Y-3.2655 I-0.0153 J0.0016
G1 X-2.2657 Y-3.2634 F60.
X-2.2743 Y-3.2578
X-2.2795 Y-3.2548
X-2.2853 Y-3.2533
X-2.2893 Y-3.253
X-2.2942 Y-3.2539
X-2.2981 Y-3.2569
X-2.3001 Y-3.2613
X-2.2999 Y-3.2662
G3 X-2.2936 Y-3.2781 I0.0374 J0.0124
X-2.2779 Y-3.2828 I0.0111 J0.0087
X-2.2743 Y-3.2578 I-0.0045 J0.0134 F50.
G1 X-2.2863 Y-3.25 F60.
X-2.2938 Y-3.2465
X-2.296 Y-3.2463
X-2.2983 Y-3.2469
X-2.2998 Y-3.248
X-2.3003 Y-3.2485
G3 X-2.284 Y-3.3204 I0.0596 J-0.0243
X-2.2588 Y-3.3268 I0.0146 J0.0048
G1 X-2.2566 Y-3.3247 Z-0.1672
X-2.2545 Y-3.3227 Z-0.1663
X-2.2526 Y-3.3209 Z-0.1649
X-2.2509 Y-3.3193 Z-0.163
X-2.2495 Y-3.318 Z-0.1607
X-2.2485 Y-3.317 Z-0.158
X-2.2478 Y-3.3164 Z-0.1551
X-2.2476 Y-3.3162 Z-0.1521
G0 Z-0.1367
X-1.7316 Y-4.4898
G1 Z-0.1521 F50.
X-1.7317 Y-4.4901 Z-0.1551
X-1.7322 Y-4.4908 Z-0.158
X-1.7329 Y-4.4921 Z-0.1607
X-1.7339 Y-4.4937 Z-0.163
X-1.735 Y-4.4957 Z-0.1649
X-1.7364 Y-4.498 Z-0.1663
X-1.7379 Y-4.5005 Z-0.1672
X-1.7394 Y-4.5031 Z-0.1675
G2 X-1.7613 Y-4.525 I-0.0536 J0.0317
G1 X-1.8668 Y-4.5827 F60.
G2 X-1.9122 Y-4.5879 I-0.0254 J0.0209
G1 X-1.9126 Y-4.587
X-1.9364 Y-4.5058
G2 X-1.9088 Y-4.4932 I0.0149 J0.0038
G1 X-1.8652 Y-4.556
X-1.862 Y-4.5606 F50.
G2 X-1.8668 Y-4.5827 I-0.0127 J-0.0088
X-1.9081 Y-4.5961 I-0.0242 J0.0043 F60.
G1 X-1.9122 Y-4.5879
X-1.91 Y-4.5863
X-1.9073 Y-4.5878 Z-0.1672
X-1.9048 Y-4.5892 Z-0.1663
X-1.9025 Y-4.5905 Z-0.1649
X-1.9005 Y-4.5917 Z-0.163
X-1.8988 Y-4.5926 Z-0.1607
X-1.8976 Y-4.5933 Z-0.158
X-1.8968 Y-4.5938 Z-0.1551
X-1.8965 Y-4.5939 Z-0.1521
G0 Z0.6
X-0.5877 Y-4.7637
Z0.1
G3 X-0.5419 Y-4.6248 Z0.0595 I0.0229 J0.0695 F50.
X-0.5877 Y-4.7637 Z0.019 I-0.0229 J-0.0695
X-0.5419 Y-4.6248 Z-0.0216 I0.0229 J0.0695
X-0.5877 Y-4.7637 Z-0.0621 I-0.0229 J-0.0695
X-0.5419 Y-4.6248 Z-0.1026 I0.0229 J0.0695
X-0.5877 Y-4.7637 Z-0.1431 I-0.0229 J-0.0695
X-0.4916 Y-4.6943 Z-0.1675 I0.0229 J0.0695
X-0.6379 I-0.0732 J0.
X-0.4919 Y-4.7002 I0.0732 J0.
G1 X-0.4916 Y-4.6943
G3 X-0.4961 Y-4.582 I-0.0497 J0.0543 F60.
G1 X-0.6117 Y-4.6046
X-0.6481 Y-4.612
X-0.6557 Y-4.6157
X-0.6629 Y-4.6199
X-0.6699 Y-4.6247
X-0.6764 Y-4.6299
X-0.6826 Y-4.6357
X-0.6883 Y-4.6419
X-0.6936 Y-4.6484
X-0.6983 Y-4.6554
X-0.7026 Y-4.6627
X-0.7062 Y-4.6703
X-0.7093 Y-4.6781
X-0.7119 Y-4.6861
X-0.7138 Y-4.6943
X-0.7151 Y-4.7026
X-0.7158 Y-4.711
X-0.7159 Y-4.7194
X-0.7153 Y-4.7278
X-0.7142 Y-4.7362
X-0.7124 Y-4.7444
X-0.71 Y-4.7525
X-0.707 Y-4.7604
X-0.7035 Y-4.768
X-0.6994 Y-4.7754
X-0.6947 Y-4.7824
X-0.6896 Y-4.7891
X-0.684 Y-4.7953
X-0.6779 Y-4.8012
X-0.6714 Y-4.8066
X-0.6646 Y-4.8114
G2 X-0.4815 Y-4.7753 I2.164 J-10.482
G1 X-0.4726 Y-4.7717
X-0.464 Y-4.7675
X-0.4556 Y-4.7628
X-0.4476 Y-4.7576
X-0.4399 Y-4.7519
X-0.4326 Y-4.7457
X-0.4258 Y-4.739
X-0.4194 Y-4.7319
X-0.4134 Y-4.7244
X-0.4079 Y-4.7165
X-0.403 Y-4.7083
X-0.3986 Y-4.6998
X-0.3947 Y-4.6911
X-0.3914 Y-4.6821
X-0.3887 Y-4.6729
X-0.3866 Y-4.6635
X-0.3851 Y-4.6541
X-0.3842 Y-4.6446
X-0.384 Y-4.635
X-0.3843 Y-4.6254
X-0.3853 Y-4.6159
X-0.3868 Y-4.6064
X-0.389 Y-4.5971
X-0.3918 Y-4.588
X-0.3951 Y-4.579
X-0.399 Y-4.5702
X-0.4035 Y-4.5618
X-0.424 Y-4.5677
X-0.4709 Y-4.5771
X-0.4961 Y-4.582
G3 X-0.5073 Y-4.5925 I0.0035 J-0.015
X-0.4709 Y-4.6286 I0.0277 J-0.0085
X-0.4242 Y-4.5888 I-0.0237 J0.0751
X-0.4188 Y-4.575 I-0.0704 J0.0353 F50.
G2 X-0.4078 Y-4.5642 I0.0148 J-0.0042
G1 X-0.3917 Y-4.5608 F60.
G2 X-0.3295 Y-4.7441 I-0.0188 J-0.1086
X-0.4815 Y-4.7753 I-0.7051 J3.045
X-0.4958 Y-4.7698 I-0.0024 J0.0152
X-0.4573 Y-4.6771 I0.0443 J0.036
X-0.3508 Y-4.7239 I0.0118 J-0.1175
X-0.3427 Y-4.7363 I-0.0946 J-0.0707 F50.
G3 X-0.3294 Y-4.7441 I0.0134 J0.0076
G1 X-0.3057 Y-4.7435 F60.
G3 X-0.2552 Y-4.5527 I-0.0348 J0.1113
X-0.3917 Y-4.5608 I-0.0467 J-0.3708
X-0.4027 Y-4.5715 I0.0038 J-0.0149
X-0.3807 Y-4.6054 I0.0258 J-0.0073
X-0.2788 Y-4.5701 I0.0165 J0.1169
X-0.2693 Y-4.5588 I-0.0853 J0.0817 F50.
G2 X-0.2551 Y-4.5527 I0.0124 J-0.0092
G1 X-0.2362 Y-4.5556 F60.
X-0.2233 Y-4.5574
G2 X-0.1828 Y-4.7581 I-0.0444 J-0.1134
G3 X-0.3057 Y-4.7435 I-0.2071 J-1.2138
G2 X-0.319 Y-4.7357 I0.0001 J0.0154
X-0.3132 Y-4.7111 I0.0162 J0.0092
X-0.2026 Y-4.7343 I0.0441 J-0.0653
X-0.1959 Y-4.7475 I-0.0666 J-0.042 F50.
G3 X-0.1838 Y-4.7571 I0.0143 J0.0056
G1 X-0.1561 Y-4.7603 F60.
G3 X-0.0872 Y-4.5723 I-0.0268 J0.1165
G2 X-0.2233 Y-4.5574 I0.0567 J1.1461
G3 X-0.2374 Y-4.5636 I-0.0017 J-0.0153
X-0.2384 Y-4.5794 I0.0118 J-0.0087
X-0.1696 Y-4.6198 I0.0688 J0.0383
X-0.1102 Y-4.5928 I0. J0.0787
X-0.1016 Y-4.5808 I-0.0594 J0.0517 F50.
G2 X-0.0882 Y-4.5731 I0.0133 J-0.0078
G1 X-0.0617 Y-4.5742 F60.
G2 X-0.0215 Y-4.7679 I-0.0436 J-0.1101
X-0.1561 Y-4.7603 I-0.0068 J1.0794
X-0.1691 Y-4.7428 I0.0023 J0.0152
X-0.1599 Y-4.7315 I0.0141 J-0.0021
X-0.0466 Y-4.7496 I0.0403 J-0.111
X-0.0328 Y-4.7624 I-0.0729 J-0.0929 F50.
G3 X-0.0221 Y-4.7673 I0.0113 J0.0104
G1 X-0.0015 Y-4.7674 F60.
X0.0056
G3 X0.0646 Y-4.5733 I-0.0315 J0.1156
G1 X0.0454 Y-4.5748
X-0.0015 Y-4.5749
X-0.0485 Y-4.5747
X-0.0617 Y-4.5742
G3 X-0.075 Y-4.5818 I-0.0001 J-0.0154
X-0.0779 Y-4.5924 I0.0183 J-0.0107
G1 X-0.0776 Y-4.5961
G3 X-0.0703 Y-4.6088 I0.0209 J0.0036
X0.0432 Y-4.5953 I0.0504 J0.0605
X0.0509 Y-4.5827 I-0.0631 J0.0471 F50.
G2 X0.0636 Y-4.5741 I0.0138 J-0.0067
G1 X0.0862 Y-4.5733 F60.
G2 X0.1453 Y-4.7616 I-0.0289 J-0.1125
X0.0056 Y-4.7674 I-0.1147 J1.0777
X-0.0075 Y-4.7593 I0.0005 J0.0154
X0.0215 Y-4.7044 I0.033 J0.0177
X0.1222 Y-4.7433 I0.0125 J-0.1174
X0.1313 Y-4.7549 I-0.0881 J-0.0786 F50.
G3 X0.1452 Y-4.7615 I0.0127 J0.0087
G1 X0.1774 Y-4.7578 F60.
G3 X0.2128 Y-4.558 I-0.0494 J0.1118
G2 X0.0862 Y-4.5733 I-0.198 J1.1096
G3 X0.0735 Y-4.5819 I0.0011 J-0.0154
X0.0794 Y-4.6058 I0.0173 J-0.0084
X0.1935 Y-4.5825 I0.0464 J0.0636
X0.1998 Y-4.5691 I-0.0677 J0.0403 F50.
G2 X0.2116 Y-4.5592 I0.0145 J-0.0053
G1 X0.2332 Y-4.5561 F60.
X0.2361 Y-4.5557
G2 X0.3092 Y-4.7441 I-0.0211 J-0.1166
G3 X0.1774 Y-4.7578 I0.114 J-1.7331
G2 X0.1635 Y-4.7512 I-0.0012 J0.0154
X0.1647 Y-4.7224 I0.0198 J0.0136
X0.2871 Y-4.7229 I0.061 J-0.0498
X0.2953 Y-4.7353 I-0.0614 J-0.0493 F50.
G3 X0.3083 Y-4.7435 I0.0136 J0.0072
G1 X0.3271 F60.
X0.3282 Y-4.7438
G3 X0.3824 Y-4.5588 I-0.0352 J0.1107
X0.2361 Y-4.5557 I-0.079 J-0.2761
X0.2244 Y-4.5657 I0.0028 J-0.0151
X0.2413 Y-4.5999 I0.0251 J-0.0088
X0.3577 Y-4.5746 I0.0365 J0.1123
X0.3679 Y-4.564 I-0.0798 J0.0871 F50.
G2 X0.3824 Y-4.5588 I0.0117 J-0.01
G1 X0.4172 Y-4.5663 F60.
G2 X0.445 Y-4.7693 I-0.0537 J-0.1108
G1 X0.4209 Y-4.7635
X0.374 Y-4.754
X0.3282 Y-4.7438
G2 X0.3173 Y-4.733 I0.0039 J0.0149
X0.3315 Y-4.706 I0.0215 J0.0059
X0.4269 Y-4.7437 I0.0258 J-0.0744
X0.4325 Y-4.7574 I-0.0697 J-0.0367 F50.
G3 X0.4438 Y-4.7679 I0.0147 J0.0045
G1 X0.4679 Y-4.7726 F60.
G3 X0.5521 Y-4.5926 I-0.0143 J0.1164
G1 X0.4679 Y-4.5765
X0.4209 Y-4.5671
X0.4172 Y-4.5663
G3 X0.3993 Y-4.5787 I-0.0027 J-0.0152
X0.4092 Y-4.6007 I0.021 J-0.0038
X0.5242 Y-4.6054 I0.0617 J0.1007
X0.5403 Y-4.5956 I-0.0533 J0.1054 F50.
G2 X0.5517 Y-4.5929 I0.009 J-0.0125
G1 X0.5759 Y-4.5976 F60.
G2 X0.5961 Y-4.7985 I-0.0512 J-0.1066
G3 X0.4679 Y-4.7726 I-0.6481 J-2.8825
G2 X0.4566 Y-4.7621 I0.0035 J0.015
X0.4619 Y-4.7461 I0.014 J0.0043
X0.579 Y-4.7735 I0.047 J-0.0632
X0.5845 Y-4.7872 I-0.0701 J-0.0359 F50.
G3 X0.5956 Y-4.7978 I0.0148 J0.0043
G1 X0.6087 Y-4.8006 F60.
X0.6216 Y-4.8029
G3 X0.7096 Y-4.6224 I-0.0132 J0.1181
G2 X0.5759 Y-4.5976 I0.2982 J1.9768
G3 X0.5583 Y-4.6104 I-0.0024 J-0.0152
X0.5722 Y-4.6376 I0.0256 J-0.0041
X0.6816 Y-4.6362 I0.0534 J0.1054
X0.6974 Y-4.626 I-0.0561 J0.1039 F50.
G2 X0.7088 Y-4.6229 I0.0094 J-0.0122
G1 X0.736 Y-4.6275 F60.
G2 X0.7536 Y-4.8266 I-0.0559 J-0.1053
G1 X0.7026 Y-4.8171
X0.6556 Y-4.8092
X0.6216 Y-4.8029
G2 X0.6166 Y-4.7749 I0.0033 J0.015
X0.6549 Y-4.7656 I0.0327 J-0.0512
X0.7318 Y-4.8041 I-0.0108 J-0.1176
X0.7432 Y-4.8191 I-0.0877 J-0.0791 F50.
G3 X0.7529 Y-4.8258 I0.0129 J0.0084
G1 X0.7816 Y-4.8309 F60.
G3 X0.8709 Y-4.6609 I-0.0206 J0.1192
X0.8503 Y-4.6671 I-0.0071 J-0.0137
G1 X0.8468 Y-4.6734
X0.7725 Y-4.8064
X0.7714 Y-4.8083 F50.
G3 X0.7816 Y-4.8309 I0.0134 J-0.0075
X0.8599 Y-4.6489 I0.0391 J0.091 F60.
X0.7978 Y-4.6435 I-0.0391 J-0.091
G1 X0.7495 Y-4.6297
X0.736 Y-4.6275
G3 X0.7193 Y-4.6474 I-0.002 J-0.0153
G1 X0.7202 Y-4.6502 Z-0.1672
X0.721 Y-4.653 Z-0.1663
X0.7218 Y-4.6555 Z-0.1649
X0.7225 Y-4.6578 Z-0.163
X0.7231 Y-4.6596 Z-0.1607
X0.7235 Y-4.6609 Z-0.158
X0.7238 Y-4.6618 Z-0.1551
X0.7239 Y-4.6621 Z-0.1521
G0 Z-0.1367
X-0.6027 Y-4.6197
G1 Z-0.1521 F50.
X-0.603 Y-4.6196 Z-0.1551
X-0.6039 Y-4.6193 Z-0.158
X-0.6052 Y-4.6189 Z-0.1607
X-0.607 Y-4.6182 Z-0.163
X-0.6092 Y-4.6175 Z-0.1649
X-0.6117 Y-4.6166 Z-0.1663
X-0.6144 Y-4.6156 Z-0.1672
X-0.6173 Y-4.6146 Z-0.1675
G3 X-0.6481 Y-4.612 I-0.0206 J-0.0588
G1 X-0.6587 Y-4.6141 F60.
X-0.7056 Y-4.6224
X-0.7185 Y-4.6246
X-0.7265 Y-4.6281
X-0.7343 Y-4.6322
X-0.7417 Y-4.6369
X-0.7488 Y-4.642
X-0.7556 Y-4.6476
X-0.7619 Y-4.6537
X-0.7678 Y-4.6602
X-0.7732 Y-4.6671
X-0.7781 Y-4.6744
X-0.7826 Y-4.6819
X-0.7865 Y-4.6898
X-0.7898 Y-4.6979
X-0.7926 Y-4.7062
X-0.7947 Y-4.7147
X-0.7963 Y-4.7234
X-0.7973 Y-4.7321
X-0.7977 Y-4.7409
X-0.7975 Y-4.7496
X-0.7966 Y-4.7584
X-0.7952 Y-4.767
X-0.7931 Y-4.7755
X-0.7905 Y-4.7839
X-0.7873 Y-4.7921
X-0.7836 Y-4.8
X-0.7793 Y-4.8077
X-0.7745 Y-4.815
X-0.7691 Y-4.822
X-0.7634 Y-4.8286
X-0.7525 Y-4.8256
X-0.7056 Y-4.8176
X-0.6641 Y-4.8106
G3 X-0.6525 Y-4.8004 I-0.0031 J0.0151
X-0.6818 Y-4.7629 I-0.027 J0.0091
X-0.7447 Y-4.8034 I0.0061 J-0.0785
X-0.7505 Y-4.817 I0.069 J-0.038 F50.
G2 X-0.762 Y-4.8273 I-0.0146 J0.0048
G1 X-0.7816 Y-4.8307 F60.
G2 X-0.8637 Y-4.6574 I0.0156 J0.1135
X-0.7185 Y-4.6246 I0.2126 J-0.6019
X-0.7043 Y-4.6304 I0.002 J-0.0153
X-0.705 Y-4.6404 I-0.006 J-0.0046
G1 X-0.7078 Y-4.6431
G2 X-0.8361 Y-4.6641 I-0.0801 J0.0868
X-0.8492 Y-4.6572 I0.0482 J0.1078 F50.
G3 X-0.8571 Y-4.655 I-0.008 J-0.0132
G1 X-0.8597 Y-4.6552
X-0.8622 Y-4.6559
X-0.8646 Y-4.6569
G3 X-0.7816 Y-4.8307 I0.0423 J-0.0865 F60.
G1 X-0.7764 Y-4.8389
X-0.7706 Y-4.8467
X-0.7645 Y-4.8541
X-0.7578 Y-4.8612
X-0.7507 Y-4.8678
X-0.7432 Y-4.8739
X-0.7354 Y-4.8796
X-0.7272 Y-4.8847
X-0.7187 Y-4.8894
X-0.71 Y-4.8935
X-0.7009 Y-4.897
X-0.6917 Y-4.9
X-0.6824 Y-4.9024
X-0.6728 Y-4.9042
X-0.6632 Y-4.9054
X-0.6536 Y-4.906
X-0.6439 Y-4.9059
X-0.6343 Y-4.9053
X-0.6247 Y-4.9041
X-0.6152 Y-4.9023
X-0.6058 Y-4.8998
X-0.5966 Y-4.8968
X-0.5876 Y-4.8933
X-0.5789 Y-4.8891
X-0.5704 Y-4.8845
G2 X0.0787 Y-4.8742 I0.3587 J-2.1535
X0.6929 Y-4.9168 I0.2157 J-1.3396
G3 X1.0056 Y-4.7816 I0.0977 J0.2032
G1 X1.0091 Y-4.7552
X1.0089 Y-4.7247
X1.0057 Y-4.703
G3 X0.7362 Y-4.5344 I-0.2409 J-0.0854
X0.1849 Y-4.4626 I-0.4333 J-1.174
G2 X-0.339 Y-4.4458 I-0.1958 J2.0723
G3 X-0.8869 Y-4.562 I5.7829 J-28.6301
X-0.8493 Y-4.9273 I0.0666 J-0.1777
X-0.3998 Y-4.9624 I0.264 J0.4841
G2 X0.0946 Y-4.9686 I0.1857 J-4.9522
X0.6168 Y-5.0048 I0.175 J-1.2601
G3 X0.6999 Y-5.0185 I0.0814 J0.234
G1 X0.7141 Y-5.0162
X0.9253 Y-4.9812
X0.9371 Y-4.9773
X0.9487 Y-4.9729
X0.9601 Y-4.968
X0.9712 Y-4.9625
X0.9821 Y-4.9564
X0.9926 Y-4.9498
X1.0028 Y-4.9427
X1.0127 Y-4.9351
X1.0221 Y-4.927
X1.0311 Y-4.9185
X1.0398 Y-4.9096
X1.0479 Y-4.9002
X1.0556 Y-4.8904
X1.0628 Y-4.8803
X1.0695 Y-4.8699
X1.0757 Y-4.8591
X1.0813 Y-4.848
X1.0864 Y-4.8367
X1.0909 Y-4.8251
X1.0948 Y-4.8133
X1.0982 Y-4.8013
X1.1009 Y-4.7892
X1.1031 Y-4.777
X1.1047 Y-4.7647
X1.1056 Y-4.7523
X1.1059 Y-4.7399
X1.1057 Y-4.7275
X1.1048 Y-4.7151
X1.1033 Y-4.7027
X1.1012 Y-4.6905
X1.0985 Y-4.6784
X1.0952 Y-4.6664
X1.0913 Y-4.6546
X1.0869 Y-4.643
X1.0818 Y-4.6316
X1.0763 Y-4.6205
X1.0702 Y-4.6097
X1.0635 Y-4.5992
X1.0564 Y-4.5891
X1.0487 Y-4.5793
X1.0406 Y-4.5698
X0.8604 Y-4.4703
X0.8304 Y-4.4591
X0.8001 Y-4.4486
X0.7697 Y-4.4386
X0.739 Y-4.4292
X0.7082 Y-4.4203
X0.6773 Y-4.412
X0.6461 Y-4.4043
X0.6149 Y-4.3972
X0.5835 Y-4.3907
X0.552 Y-4.3848
X0.5204 Y-4.3794
X0.4887 Y-4.3747
X0.4569 Y-4.3706
X0.4251 Y-4.367
X0.3932 Y-4.364
X0.3612 Y-4.3617
X0.3292 Y-4.3599
X0.2972 Y-4.3588
X0.2651 Y-4.3582
X0.2331
X0.201 Y-4.3589
X0.169 Y-4.3601
X0.137 Y-4.3619
X0.1051 Y-4.3644
X0.0732 Y-4.3674
X0.0413 Y-4.371
X0.0095 Y-4.3753
X-0.0221 Y-4.3801
G3 X-0.797 Y-4.4356 I-0.253 J-1.9036
G1 X-0.9987 Y-4.5458
X-1.0086 Y-4.5532
X-1.018 Y-4.5611
X-1.0271 Y-4.5694
X-1.0358 Y-4.5781
X-1.044 Y-4.5873
X-1.0518 Y-4.5968
X-1.0591 Y-4.6067
X-1.0659 Y-4.6169
X-1.0723 Y-4.6275
X-1.078 Y-4.6384
X-1.0833 Y-4.6495
X-1.088 Y-4.6609
X-1.0921 Y-4.6725
X-1.0957 Y-4.6843
X-1.0987 Y-4.6962
X-1.1011 Y-4.7083
X-1.1029 Y-4.7205
X-1.1041 Y-4.7327
X-1.1048 Y-4.745
Y-4.7573
X-1.1042 Y-4.7696
X-1.103 Y-4.7819
X-1.1012 Y-4.794
X-1.0989 Y-4.8061
X-1.0959 Y-4.8181
X-1.0924 Y-4.8299
X-1.0883 Y-4.8415
X-1.0836 Y-4.8529
X-1.0784 Y-4.864
X-1.0727 Y-4.8749
X-1.0664 Y-4.8855
X-1.0596 Y-4.8958
X-1.0523 Y-4.9057
X-1.0446 Y-4.9152
X-1.0364 Y-4.9244
X-1.0277 Y-4.9332
X-1.0187 Y-4.9415
X-1.0092 Y-4.9494
X-0.9994 Y-4.9568
X-0.9892 Y-4.9637
X-0.9787 Y-4.9701
X-0.9752 Y-4.9724
X-0.9518 Y-4.9768
X-0.6937 Y-5.0196
X-0.6702 Y-5.0223
X-0.4356 Y-5.0481
X-0.4121 Y-5.0504
X-0.154 Y-5.0646
X-0.1306 Y-5.0654
X0.1275
X0.151 Y-5.0648
X0.4091 Y-5.0506
X0.4326 Y-5.0484
X0.6906 Y-5.02
X0.6999 Y-5.0185
G3 X0.7088 Y-5.0137 I-0.0024 J0.0152
G2 X0.7173 Y-5.009 I0.0114 J-0.0104
G1 X0.7279 Y-5.007
X0.8861 Y-4.9766
X0.889 Y-4.9764
X0.8918 Y-4.9766
X0.8946 Y-4.9774
G3 X0.9253 Y-4.9812 I0.0226 J0.058 F50.
G1 X0.9487 Y-4.9773 F60.
X0.9722 Y-4.9731
X1.079 Y-4.9493
G3 X1.1824 Y-4.6462 I-0.1282 J0.2129
G1 X1.0414 Y-4.5692
G3 X1.026 Y-4.5701 I-0.0069 J-0.0138
X1.0201 Y-4.6333 I0.0223 J-0.034
X1.1541 Y-4.6544 I0.0821 J0.0849
X1.167 Y-4.6471 I-0.052 J0.1061 F50.
G2 X1.1824 Y-4.6462 I0.0085 J-0.0129
G1 X1.225 Y-4.6695 F60.
G2 X1.2469 Y-4.9112 I-0.1304 J-0.1336
G1 X1.2303 Y-4.9155
X1.079 Y-4.9493
G2 X1.0644 Y-4.9441 I-0.0028 J0.0151
X1.0678 Y-4.8976 I0.0251 J0.0216
X1.2215 Y-4.8964 I0.0776 J-0.0891
X1.2322 Y-4.9066 I-0.0761 J-0.0903 F50.
G3 X1.2469 Y-4.9112 I0.0113 J0.0104
G1 X1.2538 Y-4.9094 F60.
X1.2901 Y-4.8991
X1.2981 Y-4.8952
X1.3058 Y-4.8907
X1.3132 Y-4.8858
X1.3202 Y-4.8803
X1.3269 Y-4.8744
X1.3331 Y-4.8681
X1.3389 Y-4.8613
X1.3443 Y-4.8542
X1.3491 Y-4.8467
X1.3534 Y-4.8389
X1.3572 Y-4.8309
X1.3604 Y-4.8226
X1.3631 Y-4.8141
X1.3652 Y-4.8054
X1.3667 Y-4.7967
X1.3676 Y-4.7878
X1.3679 Y-4.7789
X1.3676 Y-4.77
X1.3667 Y-4.7612
X1.3653 Y-4.7524
X1.3632 Y-4.7437
X1.225 Y-4.6695
G3 X1.2097 Y-4.6704 I-0.0069 J-0.0138
X1.2059 Y-4.7371 I0.0228 J-0.0347
X1.3334 Y-4.7524 I0.0756 J0.0908
X1.3463 Y-4.7451 I-0.052 J0.1061 F50.
G2 X1.3616 Y-4.7442 I0.0085 J-0.0129
G1 X1.3907 Y-4.7601 F60.
G2 X1.4214 Y-4.8638 I-0.0484 J-0.0707
G1 X1.2901 Y-4.8991
G2 X1.2749 Y-4.874 I-0.0037 J0.015
G1 X1.3652 Y-4.7717
X1.3723 Y-4.7636 F50.
G2 X1.3907 Y-4.7601 I0.0115 J-0.0102
G1 X1.4525 Y-4.7939 F60.
G2 X1.4787 Y-4.8461 I-0.0023 J-0.0338
G1 X1.4191 Y-4.8628
G2 X1.4043 Y-4.8585 I-0.0037 J0.015
X1.4034 Y-4.8462 I0.007 J0.0067
G1 X1.4043 Y-4.8451
G2 X1.452 Y-4.8332 I0.0313 J-0.0239
X1.464 Y-4.8417 I-0.0164 J-0.0358 F50.
G3 X1.4787 Y-4.8461 I0.0111 J0.0107
G1 X1.4936 Y-4.8419 F60.
X1.4951 Y-4.8415
X1.4962 Y-4.8411
X1.4987 Y-4.8403
X1.4998 Y-4.8398
G3 X1.5019 Y-4.8375 I-0.0027 J0.0046
X1.4953 Y-4.8302 I-0.0048 J0.0023 F50.
G1 X1.4931 Y-4.831
G3 X1.4962 Y-4.8411 I0.0018 J-0.005
G1 X1.4982 Y-4.8406 F60.
X1.4988 Y-4.8403
X1.5004 Y-4.8394
X1.5015 Y-4.8388
X1.5029 Y-4.8381
X1.508 Y-4.835
G3 X1.5068 Y-4.8259 I-0.0052 J0.004
X1.5002 Y-4.825 I-0.004 J-0.0052 F50.
G1 X1.4974 Y-4.8262
G3 X1.494 Y-4.835 I0.0026 J-0.006
X1.5029 Y-4.8381 I0.0059 J0.0027
G1 X1.5071 Y-4.8358 F60.
X1.5076 Y-4.8355
X1.5088 Y-4.834
X1.509 Y-4.8336
X1.5097 Y-4.8315
X1.5095 Y-4.8295
G3 X1.4525 Y-4.7939 I-0.0556 J-0.0255
X1.4302 Y-4.8072 I-0.0069 J-0.0138
G1 Y-4.8102 Z-0.1672
X1.4301 Y-4.8131 Z-0.1663
X1.43 Y-4.8157 Z-0.1649
X1.4299 Y-4.8181 Z-0.163
Y-4.82 Z-0.1607
X1.4298 Y-4.8214 Z-0.158
Y-4.8223 Z-0.1551
Y-4.8226 Z-0.1521
G0 Z-0.1367
X-0.8267 Y-4.4707
G1 Z-0.1521 F50.
X-0.8265 Y-4.4705 Z-0.1551
X-0.8261 Y-4.4697 Z-0.158
X-0.8254 Y-4.4685 Z-0.1607
X-0.8244 Y-4.4669 Z-0.163
X-0.8232 Y-4.4648 Z-0.1649
X-0.8218 Y-4.4626 Z-0.1663
X-0.8204 Y-4.4601 Z-0.1672
X-0.8188 Y-4.4575 Z-0.1675
G2 X-0.797 Y-4.4356 I0.0536 J-0.0317
G1 X-0.5764 Y-4.315 F60.
G2 X-0.0893 Y-4.2688 I0.3258 J-0.8437
G3 X0.0571 Y-4.275 I0.0909 J0.4155
G2 X0.5136 Y-4.2807 I0.2142 J-1.1226
G1 X0.8604 Y-4.4703
G2 X0.868 Y-4.4837 I-0.0079 J-0.0132
X0.8464 Y-4.5154 I-0.0346 J0.0004
X0.5214 Y-4.3089 I-0.0891 J0.2188
G1 X0.5211 Y-4.2941 F50.
G3 X0.5136 Y-4.2807 I-0.0154 J0.0002
G1 X0.3451 Y-4.1887 F60.
G3 X0.2918 Y-4.183 I-0.029 J-0.0187
G2 X0.0571 Y-4.275 I-0.2922 J0.4001
G3 X0.0484 Y-4.2801 I0.0029 J-0.0151
G2 X0.037 Y-4.2854 I-0.0117 J0.0101
G1 X0.0293 Y-4.2855
X-0.0513 Y-4.2869
G2 X-0.0618 Y-4.283 I-0.0003 J0.0154
G3 X-0.0893 Y-4.2688 I-0.0414 J-0.0466 F50.
G2 X-0.2713 Y-4.1961 I0.083 J0.472 F60.
G3 X-0.3253 Y-4.1779 I-0.0429 J-0.038
X-0.3241 Y-4.205 I0.0079 J-0.0132
G1 X-0.2867 Y-4.2227
G3 X-0.2723 Y-4.2221 I0.0066 J0.0139
X-0.2713 Y-4.1961 I-0.0078 J0.0133 F50.
X-0.3234 Y-4.1768 I-0.0351 J-0.015 F60.
G1 X-0.5764 Y-4.315
G3 X-0.5772 Y-4.341 I0.0079 J-0.0132
G1 X-0.5747 Y-4.3427 Z-0.1672
X-0.5723 Y-4.3443 Z-0.1663
X-0.5701 Y-4.3458 Z-0.1649
X-0.5682 Y-4.3471 Z-0.163
X-0.5666 Y-4.3482 Z-0.1607
X-0.5654 Y-4.349 Z-0.158
X-0.5647 Y-4.3495 Z-0.1551
X-0.5645 Y-4.3497 Z-0.1521
G0 Z-0.1367
X-0.9531 Y-4.5398
G1 Z-0.1521 F50.
X-0.9534 Z-0.1551
X-0.9543 Z-0.158
X-0.9557 Y-4.5397 Z-0.1607
X-0.9576 Z-0.163
X-0.9599 Y-4.5396 Z-0.1649
X-0.9626 Y-4.5395 Z-0.1663
X-0.9655 Y-4.5394 Z-0.1672
X-0.9685 Y-4.5393 Z-0.1675
G3 X-0.9987 Y-4.5458 I-0.0023 J-0.0623
G1 X-1.1245 Y-4.6146 F60.
G3 X-1.1398 Y-4.9357 I0.1735 J-0.1692
G1 X-0.9795 Y-4.9714
G3 X-0.9649 Y-4.9663 I0.0028 J0.0151
X-0.9745 Y-4.9064 I-0.0302 J0.0259
X-1.115 Y-4.92 I-0.0611 J-0.1011
X-1.1253 Y-4.9306 I0.0793 J-0.0875 F50.
G2 X-1.1398 Y-4.9357 I-0.0117 J0.01
G1 X-1.1864 Y-4.9253 F60.
G2 X-1.2777 Y-4.6983 I0.083 J0.1652
G1 X-1.1245 Y-4.6146
G2 X-1.1092 Y-4.6155 I0.0069 J-0.0138
X-1.0989 Y-4.6654 I-0.0198 J-0.0301
X-1.2495 Y-4.7065 I-0.0986 J0.065
X-1.2623 Y-4.6992 I0.052 J0.1061 F50.
G3 X-1.2777 Y-4.6983 I-0.0085 J-0.0129
G1 X-1.3155 Y-4.7189 F60.
G3 X-1.3464 Y-4.8846 I0.0826 J-0.1012
G1 X-1.2568 Y-4.9085
X-1.2333 Y-4.9148
X-1.1864 Y-4.9253
G3 X-1.1719 Y-4.9202 I0.0028 J0.0151
X-1.1801 Y-4.8624 I-0.0295 J0.0253
X-1.3192 Y-4.8694 I-0.0648 J-0.0988
X-1.3301 Y-4.8794 I0.0744 J-0.0917 F50.
G2 X-1.3449 Y-4.8837 I-0.0111 J0.0107
G1 X-1.3741 Y-4.8755 F60.
G2 X-1.4317 Y-4.7807 I0.0268 J0.0812
G1 X-1.3155 Y-4.7189
G2 X-1.2947 Y-4.7394 I0.0069 J-0.0138
G1 X-1.3522 Y-4.8583
X-1.3566 Y-4.8672 F50.
G2 X-1.3741 Y-4.8755 I-0.0139 J0.0067
G1 X-1.4516 Y-4.8537 F60.
G2 X-1.4834 Y-4.8107 I-0.0039 J0.0304
G1 X-1.4292 Y-4.7811
G2 X-1.4138 Y-4.782 I0.0069 J-0.0138
X-1.4101 Y-4.7939 I-0.0054 J-0.0082
G1 X-1.4107 Y-4.7951
G2 X-1.4545 Y-4.8173 I-0.0358 J0.0163
X-1.4681 Y-4.8116 I0.008 J0.0385 F50.
G3 X-1.4834 Y-4.8107 I-0.0085 J-0.0129
G1 X-1.496 Y-4.8176 F60.
X-1.4971 Y-4.8182
X-1.4985 Y-4.819
X-1.4995 Y-4.8196
X-1.5003 Y-4.8202
G3 X-1.4958 Y-4.8346 I0.0055 J-0.0062
X-1.4865 Y-4.8264 I0.001 J0.0082 F50.
X-1.4958 Y-4.8182 I-0.0083 J0.
X-1.4985 Y-4.819 I0.001 J-0.0083
G1 X-1.4992 Y-4.8194 F60.
X-1.4999 Y-4.8199
X-1.5008 Y-4.8206
X-1.5019 Y-4.8215
X-1.5028 Y-4.8223
X-1.5072 Y-4.8263
X-1.5082 Y-4.8305
X-1.5069 Y-4.8347
X-1.5038 Y-4.8376
G3 X-1.4976 Y-4.8393 I0.0073 J0.0146
X-1.492 Y-4.8379 I0.0006 J0.0095
X-1.4891 Y-4.8244 I-0.005 J0.0081 F50.
X-1.5028 Y-4.8223 I-0.0078 J-0.0054
G1 X-1.508 Y-4.8266 F60.
X-1.5086 Y-4.8273
X-1.5092 Y-4.8286
X-1.5095 Y-4.8292
X-1.5097 Y-4.8311
X-1.5096 Y-4.8317
G3 X-1.4516 Y-4.8537 I0.0409 J0.0205
X-1.4328 Y-4.8357 I0.0037 J0.015
G1 X-1.4334 Y-4.8328 Z-0.1672
X-1.434 Y-4.8299 Z-0.1663
X-1.4345 Y-4.8273 Z-0.1649
X-1.435 Y-4.825 Z-0.163
X-1.4354 Y-4.8232 Z-0.1607
X-1.4356 Y-4.8218 Z-0.158
X-1.4358 Y-4.8209 Z-0.1551
X-1.4359 Y-4.8206 Z-0.1521
G0 Z0.6
X1.5715 Y-4.1535
Z0.1
G3 X1.6173 Y-4.0146 Z0.0595 I0.0229 J0.0695 F50.
X1.5715 Y-4.1535 Z0.019 I-0.0229 J-0.0695
X1.6173 Y-4.0146 Z-0.0216 I0.0229 J0.0695
X1.5715 Y-4.1535 Z-0.0621 I-0.0229 J-0.0695
X1.6173 Y-4.0146 Z-0.1026 I0.0229 J0.0695
X1.5715 Y-4.1535 Z-0.1431 I-0.0229 J-0.0695
X1.6675 Y-4.084 Z-0.1675 I0.0229 J0.0695
X1.5212 I-0.0731 J0.
X1.6673 Y-4.09 I0.0731 J0.
G1 X1.6675 Y-4.084
G3 X1.6795 Y-4.0065 I-0.0299 J0.0443 F60.
G1 X1.6413 Y-4.004
X1.5944 Y-3.99
X1.558 Y-3.9777
X1.5499 Y-3.9773
X1.5418 Y-3.9775
X1.5337 Y-3.9782
X1.5257 Y-3.9796
X1.5179 Y-3.9815
X1.5102 Y-3.984
X1.5027 Y-3.9871
X1.4954 Y-3.9907
X1.4884 Y-3.9948
X1.4818 Y-3.9994
X1.4755 Y-4.0045
X1.4695 Y-4.0101
X1.4641 Y-4.0161
X1.459 Y-4.0224
X1.4545 Y-4.0291
X1.4504 Y-4.0361
X1.4469 Y-4.0434
X1.4439 Y-4.051
X1.4415 Y-4.0587
X1.4396 Y-4.0666
X1.4383 Y-4.0746
X1.4377 Y-4.0827
X1.4376 Y-4.0908
X1.4381 Y-4.0989
X1.4392 Y-4.1069
X1.4409 Y-4.1148
X1.4431 Y-4.1226
X1.4459 Y-4.1302
X1.4493 Y-4.1376
X1.4532 Y-4.1447
G3 X1.603 Y-4.1954 I2.4562 J7.0061
G1 X1.6123 Y-4.197
X1.6217 Y-4.198
X1.6311 Y-4.1984
X1.6405 Y-4.1981
X1.6499 Y-4.1973
X1.6592 Y-4.1958
X1.6684 Y-4.1938
X1.6774 Y-4.1912
X1.6863 Y-4.1879
X1.6949 Y-4.1841
X1.7033 Y-4.1798
X1.7113 Y-4.1749
X1.7191 Y-4.1695
X1.7264 Y-4.1637
X1.7334 Y-4.1573
X1.7399 Y-4.1506
X1.746 Y-4.1434
X1.7516 Y-4.1358
X1.7567 Y-4.1279
X1.7613 Y-4.1197
X1.7654 Y-4.1112
X1.7689 Y-4.1024
X1.7718 Y-4.0935
X1.7741 Y-4.0843
X1.7758 Y-4.0751
X1.7769 Y-4.0657
X1.7775 Y-4.0563
X1.7774 Y-4.0469
X1.7767 Y-4.0375
X1.7753 Y-4.0282
X1.7734 Y-4.019
X1.7709 Y-4.0099
X1.7678 Y-4.001
X1.7642 Y-3.9923
X1.76 Y-3.9839
X1.7552 Y-3.9758
X1.75 Y-3.968
X1.7442 Y-3.9605
X1.7352 Y-3.9668
X1.7144 Y-3.9849
G3 X1.7098 Y-3.9996 I0.0105 J-0.0113
X1.7235 Y-4.0027 I0.0076 J0.0017
X1.7294 Y-3.9923 I-0.0309 J0.0244
X1.732 Y-3.9778 I-0.0368 J0.014 F50.
G2 X1.7396 Y-3.9644 I0.0154 J0.0002
G1 X1.755 Y-3.9559 F60.
G2 X1.8449 Y-4.1209 I0.0036 J-0.105
G1 X1.8391 Y-4.131
X1.8379 Y-4.1381
G2 X1.7109 Y-4.2793 I-0.1851 J0.0388
X1.642 Y-4.216 I0.0105 J0.0806
G1 X1.603 Y-4.1954
G2 X1.5954 Y-4.1821 I0.0078 J0.0133
G1 X1.601 Y-4.1772
X1.6073 Y-4.1782
G2 X1.6962 Y-4.2538 I-0.0221 J-0.116
X1.7004 Y-4.268 I-0.111 J-0.0404 F50.
G3 X1.7109 Y-4.2793 I0.015 J0.0034
X1.8379 Y-4.1381 I0.0146 J0.1146 F60.
X1.8093 Y-4.1278 I-0.0152 J0.0027
X1.8147 Y-4.1383 I0.0062 J-0.0035
X1.8204 Y-4.1378 I0.0017 J0.0153
X1.8473 Y-4.1225 I-0.0164 J0.0601 F50.
X1.7537 Y-3.9533 I-0.0492 J0.0833 F60.
G1 X1.7511 Y-3.9554
X1.749 Y-3.958
X1.7474 Y-3.9608
X1.7464 Y-3.9639
X1.746 Y-3.967
X1.7462 Y-3.9701
X1.7469 Y-3.9731
X1.7481 Y-3.9758
X1.7498 Y-3.9782
X1.7519 Y-3.9803
X1.7542 Y-3.9819
X1.7567 Y-3.9836 Z-0.1672
X1.7591 Y-3.9852 Z-0.1663
X1.7613 Y-3.9867 Z-0.1649
X1.7632 Y-3.988 Z-0.163
X1.7648 Y-3.9891 Z-0.1607
X1.766 Y-3.9899 Z-0.158
X1.7667 Y-3.9904 Z-0.1551
X1.767 Y-3.9905 Z-0.1521
G0 Z0.4
X1.5934 Y-4.0071
Z-0.1367
G1 Z-0.1521 F50.
X1.5932 Y-4.0069 Z-0.1551
X1.5926 Y-4.0062 Z-0.158
X1.5917 Y-4.0052 Z-0.1607
X1.5904 Y-4.0037 Z-0.163
X1.5889 Y-4.0019 Z-0.1649
X1.5872 Y-3.9999 Z-0.1663
X1.5853 Y-3.9977 Z-0.1672
X1.5833 Y-3.9955 Z-0.1675
G3 X1.558 Y-3.9777 I-0.0473 J-0.0406
G1 X1.5475 Y-3.9742 F60.
X1.5005 Y-3.9564
X1.4919 Y-3.9528
G3 X1.3568 Y-4.1083 I-0.0141 J-0.1243
G1 X1.3598 Y-4.109
X1.3629 Y-4.1092
X1.3659 Y-4.1088
X1.3687 Y-4.1078
G2 X1.3752 Y-4.107 I0.0051 J-0.0145
G1 X1.3891 Y-4.1082
X1.483 Y-4.1168
G2 X1.4841 Y-4.1473 I-0.0014 J-0.0153
X1.4533 Y-4.1447 I-0.0102 J0.0615 F50.
G3 X1.3368 Y-4.1004 I-1.3326 J-3.3334 F60.
G2 X1.3419 Y-3.917 I0.075 J0.0897
X1.4919 Y-3.9528 I-0.0016 J-0.3396
X1.5008 Y-3.9653 I-0.0065 J-0.014
G1 X1.4999 Y-3.9665
X1.4868 Y-3.9684
G2 X1.3674 Y-3.9314 I-0.0169 J0.1566
X1.3567 Y-3.9213 I0.1025 J0.1196 F50.
G3 X1.3419 Y-3.917 I-0.0111 J-0.0107
X1.3369 Y-4.1002 I0.0149 J-0.092 F60.
X1.4392 Y-4.2386 I0.1169 J-0.0206
G1 X1.5694 Y-4.3053
X1.6993 Y-4.3723
X1.7104 Y-4.3735
X1.7216 Y-4.3741
X1.7327 Y-4.374
X1.7438 Y-4.3733
X1.7549 Y-4.372
X1.7659 Y-4.3701
X1.7767 Y-4.3676
X1.7874 Y-4.3645
X1.798 Y-4.3608
X1.8083 Y-4.3565
X1.8183 Y-4.3517
X1.8281 Y-4.3463
X1.8375 Y-4.3404
X1.8466 Y-4.334
X1.8553 Y-4.327
X1.8637 Y-4.3196
X1.8716 Y-4.3118
X1.8791 Y-4.3035
X1.8861 Y-4.2949
X1.8926 Y-4.2858
X1.8986 Y-4.2764
X1.9041 Y-4.2667
X1.909 Y-4.2567
X1.9134 Y-4.2465
X1.9172 Y-4.236
X1.9204 Y-4.2253
X1.923 Y-4.2145
X1.925 Y-4.2035
X1.9264 Y-4.1925
G3 X1.6705 Y-3.8938 I-0.1366 J0.1419
X1.3403 Y-3.8225 I-0.4365 J-1.2221
X1.1797 Y-3.9708 I0.0263 J-0.1897
X1.5098 Y-4.3797 I0.447 J0.0232
G1 X1.5822 Y-4.4271
G3 X2.0041 Y-4.27 I0.1478 J0.248
G1 X2.0638 Y-4.0714
X2.0659 Y-4.059
X2.0673 Y-4.0465
X2.0682 Y-4.034
X2.0685 Y-4.0215
X2.0681 Y-4.009
X2.0672 Y-3.9965
X2.0657 Y-3.984
X2.0636 Y-3.9717
X2.0608 Y-3.9594
X2.0575 Y-3.9473
X2.0537 Y-3.9354
X2.0492 Y-3.9237
X2.0442 Y-3.9122
X2.0387 Y-3.901
X2.0326 Y-3.89
X2.026 Y-3.8794
X2.0189 Y-3.869
X2.0113 Y-3.8591
X2.0032 Y-3.8495
X1.9947 Y-3.8403
X1.9857 Y-3.8315
X1.9764 Y-3.8231
X1.9666 Y-3.8153
X1.9565 Y-3.8079
X1.9461 Y-3.8009
X1.9353 Y-3.7945
X1.9242 Y-3.7887
X1.9129 Y-3.7833
X1.9013 Y-3.7785
X1.8895 Y-3.7743
X1.8775 Y-3.7706
X1.8654 Y-3.7676
X1.8531 Y-3.7651
X1.8407 Y-3.7632
X1.8282 Y-3.7619
X1.8157 Y-3.7612
X1.8032 Y-3.7611
X1.7907 Y-3.7616
G2 X1.4767 Y-3.755 I-0.1496 J0.3576
G3 X1.3696 Y-3.7287 I-0.0847 J-0.1137
X1.3711 Y-3.758 I0.0055 J-0.0144
G1 X1.465 Y-3.7832
G3 X1.4779 Y-3.7809 I0.004 J0.0149
X1.4767 Y-3.755 I-0.0089 J0.0126 F50.
X1.4071 Y-3.7175 I-0.0857 J-0.0756 F60.
G1 X1.3975 Y-3.7194
X1.3945 Y-3.7202
X1.2303 Y-3.7764
X1.2188 Y-3.7823
X1.2076 Y-3.7888
X1.1968 Y-3.7958
X1.1863 Y-3.8034
X1.1762 Y-3.8114
X1.1665 Y-3.82
X1.1572 Y-3.829
X1.1483 Y-3.8384
X1.14 Y-3.8482
X1.1321 Y-3.8585
X1.1247 Y-3.8691
X1.1179 Y-3.8801
X1.1116 Y-3.8914
X1.1058 Y-3.9029
X1.1006 Y-3.9148
X1.096 Y-3.9269
X1.092 Y-3.9391
X1.0886 Y-3.9516
X1.0858 Y-3.9642
X1.0836 Y-3.977
X1.0821 Y-3.9898
X1.0811 Y-4.0027
X1.0808 Y-4.0156
X1.0811 Y-4.0286
X1.0821 Y-4.0414
X1.0837 Y-4.0543
X1.0859 Y-4.067
X1.0887 Y-4.0796
X1.0921 Y-4.0921
X1.0961 Y-4.1044
X1.1007 Y-4.1165
X1.1059 Y-4.1283
X1.1117 Y-4.1399
X1.118 Y-4.1511
X1.1249 Y-4.1621
X1.1323 Y-4.1727
X1.1402 Y-4.1829
X1.5079 Y-4.3865
G3 X1.5233 Y-4.3856 I0.0069 J0.0138
X1.5491 Y-4.2863 I-0.042 J0.0639
X1.1662 Y-4.1758 I-0.2442 J-0.1277
G1 X1.1536 Y-4.1836 F50.
G2 X1.1382 Y-4.1845 I-0.0085 J0.0129
G1 X1.0661 Y-4.145 F60.
G2 X1.0357 Y-3.8339 I0.1599 J0.1727
G1 X1.1599 Y-3.8
X1.1834 Y-3.7924
X1.2303 Y-3.7764
G2 X1.2453 Y-3.7798 I0.0045 J-0.0147
X1.2488 Y-3.7934 I-0.0089 J-0.0095
X1.0612 Y-3.8484 I-0.1125 J0.0361
X1.0504 Y-3.8383 I0.0751 J0.0911 F50.
G3 X1.0357 Y-3.8339 I-0.0112 J-0.0106
G1 X0.9886 Y-3.8467 F60.
G3 X0.9093 Y-4.0594 I0.0883 J-0.154
G1 X1.0661 Y-4.145
G3 X1.0814 Y-4.1441 I0.0069 J0.0138
X1.0923 Y-4.0991 I-0.0186 J0.0283
X0.9375 Y-4.0512 I-0.1028 J-0.0581
X0.9247 Y-4.0585 I0.052 J-0.1061 F50.
G2 X0.9093 Y-4.0594 I-0.0085 J0.0129
G1 X0.8719 Y-4.0389 F60.
G2 X0.8414 Y-3.8799 I0.0777 J0.0973
G1 X0.9018 Y-3.869
X0.9253 Y-3.864
X0.9886 Y-3.8467
G2 X1.0052 Y-3.8698 I0.0035 J-0.015
X0.9948 Y-3.8813 I-0.0363 J0.0225
X0.871 Y-3.8932 I-0.0715 J0.094
X0.8548 Y-3.8836 I0.0523 J0.1059 F50.
G3 X0.8433 Y-3.881 I-0.0089 J-0.0126
G1 X0.8181 Y-3.8862 F60.
G3 X0.7574 Y-3.9783 I0.0205 J-0.0795
G1 X0.7603 Y-3.9796
X0.7632 Y-3.9803
X0.7662 Y-3.9806
X0.7692 Y-3.9802
X0.772 Y-3.9793
X0.7746 Y-3.978
X0.7769 Y-3.9762
X0.7788 Y-3.9741
X0.7855 Y-3.9661
X0.8324 Y-3.9114
X0.8343 Y-3.9086
X0.8355 Y-3.9055
G3 X0.8181 Y-3.8862 I-0.0148 J0.0041 F50.
G1 X0.7481 Y-3.9005 F60.
G3 X0.7049 Y-3.9476 I-0.0046 J-0.0392
X0.7183 Y-3.9478 I0.0069 J0.0138
G1 X0.7337 Y-3.9406
X0.7572 Y-3.9297
G3 X0.7655 Y-3.9198 I-0.0065 J0.014
X0.7481 Y-3.9005 I-0.0148 J0.0041 F50.
G1 X0.6906 Y-3.9123 F60.
X0.6852 Y-3.9138
X0.6838 Y-3.9142
X0.6821 Y-3.9147
X0.6784 Y-3.9159
G3 X0.6754 Y-3.9192 I0.002 J-0.0049
X0.6821 Y-3.9258 I0.005 J-0.0016 F50.
G1 X0.685 Y-3.9249
G3 X0.6821 Y-3.9147 I-0.0017 J0.005
G1 X0.6807 Y-3.9151 F60.
X0.6781 Y-3.916
X0.6768 Y-3.9165
X0.6757 Y-3.9169
X0.6748 Y-3.9172
X0.6739 Y-3.9177
X0.673 Y-3.9182
X0.6722 Y-3.9189
X0.6746 Y-3.9221 F50.
X0.6773 Y-3.9206
X0.6757 Y-3.9169
X0.6738 Y-3.9175 F60.
X0.6732 Y-3.918
X0.6722 Y-3.9189
X0.6718 Y-3.9193
X0.6708 Y-3.921
X0.6704 Y-3.9232
X0.6705 Y-3.9237
X0.6708 Y-3.9254
G3 X0.6804 Y-3.9343 I0.0195 J0.0116
G1 X0.8719 Y-4.0389
G3 X0.8942 Y-4.0256 I0.0069 J0.0138
G1 X0.8943 Y-4.0226 Z-0.1672
X0.8944 Y-4.0197 Z-0.1663
Y-4.017 Z-0.1649
X0.8945 Y-4.0147 Z-0.163
X0.8946 Y-4.0128 Z-0.1607
Y-4.0114 Z-0.158
Y-4.0105 Z-0.1551
Y-4.0102 Z-0.1521
G0 Z0.4
X1.7557 Y-3.791
Z-0.1367
G1 Z-0.1521 F50.
X1.7559 Y-3.7908 Z-0.1551
X1.7565 Y-3.7901 Z-0.158
X1.7574 Y-3.789 Z-0.1607
X1.7586 Y-3.7876 Z-0.163
X1.7601 Y-3.7858 Z-0.1649
X1.7618 Y-3.7837 Z-0.1663
X1.7636 Y-3.7815 Z-0.1672
X1.7656 Y-3.7792 Z-0.1675
G2 X1.7906 Y-3.7611 I0.0479 J-0.0398
G3 X1.8585 Y-3.7235 I-0.0663 J0.2 F60.
G2 X2.1242 Y-3.8655 I0.0523 J-0.2217
G1 X2.0638 Y-4.0714
G2 X2.0346 Y-4.0617 I-0.0146 J0.0048
X2.054 Y-4.0519 I0.0146 J-0.0048
X2.0638 Y-4.0714 I-0.0048 J-0.0146
G1 X2.0051 Y-4.2482
G2 X1.9759 Y-4.2384 I-0.0146 J0.0049
X2.0054 Y-4.2395 I0.0146 J-0.0049
Y-4.2704 I-0.0604 J-0.0155 F50.
G1 X1.9577 Y-4.4334 F60.
X1.9537 Y-4.4431
X1.9492 Y-4.4526
X1.9442 Y-4.4618
X1.9386 Y-4.4708
X1.9325 Y-4.4794
X1.926 Y-4.4876
X1.919 Y-4.4955
X1.9116 Y-4.5029
X1.9037 Y-4.5099
X1.8955 Y-4.5165
X1.8869 Y-4.5226
X1.878 Y-4.5281
X1.8688 Y-4.5332
X1.8593 Y-4.5377
X1.8495 Y-4.5417
X1.8396 Y-4.5451
X1.8295 Y-4.548
X1.8192 Y-4.5502
X1.8088 Y-4.5519
X1.5822 Y-4.4271
G2 X1.5908 Y-4.3985 I0.0079 J0.0132
G1 X1.9399 Y-4.414
X1.9434 Y-4.4142 F50.
G2 X1.9577 Y-4.4334 I-0.0007 J-0.0154
G1 X1.9224 Y-4.5536 F60.
G2 X1.8874 Y-4.5939 I-0.0341 J-0.0057
G1 X1.8087 Y-4.5509
G2 X1.8186 Y-4.5224 I0.0079 J0.0132
G1 X1.9046 Y-4.5339
X1.9095 Y-4.5345 F50.
G2 X1.9224 Y-4.5536 I-0.002 J-0.0153
X1.9019 Y-4.5995 I-0.0266 J-0.0156 F60.
X1.8874 Y-4.5939 I0.0079 J0.0423
X1.88 Y-4.5792 I0.0079 J0.0132
G1 X1.8803 Y-4.5762 Z-0.1672
X1.8805 Y-4.5733 Z-0.1663
X1.8808 Y-4.5707 Z-0.1649
X1.881 Y-4.5683 Z-0.163
X1.8812 Y-4.5664 Z-0.1607
X1.8814 Y-4.565 Z-0.158
Y-4.5641 Z-0.1551
X1.8815 Y-4.5638 Z-0.1521
G0 Z-0.1367
X2.0962 Y-3.902
G1 Z-0.1521 F50.
X2.0964 Y-3.9018 Z-0.1551
X2.0971 Y-3.9012 Z-0.158
X2.0981 Y-3.9002 Z-0.1607
X2.0995 Y-3.8989 Z-0.163
X2.1012 Y-3.8973 Z-0.1649
X2.1032 Y-3.8955 Z-0.1663
X2.1053 Y-3.8936 Z-0.1672
X2.1075 Y-3.8915 Z-0.1675
G3 X2.1242 Y-3.8655 I-0.0424 J0.0456
G1 X2.1395 Y-3.8132 F60.
Y-3.8028
X2.1388 Y-3.7923
X2.1376 Y-3.7819
X2.1358 Y-3.7716
X2.1334 Y-3.7614
X2.1304 Y-3.7513
X2.1268 Y-3.7415
X2.1227 Y-3.7318
X2.1181 Y-3.7224
X2.1129 Y-3.7133
X2.1072 Y-3.7045
X2.1011 Y-3.696
X2.0944 Y-3.6879
X2.0873 Y-3.6802
X2.0798 Y-3.6729
X2.0719 Y-3.6661
X2.0636 Y-3.6597
X2.0549 Y-3.6538
X2.046 Y-3.6483
X2.0367 Y-3.6434
X2.0272 Y-3.6391
X2.0174 Y-3.6353
X2.0074 Y-3.632
X1.9973 Y-3.6293
X1.9871 Y-3.6272
X1.9767 Y-3.6257
X1.9663 Y-3.6248
X1.9558 Y-3.6245
G2 X1.8585 Y-3.7235 I-0.2649 J0.1628
G3 X1.8518 Y-3.7373 I0.0086 J-0.0128
X1.8671 Y-3.7556 I0.0202 J0.0014
X1.9611 Y-3.6555 I0.0189 J0.0764
X1.9553 Y-3.6419 I-0.0751 J-0.0237 F50.
G2 X1.9558 Y-3.6265 I0.0136 J0.0073
G1 X1.9686 Y-3.6069 F60.
G2 X2.184 Y-3.6615 I0.0857 J-0.1138
G1 X2.1395 Y-3.8132
G2 X2.128 Y-3.8235 I-0.0146 J0.0048
X2.0786 Y-3.7809 I-0.0084 J0.0403
X2.1582 Y-3.6757 I0.1179 J-0.0065
X2.1725 Y-3.6718 I0.0383 J-0.1117 F50.
G3 X2.184 Y-3.6615 I-0.0031 J0.0151
G1 X2.1946 Y-3.6255 F60.
X2.1943 Y-3.6162
X2.1934 Y-3.607
X2.1918 Y-3.5978
X2.1897 Y-3.5888
X2.187 Y-3.5799
X2.1836 Y-3.5712
X2.1797 Y-3.5628
X2.1753 Y-3.5546
X2.1703 Y-3.5468
X2.1648 Y-3.5393
X2.1588 Y-3.5322
X2.1523 Y-3.5255
X2.1455 Y-3.5193
X2.1382 Y-3.5135
X2.1305 Y-3.5082
X2.1225 Y-3.5035
X2.1142 Y-3.4993
X2.1057 Y-3.4957
X2.0969 Y-3.4926
X2.088 Y-3.4902
X2.0789 Y-3.4883
X2.0696 Y-3.4871
X2.0604 Y-3.4864
X2.0511
X2.0418 Y-3.4871
X2.0326 Y-3.4883
X2.0235 Y-3.4901
X2.0145 Y-3.4926
G2 X1.9859 Y-3.5786 I-0.424 J0.0934
G1 X1.9811 Y-3.5877
X1.9686 Y-3.6069
G3 X1.9664 Y-3.6149 I0.0132 J-0.008
G1 X1.9666 Y-3.6174
X1.9673 Y-3.6199
X1.9683 Y-3.6223
G3 X2.0192 Y-3.633 I0.0301 J0.0164
X2.0314 Y-3.5197 I-0.048 J0.0625
X2.0208 Y-3.5094 I-0.0601 J-0.0509 F50.
G2 X2.0153 Y-3.495 I0.0097 J0.012
G1 X2.0173 Y-3.4847 F60.
X2.0183 Y-3.4776
G2 X2.2343 Y-3.4895 I0.1046 J-0.0668
G1 X2.1946 Y-3.6255
G2 X2.1662 Y-3.6276 I-0.0146 J0.0048
X2.1619 Y-3.6119 I0.0367 J0.0184
X2.2107 Y-3.5081 I0.1178 J0.008
X2.2268 Y-3.4983 I0.0691 J-0.0958 F50.
G3 X2.2345 Y-3.4894 I-0.0069 J0.0138
G1 X2.2427 Y-3.4612 F60.
G3 X2.1441 Y-3.3447 I-0.1095 J0.0074
X2.028 Y-3.4196 I0.1124 J-0.3015
X2.0183 Y-3.4776 I0.4262 J-0.1011
X2.0354 Y-3.4946 I0.0153 J-0.0017
G1 X2.0386 Y-3.4943
X2.2165 Y-3.4733
X2.2299 Y-3.4717 F50.
G3 X2.2427 Y-3.4612 I-0.0018 J0.0153
G1 X2.2627 Y-3.3932 F60.
X2.2643 Y-3.386
X2.2654 Y-3.3787
X2.2658 Y-3.3713
X2.2656 Y-3.3639
X2.2648 Y-3.3566
X2.2634 Y-3.3493
X2.2614 Y-3.3422
X2.2588 Y-3.3353
X2.2556 Y-3.3286
X2.2519 Y-3.3223
X2.2477 Y-3.3162
X2.243 Y-3.3105
X2.2378 Y-3.3053
X2.2322 Y-3.3005
X2.2262 Y-3.2962
X2.2198 Y-3.2924
X2.2174 Y-3.2941
X2.2153 Y-3.2961
X2.2136 Y-3.2985
X2.2123 Y-3.3011
X2.2116 Y-3.3038
X2.2113 Y-3.3066
X2.2115 Y-3.3093
X2.2122 Y-3.312
X2.2154 Y-3.3241
G3 X2.2375 Y-3.3996 I0.1087 J-0.0092
X2.2627 Y-3.3932 I0.0106 J0.0112 F50.
G1 X2.2861 Y-3.3132 F60.
G3 X2.2661 Y-3.2632 I-0.0259 J0.0186
X2.256 Y-3.3173 I0.0227 J-0.0322
X2.2609 Y-3.3221 I0.0141 J0.0094
X2.2861 Y-3.3132 I0.0092 J0.0142 F50.
G1 X2.3008 Y-3.2632 F60.
X2.3009 Y-3.2625
X2.3014 Y-3.2586
X2.302 Y-3.253
Y-3.2522
X2.3016 Y-3.2508
G3 X2.2627 Y-3.2654 I-0.0166 J-0.0149
G1 X2.1688 Y-3.3289
X2.1441 Y-3.3447
G3 X2.1447 Y-3.3707 I0.0086 J-0.0128
G1 X2.1473 Y-3.3722 Z-0.1672
X2.1498 Y-3.3737 Z-0.1663
X2.152 Y-3.3751 Z-0.1649
X2.154 Y-3.3763 Z-0.163
X2.1557 Y-3.3773 Z-0.1607
X2.1569 Y-3.378 Z-0.158
X2.1576 Y-3.3785 Z-0.1551
X2.1579 Y-3.3786 Z-0.1521
G0 Z0.6
X3.9184 Y-2.8391
Z0.1
G3 X3.9642 Y-2.7002 Z0.0595 I0.0229 J0.0695 F50.
X3.9184 Y-2.8391 Z0.019 I-0.0229 J-0.0695
X3.9642 Y-2.7002 Z-0.0216 I0.0229 J0.0695
X3.9184 Y-2.8391 Z-0.0621 I-0.0229 J-0.0695
X3.9642 Y-2.7002 Z-0.1026 I0.0229 J0.0695
X3.9184 Y-2.8391 Z-0.1431 I-0.0229 J-0.0695
X4.0145 Y-2.7696 Z-0.1675 I0.0229 J0.0695
X3.8682 I-0.0731 J0.
X4.0142 Y-2.7756 I0.0731 J0.
G1 X4.0145 Y-2.7696
G3 X4.0219 Y-2.749 I-0.0868 J0.0431 F60.
X3.8369 Y-2.7245 I-0.0975 J-0.0257
G1 X3.8311 Y-2.7301
X3.8258 Y-2.7362
X3.8209 Y-2.7426
X3.8165 Y-2.7493
X3.8125 Y-2.7564
X3.8092 Y-2.7637
X3.8063 Y-2.7713
X3.804 Y-2.7791
X3.8023 Y-2.787
X3.8012 Y-2.795
X3.8007 Y-2.803
Y-2.8111
X3.8013 Y-2.8191
X3.8026 Y-2.8271
X3.8044 Y-2.835
X3.8067 Y-2.8427
X3.8097 Y-2.8502
X3.8132 Y-2.8575
X3.8172 Y-2.8646
X3.8217 Y-2.8713
X3.8266 Y-2.8776
X3.8321 Y-2.8836
X3.8379 Y-2.8892
X3.8441 Y-2.8943
X3.8507 Y-2.8989
X3.8577 Y-2.9031
X3.8649 Y-2.9067
X3.8723 Y-2.9099
X3.88 Y-2.9124
X3.8878 Y-2.9144
X3.8958 Y-2.9158
G3 X4.0219 Y-2.749 I-0.0581 J0.1751
X4.009 Y-2.7384 I-0.0147 J-0.0047
G1 X3.9958 Y-2.737
X3.8641 Y-2.7224
X3.8441 Y-2.7202 F50.
G3 X3.8338 Y-2.7227 I-0.0017 J-0.0153
G1 X3.8005 Y-2.7467 F60.
X3.7686 Y-2.7696
X3.763 Y-2.7763
X3.7579 Y-2.7833
X3.7533 Y-2.7907
X3.7492 Y-2.7984
X3.7456 Y-2.8063
X3.7426 Y-2.8144
X3.7401 Y-2.8228
X3.7382 Y-2.8313
X3.7368 Y-2.8399
X3.7361 Y-2.8485
X3.7359 Y-2.8572
X3.7363 Y-2.8659
X3.7374 Y-2.8745
X3.7389 Y-2.8831
X3.7411 Y-2.8915
X3.7438 Y-2.8998
X3.7471 Y-2.9078
X3.7509 Y-2.9156
X3.7553 Y-2.9232
X3.7601 Y-2.9304
X3.7654 Y-2.9373
X3.7712 Y-2.9438
X3.7774 Y-2.9499
X3.784 Y-2.9555
X3.791 Y-2.9607
X3.7982 Y-2.9655
X3.8058 Y-2.9697
X3.8137 Y-2.9734
X3.8363 Y-2.9574
X3.8474 Y-2.9502
X3.8958 Y-2.9154
G3 X3.9017 Y-2.9012 I-0.0094 J0.0122
X3.8629 Y-2.881 I-0.0264 J-0.0035
X3.8211 Y-2.9428 I0.0365 J-0.0697
X3.821 Y-2.9576 I0.0783 J-0.008 F50.
G2 X3.8145 Y-2.9715 I-0.0153 J-0.0013
G1 X3.8005 Y-2.9806 F60.
X3.7952 Y-2.9842
G2 X3.6523 Y-2.8481 I-0.0274 J0.1144
G3 X3.7686 Y-2.7696 I-3.3157 J5.0406
G2 X3.7899 Y-2.774 I0.0085 J-0.0129
X3.79 Y-2.7952 I-0.0162 J-0.0106
X3.6831 Y-2.8489 I-0.0992 J0.0641
X3.6645 Y-2.8462 I0.0078 J0.1179 F50.
G3 X3.6528 Y-2.8482 I-0.0034 J-0.015
G1 X3.6302 Y-2.8635 F60.
G3 X3.6896 Y-3.0562 I0.0914 J-0.0774
G1 X3.7066 Y-3.0444
X3.7952 Y-2.9842
G3 X3.8014 Y-2.9701 I-0.0091 J0.0124
X3.7892 Y-2.9569 I-0.015 J-0.0016
X3.6964 Y-3.0265 I-0.0144 J-0.0774
X3.6963 Y-3.0413 I0.0784 J-0.0078 F50.
G2 X3.6898 Y-3.0553 I-0.0153 J-0.0014
G1 X3.6662 Y-3.0707 F60.
G2 X3.5175 Y-2.9381 I-0.0302 J0.1158
G3 X3.6302 Y-2.8635 I-14.4079 J21.8925
G2 X3.6514 Y-2.8684 I0.0082 J-0.0131
Y-2.8816 I-0.0106 J-0.0066
X3.5485 Y-2.9376 I-0.1005 J0.0621
X3.5298 Y-2.9357 I0.0025 J0.1181 F50.
G3 X3.5183 Y-2.9382 I-0.0028 J-0.0152
G1 X3.4925 Y-2.9574 F60.
G3 X3.5674 Y-3.1478 I0.1009 J-0.0702
G2 X3.6662 Y-3.0707 I0.4117 J-0.4259
G3 X3.6726 Y-3.0568 I-0.0089 J0.0126
X3.6468 Y-3.0337 I-0.0252 J-0.0023
X3.57 Y-3.1166 I0.0018 J-0.0787
X3.5721 Y-3.1312 I0.0786 J0.0041 F50.
G2 X3.5678 Y-3.146 I-0.015 J-0.0037
G1 X3.5658 Y-3.1478 F60.
X3.5502 Y-3.1615
G2 X3.3878 Y-3.0471 I-0.0454 J0.108
G1 X3.425 Y-3.0155
X3.4719 Y-2.9735
X3.4925 Y-2.9574
G2 X3.5139 Y-2.9613 I0.0088 J-0.0127
X3.515 Y-2.985 I-0.0183 J-0.0127
X3.4184 Y-3.0444 I-0.1026 J0.0586
X3.3996 Y-3.0439 I-0.006 J0.118 F50.
G3 X3.3883 Y-3.0472 I-0.0017 J-0.0153
G1 X3.3835 Y-3.0513 F60.
X3.378 Y-3.0558
X3.3694 Y-3.0629
G3 X3.449 Y-3.247 I0.097 J-0.0673
X3.5502 Y-3.1615 I-2.0944 J2.581
X3.5508 Y-3.1398 I-0.0106 J0.0112
X3.5328 Y-3.1354 I-0.0123 J-0.0116
X3.4578 Y-3.2174 I0.0394 J-0.1113
X3.4546 Y-3.2359 I0.1144 J-0.0293 F50.
G2 X3.4491 Y-3.2464 I-0.0153 J0.0014
G1 X3.425 Y-3.2651 F60.
G2 X3.264 Y-3.1412 I-0.0394 J0.1154
G3 X3.3694 Y-3.0629 I-0.3927 J0.639
G2 X3.3847 Y-3.0609 I0.0094 J-0.0122
X3.3955 Y-3.079 I-0.0067 J-0.0162
X3.2946 Y-3.1462 I-0.0783 J0.0082
X3.2809 Y-3.1407 I0.0226 J0.0754 F50.
G3 X3.2655 Y-3.1413 I-0.0071 J-0.0137
G1 X3.2599 Y-3.1452 F60.
X3.2452 Y-3.1552
G3 X3.3119 Y-3.3416 I0.0929 J-0.0719
X3.425 Y-3.2651 I-1.8329 J2.8305
X3.4165 Y-3.2379 I-0.0098 J0.0118
X3.4038 Y-3.239 I-0.0033 J-0.0362
X3.3233 Y-3.3131 I0.0307 J-0.114
X3.3184 Y-3.3312 I0.1111 J-0.04 F50.
G2 X3.312 Y-3.3411 I-0.0151 J0.0028
G1 X3.2901 Y-3.3549 F60.
G2 X3.1357 Y-3.2236 I-0.0362 J0.1139
G3 X3.2452 Y-3.1552 I-15.5434 J25.0168
G2 X3.2605 Y-3.1546 I0.0082 J-0.013
X3.2646 Y-3.2054 I-0.0141 J-0.0267
X3.1651 Y-3.2257 I-0.071 J0.0944
X3.151 Y-3.2212 I0.0285 J0.1146 F50.
G3 X3.1358 Y-3.2236 I-0.0056 J-0.0144
G1 X3.1178 Y-3.2391 F60.
X3.1039 Y-3.2583
G3 X3.2145 Y-3.4434 I0.1209 J-0.0534
G2 X3.2901 Y-3.3549 I0.165 J-0.0645
G3 X3.2968 Y-3.3411 I-0.0087 J0.0127
X3.251 Y-3.3136 I-0.0326 J-0.0025
X3.2085 Y-3.4117 I0.0318 J-0.072
X3.2147 Y-3.4252 I0.0743 J0.0261 F50.
G2 X3.2148 Y-3.4406 I-0.0133 J-0.0077
G1 X3.204 Y-3.4579 F60.
G2 X3.0225 Y-3.3851 I-0.0681 J0.0928
X3.1039 Y-3.2583 I2.1437 J-1.2866
X3.1181 Y-3.2525 I0.0122 J-0.0095
X3.1505 Y-3.3149 I-0.0059 J-0.0427
X3.0511 Y-3.3787 I-0.105 J0.0542
X3.0363 Y-3.3785 I-0.0055 J0.118 F50.
G3 X3.0224 Y-3.3851 I-0.0012 J-0.0154
G1 X3.0068 Y-3.4096 F60.
G3 X3.1378 Y-3.5652 I0.1157 J-0.0356
G1 X3.1643 Y-3.5207
X3.1903 Y-3.4799
X3.204 Y-3.4579
G3 X3.2039 Y-3.4425 I-0.0134 J0.0077
X3.1811 Y-3.4338 I-0.0168 J-0.0098
X3.1313 Y-3.5351 I0.0244 J-0.0749
X3.1376 Y-3.5485 I0.0742 J0.0264 F50.
G2 X3.1377 Y-3.5639 I-0.0133 J-0.0078
G1 X3.1353 Y-3.5677 F60.
X3.1223 Y-3.588
G2 X2.9332 Y-3.5243 I-0.0734 J0.0947
G3 X3.0068 Y-3.4096 I-1.7774 J1.2214
G2 X3.0207 Y-3.403 I0.0127 J-0.0087
X3.0295 Y-3.4093 I-0.0008 J-0.0103
G1 X3.0307 Y-3.4125
G2 X2.9632 Y-3.5179 I-0.074 J-0.0269
X2.9484 Y-3.5177 I-0.0065 J0.0785 F50.
G3 X2.9344 Y-3.524 I-0.0016 J-0.0153
G1 X2.9212 Y-3.5435 F60.
G3 X3.0509 Y-3.6972 I0.1116 J-0.0374
X3.1223 Y-3.588 I-7.481 J4.9689
X3.1225 Y-3.5727 I-0.0133 J0.0078
X3.1075 Y-3.5655 I-0.0126 J-0.0071
X3.0453 Y-3.6676 I0.0126 J-0.0777
X3.0512 Y-3.6811 I0.0749 J0.0244 F50.
G2 X3.0508 Y-3.6965 I-0.0135 J-0.0074
G1 X3.0431 Y-3.7085 F60.
X3.0372 Y-3.7171
G2 X2.8456 Y-3.6557 I-0.0769 J0.0898
G3 X2.9212 Y-3.5435 I-22.5406 J15.2579
G2 X2.9427 Y-3.5401 I0.0124 J-0.0091
X2.9525 Y-3.5593 I-0.014 J-0.0192
G1 X2.9522 Y-3.5627
X2.9515 Y-3.566
G2 X2.8747 Y-3.645 I-0.1133 J0.0333
X2.8564 Y-3.6494 I-0.0365 J0.1123 F50.
G3 X2.8464 Y-3.6555 I0.0024 J-0.0152
G1 X2.8317 Y-3.6772 F60.
G3 X2.9625 Y-3.8294 I0.1136 J-0.0348
G1 X2.9794 Y-3.8024
X3.0372 Y-3.7171
G3 X3.0324 Y-3.6959 I-0.013 J0.0082
X3.0028 Y-3.6979 I-0.0134 J-0.0213
X2.961 Y-3.7984 I0.0759 J-0.0905
X2.9641 Y-3.8169 I0.1177 J0.01 F50.
G2 X2.9623 Y-3.8286 I-0.0149 J-0.0037
G1 X2.9556 Y-3.8389 F60.
X2.9489 Y-3.8493
G2 X2.7565 Y-3.7859 I-0.0768 J0.0906
G3 X2.8317 Y-3.6772 I-2.7641 J1.9925
G2 X2.8458 Y-3.6709 I0.0124 J-0.0091
X2.8581 Y-3.6814 I-0.0015 J-0.0142
X2.7864 Y-3.7804 I-0.0761 J-0.0204
X2.7716 Y-3.7799 I-0.0043 J0.0786 F50.
G3 X2.7573 Y-3.7857 I-0.002 J-0.0153
G1 X2.7417 Y-3.8075 F60.
G3 X2.8685 Y-3.9613 I0.1133 J-0.0358
G2 X2.9489 Y-3.8493 I22.1281 J-15.8066
G3 X2.9436 Y-3.8282 I-0.0132 J0.0079
X2.9227 Y-3.8286 I-0.0101 J-0.017
X2.8689 Y-3.9303 I0.0643 J-0.0991
X2.8709 Y-3.949 I0.1181 J0.0026 F50.
G2 X2.8684 Y-3.9605 I-0.0151 J-0.0028
G1 X2.8617 Y-3.9694 F60.
X2.8514 Y-3.9829
G2 X2.6736 Y-3.9339 I-0.0693 J0.0957
X2.7417 Y-3.8075 I0.336 J-0.0995
X2.7559 Y-3.8017 I0.0122 J-0.0094
X2.7636 Y-3.8105 I-0.0012 J-0.0088
G1 Y-3.8125
G2 X2.6974 Y-3.9166 I-0.1181 J0.002
X2.6837 Y-3.9223 I-0.0519 J0.1061 F50.
G3 X2.6736 Y-3.9339 I0.005 J-0.0146
X2.8509 Y-3.9826 I0.0951 J-0.0009 F60.
G1 X2.8601 Y-3.9851
X2.8695 Y-3.9869
X2.879 Y-3.9882
X2.8885 Y-3.9888
X2.898
X2.9076 Y-3.9883
X2.9171 Y-3.9871
X2.9264 Y-3.9852
X2.9357 Y-3.9828
X2.9448 Y-3.9798
X2.9536 Y-3.9763
X2.9622 Y-3.9721
X2.9706 Y-3.9674
X2.9786 Y-3.9622
X2.9862 Y-3.9565
X2.9935 Y-3.9503
X3.0003 Y-3.9437
X3.0068 Y-3.9366
X3.0127 Y-3.9291
X3.0182 Y-3.9213
X3.0231 Y-3.9131
X3.0275 Y-3.9046
X3.0313 Y-3.8959
X3.0346 Y-3.8869
X3.0373 Y-3.8777
G3 X3.3439 Y-3.4473 I-25.1283 J18.2218
G2 X4.0622 Y-2.9085 I7.7372 J-9.5679
G3 X4.0458 Y-2.6254 I-0.1402 J0.1339
X3.7465 Y-2.6722 I-0.1237 J-0.1896
X3.0432 Y-3.1811 I6.6798 J-9.9707
G1 X2.9358 Y-3.3421
X2.8278 Y-3.5027
X2.7194 Y-3.663
X2.6105 Y-3.823
G3 X2.875 Y-4.093 I0.166 J-0.1019
X3.2009 Y-3.8301 I-0.0983 J0.4554
G2 X3.4807 Y-3.4626 I1.4072 J-0.781
X3.9326 Y-3.1342 I5.2451 J-6.7422
G3 X4.0435 Y-3.0538 I-0.6204 J0.9723
G1 X4.0459 Y-3.0505
X4.1717 Y-2.8746
X4.1774 Y-2.8635
X4.1826 Y-2.8521
X4.1872 Y-2.8404
X4.1912 Y-2.8286
X4.1947 Y-2.8166
X4.1975 Y-2.8044
X4.1998 Y-2.7921
X4.2014 Y-2.7797
X4.2025 Y-2.7672
X4.2029 Y-2.7547
X4.2028 Y-2.7422
X4.202 Y-2.7298
X4.2006 Y-2.7173
X4.1986 Y-2.705
X4.196 Y-2.6927
X4.1928 Y-2.6807
X4.1891 Y-2.6687
X4.1847 Y-2.657
X4.1798 Y-2.6455
X4.1743 Y-2.6343
X4.1683 Y-2.6233
X4.1618 Y-2.6126
X4.1547 Y-2.6023
X4.1472 Y-2.5923
X4.1392 Y-2.5827
X4.1307 Y-2.5736
X4.1218 Y-2.5648
X4.1124 Y-2.5565
X4.1027 Y-2.5486
X4.0926 Y-2.5412
X4.0821 Y-2.5344
X4.0714 Y-2.528
X4.0603 Y-2.5222
X4.049 Y-2.5169
X4.0374 Y-2.5122
X4.0256 Y-2.5081
X4.0136 Y-2.5045
X4.0014 Y-2.5016
X3.9892 Y-2.4992
X3.9768 Y-2.4974
X3.9643 Y-2.4962
X3.7643 Y-2.554
G3 X2.9385 Y-3.1494 I2.2156 J-3.9435
G2 X2.5725 Y-3.7009 I-15.3663 J9.8008
G1 X2.5053 Y-3.9306
X2.5043 Y-3.9432
X2.5041 Y-3.9559
X2.5044 Y-3.9686
X2.5053 Y-3.9812
X2.5069 Y-3.9938
X2.5091 Y-4.0063
X2.5119 Y-4.0186
X2.5153 Y-4.0309
X2.5193 Y-4.0429
X2.5239 Y-4.0547
X2.5291 Y-4.0663
X2.5349 Y-4.0776
X2.5412 Y-4.0886
X2.548 Y-4.0993
X2.5553 Y-4.1096
X2.5632 Y-4.1196
X2.5715 Y-4.1291
X2.5803 Y-4.1383
X2.5895 Y-4.147
X2.5992 Y-4.1552
X2.6092 Y-4.1629
X2.6197 Y-4.1702
X2.6304 Y-4.1769
X2.6415 Y-4.1831
X2.6529 Y-4.1887
X2.6645 Y-4.1937
X2.6764 Y-4.1982
X2.6884 Y-4.2021
X2.7007 Y-4.2054
X2.7131 Y-4.208
X2.7256 Y-4.2101
X2.7382 Y-4.2115
X2.7508 Y-4.2124
X2.7635 Y-4.2125
X2.7762 Y-4.2121
X2.7888 Y-4.2111
X2.8014 Y-4.2094
X2.8139 Y-4.2071
X2.8262 Y-4.2042
X2.8493 Y-4.1898
X3.0477 Y-4.0479
X3.0604 Y-4.0387
X3.2716 Y-3.8695
G2 X3.5487 Y-3.5386 I3.2565 J-2.446
G3 X3.8062 Y-3.3427 I-16.9781 J22.5844
G1 X3.8582 Y-3.2847
X3.868 Y-3.2735
X4.0372 Y-3.0623
X4.0435 Y-3.0538
G3 X4.0465 Y-3.0441 I-0.0124 J0.0091
G2 X4.0491 Y-3.035 I0.0154 J0.0005
G1 X4.0552 Y-3.0259
X4.1408 Y-2.8991
X4.1426 Y-2.8969
X4.1449 Y-2.8951
X4.1474 Y-2.8937
G3 X4.1717 Y-2.8746 I-0.025 J0.0571 F50.
G1 X4.1885 Y-2.8511 F60.
X4.2048 Y-2.8277
X4.257 Y-2.7454
G3 X4.1166 Y-2.4507 I-0.2421 J0.0655
G1 X3.9644 Y-2.4953
G3 X3.9542 Y-2.5068 I0.0048 J-0.0146
X3.9533 Y-2.5151 I0.0402 J-0.0083
G1 X3.9534 Y-2.5184
X3.9538 Y-2.5216
G3 X3.9964 Y-2.5562 I0.0406 J0.0064
X4.1024 Y-2.4765 I-0.0057 J0.118
X4.1063 Y-2.4622 I-0.1117 J0.0383 F50.
G2 X4.1166 Y-2.4507 I0.0151 J-0.0031
G1 X4.1632 Y-2.437 F60.
G2 X4.3516 Y-2.5963 I0.0007 J-0.1902
G1 X4.3509 Y-2.5975
X4.339 Y-2.6165
X4.257 Y-2.7454
G2 X4.2432 Y-2.7521 I-0.0127 J0.0087
X4.2175 Y-2.7252 I0.0021 J0.0277
X4.3233 Y-2.6043 I0.1181 J0.0034
X4.3381 Y-2.6037 I0.0123 J-0.1175 F50.
G3 X4.3516 Y-2.5963 I0.0003 J0.0154
G1 X4.3744 Y-2.5557 F60.
X4.3771 Y-2.5471
X4.3793 Y-2.5383
X4.381 Y-2.5294
X4.382 Y-2.5204
X4.3824 Y-2.5114
X4.3822 Y-2.5023
X4.3815 Y-2.4933
X4.3801 Y-2.4844
X4.3781 Y-2.4756
X4.3756 Y-2.4669
X4.3725 Y-2.4584
X4.3688 Y-2.4501
X4.3646 Y-2.4421
X4.3599 Y-2.4344
X4.3546 Y-2.427
X4.3489 Y-2.42
X4.3427 Y-2.4134
X4.3362 Y-2.4072
X4.3292 Y-2.4015
X4.3218 Y-2.3962
X4.3141 Y-2.3914
X4.1632 Y-2.437
G3 X4.153 Y-2.4485 I0.0048 J-0.0146
X4.1969 Y-2.4983 I0.0406 J-0.0084
X4.299 Y-2.4188 I-0.0096 J0.1177
X4.3029 Y-2.4046 I-0.1117 J0.0383 F50.
G2 X4.3132 Y-2.3931 I0.0151 J-0.0031
G1 X4.3461 Y-2.3834 F60.
G2 X4.4426 Y-2.4372 I0.0149 J-0.0867
G1 X4.3744 Y-2.5557
G2 X4.3458 Y-2.5487 I-0.0132 J0.008
G1 X4.3363 Y-2.4097
X4.3356 Y-2.3991 F50.
G2 X4.3461 Y-2.3834 I0.0154 J0.001
G1 X4.4165 Y-2.3628 F60.
G2 X4.4714 Y-2.3826 I0.0208 J-0.0283
G1 X4.4403 Y-2.4381
G2 X4.4268 Y-2.4455 I-0.0132 J0.008
X4.419 Y-2.4394 I0.0002 J0.0082
X4.4434 Y-2.3924 I0.0381 J0.01
X4.4579 Y-2.39 I0.0137 J-0.0369 F50.
G3 X4.4714 Y-2.3826 I0.0003 J0.0154
G1 X4.4785 Y-2.3701 F60.
X4.479 Y-2.3691
X4.4798 Y-2.3676
X4.4825 Y-2.3622
X4.4829 Y-2.3586
X4.4823 Y-2.3541
X4.4799 Y-2.3503
X4.4761 Y-2.3479
X4.4716 Y-2.3473
G3 X4.4642 Y-2.3492 I0.0037 J-0.0295
X4.4564 Y-2.3631 I0.0048 J-0.0118
X4.4798 Y-2.3676 I0.0125 J0.0021 F50.
G1 X4.4822 Y-2.3635 F60.
X4.4824 Y-2.3627
X4.4852 Y-2.3533
X4.485 Y-2.3512
X4.4847 Y-2.3505
X4.4841 Y-2.3492
X4.4837 Y-2.3487
X4.482 Y-2.3473
G3 X4.4165 Y-2.3628 I-0.0191 J-0.0656
X4.4102 Y-2.388 I0.0048 J-0.0146
G1 X4.4123 Y-2.3901 Z-0.1672
X4.4142 Y-2.3922 Z-0.1663
X4.4161 Y-2.3942 Z-0.1649
X4.4177 Y-2.3959 Z-0.163
X4.419 Y-2.3973 Z-0.1607
X4.42 Y-2.3983 Z-0.158
X4.4206 Y-2.3989 Z-0.1551
X4.4208 Y-2.3991 Z-0.1521
G0 Z-0.1367
X3.8225 Y-3.2997
G1 Z-0.1521 F50.
X3.8224 Y-3.3 Z-0.1551
X3.8223 Y-3.3009 Z-0.158
X3.822 Y-3.3023 Z-0.1607
X3.8216 Y-3.3042 Z-0.163
X3.8212 Y-3.3064 Z-0.1649
X3.8206 Y-3.3091 Z-0.1663
X3.8201 Y-3.3119 Z-0.1672
X3.8195 Y-3.3148 Z-0.1675
G2 X3.8062 Y-3.3427 I-0.0611 J0.012
G1 X3.6939 Y-3.4681 F60.
X3.6789 Y-3.4847
X3.4912 Y-3.6724
X3.4828 Y-3.6808
X3.2825 Y-3.8602
X3.2716 Y-3.8695
G2 X3.259 Y-3.8722 I-0.0092 J0.0123
G1 X3.2418 Y-3.8683
X2.5903 Y-3.7212
X2.5841 Y-3.7198 F50.
G2 X2.5726 Y-3.701 I0.0034 J0.015
G1 X2.6498 Y-3.4378 F60.
X2.6615 Y-3.4114
X2.6738 Y-3.3853
X2.6867 Y-3.3594
X2.7001 Y-3.3339
X2.7141 Y-3.3086
X2.7286 Y-3.2836
X2.7437 Y-3.259
X2.7593 Y-3.2347
X2.7754 Y-3.2107
X2.792 Y-3.1871
X2.8092 Y-3.1639
X2.8268 Y-3.1411
X2.845 Y-3.1186
X2.8636 Y-3.0965
X2.8827 Y-3.0749
X2.9022 Y-3.0536
X2.9223 Y-3.0328
X2.9427 Y-3.0124
X2.9636 Y-2.9925
X2.9849 Y-2.9731
X3.0067 Y-2.9541
X3.0288 Y-2.9355
X3.0514 Y-2.9175
X3.0743 Y-2.9
X3.0976 Y-2.8829
X3.1213 Y-2.8664
X3.1453 Y-2.8504
X3.1697 Y-2.8349
X3.1944 Y-2.82
X3.2194 Y-2.8056
G2 X3.3936 Y-2.6627 I0.7894 J-0.7848
G1 X3.7643 Y-2.554
G2 X3.7791 Y-2.5582 I0.0038 J-0.0149
X3.7869 Y-2.6102 I-0.0321 J-0.0314
X3.4191 Y-2.6771 I-0.2098 J0.1086
G1 X3.4084 Y-2.6669 F50.
G3 X3.3936 Y-2.6627 I-0.011 J-0.0108
X3.255 Y-2.76 I0.0493 J-0.2177 F60.
G2 X3.0186 Y-2.8511 I-0.3183 J0.4735
G3 X2.7579 Y-3.0692 I0.2385 J-0.5501
X2.7756 Y-3.0881 I0.0149 J-0.0038
G1 X2.7786 Y-3.0876 Z-0.1672
X2.7814 Y-3.087 Z-0.1663
X2.7841 Y-3.0865 Z-0.1649
X2.7863 Y-3.0861 Z-0.163
X2.7882 Y-3.0858 Z-0.1607
X2.7896 Y-3.0855 Z-0.158
X2.7905 Y-3.0853 Z-0.1551
X2.7908 Z-0.1521
G0 Z-0.1367
X3.0632 Y-2.8624
G1 Z-0.1521 F50.
X3.0629 Y-2.8623 Z-0.1551
X3.0621 Y-2.862 Z-0.158
X3.0608 Y-2.8614 Z-0.1607
X3.0591 Y-2.8606 Z-0.163
X3.0569 Y-2.8597 Z-0.1649
X3.0545 Y-2.8586 Z-0.1663
X3.0519 Y-2.8574 Z-0.1672
X3.0491 Y-2.8562 Z-0.1675
G3 X3.0186 Y-2.8511 I-0.0252 J-0.057
G2 X2.9107 Y-2.8523 I-0.0604 J0.6167 F60.
G3 X2.8126 Y-2.8792 I-0.0157 J-0.1347
G1 X2.812 Y-2.8822
X2.8121 Y-2.8853
X2.8127 Y-2.8882
X2.8138 Y-2.891
X2.8154 Y-2.8935
X2.8174 Y-2.8956
X2.8198 Y-2.8974
X2.8225 Y-2.8986
X2.8253 Y-2.8993
X2.8282 Y-2.8995
X2.8311 Y-2.8992
X2.9109 Y-2.8825
G3 X2.9203 Y-2.8764 I-0.0032 J0.0151
X2.9107 Y-2.8523 I-0.0125 J0.009 F50.
X2.828 Y-2.842 I-0.0525 J-0.0857 F60.
G1 X2.8268 Y-2.8431
X2.8263 Y-2.8436
X2.8212 Y-2.8533
X2.821 Y-2.8541
X2.6498 Y-3.4378
G3 X2.6676 Y-3.4567 I0.0149 J-0.0038
G1 X2.6705 Y-3.4562 Z-0.1672
X2.6734 Y-3.4556 Z-0.1663
X2.676 Y-3.4551 Z-0.1649
X2.6783 Y-3.4547 Z-0.163
X2.6801 Y-3.4543 Z-0.1607
X2.6815 Y-3.4541 Z-0.158
X2.6824 Y-3.4539 Z-0.1551
X2.6827 Z-0.1521
G0 Z-0.1367
X2.5333 Y-3.8941
G1 Z-0.1521 F50.
X2.533 Y-3.8943 Z-0.1551
X2.5324 Y-3.8949 Z-0.158
X2.5314 Y-3.8958 Z-0.1607
X2.53 Y-3.8971 Z-0.163
X2.5282 Y-3.8987 Z-0.1649
X2.5263 Y-3.9005 Z-0.1663
X2.5242 Y-3.9025 Z-0.1672
X2.522 Y-3.9045 Z-0.1675
G3 X2.5053 Y-3.9306 I0.0424 J-0.0456
G1 X2.4671 Y-4.0608 F60.
G3 X2.6875 Y-4.2939 I0.2468 J0.0127
G1 X2.8258 Y-4.206
X2.8265 Y-4.2055
G3 X2.8327 Y-4.1914 I-0.0092 J0.0124
X2.7821 Y-4.1567 I-0.0403 J-0.0046
X2.6939 Y-4.2652 I0.0298 J-0.1143
X2.6941 Y-4.28 I0.118 J-0.0058 F50.
G2 X2.6875 Y-4.2939 I-0.0154 J-0.0012
G1 X2.6434 Y-4.3219 F60.
G2 X2.4196 Y-4.2229 I-0.0537 J0.1811
G1 X2.4671 Y-4.0608
G2 X2.4786 Y-4.0506 I0.0146 J-0.0048
X2.5244 Y-4.0838 I0.0078 J-0.0375
X2.4453 Y-4.2087 I-0.1174 J-0.0131
X2.431 Y-4.2126 I-0.0383 J0.1117 F50.
G3 X2.4196 Y-4.2229 I0.0031 J-0.0151
G1 X2.4089 Y-4.2591 F60.
X2.4079 Y-4.2677
X2.4074 Y-4.2763
X2.4075 Y-4.285
X2.4082 Y-4.2936
X2.4095 Y-4.3022
X2.4113 Y-4.3107
X2.4137 Y-4.319
X2.4167 Y-4.3272
X2.4202 Y-4.3351
X2.4242 Y-4.3428
X2.4287 Y-4.3502
X2.4337 Y-4.3572
X2.4392 Y-4.364
X2.4451 Y-4.3703
X2.4514 Y-4.3762
X2.4581 Y-4.3817
X2.4651 Y-4.3868
X2.4725 Y-4.3913
X2.4802 Y-4.3954
X2.4881 Y-4.3989
X2.4962 Y-4.4019
X2.5045 Y-4.4043
X2.5939 Y-4.3529
X2.6146 Y-4.3401
X2.6434 Y-4.3219
G3 X2.65 Y-4.308 I-0.0087 J0.0127
X2.6003 Y-4.2726 I-0.0396 J-0.003
X2.5129 Y-4.3746 I0.0301 J-0.1142
X2.5123 Y-4.3893 I0.1175 J-0.0123 F50.
G2 X2.5049 Y-4.4028 I-0.0154 J-0.0003
G1 X2.4738 Y-4.4203 F60.
G2 X2.3687 Y-4.3908 I-0.0343 J0.08
G1 X2.4089 Y-4.2591
G2 X2.4383 Y-4.2596 I0.0146 J-0.0048
G1 X2.4776 Y-4.3925
X2.4806 Y-4.4027 F50.
G2 X2.4738 Y-4.4203 I-0.0148 J-0.0044
G1 X2.4086 Y-4.4568 F60.
G2 X2.3531 Y-4.4494 I-0.0254 J0.0213
G1 X2.3707 Y-4.3893
G2 X2.3822 Y-4.3791 I0.0146 J-0.0048
X2.3923 Y-4.3842 I0.0018 J-0.0089
G1 X2.3934 Y-4.3865
G2 X2.3782 Y-4.4336 I-0.0368 J-0.0141
X2.3646 Y-4.4392 I-0.0216 J0.0329 F50.
G3 X2.3531 Y-4.4494 I0.0031 J-0.0151
G1 X2.3487 Y-4.4644 F60.
X2.3482 Y-4.466
X2.3479 Y-4.4673
X2.3476 Y-4.4687
X2.3475 Y-4.4692
X2.3505
X2.3573 Y-4.4432
X2.3586 Y-4.4378
X2.3657 Y-4.4387
X2.3646 Y-4.4413
G3 X2.3479 Y-4.4673 I0.0424 J-0.0456 F50.
G1 X2.3476 Y-4.4681 F60.
X2.3474 Y-4.4703
X2.3473 Y-4.4714
X2.3472 Y-4.4732
X2.3469 Y-4.4792
X2.3492 Y-4.4825
X2.3528 Y-4.4844
X2.3568 Y-4.4842
G3 X2.3621 Y-4.4812 I-0.005 J0.0148
X2.3645 Y-4.4779 I-0.006 J0.0068
X2.3585 Y-4.4656 I-0.0084 J0.0035 F50.
X2.3472 Y-4.4732 I-0.0023 J-0.0087
G1 X2.3466 Y-4.4797 F60.
X2.3473 Y-4.4819
X2.3486 Y-4.4836
X2.3493 Y-4.4841
X2.3505 Y-4.4848
G3 X2.4086 Y-4.4568 I0.0095 J0.0546
X2.416 Y-4.4437 I-0.008 J0.0132
X2.4092 Y-4.4308 I-0.0154 J0.
G1 X2.4067 Y-4.4292 Z-0.1672
X2.4043 Y-4.4276 Z-0.1663
X2.4021 Y-4.4261 Z-0.1649
X2.4001 Y-4.4248 Z-0.163
X2.3985 Y-4.4237 Z-0.1607
X2.3973 Y-4.423 Z-0.158
X2.3966 Y-4.4225 Z-0.1551
X2.3964 Y-4.4223 Z-0.1521
G0 Z0.6
X4.0592 Y-1.7594
Z0.1
G3 X4.105 Y-1.6205 Z0.0595 I0.0229 J0.0695 F50.
X4.0592 Y-1.7594 Z0.019 I-0.0229 J-0.0695
X4.105 Y-1.6205 Z-0.0216 I0.0229 J0.0695
X4.0592 Y-1.7594 Z-0.0621 I-0.0229 J-0.0695
X4.105 Y-1.6205 Z-0.1026 I0.0229 J0.0695
X4.0592 Y-1.7594 Z-0.1431 I-0.0229 J-0.0695
X4.1553 Y-1.6899 Z-0.1675 I0.0229 J0.0695
X4.009 I-0.0732 J0.
X4.155 Y-1.6959 I0.0732 J0.
G1 X4.1553 Y-1.6899
G3 X4.1711 Y-1.6227 I-0.0353 J0.0438 F60.
G1 X4.1291 Y-1.6021
X4.1246 Y-1.5961
X4.1245 Y-1.5949
G3 X3.9388 Y-1.7318 I-0.0855 J-0.0784
G1 X3.9386 Y-1.739
X3.939 Y-1.7461
X3.94 Y-1.7532
X3.9415 Y-1.7602
X3.9436 Y-1.7671
X3.9463 Y-1.7738
X3.9495 Y-1.7802
X3.9531 Y-1.7863
X3.9573 Y-1.7922
X3.9619 Y-1.7977
X3.967 Y-1.8028
X3.9724 Y-1.8074
X3.9782 Y-1.8116
X3.9843 Y-1.8154
X3.9908 Y-1.8186
X3.9974 Y-1.8213
X4.0042 Y-1.8235
X4.0352 Y-1.7938
X4.0821 Y-1.7936
X4.1056 Y-1.8035
G3 X4.2563 Y-1.6693 I0.0168 J0.1329
X4.1711 Y-1.6227 I-0.145 J-0.1641
X4.1558 Y-1.6243 I-0.0063 J-0.014
X4.154 Y-1.6538 I0.0112 J-0.0155
X4.2257 Y-1.6725 I0.0534 J0.0579
X4.2397 Y-1.6678 I-0.0183 J0.0766 F50.
G2 X4.255 Y-1.6693 I0.0063 J-0.014
G1 X4.2699 Y-1.6808 F60.
X4.277 Y-1.6899
X4.2865 Y-1.7263
G2 X4.2884 Y-1.7404 I-0.022 J-0.0101
X4.1056 Y-1.8035 I-0.1095 J0.021
X4.1119 Y-1.7739 I0.006 J0.0142
G3 X4.1126 Y-1.7431 I0.0003 J0.0154
X4.105 Y-1.7449 I-0.0003 J-0.0154
G1 X4.0287 Y-1.7856
G3 X4.0212 Y-1.7946 I0.0072 J-0.0136
G2 X4.0049 Y-1.8209 I-0.0594 J0.0187 F50.
G1 X3.9939 Y-1.8308 F60.
X3.9908 Y-1.8337
X3.9828 Y-1.8362
X3.9746 Y-1.8382
X3.9663 Y-1.8395
X3.958 Y-1.8402
X3.9496 Y-1.8403
X3.9412 Y-1.8398
X3.9329 Y-1.8387
X3.9247 Y-1.8369
X3.9167 Y-1.8345
X3.9088 Y-1.8316
X3.9012 Y-1.8281
X3.8939 Y-1.824
X3.8869 Y-1.8193
X3.8802 Y-1.8142
X3.874 Y-1.8086
X3.8682 Y-1.8026
X3.8628 Y-1.7961
X3.858 Y-1.7893
X3.8537 Y-1.7821
X3.8499 Y-1.7746
X3.8467 Y-1.7668
X3.844 Y-1.7589
X3.842 Y-1.7507
X3.8406 Y-1.7425
X3.8398 Y-1.7341
X3.8396 Y-1.7257
X3.84 Y-1.7174
X3.8411 Y-1.709
G3 X3.9281 Y-1.5726 I-0.0869 J0.1513
G2 X4.116 Y-1.4813 I0.1263 J-0.0209
G1 X4.1164 Y-1.5022
X4.1198 Y-1.5491
X4.1245 Y-1.5949
G2 X4.1177 Y-1.6087 I-0.0154 J-0.001
X4.08 Y-1.5989 I-0.0145 J0.0216
X4.0961 Y-1.5062 I0.0703 J0.0355
X4.1078 Y-1.497 I0.0541 J-0.0572 F50.
G3 X4.1149 Y-1.4834 I-0.0083 J0.013
G1 X4.1131 Y-1.4613 F60.
X4.1095 Y-1.4536
X4.1053 Y-1.4462
X4.1007 Y-1.4392
X4.0955 Y-1.4324
X4.0898 Y-1.4261
X4.0837 Y-1.4203
X4.0772 Y-1.4148
X4.0703 Y-1.4099
X4.0631 Y-1.4055
X4.0556 Y-1.4016
X4.0478 Y-1.3983
X4.0398 Y-1.3956
X4.0316 Y-1.3934
X4.0233 Y-1.3919
X4.0148 Y-1.3909
X4.0064 Y-1.3906
X3.9979 Y-1.3909
X3.9895 Y-1.3918
X3.9812 Y-1.3933
X3.973 Y-1.3955
X3.9649 Y-1.3982
X3.9571 Y-1.4015
X3.9496 Y-1.4054
X3.9424 Y-1.4098
X3.9355 Y-1.4147
X3.929 Y-1.4201
X3.9228 Y-1.4259
X3.9172 Y-1.4322
X3.9233 Y-1.5022
X3.9269 Y-1.5491
X3.9281 Y-1.5726
G3 X3.9447 Y-1.5866 I0.0153 J0.0013
X3.9621 Y-1.5729 I-0.0017 J0.02
X3.9371 Y-1.4557 I-0.112 J0.0374
X3.9234 Y-1.4429 I-0.0871 J-0.0798 F50.
G2 X3.9176 Y-1.4326 I0.0096 J0.0121
G1 X3.9156 Y-1.4083 F60.
X3.9151 Y-1.4012
X3.9173 Y-1.393
X3.9201 Y-1.3851
X3.9235 Y-1.3773
X3.9274 Y-1.3698
X3.9318 Y-1.3626
X3.9367 Y-1.3558
X3.942 Y-1.3493
X3.9478 Y-1.3431
X3.954 Y-1.3374
X3.9607 Y-1.3322
X3.9676 Y-1.3274
X3.9749 Y-1.3231
X3.9824 Y-1.3194
X3.9902 Y-1.3162
X3.9983 Y-1.3135
X4.0064 Y-1.3114
X4.0147 Y-1.3099
X4.0231 Y-1.309
X4.0315 Y-1.3086
X4.04 Y-1.3089
X4.0484 Y-1.3098
X4.0567 Y-1.3112
X4.0649 Y-1.3132
X4.0729 Y-1.3158
X4.0807 Y-1.3189
X4.0883 Y-1.3226
X4.0956 Y-1.3268
X4.105 Y-1.3613
X4.1131 Y-1.4613
G2 X4.106 Y-1.4749 I-0.0154 J-0.0007
X4.0583 Y-1.456 I-0.0171 J0.0266
X4.081 Y-1.353 I0.1146 J0.0287
X4.0911 Y-1.3421 I0.0918 J-0.0743 F50.
G3 X4.0954 Y-1.3273 I-0.0107 J0.0111
X3.97 Y-1.2744 I-0.089 J-0.0358 F60.
X3.9179 Y-1.4 I0.0364 J-0.0887
G1 X3.918 Y-1.4024
X3.9185 Y-1.4048
X3.9195 Y-1.4071
X3.9209 Y-1.4092
X3.9228 Y-1.411
X3.925 Y-1.4125
X3.9274 Y-1.4135
X3.9301 Y-1.4141
X3.9329 Y-1.4142
X3.9357 Y-1.4137
X3.9384 Y-1.4127
X3.941 Y-1.4111 Z-0.1672
X3.9435 Y-1.4096 Z-0.1663
X3.9457 Y-1.4082 Z-0.1649
X3.9477 Y-1.407 Z-0.163
X3.9494 Y-1.406 Z-0.1607
X3.9506 Y-1.4053 Z-0.158
X3.9513 Y-1.4048 Z-0.1551
X3.9516 Y-1.4047 Z-0.1521
G0 Z0.4
X3.8849 Y-1.695
Z-0.1367
G1 Z-0.1521 F50.
X3.8846 Y-1.6951 Z-0.1551
X3.8837 Y-1.6952 Z-0.158
X3.8823 Y-1.6954 Z-0.1607
X3.8804 Y-1.6957 Z-0.163
X3.8781 Y-1.696 Z-0.1649
X3.8755 Y-1.6964 Z-0.1663
X3.8726 Y-1.6968 Z-0.1672
X3.8696 Y-1.6972 Z-0.1675
G3 X3.8411 Y-1.709 I0.0088 J-0.0617
G1 X3.8182 Y-1.7274 F60.
G3 X3.8936 Y-1.9163 I0.0983 J-0.0702
G2 X3.9908 Y-1.8337 I9.6096 J-11.1969
G3 X3.9948 Y-1.8188 I-0.0109 J0.0109
X3.9796 Y-1.8065 I-0.016 J-0.0042
X3.8973 Y-1.8858 I-0.0035 J-0.0787
X3.8988 Y-1.9005 I0.0787 J0.0006 F50.
G2 X3.8939 Y-1.9151 I-0.0151 J-0.003
G1 X3.8822 Y-1.9247 F60.
X3.8726 Y-1.9316
G2 X3.7121 Y-1.8309 I-0.0401 J0.1143
X3.8186 Y-1.7279 I0.3215 J-0.2259
G1 X3.8196 Y-1.7272
X3.8208 Y-1.7267
X3.8221 Y-1.7266
X3.8235 Y-1.7268
X3.8254 Y-1.7321
G2 X3.7389 Y-1.8171 I-0.1745 J0.0911
X3.7156 Y-1.8269 I-0.088 J0.1761 F50.
G3 X3.7121 Y-1.8309 I0.0017 J-0.005
X3.8726 Y-1.9316 I0.0897 J-0.0353 F60.
X3.8701 Y-1.9058 I-0.0095 J0.0121
G1 X3.8674 Y-1.9044 Z-0.1672
X3.8648 Y-1.9031 Z-0.1663
X3.8625 Y-1.9019 Z-0.1649
X3.8604 Y-1.9008 Z-0.163
X3.8587 Y-1.9 Z-0.1607
X3.8574 Y-1.8993 Z-0.158
X3.8566 Y-1.8989 Z-0.1551
X3.8564 Y-1.8988 Z-0.1521
G0 Z0.4
X4.2596 Y-1.689
Z-0.1367
G1 Z-0.1521 F50.
X4.2598 Y-1.6892 Z-0.1551
X4.2604 Y-1.6899 Z-0.158
X4.2614 Y-1.6909 Z-0.1607
X4.2628 Y-1.6922 Z-0.163
X4.2645 Y-1.6938 Z-0.1649
X4.2664 Y-1.6957 Z-0.1663
X4.2684 Y-1.6977 Z-0.1672
X4.2706 Y-1.6998 Z-0.1675
G2 X4.2865 Y-1.7263 I-0.0437 J-0.0444
G1 X4.2893 Y-1.7369 F60.
X4.2884 Y-1.7404
G2 X4.2758 Y-1.7512 I-0.0148 J0.0044
G1 X4.2729 Y-1.7517 Z-0.1672
X4.27 Y-1.7521 Z-0.1663
X4.2674 Y-1.7525 Z-0.1649
X4.2651 Y-1.7528 Z-0.163
X4.2632 Y-1.7531 Z-0.1607
X4.2618 Y-1.7533 Z-0.158
X4.2609 Y-1.7534 Z-0.1551
X4.2606 Y-1.7535 Z-0.1521
G0 Z-0.1367
X4.0497 Y-1.6402
G1 Z-0.1521 F50.
X4.05 Y-1.6401 Z-0.1551
X4.0508 Y-1.6399 Z-0.158
X4.0522 Y-1.6396 Z-0.1607
X4.0541 Y-1.6391 Z-0.163
X4.0563 Y-1.6385 Z-0.1649
X4.0589 Y-1.6379 Z-0.1663
X4.0617 Y-1.6372 Z-0.1672
X4.0646 Y-1.6364 Z-0.1675
G3 X4.144 Y-1.6068 I-0.097 J0.381
G1 X4.1524 Y-1.5973 F60.
X4.1603 Y-1.5874
X4.1678 Y-1.5772
X4.1748 Y-1.5666
X4.1812 Y-1.5557
X4.1872 Y-1.5445
X4.1926 Y-1.533
X4.1974 Y-1.5213
X4.2016 Y-1.5093
X4.2053 Y-1.4972
X4.2084 Y-1.4849
X4.211 Y-1.4725
X4.2129 Y-1.4599
X4.2142 Y-1.4473
X4.2149 Y-1.4347
X4.215 Y-1.422
X4.2145 Y-1.4093
X4.2134 Y-1.3967
X4.2117 Y-1.3841
X4.2094 Y-1.3716
X4.2065 Y-1.3593
X4.203 Y-1.3471
X4.199 Y-1.3351
X4.1944 Y-1.3233
X4.1892 Y-1.3117
X4.1834 Y-1.3004
X4.1772 Y-1.2894
X4.1704 Y-1.2787
X4.1631 Y-1.2683
X4.1553 Y-1.2583
X4.1471 Y-1.2487
X4.1384 Y-1.2395
X4.1292 Y-1.2307
X4.1197 Y-1.2223
X4.1098 Y-1.2144
X4.0995 Y-1.207
X4.0888 Y-1.2001
X4.0779 Y-1.1937
X4.0666 Y-1.1879
X4.0551 Y-1.1825
X4.0434 Y-1.1778
X4.0314 Y-1.1736
X4.0193 Y-1.17
G3 X3.8304 Y-1.4801 I0.0219 J-0.2259
G2 X3.6843 Y-1.7032 I-0.2616 J0.0119
G3 X3.6719 Y-1.9936 I0.1261 J-0.1509
X3.9623 Y-1.9788 I0.1384 J0.1396
G1 X3.9901 Y-1.9626
X4.0143 Y-1.9433
X4.0262 Y-1.9333
G2 X4.2211 Y-1.9226 I0.1452 J-0.8596
G3 X4.3173 Y-1.6006 I-0.033 J0.1852
X4.2962 Y-1.3439 I-2.3033 J-0.0598
G1 X4.2229 Y-1.2085
X4.2162 Y-1.1979
X4.2089 Y-1.1877
X4.2012 Y-1.1778
X4.193 Y-1.1683
X4.1844 Y-1.1593
X4.1753 Y-1.1506
X4.1658 Y-1.1424
X4.156 Y-1.1347
X4.1457 Y-1.1274
X4.1352 Y-1.1207
X4.1243 Y-1.1145
X4.1131 Y-1.1088
X4.1017 Y-1.1037
X4.09 Y-1.0991
X4.0781 Y-1.0952
X4.066 Y-1.0918
X4.0538 Y-1.0889
X4.0415 Y-1.0867
X4.0291 Y-1.0851
X4.0166 Y-1.0841
X4.0041 Y-1.0837
X3.9915 Y-1.0839
X3.979 Y-1.0847
X3.9666 Y-1.0861
X3.9542 Y-1.0881
X3.9419 Y-1.0908
X3.9298 Y-1.094
X3.9179 Y-1.0978
X3.9061 Y-1.1021
X3.8946 Y-1.1071
X3.8834 Y-1.1126
X3.8724 Y-1.1186
X3.8617 Y-1.1252
X3.8514 Y-1.1322
X3.8414 Y-1.1398
X3.8318 Y-1.1479
X3.8225 Y-1.1563
X3.8138 Y-1.1653
X3.8054 Y-1.1746
X3.7975 Y-1.1844
X3.7901 Y-1.1945
X3.7878 Y-1.199
X3.7436 Y-1.3258
X3.7419 Y-1.348
X3.7396 Y-1.3701
X3.7366 Y-1.3921
X3.7331 Y-1.414
X3.729 Y-1.4359
X3.7242 Y-1.4576
X3.7189 Y-1.4791
X3.7129 Y-1.5005
X3.7064 Y-1.5218
X3.6993 Y-1.5428
X3.6916 Y-1.5637
G3 X3.6206 Y-1.6352 I0.1183 J-0.1883
X3.636 Y-1.6562 I0.0144 J-0.0056
G1 X3.639 Y-1.656 Z-0.1672
X3.6419 Y-1.6558 Z-0.1663
X3.6445 Y-1.6556 Z-0.1649
X3.6469 Y-1.6554 Z-0.163
X3.6488 Y-1.6553 Z-0.1607
X3.6502 Y-1.6552 Z-0.158
X3.6511 Y-1.6551 Z-0.1551
X3.6514 Z-0.1521
G0 Z0.4
X3.7734 Y-1.2908
Z-0.1367
G1 Z-0.1521 F50.
X3.7731 Y-1.291 Z-0.1551
X3.7725 Y-1.2915 Z-0.158
X3.7714 Y-1.2924 Z-0.1607
X3.7699 Y-1.2937 Z-0.163
X3.7681 Y-1.2952 Z-0.1649
X3.7661 Y-1.2969 Z-0.1663
X3.7639 Y-1.2987 Z-0.1672
X3.7616 Y-1.3007 Z-0.1675
G3 X3.7436 Y-1.3258 I0.0401 J-0.0477
G1 X3.7109 Y-1.4197 F60.
X3.7013 Y-1.4432
X3.6224 Y-1.6309
X3.6124 Y-1.6544
X3.5427 Y-1.7952
X3.5389 Y-1.8072
X3.5357 Y-1.8195
X3.5331 Y-1.8319
X3.5311 Y-1.8444
X3.5297 Y-1.857
X3.5289 Y-1.8696
X3.5287 Y-1.8822
X3.5291 Y-1.8949
X3.5301 Y-1.9075
X3.5318 Y-1.9201
X3.534 Y-1.9325
X3.5369 Y-1.9449
X3.5403 Y-1.9571
X3.5443 Y-1.9691
X3.5489 Y-1.9809
X3.554 Y-1.9924
X3.5597 Y-2.0037
X3.5659 Y-2.0148
X3.5727 Y-2.0255
X3.5799 Y-2.0359
X3.5877 Y-2.0459
X3.5959 Y-2.0555
X3.6046 Y-2.0647
X3.6137 Y-2.0735
X3.6232 Y-2.0819
X3.6331 Y-2.0897
X3.6434 Y-2.0971
X3.654 Y-2.104
X3.6649 Y-2.1104
X3.6762 Y-2.1162
X3.6877 Y-2.1215
X3.6994 Y-2.1263
X3.7113 Y-2.1304
X3.7235 Y-2.134
X3.7358 Y-2.137
X3.7482 Y-2.1394
X3.7607 Y-2.1412
X3.7733 Y-2.1424
X3.786 Y-2.143
X3.7987
X3.9286 Y-2.1057
G2 X4.2147 Y-2.0218 I0.2691 J-0.3879
G3 X4.221 Y-1.9966 I-0.0048 J0.0146
G1 X4.219 Y-1.9944 Z-0.1672
X4.217 Y-1.9923 Z-0.1663
X4.2151 Y-1.9904 Z-0.1649
X4.2135 Y-1.9887 Z-0.163
X4.2122 Y-1.9873 Z-0.1607
X4.2112 Y-1.9862 Z-0.158
X4.2106 Y-1.9856 Z-0.1551
X4.2104 Y-1.9854 Z-0.1521
G0 Z0.4
X3.8827 Y-2.1018
Z-0.1367
G1 Z-0.1521 F50.
X3.883 Y-2.1019 Z-0.1551
X3.8839 Y-2.1021 Z-0.158
X3.8852 Y-2.1025 Z-0.1607
X3.8871 Y-2.103 Z-0.163
X3.8894 Y-2.1035 Z-0.1649
X3.8919 Y-2.1042 Z-0.1663
X3.8947 Y-2.1049 Z-0.1672
X3.8976 Y-2.1057 Z-0.1675
G3 X3.9286 I0.0155 J0.0604
G1 X4.257 Y-2.0094 F60.
G3 X4.422 Y-1.5759 I-0.0696 J0.2746
G1 X4.2968 Y-1.3438
G3 X4.2834 Y-1.3362 I-0.0132 J-0.0079
X4.2624 Y-1.3505 I0.0002 J-0.0229
X4.395 Y-1.567 I0.1458 J-0.0596
X4.4098 Y-1.5676 I0.0132 J0.1569 F50.
G2 X4.4232 Y-1.5751 I0.0002 J-0.0154
G1 X4.5243 Y-1.76 F60.
G2 X4.5016 Y-1.9386 I-0.1637 J-0.07
G1 X4.257 Y-2.0094
G2 X4.2431 Y-1.9829 I-0.0038 J0.0149
G1 X4.4979 Y-1.7588
X4.5008 Y-1.7562 F50.
G2 X4.5243 Y-1.76 I0.0102 J-0.0116
G1 X4.582 Y-1.8655 F60.
G2 X4.5846 Y-1.9133 I-0.0181 J-0.025
G1 X4.5007 Y-1.9379
G2 X4.4882 Y-1.9103 I-0.0038 J0.0149
G1 X4.5553 Y-1.8639
X4.56 Y-1.8607 F50.
G2 X4.582 Y-1.8655 I0.0088 J-0.0127
X4.5965 Y-1.9079 I-0.0061 J-0.0258 F60.
G1 X4.5874 Y-1.9125
X4.5846 Y-1.9133
G2 X4.5689 Y-1.9082 I-0.0038 J0.0149
G1 X4.567 Y-1.9058 Z-0.1672
X4.5652 Y-1.9036 Z-0.1663
X4.5635 Y-1.9015 Z-0.1649
X4.562 Y-1.8997 Z-0.163
X4.5608 Y-1.8983 Z-0.1607
X4.5599 Y-1.8972 Z-0.158
X4.5593 Y-1.8965 Z-0.1551
X4.5591 Y-1.8963 Z-0.1521
G0 Z-0.1367
X4.2289 Y-1.2541
G1 Z-0.1521 F50.
Y-1.2538 Z-0.1551
X4.229 Y-1.2529 Z-0.158
Y-1.2515 Z-0.1607
X4.2291 Y-1.2496 Z-0.163
X4.2292 Y-1.2473 Z-0.1649
X4.2293 Y-1.2446 Z-0.1663
X4.2294 Y-1.2417 Z-0.1672
X4.2295 Y-1.2387 Z-0.1675
G3 X4.2229 Y-1.2085 I-0.0623 J0.0023
G1 X4.146 Y-1.0677 F60.
G3 X3.8337 Y-1.0371 I-0.1744 J-0.1714
G1 X3.7923 Y-1.185
G3 X3.7966 Y-1.1998 I0.015 J-0.0036
X3.8634 Y-1.1873 I0.0289 J0.0302
X3.8481 Y-1.0627 I-0.107 J0.05
X3.838 Y-1.0518 I-0.0916 J-0.0745 F50.
G2 X3.8337 Y-1.0371 I0.0106 J0.0111
G1 X3.8468 Y-0.9902 F60.
G2 X4.0605 Y-0.9113 I0.1549 J-0.0909
G1 X4.146 Y-1.0677
G2 X4.1451 Y-1.0831 I-0.0138 J-0.0069
X4.0996 Y-1.0939 I-0.0285 J0.0187
X4.0523 Y-0.9395 I0.0588 J0.1025
X4.0596 Y-0.9267 I0.1061 J-0.052 F50.
G3 X4.0605 Y-0.9113 I-0.0129 J0.0085
G1 X4.0398 Y-0.8735 F60.
G3 X3.8793 Y-0.8436 I-0.0979 J-0.0795
G1 X3.8579 Y-0.9504
X3.8514 Y-0.9738
X3.8468 Y-0.9902
G3 X3.8512 Y-1.005 I0.015 J-0.0036
X3.9215 Y-0.9875 I0.0297 J0.031
X3.8963 Y-0.8701 I-0.1121 J0.0373
X3.8856 Y-0.8599 I-0.0868 J-0.0801 F50.
G2 X3.8804 Y-0.8454 I0.0099 J0.0118
G1 X3.887 Y-0.8143 F60.
G2 X3.979 Y-0.7589 I0.079 J-0.027
G1 X4.0398 Y-0.8735
G2 X4.0191 Y-0.8941 I-0.0138 J-0.0069
G1 X3.9052 Y-0.8359
X3.8952 Y-0.8307 F50.
G2 X3.887 Y-0.8143 I0.007 J0.0137
G1 X3.9008 Y-0.7497 F60.
G2 X3.9469 Y-0.7047 I0.0414 J0.0037
G1 X3.9489 Y-0.7073
X3.9495 Y-0.7082
X3.9786 Y-0.7614
G2 X3.9777 Y-0.7768 I-0.0138 J-0.0069
X3.9451 Y-0.7716 I-0.0151 J0.0099
X3.9442 Y-0.7341 I0.076 J0.0206
X3.9487 Y-0.72 I0.0769 J-0.017 F50.
G3 X3.9469 Y-0.7047 I-0.0142 J0.0061
X3.905 Y-0.7471 I-0.0159 J-0.0262 F60.
G1 X3.904 Y-0.7492
X3.9033 Y-0.7515
X3.9031 Y-0.754
X3.9034 Y-0.7565
X3.9041 Y-0.7589
X3.9054 Y-0.7612
X3.907 Y-0.7633
X3.9091 Y-0.765
X3.9115 Y-0.7663
X3.9142 Y-0.7672
X3.9171 Y-0.7675
X3.92 Y-0.7673
X3.9229 Y-0.7665 Z-0.1672
X3.9257 Y-0.7658 Z-0.1663
X3.9282 Y-0.7651 Z-0.1649
X3.9305 Y-0.7645 Z-0.163
X3.9323 Y-0.764 Z-0.1607
X3.9337 Y-0.7636 Z-0.158
X3.9346 Y-0.7634 Z-0.1551
X3.9348 Y-0.7633 Z-0.1521
G0 Z0.4
X3.5766 Y-1.7641
Z-0.1367
G1 Z-0.1521 F50.
X3.5763 Y-1.7642 Z-0.1551
X3.5756 Y-1.7647 Z-0.158
X3.5744 Y-1.7655 Z-0.1607
X3.5728 Y-1.7665 Z-0.163
X3.5708 Y-1.7678 Z-0.1649
X3.5686 Y-1.7692 Z-0.1663
X3.5662 Y-1.7708 Z-0.1672
X3.5636 Y-1.7724 Z-0.1675
G3 X3.5427 Y-1.7952 I0.0339 J-0.0523
G1 X3.5062 Y-1.8687 F60.
X3.495 Y-1.889
X3.4828 Y-1.9102
G3 X3.629 Y-2.1935 I0.2333 J-0.059
G1 X3.7987 Y-2.1438
G3 X3.8089 Y-2.1323 I-0.0048 J0.0146
X3.7831 Y-2.0914 I-0.0341 J0.0071
X3.6431 Y-2.1678 I-0.0283 J-0.1147
X3.6392 Y-2.1821 I0.1117 J-0.0383 F50.
G2 X3.629 Y-2.1935 I-0.0151 J0.0031
G1 X3.5766 Y-2.2089 F60.
G2 X3.3937 Y-2.0649 I-0.0025 J0.1849
G1 X3.4828 Y-1.9102
G2 X3.4963 Y-1.9029 I0.0131 J-0.0081
X3.5292 Y-1.9358 I-0.0011 J-0.034
X3.4221 Y-2.0572 I-0.118 J-0.0038
X3.4073 Y-2.0576 I-0.0109 J0.1176 F50.
G3 X3.3937 Y-2.0649 I-0.0005 J-0.0154
X3.3889 Y-2.1136 I0.0203 J-0.0266 F60.
G1 X3.4124 Y-2.1594
X3.4172 Y-2.1706
X3.4326 Y-2.2175
X3.4332 Y-2.2192
X3.4336 Y-2.2205
G3 X3.4543 Y-2.2441 I0.0242 J0.0004
X3.4663 Y-2.2257 I-0.0031 J0.0151
G1 X3.4649 Y-2.2194
X3.4634 Y-2.2129
G3 X3.4508 Y-2.201 I-0.015 J-0.0033
X3.4336 Y-2.2205 I-0.0024 J-0.0152 F50.
G1 X3.4358 Y-2.2273 F60.
X3.4417 Y-2.2417
X3.4422 Y-2.2424
X3.4429 Y-2.2433
X3.4436 Y-2.2439
X3.4447 Y-2.2445
X3.4453 Y-2.2448
G3 X3.5766 Y-2.2089 I0.0037 J0.2447
X3.583 Y-2.1837 I-0.0048 J0.0146
G1 X3.5809 Y-2.1815 Z-0.1672
X3.5789 Y-2.1794 Z-0.1663
X3.5771 Y-2.1775 Z-0.1649
X3.5755 Y-2.1758 Z-0.163
X3.5742 Y-2.1744 Z-0.1607
X3.5732 Y-2.1734 Z-0.158
X3.5726 Y-2.1727 Z-0.1551
X3.5724 Y-2.1725 Z-0.1521
G0 Z0.6
X4.5755 Y-0.0695
Z0.1
G3 X4.6214 Y0.0695 Z0.0595 I0.0229 J0.0695 F50.
X4.5755 Y-0.0695 Z0.019 I-0.0229 J-0.0695
X4.6214 Y0.0695 Z-0.0216 I0.0229 J0.0695
X4.5755 Y-0.0695 Z-0.0621 I-0.0229 J-0.0695
X4.6214 Y0.0695 Z-0.1026 I0.0229 J0.0695
X4.5755 Y-0.0695 Z-0.1431 I-0.0229 J-0.0695
X4.6716 Y0. Z-0.1675 I0.0229 J0.0695
X4.5253 I-0.0731 J0.
X4.6714 Y-0.0059 I0.0731 J0.
G1 X4.6716 Y0.
G3 X4.6859 Y0.0402 I-0.0908 J0.0549 F60.
G1 X4.6844 Y0.0469
X4.6862 Y0.0599
G3 X4.5002 Y0.1176 I-0.106 J-0.0131
X4.5122 Y-0.0775 I0.4754 J-0.0687
G1 X4.5152 Y-0.0851
X4.5189 Y-0.0925
X4.523 Y-0.0995
X4.5277 Y-0.1063
X4.5328 Y-0.1127
X4.5384 Y-0.1187
X4.5444 Y-0.1243
X4.5508 Y-0.1295
X4.5575 Y-0.1341
X4.5646 Y-0.1383
X4.5719 Y-0.142
X4.5795 Y-0.1451
X4.5873 Y-0.1476
X4.5953 Y-0.1496
X4.6033 Y-0.151
X4.6115 Y-0.1519
X4.6197 Y-0.1521
X4.6279 Y-0.1517
X4.636 Y-0.1508
X4.6441 Y-0.1492
X4.652 Y-0.1471
X4.6598 Y-0.1444
X4.6673 Y-0.1412
X4.6746 Y-0.1374
X4.6816 Y-0.1332
X4.6883 Y-0.1284
X4.6946 Y-0.1231
X4.7005 Y-0.1174
X4.7059 Y-0.1113
X4.711 Y-0.1048
G3 X4.6859 Y0.0402 I-1.3584 J-0.1605
X4.6668 Y0.0518 I-0.0151 J-0.0032
X4.6562 Y0.0321 I0.004 J-0.0149
X4.6672 Y0.027 I0.0079 J0.0026
X4.6735 Y0.0317 I-0.0057 J0.0143
X4.6862 Y0.0599 I-0.0487 J0.0389 F50.
G1 X4.6909 Y0.0939 F60.
X4.697 Y0.1204
G3 X4.5226 Y0.2248 I-0.1193 J-0.0014
G1 X4.5044 Y0.1408
X4.4995 Y0.1181
G3 X4.5048 Y0.1036 I0.0152 J-0.0027
X4.5453 Y0.1109 I0.0172 J0.0205
X4.5384 Y0.1987 I-0.0685 J0.0388
X4.5282 Y0.2094 I-0.0617 J-0.049 F50.
G2 X4.5231 Y0.2239 I0.0101 J0.0117
G1 X4.5284 Y0.2476 F60.
G2 X4.7283 Y0.2554 I0.1023 J-0.0585
G1 X4.7229 Y0.2347
X4.7017 Y0.1408
X4.697 Y0.1204
G2 X4.6782 Y0.1095 I-0.0149 J0.004
X4.6616 Y0.1285 I0.0058 J0.0217
X4.7049 Y0.2351 I0.1172 J0.0145
X4.7205 Y0.2457 I0.074 J-0.0921 F50.
G3 X4.7277 Y0.255 I-0.0076 J0.0134
G1 X4.734 Y0.2817 F60.
G3 X4.5572 Y0.3772 I-0.1191 J-0.0091
G2 X4.5284 Y0.2476 I-2.0048 J0.3764
G3 X4.5335 Y0.2331 I0.0151 J-0.0028
X4.5474 Y0.2311 I0.0086 J0.0099
X4.5733 Y0.3513 I-0.0351 J0.0705
X4.563 Y0.3619 I-0.061 J-0.0498 F50.
G2 X4.5577 Y0.3763 I0.0099 J0.0118
G1 X4.5627 Y0.4 F60.
G2 X4.7622 Y0.4128 I0.1037 J-0.0553
G1 X4.7544 Y0.3755
X4.7442 Y0.3286
X4.734 Y0.2817
G2 X4.7058 Y0.2781 I-0.0148 J0.0041
X4.6989 Y0.3062 I0.0463 J0.0263
X4.7397 Y0.3917 I0.118 J-0.0038
X4.7548 Y0.4029 I0.0772 J-0.0894 F50.
G3 X4.7617 Y0.4124 I-0.0081 J0.0131
G1 X4.7673 Y0.4405 F60.
X4.7662 Y0.449
X4.7644 Y0.4574
X4.7621 Y0.4657
X4.7592 Y0.4737
X4.7557 Y0.4816
X4.7517 Y0.4891
X4.7471 Y0.4963
X4.742 Y0.5032
X4.7364 Y0.5097
X4.7304 Y0.5158
X4.724 Y0.5214
X4.7172 Y0.5265
X4.71 Y0.5311
X4.7025 Y0.5352
X4.6947 Y0.5388
X4.6868 Y0.5417
X4.6786 Y0.5441
X4.6703 Y0.5459
X4.6618 Y0.5471
X4.6533 Y0.5476
X4.6448
X4.6364 Y0.5469
X4.628 Y0.5457
X4.6197 Y0.5438
X4.6115 Y0.5413
X4.6036 Y0.5383
X4.5959 Y0.5347
X4.5886 Y0.5305
G2 X4.5627 Y0.4 I-6.8141 J1.2824
G3 X4.5752 Y0.3822 I0.0152 J-0.0027
X4.597 Y0.3924 I0.0036 J0.0206
X4.6009 Y0.5022 I-0.1025 J0.0586
X4.5914 Y0.5185 I-0.1064 J-0.0512 F50.
G2 X4.5889 Y0.53 I0.0126 J0.0088
G1 X4.5945 Y0.5562 F60.
G2 X4.7936 Y0.57 I0.104 J-0.0572
G1 X4.7673 Y0.4405
G2 X4.7568 Y0.4293 I-0.015 J0.0035
X4.7445 Y0.433 I-0.0034 J0.011
G1 X4.7437 Y0.434
G2 X4.7687 Y0.5525 I0.0617 J0.0489
X4.7824 Y0.5582 I0.0367 J-0.0696 F50.
G3 X4.7929 Y0.5694 I-0.0045 J0.0147
G1 X4.7982 Y0.5967 F60.
G3 X4.6181 Y0.6852 I-0.1186 J-0.0138
G2 X4.5945 Y0.5562 I-3.3681 J0.5476
G3 X4.5997 Y0.5417 I0.0152 J-0.0027
X4.616 Y0.5403 I0.0091 J0.0107
X4.6351 Y0.6599 I-0.0401 J0.0678
X4.6244 Y0.6701 I-0.0593 J-0.0518 F50.
G2 X4.6186 Y0.6843 I0.0095 J0.0121
G1 X4.6221 Y0.7041 F60.
X4.6233 Y0.7112
G2 X4.822 Y0.7282 I0.1049 J-0.0562
G1 X4.8094 Y0.6572
X4.8008 Y0.6103
X4.7982 Y0.5967
G2 X4.7797 Y0.5851 I-0.015 J0.0035
X4.7626 Y0.604 I0.005 J0.0217
X4.7998 Y0.7063 I0.1171 J0.0153
X4.8147 Y0.7179 I0.0799 J-0.087 F50.
G3 X4.8213 Y0.7276 I-0.0085 J0.0129
G1 X4.8259 Y0.7549 F60.
G3 X4.6453 Y0.8407 I-0.1182 J-0.0159
G1 X4.638 Y0.798
X4.63 Y0.7511
X4.6233 Y0.7112
G3 X4.6292 Y0.697 I0.0153 J-0.002
X4.642 Y0.6962 I0.007 J0.0091
G1 X4.643 Y0.6968
G3 X4.662 Y0.8152 I-0.0409 J0.0673
X4.6514 Y0.8255 I-0.0599 J-0.0511 F50.
G2 X4.6458 Y0.8399 I0.0096 J0.012
G1 X4.6468 Y0.845 F60.
X4.6752 Y0.8849
X4.6813 Y0.8926
X4.6834 Y0.8945
X4.6923 Y0.9019
X4.7287 Y0.9123
G2 X4.7429 Y0.9143 I0.01 J-0.0202
X4.823 Y0.7566 I-0.0128 J-0.1057
G1 X4.8227 Y0.7542
X4.8221 Y0.7519
X4.8209 Y0.7497
X4.8193 Y0.7477
X4.8173 Y0.746
X4.815 Y0.7447
X4.8125 Y0.7439
X4.8098 Y0.7436
X4.807 Y0.7437
X4.8042 Y0.7445
X4.8016 Y0.7457
G2 X4.7973 Y0.7506 I0.0092 J0.0123
G1 X4.7218 Y0.8869
X4.72 Y0.8902 F50.
G2 X4.7287 Y0.9123 I0.0135 J0.0075
G1 X4.7393 Y0.9154 F60.
X4.7429 Y0.9143
G2 X4.7447 Y0.8857 I-0.0047 J-0.0147
X4.6858 Y0.8611 I-0.0599 J0.0608
X4.6752 Y0.8849 I0.0023 J0.0152 F50.
G1 X4.6802 Y0.8919 F60.
X4.6834 Y0.8945
G2 X4.6999 Y0.896 I0.0094 J-0.0122
G1 X4.7025 Y0.8947 Z-0.1672
X4.7051 Y0.8933 Z-0.1663
X4.7075 Y0.8921 Z-0.1649
X4.7095 Y0.891 Z-0.163
X4.7112 Y0.8902 Z-0.1607
X4.7125 Y0.8895 Z-0.158
X4.7133 Y0.8891 Z-0.1551
X4.7136 Y0.889 Z-0.1521
G0 Z-0.1367
X4.5218 Y-0.0325
G1 Z-0.1521 F50.
X4.5217 Y-0.0328 Z-0.1551
X4.5213 Y-0.0336 Z-0.158
X4.5208 Y-0.0349 Z-0.1607
X4.5201 Y-0.0367 Z-0.163
X4.5192 Y-0.0389 Z-0.1649
X4.5183 Y-0.0414 Z-0.1663
X4.5172 Y-0.0441 Z-0.1672
X4.5161 Y-0.0468 Z-0.1675
G3 X4.5122 Y-0.0775 I0.0579 J-0.023
G1 X4.5148 Y-0.0939 F60.
X4.521 Y-0.1408
X4.5216 Y-0.1479
X4.5246 Y-0.1562
X4.5281 Y-0.1642
X4.5321 Y-0.1719
X4.5367 Y-0.1794
X4.5418 Y-0.1865
X4.5474 Y-0.1932
X4.5534 Y-0.1995
X4.5599 Y-0.2054
X4.5668 Y-0.2108
X4.574 Y-0.2158
X4.5815 Y-0.2202
X4.5894 Y-0.224
X4.5975 Y-0.2273
X4.6058 Y-0.2301
X4.6143 Y-0.2322
X4.6229 Y-0.2338
X4.6316 Y-0.2347
X4.6403 Y-0.235
X4.649 Y-0.2348
X4.6577 Y-0.2339
X4.6663 Y-0.2324
X4.6748 Y-0.2303
X4.6832 Y-0.2276
X4.6913 Y-0.2243
X4.6991 Y-0.2205
X4.7067 Y-0.2161
X4.714 Y-0.2112
X4.7208 Y-0.2059
X4.7182 Y-0.1878
X4.7146 Y-0.1408
X4.7103 Y-0.1044
G3 X4.7007 Y-0.0924 I-0.0152 J-0.0023
X4.6619 Y-0.1184 I-0.0104 J-0.0265
X4.6973 Y-0.1855 I0.0787 J-0.0013
X4.7104 Y-0.1924 I0.0432 J0.0658 F50.
G2 X4.7198 Y-0.2046 I-0.0059 J-0.0142
G1 X4.7221 Y-0.2282 F60.
G2 X4.5384 Y-0.292 I-0.1132 J0.0295
X4.5216 Y-0.1479 I0.5898 J0.1417
X4.5286 Y-0.1342 I0.0154 J0.0008
X4.5764 Y-0.1506 I0.0175 J-0.0268
X4.5538 Y-0.2668 I-0.1116 J-0.0385
X4.5434 Y-0.2773 I-0.089 J0.0777 F50.
G3 X4.5385 Y-0.2919 I0.0102 J-0.0115
G1 X4.5466 Y-0.3251 F60.
G3 X4.7489 Y-0.3451 I0.1079 J0.0582
G1 X4.734 Y-0.2817
X4.7227 Y-0.2347
X4.7221 Y-0.2282
G3 X4.7127 Y-0.216 I-0.0153 J-0.002
X4.6856 Y-0.2273 I-0.0079 J-0.0192
X4.6797 Y-0.2572 I0.0728 J-0.0299
X4.7231 Y-0.3276 I0.0787 J0.
X4.7369 Y-0.333 I0.0353 J0.0704 F50.
G2 X4.7476 Y-0.344 I-0.0042 J-0.0148
G1 X4.7529 Y-0.3688 F60.
G2 X4.5738 Y-0.4568 I-0.1173 J0.0125
G3 X4.5466 Y-0.3251 I-3.7457 J-0.7052
G2 X4.5701 Y-0.3091 I0.0151 J0.0031
X4.5936 Y-0.3402 I-0.032 J-0.0487
X4.5866 Y-0.4287 I-0.1126 J-0.0356
X4.5769 Y-0.4448 I-0.1056 J0.0529 F50.
G3 X4.5742 Y-0.4563 I0.0125 J-0.009
G1 X4.5793 Y-0.4823 F60.
G3 X4.7796 Y-0.4982 I0.1052 J0.0558
G2 X4.7529 Y-0.3688 I9.2277 J1.9682
G3 X4.7422 Y-0.3577 I-0.0149 J-0.0038
X4.7288 Y-0.3618 I-0.0036 J-0.0125
X4.7544 Y-0.481 I0.0615 J-0.0491
X4.7682 Y-0.4865 I0.0358 J0.0701 F50.
G2 X4.7788 Y-0.4976 I-0.0043 J-0.0148
G1 X4.7827 Y-0.5164 F60.
X4.7846 Y-0.5264
G2 X4.6046 Y-0.6138 I-0.1193 J0.0166
G3 X4.5793 Y-0.4823 I-1.7856 J-0.2757
G2 X4.5848 Y-0.468 I0.0152 J0.0024
X4.5964 Y-0.4667 I0.0068 J-0.0083
G1 X4.5986 Y-0.4678
G2 X4.6213 Y-0.588 I-0.0374 J-0.0693
X4.6108 Y-0.5983 I-0.0601 J0.0508 F50.
G3 X4.6052 Y-0.6127 I0.0097 J-0.012
G1 X4.6103 Y-0.6391 F60.
G3 X4.8097 Y-0.655 I0.1048 J0.0565
G1 X4.8008 Y-0.6103
X4.7917 Y-0.5633
X4.7846 Y-0.5264
G3 X4.7742 Y-0.5151 I-0.015 J-0.0034
X4.7608 Y-0.519 I-0.0037 J-0.012
X4.785 Y-0.6372 I0.0617 J-0.0489
X4.7986 Y-0.643 I0.0375 J0.0692 F50.
G2 X4.8089 Y-0.6544 I-0.0047 J-0.0147
G1 X4.8095 Y-0.6572 F60.
X4.8134 Y-0.6807
G2 X4.6323 Y-0.7682 I-0.1183 J0.0136
G3 X4.6104 Y-0.6391 I-2.733 J-0.3976
G1 X4.6102 Y-0.6364
X4.6105 Y-0.6338
X4.6112 Y-0.6312
X4.6124 Y-0.6288
X4.6139 Y-0.6266
X4.6159 Y-0.6248
G2 X4.6315 Y-0.6237 I0.0085 J-0.0105
X4.6494 Y-0.7431 I-0.0411 J-0.0672
X4.6386 Y-0.7532 I-0.059 J0.0522 F50.
G3 X4.6328 Y-0.7674 I0.0094 J-0.0122
G1 X4.6369 Y-0.7915 F60.
G3 X4.8325 Y-0.8167 I0.1059 J0.0501
G1 X4.8322 Y-0.8136
X4.8312 Y-0.8107
X4.8298 Y-0.808
X4.8278 Y-0.8056
X4.8254 Y-0.8037
X4.8226 Y-0.8024
X4.8196 Y-0.8015
X4.8105 Y-0.8
X4.6567 Y-0.7746
X4.6546 Y-0.7742 F50.
G3 X4.6369 Y-0.7915 I-0.0025 J-0.0152
X4.8363 Y-0.8293 I0.0997 J-0.0189 F60.
X4.8209 Y-0.754 I-0.0997 J0.0189
G1 X4.8134 Y-0.6807
X4.8214 Y-0.6755
X4.8291 Y-0.6699
X4.8365 Y-0.6638
X4.8434 Y-0.6572
X4.8499 Y-0.6502
X4.856 Y-0.6428
X4.8616 Y-0.6351
X4.8666 Y-0.627
X4.8712 Y-0.6186
X4.8752 Y-0.6099
X4.8787 Y-0.601
X4.8816 Y-0.5919
X4.8839 Y-0.5826
X4.8856 Y-0.5733
X4.8868 Y-0.5638
X4.8873 Y-0.5542
X4.8872 Y-0.5447
X4.8865 Y-0.5352
X4.8853 Y-0.5257
X4.8834 Y-0.5163
X4.8809 Y-0.5071
X4.8779 Y-0.4981
X4.8743 Y-0.4892
X4.8701 Y-0.4806
X4.8655 Y-0.4723
G2 X4.7938 Y0.0826 I4.3055 J0.8381
G3 X4.9348 Y0.8342 I-8.2275 J1.9328
X4.6074 Y0.9444 I-0.1909 J-0.0256
X4.4958 Y0.5745 I0.7478 J-0.4275
X4.4001 Y-0.0037 I2.1666 J-0.6554
X4.5711 Y-0.9149 I7.2659 J0.8919
G1 X4.5955 Y-0.9361
X4.6106 Y-0.9518
X4.6326 Y-0.9692
X4.6417 Y-0.9749
X4.651 Y-0.9801
X4.6606 Y-0.9848
X4.6704 Y-0.9889
X4.6805 Y-0.9925
X4.6908 Y-0.9955
X4.7012 Y-0.9979
X4.7117 Y-0.9996
X4.7223 Y-1.0008
X4.733 Y-1.0014
X4.7437
X4.7543 Y-1.0008
X4.7649 Y-0.9995
X4.7754 Y-0.9977
X4.7858 Y-0.9952
X4.7961 Y-0.9922
X4.8061 Y-0.9886
X4.816 Y-0.9844
X4.8255 Y-0.9797
X4.8348 Y-0.9744
X4.8438 Y-0.9686
X4.8524 Y-0.9623
X4.8607 Y-0.9556
X4.8686 Y-0.9483
X4.876 Y-0.9407
X4.883 Y-0.9326
X4.8895 Y-0.9241
X4.8955 Y-0.9153
X4.901 Y-0.9062
X4.906 Y-0.8967
X4.9105 Y-0.887
X4.9143 Y-0.8771
X4.9176 Y-0.8669
X4.9204 Y-0.8566
X4.9225 Y-0.8461
X4.924 Y-0.8355
X4.9249 Y-0.8249
X4.9252 Y-0.8142
X4.9249 Y-0.8036
X4.924 Y-0.7929
X4.9225 Y-0.7823
X4.9204 Y-0.7719
G3 X4.9187 Y-0.2284 I-0.6521 J0.2697
G2 X4.9991 Y0.5362 I1.6559 J0.2125
G3 X5.0184 Y0.7008 I-2.4064 J0.3667
G1 X4.9848 Y0.9034
X4.9816 Y0.9154
X4.9779 Y0.9272
X4.9736 Y0.9388
X4.9688 Y0.9502
X4.9634 Y0.9613
X4.9575 Y0.9722
X4.951 Y0.9827
X4.944 Y0.993
X4.9366 Y1.0028
X4.9286 Y1.0123
X4.9203 Y1.0214
X4.9114 Y1.0301
X4.9022 Y1.0383
X4.8926 Y1.0461
X4.8826 Y1.0534
X4.8723 Y1.0602
X4.8616 Y1.0665
X4.8507 Y1.0723
X4.8394 Y1.0775
X4.828 Y1.0821
X4.8163 Y1.0862
X4.8045 Y1.0898
X4.7924 Y1.0927
X4.7803 Y1.0951
X4.7681 Y1.0968
X4.7557 Y1.098
X4.7434 Y1.0985
X4.731
X4.7187 Y1.0978
X4.7064 Y1.0966
X4.6941 Y1.0947
X4.682 Y1.0923
X4.67 Y1.0892
X4.6582 Y1.0856
X4.6465 Y1.0814
X4.6351 Y1.0767
X4.624 Y1.0714
X4.6131 Y1.0655
X4.6024 Y1.0592
X4.5922 Y1.0523
X4.5822 Y1.0449
X4.5727 Y1.0371
X4.5635 Y1.0288
X4.4746 Y0.8683
G3 X4.298 Y0.0532 I5.4265 J-1.6022
X4.4378 Y-0.7963 I6.367 J0.6118
G1 X4.5386 Y-0.9855
X4.5459 Y-0.9956
X4.5536 Y-1.0053
X4.5619 Y-1.0147
X4.5706 Y-1.0237
X4.5797 Y-1.0322
X4.5892 Y-1.0402
X4.5991 Y-1.0478
X4.6093 Y-1.0549
X4.6199 Y-1.0615
X4.6308 Y-1.0675
X4.642 Y-1.073
X4.6534 Y-1.078
X4.6651 Y-1.0823
X4.677 Y-1.0861
X4.689 Y-1.0894
X4.7012 Y-1.092
X4.7135 Y-1.094
X4.7259 Y-1.0954
X4.7383 Y-1.0963
X4.7508 Y-1.0965
X4.7633 Y-1.0961
X4.7757 Y-1.095
X4.788 Y-1.0934
X4.8003 Y-1.0912
X4.8124 Y-1.0884
X4.8244 Y-1.085
X4.8362 Y-1.081
X4.8478 Y-1.0764
X4.8592 Y-1.0712
X4.8703 Y-1.0656
X4.8811 Y-1.0593
X4.8916 Y-1.0526
X4.9017 Y-1.0453
X4.9115 Y-1.0376
X4.9208 Y-1.0294
X4.9298 Y-1.0208
X4.9383 Y-1.0117
X4.9464 Y-1.0022
X4.954 Y-0.9923
X4.9611 Y-0.9821
