%
(971-23-P-0058_DISTAL SPROCKET_1523 SECOND)
(T1  D=0.1523 CR=0. - ZMIN=-0.2175 - FLAT END MILL)
G90 G94 G17 G91.1
G64 P0.001 Q0.001
G20
G53 G0 Z0.
(2D SLOT CUT 2)
M9
T1 M6
S22000 M3
G4 P10.
G54
M7
G0 X0.9653 Y3.3175
G43 Z0.6 H1
G0 Z0.2
G1 Z0.1 F13.333
G3 X0. Y3.4551 Z-0.0725 I-0.9653 J-3.3175 F30.
Y-3.4551 I0. J-3.4551
Y3.4551 I0. J3.4551
X-0.5226 Y3.4153 Z-0.145 I0. J-3.4551
X0.5226 Y-3.4153 I0.5226 J-3.4153
X-0.5226 Y3.4153 I-0.5226 J3.4153
X-1.0332 Y3.297 Z-0.2175 I0.5226 J-3.4153
X1.0332 Y-3.297 I1.0332 J-3.297
X-1.0332 Y3.297 I-1.0332 J3.297
G0 Z0.4
X-5.6335 Y-0.5863
Z0.2
G1 Z0.1 F13.333
G2 X-5.6327 Y-0.5859 Z0.0998 I0.2287 J-0.5329 F30.
G3 X-5.6377 Y-0.5359 Z0.0881 I-0.0104 J0.0242
G2 X-5.7987 Y-0.4764 Z0.0577 I0.1183 J0.5677
X-5.8535 Y-0.3904 Z0.0389 I0.0511 J0.093
G1 X-5.8538 Y-0.3851 Z0.038
G2 X-5.8109 Y-0.2926 Z0.0193 I0.1059 J0.0071
X-5.6591 Y-0.2124 Z-0.0111 I0.3439 J-0.4669
G3 X-5.6608 Y-0.1621 Z-0.0229 I-0.0087 J0.0249
G2 X-5.8175 Y-0.0921 Z-0.0533 I0.1556 J0.5587
G1 X-5.8176 Y-0.092
G2 X-5.8665 Y-0.0026 Z-0.072 I0.0573 J0.0894
G1 Y0. Z-0.0725
Y0.0026
G2 X-5.8176 Y0.092 I0.1062 J0.
G1 X-5.8175 Y0.0921
G2 X-5.6608 Y0.1621 I0.3123 J-0.4886
G3 X-5.6591 Y0.2124 I-0.0071 J0.0254
G2 X-5.8109 Y0.2926 I0.1921 J0.5471
X-5.8538 Y0.3851 I0.063 J0.0854
G1 X-5.8535 Y0.3904
G2 X-5.7987 Y0.4764 I0.1059 J-0.007
X-5.6377 Y0.5359 I0.2794 J-0.5082
G3 X-5.6327 Y0.5859 I-0.0054 J0.0258
G2 X-5.7788 Y0.676 I0.2278 J0.5333
G1 X-5.7789 Y0.6761
G2 X-5.8156 Y0.7709 I0.0686 J0.081
G1 X-5.8149 Y0.776
G2 Y0.7764 I0.0755 J-0.0096
X-5.7545 Y0.8586 I0.1052 J-0.0141
X-5.5899 Y0.9073 I0.2451 J-0.5255
G3 X-5.5817 Y0.9569 I-0.0037 J0.0261
G2 X-5.7215 Y1.0564 I0.2626 J0.517
X-5.7519 Y1.1538 I0.0737 J0.0764
G1 X-5.7518 Y1.1541
X-5.7508 Y1.1592
G2 X-5.6852 Y1.237 I0.104 J-0.0211
X-5.5177 Y1.2748 I0.2099 J-0.5406
G3 X-5.5062 Y1.3237 I-0.0019 J0.0263
G2 X-5.6392 Y1.4323 I0.2962 J0.4986
X-5.6631 Y1.5314 I0.0786 J0.0713
G1 X-5.6617 Y1.5364
Y1.5365
G2 X-5.5911 Y1.61 I0.1025 J-0.0278
G1 X-5.591
G2 X-5.4214 Y1.6367 I0.1737 J-0.5533
G3 X-5.4067 Y1.6847 I-0.0002 J0.0263
G2 X-5.5322 Y1.8018 I0.3286 J0.4778
X-5.5495 Y1.9021 I0.0831 J0.066
G1 X-5.5479 Y1.907
X-5.5478 Y1.9074
G2 X-5.4724 Y1.976 I0.1004 J-0.0345
X-5.3014 Y1.9914 I0.1368 J-0.5635
G3 X-5.2835 Y2.0384 I0.0016 J0.0263
G2 X-5.401 Y2.1635 I0.3594 J0.4551
X-5.4116 Y2.2649 I0.0873 J0.0604
G1 X-5.4096 Y2.2698
G2 X-5.3299 Y2.3334 I0.0979 J-0.041
G1 X-5.3298
G2 X-5.1582 Y2.3374 I0.0992 J-0.5713
G3 X-5.1373 Y2.3831 I0.0033 J0.0261
G2 X-5.2462 Y2.5158 I0.3887 J0.4303
X-5.2501 Y2.6176 I0.0911 J0.0545
G1 X-5.2477 Y2.6224
G2 X-5.1639 Y2.6805 I0.095 J-0.0474
X-4.9924 Y2.6732 I0.0612 J-0.5767
G3 X-4.9685 Y2.7174 I0.005 J0.0259
G2 X-5.0685 Y2.857 I0.4163 J0.4037
X-5.0656 Y2.9589 I0.0945 J0.0484
G1 Y2.959
X-5.0629 Y2.9635
G2 X-4.9755 Y3.016 I0.0916 J-0.0536
X-4.8049 Y2.9973 I0.023 J-0.5794
G3 X-4.7781 Y3.0398 I0.0067 J0.0255
G2 X-4.8685 Y3.1857 I0.4421 J0.3753
X-4.859 Y3.2872 I0.0974 J0.0421
G1 X-4.8588 Y3.2875
X-4.8559 Y3.2918
G2 X-4.7653 Y3.3382 I0.0878 J-0.0597
X-4.5963 Y3.3083 I-0.0153 J-0.5797
G3 X-4.5667 Y3.349 I0.0084 J0.025
G2 X-4.6474 Y3.5005 I0.4659 J0.3453
X-4.6312 Y3.6011 I0.1 J0.0355
G1 X-4.631 Y3.6013
X-4.6278 Y3.6055
G2 X-4.5342 Y3.6459 I0.0837 J-0.0653
X-4.3676 Y3.6048 I-0.0537 J-0.5774
G3 X-4.3354 Y3.6435 I0.01 J0.0244
G2 X-4.4059 Y3.8 I0.4877 J0.3137
X-4.3831 Y3.8993 I0.1022 J0.0288
G1 X-4.3796 Y3.9032
X-4.3795 Y3.9033
G2 X-4.2834 Y3.9375 I0.0793 J-0.0706
X-4.1198 Y3.8856 I-0.0917 J-0.5726
G3 X-4.0851 Y3.922 I0.0116 J0.0237
G2 X-4.1451 Y4.0828 I0.5073 J0.2809
X-4.1158 Y4.1804 I0.1038 J0.022
G1 X-4.1121 Y4.1841
X-4.1118 Y4.1843
G2 X-4.0138 Y4.212 I0.0744 J-0.0758
X-3.854 Y4.1494 I-0.1293 J-0.5653
G3 X-3.817 Y4.1834 I0.0131 J0.0228
G2 X-3.8662 Y4.3479 I0.5248 J0.2467
X-3.8304 Y4.4434 I0.1051 J0.0151
G1 X-3.8302 Y4.4436
X-3.8262 Y4.4469
G2 X-3.7267 Y4.4681 I0.0692 J-0.0805
X-3.5713 Y4.395 I-0.1664 J-0.5555
G3 X-3.5321 Y4.4266 I0.0146 J0.0219
G2 X-3.5704 Y4.5939 I0.54 J0.2114
X-3.5283 Y4.6868 I0.1058 J0.0081
G1 X-3.5281 Y4.6871
X-3.5239 Y4.6901
G2 X-3.4232 Y4.7046 I0.0636 J-0.085
X-3.273 Y4.6214 I-0.2027 J-0.5433
G3 X-3.2319 Y4.6503 I0.016 J0.0209
G2 X-3.259 Y4.8198 I0.5528 J0.1753
X-3.2109 Y4.9098 I0.1061 J0.0011
G1 X-3.2107 Y4.9099
X-3.2063 Y4.9127
G2 X-3.1048 Y4.9206 I0.0579 J-0.0889
X-2.9604 Y4.8277 I-0.2382 J-0.5287
G3 X-2.9175 Y4.8538 I0.0174 J0.0198
G2 X-2.9333 Y5.0247 I0.5631 J0.1384
X-2.8794 Y5.1112 I0.106 J-0.006
G1 X-2.8748 Y5.1138
X-2.8747 Y5.1139
G2 X-2.7728 Y5.115 I0.052 J-0.0925
X-2.6349 Y5.0128 I-0.2726 J-0.5118
G3 X-2.5903 Y5.036 I0.0187 J0.0186
G2 X-2.5948 Y5.2075 I0.5711 J0.1009
X-2.5353 Y5.2904 I0.1054 J-0.0129
G1 X-2.5305 Y5.2927
G2 X-2.4287 Y5.2871 I0.0458 J-0.0958
X-2.2978 Y5.176 I-0.3058 J-0.4927
G3 X-2.2518 Y5.1961 I0.0199 J0.0173
G2 X-2.2449 Y5.3677 I0.5765 J0.0629
X-2.1801 Y5.4464 I0.1043 J-0.0199
X-2.1796 Y5.4466 I0.0283 J-0.0707
G1 X-2.1749 Y5.4484
G2 X-2.0739 Y5.436 I0.0391 J-0.0987
X-1.9507 Y5.3165 I-0.3377 J-0.4714
G3 X-1.9035 Y5.3336 I0.021 J0.016
G2 X-1.8853 Y5.5043 I0.5794 J0.0247
X-1.8155 Y5.5785 I0.1027 J-0.0267
G1 X-1.8105 Y5.5801
X-1.8103 Y5.5802
G2 X-1.7101 Y5.5612 I0.0328 J-0.101
X-1.5951 Y5.4338 I-0.3682 J-0.448
G3 X-1.5468 Y5.4477 I0.022 J0.0146
G2 X-1.5174 Y5.6169 I0.5797 J-0.0137
X-1.4427 Y5.6863 I0.1007 J-0.0335
G1 X-1.4376 Y5.6876
G2 X-1.3388 Y5.6621 I0.0261 J-0.1029
X-1.2325 Y5.5273 I-0.397 J-0.4227
G3 X-1.1834 Y5.5381 I0.0229 J0.0131
G2 X-1.1428 Y5.7049 I0.5776 J-0.052
X-1.064 Y5.7692 I0.0983 J-0.04
G1 X-1.0589 Y5.7701
G2 X-1.0585 Y5.7702 I0.0141 J-0.0748
X-0.9617 Y5.7382 I0.0191 J-0.1044
X-0.8645 Y5.5967 I-0.4241 J-0.3955
G3 X-0.8148 Y5.6042 I0.0237 J0.0116
G2 X-0.7633 Y5.7679 I0.5729 J-0.09
X-0.6801 Y5.8269 I0.0955 J-0.0464
G1 X-0.6798 Y5.827
X-0.6747 Y5.8276
G2 X-0.5804 Y5.7892 I0.0121 J-0.1055
X-0.4927 Y5.6416 I-0.4493 J-0.3667
G3 X-0.4426 Y5.6458 I0.0244 J0.01
G2 X-0.3804 Y5.8058 I0.5657 J-0.1277
X-0.2936 Y5.8591 I0.0922 J-0.0527
G1 X-0.2884 Y5.8594
X-0.2882
G2 X-0.1965 Y5.8149 I0.0052 J-0.106
X-0.1188 Y5.6618 I-0.4725 J-0.3362
G3 X-0.0685 Y5.6627 I0.025 J0.0083
G2 X0.0041 Y5.8182 I0.556 J-0.1648
X0.0943 Y5.8657 I0.0885 J-0.0586
G1 X0.0995 Y5.8656
X0.0996
G2 X0.1882 Y5.8152 I-0.0018 J-0.1061
X0.2557 Y5.6573 I-0.4937 J-0.3042
G3 X0.3059 Y5.6548 I0.0255 J0.0067
G2 X0.3886 Y5.8052 I0.5439 J-0.2012
X0.4818 Y5.8467 I0.0844 J-0.0643
X0.4823 Y5.8466 I-0.0062 J-0.0759
G1 X0.4874 Y5.8462
G2 X0.5722 Y5.7901 I-0.0091 J-0.1058
X0.629 Y5.628 I-0.5127 J-0.2709
G3 X0.679 Y5.6222 I0.0259 J0.0049
G2 X0.7714 Y5.7668 I0.5294 J-0.2367
X0.8671 Y5.802 I0.08 J-0.0698
G1 X0.8672
X0.8724 Y5.8012
G2 X0.9536 Y5.7396 I-0.0158 J-0.105
X0.9996 Y5.5742 I-0.5295 J-0.2364
G3 X1.0491 Y5.5651 I0.0262 J0.0032
G2 X1.1509 Y5.7032 I0.5126 J-0.2712
X1.2487 Y5.732 I0.0752 J-0.0749
G1 X1.2489
X1.254 Y5.7309
G2 X1.3308 Y5.664 I-0.0227 J-0.1037
X1.3658 Y5.4959 I-0.544 J-0.201
G3 X1.4146 Y5.4836 I0.0263 J0.0015
G2 X1.5253 Y5.6147 I0.4935 J-0.3044
X1.6247 Y5.637 I0.0701 J-0.0797
G1 X1.6298 Y5.6356
X1.63 Y5.6355
G2 X1.7023 Y5.5637 I-0.0295 J-0.102
X1.7261 Y5.3936 I-0.5561 J-0.1645
G3 X1.7739 Y5.3781 I0.0264 J-0.0002
G2 X1.8931 Y5.5017 I0.4724 J-0.3363
X1.9938 Y5.5173 I0.0646 J-0.0842
G1 X1.994 Y5.5172
X1.9989 Y5.5154
G2 X2.0662 Y5.439 I-0.0362 J-0.0998
X2.0788 Y5.2678 I-0.5657 J-0.1274
G3 X2.1254 Y5.2491 I0.0263 J-0.002
G2 X2.2525 Y5.3645 I0.4491 J-0.3668
X2.3541 Y5.3734 I0.0589 J-0.0883
G1 X2.359 Y5.3713
G2 X2.4212 Y5.2905 I-0.0426 J-0.0972
X2.4224 Y5.1188 I-0.5729 J-0.0897
G3 X2.4677 Y5.0971 I0.0261 J-0.0037
G2 X2.6021 Y5.2039 I0.4239 J-0.3957
X2.7041 Y5.2061 I0.053 J-0.092
G1 X2.7088 Y5.2037
G2 X2.7656 Y5.119 I-0.049 J-0.0942
X2.7554 Y4.9476 I-0.5776 J-0.0517
G3 X2.7992 Y4.9229 I0.0258 J-0.0054
G2 X2.9404 Y5.0206 I0.3968 J-0.4229
X3.0423 Y5.016 I0.0468 J-0.0953
G1 X3.0424 Y5.0159
X3.0469 Y5.0132
G2 X3.0978 Y4.9249 I-0.0552 J-0.0907
X3.0763 Y4.7546 I-0.5797 J-0.0134
G3 X3.1184 Y4.7272 I0.0254 J-0.0071
G2 X3.2658 Y4.8152 I0.3679 J-0.4483
X3.3671 Y4.804 I0.0404 J-0.0981
G1 X3.3714 Y4.801
X3.3715 Y4.8009
G2 X3.4165 Y4.7095 I-0.061 J-0.0869
X3.3838 Y4.5409 I-0.5794 J0.0249
G3 X3.424 Y4.5107 I0.0248 J-0.0088
G2 X3.5769 Y4.5889 I0.3376 J-0.4715
X3.6772 Y4.571 I0.0338 J-0.1007
G1 X3.6813 Y4.5677
X3.6814 Y4.5676
G2 X3.7203 Y4.4733 I-0.0666 J-0.0827
X3.6766 Y4.3073 I-0.5764 J0.0632
G3 X3.7146 Y4.2746 I0.0242 J-0.0104
G2 X3.8723 Y4.3424 I0.3056 J-0.4928
X3.9713 Y4.3179 I0.0271 J-0.1026
G1 X3.9752 Y4.3143
G2 X4.0078 Y4.2177 I-0.0719 J-0.0781
X3.9532 Y4.055 I-0.571 J0.1012
G3 X3.989 Y4.0197 I0.0235 J-0.012
G2 X4.1509 Y4.077 I0.2724 J-0.5119
X4.2479 Y4.0461 I0.0202 J-0.1042
G1 X4.2515 Y4.0424
X4.2517 Y4.0422
G2 X4.2778 Y3.9436 I-0.0769 J-0.0732
X4.2125 Y3.7848 I-0.563 J0.1388
G3 X4.246 Y3.7473 I0.0226 J-0.0135
G2 X4.4112 Y3.7938 I0.238 J-0.5288
X4.5061 Y3.7564 I0.0133 J-0.1053
G1 X4.5095 Y3.7523
G2 X4.5291 Y3.6523 I-0.0815 J-0.0679
X4.4535 Y3.4981 I-0.5527 J0.1756
G3 X4.4844 Y3.4585 I0.0217 J-0.015
G2 X4.6523 Y3.4939 I0.2025 J-0.5434
X4.7445 Y3.4504 I0.0063 J-0.106
G1 X4.7476 Y3.4461
G2 X4.7606 Y3.3449 I-0.0859 J-0.0624
X4.6749 Y3.1962 I-0.5398 J0.2117
G3 X4.7031 Y3.1545 I0.0207 J-0.0164
G2 X4.873 Y3.1788 I0.1661 J-0.5556
X4.9621 Y3.1294 I-0.0007 J-0.1062
G1 X4.9649 Y3.1249
X4.9651 Y3.1247
G2 X4.9712 Y3.023 I-0.0899 J-0.0565
X4.876 Y2.8802 I-0.5247 J0.2469
G3 X4.9013 Y2.8368 I0.0195 J-0.0177
G2 X5.0725 Y2.8498 I0.1291 J-0.5654
X5.1582 Y2.7945 I-0.0077 J-0.1059
G1 X5.1607 Y2.7898
G2 X5.1601 Y2.6878 I-0.0934 J-0.0505
X5.0556 Y2.5516 I-0.5072 J0.2811
G3 X5.0781 Y2.5067 I0.0183 J-0.019
G2 X5.2497 Y2.5083 I0.0914 J-0.5726
X5.3316 Y2.4475 I-0.0146 J-0.1051
G1 X5.3338 Y2.4426
G2 X5.3266 Y2.3409 I-0.0965 J-0.0442
X5.2132 Y2.2119 I-0.4875 J0.314
G3 X5.2327 Y2.1656 I0.017 J-0.0201
G2 X5.4041 Y2.1559 I0.0534 J-0.5774
X5.4817 Y2.0898 I-0.0216 J-0.1039
X5.4818 Y2.0893 I-0.0712 J-0.0271
G1 X5.4836 Y2.0845
G2 X5.4696 Y1.9838 I-0.0993 J-0.0375
X5.348 Y1.8626 I-0.4658 J0.3455
G3 X5.3643 Y1.815 I0.0156 J-0.0212
G2 X5.5347 Y1.794 I0.0151 J-0.5797
X5.6078 Y1.7229 I-0.0284 J-0.1023
G1 X5.6079 Y1.7227
X5.6094 Y1.7177
G2 X5.5887 Y1.6179 I-0.1015 J-0.031
X5.4594 Y1.505 I-0.4419 J0.3755
G3 X5.4726 Y1.4565 I0.0142 J-0.0222
G2 X5.6412 Y1.4243 I-0.0233 J-0.5794
X5.7094 Y1.3486 I-0.0351 J-0.1002
G1 X5.7106 Y1.3434
Y1.3433
G2 X5.6835 Y1.245 I-0.1033 J-0.0243
X5.5469 Y1.1409 I-0.4161 J0.4039
G3 X5.5569 Y1.0916 I0.0127 J-0.0231
G2 X5.723 Y1.0484 I-0.0615 J-0.5766
X5.786 Y0.9682 I-0.0417 J-0.0976
G1 X5.7869 Y0.9629
G2 X5.7533 Y0.8667 I-0.1047 J-0.0174
X5.6102 Y0.7718 I-0.3885 J0.4305
G3 X5.6169 Y0.722 I0.0112 J-0.0239
G2 X5.7798 Y0.6678 I-0.0995 J-0.5713
X5.8373 Y0.5839 I-0.0481 J-0.0946
G1 X5.8379 Y0.5788
Y0.5784
G2 X5.7981 Y0.4846 I-0.1056 J-0.0106
X5.649 Y0.3994 I-0.3592 J0.4553
G3 X5.6523 Y0.3492 I0.0096 J-0.0246
G2 X5.8113 Y0.2844 I-0.137 J-0.5635
X5.8632 Y0.1966 I-0.0542 J-0.0913
G1 Y0.1964
X5.8634 Y0.1912
G2 X5.8174 Y0.1003 I-0.1061 J-0.0034
X5.663 Y0.0251 I-0.3283 J0.478
G3 Y-0.0251 I0.0079 J-0.0251
G2 X5.8174 Y-0.1003 I-0.174 J-0.5532
X5.8634 Y-0.1912 I-0.0601 J-0.0875
G1 X5.8632 Y-0.1964
Y-0.1966
G2 X5.8113 Y-0.2844 I-0.1061 J0.0036
X5.6523 Y-0.3492 I-0.296 J0.4987
G3 X5.649 Y-0.3994 I0.0062 J-0.0256
G2 X5.798 Y-0.4846 I-0.2101 J-0.5405
X5.8379 Y-0.5784 I-0.0657 J-0.0833
G1 Y-0.5788
X5.8373 Y-0.5839
G2 X5.7798 Y-0.6678 I-0.1056 J0.0107
X5.6169 Y-0.722 I-0.2624 J0.5171
G3 X5.6102 Y-0.7718 I0.0045 J-0.026
G2 X5.7533 Y-0.8667 I-0.2454 J-0.5254
X5.7869 Y-0.9629 I-0.0711 J-0.0788
G1 X5.786 Y-0.9681
G2 X5.723 Y-1.0483 I-0.1047 J0.0174
X5.5569 Y-1.0916 I-0.2277 J0.5333
G3 X5.5469 Y-1.1409 I0.0028 J-0.0262
G2 X5.6835 Y-1.245 I-0.2796 J-0.5081
X5.7106 Y-1.3433 I-0.0762 J-0.0739
G1 Y-1.3434
X5.7094 Y-1.3486
G2 X5.6412 Y-1.4243 I-0.1033 J0.0244
X5.4726 Y-1.4565 I-0.1919 J0.5472
G3 X5.4594 Y-1.505 I0.001 J-0.0263
G2 X5.5887 Y-1.6179 I-0.3126 J-0.4884
X5.6094 Y-1.7177 I-0.0809 J-0.0688
G1 X5.6079 Y-1.7227
X5.6078 Y-1.7229
G2 X5.5347 Y-1.794 I-0.1015 J0.0312
X5.3644 Y-1.815 I-0.1553 J0.5587
G3 X5.348 Y-1.8626 I-0.0007 J-0.0263
G2 X5.4696 Y-1.9838 I-0.3442 J-0.4667
X5.4836 Y-2.0845 I-0.0853 J-0.0632
G1 X5.4818 Y-2.0893
G2 X5.4817 Y-2.0898 I-0.0713 J0.0267
X5.4041 Y-2.1559 I-0.0992 J0.0378
X5.2327 Y-2.1656 I-0.1181 J0.5678
G3 X5.2132 Y-2.2119 I-0.0024 J-0.0262
G2 X5.3265 Y-2.3409 I-0.3742 J-0.443
X5.3338 Y-2.4426 I-0.0893 J-0.0575
G1 X5.3316 Y-2.4474
G2 X5.2497 Y-2.5083 I-0.0965 J0.0442
X5.0781 Y-2.5067 I-0.0802 J0.5743
G3 X5.0556 Y-2.5516 I-0.0042 J-0.026
G2 X5.1601 Y-2.6878 I-0.4027 J-0.4172
X5.1607 Y-2.7898 I-0.0928 J-0.0515
G1 X5.1582 Y-2.7945
G2 X5.0725 Y-2.8498 I-0.0934 J0.0505
X4.9013 Y-2.8368 I-0.0421 J0.5784
G3 X4.876 Y-2.8802 I-0.0059 J-0.0257
G2 X4.9712 Y-3.023 I-0.4294 J-0.3897
X4.9651 Y-3.1247 I-0.096 J-0.0452
G1 X4.9649 Y-3.1249
X4.9621 Y-3.1294
G2 X4.873 Y-3.1788 I-0.0898 J0.0567
X4.7031 Y-3.1545 I-0.0038 J0.5799
G3 X4.6749 Y-3.1962 I-0.0076 J-0.0253
G2 X4.7606 Y-3.3449 I-0.4542 J-0.3605
X4.7476 Y-3.4461 I-0.0988 J-0.0388
G1 X4.7445 Y-3.4504
G2 X4.6523 Y-3.4939 I-0.0859 J0.0624
X4.4844 Y-3.4585 I0.0345 J0.5789
G3 X4.4535 Y-3.4981 I-0.0092 J-0.0247
G2 X4.5291 Y-3.6522 I-0.477 J-0.3297
X4.5095 Y-3.7523 I-0.1012 J-0.0321
G1 X4.5061 Y-3.7564
G2 X4.4112 Y-3.7938 I-0.0816 J0.0679
X4.246 Y-3.7473 I0.0727 J0.5753
G3 X4.2125 Y-3.7848 I-0.0108 J-0.024
G2 X4.2778 Y-3.9436 I-0.4977 J-0.2975
X4.2517 Y-4.0422 I-0.1031 J-0.0254
G1 X4.2515 Y-4.0424
X4.2479 Y-4.0461
G2 X4.1509 Y-4.077 I-0.0768 J0.0733
X3.989 Y-4.0197 I0.1106 J0.5693
G3 X3.9532 Y-4.0549 I-0.0124 J-0.0233
G2 X4.0078 Y-4.2177 I-0.5164 J-0.2639
X3.9752 Y-4.3143 I-0.1045 J-0.0185
G1 X3.9713 Y-4.3179
G2 X3.8723 Y-4.3424 I-0.0719 J0.0781
X3.7147 Y-4.2746 I0.148 J0.5607
G3 X3.6766 Y-4.3073 I-0.0139 J-0.0224
G2 X3.7203 Y-4.4733 I-0.5327 J-0.2292
X3.6814 Y-4.5676 I-0.1055 J-0.0116
G1 X3.6813 Y-4.5677
X3.6772 Y-4.571
G2 X3.5769 Y-4.5889 I-0.0665 J0.0828
X3.424 Y-4.5107 I0.1847 J0.5497
G3 X3.3838 Y-4.5409 I-0.0153 J-0.0214
G2 X3.4165 Y-4.7095 I-0.5467 J-0.1935
X3.3715 Y-4.8009 I-0.1061 J-0.0045
G1 X3.3714 Y-4.801
X3.3671 Y-4.804
G2 X3.2658 Y-4.8152 I-0.0609 J0.0869
X3.1184 Y-4.7272 I0.2205 J0.5363
G3 X3.0763 Y-4.7546 I-0.0167 J-0.0203
G2 X3.0978 Y-4.9249 I-0.5583 J-0.1569
X3.0469 Y-5.0132 I-0.1061 J0.0024
G1 X3.0424 Y-5.0159
X3.0423 Y-5.016
G2 X2.9404 Y-5.0206 I-0.0551 J0.0907
X2.7992 Y-4.9229 I0.2556 J0.5205
G3 X2.7554 Y-4.9476 I-0.018 J-0.0192
G2 X2.7656 Y-5.119 I-0.5674 J-0.1197
X2.7088 Y-5.2037 I-0.1057 J0.0095
G1 X2.7041 Y-5.2061
G2 X2.6021 Y-5.2039 I-0.0489 J0.0942
X2.4677 Y-5.0971 I0.2895 J0.5025
G3 X2.4224 Y-5.1188 I-0.0193 J-0.018
G2 X2.4212 Y-5.2905 I-0.5741 J-0.0819
X2.359 Y-5.3713 I-0.1049 J0.0164
G1 X2.3541 Y-5.3734
G2 X2.2525 Y-5.3645 I-0.0426 J0.0972
X2.1254 Y-5.2491 I0.322 J0.4823
G3 X2.0788 Y-5.2677 I-0.0204 J-0.0167
G2 X2.0662 Y-5.439 I-0.5782 J-0.0438
X1.9989 Y-5.5154 I-0.1036 J0.0233
G1 X1.994 Y-5.5172
X1.9938 Y-5.5173
G2 X1.8931 Y-5.5017 I-0.0361 J0.0998
X1.7739 Y-5.3781 I0.3532 J0.4599
G3 X1.7261 Y-5.3936 I-0.0215 J-0.0153
G2 X1.7023 Y-5.5637 I-0.5799 J-0.0055
X1.63 Y-5.6355 I-0.1018 J0.0301
G1 X1.6298 Y-5.6356
X1.6247 Y-5.637
G2 X1.5253 Y-5.6147 I-0.0293 J0.102
X1.4146 Y-5.4836 I0.3828 J0.4356
G3 X1.3658 Y-5.4959 I-0.0224 J-0.0138
G2 X1.3308 Y-5.664 I-0.579 J0.0328
X1.254 Y-5.7309 I-0.0996 J0.0368
G1 X1.2489 Y-5.732
X1.2487
G2 X1.1509 Y-5.7032 I-0.0226 J0.1037
X1.0491 Y-5.5651 I0.4107 J0.4093
G3 X0.9996 Y-5.5742 I-0.0233 J-0.0123
G2 X0.9536 Y-5.7396 I-0.5755 J0.071
X0.8724 Y-5.8012 I-0.0969 J0.0433
G1 X0.8672 Y-5.802
X0.8671
G2 X0.7714 Y-5.7668 I-0.0157 J0.105
X0.679 Y-5.6222 I0.4369 J0.3813
G3 X0.629 Y-5.628 I-0.0241 J-0.0108
G2 X0.5722 Y-5.79 I-0.5696 J0.1089
X0.4874 Y-5.8462 I-0.0938 J0.0496
G1 X0.4823 Y-5.8466
G2 X0.4818 Y-5.8467 I-0.0068 J0.0758
X0.3886 Y-5.8052 I-0.0087 J0.1058
X0.3059 Y-5.6548 I0.4612 J0.3516
G3 X0.2557 Y-5.6573 I-0.0247 J-0.0091
G2 X0.1883 Y-5.8152 I-0.5611 J0.1463
X0.0996 Y-5.8656 I-0.0904 J0.0557
G1 X0.0995
X0.0943 Y-5.8657
G2 X0.0041 Y-5.8182 I-0.0017 J0.1061
X-0.0685 Y-5.6627 I0.4834 J0.3204
G3 X-0.1188 Y-5.6618 I-0.0253 J-0.0075
G2 X-0.1965 Y-5.8149 I-0.5502 J0.1831
X-0.2882 Y-5.8594 I-0.0865 J0.0615
G1 X-0.2884
X-0.2936 Y-5.8591
G2 X-0.3804 Y-5.8058 I0.0054 J0.106
X-0.4426 Y-5.6458 I0.5035 J0.2877
G3 X-0.4927 Y-5.6416 I-0.0257 J-0.0058
G2 X-0.5804 Y-5.7892 I-0.5369 J0.219
X-0.6747 Y-5.8276 I-0.0822 J0.0671
G1 X-0.6798 Y-5.827
X-0.6801 Y-5.8269
G2 X-0.7633 Y-5.7679 I0.0123 J0.1054
X-0.8148 Y-5.6042 I0.5214 J0.2538
G3 X-0.8645 Y-5.5967 I-0.026 J-0.0041
G2 X-0.9617 Y-5.7382 I-0.5213 J0.2541
X-1.0585 Y-5.7702 I-0.0776 J0.0724
X-1.0589 Y-5.7701 I0.0137 J0.0749
G1 X-1.064 Y-5.7692
G2 X-1.1428 Y-5.7049 I0.0194 J0.1043
X-1.1834 Y-5.5381 I0.537 J0.2188
G3 X-1.2325 Y-5.5273 I-0.0262 J-0.0024
G2 X-1.3388 Y-5.6621 I-0.5033 J0.288
X-1.4376 Y-5.6876 I-0.0727 J0.0774
G1 X-1.4427 Y-5.6863
G2 X-1.5174 Y-5.6169 I0.026 J0.1029
X-1.5468 Y-5.4477 I0.5503 J0.1829
G3 X-1.5951 Y-5.4338 I-0.0263 J-0.0006
G2 X-1.7101 Y-5.5612 I-0.4833 J0.3206
X-1.8103 Y-5.5802 I-0.0674 J0.082
G1 X-1.8105 Y-5.5801
X-1.8155 Y-5.5785
G2 X-1.8853 Y-5.5043 I0.0329 J0.1009
X-1.9035 Y-5.3336 I0.5612 J0.146
G3 X-1.9507 Y-5.3165 I-0.0263 J0.0011
G2 X-2.0739 Y-5.436 I-0.4609 J0.3519
X-2.1749 Y-5.4484 I-0.0618 J0.0863
G1 X-2.1796 Y-5.4466
G2 X-2.1801 Y-5.4464 I0.0278 J0.0709
X-2.2449 Y-5.3677 I0.0394 J0.0986
X-2.2518 Y-5.1962 I0.5696 J0.1086
G3 X-2.2978 Y-5.1759 I-0.0262 J0.0029
G2 X-2.4287 Y-5.2871 I-0.4367 J0.3815
X-2.5305 Y-5.2927 I-0.056 J0.0902
G1 X-2.5353 Y-5.2904
G2 X-2.5948 Y-5.2075 I0.0458 J0.0958
X-2.5903 Y-5.036 I0.5756 J0.0707
G3 X-2.6349 Y-5.0128 I-0.026 J0.0046
G2 X-2.7728 Y-5.115 I-0.4105 J0.4096
X-2.8747 Y-5.1139 I-0.0499 J0.0937
G1 X-2.8748 Y-5.1138
X-2.8794 Y-5.1112
G2 X-2.9333 Y-5.0247 I0.0521 J0.0925
X-2.9175 Y-4.8538 I0.579 J0.0326
G3 X-2.9604 Y-4.8277 I-0.0256 J0.0063
G2 X-3.1048 Y-4.9206 I-0.3825 J0.4358
X-3.2063 Y-4.9127 I-0.0436 J0.0967
G1 X-3.2107 Y-4.9099
X-3.2109 Y-4.9098
G2 X-3.259 Y-4.8198 I0.0581 J0.0889
X-3.2319 Y-4.6503 I0.5799 J-0.0058
G3 X-3.273 Y-4.6214 I-0.0251 J0.008
G2 X-3.4232 Y-4.7046 I-0.3529 J0.4601
X-3.5239 Y-4.6901 I-0.0371 J0.0995
G1 X-3.5281 Y-4.6871
X-3.5283 Y-4.6868
G2 X-3.5704 Y-4.5939 I0.0638 J0.0848
X-3.5321 Y-4.4266 I0.5782 J-0.0441
G3 X-3.5713 Y-4.395 I-0.0245 J0.0096
G2 X-3.7266 Y-4.4681 I-0.3217 J0.4825
X-3.8262 Y-4.4469 I-0.0304 J0.1017
G1 X-3.8302 Y-4.4436
X-3.8304 Y-4.4434
G2 X-3.8662 Y-4.3479 I0.0693 J0.0804
X-3.817 Y-4.1834 I0.574 J-0.0822
G3 X-3.854 Y-4.1494 I-0.0239 J0.0112
G2 X-4.0138 Y-4.212 I-0.2891 J0.5027
X-4.1118 Y-4.1843 I-0.0237 J0.1035
G1 X-4.1121 Y-4.1841
X-4.1158 Y-4.1804
G2 X-4.1451 Y-4.0828 I0.0745 J0.0756
X-4.0851 Y-3.922 I0.5673 J-0.12
G3 X-4.1198 Y-3.8856 I-0.0231 J0.0128
G2 X-4.2834 Y-3.9375 I-0.2553 J0.5207
X-4.3795 Y-3.9033 I-0.0168 J0.1048
G1 X-4.3796 Y-3.9032
X-4.3831 Y-3.8993
G2 X-4.4059 Y-3.8 I0.0794 J0.0705
X-4.3354 Y-3.6435 I0.5582 J-0.1572
G3 X-4.3676 Y-3.6048 I-0.0222 J0.0143
G2 X-4.5342 Y-3.6459 I-0.2204 J0.5364
X-4.6278 Y-3.6055 I-0.0098 J0.1057
G1 X-4.631 Y-3.6013
X-4.6312 Y-3.6011
G2 X-4.6474 Y-3.5005 I0.0839 J0.0651
X-4.5667 Y-3.349 I0.5465 J-0.1937
G3 X-4.5963 Y-3.3083 I-0.0212 J0.0157
G2 X-4.7653 Y-3.3382 I-0.1844 J0.5498
X-4.8559 Y-3.2918 I-0.0028 J0.1061
G1 X-4.8588 Y-3.2875
X-4.859 Y-3.2872
G2 X-4.8685 Y-3.1857 I0.0879 J0.0594
X-4.7781 Y-3.0398 I0.5326 J-0.2295
G3 X-4.8049 Y-2.9973 I-0.0201 J0.0171
G2 X-4.9755 Y-3.016 I-0.1477 J0.5608
X-5.0629 Y-2.9635 I0.0042 J0.1061
G1 X-5.0656 Y-2.959
Y-2.9589
G2 X-5.0685 Y-2.857 I0.0917 J0.0535
X-4.9685 Y-2.7174 I0.5162 J-0.2641
G3 X-4.9924 Y-2.6732 I-0.0189 J0.0184
G2 X-5.1639 Y-2.6805 I-0.1103 J0.5693
X-5.2477 Y-2.6224 I0.0112 J0.1056
G1 X-5.2501 Y-2.6177
G2 X-5.2462 Y-2.5158 I0.095 J0.0474
X-5.1373 Y-2.3831 I0.4977 J-0.2977
G3 X-5.1582 Y-2.3374 I-0.0177 J0.0196
G2 X-5.3298 Y-2.3334 I-0.0724 J0.5754
G1 X-5.3299
G2 X-5.4096 Y-2.2698 I0.0182 J0.1046
G1 X-5.4116 Y-2.265
G2 X-5.401 Y-2.1636 I0.0979 J0.041
X-5.2835 Y-2.0384 I0.4769 J-0.3299
G3 X-5.3014 Y-1.9914 I-0.0163 J0.0207
G2 X-5.4724 Y-1.976 I-0.0343 J0.5789
X-5.5478 Y-1.9074 I0.025 J0.1032
G1 X-5.5479 Y-1.907
X-5.5495 Y-1.9021
G2 X-5.5322 Y-1.8018 I0.1004 J0.0343
X-5.4067 Y-1.6847 I0.4541 J-0.3607
G3 X-5.4214 Y-1.6367 I-0.0149 J0.0217
G2 X-5.591 Y-1.61 I0.0041 J0.5799
G1 X-5.5911
G2 X-5.6617 Y-1.5365 I0.0319 J0.1013
G1 Y-1.5364
X-5.6631 Y-1.5314
G2 X-5.6392 Y-1.4323 I0.1025 J0.0277
X-5.5062 Y-1.3237 I0.4292 J-0.39
G3 X-5.5177 Y-1.2748 I-0.0135 J0.0226
G2 X-5.6852 Y-1.237 I0.0424 J0.5783
X-5.7508 Y-1.1592 I0.0384 J0.099
G1 X-5.7518 Y-1.1541
X-5.7519 Y-1.1538
G2 X-5.7215 Y-1.0565 I0.1041 J0.0209
X-5.5817 Y-0.9569 I0.4025 J-0.4174
G3 X-5.5899 Y-0.9073 I-0.0119 J0.0235
G2 X-5.7545 Y-0.8586 I0.0806 J0.5743
X-5.8149 Y-0.7764 I0.0448 J0.0962
Y-0.776 I0.0755 J0.0101
G1 X-5.8156 Y-0.7709
G2 X-5.7789 Y-0.6761 I0.1053 J0.0138
G1 X-5.7788 Y-0.676
G2 X-5.6327 Y-0.5859 I0.374 J-0.4432
G3 X-5.6377 Y-0.5359 I-0.0104 J0.0242
G2 X-5.7987 Y-0.4764 I0.1183 J0.5677
X-5.8535 Y-0.3904 I0.0511 J0.093
G1 X-5.8538 Y-0.3851
G2 X-5.8109 Y-0.2926 I0.1059 J0.0071
X-5.6591 Y-0.2124 I0.3439 J-0.4669
G3 X-5.6608 Y-0.1621 I-0.0087 J0.0249
G2 X-5.8175 Y-0.0921 I0.1556 J0.5587
G1 X-5.8176 Y-0.092
G2 X-5.8665 Y-0.0026 I0.0573 J0.0894
G1 Y0.
Y0.0026 Z-0.0726
G2 X-5.8176 Y0.092 Z-0.078 I0.1062 J0.
G1 X-5.8175 Y0.0921
G2 X-5.6608 Y0.1621 Z-0.0866 I0.3123 J-0.4886
G3 X-5.6591 Y0.2124 Z-0.09 I-0.0071 J0.0254
G2 X-5.8109 Y0.2926 Z-0.0986 I0.1921 J0.5471
X-5.8538 Y0.3851 Z-0.1039 I0.063 J0.0854
G1 X-5.8535 Y0.3904 Z-0.1042
G2 X-5.7987 Y0.4764 Z-0.1095 I0.1059 J-0.007
X-5.6377 Y0.5359 Z-0.1182 I0.2794 J-0.5082
G3 X-5.6327 Y0.5859 Z-0.1215 I-0.0054 J0.0258
G2 X-5.7788 Y0.676 Z-0.1302 I0.2278 J0.5333
G1 X-5.7789 Y0.6761
G2 X-5.8156 Y0.7709 Z-0.1355 I0.0686 J0.081
G1 X-5.8149 Y0.776 Z-0.1358
G2 Y0.7764 I0.0755 J-0.0096
X-5.7545 Y0.8586 Z-0.1411 I0.1052 J-0.0141
X-5.6826 Y0.8864 Z-0.145 I0.2451 J-0.5255
X-5.5899 Y0.9073 I0.1733 J-0.5534
G3 X-5.5817 Y0.9569 I-0.0037 J0.0261
G2 X-5.7215 Y1.0564 I0.2626 J0.517
X-5.7519 Y1.1538 I0.0737 J0.0764
G1 X-5.7518 Y1.1541
X-5.7508 Y1.1592
G2 X-5.6852 Y1.237 I0.104 J-0.0211
X-5.5177 Y1.2748 I0.2099 J-0.5406
G3 X-5.5062 Y1.3237 I-0.0019 J0.0263
G2 X-5.6392 Y1.4323 I0.2962 J0.4986
X-5.6631 Y1.5314 I0.0786 J0.0713
G1 X-5.6617 Y1.5364
Y1.5365
G2 X-5.5911 Y1.61 I0.1025 J-0.0278
G1 X-5.591
G2 X-5.4214 Y1.6367 I0.1737 J-0.5533
G3 X-5.4067 Y1.6847 I-0.0002 J0.0263
G2 X-5.5322 Y1.8018 I0.3286 J0.4778
X-5.5495 Y1.9021 I0.0831 J0.066
G1 X-5.5479 Y1.907
X-5.5478 Y1.9074
G2 X-5.4724 Y1.976 I0.1004 J-0.0345
X-5.3014 Y1.9914 I0.1368 J-0.5635
G3 X-5.2835 Y2.0384 I0.0016 J0.0263
G2 X-5.401 Y2.1635 I0.3594 J0.4551
X-5.4116 Y2.2649 I0.0873 J0.0604
G1 X-5.4096 Y2.2698
G2 X-5.3299 Y2.3334 I0.0979 J-0.041
G1 X-5.3298
G2 X-5.1582 Y2.3374 I0.0992 J-0.5713
G3 X-5.1373 Y2.3831 I0.0033 J0.0261
G2 X-5.2462 Y2.5158 I0.3887 J0.4303
X-5.2501 Y2.6176 I0.0911 J0.0545
G1 X-5.2477 Y2.6224
G2 X-5.1639 Y2.6805 I0.095 J-0.0474
X-4.9924 Y2.6732 I0.0612 J-0.5767
G3 X-4.9685 Y2.7174 I0.005 J0.0259
G2 X-5.0685 Y2.857 I0.4163 J0.4037
X-5.0656 Y2.9589 I0.0945 J0.0484
G1 Y2.959
X-5.0629 Y2.9635
G2 X-4.9755 Y3.016 I0.0916 J-0.0536
X-4.8049 Y2.9973 I0.023 J-0.5794
G3 X-4.7781 Y3.0398 I0.0067 J0.0255
G2 X-4.8685 Y3.1857 I0.4421 J0.3753
X-4.859 Y3.2872 I0.0974 J0.0421
G1 X-4.8588 Y3.2875
X-4.8559 Y3.2918
G2 X-4.7653 Y3.3382 I0.0878 J-0.0597
X-4.5963 Y3.3083 I-0.0153 J-0.5797
G3 X-4.5667 Y3.349 I0.0084 J0.025
G2 X-4.6474 Y3.5005 I0.4659 J0.3453
X-4.6312 Y3.6011 I0.1 J0.0355
G1 X-4.631 Y3.6013
X-4.6278 Y3.6055
G2 X-4.5342 Y3.6459 I0.0837 J-0.0653
X-4.3676 Y3.6048 I-0.0537 J-0.5774
G3 X-4.3354 Y3.6435 I0.01 J0.0244
G2 X-4.4059 Y3.8 I0.4877 J0.3137
X-4.3831 Y3.8993 I0.1022 J0.0288
G1 X-4.3796 Y3.9032
X-4.3795 Y3.9033
G2 X-4.2834 Y3.9375 I0.0793 J-0.0706
X-4.1198 Y3.8856 I-0.0917 J-0.5726
G3 X-4.0851 Y3.922 I0.0116 J0.0237
G2 X-4.1451 Y4.0828 I0.5073 J0.2809
X-4.1158 Y4.1804 I0.1038 J0.022
G1 X-4.1121 Y4.1841
X-4.1118 Y4.1843
G2 X-4.0138 Y4.212 I0.0744 J-0.0758
X-3.854 Y4.1494 I-0.1293 J-0.5653
G3 X-3.817 Y4.1834 I0.0131 J0.0228
G2 X-3.8662 Y4.3479 I0.5248 J0.2467
X-3.8304 Y4.4434 I0.1051 J0.0151
G1 X-3.8302 Y4.4436
X-3.8262 Y4.4469
G2 X-3.7267 Y4.4681 I0.0692 J-0.0805
X-3.5713 Y4.395 I-0.1664 J-0.5555
G3 X-3.5321 Y4.4266 I0.0146 J0.0219
G2 X-3.5704 Y4.5939 I0.54 J0.2114
X-3.5283 Y4.6868 I0.1058 J0.0081
G1 X-3.5281 Y4.6871
X-3.5239 Y4.6901
G2 X-3.4232 Y4.7046 I0.0636 J-0.085
X-3.273 Y4.6214 I-0.2027 J-0.5433
G3 X-3.2319 Y4.6503 I0.016 J0.0209
G2 X-3.259 Y4.8198 I0.5528 J0.1753
X-3.2109 Y4.9098 I0.1061 J0.0011
G1 X-3.2107 Y4.9099
X-3.2063 Y4.9127
G2 X-3.1048 Y4.9206 I0.0579 J-0.0889
X-2.9604 Y4.8277 I-0.2382 J-0.5287
G3 X-2.9175 Y4.8538 I0.0174 J0.0198
G2 X-2.9333 Y5.0247 I0.5631 J0.1384
X-2.8794 Y5.1112 I0.106 J-0.006
G1 X-2.8748 Y5.1138
X-2.8747 Y5.1139
G2 X-2.7728 Y5.115 I0.052 J-0.0925
X-2.6349 Y5.0128 I-0.2726 J-0.5118
G3 X-2.5903 Y5.036 I0.0187 J0.0186
G2 X-2.5948 Y5.2075 I0.5711 J0.1009
X-2.5353 Y5.2904 I0.1054 J-0.0129
G1 X-2.5305 Y5.2927
G2 X-2.4287 Y5.2871 I0.0458 J-0.0958
X-2.2978 Y5.176 I-0.3058 J-0.4927
G3 X-2.2518 Y5.1961 I0.0199 J0.0173
G2 X-2.2449 Y5.3677 I0.5765 J0.0629
X-2.1801 Y5.4464 I0.1043 J-0.0199
X-2.1796 Y5.4466 I0.0283 J-0.0707
G1 X-2.1749 Y5.4484
G2 X-2.0739 Y5.436 I0.0391 J-0.0987
X-1.9507 Y5.3165 I-0.3377 J-0.4714
G3 X-1.9035 Y5.3336 I0.021 J0.016
G2 X-1.8853 Y5.5043 I0.5794 J0.0247
X-1.8155 Y5.5785 I0.1027 J-0.0267
G1 X-1.8105 Y5.5801
X-1.8103 Y5.5802
G2 X-1.7101 Y5.5612 I0.0328 J-0.101
X-1.5951 Y5.4338 I-0.3682 J-0.448
G3 X-1.5468 Y5.4477 I0.022 J0.0146
G2 X-1.5174 Y5.6169 I0.5797 J-0.0137
X-1.4427 Y5.6863 I0.1007 J-0.0335
G1 X-1.4376 Y5.6876
G2 X-1.3388 Y5.6621 I0.0261 J-0.1029
X-1.2325 Y5.5273 I-0.397 J-0.4227
G3 X-1.1834 Y5.5381 I0.0229 J0.0131
G2 X-1.1428 Y5.7049 I0.5776 J-0.052
X-1.064 Y5.7692 I0.0983 J-0.04
G1 X-1.0589 Y5.7701
G2 X-1.0585 Y5.7702 I0.0141 J-0.0748
X-0.9617 Y5.7382 I0.0191 J-0.1044
X-0.8645 Y5.5967 I-0.4241 J-0.3955
G3 X-0.8148 Y5.6042 I0.0237 J0.0116
G2 X-0.7633 Y5.7679 I0.5729 J-0.09
X-0.6801 Y5.8269 I0.0955 J-0.0464
G1 X-0.6798 Y5.827
X-0.6747 Y5.8276
G2 X-0.5804 Y5.7892 I0.0121 J-0.1055
X-0.4927 Y5.6416 I-0.4493 J-0.3667
G3 X-0.4426 Y5.6458 I0.0244 J0.01
G2 X-0.3804 Y5.8058 I0.5657 J-0.1277
X-0.2936 Y5.8591 I0.0922 J-0.0527
G1 X-0.2884 Y5.8594
X-0.2882
G2 X-0.1965 Y5.8149 I0.0052 J-0.106
X-0.1188 Y5.6618 I-0.4725 J-0.3362
G3 X-0.0685 Y5.6627 I0.025 J0.0083
G2 X0.0041 Y5.8182 I0.556 J-0.1648
X0.0943 Y5.8657 I0.0885 J-0.0586
G1 X0.0995 Y5.8656
X0.0996
G2 X0.1882 Y5.8152 I-0.0018 J-0.1061
X0.2557 Y5.6573 I-0.4937 J-0.3042
G3 X0.3059 Y5.6548 I0.0255 J0.0067
G2 X0.3886 Y5.8052 I0.5439 J-0.2012
X0.4818 Y5.8467 I0.0844 J-0.0643
X0.4823 Y5.8466 I-0.0062 J-0.0759
G1 X0.4874 Y5.8462
G2 X0.5722 Y5.7901 I-0.0091 J-0.1058
X0.629 Y5.628 I-0.5127 J-0.2709
G3 X0.679 Y5.6222 I0.0259 J0.0049
G2 X0.7714 Y5.7668 I0.5294 J-0.2367
X0.8671 Y5.802 I0.08 J-0.0698
G1 X0.8672
X0.8724 Y5.8012
G2 X0.9536 Y5.7396 I-0.0158 J-0.105
X0.9996 Y5.5742 I-0.5295 J-0.2364
G3 X1.0491 Y5.5651 I0.0262 J0.0032
G2 X1.1509 Y5.7032 I0.5126 J-0.2712
X1.2487 Y5.732 I0.0752 J-0.0749
G1 X1.2489
X1.254 Y5.7309
G2 X1.3308 Y5.664 I-0.0227 J-0.1037
X1.3658 Y5.4959 I-0.544 J-0.201
G3 X1.4146 Y5.4836 I0.0263 J0.0015
G2 X1.5253 Y5.6147 I0.4935 J-0.3044
X1.6247 Y5.637 I0.0701 J-0.0797
G1 X1.6298 Y5.6356
X1.63 Y5.6355
G2 X1.7023 Y5.5637 I-0.0295 J-0.102
X1.7261 Y5.3936 I-0.5561 J-0.1645
G3 X1.7739 Y5.3781 I0.0264 J-0.0002
G2 X1.8931 Y5.5017 I0.4724 J-0.3363
X1.9938 Y5.5173 I0.0646 J-0.0842
G1 X1.994 Y5.5172
X1.9989 Y5.5154
G2 X2.0662 Y5.439 I-0.0362 J-0.0998
X2.0788 Y5.2678 I-0.5657 J-0.1274
G3 X2.1254 Y5.2491 I0.0263 J-0.002
G2 X2.2525 Y5.3645 I0.4491 J-0.3668
X2.3541 Y5.3734 I0.0589 J-0.0883
G1 X2.359 Y5.3713
G2 X2.4212 Y5.2905 I-0.0426 J-0.0972
X2.4224 Y5.1188 I-0.5729 J-0.0897
G3 X2.4677 Y5.0971 I0.0261 J-0.0037
G2 X2.6021 Y5.2039 I0.4239 J-0.3957
X2.7041 Y5.2061 I0.053 J-0.092
G1 X2.7088 Y5.2037
G2 X2.7656 Y5.119 I-0.049 J-0.0942
X2.7554 Y4.9476 I-0.5776 J-0.0517
G3 X2.7992 Y4.9229 I0.0258 J-0.0054
G2 X2.9404 Y5.0206 I0.3968 J-0.4229
X3.0423 Y5.016 I0.0468 J-0.0953
G1 X3.0424 Y5.0159
X3.0469 Y5.0132
G2 X3.0978 Y4.9249 I-0.0552 J-0.0907
X3.0763 Y4.7546 I-0.5797 J-0.0134
G3 X3.1184 Y4.7272 I0.0254 J-0.0071
G2 X3.2658 Y4.8152 I0.3679 J-0.4483
X3.3671 Y4.804 I0.0404 J-0.0981
G1 X3.3714 Y4.801
X3.3715 Y4.8009
G2 X3.4165 Y4.7095 I-0.061 J-0.0869
X3.3838 Y4.5409 I-0.5794 J0.0249
G3 X3.424 Y4.5107 I0.0248 J-0.0088
G2 X3.5769 Y4.5889 I0.3376 J-0.4715
X3.6772 Y4.571 I0.0338 J-0.1007
G1 X3.6813 Y4.5677
X3.6814 Y4.5676
G2 X3.7203 Y4.4733 I-0.0666 J-0.0827
X3.6766 Y4.3073 I-0.5764 J0.0632
G3 X3.7146 Y4.2746 I0.0242 J-0.0104
G2 X3.8723 Y4.3424 I0.3056 J-0.4928
X3.9713 Y4.3179 I0.0271 J-0.1026
G1 X3.9752 Y4.3143
G2 X4.0078 Y4.2177 I-0.0719 J-0.0781
X3.9532 Y4.055 I-0.571 J0.1012
G3 X3.989 Y4.0197 I0.0235 J-0.012
G2 X4.1509 Y4.077 I0.2724 J-0.5119
X4.2479 Y4.0461 I0.0202 J-0.1042
G1 X4.2515 Y4.0424
X4.2517 Y4.0422
G2 X4.2778 Y3.9436 I-0.0769 J-0.0732
X4.2125 Y3.7848 I-0.563 J0.1388
G3 X4.246 Y3.7473 I0.0226 J-0.0135
G2 X4.4112 Y3.7938 I0.238 J-0.5288
X4.5061 Y3.7564 I0.0133 J-0.1053
G1 X4.5095 Y3.7523
G2 X4.5291 Y3.6523 I-0.0815 J-0.0679
X4.4535 Y3.4981 I-0.5527 J0.1756
G3 X4.4844 Y3.4585 I0.0217 J-0.015
G2 X4.6523 Y3.4939 I0.2025 J-0.5434
X4.7445 Y3.4504 I0.0063 J-0.106
G1 X4.7476 Y3.4461
G2 X4.7606 Y3.3449 I-0.0859 J-0.0624
X4.6749 Y3.1962 I-0.5398 J0.2117
G3 X4.7031 Y3.1545 I0.0207 J-0.0164
G2 X4.873 Y3.1788 I0.1661 J-0.5556
X4.9621 Y3.1294 I-0.0007 J-0.1062
G1 X4.9649 Y3.1249
X4.9651 Y3.1247
G2 X4.9712 Y3.023 I-0.0899 J-0.0565
X4.876 Y2.8802 I-0.5247 J0.2469
G3 X4.9013 Y2.8368 I0.0195 J-0.0177
G2 X5.0725 Y2.8498 I0.1291 J-0.5654
X5.1582 Y2.7945 I-0.0077 J-0.1059
G1 X5.1607 Y2.7898
G2 X5.1601 Y2.6878 I-0.0934 J-0.0505
X5.0556 Y2.5516 I-0.5072 J0.2811
G3 X5.0781 Y2.5067 I0.0183 J-0.019
G2 X5.2497 Y2.5083 I0.0914 J-0.5726
X5.3316 Y2.4475 I-0.0146 J-0.1051
G1 X5.3338 Y2.4426
G2 X5.3266 Y2.3409 I-0.0965 J-0.0442
X5.2132 Y2.2119 I-0.4875 J0.314
G3 X5.2327 Y2.1656 I0.017 J-0.0201
G2 X5.4041 Y2.1559 I0.0534 J-0.5774
X5.4817 Y2.0898 I-0.0216 J-0.1039
X5.4818 Y2.0893 I-0.0712 J-0.0271
G1 X5.4836 Y2.0845
G2 X5.4696 Y1.9838 I-0.0993 J-0.0375
X5.348 Y1.8626 I-0.4658 J0.3455
G3 X5.3643 Y1.815 I0.0156 J-0.0212
G2 X5.5347 Y1.794 I0.0151 J-0.5797
X5.6078 Y1.7229 I-0.0284 J-0.1023
G1 X5.6079 Y1.7227
X5.6094 Y1.7177
G2 X5.5887 Y1.6179 I-0.1015 J-0.031
X5.4594 Y1.505 I-0.4419 J0.3755
G3 X5.4726 Y1.4565 I0.0142 J-0.0222
G2 X5.6412 Y1.4243 I-0.0233 J-0.5794
X5.7094 Y1.3486 I-0.0351 J-0.1002
G1 X5.7106 Y1.3434
Y1.3433
G2 X5.6835 Y1.245 I-0.1033 J-0.0243
X5.5469 Y1.1409 I-0.4161 J0.4039
G3 X5.5569 Y1.0916 I0.0127 J-0.0231
G2 X5.723 Y1.0484 I-0.0615 J-0.5766
X5.786 Y0.9682 I-0.0417 J-0.0976
G1 X5.7869 Y0.9629
G2 X5.7533 Y0.8667 I-0.1047 J-0.0174
X5.6102 Y0.7718 I-0.3885 J0.4305
G3 X5.6169 Y0.722 I0.0112 J-0.0239
G2 X5.7798 Y0.6678 I-0.0995 J-0.5713
X5.8373 Y0.5839 I-0.0481 J-0.0946
G1 X5.8379 Y0.5788
Y0.5784
G2 X5.7981 Y0.4846 I-0.1056 J-0.0106
X5.649 Y0.3994 I-0.3592 J0.4553
G3 X5.6523 Y0.3492 I0.0096 J-0.0246
G2 X5.8113 Y0.2844 I-0.137 J-0.5635
X5.8632 Y0.1966 I-0.0542 J-0.0913
G1 Y0.1964
X5.8634 Y0.1912
G2 X5.8174 Y0.1003 I-0.1061 J-0.0034
X5.663 Y0.0251 I-0.3283 J0.478
G3 Y-0.0251 I0.0079 J-0.0251
G2 X5.8174 Y-0.1003 I-0.174 J-0.5532
X5.8634 Y-0.1912 I-0.0601 J-0.0875
G1 X5.8632 Y-0.1964
Y-0.1966
G2 X5.8113 Y-0.2844 I-0.1061 J0.0036
X5.6523 Y-0.3492 I-0.296 J0.4987
G3 X5.649 Y-0.3994 I0.0062 J-0.0256
G2 X5.798 Y-0.4846 I-0.2101 J-0.5405
X5.8379 Y-0.5784 I-0.0657 J-0.0833
G1 Y-0.5788
X5.8373 Y-0.5839
G2 X5.7798 Y-0.6678 I-0.1056 J0.0107
X5.6169 Y-0.722 I-0.2624 J0.5171
G3 X5.6102 Y-0.7718 I0.0045 J-0.026
G2 X5.7533 Y-0.8667 I-0.2454 J-0.5254
X5.7869 Y-0.9629 I-0.0711 J-0.0788
G1 X5.786 Y-0.9681
G2 X5.723 Y-1.0483 I-0.1047 J0.0174
X5.5569 Y-1.0916 I-0.2277 J0.5333
G3 X5.5469 Y-1.1409 I0.0028 J-0.0262
G2 X5.6835 Y-1.245 I-0.2796 J-0.5081
X5.7106 Y-1.3433 I-0.0762 J-0.0739
G1 Y-1.3434
X5.7094 Y-1.3486
G2 X5.6412 Y-1.4243 I-0.1033 J0.0244
X5.4726 Y-1.4565 I-0.1919 J0.5472
G3 X5.4594 Y-1.505 I0.001 J-0.0263
G2 X5.5887 Y-1.6179 I-0.3126 J-0.4884
X5.6094 Y-1.7177 I-0.0809 J-0.0688
G1 X5.6079 Y-1.7227
X5.6078 Y-1.7229
G2 X5.5347 Y-1.794 I-0.1015 J0.0312
X5.3644 Y-1.815 I-0.1553 J0.5587
G3 X5.348 Y-1.8626 I-0.0007 J-0.0263
G2 X5.4696 Y-1.9838 I-0.3442 J-0.4667
X5.4836 Y-2.0845 I-0.0853 J-0.0632
G1 X5.4818 Y-2.0893
G2 X5.4817 Y-2.0898 I-0.0713 J0.0267
X5.4041 Y-2.1559 I-0.0992 J0.0378
X5.2327 Y-2.1656 I-0.1181 J0.5678
G3 X5.2132 Y-2.2119 I-0.0024 J-0.0262
G2 X5.3265 Y-2.3409 I-0.3742 J-0.443
X5.3338 Y-2.4426 I-0.0893 J-0.0575
G1 X5.3316 Y-2.4474
G2 X5.2497 Y-2.5083 I-0.0965 J0.0442
X5.0781 Y-2.5067 I-0.0802 J0.5743
G3 X5.0556 Y-2.5516 I-0.0042 J-0.026
G2 X5.1601 Y-2.6878 I-0.4027 J-0.4172
X5.1607 Y-2.7898 I-0.0928 J-0.0515
G1 X5.1582 Y-2.7945
G2 X5.0725 Y-2.8498 I-0.0934 J0.0505
X4.9013 Y-2.8368 I-0.0421 J0.5784
G3 X4.876 Y-2.8802 I-0.0059 J-0.0257
G2 X4.9712 Y-3.023 I-0.4294 J-0.3897
X4.9651 Y-3.1247 I-0.096 J-0.0452
G1 X4.9649 Y-3.1249
X4.9621 Y-3.1294
G2 X4.873 Y-3.1788 I-0.0898 J0.0567
X4.7031 Y-3.1545 I-0.0038 J0.5799
G3 X4.6749 Y-3.1962 I-0.0076 J-0.0253
G2 X4.7606 Y-3.3449 I-0.4542 J-0.3605
X4.7476 Y-3.4461 I-0.0988 J-0.0388
G1 X4.7445 Y-3.4504
G2 X4.6523 Y-3.4939 I-0.0859 J0.0624
X4.4844 Y-3.4585 I0.0345 J0.5789
G3 X4.4535 Y-3.4981 I-0.0092 J-0.0247
G2 X4.5291 Y-3.6522 I-0.477 J-0.3297
X4.5095 Y-3.7523 I-0.1012 J-0.0321
G1 X4.5061 Y-3.7564
G2 X4.4112 Y-3.7938 I-0.0816 J0.0679
X4.246 Y-3.7473 I0.0727 J0.5753
G3 X4.2125 Y-3.7848 I-0.0108 J-0.024
G2 X4.2778 Y-3.9436 I-0.4977 J-0.2975
X4.2517 Y-4.0422 I-0.1031 J-0.0254
G1 X4.2515 Y-4.0424
X4.2479 Y-4.0461
G2 X4.1509 Y-4.077 I-0.0768 J0.0733
X3.989 Y-4.0197 I0.1106 J0.5693
G3 X3.9532 Y-4.0549 I-0.0124 J-0.0233
G2 X4.0078 Y-4.2177 I-0.5164 J-0.2639
X3.9752 Y-4.3143 I-0.1045 J-0.0185
G1 X3.9713 Y-4.3179
G2 X3.8723 Y-4.3424 I-0.0719 J0.0781
X3.7147 Y-4.2746 I0.148 J0.5607
G3 X3.6766 Y-4.3073 I-0.0139 J-0.0224
G2 X3.7203 Y-4.4733 I-0.5327 J-0.2292
X3.6814 Y-4.5676 I-0.1055 J-0.0116
G1 X3.6813 Y-4.5677
X3.6772 Y-4.571
G2 X3.5769 Y-4.5889 I-0.0665 J0.0828
X3.424 Y-4.5107 I0.1847 J0.5497
G3 X3.3838 Y-4.5409 I-0.0153 J-0.0214
G2 X3.4165 Y-4.7095 I-0.5467 J-0.1935
X3.3715 Y-4.8009 I-0.1061 J-0.0045
G1 X3.3714 Y-4.801
X3.3671 Y-4.804
G2 X3.2658 Y-4.8152 I-0.0609 J0.0869
X3.1184 Y-4.7272 I0.2205 J0.5363
G3 X3.0763 Y-4.7546 I-0.0167 J-0.0203
G2 X3.0978 Y-4.9249 I-0.5583 J-0.1569
X3.0469 Y-5.0132 I-0.1061 J0.0024
G1 X3.0424 Y-5.0159
X3.0423 Y-5.016
G2 X2.9404 Y-5.0206 I-0.0551 J0.0907
X2.7992 Y-4.9229 I0.2556 J0.5205
G3 X2.7554 Y-4.9476 I-0.018 J-0.0192
G2 X2.7656 Y-5.119 I-0.5674 J-0.1197
X2.7088 Y-5.2037 I-0.1057 J0.0095
G1 X2.7041 Y-5.2061
G2 X2.6021 Y-5.2039 I-0.0489 J0.0942
X2.4677 Y-5.0971 I0.2895 J0.5025
G3 X2.4224 Y-5.1188 I-0.0193 J-0.018
G2 X2.4212 Y-5.2905 I-0.5741 J-0.0819
X2.359 Y-5.3713 I-0.1049 J0.0164
G1 X2.3541 Y-5.3734
G2 X2.2525 Y-5.3645 I-0.0426 J0.0972
X2.1254 Y-5.2491 I0.322 J0.4823
G3 X2.0788 Y-5.2677 I-0.0204 J-0.0167
G2 X2.0662 Y-5.439 I-0.5782 J-0.0438
X1.9989 Y-5.5154 I-0.1036 J0.0233
G1 X1.994 Y-5.5172
X1.9938 Y-5.5173
G2 X1.8931 Y-5.5017 I-0.0361 J0.0998
X1.7739 Y-5.3781 I0.3532 J0.4599
G3 X1.7261 Y-5.3936 I-0.0215 J-0.0153
G2 X1.7023 Y-5.5637 I-0.5799 J-0.0055
X1.63 Y-5.6355 I-0.1018 J0.0301
G1 X1.6298 Y-5.6356
X1.6247 Y-5.637
G2 X1.5253 Y-5.6147 I-0.0293 J0.102
X1.4146 Y-5.4836 I0.3828 J0.4356
G3 X1.3658 Y-5.4959 I-0.0224 J-0.0138
G2 X1.3308 Y-5.664 I-0.579 J0.0328
X1.254 Y-5.7309 I-0.0996 J0.0368
G1 X1.2489 Y-5.732
X1.2487
G2 X1.1509 Y-5.7032 I-0.0226 J0.1037
X1.0491 Y-5.5651 I0.4107 J0.4093
G3 X0.9996 Y-5.5742 I-0.0233 J-0.0123
G2 X0.9536 Y-5.7396 I-0.5755 J0.071
X0.8724 Y-5.8012 I-0.0969 J0.0433
G1 X0.8672 Y-5.802
X0.8671
G2 X0.7714 Y-5.7668 I-0.0157 J0.105
X0.679 Y-5.6222 I0.4369 J0.3813
G3 X0.629 Y-5.628 I-0.0241 J-0.0108
G2 X0.5722 Y-5.79 I-0.5696 J0.1089
X0.4874 Y-5.8462 I-0.0938 J0.0496
G1 X0.4823 Y-5.8466
G2 X0.4818 Y-5.8467 I-0.0068 J0.0758
X0.3886 Y-5.8052 I-0.0087 J0.1058
X0.3059 Y-5.6548 I0.4612 J0.3516
G3 X0.2557 Y-5.6573 I-0.0247 J-0.0091
G2 X0.1883 Y-5.8152 I-0.5611 J0.1463
X0.0996 Y-5.8656 I-0.0904 J0.0557
G1 X0.0995
X0.0943 Y-5.8657
G2 X0.0041 Y-5.8182 I-0.0017 J0.1061
X-0.0685 Y-5.6627 I0.4834 J0.3204
G3 X-0.1188 Y-5.6618 I-0.0253 J-0.0075
G2 X-0.1965 Y-5.8149 I-0.5502 J0.1831
X-0.2882 Y-5.8594 I-0.0865 J0.0615
G1 X-0.2884
X-0.2936 Y-5.8591
G2 X-0.3804 Y-5.8058 I0.0054 J0.106
X-0.4426 Y-5.6458 I0.5035 J0.2877
G3 X-0.4927 Y-5.6416 I-0.0257 J-0.0058
G2 X-0.5804 Y-5.7892 I-0.5369 J0.219
X-0.6747 Y-5.8276 I-0.0822 J0.0671
G1 X-0.6798 Y-5.827
X-0.6801 Y-5.8269
G2 X-0.7633 Y-5.7679 I0.0123 J0.1054
X-0.8148 Y-5.6042 I0.5214 J0.2538
G3 X-0.8645 Y-5.5967 I-0.026 J-0.0041
G2 X-0.9617 Y-5.7382 I-0.5213 J0.2541
X-1.0585 Y-5.7702 I-0.0776 J0.0724
X-1.0589 Y-5.7701 I0.0137 J0.0749
G1 X-1.064 Y-5.7692
G2 X-1.1428 Y-5.7049 I0.0194 J0.1043
X-1.1834 Y-5.5381 I0.537 J0.2188
G3 X-1.2325 Y-5.5273 I-0.0262 J-0.0024
G2 X-1.3388 Y-5.6621 I-0.5033 J0.288
X-1.4376 Y-5.6876 I-0.0727 J0.0774
G1 X-1.4427 Y-5.6863
G2 X-1.5174 Y-5.6169 I0.026 J0.1029
X-1.5468 Y-5.4477 I0.5503 J0.1829
G3 X-1.5951 Y-5.4338 I-0.0263 J-0.0006
G2 X-1.7101 Y-5.5612 I-0.4833 J0.3206
X-1.8103 Y-5.5802 I-0.0674 J0.082
G1 X-1.8105 Y-5.5801
X-1.8155 Y-5.5785
G2 X-1.8853 Y-5.5043 I0.0329 J0.1009
X-1.9035 Y-5.3336 I0.5612 J0.146
G3 X-1.9507 Y-5.3165 I-0.0263 J0.0011
G2 X-2.0739 Y-5.436 I-0.4609 J0.3519
X-2.1749 Y-5.4484 I-0.0618 J0.0863
G1 X-2.1796 Y-5.4466
G2 X-2.1801 Y-5.4464 I0.0278 J0.0709
X-2.2449 Y-5.3677 I0.0394 J0.0986
X-2.2518 Y-5.1962 I0.5696 J0.1086
G3 X-2.2978 Y-5.1759 I-0.0262 J0.0029
G2 X-2.4287 Y-5.2871 I-0.4367 J0.3815
X-2.5305 Y-5.2927 I-0.056 J0.0902
G1 X-2.5353 Y-5.2904
G2 X-2.5948 Y-5.2075 I0.0458 J0.0958
X-2.5903 Y-5.036 I0.5756 J0.0707
G3 X-2.6349 Y-5.0128 I-0.026 J0.0046
G2 X-2.7728 Y-5.115 I-0.4105 J0.4096
X-2.8747 Y-5.1139 I-0.0499 J0.0937
G1 X-2.8748 Y-5.1138
X-2.8794 Y-5.1112
G2 X-2.9333 Y-5.0247 I0.0521 J0.0925
X-2.9175 Y-4.8538 I0.579 J0.0326
G3 X-2.9604 Y-4.8277 I-0.0256 J0.0063
G2 X-3.1048 Y-4.9206 I-0.3825 J0.4358
X-3.2063 Y-4.9127 I-0.0436 J0.0967
G1 X-3.2107 Y-4.9099
X-3.2109 Y-4.9098
G2 X-3.259 Y-4.8198 I0.0581 J0.0889
X-3.2319 Y-4.6503 I0.5799 J-0.0058
G3 X-3.273 Y-4.6214 I-0.0251 J0.008
G2 X-3.4232 Y-4.7046 I-0.3529 J0.4601
X-3.5239 Y-4.6901 I-0.0371 J0.0995
G1 X-3.5281 Y-4.6871
X-3.5283 Y-4.6868
G2 X-3.5704 Y-4.5939 I0.0638 J0.0848
X-3.5321 Y-4.4266 I0.5782 J-0.0441
G3 X-3.5713 Y-4.395 I-0.0245 J0.0096
G2 X-3.7266 Y-4.4681 I-0.3217 J0.4825
X-3.8262 Y-4.4469 I-0.0304 J0.1017
G1 X-3.8302 Y-4.4436
X-3.8304 Y-4.4434
G2 X-3.8662 Y-4.3479 I0.0693 J0.0804
X-3.817 Y-4.1834 I0.574 J-0.0822
G3 X-3.854 Y-4.1494 I-0.0239 J0.0112
G2 X-4.0138 Y-4.212 I-0.2891 J0.5027
X-4.1118 Y-4.1843 I-0.0237 J0.1035
G1 X-4.1121 Y-4.1841
X-4.1158 Y-4.1804
G2 X-4.1451 Y-4.0828 I0.0745 J0.0756
X-4.0851 Y-3.922 I0.5673 J-0.12
G3 X-4.1198 Y-3.8856 I-0.0231 J0.0128
G2 X-4.2834 Y-3.9375 I-0.2553 J0.5207
X-4.3795 Y-3.9033 I-0.0168 J0.1048
G1 X-4.3796 Y-3.9032
X-4.3831 Y-3.8993
G2 X-4.4059 Y-3.8 I0.0794 J0.0705
X-4.3354 Y-3.6435 I0.5582 J-0.1572
G3 X-4.3676 Y-3.6048 I-0.0222 J0.0143
G2 X-4.5342 Y-3.6459 I-0.2204 J0.5364
X-4.6278 Y-3.6055 I-0.0098 J0.1057
G1 X-4.631 Y-3.6013
X-4.6312 Y-3.6011
G2 X-4.6474 Y-3.5005 I0.0839 J0.0651
X-4.5667 Y-3.349 I0.5465 J-0.1937
G3 X-4.5963 Y-3.3083 I-0.0212 J0.0157
G2 X-4.7653 Y-3.3382 I-0.1844 J0.5498
X-4.8559 Y-3.2918 I-0.0028 J0.1061
G1 X-4.8588 Y-3.2875
X-4.859 Y-3.2872
G2 X-4.8685 Y-3.1857 I0.0879 J0.0594
X-4.7781 Y-3.0398 I0.5326 J-0.2295
G3 X-4.8049 Y-2.9973 I-0.0201 J0.0171
G2 X-4.9755 Y-3.016 I-0.1477 J0.5608
X-5.0629 Y-2.9635 I0.0042 J0.1061
G1 X-5.0656 Y-2.959
Y-2.9589
G2 X-5.0685 Y-2.857 I0.0917 J0.0535
X-4.9685 Y-2.7174 I0.5162 J-0.2641
G3 X-4.9924 Y-2.6732 I-0.0189 J0.0184
G2 X-5.1639 Y-2.6805 I-0.1103 J0.5693
X-5.2477 Y-2.6224 I0.0112 J0.1056
G1 X-5.2501 Y-2.6177
G2 X-5.2462 Y-2.5158 I0.095 J0.0474
X-5.1373 Y-2.3831 I0.4977 J-0.2977
G3 X-5.1582 Y-2.3374 I-0.0177 J0.0196
G2 X-5.3298 Y-2.3334 I-0.0724 J0.5754
G1 X-5.3299
G2 X-5.4096 Y-2.2698 I0.0182 J0.1046
G1 X-5.4116 Y-2.265
G2 X-5.401 Y-2.1636 I0.0979 J0.041
X-5.2835 Y-2.0384 I0.4769 J-0.3299
G3 X-5.3014 Y-1.9914 I-0.0163 J0.0207
G2 X-5.4724 Y-1.976 I-0.0343 J0.5789
X-5.5478 Y-1.9074 I0.025 J0.1032
G1 X-5.5479 Y-1.907
X-5.5495 Y-1.9021
G2 X-5.5322 Y-1.8018 I0.1004 J0.0343
X-5.4067 Y-1.6847 I0.4541 J-0.3607
G3 X-5.4214 Y-1.6367 I-0.0149 J0.0217
G2 X-5.591 Y-1.61 I0.0041 J0.5799
G1 X-5.5911
G2 X-5.6617 Y-1.5365 I0.0319 J0.1013
G1 Y-1.5364
X-5.6631 Y-1.5314
G2 X-5.6392 Y-1.4323 I0.1025 J0.0277
X-5.5062 Y-1.3237 I0.4292 J-0.39
G3 X-5.5177 Y-1.2748 I-0.0135 J0.0226
G2 X-5.6852 Y-1.237 I0.0424 J0.5783
X-5.7508 Y-1.1592 I0.0384 J0.099
G1 X-5.7518 Y-1.1541
X-5.7519 Y-1.1538
G2 X-5.7215 Y-1.0565 I0.1041 J0.0209
X-5.5817 Y-0.9569 I0.4025 J-0.4174
G3 X-5.5899 Y-0.9073 I-0.0119 J0.0235
G2 X-5.7545 Y-0.8586 I0.0806 J0.5743
X-5.8149 Y-0.7764 I0.0448 J0.0962
Y-0.776 I0.0755 J0.0101
G1 X-5.8156 Y-0.7709
G2 X-5.7789 Y-0.6761 I0.1053 J0.0138
G1 X-5.7788 Y-0.676
G2 X-5.6327 Y-0.5859 I0.374 J-0.4432
G3 X-5.6377 Y-0.5359 I-0.0104 J0.0242
G2 X-5.7987 Y-0.4764 I0.1183 J0.5677
X-5.8535 Y-0.3904 I0.0511 J0.093
G1 X-5.8538 Y-0.3851
G2 X-5.8109 Y-0.2926 I0.1059 J0.0071
X-5.6591 Y-0.2124 I0.3439 J-0.4669
G3 X-5.6608 Y-0.1621 I-0.0087 J0.0249
G2 X-5.8175 Y-0.0921 I0.1556 J0.5587
G1 X-5.8176 Y-0.092
G2 X-5.8665 Y-0.0026 I0.0573 J0.0894
G1 Y0.
Y0.0026
G2 X-5.8176 Y0.092 I0.1062 J0.
G1 X-5.8175 Y0.0921
G2 X-5.6608 Y0.1621 I0.3123 J-0.4886
G3 X-5.6591 Y0.2124 I-0.0071 J0.0254
G2 X-5.8109 Y0.2926 I0.1921 J0.5471
X-5.8538 Y0.3851 I0.063 J0.0854
G1 X-5.8535 Y0.3904
G2 X-5.7987 Y0.4764 I0.1059 J-0.007
X-5.6377 Y0.5359 I0.2794 J-0.5082
G3 X-5.6327 Y0.5859 I-0.0054 J0.0258
G2 X-5.7788 Y0.676 I0.2278 J0.5333
G1 X-5.7789 Y0.6761
G2 X-5.8156 Y0.7709 I0.0686 J0.081
G1 X-5.8149 Y0.776
G2 Y0.7764 I0.0755 J-0.0096
X-5.7545 Y0.8586 I0.1052 J-0.0141
X-5.6826 Y0.8864 I0.2451 J-0.5255
X-5.5899 Y0.9073 Z-0.1498 I0.1733 J-0.5534
G3 X-5.5817 Y0.9569 Z-0.1531 I-0.0037 J0.0261
G2 X-5.7215 Y1.0564 Z-0.1618 I0.2626 J0.517
X-5.7519 Y1.1538 Z-0.1671 I0.0737 J0.0764
G1 X-5.7518 Y1.1541
X-5.7508 Y1.1592 Z-0.1674
G2 X-5.6852 Y1.237 Z-0.1727 I0.104 J-0.0211
X-5.5177 Y1.2748 Z-0.1814 I0.2099 J-0.5406
G3 X-5.5062 Y1.3237 Z-0.1847 I-0.0019 J0.0263
G2 X-5.6392 Y1.4323 Z-0.1933 I0.2962 J0.4986
X-5.6631 Y1.5314 Z-0.1987 I0.0786 J0.0713
G1 X-5.6617 Y1.5364 Z-0.1989
Y1.5365
G2 X-5.5911 Y1.61 Z-0.2043 I0.1025 J-0.0278
G1 X-5.591
G2 X-5.4214 Y1.6367 Z-0.2129 I0.1737 J-0.5533
G3 X-5.4067 Y1.6847 Z-0.2163 I-0.0002 J0.0263
G2 X-5.4265 Y1.6989 Z-0.2175 I0.3286 J0.4778
X-5.5322 Y1.8018 I0.3483 J0.4636
X-5.5495 Y1.9021 I0.0831 J0.066
G1 X-5.5479 Y1.907
X-5.5478 Y1.9074
G2 X-5.4724 Y1.976 I0.1004 J-0.0345
X-5.3014 Y1.9914 I0.1368 J-0.5635
G3 X-5.2835 Y2.0384 I0.0016 J0.0263
G2 X-5.401 Y2.1635 I0.3594 J0.4551
X-5.4116 Y2.2649 I0.0873 J0.0604
G1 X-5.4096 Y2.2698
G2 X-5.3299 Y2.3334 I0.0979 J-0.041
G1 X-5.3298
G2 X-5.1582 Y2.3374 I0.0992 J-0.5713
G3 X-5.1373 Y2.3831 I0.0033 J0.0261
G2 X-5.2462 Y2.5158 I0.3887 J0.4303
X-5.2501 Y2.6176 I0.0911 J0.0545
G1 X-5.2477 Y2.6224
G2 X-5.1639 Y2.6805 I0.095 J-0.0474
X-4.9924 Y2.6732 I0.0612 J-0.5767
G3 X-4.9685 Y2.7174 I0.005 J0.0259
G2 X-5.0685 Y2.857 I0.4163 J0.4037
X-5.0656 Y2.9589 I0.0945 J0.0484
G1 Y2.959
X-5.0629 Y2.9635
G2 X-4.9755 Y3.016 I0.0916 J-0.0536
X-4.8049 Y2.9973 I0.023 J-0.5794
G3 X-4.7781 Y3.0398 I0.0067 J0.0255
G2 X-4.8685 Y3.1857 I0.4421 J0.3753
X-4.859 Y3.2872 I0.0974 J0.0421
G1 X-4.8588 Y3.2875
X-4.8559 Y3.2918
G2 X-4.7653 Y3.3382 I0.0878 J-0.0597
X-4.5963 Y3.3083 I-0.0153 J-0.5797
G3 X-4.5667 Y3.349 I0.0084 J0.025
G2 X-4.6474 Y3.5005 I0.4659 J0.3453
X-4.6312 Y3.6011 I0.1 J0.0355
G1 X-4.631 Y3.6013
X-4.6278 Y3.6055
G2 X-4.5342 Y3.6459 I0.0837 J-0.0653
X-4.3676 Y3.6048 I-0.0537 J-0.5774
G3 X-4.3354 Y3.6435 I0.01 J0.0244
G2 X-4.4059 Y3.8 I0.4877 J0.3137
X-4.3831 Y3.8993 I0.1022 J0.0288
G1 X-4.3796 Y3.9032
X-4.3795 Y3.9033
G2 X-4.2834 Y3.9375 I0.0793 J-0.0706
X-4.1198 Y3.8856 I-0.0917 J-0.5726
G3 X-4.0851 Y3.922 I0.0116 J0.0237
G2 X-4.1451 Y4.0828 I0.5073 J0.2809
X-4.1158 Y4.1804 I0.1038 J0.022
G1 X-4.1121 Y4.1841
X-4.1118 Y4.1843
G2 X-4.0138 Y4.212 I0.0744 J-0.0758
X-3.854 Y4.1494 I-0.1293 J-0.5653
G3 X-3.817 Y4.1834 I0.0131 J0.0228
G2 X-3.8662 Y4.3479 I0.5248 J0.2467
X-3.8304 Y4.4434 I0.1051 J0.0151
G1 X-3.8302 Y4.4436
X-3.8262 Y4.4469
G2 X-3.7267 Y4.4681 I0.0692 J-0.0805
X-3.5713 Y4.395 I-0.1664 J-0.5555
G3 X-3.5321 Y4.4266 I0.0146 J0.0219
G2 X-3.5704 Y4.5939 I0.54 J0.2114
X-3.5283 Y4.6868 I0.1058 J0.0081
G1 X-3.5281 Y4.6871
X-3.5239 Y4.6901
G2 X-3.4232 Y4.7046 I0.0636 J-0.085
X-3.273 Y4.6214 I-0.2027 J-0.5433
G3 X-3.2319 Y4.6503 I0.016 J0.0209
G2 X-3.259 Y4.8198 I0.5528 J0.1753
X-3.2109 Y4.9098 I0.1061 J0.0011
G1 X-3.2107 Y4.9099
X-3.2063 Y4.9127
G2 X-3.1048 Y4.9206 I0.0579 J-0.0889
X-2.9604 Y4.8277 I-0.2382 J-0.5287
G3 X-2.9175 Y4.8538 I0.0174 J0.0198
G2 X-2.9333 Y5.0247 I0.5631 J0.1384
X-2.8794 Y5.1112 I0.106 J-0.006
G1 X-2.8748 Y5.1138
X-2.8747 Y5.1139
G2 X-2.7728 Y5.115 I0.052 J-0.0925
X-2.6349 Y5.0128 I-0.2726 J-0.5118
G3 X-2.5903 Y5.036 I0.0187 J0.0186
G2 X-2.5948 Y5.2075 I0.5711 J0.1009
X-2.5353 Y5.2904 I0.1054 J-0.0129
G1 X-2.5305 Y5.2927
G2 X-2.4287 Y5.2871 I0.0458 J-0.0958
X-2.2978 Y5.176 I-0.3058 J-0.4927
G3 X-2.2518 Y5.1961 I0.0199 J0.0173
G2 X-2.2449 Y5.3677 I0.5765 J0.0629
X-2.1801 Y5.4464 I0.1043 J-0.0199
X-2.1796 Y5.4466 I0.0283 J-0.0707
G1 X-2.1749 Y5.4484
G2 X-2.0739 Y5.436 I0.0391 J-0.0987
X-1.9507 Y5.3165 I-0.3377 J-0.4714
G3 X-1.9035 Y5.3336 I0.021 J0.016
G2 X-1.8853 Y5.5043 I0.5794 J0.0247
X-1.8155 Y5.5785 I0.1027 J-0.0267
G1 X-1.8105 Y5.5801
X-1.8103 Y5.5802
G2 X-1.7101 Y5.5612 I0.0328 J-0.101
X-1.5951 Y5.4338 I-0.3682 J-0.448
G3 X-1.5468 Y5.4477 I0.022 J0.0146
G2 X-1.5174 Y5.6169 I0.5797 J-0.0137
X-1.4427 Y5.6863 I0.1007 J-0.0335
G1 X-1.4376 Y5.6876
G2 X-1.3388 Y5.6621 I0.0261 J-0.1029
X-1.2325 Y5.5273 I-0.397 J-0.4227
G3 X-1.1834 Y5.5381 I0.0229 J0.0131
G2 X-1.1428 Y5.7049 I0.5776 J-0.052
X-1.064 Y5.7692 I0.0983 J-0.04
G1 X-1.0589 Y5.7701
G2 X-1.0585 Y5.7702 I0.0141 J-0.0748
X-0.9617 Y5.7382 I0.0191 J-0.1044
X-0.8645 Y5.5967 I-0.4241 J-0.3955
G3 X-0.8148 Y5.6042 I0.0237 J0.0116
G2 X-0.7633 Y5.7679 I0.5729 J-0.09
X-0.6801 Y5.8269 I0.0955 J-0.0464
G1 X-0.6798 Y5.827
X-0.6747 Y5.8276
G2 X-0.5804 Y5.7892 I0.0121 J-0.1055
X-0.4927 Y5.6416 I-0.4493 J-0.3667
G3 X-0.4426 Y5.6458 I0.0244 J0.01
G2 X-0.3804 Y5.8058 I0.5657 J-0.1277
X-0.2936 Y5.8591 I0.0922 J-0.0527
G1 X-0.2884 Y5.8594
X-0.2882
G2 X-0.1965 Y5.8149 I0.0052 J-0.106
X-0.1188 Y5.6618 I-0.4725 J-0.3362
G3 X-0.0685 Y5.6627 I0.025 J0.0083
G2 X0.0041 Y5.8182 I0.556 J-0.1648
X0.0943 Y5.8657 I0.0885 J-0.0586
G1 X0.0995 Y5.8656
X0.0996
G2 X0.1882 Y5.8152 I-0.0018 J-0.1061
X0.2557 Y5.6573 I-0.4937 J-0.3042
G3 X0.3059 Y5.6548 I0.0255 J0.0067
G2 X0.3886 Y5.8052 I0.5439 J-0.2012
X0.4818 Y5.8467 I0.0844 J-0.0643
X0.4823 Y5.8466 I-0.0062 J-0.0759
G1 X0.4874 Y5.8462
G2 X0.5722 Y5.7901 I-0.0091 J-0.1058
X0.629 Y5.628 I-0.5127 J-0.2709
G3 X0.679 Y5.6222 I0.0259 J0.0049
G2 X0.7714 Y5.7668 I0.5294 J-0.2367
X0.8671 Y5.802 I0.08 J-0.0698
G1 X0.8672
X0.8724 Y5.8012
G2 X0.9536 Y5.7396 I-0.0158 J-0.105
X0.9996 Y5.5742 I-0.5295 J-0.2364
G3 X1.0491 Y5.5651 I0.0262 J0.0032
G2 X1.1509 Y5.7032 I0.5126 J-0.2712
X1.2487 Y5.732 I0.0752 J-0.0749
G1 X1.2489
X1.254 Y5.7309
G2 X1.3308 Y5.664 I-0.0227 J-0.1037
X1.3658 Y5.4959 I-0.544 J-0.201
G3 X1.4146 Y5.4836 I0.0263 J0.0015
G2 X1.5253 Y5.6147 I0.4935 J-0.3044
X1.6247 Y5.637 I0.0701 J-0.0797
G1 X1.6298 Y5.6356
X1.63 Y5.6355
G2 X1.7023 Y5.5637 I-0.0295 J-0.102
X1.7261 Y5.3936 I-0.5561 J-0.1645
G3 X1.7739 Y5.3781 I0.0264 J-0.0002
G2 X1.8931 Y5.5017 I0.4724 J-0.3363
X1.9938 Y5.5173 I0.0646 J-0.0842
G1 X1.994 Y5.5172
X1.9989 Y5.5154
G2 X2.0662 Y5.439 I-0.0362 J-0.0998
X2.0788 Y5.2678 I-0.5657 J-0.1274
G3 X2.1254 Y5.2491 I0.0263 J-0.002
G2 X2.2525 Y5.3645 I0.4491 J-0.3668
X2.3541 Y5.3734 I0.0589 J-0.0883
G1 X2.359 Y5.3713
G2 X2.4212 Y5.2905 I-0.0426 J-0.0972
X2.4224 Y5.1188 I-0.5729 J-0.0897
G3 X2.4677 Y5.0971 I0.0261 J-0.0037
G2 X2.6021 Y5.2039 I0.4239 J-0.3957
X2.7041 Y5.2061 I0.053 J-0.092
G1 X2.7088 Y5.2037
G2 X2.7656 Y5.119 I-0.049 J-0.0942
X2.7554 Y4.9476 I-0.5776 J-0.0517
G3 X2.7992 Y4.9229 I0.0258 J-0.0054
G2 X2.9404 Y5.0206 I0.3968 J-0.4229
X3.0423 Y5.016 I0.0468 J-0.0953
G1 X3.0424 Y5.0159
X3.0469 Y5.0132
G2 X3.0978 Y4.9249 I-0.0552 J-0.0907
X3.0763 Y4.7546 I-0.5797 J-0.0134
G3 X3.1184 Y4.7272 I0.0254 J-0.0071
G2 X3.2658 Y4.8152 I0.3679 J-0.4483
X3.3671 Y4.804 I0.0404 J-0.0981
G1 X3.3714 Y4.801
X3.3715 Y4.8009
G2 X3.4165 Y4.7095 I-0.061 J-0.0869
X3.3838 Y4.5409 I-0.5794 J0.0249
G3 X3.424 Y4.5107 I0.0248 J-0.0088
G2 X3.5769 Y4.5889 I0.3376 J-0.4715
X3.6772 Y4.571 I0.0338 J-0.1007
G1 X3.6813 Y4.5677
X3.6814 Y4.5676
G2 X3.7203 Y4.4733 I-0.0666 J-0.0827
X3.6766 Y4.3073 I-0.5764 J0.0632
G3 X3.7146 Y4.2746 I0.0242 J-0.0104
G2 X3.8723 Y4.3424 I0.3056 J-0.4928
X3.9713 Y4.3179 I0.0271 J-0.1026
G1 X3.9752 Y4.3143
G2 X4.0078 Y4.2177 I-0.0719 J-0.0781
X3.9532 Y4.055 I-0.571 J0.1012
G3 X3.989 Y4.0197 I0.0235 J-0.012
G2 X4.1509 Y4.077 I0.2724 J-0.5119
X4.2479 Y4.0461 I0.0202 J-0.1042
G1 X4.2515 Y4.0424
X4.2517 Y4.0422
G2 X4.2778 Y3.9436 I-0.0769 J-0.0732
X4.2125 Y3.7848 I-0.563 J0.1388
G3 X4.246 Y3.7473 I0.0226 J-0.0135
G2 X4.4112 Y3.7938 I0.238 J-0.5288
X4.5061 Y3.7564 I0.0133 J-0.1053
G1 X4.5095 Y3.7523
G2 X4.5291 Y3.6523 I-0.0815 J-0.0679
X4.4535 Y3.4981 I-0.5527 J0.1756
G3 X4.4844 Y3.4585 I0.0217 J-0.015
G2 X4.6523 Y3.4939 I0.2025 J-0.5434
X4.7445 Y3.4504 I0.0063 J-0.106
G1 X4.7476 Y3.4461
G2 X4.7606 Y3.3449 I-0.0859 J-0.0624
X4.6749 Y3.1962 I-0.5398 J0.2117
G3 X4.7031 Y3.1545 I0.0207 J-0.0164
G2 X4.873 Y3.1788 I0.1661 J-0.5556
X4.9621 Y3.1294 I-0.0007 J-0.1062
G1 X4.9649 Y3.1249
X4.9651 Y3.1247
G2 X4.9712 Y3.023 I-0.0899 J-0.0565
X4.876 Y2.8802 I-0.5247 J0.2469
G3 X4.9013 Y2.8368 I0.0195 J-0.0177
G2 X5.0725 Y2.8498 I0.1291 J-0.5654
X5.1582 Y2.7945 I-0.0077 J-0.1059
G1 X5.1607 Y2.7898
G2 X5.1601 Y2.6878 I-0.0934 J-0.0505
X5.0556 Y2.5516 I-0.5072 J0.2811
G3 X5.0781 Y2.5067 I0.0183 J-0.019
G2 X5.2497 Y2.5083 I0.0914 J-0.5726
X5.3316 Y2.4475 I-0.0146 J-0.1051
G1 X5.3338 Y2.4426
G2 X5.3266 Y2.3409 I-0.0965 J-0.0442
X5.2132 Y2.2119 I-0.4875 J0.314
G3 X5.2327 Y2.1656 I0.017 J-0.0201
G2 X5.4041 Y2.1559 I0.0534 J-0.5774
X5.4817 Y2.0898 I-0.0216 J-0.1039
X5.4818 Y2.0893 I-0.0712 J-0.0271
G1 X5.4836 Y2.0845
G2 X5.4696 Y1.9838 I-0.0993 J-0.0375
X5.348 Y1.8626 I-0.4658 J0.3455
G3 X5.3643 Y1.815 I0.0156 J-0.0212
G2 X5.5347 Y1.794 I0.0151 J-0.5797
X5.6078 Y1.7229 I-0.0284 J-0.1023
G1 X5.6079 Y1.7227
X5.6094 Y1.7177
G2 X5.5887 Y1.6179 I-0.1015 J-0.031
X5.4594 Y1.505 I-0.4419 J0.3755
G3 X5.4726 Y1.4565 I0.0142 J-0.0222
G2 X5.6412 Y1.4243 I-0.0233 J-0.5794
X5.7094 Y1.3486 I-0.0351 J-0.1002
G1 X5.7106 Y1.3434
Y1.3433
G2 X5.6835 Y1.245 I-0.1033 J-0.0243
X5.5469 Y1.1409 I-0.4161 J0.4039
G3 X5.5569 Y1.0916 I0.0127 J-0.0231
G2 X5.723 Y1.0484 I-0.0615 J-0.5766
X5.786 Y0.9682 I-0.0417 J-0.0976
G1 X5.7869 Y0.9629
G2 X5.7533 Y0.8667 I-0.1047 J-0.0174
X5.6102 Y0.7718 I-0.3885 J0.4305
G3 X5.6169 Y0.722 I0.0112 J-0.0239
G2 X5.7798 Y0.6678 I-0.0995 J-0.5713
X5.8373 Y0.5839 I-0.0481 J-0.0946
G1 X5.8379 Y0.5788
Y0.5784
G2 X5.7981 Y0.4846 I-0.1056 J-0.0106
X5.649 Y0.3994 I-0.3592 J0.4553
G3 X5.6523 Y0.3492 I0.0096 J-0.0246
G2 X5.8113 Y0.2844 I-0.137 J-0.5635
X5.8632 Y0.1966 I-0.0542 J-0.0913
G1 Y0.1964
X5.8634 Y0.1912
G2 X5.8174 Y0.1003 I-0.1061 J-0.0034
X5.663 Y0.0251 I-0.3283 J0.478
G3 Y-0.0251 I0.0079 J-0.0251
G2 X5.8174 Y-0.1003 I-0.174 J-0.5532
X5.8634 Y-0.1912 I-0.0601 J-0.0875
G1 X5.8632 Y-0.1964
Y-0.1966
G2 X5.8113 Y-0.2844 I-0.1061 J0.0036
X5.6523 Y-0.3492 I-0.296 J0.4987
G3 X5.649 Y-0.3994 I0.0062 J-0.0256
G2 X5.798 Y-0.4846 I-0.2101 J-0.5405
X5.8379 Y-0.5784 I-0.0657 J-0.0833
G1 Y-0.5788
X5.8373 Y-0.5839
G2 X5.7798 Y-0.6678 I-0.1056 J0.0107
X5.6169 Y-0.722 I-0.2624 J0.5171
G3 X5.6102 Y-0.7718 I0.0045 J-0.026
G2 X5.7533 Y-0.8667 I-0.2454 J-0.5254
X5.7869 Y-0.9629 I-0.0711 J-0.0788
G1 X5.786 Y-0.9681
G2 X5.723 Y-1.0483 I-0.1047 J0.0174
X5.5569 Y-1.0916 I-0.2277 J0.5333
G3 X5.5469 Y-1.1409 I0.0028 J-0.0262
G2 X5.6835 Y-1.245 I-0.2796 J-0.5081
X5.7106 Y-1.3433 I-0.0762 J-0.0739
G1 Y-1.3434
X5.7094 Y-1.3486
G2 X5.6412 Y-1.4243 I-0.1033 J0.0244
X5.4726 Y-1.4565 I-0.1919 J0.5472
G3 X5.4594 Y-1.505 I0.001 J-0.0263
G2 X5.5887 Y-1.6179 I-0.3126 J-0.4884
X5.6094 Y-1.7177 I-0.0809 J-0.0688
G1 X5.6079 Y-1.7227
X5.6078 Y-1.7229
G2 X5.5347 Y-1.794 I-0.1015 J0.0312
X5.3644 Y-1.815 I-0.1553 J0.5587
G3 X5.348 Y-1.8626 I-0.0007 J-0.0263
G2 X5.4696 Y-1.9838 I-0.3442 J-0.4667
X5.4836 Y-2.0845 I-0.0853 J-0.0632
G1 X5.4818 Y-2.0893
G2 X5.4817 Y-2.0898 I-0.0713 J0.0267
X5.4041 Y-2.1559 I-0.0992 J0.0378
X5.2327 Y-2.1656 I-0.1181 J0.5678
G3 X5.2132 Y-2.2119 I-0.0024 J-0.0262
G2 X5.3265 Y-2.3409 I-0.3742 J-0.443
X5.3338 Y-2.4426 I-0.0893 J-0.0575
G1 X5.3316 Y-2.4474
G2 X5.2497 Y-2.5083 I-0.0965 J0.0442
X5.0781 Y-2.5067 I-0.0802 J0.5743
G3 X5.0556 Y-2.5516 I-0.0042 J-0.026
G2 X5.1601 Y-2.6878 I-0.4027 J-0.4172
X5.1607 Y-2.7898 I-0.0928 J-0.0515
G1 X5.1582 Y-2.7945
G2 X5.0725 Y-2.8498 I-0.0934 J0.0505
X4.9013 Y-2.8368 I-0.0421 J0.5784
G3 X4.876 Y-2.8802 I-0.0059 J-0.0257
G2 X4.9712 Y-3.023 I-0.4294 J-0.3897
X4.9651 Y-3.1247 I-0.096 J-0.0452
G1 X4.9649 Y-3.1249
X4.9621 Y-3.1294
G2 X4.873 Y-3.1788 I-0.0898 J0.0567
X4.7031 Y-3.1545 I-0.0038 J0.5799
G3 X4.6749 Y-3.1962 I-0.0076 J-0.0253
G2 X4.7606 Y-3.3449 I-0.4542 J-0.3605
X4.7476 Y-3.4461 I-0.0988 J-0.0388
G1 X4.7445 Y-3.4504
G2 X4.6523 Y-3.4939 I-0.0859 J0.0624
X4.4844 Y-3.4585 I0.0345 J0.5789
G3 X4.4535 Y-3.4981 I-0.0092 J-0.0247
G2 X4.5291 Y-3.6522 I-0.477 J-0.3297
X4.5095 Y-3.7523 I-0.1012 J-0.0321
G1 X4.5061 Y-3.7564
G2 X4.4112 Y-3.7938 I-0.0816 J0.0679
X4.246 Y-3.7473 I0.0727 J0.5753
G3 X4.2125 Y-3.7848 I-0.0108 J-0.024
G2 X4.2778 Y-3.9436 I-0.4977 J-0.2975
X4.2517 Y-4.0422 I-0.1031 J-0.0254
G1 X4.2515 Y-4.0424
X4.2479 Y-4.0461
G2 X4.1509 Y-4.077 I-0.0768 J0.0733
X3.989 Y-4.0197 I0.1106 J0.5693
G3 X3.9532 Y-4.0549 I-0.0124 J-0.0233
G2 X4.0078 Y-4.2177 I-0.5164 J-0.2639
X3.9752 Y-4.3143 I-0.1045 J-0.0185
G1 X3.9713 Y-4.3179
G2 X3.8723 Y-4.3424 I-0.0719 J0.0781
X3.7147 Y-4.2746 I0.148 J0.5607
G3 X3.6766 Y-4.3073 I-0.0139 J-0.0224
G2 X3.7203 Y-4.4733 I-0.5327 J-0.2292
X3.6814 Y-4.5676 I-0.1055 J-0.0116
G1 X3.6813 Y-4.5677
X3.6772 Y-4.571
G2 X3.5769 Y-4.5889 I-0.0665 J0.0828
X3.424 Y-4.5107 I0.1847 J0.5497
G3 X3.3838 Y-4.5409 I-0.0153 J-0.0214
G2 X3.4165 Y-4.7095 I-0.5467 J-0.1935
X3.3715 Y-4.8009 I-0.1061 J-0.0045
G1 X3.3714 Y-4.801
X3.3671 Y-4.804
G2 X3.2658 Y-4.8152 I-0.0609 J0.0869
X3.1184 Y-4.7272 I0.2205 J0.5363
G3 X3.0763 Y-4.7546 I-0.0167 J-0.0203
G2 X3.0978 Y-4.9249 I-0.5583 J-0.1569
X3.0469 Y-5.0132 I-0.1061 J0.0024
G1 X3.0424 Y-5.0159
X3.0423 Y-5.016
G2 X2.9404 Y-5.0206 I-0.0551 J0.0907
X2.7992 Y-4.9229 I0.2556 J0.5205
G3 X2.7554 Y-4.9476 I-0.018 J-0.0192
G2 X2.7656 Y-5.119 I-0.5674 J-0.1197
X2.7088 Y-5.2037 I-0.1057 J0.0095
G1 X2.7041 Y-5.2061
G2 X2.6021 Y-5.2039 I-0.0489 J0.0942
X2.4677 Y-5.0971 I0.2895 J0.5025
G3 X2.4224 Y-5.1188 I-0.0193 J-0.018
G2 X2.4212 Y-5.2905 I-0.5741 J-0.0819
X2.359 Y-5.3713 I-0.1049 J0.0164
G1 X2.3541 Y-5.3734
G2 X2.2525 Y-5.3645 I-0.0426 J0.0972
X2.1254 Y-5.2491 I0.322 J0.4823
G3 X2.0788 Y-5.2677 I-0.0204 J-0.0167
G2 X2.0662 Y-5.439 I-0.5782 J-0.0438
X1.9989 Y-5.5154 I-0.1036 J0.0233
G1 X1.994 Y-5.5172
X1.9938 Y-5.5173
G2 X1.8931 Y-5.5017 I-0.0361 J0.0998
X1.7739 Y-5.3781 I0.3532 J0.4599
G3 X1.7261 Y-5.3936 I-0.0215 J-0.0153
G2 X1.7023 Y-5.5637 I-0.5799 J-0.0055
X1.63 Y-5.6355 I-0.1018 J0.0301
G1 X1.6298 Y-5.6356
X1.6247 Y-5.637
G2 X1.5253 Y-5.6147 I-0.0293 J0.102
X1.4146 Y-5.4836 I0.3828 J0.4356
G3 X1.3658 Y-5.4959 I-0.0224 J-0.0138
G2 X1.3308 Y-5.664 I-0.579 J0.0328
X1.254 Y-5.7309 I-0.0996 J0.0368
G1 X1.2489 Y-5.732
X1.2487
G2 X1.1509 Y-5.7032 I-0.0226 J0.1037
X1.0491 Y-5.5651 I0.4107 J0.4093
G3 X0.9996 Y-5.5742 I-0.0233 J-0.0123
G2 X0.9536 Y-5.7396 I-0.5755 J0.071
X0.8724 Y-5.8012 I-0.0969 J0.0433
G1 X0.8672 Y-5.802
X0.8671
G2 X0.7714 Y-5.7668 I-0.0157 J0.105
X0.679 Y-5.6222 I0.4369 J0.3813
G3 X0.629 Y-5.628 I-0.0241 J-0.0108
G2 X0.5722 Y-5.79 I-0.5696 J0.1089
X0.4874 Y-5.8462 I-0.0938 J0.0496
G1 X0.4823 Y-5.8466
G2 X0.4818 Y-5.8467 I-0.0068 J0.0758
X0.3886 Y-5.8052 I-0.0087 J0.1058
X0.3059 Y-5.6548 I0.4612 J0.3516
G3 X0.2557 Y-5.6573 I-0.0247 J-0.0091
G2 X0.1883 Y-5.8152 I-0.5611 J0.1463
X0.0996 Y-5.8656 I-0.0904 J0.0557
G1 X0.0995
X0.0943 Y-5.8657
G2 X0.0041 Y-5.8182 I-0.0017 J0.1061
X-0.0685 Y-5.6627 I0.4834 J0.3204
G3 X-0.1188 Y-5.6618 I-0.0253 J-0.0075
G2 X-0.1965 Y-5.8149 I-0.5502 J0.1831
X-0.2882 Y-5.8594 I-0.0865 J0.0615
G1 X-0.2884
X-0.2936 Y-5.8591
G2 X-0.3804 Y-5.8058 I0.0054 J0.106
X-0.4426 Y-5.6458 I0.5035 J0.2877
G3 X-0.4927 Y-5.6416 I-0.0257 J-0.0058
G2 X-0.5804 Y-5.7892 I-0.5369 J0.219
X-0.6747 Y-5.8276 I-0.0822 J0.0671
G1 X-0.6798 Y-5.827
X-0.6801 Y-5.8269
G2 X-0.7633 Y-5.7679 I0.0123 J0.1054
X-0.8148 Y-5.6042 I0.5214 J0.2538
G3 X-0.8645 Y-5.5967 I-0.026 J-0.0041
G2 X-0.9617 Y-5.7382 I-0.5213 J0.2541
X-1.0585 Y-5.7702 I-0.0776 J0.0724
X-1.0589 Y-5.7701 I0.0137 J0.0749
G1 X-1.064 Y-5.7692
G2 X-1.1428 Y-5.7049 I0.0194 J0.1043
X-1.1834 Y-5.5381 I0.537 J0.2188
G3 X-1.2325 Y-5.5273 I-0.0262 J-0.0024
G2 X-1.3388 Y-5.6621 I-0.5033 J0.288
X-1.4376 Y-5.6876 I-0.0727 J0.0774
G1 X-1.4427 Y-5.6863
G2 X-1.5174 Y-5.6169 I0.026 J0.1029
X-1.5468 Y-5.4477 I0.5503 J0.1829
G3 X-1.5951 Y-5.4338 I-0.0263 J-0.0006
G2 X-1.7101 Y-5.5612 I-0.4833 J0.3206
X-1.8103 Y-5.5802 I-0.0674 J0.082
G1 X-1.8105 Y-5.5801
X-1.8155 Y-5.5785
G2 X-1.8853 Y-5.5043 I0.0329 J0.1009
X-1.9035 Y-5.3336 I0.5612 J0.146
G3 X-1.9507 Y-5.3165 I-0.0263 J0.0011
G2 X-2.0739 Y-5.436 I-0.4609 J0.3519
X-2.1749 Y-5.4484 I-0.0618 J0.0863
G1 X-2.1796 Y-5.4466
G2 X-2.1801 Y-5.4464 I0.0278 J0.0709
X-2.2449 Y-5.3677 I0.0394 J0.0986
X-2.2518 Y-5.1962 I0.5696 J0.1086
G3 X-2.2978 Y-5.1759 I-0.0262 J0.0029
G2 X-2.4287 Y-5.2871 I-0.4367 J0.3815
X-2.5305 Y-5.2927 I-0.056 J0.0902
G1 X-2.5353 Y-5.2904
G2 X-2.5948 Y-5.2075 I0.0458 J0.0958
X-2.5903 Y-5.036 I0.5756 J0.0707
G3 X-2.6349 Y-5.0128 I-0.026 J0.0046
G2 X-2.7728 Y-5.115 I-0.4105 J0.4096
X-2.8747 Y-5.1139 I-0.0499 J0.0937
G1 X-2.8748 Y-5.1138
X-2.8794 Y-5.1112
G2 X-2.9333 Y-5.0247 I0.0521 J0.0925
X-2.9175 Y-4.8538 I0.579 J0.0326
G3 X-2.9604 Y-4.8277 I-0.0256 J0.0063
G2 X-3.1048 Y-4.9206 I-0.3825 J0.4358
X-3.2063 Y-4.9127 I-0.0436 J0.0967
G1 X-3.2107 Y-4.9099
X-3.2109 Y-4.9098
G2 X-3.259 Y-4.8198 I0.0581 J0.0889
X-3.2319 Y-4.6503 I0.5799 J-0.0058
G3 X-3.273 Y-4.6214 I-0.0251 J0.008
G2 X-3.4232 Y-4.7046 I-0.3529 J0.4601
X-3.5239 Y-4.6901 I-0.0371 J0.0995
G1 X-3.5281 Y-4.6871
X-3.5283 Y-4.6868
G2 X-3.5704 Y-4.5939 I0.0638 J0.0848
X-3.5321 Y-4.4266 I0.5782 J-0.0441
G3 X-3.5713 Y-4.395 I-0.0245 J0.0096
G2 X-3.7266 Y-4.4681 I-0.3217 J0.4825
X-3.8262 Y-4.4469 I-0.0304 J0.1017
G1 X-3.8302 Y-4.4436
X-3.8304 Y-4.4434
G2 X-3.8662 Y-4.3479 I0.0693 J0.0804
X-3.817 Y-4.1834 I0.574 J-0.0822
G3 X-3.854 Y-4.1494 I-0.0239 J0.0112
G2 X-4.0138 Y-4.212 I-0.2891 J0.5027
X-4.1118 Y-4.1843 I-0.0237 J0.1035
G1 X-4.1121 Y-4.1841
X-4.1158 Y-4.1804
G2 X-4.1451 Y-4.0828 I0.0745 J0.0756
X-4.0851 Y-3.922 I0.5673 J-0.12
G3 X-4.1198 Y-3.8856 I-0.0231 J0.0128
G2 X-4.2834 Y-3.9375 I-0.2553 J0.5207
X-4.3795 Y-3.9033 I-0.0168 J0.1048
G1 X-4.3796 Y-3.9032
X-4.3831 Y-3.8993
G2 X-4.4059 Y-3.8 I0.0794 J0.0705
X-4.3354 Y-3.6435 I0.5582 J-0.1572
G3 X-4.3676 Y-3.6048 I-0.0222 J0.0143
G2 X-4.5342 Y-3.6459 I-0.2204 J0.5364
X-4.6278 Y-3.6055 I-0.0098 J0.1057
G1 X-4.631 Y-3.6013
X-4.6312 Y-3.6011
G2 X-4.6474 Y-3.5005 I0.0839 J0.0651
X-4.5667 Y-3.349 I0.5465 J-0.1937
G3 X-4.5963 Y-3.3083 I-0.0212 J0.0157
G2 X-4.7653 Y-3.3382 I-0.1844 J0.5498
X-4.8559 Y-3.2918 I-0.0028 J0.1061
G1 X-4.8588 Y-3.2875
X-4.859 Y-3.2872
G2 X-4.8685 Y-3.1857 I0.0879 J0.0594
X-4.7781 Y-3.0398 I0.5326 J-0.2295
G3 X-4.8049 Y-2.9973 I-0.0201 J0.0171
G2 X-4.9755 Y-3.016 I-0.1477 J0.5608
X-5.0629 Y-2.9635 I0.0042 J0.1061
G1 X-5.0656 Y-2.959
Y-2.9589
G2 X-5.0685 Y-2.857 I0.0917 J0.0535
X-4.9685 Y-2.7174 I0.5162 J-0.2641
G3 X-4.9924 Y-2.6732 I-0.0189 J0.0184
G2 X-5.1639 Y-2.6805 I-0.1103 J0.5693
X-5.2477 Y-2.6224 I0.0112 J0.1056
G1 X-5.2501 Y-2.6177
G2 X-5.2462 Y-2.5158 I0.095 J0.0474
X-5.1373 Y-2.3831 I0.4977 J-0.2977
G3 X-5.1582 Y-2.3374 I-0.0177 J0.0196
G2 X-5.3298 Y-2.3334 I-0.0724 J0.5754
G1 X-5.3299
G2 X-5.4096 Y-2.2698 I0.0182 J0.1046
G1 X-5.4116 Y-2.265
G2 X-5.401 Y-2.1636 I0.0979 J0.041
X-5.2835 Y-2.0384 I0.4769 J-0.3299
G3 X-5.3014 Y-1.9914 I-0.0163 J0.0207
G2 X-5.4724 Y-1.976 I-0.0343 J0.5789
X-5.5478 Y-1.9074 I0.025 J0.1032
G1 X-5.5479 Y-1.907
X-5.5495 Y-1.9021
G2 X-5.5322 Y-1.8018 I0.1004 J0.0343
X-5.4067 Y-1.6847 I0.4541 J-0.3607
G3 X-5.4214 Y-1.6367 I-0.0149 J0.0217
G2 X-5.591 Y-1.61 I0.0041 J0.5799
G1 X-5.5911
G2 X-5.6617 Y-1.5365 I0.0319 J0.1013
G1 Y-1.5364
X-5.6631 Y-1.5314
G2 X-5.6392 Y-1.4323 I0.1025 J0.0277
X-5.5062 Y-1.3237 I0.4292 J-0.39
G3 X-5.5177 Y-1.2748 I-0.0135 J0.0226
G2 X-5.6852 Y-1.237 I0.0424 J0.5783
X-5.7508 Y-1.1592 I0.0384 J0.099
G1 X-5.7518 Y-1.1541
X-5.7519 Y-1.1538
G2 X-5.7215 Y-1.0565 I0.1041 J0.0209
X-5.5817 Y-0.9569 I0.4025 J-0.4174
G3 X-5.5899 Y-0.9073 I-0.0119 J0.0235
G2 X-5.7545 Y-0.8586 I0.0806 J0.5743
X-5.8149 Y-0.7764 I0.0448 J0.0962
Y-0.776 I0.0755 J0.0101
G1 X-5.8156 Y-0.7709
G2 X-5.7789 Y-0.6761 I0.1053 J0.0138
G1 X-5.7788 Y-0.676
G2 X-5.6327 Y-0.5859 I0.374 J-0.4432
G3 X-5.6377 Y-0.5359 I-0.0104 J0.0242
G2 X-5.7987 Y-0.4764 I0.1183 J0.5677
X-5.8535 Y-0.3904 I0.0511 J0.093
G1 X-5.8538 Y-0.3851
G2 X-5.8109 Y-0.2926 I0.1059 J0.0071
X-5.6591 Y-0.2124 I0.3439 J-0.4669
G3 X-5.6608 Y-0.1621 I-0.0087 J0.0249
G2 X-5.8175 Y-0.0921 I0.1556 J0.5587
G1 X-5.8176 Y-0.092
G2 X-5.8665 Y-0.0026 I0.0573 J0.0894
G1 Y0.0026
G2 X-5.8176 Y0.092 I0.1062 J0.
G1 X-5.8175 Y0.0921
G2 X-5.6608 Y0.1621 I0.3123 J-0.4886
G3 X-5.6591 Y0.2124 I-0.0071 J0.0254
G2 X-5.8109 Y0.2926 I0.1921 J0.5471
X-5.8538 Y0.3851 I0.063 J0.0854
G1 X-5.8535 Y0.3904
G2 X-5.7987 Y0.4764 I0.1059 J-0.007
X-5.6377 Y0.5359 I0.2794 J-0.5082
G3 X-5.6327 Y0.5859 I-0.0054 J0.0258
G2 X-5.7788 Y0.676 I0.2278 J0.5333
G1 X-5.7789 Y0.6761
G2 X-5.8156 Y0.7709 I0.0686 J0.081
G1 X-5.8149 Y0.776
G2 Y0.7764 I0.0755 J-0.0096
X-5.7545 Y0.8586 I0.1052 J-0.0141
X-5.5899 Y0.9073 I0.2451 J-0.5255
G3 X-5.5817 Y0.9569 I-0.0037 J0.0261
G2 X-5.7215 Y1.0564 I0.2626 J0.517
X-5.7519 Y1.1538 I0.0737 J0.0764
G1 X-5.7518 Y1.1541
X-5.7508 Y1.1592
G2 X-5.6852 Y1.237 I0.104 J-0.0211
X-5.5177 Y1.2748 I0.2099 J-0.5406
G3 X-5.5062 Y1.3237 I-0.0019 J0.0263
G2 X-5.6392 Y1.4323 I0.2962 J0.4986
X-5.6631 Y1.5314 I0.0786 J0.0713
G1 X-5.6617 Y1.5364
Y1.5365
G2 X-5.5911 Y1.61 I0.1025 J-0.0278
G1 X-5.591
G2 X-5.4214 Y1.6367 I0.1737 J-0.5533
G3 X-5.4067 Y1.6847 I-0.0002 J0.0263
G2 X-5.4265 Y1.6989 I0.3286 J0.4778
G0 Z0.6
M9
G53 Z0.
M30
%
