%
(971-23-P-0058_DISTAL SPROCKET_1523)
(T1  D=0.1523 CR=0. - ZMIN=-0.2175 - FLAT END MILL)
G90 G94 G17 G91.1
G64 P0.001 Q0.001
G20
G53 G0 Z0.
(.3 CIRCLUAR THROUGH HOLE 2)
M9
T1 M6
S22000 M3
G4 P10.
G54
M7
G0 X3.8004 Y-0.3181
G43 Z0.6 H1
G0 Z0.13
G1 Z0.0652 F40.
G19 G2 Y-0.3333 Z0.05 J-0.0152 K0.
G1 Y-0.3409
G17 G3 X3.8092 Y-0.3497 I0.0088 J0.
Y-0.3145 Z0.0335 I0. J0.0176
Y-0.3497 Z0.0169 I0. J-0.0176
Y-0.3145 Z0.0004 I0. J0.0176
Y-0.3497 Z-0.0161 I0. J-0.0176
Y-0.3145 Z-0.0327 I0. J0.0176
Y-0.3497 Z-0.0492 I0. J-0.0176
Y-0.3145 Z-0.0657 I0. J0.0176
Y-0.3497 Z-0.0822 I0. J-0.0176
Y-0.3145 Z-0.0988 I0. J0.0176
Y-0.3497 Z-0.1153 I0. J-0.0176
Y-0.3145 Z-0.1318 I0. J0.0176
Y-0.3497 Z-0.1484 I0. J-0.0176
Y-0.3145 Z-0.1649 I0. J0.0176
Y-0.3497 Z-0.1814 I0. J-0.0176
Y-0.3145 Z-0.198 I0. J0.0176
Y-0.3497 Z-0.2145 I0. J-0.0176
X3.8187 Y-0.3469 Z-0.2175 I0. J0.0176
X3.7997 Y-0.3173 I-0.0095 J0.0148
X3.8187 Y-0.3469 I0.0095 J-0.0148
X3.8213 Y-0.3347 I-0.0048 J0.0074
G1 X3.8172 Y-0.3283
X3.8156 Y-0.3258 Z-0.2172
X3.8141 Y-0.3234 Z-0.2163
X3.8126 Y-0.3212 Z-0.2149
X3.8114 Y-0.3193 Z-0.213
X3.8104 Y-0.3177 Z-0.2107
X3.8096 Y-0.3165 Z-0.2081
X3.8091 Y-0.3158 Z-0.2052
X3.809 Y-0.3155 Z-0.2023
G0 Z0.4
X3.6743 Y0.8521
Z0.0092
G1 Z-0.0556 F40.
G19 G2 Y0.8368 Z-0.0708 J-0.0152 K0.
G1 Y0.8292
G17 G3 X3.6864 Y0.8171 I0.0122 J0.
Y0.8658 Z-0.0885 I0. J0.0243
Y0.8171 Z-0.1062 I0. J-0.0243
Y0.8658 Z-0.124 I0. J0.0243
Y0.8171 Z-0.1417 I0. J-0.0243
Y0.8658 Z-0.1594 I0. J0.0243
Y0.8171 Z-0.1771 I0. J-0.0243
Y0.8658 Z-0.1948 I0. J0.0243
Y0.8171 Z-0.2126 I0. J-0.0243
X3.7052 Y0.8258 Z-0.2175 I0. J0.0243
X3.6677 Y0.857 I-0.0187 J0.0156
X3.7052 Y0.8258 I0.0187 J-0.0156
X3.7036 Y0.843 I-0.0094 J0.0078
G1 X3.6977 Y0.8478
X3.6955 Y0.8497 Z-0.2172
X3.6933 Y0.8516 Z-0.2163
X3.6912 Y0.8533 Z-0.2149
X3.6895 Y0.8547 Z-0.213
X3.688 Y0.8559 Z-0.2107
X3.6869 Y0.8568 Z-0.2081
X3.6863 Y0.8574 Z-0.2052
X3.686 Y0.8576 Z-0.2023
G0 Z0.4
X2.9475 Y2.3716
Z0.13
G1 Z0.0652 F40.
G19 G2 Y2.3564 Z0.05 J-0.0152 K0.
G1 Y2.3488
G17 G3 X2.9563 Y2.34 I0.0088 J0.
Y2.3752 Z0.0335 I0. J0.0176
Y2.34 Z0.0169 I0. J-0.0176
Y2.3752 Z0.0004 I0. J0.0176
Y2.34 Z-0.0161 I0. J-0.0176
Y2.3752 Z-0.0327 I0. J0.0176
Y2.34 Z-0.0492 I0. J-0.0176
Y2.3752 Z-0.0657 I0. J0.0176
Y2.34 Z-0.0822 I0. J-0.0176
Y2.3752 Z-0.0988 I0. J0.0176
Y2.34 Z-0.1153 I0. J-0.0176
Y2.3752 Z-0.1318 I0. J0.0176
Y2.34 Z-0.1484 I0. J-0.0176
Y2.3752 Z-0.1649 I0. J0.0176
Y2.34 Z-0.1814 I0. J-0.0176
Y2.3752 Z-0.198 I0. J0.0176
Y2.34 Z-0.2145 I0. J-0.0176
X2.9658 Y2.3428 Z-0.2175 I0. J0.0176
X2.9468 Y2.3724 I-0.0095 J0.0148
X2.9658 Y2.3428 I0.0095 J-0.0148
X2.9685 Y2.3549 I-0.0048 J0.0074
G1 X2.9643 Y2.3613
X2.9627 Y2.3638 Z-0.2172
X2.9612 Y2.3662 Z-0.2163
X2.9598 Y2.3685 Z-0.2149
X2.9585 Y2.3704 Z-0.213
X2.9575 Y2.372 Z-0.2107
X2.9567 Y2.3732 Z-0.2081
X2.9563 Y2.3739 Z-0.2052
X2.9561 Y2.3741 Z-0.2023
G0 Z0.4
X1.6284 Y3.4175
Z0.0092
G1 Z-0.0556 F40.
G19 G2 Y3.4022 Z-0.0708 J-0.0152 K0.
G1 Y3.3946
G17 G3 X1.6406 Y3.3824 I0.0122 J0.
Y3.4311 Z-0.0885 I0. J0.0243
Y3.3824 Z-0.1062 I0. J-0.0243
Y3.4311 Z-0.124 I0. J0.0243
Y3.3824 Z-0.1417 I0. J-0.0243
Y3.4311 Z-0.1594 I0. J0.0243
Y3.3824 Z-0.1771 I0. J-0.0243
Y3.4311 Z-0.1948 I0. J0.0243
Y3.3824 Z-0.2126 I0. J-0.0243
X1.6593 Y3.3912 Z-0.2175 I0. J0.0243
X1.6219 Y3.4224 I-0.0187 J0.0156
X1.6593 Y3.3912 I0.0187 J-0.0156
X1.6578 Y3.4084 I-0.0094 J0.0078
G1 X1.6519 Y3.4132
X1.6496 Y3.4151 Z-0.2172
X1.6474 Y3.417 Z-0.2163
X1.6454 Y3.4186 Z-0.2149
X1.6436 Y3.4201 Z-0.213
X1.6422 Y3.4213 Z-0.2107
X1.6411 Y3.4222 Z-0.2081
X1.6404 Y3.4228 Z-0.2052
X1.6402 Y3.423 Z-0.2023
G0 Z0.4
X-0.0122 Y3.8477
Z0.13
G1 Z0.0652 F40.
G19 G2 Y3.8324 Z0.05 J-0.0152 K0.
G1 Y3.8248
G17 G3 X0. Y3.8126 I0.0122 J0.
Y3.8614 Z0.0323 I0. J0.0244
Y3.8126 Z0.0146 I0. J-0.0244
Y3.8614 Z-0.0032 I0. J0.0244
Y3.8126 Z-0.0209 I0. J-0.0244
Y3.8614 Z-0.0386 I0. J0.0244
Y3.8126 Z-0.0563 I0. J-0.0244
Y3.8614 Z-0.074 I0. J0.0244
Y3.8126 Z-0.0918 I0. J-0.0244
Y3.8614 Z-0.1095 I0. J0.0244
Y3.8126 Z-0.1272 I0. J-0.0244
Y3.8614 Z-0.1449 I0. J0.0244
Y3.8126 Z-0.1627 I0. J-0.0244
Y3.8614 Z-0.1804 I0. J0.0244
Y3.8126 Z-0.1981 I0. J-0.0244
X0.0241 Y3.8406 Z-0.2078 I0. J0.0244
X-0.0072 Y3.8603 Z-0.2175 I-0.0241 J-0.0036
X0.0072 Y3.8137 I0.0072 J-0.0233
X-0.0072 Y3.8603 I-0.0072 J0.0233
X-0.0152 Y3.845 I0.0036 J-0.0116
G1 X-0.013 Y3.8378
X-0.0121 Y3.8349 Z-0.2172
X-0.0113 Y3.8322 Z-0.2163
X-0.0105 Y3.8297 Z-0.2149
X-0.0098 Y3.8275 Z-0.213
X-0.0092 Y3.8257 Z-0.2107
X-0.0088 Y3.8243 Z-0.2081
X-0.0086 Y3.8235 Z-0.2052
X-0.0085 Y3.8232 Z-0.2023
G0 Z0.4
X-1.6528 Y3.4175
Z0.0092
G1 Z-0.0556 F40.
G19 G2 Y3.4022 Z-0.0708 J-0.0152 K0.
G1 Y3.3946
G17 G3 X-1.6406 Y3.3824 I0.0122 J0.
Y3.4311 Z-0.0885 I0. J0.0243
Y3.3824 Z-0.1062 I0. J-0.0243
Y3.4311 Z-0.124 I0. J0.0243
Y3.3824 Z-0.1417 I0. J-0.0243
Y3.4311 Z-0.1594 I0. J0.0243
Y3.3824 Z-0.1771 I0. J-0.0243
Y3.4311 Z-0.1948 I0. J0.0243
Y3.3824 Z-0.2126 I0. J-0.0243
X-1.6219 Y3.3912 Z-0.2175 I0. J0.0243
X-1.6593 Y3.4224 I-0.0187 J0.0156
X-1.6219 Y3.3912 I0.0187 J-0.0156
X-1.6235 Y3.4084 I-0.0094 J0.0078
G1 X-1.6293 Y3.4132
X-1.6316 Y3.4151 Z-0.2172
X-1.6338 Y3.417 Z-0.2163
X-1.6358 Y3.4186 Z-0.2149
X-1.6376 Y3.4201 Z-0.213
X-1.6391 Y3.4213 Z-0.2107
X-1.6401 Y3.4222 Z-0.2081
X-1.6408 Y3.4228 Z-0.2052
X-1.641 Y3.423 Z-0.2023
G0 Z0.4
X-2.9651 Y2.3716
Z0.13
G1 Z0.0652 F40.
G19 G2 Y2.3564 Z0.05 J-0.0152 K0.
G1 Y2.3488
G17 G3 X-2.9563 Y2.34 I0.0088 J0.
Y2.3752 Z0.0335 I0. J0.0176
Y2.34 Z0.0169 I0. J-0.0176
Y2.3752 Z0.0004 I0. J0.0176
Y2.34 Z-0.0161 I0. J-0.0176
Y2.3752 Z-0.0327 I0. J0.0176
Y2.34 Z-0.0492 I0. J-0.0176
Y2.3752 Z-0.0657 I0. J0.0176
Y2.34 Z-0.0822 I0. J-0.0176
Y2.3752 Z-0.0988 I0. J0.0176
Y2.34 Z-0.1153 I0. J-0.0176
Y2.3752 Z-0.1318 I0. J0.0176
Y2.34 Z-0.1484 I0. J-0.0176
Y2.3752 Z-0.1649 I0. J0.0176
Y2.34 Z-0.1814 I0. J-0.0176
Y2.3752 Z-0.198 I0. J0.0176
Y2.34 Z-0.2145 I0. J-0.0176
X-2.9468 Y2.3428 Z-0.2175 I0. J0.0176
X-2.9658 Y2.3724 I-0.0095 J0.0148
X-2.9468 Y2.3428 I0.0095 J-0.0148
X-2.9441 Y2.3549 I-0.0048 J0.0074
G1 X-2.9483 Y2.3613
X-2.9499 Y2.3638 Z-0.2172
X-2.9514 Y2.3662 Z-0.2163
X-2.9528 Y2.3685 Z-0.2149
X-2.9541 Y2.3704 Z-0.213
X-2.9551 Y2.372 Z-0.2107
X-2.9559 Y2.3732 Z-0.2081
X-2.9563 Y2.3739 Z-0.2052
X-2.9565 Y2.3741 Z-0.2023
G0 Z0.4
X-3.6986 Y0.8521
Z0.0092
G1 Z-0.0556 F40.
G19 G2 Y0.8368 Z-0.0708 J-0.0152 K0.
G1 Y0.8292
G17 G3 X-3.6864 Y0.8171 I0.0122 J0.
Y0.8658 Z-0.0885 I0. J0.0243
Y0.8171 Z-0.1062 I0. J-0.0243
Y0.8658 Z-0.124 I0. J0.0243
Y0.8171 Z-0.1417 I0. J-0.0243
Y0.8658 Z-0.1594 I0. J0.0243
Y0.8171 Z-0.1771 I0. J-0.0243
Y0.8658 Z-0.1948 I0. J0.0243
Y0.8171 Z-0.2126 I0. J-0.0243
X-3.6677 Y0.8258 Z-0.2175 I0. J0.0243
X-3.7052 Y0.857 I-0.0187 J0.0156
X-3.6677 Y0.8258 I0.0187 J-0.0156
X-3.6693 Y0.843 I-0.0094 J0.0078
G1 X-3.6752 Y0.8478
X-3.6774 Y0.8497 Z-0.2172
X-3.6796 Y0.8516 Z-0.2163
X-3.6817 Y0.8533 Z-0.2149
X-3.6834 Y0.8547 Z-0.213
X-3.6849 Y0.8559 Z-0.2107
X-3.686 Y0.8568 Z-0.2081
X-3.6866 Y0.8574 Z-0.2052
X-3.6869 Y0.8576 Z-0.2023
G0 Z0.4
X-3.818 Y-0.3181
Z0.13
G1 Z0.0652 F40.
G19 G2 Y-0.3333 Z0.05 J-0.0152 K0.
G1 Y-0.3409
G17 G3 X-3.8092 Y-0.3497 I0.0088 J0.
Y-0.3145 Z0.0335 I0. J0.0176
Y-0.3497 Z0.0169 I0. J-0.0176
Y-0.3145 Z0.0004 I0. J0.0176
Y-0.3497 Z-0.0161 I0. J-0.0176
Y-0.3145 Z-0.0327 I0. J0.0176
Y-0.3497 Z-0.0492 I0. J-0.0176
Y-0.3145 Z-0.0657 I0. J0.0176
Y-0.3497 Z-0.0822 I0. J-0.0176
Y-0.3145 Z-0.0988 I0. J0.0176
Y-0.3497 Z-0.1153 I0. J-0.0176
Y-0.3145 Z-0.1318 I0. J0.0176
Y-0.3497 Z-0.1484 I0. J-0.0176
Y-0.3145 Z-0.1649 I0. J0.0176
Y-0.3497 Z-0.1814 I0. J-0.0176
Y-0.3145 Z-0.198 I0. J0.0176
Y-0.3497 Z-0.2145 I0. J-0.0176
X-3.7997 Y-0.3469 Z-0.2175 I0. J0.0176
X-3.8187 Y-0.3173 I-0.0095 J0.0148
X-3.7997 Y-0.3469 I0.0095 J-0.0148
X-3.797 Y-0.3347 I-0.0048 J0.0074
G1 X-3.8011 Y-0.3283
X-3.8028 Y-0.3258 Z-0.2172
X-3.8043 Y-0.3234 Z-0.2163
X-3.8057 Y-0.3212 Z-0.2149
X-3.807 Y-0.3193 Z-0.213
X-3.808 Y-0.3177 Z-0.2107
X-3.8088 Y-0.3165 Z-0.2081
X-3.8092 Y-0.3158 Z-0.2052
X-3.8094 Y-0.3155 Z-0.2023
G0 Z0.4
X-2.9685 Y-2.3469
Z0.0092
G1 Z-0.0556 F40.
G19 G2 Y-2.3621 Z-0.0708 J-0.0152 K0.
G1 Y-2.3697
G17 G3 X-2.9563 Y-2.3819 I0.0122 J0.
Y-2.3332 Z-0.0885 I0. J0.0244
Y-2.3819 Z-0.1062 I0. J-0.0244
Y-2.3332 Z-0.124 I0. J0.0244
Y-2.3819 Z-0.1417 I0. J-0.0244
Y-2.3332 Z-0.1594 I0. J0.0244
Y-2.3819 Z-0.1771 I0. J-0.0244
Y-2.3332 Z-0.1948 I0. J0.0244
Y-2.3819 Z-0.2126 I0. J-0.0243
X-2.9376 Y-2.3731 Z-0.2175 I0. J0.0243
X-2.975 Y-2.342 I-0.0187 J0.0156
X-2.9376 Y-2.3731 I0.0187 J-0.0156
X-2.9392 Y-2.356 I-0.0094 J0.0078
G1 X-2.945 Y-2.3511
X-2.9473 Y-2.3492 Z-0.2172
X-2.9495 Y-2.3474 Z-0.2163
X-2.9515 Y-2.3457 Z-0.2149
X-2.9533 Y-2.3442 Z-0.213
X-2.9547 Y-2.343 Z-0.2107
X-2.9558 Y-2.3421 Z-0.2081
X-2.9565 Y-2.3416 Z-0.2052
X-2.9567 Y-2.3414 Z-0.2023
G0 Z0.4
X-1.6494 Y-3.3927
Z0.13
G1 Z0.0652 F40.
G19 G2 Y-3.408 Z0.05 J-0.0152 K0.
G1 Y-3.4156
G17 G3 X-1.6406 Y-3.4244 I0.0088 J0.
Y-3.3892 Z0.0335 I0. J0.0176
Y-3.4244 Z0.0169 I0. J-0.0176
Y-3.3892 Z0.0004 I0. J0.0176
Y-3.4244 Z-0.0161 I0. J-0.0176
Y-3.3892 Z-0.0327 I0. J0.0176
Y-3.4244 Z-0.0492 I0. J-0.0176
Y-3.3892 Z-0.0657 I0. J0.0176
Y-3.4244 Z-0.0822 I0. J-0.0176
Y-3.3892 Z-0.0988 I0. J0.0176
Y-3.4244 Z-0.1153 I0. J-0.0176
Y-3.3892 Z-0.1318 I0. J0.0176
Y-3.4244 Z-0.1484 I0. J-0.0176
Y-3.3892 Z-0.1649 I0. J0.0176
Y-3.4244 Z-0.1814 I0. J-0.0176
Y-3.3892 Z-0.198 I0. J0.0176
Y-3.4244 Z-0.2145 I0. J-0.0176
X-1.6311 Y-3.4216 Z-0.2175 I0. J0.0176
X-1.6501 Y-3.392 I-0.0095 J0.0148
X-1.6311 Y-3.4216 I0.0095 J-0.0148
X-1.6285 Y-3.4094 I-0.0048 J0.0074
G1 X-1.6326 Y-3.403
X-1.6342 Y-3.4005 Z-0.2172
X-1.6357 Y-3.3981 Z-0.2163
X-1.6372 Y-3.3959 Z-0.2149
X-1.6384 Y-3.394 Z-0.213
X-1.6394 Y-3.3924 Z-0.2107
X-1.6402 Y-3.3912 Z-0.2081
X-1.6407 Y-3.3905 Z-0.2052
X-1.6408 Y-3.3902 Z-0.2023
G0 Z0.4
X-0.0122 Y-3.7706
Z0.0092
G1 Z-0.0556 F40.
G19 G2 Y-3.7858 Z-0.0708 J-0.0152 K0.
G1 Y-3.7934
G17 G3 X0. Y-3.8056 I0.0122 J0.
Y-3.7569 Z-0.0885 I0. J0.0244
Y-3.8056 Z-0.1062 I0. J-0.0244
Y-3.7569 Z-0.124 I0. J0.0244
Y-3.8056 Z-0.1417 I0. J-0.0244
Y-3.7569 Z-0.1594 I0. J0.0244
Y-3.8056 Z-0.1771 I0. J-0.0244
Y-3.7569 Z-0.1948 I0. J0.0244
Y-3.8056 Z-0.2126 I0. J-0.0244
X0.0187 Y-3.7968 Z-0.2175 I0. J0.0244
X-0.0187 Y-3.7657 I-0.0187 J0.0156
X0.0187 Y-3.7968 I0.0187 J-0.0156
X0.0171 Y-3.7797 I-0.0094 J0.0078
G1 X0.0113 Y-3.7748
X0.009 Y-3.7729 Z-0.2172
X0.0068 Y-3.7711 Z-0.2163
X0.0048 Y-3.7694 Z-0.2149
X0.003 Y-3.7679 Z-0.213
X0.0016 Y-3.7667 Z-0.2107
X0.0005 Y-3.7658 Z-0.2081
X-0.0002 Y-3.7653 Z-0.2052
X-0.0004 Y-3.7651 Z-0.2023
G0 Z0.4
X1.6318 Y-3.3927
Z0.13
G1 Z0.0652 F40.
G19 G2 Y-3.408 Z0.05 J-0.0152 K0.
G1 Y-3.4156
G17 G3 X1.6406 Y-3.4244 I0.0088 J0.
Y-3.3892 Z0.0335 I0. J0.0176
Y-3.4244 Z0.0169 I0. J-0.0176
Y-3.3892 Z0.0004 I0. J0.0176
Y-3.4244 Z-0.0161 I0. J-0.0176
Y-3.3892 Z-0.0327 I0. J0.0176
Y-3.4244 Z-0.0492 I0. J-0.0176
Y-3.3892 Z-0.0657 I0. J0.0176
Y-3.4244 Z-0.0822 I0. J-0.0176
Y-3.3892 Z-0.0988 I0. J0.0176
Y-3.4244 Z-0.1153 I0. J-0.0176
Y-3.3892 Z-0.1318 I0. J0.0176
Y-3.4244 Z-0.1484 I0. J-0.0176
Y-3.3892 Z-0.1649 I0. J0.0176
Y-3.4244 Z-0.1814 I0. J-0.0176
Y-3.3892 Z-0.198 I0. J0.0176
Y-3.4244 Z-0.2145 I0. J-0.0176
X1.6501 Y-3.4216 Z-0.2175 I0. J0.0176
X1.6311 Y-3.392 I-0.0095 J0.0148
X1.6501 Y-3.4216 I0.0095 J-0.0148
X1.6528 Y-3.4094 I-0.0048 J0.0074
G1 X1.6487 Y-3.403
X1.6471 Y-3.4005 Z-0.2172
X1.6455 Y-3.3981 Z-0.2163
X1.6441 Y-3.3959 Z-0.2149
X1.6428 Y-3.394 Z-0.213
X1.6418 Y-3.3924 Z-0.2107
X1.641 Y-3.3912 Z-0.2081
X1.6406 Y-3.3905 Z-0.2052
X1.6404 Y-3.3902 Z-0.2023
G0 Z0.4
X2.9441 Y-2.3469
Z0.0092
G1 Z-0.0556 F40.
G19 G2 Y-2.3621 Z-0.0708 J-0.0152 K0.
G1 Y-2.3697
G17 G3 X2.9563 Y-2.3819 I0.0122 J0.
Y-2.3332 Z-0.0885 I0. J0.0244
Y-2.3819 Z-0.1062 I0. J-0.0244
Y-2.3332 Z-0.124 I0. J0.0244
Y-2.3819 Z-0.1417 I0. J-0.0244
Y-2.3332 Z-0.1594 I0. J0.0244
Y-2.3819 Z-0.1771 I0. J-0.0244
Y-2.3332 Z-0.1948 I0. J0.0244
Y-2.3819 Z-0.2126 I0. J-0.0243
X2.975 Y-2.3731 Z-0.2175 I0. J0.0243
X2.9376 Y-2.342 I-0.0187 J0.0156
X2.975 Y-2.3731 I0.0187 J-0.0156
X2.9734 Y-2.356 I-0.0094 J0.0078
G1 X2.9676 Y-2.3511
X2.9653 Y-2.3492 Z-0.2172
X2.9631 Y-2.3474 Z-0.2163
X2.9611 Y-2.3457 Z-0.2149
X2.9593 Y-2.3442 Z-0.213
X2.9579 Y-2.343 Z-0.2107
X2.9568 Y-2.3421 Z-0.2081
X2.9561 Y-2.3416 Z-0.2052
X2.9559 Y-2.3414 Z-0.2023
G0 Z0.6
(SHAPE POCKET)
M7
G0 X-1.744 Y-4.1952
Z0.6
Z0.1
G3 X-1.6683 Y-4.0719 Z0.0599 I0.0378 J0.0617 F50.
X-1.744 Y-4.1952 Z0.0199 I-0.0378 J-0.0617
X-1.6683 Y-4.0719 Z-0.0202 I0.0378 J0.0617
X-1.744 Y-4.1952 Z-0.0603 I-0.0378 J-0.0617
X-1.6683 Y-4.0719 Z-0.1004 I0.0378 J0.0617
X-1.744 Y-4.1952 Z-0.1404 I-0.0378 J-0.0617
X-1.6338 Y-4.1336 Z-0.1675 I0.0378 J0.0617
X-1.7785 I-0.0723 J0.
X-1.634 Y-4.1393 I0.0723 J0.
G1 X-1.6338 Y-4.1336
G3 X-1.6509 Y-4.0076 I-0.0552 J0.0567 F60.
G1 X-1.6595 Y-4.0101
X-1.6943 Y-3.9972
G3 X-1.8599 Y-4.1074 I-0.0369 J-0.1241
G1 X-1.8578 Y-4.1094
X-1.8553 Y-4.1111
X-1.8527 Y-4.1122
X-1.8498 Y-4.1129
X-1.847 Y-4.113
X-1.8442 Y-4.1126
X-1.8415 Y-4.1118
X-1.8391 Y-4.1104
X-1.8303 Y-4.1053
X-1.6924 Y-4.0244
X-1.69 Y-4.0227
G3 X-1.6943 Y-3.9972 I-0.01 J0.0114 F50.
G1 X-1.7044 Y-3.9934 F60.
X-1.7062 Y-3.9918
X-1.7497 Y-3.9577
G3 X-1.8801 Y-4.0016 I-0.0439 J-0.0851
X-1.8319 Y-4.1305 I0.0865 J-0.0411
G1 X-1.8326 Y-4.1803
G3 X-1.6808 Y-4.2876 I0.125 J0.0158
G1 X-1.6789 Y-4.2852
X-1.6774 Y-4.2826
X-1.6766 Y-4.2797
X-1.6763 Y-4.2767
X-1.6765 Y-4.2738
X-1.6774 Y-4.2709
X-1.6787 Y-4.2683
X-1.6805 Y-4.266
X-1.6828 Y-4.2641
X-1.6866 Y-4.2613
X-1.8077 Y-4.1731
X-1.809 Y-4.1721 F50.
G3 X-1.8326 Y-4.1803 I-0.009 J-0.0123
G1 X-1.8358 Y-4.1873 F60.
X-1.8385 Y-4.1945
X-1.8406 Y-4.2019
X-1.842 Y-4.2095
X-1.8429 Y-4.2171
X-1.8431 Y-4.2248
X-1.8428 Y-4.2325
X-1.8418 Y-4.2402
X-1.8402 Y-4.2477
X-1.8381 Y-4.2551
X-1.8353 Y-4.2623
X-1.832 Y-4.2693
X-1.8281 Y-4.2759
X-1.8238 Y-4.2823
X-1.8189 Y-4.2882
X-1.8136 Y-4.2938
X-1.8078 Y-4.2989
X-1.8017 Y-4.3036
X-1.7952 Y-4.3077
X-1.7884 Y-4.3113
X-1.7813 Y-4.3144
X-1.774 Y-4.3169
X-1.7665 Y-4.3188
X-1.7589 Y-4.3201
X-1.7513 Y-4.3208
X-1.7436
X-1.7359 Y-4.3203
X-1.7283 Y-4.3192
X-1.7208 Y-4.3174
X-1.7134 Y-4.3151
X-1.7063 Y-4.3122
X-1.6994 Y-4.3087
X-1.6928 Y-4.3047
X-1.6866 Y-4.3001
X-1.6808 Y-4.2951
X-1.6753 Y-4.2897
X-1.6703 Y-4.2838
X-1.6658 Y-4.2776
X-1.6618 Y-4.271
X-1.6584 Y-4.2641
X-1.6555 Y-4.257
X-1.6532 Y-4.2496
X-1.6514 Y-4.2421
X-1.6503 Y-4.2345
X-1.6498 Y-4.2268
X-1.6128 Y-4.1981
X-1.6089 Y-4.1967
G3 X-1.558 Y-3.9776 I-0.0578 J0.1289
G2 X-1.6509 Y-4.0076 I-0.3517 J0.9299
G3 X-1.661 Y-4.019 I0.0048 J-0.0144
X-1.6192 Y-4.0539 I0.0303 J-0.0062
X-1.5741 Y-4.0067 I-0.0293 J0.0731
X-1.5706 Y-3.9922 I-0.0744 J0.0259 F50.
G2 X-1.5611 Y-3.9802 I0.0151 J-0.0022
G1 X-1.5444 Y-3.9742 F60.
G2 X-1.4545 Y-4.144 I-0.0084 J-0.1132
X-1.6089 Y-4.1967 I-1.4561 J4.0131
X-1.6237 Y-4.1935 I-0.0047 J0.0145
X-1.623 Y-4.141 I0.0234 J0.0259
X-1.4814 Y-4.1322 I0.0767 J-0.0898
X-1.4694 Y-4.1412 I-0.0649 J-0.0987 F50.
G3 X-1.4545 Y-4.144 I0.0099 J0.0116
G1 X-1.4277 Y-4.1336 F60.
X-1.4259 Y-4.1329
X-1.4189 Y-4.1298
X-1.4122 Y-4.1242
X-1.4059 Y-4.118
X-1.4 Y-4.1114
X-1.3947 Y-4.1044
X-1.3898 Y-4.0971
X-1.3855 Y-4.0894
X-1.3818 Y-4.0815
X-1.3786 Y-4.0733
X-1.376 Y-4.0649
X-1.374 Y-4.0563
X-1.3726 Y-4.0476
X-1.3719 Y-4.0388
X-1.3717 Y-4.03
X-1.3722 Y-4.0213
X-1.3734 Y-4.0125
X-1.3751 Y-4.0039
X-1.3774 Y-3.9954
X-1.3804 Y-3.9871
X-1.3839 Y-3.9791
X-1.388 Y-3.9713
X-1.3926 Y-3.9638
X-1.3978 Y-3.9567
X-1.4034 Y-3.9499
X-1.4095 Y-3.9436
X-1.4161 Y-3.9377
X-1.423 Y-3.9323
X-1.4303 Y-3.9274
G2 X-1.5444 Y-3.9742 I-0.7173 J1.5865
G3 X-1.5538 Y-3.9862 I0.0056 J-0.0141
X-1.5386 Y-4.0093 I0.0206 J-0.003
X-1.443 Y-3.9558 I0.0202 J0.0761
X-1.4401 Y-3.9411 I-0.0754 J0.0226 F50.
G2 X-1.4312 Y-3.9288 I0.0152 J-0.0015
G1 X-1.4259 Y-3.9266 F60.
X-1.4026 Y-3.9207
G2 X-1.2886 Y-4.0293 I0.0017 J-0.1123
X-1.4191 Y-4.1274 I-0.1439 J0.0556
G1 X-1.4212 Y-4.1286
X-1.4236 Y-4.1293
X-1.4262 Y-4.1296
X-1.4288 Y-4.1294
X-1.4314 Y-4.1287
X-1.4339 Y-4.1275
Y-4.1252
X-1.4244 Y-4.1174
G2 X-1.3114 Y-4.0476 I0.3441 J-0.4306
G1 X-1.2977 Y-4.0415 F50.
G3 X-1.2886 Y-4.0293 I-0.006 J0.014
X-1.4026 Y-3.9207 I-0.0891 J0.0206 F60.
G1 X-1.4082 Y-3.9136
X-1.4142 Y-3.9069
X-1.4206 Y-3.9007
X-1.4275 Y-3.8949
X-1.4347 Y-3.8896
X-1.4423 Y-3.8847
X-1.4502 Y-3.8804
X-1.4584 Y-3.8766
X-1.4667 Y-3.8734
X-1.4753 Y-3.8707
X-1.4841 Y-3.8687
X-1.4929 Y-3.8672
X-1.5019 Y-3.8663
X-1.5108 Y-3.866
X-1.5198 Y-3.8663
X-1.5288 Y-3.8672
X-1.5376 Y-3.8687
X-1.5464 Y-3.8708
X-1.5549 Y-3.8735
X-1.5633 Y-3.8767
X-1.5715 Y-3.8805
X-1.5793 Y-3.8848
X-1.5869 Y-3.8897
X-1.5941 Y-3.895
G3 X-1.814 Y-3.8562 I-0.2643 J-0.8565
G1 X-1.8245 Y-3.8581
X-1.835 Y-3.8606
X-1.8452 Y-3.8637
X-1.8553 Y-3.8673
X-1.8652 Y-3.8715
X-1.8748 Y-3.8762
X-1.8841 Y-3.8815
X-1.8931 Y-3.8872
X-1.9018 Y-3.8935
X-1.9102 Y-3.9002
X-1.9181 Y-3.9074
X-1.9256 Y-3.915
X-1.9327 Y-3.923
X-1.9394 Y-3.9315
X-1.9455 Y-3.9402
X-1.9512 Y-3.9493
X-1.9563 Y-3.9587
X-1.961 Y-3.9684
X-1.965 Y-3.9783
X-1.9685 Y-3.9884
X-1.9715 Y-3.9987
X-1.9738 Y-4.0092
X-1.9756 Y-4.0197
X-1.9768 Y-4.0304
X-1.9774 Y-4.0411
X-1.9773 Y-4.0518
X-1.9767 Y-4.0625
X-1.9755 Y-4.0731
X-1.9737 Y-4.0837
X-1.9714 Y-4.0941
X-1.9684 Y-4.1044
X-1.9649 Y-4.1145
X-1.9608 Y-4.1244
X-1.9561 Y-4.1341
X-1.951 Y-4.1435
X-1.9453 Y-4.1526
X-1.9391 Y-4.1613
X-1.9416 Y-4.172
X-1.9435 Y-4.1828
X-1.9447 Y-4.1938
X-1.9453 Y-4.2047
X-1.9454 Y-4.2157
X-1.9448 Y-4.2267
X-1.9436 Y-4.2376
X-1.9418 Y-4.2484
X-1.9394 Y-4.2591
X-1.9364 Y-4.2697
X-1.9328 Y-4.2801
X-1.9286 Y-4.2902
X-1.9239 Y-4.3002
X-1.9186 Y-4.3098
X-1.9128 Y-4.3191
X-1.9065 Y-4.3281
X-1.8997 Y-4.3367
X-1.8925 Y-4.345
X-1.8847 Y-4.3528
X-1.8766 Y-4.3602
X-1.8681 Y-4.3671
X-1.8591 Y-4.3735
X-1.8499 Y-4.3794
X-1.8403 Y-4.3848
X-1.8304 Y-4.3896
X-1.8203 Y-4.3939
X-1.81 Y-4.3976
X-1.7995 Y-4.4007
X-1.7888 Y-4.4032
X-1.778 Y-4.4052
X-1.7671 Y-4.4065
X-1.7561 Y-4.4072
X-1.7451 Y-4.4073
X-1.7342 Y-4.4068
X-1.7232 Y-4.4057
X-1.7124 Y-4.404
X-1.7017 Y-4.4016
X-1.6911 Y-4.3987
X-1.6807 Y-4.3952
X-1.6705 Y-4.3911
X-1.6605 Y-4.3864
X-1.6508 Y-4.3812
X-1.6415 Y-4.3755
X-1.6325 Y-4.3692
X-1.6238 Y-4.3625
X-1.6155 Y-4.3553
X-1.6076 Y-4.3476
X-1.6002 Y-4.3395
X-1.5933 Y-4.331
X-1.5868 Y-4.3222
X-1.5808 Y-4.3129
G3 X-1.2549 Y-4.1474 I-0.6599 J1.7025
X-1.2056 Y-3.9541 I-0.1256 J0.1349
X-1.5617 Y-3.7833 I-0.3014 J-0.1718
G2 X-1.7515 Y-3.7747 I-0.0778 J0.3808
G1 X-1.7639 Y-3.7723
X-1.7764 Y-3.7706
X-1.789 Y-3.7694
X-1.8016 Y-3.7689
X-1.8142
X-1.8268 Y-3.7696
X-1.8394 Y-3.7708
X-1.8519 Y-3.7727
X-1.8643 Y-3.7752
X-1.8766 Y-3.7782
X-1.8887 Y-3.7819
X-1.9006 Y-3.7861
X-1.9122 Y-3.7909
X-1.9237 Y-3.7962
X-1.9349 Y-3.8021
X-1.9458 Y-3.8085
X-1.9563 Y-3.8155
X-1.9665 Y-3.8229
X-1.9764 Y-3.8308
X-1.9858 Y-3.8392
X-1.9949 Y-3.848
X-2.0035 Y-3.8573
X-2.0116 Y-3.8669
X-2.0193 Y-3.8769
X-2.0265 Y-3.8873
X-2.0332 Y-3.898
X-2.0393 Y-3.9091
X-2.045 Y-3.9204
X-2.05 Y-3.9319
X-2.0545 Y-3.9437
X-2.0585 Y-3.9557
X-2.0618 Y-3.9679
X-2.0646 Y-3.9802
X-2.0668 Y-3.9927
X-2.0684 Y-4.0052
X-2.0693 Y-4.0178
X-2.0697 Y-4.0304
X-2.0695 Y-4.0431
X-2.0686 Y-4.0557
X-1.9859 Y-4.34
G3 X-1.7143 Y-4.5003 I0.2322 J0.0832
G1 X-1.2264 Y-4.2336
X-1.2157 Y-4.2265
X-1.2054 Y-4.2189
X-1.1955 Y-4.2108
X-1.186 Y-4.2022
X-1.1769 Y-4.1932
X-1.1683 Y-4.1838
X-1.1601 Y-4.174
X-1.1523 Y-4.1638
X-1.1451 Y-4.1532
X-1.1384 Y-4.1423
X-1.1322 Y-4.1311
X-1.1266 Y-4.1196
X-1.1215 Y-4.1079
X-1.1169 Y-4.0959
X-1.113 Y-4.0837
X-1.1096 Y-4.0714
X-1.1068 Y-4.0589
X-1.1047 Y-4.0463
X-1.1031 Y-4.0336
X-1.1021 Y-4.0208
X-1.1018 Y-4.008
X-1.102 Y-3.9952
X-1.1029 Y-3.9825
X-1.1043 Y-3.9698
X-1.1064 Y-3.9571
X-1.1091 Y-3.9446
X-1.1124 Y-3.9322
X-1.1162 Y-3.92
X-1.1206 Y-3.908
X-1.1256 Y-3.8962
X-1.1312 Y-3.8847
X-1.1373 Y-3.8735
X-1.1439 Y-3.8625
X-1.151 Y-3.8519
X-1.1587 Y-3.8416
X-1.1668 Y-3.8317
X-1.1754 Y-3.8222
X-1.1844 Y-3.8131
X-1.1938 Y-3.8045
X-1.2037 Y-3.7963
X-1.2139 Y-3.7886
X-1.2245 Y-3.7814
X-1.2354 Y-3.7747
G3 X-1.4079 Y-3.7166 I-0.2611 J-0.49
G2 X-1.5617 Y-3.7833 I-0.2764 J0.427
G3 X-1.572 Y-3.7945 I0.0046 J-0.0145
X-1.5576 Y-3.8242 I0.0259 J-0.0058
X-1.2609 Y-3.7873 I0.1198 J0.2482
G1 X-1.2497 Y-3.7773 F50.
G2 X-1.2349 Y-3.7739 I0.0104 J-0.0111
G1 X-1.168 Y-3.7968 F60.
X-1.1445 Y-3.8033
X-1.1214 Y-3.8096
G2 X-1.0281 Y-4.1253 I-0.1385 J-0.2125
G1 X-1.2264 Y-4.2336
G2 X-1.2416 Y-4.2327 I-0.0068 J0.0136
X-1.2537 Y-4.1589 I0.0279 J0.0425
X-1.0562 Y-4.1168 I0.1239 J-0.0972
X-1.0433 Y-4.1244 I-0.0735 J-0.1393 F50.
G3 X-1.0281 Y-4.1253 I0.0084 J0.0127
G1 X-0.9814 Y-4.0997 F60.
G3 X-0.9518 Y-3.8559 I-0.1331 J0.1399
G1 X-1.1214 Y-3.8096
G3 X-1.136 Y-3.814 I-0.0035 J-0.0148
X-1.135 Y-3.8636 I0.0258 J-0.0243
X-0.9773 Y-3.8705 I0.0826 J0.0844
X-0.9664 Y-3.8602 I-0.075 J0.0912 F50.
G2 X-0.9518 Y-3.8559 I0.0111 J-0.0104
G1 X-0.9347 Y-3.8605 F60.
X-0.9114 Y-3.8661
X-0.9033 Y-3.8701
X-0.8956 Y-3.8746
X-0.8881 Y-3.8796
X-0.881 Y-3.8851
X-0.8743 Y-3.8911
X-0.868 Y-3.8975
X-0.8622 Y-3.9043
X-0.8568 Y-3.9116
X-0.852 Y-3.9191
X-0.8477 Y-3.927
X-0.8439 Y-3.9352
X-0.8408 Y-3.9436
X-0.8381 Y-3.9522
X-0.8361 Y-3.9609
X-0.8347 Y-3.9698
X-0.8339 Y-3.9787
X-0.8337 Y-3.9877
X-0.8341 Y-3.9967
X-0.8352 Y-4.0056
X-0.8368 Y-4.0144
X-0.8391 Y-4.0231
X-0.9814 Y-4.0997
G2 X-0.9966 Y-4.0989 I-0.0068 J0.0136
X-1.0025 Y-4.0356 I0.0223 J0.034
X-0.8687 Y-4.0144 I0.0821 J-0.085
X-0.8557 Y-4.0218 I-0.0518 J-0.1061 F50.
G3 X-0.8405 Y-4.0227 I0.0084 J0.0127
G1 X-0.8117 Y-4.007 F60.
G3 X-0.7811 Y-3.8914 I-0.0518 J0.0755
G1 X-0.7842 Y-3.891
X-0.7872 Y-3.8912
X-0.7902 Y-3.8919
X-0.7929 Y-3.8931
X-0.7953 Y-3.8949
X-0.7974 Y-3.897
X-0.799 Y-3.8994
X-0.8 Y-3.9021
X-0.8036 Y-3.9114
X-0.8327 Y-3.988
X-0.8335 Y-3.9907
X-0.8337 Y-3.9935
G3 X-0.8117 Y-4.007 I0.0152 J0.0001 F50.
G1 X-0.7481 Y-3.9722 F60.
G3 X-0.7155 Y-3.9064 I-0.0125 J0.0472
X-0.7288 Y-3.9107 I-0.0025 J-0.015
G1 X-0.7403 Y-3.9223
X-0.7657 Y-3.9479
G3 X-0.7702 Y-3.9587 I0.0108 J-0.0107
X-0.7481 Y-3.9722 I0.0152 J0.0001 F50.
G1 X-0.6867 Y-3.9387 F60.
X-0.6815 Y-3.9355
X-0.6773 Y-3.9313
X-0.6757 Y-3.9292
X-0.6739 Y-3.925
X-0.6744 Y-3.9204
X-0.677 Y-3.9165
X-0.681 Y-3.9144
G3 X-0.6942 Y-3.9138 I-0.0082 J-0.0385
X-0.7051 Y-3.9229 I0.0017 J-0.0131
X-0.6867 Y-3.9387 I0.0125 J-0.004 F50.
G1 X-0.6797 Y-3.9348 F60.
X-0.6718 Y-3.9285
X-0.6712 Y-3.9279
X-0.67 Y-3.9259
G3 X-0.7014 Y-3.9093 I-0.0203 J-0.0003
G1 X-0.9114 Y-3.8661
G3 X-0.9285 Y-3.8855 I-0.0025 J-0.015
G1 X-0.9277 Y-3.8884 Z-0.1672
X-0.9269 Y-3.8911 Z-0.1663
X-0.9261 Y-3.8936 Z-0.1649
X-0.9254 Y-3.8958 Z-0.163
X-0.9249 Y-3.8977 Z-0.1607
X-0.9245 Y-3.899 Z-0.1581
X-0.9242 Y-3.8998 Z-0.1552
Y-3.9001 Z-0.1523
G0 Z-0.137
X-2.0414 Y-4.0921
G1 Z-0.1523 F50.
X-2.0416 Y-4.0919 Z-0.1552
X-2.0423 Y-4.0913 Z-0.1581
X-2.0433 Y-4.0904 Z-0.1607
X-2.0447 Y-4.0891 Z-0.163
X-2.0464 Y-4.0875 Z-0.1649
X-2.0483 Y-4.0857 Z-0.1663
X-2.0504 Y-4.0838 Z-0.1672
X-2.0526 Y-4.0818 Z-0.1675
G2 X-2.0693 Y-4.0557 I0.0424 J0.0456
G1 X-2.106 Y-3.9305 F60.
G2 X-1.9 Y-3.689 I0.2492 J-0.004
G3 X-1.7513 Y-3.7741 I0.2497 J0.264
G2 X-1.7418 Y-3.786 I-0.0056 J-0.0142
X-1.815 Y-3.8506 I-0.0575 J-0.0086
X-1.8997 Y-3.7184 I0.032 J0.1137
X-1.8964 Y-3.7038 I0.1167 J-0.0185 F50.
G3 X-1.9 Y-3.689 I-0.0146 J0.0043
G1 X-1.9211 Y-3.6685 F60.
G3 X-2.1552 Y-3.7626 I-0.0707 J-0.1624
G1 X-2.106 Y-3.9305
G3 X-2.0946 Y-3.9406 I0.0145 J0.0048
X-2.0524 Y-3.9131 I0.0073 J0.035
X-2.1294 Y-3.7767 I-0.1155 J0.0247
X-2.1439 Y-3.7727 I-0.0384 J-0.1117 F50.
G2 X-2.1552 Y-3.7626 I0.0031 J0.0149
G1 X-2.1676 Y-3.7205 F60.
G2 X-1.9912 Y-3.5599 I0.1561 J0.0057
G3 X-1.9211 Y-3.6685 I0.3001 J0.1168
G2 X-1.9175 Y-3.6833 I-0.011 J-0.0105
X-1.9558 Y-3.7047 I-0.0301 J0.0088
X-2.0031 Y-3.5892 I0.0208 J0.0759
X-1.9944 Y-3.5771 I0.0681 J-0.0396 F50.
G3 X-1.9915 Y-3.5621 I-0.0115 J0.01
G1 X-1.9989 Y-3.5428 F60.
G3 X-2.2099 Y-3.5754 I-0.0947 J-0.0865
G1 X-2.1676 Y-3.7205
G3 X-2.1562 Y-3.7306 I0.0145 J0.0048
X-2.1061 Y-3.683 I0.0085 J0.0412
X-2.1844 Y-3.5893 I-0.1167 J-0.018
X-2.1988 Y-3.5853 I-0.0384 J-0.1117 F50.
G2 X-2.2102 Y-3.5752 I0.0031 J0.0149
G1 X-2.2186 Y-3.5467 F60.
G2 X-2.0257 Y-3.4235 I0.1342 J0.0024
G3 X-1.9989 Y-3.5428 I0.487 J0.047
G2 X-2.0018 Y-3.5577 I-0.0144 J-0.0049
X-2.0303 Y-3.5602 I-0.0156 J0.0136
X-2.0418 Y-3.4491 I0.0494 J0.0613
X-2.0313 Y-3.4385 I0.061 J-0.0498 F50.
G3 X-2.0261 Y-3.4242 I-0.0098 J0.0117
X-2.0427 Y-3.4067 I-0.0218 J-0.004 F60.
G1 X-2.1013 Y-3.3703
G3 X-2.2599 Y-3.4107 I-0.0548 J-0.1164
G1 X-2.2186 Y-3.5467
G3 X-2.2072 Y-3.5568 I0.0145 J0.0048
X-2.158 Y-3.5024 I0.0086 J0.0416
X-2.2322 Y-3.4262 I-0.1127 J-0.0355
X-2.2467 Y-3.4222 I-0.0384 J-0.1117 F50.
G2 X-2.258 Y-3.4121 I0.0031 J0.0149
G1 X-2.2665 Y-3.3833 F60.
G2 X-2.2137 Y-3.2958 I0.0784 J0.0124
G1 X-2.1713 Y-3.3263
X-2.1554 Y-3.3367
X-2.1013 Y-3.3703
G2 X-2.1102 Y-3.3982 I-0.0085 J-0.0126
G1 X-2.2401 Y-3.3941
X-2.2525 Y-3.3938 F50.
G2 X-2.2665 Y-3.3833 I0.0005 J0.0152
G1 X-2.2856 Y-3.3181 F60.
G2 X-2.2649 Y-3.2629 I0.0318 J0.0195
G1 X-2.2129 Y-3.2981
G2 X-2.2067 Y-3.312 I-0.009 J-0.0123
X-2.2128 Y-3.3184 I-0.0072 J0.0008
X-2.2566 Y-3.2914 I-0.0062 J0.0389
X-2.2583 Y-3.2766 I0.0375 J0.0119 F50.
G3 X-2.2649 Y-3.2629 I-0.0152 J0.0011
G1 X-2.2769 Y-3.2553 F60.
X-2.2822 Y-3.2523
X-2.288 Y-3.251
X-2.2922 Y-3.2509
X-2.2961 Y-3.2516
X-2.2994 Y-3.2539
X-2.3015 Y-3.2574
X-2.3019 Y-3.2614
G3 X-2.2975 Y-3.2658 I0.0051 J0.0007
X-2.2964 Y-3.2659 I0.0008 J0.0051 F50.
G1 X-2.2795 Y-3.2648
G3 X-2.2769 Y-3.2553 I-0.0003 J0.0052
G1 X-2.2879 Y-3.2484 F60.
X-2.2933 Y-3.2458
X-2.2938 Y-3.2457
X-2.2961 Y-3.2455
X-2.2965 Y-3.2456
X-2.2984 Y-3.2461
X-2.2989 Y-3.2463
X-2.3007 Y-3.2476
X-2.3011 Y-3.2481
G3 X-2.2856 Y-3.3181 I0.0717 J-0.0208
X-2.2604 Y-3.3241 I0.0145 J0.0048
G1 X-2.2583 Y-3.322 Z-0.1672
X-2.2563 Y-3.32 Z-0.1663
X-2.2544 Y-3.3182 Z-0.1649
X-2.2528 Y-3.3165 Z-0.163
X-2.2514 Y-3.3152 Z-0.1607
X-2.2504 Y-3.3142 Z-0.1581
X-2.2498 Y-3.3136 Z-0.1552
X-2.2496 Y-3.3134 Z-0.1523
G0 Z-0.137
X-1.9821 Y-4.2943
G1 Z-0.1523 F50.
X-1.9822 Y-4.2946 Z-0.1552
X-1.9824 Y-4.2955 Z-0.1581
X-1.9828 Y-4.2968 Z-0.1607
X-1.9832 Y-4.2987 Z-0.163
X-1.9838 Y-4.3009 Z-0.1649
X-1.9845 Y-4.3034 Z-0.1663
X-1.9852 Y-4.3062 Z-0.1672
X-1.9859 Y-4.3091 Z-0.1675
G3 Y-4.34 I0.0604 J-0.0155
G1 X-1.9411 Y-4.4928 F60.
G3 X-1.8497 Y-4.5757 I0.1294 J0.0509
G1 X-1.8471 Y-4.574
X-1.845 Y-4.5718
X-1.8432 Y-4.5693
X-1.842 Y-4.5665
X-1.8414 Y-4.5636
X-1.8412 Y-4.5607
X-1.8417 Y-4.5577
X-1.8427 Y-4.555
X-1.8441 Y-4.5525
X-1.846 Y-4.5503
X-1.8484 Y-4.5478
G3 X-1.9232 Y-4.4742 I-0.1263 J-0.0534
X-1.9416 Y-4.4891 I-0.0032 J-0.0149 F50.
G1 X-1.9415 Y-4.491
X-1.9411 Y-4.4928
G3 X-1.9079 Y-4.5979 I0.2751 J0.0292 F60.
G1 X-1.9066 Y-4.5991
X-1.906 Y-4.5994
X-1.9044 Y-4.6001
X-1.9039 Y-4.6002
G3 X-1.8907 Y-4.5967 I0.0012 J0.0215
G1 X-1.7143 Y-4.5003
G3 X-1.7068 Y-4.4872 I-0.0078 J0.0131
X-1.7138 Y-4.4744 I-0.0152 J0.
G1 X-1.7162 Y-4.4728 Z-0.1672
X-1.7186 Y-4.4712 Z-0.1663
X-1.7208 Y-4.4698 Z-0.1649
X-1.7228 Y-4.4685 Z-0.163
X-1.7244 Y-4.4675 Z-0.1607
X-1.7256 Y-4.4667 Z-0.1581
X-1.7263 Y-4.4663 Z-0.1552
X-1.7265 Y-4.4661 Z-0.1523
G0 Z0.6
X-0.5764 Y-4.7557
Z0.1
G3 X-0.5008 Y-4.6324 Z0.0599 I0.0378 J0.0617 F50.
X-0.5764 Y-4.7557 Z0.0199 I-0.0378 J-0.0617
X-0.5008 Y-4.6324 Z-0.0202 I0.0378 J0.0617
X-0.5764 Y-4.7557 Z-0.0603 I-0.0378 J-0.0617
X-0.5008 Y-4.6324 Z-0.1004 I0.0378 J0.0617
X-0.5764 Y-4.7557 Z-0.1404 I-0.0378 J-0.0617
X-0.4663 Y-4.694 Z-0.1675 I0.0378 J0.0617
X-0.6109 I-0.0723 J0.
X-0.4665 Y-4.6998 I0.0723 J0.
G1 X-0.4663 Y-4.694
G3 X-0.4721 Y-4.5784 I-0.0507 J0.0554 F60.
G1 X-0.5386 Y-4.5914
X-0.5853 Y-4.6011
X-0.6157 Y-4.607
X-0.6233 Y-4.6101
X-0.6307 Y-4.6137
X-0.6378 Y-4.6179
X-0.6446 Y-4.6226
X-0.651 Y-4.6277
X-0.6571 Y-4.6333
X-0.6627 Y-4.6393
X-0.6679 Y-4.6457
X-0.6725 Y-4.6525
X-0.6767 Y-4.6596
X-0.6804 Y-4.6669
X-0.6836 Y-4.6745
X-0.6861 Y-4.6824
X-0.6881 Y-4.6903
X-0.6896 Y-4.6984
X-0.6904 Y-4.7066
X-0.6907 Y-4.7149
X-0.6903 Y-4.7231
X-0.6894 Y-4.7313
X-0.6878 Y-4.7394
X-0.6857 Y-4.7473
X-0.6831 Y-4.7551
X-0.6798 Y-4.7627
X-0.6761 Y-4.77
X-0.6718 Y-4.777
X-0.667 Y-4.7837
X-0.6618 Y-4.7901
X-0.6561 Y-4.796
X-0.65 Y-4.8015
X-0.6435 Y-4.8066
X-0.5496 Y-4.788
X-0.4557 Y-4.7692
X-0.4471 Y-4.766
X-0.4387 Y-4.7622
X-0.4305 Y-4.7579
X-0.4226 Y-4.7531
X-0.4151 Y-4.7478
X-0.4079 Y-4.742
X-0.4011 Y-4.7358
X-0.3947 Y-4.7291
X-0.3888 Y-4.7221
X-0.3833 Y-4.7147
X-0.3782 Y-4.7069
X-0.3737 Y-4.6989
X-0.3697 Y-4.6906
X-0.3663 Y-4.682
X-0.3634 Y-4.6733
X-0.3611 Y-4.6644
X-0.3593 Y-4.6553
X-0.3581 Y-4.6462
X-0.3575 Y-4.637
Y-4.6278
X-0.3581 Y-4.6186
X-0.3593 Y-4.6094
X-0.361 Y-4.6004
X-0.3633 Y-4.5915
X-0.3662 Y-4.5827
X-0.3696 Y-4.5741
X-0.3736 Y-4.5658
X-0.3781 Y-4.5578
X-0.3985 Y-4.5636
X-0.4452 Y-4.5731
X-0.4721 Y-4.5784
G3 X-0.4832 Y-4.5888 I0.0035 J-0.0148
X-0.4485 Y-4.6249 I0.0274 J-0.0084
X-0.3984 Y-4.5845 I-0.02 J0.0762
X-0.3929 Y-4.5706 I-0.0701 J0.0358 F50.
G2 X-0.3819 Y-4.5601 I0.0146 J-0.0042
G1 X-0.3625 Y-4.556 F60.
X-0.3546 Y-4.558
X-0.3468 Y-4.5606
X-0.3393 Y-4.5638
X-0.332 Y-4.5675
X-0.325 Y-4.5717
X-0.3183 Y-4.5764
X-0.3119 Y-4.5816
X-0.306 Y-4.5872
X-0.3005 Y-4.5933
X-0.2954 Y-4.5997
X-0.2908 Y-4.6065
X-0.2867 Y-4.6136
X-0.2831 Y-4.6209
X-0.28 Y-4.6285
X-0.2776 Y-4.6363
X-0.2756 Y-4.6443
X-0.2743 Y-4.6523
X-0.2735 Y-4.6605
X-0.2734 Y-4.6687
X-0.2738 Y-4.6768
X-0.2748 Y-4.685
X-0.2764 Y-4.693
X-0.2785 Y-4.7009
X-0.2813 Y-4.7086
X-0.2845 Y-4.7161
X-0.2883 Y-4.7233
X-0.2927 Y-4.7303
X-0.2975 Y-4.7369
X-0.3027 Y-4.7432
G3 X-0.4557 Y-4.7692 I0.0574 J-0.8006
G2 X-0.4699 Y-4.7638 I-0.0024 J0.015
X-0.4241 Y-4.666 I0.0465 J0.0378
X-0.323 Y-4.7208 I0.0014 J-0.1181
X-0.3158 Y-4.734 I-0.0998 J-0.0632 F50.
G3 X-0.3033 Y-4.7427 I0.0138 J0.0065
G1 X-0.2803 Y-4.7439 F60.
G3 X-0.2211 Y-4.5596 I-0.0301 J0.1113
X-0.3625 Y-4.556 I-0.0755 J-0.1863
X-0.3735 Y-4.5665 I0.0037 J-0.0148
X-0.3449 Y-4.6104 I0.0333 J-0.0096
X-0.2452 Y-4.5768 I0.0161 J0.117
X-0.2353 Y-4.5655 I-0.0837 J0.0833 F50.
G2 X-0.2212 Y-4.5597 I0.0121 J-0.0093
G1 X-0.2117 Y-4.5613 F60.
X-0.1895 Y-4.5638
X-0.1817 Y-4.5676
X-0.1742 Y-4.572
X-0.1671 Y-4.577
X-0.1603 Y-4.5824
X-0.1539 Y-4.5883
X-0.1479 Y-4.5947
X-0.1425 Y-4.6014
X-0.1375 Y-4.6086
X-0.1331 Y-4.616
X-0.1292 Y-4.6238
X-0.1259 Y-4.6319
X-0.1232 Y-4.6401
X-0.121 Y-4.6485
X-0.1195 Y-4.6571
X-0.1186 Y-4.6658
X-0.1184 Y-4.6744
X-0.1187 Y-4.6831
X-0.1197 Y-4.6918
X-0.1213 Y-4.7003
X-0.1236 Y-4.7087
X-0.1264 Y-4.7169
X-0.1298 Y-4.7249
X-0.1338 Y-4.7327
X-0.1383 Y-4.7401
X-0.1433 Y-4.7472
X-0.1489 Y-4.7539
X-0.1549 Y-4.7602
G3 X-0.2803 Y-4.7439 I-1.1379 J-8.2706
G2 X-0.2927 Y-4.7352 I0.0013 J0.0152
X-0.2882 Y-4.7168 I0.0136 J0.0064
X-0.1748 Y-4.7366 I0.0475 J-0.0628
X-0.1678 Y-4.7499 I-0.066 J-0.043 F50.
G3 X-0.1558 Y-4.7592 I0.0141 J0.0058
G1 X-0.1308 Y-4.7618 F60.
G3 X-0.0592 Y-4.5747 I-0.0221 J0.1157
G2 X-0.1895 Y-4.5638 I0.0169 J0.9819
G3 X-0.2033 Y-4.5704 I-0.0012 J-0.0152
X-0.202 Y-4.5954 I0.0171 J-0.0117
X-0.0815 I0.0603 J0.0507
X-0.073 Y-4.5831 I-0.0603 J0.0507 F50.
G2 X-0.06 Y-4.5753 I0.0133 J-0.0074
G1 X-0.0365 Y-4.5758 F60.
G2 X0.009 Y-4.7666 I-0.0373 J-0.1098
X-0.1308 Y-4.7618 I-0.0236 J1.3414
X-0.1428 Y-4.7525 I0.0021 J0.0151
X-0.1028 Y-4.6959 I0.038 J0.0155
X-0.012 Y-4.7456 I-0.0056 J-0.118
X-0.0041 Y-4.7583 I-0.0964 J-0.0683 F50.
G3 X0.0088 Y-4.7664 I0.0134 J0.0072
G1 X0.0218 F60.
X0.0347 Y-4.7662
G3 X0.0925 Y-4.573 I-0.0304 J0.1144
G1 X0.0685 Y-4.5752
X0.0218 Y-4.576
X-0.0249
X-0.0365 Y-4.5758
G3 X-0.0496 Y-4.5836 I0.0002 J-0.0152
X-0.0457 Y-4.6081 I0.0175 J-0.0098
X0.0719 Y-4.5956 I0.0533 J0.058
X0.0794 Y-4.5826 I-0.0643 J0.0454 F50.
G2 X0.0917 Y-4.5737 I0.0139 J-0.0063
G1 X0.1152 Y-4.5722 F60.
G2 X0.177 Y-4.757 I-0.0275 J-0.1119
X0.0347 Y-4.7662 I-0.142 J1.0889
X0.0217 Y-4.7583 I0.0003 J0.0152
X0.0507 Y-4.701 I0.0341 J0.0188
X0.1536 Y-4.7387 I0.0155 J-0.1171
X0.163 Y-4.7504 I-0.0875 J-0.0794 F50.
G3 X0.1768 Y-4.7568 I0.0125 J0.0087
G1 X0.2086 Y-4.753 F60.
X0.2162 Y-4.7492
X0.2235 Y-4.7449
X0.2304 Y-4.7401
X0.237 Y-4.7348
X0.2432 Y-4.7291
X0.249 Y-4.7229
X0.2544 Y-4.7164
X0.2593 Y-4.7095
X0.2637 Y-4.7023
X0.2676 Y-4.6948
X0.2709 Y-4.6871
X0.2738 Y-4.6791
X0.276 Y-4.671
X0.2777 Y-4.6627
X0.2788 Y-4.6544
X0.2793 Y-4.6459
Y-4.6375
X0.2786 Y-4.6291
X0.2774 Y-4.6207
X0.2756 Y-4.6125
X0.2732 Y-4.6044
X0.2702 Y-4.5964
X0.2667 Y-4.5888
X0.2627 Y-4.5813
X0.2582 Y-4.5742
X0.2532 Y-4.5674
X0.2477 Y-4.561
X0.2418 Y-4.5549
X0.2086 Y-4.5608
X0.1619 Y-4.5669
X0.1152 Y-4.5722
G3 X0.1033 Y-4.5816 I0.0022 J-0.0151
X0.1102 Y-4.6043 I0.0177 J-0.007
X0.2229 Y-4.5795 I0.0449 J0.0647
X0.2292 Y-4.5659 I-0.0679 J0.0399 F50.
G2 X0.2408 Y-4.556 I0.0144 J-0.0051
G1 X0.2553 Y-4.5538 F60.
X0.2624 Y-4.5526
X0.2706 Y-4.5541
X0.2788 Y-4.5561
X0.2867 Y-4.5588
X0.2944 Y-4.562
X0.3019 Y-4.5657
X0.3092 Y-4.5699
X0.316 Y-4.5747
X0.3226 Y-4.5799
X0.3287 Y-4.5856
X0.3345 Y-4.5917
X0.3398 Y-4.5982
X0.3446 Y-4.605
X0.3489 Y-4.6122
X0.3527 Y-4.6196
X0.356 Y-4.6273
X0.3587 Y-4.6352
X0.3609 Y-4.6433
X0.3625 Y-4.6515
X0.3635 Y-4.6598
X0.3639 Y-4.6682
X0.3637 Y-4.6766
X0.3629 Y-4.6849
X0.3616 Y-4.6932
X0.3596 Y-4.7013
X0.3571 Y-4.7093
X0.354 Y-4.7171
X0.3504 Y-4.7246
X0.3463 Y-4.7319
X0.3417 Y-4.7389
X0.3365 Y-4.7455
X0.3021 Y-4.7426
X0.2553 Y-4.7464
X0.2086 Y-4.753
G2 X0.1949 Y-4.7465 I-0.0013 J0.0152
X0.1992 Y-4.7095 I0.023 J0.0161
X0.316 Y-4.7229 I0.0525 J-0.0587
X0.3234 Y-4.7359 I-0.0644 J-0.0453 F50.
G3 X0.3358 Y-4.7448 I0.0139 J0.0062
G1 X0.3488 Y-4.7457 F60.
X0.3526 Y-4.7467
G3 X0.4191 Y-4.5688 I-0.0236 J0.1102
X0.2624 Y-4.5526 I-0.1166 J-0.3615
X0.2511 Y-4.5627 I0.0031 J-0.0149
X0.2801 Y-4.6167 I0.0402 J-0.0132
X0.3953 Y-4.5859 I0.0313 J0.1139
X0.4051 Y-4.5746 I-0.0839 J0.0831 F50.
G2 X0.4191 Y-4.5688 I0.0121 J-0.0093
G1 X0.4422 Y-4.5726 F60.
X0.4492 Y-4.574
G2 X0.4747 Y-4.7737 I-0.0518 J-0.1081
G1 X0.3955 Y-4.7574
X0.3526 Y-4.7467
G2 X0.3421 Y-4.7357 I0.0042 J0.0146
X0.3512 Y-4.7154 I0.0174 J0.0044
X0.457 Y-4.7485 I0.0362 J-0.0699
X0.4628 Y-4.7624 I-0.0696 J-0.0368 F50.
G3 X0.4739 Y-4.7727 I0.0146 J0.0044
G1 X0.4889 Y-4.7757 F60.
X0.4959 Y-4.7771
G3 X0.5843 Y-4.6007 I-0.0091 J0.1149
G1 X0.5823 Y-4.6006
X0.5356 Y-4.5908
X0.4492 Y-4.574
G3 X0.4318 Y-4.5866 I-0.0024 J-0.015
X0.4428 Y-4.6101 I0.0228 J-0.0036
X0.5565 Y-4.6136 I0.0601 J0.1017
X0.5726 Y-4.6037 I-0.0536 J0.1052 F50.
G2 X0.584 Y-4.6009 I0.009 J-0.0123
G1 X0.6107 Y-4.606 F60.
G2 X0.6281 Y-4.8037 I-0.0552 J-0.1045
G1 X0.5823 Y-4.7943
X0.5356 Y-4.7853
X0.4959 Y-4.7771
G2 X0.4847 Y-4.7588 I0.0036 J0.0148
X0.5035 Y-4.742 I0.0215 J-0.0052
X0.6067 Y-4.7811 I0.0146 J-0.1172
X0.618 Y-4.7963 I-0.0886 J-0.0781 F50.
G3 X0.6276 Y-4.803 I0.0129 J0.0081
G1 X0.6523 Y-4.8074 F60.
G3 X0.7411 Y-4.6289 I-0.011 J0.1168
G2 X0.6107 Y-4.606 I0.4105 J2.7239
G3 X0.5965 Y-4.6115 I-0.0023 J-0.0151
X0.5953 Y-4.6256 I0.0098 J-0.0079
X0.7162 Y-4.6461 I0.0687 J0.0385
X0.7264 Y-4.6351 I-0.0522 J0.0589 F50.
G2 X0.7405 Y-4.6293 I0.0121 J-0.0093
G1 X0.7691 Y-4.6341 F60.
X0.7765 Y-4.6385
X0.7835 Y-4.6435
X0.7902 Y-4.6489
X0.7964 Y-4.6548
X0.8023 Y-4.6612
X0.8076 Y-4.6679
X0.8125 Y-4.6751
X0.8168 Y-4.6825
X0.8205 Y-4.6903
X0.8238 Y-4.6983
X0.8264 Y-4.7065
X0.8284 Y-4.7148
X0.8298 Y-4.7233
X0.8306 Y-4.7319
X0.8308 Y-4.7405
X0.8304 Y-4.7491
X0.8293 Y-4.7577
X0.8276 Y-4.7661
X0.8254 Y-4.7744
X0.8225 Y-4.7825
X0.8191 Y-4.7904
X0.8151 Y-4.7981
X0.8105 Y-4.8054
X0.8055 Y-4.8124
X0.7999 Y-4.8189
X0.7939 Y-4.8251
X0.7875 Y-4.8308
X0.7224 Y-4.8193
X0.6757 Y-4.8115
X0.6523 Y-4.8074
G2 X0.6472 Y-4.7797 I0.0032 J0.0149
X0.6759 Y-4.7708 I0.03 J-0.0462
X0.7653 Y-4.8086 I0.0029 J-0.1181
X0.7771 Y-4.8235 I-0.0866 J-0.0803 F50.
G3 X0.7867 Y-4.83 I0.0127 J0.0084
X0.827 Y-4.8335 I0.0269 J0.0752 F60.
X0.9068 Y-4.6853 I-0.036 J0.115
X0.8849 Y-4.6899 I-0.0088 J-0.0124
G1 X0.8819 Y-4.6949
X0.8129 Y-4.8105
X0.8119 Y-4.8125
G3 X0.827 Y-4.8335 I0.0141 J-0.0058 F50.
X0.9236 Y-4.7317 I0.0005 J0.0962 F60.
X0.8158 Y-4.6418 I-0.0961 J-0.0056
G1 X0.7691 Y-4.6341
G3 X0.7527 Y-4.6541 I-0.002 J-0.0151
G1 X0.7537 Y-4.6569 Z-0.1672
X0.7546 Y-4.6596 Z-0.1663
X0.7555 Y-4.6621 Z-0.1649
X0.7562 Y-4.6643 Z-0.163
X0.7568 Y-4.6661 Z-0.1607
X0.7573 Y-4.6674 Z-0.1581
X0.7576 Y-4.6683 Z-0.1552
X0.7577 Y-4.6685 Z-0.1523
G0 Z-0.137
X-0.5706 Y-4.615
G1 Z-0.1523 F50.
X-0.5709 Y-4.6149 Z-0.1552
X-0.5717 Y-4.6146 Z-0.1581
X-0.573 Y-4.6142 Z-0.1607
X-0.5748 Y-4.6135 Z-0.163
X-0.577 Y-4.6127 Z-0.1649
X-0.5794 Y-4.6118 Z-0.1663
X-0.5821 Y-4.6109 Z-0.1672
X-0.5849 Y-4.6099 Z-0.1675
G3 X-0.6157 Y-4.607 I-0.0211 J-0.0586
G1 X-0.632 Y-4.6101 F60.
X-0.6787 Y-4.6188
X-0.6915 Y-4.621
X-0.6996 Y-4.6244
X-0.7074 Y-4.6283
X-0.715 Y-4.6327
X-0.7222 Y-4.6377
X-0.729 Y-4.6432
X-0.7355 Y-4.6491
X-0.7415 Y-4.6554
X-0.7471 Y-4.6622
X-0.7522 Y-4.6693
X-0.7568 Y-4.6767
X-0.7608 Y-4.6845
X-0.7643 Y-4.6925
X-0.7673 Y-4.7007
X-0.7697 Y-4.7091
X-0.7715 Y-4.7177
X-0.7727 Y-4.7264
X-0.7733 Y-4.7351
X-0.7732 Y-4.7438
X-0.7726 Y-4.7526
X-0.7714 Y-4.7612
X-0.7696 Y-4.7698
X-0.7672 Y-4.7782
X-0.7642 Y-4.7864
X-0.7607 Y-4.7944
X-0.7566 Y-4.8022
X-0.752 Y-4.8096
X-0.7469 Y-4.8167
X-0.7413 Y-4.8234
X-0.7021 Y-4.8159
X-0.6787 Y-4.812
X-0.6429 Y-4.8057
G3 X-0.6315 Y-4.7956 I-0.0032 J0.0149
X-0.6606 Y-4.7589 I-0.0266 J0.0087
X-0.7223 Y-4.7985 I0.0067 J-0.0785
X-0.7285 Y-4.8121 I0.0685 J-0.0389 F50.
G2 X-0.7399 Y-4.8222 I-0.0144 J0.0049
G1 X-0.7614 Y-4.8257 F60.
G2 X-0.8354 Y-4.6456 I0.0212 J0.114
X-0.6915 Y-4.621 I2.5475 J-14.4572
X-0.6775 Y-4.6267 I0.002 J-0.0151
X-0.6974 Y-4.6882 I-0.0309 J-0.024
X-0.8106 Y-4.6617 I-0.0331 J0.1134
X-0.8209 Y-4.6509 I0.08 J0.0869 F50.
G3 X-0.8352 Y-4.6457 I-0.0117 J-0.0098
G1 X-0.8429 Y-4.6473 F60.
X-0.8655 Y-4.6522
X-0.8896 Y-4.6717
G3 X-0.9236 Y-4.7532 I0.0702 J-0.0771
X-0.8951 Y-4.7549 I0.0145 J0.0045
X-0.8655 Y-4.6811 I-0.0736 J0.0724
X-0.8896 Y-4.6717 I-0.015 J-0.0028 F50.
X-0.7614 Y-4.8257 I0.0734 J-0.0693 F60.
G1 X-0.7563 Y-4.834
X-0.7507 Y-4.8418
X-0.7446 Y-4.8494
X-0.7381 Y-4.8565
X-0.7311 Y-4.8631
X-0.7237 Y-4.8694
X-0.7159 Y-4.8751
X-0.7078 Y-4.8803
X-0.6993 Y-4.885
X-0.6906 Y-4.8892
X-0.6816 Y-4.8927
X-0.6724 Y-4.8958
X-0.6631 Y-4.8982
X-0.6536 Y-4.9
X-0.644 Y-4.9012
X-0.6344 Y-4.9018
X-0.6247
X-0.6151 Y-4.9011
X-0.6055 Y-4.8999
X-0.596 Y-4.898
X-0.5867 Y-4.8956
X-0.5775 Y-4.8926
X-0.5685 Y-4.8889
X-0.5598 Y-4.8848
X-0.5514 Y-4.88
G2 X0.0645 Y-4.873 I0.3315 J-2.0643
X0.7029 Y-4.9271 I0.2184 J-1.217
G3 X0.9324 Y-4.8938 I0.0695 J0.328
X1.0077 Y-4.692 I-0.1029 J0.1533
X0.7615 Y-4.538 I-0.2291 J-0.0925
X0.2141 Y-4.4519 I-0.6202 J-2.1593
G1 X0.1853 Y-4.4567
X0.1565 Y-4.4608
X0.1275 Y-4.4644
X0.0985 Y-4.4673
X0.0695 Y-4.4697
X0.0404 Y-4.4715
X0.0113 Y-4.4727
X-0.0179 Y-4.4733
X-0.047
X-0.0762 Y-4.4727
X-0.1053 Y-4.4715
X-0.1344 Y-4.4697
X-0.1634 Y-4.4673
X-0.1924 Y-4.4644
X-0.2214 Y-4.4608
X-0.2502 Y-4.4567
X-0.279 Y-4.4519
X-0.3076 Y-4.4466
X-0.5001 Y-4.4824
X-0.6925 Y-4.5188
X-0.8847 Y-4.5557
G3 X-0.8249 Y-4.9298 I0.0637 J-0.1816
X-0.3746 Y-4.957 I0.2577 J0.5248
X0.3334 Y-4.954 I0.327 J6.4483
G2 X0.6069 Y-5.002 I-0.9374 J-6.152
G3 X0.7063 Y-5.0184 I0.095 J0.2657
G1 X0.9317 Y-4.981
X0.9436 Y-4.977
X0.9554 Y-4.9724
X0.9668 Y-4.9672
X0.9781 Y-4.9615
X0.989 Y-4.9552
X0.9995 Y-4.9484
X1.0098 Y-4.9411
X1.0196 Y-4.9333
X1.0291 Y-4.925
X1.0381 Y-4.9162
X1.0467 Y-4.907
X1.0548 Y-4.8974
X1.0624 Y-4.8874
X1.0695 Y-4.877
X1.0761 Y-4.8663
X1.0822 Y-4.8552
X1.0877 Y-4.8439
X1.0926 Y-4.8323
X1.0969 Y-4.8205
X1.1007 Y-4.8085
X1.1038 Y-4.7963
X1.1063 Y-4.784
X1.1083 Y-4.7715
X1.1095 Y-4.759
X1.1102 Y-4.7465
Y-4.7339
X1.1097 Y-4.7213
X1.1085 Y-4.7088
X1.1066 Y-4.6963
X1.1042 Y-4.684
X1.1011 Y-4.6718
X1.0974 Y-4.6597
X1.0932 Y-4.6479
X1.0883 Y-4.6363
X1.0829 Y-4.6249
X1.0769 Y-4.6139
X1.0704 Y-4.6031
X1.0634 Y-4.5927
X1.0558 Y-4.5826
X1.0478 Y-4.5729
X0.8617 Y-4.47
G3 X-0.0474 Y-4.382 I-0.6224 J-1.6903
X-0.7971 Y-4.4448 I-0.2516 J-1.5036
G1 X-0.8009 Y-4.4368
X-0.8018 Y-4.4373
X-1.0047 Y-4.5482
X-1.0145 Y-4.5556
X-1.0239 Y-4.5634
X-1.033 Y-4.5718
X-1.0416 Y-4.5805
X-1.0498 Y-4.5897
X-1.0575 Y-4.5993
X-1.0647 Y-4.6092
X-1.0714 Y-4.6195
X-1.0776 Y-4.63
X-1.0833 Y-4.6409
X-1.0885 Y-4.6521
X-1.0931 Y-4.6635
X-1.0972 Y-4.6751
X-1.1006 Y-4.6868
X-1.1035 Y-4.6988
X-1.1058 Y-4.7108
X-1.1075 Y-4.723
X-1.1086 Y-4.7352
X-1.1091 Y-4.7475
X-1.109 Y-4.7598
X-1.1083 Y-4.772
X-1.107 Y-4.7842
X-1.1051 Y-4.7964
X-1.1026 Y-4.8084
X-1.0996 Y-4.8203
X-1.0959 Y-4.832
X-1.0917 Y-4.8435
X-1.0869 Y-4.8549
X-1.0816 Y-4.8659
X-1.0757 Y-4.8767
X-1.0693 Y-4.8872
X-1.0624 Y-4.8974
X-1.0551 Y-4.9072
X-1.0472 Y-4.9166
X-1.0389 Y-4.9256
X-1.0301 Y-4.9343
X-1.021 Y-4.9425
X-1.0115 Y-4.9502
X-1.0015 Y-4.9574
X-0.9913 Y-4.9642
X-0.9807 Y-4.9704
X-0.9581 Y-4.9766
X-0.7014 Y-5.0192
X-0.6781 Y-5.0222
X-0.4215 Y-5.0505
X-0.3593 Y-5.054
X-0.297 Y-5.0568
X-0.2348 Y-5.059
X-0.1725 Y-5.0607
X-0.1102 Y-5.0617
X-0.0479 Y-5.0621
X0.0144 Y-5.0619
X0.0767 Y-5.0611
X0.139 Y-5.0598
X0.2012 Y-5.0578
X0.2635 Y-5.0552
X0.3257 Y-5.052
X0.3951 Y-5.0522
X0.4184 Y-5.0509
X0.6751 Y-5.0226
X0.6984 Y-5.0197
X0.7063 Y-5.0184
G3 X0.7177 Y-5.0083 I-0.003 J0.0149
X0.7065 Y-4.9676 I-0.0358 J0.0121
X0.3451 Y-5.0339 I-0.1539 J-0.1792
G1 X0.3384 Y-5.0473 F50.
G2 X0.3259 Y-5.056 I-0.0138 J0.0064
G1 X0.1618 Y-5.065 F60.
X0.1385 Y-5.0663
X-0.1182
X-0.1415 Y-5.0662
X-0.3981 Y-5.0521
X-0.4215 Y-5.0505
G2 X-0.4321 Y-5.0437 I0.0022 J0.0151
G1 X-0.4417 Y-5.0286
X-0.8034 Y-4.4641
X-0.8069 Y-4.4586 F50.
G2 X-0.8018 Y-4.4373 I0.0128 J0.0082
G1 X-0.5848 Y-4.3187 F60.
G2 X-0.075 Y-4.2749 I0.3235 J-0.7767
G3 X0.0685 Y-4.272 I0.0504 J1.0561
G2 X0.52 Y-4.2833 I0.198 J-1.1138
G1 X0.8617 Y-4.47
G2 X0.8692 Y-4.4831 I-0.0078 J-0.0131
X0.8515 Y-4.4981 I-0.0152 J0.
G3 X0.8457 Y-4.528 I-0.0025 J-0.015
G1 X1.0146 Y-4.5652
X1.0165 Y-4.5655
X1.0184 Y-4.5656
G2 X1.0487 Y-4.5722 I0.0023 J-0.0623 F50.
G1 X1.1282 Y-4.6156 F60.
G2 X1.1427 Y-4.9359 I-0.1721 J-0.1683
G1 X0.9784 Y-4.9726
X0.955 Y-4.9771
X0.9317 Y-4.981
G2 X0.9177 Y-4.9751 I-0.002 J0.0151
X0.9354 Y-4.8941 I0.0431 J0.033
X1.118 Y-4.92 I0.0734 J-0.1393
X1.1283 Y-4.9309 I-0.1092 J-0.1134 F50.
G3 X1.1427 Y-4.9359 I0.0116 J0.0099
G1 X1.1942 Y-4.9244 F60.
G3 X1.2824 Y-4.6999 I-0.0893 J0.1647
G1 X1.1282 Y-4.6156
G3 X1.113 Y-4.6165 I-0.0068 J-0.0136
X1.1024 Y-4.6649 I0.0194 J-0.0296
X1.2542 Y-4.7082 I0.1 J0.0628
X1.2673 Y-4.7008 I-0.0518 J0.1061 F50.
G2 X1.2824 Y-4.6999 I0.0084 J-0.0127
G1 X1.3187 Y-4.7198 F60.
X1.3254 Y-4.7253
X1.3316 Y-4.7314
X1.3374 Y-4.7378
X1.3428 Y-4.7446
X1.3477 Y-4.7517
X1.3521 Y-4.7592
X1.356 Y-4.767
X1.3594 Y-4.775
X1.3622 Y-4.7832
X1.3645 Y-4.7915
X1.3661 Y-4.8001
X1.3672 Y-4.8087
X1.3677 Y-4.8173
Y-4.826
X1.367 Y-4.8347
X1.3658 Y-4.8432
X1.3639 Y-4.8517
X1.3616 Y-4.8601
X1.3586 Y-4.8682
X1.3551 Y-4.8762
X1.3511 Y-4.8838
X1.2583 Y-4.909
X1.235 Y-4.9153
X1.1942 Y-4.9244
G2 X1.1915 Y-4.9247 I-0.0028 J0.015
G1 X1.1914
G2 X1.1799 Y-4.9194 I0. J0.0152
X1.1898 Y-4.8591 I0.0303 J0.026
X1.3243 Y-4.8688 I0.0603 J-0.1016
X1.3353 Y-4.8789 I-0.0743 J-0.0918 F50.
G3 X1.3499 Y-4.8832 I0.011 J0.0105
G1 X1.382 Y-4.8741 F60.
G3 X1.4364 Y-4.7824 I-0.0297 J0.0796
G1 X1.4336 Y-4.7811
X1.4306 Y-4.7804
X1.4276 Y-4.7802
X1.4246 Y-4.7806
X1.4218 Y-4.7815
X1.4192 Y-4.783
X1.417 Y-4.7848
X1.4151 Y-4.787
X1.4091 Y-4.7949
X1.3664 Y-4.85
X1.3646 Y-4.8529
X1.3636 Y-4.856
G3 X1.382 Y-4.8741 I0.0149 J-0.0033 F50.
G1 X1.456 Y-4.8533 F60.
G3 X1.488 Y-4.8123 I0.0048 J0.0293
X1.4367 Y-4.827 I-0.0177 J-0.0352
X1.4342 Y-4.8372 I0.0151 J-0.0092
X1.456 Y-4.8533 I0.0176 J0.0011 F50.
X1.5099 Y-4.8338 I0.0131 J0.0478 F60.
G1 X1.5104 Y-4.8319
X1.5105 Y-4.8313
X1.5104 Y-4.8294
X1.5103 Y-4.8287
X1.5092 Y-4.8268
X1.5088 Y-4.8261
X1.4999 Y-4.8187
X1.3187 Y-4.7198
G3 X1.2967 Y-4.7333 I-0.0068 J-0.0136
G1 X1.2966 Y-4.7362 Z-0.1672
Y-4.7391 Z-0.1663
Y-4.7417 Z-0.1649
Y-4.744 Z-0.163
Y-4.7459 Z-0.1607
Y-4.7473 Z-0.1581
Y-4.7482 Z-0.1552
Y-4.7485 Z-0.1523
G0 Z-0.137
X0.5496 Y-4.3183
G1 Z-0.1523 F50.
X0.5495 Y-4.318 Z-0.1552
X0.5491 Y-4.3173 Z-0.1581
X0.5483 Y-4.3161 Z-0.1607
X0.5474 Y-4.3144 Z-0.163
X0.5462 Y-4.3124 Z-0.1649
X0.5449 Y-4.3102 Z-0.1663
X0.5434 Y-4.3077 Z-0.1672
X0.5419 Y-4.3052 Z-0.1675
G3 X0.52 Y-4.2833 I-0.0536 J-0.0317
G1 X0.3484 Y-4.1895 F60.
G3 X0.3042 Y-4.1753 I-0.033 J-0.0266
X0.305 Y-4.2023 I0.0074 J-0.0133
G1 X0.3341 Y-4.2163
G3 X0.349 Y-4.2154 I0.0066 J0.0137
X0.3484 Y-4.1895 I-0.0083 J0.0128 F50.
X0.2785 Y-4.1905 I-0.0346 J-0.0262 F60.
G2 X0.0685 Y-4.272 I-0.2737 J0.3944
G3 X0.0597 Y-4.2771 I0.0029 J-0.015
G2 X0.0493 Y-4.2824 I-0.0116 J0.0099
G1 X0.0407 Y-4.283
X-0.0354 Y-4.2888
G2 X-0.0466 Y-4.285 I-0.0012 J0.0152
G3 X-0.0741 Y-4.2709 I-0.0414 J-0.0466 F50.
G2 X-0.2737 Y-4.1941 I0.0615 J0.4573 F60.
G3 X-0.3251 Y-4.1768 I-0.0409 J-0.0366
X-0.3238 Y-4.2037 I0.0078 J-0.0131
G1 X-0.2885 Y-4.2201
G3 X-0.2747 Y-4.2196 I0.0064 J0.0138
X-0.2735 Y-4.1937 I-0.0074 J0.0133 F50.
X-0.3237 Y-4.176 I-0.0342 J-0.0168 F60.
G1 X-0.5848 Y-4.3187
G0 Z0.4
X-0.9593 Y-4.5421
Z-0.137
G1 Z-0.1523 F50.
X-0.9596 Z-0.1552
X-0.9605 Z-0.1581
X-0.9619 Y-4.542 Z-0.1607
X-0.9638 Z-0.163
X-0.9661 Y-4.5419 Z-0.1649
X-0.9687 Y-4.5418 Z-0.1663
X-0.9715 Y-4.5417 Z-0.1672
X-0.9745 Y-4.5416 Z-0.1675
G3 X-1.0047 Y-4.5482 I-0.0023 J-0.0623
G1 X-1.1295 Y-4.6164 F60.
G3 X-1.1442 Y-4.9356 I0.1727 J-0.1679
G1 X-0.9815 Y-4.9719
G3 X-0.9787 Y-4.9721 I0.0028 J0.015
X-0.9672 Y-4.9668 I0. J0.0152
X-0.9753 Y-4.9088 I-0.0296 J0.0254
X-1.1194 Y-4.9198 I-0.0649 J-0.0987
X-1.1299 Y-4.9305 I0.0792 J-0.0876 F50.
G2 X-1.1442 Y-4.9356 I-0.0116 J0.0099
G1 X-1.1914 Y-4.925 F60.
G2 X-1.2831 Y-4.7003 I0.0827 J0.1648
G1 X-1.1295 Y-4.6164
G2 X-1.1143 Y-4.6172 I0.0068 J-0.0136
X-1.1039 Y-4.6666 I-0.0196 J-0.0299
X-1.2549 Y-4.7086 I-0.0991 J0.0642
X-1.2679 Y-4.7012 I0.0518 J0.1061 F50.
G3 X-1.2831 Y-4.7003 I-0.0084 J-0.0127
G1 X-1.3197 Y-4.7203 F60.
X-1.3263 Y-4.7258
X-1.3325 Y-4.7318
X-1.3383 Y-4.7382
X-1.3437 Y-4.745
X-1.3485 Y-4.7521
X-1.3529 Y-4.7596
X-1.3568 Y-4.7673
X-1.3601 Y-4.7753
X-1.3629 Y-4.7834
X-1.3652 Y-4.7918
X-1.3668 Y-4.8002
X-1.3679 Y-4.8088
X-1.3684 Y-4.8174
Y-4.8261
X-1.3677 Y-4.8347
X-1.3665 Y-4.8432
X-1.3647 Y-4.8516
X-1.3623 Y-4.8599
X-1.3594 Y-4.8681
X-1.3559 Y-4.876
X-1.3519 Y-4.8836
X-1.2614 Y-4.9081
X-1.238 Y-4.9146
X-1.1914 Y-4.925
G3 X-1.1886 Y-4.9253 I0.0028 J0.015
X-1.177 Y-4.92 I0. J0.0152
X-1.1848 Y-4.8625 I-0.0295 J0.0253
X-1.3251 Y-4.8686 I-0.0661 J-0.0979
X-1.3361 Y-4.8787 I0.0743 J-0.0918 F50.
G2 X-1.3507 Y-4.883 I-0.011 J0.0105
G1 X-1.3851 Y-4.8733 F60.
G2 X-1.4373 Y-4.7828 I0.0317 J0.0786
G1 X-1.3197 Y-4.7203
G2 X-1.2995 Y-4.7412 I0.0068 J-0.0136
G1 X-1.3628 Y-4.8562
X-1.3681 Y-4.8658 F50.
G2 X-1.3851 Y-4.8733 I-0.0133 J0.0073
G1 X-1.456 Y-4.8533 F60.
G2 X-1.4883 Y-4.8124 I-0.0047 J0.0295
G1 X-1.4348 Y-4.7832
G2 X-1.4196 Y-4.7841 I0.0068 J-0.0136
X-1.4159 Y-4.7971 I-0.0057 J-0.0087
X-1.4594 Y-4.819 I-0.0356 J0.0167
X-1.4731 Y-4.8133 I0.0078 J0.0386 F50.
G3 X-1.4883 Y-4.8124 I-0.0084 J-0.0127
G1 X-1.4996 Y-4.8186 F60.
X-1.5001 Y-4.8189
X-1.5025 Y-4.821
X-1.5042 Y-4.8223
X-1.5053 Y-4.8233
X-1.5081 Y-4.8258
X-1.509 Y-4.8267
X-1.5097 Y-4.8278
X-1.5103 Y-4.8288
X-1.5098 Y-4.8301
G3 X-1.4826 Y-4.8396 I0.0257 J0.0298
G1 X-1.481 Y-4.8395
G3 X-1.4767 Y-4.815 I-0.001 J0.0128
X-1.4841 Y-4.8141 I-0.0053 J-0.0117 F50.
X-1.5053 Y-4.8233 I0.0074 J-0.0461
G1 X-1.5086 Y-4.826 F60.
X-1.5092 Y-4.8266
X-1.51 Y-4.8283
X-1.5103 Y-4.8289
X-1.5105 Y-4.8312
G3 X-1.456 Y-4.8533 I0.0379 J0.0152
X-1.4371 Y-4.8386 I0.0036 J0.0148
G1 X-1.4375 Y-4.8352
X-1.4382 Y-4.8323 Z-0.1672
X-1.4388 Y-4.8295 Z-0.1663
X-1.4394 Y-4.827 Z-0.1649
X-1.4399 Y-4.8247 Z-0.163
X-1.4403 Y-4.8229 Z-0.1607
X-1.4406 Y-4.8215 Z-0.1581
X-1.4408 Y-4.8206 Z-0.1552
Y-4.8204 Z-0.1523
G0 Z0.6
X1.5719 Y-4.1485
Z0.1
G3 X1.6475 Y-4.0252 Z0.0599 I0.0378 J0.0617 F50.
X1.5719 Y-4.1485 Z0.0199 I-0.0378 J-0.0617
X1.6475 Y-4.0252 Z-0.0202 I0.0378 J0.0617
X1.5719 Y-4.1485 Z-0.0603 I-0.0378 J-0.0617
X1.6475 Y-4.0252 Z-0.1004 I0.0378 J0.0617
X1.5719 Y-4.1485 Z-0.1404 I-0.0378 J-0.0617
X1.6821 Y-4.0869 Z-0.1675 I0.0378 J0.0617
X1.5374 I-0.0723 J0.
X1.6818 Y-4.0926 I0.0723 J0.
G1 X1.6821 Y-4.0869
G3 X1.6899 Y-3.9987 I-0.0364 J0.0477 F60.
G2 X1.572 Y-3.9838 I-0.0314 J0.2257
G1 X1.5639 Y-3.9833
X1.5559 Y-3.9835
X1.5478 Y-3.9843
X1.5399 Y-3.9856
X1.532 Y-3.9876
X1.5244 Y-3.9901
X1.5169 Y-3.9932
X1.5097 Y-3.9968
X1.5028 Y-4.0009
X1.4962 Y-4.0056
X1.49 Y-4.0107
X1.4841 Y-4.0163
X1.4787 Y-4.0223
X1.4738 Y-4.0286
X1.4693 Y-4.0354
X1.4654 Y-4.0424
X1.462 Y-4.0497
X1.4591 Y-4.0573
X1.4568 Y-4.065
X1.4551 Y-4.0729
X1.454 Y-4.0809
X1.4535 Y-4.0889
Y-4.097
X1.4542 Y-4.105
X1.4554 Y-4.113
X1.4573 Y-4.1208
X1.4597 Y-4.1285
X1.4627 Y-4.136
X1.4662 Y-4.1433
X1.4703 Y-4.1502
G2 X1.6114 Y-4.198 I-0.6495 J-2.1498
G3 X1.7735 Y-3.9726 I0.0347 J0.146
G1 X1.7689 Y-3.9585
X1.7677 Y-3.9572
X1.765 Y-3.9552
X1.7618 Y-3.9543
X1.7585 Y-3.9546
G2 X1.6899 Y-3.9987 I-0.1141 J0.102
G3 X1.6801 Y-4.0103 I0.0051 J-0.0143
X1.694 Y-4.0227 I0.0108 J-0.002
X1.7432 Y-3.9798 I-0.0225 J0.0755
X1.748 Y-3.9656 I-0.0717 J0.0325 F50.
G2 X1.7585 Y-3.9546 I0.0148 J-0.0035
G1 X1.7822 Y-3.9484 F60.
G2 X1.8722 Y-4.0908 I-0.0114 J-0.1068
G1 X1.8432 Y-4.1242
X1.8331 Y-4.1336
X1.8335 Y-4.1406
X1.8324 Y-4.1508
X1.8306 Y-4.1608
X1.8283 Y-4.1707
X1.8254 Y-4.1805
X1.8218 Y-4.1901
X1.8178 Y-4.1994
X1.8131 Y-4.2085
X1.808 Y-4.2173
X1.8023 Y-4.2257
X1.7961 Y-4.2338
X1.7894 Y-4.2416
X1.7823 Y-4.2489
X1.7748 Y-4.2557
X1.7668 Y-4.2621
X1.7585 Y-4.268
X1.7498 Y-4.2734
X1.7409 Y-4.2783
X1.7316 Y-4.2826
X1.7222 Y-4.2863
X1.7125 Y-4.2895
X1.7026 Y-4.2921
X1.6926 Y-4.2941
G3 X1.6114 Y-4.198 I-0.3521 J-0.2154
G2 X1.6207 Y-4.1715 I0.0102 J0.0113
X1.6552 Y-4.1873 I0.0022 J-0.0406
X1.6862 Y-4.2621 I-0.1251 J-0.0957
X1.6876 Y-4.281 I-0.1561 J-0.0209 F50.
G3 X1.6922 Y-4.2917 I0.0152 J0.0002
X1.8348 Y-4.1807 I0.0596 J0.0705 F60.
G1 X1.8335 Y-4.1406
G3 X1.8104 Y-4.1289 I-0.0152 J-0.0013
G1 X1.8079 Y-4.1305 Z-0.1672
X1.8054 Y-4.132 Z-0.1663
X1.8032 Y-4.1333 Z-0.1649
X1.8012 Y-4.1345 Z-0.163
X1.7996 Y-4.1355 Z-0.1607
X1.7984 Y-4.1363 Z-0.1581
X1.7976 Y-4.1367 Z-0.1552
X1.7974 Y-4.1369 Z-0.1523
G0 Z-0.137
X1.8317 Y-4.1123
G1 Z-0.1523 F50.
X1.832 Y-4.1122 Z-0.1552
X1.8328 Y-4.1119 Z-0.1581
X1.8342 Y-4.1115 Z-0.1607
X1.836 Y-4.1109 Z-0.163
X1.8381 Y-4.1102 Z-0.1649
X1.8406 Y-4.1093 Z-0.1663
X1.8434 Y-4.1084 Z-0.1672
X1.8462 Y-4.1075 Z-0.1675
G3 X1.8722 Y-4.0908 I-0.0196 J0.0592
X1.782 Y-3.9475 I-0.0763 J0.052 F60.
G1 X1.7793 Y-3.9487
X1.7768 Y-3.9503
X1.7747 Y-3.9524
X1.773 Y-3.9548
X1.7718 Y-3.9574
X1.7711 Y-3.9603
X1.771 Y-3.9631
X1.7713 Y-3.966
X1.7722 Y-3.9687
X1.7736 Y-3.9712
X1.7754 Y-3.9734
X1.7774 Y-3.9756 Z-0.1672
X1.7793 Y-3.9777 Z-0.1663
X1.7811 Y-3.9796 Z-0.1649
X1.7827 Y-3.9813 Z-0.163
X1.784 Y-3.9827 Z-0.1607
X1.785 Y-3.9837 Z-0.1581
X1.7855 Y-3.9843 Z-0.1552
X1.7857 Y-3.9845 Z-0.1523
G0 Z0.4
X1.6078 Y-4.0123
Z-0.137
G1 Z-0.1523 F50.
X1.6076 Y-4.0121 Z-0.1552
X1.6071 Y-4.0114 Z-0.1581
X1.6061 Y-4.0104 Z-0.1607
X1.6049 Y-4.009 Z-0.163
X1.6033 Y-4.0073 Z-0.1649
X1.6016 Y-4.0053 Z-0.1663
X1.5997 Y-4.0032 Z-0.1672
X1.5977 Y-4.001 Z-0.1675
G3 X1.572 Y-3.9838 I-0.0464 J-0.0416
G1 X1.563 Y-3.981 F60.
X1.5163 Y-3.964
X1.505 Y-3.9593
X1.4962 Y-3.9586
X1.4875
X1.4787 Y-3.9592
X1.4701 Y-3.9604
X1.4615 Y-3.9623
X1.4531 Y-3.9647
X1.4449 Y-3.9677
X1.4369 Y-3.9713
X1.4292 Y-3.9755
X1.4218 Y-3.9802
X1.4148 Y-3.9854
X1.4081 Y-3.9911
X1.4019 Y-3.9973
X1.3961 Y-4.0039
X1.3909 Y-4.0109
X1.3861 Y-4.0182
X1.3819 Y-4.0259
X1.3782 Y-4.0338
X1.3751 Y-4.042
X1.3726 Y-4.0504
X1.3706 Y-4.059
X1.3694 Y-4.0676
X1.3687 Y-4.0764
X1.3686 Y-4.0851
X1.3692 Y-4.0939
X1.3704 Y-4.1025
X1.3722 Y-4.1111
G3 X1.4703 Y-4.1502 I1.5182 J3.6642
X1.4851 Y-4.1468 I0.0044 J0.0146
X1.4813 Y-4.1033 I-0.0189 J0.0203
X1.401 Y-4.1 I-0.0429 J-0.066
X1.3886 Y-4.1083 I0.0374 J-0.0693 F50.
G2 X1.3735 Y-4.1108 I-0.0096 J0.0118
G1 X1.351 Y-4.1013 F60.
G2 X1.3611 Y-3.9188 I0.0788 J0.0872
X1.505 Y-3.9593 I-0.0494 J-0.4508
X1.5138 Y-3.9717 I-0.0064 J-0.0138
X1.5034 Y-3.9823 I-0.0097 J-0.0009
X1.3866 Y-3.9333 I0.0137 J0.1964
G1 X1.3758 Y-3.9229 F50.
G3 X1.3611 Y-3.9188 I-0.0109 J-0.0106
X1.3511 Y-4.1008 I0.013 J-0.092 F60.
G1 X1.3499 Y-4.1088
X1.3494 Y-4.117
Y-4.1251
X1.3499 Y-4.1332
X1.3511 Y-4.1413
X1.3528 Y-4.1493
X1.3551 Y-4.1571
X1.3579 Y-4.1647
X1.3613 Y-4.1722
X1.3652 Y-4.1793
X1.3696 Y-4.1862
X1.3744 Y-4.1927
X1.3797 Y-4.1989
X1.3855 Y-4.2047
X1.3916 Y-4.21
X1.3981 Y-4.2149
X1.405 Y-4.2194
X1.4121 Y-4.2233
X1.4195 Y-4.2267
X1.4271 Y-4.2296
X1.4349 Y-4.2319
X1.4429 Y-4.2337
G2 X1.6699 Y-4.3875 I-0.7291 J-1.3207
G3 X1.9342 Y-4.1957 I0.0761 J0.1732
G1 X1.9413 Y-4.1871
X1.948 Y-4.1782
X1.9541 Y-4.1688
X1.9597 Y-4.1592
X1.9648 Y-4.1492
X1.9694 Y-4.139
X1.9733 Y-4.1286
X1.9767 Y-4.1179
X1.9795 Y-4.1071
X1.9817 Y-4.0962
X1.9833 Y-4.0851
X1.9843 Y-4.074
X1.9847 Y-4.0628
X1.9844 Y-4.0516
X1.9836 Y-4.0405
X1.9821 Y-4.0294
X1.98 Y-4.0184
X1.9773 Y-4.0076
X1.9741 Y-3.9969
X1.9702 Y-3.9864
X1.9658 Y-3.9762
X1.9608 Y-3.9662
X1.9553 Y-3.9564
X1.9493 Y-3.947
X1.9427 Y-3.938
X1.9357 Y-3.9293
X1.9282 Y-3.921
X1.9202 Y-3.9132
X1.9119 Y-3.9058
X1.9031 Y-3.8988
X1.894 Y-3.8924
X1.8845 Y-3.8865
X1.8747 Y-3.8811
X1.8647 Y-3.8762
X1.8543 Y-3.8719
X1.8438 Y-3.8682
X1.8331 Y-3.8651
X1.8222 Y-3.8625
X1.8112 Y-3.8606
X1.8001 Y-3.8592
X1.789 Y-3.8585
X1.7778 Y-3.8584
X1.7666 Y-3.8589
X1.7555 Y-3.86
X1.7445 Y-3.8617
X1.7336 Y-3.8641
X1.7228 Y-3.867
X1.7122 Y-3.8705
X1.7018 Y-3.8746
X1.6916 Y-3.8793
X1.6817 Y-3.8845
X1.6722 Y-3.8902
G2 X1.3786 Y-3.8233 I6.2958 J28.3066
G3 X1.1949 Y-3.9842 I0.0038 J-0.1897
X1.4868 Y-4.3701 I0.437 J0.0272
G1 X1.6549 Y-4.4678
X1.6663 Y-4.4731
X1.6779 Y-4.4777
X1.6896 Y-4.4818
X1.7016 Y-4.4853
X1.7138 Y-4.4882
X1.726 Y-4.4904
X1.7384 Y-4.4921
X1.7508 Y-4.4931
X1.7633 Y-4.4935
X1.7758 Y-4.4932
X1.7882 Y-4.4924
X1.8006 Y-4.4909
X1.8129 Y-4.4888
X1.8251 Y-4.4861
X1.8371 Y-4.4828
X1.849 Y-4.4789
X1.8606 Y-4.4744
X1.872 Y-4.4693
X1.8831 Y-4.4636
X1.894 Y-4.4574
X1.9045 Y-4.4507
X1.9146 Y-4.4434
X1.9244 Y-4.4357
X1.9338 Y-4.4275
X1.9427 Y-4.4188
X1.9512 Y-4.4096
X1.9593 Y-4.4001
X1.9668 Y-4.3902
X1.9738 Y-4.3799
X2.0612 Y-4.0833
G3 X1.7778 Y-3.765 I-0.2612 J0.0528
G2 X1.4737 Y-3.7531 I-0.1384 J0.3528
G3 X1.3565 Y-3.7323 I-0.0922 J-0.1794
X1.3591 Y-3.7615 I0.0054 J-0.0142
X1.4714 Y-3.7801 I0.0802 J0.1363
G1 X1.4739 Y-3.7788
G3 X1.4738 Y-3.7529 I-0.0081 J0.0129 F50.
X1.375 Y-3.726 I-0.0633 J-0.0374 F60.
G1 X1.2583 Y-3.7659
X1.2465 Y-3.7719
X1.2349 Y-3.7784
X1.2237 Y-3.7855
X1.2128 Y-3.7931
X1.2023 Y-3.8012
X1.1922 Y-3.8097
X1.1825 Y-3.8188
X1.1733 Y-3.8283
X1.1645 Y-3.8382
X1.1561 Y-3.8486
X1.1483 Y-3.8593
X1.141 Y-3.8703
X1.1342 Y-3.8817
X1.128 Y-3.8934
X1.1223 Y-3.9054
X1.1172 Y-3.9177
X1.1127 Y-3.9302
X1.1088 Y-3.9428
X1.1055 Y-3.9557
X1.1028 Y-3.9687
X1.1007 Y-3.9818
X1.0992 Y-3.9949
X1.0983 Y-4.0082
X1.0981 Y-4.0214
X1.0985 Y-4.0347
X1.0995 Y-4.0479
X1.1012 Y-4.0611
X1.1035 Y-4.0742
X1.1064 Y-4.0871
X1.1099 Y-4.0999
X1.1139 Y-4.1125
X1.1186 Y-4.1249
X1.1239 Y-4.1371
X1.1297 Y-4.149
X1.1361 Y-4.1606
X1.1431 Y-4.172
X1.1505 Y-4.1829
X1.1585 Y-4.1935
X1.485 Y-4.375
G3 X1.5002 Y-4.3741 I0.0068 J0.0136
X1.5217 Y-4.3076 I-0.0306 J0.0466
X1.1842 Y-4.1866 I-0.2207 J-0.0843
G1 X1.1714 Y-4.1944 F50.
G2 X1.1562 Y-4.1953 I-0.0084 J0.0127
G1 X1.0795 Y-4.1533 F60.
G2 X1.0559 Y-3.8275 I0.1847 J0.1771
G1 X1.165 Y-3.7977
X1.1883 Y-3.7898
X1.2583 Y-3.7659
G2 X1.2732 Y-3.7693 I0.0044 J-0.0146
X1.262 Y-3.8613 I-0.0391 J-0.0419
X1.0813 Y-3.8423 I-0.0769 J0.1374
X1.0705 Y-3.8319 I0.1038 J0.1184 F50.
G3 X1.0559 Y-3.8275 I-0.0111 J-0.0104
G1 X1.0017 Y-3.8423 F60.
G3 X0.9247 Y-4.0688 I0.1058 J-0.1623
G1 X1.0795 Y-4.1533
G3 X1.0947 Y-4.1525 I0.0068 J0.0136
X1.1053 Y-4.1047 I-0.0193 J0.0294
X0.9529 Y-4.0605 I-0.1006 J-0.0619
X0.9399 Y-4.0679 I0.0518 J-0.1061 F50.
G2 X0.9247 Y-4.0688 I-0.0084 J0.0127
G1 X0.885 Y-4.0471 F60.
G2 X0.8541 Y-3.8766 I0.0855 J0.1036
G1 X0.9084 Y-3.8668
X0.9317 Y-3.8613
X1.0017 Y-3.8423
G2 X1.0181 Y-3.8651 I0.0035 J-0.0148
X1.0045 Y-3.8797 I-0.0436 J0.027
X0.8833 Y-3.8899 I-0.0691 J0.0958
X0.8671 Y-3.8802 I0.0521 J0.106 F50.
G3 X0.8557 Y-3.8776 I-0.0088 J-0.0124
G1 X0.8256 Y-3.8838 F60.
G3 X0.7654 Y-3.9833 I0.028 J-0.0849
G1 X0.7682 Y-3.9846
X0.7712 Y-3.9854
X0.7743 Y-3.9855
X0.7773 Y-3.9851
X0.7801 Y-3.9841
X0.7826 Y-3.9827
X0.7849 Y-3.9808
X0.7867 Y-3.9786
X0.7926 Y-3.9707
X0.8402 Y-3.908
X0.8417 Y-3.9057
X0.8427 Y-3.9032
G3 X0.8256 Y-3.8838 I-0.0146 J0.0044 F50.
G1 X0.753 Y-3.8987 F60.
G3 X0.7075 Y-3.9501 I0.0005 J-0.0463
X0.7217 Y-3.9498 I0.0068 J0.0136
G1 X0.7359 Y-3.942
X0.7629 Y-3.927
G3 X0.7701 Y-3.9181 I-0.0074 J0.0133
X0.753 Y-3.8987 I-0.0146 J0.0044 F50.
G1 X0.6984 Y-3.9099 F60.
X0.6886 Y-3.9125
X0.6829 Y-3.9144
X0.6777 Y-3.9173
X0.677 Y-3.9179
X0.6744 Y-3.9212
X0.6735 Y-3.9253
X0.6744 Y-3.9294
X0.677 Y-3.9327
G3 X0.6813 Y-3.9336 I0.0031 J0.0042
X0.684 Y-3.932 I-0.0012 J0.0051 F50.
G1 X0.6937 Y-3.921
G3 X0.6886 Y-3.9125 I-0.0039 J0.0035
G1 X0.6751 Y-3.9162 F60.
X0.6733 Y-3.9168
X0.672 Y-3.9179
X0.6712 Y-3.9186
X0.67 Y-3.9207
X0.6699 Y-3.9214
X0.6696 Y-3.9228
Y-3.9235
X0.67 Y-3.9256
X0.6702 Y-3.9263
G3 X0.6801 Y-3.9351 I0.0184 J0.0106
G1 X0.885 Y-4.0471
G3 X0.9071 Y-4.0336 I0.0068 J0.0136
G1 Y-4.0306 Z-0.1672
Y-4.0277 Z-0.1663
X0.9072 Y-4.0251 Z-0.1649
Y-4.0228 Z-0.163
Y-4.0209 Z-0.1607
Y-4.0195 Z-0.1581
Y-4.0186 Z-0.1552
Y-4.0183 Z-0.1523
G0 Z-0.137
X1.743 Y-3.7946
G1 Z-0.1523 F50.
X1.7432 Y-3.7943 Z-0.1552
X1.7437 Y-3.7937 Z-0.1581
X1.7446 Y-3.7926 Z-0.1607
X1.7458 Y-3.7911 Z-0.163
X1.7473 Y-3.7893 Z-0.1649
X1.749 Y-3.7873 Z-0.1663
X1.7508 Y-3.7851 Z-0.1672
X1.7527 Y-3.7828 Z-0.1675
G2 X1.7778 Y-3.7647 I0.0479 J-0.0398
G3 X1.8533 Y-3.7258 I-0.065 J0.2187 F60.
G2 X2.1228 Y-3.8733 I0.0511 J-0.2266
G1 X2.0612 Y-4.0833
G2 X2.0498 Y-4.0935 I-0.0145 J0.0048
X1.986 Y-4.0435 I-0.0108 J0.0519
X2.0969 Y-3.8871 I0.1574 J0.0059
X2.1114 Y-3.8834 I0.0465 J-0.1505 F50.
G3 X2.1228 Y-3.8733 I-0.0031 J0.0149
G1 X2.1385 Y-3.8196 F60.
Y-3.809
X2.1379 Y-3.7984
X2.1367 Y-3.7878
X2.1349 Y-3.7774
X2.1325 Y-3.767
X2.1295 Y-3.7568
X2.126 Y-3.7468
X2.1219 Y-3.737
X2.1172 Y-3.7275
X2.112 Y-3.7182
X2.1063 Y-3.7092
X2.1001 Y-3.7006
X2.0934 Y-3.6923
X2.0863 Y-3.6845
X2.0787 Y-3.677
X2.0708 Y-3.67
X2.0624 Y-3.6634
X2.0537 Y-3.6574
X2.0447 Y-3.6518
X2.0353 Y-3.6468
X2.0257 Y-3.6422
X2.0159 Y-3.6383
X2.0058 Y-3.6349
X1.9956 Y-3.632
X1.9852 Y-3.6298
X1.9747 Y-3.6281
X1.9641 Y-3.6271
X1.9535 Y-3.6266
G2 X1.8777 Y-3.71 I-0.2815 J0.1798
G3 X1.8735 Y-3.7246 I0.0106 J-0.011
X1.9298 Y-3.7455 I0.0352 J0.0087
X1.959 Y-3.6574 I-0.0458 J0.0641
X1.9531 Y-3.6437 I-0.075 J-0.024 F50.
G2 X1.9535 Y-3.6284 I0.0134 J0.0073
G1 X1.9689 Y-3.605 F60.
G2 X2.1838 Y-3.6653 I0.0805 J-0.126
G1 X2.1385 Y-3.8196
G2 X2.1272 Y-3.8297 I-0.0145 J0.0048
X2.0783 Y-3.7893 I-0.0083 J0.0398
X2.158 Y-3.6794 I0.1181 J-0.0018
X2.1724 Y-3.6755 I0.0384 J-0.1117 F50.
G3 X2.1838 Y-3.6653 I-0.0031 J0.0149
G1 X2.1935 Y-3.6321 F60.
X2.1936 Y-3.6229
X2.193 Y-3.6138
X2.1919 Y-3.6047
X2.1902 Y-3.5958
X2.1879 Y-3.5869
X2.185 Y-3.5782
X2.1815 Y-3.5698
X2.1775 Y-3.5615
X2.173 Y-3.5536
X2.168 Y-3.546
X2.1624 Y-3.5387
X2.1564 Y-3.5318
X2.15 Y-3.5253
X2.1431 Y-3.5192
X2.1359 Y-3.5137
X2.1283 Y-3.5086
X2.1204 Y-3.504
X2.1122 Y-3.4999
X2.1037 Y-3.4964
X2.0951 Y-3.4934
X2.0863 Y-3.4911
X2.0773 Y-3.4893
X2.0682 Y-3.4881
X2.0591 Y-3.4875
X2.05
X2.0408 Y-3.4881
X2.0318 Y-3.4893
X2.0228 Y-3.4911
X2.014 Y-3.4935
G2 X1.9689 Y-3.605 I-0.3139 J0.0621
G3 X1.9685 Y-3.6202 I0.013 J-0.0079
X2.028 Y-3.6293 I0.0332 J0.0181
X2.0317 Y-3.5198 I-0.0547 J0.0567
X2.0206 Y-3.5097 I-0.0584 J-0.0529 F50.
G2 X2.0147 Y-3.4957 I0.0092 J0.0122
G1 X2.0176 Y-3.4767 F60.
X2.0227 Y-3.4696
X2.0284 Y-3.4628
X2.0344 Y-3.4565
X2.0409 Y-3.4507
X2.0478 Y-3.4453
X2.0551 Y-3.4403
X2.0626 Y-3.4359
X2.0705 Y-3.4321
X2.0786 Y-3.4288
X2.0869 Y-3.4261
X2.0954 Y-3.424
X2.104 Y-3.4224
X2.1128 Y-3.4215
X2.1215 Y-3.4212
X2.1303 Y-3.4215
X2.139 Y-3.4224
X2.1476 Y-3.4239
X2.1561 Y-3.426
X2.1644 Y-3.4287
X2.1725 Y-3.432
X2.1804 Y-3.4359
X2.188 Y-3.4403
X2.1952 Y-3.4452
X2.2021 Y-3.4506
X2.2086 Y-3.4564
X2.2147 Y-3.4627
X2.2203 Y-3.4694
X2.2254 Y-3.4765
X2.2301 Y-3.484
X2.2342 Y-3.4917
X2.1935 Y-3.6321
G2 X2.1821 Y-3.6422 I-0.0145 J0.0048
X2.1321 Y-3.5914 I-0.0086 J0.0415
X2.209 Y-3.5055 I0.1153 J-0.0258
X2.2234 Y-3.5015 I0.0384 J-0.1117 F50.
G3 X2.2348 Y-3.4914 I-0.0031 J0.0149
G1 X2.2429 Y-3.4638 F60.
G3 X2.1433 Y-3.3442 I-0.1113 J0.0087
X2.0282 Y-3.4176 I0.1902 J-0.425
X2.0176 Y-3.4767 I0.2543 J-0.0762
X2.0343 Y-3.4935 I0.0151 J-0.0017
G1 X2.038 Y-3.4932
X2.2166 Y-3.4755
X2.2299 Y-3.4742 F50.
G3 X2.2429 Y-3.4638 I-0.0015 J0.0152
G1 X2.2642 Y-3.3909 F60.
X2.2657 Y-3.3837
X2.2665 Y-3.3765
X2.2667 Y-3.3692
X2.2663 Y-3.3619
X2.2654 Y-3.3546
X2.2638 Y-3.3475
X2.2617 Y-3.3405
X2.259 Y-3.3337
X2.2557 Y-3.3272
X2.252 Y-3.3209
X2.2477 Y-3.315
X2.243 Y-3.3094
X2.2378 Y-3.3042
X2.2323 Y-3.2995
X2.2263 Y-3.2953
X2.2201 Y-3.2915
X2.2177 Y-3.2932
X2.2157 Y-3.2952
X2.2141 Y-3.2975
X2.2129 Y-3.3
X2.2122 Y-3.3027
X2.212 Y-3.3054
X2.2122 Y-3.3081
X2.2129 Y-3.3107
X2.2162 Y-3.3226
G3 X2.2391 Y-3.3969 I0.1156 J-0.0051
X2.2642 Y-3.3909 I0.0107 J0.0108 F50.
G1 X2.287 Y-3.3133 F60.
G3 X2.2679 Y-3.261 I-0.0267 J0.0199
X2.2606 Y-3.3184 I0.0228 J-0.0321
X2.2618 Y-3.3197 I0.0118 J0.0099
X2.287 Y-3.3133 I0.0106 J0.0112 F50.
G1 X2.3017 Y-3.263 F60.
X2.3023 Y-3.2582
X2.3029 Y-3.2527
X2.3028 Y-3.252
X2.3024 Y-3.2505
X2.3022 Y-3.2497
G3 X2.2615 Y-3.2652 I-0.0168 J-0.017
G1 X2.1682 Y-3.3283
X2.1554 Y-3.3367
X2.1433 Y-3.3442
G3 X2.1442 Y-3.37 I0.0085 J-0.0126
G1 X2.1468 Y-3.3715 Z-0.1672
X2.1493 Y-3.3729 Z-0.1663
X2.1516 Y-3.3742 Z-0.1649
X2.1536 Y-3.3754 Z-0.163
X2.1552 Y-3.3763 Z-0.1607
X2.1564 Y-3.377 Z-0.1581
X2.1572 Y-3.3775 Z-0.1552
X2.1574 Y-3.3776 Z-0.1523
G0 Z-0.137
X1.9704 Y-4.3344
G1 Z-0.1523 F50.
Y-4.3347 Z-0.1552
X1.9707 Y-4.3355 Z-0.1581
X1.971 Y-4.3369 Z-0.1607
X1.9715 Y-4.3387 Z-0.163
X1.9721 Y-4.341 Z-0.1649
X1.9727 Y-4.3435 Z-0.1663
X1.9734 Y-4.3463 Z-0.1672
X1.9742 Y-4.3492 Z-0.1675
G2 Y-4.3801 I-0.0604 J-0.0155
G1 X1.9449 Y-4.48 F60.
G2 X1.8421 Y-4.5714 I-0.1346 J0.0479
G1 X1.6549 Y-4.4678
G2 X1.6639 Y-4.4396 I0.0078 J0.0131
G1 X1.9269 Y-4.4607
X1.9313 Y-4.4611 F50.
G2 X1.9449 Y-4.48 I-0.0012 J-0.0152
G1 X1.9133 Y-4.5878 F60.
X1.9085 Y-4.5973
X1.9079 Y-4.5979
X1.9065 Y-4.5992
X1.9054 Y-4.5997
G2 X1.8417 Y-4.5699 I-0.0117 J0.058
X1.8343 Y-4.5568 I0.0078 J0.0131
G1 Y-4.5557
X1.8345 Y-4.5527 Z-0.1672
X1.8348 Y-4.5499 Z-0.1663
X1.8349 Y-4.5472 Z-0.1649
X1.8351 Y-4.5449 Z-0.163
X1.8353 Y-4.543 Z-0.1607
X1.8354 Y-4.5416 Z-0.1581
Y-4.5408 Z-0.1552
X1.8355 Y-4.5405 Z-0.1523
G0 Z0.6
X2.7395 Y-3.9617
Z0.1
G3 X2.8151 Y-3.8384 Z0.0599 I0.0378 J0.0617 F50.
X2.7395 Y-3.9617 Z0.0199 I-0.0378 J-0.0617
X2.8151 Y-3.8384 Z-0.0202 I0.0378 J0.0617
X2.7395 Y-3.9617 Z-0.0603 I-0.0378 J-0.0617
X2.8151 Y-3.8384 Z-0.1004 I0.0378 J0.0617
X2.7395 Y-3.9617 Z-0.1404 I-0.0378 J-0.0617
X2.8496 Y-3.9 Z-0.1675 I0.0378 J0.0617
X2.7049 I-0.0723 J0.
X2.8494 Y-3.9058 I0.0723 J0.
G1 X2.8496 Y-3.9
X2.8542 Y-3.8943 F60.
X2.8583 Y-3.8882
X2.8619 Y-3.8817
X2.865 Y-3.875
X2.8674 Y-3.8681
X2.8693 Y-3.8609
X2.8706 Y-3.8537
X2.8713 Y-3.8464
X2.8714 Y-3.839
X2.8709 Y-3.8316
X2.8698 Y-3.8244
X2.8681 Y-3.8172
X2.8658 Y-3.8102
X2.8629 Y-3.8034
X2.8595 Y-3.7969
X2.8555 Y-3.7907
X2.8511 Y-3.7848
X2.8462 Y-3.7793
X2.8408 Y-3.7742
X2.8351 Y-3.7696
X2.829 Y-3.7655
X2.8225 Y-3.7619
X2.8158 Y-3.7589
X2.8089 Y-3.7564
X2.8018 Y-3.7545
X2.7945 Y-3.7532
X2.7872 Y-3.7525
X2.7798 Y-3.7524
G3 X2.6851 Y-3.9 I1.5318 J-1.0869
X2.8745 Y-3.9458 I0.0957 J-0.0189
G1 X2.9115 Y-3.9
X2.9304 Y-3.8723
G3 X2.8331 Y-3.6751 I-0.1262 J0.0604
G1 X2.8164 Y-3.7021
X2.8088 Y-3.7132
X2.7799 Y-3.7551
G3 X2.7792 Y-3.7703 I0.0128 J-0.0082
X2.8288 Y-3.7722 I0.0253 J0.0131
X2.8374 Y-3.7078 I-0.0668 J0.0417
X2.8317 Y-3.694 I-0.0754 J-0.0228 F50.
G2 X2.8323 Y-3.6787 I0.0135 J0.0071
G1 X2.8406 Y-3.6665 F60.
X2.8423 Y-3.664
G2 X3.0172 Y-3.7439 I0.0632 J-0.093
X2.9304 Y-3.8723 I-4.8578 J3.1898
X2.9164 Y-3.8785 I-0.0123 J0.009
X2.8837 Y-3.8241 I0.0043 J0.0396
X2.9889 Y-3.7499 I0.1097 J-0.0438
X3.0039 Y-3.7503 I0.0045 J-0.118 F50.
G3 X3.0177 Y-3.7438 I0.0014 J0.0152
G1 X3.0334 Y-3.7198 F60.
X3.0361 Y-3.7116
X3.0382 Y-3.7033
X3.0397 Y-3.6949
X3.0405 Y-3.6863
X3.0408 Y-3.6778
X3.0405 Y-3.6692
X3.0395 Y-3.6607
X3.0379 Y-3.6522
X3.0358 Y-3.6439
X3.033 Y-3.6358
X3.0297 Y-3.6279
X3.0258 Y-3.6203
X3.0214 Y-3.6129
X3.0165 Y-3.6059
X3.0111 Y-3.5992
X3.0052 Y-3.593
X2.9989 Y-3.5872
X2.9922 Y-3.5818
X2.9851 Y-3.577
X2.9777 Y-3.5727
X2.97 Y-3.5689
X2.9621 Y-3.5656
X2.9539 Y-3.563
X2.9456 Y-3.5609
X2.9371 Y-3.5594
X2.9286 Y-3.5586
X2.92 Y-3.5583
X2.9115 Y-3.5587
X2.9027 Y-3.5731
X2.8707 Y-3.6206
X2.8423 Y-3.664
G3 X2.842 Y-3.6792 I0.013 J-0.0079
X2.8621 Y-3.6877 I0.0155 J0.0085
X2.9166 Y-3.589 I-0.0208 J0.0759
X2.911 Y-3.5752 I-0.0754 J-0.0227 F50.
G2 X2.9116 Y-3.56 I0.0135 J0.0071
G1 X2.9259 Y-3.5389 F60.
G2 X3.1112 Y-3.6039 I0.0716 J-0.0925
X3.0334 Y-3.7198 I-14.1618 J9.4277
X3.0196 Y-3.7262 I-0.0125 J0.0088
X2.9897 Y-3.6656 I0.0035 J0.0395
X3.0821 Y-3.6108 I0.0998 J-0.0631
X3.0971 I0.0074 J-0.1179 F50.
G3 X3.1107 Y-3.6041 I0.001 J0.0152
G1 X3.1258 Y-3.5797 F60.
G3 X2.995 Y-3.4292 I-0.1147 J0.0324
G1 X2.9637 Y-3.4797
X2.9345 Y-3.5264
X2.9259 Y-3.5389
G3 X2.9253 Y-3.5541 I0.0129 J-0.0081
X2.9406 Y-3.5615 I0.0127 J0.0066
X3.001 Y-3.4592 I-0.0142 J0.0774
X2.995 Y-3.4455 I-0.0747 J-0.0249 F50.
G2 X2.9951 Y-3.4303 I0.0133 J0.0075
G1 X3.0093 Y-3.4082 F60.
G2 X3.1982 Y-3.4664 I0.0757 J-0.0902
G3 X3.1258 Y-3.5797 I8.1304 J-5.2788
G2 X3.0982 Y-3.5742 I-0.0127 J0.0085
X3.1002 Y-3.5483 I0.0472 J0.0094
X3.1696 Y-3.4783 I0.1109 J-0.0406
X3.1878 Y-3.4731 I0.0415 J-0.1106 F50.
G3 X3.1975 Y-3.4666 I-0.003 J0.0149
G1 X3.2111 Y-3.4447 F60.
G3 X3.0792 Y-3.2959 I-0.1132 J0.0325
G2 X3.0093 Y-3.4082 I-12.2116 J7.5301
G3 X3.0091 Y-3.4234 I0.0131 J-0.0078
X3.02 Y-3.4289 I0.0095 J0.0054
G1 X3.022 Y-3.4286
G3 X3.0853 Y-3.3256 I-0.0114 J0.0779
X3.0792 Y-3.3119 I-0.0746 J-0.0251 F50.
G2 X3.0793 Y-3.2967 I0.0133 J0.0075
G1 X3.0818 Y-3.2928 F60.
X3.0964 Y-3.273
X3.1036 Y-3.268
X3.1112 Y-3.2634
X3.119 Y-3.2594
X3.1272 Y-3.256
X3.1355 Y-3.2532
X3.1441 Y-3.251
X3.1527 Y-3.2494
X3.1615 Y-3.2484
X3.1703 Y-3.248
X3.1791 Y-3.2483
X3.1879 Y-3.2492
X3.1966 Y-3.2507
X3.2051 Y-3.2529
X3.2135 Y-3.2556
X3.2217 Y-3.2589
X3.2296 Y-3.2628
X3.2372 Y-3.2673
X3.2444 Y-3.2723
X3.2513 Y-3.2778
X3.2578 Y-3.2838
X3.2639 Y-3.2902
X3.2694 Y-3.297
X3.2745 Y-3.3042
X3.279 Y-3.3118
X3.283 Y-3.3196
X3.2865 Y-3.3278
X3.2893 Y-3.3361
X3.2915 Y-3.3446
X3.2931 Y-3.3533
G3 X3.2111 Y-3.4447 I0.0941 J-0.1669
G2 X3.1975 Y-3.4514 I-0.0127 J0.0085
X3.1629 Y-3.4029 I0.0025 J0.0383
X3.262 Y-3.3484 I0.0759 J-0.0208
X3.2758 Y-3.3542 I-0.0231 J-0.0753 F50.
G3 X3.291 Y-3.3536 I0.0071 J0.0135
G1 X3.3057 Y-3.3437 F60.
G3 X3.2217 Y-3.1717 I-0.0941 J0.0606
X3.0964 Y-3.273 I0.1132 J-0.2681
X3.0952 Y-3.2882 I0.0126 J-0.0086
X3.1381 Y-3.3056 I0.031 J0.0149
X3.2156 Y-3.1998 I-0.0405 J0.111
X3.2153 Y-3.1848 I-0.118 J0.0051 F50.
G2 X3.2217 Y-3.1711 I0.0152 J0.0013
G1 X3.2443 Y-3.1565 F60.
X3.2501 Y-3.1527
X3.2582 Y-3.1504
X3.2665 Y-3.1486
X3.2749 Y-3.1473
X3.2833 Y-3.1467
X3.2918
X3.3002 Y-3.1472
X3.3086 Y-3.1484
X3.3169 Y-3.1501
X3.3251 Y-3.1524
X3.3331 Y-3.1552
X3.3408 Y-3.1586
X3.3483 Y-3.1625
X3.3555 Y-3.167
X3.3624 Y-3.1719
X3.369 Y-3.1773
X3.3751 Y-3.1832
X3.3808 Y-3.1894
X3.3861 Y-3.196
X3.3909 Y-3.203
X3.3952 Y-3.2103
X3.399 Y-3.2179
X3.4022 Y-3.2257
X3.4049 Y-3.2338
X3.407 Y-3.242
X3.4086 Y-3.2503
X3.4095 Y-3.2587
X3.4099 Y-3.2672
X3.4097 Y-3.2756
G2 X3.3057 Y-3.3437 I-12.8719 J19.5511
X3.2905 Y-3.3443 I-0.0081 J0.0129
X3.282 Y-3.3239 I0.0081 J0.0154
X3.3791 Y-3.2709 I0.0754 J-0.0227
X3.393 Y-3.2764 I-0.0217 J-0.0757 F50.
G3 X3.4082 Y-3.2756 I0.0069 J0.0136
G1 X3.4311 Y-3.2595 F60.
G3 X3.3571 Y-3.0737 I-0.0978 J0.0687
G2 X3.2501 Y-3.1527 I-0.4817 J0.5403
G3 X3.2438 Y-3.1666 I0.0089 J-0.0124
X3.2578 Y-3.1825 I0.018 J0.0018
X3.3539 Y-3.1042 I0.0174 J0.0768
X3.3522 Y-3.0893 I-0.0787 J-0.0015 F50.
G2 X3.3569 Y-3.0748 I0.0149 J0.0032
G1 X3.3753 Y-3.0593 F60.
G2 X3.5363 Y-3.1722 I0.0447 J-0.1075
X3.4311 Y-3.2595 I-1.3979 J1.5761
X3.41 Y-3.255 I-0.0083 J0.0128
X3.4094 Y-3.2352 I0.0161 J0.0105
X3.5056 Y-3.175 I0.103 J-0.0578
X3.5246 Y-3.1755 I0.0068 J-0.1179 F50.
G3 X3.5357 Y-3.1721 I0.0016 J0.0151
G1 X3.558 Y-3.1527 F60.
X3.5621 Y-3.1454
X3.5656 Y-3.1378
X3.5687 Y-3.13
X3.5711 Y-3.122
X3.573 Y-3.1138
X3.5744 Y-3.1055
X3.5751 Y-3.0972
X3.5753 Y-3.0888
X3.5749 Y-3.0804
X3.5738 Y-3.0721
X3.5722 Y-3.0639
X3.5701 Y-3.0558
X3.5674 Y-3.0478
X3.5641 Y-3.0401
X3.5603 Y-3.0326
X3.556 Y-3.0254
X3.5511 Y-3.0186
X3.5459 Y-3.0121
X3.5401 Y-3.0059
X3.534 Y-3.0002
X3.5275 Y-2.995
X3.5206 Y-2.9902
X3.5134 Y-2.9859
X3.5059 Y-2.9821
X3.4982 Y-2.9788
X3.4903 Y-2.9761
X3.4822 Y-2.9739
X3.4739 Y-2.9724
G2 X3.3753 Y-3.0593 I-2.7618 J3.0331
G3 X3.3708 Y-3.0738 I0.0104 J-0.0112
X3.381 Y-3.0838 I0.0128 J0.0029
G1 X3.3878 Y-3.0845
X3.3947 Y-3.0846
X3.4016 Y-3.0841
X3.4085 Y-3.083
X3.4152 Y-3.0814
X3.4217 Y-3.0791
X3.428 Y-3.0762
X3.434 Y-3.0729
X3.4398 Y-3.069
X3.4451 Y-3.0646
X3.4501 Y-3.0598
X3.4546 Y-3.0545
X3.4586 Y-3.0489
X3.4621 Y-3.0429
X3.4651 Y-3.0367
X3.4675 Y-3.0302
X3.4694 Y-3.0236
X3.4706 Y-3.0168
X3.4713 Y-3.0099
Y-3.003
G3 X3.4693 Y-2.9881 I-0.0787 J-0.003 F50.
G2 X3.4737 Y-2.9736 I0.0148 J0.0034
G1 X3.4778 Y-2.97 F60.
X3.4833 Y-2.9659
X3.4992 Y-2.9543
G2 X3.6605 Y-3.0747 I0.0397 J-0.1151
G1 X3.6179 Y-3.1031
X3.614 Y-3.106
X3.5712 Y-3.1408
X3.558 Y-3.1527
G2 X3.543 Y-3.1551 I-0.0096 J0.0118
X3.5301 Y-3.1327 I0.0073 J0.0191
X3.6299 Y-3.0698 I0.0777 J-0.0127
X3.6438 Y-3.0754 I-0.0221 J-0.0756 F50.
G3 X3.659 Y-3.0746 I0.007 J0.0135
G1 X3.6646 Y-3.0707 F60.
X3.678 Y-3.0616
G3 X3.6113 Y-2.8766 I-0.0913 J0.0716
G1 X3.5245 Y-2.9357
X3.4992 Y-2.9543
G3 X3.5068 Y-2.9814 I0.0094 J-0.012
X3.5322 Y-2.978 I0.0061 J0.0517
X3.6007 Y-2.9053 I-0.0437 J0.1097
X3.6051 Y-2.8869 I-0.1122 J0.037 F50.
G2 X3.6113 Y-2.877 I0.015 J-0.0024
G1 X3.618 Y-2.8725 F60.
X3.6335 Y-2.8623
G2 X3.7877 Y-2.9891 I0.0367 J-0.1125
G1 X3.758 Y-3.0085
X3.7113 Y-3.039
X3.678 Y-3.0616
G2 X3.6627 Y-3.0622 I-0.0081 J0.0129
X3.6566 Y-3.0506 I0.0054 J0.0103
G1 X3.6567 Y-3.0496
G2 X3.7577 Y-2.9839 I0.0781 J-0.0097
X3.7716 Y-2.9896 I-0.0229 J-0.0753 F50.
G3 X3.7868 Y-2.989 I0.0071 J0.0135
G1 X3.8047 Y-2.9768 F60.
X3.8096 Y-2.9735
G3 X3.7453 Y-2.7859 I-0.0938 J0.0727
G2 X3.6335 Y-2.8623 I-1.6826 J2.3419
G3 X3.6397 Y-2.8897 I0.0088 J-0.0124
X3.6784 Y-2.8834 I0.0102 J0.059
X3.7347 Y-2.8153 I-0.0562 J0.1039
X3.739 Y-2.7969 I-0.1125 J0.0358 F50.
G2 X3.745 Y-2.7869 I0.0151 J-0.0022
G1 X3.758 Y-2.7779 F60.
X3.7666 Y-2.7719
G2 X3.9193 Y-2.8983 I0.0355 J-0.1125
G3 X3.8096 Y-2.9735 I9.7677 J-14.3543
G2 X3.7885 Y-2.9689 I-0.0082 J0.0128
X3.7894 Y-2.9457 I0.0172 J0.011
X3.8883 Y-2.8983 I0.0947 J-0.0706
X3.9071 Y-2.9004 I-0.0042 J-0.118 F50.
G3 X3.9185 Y-2.8982 I0.003 J0.0149
G1 X3.9392 Y-2.8833 F60.
X3.9442 Y-2.8767
X3.9487 Y-2.8697
X3.9527 Y-2.8624
X3.9562 Y-2.8549
X3.9591 Y-2.8472
X3.9615 Y-2.8392
X3.9633 Y-2.8311
X3.9646 Y-2.8229
X3.9652 Y-2.8147
X3.9653 Y-2.8064
X3.9648 Y-2.7981
X3.9637 Y-2.7899
X3.962 Y-2.7817
X3.9597 Y-2.7738
X3.9569 Y-2.766
X3.9535 Y-2.7584
X3.9496 Y-2.7511
X3.9452 Y-2.744
X3.9403 Y-2.7373
X3.935 Y-2.731
X3.9292 Y-2.7251
X3.923 Y-2.7196
X3.9164 Y-2.7145
X3.9095 Y-2.7099
X3.9023 Y-2.7058
X3.8948 Y-2.7023
X3.8871 Y-2.6992
X3.8792 Y-2.6968
G3 X3.7666 Y-2.7719 I0.706 J-1.1796
X3.7606 Y-2.7859 I0.0092 J-0.0122
X3.8162 Y-2.8124 I0.0362 J0.0044
X3.8709 Y-2.7256 I-0.0627 J0.1001
X3.8716 Y-2.7106 I-0.1174 J0.0132 F50.
G2 X3.879 Y-2.6973 I0.0152 J0.0002
G1 X3.8861 Y-2.6944 F60.
X3.8935 Y-2.692
X3.901 Y-2.6902
X3.9086 Y-2.689
X3.9163 Y-2.6885
X3.924 Y-2.6886
X3.9316 Y-2.6893
X3.9392 Y-2.6906
X3.9467 Y-2.6925
X3.954 Y-2.695
X3.9611 Y-2.698
X3.9678 Y-2.7017
X3.9743 Y-2.7058
X3.9804 Y-2.7105
X3.9862 Y-2.7157
X3.9915 Y-2.7213
X3.9963 Y-2.7273
X4.0006 Y-2.7336
X4.0044 Y-2.7403
X4.0077 Y-2.7473
X4.0104 Y-2.7545
X4.0125 Y-2.762
X4.014 Y-2.7695
X4.0149 Y-2.7772
X4.0151 Y-2.7849
X4.0148 Y-2.7926
X4.0138 Y-2.8002
X4.0122 Y-2.8077
X4.01 Y-2.8151
X4.0073 Y-2.8223
X4.0039 Y-2.8293
X4. Y-2.8359
X3.9956 Y-2.8422
X3.9907 Y-2.8482
X3.9854 Y-2.8537
X3.9796 Y-2.8588
X3.9734 Y-2.8634
X3.9669 Y-2.8675
X3.9601 Y-2.871
X3.953 Y-2.874
X3.9457 Y-2.8765
X3.9382 Y-2.8783
X3.937 Y-2.8801
X3.9354 Y-2.8817
X3.9335 Y-2.883
X3.9312 Y-2.8839
X3.9286 Y-2.8844
X3.9259
X3.9231 Y-2.8838
X3.9206 Y-2.8823 Z-0.1672
X3.9181 Y-2.8809 Z-0.1663
X3.9158 Y-2.8796 Z-0.1649
X3.9138 Y-2.8785 Z-0.163
X3.9122 Y-2.8775 Z-0.1607
X3.9109 Y-2.8768 Z-0.1581
X3.9102 Y-2.8764 Z-0.1552
X3.9099 Y-2.8762 Z-0.1523
G0 Z-0.137
X3.1998 Y-3.2942
G1 Z-0.1523 F50.
X3.1999 Y-3.2945 Z-0.1552
X3.2004 Y-3.2952 Z-0.1581
X3.2011 Y-3.2965 Z-0.1607
X3.202 Y-3.2981 Z-0.163
X3.2032 Y-3.3001 Z-0.1649
X3.2046 Y-3.3023 Z-0.1663
X3.206 Y-3.3048 Z-0.1672
X3.2075 Y-3.3073 Z-0.1675
G3 X3.2577 Y-3.3744 I0.3346 J0.1981
X3.397 Y-3.3898 I0.0777 J0.0651 F60.
X3.797 Y-3.1027 I-5.1045 J7.5337
X4.0921 Y-2.8473 I-0.2966 J0.641
X3.7656 Y-2.664 I-0.1798 J0.0622
X3.4276 Y-2.8845 I1.6229 J-2.8585
G2 X3.0402 Y-3.1886 I-8.3458 J10.2307
G3 X2.5988 Y-3.8517 I20.2804 J-13.9795
X2.9628 Y-3.9824 I0.1844 J-0.0588
G1 X2.9885 Y-3.9607
X3.0067 Y-3.9357
X3.0246 Y-3.9106
G2 X3.2953 Y-3.5161 I7.1402 J-4.6094
G3 X3.7495 Y-3.2578 I-0.2263 J0.9265
X4.0492 Y-3.0485 I-7.4169 J10.9355
G1 X4.1594 Y-2.8933
X4.1652 Y-2.8822
X4.1705 Y-2.8708
X4.1752 Y-2.8591
X4.1794 Y-2.8473
X4.1829 Y-2.8352
X4.186 Y-2.823
X4.1884 Y-2.8107
X4.1902 Y-2.7983
X4.1914 Y-2.7858
X4.1921 Y-2.7732
Y-2.7606
X4.1915 Y-2.7481
X4.1903 Y-2.7356
X4.1885 Y-2.7231
X4.1861 Y-2.7108
X4.1832 Y-2.6986
X4.1796 Y-2.6865
X4.1755 Y-2.6747
X4.1708 Y-2.663
X4.1656 Y-2.6516
X4.1598 Y-2.6404
X4.1535 Y-2.6295
X4.1467 Y-2.619
X4.1393 Y-2.6088
X4.1315 Y-2.5989
X4.1233 Y-2.5895
X4.1145 Y-2.5804
X4.1054 Y-2.5718
X4.0959 Y-2.5636
X4.0859 Y-2.5559
X4.0756 Y-2.5487
X4.065 Y-2.5419
X4.0541 Y-2.5357
X4.0429 Y-2.5301
X4.0314 Y-2.5249
X4.0197 Y-2.5204
X4.0078 Y-2.5164
X3.9957 Y-2.5129
X3.9835 Y-2.5101
X3.9711 Y-2.5078
X3.9587 Y-2.5062
X3.9461 Y-2.5051
X3.9336 Y-2.5046
X3.778 Y-2.5491
G3 X2.9115 Y-3.1828 I1.8825 J-3.4834
G2 X2.5682 Y-3.7092 I-6.6904 J3.9886
G1 X2.5143 Y-3.8967
X2.5126 Y-3.9093
X2.5114 Y-3.922
X2.5109 Y-3.9347
X2.511 Y-3.9475
X2.5117 Y-3.9602
X2.5131 Y-3.9729
X2.5151 Y-3.9855
X2.5176 Y-3.998
X2.5208 Y-4.0103
X2.5246 Y-4.0225
X2.529 Y-4.0345
X2.534 Y-4.0462
X2.5395 Y-4.0577
X2.5456 Y-4.0689
X2.5522 Y-4.0798
X2.5593 Y-4.0904
X2.567 Y-4.1006
X2.5751 Y-4.1104
X2.5837 Y-4.1198
X2.5928 Y-4.1288
X2.6023 Y-4.1373
X2.6122 Y-4.1453
X2.6224 Y-4.1529
X2.6331 Y-4.1599
X2.644 Y-4.1664
X2.6553 Y-4.1724
X2.6668 Y-4.1778
X2.6786 Y-4.1827
X2.6907 Y-4.1869
X2.7029 Y-4.1906
X2.7152 Y-4.1937
X2.7278 Y-4.1961
X2.7404 Y-4.198
X2.7531 Y-4.1992
X2.7658 Y-4.1998
X2.7785
X2.7913 Y-4.1991
X2.804 Y-4.1979
X2.8166 Y-4.196
X2.8291 Y-4.1935
X2.8414 Y-4.1904
X2.8536 Y-4.1867
X2.9848 Y-4.094
G3 X3.3396 Y-3.6312 I-2.1853 J2.0427
X3.8131 Y-3.3339 I-0.6113 J1.4996
G1 X3.8546 Y-3.29
X3.8713 Y-3.2706
X4.0347 Y-3.0669
X4.0425 Y-3.0567
X4.0488 Y-3.0479
G3 X4.0497 Y-3.0328 I-0.0127 J0.0084
X3.9975 Y-3.0064 I-0.0437 J-0.0217
X3.8121 Y-3.3059 I0.0411 J-0.2326
G1 X3.8168 Y-3.3201 F50.
G2 X3.8142 Y-3.3351 I-0.0143 J-0.0052
G1 X3.6847 Y-3.4796 F60.
X3.6648 Y-3.5
X3.5481 Y-3.6167
G3 X3.3609 Y-3.7732 I0.3298 J-0.5848
G2 X3.3267 Y-3.8217 I-0.1762 J0.0878
G1 X3.2881 Y-3.8563
X3.2681 Y-3.8733
X3.0644 Y-4.0367
X3.0548 Y-4.0439
X2.9848 Y-4.094
G2 X2.9679 Y-4.0686 I-0.0084 J0.0127
X2.9891 Y-4.0729 I0.0084 J-0.0127
X2.9846 Y-4.0941 I-0.0127 J-0.0083
G1 X2.8673 Y-4.1699
G2 X2.8508 Y-4.1443 I-0.0083 J0.0128
X2.873 Y-4.1632 I0.0083 J-0.0128
X2.8539 Y-4.1875 I-0.0571 J0.025 F50.
G1 X2.8365 Y-4.2 F60.
X2.8215 Y-4.2098
X2.7634 Y-4.2467
G2 X2.455 Y-4.0991 I-0.073 J0.2434
G1 X2.5143 Y-3.8967
G2 X2.5432 Y-3.9063 I0.0145 J-0.0048
X2.524 Y-3.9159 I-0.0145 J0.0048
X2.5143 Y-3.8966 I0.0048 J0.0144
G1 X2.5694 Y-3.7322
G2 X2.5983 Y-3.7419 I0.0144 J-0.0048
X2.5691 Y-3.7408 I-0.0144 J0.0048
Y-3.7099 I0.0604 J0.0155 F50.
G1 X2.6443 Y-3.4533 F60.
X2.6557 Y-3.4269
X2.6677 Y-3.4008
X2.6802 Y-3.3749
X2.6932 Y-3.3492
X2.7069 Y-3.3239
X2.721 Y-3.2989
X2.7357 Y-3.2742
X2.751 Y-3.2498
X2.7668 Y-3.2257
X2.7831 Y-3.202
X2.7999 Y-3.1787
X2.8172 Y-3.1557
X2.835 Y-3.1331
X2.8533 Y-3.1109
X2.872 Y-3.0892
X2.8913 Y-3.0678
X2.911 Y-3.0468
X2.9311 Y-3.0263
X2.9517 Y-3.0062
X2.9727 Y-2.9866
X2.9941 Y-2.9674
X3.016 Y-2.9487
X3.0382 Y-2.9305
X3.0609 Y-2.9128
X3.0839 Y-2.8955
X3.1073 Y-2.8788
X3.1311 Y-2.8626
X3.1552 Y-2.8469
X3.1796 Y-2.8317
X3.2043 Y-2.8171
G2 X3.3988 Y-2.6603 I0.9807 J-1.0174
G1 X3.778 Y-2.5491
G2 X3.7856 Y-2.5786 I0.0038 J-0.0148
X3.767 Y-2.5676 I-0.0038 J0.0148
X3.7782 Y-2.5491 I0.0148 J0.0037
G1 X3.9151 Y-2.5158
G2 X3.9223 Y-2.5454 I0.0036 J-0.0148
X3.9076 Y-2.5202 I-0.0036 J0.0148
X3.9336 Y-2.5035 I0.0456 J-0.0424 F50.
G1 X4.0347 Y-2.4739 F60.
G2 X4.2816 Y-2.7084 I-0.0089 J-0.2567
G1 X4.2086 Y-2.8233
X4.198 Y-2.8394
X4.1594 Y-2.8933
G2 X4.1453 Y-2.8992 I-0.0121 J0.0093
X4.1022 Y-2.8375 I0.0067 J0.0505
X4.2529 Y-2.7145 I0.1537 J-0.0345
X4.2679 Y-2.7149 I0.003 J-0.1575 F50.
G3 X4.2816 Y-2.7084 I0.0012 J0.0152
G1 X4.3123 Y-2.66 F60.
G3 X4.2036 Y-2.4243 I-0.1986 J0.0513
G1 X4.0347 Y-2.4739
G3 X4.0245 Y-2.4852 I0.0048 J-0.0145
X4.0511 Y-2.5267 I0.0345 J-0.0072
X4.1895 Y-2.4501 I0.0268 J0.115
X4.1935 Y-2.4357 I-0.1117 J0.0384 F50.
G2 X4.2036 Y-2.4243 I0.0149 J-0.0031
G1 X4.2446 Y-2.4123 F60.
X4.2538 Y-2.4117
X4.2631
X4.2723 Y-2.4122
X4.2814 Y-2.4134
X4.2905 Y-2.4152
X4.2994 Y-2.4176
X4.3082 Y-2.4205
X4.3167 Y-2.424
X4.325 Y-2.4281
X4.333 Y-2.4327
X4.3407 Y-2.4378
X4.348 Y-2.4433
X4.355 Y-2.4494
X4.3615 Y-2.4559
X4.3677 Y-2.4628
X4.3733 Y-2.4701
X4.3785 Y-2.4777
X4.3832 Y-2.4857
X4.3873 Y-2.4939
X4.3909 Y-2.5024
X4.3939 Y-2.5112
X4.3964 Y-2.5201
X4.3561 Y-2.59
X4.342 Y-2.6133
X4.3123 Y-2.66
G2 X4.2986 Y-2.6666 I-0.0126 J0.0086
X4.2641 Y-2.6199 I0.0029 J0.0383
X4.3669 Y-2.5283 I0.1152 J-0.0259
X4.3818 Y-2.5277 I0.0124 J-0.1175 F50.
G3 X4.3952 Y-2.5203 I0.0003 J0.0152
G1 X4.412 Y-2.4903 F60.
G3 X4.38 Y-2.371 I-0.0884 J0.0401
G1 X4.377 Y-2.3722
X4.3743 Y-2.3738
X4.372 Y-2.3759
X4.3702 Y-2.3784
X4.3689 Y-2.3812
X4.3681 Y-2.3841
X4.3679 Y-2.387
X4.3683 Y-2.3899
X4.3699 Y-2.3992
X4.384 Y-2.4848
X4.3848 Y-2.4878
X4.3862 Y-2.4905
G3 X4.412 Y-2.4903 I0.0129 J0.0082 F50.
G1 X4.4515 Y-2.4199 F60.
G3 X4.4452 Y-2.3535 I-0.0309 J0.0306
X4.4352 Y-2.3641 I0.0048 J-0.0145
G1 X4.4312 Y-2.3793
X4.4237 Y-2.4081
G3 X4.4256 Y-2.4201 I0.0147 J-0.0038
X4.4385 Y-2.4272 I0.0129 J0.0082 F50.
X4.4515 Y-2.4199 I0. J0.0152
G1 X4.483 Y-2.3637 F60.
X4.4832 Y-2.3632
X4.4851 Y-2.3567
X4.4859 Y-2.354
X4.4861 Y-2.3533
X4.4858 Y-2.3507
X4.4848 Y-2.3488
X4.4843 Y-2.3481
X4.4826 Y-2.3467
X4.4819 Y-2.3464
G3 X4.4677 Y-2.3469 I-0.0064 J-0.0201
G1 X4.2446 Y-2.4123
G3 X4.2386 Y-2.4374 I0.0048 J-0.0145
G1 X4.2407 Y-2.4396 Z-0.1672
X4.2427 Y-2.4416 Z-0.1663
X4.2445 Y-2.4435 Z-0.1649
X4.2462 Y-2.4451 Z-0.163
X4.2475 Y-2.4464 Z-0.1607
X4.2485 Y-2.4475 Z-0.1581
X4.2491 Y-2.4481 Z-0.1552
X4.2493 Y-2.4483 Z-0.1523
G0 Z-0.137
X3.4444 Y-2.6641
G1 Z-0.1523 F50.
X3.4441 Z-0.1552
X3.4433 Y-2.6638 Z-0.1581
X3.4419 Y-2.6635 Z-0.1607
X3.4401 Y-2.663 Z-0.163
X3.4379 Y-2.6625 Z-0.1649
X3.4353 Y-2.6618 Z-0.1663
X3.4326 Y-2.6611 Z-0.1672
X3.4297 Y-2.6603 Z-0.1675
G3 X3.3988 I-0.0155 J-0.0604
X3.2585 Y-2.7554 I0.0361 J-0.2044 F60.
G2 X3.0361 Y-2.8467 I-0.3176 J0.4573
G3 X2.7552 Y-3.0754 I0.2292 J-0.5684
X2.7731 Y-3.094 I0.0148 J-0.0038
G1 X2.776 Y-3.0934 Z-0.1672
X2.7788 Y-3.0928 Z-0.1663
X2.7814 Y-3.0923 Z-0.1649
X2.7836 Y-3.0918 Z-0.163
X2.7855 Y-3.0914 Z-0.1607
X2.7869 Y-3.0911 Z-0.1581
X2.7877 Y-3.0909 Z-0.1552
X2.788 Z-0.1523
G0 Z-0.137
X3.0814 Y-2.8538
G1 Z-0.1523 F50.
X3.0811 Y-2.8537 Z-0.1552
X3.0803 Y-2.8534 Z-0.1581
X3.0789 Y-2.8529 Z-0.1607
X3.0771 Y-2.8523 Z-0.163
X3.075 Y-2.8516 Z-0.1649
X3.0725 Y-2.8508 Z-0.1663
X3.0697 Y-2.8499 Z-0.1672
X3.0669 Y-2.8489 Z-0.1675
G3 X3.0361 Y-2.8467 I-0.0198 J-0.0591
G2 X2.9148 Y-2.8521 I-0.0783 J0.3925 F60.
G3 X2.812 Y-2.8817 I-0.032 J-0.0821
X2.8299 Y-2.9004 I0.0148 J-0.0038
G1 X2.9151 Y-2.8819
G3 X2.924 Y-2.8763 I-0.0032 J0.0149
X2.9148 Y-2.8521 I-0.0121 J0.0092 F50.
X2.8276 Y-2.8413 I-0.0538 J-0.0771 F60.
G1 X2.8259 Y-2.8427
X2.8255 Y-2.8432
X2.8203 Y-2.8534
X2.6443 Y-3.4533
G3 X2.6622 Y-3.472 I0.0148 J-0.0038
G1 X2.6652 Y-3.4714 Z-0.1672
X2.6679 Y-3.4708 Z-0.1663
X2.6705 Y-3.4703 Z-0.1649
X2.6728 Y-3.4698 Z-0.163
X2.6746 Y-3.4694 Z-0.1607
X2.676 Y-3.4691 Z-0.1581
X2.6769 Y-3.4689 Z-0.1552
X2.6771 Y-3.4688 Z-0.1523
G0 Z-0.137
X2.4828 Y-4.0627
G1 Z-0.1523 F50.
X2.4826 Y-4.0629 Z-0.1552
X2.482 Y-4.0635 Z-0.1581
X2.4809 Y-4.0645 Z-0.1607
X2.4795 Y-4.0658 Z-0.163
X2.4779 Y-4.0673 Z-0.1649
X2.4759 Y-4.0691 Z-0.1663
X2.4738 Y-4.0711 Z-0.1672
X2.4717 Y-4.0731 Z-0.1675
G3 X2.455 Y-4.0991 I0.0424 J-0.0456
G1 X2.4391 Y-4.1533 F60.
G3 X2.6079 Y-4.3453 I0.2029 J0.0082
G1 X2.6115 Y-4.3431
X2.7634 Y-4.2467
G3 X2.7699 Y-4.233 I-0.0086 J0.0126
X2.7464 Y-4.2085 I-0.0266 J-0.002
X2.615 Y-4.3168 I-0.0137 J-0.1173
X2.6148 Y-4.3318 I0.1178 J-0.009 F50.
G2 X2.6079 Y-4.3453 I-0.0152 J-0.0008
G1 X2.5882 Y-4.3571 F60.
X2.5648 Y-4.3702
X2.5558 Y-4.3729
X2.5465 Y-4.3749
X2.5372 Y-4.3764
X2.5277 Y-4.3772
X2.5183 Y-4.3775
X2.5088 Y-4.3771
X2.4994 Y-4.376
X2.4901 Y-4.3744
X2.4809 Y-4.3722
X2.4719 Y-4.3693
X2.4631 Y-4.3659
X2.4545 Y-4.3619
X2.4462 Y-4.3573
X2.4382 Y-4.3522
X2.4306 Y-4.3466
X2.4234 Y-4.3405
X2.4165 Y-4.334
X2.4102 Y-4.327
X2.4043 Y-4.3196
X2.3989 Y-4.3118
X2.394 Y-4.3037
X2.4391 Y-4.1533
G2 X2.4504 Y-4.1432 I0.0145 J-0.0048
X2.5002 Y-4.1874 I0.0084 J-0.0406
X2.421 Y-4.289 I-0.1177 J0.0102
X2.4065 Y-4.2929 I-0.0384 J0.1117 F50.
G3 X2.3952 Y-4.3031 I0.0031 J-0.0149
G1 X2.3857 Y-4.3353 F60.
G3 X2.4431 Y-4.44 I0.0929 J-0.0172
G1 X2.4457 Y-4.4383
X2.448 Y-4.4361
X2.4497 Y-4.4335
X2.4509 Y-4.4307
X2.4515 Y-4.4277
X2.4516 Y-4.4247
X2.4511 Y-4.4218
X2.45 Y-4.4191
X2.4465 Y-4.4106
X2.4142 Y-4.3342
X2.4128 Y-4.3315
X2.4109 Y-4.3292
G3 X2.3857 Y-4.3353 I-0.0107 J-0.0108 F50.
G1 X2.3638 Y-4.41 F60.
G3 X2.3843 Y-4.4714 I0.0348 J-0.0225
X2.3916 Y-4.4591 I-0.0079 J0.013
G1 X2.3923 Y-4.4431
X2.3935 Y-4.4154
G3 X2.3889 Y-4.404 I-0.0152 J0.0006
X2.3638 Y-4.41 I-0.0107 J-0.0108 F50.
G1 X2.3469 Y-4.4676 F60.
X2.3467 Y-4.4683
X2.3462 Y-4.4742
X2.3458 Y-4.4793
Y-4.48
X2.3464 Y-4.4821
X2.3469 Y-4.4828
X2.3481 Y-4.4843
X2.3486 Y-4.4847
X2.3503 Y-4.4856
X2.3509 Y-4.4859
X2.3532 Y-4.4861
X2.3537 Y-4.486
X2.3633 Y-4.4832
X2.3637 Y-4.483
X2.5648 Y-4.3702
G3 X2.5651 Y-4.3443 I-0.0079 J0.013
G1 X2.5626 Y-4.3427 Z-0.1672
X2.5602 Y-4.3412 Z-0.1663
X2.5579 Y-4.3398 Z-0.1649
X2.556 Y-4.3386 Z-0.163
X2.5544 Y-4.3375 Z-0.1607
X2.5532 Y-4.3368 Z-0.1581
X2.5525 Y-4.3363 Z-0.1552
X2.5522 Y-4.3362 Z-0.1523
G0 Z0.4
X3.5667 Y-3.5748
Z-0.137
G1 Z-0.1523 F50.
X3.5666 Y-3.5751 Z-0.1552
X3.5664 Y-3.5759 Z-0.1581
X3.5661 Y-3.5773 Z-0.1607
X3.5656 Y-3.5791 Z-0.163
X3.565 Y-3.5813 Z-0.1649
X3.5644 Y-3.5839 Z-0.1663
X3.5637 Y-3.5867 Z-0.1672
X3.563 Y-3.5895 Z-0.1675
G2 X3.5481 Y-3.6167 I-0.0604 J0.0154
G1 X3.4981 Y-3.6668 F60.
X3.4774 Y-3.6867
X3.3267 Y-3.8217
G2 X3.3108 Y-3.8239 I-0.0098 J0.0117
G1 X3.3081 Y-3.8227 Z-0.1672
X3.3055 Y-3.8216 Z-0.1663
X3.3031 Y-3.8205 Z-0.1649
X3.301 Y-3.8196 Z-0.163
X3.2992 Y-3.8188 Z-0.1607
X3.2979 Y-3.8183 Z-0.1581
X3.2972 Y-3.8179 Z-0.1552
X3.2969 Y-3.8178 Z-0.1523
G0 Z0.6
X4.0938 Y-1.7665
Z0.1
G3 X4.1695 Y-1.6431 Z0.0599 I0.0378 J0.0617 F50.
X4.0938 Y-1.7665 Z0.0199 I-0.0378 J-0.0617
X4.1695 Y-1.6431 Z-0.0202 I0.0378 J0.0617
X4.0938 Y-1.7665 Z-0.0603 I-0.0378 J-0.0617
X4.1695 Y-1.6431 Z-0.1004 I0.0378 J0.0617
X4.0938 Y-1.7665 Z-0.1404 I-0.0378 J-0.0617
X4.204 Y-1.7048 Z-0.1675 I0.0378 J0.0617
X4.0593 I-0.0723 J0.
X4.2038 Y-1.7106 I0.0723 J0.
G1 X4.204 Y-1.7048
G3 X4.2232 Y-1.6464 I-0.0516 J0.0493 F60.
G1 X4.2198 Y-1.644
G2 X4.1314 Y-1.6069 I0.1087 J0.3832
G3 X4.021 Y-1.804 I-0.0492 J-0.1019
G2 X4.1538 Y-1.8224 I0.0497 J-0.1302
G3 X4.3027 Y-1.6984 I0.0126 J0.1362
X4.2829 Y-1.6971 I-0.0107 J-0.0109
G1 X4.2755 Y-1.7027
X4.1506 Y-1.7962
X4.1498 Y-1.7969
G3 X4.1538 Y-1.8224 I0.01 J-0.0115 F50.
X4.2828 Y-1.6707 I0.0645 J0.0759 F60.
X4.2197 Y-1.647 I-0.0645 J-0.0759
G1 X4.2177 Y-1.6455
X4.2153 Y-1.6444
X4.2126 Y-1.6437
X4.2097 Y-1.6436
G2 X4.2074 Y-1.6441 I-0.0045 J0.0146
G1 X4.1893 Y-1.6469
X4.1528 Y-1.6524
G2 X4.1353 Y-1.6376 I-0.0023 J0.0151
G3 X4.1314 Y-1.6069 I-0.1435 J-0.0026 F50.
G1 X4.1221 Y-1.5735 F60.
G3 X3.9293 Y-1.587 I-0.0926 J-0.0609
G1 X3.9298 Y-1.6114
X3.9193 Y-1.627
G3 X3.9568 Y-1.8609 I0.123 J-0.1002
G1 X3.975 Y-1.8449
X3.9915 Y-1.8306
X4.0213 Y-1.8036
G3 X4.0254 Y-1.789 I-0.0106 J0.0109
X3.9774 Y-1.778 I-0.0268 J-0.0068
X3.9592 Y-1.8315 I0.0605 J-0.0504
X3.9612 Y-1.8463 I0.0787 J0.003 F50.
G2 X3.9568 Y-1.8609 I-0.0148 J-0.0034
G1 X3.9448 Y-1.8713 F60.
X3.9369 Y-1.8734
X3.9288 Y-1.8749
X3.9206 Y-1.8758
X3.9124 Y-1.8761
X3.9041 Y-1.8757
X3.8959 Y-1.8748
X3.8878 Y-1.8733
X3.8799 Y-1.8712
X3.8721 Y-1.8685
X3.8645 Y-1.8652
X3.8572 Y-1.8614
X3.8503 Y-1.857
X3.8436 Y-1.8522
X3.8373 Y-1.8468
X3.8315 Y-1.841
X3.826 Y-1.8348
X3.8211 Y-1.8283
X3.8166 Y-1.8213
X3.8127 Y-1.8141
X3.8093 Y-1.8066
X3.8065 Y-1.7989
X3.8042 Y-1.7909
X3.8026 Y-1.7829
X3.8015 Y-1.7747
X3.8011 Y-1.7665
X3.8012 Y-1.7582
X3.802 Y-1.75
X3.8034 Y-1.7419
G3 X3.9193 Y-1.627 I-0.4752 J0.5949
G2 X3.9445 Y-1.644 I0.0126 J-0.0085
X3.9231 Y-1.648 I-0.0126 J0.0085
X3.9196 Y-1.6265 I0.0087 J0.0125
G1 X3.9392 Y-1.5995
G2 X3.9639 Y-1.6174 I0.0123 J-0.009
X3.9386 Y-1.6165 I-0.0123 J0.009
X3.9293 Y-1.587 I0.0529 J0.0328 F50.
G1 X3.9289 Y-1.5647 F60.
X3.9273 Y-1.5413
G2 X4.1126 Y-1.4531 I0.1225 J-0.0185
G3 X4.1215 Y-1.5736 I1.816 J0.074
G1 X4.122 Y-1.5761
Y-1.5787
X4.1216 Y-1.5813
X4.1208 Y-1.5837
X4.1195 Y-1.5861
X4.1178 Y-1.5881
G2 X4.0882 Y-1.5868 I-0.0142 J0.0149
X4.0928 Y-1.4776 I0.0589 J0.0523
X4.1045 Y-1.4683 I0.0543 J-0.057 F50.
G3 X4.1115 Y-1.4548 I-0.0082 J0.0128
G1 X4.1096 Y-1.4311 F60.
G3 X3.9161 Y-1.4007 I-0.1063 J-0.0455
G1 X3.9181 Y-1.4246
X3.9257 Y-1.518
X3.9273 Y-1.5413
G3 X3.9543 Y-1.5493 I0.0151 J0.0016
X3.9619 Y-1.5345 I-0.0315 J0.0256
X3.9357 Y-1.4241 I-0.1139 J0.0313
X3.9219 Y-1.4111 I-0.0877 J-0.0791 F50.
G2 X3.9163 Y-1.4009 I0.0095 J0.0119
G1 X3.9146 Y-1.3779 F60.
X3.9213 Y-1.3545
G2 X4.0092 Y-1.2857 I0.1012 J-0.0388
X4.1071 Y-1.4303 I-0.0079 J-0.1108
G1 X4.1074 Y-1.4327
X4.1072 Y-1.4352
X4.1065 Y-1.4377
X4.1053 Y-1.44
X4.1037 Y-1.4421
X4.1017 Y-1.4439
X4.0993 Y-1.4452
X4.0967 Y-1.4462
X4.0939 Y-1.4465
X4.0911 Y-1.4464
X4.0883 Y-1.4457
X3.9386 Y-1.3762
X3.9297 Y-1.372 F50.
G2 X3.9213 Y-1.3545 I0.0064 J0.0138
X4.0092 Y-1.2857 I0.0845 J-0.0175 F60.
X4.022 Y-1.2955 I-0.0015 J-0.0152
G1 X4.023 Y-1.2983 Z-0.1672
X4.024 Y-1.3009 Z-0.1663
X4.025 Y-1.3034 Z-0.1649
X4.0258 Y-1.3055 Z-0.163
X4.0265 Y-1.3073 Z-0.1607
X4.027 Y-1.3086 Z-0.1581
X4.0273 Y-1.3094 Z-0.1552
X4.0274 Y-1.3097 Z-0.1523
G0 Z0.4
X3.8461 Y-1.7267
Z-0.137
G1 Z-0.1523 F50.
X3.8458 Y-1.7268 Z-0.1552
X3.8449 Y-1.7269 Z-0.1581
X3.8436 Y-1.7272 Z-0.1607
X3.8417 Y-1.7275 Z-0.163
X3.8394 Y-1.7279 Z-0.1649
X3.8368 Y-1.7283 Z-0.1663
X3.834 Y-1.7288 Z-0.1672
X3.8311 Y-1.7293 Z-0.1675
G3 X3.8028 Y-1.7418 I0.0103 J-0.0614
G1 X3.7785 Y-1.7624 F60.
X3.7739 Y-1.7695
X3.7697 Y-1.7769
X3.7661 Y-1.7846
X3.763 Y-1.7925
X3.7604 Y-1.8006
X3.7585 Y-1.8089
X3.7571 Y-1.8173
X3.7563 Y-1.8257
X3.756 Y-1.8342
X3.7564 Y-1.8427
X3.7573 Y-1.8512
X3.7589 Y-1.8596
X3.761 Y-1.8678
X3.7636 Y-1.8759
X3.7668 Y-1.8837
X3.7706 Y-1.8914
X3.7749 Y-1.8987
X3.7796 Y-1.9058
X3.7849 Y-1.9125
X3.7906 Y-1.9188
X3.7967 Y-1.9247
X3.8032 Y-1.9301
X3.81 Y-1.9352
X3.8172 Y-1.9397
X3.8247 Y-1.9437
X3.8325 Y-1.9472
X3.8405 Y-1.9501
X3.8486 Y-1.9525
X3.8509 Y-1.9506
X3.8528 Y-1.9483
X3.8541 Y-1.9457
X3.855 Y-1.9429
X3.8554 Y-1.94
X3.8552 Y-1.9372
X3.8545 Y-1.9344
X3.8509 Y-1.923
X3.8029 Y-1.7711
X3.8025 Y-1.7697 F50.
G3 X3.7785 Y-1.7624 I-0.0145 J-0.0046
G1 X3.758 Y-1.7798 F60.
X3.7364 Y-1.7982
X3.717 Y-1.8157
G3 X3.724 Y-1.9675 I0.1014 J-0.0714
X3.746 Y-1.954 I0.0068 J0.0136
G1 X3.742 Y-1.8269
X3.7416 Y-1.8238
G3 X3.717 Y-1.8157 I-0.0148 J-0.0036 F50.
G1 X3.7111 Y-1.8208 F60.
X3.7057 Y-1.8263
X3.7008 Y-1.8323
X3.6963 Y-1.8387
X3.6924 Y-1.8453
X3.689 Y-1.8523
X3.6862 Y-1.8596
X3.684 Y-1.867
X3.6824 Y-1.8746
X3.6814 Y-1.8823
X3.681 Y-1.89
X3.6813 Y-1.8978
X3.6822 Y-1.9055
X3.6836 Y-1.9131
X3.6857 Y-1.9205
X3.6884 Y-1.9278
X3.6917 Y-1.9348
X3.6955 Y-1.9416
X3.6998 Y-1.948
X3.7047 Y-1.9541
X3.71 Y-1.9597
X3.7158 Y-1.9649
X3.7219 Y-1.9696
X3.7284 Y-1.9738
X3.7353 Y-1.9775
X3.7424 Y-1.9806
X3.7497 Y-1.9831
X3.7572 Y-1.985
X3.7648 Y-1.9864
X3.7726 Y-1.9871
X3.7803
X3.788 Y-1.9866
X3.7957 Y-1.9854
X3.8033 Y-1.9837
X3.8106 Y-1.9813
X3.8178 Y-1.9783
X3.8247 Y-1.9748
X3.8313 Y-1.9707
X3.8375 Y-1.9661
X3.8434 Y-1.9611
X3.8488 Y-1.9555
X3.8538 Y-1.9496
X3.8583 Y-1.9433
X3.8622 Y-1.9366
X3.8981 Y-1.9107
X3.9204 Y-1.8916
X3.9448 Y-1.8713
G3 X4.2179 Y-1.9351 I0.347 J0.8695
G1 X4.2286 Y-1.9347
X4.2393 Y-1.9338
X4.25 Y-1.9322
X4.2605 Y-1.93
X4.2709 Y-1.9273
X4.2811 Y-1.9239
X4.2911 Y-1.92
X4.3009 Y-1.9155
X4.3104 Y-1.9105
X4.3196 Y-1.9049
X4.3285 Y-1.8989
X4.337 Y-1.8923
X4.3451 Y-1.8853
X4.3529 Y-1.8778
X4.3601 Y-1.8699
X4.367 Y-1.8616
X4.3733 Y-1.8529
X4.3792 Y-1.8439
X4.3845 Y-1.8345
X4.3893 Y-1.8249
X4.3935 Y-1.815
X4.3972 Y-1.8049
X4.4003 Y-1.7946
X4.4028 Y-1.7842
X4.4047 Y-1.7736
X4.406 Y-1.7629
X4.4067 Y-1.7522
X4.4068 Y-1.7414
X4.4062 Y-1.7307
X4.4051 Y-1.72
X4.4034 Y-1.7094
X4.401 Y-1.6989
X4.3981 Y-1.6885
X4.3946 Y-1.6784
X4.3905 Y-1.6684
X4.3859 Y-1.6587
X4.3807 Y-1.6493
X4.375 Y-1.6402
X4.3688 Y-1.6314
X4.3621 Y-1.623
X4.355 Y-1.615
X4.3474 Y-1.6074
X4.3394 Y-1.6002
X4.331 Y-1.5935
X4.3222 Y-1.5873
X4.3131 Y-1.5816
X4.3036 Y-1.5764
X4.2939 Y-1.5718
X4.284 Y-1.5677
X4.2738 Y-1.5642
X4.2635 Y-1.5613
X4.253 Y-1.5589
X4.2161 Y-1.4286
X4.1789 Y-1.2983
X4.1736 Y-1.289
X4.1678 Y-1.2799
X4.1615 Y-1.2712
X4.1546 Y-1.2629
X4.1474 Y-1.2549
X4.1396 Y-1.2474
X4.1315 Y-1.2404
X4.123 Y-1.2338
X4.1141 Y-1.2277
X4.1049 Y-1.2221
X4.0954 Y-1.217
X4.0856 Y-1.2125
X4.0756 Y-1.2085
X4.0654 Y-1.2052
X4.055 Y-1.2024
X4.0445 Y-1.2001
X4.0338 Y-1.1985
X4.0231 Y-1.1975
X4.0123 Y-1.1971
X4.0016 Y-1.1973
X3.9908 Y-1.1982
X3.9802 Y-1.1996
X3.9696 Y-1.2016
X3.9591 Y-1.2042
X3.9489 Y-1.2074
X3.9388 Y-1.2112
X3.9289 Y-1.2156
X3.9193 Y-1.2205
X3.91 Y-1.2259
X3.9011 Y-1.2318
X3.8924 Y-1.2383
X3.8842 Y-1.2452
X3.8763 Y-1.2526
X3.8689 Y-1.2604
X3.862 Y-1.2686
X3.8555 Y-1.2772
X3.8495 Y-1.2861
X3.844 Y-1.2954
X3.8391 Y-1.305
X3.8347 Y-1.3148
X3.8308 Y-1.3249
X3.8276 Y-1.3351
X3.8249 Y-1.3456
X3.8228 Y-1.3561
X3.8214 Y-1.3668
X3.8205 Y-1.3775
X3.8202 Y-1.3883
X3.8206 Y-1.3991
X3.8215 Y-1.4098
X3.8231 Y-1.4204
X3.8252 Y-1.431
X3.828 Y-1.4414
X3.8313 Y-1.4516
G2 X3.6841 Y-1.7039 I-0.2621 J-0.0161
G1 X3.6748 Y-1.7102
X3.6658 Y-1.717
X3.6573 Y-1.7242
X3.6491 Y-1.7319
X3.6414 Y-1.7401
X3.6342 Y-1.7486
X3.6274 Y-1.7576
X3.6212 Y-1.7669
X3.6154 Y-1.7765
X3.6102 Y-1.7864
X3.6056 Y-1.7966
X3.6015 Y-1.8071
X3.5981 Y-1.8177
X3.5952 Y-1.8286
X3.5929 Y-1.8395
X3.5912 Y-1.8506
X3.5901 Y-1.8618
X3.5897 Y-1.873
X3.5899 Y-1.8842
X3.5907 Y-1.8954
X3.5921 Y-1.9065
X3.5941 Y-1.9175
X3.5967 Y-1.9284
X3.5999 Y-1.9391
X3.6037 Y-1.9497
X3.6081 Y-1.96
X3.6131 Y-1.97
X3.6186 Y-1.9798
X3.6246 Y-1.9893
X3.6311 Y-1.9984
X3.6381 Y-2.0071
X3.6456 Y-2.0154
X3.6536 Y-2.0233
X3.662 Y-2.0308
X3.6707 Y-2.0377
X3.6799 Y-2.0442
X3.6894 Y-2.0502
X3.6992 Y-2.0556
X3.7092 Y-2.0605
X3.7196 Y-2.0648
X3.7301 Y-2.0686
X3.7409 Y-2.0717
X3.7518 Y-2.0743
X3.7628 Y-2.0762
X3.774 Y-2.0776
X3.7851 Y-2.0783
X3.7963 Y-2.0784
X3.8075 Y-2.0779
X3.8201 Y-2.0691
X3.8329 Y-2.0609
X3.8461 Y-2.0532
X3.8596 Y-2.0461
X3.8733 Y-2.0394
X3.8873 Y-2.0334
X3.9016 Y-2.0278
X3.916 Y-2.0229
X3.9306 Y-2.0185
X3.9454 Y-2.0148
X3.9604 Y-2.0116
X3.9754 Y-2.009
X3.9905 Y-2.007
X4.0057 Y-2.0056
X4.021 Y-2.0048
X4.0362 Y-2.0046
X4.0515 Y-2.0051
X4.0667 Y-2.0061
X4.0819 Y-2.0077
X4.097 Y-2.01
X4.112 Y-2.0128
X4.1268 Y-2.0162
X4.1416 Y-2.0203
X4.1561 Y-2.0249
X4.1705 Y-2.03
X4.1846 Y-2.0358
X4.188 Y-2.0304
X4.1891 Y-2.0302
X4.338 Y-1.9865
G3 X4.498 Y-1.7102 I-0.0869 J0.2349
G1 X4.4313 Y-1.588
G2 X4.3237 Y-1.4415 I0.7265 J0.646
G3 X4.3003 Y-1.3484 I-0.4594 J-0.0659
X4.2739 Y-1.3635 I-0.0131 J-0.0078
G1 X4.4043 Y-1.6022
G3 X4.4178 Y-1.6101 I0.0134 J0.0073
X4.4313 Y-1.588 I-0.0001 J0.0152 F50.
G1 X4.2393 Y-1.2367 F60.
G3 X3.7762 Y-1.2328 I-0.2327 J-0.1314
G1 X3.7412 Y-1.33
G2 X3.6918 Y-1.5655 I-0.6639 J0.0163
G3 X3.6203 Y-1.6337 I0.1106 J-0.1875
G0 Z0.4
X3.7709 Y-1.2951
Z-0.137
G1 Z-0.1523 F50.
X3.7706 Y-1.2952 Z-0.1552
X3.77 Y-1.2958 Z-0.1581
X3.7689 Y-1.2967 Z-0.1607
X3.7675 Y-1.2979 Z-0.163
X3.7657 Y-1.2994 Z-0.1649
X3.7637 Y-1.3011 Z-0.1663
X3.7615 Y-1.3029 Z-0.1672
X3.7592 Y-1.3049 Z-0.1675
G3 X3.7412 Y-1.33 I0.0401 J-0.0477
G1 X3.7168 Y-1.4 F60.
X3.7087 Y-1.4233
X3.708 Y-1.4249
X3.6147 Y-1.6471
X3.6103 Y-1.6567
X3.5214 Y-1.8362
G3 X3.7329 Y-2.1639 I0.2417 J-0.0761
G1 X4.1891 Y-2.0302
G3 X4.1973 Y-2.0243 I-0.0043 J0.0146
G1 X4.21 Y-2.008
X4.4564 Y-1.6921
G2 X4.4761 Y-1.6883 I0.012 J-0.0094
X4.498 Y-1.7102 I-0.0317 J-0.0536 F50.
G1 X4.5453 Y-1.7967 F60.
G2 X4.5388 Y-1.9288 I-0.1225 J-0.0602
G1 X4.338 Y-1.9865
G2 X4.3244 Y-1.9601 I-0.0038 J0.0148
G1 X4.519 Y-1.7957
X4.5224 Y-1.7928 F50.
G2 X4.5453 Y-1.7967 I0.0098 J-0.0116
X4.6003 Y-1.9018 I-0.247 J-0.1963 F60.
G1 Y-1.9036
X4.6001 Y-1.9043
G2 X4.5375 Y-1.928 I-0.0468 J0.0289
X4.5222 Y-1.9232 I-0.0038 J0.0148
G1 X4.5203 Y-1.9209 Z-0.1672
X4.5184 Y-1.9187 Z-0.1663
X4.5167 Y-1.9168 Z-0.1649
X4.5152 Y-1.915 Z-0.163
X4.5139 Y-1.9136 Z-0.1607
X4.513 Y-1.9125 Z-0.1581
X4.5125 Y-1.9118 Z-0.1552
X4.5123 Y-1.9116 Z-0.1523
G0 Z-0.137
X4.2453 Y-1.2821
G1 Z-0.1523 F50.
Y-1.2818 Z-0.1552
Y-1.2809 Z-0.1581
X4.2454 Y-1.2795 Z-0.1607
Y-1.2776 Z-0.163
X4.2455 Y-1.2753 Z-0.1649
X4.2456 Y-1.2727 Z-0.1663
X4.2457 Y-1.2699 Z-0.1672
X4.2458 Y-1.2669 Z-0.1675
G3 X4.2393 Y-1.2367 I-0.0623 J0.0023
G1 X4.1565 Y-1.0852 F60.
G3 X3.827 Y-1.0581 I-0.1808 J-0.1816
G1 X3.7966 Y-1.1667
X3.79 Y-1.19
X3.7753 Y-1.2323
G3 X3.7786 Y-1.2471 I0.0145 J-0.0045
X3.8231 Y-1.2506 I0.0241 J0.0222
X3.8414 Y-1.0837 I-0.0734 J0.0925
X3.8312 Y-1.0727 I-0.0918 J-0.0744 F50.
G2 X3.827 Y-1.0581 I0.0105 J0.011
G1 X3.8423 Y-1.0033 F60.
G2 X4.0697 Y-0.9265 I0.1635 J-0.1089
G1 X4.1565 Y-1.0852
G2 X4.1556 Y-1.1003 I-0.0136 J-0.0068
X4.1134 Y-1.1114 I-0.0272 J0.0179
X4.0614 Y-0.9547 I0.0542 J0.1049
X4.0689 Y-0.9417 I0.1061 J-0.0518 F50.
G3 X4.0697 Y-0.9265 I-0.0127 J0.0084
G1 X4.048 Y-0.8867 F60.
X4.042 Y-0.8799
X4.0355 Y-0.8736
X4.0286 Y-0.8677
X4.0214 Y-0.8623
X4.0138 Y-0.8574
X4.0059 Y-0.853
X3.9977 Y-0.8492
X3.9893 Y-0.8459
X3.9807 Y-0.8431
X3.9719 Y-0.841
X3.963 Y-0.8394
X3.9541 Y-0.8384
X3.945 Y-0.838
X3.936 Y-0.8383
X3.927 Y-0.8391
X3.9181 Y-0.8405
X3.9093 Y-0.8425
X3.9006 Y-0.8451
X3.8921 Y-0.8483
X3.8839 Y-0.852
X3.8759 Y-0.8562
X3.8607 Y-0.9333
X3.8554 Y-0.9567
X3.8423 Y-1.0033
G3 X3.8466 Y-1.0179 I0.0148 J-0.0036
X3.9177 Y-1.0006 I0.03 J0.0314
X3.8928 Y-0.8825 I-0.1118 J0.0381
X3.882 Y-0.8721 I-0.0869 J-0.0799 F50.
G2 X3.8768 Y-0.8578 I0.0098 J0.0116
G1 X3.8834 Y-0.8272 F60.
G2 X3.9842 Y-0.7668 I0.0858 J-0.029
G1 X4.048 Y-0.8867
G2 X4.0279 Y-0.9073 I-0.0136 J-0.0068
G1 X3.9019 Y-0.8483
X3.8919 Y-0.8436 F50.
G2 X3.8834 Y-0.8272 I0.0065 J0.0138
G1 X3.8984 Y-0.7572 F60.
G2 X3.9508 Y-0.7088 I0.0472 J0.0015
G1 X3.9838 Y-0.7691
G2 X3.977 Y-0.7896 I-0.0136 J-0.0068
X3.9577 Y-0.7837 I-0.0066 J0.0131
X3.9479 Y-0.7389 I0.0687 J0.0385
X3.9516 Y-0.7204 I0.0785 J-0.0062 F50.
G3 X3.9508 Y-0.7088 I-0.0145 J0.0048
G1 X3.9473 Y-0.7061 F60.
X3.9434 Y-0.7039
X3.9393 Y-0.7023
X3.9351 Y-0.7012
X3.9307 Y-0.7007
X3.9263 Y-0.7008
X3.9219 Y-0.7014
X3.9177 Y-0.7027
X3.9136 Y-0.7045
X3.9099 Y-0.7068
X3.9065 Y-0.7096
X3.9034 Y-0.7128
X3.9009 Y-0.7164
X3.8988 Y-0.7203
X3.8973 Y-0.7245
X3.8964 Y-0.7288
X3.896 Y-0.7332
X3.8963 Y-0.7376
X3.8971 Y-0.7419
X3.8985 Y-0.7461
X3.9004 Y-0.7501
X3.9028 Y-0.7537
X3.9016 Y-0.7558
X3.9008 Y-0.7582
X3.9005 Y-0.7607
X3.9007 Y-0.7633
X3.9014 Y-0.7659
X3.9026 Y-0.7683
X3.9043 Y-0.7704
X3.9064 Y-0.7722
X3.9089 Y-0.7736
X3.9117 Y-0.7745
X3.9146 Y-0.7748
X3.9176 Y-0.7745
X3.9205 Y-0.7736 Z-0.1672
X3.9232 Y-0.7728 Z-0.1663
X3.9258 Y-0.7721 Z-0.1649
X3.928 Y-0.7714 Z-0.163
X3.9298 Y-0.7709 Z-0.1607
X3.9311 Y-0.7705 Z-0.1581
X3.932 Y-0.7703 Z-0.1552
X3.9322 Y-0.7702 Z-0.1523
G0 Z0.4
X3.5552 Y-1.8052
Z-0.137
G1 Z-0.1523 F50.
X3.5549 Y-1.8053 Z-0.1552
X3.5542 Y-1.8058 Z-0.1581
X3.553 Y-1.8066 Z-0.1607
X3.5514 Y-1.8076 Z-0.163
X3.5495 Y-1.8089 Z-0.1649
X3.5473 Y-1.8103 Z-0.1663
X3.5449 Y-1.8118 Z-0.1672
X3.5424 Y-1.8135 Z-0.1675
G3 X3.5214 Y-1.8362 I0.0339 J-0.0523
G1 X3.5063 Y-1.8667 F60.
X3.4981 Y-1.8819
X3.4598 Y-1.9483
G3 X3.5851 Y-2.2073 I0.214 J-0.0562
X3.5942 Y-2.1865 I-0.0048 J0.0145
G1 X3.5919 Y-2.1816
X3.4866 Y-1.9501
X3.4857 Y-1.9484
G3 X3.4598 Y-1.9483 I-0.013 J-0.008 F50.
G1 X3.4047 Y-2.044 F60.
G3 X3.4039 Y-2.1448 I0.115 J-0.0513
X3.4324 Y-2.1374 I0.0133 J0.0074
X3.4306 Y-2.0441 I-0.1213 J0.0443
X3.4047 Y-2.044 I-0.013 J-0.008 F50.
G1 X3.4002 Y-2.0486 F60.
X3.396 Y-2.0535
X3.3924 Y-2.0587
X3.3892 Y-2.0643
X3.3865 Y-2.0702
X3.3844 Y-2.0762
X3.3828 Y-2.0824
X3.3818 Y-2.0888
X3.3814 Y-2.0952
X3.3816 Y-2.1016
X3.3823 Y-2.108
X3.3836 Y-2.1143
X3.3855 Y-2.1204
X3.3879 Y-2.1263
X3.3909 Y-2.1321
X3.3943 Y-2.1375
X3.3982 Y-2.1425
X3.4026 Y-2.1473
X3.4074 Y-2.1515
X3.4125 Y-2.1554
G3 X3.4715 Y-2.24 I0.1159 J0.018
G1 X3.4748 Y-2.2396
G3 X3.4829 Y-2.2171 I-0.0048 J0.0145
G1 X3.4812 Y-2.2142
X3.4374 Y-2.1441
G3 X3.4251 Y-2.137 I-0.0129 J-0.0081
X3.4105 Y-2.1583 I-0.0007 J-0.0152 F50.
X3.443 Y-2.2445 I0.1921 J0.0233 F60.
X3.4735 Y-2.24 I0.0118 J0.0257
G1 X3.7329 Y-2.1639
G3 X3.739 Y-2.1388 I-0.0048 J0.0145
G1 X3.7369 Y-2.1367 Z-0.1672
X3.7349 Y-2.1346 Z-0.1663
X3.733 Y-2.1328 Z-0.1649
X3.7314 Y-2.1311 Z-0.163
X3.7301 Y-2.1298 Z-0.1607
X3.7291 Y-2.1288 Z-0.1581
X3.7285 Y-2.1281 Z-0.1552
X3.7283 Y-2.1279 Z-0.1523
G0 Z0.6
X4.5609 Y-0.0383
Z0.1
G3 X4.6365 Y0.085 Z0.0599 I0.0378 J0.0617 F50.
X4.5609 Y-0.0383 Z0.0199 I-0.0378 J-0.0617
X4.6365 Y0.085 Z-0.0202 I0.0378 J0.0617
X4.5609 Y-0.0383 Z-0.0603 I-0.0378 J-0.0617
X4.6365 Y0.085 Z-0.1004 I0.0378 J0.0617
X4.5609 Y-0.0383 Z-0.1404 I-0.0378 J-0.0617
X4.671 Y0.0234 Z-0.1675 I0.0378 J0.0617
X4.5263 I-0.0723 J0.
X4.6708 Y0.0176 I0.0723 J0.
G1 X4.671 Y0.0234
G3 X4.6848 Y0.0588 I-0.0449 J0.0378 F60.
G1 X4.6834 Y0.0701
X4.6858 Y0.0799
X4.6849 Y0.0879
X4.6835 Y0.0957
X4.6814 Y0.1035
X4.6787 Y0.1111
X4.6755 Y0.1184
X4.6717 Y0.1255
X4.6674 Y0.1322
X4.6625 Y0.1386
X4.6572 Y0.1447
X4.6515 Y0.1502
X4.6453 Y0.1554
X4.6388 Y0.16
X4.6319 Y0.1641
X4.6247 Y0.1677
X4.6173 Y0.1708
X4.6097 Y0.1732
X4.6019 Y0.1751
X4.5939 Y0.1763
X4.5859 Y0.1769
X4.5779 Y0.177
X4.5699 Y0.1764
X4.562 Y0.1752
X4.5542 Y0.1733
X4.5465 Y0.1709
X4.5391 Y0.1679
X4.5319 Y0.1644
X4.525 Y0.1603
X4.5184 Y0.1557
X4.5123 Y0.1506
X4.5065 Y0.145
G3 X4.5088 Y-0.0486 I0.3426 J-0.0928
G1 X4.5114 Y-0.0564
X4.5147 Y-0.064
X4.5185 Y-0.0714
X4.5228 Y-0.0785
X4.5276 Y-0.0852
X4.533 Y-0.0916
X4.5387 Y-0.0976
X4.5449 Y-0.1031
X4.5515 Y-0.1082
X4.5584 Y-0.1128
X4.5656 Y-0.1168
X4.5731 Y-0.1204
X4.5809 Y-0.1233
X4.5888 Y-0.1257
X4.5969 Y-0.1275
X4.6051 Y-0.1287
X4.6134 Y-0.1293
X4.6217 Y-0.1294
X4.63 Y-0.1288
X4.6382 Y-0.1276
X4.6463 Y-0.1258
X4.6542 Y-0.1234
X4.662 Y-0.1204
X4.6695 Y-0.1169
X4.6767 Y-0.1129
X4.6836 Y-0.1083
X4.6902 Y-0.1032
X4.6964 Y-0.0977
X4.7022 Y-0.0918
X4.7075 Y-0.0854
G2 X4.6848 Y0.0588 I13.9329 J2.2704
G3 X4.6752 Y0.0707 I-0.015 J-0.0023
X4.6206 Y0.031 I-0.0145 J-0.0374
X4.6834 Y-0.0669 I0.1179 J0.0066
X4.697 Y-0.073 I0.0551 J0.1045 F50.
G2 X4.7067 Y-0.0848 I-0.0053 J-0.0143
G1 X4.7109 Y-0.1168 F60.
G2 X4.5258 Y-0.191 I-0.116 J0.0214
G3 X4.5088 Y-0.0486 I-1.2063 J-0.0724
G2 X4.5146 Y-0.0345 I0.0151 J0.0019
X4.5882 Y-0.0675 I0.0278 J-0.0365
X4.5456 Y-0.1679 I-0.1177 J-0.0093
X4.5335 Y-0.1767 I-0.0752 J0.0911 F50.
G3 X4.5264 Y-0.1901 I0.0081 J-0.0129
G1 X4.5279 Y-0.2102 F60.
X4.5287 Y-0.2172
G3 X4.7263 Y-0.2497 I0.1091 J0.0466
G1 X4.7193 Y-0.2102
X4.7156 Y-0.1635
X4.7109 Y-0.1168
G3 X4.7012 Y-0.105 I-0.015 J-0.0025
X4.6838 Y-0.1091 I-0.0057 J-0.0151
X4.7019 Y-0.2314 I0.0573 J-0.054
X4.7155 Y-0.2376 I0.0392 J0.0683 F50.
G2 X4.7255 Y-0.249 I-0.005 J-0.0144
G1 X4.7268 Y-0.2569 F60.
X4.7297 Y-0.2697
G2 X4.5539 Y-0.3551 I-0.114 J0.0111
X4.5287 Y-0.2172 I0.9729 J0.2492
X4.5352 Y-0.2035 I0.0152 J0.0012
X4.5987 Y-0.2299 I0.0232 J-0.0336
X4.5698 Y-0.3302 I-0.1163 J-0.0209
X4.5591 Y-0.3406 I-0.0874 J0.0794 F50.
G3 X4.554 Y-0.355 I0.0099 J-0.0116
G1 X4.5601 Y-0.383 F60.
G3 X4.7586 Y-0.3982 I0.1042 J0.0577
G1 X4.7479 Y-0.3503
X4.7375 Y-0.3036
X4.7297 Y-0.2697
G3 X4.7018 Y-0.2661 I-0.0147 J-0.0039
X4.6954 Y-0.2918 I0.0418 J-0.0242
X4.7358 Y-0.3768 I0.118 J0.004
X4.751 Y-0.3881 I0.0776 J0.089 F50.
G2 X4.7578 Y-0.3976 I-0.008 J-0.0129
G1 X4.7624 Y-0.4212 F60.
G2 X4.586 Y-0.5133 I-0.1165 J0.0082
G1 X4.5728 Y-0.4437
X4.5632 Y-0.397
X4.5601 Y-0.383
G2 X4.5652 Y-0.3687 I0.015 J0.0028
X4.5777 Y-0.3672 I0.0073 J-0.0086
G1 X4.5792 Y-0.368
G2 X4.6024 Y-0.4881 I-0.0371 J-0.0695
X4.5918 Y-0.4986 I-0.0603 J0.0506 F50.
G3 X4.5863 Y-0.5128 I0.0096 J-0.0118
G1 X4.5911 Y-0.5371 F60.
G3 X4.7892 Y-0.5543 I0.1044 J0.0532
G1 X4.7806 Y-0.5138
X4.7759 Y-0.4904
X4.7624 Y-0.4212
G3 X4.7441 Y-0.4099 I-0.0148 J-0.0035
X4.7265 Y-0.4295 I0.0052 J-0.0224
X4.7665 Y-0.5332 I0.1172 J-0.0144
X4.7818 Y-0.5444 I0.0772 J0.0894 F50.
G2 X4.7886 Y-0.5539 I-0.008 J-0.013
G1 X4.7934 Y-0.5774 F60.
G2 X4.6166 Y-0.6694 I-0.1165 J0.0081
G1 X4.6098 Y-0.6305
X4.5987 Y-0.5748
X4.5911 Y-0.5371
