%
(971-23-P-0058_DISTAL SPROCKET_1492 SECOND)
(T1  D=0.1492 CR=0. - ZMIN=-0.2175 - FLAT END MILL)
G90 G94 G17 G91.1
G64 P0.001 Q0.001
G20
G53 G0 Z0.
(2D SLOT CUT 2)
M9
T1 M6
S22000 M3
G4 P10.
G54
M7
G0 X0.9653 Y3.3191
G43 Z0.6 H1
G0 Z0.2
G1 Z0.1 F13.333
G3 X0. Y3.4566 Z-0.0725 I-0.9653 J-3.3191 F30.
Y-3.4566 I0. J-3.4566
Y3.4566 I0. J3.4566
X-0.5229 Y3.4169 Z-0.145 I0. J-3.4566
X0.5229 Y-3.4169 I0.5229 J-3.4169
X-0.5229 Y3.4169 I-0.5229 J3.4169
X-1.0337 Y3.2985 Z-0.2175 I0.5229 J-3.4169
X1.0337 Y-3.2985 I1.0337 J-3.2985
X-1.0337 Y3.2985 I-1.0337 J3.2985
G0 Z0.4
X-5.6312 Y-0.587
Z0.2
G1 Z0.1 F13.333
G3 X-5.6373 Y-0.5344 Z0.0877 I-0.0118 J0.0253 F30.
G2 X-5.7979 Y-0.475 Z0.0574 I0.118 J0.5662
X-5.8519 Y-0.3903 Z0.0389 I0.0504 J0.0917
G1 X-5.8523 Y-0.385 Z0.038
G2 X-5.81 Y-0.2939 Z0.0195 I0.1044 J0.007
G1 Y-0.2938
G2 X-5.6586 Y-0.2138 Z-0.0108 I0.343 J-0.4657
G3 X-5.6603 Y-0.1606 Z-0.0233 I-0.0093 J0.0263
G2 X-5.8167 Y-0.0908 Z-0.0536 I0.1551 J0.5572
G1 Y-0.0907
G2 X-5.8649 Y-0.0026 Z-0.072 I0.0564 J0.0881
G1 Y0. Z-0.0725
Y0.0026
G2 X-5.8167 Y0.0907 I0.1046 J0.
G1 Y0.0908
G2 X-5.6603 Y0.1606 I0.3115 J-0.4873
G3 X-5.6586 Y0.2138 I-0.0075 J0.0269
G2 X-5.81 Y0.2938 I0.1916 J0.5457
G1 Y0.2939
G2 X-5.8523 Y0.385 I0.0621 J0.0842
G1 X-5.8519 Y0.3903
G2 X-5.798 Y0.475 I0.1044 J-0.0069
X-5.6373 Y0.5344 I0.2786 J-0.5068
G3 X-5.6321 Y0.5873 I-0.0057 J0.0273
G2 X-5.7778 Y0.6772 I0.2272 J0.5318
G1 X-5.7779
G2 X-5.8141 Y0.7707 I0.0676 J0.0798
G1 X-5.8134 Y0.7758
G2 X-5.8133 Y0.7762 I0.074 J-0.0094
X-5.7538 Y0.8572 I0.1037 J-0.0139
X-5.5897 Y0.9058 I0.2445 J-0.5241
G3 X-5.5809 Y0.9583 I-0.0039 J0.0276
G2 X-5.7204 Y1.0576 I0.2619 J0.5156
X-5.7504 Y1.1535 I0.0726 J0.0753
G1 X-5.7503 Y1.1538
X-5.7493 Y1.1588
G2 X-5.6847 Y1.2356 I0.1025 J-0.0208
X-5.5176 Y1.2732 I0.2094 J-0.5391
G3 X-5.5054 Y1.325 I-0.0021 J0.0278
G2 X-5.638 Y1.4333 I0.2954 J0.4972
G1 X-5.6381 Y1.4334
G2 X-5.6616 Y1.531 I0.0775 J0.0703
G1 X-5.6602 Y1.536
Y1.5361
G2 X-5.5906 Y1.6085 I0.101 J-0.0274
G1 Y1.6086
G2 X-5.4214 Y1.6351 I0.1732 J-0.5518
G3 X-5.4058 Y1.686 I-0.0002 J0.0279
G2 X-5.531 Y1.8028 I0.3277 J0.4766
X-5.5481 Y1.9016 I0.0819 J0.0651
G1 X-5.5464 Y1.9065
X-5.5463 Y1.9068
G2 X-5.4721 Y1.9745 I0.0989 J-0.034
X-5.3015 Y1.9898 I0.1364 J-0.562
G3 X-5.2826 Y2.0396 I0.0017 J0.0278
G2 X-5.3997 Y2.1644 I0.3585 J0.4539
X-5.4102 Y2.2643 I0.086 J0.0595
G1 X-5.4081 Y2.2692
G2 X-5.3296 Y2.3318 I0.0965 J-0.0404
G1 Y2.3319
G2 X-5.1584 Y2.3359 I0.0989 J-0.5698
G3 X-5.1362 Y2.3842 I0.0035 J0.0277
G2 X-5.2449 Y2.5165 I0.3877 J0.4292
X-5.2487 Y2.6169 I0.0898 J0.0537
G1 X-5.2464 Y2.6217
G2 X-5.1638 Y2.679 I0.0936 J-0.0467
X-4.9927 Y2.6717 I0.061 J-0.5751
G3 X-4.9674 Y2.7185 I0.0053 J0.0274
G2 X-5.0671 Y2.8577 I0.4152 J0.4026
X-5.0643 Y2.9581 I0.0931 J0.0477
G1 Y2.9582
X-5.0616 Y2.9627
G2 X-4.9754 Y3.0144 I0.0903 J-0.0528
X-4.8053 Y2.9958 I0.0229 J-0.5779
G3 X-4.7769 Y3.0408 I0.0071 J0.027
G2 X-4.8671 Y3.1863 I0.4409 J0.3743
X-4.8578 Y3.2863 I0.096 J0.0414
G1 X-4.8576 Y3.2866
X-4.8546 Y3.2909
G2 X-4.7654 Y3.3367 I0.0865 J-0.0588
X-4.5967 Y3.3068 I-0.0153 J-0.5781
G3 X-4.5654 Y3.3499 I0.0089 J0.0265
G2 X-4.6459 Y3.501 I0.4646 J0.3443
X-4.63 Y3.6001 I0.0986 J0.035
G1 X-4.6298 Y3.6004
X-4.6266 Y3.6045
G2 X-4.5344 Y3.6443 I0.0825 J-0.0643
X-4.3682 Y3.6034 I-0.0535 J-0.5759
G3 X-4.3341 Y3.6443 I0.0106 J0.0258
G2 X-4.4044 Y3.8004 I0.4864 J0.3129
X-4.3819 Y3.8983 I0.1007 J0.0284
G1 X-4.3784 Y3.9022
X-4.3783 Y3.9023
G2 X-4.2836 Y3.936 I0.0781 J-0.0696
X-4.1205 Y3.8842 I-0.0915 J-0.5711
G3 X-4.0837 Y3.9228 I0.0123 J0.025
G2 X-4.1436 Y4.0832 I0.506 J0.2801
X-4.1147 Y4.1793 I0.1023 J0.0217
G1 X-4.111 Y4.183
X-4.1108 Y4.1832
G2 X-4.0141 Y4.2105 I0.0733 J-0.0747
X-3.8547 Y4.1481 I-0.129 J-0.5638
G3 X-3.8156 Y4.1841 I0.0139 J0.0242
G2 X-3.8647 Y4.3481 I0.5234 J0.246
X-3.8294 Y4.4422 I0.1035 J0.0149
G1 X-3.8292 Y4.4424
X-3.8252 Y4.4458
G2 X-3.7271 Y4.4666 I0.0681 J-0.0793
X-3.5722 Y4.3938 I-0.1659 J-0.554
G3 X-3.5307 Y4.4271 I0.0155 J0.0232
G2 X-3.5688 Y4.5941 I0.5385 J0.2109
X-3.5274 Y4.6856 I0.1043 J0.008
G1 X-3.5271 Y4.6858
X-3.523 Y4.6889
G2 X-3.4237 Y4.7032 I0.0627 J-0.0837
X-3.274 Y4.6202 I-0.2022 J-0.5418
G3 X-3.2304 Y4.6508 I0.017 J0.0221
G2 X-3.2574 Y4.8198 I0.5513 J0.1748
X-3.21 Y4.9085 I0.1046 J0.0011
G1 X-3.2098 Y4.9086
X-3.2055 Y4.9114
G2 X-3.1054 Y4.9192 I0.0571 J-0.0876
X-2.9615 Y4.8265 I-0.2376 J-0.5273
G3 X-2.9159 Y4.8541 I0.0184 J0.021
G2 X-2.9317 Y5.0246 I0.5616 J0.138
X-2.8786 Y5.1099 I0.1044 J-0.0059
G1 X-2.874 Y5.1125
G2 X-2.7735 Y5.1136 I0.0512 J-0.0912
X-2.636 Y5.0117 I-0.2719 J-0.5104
G3 X-2.5888 Y5.0362 I0.0198 J0.0197
G2 X-2.5933 Y5.2073 I0.5695 J0.1006
X-2.5346 Y5.289 I0.1038 J-0.0127
G1 X-2.5298 Y5.2913
G2 X-2.4295 Y5.2858 I0.0452 J-0.0944
X-2.299 Y5.175 I-0.305 J-0.4914
G3 X-2.2502 Y5.1963 I0.021 J0.0183
G2 X-2.2434 Y5.3674 I0.5749 J0.0627
X-2.1795 Y5.4449 I0.1028 J-0.0196
X-2.1791 Y5.4451 I0.0277 J-0.0693
G1 X-2.1743 Y5.447
G2 X-2.0748 Y5.4348 I0.0386 J-0.0972
X-1.952 Y5.3156 I-0.3368 J-0.4701
G3 X-1.9019 Y5.3337 I0.0222 J0.0169
G2 X-1.8838 Y5.5039 I0.5778 J0.0246
X-1.815 Y5.577 I0.1012 J-0.0263
G1 X-1.8101 Y5.5786
X-1.8098 Y5.5787
G2 X-1.7111 Y5.56 I0.0323 J-0.0995
X-1.5964 Y5.4329 I-0.3672 J-0.4468
G3 X-1.5452 Y5.4477 I0.0232 J0.0154
G2 X-1.5159 Y5.6164 I0.5782 J-0.0136
X-1.4423 Y5.6848 I0.0992 J-0.033
G1 X-1.4372 Y5.6861
G2 X-1.3399 Y5.661 I0.0257 J-0.1014
X-1.2338 Y5.5266 I-0.3959 J-0.4216
G3 X-1.1818 Y5.5379 I0.0242 J0.0139
G2 X-1.1414 Y5.7043 I0.576 J-0.0518
X-1.0637 Y5.7677 I0.0969 J-0.0394
G1 X-1.0586 Y5.7686
G2 X-1.0582 Y5.7687 I0.0139 J-0.0733
X-0.9628 Y5.7371 I0.0189 J-0.1029
X-0.8659 Y5.596 I-0.4229 J-0.3945
G3 X-0.8132 Y5.6039 I0.0251 J0.0122
G2 X-0.7619 Y5.7672 I0.5713 J-0.0898
X-0.68 Y5.8254 I0.0941 J-0.0457
G1 X-0.6797
X-0.6745 Y5.826
G2 X-0.5816 Y5.7882 I0.0119 J-0.1039
X-0.4941 Y5.641 I-0.4481 J-0.3657
G3 X-0.4411 Y5.6454 I0.0258 J0.0106
G2 X-0.3791 Y5.805 I0.5641 J-0.1273
X-0.2936 Y5.8576 I0.0908 J-0.0519
G1 X-0.2883 Y5.8578
X-0.2881 Y5.8579
G2 X-0.1977 Y5.814 I0.0051 J-0.1045
X-0.1202 Y5.6614 I-0.4713 J-0.3353
G3 X-0.067 Y5.6622 I0.0265 J0.0088
G2 X0.0054 Y5.8174 I0.5545 J-0.1644
X0.0942 Y5.8642 I0.0872 J-0.0578
G1 X0.0995 Y5.8641
X0.0996
G2 X0.1869 Y5.8144 I-0.0017 J-0.1046
X0.2542 Y5.6569 I-0.4924 J-0.3034
G3 X0.3074 Y5.6543 I0.027 J0.007
G2 X0.3899 Y5.8043 I0.5424 J-0.2006
X0.4816 Y5.8451 I0.0832 J-0.0634
X0.4822 I-0.0061 J-0.0743
G1 X0.4873 Y5.8446
G2 X0.5708 Y5.7893 I-0.0089 J-0.1042
X0.6275 Y5.6278 I-0.5113 J-0.2702
G3 X0.6804 Y5.6216 I0.0274 J0.0052
G2 X0.7726 Y5.7658 I0.528 J-0.2361
X0.8669 Y5.8005 I0.0788 J-0.0688
G1 X0.867
X0.8722 Y5.7997
G2 X0.9522 Y5.7389 I-0.0155 J-0.1034
X0.9981 Y5.574 I-0.5281 J-0.2358
G3 X1.0504 Y5.5643 I0.0277 J0.0034
G2 X1.152 Y5.7021 I0.5112 J-0.2705
X1.2484 Y5.7305 I0.0741 J-0.0738
G1 X1.2486
X1.2537 Y5.7294
G2 X1.3294 Y5.6635 I-0.0224 J-0.1022
X1.3643 Y5.4958 I-0.5425 J-0.2004
G3 X1.4159 Y5.4827 I0.0279 J0.0016
G2 X1.5263 Y5.6135 I0.4922 J-0.3036
X1.6243 Y5.6355 I0.0691 J-0.0785
G1 X1.6293 Y5.6341
X1.6295 Y5.634
G2 X1.7008 Y5.5632 I-0.0291 J-0.1005
X1.7245 Y5.3936 I-0.5546 J-0.1641
G3 X1.7751 Y5.3772 I0.0279 J-0.0003
G2 X1.894 Y5.5004 I0.4711 J-0.3354
G1 Y5.5005
G2 X1.9933 Y5.5158 I0.0637 J-0.083
G1 X1.9934
X1.9984 Y5.514
G2 X2.0647 Y5.4387 I-0.0357 J-0.0983
X2.0772 Y5.2679 I-0.5642 J-0.1271
G3 X2.1266 Y5.2481 I0.0278 J-0.0021
G2 X2.2534 Y5.3632 I0.4479 J-0.3658
X2.3535 Y5.372 I0.0581 J-0.087
G1 X2.3583 Y5.3699
G2 X2.4197 Y5.2903 I-0.042 J-0.0958
X2.4208 Y5.1191 I-0.5714 J-0.0895
G3 X2.4688 Y5.0961 I0.0276 J-0.0039
G2 X2.6029 Y5.2026 I0.4228 J-0.3947
X2.7034 Y5.2047 I0.0522 J-0.0906
G1 X2.7081 Y5.2023
G2 X2.764 Y5.1188 I-0.0482 J-0.0928
X2.7539 Y4.9479 I-0.576 J-0.0516
G3 X2.8002 Y4.9218 I0.0273 J-0.0058
G2 X2.9411 Y5.0192 I0.3958 J-0.4217
X3.0415 Y5.0146 I0.0461 J-0.0939
G1 X3.0416
X3.0461 Y5.0119
G2 X3.0963 Y4.9249 I-0.0544 J-0.0894
X3.0748 Y4.7551 I-0.5782 J-0.0133
G3 X3.1194 Y4.726 I0.0269 J-0.0075
G2 X3.2664 Y4.8138 I0.3669 J-0.4471
X3.3662 Y4.8027 I0.0398 J-0.0967
G1 X3.3705 Y4.7997
X3.3706
G2 X3.415 Y4.7096 I-0.0601 J-0.0856
G1 Y4.7095
G2 X3.3824 Y4.5414 I-0.5778 J0.0249
G3 X3.4249 Y4.5094 I0.0263 J-0.0093
G2 X3.5774 Y4.5874 I0.3367 J-0.4702
X3.6762 Y4.5698 I0.0333 J-0.0992
G1 X3.6803 Y4.5665
X3.6804 Y4.5664
G2 X3.7188 Y4.4735 I-0.0656 J-0.0815
X3.6751 Y4.308 I-0.5749 J0.063
G3 X3.7155 Y4.2732 I0.0256 J-0.011
G2 X3.8727 Y4.3409 I0.3048 J-0.4915
X3.9702 Y4.3168 I0.0267 J-0.1011
G1 X3.9741 Y4.3132
G2 X4.0063 Y4.218 I-0.0708 J-0.077
X3.9518 Y4.0557 I-0.5695 J0.1009
G3 X3.9898 Y4.0183 I0.0248 J-0.0127
G2 X4.1512 Y4.0755 I0.2717 J-0.5106
X4.2468 Y4.0451 I0.0199 J-0.1027
G1 X4.2503 Y4.0413
X4.2505 Y4.0411
G2 X4.2763 Y3.944 I-0.0758 J-0.0721
X4.2112 Y3.7856 I-0.5615 J0.1384
G3 X4.2466 Y3.7459 I0.024 J-0.0143
G2 X4.4114 Y3.7922 I0.2373 J-0.5274
X4.5049 Y3.7554 I0.0131 J-0.1038
G1 X4.5083 Y3.7513
G2 X4.5276 Y3.6527 I-0.0803 J-0.067
X4.4522 Y3.499 I-0.5512 J0.1751
G3 X4.4849 Y3.457 I0.023 J-0.0159
G2 X4.6524 Y3.4924 I0.2019 J-0.5419
X4.7433 Y3.4495 I0.0063 J-0.1044
G1 X4.7464 Y3.4452
G2 X4.7591 Y3.3455 I-0.0846 J-0.0615
X4.6737 Y3.1971 I-0.5384 J0.2112
G3 X4.7036 Y3.153 I0.0219 J-0.0173
G2 X4.873 Y3.1773 I0.1657 J-0.5541
X4.9608 Y3.1285 I-0.0007 J-0.1046
G1 X4.9636 Y3.1241
X4.9637 Y3.1239
G2 X4.9698 Y3.0236 I-0.0886 J-0.0557
X4.8748 Y2.8812 I-0.5233 J0.2462
G3 X4.9017 Y2.8353 I0.0207 J-0.0188
G2 X5.0724 Y2.8483 I0.1287 J-0.5638
X5.1568 Y2.7937 I-0.0076 J-0.1043
G1 X5.1593 Y2.7891
G2 X5.1588 Y2.6886 I-0.092 J-0.0498
X5.0546 Y2.5528 I-0.5058 J0.2803
G3 X5.0783 Y2.5051 I0.0194 J-0.0201
G2 X5.2495 Y2.5068 I0.0912 J-0.5711
X5.3302 Y2.4468 I-0.0144 J-0.1036
G1 X5.3324 Y2.442
G2 X5.3253 Y2.3418 I-0.0951 J-0.0436
X5.2122 Y2.2131 I-0.4862 J0.3131
G3 X5.2328 Y2.164 I0.018 J-0.0213
G2 X5.4038 Y2.1544 I0.0532 J-0.5759
X5.4802 Y2.0892 I-0.0213 J-0.1024
X5.4804 Y2.0888 I-0.0697 J-0.0266
G1 X5.4822 Y2.084
G2 X5.4683 Y1.9847 I-0.0979 J-0.037
X5.3471 Y1.8638 I-0.4645 J0.3446
G3 X5.3644 Y1.8135 I0.0165 J-0.0225
G2 X5.5343 Y1.7925 I0.015 J-0.5782
X5.6063 Y1.7225 I-0.028 J-0.1008
G1 X5.6064 Y1.7222
X5.6079 Y1.7172
G2 X5.5875 Y1.6189 I-0.1 J-0.0305
X5.4586 Y1.5063 I-0.4407 J0.3745
G3 X5.4725 Y1.455 I0.015 J-0.0235
G2 X5.6407 Y1.4228 I-0.0232 J-0.5779
X5.7079 Y1.3482 I-0.0346 J-0.0987
G1 X5.7091 Y1.3431
Y1.343
G2 X5.6823 Y1.2461 I-0.1018 J-0.024
X5.5462 Y1.1423 I-0.415 J0.4028
G3 X5.5567 Y1.0901 I0.0134 J-0.0244
G2 X5.7224 Y1.0469 I-0.0613 J-0.5751
X5.7845 Y0.9679 I-0.0411 J-0.0962
G1 X5.7854 Y0.9627
G2 X5.7523 Y0.8678 I-0.1032 J-0.0172
X5.6096 Y0.7732 I-0.3874 J0.4294
G3 X5.6166 Y0.7205 I0.0118 J-0.0253
G2 X5.7791 Y0.6664 I-0.0992 J-0.5698
X5.8358 Y0.5838 I-0.0474 J-0.0932
G1 X5.8363 Y0.5786
X5.8364 Y0.5783
G2 X5.7971 Y0.4858 I-0.1041 J-0.0104
X5.6484 Y0.4008 I-0.3582 J0.4541
G3 X5.6519 Y0.3477 I0.0101 J-0.026
G2 X5.8105 Y0.2831 I-0.1366 J-0.562
X5.8616 Y0.1966 I-0.0534 J-0.09
G1 X5.8617 Y0.1963
X5.8618 Y0.1911
G2 X5.8165 Y0.1016 I-0.1045 J-0.0033
X5.6626 Y0.0266 I-0.3274 J0.4767
G3 Y-0.0266 I0.0084 J-0.0266
G2 X5.8165 Y-0.1016 I-0.1735 J-0.5517
X5.8618 Y-0.1911 I-0.0592 J-0.0862
G1 X5.8617 Y-0.1963
X5.8616 Y-0.1966
G2 X5.8105 Y-0.2831 I-0.1045 J0.0035
X5.6519 Y-0.3477 I-0.2952 J0.4973
G3 X5.6484 Y-0.4008 I0.0066 J-0.0271
G2 X5.7971 Y-0.4858 I-0.2096 J-0.5391
X5.8364 Y-0.5783 I-0.0648 J-0.0821
G1 X5.8363 Y-0.5786
X5.8358 Y-0.5838
G2 X5.7791 Y-0.6664 I-0.1041 J0.0106
X5.6166 Y-0.7205 I-0.2617 J0.5158
G3 X5.6096 Y-0.7732 I0.0048 J-0.0275
G2 X5.7523 Y-0.8678 I-0.2447 J-0.524
X5.7854 Y-0.9627 I-0.0701 J-0.0776
G1 X5.7845 Y-0.9679
G2 X5.7224 Y-1.0469 I-0.1032 J0.0171
X5.5567 Y-1.0901 I-0.2271 J0.5319
G3 X5.5462 Y-1.1423 I0.003 J-0.0277
G2 X5.6823 Y-1.2461 I-0.2788 J-0.5067
X5.7091 Y-1.343 I-0.0751 J-0.0729
G1 Y-1.3431
X5.7079 Y-1.3482
G2 X5.6407 Y-1.4228 I-0.1018 J0.0241
X5.4725 Y-1.455 I-0.1914 J0.5458
G3 X5.4586 Y-1.5063 I0.0011 J-0.0279
G2 X5.5875 Y-1.6189 I-0.3117 J-0.4871
X5.6079 Y-1.7172 I-0.0797 J-0.0677
G1 X5.6064 Y-1.7222
X5.6063 Y-1.7225
G2 X5.5343 Y-1.7925 I-0.1 J0.0307
X5.3644 Y-1.8135 I-0.1549 J0.5572
G3 X5.3471 Y-1.8638 I-0.0007 J-0.0279
G2 X5.4683 Y-1.9847 I-0.3433 J-0.4655
X5.4822 Y-2.084 I-0.084 J-0.0623
G1 X5.4804 Y-2.0888
G2 X5.4802 Y-2.0892 I-0.0699 J0.0261
X5.4038 Y-2.1544 I-0.0978 J0.0373
X5.2328 Y-2.164 I-0.1178 J0.5662
G3 X5.2122 Y-2.2131 I-0.0026 J-0.0278
G2 X5.3252 Y-2.3418 I-0.3732 J-0.4418
X5.3324 Y-2.442 I-0.088 J-0.0566
G1 X5.3302 Y-2.4468
G2 X5.2495 Y-2.5068 I-0.0951 J0.0436
X5.0784 Y-2.5051 I-0.08 J0.5728
G3 X5.0546 Y-2.5528 I-0.0044 J-0.0275
G2 X5.1588 Y-2.6886 I-0.4016 J-0.4161
X5.1593 Y-2.7891 I-0.0915 J-0.0507
G1 X5.1568 Y-2.7937
G2 X5.0724 Y-2.8483 I-0.092 J0.0498
X4.9017 Y-2.8353 I-0.042 J0.5768
G3 X4.8748 Y-2.8812 I-0.0062 J-0.0272
G2 X4.9698 Y-3.0236 I-0.4283 J-0.3886
X4.9637 Y-3.1239 I-0.0946 J-0.0446
G1 X4.9636 Y-3.1241
X4.9608 Y-3.1285
G2 X4.873 Y-3.1773 I-0.0884 J0.0559
X4.7036 Y-3.153 I-0.0038 J0.5783
G3 X4.6737 Y-3.1971 I-0.008 J-0.0267
G2 X4.7591 Y-3.3455 I-0.453 J-0.3596
X4.7464 Y-3.4452 I-0.0974 J-0.0382
G1 X4.7433 Y-3.4494
G2 X4.6524 Y-3.4924 I-0.0846 J0.0615
X4.4849 Y-3.457 I0.0344 J0.5773
G3 X4.4522 Y-3.499 I-0.0097 J-0.0261
G2 X4.5276 Y-3.6527 I-0.4758 J-0.3289
X4.5083 Y-3.7513 I-0.0997 J-0.0317
G1 X4.5049 Y-3.7554
G2 X4.4114 Y-3.7922 I-0.0804 J0.0669
X4.2466 Y-3.7459 I0.0725 J0.5738
G3 X4.2112 Y-3.7856 I-0.0115 J-0.0254
G2 X4.2763 Y-3.944 I-0.4964 J-0.2967
X4.2505 Y-4.0411 I-0.1016 J-0.025
G1 X4.2503 Y-4.0413
X4.2468 Y-4.0451
G2 X4.1512 Y-4.0755 I-0.0757 J0.0722
X3.9898 Y-4.0183 I0.1103 J0.5677
G3 X3.9518 Y-4.0557 I-0.0131 J-0.0246
G2 X4.0063 Y-4.218 I-0.515 J-0.2632
X3.9742 Y-4.3132 I-0.103 J-0.0183
G1 X3.9702 Y-4.3168
G2 X3.8727 Y-4.341 I-0.0708 J0.077
X3.7155 Y-4.2732 I0.1476 J0.5592
G3 X3.6751 Y-4.308 I-0.0147 J-0.0237
G2 X3.7188 Y-4.4735 I-0.5313 J-0.2286
X3.6804 Y-4.5664 I-0.104 J-0.0114
G1 X3.6803 Y-4.5665
X3.6762 Y-4.5698
G2 X3.5774 Y-4.5874 I-0.0655 J0.0815
X3.4249 Y-4.5094 I0.1842 J0.5482
G3 X3.3824 Y-4.5414 I-0.0162 J-0.0227
G2 X3.415 Y-4.7095 I-0.5452 J-0.193
G1 Y-4.7096
G2 X3.3706 Y-4.7997 I-0.1045 J-0.0044
G1 X3.3705
X3.3662 Y-4.8027
G2 X3.2664 Y-4.8138 I-0.06 J0.0856
X3.1194 Y-4.726 I0.22 J0.5349
G3 X3.0748 Y-4.7551 I-0.0177 J-0.0215
G2 X3.0963 Y-4.9249 I-0.5568 J-0.1565
X3.0461 Y-5.0119 I-0.1046 J0.0024
G1 X3.0416 Y-5.0146
X3.0415
G2 X2.9411 Y-5.0192 I-0.0543 J0.0894
X2.8002 Y-4.9218 I0.2549 J0.5191
G3 X2.7539 Y-4.9479 I-0.0191 J-0.0204
G2 X2.764 Y-5.1188 I-0.5659 J-0.1194
X2.7081 Y-5.2023 I-0.1042 J0.0093
G1 X2.7034 Y-5.2047
G2 X2.6029 Y-5.2026 I-0.0482 J0.0928
X2.4688 Y-5.0961 I0.2887 J0.5011
G3 X2.4208 Y-5.1191 I-0.0204 J-0.019
G2 X2.4197 Y-5.2903 I-0.5725 J-0.0817
X2.3583 Y-5.3699 I-0.1033 J0.0162
G1 X2.3535 Y-5.372
G2 X2.2534 Y-5.3632 I-0.042 J0.0958
X2.1266 Y-5.2481 I0.3212 J0.481
G3 X2.0772 Y-5.2679 I-0.0216 J-0.0177
G2 X2.0647 Y-5.4386 I-0.5767 J-0.0437
X1.9984 Y-5.514 I-0.1021 J0.023
G1 X1.9934 Y-5.5158
X1.9933
G2 X1.894 Y-5.5005 I-0.0356 J0.0984
G1 Y-5.5004
G2 X1.7751 Y-5.3772 I0.3523 J0.4587
G3 X1.7245 Y-5.3936 I-0.0227 J-0.0162
G2 X1.7008 Y-5.5632 I-0.5783 J-0.0055
X1.6295 Y-5.634 I-0.1003 J0.0297
G1 X1.6293 Y-5.6341
X1.6243 Y-5.6355
G2 X1.5263 Y-5.6135 I-0.0289 J0.1005
X1.4159 Y-5.4827 I0.3818 J0.4344
G3 X1.3643 Y-5.4958 I-0.0237 J-0.0147
G2 X1.3294 Y-5.6634 I-0.5774 J0.0327
X1.2537 Y-5.7294 I-0.0981 J0.0363
G1 X1.2486 Y-5.7305
X1.2484
G2 X1.152 Y-5.7021 I-0.0223 J0.1022
X1.0504 Y-5.5643 I0.4097 J0.4082
G3 X0.9981 Y-5.574 I-0.0247 J-0.0131
G2 X0.9522 Y-5.7389 I-0.574 J0.0709
X0.8722 Y-5.7997 I-0.0955 J0.0427
G1 X0.867 Y-5.8005
X0.8669
G2 X0.7726 Y-5.7658 I-0.0154 J0.1035
X0.6804 Y-5.6216 I0.4357 J0.3803
G3 X0.6275 Y-5.6278 I-0.0255 J-0.0114
G2 X0.5708 Y-5.7893 I-0.568 J0.1086
X0.4873 Y-5.8446 I-0.0925 J0.0489
G1 X0.4822 Y-5.8451
G2 X0.4816 I-0.0067 J0.0743
X0.3899 Y-5.8043 I-0.0086 J0.1043
X0.3074 Y-5.6543 I0.4599 J0.3506
G3 X0.2542 Y-5.6569 I-0.0262 J-0.0097
G2 X0.1869 Y-5.8144 I-0.5596 J0.1459
X0.0996 Y-5.8641 I-0.0891 J0.0549
G1 X0.0995
X0.0942 Y-5.8642
G2 X0.0054 Y-5.8174 I-0.0016 J0.1046
X-0.067 Y-5.6622 I0.4821 J0.3195
G3 X-0.1202 Y-5.6613 I-0.0268 J-0.0079
G2 X-0.1977 Y-5.814 I-0.5487 J0.1826
X-0.2881 Y-5.8579 I-0.0853 J0.0606
G1 X-0.2883 Y-5.8578
X-0.2936 Y-5.8576
G2 X-0.3791 Y-5.805 I0.0053 J0.1045
X-0.4411 Y-5.6454 I0.5021 J0.2869
G3 X-0.4941 Y-5.641 I-0.0272 J-0.0062
G2 X-0.5816 Y-5.7882 I-0.5355 J0.2185
X-0.6745 Y-5.826 I-0.081 J0.0661
G1 X-0.6797 Y-5.8254
X-0.68
G2 X-0.7619 Y-5.7672 I0.0121 J0.1039
X-0.8132 Y-5.6039 I0.52 J0.2531
G3 X-0.8659 Y-5.596 I-0.0276 J-0.0043
G2 X-0.9628 Y-5.7371 I-0.5199 J0.2534
X-1.0582 Y-5.7687 I-0.0765 J0.0713
X-1.0586 Y-5.7686 I0.0135 J0.0734
G1 X-1.0637 Y-5.7677
G2 X-1.1414 Y-5.7043 I0.0192 J0.1028
X-1.1818 Y-5.5379 I0.5356 J0.2182
G3 X-1.2338 Y-5.5266 I-0.0278 J-0.0025
G2 X-1.3399 Y-5.661 I-0.502 J0.2872
X-1.4372 Y-5.6861 I-0.0716 J0.0762
G1 X-1.4423 Y-5.6848
G2 X-1.5159 Y-5.6164 I0.0257 J0.1014
X-1.5452 Y-5.4477 I0.5488 J0.1824
G3 X-1.5964 Y-5.4329 I-0.0279 J-0.0006
G2 X-1.7111 Y-5.56 I-0.482 J0.3197
X-1.8098 Y-5.5787 I-0.0664 J0.0808
G1 X-1.8101 Y-5.5786
X-1.815 Y-5.577
G2 X-1.8838 Y-5.5039 I0.0324 J0.0994
X-1.9019 Y-5.3337 I0.5597 J0.1456
G3 X-1.9519 Y-5.3156 I-0.0279 J0.0012
G2 X-2.0748 Y-5.4348 I-0.4597 J0.3509
X-2.1743 Y-5.447 I-0.0609 J0.085
G1 X-2.1791 Y-5.4451
G2 X-2.1795 Y-5.4449 I0.0273 J0.0694
X-2.2434 Y-5.3674 I0.0389 J0.0971
X-2.2503 Y-5.1963 I0.5681 J0.1084
G3 X-2.299 Y-5.1749 I-0.0277 J0.003
G2 X-2.4295 Y-5.2858 I-0.4355 J0.3805
X-2.5298 Y-5.2913 I-0.0552 J0.0889
G1 X-2.5346 Y-5.289
G2 X-2.5933 Y-5.2073 I0.0452 J0.0944
X-2.5888 Y-5.0362 I0.574 J0.0705
G3 X-2.636 Y-5.0117 I-0.0275 J0.0049
G2 X-2.7735 Y-5.1136 I-0.4094 J0.4085
X-2.874 Y-5.1125 I-0.0492 J0.0923
G1 X-2.8786 Y-5.1099
G2 X-2.9317 Y-5.0246 I0.0513 J0.0912
X-2.9159 Y-4.8541 I0.5774 J0.0325
G3 X-2.9615 Y-4.8265 I-0.0271 J0.0067
G2 X-3.1054 Y-4.9192 I-0.3815 J0.4346
X-3.2055 Y-4.9114 I-0.043 J0.0953
G1 X-3.2098 Y-4.9086
X-3.21 Y-4.9085
G2 X-3.2574 Y-4.8198 I0.0572 J0.0876
X-3.2304 Y-4.6508 I0.5783 J-0.0058
G3 X-3.274 Y-4.6202 I-0.0266 J0.0084
G2 X-3.4237 Y-4.7032 I-0.352 J0.4589
X-3.523 Y-4.6889 I-0.0366 J0.098
G1 X-3.5271 Y-4.6858
X-3.5274 Y-4.6856
G2 X-3.5688 Y-4.5941 I0.0629 J0.0836
X-3.5307 Y-4.4271 I0.5767 J-0.044
G3 X-3.5722 Y-4.3938 I-0.026 J0.0102
G2 X-3.7271 Y-4.4666 I-0.3209 J0.4812
X-3.8252 Y-4.4458 I-0.03 J0.1002
G1 X-3.8292 Y-4.4424
X-3.8294 Y-4.4422
G2 X-3.8647 Y-4.3481 I0.0683 J0.0793
X-3.8156 Y-4.1841 I0.5725 J-0.082
G3 X-3.8547 Y-4.1481 I-0.0253 J0.0119
G2 X-4.0141 Y-4.2105 I-0.2884 J0.5013
X-4.1108 Y-4.1832 I-0.0233 J0.102
G1 X-4.111 Y-4.183
X-4.1147 Y-4.1793
G2 X-4.1436 Y-4.0832 I0.0734 J0.0745
X-4.0837 Y-3.9228 I0.5658 J-0.1197
G3 X-4.1204 Y-3.8842 I-0.0244 J0.0135
G2 X-4.2836 Y-3.936 I-0.2547 J0.5193
X-4.3783 Y-3.9023 I-0.0166 J0.1033
G1 X-4.3784 Y-3.9022
X-4.3819 Y-3.8983
G2 X-4.4044 Y-3.8004 I0.0782 J0.0695
X-4.3341 Y-3.6443 I0.5567 J-0.1568
G3 X-4.3682 Y-3.6034 I-0.0235 J0.0151
G2 X-4.5344 Y-3.6443 I-0.2198 J0.535
X-4.6266 Y-3.6045 I-0.0097 J0.1041
G1 X-4.6298 Y-3.6004
X-4.63 Y-3.6001
G2 X-4.6459 Y-3.501 I0.0826 J0.0641
X-4.5654 Y-3.3499 I0.5451 J-0.1932
G3 X-4.5967 Y-3.3068 I-0.0224 J0.0166
G2 X-4.7653 Y-3.3367 I-0.1839 J0.5483
X-4.8546 Y-3.2909 I-0.0028 J0.1046
G1 X-4.8576 Y-3.2866
X-4.8578 Y-3.2863
G2 X-4.8671 Y-3.1863 I0.0867 J0.0586
X-4.7769 Y-3.0408 I0.5311 J-0.2289
G3 X-4.8053 Y-2.9958 I-0.0213 J0.0181
G2 X-4.9754 Y-3.0144 I-0.1473 J0.5593
X-5.0616 Y-2.9627 I0.0041 J0.1045
G1 X-5.0643 Y-2.9582
Y-2.9581
G2 X-5.0671 Y-2.8577 I0.0903 J0.0527
X-4.9674 Y-2.7185 I0.5149 J-0.2634
G3 X-4.9927 Y-2.6717 I-0.02 J0.0194
G2 X-5.1638 Y-2.679 I-0.11 J0.5678
X-5.2463 Y-2.6217 I0.011 J0.104
G1 X-5.2487 Y-2.617
G2 X-5.2449 Y-2.5165 I0.0936 J0.0467
X-5.1362 Y-2.3842 I0.4963 J-0.2969
G3 X-5.1584 Y-2.3359 I-0.0187 J0.0207
G2 X-5.3296 Y-2.3319 I-0.0722 J0.5738
G1 Y-2.3318
G2 X-5.4081 Y-2.2692 I0.018 J0.1031
G1 X-5.4102 Y-2.2644
G2 X-5.3998 Y-2.1644 I0.0965 J0.0404
X-5.2826 Y-2.0396 I0.4757 J-0.329
G3 X-5.3015 Y-1.9898 I-0.0173 J0.0219
G2 X-5.472 Y-1.9745 I-0.0342 J0.5773
X-5.5463 Y-1.9068 I0.0247 J0.1017
G1 X-5.5464 Y-1.9065
X-5.5481 Y-1.9016
G2 X-5.531 Y-1.8028 I0.099 J0.0338
X-5.4058 Y-1.686 I0.4528 J-0.3597
G3 X-5.4214 Y-1.6351 I-0.0158 J0.023
G2 X-5.5906 Y-1.6086 I0.0041 J0.5783
G1 Y-1.6085
G2 X-5.6602 Y-1.5361 I0.0314 J0.0998
G1 Y-1.536
X-5.6616 Y-1.531
G2 X-5.6381 Y-1.4334 I0.101 J0.0273
G1 X-5.638 Y-1.4333
G2 X-5.5054 Y-1.325 I0.428 J-0.389
G3 X-5.5176 Y-1.2732 I-0.0143 J0.024
G2 X-5.6846 Y-1.2356 I0.0423 J0.5768
X-5.7493 Y-1.1588 I0.0379 J0.0975
G1 X-5.7503 Y-1.1538
X-5.7504 Y-1.1535
G2 X-5.7205 Y-1.0576 I0.1025 J0.0206
X-5.581 Y-0.9583 I0.4014 J-0.4163
G3 X-5.5897 Y-0.9058 I-0.0126 J0.0249
G2 X-5.7538 Y-0.8572 I0.0803 J0.5727
X-5.8133 Y-0.7762 I0.0442 J0.0948
X-5.8134 Y-0.7758 I0.0739 J0.0099
G1 X-5.8141 Y-0.7707
G2 X-5.7779 Y-0.6772 I0.1037 J0.0136
G1 X-5.7778
G2 X-5.6321 Y-0.5873 I0.373 J-0.442
G3 X-5.6373 Y-0.5344 I-0.011 J0.0257
G2 X-5.7979 Y-0.475 I0.118 J0.5662
X-5.8519 Y-0.3903 I0.0504 J0.0917
G1 X-5.8523 Y-0.385
G2 X-5.81 Y-0.2939 I0.1044 J0.007
G1 Y-0.2938
G2 X-5.6586 Y-0.2138 I0.343 J-0.4657
G3 X-5.6603 Y-0.1606 I-0.0093 J0.0263
G2 X-5.8167 Y-0.0908 I0.1551 J0.5572
G1 Y-0.0907
G2 X-5.8649 Y-0.0026 I0.0564 J0.0881
G1 Y0.
Y0.0026 Z-0.0726
G2 X-5.8167 Y0.0907 Z-0.0779 I0.1046 J0.
G1 Y0.0908
G2 X-5.6603 Y0.1606 Z-0.0865 I0.3115 J-0.4873
G3 X-5.6586 Y0.2138 Z-0.0901 I-0.0075 J0.0269
G2 X-5.81 Y0.2938 Z-0.0987 I0.1916 J0.5457
G1 Y0.2939
G2 X-5.8523 Y0.385 Z-0.1039 I0.0621 J0.0842
G1 X-5.8519 Y0.3903 Z-0.1042
G2 X-5.798 Y0.475 Z-0.1095 I0.1044 J-0.0069
X-5.6373 Y0.5344 Z-0.1181 I0.2786 J-0.5068
G3 X-5.6321 Y0.5873 Z-0.1216 I-0.0057 J0.0273
G2 X-5.7778 Y0.6772 Z-0.1303 I0.2272 J0.5318
G1 X-5.7779
G2 X-5.8141 Y0.7707 Z-0.1355 I0.0676 J0.0798
G1 X-5.8134 Y0.7758 Z-0.1358
G2 X-5.8133 Y0.7762 I0.074 J-0.0094
X-5.7538 Y0.8572 Z-0.1411 I0.1037 J-0.0139
X-5.6805 Y0.8855 Z-0.145 I0.2445 J-0.5241
X-5.5897 Y0.9058 I0.1712 J-0.5524
G3 X-5.5809 Y0.9583 I-0.0039 J0.0276
G2 X-5.7204 Y1.0576 I0.2619 J0.5156
X-5.7504 Y1.1535 I0.0726 J0.0753
G1 X-5.7503 Y1.1538
X-5.7493 Y1.1588
G2 X-5.6847 Y1.2356 I0.1025 J-0.0208
X-5.5176 Y1.2732 I0.2094 J-0.5391
G3 X-5.5054 Y1.325 I-0.0021 J0.0278
G2 X-5.638 Y1.4333 I0.2954 J0.4972
G1 X-5.6381 Y1.4334
G2 X-5.6616 Y1.531 I0.0775 J0.0703
G1 X-5.6602 Y1.536
Y1.5361
G2 X-5.5906 Y1.6085 I0.101 J-0.0274
G1 Y1.6086
G2 X-5.4214 Y1.6351 I0.1732 J-0.5518
G3 X-5.4058 Y1.686 I-0.0002 J0.0279
G2 X-5.531 Y1.8028 I0.3277 J0.4766
X-5.5481 Y1.9016 I0.0819 J0.0651
G1 X-5.5464 Y1.9065
X-5.5463 Y1.9068
G2 X-5.4721 Y1.9745 I0.0989 J-0.034
X-5.3015 Y1.9898 I0.1364 J-0.562
G3 X-5.2826 Y2.0396 I0.0017 J0.0278
G2 X-5.3997 Y2.1644 I0.3585 J0.4539
X-5.4102 Y2.2643 I0.086 J0.0595
G1 X-5.4081 Y2.2692
G2 X-5.3296 Y2.3318 I0.0965 J-0.0404
G1 Y2.3319
G2 X-5.1584 Y2.3359 I0.0989 J-0.5698
G3 X-5.1362 Y2.3842 I0.0035 J0.0277
G2 X-5.2449 Y2.5165 I0.3877 J0.4292
X-5.2487 Y2.6169 I0.0898 J0.0537
G1 X-5.2464 Y2.6217
G2 X-5.1638 Y2.679 I0.0936 J-0.0467
X-4.9927 Y2.6717 I0.061 J-0.5751
G3 X-4.9674 Y2.7185 I0.0053 J0.0274
G2 X-5.0671 Y2.8577 I0.4152 J0.4026
X-5.0643 Y2.9581 I0.0931 J0.0477
G1 Y2.9582
X-5.0616 Y2.9627
G2 X-4.9754 Y3.0144 I0.0903 J-0.0528
X-4.8053 Y2.9958 I0.0229 J-0.5779
G3 X-4.7769 Y3.0408 I0.0071 J0.027
G2 X-4.8671 Y3.1863 I0.4409 J0.3743
X-4.8578 Y3.2863 I0.096 J0.0414
G1 X-4.8576 Y3.2866
X-4.8546 Y3.2909
G2 X-4.7654 Y3.3367 I0.0865 J-0.0588
X-4.5967 Y3.3068 I-0.0153 J-0.5781
G3 X-4.5654 Y3.3499 I0.0089 J0.0265
G2 X-4.6459 Y3.501 I0.4646 J0.3443
X-4.63 Y3.6001 I0.0986 J0.035
G1 X-4.6298 Y3.6004
X-4.6266 Y3.6045
G2 X-4.5344 Y3.6443 I0.0825 J-0.0643
X-4.3682 Y3.6034 I-0.0535 J-0.5759
G3 X-4.3341 Y3.6443 I0.0106 J0.0258
G2 X-4.4044 Y3.8004 I0.4864 J0.3129
X-4.3819 Y3.8983 I0.1007 J0.0284
G1 X-4.3784 Y3.9022
X-4.3783 Y3.9023
G2 X-4.2836 Y3.936 I0.0781 J-0.0696
X-4.1205 Y3.8842 I-0.0915 J-0.5711
G3 X-4.0837 Y3.9228 I0.0123 J0.025
G2 X-4.1436 Y4.0832 I0.506 J0.2801
X-4.1147 Y4.1793 I0.1023 J0.0217
G1 X-4.111 Y4.183
X-4.1108 Y4.1832
G2 X-4.0141 Y4.2105 I0.0733 J-0.0747
X-3.8547 Y4.1481 I-0.129 J-0.5638
G3 X-3.8156 Y4.1841 I0.0139 J0.0242
G2 X-3.8647 Y4.3481 I0.5234 J0.246
X-3.8294 Y4.4422 I0.1035 J0.0149
G1 X-3.8292 Y4.4424
X-3.8252 Y4.4458
G2 X-3.7271 Y4.4666 I0.0681 J-0.0793
X-3.5722 Y4.3938 I-0.1659 J-0.554
G3 X-3.5307 Y4.4271 I0.0155 J0.0232
G2 X-3.5688 Y4.5941 I0.5385 J0.2109
X-3.5274 Y4.6856 I0.1043 J0.008
G1 X-3.5271 Y4.6858
X-3.523 Y4.6889
G2 X-3.4237 Y4.7032 I0.0627 J-0.0837
X-3.274 Y4.6202 I-0.2022 J-0.5418
G3 X-3.2304 Y4.6508 I0.017 J0.0221
G2 X-3.2574 Y4.8198 I0.5513 J0.1748
X-3.21 Y4.9085 I0.1046 J0.0011
G1 X-3.2098 Y4.9086
X-3.2055 Y4.9114
G2 X-3.1054 Y4.9192 I0.0571 J-0.0876
X-2.9615 Y4.8265 I-0.2376 J-0.5273
G3 X-2.9159 Y4.8541 I0.0184 J0.021
G2 X-2.9317 Y5.0246 I0.5616 J0.138
X-2.8786 Y5.1099 I0.1044 J-0.0059
G1 X-2.874 Y5.1125
G2 X-2.7735 Y5.1136 I0.0512 J-0.0912
X-2.636 Y5.0117 I-0.2719 J-0.5104
G3 X-2.5888 Y5.0362 I0.0198 J0.0197
G2 X-2.5933 Y5.2073 I0.5695 J0.1006
X-2.5346 Y5.289 I0.1038 J-0.0127
G1 X-2.5298 Y5.2913
G2 X-2.4295 Y5.2858 I0.0452 J-0.0944
X-2.299 Y5.175 I-0.305 J-0.4914
G3 X-2.2502 Y5.1963 I0.021 J0.0183
G2 X-2.2434 Y5.3674 I0.5749 J0.0627
X-2.1795 Y5.4449 I0.1028 J-0.0196
X-2.1791 Y5.4451 I0.0277 J-0.0693
G1 X-2.1743 Y5.447
G2 X-2.0748 Y5.4348 I0.0386 J-0.0972
X-1.952 Y5.3156 I-0.3368 J-0.4701
G3 X-1.9019 Y5.3337 I0.0222 J0.0169
G2 X-1.8838 Y5.5039 I0.5778 J0.0246
X-1.815 Y5.577 I0.1012 J-0.0263
G1 X-1.8101 Y5.5786
X-1.8098 Y5.5787
G2 X-1.7111 Y5.56 I0.0323 J-0.0995
X-1.5964 Y5.4329 I-0.3672 J-0.4468
G3 X-1.5452 Y5.4477 I0.0232 J0.0154
G2 X-1.5159 Y5.6164 I0.5782 J-0.0136
X-1.4423 Y5.6848 I0.0992 J-0.033
G1 X-1.4372 Y5.6861
G2 X-1.3399 Y5.661 I0.0257 J-0.1014
X-1.2338 Y5.5266 I-0.3959 J-0.4216
G3 X-1.1818 Y5.5379 I0.0242 J0.0139
G2 X-1.1414 Y5.7043 I0.576 J-0.0518
X-1.0637 Y5.7677 I0.0969 J-0.0394
G1 X-1.0586 Y5.7686
G2 X-1.0582 Y5.7687 I0.0139 J-0.0733
X-0.9628 Y5.7371 I0.0189 J-0.1029
X-0.8659 Y5.596 I-0.4229 J-0.3945
G3 X-0.8132 Y5.6039 I0.0251 J0.0122
G2 X-0.7619 Y5.7672 I0.5713 J-0.0898
X-0.68 Y5.8254 I0.0941 J-0.0457
G1 X-0.6797
X-0.6745 Y5.826
G2 X-0.5816 Y5.7882 I0.0119 J-0.1039
X-0.4941 Y5.641 I-0.4481 J-0.3657
G3 X-0.4411 Y5.6454 I0.0258 J0.0106
G2 X-0.3791 Y5.805 I0.5641 J-0.1273
X-0.2936 Y5.8576 I0.0908 J-0.0519
G1 X-0.2883 Y5.8578
X-0.2881 Y5.8579
G2 X-0.1977 Y5.814 I0.0051 J-0.1045
X-0.1202 Y5.6614 I-0.4713 J-0.3353
G3 X-0.067 Y5.6622 I0.0265 J0.0088
G2 X0.0054 Y5.8174 I0.5545 J-0.1644
X0.0942 Y5.8642 I0.0872 J-0.0578
G1 X0.0995 Y5.8641
X0.0996
G2 X0.1869 Y5.8144 I-0.0017 J-0.1046
X0.2542 Y5.6569 I-0.4924 J-0.3034
G3 X0.3074 Y5.6543 I0.027 J0.007
G2 X0.3899 Y5.8043 I0.5424 J-0.2006
X0.4816 Y5.8451 I0.0832 J-0.0634
X0.4822 I-0.0061 J-0.0743
G1 X0.4873 Y5.8446
G2 X0.5708 Y5.7893 I-0.0089 J-0.1042
X0.6275 Y5.6278 I-0.5113 J-0.2702
G3 X0.6804 Y5.6216 I0.0274 J0.0052
G2 X0.7726 Y5.7658 I0.528 J-0.2361
X0.8669 Y5.8005 I0.0788 J-0.0688
G1 X0.867
X0.8722 Y5.7997
G2 X0.9522 Y5.7389 I-0.0155 J-0.1034
X0.9981 Y5.574 I-0.5281 J-0.2358
G3 X1.0504 Y5.5643 I0.0277 J0.0034
G2 X1.152 Y5.7021 I0.5112 J-0.2705
X1.2484 Y5.7305 I0.0741 J-0.0738
G1 X1.2486
X1.2537 Y5.7294
G2 X1.3294 Y5.6635 I-0.0224 J-0.1022
X1.3643 Y5.4958 I-0.5425 J-0.2004
G3 X1.4159 Y5.4827 I0.0279 J0.0016
G2 X1.5263 Y5.6135 I0.4922 J-0.3036
X1.6243 Y5.6355 I0.0691 J-0.0785
G1 X1.6293 Y5.6341
X1.6295 Y5.634
G2 X1.7008 Y5.5632 I-0.0291 J-0.1005
X1.7245 Y5.3936 I-0.5546 J-0.1641
G3 X1.7751 Y5.3772 I0.0279 J-0.0003
G2 X1.894 Y5.5004 I0.4711 J-0.3354
G1 Y5.5005
G2 X1.9933 Y5.5158 I0.0637 J-0.083
G1 X1.9934
X1.9984 Y5.514
G2 X2.0647 Y5.4387 I-0.0357 J-0.0983
X2.0772 Y5.2679 I-0.5642 J-0.1271
G3 X2.1266 Y5.2481 I0.0278 J-0.0021
G2 X2.2534 Y5.3632 I0.4479 J-0.3658
X2.3535 Y5.372 I0.0581 J-0.087
G1 X2.3583 Y5.3699
G2 X2.4197 Y5.2903 I-0.042 J-0.0958
X2.4208 Y5.1191 I-0.5714 J-0.0895
G3 X2.4688 Y5.0961 I0.0276 J-0.0039
G2 X2.6029 Y5.2026 I0.4228 J-0.3947
X2.7034 Y5.2047 I0.0522 J-0.0906
G1 X2.7081 Y5.2023
G2 X2.764 Y5.1188 I-0.0482 J-0.0928
X2.7539 Y4.9479 I-0.576 J-0.0516
G3 X2.8002 Y4.9218 I0.0273 J-0.0058
G2 X2.9411 Y5.0192 I0.3958 J-0.4217
X3.0415 Y5.0146 I0.0461 J-0.0939
G1 X3.0416
X3.0461 Y5.0119
G2 X3.0963 Y4.9249 I-0.0544 J-0.0894
X3.0748 Y4.7551 I-0.5782 J-0.0133
G3 X3.1194 Y4.726 I0.0269 J-0.0075
G2 X3.2664 Y4.8138 I0.3669 J-0.4471
X3.3662 Y4.8027 I0.0398 J-0.0967
G1 X3.3705 Y4.7997
X3.3706
G2 X3.415 Y4.7096 I-0.0601 J-0.0856
G1 Y4.7095
G2 X3.3824 Y4.5414 I-0.5778 J0.0249
G3 X3.4249 Y4.5094 I0.0263 J-0.0093
G2 X3.5774 Y4.5874 I0.3367 J-0.4702
X3.6762 Y4.5698 I0.0333 J-0.0992
G1 X3.6803 Y4.5665
X3.6804 Y4.5664
G2 X3.7188 Y4.4735 I-0.0656 J-0.0815
X3.6751 Y4.308 I-0.5749 J0.063
G3 X3.7155 Y4.2732 I0.0256 J-0.011
G2 X3.8727 Y4.3409 I0.3048 J-0.4915
X3.9702 Y4.3168 I0.0267 J-0.1011
G1 X3.9741 Y4.3132
G2 X4.0063 Y4.218 I-0.0708 J-0.077
X3.9518 Y4.0557 I-0.5695 J0.1009
G3 X3.9898 Y4.0183 I0.0248 J-0.0127
G2 X4.1512 Y4.0755 I0.2717 J-0.5106
X4.2468 Y4.0451 I0.0199 J-0.1027
G1 X4.2503 Y4.0413
X4.2505 Y4.0411
G2 X4.2763 Y3.944 I-0.0758 J-0.0721
X4.2112 Y3.7856 I-0.5615 J0.1384
G3 X4.2466 Y3.7459 I0.024 J-0.0143
G2 X4.4114 Y3.7922 I0.2373 J-0.5274
X4.5049 Y3.7554 I0.0131 J-0.1038
G1 X4.5083 Y3.7513
G2 X4.5276 Y3.6527 I-0.0803 J-0.067
X4.4522 Y3.499 I-0.5512 J0.1751
G3 X4.4849 Y3.457 I0.023 J-0.0159
G2 X4.6524 Y3.4924 I0.2019 J-0.5419
X4.7433 Y3.4495 I0.0063 J-0.1044
G1 X4.7464 Y3.4452
G2 X4.7591 Y3.3455 I-0.0846 J-0.0615
X4.6737 Y3.1971 I-0.5384 J0.2112
G3 X4.7036 Y3.153 I0.0219 J-0.0173
G2 X4.873 Y3.1773 I0.1657 J-0.5541
X4.9608 Y3.1285 I-0.0007 J-0.1046
G1 X4.9636 Y3.1241
X4.9637 Y3.1239
G2 X4.9698 Y3.0236 I-0.0886 J-0.0557
X4.8748 Y2.8812 I-0.5233 J0.2462
G3 X4.9017 Y2.8353 I0.0207 J-0.0188
G2 X5.0724 Y2.8483 I0.1287 J-0.5638
X5.1568 Y2.7937 I-0.0076 J-0.1043
G1 X5.1593 Y2.7891
G2 X5.1588 Y2.6886 I-0.092 J-0.0498
X5.0546 Y2.5528 I-0.5058 J0.2803
G3 X5.0783 Y2.5051 I0.0194 J-0.0201
G2 X5.2495 Y2.5068 I0.0912 J-0.5711
X5.3302 Y2.4468 I-0.0144 J-0.1036
G1 X5.3324 Y2.442
G2 X5.3253 Y2.3418 I-0.0951 J-0.0436
X5.2122 Y2.2131 I-0.4862 J0.3131
G3 X5.2328 Y2.164 I0.018 J-0.0213
G2 X5.4038 Y2.1544 I0.0532 J-0.5759
X5.4802 Y2.0892 I-0.0213 J-0.1024
X5.4804 Y2.0888 I-0.0697 J-0.0266
G1 X5.4822 Y2.084
G2 X5.4683 Y1.9847 I-0.0979 J-0.037
X5.3471 Y1.8638 I-0.4645 J0.3446
G3 X5.3644 Y1.8135 I0.0165 J-0.0225
G2 X5.5343 Y1.7925 I0.015 J-0.5782
X5.6063 Y1.7225 I-0.028 J-0.1008
G1 X5.6064 Y1.7222
X5.6079 Y1.7172
G2 X5.5875 Y1.6189 I-0.1 J-0.0305
X5.4586 Y1.5063 I-0.4407 J0.3745
G3 X5.4725 Y1.455 I0.015 J-0.0235
G2 X5.6407 Y1.4228 I-0.0232 J-0.5779
X5.7079 Y1.3482 I-0.0346 J-0.0987
G1 X5.7091 Y1.3431
Y1.343
G2 X5.6823 Y1.2461 I-0.1018 J-0.024
X5.5462 Y1.1423 I-0.415 J0.4028
G3 X5.5567 Y1.0901 I0.0134 J-0.0244
G2 X5.7224 Y1.0469 I-0.0613 J-0.5751
X5.7845 Y0.9679 I-0.0411 J-0.0962
G1 X5.7854 Y0.9627
G2 X5.7523 Y0.8678 I-0.1032 J-0.0172
X5.6096 Y0.7732 I-0.3874 J0.4294
G3 X5.6166 Y0.7205 I0.0118 J-0.0253
G2 X5.7791 Y0.6664 I-0.0992 J-0.5698
X5.8358 Y0.5838 I-0.0474 J-0.0932
G1 X5.8363 Y0.5786
X5.8364 Y0.5783
G2 X5.7971 Y0.4858 I-0.1041 J-0.0104
X5.6484 Y0.4008 I-0.3582 J0.4541
G3 X5.6519 Y0.3477 I0.0101 J-0.026
G2 X5.8105 Y0.2831 I-0.1366 J-0.562
X5.8616 Y0.1966 I-0.0534 J-0.09
G1 X5.8617 Y0.1963
X5.8618 Y0.1911
G2 X5.8165 Y0.1016 I-0.1045 J-0.0033
X5.6626 Y0.0266 I-0.3274 J0.4767
G3 Y-0.0266 I0.0084 J-0.0266
G2 X5.8165 Y-0.1016 I-0.1735 J-0.5517
X5.8618 Y-0.1911 I-0.0592 J-0.0862
G1 X5.8617 Y-0.1963
X5.8616 Y-0.1966
G2 X5.8105 Y-0.2831 I-0.1045 J0.0035
X5.6519 Y-0.3477 I-0.2952 J0.4973
G3 X5.6484 Y-0.4008 I0.0066 J-0.0271
G2 X5.7971 Y-0.4858 I-0.2096 J-0.5391
X5.8364 Y-0.5783 I-0.0648 J-0.0821
G1 X5.8363 Y-0.5786
X5.8358 Y-0.5838
G2 X5.7791 Y-0.6664 I-0.1041 J0.0106
X5.6166 Y-0.7205 I-0.2617 J0.5158
G3 X5.6096 Y-0.7732 I0.0048 J-0.0275
G2 X5.7523 Y-0.8678 I-0.2447 J-0.524
X5.7854 Y-0.9627 I-0.0701 J-0.0776
G1 X5.7845 Y-0.9679
G2 X5.7224 Y-1.0469 I-0.1032 J0.0171
X5.5567 Y-1.0901 I-0.2271 J0.5319
G3 X5.5462 Y-1.1423 I0.003 J-0.0277
G2 X5.6823 Y-1.2461 I-0.2788 J-0.5067
X5.7091 Y-1.343 I-0.0751 J-0.0729
G1 Y-1.3431
X5.7079 Y-1.3482
G2 X5.6407 Y-1.4228 I-0.1018 J0.0241
X5.4725 Y-1.455 I-0.1914 J0.5458
G3 X5.4586 Y-1.5063 I0.0011 J-0.0279
G2 X5.5875 Y-1.6189 I-0.3117 J-0.4871
X5.6079 Y-1.7172 I-0.0797 J-0.0677
G1 X5.6064 Y-1.7222
X5.6063 Y-1.7225
G2 X5.5343 Y-1.7925 I-0.1 J0.0307
X5.3644 Y-1.8135 I-0.1549 J0.5572
G3 X5.3471 Y-1.8638 I-0.0007 J-0.0279
G2 X5.4683 Y-1.9847 I-0.3433 J-0.4655
X5.4822 Y-2.084 I-0.084 J-0.0623
G1 X5.4804 Y-2.0888
G2 X5.4802 Y-2.0892 I-0.0699 J0.0261
X5.4038 Y-2.1544 I-0.0978 J0.0373
X5.2328 Y-2.164 I-0.1178 J0.5662
G3 X5.2122 Y-2.2131 I-0.0026 J-0.0278
G2 X5.3252 Y-2.3418 I-0.3732 J-0.4418
X5.3324 Y-2.442 I-0.088 J-0.0566
G1 X5.3302 Y-2.4468
G2 X5.2495 Y-2.5068 I-0.0951 J0.0436
X5.0784 Y-2.5051 I-0.08 J0.5728
G3 X5.0546 Y-2.5528 I-0.0044 J-0.0275
G2 X5.1588 Y-2.6886 I-0.4016 J-0.4161
X5.1593 Y-2.7891 I-0.0915 J-0.0507
G1 X5.1568 Y-2.7937
G2 X5.0724 Y-2.8483 I-0.092 J0.0498
X4.9017 Y-2.8353 I-0.042 J0.5768
G3 X4.8748 Y-2.8812 I-0.0062 J-0.0272
G2 X4.9698 Y-3.0236 I-0.4283 J-0.3886
X4.9637 Y-3.1239 I-0.0946 J-0.0446
G1 X4.9636 Y-3.1241
X4.9608 Y-3.1285
G2 X4.873 Y-3.1773 I-0.0884 J0.0559
X4.7036 Y-3.153 I-0.0038 J0.5783
G3 X4.6737 Y-3.1971 I-0.008 J-0.0267
G2 X4.7591 Y-3.3455 I-0.453 J-0.3596
X4.7464 Y-3.4452 I-0.0974 J-0.0382
G1 X4.7433 Y-3.4494
G2 X4.6524 Y-3.4924 I-0.0846 J0.0615
X4.4849 Y-3.457 I0.0344 J0.5773
G3 X4.4522 Y-3.499 I-0.0097 J-0.0261
G2 X4.5276 Y-3.6527 I-0.4758 J-0.3289
X4.5083 Y-3.7513 I-0.0997 J-0.0317
G1 X4.5049 Y-3.7554
G2 X4.4114 Y-3.7922 I-0.0804 J0.0669
X4.2466 Y-3.7459 I0.0725 J0.5738
G3 X4.2112 Y-3.7856 I-0.0115 J-0.0254
G2 X4.2763 Y-3.944 I-0.4964 J-0.2967
X4.2505 Y-4.0411 I-0.1016 J-0.025
G1 X4.2503 Y-4.0413
X4.2468 Y-4.0451
G2 X4.1512 Y-4.0755 I-0.0757 J0.0722
X3.9898 Y-4.0183 I0.1103 J0.5677
G3 X3.9518 Y-4.0557 I-0.0131 J-0.0246
G2 X4.0063 Y-4.218 I-0.515 J-0.2632
X3.9742 Y-4.3132 I-0.103 J-0.0183
G1 X3.9702 Y-4.3168
G2 X3.8727 Y-4.341 I-0.0708 J0.077
X3.7155 Y-4.2732 I0.1476 J0.5592
G3 X3.6751 Y-4.308 I-0.0147 J-0.0237
G2 X3.7188 Y-4.4735 I-0.5313 J-0.2286
X3.6804 Y-4.5664 I-0.104 J-0.0114
G1 X3.6803 Y-4.5665
X3.6762 Y-4.5698
G2 X3.5774 Y-4.5874 I-0.0655 J0.0815
X3.4249 Y-4.5094 I0.1842 J0.5482
G3 X3.3824 Y-4.5414 I-0.0162 J-0.0227
G2 X3.415 Y-4.7095 I-0.5452 J-0.193
G1 Y-4.7096
G2 X3.3706 Y-4.7997 I-0.1045 J-0.0044
G1 X3.3705
X3.3662 Y-4.8027
G2 X3.2664 Y-4.8138 I-0.06 J0.0856
X3.1194 Y-4.726 I0.22 J0.5349
G3 X3.0748 Y-4.7551 I-0.0177 J-0.0215
G2 X3.0963 Y-4.9249 I-0.5568 J-0.1565
X3.0461 Y-5.0119 I-0.1046 J0.0024
G1 X3.0416 Y-5.0146
X3.0415
G2 X2.9411 Y-5.0192 I-0.0543 J0.0894
X2.8002 Y-4.9218 I0.2549 J0.5191
G3 X2.7539 Y-4.9479 I-0.0191 J-0.0204
G2 X2.764 Y-5.1188 I-0.5659 J-0.1194
X2.7081 Y-5.2023 I-0.1042 J0.0093
G1 X2.7034 Y-5.2047
G2 X2.6029 Y-5.2026 I-0.0482 J0.0928
X2.4688 Y-5.0961 I0.2887 J0.5011
G3 X2.4208 Y-5.1191 I-0.0204 J-0.019
G2 X2.4197 Y-5.2903 I-0.5725 J-0.0817
X2.3583 Y-5.3699 I-0.1033 J0.0162
G1 X2.3535 Y-5.372
G2 X2.2534 Y-5.3632 I-0.042 J0.0958
X2.1266 Y-5.2481 I0.3212 J0.481
G3 X2.0772 Y-5.2679 I-0.0216 J-0.0177
G2 X2.0647 Y-5.4386 I-0.5767 J-0.0437
X1.9984 Y-5.514 I-0.1021 J0.023
G1 X1.9934 Y-5.5158
X1.9933
G2 X1.894 Y-5.5005 I-0.0356 J0.0984
G1 Y-5.5004
G2 X1.7751 Y-5.3772 I0.3523 J0.4587
G3 X1.7245 Y-5.3936 I-0.0227 J-0.0162
G2 X1.7008 Y-5.5632 I-0.5783 J-0.0055
X1.6295 Y-5.634 I-0.1003 J0.0297
G1 X1.6293 Y-5.6341
X1.6243 Y-5.6355
G2 X1.5263 Y-5.6135 I-0.0289 J0.1005
X1.4159 Y-5.4827 I0.3818 J0.4344
G3 X1.3643 Y-5.4958 I-0.0237 J-0.0147
G2 X1.3294 Y-5.6634 I-0.5774 J0.0327
X1.2537 Y-5.7294 I-0.0981 J0.0363
G1 X1.2486 Y-5.7305
X1.2484
G2 X1.152 Y-5.7021 I-0.0223 J0.1022
X1.0504 Y-5.5643 I0.4097 J0.4082
G3 X0.9981 Y-5.574 I-0.0247 J-0.0131
G2 X0.9522 Y-5.7389 I-0.574 J0.0709
X0.8722 Y-5.7997 I-0.0955 J0.0427
G1 X0.867 Y-5.8005
X0.8669
G2 X0.7726 Y-5.7658 I-0.0154 J0.1035
X0.6804 Y-5.6216 I0.4357 J0.3803
G3 X0.6275 Y-5.6278 I-0.0255 J-0.0114
G2 X0.5708 Y-5.7893 I-0.568 J0.1086
X0.4873 Y-5.8446 I-0.0925 J0.0489
G1 X0.4822 Y-5.8451
G2 X0.4816 I-0.0067 J0.0743
X0.3899 Y-5.8043 I-0.0086 J0.1043
X0.3074 Y-5.6543 I0.4599 J0.3506
G3 X0.2542 Y-5.6569 I-0.0262 J-0.0097
G2 X0.1869 Y-5.8144 I-0.5596 J0.1459
X0.0996 Y-5.8641 I-0.0891 J0.0549
G1 X0.0995
X0.0942 Y-5.8642
G2 X0.0054 Y-5.8174 I-0.0016 J0.1046
X-0.067 Y-5.6622 I0.4821 J0.3195
G3 X-0.1202 Y-5.6613 I-0.0268 J-0.0079
G2 X-0.1977 Y-5.814 I-0.5487 J0.1826
X-0.2881 Y-5.8579 I-0.0853 J0.0606
G1 X-0.2883 Y-5.8578
X-0.2936 Y-5.8576
G2 X-0.3791 Y-5.805 I0.0053 J0.1045
X-0.4411 Y-5.6454 I0.5021 J0.2869
G3 X-0.4941 Y-5.641 I-0.0272 J-0.0062
G2 X-0.5816 Y-5.7882 I-0.5355 J0.2185
X-0.6745 Y-5.826 I-0.081 J0.0661
G1 X-0.6797 Y-5.8254
X-0.68
G2 X-0.7619 Y-5.7672 I0.0121 J0.1039
X-0.8132 Y-5.6039 I0.52 J0.2531
G3 X-0.8659 Y-5.596 I-0.0276 J-0.0043
G2 X-0.9628 Y-5.7371 I-0.5199 J0.2534
X-1.0582 Y-5.7687 I-0.0765 J0.0713
X-1.0586 Y-5.7686 I0.0135 J0.0734
G1 X-1.0637 Y-5.7677
G2 X-1.1414 Y-5.7043 I0.0192 J0.1028
X-1.1818 Y-5.5379 I0.5356 J0.2182
G3 X-1.2338 Y-5.5266 I-0.0278 J-0.0025
G2 X-1.3399 Y-5.661 I-0.502 J0.2872
X-1.4372 Y-5.6861 I-0.0716 J0.0762
G1 X-1.4423 Y-5.6848
G2 X-1.5159 Y-5.6164 I0.0257 J0.1014
X-1.5452 Y-5.4477 I0.5488 J0.1824
G3 X-1.5964 Y-5.4329 I-0.0279 J-0.0006
G2 X-1.7111 Y-5.56 I-0.482 J0.3197
X-1.8098 Y-5.5787 I-0.0664 J0.0808
G1 X-1.8101 Y-5.5786
X-1.815 Y-5.577
G2 X-1.8838 Y-5.5039 I0.0324 J0.0994
X-1.9019 Y-5.3337 I0.5597 J0.1456
G3 X-1.9519 Y-5.3156 I-0.0279 J0.0012
G2 X-2.0748 Y-5.4348 I-0.4597 J0.3509
X-2.1743 Y-5.447 I-0.0609 J0.085
G1 X-2.1791 Y-5.4451
G2 X-2.1795 Y-5.4449 I0.0273 J0.0694
X-2.2434 Y-5.3674 I0.0389 J0.0971
X-2.2503 Y-5.1963 I0.5681 J0.1084
G3 X-2.299 Y-5.1749 I-0.0277 J0.003
G2 X-2.4295 Y-5.2858 I-0.4355 J0.3805
X-2.5298 Y-5.2913 I-0.0552 J0.0889
G1 X-2.5346 Y-5.289
G2 X-2.5933 Y-5.2073 I0.0452 J0.0944
X-2.5888 Y-5.0362 I0.574 J0.0705
G3 X-2.636 Y-5.0117 I-0.0275 J0.0049
G2 X-2.7735 Y-5.1136 I-0.4094 J0.4085
X-2.874 Y-5.1125 I-0.0492 J0.0923
G1 X-2.8786 Y-5.1099
G2 X-2.9317 Y-5.0246 I0.0513 J0.0912
X-2.9159 Y-4.8541 I0.5774 J0.0325
G3 X-2.9615 Y-4.8265 I-0.0271 J0.0067
G2 X-3.1054 Y-4.9192 I-0.3815 J0.4346
X-3.2055 Y-4.9114 I-0.043 J0.0953
G1 X-3.2098 Y-4.9086
X-3.21 Y-4.9085
G2 X-3.2574 Y-4.8198 I0.0572 J0.0876
X-3.2304 Y-4.6508 I0.5783 J-0.0058
G3 X-3.274 Y-4.6202 I-0.0266 J0.0084
G2 X-3.4237 Y-4.7032 I-0.352 J0.4589
X-3.523 Y-4.6889 I-0.0366 J0.098
G1 X-3.5271 Y-4.6858
X-3.5274 Y-4.6856
G2 X-3.5688 Y-4.5941 I0.0629 J0.0836
X-3.5307 Y-4.4271 I0.5767 J-0.044
G3 X-3.5722 Y-4.3938 I-0.026 J0.0102
G2 X-3.7271 Y-4.4666 I-0.3209 J0.4812
X-3.8252 Y-4.4458 I-0.03 J0.1002
G1 X-3.8292 Y-4.4424
X-3.8294 Y-4.4422
G2 X-3.8647 Y-4.3481 I0.0683 J0.0793
X-3.8156 Y-4.1841 I0.5725 J-0.082
G3 X-3.8547 Y-4.1481 I-0.0253 J0.0119
G2 X-4.0141 Y-4.2105 I-0.2884 J0.5013
X-4.1108 Y-4.1832 I-0.0233 J0.102
G1 X-4.111 Y-4.183
X-4.1147 Y-4.1793
G2 X-4.1436 Y-4.0832 I0.0734 J0.0745
X-4.0837 Y-3.9228 I0.5658 J-0.1197
G3 X-4.1204 Y-3.8842 I-0.0244 J0.0135
G2 X-4.2836 Y-3.936 I-0.2547 J0.5193
X-4.3783 Y-3.9023 I-0.0166 J0.1033
G1 X-4.3784 Y-3.9022
X-4.3819 Y-3.8983
G2 X-4.4044 Y-3.8004 I0.0782 J0.0695
X-4.3341 Y-3.6443 I0.5567 J-0.1568
G3 X-4.3682 Y-3.6034 I-0.0235 J0.0151
G2 X-4.5344 Y-3.6443 I-0.2198 J0.535
X-4.6266 Y-3.6045 I-0.0097 J0.1041
G1 X-4.6298 Y-3.6004
X-4.63 Y-3.6001
G2 X-4.6459 Y-3.501 I0.0826 J0.0641
X-4.5654 Y-3.3499 I0.5451 J-0.1932
G3 X-4.5967 Y-3.3068 I-0.0224 J0.0166
G2 X-4.7653 Y-3.3367 I-0.1839 J0.5483
X-4.8546 Y-3.2909 I-0.0028 J0.1046
G1 X-4.8576 Y-3.2866
X-4.8578 Y-3.2863
G2 X-4.8671 Y-3.1863 I0.0867 J0.0586
X-4.7769 Y-3.0408 I0.5311 J-0.2289
G3 X-4.8053 Y-2.9958 I-0.0213 J0.0181
G2 X-4.9754 Y-3.0144 I-0.1473 J0.5593
X-5.0616 Y-2.9627 I0.0041 J0.1045
G1 X-5.0643 Y-2.9582
Y-2.9581
G2 X-5.0671 Y-2.8577 I0.0903 J0.0527
X-4.9674 Y-2.7185 I0.5149 J-0.2634
G3 X-4.9927 Y-2.6717 I-0.02 J0.0194
G2 X-5.1638 Y-2.679 I-0.11 J0.5678
X-5.2463 Y-2.6217 I0.011 J0.104
G1 X-5.2487 Y-2.617
G2 X-5.2449 Y-2.5165 I0.0936 J0.0467
X-5.1362 Y-2.3842 I0.4963 J-0.2969
G3 X-5.1584 Y-2.3359 I-0.0187 J0.0207
G2 X-5.3296 Y-2.3319 I-0.0722 J0.5738
G1 Y-2.3318
G2 X-5.4081 Y-2.2692 I0.018 J0.1031
G1 X-5.4102 Y-2.2644
G2 X-5.3998 Y-2.1644 I0.0965 J0.0404
X-5.2826 Y-2.0396 I0.4757 J-0.329
G3 X-5.3015 Y-1.9898 I-0.0173 J0.0219
G2 X-5.472 Y-1.9745 I-0.0342 J0.5773
X-5.5463 Y-1.9068 I0.0247 J0.1017
G1 X-5.5464 Y-1.9065
X-5.5481 Y-1.9016
G2 X-5.531 Y-1.8028 I0.099 J0.0338
X-5.4058 Y-1.686 I0.4528 J-0.3597
G3 X-5.4214 Y-1.6351 I-0.0158 J0.023
G2 X-5.5906 Y-1.6086 I0.0041 J0.5783
G1 Y-1.6085
G2 X-5.6602 Y-1.5361 I0.0314 J0.0998
G1 Y-1.536
X-5.6616 Y-1.531
G2 X-5.6381 Y-1.4334 I0.101 J0.0273
G1 X-5.638 Y-1.4333
G2 X-5.5054 Y-1.325 I0.428 J-0.389
G3 X-5.5176 Y-1.2732 I-0.0143 J0.024
G2 X-5.6846 Y-1.2356 I0.0423 J0.5768
X-5.7493 Y-1.1588 I0.0379 J0.0975
G1 X-5.7503 Y-1.1538
X-5.7504 Y-1.1535
G2 X-5.7205 Y-1.0576 I0.1025 J0.0206
X-5.581 Y-0.9583 I0.4014 J-0.4163
G3 X-5.5897 Y-0.9058 I-0.0126 J0.0249
G2 X-5.7538 Y-0.8572 I0.0803 J0.5727
X-5.8133 Y-0.7762 I0.0442 J0.0948
X-5.8134 Y-0.7758 I0.0739 J0.0099
G1 X-5.8141 Y-0.7707
G2 X-5.7779 Y-0.6772 I0.1037 J0.0136
G1 X-5.7778
G2 X-5.6321 Y-0.5873 I0.373 J-0.442
G3 X-5.6373 Y-0.5344 I-0.011 J0.0257
G2 X-5.7979 Y-0.475 I0.118 J0.5662
X-5.8519 Y-0.3903 I0.0504 J0.0917
G1 X-5.8523 Y-0.385
G2 X-5.81 Y-0.2939 I0.1044 J0.007
G1 Y-0.2938
G2 X-5.6586 Y-0.2138 I0.343 J-0.4657
G3 X-5.6603 Y-0.1606 I-0.0093 J0.0263
G2 X-5.8167 Y-0.0908 I0.1551 J0.5572
G1 Y-0.0907
G2 X-5.8649 Y-0.0026 I0.0564 J0.0881
G1 Y0.
Y0.0026
G2 X-5.8167 Y0.0907 I0.1046 J0.
G1 Y0.0908
G2 X-5.6603 Y0.1606 I0.3115 J-0.4873
G3 X-5.6586 Y0.2138 I-0.0075 J0.0269
G2 X-5.81 Y0.2938 I0.1916 J0.5457
G1 Y0.2939
G2 X-5.8523 Y0.385 I0.0621 J0.0842
G1 X-5.8519 Y0.3903
G2 X-5.798 Y0.475 I0.1044 J-0.0069
X-5.6373 Y0.5344 I0.2786 J-0.5068
G3 X-5.6321 Y0.5873 I-0.0057 J0.0273
G2 X-5.7778 Y0.6772 I0.2272 J0.5318
G1 X-5.7779
G2 X-5.8141 Y0.7707 I0.0676 J0.0798
G1 X-5.8134 Y0.7758
G2 X-5.8133 Y0.7762 I0.074 J-0.0094
X-5.7538 Y0.8572 I0.1037 J-0.0139
X-5.6805 Y0.8855 I0.2445 J-0.5241
X-5.5897 Y0.9058 Z-0.1497 I0.1712 J-0.5524
G3 X-5.5809 Y0.9583 Z-0.1532 I-0.0039 J0.0276
G2 X-5.7204 Y1.0576 Z-0.1618 I0.2619 J0.5156
X-5.7504 Y1.1535 Z-0.1671 I0.0726 J0.0753
G1 X-5.7503 Y1.1538
X-5.7493 Y1.1588 Z-0.1674
G2 X-5.6847 Y1.2356 Z-0.1726 I0.1025 J-0.0208
X-5.5176 Y1.2732 Z-0.1813 I0.2094 J-0.5391
G3 X-5.5054 Y1.325 Z-0.1848 I-0.0021 J0.0278
G2 X-5.638 Y1.4333 Z-0.1934 I0.2954 J0.4972
G1 X-5.6381 Y1.4334
G2 X-5.6616 Y1.531 Z-0.1987 I0.0775 J0.0703
G1 X-5.6602 Y1.536 Z-0.1989
Y1.5361
G2 X-5.5906 Y1.6085 Z-0.2042 I0.101 J-0.0274
G1 Y1.6086
G2 X-5.4214 Y1.6351 Z-0.2128 I0.1732 J-0.5518
G3 X-5.4058 Y1.686 Z-0.2164 I-0.0002 J0.0279
G2 X-5.424 Y1.699 Z-0.2175 I0.3277 J0.4766
X-5.531 Y1.8028 I0.3459 J0.4635
X-5.5481 Y1.9016 I0.0819 J0.0651
G1 X-5.5464 Y1.9065
X-5.5463 Y1.9068
G2 X-5.4721 Y1.9745 I0.0989 J-0.034
X-5.3015 Y1.9898 I0.1364 J-0.562
G3 X-5.2826 Y2.0396 I0.0017 J0.0278
G2 X-5.3997 Y2.1644 I0.3585 J0.4539
X-5.4102 Y2.2643 I0.086 J0.0595
G1 X-5.4081 Y2.2692
G2 X-5.3296 Y2.3318 I0.0965 J-0.0404
G1 Y2.3319
G2 X-5.1584 Y2.3359 I0.0989 J-0.5698
G3 X-5.1362 Y2.3842 I0.0035 J0.0277
G2 X-5.2449 Y2.5165 I0.3877 J0.4292
X-5.2487 Y2.6169 I0.0898 J0.0537
G1 X-5.2464 Y2.6217
G2 X-5.1638 Y2.679 I0.0936 J-0.0467
X-4.9927 Y2.6717 I0.061 J-0.5751
G3 X-4.9674 Y2.7185 I0.0053 J0.0274
G2 X-5.0671 Y2.8577 I0.4152 J0.4026
X-5.0643 Y2.9581 I0.0931 J0.0477
G1 Y2.9582
X-5.0616 Y2.9627
G2 X-4.9754 Y3.0144 I0.0903 J-0.0528
X-4.8053 Y2.9958 I0.0229 J-0.5779
G3 X-4.7769 Y3.0408 I0.0071 J0.027
G2 X-4.8671 Y3.1863 I0.4409 J0.3743
X-4.8578 Y3.2863 I0.096 J0.0414
G1 X-4.8576 Y3.2866
X-4.8546 Y3.2909
G2 X-4.7654 Y3.3367 I0.0865 J-0.0588
X-4.5967 Y3.3068 I-0.0153 J-0.5781
G3 X-4.5654 Y3.3499 I0.0089 J0.0265
G2 X-4.6459 Y3.501 I0.4646 J0.3443
X-4.63 Y3.6001 I0.0986 J0.035
G1 X-4.6298 Y3.6004
X-4.6266 Y3.6045
G2 X-4.5344 Y3.6443 I0.0825 J-0.0643
X-4.3682 Y3.6034 I-0.0535 J-0.5759
G3 X-4.3341 Y3.6443 I0.0106 J0.0258
G2 X-4.4044 Y3.8004 I0.4864 J0.3129
X-4.3819 Y3.8983 I0.1007 J0.0284
G1 X-4.3784 Y3.9022
X-4.3783 Y3.9023
G2 X-4.2836 Y3.936 I0.0781 J-0.0696
X-4.1205 Y3.8842 I-0.0915 J-0.5711
G3 X-4.0837 Y3.9228 I0.0123 J0.025
G2 X-4.1436 Y4.0832 I0.506 J0.2801
X-4.1147 Y4.1793 I0.1023 J0.0217
G1 X-4.111 Y4.183
X-4.1108 Y4.1832
G2 X-4.0141 Y4.2105 I0.0733 J-0.0747
X-3.8547 Y4.1481 I-0.129 J-0.5638
G3 X-3.8156 Y4.1841 I0.0139 J0.0242
G2 X-3.8647 Y4.3481 I0.5234 J0.246
X-3.8294 Y4.4422 I0.1035 J0.0149
G1 X-3.8292 Y4.4424
X-3.8252 Y4.4458
G2 X-3.7271 Y4.4666 I0.0681 J-0.0793
X-3.5722 Y4.3938 I-0.1659 J-0.554
G3 X-3.5307 Y4.4271 I0.0155 J0.0232
G2 X-3.5688 Y4.5941 I0.5385 J0.2109
X-3.5274 Y4.6856 I0.1043 J0.008
G1 X-3.5271 Y4.6858
X-3.523 Y4.6889
G2 X-3.4237 Y4.7032 I0.0627 J-0.0837
X-3.274 Y4.6202 I-0.2022 J-0.5418
G3 X-3.2304 Y4.6508 I0.017 J0.0221
G2 X-3.2574 Y4.8198 I0.5513 J0.1748
X-3.21 Y4.9085 I0.1046 J0.0011
G1 X-3.2098 Y4.9086
X-3.2055 Y4.9114
G2 X-3.1054 Y4.9192 I0.0571 J-0.0876
X-2.9615 Y4.8265 I-0.2376 J-0.5273
G3 X-2.9159 Y4.8541 I0.0184 J0.021
G2 X-2.9317 Y5.0246 I0.5616 J0.138
X-2.8786 Y5.1099 I0.1044 J-0.0059
G1 X-2.874 Y5.1125
G2 X-2.7735 Y5.1136 I0.0512 J-0.0912
X-2.636 Y5.0117 I-0.2719 J-0.5104
G3 X-2.5888 Y5.0362 I0.0198 J0.0197
G2 X-2.5933 Y5.2073 I0.5695 J0.1006
X-2.5346 Y5.289 I0.1038 J-0.0127
G1 X-2.5298 Y5.2913
G2 X-2.4295 Y5.2858 I0.0452 J-0.0944
X-2.299 Y5.175 I-0.305 J-0.4914
G3 X-2.2502 Y5.1963 I0.021 J0.0183
G2 X-2.2434 Y5.3674 I0.5749 J0.0627
X-2.1795 Y5.4449 I0.1028 J-0.0196
X-2.1791 Y5.4451 I0.0277 J-0.0693
G1 X-2.1743 Y5.447
G2 X-2.0748 Y5.4348 I0.0386 J-0.0972
X-1.952 Y5.3156 I-0.3368 J-0.4701
G3 X-1.9019 Y5.3337 I0.0222 J0.0169
G2 X-1.8838 Y5.5039 I0.5778 J0.0246
X-1.815 Y5.577 I0.1012 J-0.0263
G1 X-1.8101 Y5.5786
X-1.8098 Y5.5787
G2 X-1.7111 Y5.56 I0.0323 J-0.0995
X-1.5964 Y5.4329 I-0.3672 J-0.4468
G3 X-1.5452 Y5.4477 I0.0232 J0.0154
G2 X-1.5159 Y5.6164 I0.5782 J-0.0136
X-1.4423 Y5.6848 I0.0992 J-0.033
G1 X-1.4372 Y5.6861
G2 X-1.3399 Y5.661 I0.0257 J-0.1014
X-1.2338 Y5.5266 I-0.3959 J-0.4216
G3 X-1.1818 Y5.5379 I0.0242 J0.0139
G2 X-1.1414 Y5.7043 I0.576 J-0.0518
X-1.0637 Y5.7677 I0.0969 J-0.0394
G1 X-1.0586 Y5.7686
G2 X-1.0582 Y5.7687 I0.0139 J-0.0733
X-0.9628 Y5.7371 I0.0189 J-0.1029
X-0.8659 Y5.596 I-0.4229 J-0.3945
G3 X-0.8132 Y5.6039 I0.0251 J0.0122
G2 X-0.7619 Y5.7672 I0.5713 J-0.0898
X-0.68 Y5.8254 I0.0941 J-0.0457
G1 X-0.6797
X-0.6745 Y5.826
G2 X-0.5816 Y5.7882 I0.0119 J-0.1039
X-0.4941 Y5.641 I-0.4481 J-0.3657
G3 X-0.4411 Y5.6454 I0.0258 J0.0106
G2 X-0.3791 Y5.805 I0.5641 J-0.1273
X-0.2936 Y5.8576 I0.0908 J-0.0519
G1 X-0.2883 Y5.8578
X-0.2881 Y5.8579
G2 X-0.1977 Y5.814 I0.0051 J-0.1045
X-0.1202 Y5.6614 I-0.4713 J-0.3353
G3 X-0.067 Y5.6622 I0.0265 J0.0088
G2 X0.0054 Y5.8174 I0.5545 J-0.1644
X0.0942 Y5.8642 I0.0872 J-0.0578
G1 X0.0995 Y5.8641
X0.0996
G2 X0.1869 Y5.8144 I-0.0017 J-0.1046
X0.2542 Y5.6569 I-0.4924 J-0.3034
G3 X0.3074 Y5.6543 I0.027 J0.007
G2 X0.3899 Y5.8043 I0.5424 J-0.2006
X0.4816 Y5.8451 I0.0832 J-0.0634
X0.4822 I-0.0061 J-0.0743
G1 X0.4873 Y5.8446
G2 X0.5708 Y5.7893 I-0.0089 J-0.1042
X0.6275 Y5.6278 I-0.5113 J-0.2702
G3 X0.6804 Y5.6216 I0.0274 J0.0052
G2 X0.7726 Y5.7658 I0.528 J-0.2361
X0.8669 Y5.8005 I0.0788 J-0.0688
G1 X0.867
X0.8722 Y5.7997
G2 X0.9522 Y5.7389 I-0.0155 J-0.1034
X0.9981 Y5.574 I-0.5281 J-0.2358
G3 X1.0504 Y5.5643 I0.0277 J0.0034
G2 X1.152 Y5.7021 I0.5112 J-0.2705
X1.2484 Y5.7305 I0.0741 J-0.0738
G1 X1.2486
X1.2537 Y5.7294
G2 X1.3294 Y5.6635 I-0.0224 J-0.1022
X1.3643 Y5.4958 I-0.5425 J-0.2004
G3 X1.4159 Y5.4827 I0.0279 J0.0016
G2 X1.5263 Y5.6135 I0.4922 J-0.3036
X1.6243 Y5.6355 I0.0691 J-0.0785
G1 X1.6293 Y5.6341
X1.6295 Y5.634
G2 X1.7008 Y5.5632 I-0.0291 J-0.1005
X1.7245 Y5.3936 I-0.5546 J-0.1641
G3 X1.7751 Y5.3772 I0.0279 J-0.0003
G2 X1.894 Y5.5004 I0.4711 J-0.3354
G1 Y5.5005
G2 X1.9933 Y5.5158 I0.0637 J-0.083
G1 X1.9934
X1.9984 Y5.514
G2 X2.0647 Y5.4387 I-0.0357 J-0.0983
X2.0772 Y5.2679 I-0.5642 J-0.1271
G3 X2.1266 Y5.2481 I0.0278 J-0.0021
G2 X2.2534 Y5.3632 I0.4479 J-0.3658
X2.3535 Y5.372 I0.0581 J-0.087
G1 X2.3583 Y5.3699
G2 X2.4197 Y5.2903 I-0.042 J-0.0958
X2.4208 Y5.1191 I-0.5714 J-0.0895
G3 X2.4688 Y5.0961 I0.0276 J-0.0039
G2 X2.6029 Y5.2026 I0.4228 J-0.3947
X2.7034 Y5.2047 I0.0522 J-0.0906
G1 X2.7081 Y5.2023
G2 X2.764 Y5.1188 I-0.0482 J-0.0928
X2.7539 Y4.9479 I-0.576 J-0.0516
G3 X2.8002 Y4.9218 I0.0273 J-0.0058
G2 X2.9411 Y5.0192 I0.3958 J-0.4217
X3.0415 Y5.0146 I0.0461 J-0.0939
G1 X3.0416
X3.0461 Y5.0119
G2 X3.0963 Y4.9249 I-0.0544 J-0.0894
X3.0748 Y4.7551 I-0.5782 J-0.0133
G3 X3.1194 Y4.726 I0.0269 J-0.0075
G2 X3.2664 Y4.8138 I0.3669 J-0.4471
X3.3662 Y4.8027 I0.0398 J-0.0967
G1 X3.3705 Y4.7997
X3.3706
G2 X3.415 Y4.7096 I-0.0601 J-0.0856
G1 Y4.7095
G2 X3.3824 Y4.5414 I-0.5778 J0.0249
G3 X3.4249 Y4.5094 I0.0263 J-0.0093
G2 X3.5774 Y4.5874 I0.3367 J-0.4702
X3.6762 Y4.5698 I0.0333 J-0.0992
G1 X3.6803 Y4.5665
X3.6804 Y4.5664
G2 X3.7188 Y4.4735 I-0.0656 J-0.0815
X3.6751 Y4.308 I-0.5749 J0.063
G3 X3.7155 Y4.2732 I0.0256 J-0.011
G2 X3.8727 Y4.3409 I0.3048 J-0.4915
X3.9702 Y4.3168 I0.0267 J-0.1011
G1 X3.9741 Y4.3132
G2 X4.0063 Y4.218 I-0.0708 J-0.077
X3.9518 Y4.0557 I-0.5695 J0.1009
G3 X3.9898 Y4.0183 I0.0248 J-0.0127
G2 X4.1512 Y4.0755 I0.2717 J-0.5106
X4.2468 Y4.0451 I0.0199 J-0.1027
G1 X4.2503 Y4.0413
X4.2505 Y4.0411
G2 X4.2763 Y3.944 I-0.0758 J-0.0721
X4.2112 Y3.7856 I-0.5615 J0.1384
G3 X4.2466 Y3.7459 I0.024 J-0.0143
G2 X4.4114 Y3.7922 I0.2373 J-0.5274
X4.5049 Y3.7554 I0.0131 J-0.1038
G1 X4.5083 Y3.7513
G2 X4.5276 Y3.6527 I-0.0803 J-0.067
X4.4522 Y3.499 I-0.5512 J0.1751
G3 X4.4849 Y3.457 I0.023 J-0.0159
G2 X4.6524 Y3.4924 I0.2019 J-0.5419
X4.7433 Y3.4495 I0.0063 J-0.1044
G1 X4.7464 Y3.4452
G2 X4.7591 Y3.3455 I-0.0846 J-0.0615
X4.6737 Y3.1971 I-0.5384 J0.2112
G3 X4.7036 Y3.153 I0.0219 J-0.0173
G2 X4.873 Y3.1773 I0.1657 J-0.5541
X4.9608 Y3.1285 I-0.0007 J-0.1046
G1 X4.9636 Y3.1241
X4.9637 Y3.1239
G2 X4.9698 Y3.0236 I-0.0886 J-0.0557
X4.8748 Y2.8812 I-0.5233 J0.2462
G3 X4.9017 Y2.8353 I0.0207 J-0.0188
G2 X5.0724 Y2.8483 I0.1287 J-0.5638
X5.1568 Y2.7937 I-0.0076 J-0.1043
G1 X5.1593 Y2.7891
G2 X5.1588 Y2.6886 I-0.092 J-0.0498
X5.0546 Y2.5528 I-0.5058 J0.2803
G3 X5.0783 Y2.5051 I0.0194 J-0.0201
G2 X5.2495 Y2.5068 I0.0912 J-0.5711
X5.3302 Y2.4468 I-0.0144 J-0.1036
G1 X5.3324 Y2.442
G2 X5.3253 Y2.3418 I-0.0951 J-0.0436
X5.2122 Y2.2131 I-0.4862 J0.3131
G3 X5.2328 Y2.164 I0.018 J-0.0213
G2 X5.4038 Y2.1544 I0.0532 J-0.5759
X5.4802 Y2.0892 I-0.0213 J-0.1024
X5.4804 Y2.0888 I-0.0697 J-0.0266
G1 X5.4822 Y2.084
G2 X5.4683 Y1.9847 I-0.0979 J-0.037
X5.3471 Y1.8638 I-0.4645 J0.3446
G3 X5.3644 Y1.8135 I0.0165 J-0.0225
G2 X5.5343 Y1.7925 I0.015 J-0.5782
X5.6063 Y1.7225 I-0.028 J-0.1008
G1 X5.6064 Y1.7222
X5.6079 Y1.7172
G2 X5.5875 Y1.6189 I-0.1 J-0.0305
X5.4586 Y1.5063 I-0.4407 J0.3745
G3 X5.4725 Y1.455 I0.015 J-0.0235
G2 X5.6407 Y1.4228 I-0.0232 J-0.5779
X5.7079 Y1.3482 I-0.0346 J-0.0987
G1 X5.7091 Y1.3431
Y1.343
G2 X5.6823 Y1.2461 I-0.1018 J-0.024
X5.5462 Y1.1423 I-0.415 J0.4028
G3 X5.5567 Y1.0901 I0.0134 J-0.0244
G2 X5.7224 Y1.0469 I-0.0613 J-0.5751
X5.7845 Y0.9679 I-0.0411 J-0.0962
G1 X5.7854 Y0.9627
G2 X5.7523 Y0.8678 I-0.1032 J-0.0172
X5.6096 Y0.7732 I-0.3874 J0.4294
G3 X5.6166 Y0.7205 I0.0118 J-0.0253
G2 X5.7791 Y0.6664 I-0.0992 J-0.5698
X5.8358 Y0.5838 I-0.0474 J-0.0932
G1 X5.8363 Y0.5786
X5.8364 Y0.5783
G2 X5.7971 Y0.4858 I-0.1041 J-0.0104
X5.6484 Y0.4008 I-0.3582 J0.4541
G3 X5.6519 Y0.3477 I0.0101 J-0.026
G2 X5.8105 Y0.2831 I-0.1366 J-0.562
X5.8616 Y0.1966 I-0.0534 J-0.09
G1 X5.8617 Y0.1963
X5.8618 Y0.1911
G2 X5.8165 Y0.1016 I-0.1045 J-0.0033
X5.6626 Y0.0266 I-0.3274 J0.4767
G3 Y-0.0266 I0.0084 J-0.0266
G2 X5.8165 Y-0.1016 I-0.1735 J-0.5517
X5.8618 Y-0.1911 I-0.0592 J-0.0862
G1 X5.8617 Y-0.1963
X5.8616 Y-0.1966
G2 X5.8105 Y-0.2831 I-0.1045 J0.0035
X5.6519 Y-0.3477 I-0.2952 J0.4973
G3 X5.6484 Y-0.4008 I0.0066 J-0.0271
G2 X5.7971 Y-0.4858 I-0.2096 J-0.5391
X5.8364 Y-0.5783 I-0.0648 J-0.0821
G1 X5.8363 Y-0.5786
X5.8358 Y-0.5838
G2 X5.7791 Y-0.6664 I-0.1041 J0.0106
X5.6166 Y-0.7205 I-0.2617 J0.5158
G3 X5.6096 Y-0.7732 I0.0048 J-0.0275
G2 X5.7523 Y-0.8678 I-0.2447 J-0.524
X5.7854 Y-0.9627 I-0.0701 J-0.0776
G1 X5.7845 Y-0.9679
G2 X5.7224 Y-1.0469 I-0.1032 J0.0171
X5.5567 Y-1.0901 I-0.2271 J0.5319
G3 X5.5462 Y-1.1423 I0.003 J-0.0277
G2 X5.6823 Y-1.2461 I-0.2788 J-0.5067
X5.7091 Y-1.343 I-0.0751 J-0.0729
G1 Y-1.3431
X5.7079 Y-1.3482
G2 X5.6407 Y-1.4228 I-0.1018 J0.0241
X5.4725 Y-1.455 I-0.1914 J0.5458
G3 X5.4586 Y-1.5063 I0.0011 J-0.0279
G2 X5.5875 Y-1.6189 I-0.3117 J-0.4871
X5.6079 Y-1.7172 I-0.0797 J-0.0677
G1 X5.6064 Y-1.7222
X5.6063 Y-1.7225
G2 X5.5343 Y-1.7925 I-0.1 J0.0307
X5.3644 Y-1.8135 I-0.1549 J0.5572
G3 X5.3471 Y-1.8638 I-0.0007 J-0.0279
G2 X5.4683 Y-1.9847 I-0.3433 J-0.4655
X5.4822 Y-2.084 I-0.084 J-0.0623
G1 X5.4804 Y-2.0888
G2 X5.4802 Y-2.0892 I-0.0699 J0.0261
X5.4038 Y-2.1544 I-0.0978 J0.0373
X5.2328 Y-2.164 I-0.1178 J0.5662
G3 X5.2122 Y-2.2131 I-0.0026 J-0.0278
G2 X5.3252 Y-2.3418 I-0.3732 J-0.4418
X5.3324 Y-2.442 I-0.088 J-0.0566
G1 X5.3302 Y-2.4468
G2 X5.2495 Y-2.5068 I-0.0951 J0.0436
X5.0784 Y-2.5051 I-0.08 J0.5728
G3 X5.0546 Y-2.5528 I-0.0044 J-0.0275
G2 X5.1588 Y-2.6886 I-0.4016 J-0.4161
X5.1593 Y-2.7891 I-0.0915 J-0.0507
G1 X5.1568 Y-2.7937
G2 X5.0724 Y-2.8483 I-0.092 J0.0498
X4.9017 Y-2.8353 I-0.042 J0.5768
G3 X4.8748 Y-2.8812 I-0.0062 J-0.0272
G2 X4.9698 Y-3.0236 I-0.4283 J-0.3886
X4.9637 Y-3.1239 I-0.0946 J-0.0446
G1 X4.9636 Y-3.1241
X4.9608 Y-3.1285
G2 X4.873 Y-3.1773 I-0.0884 J0.0559
X4.7036 Y-3.153 I-0.0038 J0.5783
G3 X4.6737 Y-3.1971 I-0.008 J-0.0267
G2 X4.7591 Y-3.3455 I-0.453 J-0.3596
X4.7464 Y-3.4452 I-0.0974 J-0.0382
G1 X4.7433 Y-3.4494
G2 X4.6524 Y-3.4924 I-0.0846 J0.0615
X4.4849 Y-3.457 I0.0344 J0.5773
G3 X4.4522 Y-3.499 I-0.0097 J-0.0261
G2 X4.5276 Y-3.6527 I-0.4758 J-0.3289
X4.5083 Y-3.7513 I-0.0997 J-0.0317
G1 X4.5049 Y-3.7554
G2 X4.4114 Y-3.7922 I-0.0804 J0.0669
X4.2466 Y-3.7459 I0.0725 J0.5738
G3 X4.2112 Y-3.7856 I-0.0115 J-0.0254
G2 X4.2763 Y-3.944 I-0.4964 J-0.2967
X4.2505 Y-4.0411 I-0.1016 J-0.025
G1 X4.2503 Y-4.0413
X4.2468 Y-4.0451
G2 X4.1512 Y-4.0755 I-0.0757 J0.0722
X3.9898 Y-4.0183 I0.1103 J0.5677
G3 X3.9518 Y-4.0557 I-0.0131 J-0.0246
G2 X4.0063 Y-4.218 I-0.515 J-0.2632
X3.9742 Y-4.3132 I-0.103 J-0.0183
G1 X3.9702 Y-4.3168
G2 X3.8727 Y-4.341 I-0.0708 J0.077
X3.7155 Y-4.2732 I0.1476 J0.5592
G3 X3.6751 Y-4.308 I-0.0147 J-0.0237
G2 X3.7188 Y-4.4735 I-0.5313 J-0.2286
X3.6804 Y-4.5664 I-0.104 J-0.0114
G1 X3.6803 Y-4.5665
X3.6762 Y-4.5698
G2 X3.5774 Y-4.5874 I-0.0655 J0.0815
X3.4249 Y-4.5094 I0.1842 J0.5482
G3 X3.3824 Y-4.5414 I-0.0162 J-0.0227
G2 X3.415 Y-4.7095 I-0.5452 J-0.193
G1 Y-4.7096
G2 X3.3706 Y-4.7997 I-0.1045 J-0.0044
G1 X3.3705
X3.3662 Y-4.8027
G2 X3.2664 Y-4.8138 I-0.06 J0.0856
X3.1194 Y-4.726 I0.22 J0.5349
G3 X3.0748 Y-4.7551 I-0.0177 J-0.0215
G2 X3.0963 Y-4.9249 I-0.5568 J-0.1565
X3.0461 Y-5.0119 I-0.1046 J0.0024
G1 X3.0416 Y-5.0146
X3.0415
G2 X2.9411 Y-5.0192 I-0.0543 J0.0894
X2.8002 Y-4.9218 I0.2549 J0.5191
G3 X2.7539 Y-4.9479 I-0.0191 J-0.0204
G2 X2.764 Y-5.1188 I-0.5659 J-0.1194
X2.7081 Y-5.2023 I-0.1042 J0.0093
G1 X2.7034 Y-5.2047
G2 X2.6029 Y-5.2026 I-0.0482 J0.0928
X2.4688 Y-5.0961 I0.2887 J0.5011
G3 X2.4208 Y-5.1191 I-0.0204 J-0.019
G2 X2.4197 Y-5.2903 I-0.5725 J-0.0817
X2.3583 Y-5.3699 I-0.1033 J0.0162
G1 X2.3535 Y-5.372
G2 X2.2534 Y-5.3632 I-0.042 J0.0958
X2.1266 Y-5.2481 I0.3212 J0.481
G3 X2.0772 Y-5.2679 I-0.0216 J-0.0177
G2 X2.0647 Y-5.4386 I-0.5767 J-0.0437
X1.9984 Y-5.514 I-0.1021 J0.023
G1 X1.9934 Y-5.5158
X1.9933
G2 X1.894 Y-5.5005 I-0.0356 J0.0984
G1 Y-5.5004
G2 X1.7751 Y-5.3772 I0.3523 J0.4587
G3 X1.7245 Y-5.3936 I-0.0227 J-0.0162
G2 X1.7008 Y-5.5632 I-0.5783 J-0.0055
X1.6295 Y-5.634 I-0.1003 J0.0297
G1 X1.6293 Y-5.6341
X1.6243 Y-5.6355
G2 X1.5263 Y-5.6135 I-0.0289 J0.1005
X1.4159 Y-5.4827 I0.3818 J0.4344
G3 X1.3643 Y-5.4958 I-0.0237 J-0.0147
G2 X1.3294 Y-5.6634 I-0.5774 J0.0327
X1.2537 Y-5.7294 I-0.0981 J0.0363
G1 X1.2486 Y-5.7305
X1.2484
G2 X1.152 Y-5.7021 I-0.0223 J0.1022
X1.0504 Y-5.5643 I0.4097 J0.4082
G3 X0.9981 Y-5.574 I-0.0247 J-0.0131
G2 X0.9522 Y-5.7389 I-0.574 J0.0709
X0.8722 Y-5.7997 I-0.0955 J0.0427
G1 X0.867 Y-5.8005
X0.8669
G2 X0.7726 Y-5.7658 I-0.0154 J0.1035
X0.6804 Y-5.6216 I0.4357 J0.3803
G3 X0.6275 Y-5.6278 I-0.0255 J-0.0114
G2 X0.5708 Y-5.7893 I-0.568 J0.1086
X0.4873 Y-5.8446 I-0.0925 J0.0489
G1 X0.4822 Y-5.8451
G2 X0.4816 I-0.0067 J0.0743
X0.3899 Y-5.8043 I-0.0086 J0.1043
X0.3074 Y-5.6543 I0.4599 J0.3506
G3 X0.2542 Y-5.6569 I-0.0262 J-0.0097
G2 X0.1869 Y-5.8144 I-0.5596 J0.1459
X0.0996 Y-5.8641 I-0.0891 J0.0549
G1 X0.0995
X0.0942 Y-5.8642
G2 X0.0054 Y-5.8174 I-0.0016 J0.1046
X-0.067 Y-5.6622 I0.4821 J0.3195
G3 X-0.1202 Y-5.6613 I-0.0268 J-0.0079
G2 X-0.1977 Y-5.814 I-0.5487 J0.1826
X-0.2881 Y-5.8579 I-0.0853 J0.0606
G1 X-0.2883 Y-5.8578
X-0.2936 Y-5.8576
G2 X-0.3791 Y-5.805 I0.0053 J0.1045
X-0.4411 Y-5.6454 I0.5021 J0.2869
G3 X-0.4941 Y-5.641 I-0.0272 J-0.0062
G2 X-0.5816 Y-5.7882 I-0.5355 J0.2185
X-0.6745 Y-5.826 I-0.081 J0.0661
G1 X-0.6797 Y-5.8254
X-0.68
G2 X-0.7619 Y-5.7672 I0.0121 J0.1039
X-0.8132 Y-5.6039 I0.52 J0.2531
G3 X-0.8659 Y-5.596 I-0.0276 J-0.0043
G2 X-0.9628 Y-5.7371 I-0.5199 J0.2534
X-1.0582 Y-5.7687 I-0.0765 J0.0713
X-1.0586 Y-5.7686 I0.0135 J0.0734
G1 X-1.0637 Y-5.7677
G2 X-1.1414 Y-5.7043 I0.0192 J0.1028
X-1.1818 Y-5.5379 I0.5356 J0.2182
G3 X-1.2338 Y-5.5266 I-0.0278 J-0.0025
G2 X-1.3399 Y-5.661 I-0.502 J0.2872
X-1.4372 Y-5.6861 I-0.0716 J0.0762
G1 X-1.4423 Y-5.6848
G2 X-1.5159 Y-5.6164 I0.0257 J0.1014
X-1.5452 Y-5.4477 I0.5488 J0.1824
G3 X-1.5964 Y-5.4329 I-0.0279 J-0.0006
G2 X-1.7111 Y-5.56 I-0.482 J0.3197
X-1.8098 Y-5.5787 I-0.0664 J0.0808
G1 X-1.8101 Y-5.5786
X-1.815 Y-5.577
G2 X-1.8838 Y-5.5039 I0.0324 J0.0994
X-1.9019 Y-5.3337 I0.5597 J0.1456
G3 X-1.9519 Y-5.3156 I-0.0279 J0.0012
G2 X-2.0748 Y-5.4348 I-0.4597 J0.3509
X-2.1743 Y-5.447 I-0.0609 J0.085
G1 X-2.1791 Y-5.4451
G2 X-2.1795 Y-5.4449 I0.0273 J0.0694
X-2.2434 Y-5.3674 I0.0389 J0.0971
X-2.2503 Y-5.1963 I0.5681 J0.1084
G3 X-2.299 Y-5.1749 I-0.0277 J0.003
G2 X-2.4295 Y-5.2858 I-0.4355 J0.3805
X-2.5298 Y-5.2913 I-0.0552 J0.0889
G1 X-2.5346 Y-5.289
G2 X-2.5933 Y-5.2073 I0.0452 J0.0944
X-2.5888 Y-5.0362 I0.574 J0.0705
G3 X-2.636 Y-5.0117 I-0.0275 J0.0049
G2 X-2.7735 Y-5.1136 I-0.4094 J0.4085
X-2.874 Y-5.1125 I-0.0492 J0.0923
G1 X-2.8786 Y-5.1099
G2 X-2.9317 Y-5.0246 I0.0513 J0.0912
X-2.9159 Y-4.8541 I0.5774 J0.0325
G3 X-2.9615 Y-4.8265 I-0.0271 J0.0067
G2 X-3.1054 Y-4.9192 I-0.3815 J0.4346
X-3.2055 Y-4.9114 I-0.043 J0.0953
G1 X-3.2098 Y-4.9086
X-3.21 Y-4.9085
G2 X-3.2574 Y-4.8198 I0.0572 J0.0876
X-3.2304 Y-4.6508 I0.5783 J-0.0058
G3 X-3.274 Y-4.6202 I-0.0266 J0.0084
G2 X-3.4237 Y-4.7032 I-0.352 J0.4589
X-3.523 Y-4.6889 I-0.0366 J0.098
G1 X-3.5271 Y-4.6858
X-3.5274 Y-4.6856
G2 X-3.5688 Y-4.5941 I0.0629 J0.0836
X-3.5307 Y-4.4271 I0.5767 J-0.044
G3 X-3.5722 Y-4.3938 I-0.026 J0.0102
G2 X-3.7271 Y-4.4666 I-0.3209 J0.4812
X-3.8252 Y-4.4458 I-0.03 J0.1002
G1 X-3.8292 Y-4.4424
X-3.8294 Y-4.4422
G2 X-3.8647 Y-4.3481 I0.0683 J0.0793
X-3.8156 Y-4.1841 I0.5725 J-0.082
G3 X-3.8547 Y-4.1481 I-0.0253 J0.0119
G2 X-4.0141 Y-4.2105 I-0.2884 J0.5013
X-4.1108 Y-4.1832 I-0.0233 J0.102
G1 X-4.111 Y-4.183
X-4.1147 Y-4.1793
G2 X-4.1436 Y-4.0832 I0.0734 J0.0745
X-4.0837 Y-3.9228 I0.5658 J-0.1197
G3 X-4.1204 Y-3.8842 I-0.0244 J0.0135
G2 X-4.2836 Y-3.936 I-0.2547 J0.5193
X-4.3783 Y-3.9023 I-0.0166 J0.1033
G1 X-4.3784 Y-3.9022
X-4.3819 Y-3.8983
G2 X-4.4044 Y-3.8004 I0.0782 J0.0695
X-4.3341 Y-3.6443 I0.5567 J-0.1568
G3 X-4.3682 Y-3.6034 I-0.0235 J0.0151
G2 X-4.5344 Y-3.6443 I-0.2198 J0.535
X-4.6266 Y-3.6045 I-0.0097 J0.1041
G1 X-4.6298 Y-3.6004
X-4.63 Y-3.6001
G2 X-4.6459 Y-3.501 I0.0826 J0.0641
X-4.5654 Y-3.3499 I0.5451 J-0.1932
G3 X-4.5967 Y-3.3068 I-0.0224 J0.0166
G2 X-4.7653 Y-3.3367 I-0.1839 J0.5483
X-4.8546 Y-3.2909 I-0.0028 J0.1046
G1 X-4.8576 Y-3.2866
X-4.8578 Y-3.2863
G2 X-4.8671 Y-3.1863 I0.0867 J0.0586
X-4.7769 Y-3.0408 I0.5311 J-0.2289
G3 X-4.8053 Y-2.9958 I-0.0213 J0.0181
G2 X-4.9754 Y-3.0144 I-0.1473 J0.5593
X-5.0616 Y-2.9627 I0.0041 J0.1045
G1 X-5.0643 Y-2.9582
Y-2.9581
G2 X-5.0671 Y-2.8577 I0.0903 J0.0527
X-4.9674 Y-2.7185 I0.5149 J-0.2634
G3 X-4.9927 Y-2.6717 I-0.02 J0.0194
G2 X-5.1638 Y-2.679 I-0.11 J0.5678
X-5.2463 Y-2.6217 I0.011 J0.104
G1 X-5.2487 Y-2.617
G2 X-5.2449 Y-2.5165 I0.0936 J0.0467
X-5.1362 Y-2.3842 I0.4963 J-0.2969
G3 X-5.1584 Y-2.3359 I-0.0187 J0.0207
G2 X-5.3296 Y-2.3319 I-0.0722 J0.5738
G1 Y-2.3318
G2 X-5.4081 Y-2.2692 I0.018 J0.1031
G1 X-5.4102 Y-2.2644
G2 X-5.3998 Y-2.1644 I0.0965 J0.0404
X-5.2826 Y-2.0396 I0.4757 J-0.329
G3 X-5.3015 Y-1.9898 I-0.0173 J0.0219
G2 X-5.472 Y-1.9745 I-0.0342 J0.5773
X-5.5463 Y-1.9068 I0.0247 J0.1017
G1 X-5.5464 Y-1.9065
X-5.5481 Y-1.9016
G2 X-5.531 Y-1.8028 I0.099 J0.0338
X-5.4058 Y-1.686 I0.4528 J-0.3597
G3 X-5.4214 Y-1.6351 I-0.0158 J0.023
G2 X-5.5906 Y-1.6086 I0.0041 J0.5783
G1 Y-1.6085
G2 X-5.6602 Y-1.5361 I0.0314 J0.0998
G1 Y-1.536
X-5.6616 Y-1.531
G2 X-5.6381 Y-1.4334 I0.101 J0.0273
G1 X-5.638 Y-1.4333
G2 X-5.5054 Y-1.325 I0.428 J-0.389
G3 X-5.5176 Y-1.2732 I-0.0143 J0.024
G2 X-5.6846 Y-1.2356 I0.0423 J0.5768
X-5.7493 Y-1.1588 I0.0379 J0.0975
G1 X-5.7503 Y-1.1538
X-5.7504 Y-1.1535
G2 X-5.7205 Y-1.0576 I0.1025 J0.0206
X-5.581 Y-0.9583 I0.4014 J-0.4163
G3 X-5.5897 Y-0.9058 I-0.0126 J0.0249
G2 X-5.7538 Y-0.8572 I0.0803 J0.5727
X-5.8133 Y-0.7762 I0.0442 J0.0948
X-5.8134 Y-0.7758 I0.0739 J0.0099
G1 X-5.8141 Y-0.7707
G2 X-5.7779 Y-0.6772 I0.1037 J0.0136
G1 X-5.7778
G2 X-5.6321 Y-0.5873 I0.373 J-0.442
G3 X-5.6373 Y-0.5344 I-0.011 J0.0257
G2 X-5.7979 Y-0.475 I0.118 J0.5662
X-5.8519 Y-0.3903 I0.0504 J0.0917
G1 X-5.8523 Y-0.385
G2 X-5.81 Y-0.2939 I0.1044 J0.007
G1 Y-0.2938
G2 X-5.6586 Y-0.2138 I0.343 J-0.4657
G3 X-5.6603 Y-0.1606 I-0.0093 J0.0263
G2 X-5.8167 Y-0.0908 I0.1551 J0.5572
G1 Y-0.0907
G2 X-5.8649 Y-0.0026 I0.0564 J0.0881
G1 Y0.0026
G2 X-5.8167 Y0.0907 I0.1046 J0.
G1 Y0.0908
G2 X-5.6603 Y0.1606 I0.3115 J-0.4873
G3 X-5.6586 Y0.2138 I-0.0075 J0.0269
G2 X-5.81 Y0.2938 I0.1916 J0.5457
G1 Y0.2939
G2 X-5.8523 Y0.385 I0.0621 J0.0842
G1 X-5.8519 Y0.3903
G2 X-5.798 Y0.475 I0.1044 J-0.0069
X-5.6373 Y0.5344 I0.2786 J-0.5068
G3 X-5.6321 Y0.5873 I-0.0057 J0.0273
G2 X-5.7778 Y0.6772 I0.2272 J0.5318
G1 X-5.7779
G2 X-5.8141 Y0.7707 I0.0676 J0.0798
G1 X-5.8134 Y0.7758
G2 X-5.8133 Y0.7762 I0.074 J-0.0094
X-5.7538 Y0.8572 I0.1037 J-0.0139
X-5.5897 Y0.9058 I0.2445 J-0.5241
G3 X-5.5809 Y0.9583 I-0.0039 J0.0276
G2 X-5.7204 Y1.0576 I0.2619 J0.5156
X-5.7504 Y1.1535 I0.0726 J0.0753
G1 X-5.7503 Y1.1538
X-5.7493 Y1.1588
G2 X-5.6847 Y1.2356 I0.1025 J-0.0208
X-5.5176 Y1.2732 I0.2094 J-0.5391
G3 X-5.5054 Y1.325 I-0.0021 J0.0278
G2 X-5.638 Y1.4333 I0.2954 J0.4972
G1 X-5.6381 Y1.4334
G2 X-5.6616 Y1.531 I0.0775 J0.0703
G1 X-5.6602 Y1.536
Y1.5361
G2 X-5.5906 Y1.6085 I0.101 J-0.0274
G1 Y1.6086
G2 X-5.4214 Y1.6351 I0.1732 J-0.5518
G3 X-5.4058 Y1.686 I-0.0002 J0.0279
G2 X-5.424 Y1.699 I0.3277 J0.4766
G0 Z0.6
M9
G53 Z0.
M30
%
