%
(FIRSTARM_1554)
(T1  D=0.1554 CR=0. - ZMIN=-0.3 - FLAT END MILL)
G90 G94 G17 G91.1
G64 P0.001 Q0.001
G20
G53 G0 Z0.
(SMALL HOLE BORE)
M9
T1 M6
S13000 M3
G4 P10.
G54
M7
G0 X-2.0239 Y6.5119
G43 Z0.6 H1
G0 Z0.13
G1 Z0.0655 F35.
G19 G2 Y6.4964 Z0.05 J-0.0155 K0.
G1 Y6.4886
G17 G3 X-2.0125 Y6.4772 I0.0114 J0.
Y6.5228 Z0. I0. J0.0228
Y6.4772 Z-0.05 I0. J-0.0228
Y6.5228 Z-0.1 I0. J0.0228
Y6.4772 Z-0.15 I0. J-0.0228
X-1.9991 Y6.4816 Z-0.16 I0. J0.0228
X-2.0259 Y6.5184 Z-0.21 I-0.0134 J0.0184
X-2.0342 Y6.493 Z-0.23 I0.0134 J-0.0184
X-1.9908 Y6.507 Z-0.28 I0.0217 J0.007
X-2.0125 Y6.5228 Z-0.3 I-0.0217 J-0.007
Y6.4772 I0. J-0.0228
Y6.5228 I0. J0.0228
X-2.0239 Y6.5114 I0. J-0.0114
G1 Y6.5036
G19 G2 Y6.4881 Z-0.2845 J0. K0.0155
G0 Z0.4
X-1.5239 Y6.5119
Z0.13
G1 Z0.0655 F35.
G2 Y6.4964 Z0.05 J-0.0155 K0.
G1 Y6.4886
G17 G3 X-1.5125 Y6.4772 I0.0114 J0.
Y6.5228 Z0. I0. J0.0228
Y6.4772 Z-0.05 I0. J-0.0228
Y6.5228 Z-0.1 I0. J0.0228
Y6.4772 Z-0.15 I0. J-0.0228
X-1.4991 Y6.4816 Z-0.16 I0. J0.0228
X-1.5259 Y6.5184 Z-0.21 I-0.0134 J0.0184
X-1.5342 Y6.493 Z-0.23 I0.0134 J-0.0184
X-1.4908 Y6.507 Z-0.28 I0.0217 J0.007
X-1.5125 Y6.5228 Z-0.3 I-0.0217 J-0.007
Y6.4772 I0. J-0.0228
Y6.5228 I0. J0.0228
X-1.5239 Y6.5114 I0. J-0.0114
G1 Y6.5036
G19 G2 Y6.4881 Z-0.2845 J0. K0.0155
G0 Z0.4
X-1.0239 Y6.5119
Z0.13
G1 Z0.0655 F35.
G2 Y6.4964 Z0.05 J-0.0155 K0.
G1 Y6.4886
G17 G3 X-1.0125 Y6.4772 I0.0114 J0.
Y6.5228 Z0. I0. J0.0228
Y6.4772 Z-0.05 I0. J-0.0228
Y6.5228 Z-0.1 I0. J0.0228
Y6.4772 Z-0.15 I0. J-0.0228
Y6.5228 Z-0.2 I0. J0.0228
X-1.0342 Y6.493 Z-0.23 I0. J-0.0228
X-0.9908 Y6.507 Z-0.28 I0.0217 J0.007
X-1.0125 Y6.5228 Z-0.3 I-0.0217 J-0.007
Y6.4772 I0. J-0.0228
Y6.5228 I0. J0.0228
X-1.0239 Y6.5114 I0. J-0.0114
G1 Y6.5036
G19 G2 Y6.4881 Z-0.2845 J0. K0.0155
G0 Z0.4
X-0.5239 Y6.5119
Z0.13
G1 Z0.0655 F35.
G2 Y6.4964 Z0.05 J-0.0155 K0.
G1 Y6.4886
G17 G3 X-0.5125 Y6.4772 I0.0114 J0.
Y6.5228 Z0. I0. J0.0228
Y6.4772 Z-0.05 I0. J-0.0228
Y6.5228 Z-0.1 I0. J0.0228
Y6.4772 Z-0.15 I0. J-0.0228
X-0.4991 Y6.4816 Z-0.16 I0. J0.0228
X-0.5259 Y6.5184 Z-0.21 I-0.0134 J0.0184
X-0.5342 Y6.493 Z-0.23 I0.0134 J-0.0184
X-0.4908 Y6.507 Z-0.28 I0.0217 J0.007
X-0.5125 Y6.5228 Z-0.3 I-0.0217 J-0.007
Y6.4772 I0. J-0.0228
Y6.5228 I0. J0.0228
X-0.5239 Y6.5114 I0. J-0.0114
G1 Y6.5036
G19 G2 Y6.4881 Z-0.2845 J0. K0.0155
G0 Z0.4
X-0.0239 Y6.5119
Z0.13
G1 Z0.0655 F35.
G2 Y6.4964 Z0.05 J-0.0155 K0.
G1 Y6.4886
G17 G3 X-0.0125 Y6.4772 I0.0114 J0.
Y6.5228 Z0. I0. J0.0228
Y6.4772 Z-0.05 I0. J-0.0228
Y6.5228 Z-0.1 I0. J0.0228
Y6.4772 Z-0.15 I0. J-0.0228
X0.0009 Y6.4816 Z-0.16 I0. J0.0228
X-0.0259 Y6.5184 Z-0.21 I-0.0134 J0.0184
X-0.0342 Y6.493 Z-0.23 I0.0134 J-0.0184
X0.0092 Y6.507 Z-0.28 I0.0217 J0.007
X-0.0125 Y6.5228 Z-0.3 I-0.0217 J-0.007
Y6.4772 I0. J-0.0228
Y6.5228 I0. J0.0228
X-0.0239 Y6.5114 I0. J-0.0114
G1 Y6.5036
G19 G2 Y6.4881 Z-0.2845 J0. K0.0155
G0 Z0.4
X0.4761 Y6.5119
Z0.13
G1 Z0.0655 F35.
G2 Y6.4964 Z0.05 J-0.0155 K0.
G1 Y6.4886
G17 G3 X0.4875 Y6.4772 I0.0114 J0.
Y6.5228 Z0. I0. J0.0228
Y6.4772 Z-0.05 I0. J-0.0228
Y6.5228 Z-0.1 I0. J0.0228
Y6.4772 Z-0.15 I0. J-0.0228
Y6.5228 Z-0.2 I0. J0.0228
X0.4658 Y6.493 Z-0.23 I0. J-0.0228
X0.5092 Y6.507 Z-0.28 I0.0217 J0.007
X0.4875 Y6.5228 Z-0.3 I-0.0217 J-0.007
Y6.4772 I0. J-0.0228
Y6.5228 I0. J0.0228
X0.4761 Y6.5114 I0. J-0.0114
G1 Y6.5036
G19 G2 Y6.4881 Z-0.2845 J0. K0.0155
G0 Z0.4
X0.9761 Y6.5119
Z0.13
G1 Z0.0655 F35.
G2 Y6.4964 Z0.05 J-0.0155 K0.
G1 Y6.4886
G17 G3 X0.9875 Y6.4772 I0.0114 J0.
Y6.5228 Z0. I0. J0.0228
Y6.4772 Z-0.05 I0. J-0.0228
Y6.5228 Z-0.1 I0. J0.0228
Y6.4772 Z-0.15 I0. J-0.0228
X1.0009 Y6.4816 Z-0.16 I0. J0.0228
X0.9741 Y6.5184 Z-0.21 I-0.0134 J0.0184
X0.9658 Y6.493 Z-0.23 I0.0134 J-0.0184
X1.0092 Y6.507 Z-0.28 I0.0217 J0.007
X0.9875 Y6.5228 Z-0.3 I-0.0217 J-0.007
Y6.4772 I0. J-0.0228
Y6.5228 I0. J0.0228
X0.9761 Y6.5114 I0. J-0.0114
G1 Y6.5036
G19 G2 Y6.4881 Z-0.2845 J0. K0.0155
G0 Z0.4
X1.4761 Y6.5119
Z0.13
G1 Z0.0655 F35.
G2 Y6.4964 Z0.05 J-0.0155 K0.
G1 Y6.4886
G17 G3 X1.4875 Y6.4772 I0.0114 J0.
Y6.5228 Z0. I0. J0.0228
Y6.4772 Z-0.05 I0. J-0.0228
Y6.5228 Z-0.1 I0. J0.0228
Y6.4772 Z-0.15 I0. J-0.0228
X1.5009 Y6.4816 Z-0.16 I0. J0.0228
X1.4741 Y6.5184 Z-0.21 I-0.0134 J0.0184
X1.4658 Y6.493 Z-0.23 I0.0134 J-0.0184
X1.5092 Y6.507 Z-0.28 I0.0217 J0.007
X1.4875 Y6.5228 Z-0.3 I-0.0217 J-0.007
Y6.4772 I0. J-0.0228
Y6.5228 I0. J0.0228
X1.4761 Y6.5114 I0. J-0.0114
G1 Y6.5036
G19 G2 Y6.4881 Z-0.2845 J0. K0.0155
G0 Z0.4
X1.9761 Y6.5119
Z0.13
G1 Z0.0655 F35.
G2 Y6.4964 Z0.05 J-0.0155 K0.
G1 Y6.4886
G17 G3 X1.9875 Y6.4772 I0.0114 J0.
Y6.5228 Z0. I0. J0.0228
Y6.4772 Z-0.05 I0. J-0.0228
Y6.5228 Z-0.1 I0. J0.0228
Y6.4772 Z-0.15 I0. J-0.0228
Y6.5228 Z-0.2 I0. J0.0228
X1.9658 Y6.493 Z-0.23 I0. J-0.0228
X2.0092 Y6.507 Z-0.28 I0.0217 J0.007
X1.9875 Y6.5228 Z-0.3 I-0.0217 J-0.007
Y6.4772 I0. J-0.0228
Y6.5228 I0. J0.0228
X1.9761 Y6.5114 I0. J-0.0114
G1 Y6.5036
G19 G2 Y6.4881 Z-0.2845 J0. K0.0155
G0 Z0.4
X2.4761 Y6.5119
Z0.13
G1 Z0.0655 F35.
G2 Y6.4964 Z0.05 J-0.0155 K0.
G1 Y6.4886
G17 G3 X2.4875 Y6.4772 I0.0114 J0.
Y6.5228 Z0. I0. J0.0228
Y6.4772 Z-0.05 I0. J-0.0228
Y6.5228 Z-0.1 I0. J0.0228
Y6.4772 Z-0.15 I0. J-0.0228
Y6.5228 Z-0.2 I0. J0.0228
X2.4658 Y6.493 Z-0.23 I0. J-0.0228
X2.5092 Y6.507 Z-0.28 I0.0217 J0.007
X2.4875 Y6.5228 Z-0.3 I-0.0217 J-0.007
Y6.4772 I0. J-0.0228
Y6.5228 I0. J0.0228
X2.4761 Y6.5114 I0. J-0.0114
G1 Y6.5036
G19 G2 Y6.4881 Z-0.2845 J0. K0.0155
G0 Z0.4
X2.9761 Y6.5119
Z0.13
G1 Z0.0655 F35.
G2 Y6.4964 Z0.05 J-0.0155 K0.
G1 Y6.4886
G17 G3 X2.9875 Y6.4772 I0.0114 J0.
Y6.5228 Z0. I0. J0.0228
Y6.4772 Z-0.05 I0. J-0.0228
Y6.5228 Z-0.1 I0. J0.0228
Y6.4772 Z-0.15 I0. J-0.0228
Y6.5228 Z-0.2 I0. J0.0228
X2.9658 Y6.493 Z-0.23 I0. J-0.0228
X3.0092 Y6.507 Z-0.28 I0.0217 J0.007
X2.9875 Y6.5228 Z-0.3 I-0.0217 J-0.007
Y6.4772 I0. J-0.0228
Y6.5228 I0. J0.0228
X2.9761 Y6.5114 I0. J-0.0114
G1 Y6.5036
G19 G2 Y6.4881 Z-0.2845 J0. K0.0155
G0 Z0.4
X3.4761 Y6.5119
Z0.13
G1 Z0.0655 F35.
G2 Y6.4964 Z0.05 J-0.0155 K0.
G1 Y6.4886
G17 G3 X3.4875 Y6.4772 I0.0114 J0.
Y6.5228 Z0. I0. J0.0228
Y6.4772 Z-0.05 I0. J-0.0228
Y6.5228 Z-0.1 I0. J0.0228
Y6.4772 Z-0.15 I0. J-0.0228
Y6.5228 Z-0.2 I0. J0.0228
X3.4658 Y6.493 Z-0.23 I0. J-0.0228
X3.5092 Y6.507 Z-0.28 I0.0217 J0.007
X3.4875 Y6.5228 Z-0.3 I-0.0217 J-0.007
Y6.4772 I0. J-0.0228
Y6.5228 I0. J0.0228
X3.4761 Y6.5114 I0. J-0.0114
G1 Y6.5036
G19 G2 Y6.4881 Z-0.2845 J0. K0.0155
G0 Z0.4
X3.9761 Y6.5119
Z0.13
G1 Z0.0655 F35.
G2 Y6.4964 Z0.05 J-0.0155 K0.
G1 Y6.4886
G17 G3 X3.9875 Y6.4772 I0.0114 J0.
Y6.5228 Z0. I0. J0.0228
Y6.4772 Z-0.05 I0. J-0.0228
Y6.5228 Z-0.1 I0. J0.0228
Y6.4772 Z-0.15 I0. J-0.0228
Y6.5228 Z-0.2 I0. J0.0228
X3.9658 Y6.493 Z-0.23 I0. J-0.0228
X4.0092 Y6.507 Z-0.28 I0.0217 J0.007
X3.9875 Y6.5228 Z-0.3 I-0.0217 J-0.007
Y6.4772 I0. J-0.0228
Y6.5228 I0. J0.0228
X3.9761 Y6.5114 I0. J-0.0114
G1 Y6.5036
G19 G2 Y6.4881 Z-0.2845 J0. K0.0155
G0 Z0.4
X3.9989 Y5.9881
Z0.13
G1 Z0.0655 F35.
G3 Y6.0036 Z0.05 J0.0155 K0.
G1 Y6.0114
G17 G3 X3.9875 Y6.0228 I-0.0114 J0.
Y5.9772 Z0. I0. J-0.0228
Y6.0228 Z-0.05 I0. J0.0228
Y5.9772 Z-0.1 I0. J-0.0228
Y6.0228 Z-0.15 I0. J0.0228
Y5.9772 Z-0.2 I0. J-0.0228
X4.0092 Y6.007 Z-0.23 I0. J0.0228
X3.9658 Y5.993 Z-0.28 I-0.0217 J-0.007
X3.9875 Y5.9772 Z-0.3 I0.0217 J0.007
Y6.0228 I0. J0.0228
Y5.9772 I0. J-0.0228
X3.9989 Y5.9886 I0. J0.0114
G1 Y5.9964
G19 G3 Y6.0119 Z-0.2845 J0. K0.0155
G0 Z0.4
X3.4989 Y5.9881
Z0.13
G1 Z0.0655 F35.
G3 Y6.0036 Z0.05 J0.0155 K0.
G1 Y6.0114
G17 G3 X3.4875 Y6.0228 I-0.0114 J0.
Y5.9772 Z0. I0. J-0.0228
Y6.0228 Z-0.05 I0. J0.0228
Y5.9772 Z-0.1 I0. J-0.0228
Y6.0228 Z-0.15 I0. J0.0228
X3.4741 Y6.0184 Z-0.16 I0. J-0.0228
X3.5009 Y5.9816 Z-0.21 I0.0134 J-0.0184
X3.5092 Y6.007 Z-0.23 I-0.0134 J0.0184
X3.4658 Y5.993 Z-0.28 I-0.0217 J-0.007
X3.4875 Y5.9772 Z-0.3 I0.0217 J0.007
Y6.0228 I0. J0.0228
Y5.9772 I0. J-0.0228
X3.4989 Y5.9886 I0. J0.0114
G1 Y5.9964
G19 G3 Y6.0119 Z-0.2845 J0. K0.0155
G0 Z0.4
X2.9989 Y5.9881
Z0.13
G1 Z0.0655 F35.
G3 Y6.0036 Z0.05 J0.0155 K0.
G1 Y6.0114
G17 G3 X2.9875 Y6.0228 I-0.0114 J0.
Y5.9772 Z0. I0. J-0.0228
Y6.0228 Z-0.05 I0. J0.0228
Y5.9772 Z-0.1 I0. J-0.0228
Y6.0228 Z-0.15 I0. J0.0228
Y5.9772 Z-0.2 I0. J-0.0228
X3.0092 Y6.007 Z-0.23 I0. J0.0228
X2.9658 Y5.993 Z-0.28 I-0.0217 J-0.007
X2.9875 Y5.9772 Z-0.3 I0.0217 J0.007
Y6.0228 I0. J0.0228
Y5.9772 I0. J-0.0228
X2.9989 Y5.9886 I0. J0.0114
G1 Y5.9964
G19 G3 Y6.0119 Z-0.2845 J0. K0.0155
G0 Z0.4
X2.4989 Y5.9881
Z0.13
G1 Z0.0655 F35.
G3 Y6.0036 Z0.05 J0.0155 K0.
G1 Y6.0114
G17 G3 X2.4875 Y6.0228 I-0.0114 J0.
Y5.9772 Z0. I0. J-0.0228
Y6.0228 Z-0.05 I0. J0.0228
Y5.9772 Z-0.1 I0. J-0.0228
Y6.0228 Z-0.15 I0. J0.0228
X2.4741 Y6.0184 Z-0.16 I0. J-0.0228
X2.5009 Y5.9816 Z-0.21 I0.0134 J-0.0184
X2.5092 Y6.007 Z-0.23 I-0.0134 J0.0184
X2.4658 Y5.993 Z-0.28 I-0.0217 J-0.007
X2.4875 Y5.9772 Z-0.3 I0.0217 J0.007
Y6.0228 I0. J0.0228
Y5.9772 I0. J-0.0228
X2.4989 Y5.9886 I0. J0.0114
G1 Y5.9964
G19 G3 Y6.0119 Z-0.2845 J0. K0.0155
G0 Z0.4
X1.9989 Y5.9881
Z0.13
G1 Z0.0655 F35.
G3 Y6.0036 Z0.05 J0.0155 K0.
G1 Y6.0114
G17 G3 X1.9875 Y6.0228 I-0.0114 J0.
Y5.9772 Z0. I0. J-0.0228
Y6.0228 Z-0.05 I0. J0.0228
Y5.9772 Z-0.1 I0. J-0.0228
Y6.0228 Z-0.15 I0. J0.0228
X1.9741 Y6.0184 Z-0.16 I0. J-0.0228
X2.0009 Y5.9816 Z-0.21 I0.0134 J-0.0184
X2.0092 Y6.007 Z-0.23 I-0.0134 J0.0184
X1.9658 Y5.993 Z-0.28 I-0.0217 J-0.007
X1.9875 Y5.9772 Z-0.3 I0.0217 J0.007
Y6.0228 I0. J0.0228
Y5.9772 I0. J-0.0228
X1.9989 Y5.9886 I0. J0.0114
G1 Y5.9964
G19 G3 Y6.0119 Z-0.2845 J0. K0.0155
G0 Z0.4
X1.4989 Y5.9881
Z0.13
G1 Z0.0655 F35.
G3 Y6.0036 Z0.05 J0.0155 K0.
G1 Y6.0114
G17 G3 X1.4875 Y6.0228 I-0.0114 J0.
Y5.9772 Z0. I0. J-0.0228
Y6.0228 Z-0.05 I0. J0.0228
Y5.9772 Z-0.1 I0. J-0.0228
Y6.0228 Z-0.15 I0. J0.0228
Y5.9772 Z-0.2 I0. J-0.0228
X1.5092 Y6.007 Z-0.23 I0. J0.0228
X1.4658 Y5.993 Z-0.28 I-0.0217 J-0.007
X1.4875 Y5.9772 Z-0.3 I0.0217 J0.007
Y6.0228 I0. J0.0228
Y5.9772 I0. J-0.0228
X1.4989 Y5.9886 I0. J0.0114
G1 Y5.9964
G19 G3 Y6.0119 Z-0.2845 J0. K0.0155
G0 Z0.4
X0.9989 Y5.9881
Z0.13
G1 Z0.0655 F35.
G3 Y6.0036 Z0.05 J0.0155 K0.
G1 Y6.0114
G17 G3 X0.9875 Y6.0228 I-0.0114 J0.
Y5.9772 Z0. I0. J-0.0228
Y6.0228 Z-0.05 I0. J0.0228
Y5.9772 Z-0.1 I0. J-0.0228
Y6.0228 Z-0.15 I0. J0.0228
Y5.9772 Z-0.2 I0. J-0.0228
X1.0092 Y6.007 Z-0.23 I0. J0.0228
X0.9658 Y5.993 Z-0.28 I-0.0217 J-0.007
X0.9875 Y5.9772 Z-0.3 I0.0217 J0.007
Y6.0228 I0. J0.0228
Y5.9772 I0. J-0.0228
X0.9989 Y5.9886 I0. J0.0114
G1 Y5.9964
G19 G3 Y6.0119 Z-0.2845 J0. K0.0155
G0 Z0.4
X0.4989 Y5.9881
Z0.13
G1 Z0.0655 F35.
G3 Y6.0036 Z0.05 J0.0155 K0.
G1 Y6.0114
G17 G3 X0.4875 Y6.0228 I-0.0114 J0.
Y5.9772 Z0. I0. J-0.0228
Y6.0228 Z-0.05 I0. J0.0228
Y5.9772 Z-0.1 I0. J-0.0228
Y6.0228 Z-0.15 I0. J0.0228
X0.4741 Y6.0184 Z-0.16 I0. J-0.0228
X0.5009 Y5.9816 Z-0.21 I0.0134 J-0.0184
X0.5092 Y6.007 Z-0.23 I-0.0134 J0.0184
X0.4658 Y5.993 Z-0.28 I-0.0217 J-0.007
X0.4875 Y5.9772 Z-0.3 I0.0217 J0.007
Y6.0228 I0. J0.0228
Y5.9772 I0. J-0.0228
X0.4989 Y5.9886 I0. J0.0114
G1 Y5.9964
G19 G3 Y6.0119 Z-0.2845 J0. K0.0155
G0 Z0.4
X-0.0011 Y5.9881
Z0.13
G1 Z0.0655 F35.
G3 Y6.0036 Z0.05 J0.0155 K0.
G1 Y6.0114
G17 G3 X-0.0125 Y6.0228 I-0.0114 J0.
Y5.9772 Z0. I0. J-0.0228
Y6.0228 Z-0.05 I0. J0.0228
Y5.9772 Z-0.1 I0. J-0.0228
Y6.0228 Z-0.15 I0. J0.0228
X-0.0259 Y6.0184 Z-0.16 I0. J-0.0228
X0.0009 Y5.9816 Z-0.21 I0.0134 J-0.0184
X0.0092 Y6.007 Z-0.23 I-0.0134 J0.0184
X-0.0342 Y5.993 Z-0.28 I-0.0217 J-0.007
X-0.0125 Y5.9772 Z-0.3 I0.0217 J0.007
Y6.0228 I0. J0.0228
Y5.9772 I0. J-0.0228
X-0.0011 Y5.9886 I0. J0.0114
G1 Y5.9964
G19 G3 Y6.0119 Z-0.2845 J0. K0.0155
G0 Z0.4
X-0.5011 Y5.9881
Z0.13
G1 Z0.0655 F35.
G3 Y6.0036 Z0.05 J0.0155 K0.
G1 Y6.0114
G17 G3 X-0.5125 Y6.0228 I-0.0114 J0.
Y5.9772 Z0. I0. J-0.0228
Y6.0228 Z-0.05 I0. J0.0228
Y5.9772 Z-0.1 I0. J-0.0228
Y6.0228 Z-0.15 I0. J0.0228
X-0.5259 Y6.0184 Z-0.16 I0. J-0.0228
X-0.4991 Y5.9816 Z-0.21 I0.0134 J-0.0184
X-0.4908 Y6.007 Z-0.23 I-0.0134 J0.0184
X-0.5342 Y5.993 Z-0.28 I-0.0217 J-0.007
X-0.5125 Y5.9772 Z-0.3 I0.0217 J0.007
Y6.0228 I0. J0.0228
Y5.9772 I0. J-0.0228
X-0.5011 Y5.9886 I0. J0.0114
G1 Y5.9964
G19 G3 Y6.0119 Z-0.2845 J0. K0.0155
G0 Z0.4
X-1.0011 Y5.9881
Z0.13
G1 Z0.0655 F35.
G3 Y6.0036 Z0.05 J0.0155 K0.
G1 Y6.0114
G17 G3 X-1.0125 Y6.0228 I-0.0114 J0.
Y5.9772 Z0. I0. J-0.0228
Y6.0228 Z-0.05 I0. J0.0228
Y5.9772 Z-0.1 I0. J-0.0228
Y6.0228 Z-0.15 I0. J0.0228
X-1.0259 Y6.0184 Z-0.16 I0. J-0.0228
X-0.9991 Y5.9816 Z-0.21 I0.0134 J-0.0184
X-0.9908 Y6.007 Z-0.23 I-0.0134 J0.0184
X-1.0342 Y5.993 Z-0.28 I-0.0217 J-0.007
X-1.0125 Y5.9772 Z-0.3 I0.0217 J0.007
Y6.0228 I0. J0.0228
Y5.9772 I0. J-0.0228
X-1.0011 Y5.9886 I0. J0.0114
G1 Y5.9964
G19 G3 Y6.0119 Z-0.2845 J0. K0.0155
G0 Z0.4
X-1.5011 Y5.9881
Z0.13
G1 Z0.0655 F35.
G3 Y6.0036 Z0.05 J0.0155 K0.
G1 Y6.0114
G17 G3 X-1.5125 Y6.0228 I-0.0114 J0.
Y5.9772 Z0. I0. J-0.0228
Y6.0228 Z-0.05 I0. J0.0228
Y5.9772 Z-0.1 I0. J-0.0228
Y6.0228 Z-0.15 I0. J0.0228
X-1.5259 Y6.0184 Z-0.16 I0. J-0.0228
X-1.4991 Y5.9816 Z-0.21 I0.0134 J-0.0184
X-1.4908 Y6.007 Z-0.23 I-0.0134 J0.0184
X-1.5342 Y5.993 Z-0.28 I-0.0217 J-0.007
X-1.5125 Y5.9772 Z-0.3 I0.0217 J0.007
Y6.0228 I0. J0.0228
Y5.9772 I0. J-0.0228
X-1.5011 Y5.9886 I0. J0.0114
G1 Y5.9964
G19 G3 Y6.0119 Z-0.2845 J0. K0.0155
G0 Z0.4
X-2.0011 Y5.9881
Z0.13
G1 Z0.0655 F35.
G3 Y6.0036 Z0.05 J0.0155 K0.
G1 Y6.0114
G17 G3 X-2.0125 Y6.0228 I-0.0114 J0.
Y5.9772 Z0. I0. J-0.0228
Y6.0228 Z-0.05 I0. J0.0228
Y5.9772 Z-0.1 I0. J-0.0228
Y6.0228 Z-0.15 I0. J0.0228
X-2.0259 Y6.0184 Z-0.16 I0. J-0.0228
X-1.9991 Y5.9816 Z-0.21 I0.0134 J-0.0184
X-1.9908 Y6.007 Z-0.23 I-0.0134 J0.0184
X-2.0342 Y5.993 Z-0.28 I-0.0217 J-0.007
X-2.0125 Y5.9772 Z-0.3 I0.0217 J0.007
Y6.0228 I0. J0.0228
Y5.9772 I0. J-0.0228
X-2.0011 Y5.9886 I0. J0.0114
G1 Y5.9964
G19 G3 Y6.0119 Z-0.2845 J0. K0.0155
G0 Z0.4
Y5.4881
Z0.13
G1 Z0.0655 F35.
G3 Y5.5036 Z0.05 J0.0155 K0.
G1 Y5.5114
G17 G3 X-2.0125 Y5.5228 I-0.0114 J0.
Y5.4772 Z0. I0. J-0.0228
Y5.5228 Z-0.05 I0. J0.0228
Y5.4772 Z-0.1 I0. J-0.0228
Y5.5228 Z-0.15 I0. J0.0228
Y5.4772 Z-0.2 I0. J-0.0228
Y5.5228 Z-0.25 I0. J0.0228
Y5.4772 Z-0.3 I0. J-0.0228
Y5.5228 I0. J0.0228
Y5.4772 I0. J-0.0228
X-2.0011 Y5.4886 I0. J0.0114
G1 Y5.4964
G19 G3 Y5.5119 Z-0.2845 J0. K0.0155
G0 Z0.4
X-1.5011 Y5.4881
Z0.13
G1 Z0.0655 F35.
G3 Y5.5036 Z0.05 J0.0155 K0.
G1 Y5.5114
G17 G3 X-1.5125 Y5.5228 I-0.0114 J0.
Y5.4772 Z0. I0. J-0.0228
Y5.5228 Z-0.05 I0. J0.0228
Y5.4772 Z-0.1 I0. J-0.0228
Y5.5228 Z-0.15 I0. J0.0228
Y5.4772 Z-0.2 I0. J-0.0228
Y5.5228 Z-0.25 I0. J0.0228
Y5.4772 Z-0.3 I0. J-0.0228
Y5.5228 I0. J0.0228
Y5.4772 I0. J-0.0228
X-1.5011 Y5.4886 I0. J0.0114
G1 Y5.4964
G19 G3 Y5.5119 Z-0.2845 J0. K0.0155
G0 Z0.4
X-1.0011 Y5.4881
Z0.13
G1 Z0.0655 F35.
G3 Y5.5036 Z0.05 J0.0155 K0.
G1 Y5.5114
G17 G3 X-1.0125 Y5.5228 I-0.0114 J0.
Y5.4772 Z0. I0. J-0.0228
Y5.5228 Z-0.05 I0. J0.0228
Y5.4772 Z-0.1 I0. J-0.0228
Y5.5228 Z-0.15 I0. J0.0228
Y5.4772 Z-0.2 I0. J-0.0228
Y5.5228 Z-0.25 I0. J0.0228
Y5.4772 Z-0.3 I0. J-0.0228
Y5.5228 I0. J0.0228
Y5.4772 I0. J-0.0228
X-1.0011 Y5.4886 I0. J0.0114
G1 Y5.4964
G19 G3 Y5.5119 Z-0.2845 J0. K0.0155
G0 Z0.4
X-0.5011 Y5.4881
Z0.13
G1 Z0.0655 F35.
G3 Y5.5036 Z0.05 J0.0155 K0.
G1 Y5.5114
G17 G3 X-0.5125 Y5.5228 I-0.0114 J0.
Y5.4772 Z0. I0. J-0.0228
Y5.5228 Z-0.05 I0. J0.0228
Y5.4772 Z-0.1 I0. J-0.0228
Y5.5228 Z-0.15 I0. J0.0228
Y5.4772 Z-0.2 I0. J-0.0228
Y5.5228 Z-0.25 I0. J0.0228
Y5.4772 Z-0.3 I0. J-0.0228
Y5.5228 I0. J0.0228
Y5.4772 I0. J-0.0228
X-0.5011 Y5.4886 I0. J0.0114
G1 Y5.4964
G19 G3 Y5.5119 Z-0.2845 J0. K0.0155
G0 Z0.4
X-0.0011 Y5.4881
Z0.13
G1 Z0.0655 F35.
G3 Y5.5036 Z0.05 J0.0155 K0.
G1 Y5.5114
G17 G3 X-0.0125 Y5.5228 I-0.0114 J0.
Y5.4772 Z0. I0. J-0.0228
Y5.5228 Z-0.05 I0. J0.0228
Y5.4772 Z-0.1 I0. J-0.0228
Y5.5228 Z-0.15 I0. J0.0228
Y5.4772 Z-0.2 I0. J-0.0228
Y5.5228 Z-0.25 I0. J0.0228
Y5.4772 Z-0.3 I0. J-0.0228
Y5.5228 I0. J0.0228
Y5.4772 I0. J-0.0228
X-0.0011 Y5.4886 I0. J0.0114
G1 Y5.4964
G19 G3 Y5.5119 Z-0.2845 J0. K0.0155
G0 Z0.4
X0.4989 Y5.4881
Z0.13
G1 Z0.0655 F35.
G3 Y5.5036 Z0.05 J0.0155 K0.
G1 Y5.5114
G17 G3 X0.4875 Y5.5228 I-0.0114 J0.
Y5.4772 Z0. I0. J-0.0228
Y5.5228 Z-0.05 I0. J0.0228
Y5.4772 Z-0.1 I0. J-0.0228
Y5.5228 Z-0.15 I0. J0.0228
Y5.4772 Z-0.2 I0. J-0.0228
Y5.5228 Z-0.25 I0. J0.0228
Y5.4772 Z-0.3 I0. J-0.0228
Y5.5228 I0. J0.0228
Y5.4772 I0. J-0.0228
X0.4989 Y5.4886 I0. J0.0114
G1 Y5.4964
G19 G3 Y5.5119 Z-0.2845 J0. K0.0155
G0 Z0.4
X0.9989 Y5.4881
Z0.13
G1 Z0.0655 F35.
G3 Y5.5036 Z0.05 J0.0155 K0.
G1 Y5.5114
G17 G3 X0.9875 Y5.5228 I-0.0114 J0.
Y5.4772 Z0. I0. J-0.0228
Y5.5228 Z-0.05 I0. J0.0228
Y5.4772 Z-0.1 I0. J-0.0228
Y5.5228 Z-0.15 I0. J0.0228
Y5.4772 Z-0.2 I0. J-0.0228
Y5.5228 Z-0.25 I0. J0.0228
Y5.4772 Z-0.3 I0. J-0.0228
Y5.5228 I0. J0.0228
Y5.4772 I0. J-0.0228
X0.9989 Y5.4886 I0. J0.0114
G1 Y5.4964
G19 G3 Y5.5119 Z-0.2845 J0. K0.0155
G0 Z0.4
X1.4989 Y5.4881
Z0.13
G1 Z0.0655 F35.
G3 Y5.5036 Z0.05 J0.0155 K0.
G1 Y5.5114
G17 G3 X1.4875 Y5.5228 I-0.0114 J0.
Y5.4772 Z0. I0. J-0.0228
Y5.5228 Z-0.05 I0. J0.0228
Y5.4772 Z-0.1 I0. J-0.0228
Y5.5228 Z-0.15 I0. J0.0228
Y5.4772 Z-0.2 I0. J-0.0228
Y5.5228 Z-0.25 I0. J0.0228
Y5.4772 Z-0.3 I0. J-0.0228
Y5.5228 I0. J0.0228
Y5.4772 I0. J-0.0228
X1.4989 Y5.4886 I0. J0.0114
G1 Y5.4964
G19 G3 Y5.5119 Z-0.2845 J0. K0.0155
G0 Z0.4
X1.9989 Y5.4881
Z0.13
G1 Z0.0655 F35.
G3 Y5.5036 Z0.05 J0.0155 K0.
G1 Y5.5114
G17 G3 X1.9875 Y5.5228 I-0.0114 J0.
Y5.4772 Z0. I0. J-0.0228
Y5.5228 Z-0.05 I0. J0.0228
Y5.4772 Z-0.1 I0. J-0.0228
Y5.5228 Z-0.15 I0. J0.0228
Y5.4772 Z-0.2 I0. J-0.0228
Y5.5228 Z-0.25 I0. J0.0228
Y5.4772 Z-0.3 I0. J-0.0228
Y5.5228 I0. J0.0228
Y5.4772 I0. J-0.0228
X1.9989 Y5.4886 I0. J0.0114
G1 Y5.4964
G19 G3 Y5.5119 Z-0.2845 J0. K0.0155
G0 Z0.4
X2.4989 Y5.4881
Z0.13
G1 Z0.0655 F35.
G3 Y5.5036 Z0.05 J0.0155 K0.
G1 Y5.5114
G17 G3 X2.4875 Y5.5228 I-0.0114 J0.
Y5.4772 Z0. I0. J-0.0228
Y5.5228 Z-0.05 I0. J0.0228
Y5.4772 Z-0.1 I0. J-0.0228
Y5.5228 Z-0.15 I0. J0.0228
Y5.4772 Z-0.2 I0. J-0.0228
Y5.5228 Z-0.25 I0. J0.0228
Y5.4772 Z-0.3 I0. J-0.0228
Y5.5228 I0. J0.0228
Y5.4772 I0. J-0.0228
X2.4989 Y5.4886 I0. J0.0114
G1 Y5.4964
G19 G3 Y5.5119 Z-0.2845 J0. K0.0155
G0 Z0.4
X2.9989 Y5.4881
Z0.13
G1 Z0.0655 F35.
G3 Y5.5036 Z0.05 J0.0155 K0.
G1 Y5.5114
G17 G3 X2.9875 Y5.5228 I-0.0114 J0.
Y5.4772 Z0. I0. J-0.0228
Y5.5228 Z-0.05 I0. J0.0228
Y5.4772 Z-0.1 I0. J-0.0228
Y5.5228 Z-0.15 I0. J0.0228
Y5.4772 Z-0.2 I0. J-0.0228
Y5.5228 Z-0.25 I0. J0.0228
Y5.4772 Z-0.3 I0. J-0.0228
Y5.5228 I0. J0.0228
Y5.4772 I0. J-0.0228
X2.9989 Y5.4886 I0. J0.0114
G1 Y5.4964
G19 G3 Y5.5119 Z-0.2845 J0. K0.0155
G0 Z0.4
X3.4989 Y5.4881
Z0.13
G1 Z0.0655 F35.
G3 Y5.5036 Z0.05 J0.0155 K0.
G1 Y5.5114
G17 G3 X3.4875 Y5.5228 I-0.0114 J0.
Y5.4772 Z0. I0. J-0.0228
Y5.5228 Z-0.05 I0. J0.0228
X3.4741 Y5.4816 Z-0.09 I0. J-0.0228
X3.5009 Y5.5184 Z-0.14 I0.0134 J0.0184
X3.4741 Y5.4816 Z-0.19 I-0.0134 J-0.0184
X3.5009 Y5.5184 Z-0.24 I0.0134 J0.0184
X3.4741 Y5.4816 Z-0.29 I-0.0134 J-0.0184
X3.4875 Y5.4772 Z-0.3 I0.0134 J0.0184
Y5.5228 I0. J0.0228
Y5.4772 I0. J-0.0228
X3.4989 Y5.4886 I0. J0.0114
G1 Y5.4964
G19 G3 Y5.5119 Z-0.2845 J0. K0.0155
G0 Z0.4
X3.9989 Y5.4881
Z0.13
G1 Z0.0655 F35.
G3 Y5.5036 Z0.05 J0.0155 K0.
G1 Y5.5114
G17 G3 X3.9875 Y5.5228 I-0.0114 J0.
Y5.4772 Z0. I0. J-0.0228
Y5.5228 Z-0.05 I0. J0.0228
Y5.4772 Z-0.1 I0. J-0.0228
Y5.5228 Z-0.15 I0. J0.0228
Y5.4772 Z-0.2 I0. J-0.0228
Y5.5228 Z-0.25 I0. J0.0228
Y5.4772 Z-0.3 I0. J-0.0228
Y5.5228 I0. J0.0228
Y5.4772 I0. J-0.0228
X3.9989 Y5.4886 I0. J0.0114
G1 Y5.4964
G19 G3 Y5.5119 Z-0.2845 J0. K0.0155
G0 Z0.4
X4.9989 Y5.4131
Z0.13
G1 Z0.0655 F35.
G3 Y5.4286 Z0.05 J0.0155 K0.
G1 Y5.4364
G17 G3 X4.9875 Y5.4478 I-0.0114 J0.
Y5.4022 Z0. I0. J-0.0228
Y5.4478 Z-0.05 I0. J0.0228
Y5.4022 Z-0.1 I0. J-0.0228
Y5.4478 Z-0.15 I0. J0.0228
Y5.4022 Z-0.2 I0. J-0.0228
Y5.4478 Z-0.25 I0. J0.0228
Y5.4022 Z-0.3 I0. J-0.0228
Y5.4478 I0. J0.0228
Y5.4022 I0. J-0.0228
X4.9989 Y5.4136 I0. J0.0114
G1 Y5.4214
G19 G3 Y5.4369 Z-0.2845 J0. K0.0155
G0 Z0.4
X6.1489 Y5.4131
Z0.13
G1 Z0.0655 F35.
G3 Y5.4286 Z0.05 J0.0155 K0.
G1 Y5.4364
G17 G3 X6.1375 Y5.4478 I-0.0114 J0.
Y5.4022 Z0. I0. J-0.0228
Y5.4478 Z-0.05 I0. J0.0228
X6.1241 Y5.4066 Z-0.09 I0. J-0.0228
X6.1509 Y5.4434 Z-0.14 I0.0134 J0.0184
X6.1241 Y5.4066 Z-0.19 I-0.0134 J-0.0184
X6.1509 Y5.4434 Z-0.24 I0.0134 J0.0184
X6.1241 Y5.4066 Z-0.29 I-0.0134 J-0.0184
X6.1375 Y5.4022 Z-0.3 I0.0134 J0.0184
Y5.4478 I0. J0.0228
Y5.4022 I0. J-0.0228
X6.1489 Y5.4136 I0. J0.0114
G1 Y5.4214
G19 G3 Y5.4369 Z-0.2845 J0. K0.0155
G0 Z0.4
Y6.5631
Z0.13
G1 Z0.0655 F35.
G3 Y6.5786 Z0.05 J0.0155 K0.
G1 Y6.5864
G17 G3 X6.1375 Y6.5978 I-0.0114 J0.
Y6.5522 Z0. I0. J-0.0228
X6.1592 Y6.568 Z-0.02 I0. J0.0228
X6.1158 Y6.582 Z-0.07 I-0.0217 J0.007
X6.1241 Y6.5566 Z-0.09 I0.0217 J-0.007
X6.1509 Y6.5934 Z-0.14 I0.0134 J0.0184
X6.1241 Y6.5566 Z-0.19 I-0.0134 J-0.0184
X6.1509 Y6.5934 Z-0.24 I0.0134 J0.0184
X6.1241 Y6.5566 Z-0.29 I-0.0134 J-0.0184
X6.1375 Y6.5522 Z-0.3 I0.0134 J0.0184
Y6.5978 I0. J0.0228
Y6.5522 I0. J-0.0228
X6.1489 Y6.5636 I0. J0.0114
G1 Y6.5714
G19 G3 Y6.5869 Z-0.2845 J0. K0.0155
G0 Z0.4
X4.9989 Y6.5631
Z0.13
G1 Z0.0655 F35.
G3 Y6.5786 Z0.05 J0.0155 K0.
G1 Y6.5864
G17 G3 X4.9875 Y6.5978 I-0.0114 J0.
Y6.5522 Z0. I0. J-0.0228
X5.0092 Y6.568 Z-0.02 I0. J0.0228
X4.9658 Y6.582 Z-0.07 I-0.0217 J0.007
X5.0092 Y6.568 Z-0.12 I0.0217 J-0.007
X4.9741 Y6.5934 Z-0.16 I-0.0217 J0.007
X5.0009 Y6.5566 Z-0.21 I0.0134 J-0.0184
X4.9741 Y6.5934 Z-0.26 I-0.0134 J0.0184
X4.9875 Y6.5522 Z-0.3 I0.0134 J-0.0184
Y6.5978 I0. J0.0228
Y6.5522 I0. J-0.0228
X4.9989 Y6.5636 I0. J0.0114
G1 Y6.5714
G19 G3 Y6.5869 Z-0.2845 J0. K0.0155
G0 Z0.6
G17
(.3 CIRCULAR THROUGH HOLE)
M7
G0 X5.6219 Y6.0435
Z0.6
Z0.2
G1 Z0.115 F13.333
G3 X5.6205 Y6.0431 Z0.1084 I0.0116 J-0.0435 F55.
X5.6166 Y6.0417 Z0.1031 I0.013 J-0.0431
X5.6112 Y6.0391 Z0.1 I0.0168 J-0.0417
X5.6557 Y5.9609 Z0.0621 I0.0222 J-0.0391
X5.6112 Y6.0391 Z0.0242 I-0.0222 J0.0391
X5.6557 Y5.9609 Z-0.0136 I0.0222 J-0.0391
X5.6112 Y6.0391 Z-0.0515 I-0.0222 J0.0391
X5.6557 Y5.9609 Z-0.0894 I0.0222 J-0.0391
X5.6112 Y6.0391 Z-0.1273 I-0.0222 J0.0391
X5.5884 Y6. Z-0.14 I0.0222 J-0.0391
X5.6365 I0.024 J0. F60.
X5.4884 I-0.074 J0.
X5.7365 I0.124 J0.
X5.3884 I-0.174 J0.
X5.8365 I0.224 J0.
X5.2884 I-0.274 J0.
X5.9365 I0.324 J0.
X5.1884 I-0.374 J0.
X6.0365 I0.424 J0.
X5.0884 I-0.474 J0.
X6.0365 I0.474 J0.
X6.0273 Y6.0076 I-0.0078 J0.
G1 X5.9725 Y5.9975
X5.6201 Y5.9704
X5.6085 Y5.968
G3 X5.6075 Y5.9633 I0.0005 J-0.0026
X5.6594 Y6.0367 Z-0.1779 I0.026 J0.0367 F55.
X5.6075 Y5.9633 Z-0.2158 I-0.026 J-0.0367
X5.6594 Y6.0367 Z-0.2536 I0.026 J0.0367
X5.5884 Y6. Z-0.28 I-0.026 J-0.0367
X5.6365 I0.024 J0. F60.
X5.4884 I-0.074 J0.
X5.7365 I0.124 J0.
X5.3884 I-0.174 J0.
X5.8365 I0.224 J0.
X5.2884 I-0.274 J0.
X5.9365 I0.324 J0.
X5.1884 I-0.374 J0.
X6.0365 I0.424 J0.
X5.0884 I-0.474 J0.
X6.0465 I0.479 J0.
X5.0784 I-0.484 J0.
X6.0465 I0.484 J0.
X6.0454 Y6.0058 Z-0.2788 I-0.0155 J0.
X6.0428 Y6.0101 Z-0.2754 I-0.0144 J-0.0058
X6.0403 Y6.0124 Z-0.2704 I-0.0118 J-0.0101
X6.0394 Y6.0131 Z-0.2645 I-0.0094 J-0.0124
G0 Z0.6
(2D CONTOUR)
M7
G0 X-0.1435 Y7.0777
Z0.6
Z0.2
G1 Z0.1 F13.333
X2.125 Z-0.3
X2.7637 F60.
Z-0.175
X3.9191
Z-0.3 F13.333
X5.5625 F60.
G2 X6.5456 Y6.4415 I0. J-1.0777
G1 Z-0.175
G2 X6.4104 Y5.3348 I-0.9831 J-0.4415
G1 Z-0.3 F13.333
G2 X5.5625 Y4.9223 I-0.8479 J0.6652 F60.
G1 X4.0686
Z-0.175
X2.9132
Z-0.3 F13.333
X1.1291 F60.
Z-0.175
X-0.0263
Z-0.3 F13.333
X-2.0625 F60.
G2 X-2.3902 Y5.25 I0. J0.3277
G1 Y5.4803
Z-0.175
Y6.6357
Z-0.3 F13.333
Y6.75 F60.
G2 X-2.0625 Y7.0777 I0.3277 J0.
G1 X-0.7501
Z-0.175
X0.4053
Z-0.3 F13.333
X2.125 F60.
G0 Z0.6
M9
G53 Z0.
M30
%
