%
(INTAKEFLAP T_063 POLYCARB QTY_6_1490)
(T1  D=0.149 CR=0. - ZMIN=-0.0825 - FLAT END MILL)
G90 G94 G17 G91.1
G64 P0.001 Q0.001
G20
G53 G0 Z0.
(.3 CIRCLUAR THROUGH HOLE)
M9
T1 M6
S22000 M3
G4 P10.
G54
M7
G0 X-18.9797 Y5.5954
G43 Z0.6 H1
G0 Z0.13
G1 Z0.0649 F40.
G18 G2 X-18.9648 Z0.05 I0.0149 K0.
G1 X-18.9573
G17 G3 X-18.9443 Y5.6084 I0. J0.013
X-18.9963 Z0. I-0.026 J0.
X-18.9839 Y5.5862 Z-0.0163 I0.026 J0.
X-18.9567 Y5.6305 Z-0.0662 I0.0136 J0.0222
X-18.9821 Y5.6315 Z-0.0825 I-0.0136 J-0.0222
X-18.9585 Y5.5852 I0.0118 J-0.0232
X-18.9821 Y5.6315 I-0.0118 J0.0232
X-18.9878 Y5.614 I0.0059 J-0.0116
G1 X-18.9844 Y5.6074
X-18.9831 Y5.6048 Z-0.0822
X-18.9818 Y5.6023 Z-0.0814
X-18.9807 Y5.6 Z-0.08
X-18.9796 Y5.598 Z-0.0781
X-18.9788 Y5.5964 Z-0.0759
X-18.9782 Y5.5951 Z-0.0733
X-18.9778 Y5.5944 Z-0.0705
X-18.9777 Y5.5941 Z-0.0676
G0 Z0.4
X-18.9921 Y7.3453
Z0.13
G1 Z0.0649 F40.
G18 G2 X-18.9771 Z0.05 I0.0149 K0.
G1 X-18.9697
G17 G3 X-18.9567 Y7.3583 I0. J0.013
X-19.0087 Z0. I-0.026 J0.
X-18.9963 Y7.3361 Z-0.0163 I0.026 J0.
X-18.9691 Y7.3805 Z-0.0663 I0.0136 J0.0222
X-18.9945 Y7.3815 Z-0.0825 I-0.0136 J-0.0222
X-18.9709 Y7.3351 I0.0118 J-0.0232
X-18.9945 Y7.3815 I-0.0118 J0.0232
X-19.0002 Y7.364 I0.0059 J-0.0116
G1 X-18.9968 Y7.3574
X-18.9955 Y7.3548 Z-0.0822
X-18.9942 Y7.3523 Z-0.0814
X-18.993 Y7.35 Z-0.08
X-18.992 Y7.348 Z-0.0781
X-18.9912 Y7.3463 Z-0.0759
X-18.9906 Y7.3451 Z-0.0733
X-18.9902 Y7.3443 Z-0.0705
X-18.99 Y7.3441 Z-0.0676
G0 Z0.4
X-20.0095 Y8.7691
Z0.13
G1 Z0.0649 F40.
G18 G2 X-19.9946 Z0.05 I0.0149 K0.
G1 X-19.9872
G17 G3 X-19.9742 Y8.7821 I0. J0.013
X-20.0262 Z0. I-0.026 J0.
X-20.0138 Y8.7599 Z-0.0163 I0.026 J0.
X-19.9866 Y8.8043 Z-0.0662 I0.0136 J0.0222
X-20.012 Y8.8053 Z-0.0825 I-0.0136 J-0.0222
X-19.9884 Y8.7589 I0.0118 J-0.0232
X-20.012 Y8.8053 I-0.0118 J0.0232
X-20.0177 Y8.7878 I0.0059 J-0.0116
G1 X-20.0143 Y8.7812
X-20.013 Y8.7786 Z-0.0822
X-20.0117 Y8.7761 Z-0.0814
X-20.0105 Y8.7738 Z-0.08
X-20.0095 Y8.7718 Z-0.0781
X-20.0087 Y8.7701 Z-0.0759
X-20.008 Y8.7689 Z-0.0733
X-20.0077 Y8.7681 Z-0.0705
X-20.0075 Y8.7679 Z-0.0676
G0 Z0.4
X-22.4047 Y9.4853
Z0.13
G1 Z0.0649 F40.
G18 G2 X-22.3898 Z0.05 I0.0149 K0.
G1 X-22.3824
G17 G3 X-22.3694 Y9.4983 I0. J0.013
X-22.4214 Z0. I-0.026 J0.
X-22.409 Y9.4762 Z-0.0163 I0.026 J0.
X-22.3818 Y9.5205 Z-0.0663 I0.0136 J0.0222
X-22.4072 Y9.5215 Z-0.0825 I-0.0136 J-0.0222
X-22.3836 Y9.4752 I0.0118 J-0.0232
X-22.4072 Y9.5215 I-0.0118 J0.0232
X-22.4129 Y9.504 I0.0059 J-0.0116
G1 X-22.4095 Y9.4974
X-22.4082 Y9.4948 Z-0.0822
X-22.4069 Y9.4923 Z-0.0814
X-22.4057 Y9.49 Z-0.08
X-22.4047 Y9.488 Z-0.0781
X-22.4039 Y9.4863 Z-0.0759
X-22.4033 Y9.4851 Z-0.0733
X-22.4029 Y9.4844 Z-0.0705
X-22.4027 Y9.4841 Z-0.0676
G0 Z0.6
(.3 CIRCULAR THROUGH HOLE)
M7
G0 X-20.7213 Y9.3277
Z0.6
Z0.2
G1 Z0.1144 F13.333
G3 X-20.7217 Y9.329 Z0.1081 I-0.0426 J-0.0145 F55.
X-20.7233 Y9.3327 Z0.103 I-0.0421 J-0.0158
X-20.7261 Y9.3376 Z0.1 I-0.0406 J-0.0194
X-20.7369 Y9.3493 Z0.0957 I-0.0378 J-0.0244
X-20.7909 Y9.2773 Z0.0578 I-0.027 J-0.036
X-20.7369 Y9.3493 Z0.02 I0.027 J0.036
X-20.7909 Y9.2773 Z-0.0179 I-0.027 J-0.036
X-20.7369 Y9.3493 Z-0.0558 I0.027 J0.036
X-20.8089 Y9.3133 Z-0.0825 I-0.027 J-0.036
X-20.7279 I0.0405 J0. F60.
X-20.9089 I-0.0905 J0.
X-20.6279 I0.1405 J0.
X-21.0089 I-0.1905 J0.
X-20.5279 I0.2405 J0.
X-21.1089 I-0.2905 J0.
X-20.5179 I0.2955 J0.
X-21.1189 I-0.3005 J0.
X-20.5179 I0.3005 J0.
X-20.519 Y9.3188 Z-0.0814 I-0.0149 J0.
X-20.5215 Y9.3229 Z-0.0781 I-0.0138 J-0.0056
X-20.5238 Y9.3252 Z-0.0733 I-0.0113 J-0.0097
X-20.5247 Y9.3258 Z-0.0676 I-0.009 J-0.0119
G0 Z0.6
(2D SLOT CUT)
M7
G0 X-23.0228 Y5.1834
Z0.6
Z0.2
G1 Z0.1 F13.333
X-24.0579 Z-0.0825 F40.
X-25.6366 F55.
Z0.0175
X-26.3856
Z-0.0825 F13.333
X-29.1454 F55.
G2 X-29.5704 Y5.6083 I0. J0.425
G1 Y7.2887
Z0.0175
Y8.0377
Z-0.0825 F13.333
Y9.5878 F55.
G2 X-29.1454 Y10.0128 I0.425 J0.
G1 X-28.1436
Z0.0175
X-27.3946
Z-0.0825 F13.333
X-23.2594 F55.
Z0.0175
X-22.5104
Z-0.0825 F13.333
X-20.8184 F55.
G2 X-20.2641 Y9.74 I0. J-0.6995
G1 X-18.6361 Y7.6251
G2 X-18.5453 Y7.3583 I-0.3466 J-0.2668
G1 Y6.9288
Z0.0175
Y6.1798
Z-0.0825 F13.333
Y5.6083 F55.
G2 X-18.9703 Y5.1834 I-0.425 J0.
G1 X-21.3196
Z0.0175
X-22.0686
Z-0.0825 F13.333
X-24.0579 F55.
G0 Z0.6
M9
G53 Z0.
M30
%
