%
(971-23-P-0053_CAPSTAN CLOSING PLATE_1492)
(T1  D=0.1492 CR=0. - ZMIN=-0.155 - FLAT END MILL)
G90 G94 G17 G91.1
G64 P0.001 Q0.001
G20
G53 G0 Z0.
(.3 CIRCLUAR THROUGH HOLE 2)
M9
T1 M6
S22000 M3
G4 P10.
G54
M7
G0 X3.7996 Y-0.3193
G43 Z0.6 H1
G0 Z0.13
G1 Z0.0649 F40.
G19 G2 Y-0.3342 Z0.05 J-0.0149 K0.
G1 Y-0.3417
G17 G3 X3.8092 Y-0.3513 I0.0096 J0.
Y-0.313 Z0.0335 I0. J0.0192
Y-0.3513 Z0.0169 I0. J-0.0191
Y-0.313 Z0.0004 I0. J0.0191
Y-0.3513 Z-0.0161 I0. J-0.0191
Y-0.313 Z-0.0327 I0. J0.0191
Y-0.3513 Z-0.0492 I0. J-0.0191
Y-0.313 Z-0.0657 I0. J0.0191
Y-0.3513 Z-0.0822 I0. J-0.0191
Y-0.313 Z-0.0988 I0. J0.0191
Y-0.3513 Z-0.1153 I0. J-0.0191
Y-0.313 Z-0.1318 I0. J0.0191
Y-0.3513 Z-0.1484 I0. J-0.0191
X3.8274 Y-0.338 Z-0.155 I0. J0.0191
X3.791 Y-0.3263 I-0.0182 J0.0058
X3.8274 Y-0.338 I0.0182 J-0.0058
X3.8212 Y-0.3259 I-0.0091 J0.0029
G1 X3.8141 Y-0.3236
X3.8114 Y-0.3227 Z-0.1547
X3.8087 Y-0.3219 Z-0.1539
X3.8062 Y-0.3211 Z-0.1525
X3.8041 Y-0.3204 Z-0.1506
X3.8023 Y-0.3198 Z-0.1484
X3.801 Y-0.3194 Z-0.1458
X3.8002 Y-0.3192 Z-0.143
X3.7999 Y-0.3191 Z-0.1401
G0 Z0.4
X3.7035 Y0.3052
Z0.13
G1 Z0.0649 F40.
G19 G3 Y0.3201 Z0.05 J0.0149 K0.
G1 Y0.3276
G17 G3 X3.6939 Y0.3372 I-0.0096 J0.
Y0.2989 Z0.0335 I0. J-0.0192
Y0.3372 Z0.0169 I0. J0.0191
Y0.2989 Z0.0004 I0. J-0.0191
Y0.3372 Z-0.0161 I0. J0.0191
Y0.2989 Z-0.0327 I0. J-0.0191
Y0.3372 Z-0.0492 I0. J0.0191
Y0.2989 Z-0.0657 I0. J-0.0191
Y0.3372 Z-0.0822 I0. J0.0191
Y0.2989 Z-0.0988 I0. J-0.0191
Y0.3372 Z-0.1153 I0. J0.0191
Y0.2989 Z-0.1318 I0. J-0.0191
Y0.3372 Z-0.1484 I0. J0.0191
X3.6757 Y0.3239 Z-0.155 I0. J-0.0191
X3.7122 Y0.3122 I0.0182 J-0.0058
X3.6757 Y0.3239 I-0.0182 J0.0058
X3.6819 Y0.3118 I0.0091 J-0.0029
G1 X3.689 Y0.3096
X3.6918 Y0.3087 Z-0.1547
X3.6944 Y0.3078 Z-0.1539
X3.6969 Y0.307 Z-0.1525
X3.6991 Y0.3063 Z-0.1506
X3.7008 Y0.3058 Z-0.1484
X3.7021 Y0.3054 Z-0.1458
X3.7029 Y0.3051 Z-0.143
X3.7032 Y0.305 Z-0.1401
G0 Z0.4
X3.6994 Y0.832
Z0.0092
G1 Z-0.0559 F40.
G19 G3 Y0.8469 Z-0.0708 J0.0149 K0.
G1 Y0.8544
G17 G3 X3.6864 Y0.8673 I-0.0129 J0.
Y0.8155 Z-0.0885 I0. J-0.0259
Y0.8673 Z-0.1062 I0. J0.0259
Y0.8155 Z-0.124 I0. J-0.0259
Y0.8673 Z-0.1417 I0. J0.0259
X3.6683 Y0.823 Z-0.155 I0. J-0.0259
X3.7046 Y0.8598 I0.0182 J0.0184
X3.6683 Y0.823 I-0.0182 J-0.0184
X3.6866 Y0.8231 I0.0091 J0.0092
G1 X3.6918 Y0.8284
X3.6939 Y0.8305 Z-0.1547
X3.6958 Y0.8325 Z-0.1539
X3.6976 Y0.8343 Z-0.1525
X3.6992 Y0.8359 Z-0.1506
X3.7005 Y0.8372 Z-0.1484
X3.7015 Y0.8382 Z-0.1458
X3.7021 Y0.8388 Z-0.143
X3.7023 Y0.839 Z-0.1401
G0 Z0.4
X2.9659 Y2.3448
Z0.13
G1 Z0.0649 F40.
G19 G3 Y2.3597 Z0.05 J0.0149 K0.
G1 Y2.3671
G17 G3 X2.9563 Y2.3767 I-0.0096 J0.
Y2.3384 Z0.0335 I0. J-0.0192
Y2.3767 Z0.0169 I0. J0.0192
Y2.3384 Z0.0004 I0. J-0.0192
Y2.3767 Z-0.0161 I0. J0.0192
Y2.3384 Z-0.0327 I0. J-0.0192
Y2.3767 Z-0.0492 I0. J0.0192
Y2.3384 Z-0.0657 I0. J-0.0191
Y2.3767 Z-0.0822 I0. J0.0191
Y2.3384 Z-0.0988 I0. J-0.0191
Y2.3767 Z-0.1153 I0. J0.0191
Y2.3384 Z-0.1318 I0. J-0.0191
Y2.3767 Z-0.1484 I0. J0.0191
X2.9381 Y2.3634 Z-0.155 I0. J-0.0191
X2.9745 Y2.3517 I0.0182 J-0.0058
X2.9381 Y2.3634 I-0.0182 J0.0058
X2.9443 Y2.3514 I0.0091 J-0.0029
G1 X2.9514 Y2.3491
X2.9541 Y2.3482 Z-0.1547
X2.9568 Y2.3474 Z-0.1539
X2.9593 Y2.3466 Z-0.1525
X2.9614 Y2.3459 Z-0.1506
X2.9632 Y2.3453 Z-0.1484
X2.9645 Y2.3449 Z-0.1458
X2.9653 Y2.3446 Z-0.143
X2.9656 Y2.3445 Z-0.1401
G0 Z0.4
X1.6277 Y3.4162
Z0.0092
G1 Z-0.0559 F40.
G19 G2 Y3.4013 Z-0.0708 J-0.0149 K0.
G1 Y3.3938
G17 G3 X1.6406 Y3.3809 I0.0129 J0.
Y3.4327 Z-0.0885 I0. J0.0259
Y3.3809 Z-0.1062 I0. J-0.0259
Y3.4327 Z-0.124 I0. J0.0259
Y3.3809 Z-0.1417 I0. J-0.0259
X1.6588 Y3.4252 Z-0.155 I0. J0.0259
X1.6224 Y3.3884 I-0.0182 J-0.0184
X1.6588 Y3.4252 I0.0182 J0.0184
X1.6405 Y3.4251 I-0.0091 J-0.0092
G1 X1.6353 Y3.4198
X1.6332 Y3.4177 Z-0.1547
X1.6313 Y3.4157 Z-0.1539
X1.6294 Y3.4139 Z-0.1525
X1.6279 Y3.4123 Z-0.1506
X1.6265 Y3.411 Z-0.1484
X1.6256 Y3.41 Z-0.1458
X1.625 Y3.4094 Z-0.143
X1.6248 Y3.4092 Z-0.1401
G0 Z0.4
X-0.0096 Y3.7941
Z0.13
G1 Z0.0649 F40.
G19 G2 Y3.7791 Z0.05 J-0.0149 K0.
G1 Y3.7717
G17 G3 X0. Y3.7621 I0.0096 J0.
Y3.8004 Z0.0335 I0. J0.0191
Y3.7621 Z0.0169 I0. J-0.0191
Y3.8004 Z0.0004 I0. J0.0191
Y3.7621 Z-0.0161 I0. J-0.0191
Y3.8004 Z-0.0327 I0. J0.0191
Y3.7621 Z-0.0492 I0. J-0.0191
Y3.8004 Z-0.0657 I0. J0.0191
Y3.7621 Z-0.0822 I0. J-0.0191
Y3.8004 Z-0.0988 I0. J0.0191
Y3.7621 Z-0.1153 I0. J-0.0191
Y3.8004 Z-0.1318 I0. J0.0191
Y3.7621 Z-0.1484 I0. J-0.0191
X0.0182 Y3.7754 Z-0.155 I0. J0.0191
X-0.0182 Y3.7871 I-0.0182 J0.0058
X0.0182 Y3.7754 I0.0182 J-0.0058
X0.012 Y3.7874 I-0.0091 J0.0029
G1 X0.0049 Y3.7897
X0.0022 Y3.7906 Z-0.1547
X-0.0005 Y3.7915 Z-0.1539
X-0.003 Y3.7923 Z-0.1525
X-0.0051 Y3.7929 Z-0.1506
X-0.0069 Y3.7935 Z-0.1484
X-0.0082 Y3.7939 Z-0.1458
X-0.009 Y3.7942 Z-0.143
X-0.0093 Y3.7943 Z-0.1401
G0 Z0.4
X-1.6536 Y3.4162
Z0.0092
G1 Z-0.0559 F40.
G19 G2 Y3.4013 Z-0.0708 J-0.0149 K0.
G1 Y3.3938
G17 G3 X-1.6406 Y3.3809 I0.0129 J0.
Y3.4327 Z-0.0885 I0. J0.0259
Y3.3809 Z-0.1062 I0. J-0.0259
Y3.4327 Z-0.124 I0. J0.0259
Y3.3809 Z-0.1417 I0. J-0.0259
X-1.6224 Y3.4252 Z-0.155 I0. J0.0259
X-1.6588 Y3.3884 I-0.0182 J-0.0184
X-1.6224 Y3.4252 I0.0182 J0.0184
X-1.6407 Y3.4251 I-0.0091 J-0.0092
G1 X-1.646 Y3.4198
X-1.648 Y3.4177 Z-0.1547
X-1.65 Y3.4157 Z-0.1539
X-1.6518 Y3.4139 Z-0.1525
X-1.6534 Y3.4123 Z-0.1506
X-1.6547 Y3.411 Z-0.1484
X-1.6557 Y3.41 Z-0.1458
X-1.6563 Y3.4094 Z-0.143
X-1.6565 Y3.4092 Z-0.1401
G0 Z0.4
X-2.9467 Y2.3448
Z0.13
G1 Z0.0649 F40.
G19 G3 Y2.3597 Z0.05 J0.0149 K0.
G1 Y2.3671
G17 G3 X-2.9563 Y2.3767 I-0.0096 J0.
Y2.3384 Z0.0335 I0. J-0.0192
Y2.3767 Z0.0169 I0. J0.0192
Y2.3384 Z0.0004 I0. J-0.0192
Y2.3767 Z-0.0161 I0. J0.0192
Y2.3384 Z-0.0327 I0. J-0.0192
Y2.3767 Z-0.0492 I0. J0.0192
Y2.3384 Z-0.0657 I0. J-0.0191
Y2.3767 Z-0.0822 I0. J0.0191
Y2.3384 Z-0.0988 I0. J-0.0191
Y2.3767 Z-0.1153 I0. J0.0191
Y2.3384 Z-0.1318 I0. J-0.0191
Y2.3767 Z-0.1484 I0. J0.0191
X-2.9745 Y2.3634 Z-0.155 I0. J-0.0191
X-2.9381 Y2.3517 I0.0182 J-0.0058
X-2.9745 Y2.3634 I-0.0182 J0.0058
X-2.9683 Y2.3514 I0.0091 J-0.0029
G1 X-2.9612 Y2.3491
X-2.9585 Y2.3482 Z-0.1547
X-2.9558 Y2.3474 Z-0.1539
X-2.9533 Y2.3466 Z-0.1525
X-2.9512 Y2.3459 Z-0.1506
X-2.9494 Y2.3453 Z-0.1484
X-2.9481 Y2.3449 Z-0.1458
X-2.9473 Y2.3446 Z-0.143
X-2.947 Y2.3445 Z-0.1401
G0 Z0.4
X-3.6735 Y0.832
Z0.0092
G1 Z-0.0559 F40.
G19 G3 Y0.8469 Z-0.0708 J0.0149 K0.
G1 Y0.8544
G17 G3 X-3.6864 Y0.8673 I-0.013 J0.
Y0.8155 Z-0.0885 I0. J-0.0259
Y0.8673 Z-0.1062 I0. J0.0259
Y0.8155 Z-0.124 I0. J-0.0259
Y0.8673 Z-0.1417 I0. J0.0259
X-3.7046 Y0.823 Z-0.155 I0. J-0.0259
X-3.6683 Y0.8598 I0.0182 J0.0184
X-3.7046 Y0.823 I-0.0182 J-0.0184
X-3.6863 Y0.8231 I0.0091 J0.0092
G1 X-3.6811 Y0.8284
X-3.679 Y0.8305 Z-0.1547
X-3.6771 Y0.8325 Z-0.1539
X-3.6753 Y0.8343 Z-0.1525
X-3.6737 Y0.8359 Z-0.1506
X-3.6724 Y0.8372 Z-0.1484
X-3.6714 Y0.8382 Z-0.1458
X-3.6708 Y0.8388 Z-0.143
X-3.6706 Y0.839 Z-0.1401
G0 Z0.4
X-3.6844 Y0.3052
Z0.13
G1 Z0.0649 F40.
G19 G3 Y0.3201 Z0.05 J0.0149 K0.
G1 Y0.3276
G17 G3 X-3.6939 Y0.3372 I-0.0096 J0.
Y0.2989 Z0.0335 I0. J-0.0192
Y0.3372 Z0.0169 I0. J0.0191
Y0.2989 Z0.0004 I0. J-0.0191
Y0.3372 Z-0.0161 I0. J0.0191
Y0.2989 Z-0.0327 I0. J-0.0191
Y0.3372 Z-0.0492 I0. J0.0191
Y0.2989 Z-0.0657 I0. J-0.0191
Y0.3372 Z-0.0822 I0. J0.0191
Y0.2989 Z-0.0988 I0. J-0.0191
Y0.3372 Z-0.1153 I0. J0.0191
Y0.2989 Z-0.1318 I0. J-0.0191
Y0.3372 Z-0.1484 I0. J0.0191
X-3.7122 Y0.3239 Z-0.155 I0. J-0.0191
X-3.6757 Y0.3122 I0.0182 J-0.0058
X-3.7122 Y0.3239 I-0.0182 J0.0058
X-3.706 Y0.3118 I0.0091 J-0.0029
G1 X-3.6989 Y0.3096
X-3.6961 Y0.3087 Z-0.1547
X-3.6935 Y0.3078 Z-0.1539
X-3.691 Y0.307 Z-0.1525
X-3.6888 Y0.3063 Z-0.1506
X-3.6871 Y0.3058 Z-0.1484
X-3.6858 Y0.3054 Z-0.1458
X-3.685 Y0.3051 Z-0.143
X-3.6847 Y0.305 Z-0.1401
G0 Z0.4
X-3.8188 Y-0.3193
Z0.13
G1 Z0.0649 F40.
G19 G2 Y-0.3342 Z0.05 J-0.0149 K0.
G1 Y-0.3417
G17 G3 X-3.8092 Y-0.3513 I0.0096 J0.
Y-0.313 Z0.0335 I0. J0.0192
Y-0.3513 Z0.0169 I0. J-0.0191
Y-0.313 Z0.0004 I0. J0.0191
Y-0.3513 Z-0.0161 I0. J-0.0191
Y-0.313 Z-0.0327 I0. J0.0191
Y-0.3513 Z-0.0492 I0. J-0.0191
Y-0.313 Z-0.0657 I0. J0.0191
Y-0.3513 Z-0.0822 I0. J-0.0191
Y-0.313 Z-0.0988 I0. J0.0191
Y-0.3513 Z-0.1153 I0. J-0.0191
Y-0.313 Z-0.1318 I0. J0.0191
Y-0.3513 Z-0.1484 I0. J-0.0191
X-3.791 Y-0.338 Z-0.155 I0. J0.0191
X-3.8274 Y-0.3263 I-0.0182 J0.0058
X-3.791 Y-0.338 I0.0182 J-0.0058
X-3.7971 Y-0.3259 I-0.0091 J0.0029
G1 X-3.8042 Y-0.3236
X-3.807 Y-0.3227 Z-0.1547
X-3.8097 Y-0.3219 Z-0.1539
X-3.8121 Y-0.3211 Z-0.1525
X-3.8143 Y-0.3204 Z-0.1506
X-3.8161 Y-0.3198 Z-0.1484
X-3.8174 Y-0.3194 Z-0.1458
X-3.8182 Y-0.3192 Z-0.143
X-3.8185 Y-0.3191 Z-0.1401
G0 Z0.4
X-2.9693 Y-2.3481
Z0.0092
G1 Z-0.0559 F40.
G19 G2 Y-2.3631 Z-0.0708 J-0.0149 K0.
G1 Y-2.3705
G17 G3 X-2.9563 Y-2.3835 I0.013 J0.
Y-2.3317 Z-0.0885 I0. J0.0259
Y-2.3835 Z-0.1062 I0. J-0.0259
Y-2.3317 Z-0.124 I0. J0.0259
Y-2.3835 Z-0.1417 I0. J-0.0259
X-2.9381 Y-2.3391 Z-0.155 I0. J0.0259
X-2.9745 Y-2.376 I-0.0182 J-0.0184
X-2.9381 Y-2.3391 I0.0182 J0.0184
X-2.9564 Y-2.3393 I-0.0091 J-0.0092
G1 X-2.9617 Y-2.3446
X-2.9637 Y-2.3466 Z-0.1547
X-2.9657 Y-2.3486 Z-0.1539
X-2.9675 Y-2.3505 Z-0.1525
X-2.9691 Y-2.3521 Z-0.1506
X-2.9704 Y-2.3534 Z-0.1484
X-2.9713 Y-2.3544 Z-0.1458
X-2.9719 Y-2.355 Z-0.143
X-2.9721 Y-2.3552 Z-0.1401
G0 Z0.4
X-1.6502 Y-3.394
Z0.13
G1 Z0.0649 F40.
G19 G2 Y-3.4089 Z0.05 J-0.0149 K0.
G1 Y-3.4164
G17 G3 X-1.6406 Y-3.4259 I0.0096 J0.
Y-3.3876 Z0.0335 I0. J0.0192
Y-3.4259 Z0.0169 I0. J-0.0192
Y-3.3876 Z0.0004 I0. J0.0192
Y-3.4259 Z-0.0161 I0. J-0.0192
Y-3.3876 Z-0.0327 I0. J0.0192
Y-3.4259 Z-0.0492 I0. J-0.0192
Y-3.3876 Z-0.0657 I0. J0.0192
Y-3.4259 Z-0.0822 I0. J-0.0192
Y-3.3876 Z-0.0988 I0. J0.0192
Y-3.4259 Z-0.1153 I0. J-0.0192
Y-3.3876 Z-0.1318 I0. J0.0192
Y-3.4259 Z-0.1484 I0. J-0.0192
X-1.6224 Y-3.4126 Z-0.155 I0. J0.0192
X-1.6589 Y-3.4009 I-0.0182 J0.0058
X-1.6224 Y-3.4126 I0.0182 J-0.0058
X-1.6286 Y-3.4006 I-0.0091 J0.0029
G1 X-1.6357 Y-3.3983
X-1.6385 Y-3.3974 Z-0.1547
X-1.6411 Y-3.3966 Z-0.1539
X-1.6436 Y-3.3958 Z-0.1525
X-1.6457 Y-3.3951 Z-0.1506
X-1.6475 Y-3.3945 Z-0.1484
X-1.6488 Y-3.3941 Z-0.1458
X-1.6496 Y-3.3938 Z-0.143
X-1.6499 Z-0.1401
G0 Z0.4
X0.0129 Y-3.7907
Z0.0092
G1 Z-0.0559 F40.
G19 G3 Y-3.7758 Z-0.0708 J0.0149 K0.
G1 Y-3.7683
G17 G3 X0. Y-3.7553 I-0.0129 J0.
Y-3.8071 Z-0.0885 I0. J-0.0259
Y-3.7553 Z-0.1062 I0. J0.0259
Y-3.8071 Z-0.124 I0. J-0.0259
Y-3.7553 Z-0.1417 I0. J0.0259
X-0.0182 Y-3.7997 Z-0.155 I0. J-0.0259
X0.0182 Y-3.7628 I0.0182 J0.0184
X-0.0182 Y-3.7997 I-0.0182 J-0.0184
X0.0001 Y-3.7996 I0.0091 J0.0092
G1 X0.0054 Y-3.7943
X0.0074 Y-3.7922 Z-0.1547
X0.0094 Y-3.7902 Z-0.1539
X0.0112 Y-3.7884 Z-0.1525
X0.0128 Y-3.7867 Z-0.1506
X0.0141 Y-3.7854 Z-0.1484
X0.015 Y-3.7844 Z-0.1458
X0.0156 Y-3.7838 Z-0.143
X0.0158 Y-3.7836 Z-0.1401
G0 Z0.4
X1.631 Y-3.394
Z0.13
G1 Z0.0649 F40.
G19 G2 Y-3.4089 Z0.05 J-0.0149 K0.
G1 Y-3.4164
G17 G3 X1.6406 Y-3.4259 I0.0096 J0.
Y-3.3876 Z0.0335 I0. J0.0192
Y-3.4259 Z0.0169 I0. J-0.0192
Y-3.3876 Z0.0004 I0. J0.0192
Y-3.4259 Z-0.0161 I0. J-0.0192
Y-3.3876 Z-0.0327 I0. J0.0192
Y-3.4259 Z-0.0492 I0. J-0.0192
Y-3.3876 Z-0.0657 I0. J0.0192
Y-3.4259 Z-0.0822 I0. J-0.0192
Y-3.3876 Z-0.0988 I0. J0.0192
Y-3.4259 Z-0.1153 I0. J-0.0192
Y-3.3876 Z-0.1318 I0. J0.0192
Y-3.4259 Z-0.1484 I0. J-0.0192
X1.6589 Y-3.4126 Z-0.155 I0. J0.0192
X1.6224 Y-3.4009 I-0.0182 J0.0058
X1.6589 Y-3.4126 I0.0182 J-0.0058
X1.6527 Y-3.4006 I-0.0091 J0.0029
G1 X1.6456 Y-3.3983
X1.6428 Y-3.3974 Z-0.1547
X1.6401 Y-3.3966 Z-0.1539
X1.6377 Y-3.3958 Z-0.1525
X1.6355 Y-3.3951 Z-0.1506
X1.6337 Y-3.3945 Z-0.1484
X1.6324 Y-3.3941 Z-0.1458
X1.6316 Y-3.3938 Z-0.143
X1.6314 Z-0.1401
G0 Z0.4
X2.9434 Y-2.3481
Z0.0092
G1 Z-0.0559 F40.
G19 G2 Y-2.3631 Z-0.0708 J-0.0149 K0.
G1 Y-2.3705
G17 G3 X2.9563 Y-2.3835 I0.0129 J0.
Y-2.3317 Z-0.0885 I0. J0.0259
Y-2.3835 Z-0.1062 I0. J-0.0259
Y-2.3317 Z-0.124 I0. J0.0259
Y-2.3835 Z-0.1417 I0. J-0.0259
X2.9745 Y-2.3391 Z-0.155 I0. J0.0259
X2.9381 Y-2.376 I-0.0182 J-0.0184
X2.9745 Y-2.3391 I0.0182 J0.0184
X2.9562 Y-2.3393 I-0.0091 J-0.0092
G1 X2.9509 Y-2.3446
X2.9489 Y-2.3466 Z-0.1547
X2.9469 Y-2.3486 Z-0.1539
X2.9451 Y-2.3505 Z-0.1525
X2.9435 Y-2.3521 Z-0.1506
X2.9422 Y-2.3534 Z-0.1484
X2.9413 Y-2.3544 Z-0.1458
X2.9407 Y-2.355 Z-0.143
X2.9405 Y-2.3552 Z-0.1401
G0 Z0.6
(2D SLOT CUT)
M7
G0 X0.9199 Y3.5584
Z0.6
Z0.2
G1 Z0.1 F13.333
G3 X0.3381 Y3.6598 Z-0.0042 I-0.9199 J-3.5584 F40.
X0.2886 Y3.6327 Z-0.0148 I-0.0046 J-0.0502
G2 X0. Y3.4566 Z-0.0775 I-0.2886 J0.1485
X-0.2886 Y3.6327 I0. J0.3246 F55.
G3 X-0.3381 Y3.6598 I-0.0448 J-0.0231
X-1.2834 Y3.4441 I0.3381 J-3.6598
X-1.3161 Y3.3982 I0.0176 J-0.0472
G2 X-1.8362 Y3.1477 I-0.3245 J0.0086
G3 X-1.8925 Y3.1507 I-0.0304 J-0.0402
X-2.6506 Y2.5462 I1.8925 J-3.1507
X-2.6602 Y2.4906 I0.0363 J-0.0349
G2 X-3.0201 Y2.0393 I-0.2961 J-0.133
G3 X-3.0721 Y2.0176 I-0.0099 J-0.0494
X-3.4928 Y1.144 I3.0721 J-2.0176
X-3.4774 Y1.0897 I0.0479 J-0.0157
G2 X-3.37 Y0.7692 I-0.209 J-0.2483
G3 X-3.383 Y0.7097 I3.37 J-0.7693
X-3.384 Y0.5398 I0.4163 J-0.0873
G1 X-3.2048 Y-0.3663
G2 X-3.2635 Y-0.4539 I-0.0732 J-0.0145
G1 X-3.656 Y-0.5316
G3 X-3.6602 Y-0.5379 I0.001 J-0.0053
G1 X-3.5769 Y-0.9589
G3 X-3.4819 Y-1.1941 I0.6626 J0.131
G2 X-3.4616 Y-1.2352 I-0.1677 J-0.1082
G3 X-3.0721 Y-2.0176 I3.4616 J1.2352
X-3.0201 Y-2.0393 I0.0421 J0.0277
G2 X-2.6602 Y-2.4906 I0.0638 J-0.3183
G3 X-2.6506 Y-2.5462 I0.046 J-0.0207
X-1.8925 Y-3.1507 I2.6506 J2.5462
X-1.8362 Y-3.1477 I0.026 J0.0432
G2 X-1.3161 Y-3.3982 I0.1956 J-0.2591
G3 X-1.2834 Y-3.4441 I0.0504 J0.0013
X-0.3381 Y-3.6598 I1.2833 J3.4441
X-0.2886 Y-3.6327 I0.0046 J0.0502
G2 X0.2886 I0.2886 J-0.1485
G3 X0.3381 Y-3.6598 I0.0448 J0.0231
X1.2834 Y-3.4441 I-0.3381 J3.6598
X1.3161 Y-3.3982 I-0.0176 J0.0472
G2 X1.8362 Y-3.1477 I0.3245 J-0.0086
G3 X1.8925 Y-3.1507 I0.0304 J0.0402
X2.6506 Y-2.5462 I-1.8925 J3.1507
X2.6602 Y-2.4906 I-0.0363 J0.0349
G2 X3.0201 Y-2.0393 I0.2961 J0.133
G3 X3.0721 Y-2.0176 I0.0099 J0.0494
X3.4616 Y-1.2352 I-3.0721 J2.0176
G2 X3.4819 Y-1.1941 I0.188 J-0.0671
G3 X3.5769 Y-0.9589 I-0.5675 J0.3662
G1 X3.6602 Y-0.5379
G3 X3.656 Y-0.5316 I-0.0053 J0.001
G1 X3.2635 Y-0.4539
G2 X3.2048 Y-0.3663 I0.0145 J0.0732
G1 X3.384 Y0.5398
G3 X3.383 Y0.7097 I-0.4173 J0.0825
X3.37 Y0.7692 I-3.383 J-0.7098
G2 X3.4774 Y1.0897 I0.3165 J0.0722
G3 X3.4928 Y1.144 I-0.0325 J0.0386
X3.0721 Y2.0176 I-3.4928 J-1.144
X3.0201 Y2.0393 I-0.0421 J-0.0277
G2 X2.6602 Y2.4906 I-0.0638 J0.3183
G3 X2.6506 Y2.5462 I-0.046 J0.0207
X1.8925 Y3.1507 I-2.6506 J-2.5462
X1.8362 Y3.1477 I-0.026 J-0.0432
G2 X1.3161 Y3.3982 I-0.1956 J0.2591
G3 X1.2834 Y3.4441 I-0.0504 J-0.0013
X0.3381 Y3.6598 I-1.2833 J-3.4441
X0.2886 Y3.6327 I-0.0046 J-0.0502
G2 X0. Y3.4566 I-0.2886 J0.1485
X-0.2886 Y3.6327 Z-0.1194 I0. J0.3246 F40.
G3 X-0.3381 Y3.6598 Z-0.1265 I-0.0448 J-0.0231
X-0.5779 Y3.6297 Z-0.155 I0.3381 J-3.6598
X-1.2834 Y3.4441 I0.5779 J-3.6297 F55.
X-1.3161 Y3.3982 I0.0176 J-0.0472
G2 X-1.8362 Y3.1477 I-0.3245 J0.0086
G3 X-1.8925 Y3.1507 I-0.0304 J-0.0402
X-2.6506 Y2.5462 I1.8925 J-3.1507
X-2.6602 Y2.4906 I0.0363 J-0.0349
G2 X-3.0201 Y2.0393 I-0.2961 J-0.133
G3 X-3.0721 Y2.0176 I-0.0099 J-0.0494
X-3.4928 Y1.144 I3.0721 J-2.0176
X-3.4774 Y1.0897 I0.0479 J-0.0157
G2 X-3.37 Y0.7692 I-0.209 J-0.2483
G3 X-3.383 Y0.7097 I3.37 J-0.7693
X-3.384 Y0.5398 I0.4163 J-0.0873
G1 X-3.2048 Y-0.3663
G2 X-3.2635 Y-0.4539 I-0.0732 J-0.0145
G1 X-3.656 Y-0.5316
G3 X-3.6602 Y-0.5379 I0.001 J-0.0053
G1 X-3.5769 Y-0.9589
G3 X-3.4819 Y-1.1941 I0.6626 J0.131
G2 X-3.4616 Y-1.2352 I-0.1677 J-0.1082
G3 X-3.0721 Y-2.0176 I3.4616 J1.2352
X-3.0201 Y-2.0393 I0.0421 J0.0277
G2 X-2.6602 Y-2.4906 I0.0638 J-0.3183
G3 X-2.6506 Y-2.5462 I0.046 J-0.0207
X-1.8925 Y-3.1507 I2.6506 J2.5462
X-1.8362 Y-3.1477 I0.026 J0.0432
G2 X-1.3161 Y-3.3982 I0.1956 J-0.2591
G3 X-1.2834 Y-3.4441 I0.0504 J0.0013
X-0.3381 Y-3.6598 I1.2833 J3.4441
X-0.2886 Y-3.6327 I0.0046 J0.0502
G2 X0.2886 I0.2886 J-0.1485
G3 X0.3381 Y-3.6598 I0.0448 J0.0231
X1.2834 Y-3.4441 I-0.3381 J3.6598
X1.3161 Y-3.3982 I-0.0176 J0.0472
G2 X1.8362 Y-3.1477 I0.3245 J-0.0086
G3 X1.8925 Y-3.1507 I0.0304 J0.0402
X2.6506 Y-2.5462 I-1.8925 J3.1507
X2.6602 Y-2.4906 I-0.0363 J0.0349
G2 X3.0201 Y-2.0393 I0.2961 J0.133
G3 X3.0721 Y-2.0176 I0.0099 J0.0494
X3.4616 Y-1.2352 I-3.0721 J2.0176
G2 X3.4819 Y-1.1941 I0.188 J-0.0671
G3 X3.5769 Y-0.9589 I-0.5675 J0.3662
G1 X3.6602 Y-0.5379
G3 X3.656 Y-0.5316 I-0.0053 J0.001
G1 X3.2635 Y-0.4539
G2 X3.2048 Y-0.3663 I0.0145 J0.0732
G1 X3.384 Y0.5398
G3 X3.383 Y0.7097 I-0.4173 J0.0825
X3.37 Y0.7692 I-3.383 J-0.7098
G2 X3.4774 Y1.0897 I0.3165 J0.0722
G3 X3.4928 Y1.144 I-0.0325 J0.0386
X3.0721 Y2.0176 I-3.4928 J-1.144
X3.0201 Y2.0393 I-0.0421 J-0.0277
G2 X2.6602 Y2.4906 I-0.0638 J0.3183
G3 X2.6506 Y2.5462 I-0.046 J0.0207
X1.8925 Y3.1507 I-2.6506 J-2.5462
X1.8362 Y3.1477 I-0.026 J-0.0432
G2 X1.3161 Y3.3982 I-0.1956 J0.2591
G3 X1.2834 Y3.4441 I-0.0504 J-0.0013
X0.3381 Y3.6598 I-1.2833 J-3.4441
X0.2886 Y3.6327 I-0.0046 J-0.0502
G2 X-0.2886 I-0.2886 J0.1485
G3 X-0.3381 Y3.6598 I-0.0448 J-0.0231
X-0.5779 Y3.6297 I0.3381 J-3.6598
G0 Z0.4
X-0.9976 Y4.208
Z0.2
G1 Z0.1 F13.333
G2 X0. Y4.3246 Z-0.0775 I0.9976 J-4.208 F40.
X1.8298 Y3.9184 I0. J-4.3246 F55.
G1 Z-0.075
G2 X2.4786 Y3.5438 I-1.8298 J-3.9184
G1 Z-0.0775 F13.333
G2 X3.2289 Y-2.8769 I-2.4786 J-3.5438 F55.
G1 Z-0.075
G2 X2.6839 Y-3.391 I-3.2289 J2.8769
G1 Z-0.0775 F13.333
G2 X-3.6084 Y-2.3836 I-2.6839 J3.391 F55.
G1 Z-0.075
G2 X-3.9656 Y-1.7251 I3.6084 J2.3836
G1 Z-0.0775 F13.333
G2 X-3.7341 Y2.1814 I3.9656 J1.7251 F55.
G1 Z-0.075
G2 X-3.3016 Y2.7931 I3.7341 J-2.1814
G1 Z-0.0775 F13.333
G2 X0. Y4.3246 I3.3016 J-2.7931 F55.
X0.6989 Y4.2678 Z-0.155 I0. J-4.3246 F40.
X1.8298 Y3.9184 I-0.6989 J-4.2678 F55.
G1 Z-0.075
G2 X2.4786 Y3.5438 I-1.8298 J-3.9184
G1 Z-0.155 F13.333
G2 X3.2289 Y-2.8769 I-2.4786 J-3.5438 F55.
G1 Z-0.075
G2 X2.6839 Y-3.391 I-3.2289 J2.8769
G1 Z-0.155 F13.333
G2 X-3.6084 Y-2.3836 I-2.6839 J3.391 F55.
G1 Z-0.075
G2 X-3.9656 Y-1.7251 I3.6084 J2.3836
G1 Z-0.155 F13.333
G2 X-3.7341 Y2.1814 I3.9656 J1.7251 F55.
G1 Z-0.075
G2 X-3.3016 Y2.7931 I3.7341 J-2.1814
G1 Z-0.155 F13.333
G2 X0.6989 Y4.2678 I3.3016 J-2.7931 F55.
G0 Z0.6
M9
G53 Z0.
M30
%
