%
(971-23-P-0160_OUTER GEAR PLATE_1490)
(T1  D=0.149 CR=0. - ZMIN=-0.235 - FLAT END MILL)
G90 G94 G17 G91.1
G64 P0.001 Q0.001
G20
G53 G0 Z0.
(.3 CIRCLUAR THROUGH HOLE)
M9
T1 M6
S22000 M3
G4 P10.
G54
M7
G0 X1.3867 Y-1.3856
G43 Z0.6 H1
G0 Z0.13
G1 Z0.0649 F40.
G19 G3 Y-1.3707 Z0.05 J0.0149 K0.
G1 Y-1.3632
G17 G3 X1.375 Y-1.3515 I-0.0118 J0.
Y-1.3985 Z0. I0. J-0.0235
Y-1.3515 Z-0.05 I0. J0.0235
Y-1.3985 Z-0.1 I0. J-0.0235
Y-1.3515 Z-0.15 I0. J0.0235
Y-1.3985 Z-0.2 I0. J-0.0235
X1.394 Y-1.3612 Z-0.235 I0. J0.0235
X1.356 Y-1.3888 I-0.019 J-0.0138
X1.394 Y-1.3612 I0.019 J0.0138
X1.3776 Y-1.3586 I-0.0095 J-0.0069
G1 X1.3716 Y-1.363
X1.3692 Y-1.3647 Z-0.2347
X1.367 Y-1.3663 Z-0.2339
X1.3649 Y-1.3678 Z-0.2325
X1.363 Y-1.3692 Z-0.2306
X1.3615 Y-1.3702 Z-0.2284
X1.3604 Y-1.3711 Z-0.2258
X1.3597 Y-1.3716 Z-0.223
X1.3595 Y-1.3717 Z-0.2201
G0 Z0.4
X-1.3632 Y-1.3856
Z0.13
G1 Z0.0649 F40.
G19 G3 Y-1.3707 Z0.05 J0.0149 K0.
G1 Y-1.3632
G17 G3 X-1.375 Y-1.3515 I-0.0118 J0.
Y-1.3985 Z0. I0. J-0.0235
Y-1.3515 Z-0.05 I0. J0.0235
Y-1.3985 Z-0.1 I0. J-0.0235
Y-1.3515 Z-0.15 I0. J0.0235
Y-1.3985 Z-0.2 I0. J-0.0235
X-1.356 Y-1.3612 Z-0.235 I0. J0.0235
X-1.394 Y-1.3888 I-0.019 J-0.0138
X-1.356 Y-1.3612 I0.019 J0.0138
X-1.3724 Y-1.3586 I-0.0095 J-0.0069
G1 X-1.3784 Y-1.363
X-1.3808 Y-1.3647 Z-0.2347
X-1.383 Y-1.3663 Z-0.2339
X-1.3851 Y-1.3678 Z-0.2325
X-1.387 Y-1.3692 Z-0.2306
X-1.3885 Y-1.3702 Z-0.2284
X-1.3896 Y-1.3711 Z-0.2258
X-1.3903 Y-1.3716 Z-0.223
X-1.3905 Y-1.3717 Z-0.2201
G0 Z0.4
X-4.1126 Y-1.3221
Z0.1151
G1 Z0.05 F40.
Y-1.3296
G3 X-4.1075 Y-1.3347 I0.0051 J0.
Y-1.3142 Z0. I0. J0.0102
X-4.1174 Y-1.3221 Z-0.0212 I0. J-0.0102
X-4.0975 Y-1.3269 Z-0.0713 I0.01 J-0.0024
X-4.1028 Y-1.3153 Z-0.0925 I-0.01 J0.0024
X-4.1121 Y-1.3336 Z-0.1425 I-0.0047 J-0.0091
X-4.0997 Y-1.3311 Z-0.1637 I0.0047 J0.0091
X-4.1152 Y-1.3178 Z-0.2138 I-0.0078 J0.0067
X-4.1157 Y-1.3305 Z-0.235 I0.0078 J-0.0067
X-4.0992 Y-1.3184 I0.0083 J0.006
X-4.1157 Y-1.3305 I-0.0083 J-0.006
X-4.1086 Y-1.3316 I0.0041 J0.003
G1 X-4.1026 Y-1.3272
G0 Z0.4
X-2.1092 Y3.2912
Z0.13
G1 Z0.0649 F40.
G19 G2 Y3.2763 Z0.05 J-0.0149 K0.
G1 Y3.2688
G17 G3 X-2.0975 Y3.2571 I0.0118 J0.
Y3.3041 Z0. I0. J0.0235
Y3.2571 Z-0.05 I0. J-0.0235
Y3.3041 Z-0.1 I0. J0.0235
Y3.2571 Z-0.15 I0. J-0.0235
Y3.3041 Z-0.2 I0. J0.0235
X-2.1165 Y3.2668 Z-0.235 I0. J-0.0235
X-2.0785 Y3.2944 I0.019 J0.0138
X-2.1165 Y3.2668 I-0.019 J-0.0138
X-2.1001 Y3.2642 I0.0095 J0.0069
G1 X-2.0941 Y3.2685
X-2.0917 Y3.2702 Z-0.2347
X-2.0894 Y3.2719 Z-0.2339
X-2.0874 Y3.2734 Z-0.2325
X-2.0855 Y3.2747 Z-0.2306
X-2.084 Y3.2758 Z-0.2284
X-2.0829 Y3.2766 Z-0.2258
X-2.0822 Y3.2771 Z-0.223
X-2.082 Y3.2773 Z-0.2201
G0 Z0.4
X-1.3867 Y1.3856
Z0.13
G1 Z0.0649 F40.
G19 G2 Y1.3707 Z0.05 J-0.0149 K0.
G1 Y1.3632
G17 G3 X-1.375 Y1.3515 I0.0118 J0.
Y1.3985 Z0. I0. J0.0235
Y1.3515 Z-0.05 I0. J-0.0235
Y1.3985 Z-0.1 I0. J0.0235
Y1.3515 Z-0.15 I0. J-0.0235
Y1.3985 Z-0.2 I0. J0.0235
X-1.394 Y1.3612 Z-0.235 I0. J-0.0235
X-1.356 Y1.3888 I0.019 J0.0138
X-1.394 Y1.3612 I-0.019 J-0.0138
X-1.3776 Y1.3586 I0.0095 J0.0069
G1 X-1.3716 Y1.363
X-1.3692 Y1.3647 Z-0.2347
X-1.367 Y1.3663 Z-0.2339
X-1.3649 Y1.3678 Z-0.2325
X-1.363 Y1.3692 Z-0.2306
X-1.3615 Y1.3702 Z-0.2284
X-1.3604 Y1.3711 Z-0.2258
X-1.3597 Y1.3716 Z-0.223
X-1.3595 Y1.3717 Z-0.2201
G0 Z0.4
X1.3632 Y1.3856
Z0.13
G1 Z0.0649 F40.
G19 G2 Y1.3707 Z0.05 J-0.0149 K0.
G1 Y1.3632
G17 G3 X1.375 Y1.3515 I0.0118 J0.
Y1.3985 Z0. I0. J0.0235
Y1.3515 Z-0.05 I0. J-0.0235
Y1.3985 Z-0.1 I0. J0.0235
Y1.3515 Z-0.15 I0. J-0.0235
Y1.3985 Z-0.2 I0. J0.0235
X1.356 Y1.3612 Z-0.235 I0. J-0.0235
X1.394 Y1.3888 I0.019 J0.0138
X1.356 Y1.3612 I-0.019 J-0.0138
X1.3724 Y1.3586 I0.0095 J0.0069
G1 X1.3784 Y1.363
X1.3808 Y1.3647 Z-0.2347
X1.383 Y1.3663 Z-0.2339
X1.3851 Y1.3678 Z-0.2325
X1.387 Y1.3692 Z-0.2306
X1.3885 Y1.3702 Z-0.2284
X1.3896 Y1.3711 Z-0.2258
X1.3903 Y1.3716 Z-0.223
X1.3905 Y1.3717 Z-0.2201
G0 Z0.4
X1.5925 Y4.0629
Z0.13
G1 Z0.0649 F40.
G19 G2 Y4.048 Z0.05 J-0.0149 K0.
G1 Y4.0406
G17 G3 X1.6043 Y4.0288 I0.0117 J0.
Y4.0758 Z0. I0. J0.0235
Y4.0288 Z-0.05 I0. J-0.0235
Y4.0758 Z-0.1 I0. J0.0235
Y4.0288 Z-0.15 I0. J-0.0235
Y4.0758 Z-0.2 I0. J0.0235
X1.5852 Y4.0385 Z-0.235 I0. J-0.0235
X1.6233 Y4.0661 I0.019 J0.0138
X1.5852 Y4.0385 I-0.019 J-0.0138
X1.6017 Y4.0359 I0.0095 J0.0069
G1 X1.6077 Y4.0403
X1.61 Y4.042 Z-0.2347
X1.6123 Y4.0436 Z-0.2339
X1.6144 Y4.0451 Z-0.2325
X1.6162 Y4.0465 Z-0.2306
X1.6177 Y4.0476 Z-0.2284
X1.6188 Y4.0484 Z-0.2258
X1.6195 Y4.0489 Z-0.223
X1.6197 Y4.049 Z-0.2201
G0 Z0.6
(.3 CIRCULAR THROUGH HOLE)
M7
G0 X0.055 Y3.12
Z0.6
Z0.2
G1 Z0.1144 F13.333
G3 X0.0558 Y3.1188 Z0.1081 I0.038 J0.0241 F55.
X0.0581 Y3.1157 Z0.103 I0.0372 J0.0253
X0.062 Y3.1115 Z0.1 I0.0349 J0.0284
X0.124 Y3.1767 Z0.0621 I0.031 J0.0326
X0.062 Y3.1115 Z0.0242 I-0.031 J-0.0326
X0.124 Y3.1767 Z-0.0136 I0.031 J0.0326
X0.062 Y3.1115 Z-0.0515 I-0.031 J-0.0326
X0.124 Y3.1767 Z-0.0894 I0.031 J0.0326
X0.048 Y3.1441 Z-0.1175 I-0.031 J-0.0326
X0.052 I0.002 J0. F60.
X-0.052 I-0.052 J0.
X0.152 I0.102 J0.
X-0.152 I-0.152 J0.
X0.252 I0.202 J0.
X-0.252 I-0.252 J0.
X0.352 I0.302 J0.
X-0.352 I-0.352 J0.
X0.352 I0.352 J0.
X0.3446 Y3.1515 I-0.0074 J0.
G1 X0.1407 Y3.1537
G3 X0.1342 Y3.1509 I-0.0007 J-0.0074
G1 X0.1229 Y3.137
G3 X0.1344 Y3.1276 I0.0058 J-0.0047
X0.1357 Y3.1299 I-0.0058 J0.0047
X0.0503 Y3.1583 Z-0.1554 I-0.0427 J0.0142 F55.
X0.1357 Y3.1299 Z-0.1933 I0.0427 J-0.0142
X0.0503 Y3.1583 Z-0.2311 I-0.0427 J0.0142
X0.048 Y3.1441 Z-0.235 I0.0427 J-0.0142
X0.052 I0.002 J0. F60.
X-0.052 I-0.052 J0.
X0.152 I0.102 J0.
X-0.152 I-0.152 J0.
X0.252 I0.202 J0.
X-0.252 I-0.252 J0.
X0.352 I0.302 J0.
X-0.352 I-0.352 J0.
X0.362 I0.357 J0.
X-0.362 I-0.362 J0.
X0.362 I0.362 J0.
X0.3609 Y3.1497 Z-0.2339 I-0.0149 J0.
X0.3584 Y3.1538 Z-0.2306 I-0.0138 J-0.0056
X0.3561 Y3.156 Z-0.2258 I-0.0113 J-0.0097
X0.3552 Y3.1566 Z-0.2201 I-0.009 J-0.0119
G0 Z0.4
X0.472 Y4.9475
Z0.2
G1 Z0.1144 F13.333
G3 X0.4728 Y4.9464 Z0.1081 I0.038 J0.0241 F55.
X0.4752 Y4.9432 Z0.103 I0.0372 J0.0253
X0.479 Y4.939 Z0.1 I0.0349 J0.0284
X0.541 Y5.0043 Z0.0621 I0.031 J0.0326
X0.479 Y4.939 Z0.0242 I-0.031 J-0.0326
X0.541 Y5.0043 Z-0.0136 I0.031 J0.0326
X0.479 Y4.939 Z-0.0515 I-0.031 J-0.0326
X0.541 Y5.0043 Z-0.0894 I0.031 J0.0326
X0.465 Y4.9717 Z-0.1175 I-0.031 J-0.0326
X0.473 I0.004 J0. F60.
X0.365 I-0.054 J0.
X0.573 I0.104 J0.
X0.265 I-0.154 J0.
X0.673 I0.204 J0.
X0.165 I-0.254 J0.
X0.673 I0.254 J0.
G2 X0.7144 Y5.0395 I0.0763 J0.
G3 X0.7408 Y5.1144 I-0.0265 J0.0515
X0.419 Y5.3237 I-0.3218 J-0.1428
Y4.6197 I0. J-0.352
X0.7408 Y5.1144 I0. J0.352
X0.7307 Y5.1181 I-0.0068 J-0.003
G1 X0.5497 Y5.0312
G3 X0.5452 Y5.0252 I0.0029 J-0.0069
G1 X0.5383 Y4.9607
G3 X0.5527 Y4.9575 I0.0074 J-0.0008
X0.4673 Y4.9858 Z-0.1554 I-0.0427 J0.0142 F55.
X0.5527 Y4.9575 Z-0.1933 I0.0427 J-0.0142
X0.4673 Y4.9858 Z-0.2311 I-0.0427 J0.0142
X0.465 Y4.9717 Z-0.235 I0.0427 J-0.0142
X0.473 I0.004 J0. F60.
X0.365 I-0.054 J0.
X0.573 I0.104 J0.
X0.265 I-0.154 J0.
X0.673 I0.204 J0.
X0.165 I-0.254 J0.
X0.673 I0.254 J0.
G2 X0.7144 Y5.0395 I0.0763 J0.
G3 X0.7408 Y5.1144 I-0.0265 J0.0515
X0.419 Y5.3237 I-0.3218 J-0.1428
Y4.6197 I0. J-0.352
X0.7408 Y5.1144 I0. J0.352
G2 X0.7423 Y5.1232 I0.0074 J0.0033
G3 X0.7435 Y5.1321 I-0.0057 J0.0054
X0.419 Y5.3337 I-0.3245 J-0.1604
Y4.6097 I0. J-0.362
X0.7435 Y5.1321 I0. J0.362
X0.7401 Y5.1366 Z-0.2339 I-0.0134 J-0.0066
X0.7361 Y5.1392 Z-0.2306 I-0.0099 J-0.0111
X0.733 Y5.1401 Z-0.2258 I-0.0059 J-0.0137
X0.7319 Y5.1403 Z-0.2201 I-0.0028 J-0.0146
G0 Z0.4
X-6.4357 Y-0.0241
Z0.2
G1 Z0.1144 F13.333
G3 X-6.435 Y-0.0253 Z0.1081 I0.038 J0.0241 F55.
X-6.4326 Y-0.0284 Z0.103 I0.0372 J0.0253
X-6.4287 Y-0.0326 Z0.1 I0.0349 J0.0284
X-6.3668 Y0.0326 Z0.0621 I0.031 J0.0326
X-6.4287 Y-0.0326 Z0.0242 I-0.031 J-0.0326
X-6.3668 Y0.0326 Z-0.0136 I0.031 J0.0326
X-6.4287 Y-0.0326 Z-0.0515 I-0.031 J-0.0326
X-6.3668 Y0.0326 Z-0.0894 I0.031 J0.0326
X-6.4427 Y0. Z-0.1175 I-0.031 J-0.0326
X-6.3887 I0.027 J0. F60.
X-6.5427 I-0.077 J0.
X-6.2887 I0.127 J0.
X-6.6427 I-0.177 J0.
X-6.1887 I0.227 J0.
X-6.7427 I-0.277 J0.
X-6.0887 I0.327 J0.
X-6.8427 I-0.377 J0.
X-5.9887 I0.427 J0.
X-6.9427 I-0.477 J0.
X-5.9887 I0.477 J0.
X-6.0337 Y0.045 Z-0.1339 I-0.045 J0. F55.
G1 X-6.3977 Z-0.2186
G3 X-6.4427 Y0. Z-0.235 I0. J-0.045
X-6.3887 I0.027 J0. F60.
X-6.5427 I-0.077 J0.
X-6.2887 I0.127 J0.
X-6.6427 I-0.177 J0.
X-6.1887 I0.227 J0.
X-6.7427 I-0.277 J0.
X-6.0887 I0.327 J0.
X-6.8427 I-0.377 J0.
X-5.9887 I0.427 J0.
X-6.9427 I-0.477 J0.
X-5.9787 I0.482 J0.
X-6.9527 I-0.487 J0.
X-5.9787 I0.487 J0.
X-5.9798 Y0.0056 Z-0.2339 I-0.0149 J0.
X-5.9823 Y0.0097 Z-0.2306 I-0.0138 J-0.0056
X-5.9847 Y0.0119 Z-0.2258 I-0.0113 J-0.0097
X-5.9856 Y0.0125 Z-0.2201 I-0.009 J-0.0119
G0 Z0.6
(SHAPE THROUGH HOLE)
M7
G0 X-4.1914 Y0.0544
Z0.6
Z0.1
G3 X-4.1716 Y0.1945 Z0.0608 I0.0099 J0.0701 F50.
X-4.1914 Y0.0544 Z0.0216 I-0.0099 J-0.0701
X-4.1716 Y0.1945 Z-0.0176 I0.0099 J0.0701
X-4.1914 Y0.0544 Z-0.0568 I-0.0099 J-0.0701
X-4.1716 Y0.1945 Z-0.096 I0.0099 J0.0701
X-4.1914 Y0.0544 Z-0.1352 I-0.0099 J-0.0701
X-4.1716 Y0.1945 Z-0.1744 I0.0099 J0.0701
X-4.1914 Y0.0544 Z-0.2136 I-0.0099 J-0.0701
X-4.1107 Y0.1245 Z-0.235 I0.0099 J0.0701
X-4.2523 I-0.0708 J0.
X-4.1107 I0.0708 J0.
X-4.1172 Y0.2433 I-0.0485 J0.057 F60.
G1 X-4.1815 Y0.2241
X-4.1876 Y0.2312
G3 X-4.3325 Y0.1339 I-0.0448 J-0.0899
G1 X-4.3201 Y0.127
X-4.3128 Y0.1245
X-4.3165 Y0.1026
G3 X-4.1675 Y-0.0302 I0.1291 J-0.0051
G2 X-4.087 Y0.0577 I0.1074 J-0.0176
G3 X-4.0256 Y0.272 I-0.0534 J0.1312
G1 X-4.0513 Y0.2629
X-4.1172 Y0.2433
G3 X-4.127 Y0.2321 I0.0048 J-0.0141
X-4.0897 Y0.1995 I0.028 J-0.0057
X-4.0427 Y0.244 I-0.0258 J0.0744
X-4.0383 Y0.2587 I-0.0728 J0.0299 F50.
G2 X-4.0285 Y0.2699 I0.0146 J-0.0029
G1 X-4.0119 Y0.2749 F60.
G2 X-3.9302 Y0.1056 I-0.0089 J-0.1086
X-4.087 Y0.0577 I-2.4114 J7.6096
X-4.1003 Y0.0838 I-0.0043 J0.0143
G3 X-4.1184 Y0.1075 I-0.009 J0.0119
X-4.1232 Y0.1011 I0.009 J-0.0119
G1 X-4.1597 Y0.0074
X-4.1604 Y0.0046
X-4.1607 Y0.0017
G2 X-4.1678 Y-0.0284 I-0.0623 J-0.0012 F50.
G1 X-4.1815 Y-0.0525 F60.
X-4.1876 Y-0.0582
X-4.1941 Y-0.0634
X-4.201 Y-0.0682
X-4.2082 Y-0.0725
X-4.2157 Y-0.0762
X-4.2234 Y-0.0794
X-4.2313 Y-0.082
X-4.2394 Y-0.0841
X-4.2477 Y-0.0855
X-4.256 Y-0.0864
X-4.2644 Y-0.0867
X-4.2727 Y-0.0863
X-4.281 Y-0.0854
X-4.2893 Y-0.0838
X-4.2973 Y-0.0817
X-4.3053 Y-0.079
X-4.313 Y-0.0758
X-4.3204 Y-0.072
X-4.3276 Y-0.0676
X-4.3344 Y-0.0628
X-4.3409 Y-0.0575
X-4.3469 Y-0.0517
X-4.3526 Y-0.0456
X-4.3577 Y-0.039
X-4.3624 Y-0.0321
X-4.3666 Y-0.0248
X-4.3702 Y-0.0173
X-4.3733 Y-0.0095
G3 X-4.3165 Y0.1026 I-0.1336 J0.1383
G2 X-4.2871 Y0.103 I0.0147 J-0.0024
G3 X-4.2579 Y0.1086 I0.0146 J0.0028
X-4.27 Y0.1205 I-0.0146 J-0.0028
G1 X-4.2993 Y0.1255
X-4.3014 Y0.1257
G2 X-4.3312 Y0.134 I0.0014 J0.0623 F50.
G1 X-4.3495 Y0.1455 F60.
G2 X-4.2751 Y0.3213 I0.0863 J0.0671
X-4.1876 Y0.2312 I-0.2376 J-0.3182
X-4.2009 Y0.2071 I-0.0116 J-0.0093
X-4.2425 Y0.2319 I0.0063 J0.058
X-4.2676 Y0.292 I0.1296 J0.0894
X-4.27 Y0.3111 I0.1547 J0.0293 F50.
G3 X-4.2751 Y0.3213 I-0.0149 J-0.001
G1 X-4.2972 Y0.3393 F60.
X-4.3049 Y0.3424
X-4.3128 Y0.3449
X-4.3209 Y0.3468
X-4.3291 Y0.3482
X-4.3373 Y0.3489
X-4.3456 Y0.3491
X-4.3539 Y0.3486
X-4.3621 Y0.3476
X-4.3703 Y0.346
X-4.3783 Y0.3438
X-4.3861 Y0.341
X-4.3937 Y0.3377
X-4.401 Y0.3339
X-4.4081 Y0.3295
X-4.4148 Y0.3246
X-4.4212 Y0.3193
X-4.4271 Y0.3135
X-4.4327 Y0.3073
X-4.4377 Y0.3008
X-4.4423 Y0.2939
X-4.4464 Y0.2866
X-4.45 Y0.2791
X-4.453 Y0.2714
X-4.4554 Y0.2635
X-4.4573 Y0.2554
X-4.4586 Y0.2472
X-4.4593 Y0.2389
X-4.4594 Y0.2306
G3 X-4.3495 Y0.1455 I0.6868 J0.7722
X-4.3292 Y0.1509 I0.0075 J0.0129
Y0.1698 I-0.0164 J0.0095
X-4.4285 Y0.2288 I-0.1023 J-0.0591
X-4.4476 Y0.2278 I-0.003 J-0.1181 F50.
G2 X-4.4587 Y0.2307 I-0.002 J0.0148
G1 X-4.4808 Y0.2478 F60.
X-4.4852 Y0.2551
X-4.489 Y0.2626
X-4.4922 Y0.2705
X-4.4949 Y0.2785
X-4.4969 Y0.2867
X-4.4984 Y0.295
X-4.4992 Y0.3035
X-4.4995 Y0.3119
X-4.4991 Y0.3204
X-4.4981 Y0.3288
X-4.4965 Y0.3371
X-4.4943 Y0.3453
X-4.4915 Y0.3533
X-4.4882 Y0.361
X-4.4843 Y0.3685
X-4.4798 Y0.3757
X-4.4748 Y0.3826
X-4.4694 Y0.3891
X-4.4635 Y0.3951
X-4.4572 Y0.4007
X-4.4505 Y0.4059
X-4.4434 Y0.4105
X-4.436 Y0.4146
X-4.4283 Y0.4182
X-4.4204 Y0.4212
X-4.4123 Y0.4236
X-4.404 Y0.4254
G2 X-4.2972 Y0.3393 I-3.7168 J-4.7235
X-4.306 Y0.3133 I-0.0098 J-0.0112
X-4.3455 Y0.3236 I-0.0042 J0.0645
X-4.3961 Y0.3958 I0.0644 J0.099
X-4.3989 Y0.4148 I0.115 J0.0268 F50.
G3 X-4.4039 Y0.425 I-0.0149 J-0.001
G1 X-4.4125 Y0.432 F60.
X-4.4235 Y0.4405
X-4.4312 Y0.4435
X-4.4392 Y0.446
X-4.4473 Y0.4478
X-4.4555 Y0.449
X-4.4638 Y0.4497
X-4.4721 Y0.4498
X-4.4804 Y0.4492
X-4.4887 Y0.4481
X-4.4968 Y0.4464
X-4.5048 Y0.4441
X-4.5126 Y0.4412
X-4.5202 Y0.4378
X-4.5275 Y0.4339
X-4.5345 Y0.4294
X-4.5412 Y0.4244
X-4.5475 Y0.419
X-4.5534 Y0.4131
X-4.5589 Y0.4068
X-4.5639 Y0.4002
X-4.5684 Y0.3932
X-4.5724 Y0.3859
X-4.5758 Y0.3783
X-4.5787 Y0.3705
X-4.5811 Y0.3626
X-4.5828 Y0.3544
X-4.584 Y0.3462
X-4.5846 Y0.3379
X-4.5845 Y0.3296
G2 X-4.4808 Y0.2478 I-2.0237 J-2.6729
G3 X-4.466 Y0.2463 I0.0087 J0.0121
X-4.4584 Y0.2585 I-0.0053 J0.0118
X-4.555 Y0.333 I-0.0787 J-0.0022
X-4.5695 Y0.3281 I0.0179 J-0.0767 F50.
G2 X-4.5843 Y0.3296 I-0.0061 J0.0136
G1 X-4.5973 Y0.3396 F60.
X-4.6031 Y0.3439
X-4.6077 Y0.3507
X-4.6119 Y0.3578
X-4.6155 Y0.3651
X-4.6186 Y0.3727
X-4.6211 Y0.3805
X-4.6231 Y0.3885
X-4.6245 Y0.3966
X-4.6253 Y0.4047
X-4.6256 Y0.4129
X-4.6252 Y0.4211
X-4.6243 Y0.4293
X-4.6228 Y0.4373
X-4.6207 Y0.4453
X-4.6181 Y0.4531
X-4.6149 Y0.4606
X-4.6112 Y0.4679
X-4.607 Y0.475
X-4.6022 Y0.4817
X-4.5971 Y0.488
X-4.5914 Y0.494
X-4.5854 Y0.4995
X-4.579 Y0.5047
X-4.5722 Y0.5093
X-4.5651 Y0.5134
X-4.5578 Y0.5171
X-4.5502 Y0.5202
X-4.5424 Y0.5227
X-4.5344 Y0.5247
G2 X-4.4235 Y0.4405 I-1.5798 J-2.1985
X-4.4184 Y0.4266 I-0.0096 J-0.0114
X-4.4833 Y0.4012 I-0.0402 J0.0071
X-4.5297 Y0.4952 I0.0718 J0.0938
X-4.5286 Y0.5105 I0.1181 J-0.0002 F50.
G3 X-4.5343 Y0.5243 I-0.0148 J0.002
G1 X-4.5511 Y0.5362 F60.
X-4.5564 Y0.5399
X-4.5646 Y0.5424
X-4.5729 Y0.5444
X-4.5814 Y0.5457
X-4.5899 Y0.5463
X-4.5985 Y0.5464
X-4.607 Y0.5458
X-4.6155 Y0.5447
X-4.6239 Y0.5428
X-4.6321 Y0.5404
X-4.6401 Y0.5374
X-4.6479 Y0.5338
X-4.6554 Y0.5297
X-4.6626 Y0.525
X-4.6694 Y0.5198
X-4.6758 Y0.5142
X-4.6818 Y0.508
X-4.6873 Y0.5015
X-4.6924 Y0.4945
X-4.6969 Y0.4873
X-4.7008 Y0.4797
X-4.7042 Y0.4718
X-4.7071 Y0.4637
X-4.7093 Y0.4554
X-4.7109 Y0.447
X-4.7119 Y0.4385
X-4.7122 Y0.43
X-4.712 Y0.4214
G2 X-4.6031 Y0.3439 I-1.6658 J-2.457
G3 X-4.5823 Y0.3477 I0.0085 J0.0123
X-4.5826 Y0.3722 I-0.0175 J0.0121
X-4.681 Y0.4211 I-0.0957 J-0.0692
X-4.7001 Y0.4191 I0.0027 J-0.1181 F50.
G2 X-4.7028 Y0.4188 I-0.0027 J0.0146
G1 X-4.7058 Y0.4191
X-4.7086 Y0.42
X-4.7112 Y0.4214
X-4.7306 Y0.4357 F60.
X-4.7355 Y0.4424
X-4.7399 Y0.4493
X-4.7438 Y0.4566
X-4.7471 Y0.4642
X-4.7499 Y0.4719
X-4.7522 Y0.4799
X-4.7538 Y0.488
X-4.7549 Y0.4961
X-4.7554 Y0.5044
X-4.7553 Y0.5126
X-4.7546 Y0.5209
X-4.7533 Y0.529
X-4.7515 Y0.5371
X-4.749 Y0.545
X-4.746 Y0.5526
X-4.7425 Y0.5601
X-4.7384 Y0.5673
X-4.7339 Y0.5742
X-4.7288 Y0.5807
X-4.7233 Y0.5868
X-4.7174 Y0.5926
X-4.7111 Y0.5979
X-4.7044 Y0.6027
X-4.6974 Y0.6071
X-4.6901 Y0.6109
X-4.6825 Y0.6142
X-4.6747 Y0.6169
X-4.6667 Y0.6191
G2 X-4.5564 Y0.5399 I-9.1701 J-12.8925
X-4.5538 Y0.519 I-0.0092 J-0.0117
X-4.5765 Y0.5116 I-0.0168 J0.0131
X-4.6568 Y0.5904 I0.0325 J0.1135
X-4.661 Y0.6091 I0.1129 J0.0348 F50.
G3 X-4.6667 Y0.619 I-0.0148 J-0.002
G1 X-4.6855 Y0.6322 F60.
G3 X-4.8416 Y0.516 I-0.0376 J-0.1124
X-4.8226 Y0.5143 I0.0105 J0.0105
G1 X-4.8141 Y0.52
X-4.6883 Y0.6065
X-4.6861 Y0.6081 F50.
G3 X-4.6855 Y0.6322 I-0.0084 J0.0123
G1 X-4.6897 Y0.6348 F60.
X-4.7359 Y0.6623
X-4.7774 Y0.6744
G3 X-4.7817 Y0.481 I0.0003 J-0.0968
G1 X-4.7471 Y0.4476
X-4.7359 Y0.4396
X-4.7306 Y0.4357
G3 X-4.7073 Y0.4466 I0.0084 J0.0123
G1 X-4.7071 Y0.4495 Z-0.2347
X-4.7068 Y0.4523 Z-0.2339
X-4.7065 Y0.4548 Z-0.2325
X-4.7063 Y0.4571 Z-0.2306
X-4.7062 Y0.4589 Z-0.2284
X-4.706 Y0.4603 Z-0.2258
X-4.7059 Y0.4611 Z-0.223
Y0.4614 Z-0.2201
G0 Z0.4
X-4.3369 Y0.0183
Z-0.2052
G1 Z-0.2201 F50.
X-4.3372 Y0.0181 Z-0.223
X-4.3379 Y0.0177 Z-0.2258
X-4.3391 Y0.0171 Z-0.2284
X-4.3408 Y0.0162 Z-0.2306
X-4.3428 Y0.0152 Z-0.2325
X-4.3451 Y0.014 Z-0.2339
X-4.3475 Y0.0127 Z-0.2347
X-4.3501 Y0.0113 Z-0.235
G3 X-4.373 Y-0.0094 I0.029 J-0.0551
G1 X-4.3759 Y-0.014 F60.
X-4.3855 Y-0.0294
X-4.3873 Y-0.0375
X-4.3885 Y-0.0456
X-4.3891 Y-0.0538
X-4.3892 Y-0.062
X-4.3886 Y-0.0703
X-4.3875 Y-0.0784
X-4.3858 Y-0.0865
X-4.3835 Y-0.0944
X-4.3807 Y-0.1021
X-4.3773 Y-0.1096
X-4.3734 Y-0.1169
X-4.369 Y-0.1238
X-4.3641 Y-0.1304
X-4.3587 Y-0.1367
X-4.3529 Y-0.1425
X-4.3468 Y-0.148
X-4.3402 Y-0.1529
X-4.3333 Y-0.1574
X-4.3261 Y-0.1614
X-4.3186 Y-0.1649
X-4.3109 Y-0.1678
X-4.303 Y-0.1702
X-4.295 Y-0.172
X-4.2869 Y-0.1732
X-4.2787 Y-0.1738
X-4.2704 Y-0.1739
X-4.2622 Y-0.1734
X-4.2541 Y-0.1722
G3 X-4.1815 Y-0.0525 I-17.4337 J10.6472
X-4.1821 Y-0.0376 I-0.0132 J0.0069
X-4.2563 Y-0.0399 I-0.0364 J-0.023
X-4.2613 Y-0.1432 I0.1036 J-0.0567
X-4.2543 Y-0.1568 I0.1086 J0.0465 F50.
G2 X-4.2541 Y-0.1717 I-0.0128 J-0.0076
G1 X-4.267 Y-0.1929 F60.
X-4.2733 Y-0.1983
X-4.28 Y-0.2033
X-4.287 Y-0.2078
X-4.2943 Y-0.2118
X-4.3018 Y-0.2152
X-4.3096 Y-0.2181
X-4.3176 Y-0.2204
X-4.3257 Y-0.2222
X-4.334 Y-0.2233
X-4.3423 Y-0.2239
X-4.3506
X-4.3589 Y-0.2233
X-4.3671 Y-0.2221
X-4.3752 Y-0.2203
X-4.3832 Y-0.2179
X-4.3909 Y-0.215
X-4.3985 Y-0.2115
X-4.4058 Y-0.2075
X-4.4127 Y-0.203
X-4.4194 Y-0.198
X-4.4256 Y-0.1925
X-4.4315 Y-0.1866
X-4.4369 Y-0.1803
X-4.4419 Y-0.1737
X-4.4463 Y-0.1667
X-4.4503 Y-0.1594
X-4.4537 Y-0.1518
X-4.4566 Y-0.144
G3 X-4.3855 Y-0.0294 I-10.2659 J6.4484
G2 X-4.3585 Y-0.035 I0.0123 J-0.0084
X-4.3658 Y-0.0796 I-0.0643 J-0.0124
X-4.4279 Y-0.1324 I-0.1028 J0.0581
X-4.4464 Y-0.1375 I-0.0408 J0.1109 F50.
G3 X-4.4559 Y-0.1438 I0.0028 J-0.0146
G1 X-4.4587 Y-0.1481 F60.
X-4.4615 Y-0.1525
X-4.4692 Y-0.1641
X-4.4712 Y-0.1724
X-4.4726 Y-0.1808
X-4.4734 Y-0.1892
X-4.4735 Y-0.1977
X-4.4731 Y-0.2062
X-4.472 Y-0.2146
X-4.4703 Y-0.223
X-4.4679 Y-0.2311
X-4.465 Y-0.2391
X-4.4615 Y-0.2469
X-4.4575 Y-0.2543
X-4.4529 Y-0.2615
X-4.4478 Y-0.2683
X-4.4422 Y-0.2747
X-4.4362 Y-0.2807
X-4.4297 Y-0.2862
X-4.4229 Y-0.2912
X-4.4157 Y-0.2957
X-4.4082 Y-0.2997
X-4.4004 Y-0.3031
X-4.3924 Y-0.3059
X-4.3842 Y-0.3081
X-4.3758 Y-0.3098
X-4.3674 Y-0.3108
X-4.3589 Y-0.3111
X-4.3504 Y-0.3109
X-4.3419 Y-0.31
G3 X-4.267 Y-0.1929 I-2.9696 J1.9822
X-4.2672 Y-0.178 I-0.013 J0.0073
X-4.3358 Y-0.1768 I-0.0347 J-0.0205
X-4.3474 Y-0.2806 I0.0994 J-0.0637
X-4.3413 Y-0.2947 I0.1111 J0.0401 F50.
G2 X-4.342 Y-0.3095 I-0.0132 J-0.0068
G1 X-4.357 Y-0.3312 F60.
X-4.3635 Y-0.3363
X-4.3704 Y-0.341
X-4.3776 Y-0.3451
X-4.3851 Y-0.3487
X-4.3928 Y-0.3517
X-4.4007 Y-0.3542
X-4.4088 Y-0.3562
X-4.417 Y-0.3575
X-4.4252 Y-0.3583
X-4.4335 Y-0.3585
X-4.4418 Y-0.358
X-4.45 Y-0.357
X-4.4582 Y-0.3554
X-4.4662 Y-0.3533
X-4.474 Y-0.3506
X-4.4816 Y-0.3473
X-4.489 Y-0.3435
X-4.4961 Y-0.3391
X-4.5028 Y-0.3343
X-4.5092 Y-0.329
X-4.5152 Y-0.3233
X-4.5208 Y-0.3172
X-4.5259 Y-0.3106
X-4.5306 Y-0.3038
X-4.5347 Y-0.2966
X-4.5383 Y-0.2891
X-4.5414 Y-0.2814
X-4.5439 Y-0.2735
G3 X-4.4692 Y-0.1641 I-2.9329 J2.0842
G2 X-4.4556 Y-0.1579 I0.0121 J-0.0087
X-4.4454 Y-0.1663 I-0.0011 J-0.0118
G1 X-4.445 Y-0.1676
G2 X-4.5146 Y-0.2679 I-0.0757 J-0.0218
X-4.5299 Y-0.2676 I-0.0061 J0.0785 F50.
G3 X-4.5436 Y-0.2734 I-0.0017 J-0.0148
G1 X-4.5511 Y-0.2842 F60.
X-4.5559 Y-0.291
G3 X-4.4391 Y-0.4438 I0.1057 J-0.0402
X-4.357 Y-0.3312 I-1.2238 J0.9789
X-4.3563 Y-0.3164 I-0.0125 J0.008
X-4.4076 Y-0.3084 I-0.0286 J-0.0148
X-4.44 Y-0.4146 I0.0835 J-0.0835
X-4.4361 Y-0.4294 I0.1159 J0.0227 F50.
G2 X-4.4391 Y-0.444 I-0.0141 J-0.0047
G1 X-4.4587 Y-0.4648 F60.
X-4.4657 Y-0.4708
X-4.4735 Y-0.4745
X-4.4815 Y-0.4776
X-4.4897 Y-0.4802
X-4.4981 Y-0.4823
X-4.5066 Y-0.4837
X-4.5151 Y-0.4846
X-4.5237 Y-0.4848
X-4.5323 Y-0.4845
X-4.5409 Y-0.4835
X-4.5493 Y-0.482
X-4.5577 Y-0.4799
X-4.5659 Y-0.4772
X-4.5738 Y-0.4739
X-4.5815 Y-0.4701
X-4.589 Y-0.4658
X-4.5961 Y-0.461
X-4.6029 Y-0.4556
X-4.6092 Y-0.4499
X-4.6152 Y-0.4437
X-4.6207 Y-0.4371
X-4.6258 Y-0.4301
X-4.6303 Y-0.4228
X-4.6344 Y-0.4152
X-4.6379 Y-0.4073
X-4.6408 Y-0.3993
X-4.6432 Y-0.391
X-4.645 Y-0.3826
X-4.6462 Y-0.3741
G3 X-4.5559 Y-0.291 I-0.145 J0.2482
G2 X-4.5417 Y-0.2867 I0.0109 J-0.0102
X-4.5199 Y-0.3238 I-0.0067 J-0.0289
X-4.6153 Y-0.3781 I-0.0756 J0.022
X-4.6297 Y-0.3728 I0.0198 J0.0762 F50.
G3 X-4.6446 Y-0.3739 I-0.0065 J-0.0134
G1 X-4.6623 Y-0.3869 F60.
X-4.6666 Y-0.3941
X-4.6704 Y-0.4016
X-4.6735 Y-0.4093
X-4.6761 Y-0.4173
X-4.6781 Y-0.4254
X-4.6795 Y-0.4337
X-4.6803 Y-0.442
X-4.6805 Y-0.4504
X-4.6801 Y-0.4587
X-4.679 Y-0.4671
X-4.6774 Y-0.4753
X-4.6751 Y-0.4833
X-4.6723 Y-0.4912
X-4.6688 Y-0.4988
X-4.6649 Y-0.5062
X-4.6604 Y-0.5133
X-4.6554 Y-0.52
X-4.6499 Y-0.5263
X-4.6439 Y-0.5322
X-4.6376 Y-0.5377
X-4.6308 Y-0.5426
X-4.6237 Y-0.5471
X-4.6163 Y-0.551
X-4.6087 Y-0.5544
X-4.6008 Y-0.5572
X-4.5927 Y-0.5594
X-4.5845 Y-0.561
G3 X-4.4657 Y-0.4708 I-0.7986 J1.1737
X-4.4612 Y-0.4566 I-0.01 J0.011
X-4.5242 Y-0.4298 I-0.0409 J-0.0088
X-4.5801 Y-0.5317 I0.0622 J-0.1004
X-4.5789 Y-0.547 I0.1181 J0.0015 F50.
G2 X-4.5845 Y-0.5608 I-0.0147 J-0.0021
G1 X-4.5942 Y-0.568 F60.
X-4.5973 Y-0.5703
X-4.6057 Y-0.5766
X-4.6136 Y-0.5795
X-4.6217 Y-0.5818
X-4.63 Y-0.5835
X-4.6383 Y-0.5846
X-4.6467 Y-0.5851
X-4.6551 Y-0.585
X-4.6635 Y-0.5843
X-4.6718 Y-0.583
X-4.68 Y-0.5811
X-4.688 Y-0.5786
X-4.6959 Y-0.5756
X-4.7035 Y-0.572
X-4.7108 Y-0.5678
X-4.7178 Y-0.5632
X-4.7244 Y-0.5581
X-4.7307 Y-0.5525
X-4.7366 Y-0.5464
X-4.742 Y-0.54
X-4.7469 Y-0.5332
X-4.7513 Y-0.5261
X-4.7553 Y-0.5186
X-4.7586 Y-0.5109
X-4.7614 Y-0.503
X-4.7637 Y-0.4949
X-4.7653 Y-0.4867
X-4.7664 Y-0.4783
X-4.7668 Y-0.4699
X-4.7667 Y-0.4615
G3 X-4.6623 Y-0.3869 I-1.3359 J1.9778
G2 X-4.6475 Y-0.3858 I0.0084 J-0.0123
X-4.6379 Y-0.4046 I-0.0076 J-0.0157
X-4.7371 Y-0.4664 I-0.0775 J0.0139
X-4.7513 Y-0.4608 I0.0217 J0.0757 F50.
G3 X-4.7662 Y-0.4615 I-0.0068 J-0.0133
G1 X-4.7865 Y-0.4757 F60.
G3 X-4.7277 Y-0.6544 I0.0962 J-0.0674
X-4.7208 Y-0.6374 I-0.0074 J0.013
G1 X-4.7238 Y-0.6267
X-4.7633 Y-0.4871
X-4.7641 Y-0.4841 F50.
G3 X-4.7784 Y-0.4733 I-0.0143 J-0.0041
G1 X-4.7813 Y-0.4736
X-4.784 Y-0.4744
X-4.7865 Y-0.4757
X-4.7936 Y-0.4788 F60.
X-4.8004 Y-0.4826
X-4.8068 Y-0.4869
X-4.813 Y-0.4917
X-4.8187 Y-0.4969
X-4.8239 Y-0.5026
X-4.8287 Y-0.5087
X-4.833 Y-0.5152
X-4.8368 Y-0.522
X-4.84 Y-0.529
X-4.8427 Y-0.5363
X-4.8447 Y-0.5438
X-4.8461 Y-0.5515
X-4.847 Y-0.5592
X-4.8472 Y-0.5669
X-4.8467 Y-0.5747
X-4.8457 Y-0.5824
X-4.8441 Y-0.59
X-4.8418 Y-0.5974
X-4.839 Y-0.6046
X-4.8356 Y-0.6116
X-4.8316 Y-0.6183
X-4.8271 Y-0.6246
X-4.8222 Y-0.6306
X-4.8167 Y-0.6361
X-4.8109 Y-0.6412
X-4.8046 Y-0.6459
X-4.798 Y-0.6499
X-4.7911 Y-0.6535
X-4.784 Y-0.6565
X-4.7766 Y-0.6589
X-4.7691 Y-0.6607
X-4.7614 Y-0.6619
X-4.7537 Y-0.6625
X-4.7459
X-4.7382 Y-0.6618
X-4.7305 Y-0.6606
X-4.723 Y-0.6587
X-4.7156 Y-0.6562
X-4.7085 Y-0.6532
X-4.7016 Y-0.6495
X-4.6951 Y-0.6454
X-4.6889 Y-0.6407
X-4.683 Y-0.6356
X-4.6777 Y-0.63
X-4.6727 Y-0.624
X-4.6683 Y-0.6176
X-4.6644 Y-0.6109
X-4.6435 Y-0.6048
X-4.6057 Y-0.5766
G3 X-4.6094 Y-0.5512 I-0.0093 J0.0116
G1 X-4.6121 Y-0.5501 Z-0.2347
X-4.6147 Y-0.5491 Z-0.2339
X-4.617 Y-0.5481 Z-0.2325
X-4.6191 Y-0.5472 Z-0.2306
X-4.6208 Y-0.5465 Z-0.2284
X-4.6221 Y-0.546 Z-0.2258
X-4.6229 Y-0.5457 Z-0.223
X-4.6232 Y-0.5456 Z-0.2201
G0 Z0.4
X-3.9749 Y0.1086
Z-0.2052
G1 Z-0.2201 F50.
X-3.9747 Z-0.223
X-3.9738 Y0.1084 Z-0.2258
X-3.9725 Y0.108 Z-0.2284
X-3.9707 Y0.1076 Z-0.2306
X-3.9685 Y0.107 Z-0.2325
X-3.966 Y0.1064 Z-0.2339
X-3.9633 Y0.1057 Z-0.2347
X-3.9605 Y0.105 Z-0.235
G3 X-3.9296 Y0.1052 I0.0152 J0.0604
G1 X-3.8984 Y0.1145 F60.
X-3.8912 Y0.1193
X-3.8844 Y0.1246
X-3.8779 Y0.1303
X-3.8719 Y0.1365
X-3.8664 Y0.1432
X-3.8613 Y0.1502
X-3.8568 Y0.1576
X-3.8528 Y0.1652
X-3.8494 Y0.1732
X-3.8466 Y0.1813
X-3.8444 Y0.1897
X-3.8428 Y0.1982
X-3.8418 Y0.2068
X-3.8414 Y0.2154
X-3.8417 Y0.224
X-3.8426 Y0.2326
X-3.8441 Y0.2412
X-3.8462 Y0.2495
X-3.849 Y0.2577
X-3.8523 Y0.2657
X-3.8562 Y0.2734
X-3.8606 Y0.2808
X-3.8656 Y0.2879
X-3.871 Y0.2946
X-3.877 Y0.3009
X-3.8833 Y0.3067
X-3.8901 Y0.3121
G2 X-4.0119 Y0.2749 I-1.9327 J6.111
G3 X-4.0216 Y0.2637 I0.0048 J-0.0141
X-4.0125 Y0.2452 I0.0166 J-0.0033
X-3.9049 Y0.2856 I0.0349 J0.0706
X-3.9005 Y0.3002 I-0.0727 J0.0302 F50.
G2 X-3.8906 Y0.3114 I0.0146 J-0.0029
G1 X-3.8651 Y0.319 F60.
G2 X-3.7658 Y0.1543 I-0.0085 J-0.1174
G1 X-3.8581 Y0.1267
X-3.8984 Y0.1145
G2 X-3.9151 Y0.1364 I-0.0038 J0.0144
X-3.8929 Y0.1579 I0.0493 J-0.0286
X-3.7944 Y0.1642 I0.056 J-0.104
X-3.7771 Y0.1559 I-0.0424 J-0.1102 F50.
G3 X-3.7658 Y0.1543 I0.0075 J0.0129
G1 X-3.7426 Y0.1614 F60.
G3 X-3.7396 Y0.3568 I-0.0637 J0.0987
G1 X-3.7657 Y0.3492
X-3.8119 Y0.335
X-3.8651 Y0.319
G3 X-3.8749 Y0.3079 I0.0048 J-0.0141
X-3.8699 Y0.2959 I0.0113 J-0.0023
G1 X-3.8686 Y0.2951
G3 X-3.754 Y0.3311 I0.042 J0.0666
X-3.7495 Y0.3457 I-0.0726 J0.0306 F50.
G2 X-3.7396 Y0.3568 I0.0146 J-0.003
G1 X-3.7195 Y0.3627 F60.
X-3.7125 Y0.3648
G2 X-3.6107 Y0.2008 I-0.008 J-0.1185
G1 X-3.6733 Y0.1822
X-3.7125 Y0.1706
X-3.7426 Y0.1614
G2 X-3.7594 Y0.1833 I-0.0039 J0.0144
X-3.7365 Y0.2052 I0.0492 J-0.0284
X-3.6393 Y0.2107 I0.0547 J-0.1047
X-3.622 Y0.2024 I-0.0425 J-0.1102 F50.
G3 X-3.6107 Y0.2008 I0.0075 J0.0129
G1 X-3.5873 Y0.2078 F60.
X-3.5804 Y0.2125
X-3.5739 Y0.2176
X-3.5678 Y0.2232
X-3.5621 Y0.2292
X-3.5568 Y0.2356
X-3.552 Y0.2424
X-3.5477 Y0.2495
X-3.5439 Y0.2568
X-3.5406 Y0.2645
X-3.538 Y0.2723
X-3.5358 Y0.2803
X-3.5343 Y0.2885
X-3.5333 Y0.2967
X-3.533 Y0.305
X-3.5332 Y0.3133
X-3.534 Y0.3216
X-3.5354 Y0.3297
X-3.5374 Y0.3378
X-3.54 Y0.3457
X-3.5431 Y0.3534
X-3.5467 Y0.3608
X-3.5509 Y0.368
X-3.5556 Y0.3748
X-3.5608 Y0.3813
X-3.5664 Y0.3874
X-3.5724 Y0.3931
X-3.5788 Y0.3983
X-3.5856 Y0.4031
X-3.7037 Y0.3675
X-3.7125 Y0.3648
G3 X-3.7223 Y0.3536 I0.0048 J-0.0141
X-3.7175 Y0.3418 I0.0113 J-0.0023
G1 X-3.716 Y0.3408
G3 X-3.6002 Y0.3767 I0.043 J0.0659
X-3.5958 Y0.3914 I-0.0728 J0.03 F50.
G2 X-3.586 Y0.4026 I0.0146 J-0.0029
G1 X-3.559 Y0.4108 F60.
G2 X-3.4565 Y0.2471 I-0.0075 J-0.1186
G1 X-3.4885 Y0.2376
X-3.5347 Y0.2235
X-3.5873 Y0.2078
G2 X-3.6055 Y0.2185 I-0.0038 J0.0144
X-3.5969 Y0.2423 I0.0217 J0.0057
X-3.4851 Y0.257 I0.0694 J-0.0956
X-3.4678 Y0.2487 I-0.0424 J-0.1102 F50.
G3 X-3.4565 Y0.2471 I0.0075 J0.0129
G1 X-3.4423 Y0.2514 F60.
X-3.4318 Y0.2545
X-3.4248 Y0.2595
X-3.4182 Y0.2649
X-3.412 Y0.2709
X-3.4063 Y0.2772
X-3.4011 Y0.284
X-3.3964 Y0.2911
X-3.3922 Y0.2986
X-3.3885 Y0.3063
X-3.3855 Y0.3143
X-3.383 Y0.3225
X-3.3812 Y0.3308
X-3.3799 Y0.3393
X-3.3793 Y0.3478
Y0.3564
X-3.3799 Y0.3649
X-3.3812 Y0.3733
X-3.3831 Y0.3817
X-3.3856 Y0.3899
X-3.3886 Y0.3978
X-3.3923 Y0.4056
X-3.3965 Y0.413
X-3.4013 Y0.4201
X-3.4065 Y0.4269
X-3.4122 Y0.4332
X-3.4184 Y0.4391
X-3.425 Y0.4446
X-3.432 Y0.4495
G2 X-3.559 Y0.4108 I-2.141 J6.7916
G3 X-3.5688 Y0.3995 I0.0048 J-0.0141
X-3.5643 Y0.3886 I0.0106 J-0.0021
G1 X-3.562 Y0.387
G3 X-3.4467 Y0.4231 I0.0425 J0.0663
X-3.4422 Y0.4377 I-0.0727 J0.0302 F50.
G2 X-3.4324 Y0.4489 I0.0146 J-0.0029
G1 X-3.4082 Y0.4561 F60.
X-3.3996 Y0.4558
X-3.3911 Y0.4549
X-3.3827 Y0.4533
X-3.3745 Y0.4512
X-3.3664 Y0.4484
X-3.3585 Y0.445
X-3.3509 Y0.4411
X-3.3437 Y0.4366
X-3.3367 Y0.4316
X-3.3302 Y0.4261
X-3.3241 Y0.4202
X-3.3184 Y0.4138
X-3.3132 Y0.407
X-3.3085 Y0.3999
X-3.3044 Y0.3924
X-3.3008 Y0.3846
X-3.2978 Y0.3766
X-3.2954 Y0.3684
X-3.2936 Y0.3601
X-3.2924 Y0.3516
X-3.2919 Y0.3431
Y0.3346
X-3.2926 Y0.326
X-3.2939 Y0.3176
X-3.2959 Y0.3093
X-3.2984 Y0.3011
X-3.3015 Y0.2932
X-3.3961 Y0.2653
X-3.4318 Y0.2545
G2 X-3.45 Y0.2651 I-0.0038 J0.0144
X-3.4418 Y0.2881 I0.0208 J0.0055
X-3.3308 Y0.3031 I0.0695 J-0.0955
X-3.3135 Y0.2949 I-0.0415 J-0.1106 F50.
G3 X-3.3021 Y0.2934 I0.0074 J0.0129
G1 X-3.2793 Y0.3005 F60.
X-3.2724 Y0.3051
X-3.2659 Y0.3103
X-3.2598 Y0.3159
X-3.2541 Y0.3219
X-3.2489 Y0.3283
X-3.2441 Y0.3351
X-3.2398 Y0.3422
X-3.2361 Y0.3496
X-3.2329 Y0.3572
X-3.2302 Y0.3651
X-3.2281 Y0.3731
X-3.2266 Y0.3812
X-3.2257 Y0.3895
X-3.2254 Y0.3977
X-3.2257 Y0.406
X-3.2266 Y0.4143
X-3.228 Y0.4224
X-3.2301 Y0.4304
X-3.2327 Y0.4383
X-3.2359 Y0.446
X-3.2396 Y0.4534
X-3.2438 Y0.4605
X-3.2486 Y0.4673
X-3.2538 Y0.4737
X-3.2595 Y0.4797
X-3.2655 Y0.4854
X-3.272 Y0.4905
X-3.2789 Y0.4952
X-3.3037 Y0.4879
X-3.3499 Y0.4736
X-3.4082 Y0.4561
G3 X-3.4175 Y0.4373 I0.0048 J-0.0141
X-3.3981 Y0.4227 I0.0203 J0.0069
X-3.2975 Y0.4712 I0.005 J0.118
X-3.2876 Y0.4876 I-0.0955 J0.0694 F50.
G2 X-3.2789 Y0.4951 I0.0133 J-0.0067
G1 X-3.2536 Y0.5025 F60.
X-3.2451 Y0.5021
X-3.2367 Y0.5011
X-3.2283 Y0.4995
X-3.2201 Y0.4973
X-3.2121 Y0.4945
X-3.2043 Y0.491
X-3.1967 Y0.4871
X-3.1895 Y0.4826
X-3.1827 Y0.4775
X-3.1762 Y0.472
X-3.1701 Y0.4661
X-3.1645 Y0.4597
X-3.1594 Y0.4529
X-3.1548 Y0.4457
X-3.1507 Y0.4382
X-3.1471 Y0.4305
X-3.1442 Y0.4225
X-3.1419 Y0.4143
X-3.1401 Y0.406
X-3.139 Y0.3975
X-3.1385 Y0.389
X-3.1386 Y0.3805
X-3.1393 Y0.3721
X-3.1407 Y0.3637
X-3.1426 Y0.3554
X-3.1452 Y0.3473
X-3.1484 Y0.3394
X-3.2113 Y0.3208
X-3.2511 Y0.3091
X-3.2793 Y0.3005
G2 X-3.2975 Y0.311 I-0.0039 J0.0144
X-3.2891 Y0.3348 I0.0215 J0.0058
X-3.1772 Y0.3494 I0.0694 J-0.0956
X-3.1599 Y0.3411 I-0.0425 J-0.1102 F50.
G3 X-3.1487 Y0.3395 I0.0075 J0.0128
G1 X-3.1253 Y0.3464 F60.
X-3.1185 Y0.3511
X-3.112 Y0.3563
X-3.1059 Y0.3619
X-3.1002 Y0.3679
X-3.095 Y0.3744
X-3.0903 Y0.3811
X-3.086 Y0.3882
X-3.0823 Y0.3956
X-3.0791 Y0.4033
X-3.0764 Y0.4111
X-3.0744 Y0.4191
X-3.0729 Y0.4272
X-3.0719 Y0.4355
X-3.0716 Y0.4437
X-3.0719 Y0.452
X-3.0727 Y0.4602
X-3.0742 Y0.4684
X-3.0762 Y0.4764
X-3.0788 Y0.4843
X-3.0819 Y0.4919
X-3.0856 Y0.4993
X-3.0898 Y0.5065
X-3.0945 Y0.5133
X-3.0997 Y0.5197
X-3.1053 Y0.5258
X-3.1113 Y0.5315
X-3.1178 Y0.5367
X-3.1246 Y0.5414
X-3.2325 Y0.5088
X-3.2536 Y0.5025
G3 X-3.263 Y0.4836 I0.0048 J-0.0141
X-3.2406 Y0.4674 I0.0227 J0.0076
X-3.1433 Y0.5169 I0.0011 J0.1181
X-3.1335 Y0.5334 I-0.0961 J0.0686 F50.
G2 X-3.1249 Y0.5409 I0.0134 J-0.0066
G1 X-3.1011 Y0.5481 F60.
X-3.0929 Y0.5479
X-3.0847 Y0.5471
X-3.0765 Y0.5456
X-3.0685 Y0.5437
X-3.0607 Y0.5411
X-3.053 Y0.538
X-3.0456 Y0.5344
X-3.0385 Y0.5302
X-3.0317 Y0.5256
X-3.0252 Y0.5205
X-3.0191 Y0.5149
X-3.0134 Y0.5089
X-3.0082 Y0.5026
X-3.0034 Y0.4958
X-2.9991 Y0.4888
X-2.9953 Y0.4814
X-2.9921 Y0.4738
X-2.9894 Y0.4661
X-2.9873 Y0.4581
X-2.9857 Y0.45
X-2.9847 Y0.4418
X-2.9843 Y0.4335
X-2.9845 Y0.4253
X-2.9853 Y0.4171
X-2.9867 Y0.4089
X-2.9886 Y0.4009
X-2.9911 Y0.3931
X-2.9942 Y0.3854
X-3.0265 Y0.3762
X-3.0727 Y0.362
X-3.1253 Y0.3464
G2 X-3.1435 Y0.3571 I-0.0038 J0.0144
X-3.1348 Y0.3812 I0.0219 J0.0057
X-3.0233 Y0.3956 I0.069 J-0.0959
X-3.006 Y0.3872 I-0.0424 J-0.1102 F50.
G3 X-2.9947 Y0.3857 I0.0075 J0.0129
G1 X-2.9803 Y0.39 F60.
X-2.9699 Y0.3931
X-2.963 Y0.3981
X-2.9564 Y0.4036
X-2.9503 Y0.4096
X-2.9447 Y0.4159
X-2.9395 Y0.4227
X-2.9348 Y0.4299
X-2.9307 Y0.4373
X-2.9271 Y0.4451
X-2.9241 Y0.453
X-2.9217 Y0.4612
X-2.9199 Y0.4696
X-2.9187 Y0.478
X-2.9181 Y0.4865
X-2.9182 Y0.4951
X-2.9189 Y0.5036
X-2.9201 Y0.512
X-2.9221 Y0.5203
X-2.9246 Y0.5284
X-2.9277 Y0.5364
X-2.9313 Y0.5441
X-2.9355 Y0.5515
X-2.9403 Y0.5586
X-2.9455 Y0.5653
X-2.9513 Y0.5716
X-2.9575 Y0.5775
X-2.964 Y0.5829
X-2.971 Y0.5878
G2 X-3.1011 Y0.5481 I-2.1224 J6.7195
G3 X-3.1028 Y0.5206 I0.0048 J-0.0141
X-3.0683 Y0.5153 I0.0258 J0.0528
X-2.9899 Y0.5633 I-0.0176 J0.1168
X-2.98 Y0.5797 I-0.096 J0.0689 F50.
G2 X-2.9714 Y0.5872 I0.0134 J-0.0066
G1 X-2.9465 Y0.5947 F60.
X-2.938 Y0.5943
X-2.9295 Y0.5933
X-2.9212 Y0.5918
X-2.9129 Y0.5895
X-2.9049 Y0.5867
X-2.8971 Y0.5834
X-2.8895 Y0.5794
X-2.8823 Y0.5749
X-2.8754 Y0.5699
X-2.8689 Y0.5644
X-2.8628 Y0.5585
X-2.8572 Y0.5521
X-2.852 Y0.5453
X-2.8474 Y0.5382
X-2.8432 Y0.5307
X-2.8397 Y0.523
X-2.8367 Y0.515
X-2.8343 Y0.5068
X-2.8326 Y0.4985
X-2.8314 Y0.49
X-2.8309 Y0.4815
Y0.473
X-2.8317 Y0.4645
X-2.833 Y0.4561
X-2.8349 Y0.4478
X-2.8375 Y0.4397
X-2.8406 Y0.4318
X-2.8879 Y0.4178
X-2.9341 Y0.404
X-2.9699 Y0.3931
G2 X-2.9881 Y0.4037 I-0.0038 J0.0144
X-2.9798 Y0.4268 I0.0209 J0.0055
X-2.8695 Y0.4415 I0.0689 J-0.0959
X-2.8521 Y0.4333 I-0.0414 J-0.1106 F50.
G3 X-2.8408 Y0.4319 I0.0074 J0.0129
G1 X-2.8176 Y0.439 F60.
X-2.8108 Y0.4437
X-2.8043 Y0.4489
X-2.7983 Y0.4545
X-2.7926 Y0.4606
X-2.7874 Y0.467
X-2.7827 Y0.4738
X-2.7784 Y0.4809
X-2.7747 Y0.4883
X-2.7716 Y0.4959
X-2.7689 Y0.5038
X-2.7669 Y0.5118
X-2.7654 Y0.5199
X-2.7645 Y0.5281
X-2.7643 Y0.5364
X-2.7646 Y0.5447
X-2.7654 Y0.5529
X-2.7669 Y0.561
X-2.769 Y0.569
X-2.7716 Y0.5769
X-2.7748 Y0.5845
X-2.7785 Y0.5919
X-2.7828 Y0.599
X-2.7875 Y0.6058
X-2.7927 Y0.6122
X-2.7984 Y0.6182
X-2.8044 Y0.6238
X-2.8109 Y0.629
X-2.8177 Y0.6337
X-2.8417 Y0.6266
X-2.8879 Y0.6122
X-2.9465 Y0.5947
G3 X-2.9559 Y0.5758 I0.0048 J-0.0141
X-2.9364 Y0.5613 I0.0203 J0.0068
X-2.8364 Y0.6097 I0.0045 J0.118
X-2.8264 Y0.6261 I-0.0954 J0.0696 F50.
G2 X-2.8178 Y0.6335 I0.0133 J-0.0067
G1 X-2.7955 Y0.64 F60.
X-2.7872
X-2.7789 Y0.6393
X-2.7707 Y0.638
X-2.7625 Y0.6362
X-2.7546 Y0.6338
X-2.7468 Y0.6308
X-2.7393 Y0.6272
X-2.732 Y0.6232
X-2.7251 Y0.6186
X-2.7185 Y0.6135
X-2.7123 Y0.608
X-2.7065 Y0.602
X-2.7011 Y0.5956
X-2.6963 Y0.5889
X-2.6919 Y0.5818
X-2.6881 Y0.5744
X-2.6847 Y0.5668
X-2.682 Y0.5589
X-2.6798 Y0.5509
X-2.6782 Y0.5427
X-2.6772 Y0.5345
X-2.6768 Y0.5262
X-2.677 Y0.5178
X-2.6778 Y0.5096
X-2.6792 Y0.5014
X-2.6812 Y0.4933
X-2.6838 Y0.4854
X-2.6869 Y0.4777
X-2.7493 Y0.4594
X-2.7899 Y0.4476
X-2.8176 Y0.439
G2 X-2.8344 Y0.4608 I-0.0039 J0.0144
X-2.8084 Y0.4847 I0.0506 J-0.029
X-2.716 Y0.4878 I0.0499 J-0.1071
X-2.6987 Y0.4795 I-0.0426 J-0.1102 F50.
G3 X-2.6874 Y0.4779 I0.0076 J0.0128
G1 X-2.6634 Y0.485 F60.
X-2.6567 Y0.4897
X-2.6503 Y0.4949
X-2.6443 Y0.5006
X-2.6387 Y0.5066
X-2.6335 Y0.5131
X-2.6288 Y0.5199
X-2.6246 Y0.527
X-2.6209 Y0.5343
X-2.6178 Y0.542
X-2.6152 Y0.5498
X-2.6132 Y0.5578
X-2.6117 Y0.5659
X-2.6108 Y0.5741
X-2.6105 Y0.5824
X-2.6108 Y0.5906
X-2.6117 Y0.5988
X-2.6131 Y0.6069
X-2.6152 Y0.6149
X-2.6178 Y0.6228
X-2.6209 Y0.6304
X-2.6246 Y0.6378
X-2.6288 Y0.6449
X-2.6335 Y0.6517
X-2.6386 Y0.6581
X-2.6442 Y0.6642
X-2.6502 Y0.6698
X-2.6566 Y0.675
X-2.6634 Y0.6798
X-2.7493 Y0.6538
X-2.7955 Y0.64
G3 X-2.7974 Y0.6125 I0.0048 J-0.0141
X-2.7617 Y0.6068 I0.0271 J0.0546
X-2.6821 Y0.6552 I-0.0166 J0.1169
X-2.6723 Y0.6717 I-0.0962 J0.0686 F50.
G2 X-2.6637 Y0.6792 I0.0134 J-0.0066
G1 X-2.6391 Y0.6867 F60.
X-2.6306 Y0.6864
X-2.6221 Y0.6854
X-2.6138 Y0.6838
X-2.6055 Y0.6816
X-2.5975 Y0.6788
X-2.5896 Y0.6754
X-2.5821 Y0.6715
X-2.5748 Y0.667
X-2.5679 Y0.662
X-2.5614 Y0.6565
X-2.5553 Y0.6505
X-2.5497 Y0.6442
X-2.5445 Y0.6374
X-2.5398 Y0.6302
X-2.5357 Y0.6228
X-2.5321 Y0.615
X-2.5292 Y0.607
X-2.5268 Y0.5989
X-2.525 Y0.5905
X-2.5238 Y0.5821
X-2.5232 Y0.5736
X-2.5233 Y0.5651
X-2.524 Y0.5566
X-2.5253 Y0.5481
X-2.5272 Y0.5398
X-2.5297 Y0.5317
X-2.5328 Y0.5238
X-2.5645 Y0.5148
X-2.6107 Y0.5006
X-2.6634 Y0.485
G2 X-2.68 Y0.507 I-0.0037 J0.0144
X-2.6518 Y0.532 I0.0527 J-0.031
X-2.5621 Y0.534 I0.0472 J-0.1083
X-2.5448 Y0.5256 I-0.0425 J-0.1102 F50.
G3 X-2.5335 Y0.524 I0.0075 J0.0129
G1 X-2.5183 Y0.5286 F60.
X-2.508 Y0.5317
X-2.5011 Y0.5367
X-2.4947 Y0.5422
X-2.4886 Y0.5482
X-2.483 Y0.5546
X-2.4779 Y0.5614
X-2.4733 Y0.5685
X-2.4692 Y0.576
X-2.4657 Y0.5837
X-2.4627 Y0.5917
X-2.4604 Y0.5999
X-2.4586 Y0.6082
X-2.4575 Y0.6166
X-2.4569 Y0.6251
X-2.457 Y0.6336
X-2.4578 Y0.6421
X-2.4591 Y0.6505
X-2.461 Y0.6588
X-2.4636 Y0.6669
X-2.4667 Y0.6748
X-2.4704 Y0.6825
X-2.4747 Y0.6898
X-2.4794 Y0.6969
X-2.4847 Y0.7035
X-2.4905 Y0.7098
X-2.4967 Y0.7156
X-2.5033 Y0.721
X-2.5102 Y0.7258
G2 X-2.6391 Y0.6867 I-3.3022 J10.6432
G3 X-2.6484 Y0.6678 I0.0049 J-0.0141
X-2.6271 Y0.6523 I0.0217 J0.0075
X-2.5289 Y0.7016 I0.0023 J0.1181
X-2.519 Y0.718 I-0.096 J0.0688 F50.
G2 X-2.5104 Y0.7255 I0.0134 J-0.0066
G1 X-2.4849 Y0.7332 F60.
X-2.4764 Y0.7328
X-2.4679 Y0.7318
X-2.4595 Y0.7302
X-2.4513 Y0.7279
X-2.4433 Y0.7251
X-2.4355 Y0.7217
X-2.428 Y0.7177
X-2.4208 Y0.7132
X-2.4139 Y0.7082
X-2.4074 Y0.7027
X-2.4014 Y0.6967
X-2.3957 Y0.6903
X-2.3906 Y0.6835
X-2.386 Y0.6763
X-2.3819 Y0.6689
X-2.3784 Y0.6611
X-2.3755 Y0.6531
X-2.3731 Y0.645
X-2.3714 Y0.6366
X-2.3702 Y0.6282
X-2.3697 Y0.6197
X-2.3698 Y0.6112
X-2.3705 Y0.6027
X-2.3719 Y0.5943
X-2.3738 Y0.586
X-2.3764 Y0.5779
X-2.3795 Y0.57
X-2.4259 Y0.5564
X-2.4721 Y0.5426
X-2.508 Y0.5317
G2 X-2.5262 Y0.5423 I-0.0038 J0.0144
X-2.5164 Y0.5682 I0.023 J0.0061
X-2.4084 Y0.5801 I0.0654 J-0.0983
X-2.3911 Y0.5717 I-0.0425 J-0.1102 F50.
G3 X-2.3799 Y0.5702 I0.0075 J0.0128
G1 X-2.3566 Y0.5774 F60.
X-2.3498 Y0.5821
X-2.3433 Y0.5872
X-2.3372 Y0.5928
X-2.3315 Y0.5989
X-2.3263 Y0.6053
X-2.3215 Y0.6121
X-2.3173 Y0.6192
X-2.3136 Y0.6266
X-2.3104 Y0.6342
X-2.3077 Y0.6421
X-2.3057 Y0.6501
X-2.3042 Y0.6582
X-2.3033 Y0.6665
X-2.303 Y0.6747
X-2.3033 Y0.683
X-2.3042 Y0.6912
X-2.3057 Y0.6994
X-2.3077 Y0.7074
X-2.3104 Y0.7153
X-2.3135 Y0.7229
X-2.3173 Y0.7303
X-2.3215 Y0.7374
X-2.3263 Y0.7442
X-2.3315 Y0.7506
X-2.3371 Y0.7566
X-2.3432 Y0.7623
X-2.3497 Y0.7674
X-2.3565 Y0.7721
X-2.3797 Y0.7653
X-2.4259 Y0.7508
X-2.4849 Y0.7332
G3 X-2.4942 Y0.7143 I0.0048 J-0.0141
X-2.475 Y0.7 I0.02 J0.0067
X-2.3753 Y0.7482 I0.0044 J0.118
X-2.3653 Y0.7646 I-0.0953 J0.0698 F50.
G2 X-2.3566 Y0.772 I0.0133 J-0.0067
G1 X-2.3335 Y0.7786 F60.
X-2.3252 Y0.7785
X-2.3169 Y0.7778
X-2.3088 Y0.7765
X-2.3007 Y0.7745
X-2.2928 Y0.7721
X-2.285 Y0.769
X-2.2776 Y0.7654
X-2.2704 Y0.7613
X-2.2635 Y0.7567
X-2.2569 Y0.7516
X-2.2508 Y0.746
X-2.245 Y0.7401
X-2.2397 Y0.7337
X-2.2349 Y0.7269
X-2.2306 Y0.7199
X-2.2268 Y0.7125
X-2.2235 Y0.7049
X-2.2208 Y0.697
X-2.2186 Y0.689
X-2.217 Y0.6809
X-2.216 Y0.6727
X-2.2156 Y0.6644
X-2.2158 Y0.6561
X-2.2166 Y0.6478
X-2.218 Y0.6396
X-2.22 Y0.6316
X-2.2225 Y0.6237
X-2.2256 Y0.616
X-2.3287 Y0.5861
X-2.3566 Y0.5774
G2 X-2.3749 Y0.5878 I-0.0039 J0.0144
X-2.3663 Y0.612 I0.0217 J0.0059
X-2.2548 Y0.6262 I0.0689 J-0.096
X-2.2375 Y0.6178 I-0.0427 J-0.1101 F50.
G3 X-2.2262 Y0.6162 I0.0076 J0.0128
G1 X-2.2016 Y0.6235 F60.
X-2.1947 Y0.6285
X-2.1881 Y0.6339
X-2.182 Y0.6398
X-2.1763 Y0.6462
X-2.171 Y0.6529
X-2.1663 Y0.6601
X-2.1622 Y0.6675
X-2.1585 Y0.6752
X-2.1555 Y0.6832
X-2.1531 Y0.6914
X-2.1512 Y0.6997
X-2.15 Y0.7081
X-2.1494 Y0.7167
Y0.7252
X-2.15 Y0.7337
X-2.1513 Y0.7421
X-2.1532 Y0.7505
X-2.1557 Y0.7586
X-2.1587 Y0.7666
X-2.1624 Y0.7743
X-2.1666 Y0.7817
X-2.1713 Y0.7888
X-2.1766 Y0.7955
X-2.1823 Y0.8019
X-2.1885 Y0.8078
X-2.195 Y0.8132
X-2.202 Y0.8181
X-2.2873 Y0.7924
X-2.3335 Y0.7786
G3 X-2.3354 Y0.7512 I0.0047 J-0.0141
X-2.2968 Y0.7456 I0.0279 J0.0561
X-2.2208 Y0.7935 I-0.0202 J0.1164
X-2.211 Y0.81 I-0.0962 J0.0685 F50.
G2 X-2.2024 Y0.8175 I0.0134 J-0.0066
G1 X-2.1771 Y0.8252 F60.
X-2.1687 Y0.8248
X-2.1604 Y0.8238
X-2.1521 Y0.8222
X-2.144 Y0.8201
X-2.136 Y0.8173
X-2.1283 Y0.8139
X-2.1208 Y0.8101
X-2.1137 Y0.8056
X-2.1068 Y0.8007
X-2.1004 Y0.7953
X-2.0944 Y0.7894
X-2.0888 Y0.7831
X-2.0837 Y0.7764
X-2.0791 Y0.7694
X-2.075 Y0.762
X-2.0714 Y0.7544
X-2.0684 Y0.7465
X-2.066 Y0.7384
X-2.0642 Y0.7302
X-2.063 Y0.7219
X-2.0624 Y0.7135
X-2.0625 Y0.7051
X-2.0631 Y0.6967
X-2.0643 Y0.6883
X-2.0662 Y0.6801
X-2.0686 Y0.6721
X-2.0716 Y0.6642
X-2.1025 Y0.6534
X-2.1487 Y0.639
X-2.2016 Y0.6235
G2 X-2.2198 Y0.6342 I-0.0037 J0.0144
X-2.2149 Y0.6498 I0.015 J0.0039
X-2.1009 Y0.6727 I0.0773 J-0.0893
X-2.0832 Y0.6653 I-0.0367 J-0.1123 F50.
G3 X-2.0718 Y0.6643 I0.0069 J0.0132
G1 X-2.0563 Y0.6698 F60.
X-2.0463 Y0.6784
X-2.0245 Y0.7092
X-2.0213 Y0.716
X-2.0188 Y0.7231
X-2.0168 Y0.7304
X-2.0154 Y0.7378
X-2.0145 Y0.7453
X-2.0143 Y0.7529
X-2.0147 Y0.7604
X-2.0157 Y0.7679
X-2.0173 Y0.7753
X-2.0194 Y0.7825
X-2.0221 Y0.7895
X-2.0254 Y0.7963
X-2.0292 Y0.8028
X-2.0335 Y0.809
X-2.0383 Y0.8149
X-2.0435 Y0.8203
X-2.0492 Y0.8253
X-2.0552 Y0.8298
X-2.0616 Y0.8339
X-2.0682 Y0.8374
X-2.0752 Y0.8404
X-2.0823 Y0.8428
X-2.0896 Y0.8446
X-2.0971 Y0.8459
X-2.1046 Y0.8466
X-2.1121
X-2.1196 Y0.8461
X-2.1271 Y0.845
X-2.1345 Y0.8432
X-2.1416 Y0.8409
X-2.1486 Y0.8381
X-2.1553 Y0.8347
X-2.1618 Y0.8307
X-2.1679 Y0.8263
X-2.1736 Y0.8214
X-2.1756 Y0.8213
X-2.1777 Y0.8208
X-2.1797 Y0.8199
X-2.1815 Y0.8186
X-2.1831 Y0.8169
X-2.1844 Y0.8149
X-2.1852 Y0.8126
X-2.1857 Y0.8101
X-2.1856 Y0.8075
X-2.185 Y0.8049
X-2.1839 Y0.8024
X-2.1823 Y0.8001
X-2.1801 Y0.7981 Z-0.2347
X-2.1781 Y0.7962 Z-0.2339
X-2.1762 Y0.7945 Z-0.2325
X-2.1745 Y0.793 Z-0.2306
X-2.1731 Y0.7917 Z-0.2284
X-2.1721 Y0.7908 Z-0.2258
X-2.1715 Y0.7902 Z-0.223
X-2.1713 Y0.7901 Z-0.2201
G0 Z0.4
X-1.2346 Y2.3163
Z0.1
G3 X-1.2148 Y2.4565 Z0.0608 I0.0099 J0.0701 F50.
X-1.2346 Y2.3163 Z0.0216 I-0.0099 J-0.0701
X-1.2148 Y2.4565 Z-0.0176 I0.0099 J0.0701
X-1.2346 Y2.3163 Z-0.0568 I-0.0099 J-0.0701
X-1.2148 Y2.4565 Z-0.096 I0.0099 J0.0701
X-1.2346 Y2.3163 Z-0.1352 I-0.0099 J-0.0701
X-1.2148 Y2.4565 Z-0.1744 I0.0099 J0.0701
X-1.2346 Y2.3163 Z-0.2136 I-0.0099 J-0.0701
X-1.1539 Y2.3864 Z-0.235 I0.0099 J0.0701
X-1.2955 I-0.0708 J0.
X-1.1539 I0.0708 J0.
X-1.1353 Y2.4398 I-0.0193 J0.0367 F60.
X-1.2709 Y2.4869 I-0.1565 J-0.232
G1 X-1.279 Y2.4865
X-1.2871 Y2.4854
X-1.295 Y2.4838
X-1.3028 Y2.4815
X-1.3105 Y2.4788
X-1.3179 Y2.4754
X-1.325 Y2.4716
X-1.3318 Y2.4672
X-1.3383 Y2.4623
X-1.3445 Y2.457
X-1.3502 Y2.4513
X-1.3555 Y2.4451
X-1.3603 Y2.4386
X-1.3647 Y2.4317
X-1.3685 Y2.4246
X-1.3718 Y2.4171
X-1.3746 Y2.4095
X-1.3768 Y2.4017
X-1.3784 Y2.3937
X-1.3794 Y2.3857
X-1.3798 Y2.3776
X-1.3797 Y2.3695
X-1.379 Y2.3614
X-1.3776 Y2.3534
X-1.3757 Y2.3455
X-1.3732 Y2.3378
X-1.3702 Y2.3302
X-1.3666 Y2.3229
X-1.3625 Y2.3159
X-1.3579 Y2.3092
X-1.3529 Y2.3029
G2 X-1.2162 Y2.2719 I0.0273 J-0.1964
G3 X-1.0537 Y2.3974 I0.0283 J0.1313
G2 X-1.1353 Y2.4398 I1.1493 J2.3063
G3 X-1.1501 Y2.4387 I-0.0065 J-0.0134
X-1.1452 Y2.3878 I0.0164 J-0.0241
X-1.0818 Y2.3883 I0.031 J0.0724
X-1.0685 Y2.396 I-0.0323 J0.0718 F50.
G2 X-1.0537 Y2.3974 I0.0086 J-0.0121
G1 X-1.0399 Y2.3905 F60.
X-1.0345 Y2.3842
X-1.0295 Y2.3774
X-1.0251 Y2.3704
X-1.0212 Y2.363
X-1.0178 Y2.3554
X-1.015 Y2.3475
X-1.0127 Y2.3395
X-1.0111 Y2.3313
X-1.0101 Y2.323
X-1.0097 Y2.3147
X-1.0098 Y2.3064
X-1.0106 Y2.2981
X-1.012 Y2.2898
X-1.014 Y2.2817
X-1.0166 Y2.2738
X-1.0198 Y2.2661
X-1.0235 Y2.2586
X-1.0277 Y2.2514
X-1.0325 Y2.2446
X-1.0377 Y2.2381
X-1.0434 Y2.232
X-1.0496 Y2.2263
X-1.0561 Y2.2212
X-1.063 Y2.2165
X-1.0702 Y2.2123
X-1.0777 Y2.2086
X-1.0854 Y2.2055
G2 X-1.2162 Y2.2719 I1.3794 J2.8811
X-1.2069 Y2.2997 I0.0071 J0.0131
G3 X-1.1899 Y2.3145 I0.0022 J0.0147
X-1.207 Y2.3292 I-0.0149 J0.
G1 X-1.3175 Y2.3127
X-1.3201 Y2.312
X-1.3225 Y2.311
G2 X-1.3525 Y2.3032 I-0.0301 J0.0546 F50.
G1 X-1.3811 Y2.3042 F60.
G2 X-1.4263 Y2.4923 I0.0362 J0.1082
G1 X-1.2709 Y2.4869
G2 X-1.2597 Y2.4771 I-0.0029 J-0.0146
X-1.2986 Y2.4181 I-0.0423 J-0.0145
X-1.406 Y2.4704 I-0.009 J0.1178
X-1.4136 Y2.4837 I0.0983 J0.0654 F50.
G3 X-1.426 Y2.492 I-0.0134 J-0.0066
G1 X-1.4557 Y2.4929 F60.
X-1.4637 Y2.4903
X-1.4715 Y2.4871
X-1.4791 Y2.4834
X-1.4863 Y2.4791
X-1.4933 Y2.4743
X-1.4998 Y2.469
X-1.506 Y2.4633
X-1.5118 Y2.4571
X-1.5171 Y2.4506
X-1.5219 Y2.4437
X-1.5262 Y2.4364
X-1.53 Y2.4289
X-1.5332 Y2.4211
X-1.5358 Y2.4131
X-1.5379 Y2.4049
X-1.5394 Y2.3966
X-1.5403 Y2.3882
X-1.5406 Y2.3798
X-1.5403 Y2.3714
X-1.5393 Y2.363
X-1.5378 Y2.3547
X-1.5357 Y2.3466
X-1.533 Y2.3386
X-1.5298 Y2.3308
X-1.526 Y2.3233
X-1.5216 Y2.3161
X-1.5168 Y2.3092
X-1.5115 Y2.3026
X-1.5019 Y2.3073
X-1.4557 Y2.3066
X-1.3811 Y2.3042
G3 X-1.3662 Y2.3191 I0. J0.0149
X-1.3796 Y2.3466 I-0.0351 J-0.0001
X-1.4932 Y2.3294 I-0.0488 J-0.0618
X-1.5021 Y2.3124 I0.0649 J-0.0446 F50.
G2 X-1.5099 Y2.3041 I-0.014 J0.0052
G1 X-1.5237 Y2.2984 F60.
X-1.5318 Y2.2993
X-1.5398 Y2.3009
X-1.5477 Y2.303
X-1.5554 Y2.3057
X-1.5629 Y2.309
X-1.5702 Y2.3129
X-1.5771 Y2.3173
X-1.5836 Y2.3221
X-1.5898 Y2.3275
X-1.5956 Y2.3333
X-1.601 Y2.3395
X-1.6058 Y2.3461
X-1.6102 Y2.353
X-1.614 Y2.3602
X-1.6173 Y2.3677
X-1.62 Y2.3754
X-1.6221 Y2.3833
X-1.6237 Y2.3914
X-1.6246 Y2.3995
X-1.625 Y2.4077
X-1.6247 Y2.4158
X-1.6238 Y2.424
X-1.6223 Y2.432
X-1.6203 Y2.4399
X-1.6176 Y2.4477
X-1.6144 Y2.4552
X-1.6106 Y2.4624
X-1.6063 Y2.4694
X-1.6015 Y2.476
G2 X-1.4557 Y2.4929 I0.0936 J-0.1696
X-1.4469 Y2.4669 I-0.001 J-0.0149
G1 X-1.4473 Y2.4667
G2 X-1.5733 Y2.4767 I0.0022 J0.8268
G1 X-1.5923 Y2.4799 F50.
G3 X-1.6034 Y2.4775 I-0.0027 J-0.0147
G1 X-1.6405 Y2.4498 F60.
X-1.6535 Y2.4412
X-1.6594 Y2.4347
X-1.6648 Y2.4278
X-1.6698 Y2.4206
X-1.6743 Y2.413
X-1.6782 Y2.4051
X-1.6816 Y2.397
X-1.6844 Y2.3887
X-1.6867 Y2.3802
X-1.6883 Y2.3716
X-1.6894 Y2.3629
X-1.6899 Y2.3541
X-1.6897 Y2.3453
X-1.689 Y2.3365
X-1.6876 Y2.3278
X-1.6857 Y2.3193
X-1.6832 Y2.3109
X-1.6801 Y2.3026
X-1.6764 Y2.2946
X-1.6722 Y2.2869
X-1.6675 Y2.2795
X-1.6623 Y2.2724
X-1.6566 Y2.2657
X-1.6505 Y2.2594
X-1.644 Y2.2536
X-1.637 Y2.2482
X-1.6297 Y2.2432
X-1.6221 Y2.2388
X-1.6094 Y2.2479
X-1.5943 Y2.2568
X-1.5481 Y2.2871
X-1.5341 Y2.2941
X-1.5237 Y2.2984
G3 X-1.515 Y2.3105 I-0.0062 J0.0136
X-1.541 Y2.3373 I-0.0244 J0.0024
X-1.6139 Y2.2693 I0.0051 J-0.0786
X-1.6145 Y2.254 I0.078 J-0.0105 F50.
G2 X-1.6211 Y2.2407 I-0.0149 J-0.0009
G1 X-1.6405 Y2.2288 F60.
X-1.6488 Y2.2274
X-1.6571 Y2.2265
X-1.6654 Y2.2263
X-1.6738 Y2.2268
X-1.6821 Y2.2278
X-1.6903 Y2.2294
X-1.6984 Y2.2317
X-1.7062 Y2.2345
X-1.7139 Y2.2379
X-1.7213 Y2.2419
X-1.7283 Y2.2463
X-1.735 Y2.2513
X-1.7414 Y2.2568
X-1.7473 Y2.2627
X-1.7527 Y2.2691
X-1.7577 Y2.2758
X-1.7621 Y2.2829
X-1.7661 Y2.2903
X-1.7694 Y2.298
X-1.7722 Y2.3058
X-1.7744 Y2.3139
X-1.776 Y2.3221
X-1.777 Y2.3304
X-1.7774 Y2.3388
X-1.7771 Y2.3471
X-1.7763 Y2.3555
X-1.7748 Y2.3637
G3 X-1.6535 Y2.4412 I-4.7019 J7.4988
G2 X-1.6329 Y2.4364 I0.0078 J-0.0127
X-1.6327 Y2.4203 I-0.0133 J-0.0082
X-1.7448 Y2.3622 I-0.102 J0.0596
X-1.7637 Y2.3654 I0.0101 J0.1177 F50.
G3 X-1.775 Y2.3637 I-0.0037 J-0.0144
G1 X-1.7791 Y2.3611 F60.
X-1.7963 Y2.3507
X-1.8019 Y2.3445
X-1.807 Y2.338
X-1.8117 Y2.3311
X-1.8158 Y2.3239
X-1.8194 Y2.3164
X-1.8225 Y2.3086
X-1.825 Y2.3007
X-1.8269 Y2.2926
X-1.8283 Y2.2844
X-1.829 Y2.2761
X-1.8292 Y2.2678
X-1.8288 Y2.2595
X-1.8277 Y2.2513
X-1.8261 Y2.2431
X-1.8239 Y2.2351
X-1.8211 Y2.2273
X-1.8178 Y2.2196
X-1.8139 Y2.2123
X-1.8096 Y2.2052
X-1.8047 Y2.1985
X-1.7993 Y2.1921
X-1.7935 Y2.1861
X-1.7873 Y2.1806
X-1.7807 Y2.1755
X-1.7738 Y2.1709
X-1.7666 Y2.1669
X-1.7591 Y2.1633
X-1.7513 Y2.1603
X-1.7329 Y2.1714
X-1.6824 Y2.2017
X-1.6405 Y2.2288
G3 X-1.6342 Y2.2423 I-0.0085 J0.0122
X-1.6424 Y2.2525 I-0.0116 J-0.001
G1 X-1.6438 Y2.2529
G3 X-1.7435 Y2.1891 I-0.0219 J-0.0756
X-1.7443 Y2.1738 I0.0778 J-0.0119 F50.
G2 X-1.7512 Y2.1606 I-0.0149 J-0.0006
G1 X-1.7597 Y2.1556 F60.
X-1.7752 Y2.1464
X-1.7835 Y2.1449
X-1.7919 Y2.144
X-1.8004 Y2.1437
X-1.8089 Y2.1441
X-1.8173 Y2.145
X-1.8256 Y2.1466
X-1.8338 Y2.1488
X-1.8418 Y2.1515
X-1.8495 Y2.1548
X-1.8571 Y2.1587
X-1.8643 Y2.1632
X-1.8712 Y2.1681
X-1.8777 Y2.1735
X-1.8838 Y2.1794
X-1.8894 Y2.1857
X-1.8946 Y2.1924
X-1.8993 Y2.1994
X-1.9034 Y2.2068
X-1.907 Y2.2145
X-1.9101 Y2.2224
X-1.9125 Y2.2305
X-1.9144 Y2.2387
X-1.9156 Y2.2471
X-1.9163 Y2.2555
Y2.264
X-1.9158 Y2.2724
X-1.9146 Y2.2808
G3 X-1.7963 Y2.3507 I-2.2354 J3.9193
G2 X-1.7746 Y2.3336 I0.0073 J-0.013
X-1.7944 Y2.3036 I-0.0574 J0.0161
X-1.884 Y2.2779 I-0.0747 J0.0915
X-1.9028 Y2.2819 I0.015 J0.1172 F50.
G3 X-1.9141 Y2.2807 I-0.0043 J-0.0143
G1 X-1.9177 Y2.2786 F60.
X-1.9378 Y2.2671
X-1.9432 Y2.2606
X-1.9482 Y2.2537
X-1.9527 Y2.2465
X-1.9566 Y2.239
X-1.96 Y2.2312
X-1.9628 Y2.2232
X-1.965 Y2.215
X-1.9666 Y2.2066
X-1.9675 Y2.1982
X-1.9679 Y2.1897
X-1.9677 Y2.1813
X-1.9668 Y2.1728
X-1.9653 Y2.1644
X-1.9632 Y2.1562
X-1.9605 Y2.1482
X-1.9573 Y2.1403
X-1.9535 Y2.1328
X-1.9491 Y2.1255
X-1.9442 Y2.1185
X-1.9388 Y2.112
X-1.933 Y2.1058
X-1.9267 Y2.1001
X-1.92 Y2.0948
X-1.913 Y2.0901
X-1.9056 Y2.0859
X-1.898 Y2.0822
X-1.8901 Y2.0791
G3 X-1.7752 Y2.1464 I-1.2022 J2.1858
X-1.7684 Y2.1596 I-0.0081 J0.0125
X-1.7753 Y2.1693 I-0.011 J-0.0005
G1 X-1.7779 Y2.1703
G3 X-1.8823 Y2.108 I-0.0266 J-0.0741
X-1.8831 Y2.0927 I0.0778 J-0.0119 F50.
G2 X-1.8899 Y2.0795 I-0.0149 J-0.0006
G1 X-1.9116 Y2.0667 F60.
X-1.9197 Y2.065
X-1.928 Y2.0639
X-1.9363 Y2.0634
X-1.9446 Y2.0635
X-1.9529 Y2.0642
X-1.9612 Y2.0654
X-1.9693 Y2.0673
X-1.9773 Y2.0697
X-1.985 Y2.0727
X-1.9926 Y2.0762
X-1.9999 Y2.0803
X-2.0068 Y2.0849
X-2.0134 Y2.0899
X-2.0197 Y2.0955
X-2.0255 Y2.1014
X-2.0309 Y2.1078
X-2.0358 Y2.1145
X-2.0402 Y2.1216
X-2.0441 Y2.1289
X-2.0475 Y2.1365
X-2.0503 Y2.1444
X-2.0525 Y2.1524
X-2.0542 Y2.1606
X-2.0553 Y2.1688
X-2.0557 Y2.1771
X-2.0556 Y2.1855
X-2.0549 Y2.1938
X-2.0536 Y2.202
X-2.0101 Y2.2251
X-1.9639 Y2.2521
X-1.9378 Y2.2671
G2 X-1.9229 Y2.2666 I0.007 J-0.0132
X-1.9171 Y2.2536 I-0.0068 J-0.0109
X-2.0246 Y2.1938 I-0.0776 J0.0131
X-2.0381 Y2.2009 I0.0299 J0.0729 F50.
G3 X-2.053 Y2.2019 I-0.0082 J-0.0124
G1 X-2.0764 Y2.189 F60.
G3 X-2.0407 Y2.0052 I0.0872 J-0.0785
X-2.0303 Y2.0218 I-0.0043 J0.0143
G1 X-2.0318 Y2.0312
X-2.0545 Y2.1752
X-2.0549 Y2.178 F50.
G3 X-2.0764 Y2.189 I-0.0147 J-0.0023
G1 X-2.0837 Y2.1867 F60.
X-2.0909 Y2.1837
X-2.0978 Y2.1802
X-2.1044 Y2.1761
X-2.1107 Y2.1716
X-2.1165 Y2.1665
X-2.122 Y2.161
X-2.1269 Y2.155
X-2.1314 Y2.1487
X-2.1354 Y2.1421
X-2.1388 Y2.1351
X-2.1416 Y2.1279
X-2.1439 Y2.1205
X-2.1456 Y2.1129
X-2.1466 Y2.1052
X-2.147 Y2.0975
X-2.1468 Y2.0898
X-2.146 Y2.0821
X-2.1446 Y2.0745
X-2.1426 Y2.067
X-2.1399 Y2.0597
X-2.1367 Y2.0526
X-2.133 Y2.0459
X-2.1287 Y2.0394
X-2.1239 Y2.0333
X-2.1186 Y2.0277
X-2.1129 Y2.0224
X-2.1068 Y2.0177
X-2.1003 Y2.0134
X-2.0935 Y2.0097
X-2.0865 Y2.0065
X-2.0792 Y2.0039
X-2.0717 Y2.0019
X-2.0641 Y2.0005
X-2.0564 Y1.9998
X-2.0486 Y1.9996
X-2.0409 Y2.0001
X-2.0332 Y2.0011
X-2.0257 Y2.0028
X-2.0183 Y2.0051
X-2.0111 Y2.008
X-2.0042 Y2.0115
X-1.9975 Y2.0155
X-1.9912 Y2.02
X-1.9853 Y2.025
X-1.9799 Y2.0305
X-1.9748 Y2.0363
X-1.9703 Y2.0426
X-1.9175 Y2.0632
X-1.9116 Y2.0667
G3 X-1.9125 Y2.0924 I-0.008 J0.0126
G1 X-1.915 Y2.0938 Z-0.2347
X-1.9175 Y2.0951 Z-0.2339
X-1.9198 Y2.0963 Z-0.2325
X-1.9217 Y2.0974 Z-0.2306
X-1.9234 Y2.0983 Z-0.2284
X-1.9246 Y2.099 Z-0.2258
X-1.9253 Y2.0994 Z-0.223
X-1.9256 Y2.0995 Z-0.2201
G0 Z0.4
X-1.1176 Y2.2377
Z-0.2052
G1 Z-0.2201 F50.
X-1.1174 Y2.2374 Z-0.223
X-1.1169 Y2.2367 Z-0.2258
X-1.1161 Y2.2356 Z-0.2284
X-1.1151 Y2.2341 Z-0.2306
X-1.1138 Y2.2323 Z-0.2325
X-1.1123 Y2.2302 Z-0.2339
X-1.1107 Y2.2279 Z-0.2347
X-1.109 Y2.2255 Z-0.235
G3 X-1.0854 Y2.2055 I0.0509 J0.036
G1 X-1.077 Y2.2017 F60.
X-1.0585 Y2.1933
X-1.0499 Y2.1923
X-1.0413 Y2.1919
X-1.0327 Y2.1921
X-1.0242 Y2.193
X-1.0157 Y2.1944
X-1.0074 Y2.1965
X-0.9992 Y2.1992
X-0.9913 Y2.2024
X-0.9836 Y2.2062
X-0.9762 Y2.2106
X-0.9691 Y2.2155
X-0.9624 Y2.2209
X-0.9561 Y2.2267
X-0.9503 Y2.233
X-0.9449 Y2.2397
X-0.94 Y2.2468
X-0.9357 Y2.2542
X-0.9319 Y2.2619
X-0.9286 Y2.2699
X-0.926 Y2.2781
X-0.924 Y2.2864
X-0.9225 Y2.2949
X-0.9217 Y2.3034
X-0.9215 Y2.312
X-0.9219 Y2.3206
X-0.923 Y2.3291
X-0.9246 Y2.3376
G2 X-1.0399 Y2.3905 I1.528 J3.4816
G3 X-1.0547 Y2.3889 I-0.006 J-0.0136
X-1.061 Y2.3658 I0.0113 J-0.0155
X-0.953 Y2.327 I0.0722 J0.0314
X-0.9401 Y2.3353 I-0.0358 J0.0701 F50.
G2 X-0.9254 Y2.3374 I0.0092 J-0.0117
G1 X-0.9013 Y2.3268 F60.
G2 X-0.9314 Y2.1381 I-0.0826 J-0.0836
X-1.0585 Y2.1933 I0.3756 J1.0377
X-1.0667 Y2.2057 I0.0066 J0.0133
X-1.0117 Y2.2448 I0.0396 J0.0025
X-0.9431 Y2.1651 I-0.0459 J-0.1088
X-0.9403 Y2.15 I-0.1145 J-0.0291 F50.
G3 X-0.9314 Y2.1381 I0.0148 J0.0018
G1 X-0.9042 Y2.1275 F60.
X-0.8957 Y2.1271
X-0.8872 Y2.1272
X-0.8788 Y2.128
X-0.8704 Y2.1294
X-0.8621 Y2.1314
X-0.854 Y2.134
X-0.8461 Y2.1372
X-0.8385 Y2.1409
X-0.8311 Y2.1452
X-0.8241 Y2.15
X-0.8174 Y2.1553
X-0.8112 Y2.161
X-0.8054 Y2.1672
X-0.8 Y2.1738
X-0.7951 Y2.1808
X-0.7908 Y2.1881
X-0.787 Y2.1957
X-0.7837 Y2.2036
X-0.7811 Y2.2116
X-0.779 Y2.2199
X-0.7775 Y2.2283
X-0.7767 Y2.2367
X-0.7764 Y2.2452
X-0.7768 Y2.2537
X-0.7778 Y2.2622
X-0.7794 Y2.2705
X-0.7816 Y2.2787
G3 X-0.9013 Y2.3268 I-1.9651 J-4.7226
X-0.916 Y2.3242 I-0.0051 J-0.014
X-0.9196 Y2.3104 I0.008 J-0.0095
X-0.8096 Y2.268 I0.0738 J0.0275
X-0.7968 Y2.2764 I-0.0363 J0.0699 F50.
G2 X-0.782 Y2.2786 I0.0093 J-0.0116
G1 X-0.7627 Y2.2702 F60.
X-0.7434 Y2.2529
X-0.7392 Y2.2487
X-0.7368 Y2.2454
X-0.7363 Y2.2445
X-0.7264 Y2.2231
G2 X-0.726 Y2.1519 I-0.0963 J-0.0363
X-0.9006 Y2.1311 I-0.0953 J0.0571
G1 X-0.9026 Y2.1314
X-0.9045 Y2.132
X-0.9064 Y2.1331
X-0.9081 Y2.1345
X-0.9096 Y2.1363
X-0.9106 Y2.1384
X-0.9113 Y2.1408
X-0.9116 Y2.1433
X-0.9113 Y2.1458
X-0.9105 Y2.1484
X-0.9092 Y2.1508
X-0.9075 Y2.153
G2 X-0.9047 Y2.1547 I0.0091 J-0.0118
G1 X-0.7532 Y2.2265
X-0.7461 Y2.2299 F50.
G2 X-0.7264 Y2.2231 I0.0064 J-0.0135
G1 X-0.7166 Y2.2017 F60.
X-0.7232 Y2.1556
X-0.7263 Y2.152
G2 X-0.7518 Y2.1592 I-0.0109 J0.0102
G1 X-0.7676 Y2.2386
X-0.7679 Y2.2415
X-0.7676 Y2.2443
G2 X-0.7434 Y2.2529 I0.0146 J-0.0028 F50.
G1 X-0.7378 Y2.2479 F60.
X-0.7363 Y2.2445
G2 X-0.7383 Y2.2295 I-0.0137 J-0.0058
G1 X-0.7401 Y2.2272 Z-0.2347
X-0.7419 Y2.225 Z-0.2339
X-0.7435 Y2.223 Z-0.2325
X-0.7449 Y2.2212 Z-0.2306
X-0.746 Y2.2198 Z-0.2284
X-0.7469 Y2.2187 Z-0.2258
X-0.7474 Y2.218 Z-0.223
X-0.7476 Y2.2178 Z-0.2201
G0 Z0.4
X-0.5878 Y4.0705
Z0.1
G3 X-0.568 Y4.2106 Z0.0608 I0.0099 J0.0701 F50.
X-0.5878 Y4.0705 Z0.0216 I-0.0099 J-0.0701
X-0.568 Y4.2106 Z-0.0176 I0.0099 J0.0701
X-0.5878 Y4.0705 Z-0.0568 I-0.0099 J-0.0701
X-0.568 Y4.2106 Z-0.096 I0.0099 J0.0701
X-0.5878 Y4.0705 Z-0.1352 I-0.0099 J-0.0701
X-0.568 Y4.2106 Z-0.1744 I0.0099 J0.0701
X-0.5878 Y4.0705 Z-0.2136 I-0.0099 J-0.0701
X-0.5072 Y4.1405 Z-0.235 I0.0099 J0.0701
X-0.6487 I-0.0708 J0.
X-0.5072 I0.0708 J0.
G1 X-0.5023 Y4.146 F60.
X-0.4979 Y4.1518
X-0.494 Y4.158
X-0.4907 Y4.1645
X-0.4879 Y4.1712
X-0.4857 Y4.1782
X-0.4841 Y4.1853
X-0.4832 Y4.1925
X-0.4828 Y4.1998
X-0.4831 Y4.2071
X-0.484 Y4.2144
X-0.4856 Y4.2215
X-0.4877 Y4.2285
X-0.4904 Y4.2352
X-0.4937 Y4.2418
X-0.4976 Y4.248
X-0.5019 Y4.2538
X-0.5068 Y4.2593
X-0.5121 Y4.2643
X-0.5178 Y4.2688
X-0.5238 Y4.2729
X-0.5302 Y4.2764
X-0.5369 Y4.2793
X-0.5438 Y4.2817
X-0.5509 Y4.2835
G2 X-0.6458 Y4.1867 I-1.5861 J1.461
G1 X-0.6491 Y4.1798
X-0.6518 Y4.1726
X-0.654 Y4.1652
X-0.6555 Y4.1577
X-0.6565 Y4.1501
X-0.6568 Y4.1425
X-0.6565 Y4.1348
X-0.6556 Y4.1272
X-0.6541 Y4.1197
X-0.652 Y4.1123
X-0.6494 Y4.1051
X-0.6461 Y4.0982
X-0.6423 Y4.0915
X-0.638 Y4.0852
X-0.6332 Y4.0792
X-0.6279 Y4.0737
X-0.6222 Y4.0685
X-0.6162 Y4.0639
X-0.6097 Y4.0597
X-0.603 Y4.0561
X-0.5959 Y4.053
X-0.5887 Y4.0505
X-0.5813 Y4.0486
X-0.5737 Y4.0473
X-0.5661 Y4.0466
X-0.5584 Y4.0465
X-0.5508 Y4.047
X-0.5432 Y4.0482
X-0.5358 Y4.0499
X-0.5285 Y4.0522
X-0.5214 Y4.0551
X-0.5145 Y4.0586
X-0.508 Y4.0626
X-0.5018 Y4.0671
X-0.496 Y4.0721
X-0.4906 Y4.0775
X-0.4856 Y4.0834
X-0.4812 Y4.0896
X-0.4772 Y4.0962
X-0.4393 Y4.1215
G3 X-0.4089 Y4.2615 I-0.0953 J0.094
X-0.4364 Y4.2573 I-0.0129 J-0.0074
G1 X-0.4627 Y4.1367
X-0.463 Y4.1342
X-0.4629 Y4.1317
G3 X-0.4393 Y4.1215 I0.0148 J0.0019 F50.
X-0.4855 Y4.3104 I-0.0538 J0.0869 F60.
G1 X-0.5317 Y4.297
X-0.5513 Y4.2816
G3 X-0.547 Y4.2563 I0.0096 J-0.0114
G1 X-0.5442 Y4.2552 Z-0.2347
X-0.5416 Y4.2542 Z-0.2339
X-0.5392 Y4.2533 Z-0.2325
X-0.5371 Y4.2525 Z-0.2306
X-0.5354 Y4.2519 Z-0.2284
X-0.5341 Y4.2514 Z-0.2258
X-0.5333 Y4.2511 Z-0.223
X-0.533 Y4.251 Z-0.2201
G0 Z0.4
X0.8444 Y2.1317
Z0.1
G3 X0.8642 Y2.2718 Z0.0608 I0.0099 J0.0701 F50.
X0.8444 Y2.1317 Z0.0216 I-0.0099 J-0.0701
X0.8642 Y2.2718 Z-0.0176 I0.0099 J0.0701
X0.8444 Y2.1317 Z-0.0568 I-0.0099 J-0.0701
X0.8642 Y2.2718 Z-0.096 I0.0099 J0.0701
X0.8444 Y2.1317 Z-0.1352 I-0.0099 J-0.0701
X0.8642 Y2.2718 Z-0.1744 I0.0099 J0.0701
X0.8444 Y2.1317 Z-0.2136 I-0.0099 J-0.0701
X0.925 Y2.2017 Z-0.235 I0.0099 J0.0701
X0.7835 I-0.0708 J0.
X0.925 I0.0708 J0.
G1 X0.9298 Y2.2072 F60.
X0.9342 Y2.213
X0.938 Y2.2192
X0.9413 Y2.2257
X0.9441 Y2.2324
X0.9462 Y2.2394
X0.9478 Y2.2465
X0.9488 Y2.2537
X0.9491 Y2.261
X0.9489 Y2.2682
X0.948 Y2.2754
X0.9466 Y2.2826
X0.9445 Y2.2895
X0.9419 Y2.2963
X0.9387 Y2.3029
X0.9349 Y2.3091
X0.9307 Y2.315
X0.9259 Y2.3205
X0.9208 Y2.3256
X0.9152 Y2.3303
X0.9092 Y2.3345
X0.9029 Y2.3381
X0.8963 Y2.3412
X0.8895 Y2.3438
X0.8825 Y2.3457
X0.8754 Y2.3471
X0.8682 Y2.3479
X0.8609 Y2.348
G2 X0.7619 Y2.2699 I-0.1205 J0.0509
G1 X0.7373 Y2.2479
X0.7206 Y2.2121
G3 X0.8943 Y2.1313 I0.0971 J-0.0182
X1.0181 Y2.2375 I-0.0243 J0.1536
X0.8933 Y2.4313 I-0.1405 J0.0467
G1 X0.8609 Y2.3449
G3 X0.8637 Y2.3303 I0.0141 J-0.0049
X0.9123 Y2.3416 I0.0213 J0.0184
X0.9045 Y2.4003 I-0.0762 J0.0198
X0.8957 Y2.4128 I-0.0685 J-0.0389 F50.
G2 X0.8929 Y2.4275 I0.0113 J0.0097
G1 X0.8949 Y2.4325 F60.
X0.898 Y2.4411
G2 X1.0798 Y2.3986 I0.0787 J-0.0736
X1.0181 Y2.2375 I-2.6539 J0.9238
X1.0058 Y2.2291 I-0.0134 J0.0065
X0.9745 Y2.2538 I-0.0022 J0.0295
X1.0549 Y2.3857 I0.1165 J0.0194
X1.0698 Y2.3894 I0.036 J-0.1125 F50.
G3 X1.0812 Y2.399 I-0.0027 J0.0147
G1 X1.0919 Y2.4325 F60.
X1.0923 Y2.441
X1.0922 Y2.4495
X1.0914 Y2.4579
X1.09 Y2.4663
X1.0881 Y2.4745
X1.0856 Y2.4826
X1.0825 Y2.4905
X1.0789 Y2.4982
X1.0748 Y2.5056
X1.0702 Y2.5127
X1.065 Y2.5194
X1.0594 Y2.5258
X1.0534 Y2.5318
X1.047 Y2.5373
X1.0402 Y2.5424
X1.0331 Y2.547
X1.0256 Y2.551
X1.0179 Y2.5546
X1.01 Y2.5576
X1.0019 Y2.56
X0.9936 Y2.5619
X0.9853 Y2.5631
X0.9768 Y2.5638
X0.9683 Y2.5639
X0.9599 Y2.5634
X0.9515 Y2.5623
X0.9432 Y2.5607
X0.935 Y2.5584
G2 X0.898 Y2.4411 I-1.4249 J0.3853
G3 X0.9011 Y2.4265 I0.0142 J-0.0046
X0.9303 Y2.4235 I0.0162 J0.0147
X0.949 Y2.531 I-0.0466 J0.0635
X0.9393 Y2.5428 I-0.0653 J-0.044 F50.
G2 X0.9354 Y2.5572 I0.0105 J0.0106
G1 X0.9395 Y2.571 F60.
X0.9417 Y2.5783
G2 X1.1335 Y2.5702 I0.0934 J-0.0644
X1.0919 Y2.4325 I-7.0165 J2.045
X1.0805 Y2.4229 I-0.014 J0.005
X1.0328 Y2.4745 I-0.0074 J0.041
X1.1076 Y2.556 I0.1143 J-0.0298
X1.1223 Y2.5602 I0.0395 J-0.1113 F50.
G3 X1.1334 Y2.5701 I-0.0031 J0.0146
G1 X1.1336 Y2.571 F60.
X1.1413 Y2.6011
X1.1406 Y2.6096
X1.1393 Y2.6181
X1.1374 Y2.6264
X1.1349 Y2.6346
X1.1318 Y2.6426
X1.1281 Y2.6503
X1.1239 Y2.6578
X1.1191 Y2.6649
X1.1139 Y2.6717
X1.1082 Y2.6781
X1.102 Y2.684
X1.0955 Y2.6895
X1.0885 Y2.6945
X1.0812 Y2.699
X1.0737 Y2.703
X1.0658 Y2.7064
X1.0577 Y2.7092
X1.0495 Y2.7115
X1.041 Y2.7131
X1.0325 Y2.7142
X1.024 Y2.7146
X1.0154 Y2.7144
X1.0069 Y2.7136
X0.9985 Y2.7122
X0.9902 Y2.7101
X0.982 Y2.7075
X0.9741 Y2.7043
X0.965 Y2.6634
X0.9531 Y2.6172
X0.9417 Y2.5783
G3 X0.9457 Y2.564 I0.0144 J-0.0037
X0.9652 Y2.5613 I0.0116 J0.0118
X0.9897 Y2.6783 I-0.038 J0.069
X0.9792 Y2.6894 I-0.0624 J-0.048 F50.
G2 X0.9744 Y2.7035 I0.0098 J0.0112
G1 X0.9758 Y2.7095 F60.
X0.9797 Y2.7273
X0.9843 Y2.7344
X0.9894 Y2.7411
X0.9949 Y2.7474
X1.001 Y2.7534
X1.0074 Y2.7588
X1.0142 Y2.7638
X1.0214 Y2.7683
X1.0289 Y2.7722
X1.0366 Y2.7755
X1.0446 Y2.7783
X1.0527 Y2.7805
X1.061 Y2.7821
X1.0694 Y2.7831
X1.0778 Y2.7834
X1.0863 Y2.7832
X1.0947 Y2.7823
X1.103 Y2.7808
X1.1111 Y2.7787
X1.1191 Y2.776
X1.1269 Y2.7727
X1.1344 Y2.7688
X1.1416 Y2.7645
X1.1485 Y2.7595
X1.155 Y2.7542
X1.1611 Y2.7483
X1.1667 Y2.742
X1.1719 Y2.7353
G2 X1.1413 Y2.6011 I-2.9703 J0.6051
X1.1228 Y2.591 I-0.0143 J0.0042
X1.1104 Y2.605 I0.005 J0.017
X1.1496 Y2.7148 I0.1163 J0.0203
X1.1651 Y2.7261 I0.0771 J-0.0895 F50.
G3 X1.1718 Y2.7353 I-0.0078 J0.0127
G1 X1.176 Y2.7557 F60.
X1.1751 Y2.7788
G3 X1.0686 Y2.8644 I-0.1098 J-0.0275
X1.0626 Y2.8394 I0.0043 J-0.0143
G1 X1.0635 Y2.8386
X1.1508 Y2.7672
X1.1531 Y2.7656
G3 X1.1751 Y2.7788 I0.0071 J0.0131 F50.
X0.9971 Y2.8016 I-0.0906 J-0.0006 F60.
G1 X0.9797 Y2.7273
X0.9708 Y2.7267
X0.962 Y2.7256
X0.9532 Y2.7238
X0.9447 Y2.7214
X0.9362 Y2.7185
X0.9281 Y2.715
X0.9201 Y2.7109
X0.9125 Y2.7063
X0.9052 Y2.7012
X0.8983 Y2.6956
X0.8918 Y2.6895
X0.8857 Y2.683
X0.88 Y2.6761
X0.8749 Y2.6688
X0.8703 Y2.6612
X0.8662 Y2.6533
X0.8626 Y2.6451
X0.8596 Y2.6367
X0.8572 Y2.6282
X0.8554 Y2.6194
X0.8542 Y2.6106
X0.8537 Y2.6017
G2 X0.6897 Y2.333 I-0.461 J0.0969
G1 X0.6819 Y2.3255
X0.6745 Y2.3175
X0.6676 Y2.3092
X0.6612 Y2.3005
X0.6553 Y2.2914
X0.6499 Y2.282
X0.6451 Y2.2723
X0.6409 Y2.2623
X0.6372 Y2.2522
X0.6341 Y2.2418
X0.6316 Y2.2312
X0.6297 Y2.2206
X0.6284 Y2.2098
X0.6278 Y2.199
Y2.1882
X0.6284 Y2.1774
X0.6296 Y2.1666
X0.6314 Y2.1559
X0.6339 Y2.1454
X0.6369 Y2.135
X0.6406 Y2.1248
X0.6448 Y2.1148
X0.6496 Y2.1051
X0.6549 Y2.0957
X0.6608 Y2.0865
X0.6672 Y2.0778
X0.674 Y2.0694
X0.6814 Y2.0615
X0.6892 Y2.0539
X0.6974 Y2.0469
X0.706 Y2.0403
X0.7149 Y2.0342
X0.7242 Y2.0286
X0.7338 Y2.0236
X0.7437 Y2.0192
X0.7538 Y2.0153
X0.7641 Y2.012
X0.7746 Y2.0093
X0.7852 Y2.0072
X0.796 Y2.0058
X0.8068 Y2.0049
X0.8176 Y2.0047
X0.8284 Y2.0051
X0.8392 Y2.0061
X0.8499 Y2.0077
X0.8605 Y2.0099
X0.871 Y2.0128
X0.8812 Y2.0162
X0.8913 Y2.0203
X0.9011 Y2.0248
X0.9106 Y2.03
X0.9198 Y2.0357
X0.9287 Y2.0419
G3 X1.1544 Y2.3108 I-0.1197 J0.3296
X1.2749 Y2.8017 I-1.6646 J0.6688
X0.9083 Y2.8356 I-0.1884 J-0.0388
X0.7099 Y2.5001 I0.3714 J-0.4461
X0.5393 Y2.1294 I0.2081 J-0.3204
X1.0302 Y1.9845 I0.2914 J0.0833
G1 X1.0618 Y1.9943
X1.086 Y2.0131
X1.1021 Y2.0332
X1.1179 Y2.0537
X1.1331 Y2.0745
X1.1479 Y2.0956
X1.1621 Y2.1171
X1.1759 Y2.1389
X1.1892 Y2.1611
X1.2019 Y2.1835
X1.2142 Y2.2062
X1.2259 Y2.2292
X1.2371 Y2.2524
X1.2477 Y2.2759
X1.2579 Y2.2996
X1.2674 Y2.3236
X1.2764 Y2.3478
X1.2849 Y2.3722
X1.2928 Y2.3967
X1.3001 Y2.4215
X1.3069 Y2.4464
X1.313 Y2.4714
X1.3186 Y2.4966
X1.3339 Y2.8261
X1.3324 Y2.8386
X1.3303 Y2.8511
X1.3276 Y2.8634
X1.3243 Y2.8755
X1.3204 Y2.8875
X1.3159 Y2.8992
X1.3108 Y2.9107
X1.3052 Y2.922
X1.299 Y2.9329
X1.2923 Y2.9436
X1.285 Y2.9538
X1.2772 Y2.9637
X1.269 Y2.9732
X1.2603 Y2.9823
X1.2511 Y2.9909
X1.2415 Y2.9991
X1.2316 Y3.0068
X1.2212 Y3.014
X1.2105 Y3.0206
X1.1995 Y3.0267
X1.1882 Y3.0323
X1.1767 Y3.0372
X1.1649 Y3.0416
X1.1529 Y3.0454
X1.1407 Y3.0486
X1.1284 Y3.0512
X1.116 Y3.0532
X1.1035 Y3.0545
X1.0909 Y3.0553
X1.0783 Y3.0554
X1.0658 Y3.0548
X1.0532 Y3.0537
X1.0408 Y3.0519
X1.0284 Y3.0495
X1.0162 Y3.0465
X1.0041 Y3.0428
X0.9923 Y3.0386
X0.9807 Y3.0338
X0.9693 Y3.0284
X0.9582 Y3.0225
X0.9474 Y3.016
X0.937 Y3.009
X0.9269 Y3.0015
X0.9172 Y2.9935
X0.9079 Y2.985
X0.8991 Y2.976
X0.8907 Y2.9666
X0.8828 Y2.9569
G2 X0.5367 Y2.4212 I-0.8954 J0.1988
G3 X0.4645 Y2.329 I0.0753 J-0.1333
X0.491 Y2.3201 I0.0149 J0.0005
G1 X0.5559 Y2.4001
G3 X0.5591 Y2.4106 I-0.0116 J0.0094
X0.5361 Y2.422 I-0.0149 J-0.0011 F50.
X0.4663 Y2.3691 I0.0215 J-0.1009 F60.
G1 X0.4654 Y2.3638
X0.4645 Y2.3407
Y2.1096
G3 X0.6865 Y1.8395 I0.3194 J0.0363
X0.6985 Y1.8631 I0. J0.0149
G1 X0.4981 Y2.1403
G3 X0.4732 Y2.1392 I-0.0121 J-0.0087
X0.4645 Y2.1096 I0.0536 J-0.0318 F50.
G1 Y1.9477 F60.
G3 X0.5136 Y1.8395 I0.0904 J-0.0243
X0.5271 Y1.8595 I-0.0005 J0.0149
G1 X0.5261 Y1.8622
X0.4934 Y1.9523
G3 X0.487 Y1.96 I-0.014 J-0.0051
X0.4645 Y1.9477 I-0.0077 J-0.0128 F50.
G1 Y1.8589 F60.
X0.4669 Y1.847
X0.4672 Y1.8462
X0.4686 Y1.8441
G3 X0.4841 Y1.8395 I0.0132 J0.0158
G1 X0.9062
G3 X1.3035 Y2.158 I-0.0624 J0.485
G1 X1.3189 Y2.4965
G3 X1.3116 Y2.5095 I-0.0149 J0.0002
X1.2969 Y2.51 I-0.0078 J-0.0131
G1 X1.296 Y2.5095
G3 X1.2834 Y2.1793 I0.1006 J-0.1692
G1 X1.2962 Y2.1709 F50.
G2 X1.3035 Y2.158 I-0.0076 J-0.0128
G1 X1.2971 Y2.0171 F60.
G2 X1.1747 Y1.8395 I-0.268 J0.0538
G1 X0.9062
G2 X0.9008 Y1.8681 I0.0005 J0.0149
G1 X1.2752 Y2.0304
X1.2763 Y2.0309 F50.
G2 X1.2971 Y2.0171 I0.0059 J-0.0137
G1 X1.2909 Y1.8784 F60.
G2 X1.2795 Y1.8412 I-0.0233 J-0.0132
G1 X1.2706 Y1.8395
X1.2648
X1.1747
G2 X1.1718 Y1.8689 I0.0005 J0.0149
G1 X1.2687 Y1.8921
X1.2725 Y1.893 F50.
G2 X1.2909 Y1.8784 I0.0035 J-0.0145
X1.2795 Y1.8412 I-0.0172 J-0.015 F60.
X1.2654 Y1.8468 I-0.0023 J0.0147
G1 X1.2636 Y1.8491 Z-0.2347
X1.2619 Y1.8513 Z-0.2339
X1.2603 Y1.8533 Z-0.2325
X1.2589 Y1.8551 Z-0.2306
X1.2578 Y1.8566 Z-0.2284
X1.2569 Y1.8577 Z-0.2258
X1.2564 Y1.8584 Z-0.223
X1.2562 Y1.8586 Z-0.2201
G0 Z-0.2052
X1.3156 Y2.7845
G1 Z-0.2201 F50.
X1.3158 Y2.7847 Z-0.223
X1.3163 Y2.7854 Z-0.2258
X1.317 Y2.7866 Z-0.2284
X1.318 Y2.7881 Z-0.2306
X1.3193 Y2.79 Z-0.2325
X1.3207 Y2.7921 Z-0.2339
X1.3222 Y2.7945 Z-0.2347
X1.3238 Y2.7969 Z-0.235
G3 X1.3339 Y2.8261 I-0.0521 J0.0342
G1 X1.3402 Y2.9648 F60.
G3 X1.0077 Y3.1304 I-0.2337 J-0.0528
X0.8992 Y3.0942 I-0.0032 J-0.171
G1 X0.8987 Y3.0915
G2 X0.8811 Y2.9582 I-0.9089 J0.0521
G1 X0.8809 Y2.9556
X0.881 Y2.953
X0.8817 Y2.9505
X0.8827 Y2.9481
X0.8842 Y2.946
X0.886 Y2.9441
G3 X0.9093 Y2.9421 I0.013 J0.0151
X0.9192 Y3.0702 I-0.0404 J0.0676
X0.9065 Y3.0788 I-0.0503 J-0.0606 F50.
G2 X0.8987 Y3.0915 I0.0071 J0.0131
G1 X0.899 Y3.1267 F60.
G2 X1.1856 Y3.2229 I0.1867 J-0.0812
X1.3484 Y3.1462 I-0.0025 J-0.2165
G1 X1.3402 Y2.9648
G2 X1.3317 Y2.9526 I-0.0149 J0.0012
X1.2907 Y2.9645 I-0.0138 J0.029
X1.3266 Y3.1264 I0.1001 J0.0627
X1.34 Y3.1339 I0.0642 J-0.0992 F50.
G3 X1.3484 Y3.1462 I-0.0064 J0.0135
G1 X1.3502 Y3.1856 F60.
G3 X1.0604 Y3.3282 I-0.2123 J-0.0658
X0.8901 Y3.2725 I-0.0354 J-0.1802
G2 X0.899 Y3.1267 I-0.5555 J-0.1074
G3 X0.9247 Y3.1168 I0.0149 J0.0004
X0.9451 Y3.1698 I-0.054 J0.0512
X0.9107 Y3.2503 I-0.1181 J-0.0029
X0.8961 Y3.2628 I-0.0836 J-0.0834 F50.
G2 X0.8901 Y3.2725 I0.0087 J0.0121
G1 X0.888 Y3.2885 F60.
X0.8866 Y3.3012
G2 X0.8904 Y3.3288 I0.0263 J0.0104
G1 X0.8923 Y3.3302
X0.8989 Y3.3347
X1.0214 Y3.404
X1.0343 Y3.4092
X1.0473 Y3.4138
X1.0605 Y3.4179
X1.0739 Y3.4213
X1.0875 Y3.4242
X1.1011 Y3.4265
X1.1148 Y3.4282
X1.1286 Y3.4294
X1.1424 Y3.4299
X1.1563 Y3.4298
X1.1701 Y3.4292
X1.1839 Y3.4279
X1.1976 Y3.4261
X1.2112 Y3.4237
X1.2247 Y3.4207
X1.2381 Y3.4171
X1.2513 Y3.4129
X1.2643 Y3.4082
X1.2771 Y3.403
X1.2896 Y3.3971
X1.3019 Y3.3908
X1.3139 Y3.3839
X1.3256 Y3.3765
X1.337 Y3.3687
X1.348 Y3.3603
X1.3587 Y3.3515
X1.3502 Y3.1856
G2 X1.3417 Y3.1733 I-0.0149 J0.0012
X1.2868 Y3.1978 I-0.017 J0.0357
X1.3358 Y3.3306 I0.1132 J0.0336
X1.3492 Y3.3381 I0.0642 J-0.0992 F50.
G3 X1.3577 Y3.3503 I-0.0064 J0.0135
G1 X1.3594 Y3.3879 F60.
G3 X1.2167 Y3.5146 I-0.1554 J-0.0314
G1 X1.0214 Y3.404
G3 X1.0148 Y3.3964 I0.0073 J-0.013
G2 X1.0128 Y3.3927 I-0.0139 J0.0053
G1 X1.0029 Y3.3796
X0.9224 Y3.2727
G2 X0.9105 Y3.2668 I-0.0119 J0.009
X0.8986 Y3.2727 I0. J0.0149
X0.8866 Y3.3012 I0.0496 J0.0377 F50.
G1 X0.8854 Y3.3116 F60.
X0.885 Y3.321
X0.8852 Y3.3217
X0.8859 Y3.324
X0.8873 Y3.3262
X0.8878 Y3.3267
X0.8904 Y3.3288
G2 X0.9125 Y3.3094 I0.0093 J-0.0117
G3 X0.9275 Y3.287 I0.0128 J-0.0077
G1 X1.3392 Y3.3521
G3 X1.3493 Y3.3587 I-0.0023 J0.0147
X1.3594 Y3.3879 I-0.0521 J0.0342 F50.
G1 X1.3633 Y3.4734 F60.
G3 X1.3093 Y3.5685 I-0.1021 J0.0049
G1 X1.3067 Y3.5668
X1.3045 Y3.5647
X1.3027 Y3.5622
X1.3015 Y3.5594
X1.3008 Y3.5565
X1.3007 Y3.5536
X1.3012 Y3.5507
X1.3022 Y3.548
X1.3059 Y3.5388
G3 X1.3402 Y3.4622 I0.1093 J0.0028
X1.3633 Y3.4734 I0.0082 J0.0124 F50.
G1 X1.3675 Y3.5659 F60.
X1.3678 Y3.5738
X1.3664 Y3.5846
X1.3662 Y3.5854
X1.365 Y3.5876
X1.3647 Y3.5881
X1.3628 Y3.5898
X1.3624 Y3.5901
X1.3597 Y3.5911
G3 X1.2167 Y3.5146 I0.0679 J-0.2987
X1.2171 Y3.4889 I0.0078 J-0.0127
G1 X1.2197 Y3.4875 Z-0.2347
X1.2221 Y3.4861 Z-0.2339
X1.2243 Y3.4848 Z-0.2325
X1.2263 Y3.4837 Z-0.2306
X1.2279 Y3.4828 Z-0.2284
X1.2291 Y3.4821 Z-0.2258
X1.2298 Y3.4817 Z-0.223
X1.2301 Y3.4816 Z-0.2201
G0 Z0.4
X-4.2308 Y0.1069
Z-0.2052
G1 Z-0.2201 F50.
X-4.231 Z-0.223
X-4.2319 Y0.1071 Z-0.2258
X-4.2332 Y0.1074 Z-0.2284
X-4.235 Y0.1077 Z-0.2306
X-4.2373 Y0.1082 Z-0.2325
X-4.2398 Y0.1087 Z-0.2339
X-4.2425 Y0.1092 Z-0.2347
X-4.2454 Y0.1098 Z-0.235
G3 X-4.327 Y0.1173 I-0.0755 J-0.3728
X-4.551 Y-0.1229 I0.1159 J-0.3326 F60.
G1 X-4.5719 Y-0.1475
X-4.5933 Y-0.1718
X-4.6152 Y-0.1957
X-4.6374 Y-0.2192
X-4.6601 Y-0.2423
X-4.6832 Y-0.2649
X-4.7066 Y-0.2872
X-4.7305 Y-0.3091
X-4.7548 Y-0.3305
X-4.7794 Y-0.3515
X-4.8044 Y-0.372
X-4.8298 Y-0.3921
X-4.8555 Y-0.4118
X-4.8815 Y-0.4309
X-4.9079 Y-0.4496
G3 X-4.6046 Y-0.6879 I0.1611 J-0.1071
X-4.2067 Y-0.2761 I-0.4352 J0.8186
G2 X-4.0386 Y-0.0421 I1.4185 J-0.8418
G1 X-3.8607 Y0.0147
X-3.6826 Y0.071
X-3.5044 Y0.1267
X-3.3259 Y0.1819
X-3.1474 Y0.2365
X-2.9686 Y0.2906
X-2.7897 Y0.3441
X-2.6106 Y0.397
X-2.4313 Y0.4494
G3 X-1.9739 Y0.6081 I-0.5302 J2.2664
X-2.2059 Y0.9135 I-0.1414 J0.1333
X-3.1159 Y0.6464 I5.2536 J-19.582
G1 X-3.3138 Y0.5882
X-3.5117 Y0.5296
X-3.7094 Y0.4706
X-3.907 Y0.4112
X-4.1044 Y0.3514
G2 X-4.4503 Y0.5945 I0.4713 J1.0379
G3 X-4.7602 Y0.7653 I-0.5588 J-0.6475
X-4.907 Y0.7143 I-0.0168 J-0.1884
X-4.831 Y0.3947 I0.141 J-0.1353
G2 X-4.5297 Y0.1569 I-11.0566 J-14.319
X-4.9496 Y-0.3458 I-0.8786 J0.3071
G3 X-4.9963 Y-0.4253 I0.2624 J-0.2077
G1 X-5.0044 Y-0.4563
X-5.0126 Y-0.4794
X-5.016 Y-0.4885
G3 X-4.8221 Y-0.8344 I0.2533 J-0.0853
G1 X-4.7615 Y-0.8389
G3 X-4.2788 Y-0.5489 I-0.1029 J0.7181
X-3.9994 Y-0.1487 I-2.9414 J2.351
G2 X-3.1298 Y0.1364 I2.1383 J-5.0548
G1 X-2.1282 Y0.437
X-1.9392 Y0.5448
G3 X-1.8395 Y0.6722 I-0.0981 J0.1795
X-1.866 Y0.6811 I-0.0149 J-0.0005
G1 X-1.9577 Y0.5673
X-1.9595 Y0.5646
X-1.9606 Y0.5615
X-1.961 Y0.5583
G3 X-1.9392 Y0.5448 I0.0149 J-0.0003 F50.
G1 X-1.8517 Y0.5947 F60.
G3 X-1.8395 Y0.6157 I-0.0086 J0.0191
G1 Y0.7919
X-1.8407 Y0.804
X-1.8425 Y0.8159
X-1.8449 Y0.8278
X-1.8479 Y0.8395
X-1.8514 Y0.8511
X-1.8554 Y0.8625
X-1.8601 Y0.8736
X-1.8652 Y0.8846
X-1.8709 Y0.8953
X-1.8771 Y0.9057
X-1.8837 Y0.9157
X-1.8909 Y0.9255
X-1.8985 Y0.9349
X-1.9066 Y0.9439
X-1.9151 Y0.9525
X-1.924 Y0.9607
X-1.9332 Y0.9684
X-1.9429 Y0.9757
X-1.9529 Y0.9825
X-1.9632 Y0.9889
X-1.9738 Y0.9947
X-1.9846 Y1.
X-1.9957 Y1.0047
X-2.0071 Y1.009
X-2.0186 Y1.0126
X-2.0303 Y1.0158
X-2.033 Y1.0152
X-2.0356 Y1.0142
X-2.038 Y1.0127
X-2.04 Y1.0108
X-2.0416 Y1.0085
X-2.0428 Y1.006
X-2.0435 Y1.0032
X-2.0436 Y1.0004
X-2.0433 Y0.9977
X-2.0424 Y0.995
X-2.041 Y0.9926
G3 X-2.0402 Y0.9915 I0.0123 J0.0085
G1 X-1.8658 Y0.7829
X-1.8641 Y0.7811
X-1.862 Y0.7797
G3 X-1.8395 Y0.7919 I0.0077 J0.0128 F50.
G1 Y0.9434 F60.
G3 X-1.8773 Y1.0258 I-0.0988 J0.0046
X-1.89 Y1.0064 I0.0015 J-0.0148
G1 X-1.8887 Y1.0022
X-1.8686 Y0.9393
G3 X-1.862 Y0.9311 I0.0142 J0.0045
X-1.8395 Y0.9434 I0.0077 J0.0128 F50.
X-1.8431 Y1.0231 I-0.0783 J0.0364 F60.
G1 X-1.8449 Y1.0247
X-1.8474 Y1.0259
X-1.8481 Y1.026
X-1.8582 Y1.027
X-2.2399 Y1.0023
G3 X-2.8578 Y0.8302 I1.3769 J-6.1396
G1 X-3.0919 Y0.7598
X-3.2237 Y0.7202
X-3.3555 Y0.6808
X-3.5604 Y0.6192
X-3.6482 Y0.5928
X-3.7068 Y0.5753
X-3.7653 Y0.5578
X-3.9995 Y0.4875
G2 X-4.1322 Y0.4797 I-0.0738 J0.123
G3 X-4.6778 Y0.8443 I-2.2136 J-2.7213
G1 X-4.8541 Y0.8329
G3 X-5.0562 Y0.5981 I0.0419 J-0.2405
X-5.0311 Y0.5936 I0.0139 J0.0053
G1 X-5.0309 Y0.5938
X-4.8424 Y0.8082
X-4.8413 Y0.8096
X-4.8404 Y0.8112
G3 X-4.8541 Y0.8329 I-0.0133 J0.0068 F50.
G1 X-4.8643 Y0.835 F60.
X-4.8747 Y0.8364
X-4.8852 Y0.8372
X-4.8956 Y0.8374
X-4.9061 Y0.8369
X-4.9165 Y0.8359
X-4.9269 Y0.8342
X-4.9371 Y0.8319
X-4.9472 Y0.8291
X-4.9571 Y0.8256
X-4.9667 Y0.8215
X-4.9762 Y0.8169
X-4.9853 Y0.8118
X-4.9941 Y0.8061
X-5.0025 Y0.7999
X-5.0106 Y0.7932
X-5.0183 Y0.7861
X-5.0255 Y0.7785
X-5.0323 Y0.7705
X-5.0386 Y0.7621
X-5.0443 Y0.7534
X-5.0496 Y0.7443
X-5.0543 Y0.735
X-5.0585 Y0.7254
X-5.062 Y0.7155
X-5.065 Y0.7055
X-5.0674 Y0.6953
X-5.0692 Y0.685
X-5.0704 Y0.6746
X-5.0709 Y0.6641
Y0.6536
X-5.0702 Y0.6432
X-5.0689 Y0.6328
X-5.067 Y0.6225
X-5.0645 Y0.6123
X-5.0614 Y0.6023
X-5.0577 Y0.5925
X-5.0534 Y0.5829
X-5.0085 Y0.4683
X-5.0015 Y0.4452
G3 X-4.7087 Y0.1718 I0.727 J0.4852
G2 X-4.7328 Y-0.0002 I-0.0762 J-0.077
X-4.9544 Y-0.2324 I-0.7663 J0.5094
G1 X-4.9639 Y-0.2945
X-4.9684 Y-0.3176
X-4.9963 Y-0.4253
G3 X-4.9919 Y-0.4395 I0.0145 J-0.0032
X-4.9603 Y-0.4431 I0.0182 J0.0198
X-4.9368 Y-0.256 I-0.0589 J0.1024
X-4.9485 Y-0.2461 I-0.0824 J-0.0847 F50.
G2 X-4.9544 Y-0.2324 I0.0089 J0.0119
G1 X-4.9462 Y-0.1789 F60.
X-4.9427 Y-0.1558
G2 X-4.8058 Y0.0657 I2.2603 J-1.2448
G3 X-4.952 Y0.2302 I-0.3185 J-0.1359
G1 X-4.9533 Y0.2316
X-4.9543 Y0.2332
X-4.9548 Y0.235
X-4.9658 Y0.3065
X-4.9697 Y0.3229
X-5.0015 Y0.4452
G2 X-4.997 Y0.4594 I0.0145 J0.0032
X-4.8995 Y0.4394 I0.0415 J-0.0452
X-4.9371 Y0.2585 I-0.1436 J-0.0646
X-4.9489 Y0.2487 I-0.1061 J0.1164 F50.
G3 X-4.9548 Y0.235 I0.0089 J-0.0119
G1 X-4.9445 Y0.1678 F60.
X-4.9431 Y0.1551
G2 X-4.938 Y0.0665 I-0.1633 J-0.0538
G3 X-4.9083 Y0.0686 I0.0148 J0.0013
G1 X-4.9134 Y0.157
G3 X-4.922 Y0.1697 I-0.0149 J-0.0009
X-4.9431 Y0.1551 I-0.0063 J-0.0135 F50.
G2 X-4.9427 Y-0.1558 I-1.6128 J-0.1575 F60.
G3 X-4.9398 Y-0.1655 I0.0149 J-0.0009
G2 X-4.9374 Y-0.1709 I-0.012 J-0.0088
G1 X-4.9339 Y-0.1851
X-4.7843 Y-0.8115
G2 X-4.7921 Y-0.8282 I-0.0145 J-0.0035
X-4.8222 Y-0.835 I-0.0283 J0.0555 F50.
X-5.0477 Y-0.7525 I-0.0467 J0.2218 F60.
X-5.0548 Y-0.5954 I0.1398 J0.085
G1 X-5.016 Y-0.4885
G2 X-5.0042 Y-0.4794 I0.0138 J-0.0057
G1 X-5.0013 Y-0.4805
X-4.9933 Y-0.4896
G2 X-4.78 Y-0.8163 I-1.0357 J-0.9089
G1 X-4.7736 Y-0.8302 F50.
G3 X-4.7615 Y-0.8389 I0.0136 J0.0061
G1 X-4.5533 Y-0.8524 F60.
G3 X-4.1449 Y-0.5466 I-0.2055 J0.7003
G2 X-3.8977 Y-0.2019 I2.3069 J-1.3927
X-3.4256 Y-0.0569 I5.935 J-18.478
G1 X-3.1915 Y0.0135
X-3.045 Y0.0573
X-2.8987 Y0.1013
X-2.7066 Y0.1588
X-2.5146 Y0.2166
X-2.514 Y0.2169
X-2.1282 Y0.437
G3 X-2.1211 Y0.4501 I-0.0078 J0.0127
X-2.1659 Y0.5055 I-0.0588 J-0.0017
X-2.507 Y0.2453 I-0.0655 J-0.2677
G1 Y0.23 F50.
G2 X-2.514 Y0.2169 I-0.0149 J-0.0004
G1 X-2.8414 Y0.0301 F60.
G2 X-3.1289 Y-0.0721 I-0.7202 J1.5713
G1 X-3.4509 Y-0.1689
G3 X-3.8537 Y-0.3094 I0.4206 J-1.853
G2 X-4.1632 Y-0.7267 I-7.3033 J5.0939
G1 X-4.3914 Y-0.8541
G2 X-4.4377 Y-0.8599 I-0.0292 J0.0453
G1 X-4.5533 Y-0.8524
G2 X-4.5654 Y-0.8437 I0.0015 J0.0148
X-4.5639 Y-0.8166 I0.0267 J0.0121
X-4.1933 Y-0.7167 I0.2368 J-0.141
G1 X-4.1801 Y-0.7245 F50.
G3 X-4.1652 Y-0.7251 I0.0079 J0.0126
G1 X-3.9777 Y-0.6181 F60.
X-3.8735 Y-0.5008
X-3.7693 Y-0.3833
G2 X-3.2859 Y-0.2237 I1.5274 J-3.8149
G1 X-2.8414 Y0.0301
G3 X-2.8344 Y0.0432 I-0.0078 J0.0127
X-2.8809 Y0.1024 I-0.0632 J-0.0018
X-3.279 Y-0.1951 I-0.0832 J-0.3038
G1 X-3.2789 Y-0.2104 F50.
G2 X-3.286 Y-0.2235 I-0.0149 J-0.0004
G1 X-3.9777 Y-0.6181 F60.
G2 X-3.9929 Y-0.6174 I-0.0069 J0.0132
G1 X-3.9953 Y-0.6158 Z-0.2347
X-3.9976 Y-0.6142 Z-0.2339
X-3.9998 Y-0.6128 Z-0.2325
X-4.0017 Y-0.6116 Z-0.2306
X-4.0032 Y-0.6106 Z-0.2284
X-4.0044 Y-0.6098 Z-0.2258
X-4.0051 Y-0.6093 Z-0.223
X-4.0053 Y-0.6092 Z-0.2201
G0 Z0.4
X-4.7191 Y0.8253
Z-0.2052
G1 Z-0.2201 F50.
X-4.7189 Y0.8255 Z-0.223
X-4.7182 Y0.8259 Z-0.2258
X-4.717 Y0.8267 Z-0.2284
X-4.7155 Y0.8278 Z-0.2306
X-4.7137 Y0.8291 Z-0.2325
X-4.7115 Y0.8305 Z-0.2339
X-4.7092 Y0.8321 Z-0.2347
X-4.7068 Y0.8337 Z-0.235
G2 X-4.6778 Y0.8443 I0.0352 J-0.0514
G1 X-4.5533 Y0.8524 F60.
G2 X-4.2576 Y0.691 I-0.1461 J-0.619
G1 X-4.2494 Y0.6811
X-4.2407 Y0.6717
X-4.2316 Y0.6627
X-4.222 Y0.6541
X-4.2121 Y0.646
X-4.2018 Y0.6383
X-4.1912 Y0.6311
X-4.1803 Y0.6244
X-4.169 Y0.6182
X-4.1575 Y0.6126
X-4.1457 Y0.6075
X-4.1338 Y0.6029
X-4.1216 Y0.5989
X-4.1092 Y0.5954
X-4.0967 Y0.5925
X-4.0841 Y0.5902
X-4.0714 Y0.5885
X-4.0586 Y0.5874
X-4.0458 Y0.5869
X-4.033
X-4.0201 Y0.5876
X-4.0074 Y0.5888
X-3.9947 Y0.5906
X-3.9821 Y0.593
X-3.9696 Y0.596
X-3.9573 Y0.5996
X-3.9451 Y0.6037
X-3.9332 Y0.6084
X-3.9215 Y0.6136
X-3.91 Y0.6193
X-3.8988 Y0.6256
X-3.8879 Y0.6324
X-3.855 Y0.6355
X-3.7378 Y0.6704
X-3.65 Y0.6967
X-3.3865 Y0.7759
X-3.3279 Y0.7935
X-3.2108 Y0.8285
X-2.9181 Y0.9165
G2 X-2.7384 Y0.97 I0.3271 J-0.7702
G1 X-2.2399 Y1.0023
G2 X-2.2268 Y0.9952 I0.0004 J-0.0149
X-2.2383 Y0.9026 I-0.0633 J-0.0392
X-2.7169 Y0.9501 I-0.2192 J0.2261
G1 X-2.7253 Y0.9629 F50.
G3 X-2.7384 Y0.97 I-0.0127 J-0.0078
G1 X-3.119 Y0.9453 F60.
G3 X-3.4445 Y0.8629 I0.3313 J-1.9911
G1 X-3.7079 Y0.7837
G2 X-4.0618 Y0.6921 I-0.6111 J1.6316
X-4.3338 Y0.8662 I4.263 J6.9605
G1 X-4.5533 Y0.8524
G3 X-4.5654 Y0.8437 I0.0015 J-0.0148
X-4.5317 Y0.7713 I0.048 J-0.0217
X-4.3526 Y0.8443 I0.0427 J0.1516
X-4.3456 Y0.858 I-0.1365 J0.0786 F50.
G2 X-4.3335 Y0.8666 I0.0136 J-0.0061
G1 X-4.2399 Y0.8727 F60.
G3 X-4.0211 Y0.8057 I1.2564 J3.7085
X-3.6265 Y0.9128 I-0.7206 J3.4346
G1 X-3.119 Y0.9453
G2 X-3.1059 Y0.9383 I0.0004 J-0.0149
X-3.1135 Y0.8582 I-0.0566 J-0.0351
X-3.6048 Y0.8926 I-0.232 J0.2131
G1 X-3.6132 Y0.9054 F50.
G3 X-3.6263 Y0.9125 I-0.0127 J-0.0078
G1 X-4.2399 Y0.8727 F60.
G3 X-4.2521 Y0.8636 I0.0015 J-0.0148
G1 X-4.2527 Y0.8607 Z-0.2347
X-4.2533 Y0.8579 Z-0.2338
X-4.2527 Y0.8553 Z-0.2323
X-4.2522 Y0.8531 Z-0.2303
X-4.2517 Y0.8513 Z-0.2279
X-4.2511 Y0.8503 Z-0.2254
X-4.2508 Y0.8496 Z-0.2228
X-4.2506 Y0.8494 Z-0.2201
G0 Z0.4
X-1.5251 Y2.3891
Z-0.2052
G1 Z-0.2201 F50.
X-1.5252 Y2.3888 Z-0.223
X-1.5254 Y2.388 Z-0.2258
X-1.5258 Y2.3867 Z-0.2284
X-1.5262 Y2.3849 Z-0.2306
X-1.5268 Y2.3827 Z-0.2325
X-1.5274 Y2.3802 Z-0.2339
X-1.5281 Y2.3775 Z-0.2347
X-1.5288 Y2.3747 Z-0.235
G3 X-1.5405 Y2.2935 I0.3685 J-0.0944
G1 X-1.5357 Y2.2851 F60.
X-1.5305 Y2.277
X-1.5247 Y2.2691
X-1.5185 Y2.2617
X-1.5119 Y2.2546
X-1.5049 Y2.2479
X-1.4975 Y2.2417
X-1.4897 Y2.2359
X-1.4816 Y2.2306
X-1.4732 Y2.2258
X-1.4645 Y2.2215
X-1.4555 Y2.2177
X-1.4464 Y2.2144
X-1.4371 Y2.2117
X-1.4276 Y2.2096
X-1.4181 Y2.208
X-1.4084 Y2.207
X-1.3987 Y2.2066
X-1.3891 Y2.2068
X-1.3794 Y2.2075
X-1.3698 Y2.2088
X-1.3603 Y2.2107
X-1.2341 Y2.1582
X-1.1078 Y2.1061
X-0.9813 Y2.0544
X-0.8546 Y2.0032
G3 X-0.6328 Y2.1595 I0.0328 J0.189
X-0.7891 Y2.3813 I-0.189 J0.0328
X-1.2635 Y2.5916 I-1.4972 J-2.7369
G1 X-1.2968 Y2.5857
X-1.3273 Y2.5876
X-1.3579 Y2.5891
X-1.3762 Y2.5919
X-1.3945 Y2.594
X-1.413 Y2.5954
X-1.4314 Y2.5963
X-1.4499 Y2.5965
X-1.4684 Y2.5961
X-1.4869 Y2.595
X-1.5053 Y2.5934
X-1.5237 Y2.5911
X-1.5419 Y2.5882
X-1.5601 Y2.5847
X-1.5781 Y2.5805
X-1.596 Y2.5758
X-1.6137 Y2.5705
X-1.6312 Y2.5645
X-1.6485 Y2.558
X-1.6655 Y2.5509
X-1.6824 Y2.5432
X-1.6989 Y2.5349
X-1.7152 Y2.5261
X-1.7311 Y2.5168
X-1.7467 Y2.5069
X-1.762 Y2.4965
X-1.7769 Y2.4855
X-1.7915 Y2.4741
X-1.8056 Y2.4622
X-1.8193 Y2.4498
X-1.8326 Y2.437
G3 X-2.2246 Y2.1862 I0.5007 J-1.2145
X-1.8984 Y1.9721 I0.1822 J-0.0779
X-1.5867 Y2.1395 I-1.339 J2.868
G1 X-1.5561 Y2.1399
X-1.5261 Y2.1343
X-1.4962 Y2.1276
G2 X-0.9849 Y1.9368 I-0.2839 J-1.5412
G3 X-0.5917 Y2.0209 I0.1406 J0.3039
X-0.7675 Y2.4763 I-0.235 J0.1709
X-1.1543 Y2.663 I-1.6031 J-2.8281
X-1.8049 Y2.5904 I-0.2384 J-0.816
G2 X-2.2036 Y2.3426 I-2.6874 J3.8775
G1 X-2.2168 Y2.3144
X-2.2284 Y2.2945
X-2.2978 Y2.1905
X-2.3033 Y2.1795
X-2.3081 Y2.1683
X-2.3125 Y2.1569
X-2.3162 Y2.1453
X-2.3194 Y2.1335
X-2.322 Y2.1215
X-2.3241 Y2.1095
X-2.3255 Y2.0973
X-2.3263 Y2.0852
X-2.3265 Y2.0729
X-2.3261 Y2.0607
X-2.3251 Y2.0485
X-2.3235 Y2.0364
X-2.3214 Y2.0244
X-2.3186 Y2.0125
X-2.3152 Y2.0008
X-2.3113 Y1.9892
X-2.3068 Y1.9778
X-2.3018 Y1.9667
X-2.2962 Y1.9558
X-2.2901 Y1.9453
X-2.2835 Y1.935
X-2.2763 Y1.9251
X-2.2687 Y1.9155
X-2.2607 Y1.9063
X-2.2521 Y1.8976
X-2.2432 Y1.8892
X-2.2339 Y1.8813
X-2.2242 Y1.8739
X-2.2141 Y1.867
X-2.2037 Y1.8606
X-2.193 Y1.8547
X-2.182 Y1.8493
X-2.1708 Y1.8445
X-2.1594 Y1.8402
X-1.9855 Y1.8395
G3 X-1.5785 Y2.0253 I-0.4165 J1.451
G2 X-1.0627 Y1.8594 I-0.0444 J-1.0231
G3 X-0.9804 Y1.8395 I0.1592 J0.4778
G1 X-0.7362
G3 X-0.4645 Y2.0534 I-0.0391 J0.3293
X-0.4879 Y2.0656 I-0.0149 J0.
G1 X-0.7668 Y1.8733
G3 X-0.7659 Y1.8482 I0.0085 J-0.0123
X-0.7362 Y1.8395 I0.0318 J0.0536 F50.
G1 X-0.5743 F60.
G3 X-0.4636 Y1.8871 I0.0007 J0.151
G1 X-0.4639 Y1.8901
X-0.4648 Y1.893
X-0.4662 Y1.8957
X-0.4681 Y1.898
X-0.4704 Y1.8999
X-0.473 Y1.9013
X-0.4758 Y1.9022
X-0.4787 Y1.9025
X-0.4815 Y1.9023
X-0.4843 Y1.9015
X-0.4872 Y1.9005
X-0.5787 Y1.8685
G3 X-0.5866 Y1.862 I0.0049 J-0.0141
X-0.5743 Y1.8395 I0.0128 J-0.0077 F50.
X-0.4713 Y1.8421 I0.0452 J0.248 F60.
G1 X-0.4692 Y1.8435
X-0.4687 Y1.8439
X-0.4671 Y1.8464
X-0.4668 Y1.8471
X-0.4645 Y1.8589
Y2.2714
G3 X-0.506 Y2.4005 I-0.2123 J0.003
X-0.5284 Y2.3837 I-0.0081 J-0.0125
G1 X-0.4937 Y2.2676
G3 X-0.487 Y2.2591 I0.0143 J0.0043
X-0.4645 Y2.2714 I0.0077 J0.0128 F50.
X-0.4678 Y2.3718 I-0.1066 J0.0468 F60.
X-0.6437 Y2.514 I-4.1978 J-5.0134
X-1.6205 Y2.7828 I-0.8224 J-1.079
X-2.1096 Y2.5121 I1.36 J-3.0342
G1 X-2.1257 Y2.4794
X-2.1369 Y2.4563
X-2.2023 Y2.3402
G3 X-2.2016 Y2.3254 I0.0132 J-0.0069
X-2.1705 Y2.3136 I0.0235 J0.015
X-2.0999 Y2.4853 I-0.0322 J0.1136
X-2.1083 Y2.4981 I-0.1028 J-0.0581 F50.
G2 X-2.1101 Y2.5129 I0.0119 J0.0089
G1 X-2.0664 Y2.6065 F60.
G2 X-1.217 Y2.865 I0.6278 J-0.5383
X-0.7912 Y2.714 I-0.1449 J-1.0849
G3 X-0.6547 Y2.5256 I0.8073 J0.441
G1 X-0.6437 Y2.514
G2 X-0.645 Y2.493 I-0.0112 J-0.0099
X-0.6588 Y2.4885 I-0.0121 J0.0137
X-0.7968 Y2.6844 I0.0145 J0.1568
X-0.7909 Y2.7026 I0.1526 J-0.0391 F50.
G3 X-0.7912 Y2.714 I-0.0139 J0.0054
G1 X-0.8288 Y2.7924 F60.
G3 X-1.0439 Y2.9344 I-0.3256 J-0.2593
X-1.0525 Y2.9071 I-0.0004 J-0.0149
G1 X-0.8506 Y2.774
X-0.8485 Y2.7728
X-0.8462 Y2.772
X-0.8438 Y2.7716
G3 X-0.8288 Y2.7924 I0.0014 J0.0148 F50.
X-0.8779 Y2.9219 I-0.3278 J-0.0504 F60.
G1 X-0.8787 Y2.9222
X-0.8866 Y2.924
X-0.8982 Y2.9249
X-1.5691 Y2.9686
G3 X-1.9863 Y2.8157 I0.0481 J-0.7768
G2 X-2.0664 Y2.6065 I-1.4279 J0.427
G3 X-2.0471 Y2.5869 I0.0137 J-0.0058
X-2.0372 Y2.5919 I-0.0234 J0.0579
X-1.9762 Y2.7872 I-0.0837 J0.1334
X-1.9848 Y2.8044 I-0.1448 J-0.0619 F50.
G2 X-1.9863 Y2.8157 I0.0129 J0.0075
G1 X-1.9832 Y2.8261 F60.
X-1.9628 Y2.8955
G2 X-1.8723 Y2.9888 I0.1672 J-0.0717
G1 X-1.5691 Y2.9686
G2 X-1.5668 Y2.9394 I-0.0015 J-0.0148
G1 X-1.9451 Y2.8537
G2 X-1.9628 Y2.8646 I-0.0033 J0.0145
Y2.8955 I0.0604 J0.0155 F50.
X-1.9324 Y2.9885 I0.2441 J-0.0284 F60.
X-1.872 Y2.9883 I0.03 J-0.0542
X-1.8598 Y2.9793 I-0.0015 J-0.0148
G1 X-1.8587 Y2.9767 Z-0.2347
X-1.8576 Y2.9741 Z-0.2339
X-1.8566 Y2.9717 Z-0.2325
X-1.8557 Y2.9697 Z-0.2306
X-1.855 Y2.968 Z-0.2284
X-1.8544 Y2.9667 Z-0.2258
X-1.8541 Y2.9659 Z-0.223
X-1.854 Y2.9657 Z-0.2201
G0 Z-0.2052
X-2.0279 Y1.8558
G1 Z-0.2201 F50.
X-2.0277 Y1.8557 Z-0.223
X-2.027 Y1.8552 Z-0.2258
X-2.0258 Y1.8545 Z-0.2284
X-2.0242 Y1.8536 Z-0.2306
X-2.0223 Y1.8524 Z-0.2325
X-2.02 Y1.8511 Z-0.2339
X-2.0176 Y1.8497 Z-0.2347
X-2.0151 Y1.8482 Z-0.235
G3 X-1.9855 Y1.8395 I0.0318 J0.0536
G1 X-1.7773 F60.
G3 X-1.5565 Y1.9209 I-0.1314 J0.6964
G2 X-1.2459 Y1.8395 I-0.0371 J-0.7747
G1 X-0.9804
G3 X-0.9677 Y1.8474 I-0.0005 J0.0149
X-0.9696 Y1.8695 I-0.018 J0.0096
X-1.2254 Y1.8605 I-0.1247 J-0.0962
X-1.2333 Y1.8474 I0.1311 J-0.0872 F50.
G2 X-1.2459 Y1.8395 I-0.0131 J0.007
G1 X-1.7773 F60.
G2 X-1.79 Y1.8476 I0.0005 J0.0149
G1 X-1.7914 Y1.8502 Z-0.2347
X-1.7926 Y1.8527 Z-0.2339
X-1.7938 Y1.855 Z-0.2325
X-1.7948 Y1.857 Z-0.2306
X-1.7956 Y1.8587 Z-0.2284
X-1.7963 Y1.8599 Z-0.2258
X-1.7966 Y1.8607 Z-0.223
X-1.7968 Y1.8609 Z-0.2201
G0 Z-0.2052
X-2.1171 Y1.8558
G1 Z-0.2201 F50.
X-2.1174 Y1.8557 Z-0.223
X-2.1181 Y1.8552 Z-0.2258
X-2.1193 Y1.8545 Z-0.2284
X-2.1209 Y1.8536 Z-0.2306
X-2.1228 Y1.8524 Z-0.2325
X-2.1251 Y1.8511 Z-0.2339
X-2.1275 Y1.8497 Z-0.2347
X-2.13 Y1.8482 Z-0.235
G2 X-2.1596 Y1.8395 I-0.0318 J0.0536
G1 X-2.2631 F60.
G2 X-2.4169 Y2.0313 I0.0554 J0.202
G1 X-2.3325 Y2.1391
X-2.321 Y2.1558
X-2.2978 Y2.1905
G2 X-2.2842 Y2.1966 I0.0121 J-0.0087
X-2.2682 Y2.183 I-0.0018 J-0.0183
X-2.3877 Y2.0347 I-0.1142 J-0.0303
X-2.4029 Y2.0363 I0.0053 J0.118 F50.
G3 X-2.4169 Y2.0313 I-0.0026 J-0.0147
G1 X-2.428 Y2.0171 F60.
X-2.4463 Y1.994
G3 X-2.4271 Y1.8387 I0.112 J-0.065
G1 X-2.2631 Y1.8395
G3 X-2.2504 Y1.8474 I-0.0005 J0.0149
X-2.2737 Y1.9044 I-0.0354 J0.0188
X-2.4055 Y1.8604 I-0.0357 J-0.1126
X-2.4136 Y1.8474 I0.0962 J-0.0686 F50.
G2 X-2.4262 Y1.8395 I-0.0131 J0.007
G1 X-2.4609 F60.
X-2.4676 Y1.8403
X-2.4742 Y1.8416
X-2.4807 Y1.8435
X-2.487 Y1.8459
X-2.4931 Y1.8488
X-2.4989 Y1.8523
X-2.5044 Y1.8562
X-2.5095 Y1.8606
X-2.5143 Y1.8654
X-2.5186 Y1.8705
X-2.5225 Y1.8761
X-2.5259 Y1.8819
X-2.5288 Y1.888
X-2.5312 Y1.8943
X-2.533 Y1.9008
X-2.4463 Y1.994
G2 X-2.421 Y1.9807 I0.0107 J-0.0104
G1 X-2.4446 Y1.8622
X-2.4468 Y1.8515 F50.
G2 X-2.4609 Y1.8395 I-0.0146 J0.0029
G1 X-2.536 F60.
G2 X-2.5678 Y1.8594 I-0.0101 J0.0191
G1 X-2.5638 Y1.8653
X-2.531 Y1.9013
G2 X-2.5067 Y1.8848 I0.0106 J-0.0104
G1 X-2.5171 Y1.8614
X-2.5229 Y1.8483 F50.
G2 X-2.536 Y1.8395 I-0.0136 J0.0061
G1 X-2.5544 F60.
X-2.5551
X-2.5669 Y1.8419
X-2.5674 Y1.8422
X-2.5694 Y1.8435
X-2.57 Y1.844
X-2.5714 Y1.8461
X-2.5718 Y1.8468
X-2.5724 Y1.8496
Y1.85
X-2.5718 Y1.8531
X-2.5716 Y1.8535
X-2.5678 Y1.8594
X-2.5657 Y1.8611 Z-0.2349
X-2.5637 Y1.8627 Z-0.2344
X-2.5618 Y1.8643 Z-0.2334
X-2.5594 Y1.8648 Z-0.2317
X-2.5573 Y1.8653 Z-0.2296
X-2.5556 Y1.8656 Z-0.2271
X-2.5547 Z-0.2249
X-2.5541 Y1.8655 Z-0.2225
X-2.5539 Z-0.2201
G0 Z0.4
X-0.4906 Y4.2004
Z-0.2052
G1 Z-0.2201 F50.
X-0.4905 Y4.2002 Z-0.223
X-0.4904 Y4.1993 Z-0.2258
X-0.4901 Y4.198 Z-0.2284
X-0.4897 Y4.1962 Z-0.2306
X-0.4893 Y4.194 Z-0.2325
X-0.4888 Y4.1914 Z-0.2339
X-0.4882 Y4.1887 Z-0.2347
X-0.4876 Y4.1858 Z-0.235
G3 X-0.4627 Y4.1078 I0.3727 J0.0761
G1 X-0.4561 Y4.1036 F60.
X-0.4492 Y4.0999
X-0.442 Y4.0968
X-0.4347 Y4.0943
X-0.4271 Y4.0924
X-0.4194 Y4.091
X-0.4116 Y4.0903
X-0.4038
X-0.396 Y4.0908
X-0.3883 Y4.092
X-0.3807 Y4.0938
X-0.3733 Y4.0962
X-0.3661 Y4.0991
X-0.3591 Y4.1027
X-0.3525 Y4.1068
X-0.3462 Y4.1114
X-0.3403 Y4.1165
X-0.3348 Y4.122
X-0.3298 Y4.128
X-0.3252 Y4.1343
X-0.3212 Y4.141
X-0.3178 Y4.148
X-0.3149 Y4.1553
X-0.3126 Y4.1627
X-0.3109 Y4.1703
X-0.3098 Y4.178
X-0.3093 Y4.1858
X-0.3095 Y4.1936
X-0.3103 Y4.2014
X-0.3117 Y4.2091
X-0.3137 Y4.2166
X-0.3163 Y4.224
G3 X-0.6215 Y4.3359 I-0.1708 J0.0063
X-0.7285 Y4.0668 I0.0691 J-0.1833
X-0.4507 Y3.985 I0.1762 J0.0858
X-0.2628 Y4.0753 I0.0131 J0.2134
G1 X-0.2315 Y4.2131
G3 X-0.5797 Y4.4738 I-0.2475 J0.0323
G1 X-0.7917 Y4.2667
X-0.7984 Y4.2562
X-0.8047 Y4.2453
X-0.8104 Y4.2342
X-0.8155 Y4.2227
X-0.8201 Y4.2111
X-0.8242 Y4.1992
X-0.8276 Y4.1871
X-0.8304 Y4.1749
X-0.8327 Y4.1626
X-0.8343 Y4.1502
X-0.8353 Y4.1377
X-0.8358 Y4.1252
X-0.8356 Y4.1126
X-0.8348 Y4.1001
X-0.8334 Y4.0877
X-0.8314 Y4.0753
X-0.8287 Y4.0631
X-0.8255 Y4.0509
X-0.8217 Y4.039
X-0.8174 Y4.0273
X-0.8124 Y4.0157
X-0.8069 Y4.0045
X-0.8009 Y3.9935
X-0.7943 Y3.9828
X-0.7872 Y3.9725
X-0.7797 Y3.9625
X-0.7716 Y3.9529
X-0.7631 Y3.9437
X-0.7541 Y3.9349
X-0.7448 Y3.9266
X-0.735 Y3.9188
X-0.7249 Y3.9114
X-0.7144 Y3.9045
X-0.7036 Y3.8982
X-0.6925 Y3.8923
X-0.6811 Y3.8871
X-0.6695 Y3.8824
X-0.6577 Y3.8782
X-0.6457 Y3.8747
X-0.6335 Y3.8717
X-0.6212 Y3.8693
X-0.6088 Y3.8676
X-0.5963 Y3.8664
X-0.5838 Y3.8659
X-0.5713
X-0.5588 Y3.8666
X-0.5463 Y3.8679
X-0.5339 Y3.8698
G2 X-0.281 Y4.0019 I0.6005 J-0.8412
X-0.263 Y4.0755 I0.238 J-0.0194
G3 X-0.2679 Y4.0895 I-0.0146 J0.0028
X-0.2946 Y4.1027 I-0.0381 J-0.0439
X-0.5296 Y3.8972 I-0.0386 J-0.193
G1 X-0.5281 Y3.882 F50.
G2 X-0.5336 Y3.8682 I-0.0148 J-0.0021
G1 X-0.5678 Y3.8432 F60.
X-0.5743 Y3.8383
X-0.5842 Y3.8292
G2 X-0.8952 Y3.9901 I-0.0919 J0.2035
X-0.933 Y4.1274 I0.136 J0.1113
G1 X-0.7917 Y4.2667
G2 X-0.7772 Y4.27 I0.0101 J-0.011
X-0.7658 Y4.2562 I-0.0049 J-0.0156
X-0.9036 Y4.1271 I-0.1174 J-0.0128
X-0.9184 Y4.1307 I0.0203 J0.1163 F50.
G3 X-0.933 Y4.1274 I-0.0044 J-0.0142
G1 X-0.9676 Y4.0933 F60.
G3 X-0.8275 Y3.7676 I0.2195 J-0.0986
X-0.6968 Y3.7129 I0.1153 J0.0921
G2 X-0.5842 Y3.8292 I0.6474 J-0.5143
G3 X-0.5802 Y3.8436 I-0.0105 J0.0106
X-0.651 Y3.8705 I-0.045 J-0.0117
X-0.6996 Y3.7422 I0.0656 J-0.0982
X-0.6948 Y3.7277 I0.1142 J0.0301 F50.
G2 X-0.6968 Y3.7129 I-0.0138 J-0.0056
G1 X-0.7185 Y3.6868 F60.
G2 X-0.9974 Y3.7933 I-0.0916 J0.1786
X-1.0875 Y3.9764 I0.1663 J0.1955
G1 X-0.9676 Y4.0933
G2 X-0.9531 Y4.0966 I0.0101 J-0.011
X-0.9292 Y4.0427 I-0.0117 J-0.0374
X-1.0567 Y3.9761 I-0.1071 J0.0498
X-1.0715 Y3.9797 I0.0203 J0.1163 F50.
G3 X-1.0861 Y3.9765 I-0.0044 J-0.0142
G1 X-1.1169 Y3.9461 F60.
G3 X-0.9935 Y3.6517 I0.2148 J-0.083
X-0.794 Y3.5684 I0.1714 J0.1299
G2 X-0.7185 Y3.6868 I0.8491 J-0.4576
G3 X-0.7212 Y3.7077 I-0.0118 J0.0091
X-0.7624 Y3.7058 I-0.0195 J-0.0252
X-0.7983 Y3.5983 I0.0803 J-0.0866
X-0.7934 Y3.5798 I0.1162 J0.0209 F50.
G2 X-0.794 Y3.5684 I-0.014 J-0.005
G1 X-0.7953 Y3.5659 F60.
X-0.8057 Y3.5442
X-0.814 Y3.5378
X-0.8226 Y3.5319
X-0.8316 Y3.5265
X-0.8409 Y3.5216
X-0.8505 Y3.5173
X-0.8603 Y3.5136
X-0.8703 Y3.5104
X-0.8804 Y3.5078
X-0.8907 Y3.5058
X-0.9012 Y3.5044
X-0.9116 Y3.5037
X-0.9221 Y3.5035
X-0.9326 Y3.504
X-0.943 Y3.505
X-0.9534 Y3.5067
X-0.9636 Y3.509
X-0.9737 Y3.5119
X-0.9836 Y3.5153
X-0.9933 Y3.5194
X-1.0027 Y3.5239
X-1.0119 Y3.5291
X-1.0207 Y3.5347
X-1.0292 Y3.5409
X-1.0373 Y3.5476
X-1.045 Y3.5547
X-1.0523 Y3.5622
X-1.0592 Y3.5702
X-1.0655 Y3.5785
X-1.0714 Y3.5872
X-1.0767 Y3.5963
X-1.0883 Y3.604
X-1.0996 Y3.6123
X-1.1106 Y3.621
X-1.1212 Y3.6301
X-1.1314 Y3.6397
X-1.1412 Y3.6497
X-1.1506 Y3.6601
X-1.1595 Y3.6709
X-1.168 Y3.682
X-1.176 Y3.6935
X-1.1835 Y3.7053
X-1.1906 Y3.7173
X-1.1971 Y3.7297
X-1.2031 Y3.7424
X-1.2086 Y3.7552
X-1.2136 Y3.7683
X-1.218 Y3.7816
X-1.2218 Y3.795
X-1.2251 Y3.8086
X-1.2279 Y3.8224
X-1.23 Y3.8362
X-1.1169 Y3.9461
G2 X-1.1024 Y3.9493 I0.0101 J-0.011
X-1.0803 Y3.8866 I-0.0124 J-0.0396
X-1.1987 Y3.8361 I-0.0981 J0.0658
X-1.2136 Y3.8397 I0.0203 J0.1163 F50.
G3 X-1.2281 Y3.8364 I-0.0044 J-0.0142
G1 X-1.2567 Y3.8083 F60.
G3 X-1.1352 Y3.5183 I0.2123 J-0.0815
X-1.1183 Y3.4944 I0.021 J-0.003
G1 X-0.8751 Y3.4786
G3 X-0.8288 Y3.496 I0.0174 J0.024
G1 X-0.8057 Y3.5442
G3 X-0.8073 Y3.559 I-0.0136 J0.006
X-0.9254 Y3.6123 I-0.1064 J-0.0781
X-1.0967 Y3.5142 I0.0211 J-0.2353
G1 X-1.1052 Y3.5015 F50.
G2 X-1.1183 Y3.4944 I-0.0127 J0.0078
G1 X-1.1989 Y3.4997 F60.
G2 X-1.367 Y3.6995 I0.0539 J0.2159
G1 X-1.2567 Y3.8083
G2 X-1.2421 Y3.8116 I0.0101 J-0.011
X-1.2204 Y3.748 I-0.0124 J-0.0398
X-1.3376 Y3.6992 I-0.0969 J0.0675
X-1.3525 Y3.7028 I0.0203 J0.1163 F50.
G3 X-1.367 Y3.6995 I-0.0044 J-0.0142
G1 X-1.3913 Y3.6755 F60.
G3 X-1.3793 Y3.5114 I0.1066 J-0.0747
G1 X-1.1989 Y3.4997
G3 X-1.189 Y3.5261 I0.0004 J0.0149
G1 X-1.3644 Y3.67
X-1.3718 Y3.6761 F50.
G3 X-1.3913 Y3.6755 I-0.0095 J-0.0115
G1 X-1.4534 Y3.6143 F60.
X-1.4585 Y3.6087
X-1.4631 Y3.6027
X-1.4671 Y3.5964
X-1.4707 Y3.5897
X-1.4736 Y3.5828
X-1.476 Y3.5756
X-1.4778 Y3.5683
X-1.479 Y3.5608
X-1.4795 Y3.5533
X-1.4794 Y3.5457
X-1.4787 Y3.5382
X-1.4774 Y3.5308
X-1.4755 Y3.5235
X-1.4729 Y3.5164
X-1.4701 Y3.5162
X-1.4674 Y3.5166
X-1.4648 Y3.5175
X-1.4624 Y3.5187
X-1.4602 Y3.5204
X-1.4584 Y3.5224
X-1.457 Y3.5246
X-1.4561 Y3.527
X-1.4517 Y3.5386
G3 X-1.4288 Y3.6069 I-0.0706 J0.0616
X-1.4534 Y3.6143 I-0.0145 J-0.0035 F50.
G1 X-1.5127 Y3.5559 F60.
G3 X-1.522 Y3.5221 I0.0049 J-0.0195
X-1.4923 Y3.5272 I0.0087 J0.0384
G1 X-1.4904 Y3.5285
G3 X-1.4858 Y3.5524 I-0.0103 J0.0144
X-1.5127 Y3.5559 I-0.0149 J-0.0095 F50.
G1 X-1.524 Y3.5447 F60.
X-1.5306 Y3.5351
X-1.5309 Y3.5344
X-1.5314 Y3.5319
X-1.5315 Y3.5313
X-1.5311 Y3.5287
X-1.5309 Y3.5281
X-1.5293 Y3.5254
G3 X-1.5146 Y3.5202 I0.0142 J0.0168
G1 X-1.3793 Y3.5114
G3 X-1.3656 Y3.5331 I0.0004 J0.0149
G1 X-1.3669 Y3.5357 Z-0.2347
X-1.3682 Y3.5382 Z-0.2339
X-1.3694 Y3.5405 Z-0.2325
X-1.3704 Y3.5425 Z-0.2306
X-1.3712 Y3.5441 Z-0.2284
X-1.3719 Y3.5454 Z-0.2258
X-1.3722 Y3.5461 Z-0.223
X-1.3724 Y3.5464 Z-0.2201
G0 Z-0.2052
X-0.5991 Y4.4337
G1 Z-0.2201 F50.
X-0.599 Y4.434 Z-0.223
X-0.5988 Y4.4348 Z-0.2258
X-0.5984 Y4.4361 Z-0.2284
X-0.598 Y4.4379 Z-0.2306
X-0.5974 Y4.4401 Z-0.2325
X-0.5967 Y4.4426 Z-0.2339
X-0.596 Y4.4453 Z-0.2347
X-0.5953 Y4.4481 Z-0.235
G2 X-0.5803 Y4.4751 I0.0603 J-0.0158
G1 X-0.5178 Y4.5367 F60.
G2 X-0.3821 Y4.5655 I0.0928 J-0.1031
G3 X-0.2087 Y4.32 I0.9265 J0.4704
G1 X-0.2089 Y4.3171
X-0.2103 Y4.3056
X-0.2315 Y4.2131
G2 X-0.2572 Y4.2073 I-0.0144 J0.0038
G1 X-0.5125 Y4.5099
X-0.5184 Y4.5169 F50.
G2 X-0.5178 Y4.5367 I0.0114 J0.0096
G1 X-0.4355 Y4.6179 F60.
X-0.4342 Y4.619
X-0.4336 Y4.6195
X-0.4247 Y4.6254
X-0.4239 Y4.6257
X-0.4211 Y4.6263
G2 X-0.4036 Y4.6061 I-0.0049 J-0.0218
G1 X-0.3826 Y4.5642
G2 X-0.409 Y4.5505 I-0.0135 J-0.0062
G1 X-0.4317 Y4.5899
X-0.4376 Y4.6002 F50.
G2 X-0.4355 Y4.6179 I0.0129 J0.0074
G1 X-0.4348 Y4.6186 F60.
X-0.4341 Y4.6192
X-0.4336 Y4.6195
X-0.431 Y4.6202 Z-0.2349
X-0.4286 Y4.621 Z-0.2344
X-0.4262 Y4.6217 Z-0.2334
X-0.4239 Y4.6212 Z-0.2319
X-0.422 Y4.6207 Z-0.23
X-0.4204 Y4.6204 Z-0.2277
X-0.4193 Y4.6201 Z-0.2252
X-0.4186 Y4.6198 Z-0.2227
X-0.4184 Y4.6197 Z-0.2201
G0 Z0.4
X-0.0099 Y-0.0701
Z0.1
G3 X0.0099 Y0.0701 Z0.0608 I0.0099 J0.0701 F50.
X-0.0099 Y-0.0701 Z0.0216 I-0.0099 J-0.0701
X0.0099 Y0.0701 Z-0.0176 I0.0099 J0.0701
X-0.0099 Y-0.0701 Z-0.0568 I-0.0099 J-0.0701
X0.0099 Y0.0701 Z-0.096 I0.0099 J0.0701
X-0.0099 Y-0.0701 Z-0.1352 I-0.0099 J-0.0701
X0.0099 Y0.0701 Z-0.1744 I0.0099 J0.0701
X-0.0099 Y-0.0701 Z-0.2136 I-0.0099 J-0.0701
X0.0708 Y0. Z-0.235 I0.0099 J0.0701
X-0.0708 I-0.0708 J0.
X0.0708 I0.0708 J0.
X-0.0799 Y0.123 I-0.0771 J0.0593 F60.
X0.0738 Y-0.1405 I0.0769 J-0.1318
X0.1376 Y-0.0678 I-0.0769 J0.1318
X-0.16 Y0.1797 I-0.1491 J0.1234
X-0.1124 Y-0.2227 I0.1417 J-0.1873
X0.101 Y0.3156 I0.1067 J0.2691
X-0.0205 Y0.3356 I-0.1067 J-0.2692
X-0.1164 Y-0.3248 I0.0103 J-0.3386
X0.0962 Y0.4222 I0.1063 J0.3735
X-0.271 Y0.3363 I-0.1063 J-0.3735
X-0.443 Y0.0281 I0.2157 J-0.3225
X0.444 Y-0.0847 I0.4476 J-0.0244
X0.2324 Y0.4631 I-0.4162 J0.154
X-0.263 Y-0.4731 I-0.2477 J-0.4681
X0.0442 Y-0.5312 I0.2477 J0.4681
X0.5573 Y0.1787 I-0.0538 J0.5792
X-0.2149 Y0.5922 I-0.5668 J-0.1307
X0.1996 Y-0.6041 I0.2091 J-0.5975
X-0.0717 Y0.7262 I-0.214 J0.6492
X-0.2466 Y-0.6933 I0.0662 J-0.7287
X0.5987 Y0.5271 I0.2405 J0.7364
X-0.8288 Y0.0125 I-0.6239 J-0.5068
X0.5937 Y-0.5851 I0.8279 J-0.0211
X0.1367 Y0.9106 I-0.6019 J0.6338
G1 X-0.1116 Y0.9105
G3 X-0.9089 Y0.2018 I0.075 J-0.8872
G1 X-0.9105 Y-0.1558
G3 X-0.2062 Y-0.9089 I0.8858 J0.1225
G1 X0.1428 Y-0.9105
G3 X0.908 Y-0.2644 I-0.1148 J0.9121
G1 X0.9105 Y0.3065
G3 X0.4387 Y0.9086 I-0.8209 J-0.1574
G1 X0.1367 Y0.9105
G3 X0.1241 Y0.9026 I0.0005 J-0.0149
X0.1407 Y0.8337 I0.0471 J-0.0251
X0.4192 Y0.8894 I0.1125 J0.1615
G1 X0.4269 Y0.9026 F50.
G2 X0.4395 Y0.9105 I0.0131 J-0.007
G1 X0.5592 F60.
G2 X0.9059 Y0.5984 I-0.1694 J-0.5368
G1 X0.9104 Y0.5988
X0.9105 Y0.5974
Y0.3065
G2 X0.9026 Y0.2939 I-0.0149 J0.0005
X0.8214 Y0.3187 I-0.0282 J0.053
X0.8894 Y0.577 I0.1738 J0.0924
G1 X0.9026 Y0.5848 F50.
G3 X0.9105 Y0.5974 I-0.007 J0.0131
G1 Y0.6995 F60.
G3 X0.773 Y0.9118 I-0.3349 J-0.0662
G1 X0.7674 Y0.9113
X0.7443 Y0.9105
X0.5592
G3 X0.5449 Y0.8951 I0.0005 J-0.0149
X0.5659 Y0.8619 I0.0388 J0.0014
X0.7505 Y0.8916 I0.0722 J0.14
X0.7631 Y0.9061 I-0.1124 J0.1103 F50.
G2 X0.773 Y0.9118 I0.0118 J-0.0091
G1 X0.8137 Y0.9158 F60.
X0.8207 Y0.9175
G2 X0.9327 Y0.8704 I0.0162 J-0.1182
G3 X0.9105 Y0.6995 I0.4011 J-0.1391
G2 X0.8815 Y0.6951 I-0.0149 J0.0005
G1 X0.8128 Y0.892
X0.8106 Y0.8982 F50.
G2 X0.8207 Y0.9175 I0.0141 J0.0049
G3 X0.8948 Y0.9411 I-0.0692 J0.3446 F60.
G2 X0.9597 Y0.9299 I0.0275 J-0.0343
G1 X0.9479 Y0.9075
X0.9361 Y0.8844
X0.9311 Y0.8692
G2 X0.9036 Y0.868 I-0.014 J0.0051
X0.9051 Y0.8894 I0.0202 J0.0094
X0.9329 Y0.9156 I0.0663 J-0.0425
X0.9507 Y0.9229 I0.0384 J-0.0687 F50.
G3 X0.9597 Y0.9299 I-0.0039 J0.0144
G1 X0.9601 Y0.9306 F60.
X0.9654 Y0.9399
X0.9681 Y0.9452
X0.9692 Y0.9511
Y0.9571
X0.9681 Y0.9635
X0.966 Y0.9702
X0.9649 Y0.9724
X0.9617 Y0.9757
X0.9572 Y0.9767
X0.953 Y0.975
G3 X0.9395 Y0.9484 I0.0258 J-0.0298
X0.9404 Y0.942 I0.014 J-0.0012
X0.9654 Y0.9399 I0.013 J0.0052 F50.
G1 X0.9667 Y0.9422 F60.
X0.9756 Y0.9538
X0.9849 Y0.9653
X0.9885 Y0.9702
X0.9906 Y0.9758
X0.9915 Y0.9817
X0.9914 Y0.9877
X0.9907 Y0.9907
X0.989 Y0.9942
X0.9858 Y0.9965
X0.9818 Y0.9968
X0.9782 Y0.9953
G3 X0.9658 Y0.9762 I0.0253 J-0.0302
X0.9849 Y0.9653 I0.0107 J-0.0035 F50.
G1 X0.9988 Y0.9825 F60.
X1.0045 Y0.9912
X1.0054 Y0.9926
X1.006 Y0.9935
X1.0076 Y0.9961
X1.008 Y0.9969
X1.0083 Y0.9977
X1.0085 Y0.9986
G3 X0.9957 Y1.0067 I-0.0082 J0.0013
X0.9934 Y1.0044 I0.0046 J-0.0069 F50.
G1 X0.9923 Y1.0028
G3 X1.006 Y0.9935 I0.0069 J-0.0045
G1 X1.0081 Y0.9967 F60.
X1.0088 Y1.
X1.0084 Y1.0019
X1.0081 Y1.0034
X1.0064 Y1.0059
X1.0058 Y1.0065
G3 X0.9062 Y0.9472 I0.0461 J-0.1907
G1 X0.8947 Y0.9414
G3 X0.8939 Y0.9158 I0.0072 J-0.0131
G1 X0.8963 Y0.9142 Z-0.2347
X0.8987 Y0.9127 Z-0.2339
X0.9009 Y0.9113 Z-0.2325
X0.9028 Y0.9101 Z-0.2306
X0.9044 Y0.9091 Z-0.2284
X0.9055 Y0.9084 Z-0.2258
X0.9062 Y0.9079 Z-0.223
X0.9065 Y0.9078 Z-0.2201
G0 Z0.4
X0.8942 Y-0.2227
Z-0.2052
G1 Z-0.2201 F50.
X0.8943 Y-0.223 Z-0.223
X0.8948 Y-0.2237 Z-0.2258
X0.8955 Y-0.2249 Z-0.2284
X0.8964 Y-0.2265 Z-0.2306
X0.8976 Y-0.2284 Z-0.2325
X0.8989 Y-0.2306 Z-0.2339
X0.9003 Y-0.233 Z-0.2347
X0.9018 Y-0.2355 Z-0.235
G2 X0.9105 Y-0.2652 I-0.0536 J-0.0318
G1 Y-0.4332 F60.
G2 X0.5593 Y-0.8601 I-0.6551 J0.181
X0.4846 Y-0.9105 I-0.1047 J0.0747
G1 X0.1428
G2 X0.1285 Y-0.8951 I0.0005 J0.0149
X0.1674 Y-0.8391 I0.063 J-0.0022
X0.4606 Y-0.8922 I0.1053 J-0.2547
G1 X0.4742 Y-0.9058 F50.
G3 X0.4846 Y-0.9105 I0.0109 J0.0102
G1 X0.6055 F60.
G3 X0.9093 Y-0.6715 I-0.1382 J0.4883
G1 X0.9105 Y-0.4332
G3 X0.9026 Y-0.4206 I-0.0149 J-0.0005
X0.8439 Y-0.436 I-0.021 J-0.0395
X0.8895 Y-0.6517 I0.1328 J-0.0846
X0.9026 Y-0.6596 I0.0872 J0.1311 F50.
G2 X0.9105 Y-0.6722 I-0.007 J-0.0131
G1 Y-0.7568 F60.
G2 X0.8114 Y-0.9156 I-0.2302 J0.0335
G1 X0.7674 Y-0.9113
X0.7443 Y-0.9105
X0.6055
G2 X0.5996 Y-0.8822 I0.0005 J0.0149
G1 X0.8879 Y-0.7445
X0.8892 Y-0.7439 F50.
G2 X0.9105 Y-0.7568 I0.0064 J-0.0134
G3 X0.9247 Y-0.8494 I0.3765 J0.0105 F60.
G2 X0.8977 Y-0.9428 I-0.0714 J-0.0299
G3 X0.8114 Y-0.9156 I-0.164 J-0.3702
G2 X0.7986 Y-0.8988 I0.002 J0.0148
X0.8286 Y-0.8769 I0.0255 J-0.0034
X0.8835 Y-0.916 I-0.0138 J-0.0775
X0.8907 Y-0.9337 I-0.0687 J-0.0384 F50.
G3 X0.8977 Y-0.9428 I0.0144 J0.0039
G1 X0.9097 Y-0.9491 F60.
X0.9141 Y-0.9511
X0.9186 Y-0.9526
X0.9232 Y-0.9536
X0.928 Y-0.9541
X0.9327 Y-0.954
X0.9374 Y-0.9533
X0.942 Y-0.9521
X0.9465 Y-0.9504
X0.9507 Y-0.9482
X0.9546 Y-0.9455
X0.9582 Y-0.9423
X0.9614 Y-0.9388
X0.9641 Y-0.9349
X0.9615 Y-0.9308
X0.9584 Y-0.9271
X0.9548 Y-0.9238
X0.951 Y-0.921
X0.9468 Y-0.9186
X0.9424 Y-0.9168
X0.9378 Y-0.9155
G3 X0.9107 Y-0.9184 I-0.0097 J-0.0382
X0.9053 Y-0.9224 I0.0077 J-0.0156
X0.9097 Y-0.9491 I0.013 J-0.0115 F50.
G1 X0.9294 Y-0.9594 F60.
X0.9393 Y-0.9649
X0.9466 Y-0.9702
X0.9516 Y-0.9735
X0.957 Y-0.976
X0.9628 Y-0.9775
X0.9688 Y-0.978
X0.9748 Y-0.9775
X0.9795 Y-0.9765
X0.9829 Y-0.9747
X0.9851 Y-0.9714
X0.9854 Y-0.9675
X0.9838 Y-0.9639
G3 X0.9569 Y-0.9504 I-0.0298 J-0.0258
X0.9533 Y-0.9503 I-0.0028 J-0.0393 F50.
X0.9466 Y-0.9702 I0.0002 J-0.0112
G1 X0.9525 Y-0.9746 F60.
X0.9756 Y-0.9933
X0.9806 Y-0.9966
X0.9863 Y-0.9987
X0.9922 Y-0.9994
X0.9959 Y-0.9991
X0.9996 Y-0.9978
X1.0023 Y-0.9947
X1.003 Y-0.9908
X1.0018 Y-0.987
G3 X0.9881 Y-0.975 I-0.032 J-0.0229
X0.9868 Y-0.9745 I-0.0052 J-0.0098
X0.9756 Y-0.9933 I-0.0039 J-0.0104 F50.
G1 X0.9872 Y-1.0019 F60.
X0.9966 Y-1.0081
X0.9973 Y-1.0082
X0.9999 Y-1.0088
X1.0011 Y-1.0086
X1.0034 Y-1.0081
X1.0058 Y-1.0065
X1.0065 Y-1.0057
G2 X0.925 Y-0.8493 I0.8717 J0.5534
G3 X0.8999 Y-0.844 I-0.0141 J-0.0048
G1 X0.898 Y-0.8461 Z-0.2347
X0.8961 Y-0.8482 Z-0.2339
X0.8944 Y-0.8501 Z-0.2325
X0.8928 Y-0.8518 Z-0.2306
X0.8916 Y-0.8531 Z-0.2284
X0.8906 Y-0.8542 Z-0.2258
X0.8901 Y-0.8548 Z-0.223
X0.8899 Y-0.855 Z-0.2201
G0 Z-0.2052
X-0.164 Y-0.8942
G1 Z-0.2201 F50.
X-0.1643 Y-0.8943 Z-0.223
X-0.165 Y-0.8948 Z-0.2258
X-0.1662 Y-0.8955 Z-0.2284
X-0.1678 Y-0.8964 Z-0.2306
X-0.1697 Y-0.8976 Z-0.2325
X-0.172 Y-0.8989 Z-0.2339
X-0.1744 Y-0.9003 Z-0.2347
X-0.1769 Y-0.9018 Z-0.235
G2 X-0.2065 Y-0.9105 I-0.0318 J0.0536
G1 X-0.4251 F60.
G2 X-0.9023 Y-0.488 I0.2098 J0.7177
G1 X-0.9096 Y-0.4875
X-0.9101 Y-0.4864
X-0.9104 Y-0.4852
X-0.9105 Y-0.4839
Y-0.1558
G2 X-0.9026 Y-0.1432 I0.0149 J-0.0005
X-0.8687 Y-0.1467 I0.0143 J-0.0269
X-0.8894 Y-0.4635 I-0.1265 J-0.1508
G1 X-0.9026 Y-0.4713 F50.
G3 X-0.9105 Y-0.4839 I0.007 J-0.0131
G1 Y-0.595 F60.
G3 X-0.6658 Y-0.9088 I0.468 J0.1127
G1 X-0.4251 Y-0.9105
G3 X-0.4125 Y-0.9026 I-0.0005 J0.0149
X-0.4262 Y-0.8467 I-0.0381 J0.0203
X-0.6462 Y-0.8895 I-0.0888 J-0.13
X-0.654 Y-0.9026 I0.1311 J-0.0872 F50.
G2 X-0.6666 Y-0.9105 I-0.0131 J0.007
G1 X-0.7362 F60.
X-0.7594 Y-0.9106
G2 X-0.9157 Y-0.8092 I0.0409 J0.2343
G3 X-0.9105 Y-0.595 I-1.0999 J0.1337
G2 X-0.882 Y-0.5894 I0.0149 J-0.0005
G1 X-0.7471 Y-0.888
X-0.7464 Y-0.8896 F50.
G2 X-0.7594 Y-0.9106 I-0.0136 J-0.0061
G3 X-0.8415 Y-0.9227 I-0.0034 J-0.2611 F60.
G2 X-0.9423 Y-0.8969 I-0.0351 J0.0725
G3 X-0.9157 Y-0.8092 I-0.2811 J0.1334
G2 X-0.8887 Y-0.8035 I0.0147 J-0.0027
X-0.8881 Y-0.857 I-0.0396 J-0.0272
X-0.9156 Y-0.8827 I-0.0659 J0.043
X-0.9333 Y-0.8899 I-0.0384 J0.0687 F50.
G3 X-0.9423 Y-0.8969 I0.0039 J-0.0144
G1 X-0.9496 Y-0.9107 F60.
X-0.9515 Y-0.9149
X-0.9529 Y-0.9194
X-0.9537 Y-0.924
X-0.9541 Y-0.9286
X-0.9539 Y-0.9333
X-0.9531 Y-0.9379
X-0.9518 Y-0.9424
X-0.9501 Y-0.9467
X-0.9478 Y-0.9508
X-0.9451 Y-0.9546
X-0.942 Y-0.9581
X-0.9384 Y-0.9611
X-0.9346 Y-0.9638
X-0.9305 Y-0.9612
X-0.9268 Y-0.9581
X-0.9235 Y-0.9546
X-0.9206 Y-0.9507
X-0.9182 Y-0.9466
X-0.9164 Y-0.9422
X-0.9151 Y-0.9376
G3 X-0.9167 Y-0.9129 I-0.0381 J0.01
X-0.9228 Y-0.905 I-0.017 J-0.0069
X-0.9496 Y-0.9107 I-0.0109 J-0.0148 F50.
G2 X-0.9702 Y-0.9467 I-0.1306 J0.0508 F60.
G1 X-0.9736 Y-0.9516
X-0.9761 Y-0.9571
X-0.9775 Y-0.9629
X-0.9779 Y-0.9689
X-0.9773 Y-0.9749
X-0.9763 Y-0.9794
X-0.9745 Y-0.9828
X-0.9712 Y-0.985
X-0.9673 Y-0.9853
X-0.9638 Y-0.9837
G3 X-0.9501 Y-0.9571 I-0.0256 J0.0299
G1 X-0.95 Y-0.9542 F50.
G3 X-0.9702 Y-0.9467 I-0.0114 J0.0001
G1 X-0.9846 Y-0.9649 F60.
X-0.9907 Y-0.9725
X-0.9943 Y-0.9772
X-0.9976 Y-0.9821
X-0.9993 Y-0.9879
X-0.9996 Y-0.9939
X-0.9993 Y-0.9961
X-0.9977 Y-0.9998
X-0.9946 Y-1.0023
X-0.9906 Y-1.0028
X-0.9868 Y-1.0013
G3 X-0.9766 Y-0.9888 I-0.0247 J0.0306
X-0.9943 Y-0.9772 I-0.0094 J0.0049 F50.
G1 X-1.0024 Y-0.988 F60.
X-1.0077 Y-0.9961
X-1.0082 Y-0.9969
X-1.0088 Y-1.
X-1.0082 Y-1.003
G3 X-0.9691 Y-0.988 I0.0167 J0.0148
G2 X-0.8415 Y-0.9227 I0.206 J-0.2453
G3 X-0.8362 Y-0.8976 I-0.0048 J0.0141
G1 X-0.8384 Y-0.8956 Z-0.2347
X-0.8404 Y-0.8938 Z-0.2339
X-0.8423 Y-0.892 Z-0.2325
X-0.844 Y-0.8905 Z-0.2306
X-0.8454 Y-0.8892 Z-0.2284
X-0.8464 Y-0.8883 Z-0.2258
X-0.847 Y-0.8877 Z-0.223
X-0.8472 Y-0.8876 Z-0.2201
G0 Z-0.2052
X-0.8942 Y0.1596
G1 Z-0.2201 F50.
X-0.8943 Y0.1599 Z-0.223
X-0.8948 Y0.1606 Z-0.2258
X-0.8955 Y0.1618 Z-0.2284
X-0.8964 Y0.1634 Z-0.2306
X-0.8976 Y0.1653 Z-0.2325
X-0.8989 Y0.1675 Z-0.2339
X-0.9003 Y0.1699 Z-0.2347
X-0.9018 Y0.1724 Z-0.235
G2 X-0.9105 Y0.2021 I0.0536 J0.0318
G1 Y0.4221 F60.
G2 X-0.4869 Y0.8982 I0.7139 J-0.2086
G1 X-0.4784 Y0.9096
X-0.4773 Y0.9101
