%
(971-23-P-0024_THICK SIDE BUMPER GUSSET_1508)
(T1  D=0.1508 CR=0. - ZMIN=-0.28 - FLAT END MILL)
G90 G94 G17 G91.1
G64 P0.001 Q0.001
G20
G53 G0 Z0.
(.3 CIRCLUAR THROUGH HOLE 2)
M9
T1 M6
S22000 M3
G4 P10.
G54
M7
G0 X-5.6137 Y-8.9887
G43 Z0.6 H1
G0 Z0.13
G1 Z0.0651 F40.
G18 G3 X-5.6288 Z0.05 I-0.0151 K0.
G1 X-5.6363
G17 G3 X-5.6476 Y-9. I0. J-0.0113
X-5.6024 Z0.0327 I0.0226 J0.
X-5.6476 Z0.0154 I-0.0226 J0.
X-5.6024 Z-0.0018 I0.0226 J0.
X-5.6476 Z-0.0191 I-0.0226 J0.
X-5.6024 Z-0.0364 I0.0226 J0.
X-5.6476 Z-0.0537 I-0.0226 J0.
X-5.6024 Z-0.071 I0.0226 J0.
X-5.6476 Z-0.0882 I-0.0226 J0.
X-5.6024 Z-0.1055 I0.0226 J0.
X-5.6476 Z-0.1228 I-0.0226 J0.
X-5.6024 Z-0.1401 I0.0226 J0.
X-5.6476 Z-0.1574 I-0.0226 J0.
X-5.6024 Z-0.1746 I0.0226 J0.
X-5.6476 Z-0.1919 I-0.0226 J0.
X-5.6024 Z-0.2092 I0.0226 J0.
X-5.6476 Z-0.2265 I-0.0226 J0.
X-5.6024 Z-0.2438 I0.0226 J0.
X-5.6476 Z-0.261 I-0.0226 J0.
X-5.6216 Y-9.0223 Z-0.2705 I0.0226 J0.
X-5.6034 Y-8.9932 Z-0.28 I-0.0034 J0.0223
X-5.6466 Y-9.0068 I-0.0216 J-0.0068
X-5.6034 Y-8.9932 I0.0216 J0.0068
X-5.6176 Y-8.9858 I-0.0108 J-0.0034
G1 X-5.6248 Y-8.9881
X-5.6276 Y-8.989 Z-0.2797
X-5.6303 Y-8.9898 Z-0.2789
X-5.6328 Y-8.9906 Z-0.2775
X-5.635 Y-8.9913 Z-0.2756
X-5.6368 Y-8.9919 Z-0.2733
X-5.6381 Y-8.9923 Z-0.2707
X-5.6389 Y-8.9925 Z-0.2679
X-5.6392 Y-8.9926 Z-0.2649
G0 Z0.4
X-6.3637 Y-8.9887
Z0.13
G1 Z0.0651 F40.
G18 G3 X-6.3788 Z0.05 I-0.0151 K0.
G1 X-6.3863
G17 G3 X-6.3976 Y-9. I0. J-0.0113
X-6.3524 Z0.0327 I0.0226 J0.
X-6.3976 Z0.0154 I-0.0226 J0.
X-6.3524 Z-0.0018 I0.0226 J0.
X-6.3976 Z-0.0191 I-0.0226 J0.
X-6.3524 Z-0.0364 I0.0226 J0.
X-6.3976 Z-0.0537 I-0.0226 J0.
X-6.3524 Z-0.071 I0.0226 J0.
X-6.3976 Z-0.0882 I-0.0226 J0.
X-6.3524 Z-0.1055 I0.0226 J0.
X-6.3976 Z-0.1228 I-0.0226 J0.
X-6.3524 Z-0.1401 I0.0226 J0.
X-6.3976 Z-0.1574 I-0.0226 J0.
X-6.3524 Z-0.1746 I0.0226 J0.
X-6.3976 Z-0.1919 I-0.0226 J0.
X-6.3524 Z-0.2092 I0.0226 J0.
X-6.3976 Z-0.2265 I-0.0226 J0.
X-6.3524 Z-0.2438 I0.0226 J0.
X-6.3976 Z-0.261 I-0.0226 J0.
X-6.3716 Y-9.0223 Z-0.2705 I0.0226 J0.
X-6.3534 Y-8.9932 Z-0.28 I-0.0034 J0.0223
X-6.3966 Y-9.0068 I-0.0216 J-0.0068
X-6.3534 Y-8.9932 I0.0216 J0.0068
X-6.3676 Y-8.9858 I-0.0108 J-0.0034
G1 X-6.3748 Y-8.9881
X-6.3776 Y-8.989 Z-0.2797
X-6.3803 Y-8.9898 Z-0.2789
X-6.3828 Y-8.9906 Z-0.2775
X-6.385 Y-8.9913 Z-0.2756
X-6.3868 Y-8.9919 Z-0.2733
X-6.3881 Y-8.9923 Z-0.2707
X-6.3889 Y-8.9925 Z-0.2679
X-6.3892 Y-8.9926 Z-0.2649
G0 Z0.4
X-7.1137 Y-8.9887
Z0.13
G1 Z0.0651 F40.
G18 G3 X-7.1288 Z0.05 I-0.0151 K0.
G1 X-7.1363
G17 G3 X-7.1476 Y-9. I0. J-0.0113
X-7.1024 Z0.0327 I0.0226 J0.
X-7.1476 Z0.0154 I-0.0226 J0.
X-7.1024 Z-0.0018 I0.0226 J0.
X-7.1476 Z-0.0191 I-0.0226 J0.
X-7.1024 Z-0.0364 I0.0226 J0.
X-7.1476 Z-0.0537 I-0.0226 J0.
X-7.1024 Z-0.071 I0.0226 J0.
X-7.1476 Z-0.0882 I-0.0226 J0.
X-7.1024 Z-0.1055 I0.0226 J0.
X-7.1476 Z-0.1228 I-0.0226 J0.
X-7.1024 Z-0.1401 I0.0226 J0.
X-7.1476 Z-0.1574 I-0.0226 J0.
X-7.1024 Z-0.1746 I0.0226 J0.
X-7.1476 Z-0.1919 I-0.0226 J0.
X-7.1024 Z-0.2092 I0.0226 J0.
X-7.1476 Z-0.2265 I-0.0226 J0.
X-7.1024 Z-0.2438 I0.0226 J0.
X-7.1476 Z-0.261 I-0.0226 J0.
X-7.1216 Y-9.0223 Z-0.2705 I0.0226 J0.
X-7.1034 Y-8.9932 Z-0.28 I-0.0034 J0.0223
X-7.1466 Y-9.0068 I-0.0216 J-0.0068
X-7.1034 Y-8.9932 I0.0216 J0.0068
X-7.1176 Y-8.9858 I-0.0108 J-0.0034
G1 X-7.1248 Y-8.9881
X-7.1276 Y-8.989 Z-0.2797
X-7.1303 Y-8.9898 Z-0.2789
X-7.1328 Y-8.9906 Z-0.2775
X-7.135 Y-8.9913 Z-0.2756
X-7.1368 Y-8.9919 Z-0.2733
X-7.1381 Y-8.9923 Z-0.2707
X-7.1389 Y-8.9925 Z-0.2679
X-7.1392 Y-8.9926 Z-0.2649
G0 Z0.4
X-7.8637 Y-8.9887
Z0.13
G1 Z0.0651 F40.
G18 G3 X-7.8788 Z0.05 I-0.0151 K0.
G1 X-7.8863
G17 G3 X-7.8976 Y-9. I0. J-0.0113
X-7.8524 Z0.0327 I0.0226 J0.
X-7.8976 Z0.0154 I-0.0226 J0.
X-7.8524 Z-0.0018 I0.0226 J0.
X-7.8976 Z-0.0191 I-0.0226 J0.
X-7.8524 Z-0.0364 I0.0226 J0.
X-7.8976 Z-0.0537 I-0.0226 J0.
X-7.8524 Z-0.071 I0.0226 J0.
X-7.8976 Z-0.0882 I-0.0226 J0.
X-7.8524 Z-0.1055 I0.0226 J0.
X-7.8976 Z-0.1228 I-0.0226 J0.
X-7.8524 Z-0.1401 I0.0226 J0.
X-7.8976 Z-0.1574 I-0.0226 J0.
X-7.8524 Z-0.1746 I0.0226 J0.
X-7.8976 Z-0.1919 I-0.0226 J0.
X-7.8524 Z-0.2092 I0.0226 J0.
X-7.8976 Z-0.2265 I-0.0226 J0.
X-7.8524 Z-0.2438 I0.0226 J0.
X-7.8976 Z-0.261 I-0.0226 J0.
X-7.8716 Y-9.0223 Z-0.2705 I0.0226 J0.
X-7.8534 Y-8.9932 Z-0.28 I-0.0034 J0.0223
X-7.8966 Y-9.0068 I-0.0216 J-0.0068
X-7.8534 Y-8.9932 I0.0216 J0.0068
X-7.8676 Y-8.9858 I-0.0108 J-0.0034
G1 X-7.8748 Y-8.9881
X-7.8776 Y-8.989 Z-0.2797
X-7.8803 Y-8.9898 Z-0.2789
X-7.8828 Y-8.9906 Z-0.2775
X-7.885 Y-8.9913 Z-0.2756
X-7.8868 Y-8.9919 Z-0.2733
X-7.8881 Y-8.9923 Z-0.2707
X-7.8889 Y-8.9925 Z-0.2679
X-7.8892 Y-8.9926 Z-0.2649
G0 Z0.4
X-8.6137 Y-8.9887
Z0.13
G1 Z0.0651 F40.
G18 G3 X-8.6288 Z0.05 I-0.0151 K0.
G1 X-8.6363
G17 G3 X-8.6476 Y-9. I0. J-0.0113
X-8.6024 Z0.0327 I0.0226 J0.
X-8.6476 Z0.0154 I-0.0226 J0.
X-8.6024 Z-0.0018 I0.0226 J0.
X-8.6476 Z-0.0191 I-0.0226 J0.
X-8.6024 Z-0.0364 I0.0226 J0.
X-8.6476 Z-0.0537 I-0.0226 J0.
X-8.6024 Z-0.071 I0.0226 J0.
X-8.6476 Z-0.0882 I-0.0226 J0.
X-8.6024 Z-0.1055 I0.0226 J0.
X-8.6476 Z-0.1228 I-0.0226 J0.
X-8.6024 Z-0.1401 I0.0226 J0.
X-8.6476 Z-0.1574 I-0.0226 J0.
X-8.6024 Z-0.1746 I0.0226 J0.
X-8.6476 Z-0.1919 I-0.0226 J0.
X-8.6024 Z-0.2092 I0.0226 J0.
X-8.6476 Z-0.2265 I-0.0226 J0.
X-8.6024 Z-0.2438 I0.0226 J0.
X-8.6476 Z-0.261 I-0.0226 J0.
X-8.6216 Y-9.0223 Z-0.2705 I0.0226 J0.
X-8.6034 Y-8.9932 Z-0.28 I-0.0034 J0.0223
X-8.6466 Y-9.0068 I-0.0216 J-0.0068
X-8.6034 Y-8.9932 I0.0216 J0.0068
X-8.6176 Y-8.9858 I-0.0108 J-0.0034
G1 X-8.6248 Y-8.9881
X-8.6276 Y-8.989 Z-0.2797
X-8.6303 Y-8.9898 Z-0.2789
X-8.6328 Y-8.9906 Z-0.2775
X-8.635 Y-8.9913 Z-0.2756
X-8.6368 Y-8.9919 Z-0.2733
X-8.6381 Y-8.9923 Z-0.2707
X-8.6389 Y-8.9925 Z-0.2679
X-8.6392 Y-8.9926 Z-0.2649
G0 Z0.6
(2D SLOT CUT)
M7
G0 X-5.5984 Y-12.5754
Z0.6
Z0.2
G1 Z0.1 F13.333
X-6.5625 Z-0.07 F30.
X-8.625
G2 X-8.8254 Y-12.375 I0. J0.2004
G1 Y-12.1722
G2 X-8.7252 Y-11.9986 I0.2004 J0.
G1 X-7.6627 Y-11.3852
G3 X-7.3254 Y-10.8009 I-0.3373 J0.5842
G1 Y-10.25
G3 X-8. Y-9.5754 I-0.6746 J0.
G1 X-8.75
G2 X-8.9504 Y-9.375 I0. J0.2004
G1 Y-8.625
G2 X-8.75 Y-8.4246 I0.2004 J0.
G1 X-5.5
G2 X-5.2996 Y-8.625 I0. J-0.2004
G1 Y-9.375
G2 X-5.5 Y-9.5754 I-0.2004 J0.
G3 X-6.1746 Y-10.25 I0. J-0.6746
G1 Y-10.5123
G3 X-5.8373 Y-11.0965 I0.6746 J0.
G1 X-4.2748 Y-11.9986
G2 X-4.1746 Y-12.1722 I-0.1002 J-0.1735
G1 Y-12.375
G2 X-4.375 Y-12.5754 I-0.2004 J0.
G1 X-6.5625
X-7.0254 Z-0.14
X-8.625
G2 X-8.8254 Y-12.375 I0. J0.2004
G1 Y-12.1722
G2 X-8.7252 Y-11.9986 I0.2004 J0.
G1 X-7.6627 Y-11.3852
G3 X-7.3254 Y-10.8009 I-0.3373 J0.5842
G1 Y-10.25
G3 X-8. Y-9.5754 I-0.6746 J0.
G1 X-8.75
G2 X-8.9504 Y-9.375 I0. J0.2004
G1 Y-8.625
G2 X-8.75 Y-8.4246 I0.2004 J0.
G1 X-5.5
G2 X-5.2996 Y-8.625 I0. J-0.2004
G1 Y-9.375
G2 X-5.5 Y-9.5754 I-0.2004 J0.
G3 X-6.1746 Y-10.25 I0. J-0.6746
G1 Y-10.5123
G3 X-5.8373 Y-11.0965 I0.6746 J0.
G1 X-4.2748 Y-11.9986
G2 X-4.1746 Y-12.1722 I-0.1002 J-0.1735
G1 Y-12.375
G2 X-4.375 Y-12.5754 I-0.2004 J0.
G1 X-6.5625
X-7.0254
X-7.4223 Z-0.2
X-7.4884
X-8.1449
Z-0.21 F13.333
X-8.625 F30.
G2 X-8.8254 Y-12.375 I0. J0.2004
G1 Y-12.1722
G2 X-8.7252 Y-11.9986 I0.2004 J0.
G1 X-7.6627 Y-11.3852
G3 X-7.3254 Y-10.8009 I-0.3373 J0.5842
G1 Y-10.25
G3 X-8. Y-9.5754 I-0.6746 J0.
G1 X-8.75
G2 X-8.9504 Y-9.375 I0. J0.2004
G1 Y-8.625
G2 X-8.75 Y-8.4246 I0.2004 J0.
G1 X-8.6904
Z-0.2
X-7.9396
Z-0.21 F13.333
X-5.5 F30.
G2 X-5.304 Y-8.5833 I0. J-0.2004
G1 Z-0.2
G2 X-5.2996 Y-8.625 I-0.196 J-0.0417
G1 Y-9.3341
Z-0.21 F13.333
Y-9.375 F30.
G2 X-5.5 Y-9.5754 I-0.2004 J0.
G3 X-6.1746 Y-10.25 I0. J-0.6746
G1 Y-10.5123
G3 X-5.8373 Y-11.0965 I0.6746 J0.
G1 X-4.2748 Y-11.9986
G2 X-4.1746 Y-12.1722 I-0.1002 J-0.1735
G1 Y-12.375
G2 X-4.375 Y-12.5754 I-0.2004 J0.
G1 X-4.9406
Z-0.2
X-5.6914
Z-0.21 F13.333
X-7.3941 F30.
Z-0.2
X-7.4884
X-7.9513
X-8.1449
Z-0.28 F13.333
X-8.625 F30.
G2 X-8.8254 Y-12.375 I0. J0.2004
G1 Y-12.1722
G2 X-8.7252 Y-11.9986 I0.2004 J0.
G1 X-7.6627 Y-11.3852
G3 X-7.3254 Y-10.8009 I-0.3373 J0.5842
G1 Y-10.25
G3 X-8. Y-9.5754 I-0.6746 J0.
G1 X-8.75
G2 X-8.9504 Y-9.375 I0. J0.2004
G1 Y-8.625
G2 X-8.75 Y-8.4246 I0.2004 J0.
G1 X-8.6904
Z-0.2
X-7.9396
Z-0.28 F13.333
X-5.5 F30.
G2 X-5.304 Y-8.5833 I0. J-0.2004
G1 Z-0.2
G2 X-5.2996 Y-8.625 I-0.196 J-0.0417
G1 Y-9.3341
Z-0.28 F13.333
Y-9.375 F30.
G2 X-5.5 Y-9.5754 I-0.2004 J0.
G3 X-6.1746 Y-10.25 I0. J-0.6746
G1 Y-10.5123
G3 X-5.8373 Y-11.0965 I0.6746 J0.
G1 X-4.2748 Y-11.9986
G2 X-4.1746 Y-12.1722 I-0.1002 J-0.1735
G1 Y-12.375
G2 X-4.375 Y-12.5754 I-0.2004 J0.
G1 X-4.9406
Z-0.2
X-5.6914
Z-0.28 F13.333
X-7.3941 F30.
Z-0.2
X-7.9513
G0 Z0.6
M9
G53 Z0.
M30
%
