%
(971-23-P-0159_BEAM BRAKE REFLECTOR PLATE_1523)
(T1  D=0.1523 CR=0. - ZMIN=-0.0825 - FLAT END MILL)
G90 G94 G17 G91.1
G64 P0.001 Q0.001
G20
G53 G0 Z0.
(.3 CIRCLUAR THROUGH HOLE)
M9
T1 M6
S22000 M3
G4 P10.
G54
M7
G0 X6.1234 Y-1.3816
G43 Z0.6 H1
G0 Z0.1148
G1 Z0.05 F40.
X6.131
G3 X6.1353 Y-1.3773 I0. J0.0043
X6.1181 Z0. I-0.0086 J0.
X6.1353 Z-0.05 I0.0086 J0.
X6.1228 Y-1.3696 Z-0.0825 I-0.0086 J0.
X6.1306 Y-1.385 I0.0039 J-0.0077
X6.1228 Y-1.3696 I-0.0039 J0.0077
X6.1209 Y-1.3754 I0.002 J-0.0038
G1 X6.1244 Y-1.3822
G0 Z0.4
X4.7952 Y-1.7375
Z0.1148
G1 Z0.05 F40.
X4.8029
G3 X4.8072 Y-1.7332 I0. J0.0043
X4.79 Z0. I-0.0086 J0.
X4.8072 Z-0.05 I0.0086 J0.
X4.7946 Y-1.7255 Z-0.0825 I-0.0086 J0.
X4.8025 Y-1.7408 I0.0039 J-0.0077
X4.7946 Y-1.7255 I-0.0039 J0.0077
X4.7928 Y-1.7313 I0.002 J-0.0038
G1 X4.7962 Y-1.7381
G0 Z0.6
(SMALL SHAPE THROUGH HOLE)
M7
G0 X5.4537 Y-1.7608
Z0.6
Z0.1225
G3 X5.4944 Y-1.7318 Z0.1087 I0.0204 J0.0145 F50.
X5.4537 Y-1.7608 Z0.0948 I-0.0204 J-0.0145
X5.4944 Y-1.7318 Z0.081 I0.0204 J0.0145
X5.4537 Y-1.7608 Z0.0671 I-0.0204 J-0.0145
X5.4944 Y-1.7318 Z0.0533 I0.0204 J0.0145
X5.4537 Y-1.7608 Z0.0394 I-0.0204 J-0.0145
X5.4944 Y-1.7318 Z0.0256 I0.0204 J0.0145
X5.4537 Y-1.7608 Z0.0117 I-0.0204 J-0.0145
X5.4944 Y-1.7318 Z-0.0021 I0.0204 J0.0145
X5.4537 Y-1.7608 Z-0.016 I-0.0204 J-0.0145
X5.4944 Y-1.7318 Z-0.0298 I0.0204 J0.0145
X5.4537 Y-1.7608 Z-0.0437 I-0.0204 J-0.0145
X5.4944 Y-1.7318 Z-0.0575 I0.0204 J0.0145
X5.4537 Y-1.7608 Z-0.0714 I-0.0204 J-0.0145
X5.499 Y-1.7463 Z-0.0825 I0.0204 J0.0145
X5.449 I-0.025 J0.
X5.499 I0.025 J0.
X5.3783 Y-1.726 I-0.0603 J0.0102 F60.
X5.3811 Y-1.7568 I0.0603 J-0.0102
G1 X5.3826 Y-1.7646
X5.3846 Y-1.7723
X5.3873 Y-1.7797
X5.3905 Y-1.787
X5.3943 Y-1.794
X5.3986 Y-1.8006
X5.4035 Y-1.807
X5.4088 Y-1.8129
X5.4145 Y-1.8184
X5.4206 Y-1.8234
X5.4272 Y-1.8279
X5.434 Y-1.8319
X5.4412 Y-1.8354
X5.4485 Y-1.8383
X5.4561 Y-1.8407
X5.4639 Y-1.8424
X5.4717 Y-1.8435
X5.4797 Y-1.844
X5.4876 Y-1.8439
X5.4955 Y-1.8432
X5.5033 Y-1.8419
X5.511 Y-1.84
X5.5186 Y-1.8374
X5.5259 Y-1.8344
X5.5329 Y-1.8307
X5.5397 Y-1.8265
X5.5461 Y-1.8218
X5.5521 Y-1.8166
X5.5577 Y-1.811
X5.5628 Y-1.805
X5.5675 Y-1.7985
X5.5717 Y-1.7918
X5.5753 Y-1.7847
X5.5783 Y-1.7774
X5.5808 Y-1.7698
X5.5827 Y-1.7621
X5.584 Y-1.7543
X5.5846 Y-1.7464
X5.5847 Y-1.7384
X5.5841 Y-1.7305
X5.583 Y-1.7227
X5.5812 Y-1.7149
X5.5788 Y-1.7073
X5.5759 Y-1.7
X5.5723 Y-1.6929
G3 X5.5273 Y-1.6185 I-0.0686 J0.0093
G1 X5.3679 Y-1.662
G3 X5.3343 Y-1.6902 I-0.0016 J-0.0321
X5.3545 Y-1.6999 I0.0146 J0.0045
G1 X5.3599 Y-1.6978
X5.377 Y-1.691
G3 X5.3862 Y-1.6804 I-0.0056 J0.0142
X5.3679 Y-1.662 I-0.0148 J0.0035 F50.
G1 X5.3302 Y-1.6721 F60.
X5.3297 Y-1.6727
X5.3793 Y-1.8578
G3 X5.3978 Y-1.8794 I0.0201 J-0.0015
X5.4155 Y-1.8697 I-0.0144 J0.047
X5.3921 Y-1.8323 I-0.0145 J0.0169
X5.3793 Y-1.8578 I0.0089 J-0.0204 F50.
G1 X5.3857 Y-1.8818 F60.
X5.3862 Y-1.8825
X5.5906 Y-1.8278
G3 X5.6689 Y-1.7112 I-0.0437 J0.1139
X5.6418 Y-1.707 I-0.0146 J-0.0045
G1 X5.5746 Y-1.8043
X5.5732 Y-1.8067
X5.5723 Y-1.8094
G3 X5.5906 Y-1.8278 I0.0148 J-0.0035 F50.
G1 X5.6791 Y-1.804 F60.
X5.692 Y-1.8006
X5.6926 Y-1.7998
X5.6519 Y-1.6479
G3 X5.6209 Y-1.5943 I-0.0406 J0.0123
X5.6106 Y-1.6129 I0.0045 J-0.0146
G1 X5.6126 Y-1.62
X5.6224 Y-1.6553
G3 X5.6335 Y-1.6661 I0.0147 J0.0041
X5.6519 Y-1.6479 I0.0035 J0.0148 F50.
G1 X5.6365 Y-1.5906 F60.
X5.6362 Y-1.5901
X5.527 Y-1.6194
G3 X5.5204 Y-1.6444 I0.0045 J-0.0146
G1 X5.5224 Y-1.6466 Z-0.0822
X5.5244 Y-1.6487 Z-0.0813
X5.5262 Y-1.6506 Z-0.0799
X5.5278 Y-1.6522 Z-0.078
X5.5291 Y-1.6536 Z-0.0757
X5.5301 Y-1.6547 Z-0.0731
X5.5306 Y-1.6553 Z-0.0702
X5.5308 Y-1.6555 Z-0.0673
G0 Z0.6
(SHAPE THROUGH FINISHING PASS)
M7
G0 X5.4967 Y-1.8167
Z0.6
Z0.2
G1 Z0.1 F13.333
Z-0.0325
X5.4964 Y-1.8168 Z-0.0381 F40.
X5.4955 Y-1.817 Z-0.0436
X5.494 Y-1.8174 Z-0.049
X5.4919 Y-1.818 Z-0.0542
X5.4893 Y-1.8187 Z-0.0591
X5.4862 Y-1.8195 Z-0.0637
X5.4826 Y-1.8205 Z-0.0679
X5.4785 Y-1.8215 Z-0.0716
X5.4741 Y-1.8227 Z-0.0748
X5.4694 Y-1.824 Z-0.0775
X5.4644 Y-1.8253 Z-0.0797
X5.4591 Y-1.8267 Z-0.0812
X5.4538 Y-1.8282 Z-0.0822
X5.4484 Y-1.8296 Z-0.0825
X5.4337 Y-1.8336
G3 X5.4949 Y-1.8689 I0.0483 J0.0129
G1 X5.7111 Y-1.811 F50.
X5.647 Y-1.5717
X5.3112 Y-1.6617
X5.3753 Y-1.901
X5.4949 Y-1.8689
G3 X5.5303 Y-1.8077 I-0.0129 J0.0483
G1 X5.5156 Y-1.8116
X5.5102 Y-1.8131 Z-0.0822
X5.5048 Y-1.8145 Z-0.0812
X5.4996 Y-1.8159 Z-0.0797
X5.4946 Y-1.8172 Z-0.0775
X5.4899 Y-1.8185 Z-0.0748
X5.4855 Y-1.8197 Z-0.0716
X5.4814 Y-1.8208 Z-0.0679
X5.4778 Y-1.8217 Z-0.0637
X5.4747 Y-1.8226 Z-0.0591
X5.4721 Y-1.8233 Z-0.0542
X5.47 Y-1.8238 Z-0.049
X5.4685 Y-1.8242 Z-0.0436
X5.4676 Y-1.8245 Z-0.0381
X5.4673 Y-1.8246 Z-0.0325
G0 Z0.6
(2D SLOT CUT)
M7
G0 X5.7616 Y-0.8312
Z0.6
Z0.2
G1 Z0.1 F13.333
X5.8458 Y-1.1458 Z0.0426 F40.
G3 X5.8648 Y-1.1486 Z0.0391 I0.0127 J0.0202
G1 X6.052 Y-1.0985 Z0.0049
G2 X6.4134 Y-1.3443 Z-0.0825 I0.0747 J-0.2788
X6.3455 Y-1.5655 I-0.2868 J-0.033 F55.
G1 X6.0852 Y-1.8682
G2 X5.7975 Y-2.049 I-0.4368 J0.3757
G1 X5.4195 Y-2.1503
G2 X5.0799 Y-2.1376 I-0.1491 J0.5565
G1 X4.7031 Y-2.0056
G2 X4.7238 Y-1.4544 I0.0954 J0.2724
G1 X4.9111 Y-1.4042
G3 X4.926 Y-1.3922 I-0.0062 J0.0231
G1 X4.804 Y-0.937
Z0.0175
X4.6093 Y-0.2103
Z-0.0825 F13.333
X4.442 Y0.4141 F55.
G2 X4.4958 Y0.5073 I0.0736 J0.0197
G1 X5.2686 Y0.7144
G2 X5.3619 Y0.6606 I0.0197 J-0.0736
G1 X5.5471 Y-0.0308
Z0.0175
X5.7418 Y-0.7575
Z-0.0825 F13.333
X5.8458 Y-1.1458 F55.
G3 X5.8648 Y-1.1486 I0.0127 J0.0202
G1 X6.052 Y-1.0985
G2 X6.4134 Y-1.3443 I0.0747 J-0.2788
G0 Z0.6
M9
G53 Z0.
M30
%
