%
(2022 ENDMILL SIZING FIRST PASS 1575)
(T1  D=0.1575 CR=0. - ZMIN=-0.2075 - FLAT END MILL)
G90 G94 G17 G91.1
G64 P0.001 Q0.001
G20
G53 G0 Z0.
(.3 CIRCLUAR THROUGH HOLE 2)
M9
T1 M6
S22000 M3
G4 P10.
G54
M7
G0 X-0.5128 Y-0.0109
G43 Z0.6 H1
G0 Z0.13
G1 Z0.0658 F40.
G18 G2 X-0.497 Z0.05 I0.0158 K0.
G1 X-0.4891
G17 G3 X-0.4782 Y0. I0. J0.0109
X-0.5217 Z0.0323 I-0.0218 J0.
X-0.4782 Z0.0146 I0.0218 J0.
X-0.5217 Z-0.0032 I-0.0218 J0.
X-0.4782 Z-0.0209 I0.0218 J0.
X-0.5217 Z-0.0386 I-0.0218 J0.
X-0.4782 Z-0.0563 I0.0218 J0.
X-0.5217 Z-0.074 I-0.0218 J0.
X-0.4782 Z-0.0918 I0.0218 J0.
X-0.5217 Z-0.1095 I-0.0218 J0.
X-0.4782 Z-0.1272 I0.0218 J0.
X-0.5217 Z-0.1449 I-0.0218 J0.
X-0.4782 Z-0.1627 I0.0218 J0.
X-0.5217 Z-0.1804 I-0.0218 J0.
X-0.4782 Z-0.1981 I0.0217 J0.
X-0.5021 Y0.0216 Z-0.2075 I-0.0217 J0.
X-0.4979 Y-0.0216 I0.0021 J-0.0216
X-0.5021 Y0.0216 I-0.0021 J0.0216
X-0.5119 Y0.0098 I0.0011 J-0.0108
G1 X-0.5111 Y0.0019
X-0.5108 Y-0.0011 Z-0.2072
X-0.5105 Y-0.0041 Z-0.2063
X-0.5103 Y-0.0068 Z-0.2048
X-0.51 Y-0.0092 Z-0.2029
X-0.5098 Y-0.0111 Z-0.2005
X-0.5097 Y-0.0126 Z-0.1978
X-0.5096 Y-0.0134 Z-0.1948
Y-0.0137 Z-0.1918
G0 Z0.4
X0.4873 Y-0.0109
Z0.13
G1 Z0.0658 F40.
G18 G2 X0.503 Z0.05 I0.0158 K0.
G1 X0.5109
G17 G3 X0.5217 Y0. I0. J0.0109
X0.4782 Z0.0323 I-0.0218 J0.
X0.5217 Z0.0146 I0.0218 J0.
X0.4782 Z-0.0032 I-0.0218 J0.
X0.5217 Z-0.0209 I0.0218 J0.
X0.4782 Z-0.0386 I-0.0218 J0.
X0.5217 Z-0.0563 I0.0218 J0.
X0.4782 Z-0.074 I-0.0218 J0.
X0.5217 Z-0.0918 I0.0218 J0.
X0.4782 Z-0.1095 I-0.0218 J0.
X0.5217 Z-0.1272 I0.0218 J0.
X0.4782 Z-0.1449 I-0.0218 J0.
X0.5217 Z-0.1627 I0.0218 J0.
X0.4782 Z-0.1804 I-0.0218 J0.
X0.5217 Z-0.1981 I0.0217 J0.
X0.4979 Y0.0216 Z-0.2075 I-0.0217 J0.
X0.5021 Y-0.0216 I0.0021 J-0.0216
X0.4979 Y0.0216 I-0.0021 J0.0216
X0.4881 Y0.0098 I0.0011 J-0.0108
G1 X0.4889 Y0.0019
X0.4892 Y-0.0011 Z-0.2072
X0.4895 Y-0.0041 Z-0.2063
X0.4897 Y-0.0068 Z-0.2048
X0.49 Y-0.0092 Z-0.2029
X0.4902 Y-0.0111 Z-0.2005
X0.4903 Y-0.0126 Z-0.1978
X0.4904 Y-0.0134 Z-0.1948
Y-0.0137 Z-0.1918
G0 Z0.6
(2D SLOT CUT)
M7
G0 X-0.1455 Y-0.5938
Z0.6
Z0.2
G1 Z0.1 F13.333
X1.01 Z-0.1038 F40.
X-1.01 F55.
X1.01 Z-0.2075 F40.
X-1.01 F55.
G0 Z0.4
X0.1455 Y0.5938
Z0.2
G1 Z0.1 F13.333
X-1.01 Z-0.1038 F40.
X1. F55.
X1.01
X-1.01 Z-0.2075 F40.
X1. F55.
X1.01
G0 Z0.6
(  )
M7
G0 X-1.005 Y0.5938
Z0.6
Z0.2
G1 Z0.1 F13.333
Z-0.2025
G19 G2 Y0.5888 Z-0.2075 J-0.005 K0. F40.
G1 Y0.5837
G17 G3 X-1. Y0.5787 I0.005 J0.
G1 X1. F60.
G0 Z0.4
X1.005 Y-0.5938
Z0.2
G1 Z0.1 F13.333
Z-0.2025
G19 G3 Y-0.5888 Z-0.2075 J0.005 K0. F40.
G1 Y-0.5837
G17 G3 X1. Y-0.5787 I-0.005 J0.
G1 X-1. F60.
G0 Z0.6
M9
G53 Z0.
M30
%
