%
(2022 ENDMILL SIZING SECOND PASS 1575)
(T1  D=0.1575 CR=0. - ZMIN=-0.2075 - FLAT END MILL)
G90 G94 G17 G91.1
G64 P0.001 Q0.001
G20
G53 G0 Z0.
(2D SLOT CUT 2)
M9
T1 M6
S22000 M3
G4 P10.
G54
M7
G0 X-1.0787 Y0.3445
G43 Z0.6 H1
G0 Z0.2
G1 Z0.1 F13.333
Y0.5 Z0.0726 F40.
Y-0.5 Z-0.1038
Y0.5 F55.
Y-0.5 Z-0.2075 F40.
Y0.5 F55.
G0 Z0.4
X1.0787 Y-0.3445
Z0.2
G1 Z0.1 F13.333
Y-0.5 Z0.0726 F40.
Y0.5 Z-0.1038
Y-0.5 F55.
Y0.5 Z-0.2075 F40.
Y-0.5 F55.
G0 Z0.6
M9
G53 Z0.
M30
%
