%
(971-23-P-0111_END CAPS_1875)
(T1  D=0.1875 CR=0. - ZMIN=-0.53 - FLAT END MILL)
G90 G94 G17 G91.1
G64 P0.001 Q0.001
G20
G53 G0 Z0.
(.3 CIRCLUAR THROUGH HOLE 2)
M9
T1 M6
S13000 M3
G4 P10.
G54
M7
G0 X-4.7625 Y-5.0156
G43 Z0.6 H1
G0 Z0.13
G1 Z0.0688 F60.
G18 G2 X-4.7437 Z0.05 I0.0187 K0.
G1 X-4.7344
G17 G3 X-4.7187 Y-5. I0. J0.0156
X-4.7813 Z0.028 I-0.0313 J0. F80.
X-4.7187 Z0.0059 I0.0313 J0.
X-4.7813 Z-0.0161 I-0.0313 J0.
X-4.7187 Z-0.0382 I0.0313 J0.
X-4.7813 Z-0.0602 I-0.0313 J0.
X-4.7187 Z-0.0822 I0.0313 J0.
X-4.7813 Z-0.1043 I-0.0313 J0.
X-4.7187 Z-0.1263 I0.0313 J0.
X-4.7813 Z-0.1484 I-0.0313 J0.
X-4.7187 Z-0.1704 I0.0313 J0.
X-4.7813 Z-0.1924 I-0.0313 J0.
X-4.7187 Z-0.2145 I0.0313 J0.
X-4.7813 Z-0.2365 I-0.0313 J0.
X-4.7187 Z-0.2586 I0.0313 J0.
X-4.7813 Z-0.2806 I-0.0313 J0.
X-4.7187 Z-0.3027 I0.0313 J0.
X-4.7813 Z-0.3247 I-0.0313 J0.
X-4.7187 Z-0.3467 I0.0313 J0.
X-4.7813 Z-0.3688 I-0.0313 J0.
X-4.7187 Z-0.3908 I0.0313 J0.
X-4.7813 Z-0.4129 I-0.0313 J0.
X-4.7187 Z-0.4349 I0.0313 J0.
X-4.7813 Z-0.4569 I-0.0313 J0.
X-4.7187 Z-0.479 I0.0313 J0.
X-4.7813 Z-0.501 I-0.0313 J0.
X-4.7187 Z-0.5231 I0.0313 J0.
X-4.7328 Y-4.9739 Z-0.53 I-0.0313 J0.
X-4.7672 Y-5.0261 I-0.0172 J-0.0261
X-4.7328 Y-4.9739 I0.0172 J0.0261
X-4.7545 Y-4.9784 I-0.0086 J-0.0131 F60.
G1 X-4.7596 Y-4.9862
X-4.7614 Y-4.9889 Z-0.5297
X-4.7631 Y-4.9915 Z-0.5289
X-4.7648 Y-4.994 Z-0.5275
X-4.7662 Y-4.9963 Z-0.5256
X-4.7675 Y-4.9982 Z-0.5233
X-4.7685 Y-4.9998 Z-0.5206
X-4.7693 Y-5.0009 Z-0.5177
X-4.7698 Y-5.0016 Z-0.5145
X-4.7699 Y-5.0019 Z-0.5113
G0 Z0.6
(2D SLOT CUT)
M7
G0 X-4.7326 Y-4.5654
Z0.6
Z0.2
G1 Z0.119 F13.333
X-4.7329 Y-4.5655 Z0.1158 F60.
X-4.7337 Y-4.5656 Z0.1126
X-4.735 Y-4.566 Z0.1097
X-4.7368 Y-4.5664 Z0.107
X-4.7391 Y-4.5669 Z0.1047
X-4.7417 Y-4.5675 Z0.1028
X-4.7446 Y-4.5682 Z0.1014
X-4.7477 Y-4.5689 Z0.1006
X-4.7508 Y-4.5696 Z0.1003
X-4.7691 Y-4.5739
G3 X-4.7831 Y-4.5964 I0.0043 J-0.0183
G2 X-4.7808 Y-4.6077 Z0.0982 I-0.1887 J-0.044 F13.333
G3 X-4.7192 Z0.0828 I0.0308 J0.0053
G2 X-4.4265 Y-4.4755 Z0.016 I0.191 J-0.0326
X-4.7467 Y-5.6163 Z-0.2647 I-0.3235 J-0.5245
X-4.7484 Z-0.2649 I-0.0033 J0.6163
X-4.75 Z-0.265 I-0.0016 J0.6163
X-5.0735 Y-4.4755 I0. J0.6163 F80.
X-4.7808 Y-4.6077 I0.1017 J-0.1649
G3 X-4.7192 I0.0308 J0.0053
G2 X-4.4265 Y-4.4755 I0.191 J-0.0326
X-4.75 Y-5.6163 I-0.3235 J-0.5245
X-5.1484 Y-4.5298 I0. J0.6163 F13.333
G1 Z-0.405
G2 X-5.0735 Y-4.4755 I0.3984 J-0.4702 F80.
X-4.9489 Y-4.448 I0.1017 J-0.1649
G1 Z-0.53 F13.333
G2 X-4.7808 Y-4.6077 I-0.0229 J-0.1924 F80.
G3 X-4.7192 I0.0308 J0.0053
G2 X-4.4265 Y-4.4755 I0.191 J-0.0326
X-4.1505 Y-5.1427 I-0.3235 J-0.5245
G1 Z-0.405
G2 X-4.9117 Y-5.5947 I-0.5995 J0.1427
G1 Z-0.53 F13.333
G2 X-5.3334 Y-5.1984 I0.1617 J0.5947 F80.
G1 Z-0.405
G2 X-5.1484 Y-4.5298 I0.5834 J0.1984
G3 X-5.1462 Y-4.5034 I-0.0121 J0.0143 F60.
G1 X-5.1704 Y-4.4748
G0 Z0.6
M9
G53 Z0.
M30
%
