%
(971-23-P-0030_CENTER BUMPER SUPPORT PLATE_1490)
(T1  D=0.149 CR=0. - ZMIN=-0.28 - FLAT END MILL)
G90 G94 G17 G91.1
G64 P0.001 Q0.001
G20
G53 G0 Z0.
(.3 CIRCLUAR THROUGH HOLE 2)
M9
T1 M6
S22000 M3
G4 P10.
G54
M7
G0 X-2.7383 Y0.3644
G43 Z0.6 H1
G0 Z0.0783
G1 Z0.0132 F40.
G19 G3 Y0.3793 Z-0.0017 J0.0149 K0.
G1 Y0.3868
G17 G3 X-2.75 Y0.3985 I-0.0117 J0.
Y0.3515 Z-0.019 I0. J-0.0235
Y0.3985 Z-0.0362 I0. J0.0235
Y0.3515 Z-0.0535 I0. J-0.0235
Y0.3985 Z-0.0708 I0. J0.0235
Y0.3515 Z-0.0881 I0. J-0.0235
Y0.3985 Z-0.1054 I0. J0.0235
Y0.3515 Z-0.1226 I0. J-0.0235
Y0.3985 Z-0.1399 I0. J0.0235
Y0.3515 Z-0.1572 I0. J-0.0235
Y0.3985 Z-0.1745 I0. J0.0235
Y0.3515 Z-0.1918 I0. J-0.0235
Y0.3985 Z-0.209 I0. J0.0235
Y0.3515 Z-0.2263 I0. J-0.0235
Y0.3985 Z-0.2436 I0. J0.0235
Y0.3515 Z-0.2609 I0. J-0.0235
Y0.3985 Z-0.2782 I0. J0.0235
X-2.7577 Y0.3972 Z-0.28 I0. J-0.0235
X-2.7423 Y0.3528 I0.0077 J-0.0222
X-2.7577 Y0.3972 I-0.0077 J0.0222
X-2.765 Y0.3822 I0.0039 J-0.0111
G1 X-2.7625 Y0.3752
X-2.7616 Y0.3724 Z-0.2797
X-2.7606 Y0.3698 Z-0.2789
X-2.7598 Y0.3674 Z-0.2775
X-2.759 Y0.3652 Z-0.2756
X-2.7584 Y0.3635 Z-0.2734
X-2.758 Y0.3622 Z-0.2708
X-2.7577 Y0.3614 Z-0.268
X-2.7576 Y0.3611 Z-0.2651
G0 Z0.4
X-2.7618 Y1.6356
Z0.0783
G1 Z0.0132 F40.
G19 G2 Y1.6207 Z-0.0017 J-0.0149 K0.
G1 Y1.6133
G17 G3 X-2.75 Y1.6015 I0.0118 J0.
Y1.6485 Z-0.019 I0. J0.0235
Y1.6015 Z-0.0362 I0. J-0.0235
Y1.6485 Z-0.0535 I0. J0.0235
Y1.6015 Z-0.0708 I0. J-0.0235
Y1.6485 Z-0.0881 I0. J0.0235
Y1.6015 Z-0.1054 I0. J-0.0235
Y1.6485 Z-0.1226 I0. J0.0235
Y1.6015 Z-0.1399 I0. J-0.0235
Y1.6485 Z-0.1572 I0. J0.0235
Y1.6015 Z-0.1745 I0. J-0.0235
Y1.6485 Z-0.1918 I0. J0.0235
Y1.6015 Z-0.209 I0. J-0.0235
Y1.6485 Z-0.2263 I0. J0.0235
Y1.6015 Z-0.2436 I0. J-0.0235
Y1.6485 Z-0.2609 I0. J0.0235
Y1.6015 Z-0.2782 I0. J-0.0235
X-2.7423 Y1.6028 Z-0.28 I0. J0.0235
X-2.7577 Y1.6472 I-0.0077 J0.0222
X-2.7423 Y1.6028 I0.0077 J-0.0222
X-2.735 Y1.6178 I-0.0039 J0.0111
G1 X-2.7375 Y1.6248
X-2.7384 Y1.6276 Z-0.2797
X-2.7394 Y1.6302 Z-0.2789
X-2.7402 Y1.6326 Z-0.2775
X-2.741 Y1.6348 Z-0.2756
X-2.7416 Y1.6365 Z-0.2734
X-2.742 Y1.6378 Z-0.2708
X-2.7423 Y1.6386 Z-0.268
X-2.7424 Y1.6389 Z-0.2651
G0 Z0.4
X-1.0118 Y1.6356
Z0.0783
G1 Z0.0132 F40.
G19 G2 Y1.6207 Z-0.0017 J-0.0149 K0.
G1 Y1.6133
G17 G3 X-1. Y1.6015 I0.0118 J0.
Y1.6485 Z-0.019 I0. J0.0235
Y1.6015 Z-0.0362 I0. J-0.0235
Y1.6485 Z-0.0535 I0. J0.0235
Y1.6015 Z-0.0708 I0. J-0.0235
Y1.6485 Z-0.0881 I0. J0.0235
Y1.6015 Z-0.1054 I0. J-0.0235
Y1.6485 Z-0.1226 I0. J0.0235
Y1.6015 Z-0.1399 I0. J-0.0235
Y1.6485 Z-0.1572 I0. J0.0235
Y1.6015 Z-0.1745 I0. J-0.0235
Y1.6485 Z-0.1918 I0. J0.0235
Y1.6015 Z-0.209 I0. J-0.0235
Y1.6485 Z-0.2263 I0. J0.0235
Y1.6015 Z-0.2436 I0. J-0.0235
Y1.6485 Z-0.2609 I0. J0.0235
Y1.6015 Z-0.2782 I0. J-0.0235
X-0.9923 Y1.6028 Z-0.28 I0. J0.0235
X-1.0077 Y1.6472 I-0.0077 J0.0222
X-0.9923 Y1.6028 I0.0077 J-0.0222
X-0.985 Y1.6178 I-0.0039 J0.0111
G1 X-0.9875 Y1.6248
X-0.9884 Y1.6276 Z-0.2797
X-0.9894 Y1.6302 Z-0.2789
X-0.9902 Y1.6326 Z-0.2775
X-0.991 Y1.6348 Z-0.2756
X-0.9916 Y1.6365 Z-0.2734
X-0.992 Y1.6378 Z-0.2708
X-0.9923 Y1.6386 Z-0.268
X-0.9924 Y1.6389 Z-0.2651
G0 Z0.4
X-0.9882 Y0.3644
Z0.0783
G1 Z0.0132 F40.
G19 G3 Y0.3793 Z-0.0017 J0.0149 K0.
G1 Y0.3868
G17 G3 X-1. Y0.3985 I-0.0118 J0.
Y0.3515 Z-0.019 I0. J-0.0235
Y0.3985 Z-0.0362 I0. J0.0235
Y0.3515 Z-0.0535 I0. J-0.0235
Y0.3985 Z-0.0708 I0. J0.0235
Y0.3515 Z-0.0881 I0. J-0.0235
Y0.3985 Z-0.1054 I0. J0.0235
Y0.3515 Z-0.1226 I0. J-0.0235
Y0.3985 Z-0.1399 I0. J0.0235
Y0.3515 Z-0.1572 I0. J-0.0235
Y0.3985 Z-0.1745 I0. J0.0235
Y0.3515 Z-0.1918 I0. J-0.0235
Y0.3985 Z-0.209 I0. J0.0235
Y0.3515 Z-0.2263 I0. J-0.0235
Y0.3985 Z-0.2436 I0. J0.0235
Y0.3515 Z-0.2609 I0. J-0.0235
Y0.3985 Z-0.2782 I0. J0.0235
X-1.0077 Y0.3972 Z-0.28 I0. J-0.0235
X-0.9923 Y0.3528 I0.0077 J-0.0222
X-1.0077 Y0.3972 I-0.0077 J0.0222
X-1.015 Y0.3822 I0.0039 J-0.0111
G1 X-1.0125 Y0.3752
X-1.0116 Y0.3724 Z-0.2797
X-1.0106 Y0.3698 Z-0.2789
X-1.0098 Y0.3674 Z-0.2775
X-1.009 Y0.3652 Z-0.2756
X-1.0084 Y0.3635 Z-0.2734
X-1.008 Y0.3622 Z-0.2708
X-1.0077 Y0.3614 Z-0.268
X-1.0076 Y0.3611 Z-0.2651
G0 Z0.4
X0.9882 Y1.6356
Z0.0783
G1 Z0.0132 F40.
G19 G2 Y1.6207 Z-0.0017 J-0.0149 K0.
G1 Y1.6133
G17 G3 X1. Y1.6015 I0.0118 J0.
Y1.6485 Z-0.019 I0. J0.0235
Y1.6015 Z-0.0362 I0. J-0.0235
Y1.6485 Z-0.0535 I0. J0.0235
Y1.6015 Z-0.0708 I0. J-0.0235
Y1.6485 Z-0.0881 I0. J0.0235
Y1.6015 Z-0.1054 I0. J-0.0235
Y1.6485 Z-0.1226 I0. J0.0235
Y1.6015 Z-0.1399 I0. J-0.0235
Y1.6485 Z-0.1572 I0. J0.0235
Y1.6015 Z-0.1745 I0. J-0.0235
Y1.6485 Z-0.1918 I0. J0.0235
Y1.6015 Z-0.209 I0. J-0.0235
Y1.6485 Z-0.2263 I0. J0.0235
Y1.6015 Z-0.2436 I0. J-0.0235
Y1.6485 Z-0.2609 I0. J0.0235
Y1.6015 Z-0.2782 I0. J-0.0235
X1.0077 Y1.6028 Z-0.28 I0. J0.0235
X0.9923 Y1.6472 I-0.0077 J0.0222
X1.0077 Y1.6028 I0.0077 J-0.0222
X1.015 Y1.6178 I-0.0039 J0.0111
G1 X1.0125 Y1.6248
X1.0116 Y1.6276 Z-0.2797
X1.0106 Y1.6302 Z-0.2789
X1.0098 Y1.6326 Z-0.2775
X1.009 Y1.6348 Z-0.2756
X1.0084 Y1.6365 Z-0.2734
X1.008 Y1.6378 Z-0.2708
X1.0077 Y1.6386 Z-0.268
X1.0076 Y1.6389 Z-0.2651
G0 Z0.4
X1.0118 Y0.3644
Z0.0783
G1 Z0.0132 F40.
G19 G3 Y0.3793 Z-0.0017 J0.0149 K0.
G1 Y0.3868
G17 G3 X1. Y0.3985 I-0.0118 J0.
Y0.3515 Z-0.019 I0. J-0.0235
Y0.3985 Z-0.0362 I0. J0.0235
Y0.3515 Z-0.0535 I0. J-0.0235
Y0.3985 Z-0.0708 I0. J0.0235
Y0.3515 Z-0.0881 I0. J-0.0235
Y0.3985 Z-0.1054 I0. J0.0235
Y0.3515 Z-0.1226 I0. J-0.0235
Y0.3985 Z-0.1399 I0. J0.0235
Y0.3515 Z-0.1572 I0. J-0.0235
Y0.3985 Z-0.1745 I0. J0.0235
Y0.3515 Z-0.1918 I0. J-0.0235
Y0.3985 Z-0.209 I0. J0.0235
Y0.3515 Z-0.2263 I0. J-0.0235
Y0.3985 Z-0.2436 I0. J0.0235
Y0.3515 Z-0.2609 I0. J-0.0235
Y0.3985 Z-0.2782 I0. J0.0235
X0.9923 Y0.3972 Z-0.28 I0. J-0.0235
X1.0077 Y0.3528 I0.0077 J-0.0222
X0.9923 Y0.3972 I-0.0077 J0.0222
X0.985 Y0.3822 I0.0039 J-0.0111
G1 X0.9875 Y0.3752
X0.9884 Y0.3724 Z-0.2797
X0.9894 Y0.3698 Z-0.2789
X0.9902 Y0.3674 Z-0.2775
X0.991 Y0.3652 Z-0.2756
X0.9916 Y0.3635 Z-0.2734
X0.992 Y0.3622 Z-0.2708
X0.9923 Y0.3614 Z-0.268
X0.9924 Y0.3611 Z-0.2651
G0 Z0.4
X2.7618 Y0.3644
Z0.0783
G1 Z0.0132 F40.
G19 G3 Y0.3793 Z-0.0017 J0.0149 K0.
G1 Y0.3868
G17 G3 X2.75 Y0.3985 I-0.0118 J0.
Y0.3515 Z-0.019 I0. J-0.0235
Y0.3985 Z-0.0362 I0. J0.0235
Y0.3515 Z-0.0535 I0. J-0.0235
Y0.3985 Z-0.0708 I0. J0.0235
Y0.3515 Z-0.0881 I0. J-0.0235
Y0.3985 Z-0.1054 I0. J0.0235
Y0.3515 Z-0.1226 I0. J-0.0235
Y0.3985 Z-0.1399 I0. J0.0235
Y0.3515 Z-0.1572 I0. J-0.0235
Y0.3985 Z-0.1745 I0. J0.0235
Y0.3515 Z-0.1918 I0. J-0.0235
Y0.3985 Z-0.209 I0. J0.0235
Y0.3515 Z-0.2263 I0. J-0.0235
Y0.3985 Z-0.2436 I0. J0.0235
Y0.3515 Z-0.2609 I0. J-0.0235
Y0.3985 Z-0.2782 I0. J0.0235
X2.7423 Y0.3972 Z-0.28 I0. J-0.0235
X2.7577 Y0.3528 I0.0077 J-0.0222
X2.7423 Y0.3972 I-0.0077 J0.0222
X2.735 Y0.3822 I0.0039 J-0.0111
G1 X2.7375 Y0.3752
X2.7384 Y0.3724 Z-0.2797
X2.7394 Y0.3698 Z-0.2789
X2.7402 Y0.3674 Z-0.2775
X2.741 Y0.3652 Z-0.2756
X2.7416 Y0.3635 Z-0.2734
X2.742 Y0.3622 Z-0.2708
X2.7423 Y0.3614 Z-0.268
X2.7424 Y0.3611 Z-0.2651
G0 Z0.4
X2.7383 Y1.6356
Z0.0783
G1 Z0.0132 F40.
G19 G2 Y1.6207 Z-0.0017 J-0.0149 K0.
G1 Y1.6133
G17 G3 X2.75 Y1.6015 I0.0117 J0.
Y1.6485 Z-0.019 I0. J0.0235
Y1.6015 Z-0.0362 I0. J-0.0235
Y1.6485 Z-0.0535 I0. J0.0235
Y1.6015 Z-0.0708 I0. J-0.0235
Y1.6485 Z-0.0881 I0. J0.0235
Y1.6015 Z-0.1054 I0. J-0.0235
Y1.6485 Z-0.1226 I0. J0.0235
Y1.6015 Z-0.1399 I0. J-0.0235
Y1.6485 Z-0.1572 I0. J0.0235
Y1.6015 Z-0.1745 I0. J-0.0235
Y1.6485 Z-0.1918 I0. J0.0235
Y1.6015 Z-0.209 I0. J-0.0235
Y1.6485 Z-0.2263 I0. J0.0235
Y1.6015 Z-0.2436 I0. J-0.0235
Y1.6485 Z-0.2609 I0. J0.0235
Y1.6015 Z-0.2782 I0. J-0.0235
X2.7577 Y1.6028 Z-0.28 I0. J0.0235
X2.7423 Y1.6472 I-0.0077 J0.0222
X2.7577 Y1.6028 I0.0077 J-0.0222
X2.765 Y1.6178 I-0.0039 J0.0111
G1 X2.7625 Y1.6248
X2.7616 Y1.6276 Z-0.2797
X2.7606 Y1.6302 Z-0.2789
X2.7598 Y1.6326 Z-0.2775
X2.759 Y1.6348 Z-0.2756
X2.7584 Y1.6365 Z-0.2734
X2.758 Y1.6378 Z-0.2708
X2.7577 Y1.6386 Z-0.268
X2.7576 Y1.6389 Z-0.2651
G0 Z0.4
X0. Y5.375
Z0.1151
G1 Z0.05 F40.
X0.0025 Y5.3775
G3 X0. Y5.38 I-0.0025 J0.
Y5.37 Z0.036 I0. J-0.005
X0.005 Y5.3746 Z0.0294 I0. J0.005
X-0.005 Y5.3754 Z0.0154 I-0.005 J0.0004
X0.005 Y5.3746 Z0.0013 I0.005 J-0.0004
X-0.0048 Y5.3763 Z-0.0119 I-0.005 J0.0004
X0.0048 Y5.3737 Z-0.0259 I0.0048 J-0.0013
X-0.0048 Y5.3763 Z-0.0399 I-0.0048 J0.0013
X0.0045 Y5.3728 Z-0.0531 I0.0048 J-0.0013
X-0.0045 Y5.3772 Z-0.0671 I-0.0045 J0.0022
X-0.0026 Y5.3707 Z-0.0738 I0.0045 J-0.0022
X0.0026 Y5.3793 Z-0.0878 I0.0026 J0.0043
X-0.0026 Y5.3707 Z-0.1018 I-0.0026 J-0.0043
X0.0033 Y5.3788 Z-0.115 I0.0026 J0.0043
X-0.0033 Y5.3712 Z-0.129 I-0.0033 J-0.0038
X0.0033 Y5.3788 Z-0.143 I0.0033 J0.0038
X-0.0039 Y5.3719 Z-0.1563 I-0.0033 J-0.0038
X0.0039 Y5.3781 Z-0.1703 I0.0039 J0.0031
X-0.0039 Y5.3719 Z-0.1843 I-0.0039 J-0.0031
X0.0039 Y5.3781 Z-0.1983 I0.0039 J0.0031
X-0.0039 Y5.3719 Z-0.2123 I-0.0039 J-0.0031
X0.0039 Y5.3781 Z-0.2263 I0.0039 J0.0031
X-0.0039 Y5.3719 Z-0.2404 I-0.0039 J-0.0031
X0.0039 Y5.3781 Z-0.2544 I0.0039 J0.0031
X-0.0039 Y5.3719 Z-0.2684 I-0.0039 J-0.0031
X0.005 Y5.3756 Z-0.28 I0.0039 J0.0031
X-0.005 Y5.3744 I-0.005 J-0.0006
X0.005 Y5.3756 I0.005 J0.0006
X0.0022 Y5.3778 I-0.0025 J-0.0003
G1 X0. Y5.375
G0 Z0.4
X-1.525 Y9.65
Z0.1151
G1 Z0.05 F40.
X-1.5225 Y9.6525
G3 X-1.525 Y9.655 I-0.0025 J0.
Y9.645 Z0.036 I0. J-0.005
Y9.655 Z0.022 I0. J0.005
Y9.645 Z0.0079 I0. J-0.005
Y9.655 Z-0.0061 I0. J0.005
Y9.645 Z-0.0201 I0. J-0.005
Y9.655 Z-0.0341 I0. J0.005
Y9.645 Z-0.0481 I0. J-0.005
Y9.655 Z-0.0621 I0. J0.005
Y9.645 Z-0.0762 I0. J-0.005
Y9.655 Z-0.0902 I0. J0.005
Y9.645 Z-0.1042 I0. J-0.005
Y9.655 Z-0.1182 I0. J0.005
Y9.645 Z-0.1322 I0. J-0.005
Y9.655 Z-0.1463 I0. J0.005
Y9.645 Z-0.1603 I0. J-0.005
Y9.655 Z-0.1743 I0. J0.005
Y9.645 Z-0.1883 I0. J-0.005
Y9.655 Z-0.2023 I0. J0.005
Y9.645 Z-0.2163 I0. J-0.005
Y9.655 Z-0.2304 I0. J0.005
Y9.645 Z-0.2444 I0. J-0.005
Y9.655 Z-0.2584 I0. J0.005
Y9.645 Z-0.2724 I0. J-0.005
X-1.52 Y9.6506 Z-0.28 I0. J0.005
X-1.53 Y9.6494 I-0.005 J-0.0006
X-1.52 Y9.6506 I0.005 J0.0006
X-1.5228 Y9.6528 I-0.0025 J-0.0003
G1 X-1.525 Y9.65
G0 Z0.4
X1.525
Z0.1151
G1 Z0.05 F40.
X1.5275 Y9.6525
G3 X1.525 Y9.655 I-0.0025 J0.
Y9.645 Z0.036 I0. J-0.005
Y9.655 Z0.022 I0. J0.005
Y9.645 Z0.0079 I0. J-0.005
Y9.655 Z-0.0061 I0. J0.005
Y9.645 Z-0.0201 I0. J-0.005
Y9.655 Z-0.0341 I0. J0.005
Y9.645 Z-0.0481 I0. J-0.005
Y9.655 Z-0.0621 I0. J0.005
Y9.645 Z-0.0762 I0. J-0.005
Y9.655 Z-0.0902 I0. J0.005
Y9.645 Z-0.1042 I0. J-0.005
Y9.655 Z-0.1182 I0. J0.005
Y9.645 Z-0.1322 I0. J-0.005
Y9.655 Z-0.1463 I0. J0.005
Y9.645 Z-0.1603 I0. J-0.005
Y9.655 Z-0.1743 I0. J0.005
Y9.645 Z-0.1883 I0. J-0.005
Y9.655 Z-0.2023 I0. J0.005
Y9.645 Z-0.2163 I0. J-0.005
Y9.655 Z-0.2304 I0. J0.005
Y9.645 Z-0.2444 I0. J-0.005
Y9.655 Z-0.2584 I0. J0.005
Y9.645 Z-0.2724 I0. J-0.005
X1.53 Y9.6506 Z-0.28 I0. J0.005
X1.52 Y9.6494 I-0.005 J-0.0006
X1.53 Y9.6506 I0.005 J0.0006
X1.5272 Y9.6528 I-0.0025 J-0.0003
G1 X1.525 Y9.65
G0 Z0.6
(2D SLOT CUT)
M7
G0 X4.5434 Y5.8067
Z0.6
Z0.2
G1 Z0.1151 F13.333
G19 G2 Y5.7918 Z0.1002 J-0.0149 K0. F40.
G1 Y5.7769
G17 G3 X4.5583 Y5.762 I0.0149 J0.
G1 X4.9 Z0.04
G2 X5.0745 Y5.5875 Z-0.0084 I0. J-0.1745
G1 Y5.2392 Z-0.0698
G19 G2 Y5.2366 Z-0.07 J-0.0026 K0.0147
G1 Y4.5375 F30.
G17 G2 X4.9 Y4.363 I-0.1745 J0.
G1 X3.1809
G3 X2.5617 Y3.4177 I0. J-0.6755
G1 X3.1559 Y2.0536
G2 X3.1725 Y1.974 I-0.1829 J-0.0797
G1 Y0.25
G2 X2.848 Y-0.0745 I-0.3245 J0.
G1 X-2.848
G2 X-3.1725 Y0.25 I0. J0.3245
G1 Y1.974
G2 X-3.1559 Y2.0536 I0.1995 J0.
G1 X-2.5617 Y3.4177
G3 X-3.1809 Y4.363 I-0.6193 J0.2698
G1 X-4.9
G2 X-5.0745 Y4.5375 I0. J0.1745
G1 Y5.5875
G2 X-4.9 Y5.762 I0.1745 J0.
G1 X-2.65
G3 X-1.9745 Y6.4375 I0. J0.6755
G1 Y10.3482
G2 X-1.6339 Y10.4893 I0.1995 J0.
G1 X-1.1339 Y9.9893
G2 X-1.0755 Y9.8482 I-0.1411 J-0.1411
G1 Y6.9
G3 X1.0755 I1.0755 J0.
G1 Y9.8482
G2 X1.1339 Y9.9893 I0.1995 J0.
G1 X1.6339 Y10.4893
G2 X1.9745 Y10.3482 I0.1411 J-0.1411
G1 Y6.4375
G3 X2.65 Y5.762 I0.6755 J0.
G1 X4.9
G2 X5.0745 Y5.5875 I0. J-0.1745
G1 Y5.2366
Y4.5375 Z-0.1128 F40.
G2 X4.9 Y4.363 Z-0.1296 I-0.1745 J0.
G1 X4.7299 Z-0.14
X3.1809 F30.
G3 X2.5617 Y3.4177 I0. J-0.6755
G1 X3.1559 Y2.0536
G2 X3.1725 Y1.974 I-0.1829 J-0.0797
G1 Y0.25
G2 X2.848 Y-0.0745 I-0.3245 J0.
G1 X1.8409
Z-0.13
X1.0919
Z-0.14 F13.333
X-1.1418 F30.
Z-0.13
X-1.8908
Z-0.14 F13.333
X-2.848 F30.
G2 X-3.1725 Y0.25 I0. J0.3245
G1 Y1.974
G2 X-3.1559 Y2.0536 I0.1995 J0.
G1 X-2.5617 Y3.4177
G3 X-3.1809 Y4.363 I-0.6193 J0.2698
G1 X-4.9
G2 X-5.0745 Y4.5375 I0. J0.1745
G1 Y4.7541
Z-0.13
Y5.5031
Z-0.14 F13.333
Y5.5875 F30.
G2 X-4.9 Y5.762 I0.1745 J0.
G1 X-2.65
G3 X-1.9745 Y6.4375 I0. J0.6755
G1 Y8.8405
Z-0.13
Y9.5895
Z-0.14 F13.333
Y10.3482 F30.
G2 X-1.6339 Y10.4893 I0.1995 J0.
G1 X-1.1339 Y9.9893
G2 X-1.0755 Y9.8482 I-0.1411 J-0.1411
G1 Y6.9
G3 X1.0755 I1.0755 J0.
G1 Y9.8482
G2 X1.1339 Y9.9893 I0.1995 J0.
G1 X1.6339 Y10.4893
G2 X1.9745 Y10.3482 I0.1411 J-0.1411
G1 Y9.2738
Z-0.13
Y8.5248
Z-0.14 F13.333
Y6.4375 F30.
G3 X2.65 Y5.762 I0.6755 J0.
G1 X4.9
G2 X5.0745 Y5.5875 I0. J-0.1745
G1 Y5.5037
Z-0.13
Y4.7547
Z-0.14 F13.333
Y4.5375 F30.
G2 X4.9 Y4.363 I-0.1745 J0.
G1 X4.7299
X3.5865 Z-0.21 F40.
X3.1809 F30.
G3 X2.5617 Y3.4177 I0. J-0.6755
G1 X3.1559 Y2.0536
G2 X3.1725 Y1.974 I-0.1829 J-0.0797
G1 Y0.25
G2 X2.848 Y-0.0745 I-0.3245 J0.
G1 X1.8409
Z-0.13
X1.0919
Z-0.21 F13.333
X-1.1418 F30.
Z-0.13
X-1.8908
Z-0.21 F13.333
X-2.848 F30.
G2 X-3.1725 Y0.25 I0. J0.3245
G1 Y1.974
G2 X-3.1559 Y2.0536 I0.1995 J0.
G1 X-2.5617 Y3.4177
G3 X-3.1809 Y4.363 I-0.6193 J0.2698
G1 X-4.9
G2 X-5.0745 Y4.5375 I0. J0.1745
G1 Y4.7541
Z-0.13
Y5.5031
Z-0.21 F13.333
Y5.5875 F30.
G2 X-4.9 Y5.762 I0.1745 J0.
G1 X-2.65
G3 X-1.9745 Y6.4375 I0. J0.6755
G1 Y8.8405
Z-0.13
Y9.5895
Z-0.21 F13.333
Y10.3482 F30.
G2 X-1.6339 Y10.4893 I0.1995 J0.
G1 X-1.1339 Y9.9893
G2 X-1.0755 Y9.8482 I-0.1411 J-0.1411
G1 Y6.9
G3 X1.0755 I1.0755 J0.
G1 Y9.8482
G2 X1.1339 Y9.9893 I0.1995 J0.
G1 X1.6339 Y10.4893
G2 X1.9745 Y10.3482 I0.1411 J-0.1411
G1 Y9.2738
Z-0.13
Y8.5248
Z-0.21 F13.333
Y6.4375 F30.
G3 X2.65 Y5.762 I0.6755 J0.
G1 X4.9
G2 X5.0745 Y5.5875 I0. J-0.1745
G1 Y5.5037
Z-0.13
Y4.7547
Z-0.21 F13.333
Y4.5375 F30.
G2 X4.9 Y4.363 I-0.1745 J0.
G1 X3.5865
X3.1809 Z-0.2348 F40.
G3 X2.5813 Y3.9986 Z-0.28 I0. J-0.6755
X2.5617 Y3.4177 I0.5996 J-0.3111 F30.
G1 X3.1559 Y2.0536
G2 X3.1725 Y1.974 I-0.1829 J-0.0797
G1 Y0.25
G2 X2.848 Y-0.0745 I-0.3245 J0.
G1 X1.8409
Z-0.13
X1.0919
Z-0.28 F13.333
X-1.1418 F30.
Z-0.13
X-1.8908
Z-0.28 F13.333
X-2.848 F30.
G2 X-3.1725 Y0.25 I0. J0.3245
G1 Y1.974
G2 X-3.1559 Y2.0536 I0.1995 J0.
G1 X-2.5617 Y3.4177
G3 X-3.1809 Y4.363 I-0.6193 J0.2698
G1 X-4.9
G2 X-5.0745 Y4.5375 I0. J0.1745
G1 Y4.7541
Z-0.13
Y5.5031
Z-0.28 F13.333
Y5.5875 F30.
G2 X-4.9 Y5.762 I0.1745 J0.
G1 X-2.65
G3 X-1.9745 Y6.4375 I0. J0.6755
G1 Y8.8405
Z-0.13
Y9.5895
Z-0.28 F13.333
Y10.3482 F30.
G2 X-1.6339 Y10.4893 I0.1995 J0.
G1 X-1.1339 Y9.9893
G2 X-1.0755 Y9.8482 I-0.1411 J-0.1411
G1 Y6.9
G3 X1.0755 I1.0755 J0.
G1 Y9.8482
G2 X1.1339 Y9.9893 I0.1995 J0.
G1 X1.6339 Y10.4893
G2 X1.9745 Y10.3482 I0.1411 J-0.1411
G1 Y9.2738
Z-0.13
Y8.5248
Z-0.28 F13.333
Y6.4375 F30.
G3 X2.65 Y5.762 I0.6755 J0.
G1 X4.9
G2 X5.0745 Y5.5875 I0. J-0.1745
G1 Y5.5037
Z-0.13
Y4.7547
Z-0.28 F13.333
Y4.5375 F30.
G2 X4.9 Y4.363 I-0.1745 J0.
G1 X3.1809
G3 X2.5813 Y3.9986 I0. J-0.6755
X2.5877 Y3.9785 I0.0132 J-0.0069
G1 X2.6009 Y3.9716
X2.6035 Y3.9703 Z-0.2797
X2.606 Y3.969 Z-0.2789
X2.6083 Y3.9678 Z-0.2775
X2.6103 Y3.9668 Z-0.2756
X2.6119 Y3.9659 Z-0.2734
X2.6131 Y3.9653 Z-0.2708
X2.6139 Y3.9649 Z-0.268
X2.6141 Y3.9647 Z-0.2651
G0 Z0.6
M9
G53 Z0.
M30
%
