%
(971-23-P-0068_ARM GEARBOX PLATE 2V2_1490 FINISHING)
(T1  D=0.149 CR=0. - ZMIN=-0.2175 - FLAT END MILL)
G90 G94 G17 G91.1
G64 P0.001 Q0.001
G20
G53 G0 Z0.
(.3 CIRCLUAR THROUGH HOLE 3)
M9
T1 M6
S22000 M3
G4 P10.
G54
M7
G0 X-69.8739 Y14.2022
G43 Z0.6 H1
G0 Z0.13
G1 Z0.0649 F40.
G18 G2 X-69.859 Z0.05 I0.0149 K0.
G1 X-69.8516
G17 G3 X-69.8386 Y14.2152 I0. J0.013
X-69.8906 Z0.0323 I-0.026 J0.
X-69.8747 Y14.1913 Z0.0257 I0.026 J0.
X-69.8544 Y14.2392 Z0.008 I0.0102 J0.0239
X-69.8747 Y14.1913 Z-0.0098 I-0.0102 J-0.0239
X-69.8544 Y14.2392 Z-0.0275 I0.0102 J0.0239
X-69.8747 Y14.1913 Z-0.0452 I-0.0102 J-0.0239
X-69.8544 Y14.2392 Z-0.0629 I0.0102 J0.0239
X-69.8882 Y14.2262 Z-0.0716 I-0.0102 J-0.0239
X-69.841 Y14.2043 Z-0.0893 I0.0236 J-0.011
X-69.8453 Y14.2326 Z-0.0959 I-0.0236 J0.011
X-69.8839 Y14.1978 Z-0.1136 I-0.0193 J-0.0174
X-69.8453 Y14.2326 Z-0.1314 I0.0193 J0.0174
X-69.8905 Y14.217 Z-0.1445 I-0.0193 J-0.0174
X-69.8387 Y14.2134 Z-0.1623 I0.0259 J-0.0018
X-69.8905 Y14.217 Z-0.18 I-0.0259 J0.0018
X-69.8478 Y14.1953 Z-0.1932 I0.0259 J-0.0018
X-69.8813 Y14.2351 Z-0.2109 I-0.0168 J0.0199
X-69.8894 Y14.2076 Z-0.2175 I0.0168 J-0.0199
X-69.8397 Y14.2229 I0.0248 J0.0077
X-69.8894 Y14.2076 I-0.0248 J-0.0077
X-69.8732 Y14.199 I0.0124 J0.0038
G1 X-69.8661 Y14.2012
X-69.8633 Y14.202 Z-0.2172
X-69.8606 Y14.2028 Z-0.2164
X-69.8582 Y14.2036 Z-0.215
X-69.856 Y14.2043 Z-0.2131
X-69.8542 Y14.2048 Z-0.2109
X-69.8529 Y14.2052 Z-0.2083
X-69.8521 Y14.2055 Z-0.2055
X-69.8518 Z-0.2026
G0 Z0.4
X-71.1969 Y13.487
Z0.13
G1 Z0.0649 F40.
G18 G2 X-71.1819 Z0.05 I0.0149 K0.
G1 X-71.1745
G17 G3 X-71.1615 Y13.5 I0. J0.013
X-71.2135 Z0.0323 I-0.026 J0.
X-71.1977 Y13.4761 Z0.0257 I0.026 J0.
X-71.1773 Y13.5239 Z0.008 I0.0102 J0.0239
X-71.2056 Y13.5187 Z0.0014 I-0.0102 J-0.0239
X-71.1694 Y13.4813 Z-0.0164 I0.0181 J-0.0187
X-71.2056 Y13.5187 Z-0.0341 I-0.0181 J0.0187
X-71.1694 Y13.4813 Z-0.0518 I0.0181 J-0.0187
X-71.2056 Y13.5187 Z-0.0695 I-0.0181 J0.0187
X-71.2111 Y13.511 Z-0.0716 I0.0181 J-0.0187
X-71.1639 Y13.489 Z-0.0893 I0.0236 J-0.011
X-71.1682 Y13.5174 Z-0.0959 I-0.0236 J0.011
X-71.2068 Y13.4826 Z-0.1136 I-0.0193 J-0.0174
X-71.1682 Y13.5174 Z-0.1314 I0.0193 J0.0174
X-71.2134 Y13.5018 Z-0.1445 I-0.0193 J-0.0174
X-71.1616 Y13.4982 Z-0.1623 I0.0259 J-0.0018
X-71.1757 Y13.5232 Z-0.1689 I-0.0259 J0.0018
X-71.1993 Y13.4768 Z-0.1866 I-0.0118 J-0.0232
X-71.1707 Y13.4801 Z-0.1932 I0.0118 J0.0232
X-71.2043 Y13.5199 Z-0.2109 I-0.0168 J0.0199
X-71.2123 Y13.4923 Z-0.2175 I0.0168 J-0.0199
X-71.1627 Y13.5077 I0.0248 J0.0077
X-71.2123 Y13.4923 I-0.0248 J-0.0077
X-71.1961 Y13.4837 I0.0124 J0.0038
G1 X-71.189 Y13.4859
X-71.1862 Y13.4868 Z-0.2172
X-71.1835 Y13.4876 Z-0.2164
X-71.1811 Y13.4884 Z-0.215
X-71.1789 Y13.489 Z-0.2131
X-71.1771 Y13.4896 Z-0.2109
X-71.1758 Y13.49 Z-0.2083
X-71.175 Y13.4902 Z-0.2055
X-71.1747 Y13.4903 Z-0.2026
G0 Z0.4
X-71.4399 Y11.987
Z0.13
G1 Z0.0649 F40.
G18 G2 X-71.425 Z0.05 I0.0149 K0.
G1 X-71.4175
G17 G3 X-71.4045 Y12. I0. J0.013
X-71.4565 Z0.0323 I-0.026 J0.
X-71.4407 Y11.9761 Z0.0257 I0.026 J0.
X-71.4204 Y12.0239 Z0.008 I0.0102 J0.0239
X-71.4407 Y11.9761 Z-0.0098 I-0.0102 J-0.0239
X-71.4063 Y12.0093 Z-0.023 I0.0102 J0.0239
X-71.4548 Y11.9907 Z-0.0407 I-0.0243 J-0.0093
X-71.4063 Y12.0093 Z-0.0584 I0.0243 J0.0093
X-71.4548 Y11.9907 Z-0.0761 I-0.0243 J-0.0093
X-71.4063 Y12.0093 Z-0.0938 I0.0243 J0.0093
X-71.4548 Y11.9907 Z-0.1116 I-0.0243 J-0.0093
X-71.4063 Y12.0093 Z-0.1293 I0.0243 J0.0093
X-71.4548 Y11.9907 Z-0.147 I-0.0243 J-0.0093
X-71.4063 Y12.0093 Z-0.1647 I0.0243 J0.0093
X-71.4548 Y11.9907 Z-0.1824 I-0.0243 J-0.0093
X-71.4063 Y12.0093 Z-0.2002 I0.0243 J0.0093
X-71.4554 Y11.9923 Z-0.2175 I-0.0243 J-0.0093
X-71.4057 Y12.0077 I0.0248 J0.0077
X-71.4554 Y11.9923 I-0.0248 J-0.0077
X-71.4391 Y11.9837 I0.0124 J0.0038
G1 X-71.432 Y11.9859
X-71.4292 Y11.9868 Z-0.2172
X-71.4266 Y11.9876 Z-0.2164
X-71.4241 Y11.9884 Z-0.215
X-71.422 Y11.989 Z-0.2131
X-71.4202 Y11.9896 Z-0.2109
X-71.4189 Y11.99 Z-0.2083
X-71.4181 Y11.9902 Z-0.2055
X-71.4178 Y11.9903 Z-0.2026
G0 Z0.4
X-68.5769 Y11.7694
Z0.13
G1 Z0.0649 F40.
G18 G2 X-68.5619 Z0.05 I0.0149 K0.
G1 X-68.5545
G17 G3 X-68.5415 Y11.7824 I0. J0.013
X-68.5935 Z0.0323 I-0.026 J0.
X-68.5777 Y11.7584 Z0.0257 I0.026 J0.
X-68.5573 Y11.8063 Z0.008 I0.0102 J0.0239
X-68.5777 Y11.7584 Z-0.0098 I-0.0102 J-0.0239
X-68.5573 Y11.8063 Z-0.0275 I0.0102 J0.0239
X-68.5777 Y11.7584 Z-0.0452 I-0.0102 J-0.0239
X-68.5573 Y11.8063 Z-0.0629 I0.0102 J0.0239
X-68.5911 Y11.7933 Z-0.0716 I-0.0102 J-0.0239
X-68.5439 Y11.7714 Z-0.0893 I0.0236 J-0.011
X-68.5482 Y11.7998 Z-0.0959 I-0.0236 J0.011
X-68.5868 Y11.765 Z-0.1136 I-0.0193 J-0.0174
X-68.5482 Y11.7998 Z-0.1314 I0.0193 J0.0174
X-68.5934 Y11.7842 Z-0.1445 I-0.0193 J-0.0174
X-68.5416 Y11.7806 Z-0.1623 I0.0259 J-0.0018
X-68.5934 Y11.7842 Z-0.18 I-0.0259 J0.0018
X-68.5507 Y11.7625 Z-0.1932 I0.0259 J-0.0018
X-68.5843 Y11.8023 Z-0.2109 I-0.0168 J0.0199
X-68.5923 Y11.7747 Z-0.2175 I0.0168 J-0.0199
X-68.5427 Y11.79 I0.0248 J0.0077
X-68.5923 Y11.7747 I-0.0248 J-0.0077
X-68.5761 Y11.7661 I0.0124 J0.0038
G1 X-68.569 Y11.7683
X-68.5662 Y11.7692 Z-0.2172
X-68.5635 Y11.77 Z-0.2164
X-68.5611 Y11.7708 Z-0.215
X-68.5589 Y11.7714 Z-0.2131
X-68.5571 Y11.772 Z-0.2109
X-68.5558 Y11.7724 Z-0.2083
X-68.555 Y11.7726 Z-0.2055
X-68.5547 Y11.7727 Z-0.2026
G0 Z0.4
X-67.6969 Y11.987
Z0.13
G1 Z0.0649 F40.
G18 G2 X-67.682 Z0.05 I0.0149 K0.
G1 X-67.6745
G17 G3 X-67.6615 Y12. I0. J0.013
X-67.7135 Z0.0323 I-0.026 J0.
X-67.6977 Y11.9761 Z0.0257 I0.026 J0.
X-67.6773 Y12.0239 Z0.008 I0.0102 J0.0239
X-67.6977 Y11.9761 Z-0.0098 I-0.0102 J-0.0239
X-67.6632 Y12.0093 Z-0.023 I0.0102 J0.0239
X-67.7118 Y11.9907 Z-0.0407 I-0.0243 J-0.0093
X-67.6884 Y11.974 Z-0.0473 I0.0243 J0.0093
X-67.6866 Y12.026 Z-0.065 I0.0009 J0.026
X-67.6884 Y11.974 Z-0.0827 I-0.0009 J-0.026
X-67.6682 Y12.0174 Z-0.0959 I0.0009 J0.026
X-67.7068 Y11.9826 Z-0.1136 I-0.0193 J-0.0174
X-67.679 Y11.9754 Z-0.1202 I0.0193 J0.0174
X-67.696 Y12.0246 Z-0.1379 I-0.0085 J0.0246
X-67.7134 Y12.0018 Z-0.1445 I0.0085 J-0.0246
X-67.6616 Y11.9982 Z-0.1623 I0.0259 J-0.0018
X-67.6757 Y12.0232 Z-0.1689 I-0.0259 J0.0018
X-67.6993 Y11.9768 Z-0.1866 I-0.0118 J-0.0232
X-67.6707 Y11.9801 Z-0.1932 I0.0118 J0.0232
X-67.7043 Y12.0199 Z-0.2109 I-0.0168 J0.0199
X-67.7123 Y11.9923 Z-0.2175 I0.0168 J-0.0199
X-67.6627 Y12.0077 I0.0248 J0.0077
X-67.7123 Y11.9923 I-0.0248 J-0.0077
X-67.6961 Y11.9837 I0.0124 J0.0038
G1 X-67.689 Y11.9859
X-67.6862 Y11.9868 Z-0.2172
X-67.6835 Y11.9876 Z-0.2164
X-67.6811 Y11.9884 Z-0.215
X-67.6789 Y11.989 Z-0.2131
X-67.6771 Y11.9896 Z-0.2109
X-67.6758 Y11.99 Z-0.2083
X-67.675 Y11.9902 Z-0.2055
X-67.6747 Y11.9903 Z-0.2026
G0 Z0.4
X-67.6969 Y10.987
Z0.13
G1 Z0.0649 F40.
G18 G2 X-67.682 Z0.05 I0.0149 K0.
G1 X-67.6745
G17 G3 X-67.6615 Y11. I0. J0.013
X-67.7135 Z0.0323 I-0.026 J0.
X-67.6977 Y10.9761 Z0.0257 I0.026 J0.
X-67.6773 Y11.0239 Z0.008 I0.0102 J0.0239
X-67.7056 Y11.0187 Z0.0014 I-0.0102 J-0.0239
X-67.6694 Y10.9813 Z-0.0164 I0.0181 J-0.0187
X-67.6632 Y11.0093 Z-0.023 I-0.0181 J0.0187
X-67.7118 Y10.9907 Z-0.0407 I-0.0243 J-0.0093
X-67.6884 Y10.974 Z-0.0473 I0.0243 J0.0093
X-67.6866 Y11.026 Z-0.065 I0.0009 J0.026
X-67.7111 Y11.011 Z-0.0716 I-0.0009 J-0.026
X-67.6639 Y10.989 Z-0.0893 I0.0236 J-0.011
X-67.6682 Y11.0174 Z-0.0959 I-0.0236 J0.011
X-67.7068 Y10.9826 Z-0.1136 I-0.0193 J-0.0174
X-67.679 Y10.9754 Z-0.1202 I0.0193 J0.0174
X-67.696 Y11.0246 Z-0.1379 I-0.0085 J0.0246
X-67.7134 Y11.0018 Z-0.1445 I0.0085 J-0.0246
X-67.6616 Y10.9982 Z-0.1623 I0.0259 J-0.0018
X-67.6757 Y11.0232 Z-0.1689 I-0.0259 J0.0018
X-67.6993 Y10.9768 Z-0.1866 I-0.0118 J-0.0232
X-67.6707 Y10.9801 Z-0.1932 I0.0118 J0.0232
X-67.7043 Y11.0199 Z-0.2109 I-0.0168 J0.0199
X-67.7123 Y10.9923 Z-0.2175 I0.0168 J-0.0199
X-67.6627 Y11.0077 I0.0248 J0.0077
X-67.7123 Y10.9923 I-0.0248 J-0.0077
X-67.6961 Y10.9837 I0.0124 J0.0038
G1 X-67.689 Y10.9859
X-67.6862 Y10.9868 Z-0.2172
X-67.6835 Y10.9876 Z-0.2164
X-67.6811 Y10.9884 Z-0.215
X-67.6789 Y10.989 Z-0.2131
X-67.6771 Y10.9896 Z-0.2109
X-67.6758 Y10.99 Z-0.2083
X-67.675 Y10.9902 Z-0.2055
X-67.6747 Y10.9903 Z-0.2026
G0 Z0.4
X-68.824 Y9.6652
Z0.1151
G1 Z0.05 F40.
X-68.8215 Y9.6627
G3 X-68.819 Y9.6652 I0. J0.0025
X-68.829 Z0.036 I-0.005 J0.
X-68.8245 Y9.6602 Z0.0294 I0.005 J0.
X-68.8235 Y9.6701 Z0.0154 I0.0005 J0.005
X-68.8289 Y9.6662 Z0.0088 I-0.0005 J-0.005
X-68.8191 Y9.6642 Z-0.0052 I0.0049 J-0.001
X-68.8225 Y9.6699 Z-0.0117 I-0.0049 J0.001
X-68.8255 Y9.6604 Z-0.0257 I-0.0015 J-0.0048
X-68.8194 Y9.6632 Z-0.0323 I0.0015 J0.0048
X-68.8286 Y9.6671 Z-0.0463 I-0.0046 J0.002
X-68.8264 Y9.6608 Z-0.0529 I0.0046 J-0.002
X-68.8216 Y9.6695 Z-0.0669 I0.0024 J0.0044
X-68.8281 Y9.668 Z-0.0735 I-0.0024 J-0.0044
X-68.8199 Y9.6623 Z-0.0875 I0.0041 J-0.0028
X-68.8208 Y9.669 Z-0.094 I-0.0041 J0.0028
X-68.8272 Y9.6614 Z-0.1081 I-0.0032 J-0.0038
X-68.8205 Y9.6616 Z-0.1146 I0.0032 J0.0038
X-68.8275 Y9.6688 Z-0.1286 I-0.0035 J0.0036
X-68.8279 Y9.6621 Z-0.1352 I0.0035 J-0.0036
X-68.8201 Y9.6682 Z-0.1492 I0.0039 J0.0031
X-68.8267 Y9.6694 Z-0.1558 I-0.0039 J-0.0031
X-68.8213 Y9.6609 Z-0.1698 I0.0027 J-0.0042
X-68.8195 Y9.6674 Z-0.1763 I-0.0027 J0.0042
X-68.8285 Y9.6629 Z-0.1904 I-0.0045 J-0.0022
X-68.8222 Y9.6605 Z-0.1969 I0.0045 J0.0022
X-68.8258 Y9.6698 Z-0.2109 I-0.0018 J0.0047
X-68.8288 Y9.6639 Z-0.2175 I0.0018 J-0.0047
X-68.8192 Y9.6664 I0.0048 J0.0013
X-68.8288 Y9.6639 I-0.0048 J-0.0013
X-68.8258 Y9.6621 I0.0024 J0.0006
G1 X-68.824 Y9.6652
G0 Z0.4
X-70.351 Y10.2209
Z0.1151
G1 Z0.05 F40.
X-70.3485 Y10.2184
G3 X-70.346 Y10.2209 I0. J0.0025
X-70.356 Z0.036 I-0.005 J0.
X-70.3515 Y10.216 Z0.0294 I0.005 J0.
X-70.3505 Y10.2259 Z0.0154 I0.0005 J0.005
X-70.3515 Y10.216 Z0.0014 I-0.0005 J-0.005
X-70.3495 Y10.2257 Z-0.0117 I0.0005 J0.005
X-70.3525 Y10.2162 Z-0.0257 I-0.0015 J-0.0048
X-70.3464 Y10.219 Z-0.0323 I0.0015 J0.0048
X-70.3556 Y10.2229 Z-0.0463 I-0.0046 J0.002
X-70.3534 Y10.2166 Z-0.0529 I0.0046 J-0.002
X-70.3486 Y10.2253 Z-0.0669 I0.0024 J0.0044
X-70.3551 Y10.2238 Z-0.0735 I-0.0024 J-0.0044
X-70.3469 Y10.2181 Z-0.0875 I0.0041 J-0.0028
X-70.3478 Y10.2248 Z-0.094 I-0.0041 J0.0028
X-70.3542 Y10.2171 Z-0.1081 I-0.0032 J-0.0038
X-70.3475 Y10.2173 Z-0.1146 I0.0032 J0.0038
X-70.3545 Y10.2246 Z-0.1286 I-0.0035 J0.0036
X-70.3549 Y10.2179 Z-0.1352 I0.0035 J-0.0036
X-70.3471 Y10.224 Z-0.1492 I0.0039 J0.0031
X-70.3537 Y10.2252 Z-0.1558 I-0.0039 J-0.0031
X-70.3483 Y10.2167 Z-0.1698 I0.0027 J-0.0042
X-70.3465 Y10.2232 Z-0.1763 I-0.0027 J0.0042
X-70.3555 Y10.2187 Z-0.1904 I-0.0045 J-0.0022
X-70.3492 Y10.2163 Z-0.1969 I0.0045 J0.0022
X-70.3528 Y10.2256 Z-0.2109 I-0.0018 J0.0047
X-70.3558 Y10.2197 Z-0.2175 I0.0018 J-0.0047
X-70.3462 Y10.2222 I0.0048 J0.0013
X-70.3558 Y10.2197 I-0.0048 J-0.0013
X-70.3528 Y10.2179 I0.0024 J0.0006
G1 X-70.351 Y10.2209
G0 Z0.4
X-71.6343 Y9.487
Z0.13
G1 Z0.0649 F40.
G18 G2 X-71.6195 Z0.05 I0.0149 K0.
G1 X-71.612
G17 G3 X-71.599 Y9.5 I0. J0.013
X-71.651 Z0.0323 I-0.026 J0.
X-71.6352 Y9.4761 Z0.0257 I0.026 J0.
X-71.6148 Y9.5239 Z0.008 I0.0102 J0.0239
X-71.6431 Y9.5187 Z0.0014 I-0.0102 J-0.0239
X-71.6069 Y9.4813 Z-0.0164 I0.0181 J-0.0187
X-71.6007 Y9.5093 Z-0.023 I-0.0181 J0.0187
X-71.6493 Y9.4907 Z-0.0407 I-0.0243 J-0.0093
X-71.6259 Y9.474 Z-0.0473 I0.0243 J0.0093
X-71.6241 Y9.526 Z-0.065 I0.0009 J0.026
X-71.6259 Y9.474 Z-0.0827 I-0.0009 J-0.026
X-71.6241 Y9.526 Z-0.1004 I0.0009 J0.026
X-71.6259 Y9.474 Z-0.1182 I-0.0009 J-0.026
X-71.6241 Y9.526 Z-0.1359 I0.0009 J0.026
X-71.6259 Y9.474 Z-0.1536 I-0.0009 J-0.026
X-71.6132 Y9.5232 Z-0.1689 I0.0009 J0.026
X-71.6368 Y9.4768 Z-0.1866 I-0.0118 J-0.0232
X-71.6082 Y9.4801 Z-0.1932 I0.0118 J0.0232
X-71.6418 Y9.5199 Z-0.2109 I-0.0168 J0.0199
X-71.6498 Y9.4923 Z-0.2175 I0.0168 J-0.0199
X-71.6002 Y9.5077 I0.0248 J0.0077
X-71.6498 Y9.4923 I-0.0248 J-0.0077
X-71.6336 Y9.4837 I0.0124 J0.0038
G1 X-71.6265 Y9.4859
X-71.6237 Y9.4868 Z-0.2172
X-71.621 Y9.4876 Z-0.2164
X-71.6186 Y9.4884 Z-0.215
X-71.6164 Y9.489 Z-0.2131
X-71.6146 Y9.4896 Z-0.2109
X-71.6133 Y9.49 Z-0.2083
X-71.6125 Y9.4902 Z-0.2055
X-71.6122 Y9.4903 Z-0.2026
G0 Z0.4
X-72.6933 Y9.6911
Z0.1151
G1 Z0.05 F40.
X-72.6908 Y9.6886
G3 X-72.6883 Y9.6911 I0. J0.0025
X-72.6983 Z0.036 I-0.005 J0.
X-72.6938 Y9.6861 Z0.0294 I0.005 J0.
X-72.6928 Y9.696 Z0.0154 I0.0005 J0.005
X-72.6982 Y9.6921 Z0.0088 I-0.0005 J-0.005
X-72.6884 Y9.6901 Z-0.0052 I0.0049 J-0.001
X-72.6982 Y9.6921 Z-0.0192 I-0.0049 J0.001
X-72.6887 Y9.6891 Z-0.0323 I0.0049 J-0.001
X-72.6979 Y9.693 Z-0.0463 I-0.0046 J0.002
X-72.6957 Y9.6867 Z-0.0529 I0.0046 J-0.002
X-72.6909 Y9.6954 Z-0.0669 I0.0024 J0.0044
X-72.6974 Y9.6939 Z-0.0735 I-0.0024 J-0.0044
X-72.6892 Y9.6882 Z-0.0875 I0.0041 J-0.0028
X-72.6901 Y9.6949 Z-0.094 I-0.0041 J0.0028
X-72.6965 Y9.6872 Z-0.1081 I-0.0032 J-0.0038
X-72.6898 Y9.6874 Z-0.1146 I0.0032 J0.0038
X-72.6968 Y9.6947 Z-0.1286 I-0.0035 J0.0036
X-72.6972 Y9.688 Z-0.1352 I0.0035 J-0.0036
X-72.6894 Y9.6941 Z-0.1492 I0.0039 J0.0031
X-72.696 Y9.6953 Z-0.1558 I-0.0039 J-0.0031
X-72.6906 Y9.6868 Z-0.1698 I0.0027 J-0.0042
X-72.696 Y9.6953 Z-0.1838 I-0.0027 J0.0042
X-72.6915 Y9.6864 Z-0.1969 I0.0027 J-0.0042
X-72.6951 Y9.6957 Z-0.2109 I-0.0018 J0.0047
X-72.6981 Y9.6898 Z-0.2175 I0.0018 J-0.0047
X-72.6885 Y9.6923 I0.0048 J0.0013
X-72.6981 Y9.6898 I-0.0048 J-0.0013
X-72.6951 Y9.688 I0.0024 J0.0006
G1 X-72.6933 Y9.6911
G0 Z0.4
X-74.2936 Y9.4089
Z0.1151
G1 Z0.05 F40.
X-74.2911 Y9.4064
G3 X-74.2886 Y9.4089 I0. J0.0025
X-74.2986 Z0.036 I-0.005 J0.
X-74.2941 Y9.4039 Z0.0294 I0.005 J0.
X-74.2931 Y9.4138 Z0.0154 I0.0005 J0.005
X-74.2985 Y9.4099 Z0.0088 I-0.0005 J-0.005
X-74.2887 Y9.4079 Z-0.0052 I0.0049 J-0.001
X-74.2921 Y9.4136 Z-0.0117 I-0.0049 J0.001
X-74.2951 Y9.4041 Z-0.0257 I-0.0015 J-0.0048
X-74.289 Y9.4069 Z-0.0323 I0.0015 J0.0048
X-74.2982 Y9.4108 Z-0.0463 I-0.0046 J0.002
X-74.296 Y9.4045 Z-0.0529 I0.0046 J-0.002
X-74.2912 Y9.4133 Z-0.0669 I0.0024 J0.0044
X-74.2977 Y9.4117 Z-0.0735 I-0.0024 J-0.0044
X-74.2895 Y9.406 Z-0.0875 I0.0041 J-0.0028
X-74.2904 Y9.4127 Z-0.094 I-0.0041 J0.0028
X-74.2969 Y9.4051 Z-0.1081 I-0.0032 J-0.0038
X-74.2902 Y9.4053 Z-0.1146 I0.0032 J0.0038
X-74.2971 Y9.4125 Z-0.1286 I-0.0035 J0.0036
X-74.2976 Y9.4058 Z-0.1352 I0.0035 J-0.0036
X-74.2897 Y9.412 Z-0.1492 I0.0039 J0.0031
X-74.2963 Y9.4131 Z-0.1558 I-0.0039 J-0.0031
X-74.291 Y9.4046 Z-0.1698 I0.0027 J-0.0042
X-74.2963 Y9.4131 Z-0.1838 I-0.0027 J0.0042
X-74.2919 Y9.4042 Z-0.1969 I0.0027 J-0.0042
X-74.2954 Y9.4136 Z-0.2109 I-0.0018 J0.0047
X-74.2984 Y9.4076 Z-0.2175 I0.0018 J-0.0047
X-74.2888 Y9.4102 I0.0048 J0.0013
X-74.2984 Y9.4076 I-0.0048 J-0.0013
X-74.2954 Y9.4058 I0.0024 J0.0006
G1 X-74.2936 Y9.4089
G0 Z0.4
X-74.6969 Y10.987
Z0.13
G1 Z0.0649 F40.
G18 G2 X-74.6819 Z0.05 I0.0149 K0.
G1 X-74.6745
G17 G3 X-74.6615 Y11. I0. J0.013
X-74.7135 Z0.0323 I-0.026 J0.
X-74.6977 Y10.9761 Z0.0257 I0.026 J0.
X-74.6773 Y11.0239 Z0.008 I0.0102 J0.0239
X-74.7056 Y11.0187 Z0.0014 I-0.0102 J-0.0239
X-74.6694 Y10.9813 Z-0.0164 I0.0181 J-0.0187
X-74.7056 Y11.0187 Z-0.0341 I-0.0181 J0.0187
X-74.6694 Y10.9813 Z-0.0518 I0.0181 J-0.0187
X-74.7056 Y11.0187 Z-0.0695 I-0.0181 J0.0187
X-74.7111 Y11.011 Z-0.0716 I0.0181 J-0.0187
X-74.6639 Y10.989 Z-0.0893 I0.0236 J-0.011
X-74.6682 Y11.0174 Z-0.0959 I-0.0236 J0.011
X-74.7068 Y10.9826 Z-0.1136 I-0.0193 J-0.0174
X-74.6682 Y11.0174 Z-0.1314 I0.0193 J0.0174
X-74.7068 Y10.9826 Z-0.1491 I-0.0193 J-0.0174
X-74.6682 Y11.0174 Z-0.1668 I0.0193 J0.0174
X-74.7068 Y10.9826 Z-0.1845 I-0.0193 J-0.0174
X-74.6682 Y11.0174 Z-0.2022 I0.0193 J0.0174
X-74.7123 Y10.9923 Z-0.2175 I-0.0193 J-0.0174
X-74.6627 Y11.0077 I0.0248 J0.0077
X-74.7123 Y10.9923 I-0.0248 J-0.0077
X-74.6961 Y10.9837 I0.0124 J0.0038
G1 X-74.689 Y10.9859
X-74.6862 Y10.9868 Z-0.2172
X-74.6835 Y10.9876 Z-0.2164
X-74.6811 Y10.9884 Z-0.215
X-74.6789 Y10.989 Z-0.2131
X-74.6771 Y10.9896 Z-0.2109
X-74.6758 Y10.99 Z-0.2083
X-74.675 Y10.9902 Z-0.2055
X-74.6747 Y10.9903 Z-0.2026
G0 Z0.4
X-74.8199 Y11.987
Z0.13
G1 Z0.0649 F40.
G18 G2 X-74.805 Z0.05 I0.0149 K0.
G1 X-74.7975
G17 G3 X-74.7845 Y12. I0. J0.013
X-74.8365 Z0.0323 I-0.026 J0.
X-74.8207 Y11.9761 Z0.0257 I0.026 J0.
X-74.8004 Y12.0239 Z0.008 I0.0102 J0.0239
X-74.8286 Y12.0187 Z0.0014 I-0.0101 J-0.0239
X-74.7925 Y11.9813 Z-0.0164 I0.0181 J-0.0187
X-74.7863 Y12.0093 Z-0.023 I-0.0181 J0.0187
X-74.8348 Y11.9907 Z-0.0407 I-0.0243 J-0.0093
X-74.8114 Y11.974 Z-0.0473 I0.0243 J0.0093
X-74.8096 Y12.026 Z-0.065 I0.0009 J0.026
X-74.8341 Y12.011 Z-0.0716 I-0.0009 J-0.026
X-74.787 Y11.989 Z-0.0893 I0.0236 J-0.011
X-74.8341 Y12.011 Z-0.107 I-0.0236 J0.011
X-74.802 Y11.9754 Z-0.1202 I0.0236 J-0.011
X-74.819 Y12.0246 Z-0.1379 I-0.0085 J0.0246
X-74.802 Y11.9754 Z-0.1557 I0.0085 J-0.0246
X-74.7988 Y12.0232 Z-0.1689 I-0.0085 J0.0246
X-74.8223 Y11.9768 Z-0.1866 I-0.0118 J-0.0232
X-74.7938 Y11.9801 Z-0.1932 I0.0118 J0.0232
X-74.8273 Y12.0199 Z-0.2109 I-0.0168 J0.0199
X-74.8354 Y11.9923 Z-0.2175 I0.0168 J-0.0199
X-74.7857 Y12.0077 I0.0248 J0.0077
X-74.8354 Y11.9923 I-0.0248 J-0.0077
X-74.8191 Y11.9837 I0.0124 J0.0038
G1 X-74.812 Y11.9859
X-74.8092 Y11.9868 Z-0.2172
X-74.8066 Y11.9876 Z-0.2164
X-74.8041 Y11.9884 Z-0.215
X-74.8019 Y11.989 Z-0.2131
X-74.8002 Y11.9896 Z-0.2109
X-74.7988 Y11.99 Z-0.2083
X-74.798 Y11.9902 Z-0.2055
X-74.7978 Y11.9903 Z-0.2026
G0 Z0.4
X-73.8572 Y14.6575
Z0.13
G1 Z0.0649 F40.
G18 G2 X-73.8423 Z0.05 I0.0149 K0.
G1 X-73.8348
G17 G3 X-73.8218 Y14.6705 I0. J0.013
X-73.8738 Z0.0323 I-0.026 J0.
X-73.858 Y14.6466 Z0.0257 I0.026 J0.
X-73.8377 Y14.6944 Z0.008 I0.0102 J0.0239
X-73.8659 Y14.6892 Z0.0014 I-0.0102 J-0.0239
X-73.8297 Y14.6518 Z-0.0164 I0.0181 J-0.0187
X-73.8235 Y14.6798 Z-0.023 I-0.0181 J0.0187
X-73.8721 Y14.6612 Z-0.0407 I-0.0243 J-0.0093
X-73.8487 Y14.6445 Z-0.0473 I0.0243 J0.0093
X-73.8469 Y14.6965 Z-0.065 I0.0009 J0.026
X-73.8487 Y14.6445 Z-0.0827 I-0.0009 J-0.026
X-73.8469 Y14.6965 Z-0.1004 I0.0009 J0.026
X-73.8487 Y14.6445 Z-0.1182 I-0.0009 J-0.026
X-73.8469 Y14.6965 Z-0.1359 I0.0009 J0.026
X-73.8487 Y14.6445 Z-0.1536 I-0.0009 J-0.026
X-73.8361 Y14.6937 Z-0.1689 I0.0009 J0.026
X-73.8596 Y14.6473 Z-0.1866 I-0.0118 J-0.0232
X-73.8311 Y14.6506 Z-0.1932 I0.0118 J0.0232
X-73.8646 Y14.6904 Z-0.2109 I-0.0168 J0.0199
X-73.8727 Y14.6629 Z-0.2175 I0.0168 J-0.0199
X-73.823 Y14.6782 I0.0248 J0.0077
X-73.8727 Y14.6629 I-0.0248 J-0.0077
X-73.8564 Y14.6543 I0.0124 J0.0038
G1 X-73.8493 Y14.6565
X-73.8465 Y14.6573 Z-0.2172
X-73.8438 Y14.6581 Z-0.2164
X-73.8414 Y14.6589 Z-0.215
X-73.8392 Y14.6596 Z-0.2131
X-73.8375 Y14.6601 Z-0.2109
X-73.8361 Y14.6605 Z-0.2083
X-73.8353 Y14.6608 Z-0.2055
X-73.8351 Z-0.2026
G0 Z0.4
X-75.0059 Y7.6597
Z0.13
G1 Z0.0649 F40.
G18 G2 X-74.991 Z0.05 I0.0149 K0.
G1 X-74.9835
G17 G3 X-74.9705 Y7.6727 I0. J0.013
X-75.0225 Z0.0323 I-0.026 J0.
X-75.0067 Y7.6487 Z0.0257 I0.026 J0.
X-74.9864 Y7.6966 Z0.008 I0.0102 J0.0239
X-75.0067 Y7.6487 Z-0.0098 I-0.0102 J-0.0239
X-74.9864 Y7.6966 Z-0.0275 I0.0102 J0.0239
X-75.0067 Y7.6487 Z-0.0452 I-0.0102 J-0.0239
X-74.9864 Y7.6966 Z-0.0629 I0.0102 J0.0239
X-75.0067 Y7.6487 Z-0.0806 I-0.0102 J-0.0239
X-74.9772 Y7.6901 Z-0.0959 I0.0102 J0.0239
X-75.0158 Y7.6552 Z-0.1136 I-0.0193 J-0.0174
X-74.988 Y7.6481 Z-0.1202 I0.0193 J0.0174
X-75.005 Y7.6972 Z-0.1379 I-0.0085 J0.0246
X-75.0225 Y7.6744 Z-0.1445 I0.0085 J-0.0246
X-74.9706 Y7.6709 Z-0.1623 I0.0259 J-0.0018
X-74.9848 Y7.6959 Z-0.1689 I-0.0259 J0.0018
X-75.0083 Y7.6495 Z-0.1866 I-0.0118 J-0.0232
X-74.9798 Y7.6528 Z-0.1932 I0.0118 J0.0232
X-75.0133 Y7.6925 Z-0.2109 I-0.0168 J0.0199
X-75.0214 Y7.665 Z-0.2175 I0.0168 J-0.0199
X-74.9717 Y7.6803 I0.0248 J0.0077
X-75.0214 Y7.665 I-0.0248 J-0.0077
X-75.0051 Y7.6564 I0.0124 J0.0038
G1 X-74.998 Y7.6586
X-74.9952 Y7.6595 Z-0.2172
X-74.9926 Y7.6603 Z-0.2164
X-74.9901 Y7.661 Z-0.215
X-74.9879 Y7.6617 Z-0.2131
X-74.9862 Y7.6623 Z-0.2109
X-74.9848 Y7.6627 Z-0.2083
X-74.984 Y7.6629 Z-0.2055
X-74.9838 Y7.663 Z-0.2026
G0 Z0.4
X-74.9878 Y7.187
Z0.13
G1 Z0.0649 F40.
G18 G2 X-74.9729 Z0.05 I0.0149 K0.
G1 X-74.9654
G17 G3 X-74.9524 Y7.2 I0. J0.013
X-75.0044 Z0.0323 I-0.026 J0.
X-74.9886 Y7.1761 Z0.0257 I0.026 J0.
X-74.9683 Y7.2239 Z0.008 I0.0102 J0.0239
X-74.9965 Y7.2187 Z0.0014 I-0.0102 J-0.0239
X-74.9604 Y7.1813 Z-0.0164 I0.0181 J-0.0187
X-74.9542 Y7.2093 Z-0.023 I-0.0181 J0.0187
X-75.0027 Y7.1907 Z-0.0407 I-0.0243 J-0.0093
X-74.9793 Y7.174 Z-0.0473 I0.0243 J0.0093
X-74.9776 Y7.226 Z-0.065 I0.0009 J0.026
X-74.9793 Y7.174 Z-0.0827 I-0.0009 J-0.026
X-74.9776 Y7.226 Z-0.1004 I0.0009 J0.026
X-74.9793 Y7.174 Z-0.1182 I-0.0009 J-0.026
X-74.9776 Y7.226 Z-0.1359 I0.0009 J0.026
X-74.9793 Y7.174 Z-0.1536 I-0.0009 J-0.026
X-74.9667 Y7.2232 Z-0.1689 I0.0009 J0.026
X-74.9902 Y7.1768 Z-0.1866 I-0.0118 J-0.0232
X-74.9617 Y7.1801 Z-0.1932 I0.0118 J0.0232
X-74.9952 Y7.2199 Z-0.2109 I-0.0168 J0.0199
X-75.0033 Y7.1923 Z-0.2175 I0.0168 J-0.0199
X-74.9536 Y7.2077 I0.0248 J0.0077
X-75.0033 Y7.1923 I-0.0248 J-0.0077
X-74.987 Y7.1837 I0.0124 J0.0038
G1 X-74.9799 Y7.1859
X-74.9771 Y7.1868 Z-0.2172
X-74.9745 Y7.1876 Z-0.2164
X-74.972 Y7.1884 Z-0.215
X-74.9698 Y7.189 Z-0.2131
X-74.9681 Y7.1896 Z-0.2109
X-74.9668 Y7.19 Z-0.2083
X-74.9659 Y7.1902 Z-0.2055
X-74.9657 Y7.1903 Z-0.2026
G0 Z0.4
X-71.3173 Y5.4355
Z0.13
G1 Z0.0649 F40.
G18 G3 X-71.3322 Z0.05 I-0.0149 K0.
G1 X-71.3397
G17 G3 X-71.3527 Y5.4225 I0. J-0.013
X-71.3007 Z0.0323 I0.026 J0.
X-71.3165 Y5.4464 Z0.0257 I-0.026 J0.
X-71.3368 Y5.3986 Z0.008 I-0.0102 J-0.0239
X-71.3086 Y5.4038 Z0.0014 I0.0102 J0.0239
X-71.3447 Y5.4412 Z-0.0164 I-0.0181 J0.0187
X-71.3086 Y5.4038 Z-0.0341 I0.0181 J-0.0187
X-71.3447 Y5.4412 Z-0.0518 I-0.0181 J0.0187
X-71.3086 Y5.4038 Z-0.0695 I0.0181 J-0.0187
X-71.3031 Y5.4115 Z-0.0716 I-0.0181 J0.0187
X-71.3502 Y5.4335 Z-0.0893 I-0.0236 J0.011
X-71.346 Y5.4051 Z-0.0959 I0.0236 J-0.011
X-71.3074 Y5.4399 Z-0.1136 I0.0193 J0.0174
X-71.346 Y5.4051 Z-0.1314 I-0.0193 J-0.0174
X-71.3074 Y5.4399 Z-0.1491 I0.0193 J0.0174
X-71.346 Y5.4051 Z-0.1668 I-0.0193 J-0.0174
X-71.3074 Y5.4399 Z-0.1845 I0.0193 J0.0174
X-71.3434 Y5.4424 Z-0.1932 I-0.0193 J-0.0174
X-71.3099 Y5.4026 Z-0.2109 I0.0168 J-0.0199
X-71.3018 Y5.4302 Z-0.2175 I-0.0168 J0.0199
X-71.3515 Y5.4148 I-0.0248 J-0.0077
X-71.3018 Y5.4302 I0.0248 J0.0077
X-71.3181 Y5.4388 I-0.0124 J-0.0038
G1 X-71.3252 Y5.4366
X-71.328 Y5.4357 Z-0.2172
X-71.3306 Y5.4349 Z-0.2164
X-71.3331 Y5.4341 Z-0.215
X-71.3353 Y5.4335 Z-0.2131
X-71.337 Y5.4329 Z-0.2109
X-71.3383 Y5.4325 Z-0.2083
X-71.3392 Y5.4323 Z-0.2055
X-71.3394 Y5.4322 Z-0.2026
G0 Z0.4
X-70.337 Y4.4847
Z0.13
G1 Z0.0649 F40.
G18 G3 X-70.3519 Z0.05 I-0.0149 K0.
G1 X-70.3593
G17 G3 X-70.3723 Y4.4717 I0. J-0.013
X-70.3203 Z0.0323 I0.026 J0.
X-70.3362 Y4.4956 Z0.0257 I-0.026 J0.
X-70.3565 Y4.4477 Z0.008 I-0.0102 J-0.0239
X-70.3362 Y4.4956 Z-0.0098 I0.0102 J0.0239
X-70.3565 Y4.4477 Z-0.0275 I-0.0102 J-0.0239
X-70.3362 Y4.4956 Z-0.0452 I0.0102 J0.0239
X-70.3565 Y4.4477 Z-0.0629 I-0.0102 J-0.0239
X-70.3362 Y4.4956 Z-0.0806 I0.0102 J0.0239
X-70.3656 Y4.4542 Z-0.0959 I-0.0102 J-0.0239
X-70.327 Y4.4891 Z-0.1136 I0.0193 J0.0174
X-70.3548 Y4.4962 Z-0.1202 I-0.0193 J-0.0174
X-70.3378 Y4.4471 Z-0.1379 I0.0085 J-0.0246
X-70.3204 Y4.4699 Z-0.1445 I-0.0085 J0.0246
X-70.3723 Y4.4734 Z-0.1623 I-0.0259 J0.0018
X-70.3581 Y4.4485 Z-0.1689 I0.0259 J-0.0018
X-70.3346 Y4.4948 Z-0.1866 I0.0118 J0.0232
X-70.3631 Y4.4915 Z-0.1932 I-0.0118 J-0.0232
X-70.3296 Y4.4518 Z-0.2109 I0.0168 J-0.0199
X-70.3215 Y4.4793 Z-0.2175 I-0.0168 J0.0199
X-70.3712 Y4.464 I-0.0248 J-0.0077
X-70.3215 Y4.4793 I0.0248 J0.0077
X-70.3378 Y4.4879 I-0.0124 J-0.0038
G1 X-70.3449 Y4.4857
X-70.3476 Y4.4849 Z-0.2172
X-70.3503 Y4.484 Z-0.2164
X-70.3528 Y4.4833 Z-0.215
X-70.3549 Y4.4826 Z-0.2131
X-70.3567 Y4.4821 Z-0.2109
X-70.358 Y4.4817 Z-0.2083
X-70.3588 Y4.4814 Z-0.2055
X-70.3591 Y4.4813 Z-0.2026
G0 Z0.4
X-70.3843 Y3.112
Z0.13
G1 Z0.0649 F40.
G18 G2 X-70.3695 Z0.05 I0.0149 K0.
G1 X-70.362
G17 G3 X-70.349 Y3.125 I0. J0.013
X-70.401 Z0.0323 I-0.026 J0.
X-70.3852 Y3.1011 Z0.0257 I0.026 J0.
X-70.3648 Y3.1489 Z0.008 I0.0102 J0.0239
X-70.3931 Y3.1437 Z0.0014 I-0.0102 J-0.0239
X-70.3569 Y3.1063 Z-0.0164 I0.0181 J-0.0187
X-70.3507 Y3.1343 Z-0.023 I-0.0181 J0.0187
X-70.3993 Y3.1157 Z-0.0407 I-0.0243 J-0.0093
X-70.3759 Y3.099 Z-0.0473 I0.0243 J0.0093
X-70.3741 Y3.151 Z-0.065 I0.0009 J0.026
X-70.3986 Y3.136 Z-0.0716 I-0.0009 J-0.026
X-70.3514 Y3.114 Z-0.0893 I0.0236 J-0.011
X-70.3986 Y3.136 Z-0.107 I-0.0236 J0.011
X-70.3514 Y3.114 Z-0.1248 I0.0236 J-0.011
X-70.3986 Y3.136 Z-0.1425 I-0.0236 J0.011
X-70.3514 Y3.114 Z-0.1602 I0.0236 J-0.011
X-70.3632 Y3.1482 Z-0.1689 I-0.0236 J0.011
X-70.3868 Y3.1018 Z-0.1866 I-0.0118 J-0.0232
X-70.3582 Y3.1051 Z-0.1932 I0.0118 J0.0232
X-70.3918 Y3.1449 Z-0.2109 I-0.0168 J0.0199
X-70.3998 Y3.1173 Z-0.2175 I0.0168 J-0.0199
X-70.3502 Y3.1327 I0.0248 J0.0077
X-70.3998 Y3.1173 I-0.0248 J-0.0077
X-70.3836 Y3.1087 I0.0124 J0.0038
G1 X-70.3765 Y3.1109
X-70.3737 Y3.1118 Z-0.2172
X-70.371 Y3.1126 Z-0.2164
X-70.3686 Y3.1134 Z-0.215
X-70.3664 Y3.114 Z-0.2131
X-70.3646 Y3.1146 Z-0.2109
X-70.3633 Y3.115 Z-0.2083
X-70.3625 Y3.1152 Z-0.2055
X-70.3622 Y3.1153 Z-0.2026
G0 Z0.4
X-70.3843 Y1.862
Z0.13
G1 Z0.0649 F40.
G18 G2 X-70.3695 Z0.05 I0.0149 K0.
G1 X-70.362
G17 G3 X-70.349 Y1.875 I0. J0.013
X-70.401 Z0.0323 I-0.026 J0.
X-70.3852 Y1.8511 Z0.0257 I0.026 J0.
X-70.3648 Y1.8989 Z0.008 I0.0102 J0.0239
X-70.3931 Y1.8937 Z0.0014 I-0.0102 J-0.0239
X-70.3569 Y1.8563 Z-0.0164 I0.0181 J-0.0187
X-70.3507 Y1.8843 Z-0.023 I-0.0181 J0.0187
X-70.3993 Y1.8657 Z-0.0407 I-0.0243 J-0.0093
X-70.3759 Y1.849 Z-0.0473 I0.0243 J0.0093
X-70.3741 Y1.901 Z-0.065 I0.0009 J0.026
X-70.3986 Y1.886 Z-0.0716 I-0.0009 J-0.026
X-70.3514 Y1.864 Z-0.0893 I0.0236 J-0.011
X-70.3986 Y1.886 Z-0.107 I-0.0236 J0.011
X-70.3514 Y1.864 Z-0.1248 I0.0236 J-0.011
X-70.3986 Y1.886 Z-0.1425 I-0.0236 J0.011
X-70.3514 Y1.864 Z-0.1602 I0.0236 J-0.011
X-70.3632 Y1.8982 Z-0.1689 I-0.0236 J0.011
X-70.3868 Y1.8518 Z-0.1866 I-0.0118 J-0.0232
X-70.3582 Y1.8551 Z-0.1932 I0.0118 J0.0232
X-70.3918 Y1.8949 Z-0.2109 I-0.0168 J0.0199
X-70.3998 Y1.8673 Z-0.2175 I0.0168 J-0.0199
X-70.3502 Y1.8827 I0.0248 J0.0077
X-70.3998 Y1.8673 I-0.0248 J-0.0077
X-70.3836 Y1.8587 I0.0124 J0.0038
G1 X-70.3765 Y1.8609
X-70.3737 Y1.8618 Z-0.2172
X-70.371 Y1.8626 Z-0.2164
X-70.3686 Y1.8634 Z-0.215
X-70.3664 Y1.864 Z-0.2131
X-70.3646 Y1.8646 Z-0.2109
X-70.3633 Y1.865 Z-0.2083
X-70.3625 Y1.8652 Z-0.2055
X-70.3622 Y1.8653 Z-0.2026
G0 Z0.4
X-68.8843 Y1.862
Z0.13
G1 Z0.0649 F40.
G18 G2 X-68.8695 Z0.05 I0.0149 K0.
G1 X-68.862
G17 G3 X-68.849 Y1.875 I0. J0.013
X-68.901 Z0.0323 I-0.026 J0.
X-68.8852 Y1.8511 Z0.0257 I0.026 J0.
X-68.8649 Y1.8989 Z0.008 I0.0102 J0.0239
X-68.8931 Y1.8937 Z0.0014 I-0.0101 J-0.0239
X-68.8569 Y1.8563 Z-0.0164 I0.0181 J-0.0187
X-68.8931 Y1.8937 Z-0.0341 I-0.0181 J0.0187
X-68.8759 Y1.849 Z-0.0473 I0.0181 J-0.0187
X-68.8741 Y1.901 Z-0.065 I0.0009 J0.026
X-68.8986 Y1.886 Z-0.0716 I-0.0009 J-0.026
X-68.8514 Y1.864 Z-0.0893 I0.0236 J-0.011
X-68.8986 Y1.886 Z-0.107 I-0.0236 J0.011
X-68.8514 Y1.864 Z-0.1248 I0.0236 J-0.011
X-68.8986 Y1.886 Z-0.1425 I-0.0236 J0.011
X-68.8514 Y1.864 Z-0.1602 I0.0236 J-0.011
X-68.8632 Y1.8982 Z-0.1689 I-0.0236 J0.011
X-68.8868 Y1.8518 Z-0.1866 I-0.0118 J-0.0232
X-68.8582 Y1.8551 Z-0.1932 I0.0118 J0.0232
X-68.8918 Y1.8949 Z-0.2109 I-0.0168 J0.0199
X-68.8998 Y1.8673 Z-0.2175 I0.0168 J-0.0199
X-68.8502 Y1.8827 I0.0248 J0.0077
X-68.8998 Y1.8673 I-0.0248 J-0.0077
X-68.8836 Y1.8587 I0.0124 J0.0038
G1 X-68.8765 Y1.8609
X-68.8737 Y1.8618 Z-0.2172
X-68.871 Y1.8626 Z-0.2164
X-68.8686 Y1.8634 Z-0.215
X-68.8664 Y1.864 Z-0.2131
X-68.8646 Y1.8646 Z-0.2109
X-68.8633 Y1.865 Z-0.2083
X-68.8625 Y1.8652 Z-0.2055
X-68.8622 Y1.8653 Z-0.2026
G0 Z0.4
X-68.8843 Y3.112
Z0.13
G1 Z0.0649 F40.
G18 G2 X-68.8695 Z0.05 I0.0149 K0.
G1 X-68.862
G17 G3 X-68.849 Y3.125 I0. J0.013
X-68.901 Z0.0323 I-0.026 J0.
X-68.8852 Y3.1011 Z0.0257 I0.026 J0.
X-68.8649 Y3.1489 Z0.008 I0.0102 J0.0239
X-68.8931 Y3.1437 Z0.0014 I-0.0101 J-0.0239
X-68.8569 Y3.1063 Z-0.0164 I0.0181 J-0.0187
X-68.8931 Y3.1437 Z-0.0341 I-0.0181 J0.0187
X-68.8759 Y3.099 Z-0.0473 I0.0181 J-0.0187
X-68.8741 Y3.151 Z-0.065 I0.0009 J0.026
X-68.8986 Y3.136 Z-0.0716 I-0.0009 J-0.026
X-68.8514 Y3.114 Z-0.0893 I0.0236 J-0.011
X-68.8986 Y3.136 Z-0.107 I-0.0236 J0.011
X-68.8514 Y3.114 Z-0.1248 I0.0236 J-0.011
X-68.8986 Y3.136 Z-0.1425 I-0.0236 J0.011
X-68.8514 Y3.114 Z-0.1602 I0.0236 J-0.011
X-68.8632 Y3.1482 Z-0.1689 I-0.0236 J0.011
X-68.8868 Y3.1018 Z-0.1866 I-0.0118 J-0.0232
X-68.8582 Y3.1051 Z-0.1932 I0.0118 J0.0232
X-68.8918 Y3.1449 Z-0.2109 I-0.0168 J0.0199
X-68.8998 Y3.1173 Z-0.2175 I0.0168 J-0.0199
X-68.8502 Y3.1327 I0.0248 J0.0077
X-68.8998 Y3.1173 I-0.0248 J-0.0077
X-68.8836 Y3.1087 I0.0124 J0.0038
G1 X-68.8765 Y3.1109
X-68.8737 Y3.1118 Z-0.2172
X-68.871 Y3.1126 Z-0.2164
X-68.8686 Y3.1134 Z-0.215
X-68.8664 Y3.114 Z-0.2131
X-68.8646 Y3.1146 Z-0.2109
X-68.8633 Y3.115 Z-0.2083
X-68.8625 Y3.1152 Z-0.2055
X-68.8622 Y3.1153 Z-0.2026
G0 Z0.4
X-68.3813 Y4.9033
Z0.13
G1 Z0.0649 F40.
G18 G3 X-68.3962 Z0.05 I-0.0149 K0.
G1 X-68.4037
G17 G3 X-68.4167 Y4.8903 I0. J-0.013
X-68.3647 Z0.0323 I0.026 J0.
X-68.3805 Y4.9143 Z0.0257 I-0.026 J0.
X-68.4008 Y4.8664 Z0.008 I-0.0102 J-0.0239
X-68.3726 Y4.8717 Z0.0014 I0.0101 J0.0239
X-68.4087 Y4.909 Z-0.0164 I-0.0181 J0.0187
X-68.3726 Y4.8716 Z-0.0341 I0.0181 J-0.0187
X-68.3898 Y4.9163 Z-0.0473 I-0.0181 J0.0187
X-68.3915 Y4.8644 Z-0.065 I-0.0009 J-0.026
X-68.3898 Y4.9163 Z-0.0827 I0.0009 J0.026
X-68.3915 Y4.8644 Z-0.1004 I-0.0009 J-0.026
X-68.3898 Y4.9163 Z-0.1182 I0.0009 J0.026
X-68.3915 Y4.8644 Z-0.1359 I-0.0009 J-0.026
X-68.3898 Y4.9163 Z-0.1536 I0.0009 J0.026
X-68.4024 Y4.8672 Z-0.1689 I-0.0009 J-0.026
X-68.3789 Y4.9135 Z-0.1866 I0.0118 J0.0232
X-68.4074 Y4.9102 Z-0.1932 I-0.0118 J-0.0232
X-68.3739 Y4.8705 Z-0.2109 I0.0168 J-0.0199
X-68.3658 Y4.898 Z-0.2175 I-0.0168 J0.0199
X-68.4155 Y4.8827 I-0.0248 J-0.0077
X-68.3658 Y4.898 I0.0248 J0.0077
X-68.3821 Y4.9066 I-0.0124 J-0.0038
G1 X-68.3892 Y4.9044
X-68.392 Y4.9035 Z-0.2172
X-68.3946 Y4.9027 Z-0.2164
X-68.3971 Y4.902 Z-0.215
X-68.3993 Y4.9013 Z-0.2131
X-68.401 Y4.9008 Z-0.2109
X-68.4023 Y4.9003 Z-0.2083
X-68.4032 Y4.9001 Z-0.2055
X-68.4034 Y4.9 Z-0.2026
G0 Z0.6
(.3 CIRCULAR THROUGH HOLE 2)
M7
G0 X-73.4398 Y9.5067
Z0.6
Z0.2
G1 Z0.1144 F13.333
G3 X-73.4385 Y9.5063 Z0.1081 I0.0124 J0.0433 F55.
X-73.4346 Y9.5055 Z0.103 I0.0111 J0.0436
X-73.4289 Y9.505 Z0.1 I0.0072 J0.0444
X-73.4004 Y9.514 Z0.0918 I0.0015 J0.045
X-73.4544 Y9.586 Z0.054 I-0.027 J0.036
X-73.4004 Y9.514 Z0.0161 I0.027 J-0.036
X-73.4544 Y9.586 Z-0.0218 I-0.027 J0.036
X-73.4004 Y9.514 Z-0.0597 I0.027 J-0.036
X-73.4544 Y9.586 Z-0.0976 I-0.027 J0.036
X-73.4724 Y9.55 Z-0.1087 I0.027 J-0.036
X-73.4146 I0.0289 J0. F60.
X-73.5724 I-0.0789 J0.
X-73.3146 I0.1289 J0.
X-73.6724 I-0.1789 J0.
X-73.2146 I0.2289 J0.
X-73.7724 I-0.2789 J0.
X-73.1146 I0.3289 J0.
X-73.8724 I-0.3789 J0.
X-73.1146 I0.3789 J0.
G2 X-73.0712 Y9.6195 I0.0774 J0.
G3 X-73.039 Y9.6949 I-0.0276 J0.0563
X-73.9706 Y9.55 I-0.4545 J-0.1452
X-73.0164 I0.4771 J0.0002
X-73.039 Y9.6949 I-0.4771 J-0.0002
X-73.0495 Y9.6993 I-0.0071 J-0.0023
G1 X-73.0995 Y9.674
X-73.3861 Y9.5677
G3 X-73.4004 Y9.586 Z-0.115 I-0.0414 J-0.0178 F55.
X-73.4544 Y9.514 Z-0.1529 I-0.027 J-0.036
X-73.4004 Y9.586 Z-0.1908 I0.027 J0.036
X-73.4724 Y9.55 Z-0.2175 I-0.027 J-0.036
X-73.4146 I0.0289 J0. F60.
X-73.5724 I-0.0789 J0.
X-73.3146 I0.1289 J0.
X-73.6724 I-0.1789 J0.
X-73.2146 I0.2289 J0.
X-73.7724 I-0.2789 J0.
X-73.1146 I0.3289 J0.
X-73.8724 I-0.3789 J0.
X-73.1146 I0.3789 J0.
G2 X-73.0712 Y9.6195 I0.0774 J0.
G3 X-73.039 Y9.6949 I-0.0276 J0.0563
X-73.9706 Y9.55 I-0.4545 J-0.1452
X-73.0164 I0.4771 J0.0002
X-73.039 Y9.6949 I-0.4771 J-0.0002
G2 X-73.0366 Y9.7035 I0.0077 J0.0025
G3 X-73.0343 Y9.7122 I-0.0052 J0.006
X-73.9806 Y9.55 I-0.4592 J-0.1624
X-73.0064 I0.4871 J0.0002
X-73.0343 Y9.7122 I-0.4871 J-0.0002
X-73.0371 Y9.7171 Z-0.2164 I-0.014 J-0.005
X-73.0409 Y9.7201 Z-0.2131 I-0.0112 J-0.0099
X-73.0438 Y9.7214 Z-0.2083 I-0.0075 J-0.0129
X-73.0449 Y9.7217 Z-0.2026 I-0.0045 J-0.0142
G0 Z0.4
X-73.4506 Y7.4567
Z0.2
G1 Z0.1144 F13.333
G3 X-73.4493 Y7.4564 Z0.1081 I0.0124 J0.0433 F55.
X-73.4454 Y7.4556 Z0.103 I0.0111 J0.0436
X-73.4397 Y7.455 Z0.1 I0.0072 J0.0444
X-73.4112 Y7.464 Z0.0918 I0.0015 J0.045
X-73.4652 Y7.536 Z0.054 I-0.027 J0.036
X-73.4112 Y7.464 Z0.0161 I0.027 J-0.036
X-73.4652 Y7.536 Z-0.0218 I-0.027 J0.036
X-73.4112 Y7.464 Z-0.0597 I0.027 J-0.036
X-73.4652 Y7.536 Z-0.0976 I-0.027 J0.036
X-73.4832 Y7.5 Z-0.1087 I0.027 J-0.036
X-73.4286 I0.0273 J0. F60.
X-73.5832 I-0.0773 J0.
X-73.3286 I0.1273 J0.
X-73.6832 I-0.1773 J0.
X-73.2286 I0.2273 J0.
X-73.7832 I-0.2773 J0.
X-73.1286 I0.3273 J0.
X-73.8832 I-0.3773 J0.
X-73.0286 I0.4273 J0.
X-73.9832 I-0.4773 J0.
X-73.0286 I0.4773 J0.
X-73.0736 Y7.545 Z-0.1239 I-0.045 J0. F55.
G1 X-73.4382 Z-0.2023
G3 X-73.4832 Y7.5 Z-0.2175 I0. J-0.045
X-73.4286 I0.0273 J0. F60.
X-73.5832 I-0.0773 J0.
X-73.3286 I0.1273 J0.
X-73.6832 I-0.1773 J0.
X-73.2286 I0.2273 J0.
X-73.7832 I-0.2773 J0.
X-73.1286 I0.3273 J0.
X-73.8832 I-0.3773 J0.
X-73.0286 I0.4273 J0.
X-73.9832 I-0.4773 J0.
X-73.0186 I0.4823 J0.
X-73.9932 I-0.4873 J0.
X-73.0186 I0.4873 J0.
X-73.0197 Y7.5056 Z-0.2164 I-0.0149 J0.
X-73.0222 Y7.5097 Z-0.2131 I-0.0138 J-0.0056
X-73.0245 Y7.5119 Z-0.2083 I-0.0113 J-0.0097
X-73.0254 Y7.5125 Z-0.2026 I-0.009 J-0.0119
G0 Z0.4
X-71.5781 Y7.4535
Z0.2
G1 Z0.1144 F13.333
G3 X-71.5795 Y7.4538 Z0.1081 I-0.0124 J-0.0433 F55.
X-71.5833 Y7.4546 Z0.103 I-0.0111 J-0.0436
X-71.589 Y7.4552 Z0.1 I-0.0072 J-0.0444
X-71.6175 Y7.4462 Z0.0918 I-0.0015 J-0.045
X-71.5635 Y7.3742 Z0.054 I0.027 J-0.036
X-71.6175 Y7.4462 Z0.0161 I-0.027 J0.036
X-71.5635 Y7.3742 Z-0.0218 I0.027 J-0.036
X-71.6175 Y7.4462 Z-0.0597 I-0.027 J0.036
X-71.5635 Y7.3742 Z-0.0976 I0.027 J-0.036
X-71.5455 Y7.4102 Z-0.1087 I-0.027 J0.036
X-71.5513 I-0.0029 J0. F60.
X-71.4455 I0.0529 J0.
X-71.6513 I-0.1029 J0.
X-71.4455 I0.1029 J0.
X-71.4536 Y7.4176 I-0.0074 J0.
G1 X-71.5406 Y7.4107
X-71.6257 Y7.4028
G3 X-71.6319 Y7.3924 I0.0007 J-0.0074
X-71.6175 Y7.3742 Z-0.115 I0.0414 J0.0178 F55.
X-71.5635 Y7.4462 Z-0.1529 I0.027 J0.036
X-71.6175 Y7.3742 Z-0.1908 I-0.027 J-0.036
X-71.5455 Y7.4102 Z-0.2175 I0.027 J0.036
X-71.5513 I-0.0029 J0. F60.
X-71.4455 I0.0529 J0.
X-71.6513 I-0.1029 J0.
X-71.4355 I0.1079 J0.
X-71.6613 I-0.1129 J0.
X-71.4355 I0.1129 J0.
X-71.4366 Y7.4158 Z-0.2164 I-0.0149 J0.
X-71.4391 Y7.4199 Z-0.2131 I-0.0138 J-0.0056
X-71.4414 Y7.4221 Z-0.2083 I-0.0113 J-0.0097
X-71.4424 Y7.4227 Z-0.2026 I-0.009 J-0.0119
G0 Z0.4
X-71.3979 Y6.3731
Z0.2
G1 Z0.1144 F13.333
G3 X-71.3965 Y6.3727 Z0.1081 I0.0124 J0.0433 F55.
X-71.3927 Y6.3719 Z0.103 I0.0111 J0.0436
X-71.387 Y6.3714 Z0.1 I0.0072 J0.0444
X-71.3585 Y6.3803 Z0.0918 I0.0015 J0.045
X-71.4125 Y6.4523 Z0.054 I-0.027 J0.036
X-71.3585 Y6.3803 Z0.0161 I0.027 J-0.036
X-71.4125 Y6.4523 Z-0.0218 I-0.027 J0.036
X-71.3585 Y6.3803 Z-0.0597 I0.027 J-0.036
X-71.4125 Y6.4523 Z-0.0976 I-0.027 J0.036
X-71.4305 Y6.4163 Z-0.1087 I0.027 J-0.036
X-71.3443 I0.0431 J0. F60.
X-71.5305 I-0.0931 J0.
X-71.2443 I0.1431 J0.
X-71.6305 I-0.1931 J0.
X-71.1443 I0.2431 J0.
X-71.7305 I-0.2931 J0.
X-71.1443 I0.2931 J0.
X-71.1525 Y6.4238 I-0.0074 J0.
G1 X-71.3368 Y6.4062
G2 X-71.345 Y6.4143 I-0.0008 J0.0074
G1 X-71.3435 Y6.4305
G3 X-71.3441 Y6.4341 I-0.0074 J0.0007
X-71.3585 Y6.4523 Z-0.115 I-0.0413 J-0.0178 F55.
X-71.4125 Y6.3803 Z-0.1529 I-0.027 J-0.036
X-71.3585 Y6.4523 Z-0.1908 I0.027 J0.036
X-71.4305 Y6.4163 Z-0.2175 I-0.027 J-0.036
X-71.3443 I0.0431 J0. F60.
X-71.5305 I-0.0931 J0.
X-71.2443 I0.1431 J0.
X-71.6305 I-0.1931 J0.
X-71.1443 I0.2431 J0.
X-71.7305 I-0.2931 J0.
X-71.1343 I0.2981 J0.
X-71.7405 I-0.3031 J0.
X-71.1343 I0.3031 J0.
X-71.1354 Y6.4219 Z-0.2164 I-0.0149 J0.
X-71.1379 Y6.426 Z-0.2131 I-0.0138 J-0.0056
X-71.1403 Y6.4282 Z-0.2083 I-0.0113 J-0.0097
X-71.1412 Y6.4289 Z-0.2026 I-0.009 J-0.0119
G0 Z0.4
X-69.6603 Y6.2512
Z0.2
G1 Z0.1144 F13.333
G3 X-69.6589 Y6.2508 Z0.1081 I0.0124 J0.0433 F55.
X-69.6551 Y6.25 Z0.103 I0.0111 J0.0436
X-69.6494 Y6.2495 Z0.1 I0.0072 J0.0444
X-69.6209 Y6.2584 Z0.0918 I0.0015 J0.045
X-69.6749 Y6.3304 Z0.054 I-0.027 J0.036
X-69.6209 Y6.2584 Z0.0161 I0.027 J-0.036
X-69.6749 Y6.3304 Z-0.0218 I-0.027 J0.036
X-69.6209 Y6.2584 Z-0.0597 I0.027 J-0.036
X-69.6749 Y6.3304 Z-0.0976 I-0.027 J0.036
X-69.6929 Y6.2944 Z-0.1087 I0.027 J-0.036
X-69.6351 I0.0289 J0. F60.
X-69.7929 I-0.0789 J0.
X-69.5351 I0.1289 J0.
X-69.8929 I-0.1789 J0.
X-69.4351 I0.2289 J0.
X-69.9929 I-0.2789 J0.
X-69.3351 I0.3289 J0.
X-70.0929 I-0.3789 J0.
X-69.3351 I0.3789 J0.
G2 X-69.2917 Y6.364 I0.0774 J0.
G3 X-69.2595 Y6.4394 I-0.0276 J0.0563
X-70.1911 Y6.2944 I-0.4545 J-0.1452
X-69.2369 I0.4771 J0.0002
X-69.2595 Y6.4394 I-0.4771 J-0.0002
X-69.2699 Y6.4438 I-0.0071 J-0.0023
G1 X-69.32 Y6.4185
X-69.6065 Y6.3122
G3 X-69.6209 Y6.3304 Z-0.115 I-0.0414 J-0.0178 F55.
X-69.6749 Y6.2584 Z-0.1529 I-0.027 J-0.036
X-69.6209 Y6.3304 Z-0.1908 I0.027 J0.036
X-69.6929 Y6.2944 Z-0.2175 I-0.027 J-0.036
X-69.6351 I0.0289 J0. F60.
X-69.7929 I-0.0789 J0.
X-69.5351 I0.1289 J0.
X-69.8929 I-0.1789 J0.
X-69.4351 I0.2289 J0.
X-69.9929 I-0.2789 J0.
X-69.3351 I0.3289 J0.
X-70.0929 I-0.3789 J0.
X-69.3351 I0.3789 J0.
G2 X-69.2917 Y6.364 I0.0774 J0.
G3 X-69.2595 Y6.4394 I-0.0276 J0.0563
X-70.1911 Y6.2944 I-0.4545 J-0.1452
X-69.2369 I0.4771 J0.0002
X-69.2595 Y6.4394 I-0.4771 J-0.0002
G2 X-69.257 Y6.448 I0.0077 J0.0025
G3 X-69.2547 Y6.4567 I-0.0052 J0.006
X-70.2011 Y6.2944 I-0.4592 J-0.1624
X-69.2269 I0.4871 J0.0002
X-69.2547 Y6.4567 I-0.4871 J-0.0002
X-69.2576 Y6.4616 Z-0.2164 I-0.014 J-0.005
X-69.2613 Y6.4646 Z-0.2131 I-0.0112 J-0.0099
X-69.2643 Y6.4659 Z-0.2083 I-0.0075 J-0.0129
X-69.2654 Y6.4662 Z-0.2026 I-0.0045 J-0.0142
G0 Z0.4
X-69.3825 Y4.7242
Z0.2
G1 Z0.1144 F13.333
G3 X-69.3838 Y4.7246 Z0.1081 I-0.0124 J-0.0433 F55.
X-69.3876 Y4.7254 Z0.103 I-0.0111 J-0.0436
X-69.3933 Y4.726 Z0.1 I-0.0072 J-0.0444
X-69.4219 Y4.717 Z0.0918 I-0.0015 J-0.045
X-69.3679 Y4.645 Z0.054 I0.027 J-0.036
X-69.4219 Y4.717 Z0.0161 I-0.027 J0.036
X-69.3679 Y4.645 Z-0.0218 I0.027 J-0.036
X-69.4219 Y4.717 Z-0.0597 I-0.027 J0.036
X-69.3679 Y4.645 Z-0.0976 I0.027 J-0.036
X-69.3499 Y4.681 Z-0.1087 I-0.027 J0.036
X-69.3872 I-0.0186 J0. F60.
X-69.2499 I0.0687 J0.
X-69.4872 I-0.1186 J0.
X-69.1499 I0.1687 J0.
X-69.5872 I-0.2187 J0.
X-69.0499 I0.2687 J0.
X-69.6871 I-0.3186 J0.
X-69.0499 I0.3186 J0.
X-69.0585 Y4.6883 I-0.0074 J0.
G1 X-69.1139 Y4.6796
X-69.4208 Y4.6667
X-69.4337 Y4.6669
G3 X-69.4362 Y4.6632 I0. J-0.0027
X-69.4219 Y4.645 Z-0.115 I0.0414 J0.0178 F55.
X-69.3679 Y4.717 Z-0.1529 I0.027 J0.036
X-69.4219 Y4.645 Z-0.1908 I-0.027 J-0.036
X-69.3499 Y4.681 Z-0.2175 I0.027 J0.036
X-69.3872 I-0.0186 J0. F60.
X-69.2499 I0.0687 J0.
X-69.4872 I-0.1186 J0.
X-69.1499 I0.1687 J0.
X-69.5872 I-0.2187 J0.
X-69.0499 I0.2687 J0.
X-69.6872 I-0.3186 J0.
X-69.0399 I0.3236 J0.
X-69.6972 I-0.3286 J0.
X-69.0399 I0.3286 J0.
X-69.0409 Y4.6865 Z-0.2164 I-0.0149 J0.
X-69.0434 Y4.6907 Z-0.2131 I-0.0138 J-0.0056
X-69.0458 Y4.6929 Z-0.2083 I-0.0113 J-0.0097
X-69.0467 Y4.6935 Z-0.2026 I-0.009 J-0.0119
G0 Z0.4
X-70.4148 Y7.9943
Z0.2
G1 Z0.1144 F13.333
G3 X-70.4134 Y7.9939 Z0.1081 I0.0124 J0.0433 F55.
X-70.4096 Y7.9931 Z0.103 I0.0111 J0.0436
X-70.4039 Y7.9925 Z0.1 I0.0072 J0.0444
X-70.3754 Y8.0015 Z0.0918 I0.0015 J0.045
X-70.4294 Y8.0735 Z0.054 I-0.027 J0.036
X-70.3754 Y8.0015 Z0.0161 I0.027 J-0.036
X-70.4294 Y8.0735 Z-0.0218 I-0.027 J0.036
X-70.3754 Y8.0015 Z-0.0597 I0.027 J-0.036
X-70.4294 Y8.0735 Z-0.0976 I-0.027 J0.036
X-70.4474 Y8.0375 Z-0.1087 I0.027 J-0.036
X-70.3928 I0.0273 J0. F60.
X-70.5474 I-0.0773 J0.
X-70.2928 I0.1273 J0.
X-70.6474 I-0.1773 J0.
X-70.1928 I0.2273 J0.
X-70.7474 I-0.2773 J0.
X-70.0928 I0.3273 J0.
X-70.8474 I-0.3773 J0.
X-69.9928 I0.4273 J0.
X-70.9474 I-0.4773 J0.
X-69.9928 I0.4773 J0.
X-70.0378 Y8.0825 Z-0.1239 I-0.045 J0. F55.
G1 X-70.4024 Z-0.2023
G3 X-70.4474 Y8.0375 Z-0.2175 I0. J-0.045
X-70.3928 I0.0273 J0. F60.
X-70.5474 I-0.0773 J0.
X-70.2928 I0.1273 J0.
X-70.6474 I-0.1773 J0.
X-70.1928 I0.2273 J0.
X-70.7474 I-0.2773 J0.
X-70.0928 I0.3273 J0.
X-70.8474 I-0.3773 J0.
X-69.9928 I0.4273 J0.
X-70.9474 I-0.4773 J0.
X-69.9828 I0.4823 J0.
X-70.9574 I-0.4873 J0.
X-69.9828 I0.4873 J0.
X-69.9838 Y8.0431 Z-0.2164 I-0.0149 J0.
X-69.9863 Y8.0472 Z-0.2131 I-0.0138 J-0.0056
X-69.9887 Y8.0494 Z-0.2083 I-0.0113 J-0.0097
X-69.9896 Y8.0501 Z-0.2026 I-0.009 J-0.0119
G0 Z0.4
X-69.5321 Y9.8998
Z0.2
G1 Z0.1144 F13.333
G3 X-69.5308 Y9.8994 Z0.1081 I0.0124 J0.0433 F55.
X-69.5269 Y9.8987 Z0.103 I0.0111 J0.0436
X-69.5212 Y9.8981 Z0.1 I0.0072 J0.0444
X-69.4927 Y9.9071 Z0.0918 I0.0015 J0.045
X-69.5467 Y9.9791 Z0.054 I-0.027 J0.036
X-69.4927 Y9.9071 Z0.0161 I0.027 J-0.036
X-69.5467 Y9.9791 Z-0.0218 I-0.027 J0.036
X-69.4927 Y9.9071 Z-0.0597 I0.027 J-0.036
X-69.5467 Y9.9791 Z-0.0976 I-0.027 J0.036
X-69.5647 Y9.9431 Z-0.1087 I0.027 J-0.036
X-69.5101 I0.0273 J0. F60.
X-69.6647 I-0.0773 J0.
X-69.4101 I0.1273 J0.
X-69.7647 I-0.1773 J0.
X-69.3101 I0.2273 J0.
X-69.8647 I-0.2773 J0.
X-69.2101 I0.3273 J0.
X-69.9647 I-0.3773 J0.
X-69.1101 I0.4273 J0.
X-70.0647 I-0.4773 J0.
X-69.1101 I0.4773 J0.
X-69.1551 Y9.9881 Z-0.1239 I-0.045 J0. F55.
G1 X-69.5197 Z-0.2023
G3 X-69.5647 Y9.9431 Z-0.2175 I0. J-0.045
X-69.5101 I0.0273 J0. F60.
X-69.6647 I-0.0773 J0.
X-69.4101 I0.1273 J0.
X-69.7647 I-0.1773 J0.
X-69.3101 I0.2273 J0.
X-69.8647 I-0.2773 J0.
X-69.2101 I0.3273 J0.
X-69.9647 I-0.3773 J0.
X-69.1101 I0.4273 J0.
X-70.0647 I-0.4773 J0.
X-69.1001 I0.4823 J0.
X-70.0747 I-0.4873 J0.
X-69.1001 I0.4873 J0.
X-69.1012 Y9.9486 Z-0.2164 I-0.0149 J0.
X-69.1037 Y9.9528 Z-0.2131 I-0.0138 J-0.0056
X-69.106 Y9.955 Z-0.2083 I-0.0113 J-0.0097
X-69.1069 Y9.9556 Z-0.2026 I-0.009 J-0.0119
G0 Z0.4
X-69.4614 Y14.5121
Z0.2
G1 Z0.1144 F13.333
G3 X-69.4627 Y14.5124 Z0.1081 I-0.0124 J-0.0433 F55.
X-69.4665 Y14.5132 Z0.103 I-0.0111 J-0.0436
X-69.4722 Y14.5138 Z0.1 I-0.0072 J-0.0444
X-69.5008 Y14.5048 Z0.0918 I-0.0015 J-0.045
X-69.4468 Y14.4328 Z0.054 I0.027 J-0.036
X-69.5008 Y14.5048 Z0.0161 I-0.027 J0.036
X-69.4468 Y14.4328 Z-0.0218 I0.027 J-0.036
X-69.5008 Y14.5048 Z-0.0597 I-0.027 J0.036
X-69.4468 Y14.4328 Z-0.0976 I0.027 J-0.036
X-69.4288 Y14.4688 Z-0.1087 I-0.027 J0.036
X-69.4386 I-0.0049 J0. F60.
X-69.4288 I0.0049 J0.
G2 X-69.405 Y14.518 I0.0627 J0.
G3 X-69.4193 Y14.5707 I-0.0184 J0.0233
X-69.5368 Y14.4688 I-0.0144 J-0.1021
X-69.3306 I0.1031 J0.0002
X-69.4193 Y14.5707 I-0.1031 J-0.0002
X-69.4266 Y14.5678 I-0.0011 J-0.0079
G1 X-69.514 Y14.4592
G3 X-69.5151 Y14.4511 I0.0062 J-0.005
X-69.5008 Y14.4328 Z-0.115 I0.0413 J0.0178 F55.
X-69.4468 Y14.5048 Z-0.1529 I0.027 J0.036
X-69.5008 Y14.4328 Z-0.1908 I-0.027 J-0.036
X-69.4288 Y14.4688 Z-0.2175 I0.027 J0.036
X-69.4386 I-0.0049 J0. F60.
X-69.4288 I0.0049 J0.
G2 X-69.405 Y14.518 I0.0627 J0.
G3 X-69.4193 Y14.5707 I-0.0184 J0.0233
X-69.5368 Y14.4688 I-0.0144 J-0.1021
X-69.3306 I0.1031 J0.0002
X-69.4193 Y14.5707 I-0.1031 J-0.0002
G2 X-69.4258 Y14.5764 I0.0011 J0.0079
G3 X-69.4328 Y14.5817 I-0.007 J-0.002
X-69.5468 Y14.4688 I-0.0009 J-0.1131
X-69.3206 I0.1131 J0.0002
X-69.4328 Y14.5817 I-0.1131 J-0.0002
X-69.4384 Y14.5807 Z-0.2164 I-0.0001 J-0.0149
X-69.4425 Y14.5782 Z-0.2131 I0.0055 J-0.0139
X-69.4447 Y14.5759 Z-0.2083 I0.0096 J-0.0114
X-69.4454 Y14.575 Z-0.2026 I0.0118 J-0.0091
G0 Z0.4
X-73.4746 Y15.01
Z0.2
G1 Z0.1144 F13.333
G3 X-73.4759 Y15.0103 Z0.1081 I-0.0124 J-0.0433 F55.
X-73.4798 Y15.0111 Z0.103 I-0.0111 J-0.0436
X-73.4855 Y15.0117 Z0.1 I-0.0072 J-0.0444
X-73.514 Y15.0027 Z0.0918 I-0.0015 J-0.045
X-73.46 Y14.9307 Z0.054 I0.027 J-0.036
X-73.514 Y15.0027 Z0.0161 I-0.027 J0.036
X-73.46 Y14.9307 Z-0.0218 I0.027 J-0.036
X-73.514 Y15.0027 Z-0.0597 I-0.027 J0.036
X-73.46 Y14.9307 Z-0.0976 I0.027 J-0.036
X-73.442 Y14.9667 Z-0.1087 I-0.027 J0.036
X-73.4478 I-0.0029 J0. F60.
X-73.342 I0.0529 J0.
X-73.5478 I-0.1029 J0.
X-73.342 I0.1029 J0.
X-73.35 Y14.9741 I-0.0074 J0.
G1 X-73.4371 Y14.9672
X-73.5222 Y14.9593
G3 X-73.5283 Y14.9489 I0.0007 J-0.0074
X-73.514 Y14.9307 Z-0.115 I0.0413 J0.0178 F55.
X-73.46 Y15.0027 Z-0.1529 I0.027 J0.036
X-73.514 Y14.9307 Z-0.1908 I-0.027 J-0.036
X-73.442 Y14.9667 Z-0.2175 I0.027 J0.036
X-73.4478 I-0.0029 J0. F60.
X-73.342 I0.0529 J0.
X-73.5478 I-0.1029 J0.
X-73.332 I0.1079 J0.
X-73.5578 I-0.1129 J0.
X-73.332 I0.1129 J0.
X-73.3331 Y14.9723 Z-0.2164 I-0.0149 J0.
X-73.3356 Y14.9764 Z-0.2131 I-0.0138 J-0.0056
X-73.3379 Y14.9786 Z-0.2083 I-0.0113 J-0.0097
X-73.3388 Y14.9792 Z-0.2026 I-0.009 J-0.0119
G0 Z0.6
(SHAPE THROUGH FINISHING PASS 2)
M7
G0 X-71.8079 Y8.5315
Z0.6
Z0.2
G1 Z0.1 F13.333
Z-0.1675
Y8.5312 Z-0.1731 F40.
Y8.5303 Z-0.1786
X-71.8078 Y8.5287 Z-0.184
X-71.8077 Y8.5266 Z-0.1892
X-71.8076 Y8.5239 Z-0.1941
X-71.8075 Y8.5206 Z-0.1987
X-71.8074 Y8.5169 Z-0.2029
X-71.8072 Y8.5127 Z-0.2066
X-71.8071 Y8.5081 Z-0.2098
X-71.8069 Y8.5032 Z-0.2125
X-71.8067 Y8.4981 Z-0.2147
X-71.8065 Y8.4927 Z-0.2162
X-71.8063 Y8.4871 Z-0.2172
X-71.8061 Y8.4816 Z-0.2175
X-71.8055 Y8.4667
G3 X-71.7574 Y8.5185 I-0.0018 J0.05
G1 X-71.778 Y9.0782
G3 X-71.7875 Y9.0817 I-0.0055 J-0.0002
G1 X-72.3193 Y8.5161
G3 X-72.3194 Y8.5087 I0.004 J-0.0037
G1 X-72.3193 Y8.5086
X-71.7433 Y7.875
G3 X-71.7339 Y7.8789 I0.004 J0.0037
G1 X-71.7574 Y8.5185
G3 X-71.8092 Y8.5666 I-0.05 J-0.0018
G1 X-71.8087 Y8.5517
X-71.8085 Y8.5461 Z-0.2172
X-71.8083 Y8.5406 Z-0.2162
X-71.8081 Y8.5352 Z-0.2147
X-71.8079 Y8.53 Z-0.2125
X-71.8077 Y8.5251 Z-0.2098
X-71.8075 Y8.5205 Z-0.2066
X-71.8074 Y8.5164 Z-0.2029
X-71.8072 Y8.5126 Z-0.1987
X-71.8071 Y8.5094 Z-0.1941
X-71.807 Y8.5067 Z-0.1892
X-71.8069 Y8.5045 Z-0.184
Y8.503 Z-0.1786
X-71.8068 Y8.5021 Z-0.1731
Y8.5017 Z-0.1675
G0 Z0.4
X-71.195 Y8.5255
Z0.2
G1 Z0.1 F13.333
Z-0.1675
X-71.1951 Y8.5252 Z-0.1731 F40.
X-71.1956 Y8.5244 Z-0.1786
X-71.1965 Y8.5231 Z-0.184
X-71.1977 Y8.5213 Z-0.1892
X-71.1991 Y8.519 Z-0.1941
X-71.2009 Y8.5163 Z-0.1987
X-71.2029 Y8.5132 Z-0.2029
X-71.2052 Y8.5097 Z-0.2066
X-71.2077 Y8.5058 Z-0.2098
X-71.2104 Y8.5017 Z-0.2125
X-71.2132 Y8.4974 Z-0.2147
X-71.2161 Y8.4929 Z-0.2162
X-71.2191 Y8.4882 Z-0.2172
X-71.2222 Y8.4835 Z-0.2175
X-71.2303 Y8.471
G3 X-71.1611 Y8.4858 I0.0272 J0.0419
G2 X-71.1047 Y8.5626 I0.691 J-0.4483
G3 X-71.1046 Y8.5697 I-0.0044 J0.0036
G1 X-71.4274 Y8.9785
Y8.9786
G3 X-71.4374 Y8.9749 I-0.0044 J-0.0034
G1 X-71.3956 Y7.8366
Y7.8365
G3 X-71.3921 Y7.8316 I0.0055 J0.0002
G2 X-71.2757 Y7.7675 I-0.1563 J-0.4214
G1 X-71.2756 Y7.7674
G3 X-71.2695 Y7.767 I0.0034 J0.0044
G1 X-71.2559 Y7.775
G2 X-71.2555 Y7.7752 I0.0378 J-0.0642
G3 X-71.2531 Y7.7816 I-0.0027 J0.0047
G1 Y7.7817
G2 X-71.1611 Y8.4858 I0.783 J0.2558
G3 X-71.1759 Y8.5549 I-0.0419 J0.0272
G1 X-71.184 Y8.5424
X-71.187 Y8.5377 Z-0.2172
X-71.19 Y8.5331 Z-0.2162
X-71.193 Y8.5286 Z-0.2147
X-71.1958 Y8.5242 Z-0.2125
X-71.1984 Y8.5201 Z-0.2098
X-71.2009 Y8.5163 Z-0.2066
X-71.2032 Y8.5128 Z-0.2029
X-71.2052 Y8.5096 Z-0.1987
X-71.207 Y8.5069 Z-0.1941
X-71.2085 Y8.5046 Z-0.1892
X-71.2097 Y8.5028 Z-0.184
X-71.2105 Y8.5015 Z-0.1786
X-71.211 Y8.5007 Z-0.1731
X-71.2112 Y8.5005 Z-0.1675
G0 Z0.4
X-70.6123 Y8.8997
Z0.2
G1 Z0.1 F13.333
Z-0.1675
X-70.6127 Y8.8996 Z-0.1731 F40.
X-70.6136 Y8.8995 Z-0.1786
X-70.6151 Y8.8992 Z-0.184
X-70.6172 Y8.8988 Z-0.1892
X-70.6199 Y8.8983 Z-0.1941
X-70.6231 Y8.8977 Z-0.1987
X-70.6267 Y8.8971 Z-0.2029
X-70.6309 Y8.8963 Z-0.2066
X-70.6354 Y8.8955 Z-0.2098
X-70.6402 Y8.8946 Z-0.2125
X-70.6453 Y8.8937 Z-0.2147
X-70.6506 Y8.8927 Z-0.2162
X-70.656 Y8.8917 Z-0.2172
X-70.6615 Y8.8907 Z-0.2175
X-70.6762 Y8.888
G3 X-70.618 Y8.8478 I0.0492 J0.009
G2 X-70.2883 Y8.8409 I0.148 J-0.8103
G1 X-70.2881
G3 X-70.2818 Y8.844 I0.0012 J0.0055
G1 X-70.081 Y9.278
X-70.0809 Y9.2781
G3 X-70.0826 Y9.2847 I-0.0049 J0.0023
G2 X-70.3717 Y9.6907 I0.4951 J0.6585
G3 X-70.3775 Y9.6945 I-0.0052 J-0.0017
G1 X-70.3776
X-71.2711 Y9.6046
G3 X-71.2759 Y9.5975 I0.0006 J-0.0055
G2 X-71.2927 Y9.3554 I-0.3493 J-0.0974
G3 X-71.2919 Y9.3496 I0.0053 J-0.0022
G1 X-70.8404 Y8.7782
G3 X-70.8337 Y8.7766 I0.0043 J0.0033
G2 X-70.618 Y8.8478 I0.3636 J-0.7391
G3 X-70.5778 Y8.906 I-0.009 J0.0492
G1 X-70.5925 Y8.9033
X-70.598 Y8.9023 Z-0.2172
X-70.6034 Y8.9013 Z-0.2162
X-70.6087 Y8.9004 Z-0.2147
X-70.6138 Y8.8994 Z-0.2125
X-70.6186 Y8.8985 Z-0.2098
X-70.6231 Y8.8977 Z-0.2066
X-70.6272 Y8.897 Z-0.2029
X-70.6309 Y8.8963 Z-0.1987
X-70.6341 Y8.8957 Z-0.1941
X-70.6368 Y8.8952 Z-0.1892
X-70.6389 Y8.8948 Z-0.184
X-70.6404 Y8.8946 Z-0.1786
X-70.6413 Y8.8944 Z-0.1731
X-70.6417 Y8.8943 Z-0.1675
G0 Z0.4
X-68.6923 Y9.0998
Z0.2
G1 Z0.1 F13.333
Z-0.1675
X-68.6921 Y9.0995 Z-0.1731 F40.
X-68.6916 Y9.0988 Z-0.1786
X-68.6907 Y9.0975 Z-0.184
X-68.6895 Y9.0958 Z-0.1892
X-68.6879 Y9.0935 Z-0.1941
X-68.686 Y9.0909 Z-0.1987
X-68.6839 Y9.0878 Z-0.2029
X-68.6815 Y9.0844 Z-0.2066
X-68.6788 Y9.0807 Z-0.2098
X-68.676 Y9.0767 Z-0.2125
X-68.673 Y9.0724 Z-0.2147
X-68.6699 Y9.068 Z-0.2162
X-68.6667 Y9.0635 Z-0.2172
X-68.6635 Y9.0589 Z-0.2175
X-68.6549 Y9.0468
G3 X-68.6429 Y9.1165 I-0.0288 J0.0409
G1 X-68.7884 Y9.3227
G3 X-68.7934 Y9.325 I-0.0045 J-0.0031
G2 X-68.9921 Y9.3679 I-0.0307 J0.3401
G3 X-68.9987 Y9.3669 I-0.0027 J-0.0048
G2 X-69.7692 Y9.1396 I-0.5887 J0.5761
G1 X-69.7694 Y9.1397
G3 X-69.7757 Y9.1366 I-0.0012 J-0.0055
G1 X-69.9765 Y8.7026
Y8.7024
G3 X-69.9749 Y8.6958 I0.0049 J-0.0023
G2 X-69.7078 Y8.3499 I-0.4952 J-0.6583
G3 X-69.7018 Y8.3466 I0.0051 J0.0021
G1 X-68.2888 Y8.6006
X-68.2887
G3 X-68.285 Y8.6094 I-0.001 J0.0056
G1 X-68.6429 Y9.1165
G3 X-68.7126 Y9.1285 I-0.0409 J-0.0288
G1 X-68.704 Y9.1163
X-68.7007 Y9.1117 Z-0.2172
X-68.6975 Y9.1072 Z-0.2162
X-68.6944 Y9.1028 Z-0.2147
X-68.6915 Y9.0986 Z-0.2125
X-68.6886 Y9.0946 Z-0.2098
X-68.686 Y9.0908 Z-0.2066
X-68.6836 Y9.0874 Z-0.2029
X-68.6814 Y9.0844 Z-0.1987
X-68.6796 Y9.0817 Z-0.1941
X-68.678 Y9.0795 Z-0.1892
X-68.6768 Y9.0777 Z-0.184
X-68.6759 Y9.0765 Z-0.1786
X-68.6753 Y9.0757 Z-0.1731
X-68.6751 Y9.0754 Z-0.1675
G0 Z0.4
X-67.7497 Y9.4908
Z0.2
G1 Z0.1 F13.333
Z-0.1675
G19 G2 Y9.4408 Z-0.2175 J-0.05 K0. F40.
G1 Y9.4259
G17 G3 X-67.6997 Y9.4759 I0. J0.05
G1 Y10.0456
G3 X-67.7077 Y10.0505 I-0.0055 J0.
G1 X-68.4801 Y9.653
G3 X-68.4831 Y9.6484 I0.0025 J-0.0049
G2 X-68.5138 Y9.5223 I-0.3411 J0.0163
G1 X-68.5139 Y9.522
G3 X-68.5135 Y9.5166 I0.0049 J-0.0023
G1 X-67.9903 Y8.7752
G3 X-67.9847 Y8.773 I0.0045 J0.0032
G2 X-67.9019 Y8.7819 I0.0825 J-0.3781
G1 X-67.7051
G3 X-67.6997 Y8.7874 I0. J0.0055
G1 Y9.4759
G3 X-67.7497 Y9.5259 I-0.05 J0.
G1 Y9.511
G19 G2 Y9.461 Z-0.1675 J0. K0.05
G0 Z0.4
X-67.9056 Y10.4631
Z0.2
G1 Z0.1 F13.333
Z-0.1675
G2 Y10.4131 Z-0.2175 J-0.05 K0. F40.
G1 Y10.3982
G17 G3 X-67.8556 Y10.4482 I0. J0.05
G1 Y10.6754
G3 X-67.8586 Y10.6804 I-0.0057 J-0.0001
G1 X-67.8589 Y10.6805
G2 X-67.8836 Y10.6951 I0.1717 J0.3193
G3 X-67.8893 Y10.6953 I-0.003 J-0.0046
G1 X-67.8894 Y10.6952
X-68.7971 Y10.1903
G3 X-68.7997 Y10.1839 I0.0027 J-0.0048
G1 X-68.7996 Y10.1837
G2 X-68.7663 Y10.006 I-0.788 J-0.2397
G3 X-68.7617 Y10.0009 I0.0056 J0.0005
G1 X-68.7616
G2 X-68.6393 Y9.9525 I-0.0622 J-0.3359
G3 X-68.634 Y9.9522 I0.0029 J0.0046
G1 X-67.8589 Y10.3511
X-67.8587 Y10.3512
G3 X-67.8556 Y10.3562 I-0.0026 J0.005
G1 Y10.4482
G3 X-67.9056 Y10.4982 I-0.05 J0.
G1 Y10.4833
G19 G2 Y10.4333 Z-0.1675 J0. K0.05
G0 Z0.4
X-68.4899 Y10.8034
Z0.2
G1 Z0.1 F13.333
Z-0.1675
X-68.4901 Y10.8032 Z-0.1731 F40.
X-68.491 Y10.8028 Z-0.1786
X-68.4923 Y10.802 Z-0.184
X-68.4942 Y10.801 Z-0.1892
X-68.4966 Y10.7996 Z-0.1941
X-68.4994 Y10.7981 Z-0.1987
X-68.5027 Y10.7963 Z-0.2029
X-68.5063 Y10.7942 Z-0.2066
X-68.5103 Y10.792 Z-0.2098
X-68.5146 Y10.7896 Z-0.2125
X-68.5191 Y10.7871 Z-0.2147
X-68.5238 Y10.7845 Z-0.2162
X-68.5287 Y10.7818 Z-0.2172
X-68.5336 Y10.7791 Z-0.2175
X-68.5466 Y10.7718
G17 G3 X-68.4786 Y10.7524 I0.0437 J0.0243
G1 X-68.0529 Y10.9893
G3 X-68.0501 Y10.9941 I-0.0027 J0.0048
G1 Y10.9942
G2 X-68.0402 Y11.0844 I0.3627 J0.0058
G1 X-68.0401 Y11.0846
G3 X-68.0417 Y11.0899 I-0.0052 J0.0013
G1 X-68.4369 Y11.4411
G3 X-68.4424 Y11.4421 I-0.0037 J-0.0041
G2 X-68.8557 Y11.5623 I-0.1251 J0.3403
G3 X-68.8652 Y11.5607 I-0.0044 J-0.0033
G1 X-69.1692 Y10.6578
Y10.6577
G3 X-69.1669 Y10.6514 I0.005 J-0.0017
G1 X-69.1666 Y10.6513
G2 X-68.9675 Y10.4854 I-0.4211 J-0.7079
G3 X-68.9607 Y10.4842 I0.0042 J0.0036
G1 X-68.9606 Y10.4843
X-68.4786 Y10.7524
G3 X-68.4592 Y10.8204 I-0.0243 J0.0437
G1 X-68.4722 Y10.8132
X-68.4771 Y10.8105 Z-0.2172
X-68.4819 Y10.8078 Z-0.2162
X-68.4866 Y10.8052 Z-0.2147
X-68.4912 Y10.8026 Z-0.2125
X-68.4955 Y10.8003 Z-0.2098
X-68.4995 Y10.798 Z-0.2066
X-68.5031 Y10.796 Z-0.2029
X-68.5064 Y10.7942 Z-0.1987
X-68.5092 Y10.7926 Z-0.1941
X-68.5116 Y10.7913 Z-0.1892
X-68.5135 Y10.7902 Z-0.184
X-68.5148 Y10.7895 Z-0.1786
X-68.5156 Y10.789 Z-0.1731
X-68.5159 Y10.7889 Z-0.1675
G0 Z0.4
X-68.0419 Y11.7884
Z0.2
G1 Z0.1 F13.333
Z-0.1675
X-68.0417 Y11.7881 Z-0.1731 F40.
X-68.0412 Y11.7873 Z-0.1786
X-68.0404 Y11.786 Z-0.184
X-68.0392 Y11.7842 Z-0.1892
X-68.0377 Y11.7819 Z-0.1941
X-68.036 Y11.7792 Z-0.1987
X-68.0339 Y11.7761 Z-0.2029
X-68.0317 Y11.7726 Z-0.2066
X-68.0292 Y11.7687 Z-0.2098
X-68.0265 Y11.7646 Z-0.2125
X-68.0237 Y11.7603 Z-0.2147
X-68.0208 Y11.7557 Z-0.2162
X-68.0178 Y11.7511 Z-0.2172
X-68.0147 Y11.7464 Z-0.2175
X-68.0066 Y11.7339
G3 X-67.9918 Y11.803 I-0.0272 J0.042
G2 X-68.0496 Y11.9843 I0.3044 J0.197
G3 X-68.0527 Y11.9891 I-0.0055 J-0.0002
G1 X-68.0528
X-68.4193 Y12.1656
G3 X-68.4255 Y12.1647 I-0.0024 J-0.005
G2 X-68.4589 Y12.1374 I-0.3009 J0.3354
G1 X-68.4591 Y12.1373
G3 X-68.4575 Y12.1278 I0.0032 J-0.0044
G1 X-68.4573
G2 X-68.2149 Y11.6981 I-0.1101 J-0.3453
G3 X-68.2132 Y11.6926 I0.0054 J-0.0013
G1 X-68.2131 Y11.6925
X-67.865 Y11.3828
G3 X-67.8556 Y11.387 I0.0038 J0.0042
G1 Y11.6754
G3 X-67.8586 Y11.6804 I-0.0057 J-0.0001
G1 X-67.8589 Y11.6805
G2 X-67.9918 Y11.803 I0.1715 J0.3195
G3 X-68.0609 Y11.8178 I-0.042 J-0.0272
G1 X-68.0529 Y11.8053
X-68.0498 Y11.8006 Z-0.2172
X-68.0468 Y11.796 Z-0.2162
X-68.0439 Y11.7915 Z-0.2147
X-68.0411 Y11.7871 Z-0.2125
X-68.0384 Y11.783 Z-0.2098
X-68.0359 Y11.7792 Z-0.2066
X-68.0336 Y11.7756 Z-0.2029
X-68.0316 Y11.7725 Z-0.1987
X-68.0299 Y11.7698 Z-0.1941
X-68.0284 Y11.7675 Z-0.1892
X-68.0272 Y11.7657 Z-0.184
X-68.0264 Y11.7644 Z-0.1786
X-68.0259 Y11.7636 Z-0.1731
X-68.0257 Y11.7633 Z-0.1675
G0 Z0.4
X-67.9056 Y12.4214
Z0.2
G1 Z0.1 F13.333
Z-0.1675
G19 G2 Y12.3714 Z-0.2175 J-0.05 K0. F40.
G1 Y12.3565
G17 G3 X-67.8556 Y12.4065 I0. J0.05
G1 Y12.4824
G3 X-67.8613 Y12.488 I-0.0057 J0.
G1 X-67.8614
X-67.8697
G2 X-68.1938 Y12.6633 I-0.0002 J0.3871
G1 X-68.3478 Y12.8987
G3 X-68.3576 Y12.8942 I-0.0046 J-0.003
G2 X-68.2834 Y12.5819 I-3.073 J-0.8948
G1 Y12.5818
G2 X-68.2768 Y12.4741 I-0.443 J-0.0813
G3 X-68.2737 Y12.4688 I0.0055 J-0.0003
G1 X-68.2736
X-67.9068 Y12.2923
G3 X-67.9013 Y12.2929 I0.0023 J0.0049
G2 X-67.8587 Y12.3196 I0.2134 J-0.2932
G1 X-67.8586
G3 X-67.8556 Y12.3246 I-0.0027 J0.005
G1 Y12.4065
G3 X-67.9056 Y12.4565 I-0.05 J0.
G1 Y12.4416
G19 G2 Y12.3916 Z-0.1675 J0. K0.05
G0 Z0.4
X-68.6623 Y12.5151
Z0.2
G1 Z0.1 F13.333
Z-0.1675
Y12.5148 Z-0.1731 F40.
Y12.5138 Z-0.1786
Y12.5123 Z-0.184
Y12.5101 Z-0.1892
Y12.5074 Z-0.1941
Y12.5042 Z-0.1987
Y12.5004 Z-0.2029
Y12.4963 Z-0.2066
Y12.4917 Z-0.2098
Y12.4868 Z-0.2125
X-68.6622 Y12.4816 Z-0.2147
Y12.4762 Z-0.2162
Y12.4707 Z-0.2172
Y12.4651 Z-0.2175
Y12.4502
G17 G3 X-68.6123 Y12.5003 I-0.0001 J0.05
X-68.6142 Y12.5207 I-0.1141 J-0.0003
X-69.0981 Y13.6622 I-2.8165 J-0.5207
X-69.2838 Y13.5298 I-0.0929 J-0.0662
G2 X-68.8386 Y12.4793 I-2.147 J-1.5296
G3 X-68.6123 Y12.5003 I0.1122 J0.0207
X-68.6625 Y12.5502 I-0.05 J-0.0002
G1 X-68.6624 Y12.5353
Y12.5297 Z-0.2172
Y12.5242 Z-0.2162
Y12.5188 Z-0.2147
X-68.6623 Y12.5136 Z-0.2125
Y12.5087 Z-0.2098
Y12.5041 Z-0.2066
Y12.4999 Z-0.2029
Y12.4962 Z-0.1987
Y12.493 Z-0.1941
Y12.4902 Z-0.1892
Y12.4881 Z-0.184
Y12.4865 Z-0.1786
Y12.4856 Z-0.1731
Y12.4853 Z-0.1675
G0 Z0.4
X-69.1643 Y11.8833
Z0.2
G1 Z0.1 F13.333
Z-0.1675
X-69.1644 Y11.883 Z-0.1731 F40.
X-69.1647 Y11.8821 Z-0.1786
X-69.1652 Y11.8806 Z-0.184
X-69.1659 Y11.8786 Z-0.1892
X-69.1667 Y11.876 Z-0.1941
X-69.1678 Y11.8729 Z-0.1987
X-69.169 Y11.8694 Z-0.2029
X-69.1703 Y11.8654 Z-0.2066
X-69.1718 Y11.8611 Z-0.2098
X-69.1733 Y11.8564 Z-0.2125
X-69.175 Y11.8515 Z-0.2147
X-69.1767 Y11.8464 Z-0.2162
X-69.1785 Y11.8412 Z-0.2172
X-69.1802 Y11.8359 Z-0.2175
X-69.185 Y11.8218
G3 X-69.1217 Y11.8532 I0.016 J0.0474
G1 X-69.0203 Y12.154
G3 X-69.0219 Y12.1599 I-0.0053 J0.0017
G1 X-69.0222 Y12.1601
G2 X-69.1047 Y12.2555 I0.2961 J0.3396
G3 X-69.1104 Y12.2579 I-0.0047 J-0.003
G1 X-69.1105
X-69.3355 Y12.2163
G3 X-69.3396 Y12.2126 I0.001 J-0.0053
G1 X-69.3397 Y12.2125
G2 X-69.5012 Y12.0104 I-0.3452 J0.1104
G3 X-69.5039 Y12.0055 I0.0028 J-0.0047
G1 X-69.4578 Y10.8884
G3 X-69.4474 Y10.8869 I0.0054 J0.0002
G1 X-69.1217 Y11.8532
G3 X-69.1531 Y11.9165 I-0.0474 J0.016
G1 X-69.1578 Y11.9024
X-69.1596 Y11.8971 Z-0.2172
X-69.1614 Y11.8919 Z-0.2162
X-69.1631 Y11.8868 Z-0.2147
X-69.1648 Y11.8818 Z-0.2125
X-69.1663 Y11.8772 Z-0.2098
X-69.1678 Y11.8729 Z-0.2066
X-69.1691 Y11.8689 Z-0.2029
X-69.1703 Y11.8654 Z-0.1987
X-69.1713 Y11.8623 Z-0.1941
X-69.1722 Y11.8597 Z-0.1892
X-69.1729 Y11.8577 Z-0.184
X-69.1734 Y11.8562 Z-0.1786
X-69.1737 Y11.8553 Z-0.1731
X-69.1738 Y11.855 Z-0.1675
G0 Z0.4
X-69.8752 Y11.6318
Z0.2
G1 Z0.1 F13.333
Z-0.1675
X-69.8751 Y11.6315 Z-0.1731 F40.
Y11.6305 Z-0.1786
X-69.875 Y11.629 Z-0.184
Y11.6268 Z-0.1892
X-69.8748 Y11.6241 Z-0.1941
X-69.8747 Y11.6209 Z-0.1987
X-69.8746 Y11.6172 Z-0.2029
X-69.8744 Y11.613 Z-0.2066
X-69.8742 Y11.6084 Z-0.2098
X-69.874 Y11.6035 Z-0.2125
X-69.8738 Y11.5983 Z-0.2147
X-69.8736 Y11.5929 Z-0.2162
X-69.8733 Y11.5874 Z-0.2172
X-69.8731 Y11.5818 Z-0.2175
X-69.8725 Y11.5669
G3 X-69.8246 Y11.6189 I-0.002 J0.05
G1 X-69.8398 Y11.9917
G3 X-69.8429 Y11.9963 I-0.0054 J-0.0002
G1 X-69.843 Y11.9964
G2 X-69.9684 Y12.0963 I0.1577 J0.3265
G3 X-69.9736 Y12.0983 I-0.0043 J-0.0034
G1 X-71.0809 Y11.8936
X-71.081 Y11.8935
G3 X-71.0853 Y11.8899 I0.001 J-0.0055
G2 X-71.0895 Y11.877 I-0.3464 J0.107
X-71.0898 Y11.8763 I-0.0703 J0.0246
G3 X-71.0887 Y11.8708 I0.0051 J-0.0019
G1 X-71.0886 Y11.8707
X-70.0032 Y10.6592
G3 X-69.9964 Y10.6582 I0.0041 J0.0036
G2 X-69.7931 Y10.7407 I0.4089 J-0.7151
G3 X-69.789 Y10.7463 I-0.0014 J0.0053
G1 X-69.8246 Y11.6189
G3 X-69.8766 Y11.6669 I-0.05 J-0.002
G1 X-69.876 Y11.652
X-69.8758 Y11.6464 Z-0.2172
X-69.8755 Y11.6409 Z-0.2162
X-69.8753 Y11.6355 Z-0.2147
X-69.8751 Y11.6303 Z-0.2125
X-69.8749 Y11.6254 Z-0.2098
X-69.8747 Y11.6208 Z-0.2066
X-69.8745 Y11.6166 Z-0.2029
X-69.8744 Y11.6129 Z-0.1987
X-69.8743 Y11.6097 Z-0.1941
X-69.8741 Y11.607 Z-0.1892
Y11.6048 Z-0.184
X-69.874 Y11.6033 Z-0.1786
Y11.6023 Z-0.1731
X-69.8739 Y11.602 Z-0.1675
G0 Z0.4
X-70.182 Y12.5455
Z0.2
G1 Z0.1 F13.333
Z-0.1675
X-70.1819 Y12.5452 Z-0.1731 F40.
X-70.1816 Y12.5444 Z-0.1786
X-70.181 Y12.5429 Z-0.184
X-70.1801 Y12.541 Z-0.1892
X-70.1791 Y12.5385 Z-0.1941
X-70.1778 Y12.5355 Z-0.1987
X-70.1763 Y12.532 Z-0.2029
X-70.1747 Y12.5282 Z-0.2066
X-70.1729 Y12.524 Z-0.2098
X-70.171 Y12.5195 Z-0.2125
X-70.169 Y12.5147 Z-0.2147
X-70.1669 Y12.5097 Z-0.2162
X-70.1647 Y12.5046 Z-0.2172
X-70.1625 Y12.4995 Z-0.2175
X-70.1567 Y12.4858
G3 X-70.1302 Y12.5513 I-0.0195 J0.046
X-70.188 Y12.6714 I-1.3004 J-0.5516
X-70.1958 Y12.6733 I-0.0047 J-0.0026
G1 X-70.6945 Y12.3178
G3 X-70.6903 Y12.3079 I0.0032 J-0.0045
G1 X-70.0884 Y12.4193
G3 X-70.084 Y12.4264 I-0.001 J0.0055
X-70.1302 Y12.5513 I-1.3465 J-0.4267
X-70.1958 Y12.5778 I-0.046 J-0.0195
G1 X-70.1899 Y12.5641
X-70.1877 Y12.559 Z-0.2172
X-70.1856 Y12.5539 Z-0.2162
X-70.1835 Y12.5489 Z-0.2147
X-70.1815 Y12.5441 Z-0.2125
X-70.1795 Y12.5396 Z-0.2098
X-70.1778 Y12.5354 Z-0.2066
X-70.1761 Y12.5316 Z-0.2029
X-70.1747 Y12.5281 Z-0.1987
X-70.1734 Y12.5251 Z-0.1941
X-70.1723 Y12.5226 Z-0.1892
X-70.1715 Y12.5207 Z-0.184
X-70.1709 Y12.5192 Z-0.1786
X-70.1705 Y12.5184 Z-0.1731
X-70.1704 Y12.5181 Z-0.1675
G0 Z0.4
X-71.1188 Y12.4902
Z0.2
G1 Z0.1 F13.333
Z-0.1675
X-71.119 Y12.49 Z-0.1731 F40.
X-71.1198 Y12.4895 Z-0.1786
X-71.1211 Y12.4886 Z-0.184
X-71.1228 Y12.4873 Z-0.1892
X-71.125 Y12.4858 Z-0.1941
X-71.1277 Y12.4839 Z-0.1987
X-71.1307 Y12.4817 Z-0.2029
X-71.1341 Y12.4793 Z-0.2066
X-71.1378 Y12.4766 Z-0.2098
X-71.1418 Y12.4738 Z-0.2125
X-71.1461 Y12.4708 Z-0.2147
X-71.1504 Y12.4677 Z-0.2162
X-71.1549 Y12.4645 Z-0.2172
X-71.1595 Y12.4612 Z-0.2175
X-71.1716 Y12.4526
G3 X-71.1019 Y12.4409 I0.0407 J0.029
G1 X-70.3469 Y12.9788
G3 X-70.3447 Y12.9839 I-0.0032 J0.0044
G2 X-70.3452 Y12.9883 I0.0739 J0.0097
G3 X-70.3483 Y12.9915 I-0.0051 J-0.002
G1 X-70.3484
X-70.9464 Y13.2252
G3 X-70.952 Y13.2243 I-0.002 J-0.0051
G2 X-71.5337 Y13.3921 I-0.2355 J0.2757
G3 X-71.5379 Y13.3959 I-0.0053 J-0.0016
G1 X-71.9612 Y13.4769
G3 X-71.9672 Y13.469 I-0.001 J-0.0055
G2 X-71.829 Y13.1639 I-2.8423 J-1.4713
G1 Y13.1638
G2 X-71.8521 Y12.7864 I-0.4198 J-0.1637
G3 X-71.8515 Y12.7804 I0.0048 J-0.0026
G1 X-71.8514 Y12.7802
X-71.5057 Y12.3576
G3 X-71.5005 Y12.3557 I0.0042 J0.0035
G2 X-71.2697 Y12.3248 I0.0699 J-0.3557
G3 X-71.2641 Y12.3253 I0.0024 J0.0049
G1 X-71.1019 Y12.4409
G3 X-71.0902 Y12.5106 I-0.029 J0.0407
G1 X-71.1023 Y12.5019
X-71.1069 Y12.4987 Z-0.2172
X-71.1114 Y12.4955 Z-0.2162
X-71.1158 Y12.4924 Z-0.2147
X-71.12 Y12.4894 Z-0.2125
X-71.124 Y12.4865 Z-0.2098
X-71.1277 Y12.4838 Z-0.2066
X-71.1311 Y12.4814 Z-0.2029
X-71.1342 Y12.4793 Z-0.1987
X-71.1368 Y12.4774 Z-0.1941
X-71.139 Y12.4758 Z-0.1892
X-71.1408 Y12.4746 Z-0.184
X-71.142 Y12.4737 Z-0.1786
X-71.1428 Y12.4731 Z-0.1731
X-71.143 Y12.4729 Z-0.1675
G0 Z0.4
X-72.0283 Y11.6288
Z0.2
G1 Z0.1 F13.333
Z-0.1675
X-72.0285 Y11.6285 Z-0.1731 F40.
X-72.0291 Y11.6278 Z-0.1786
X-72.0301 Y11.6266 Z-0.184
X-72.0315 Y11.625 Z-0.1892
X-72.0332 Y11.6229 Z-0.1941
X-72.0353 Y11.6204 Z-0.1987
X-72.0377 Y11.6175 Z-0.2029
X-72.0404 Y11.6144 Z-0.2066
X-72.0434 Y11.6109 Z-0.2098
X-72.0465 Y11.6071 Z-0.2125
X-72.0499 Y11.6031 Z-0.2147
X-72.0533 Y11.599 Z-0.2162
X-72.0569 Y11.5948 Z-0.2172
X-72.0605 Y11.5905 Z-0.2175
X-72.0701 Y11.5791
G3 X-71.9997 Y11.5851 I0.0322 J0.0382
G1 X-71.7681 Y11.8601
G3 X-71.7672 Y11.8658 I-0.0043 J0.0036
G2 X-71.7653 Y12.1388 I0.3365 J0.1342
G3 X-71.7662 Y12.1444 I-0.0051 J0.0021
G1 X-71.7663 Y12.1445
X-72.112 Y12.5672
G3 X-72.1178 Y12.5689 I-0.0042 J-0.0035
G2 X-72.5743 Y12.6886 I-0.1309 J0.431
G3 X-72.5804 Y12.69 I-0.004 J-0.0038
G1 X-72.7938 Y12.6067
G3 X-72.7973 Y12.6022 I0.002 J-0.0052
G2 X-73.0213 Y12.3093 I-0.3599 J0.0432
G3 X-73.0248 Y12.3048 I0.0021 J-0.0051
G1 X-73.2385 Y10.3379
G3 X-73.2348 Y10.3321 I0.0055 J-0.0006
G2 X-73.1067 Y10.2773 I-0.2587 J-0.782
G1 Y10.2772
G3 X-73.0999 Y10.2786 I0.0026 J0.0048
G1 X-71.9997 Y11.5851
G3 X-72.0057 Y11.6556 I-0.0382 J0.0322
G1 X-72.0153 Y11.6442
X-72.0189 Y11.6399 Z-0.2172
X-72.0225 Y11.6357 Z-0.2162
X-72.0259 Y11.6316 Z-0.2147
X-72.0293 Y11.6276 Z-0.2125
X-72.0324 Y11.6239 Z-0.2098
X-72.0354 Y11.6204 Z-0.2066
X-72.0381 Y11.6172 Z-0.2029
X-72.0405 Y11.6143 Z-0.1987
X-72.0426 Y11.6118 Z-0.1941
X-72.0443 Y11.6097 Z-0.1892
X-72.0457 Y11.6081 Z-0.184
X-72.0467 Y11.6069 Z-0.1786
X-72.0473 Y11.6062 Z-0.1731
X-72.0475 Y11.606 Z-0.1675
G0 Z0.4
X-71.8005 Y10.2426
Z0.2
G1 Z0.1 F13.333
Z-0.1675
X-71.8006 Y10.2423 Z-0.1731 F40.
X-71.8007 Y10.2414 Z-0.1786
X-71.8008 Y10.2398 Z-0.184
X-71.801 Y10.2377 Z-0.1892
X-71.8012 Y10.235 Z-0.1941
X-71.8015 Y10.2317 Z-0.1987
X-71.8018 Y10.228 Z-0.2029
X-71.8022 Y10.2238 Z-0.2066
X-71.8026 Y10.2193 Z-0.2098
X-71.803 Y10.2144 Z-0.2125
X-71.8034 Y10.2092 Z-0.2147
X-71.8039 Y10.2039 Z-0.2162
X-71.8043 Y10.1984 Z-0.2172
X-71.8048 Y10.1928 Z-0.2175
X-71.8061 Y10.1779
G3 X-71.752 Y10.2235 I0.0043 J0.0498
G1 X-71.6451 Y11.4684
G3 X-71.6549 Y11.4724 I-0.0055 J0.0005
G1 X-72.8425 Y10.0619
G3 X-72.8427 Y10.0549 I0.0044 J-0.0036
G2 X-72.8137 Y10.015 I-0.6512 J-0.5042
G3 X-72.8072 Y10.013 I0.0046 J0.0032
G1 X-72.8071
G2 X-72.3836 Y9.8345 I0.1137 J-0.3219
G3 X-72.378 Y9.8313 I0.0051 J0.0024
G1 X-71.7854 Y9.891
X-71.7852
G3 X-71.7801 Y9.8961 I-0.0005 J0.0056
G1 X-71.752 Y10.2235
G3 X-71.7975 Y10.2776 I-0.0498 J0.0043
G1 X-71.7988 Y10.2627
X-71.7993 Y10.2572 Z-0.2172
X-71.7998 Y10.2516 Z-0.2162
X-71.8002 Y10.2463 Z-0.2147
X-71.8007 Y10.2411 Z-0.2125
X-71.8011 Y10.2362 Z-0.2098
X-71.8015 Y10.2317 Z-0.2066
X-71.8018 Y10.2275 Z-0.2029
X-71.8022 Y10.2238 Z-0.1987
X-71.8024 Y10.2205 Z-0.1941
X-71.8027 Y10.2178 Z-0.1892
X-71.8029 Y10.2157 Z-0.184
X-71.803 Y10.2142 Z-0.1786
X-71.8031 Y10.2132 Z-0.1731
Y10.2129 Z-0.1675
G0 Z0.4
X-71.1323 Y10.3423
Z0.2
G1 Z0.1 F13.333
Z-0.1675
X-71.132 Y10.3421 Z-0.1731 F40.
X-71.1312 Y10.3417 Z-0.1786
X-71.1298 Y10.3411 Z-0.184
X-71.1278 Y10.3402 Z-0.1892
X-71.1253 Y10.3391 Z-0.1941
X-71.1224 Y10.3377 Z-0.1987
X-71.119 Y10.3361 Z-0.2029
X-71.1152 Y10.3344 Z-0.2066
X-71.1111 Y10.3324 Z-0.2098
X-71.1066 Y10.3304 Z-0.2125
X-71.1019 Y10.3282 Z-0.2147
X-71.097 Y10.3259 Z-0.2162
X-71.092 Y10.3236 Z-0.2172
X-71.0869 Y10.3213 Z-0.2175
X-71.0734 Y10.315
G3 X-71.0978 Y10.3814 I-0.0454 J0.021
G1 X-71.3821 Y10.5131
G3 X-71.39 Y10.5085 I-0.0023 J-0.0051
G1 X-71.4395 Y9.9324
G3 X-71.4334 Y9.9264 I0.0056 J-0.0004
G1 X-70.6283 Y10.0074
X-70.6282
G3 X-70.6242 Y10.0163 I-0.0005 J0.0055
G2 X-70.6911 Y10.19 I0.273 J0.2048
G1 Y10.1901
G3 X-70.6942 Y10.1945 I-0.0054 J-0.0005
G1 X-70.6943
X-71.0978 Y10.3814
G3 X-71.1642 Y10.357 I-0.021 J-0.0454
G1 X-71.1506 Y10.3508
X-71.1456 Y10.3484 Z-0.2172
X-71.1405 Y10.3461 Z-0.2162
X-71.1356 Y10.3438 Z-0.2147
X-71.1309 Y10.3416 Z-0.2125
X-71.1265 Y10.3396 Z-0.2098
X-71.1223 Y10.3377 Z-0.2066
X-71.1186 Y10.3359 Z-0.2029
X-71.1152 Y10.3343 Z-0.1987
X-71.1122 Y10.333 Z-0.1941
X-71.1098 Y10.3318 Z-0.1892
X-71.1078 Y10.3309 Z-0.184
X-71.1064 Y10.3303 Z-0.1786
X-71.1055 Y10.3299 Z-0.1731
X-71.1053 Y10.3298 Z-0.1675
G0 Z0.4
X-70.9708 Y11.1598
Z0.2
G1 Z0.1 F13.333
Z-0.1675
X-70.9706 Y11.1596 Z-0.1731 F40.
X-70.9699 Y11.1589 Z-0.1786
X-70.9689 Y11.1577 Z-0.184
X-70.9675 Y11.1561 Z-0.1892
X-70.9657 Y11.1541 Z-0.1941
X-70.9635 Y11.1517 Z-0.1987
X-70.961 Y11.1489 Z-0.2029
X-70.9582 Y11.1458 Z-0.2066
X-70.9552 Y11.1424 Z-0.2098
X-70.9519 Y11.1387 Z-0.2125
X-70.9484 Y11.1349 Z-0.2147
X-70.9448 Y11.1308 Z-0.2162
X-70.9411 Y11.1267 Z-0.2172
X-70.9374 Y11.1226 Z-0.2175
X-70.9275 Y11.1115
G3 X-70.9236 Y11.1821 I-0.0334 J0.0372
G1 X-71.2878 Y11.5885
G3 X-71.2974 Y11.5853 I-0.0041 J-0.0037
G1 X-71.3581 Y10.8769
Y10.8768
G3 X-71.355 Y10.8714 I0.0054 J-0.0005
G1 X-71.3549
X-70.553 Y10.4999
G3 X-70.5476 Y10.5004 I0.0023 J0.005
G2 X-70.3794 Y10.5613 I0.1964 J-0.2794
G1 X-70.3791
G3 X-70.3755 Y10.5704 I-0.0004 J0.0054
G1 X-70.3756
X-70.9236 Y11.1821
G3 X-70.9942 Y11.1859 I-0.0372 J-0.0334
G1 X-70.9843 Y11.1748
X-70.9805 Y11.1707 Z-0.2172
X-70.9768 Y11.1666 Z-0.2162
X-70.9732 Y11.1625 Z-0.2147
X-70.9698 Y11.1587 Z-0.2125
X-70.9665 Y11.155 Z-0.2098
X-70.9634 Y11.1516 Z-0.2066
X-70.9607 Y11.1485 Z-0.2029
X-70.9582 Y11.1457 Z-0.1987
X-70.956 Y11.1433 Z-0.1941
X-70.9542 Y11.1413 Z-0.1892
X-70.9528 Y11.1397 Z-0.184
X-70.9517 Y11.1385 Z-0.1786
X-70.9511 Y11.1378 Z-0.1731
X-70.9509 Y11.1376 Z-0.1675
G0 Z0.4
X-72.3707 Y9.0257
Z0.2
G1 Z0.1 F13.333
Z-0.1675
X-72.3709 Y9.0255 Z-0.1731 F40.
X-72.3716 Y9.0248 Z-0.1786
X-72.3726 Y9.0236 Z-0.184
X-72.3741 Y9.0221 Z-0.1892
X-72.376 Y9.0201 Z-0.1941
X-72.3782 Y9.0177 Z-0.1987
X-72.3807 Y9.015 Z-0.2029
X-72.3836 Y9.012 Z-0.2066
X-72.3867 Y9.0086 Z-0.2098
X-72.3901 Y9.0051 Z-0.2125
X-72.3937 Y9.0013 Z-0.2147
X-72.3973 Y8.9974 Z-0.2162
X-72.4011 Y8.9933 Z-0.2172
X-72.405 Y8.9893 Z-0.2175
X-72.4152 Y8.9784
G3 X-72.3445 Y8.9806 I0.0343 J0.0364
G1 X-71.9697 Y9.3789
G3 X-71.9686 Y9.3842 I-0.004 J0.0037
G1 X-71.9687 Y9.3845
G2 X-71.9865 Y9.526 I0.3435 J0.1152
G3 X-71.9926 Y9.5319 I-0.0056 J0.0004
G1 X-72.4154 Y9.4893
X-72.4155
G3 X-72.4194 Y9.4871 I0.0005 J-0.0055
G2 X-72.6903 Y9.3496 I-0.2739 J0.2039
G3 X-72.6956 Y9.3454 I0.0001 J-0.0055
G2 X-72.824 Y9.0702 I-0.7977 J0.2047
G3 X-72.8236 Y9.0631 I0.0047 J-0.0033
G1 X-72.554 Y8.7665
G3 X-72.546 I0.004 J0.0037
G1 X-72.3445 Y8.9806
G3 X-72.3466 Y9.0512 I-0.0364 J0.0343
G1 X-72.3569 Y9.0404
X-72.3607 Y9.0363 Z-0.2172
X-72.3645 Y9.0323 Z-0.2162
X-72.3682 Y9.0284 Z-0.2147
X-72.3717 Y9.0246 Z-0.2125
X-72.3751 Y9.021 Z-0.2098
X-72.3782 Y9.0177 Z-0.2066
X-72.3811 Y9.0146 Z-0.2029
X-72.3837 Y9.0119 Z-0.1987
X-72.3859 Y9.0096 Z-0.1941
X-72.3877 Y9.0076 Z-0.1892
X-72.3892 Y9.006 Z-0.184
X-72.3903 Y9.0049 Z-0.1786
X-72.3909 Y9.0042 Z-0.1731
X-72.3911 Y9.004 Z-0.1675
G0 Z0.4
X-72.973 Y8.6529
Z0.2
G1 Z0.1 F13.333
Z-0.1675
X-72.9728 Y8.6527 Z-0.1731 F40.
X-72.9721 Y8.652 Z-0.1786
X-72.9711 Y8.6508 Z-0.184
X-72.9697 Y8.6493 Z-0.1892
X-72.9678 Y8.6473 Z-0.1941
X-72.9657 Y8.6449 Z-0.1987
X-72.9631 Y8.6421 Z-0.2029
X-72.9603 Y8.639 Z-0.2066
X-72.9573 Y8.6356 Z-0.2098
X-72.954 Y8.632 Z-0.2125
X-72.9505 Y8.6281 Z-0.2147
X-72.9468 Y8.6242 Z-0.2162
X-72.9431 Y8.6201 Z-0.2172
X-72.9394 Y8.6159 Z-0.2175
X-72.9293 Y8.6049
G3 X-72.926 Y8.6755 I-0.0336 J0.037
G1 X-73.0725 Y8.8368
G3 X-73.0794 Y8.8379 I-0.0041 J-0.0037
G1 X-73.0795 Y8.8378
G2 X-73.3257 Y8.7435 I-0.414 J0.712
G3 X-73.3302 Y8.738 I0.0012 J-0.0056
G1 X-73.3326 Y8.3099
Y8.3097
G3 X-73.3283 Y8.3044 I0.0055 J0.
G2 X-73.0796 Y8.205 I-0.1771 J-0.8046
G3 X-73.0728 Y8.206 I0.0028 J0.0047
G1 X-72.7846 Y8.5125
G3 Y8.5199 I-0.004 J0.0037
G1 X-72.7847 Y8.52
X-72.926 Y8.6755
G3 X-72.9966 Y8.6789 I-0.037 J-0.0336
G1 X-72.9866 Y8.6679
X-72.9828 Y8.6637 Z-0.2172
X-72.9791 Y8.6596 Z-0.2162
X-72.9755 Y8.6557 Z-0.2147
X-72.972 Y8.6518 Z-0.2125
X-72.9687 Y8.6482 Z-0.2098
X-72.9656 Y8.6448 Z-0.2066
X-72.9628 Y8.6417 Z-0.2029
X-72.9603 Y8.6389 Z-0.1987
X-72.9581 Y8.6365 Z-0.1941
X-72.9563 Y8.6345 Z-0.1892
X-72.9548 Y8.6329 Z-0.184
X-72.9538 Y8.6318 Z-0.1786
X-72.9532 Y8.6311 Z-0.1731
X-72.9529 Y8.6309 Z-0.1675
G0 Z0.4
X-72.0416 Y7.49
Z0.2
G1 Z0.1 F13.333
Z-0.1675
X-72.0417 Y7.4897 Z-0.1731 F40.
X-72.0418 Y7.4887 Z-0.1786
X-72.042 Y7.4872 Z-0.184
X-72.0423 Y7.4851 Z-0.1892
X-72.0426 Y7.4824 Z-0.1941
X-72.0431 Y7.4792 Z-0.1987
X-72.0435 Y7.4755 Z-0.2029
X-72.0441 Y7.4713 Z-0.2066
X-72.0447 Y7.4668 Z-0.2098
X-72.0453 Y7.4619 Z-0.2125
X-72.046 Y7.4568 Z-0.2147
X-72.0467 Y7.4514 Z-0.2162
X-72.0474 Y7.446 Z-0.2172
X-72.0482 Y7.4404 Z-0.2175
X-72.0501 Y7.4256
G3 X-71.994 Y7.4687 I0.0065 J0.0496
G2 X-71.9548 Y7.6021 I0.4456 J-0.0586
G3 X-71.9556 Y7.6083 I-0.0051 J0.0024
G1 X-72.55 Y8.262
X-72.5501 Y8.2621
G3 X-72.5583 Y8.2622 I-0.0041 J-0.0038
G1 X-72.8276 Y7.9755
G3 X-72.8281 Y7.9686 I0.004 J-0.0038
G1 Y7.9685
G2 X-72.7121 Y7.2791 I-0.6778 J-0.4685
G1 Y7.2789
G3 X-72.7095 Y7.2727 I0.0051 J-0.0014
G1 X-71.9095 Y6.8537
G3 X-71.903 Y6.8548 I0.0025 J0.0049
G2 X-71.7257 Y6.9872 I0.4657 J-0.4384
G1 X-71.7255 Y6.9873
G3 X-71.7258 Y6.9972 I-0.0024 J0.0049
G1 X-71.7259
G2 X-71.994 Y7.4687 I0.1775 J0.4129
G3 X-72.0371 Y7.5248 I-0.0496 J0.0065
G1 X-72.039 Y7.51
X-72.0397 Y7.5045 Z-0.2172
X-72.0405 Y7.499 Z-0.2162
X-72.0412 Y7.4936 Z-0.2147
X-72.0418 Y7.4885 Z-0.2125
X-72.0425 Y7.4836 Z-0.2098
X-72.0431 Y7.4791 Z-0.2066
X-72.0436 Y7.475 Z-0.2029
X-72.0441 Y7.4713 Z-0.1987
X-72.0445 Y7.468 Z-0.1941
X-72.0449 Y7.4653 Z-0.1892
X-72.0452 Y7.4632 Z-0.184
X-72.0454 Y7.4617 Z-0.1786
X-72.0455 Y7.4608 Z-0.1731
Y7.4604 Z-0.1675
G0 Z0.4
X-72.396 Y6.6722
Z0.2
G1 Z0.1 F13.333
Z-0.1675
X-72.3957 Y6.672 Z-0.1731 F40.
X-72.3949 Y6.6716 Z-0.1786
X-72.3935 Y6.6709 Z-0.184
X-72.3916 Y6.6699 Z-0.1892
X-72.3892 Y6.6686 Z-0.1941
X-72.3863 Y6.6671 Z-0.1987
X-72.383 Y6.6654 Z-0.2029
X-72.3793 Y6.6634 Z-0.2066
X-72.3753 Y6.6613 Z-0.2098
X-72.3709 Y6.6591 Z-0.2125
X-72.3663 Y6.6566 Z-0.2147
X-72.3616 Y6.6541 Z-0.2162
X-72.3567 Y6.6516 Z-0.2172
X-72.3517 Y6.649 Z-0.2175
X-72.3385 Y6.6421
G3 X-72.3596 Y6.7096 I-0.0443 J0.0232
G1 X-72.8657 Y6.9747
G3 X-72.8726 Y6.9733 I-0.0026 J-0.0049
G2 X-72.9687 Y6.8755 I-0.6339 J0.5261
G1 X-72.9689 Y6.8753
G3 X-72.9701 Y6.8687 I0.0035 J-0.0041
G1 X-72.97 Y6.8686
X-72.6481 Y6.2777
G3 X-72.6463 Y6.2758 I0.0048 J0.0028
G2 X-72.6457 Y6.2755 I-0.0399 J-0.0629
X-72.5393 Y6.1999 I-0.818 J-1.2641
G3 X-72.5342 Y6.199 I0.0033 J0.0043
G1 X-72.0788 Y6.3635
G3 X-72.0751 Y6.3691 I-0.0019 J0.0053
G2 X-72.063 Y6.5495 I0.6377 J0.048
G1 Y6.5496
G3 X-72.0658 Y6.5557 I-0.0055 J0.0012
G1 X-72.3596 Y6.7096
G3 X-72.4271 Y6.6885 I-0.0232 J-0.0443
G1 X-72.4139 Y6.6816
X-72.4089 Y6.679 Z-0.2172
X-72.404 Y6.6764 Z-0.2162
X-72.3993 Y6.6739 Z-0.2147
X-72.3947 Y6.6715 Z-0.2125
X-72.3903 Y6.6692 Z-0.2098
X-72.3863 Y6.6671 Z-0.2066
X-72.3826 Y6.6652 Z-0.2029
X-72.3793 Y6.6634 Z-0.1987
X-72.3764 Y6.6619 Z-0.1941
X-72.374 Y6.6607 Z-0.1892
X-72.3721 Y6.6597 Z-0.184
X-72.3707 Y6.6589 Z-0.1786
X-72.3699 Y6.6585 Z-0.1731
X-72.3696 Y6.6584 Z-0.1675
G0 Z0.4
X-71.8265 Y5.8468
Z0.2
G1 Z0.1 F13.333
Z-0.1675
X-71.8262 Y5.8466 Z-0.1731 F40.
X-71.8254 Y5.8461 Z-0.1786
X-71.8241 Y5.8453 Z-0.184
X-71.8223 Y5.8441 Z-0.1892
X-71.8201 Y5.8426 Z-0.1941
X-71.8173 Y5.8408 Z-0.1987
X-71.8142 Y5.8388 Z-0.2029
X-71.8107 Y5.8365 Z-0.2066
X-71.8069 Y5.834 Z-0.2098
X-71.8028 Y5.8313 Z-0.2125
X-71.7984 Y5.8285 Z-0.2147
X-71.7939 Y5.8256 Z-0.2162
X-71.7893 Y5.8226 Z-0.2172
X-71.7846 Y5.8195 Z-0.2175
X-71.7721 Y5.8114
G3 X-71.7867 Y5.8806 I-0.0419 J0.0273
G2 X-71.9583 Y6.045 I0.3491 J0.5359
G3 X-71.9645 Y6.047 I-0.0044 J-0.0032
G1 X-72.2676 Y5.9375
G3 X-72.2701 Y5.929 I0.0019 J-0.0052
G2 X-72.0601 Y5.5557 I-1.194 J-0.9172
G3 X-72.0573 Y5.5527 I0.0052 J0.0021
G1 X-72.0569 Y5.5526
X-71.6955 Y5.3856
G3 X-71.6876 Y5.3911 I0.0023 J0.0051
G2 X-71.5322 Y5.721 I0.3609 J0.0315
G3 X-71.5299 Y5.7261 I-0.0033 J0.0045
G1 X-71.53 Y5.7264
X-71.5359 Y5.7804
G3 X-71.5404 Y5.7852 I-0.0055 J-0.0006
G2 X-71.7867 Y5.8806 I0.1028 J0.6313
G3 X-71.8559 Y5.866 I-0.0273 J-0.0419
G1 X-71.8434 Y5.8578
X-71.8387 Y5.8548 Z-0.2172
X-71.8341 Y5.8517 Z-0.2162
X-71.8296 Y5.8488 Z-0.2147
X-71.8252 Y5.846 Z-0.2125
X-71.8211 Y5.8433 Z-0.2098
X-71.8173 Y5.8408 Z-0.2066
X-71.8138 Y5.8385 Z-0.2029
X-71.8107 Y5.8365 Z-0.1987
X-71.8079 Y5.8347 Z-0.1941
X-71.8057 Y5.8332 Z-0.1892
X-71.8039 Y5.8321 Z-0.184
X-71.8026 Y5.8312 Z-0.1786
X-71.8018 Y5.8307 Z-0.1731
X-71.8015 Y5.8305 Z-0.1675
G0 Z0.4
X-70.7015 Y6.0085
Z0.2
G1 Z0.1 F13.333
Z-0.1675
X-70.7018 Y6.0084 Z-0.1731 F40.
X-70.7026 Y6.0079 Z-0.1786
X-70.704 Y6.0072 Z-0.184
X-70.7059 Y6.0062 Z-0.1892
X-70.7083 Y6.0049 Z-0.1941
X-70.7111 Y6.0033 Z-0.1987
X-70.7144 Y6.0016 Z-0.2029
X-70.7181 Y5.9996 Z-0.2066
X-70.7221 Y5.9974 Z-0.2098
X-70.7264 Y5.9951 Z-0.2125
X-70.731 Y5.9926 Z-0.2147
X-70.7357 Y5.99 Z-0.2162
X-70.7406 Y5.9874 Z-0.2172
X-70.7455 Y5.9848 Z-0.2175
X-70.7586 Y5.9777
G3 X-70.6908 Y5.9575 I0.044 J0.0238
G1 X-70.5072 Y6.0567
G3 X-70.5046 Y6.0631 I-0.0027 J0.0048
G2 X-70.5297 Y6.179 I0.7907 J0.2319
G1 Y6.1791
G3 X-70.5347 Y6.1838 I-0.0054 J-0.0008
G1 X-70.5348
X-70.8297 Y6.2047
X-70.8298
G3 X-70.8353 Y6.2011 I-0.0004 J-0.0054
G1 X-70.8354
G2 X-71.1981 Y5.8234 I-0.6021 J0.2152
G1 Y5.8233
G3 X-71.2016 Y5.8177 I0.0021 J-0.0051
G1 X-71.1953 Y5.7639
G2 X-71.1952 Y5.7635 I-0.074 J-0.0086
G3 X-71.1918 Y5.759 I0.0055 J0.0006
G2 X-71.1271 Y5.725 I-0.135 J-0.3364
G1 X-71.127
G3 X-71.1213 Y5.7248 I0.0031 J0.0046
G1 X-70.6908 Y5.9575
G3 X-70.6706 Y6.0252 I-0.0238 J0.044
G1 X-70.6837 Y6.0181
X-70.6887 Y6.0155 Z-0.2172
X-70.6935 Y6.0128 Z-0.2162
X-70.6983 Y6.0103 Z-0.2147
X-70.7028 Y6.0078 Z-0.2125
X-70.7071 Y6.0055 Z-0.2098
X-70.7112 Y6.0033 Z-0.2066
X-70.7148 Y6.0013 Z-0.2029
X-70.7181 Y5.9995 Z-0.1987
X-70.721 Y5.998 Z-0.1941
X-70.7234 Y5.9967 Z-0.1892
X-70.7253 Y5.9957 Z-0.184
X-70.7266 Y5.995 Z-0.1786
X-70.7274 Y5.9945 Z-0.1731
X-70.7277 Y5.9944 Z-0.1675
G0 Z0.4
X-70.3358 Y5.168
Z0.2
G1 Z0.1 F13.333
Z-0.1675
X-70.3359 Y5.1677 Z-0.1731 F40.
X-70.3362 Y5.1668 Z-0.1786
X-70.3367 Y5.1653 Z-0.184
X-70.3374 Y5.1633 Z-0.1892
X-70.3383 Y5.1608 Z-0.1941
X-70.3394 Y5.1577 Z-0.1987
X-70.3406 Y5.1542 Z-0.2029
X-70.342 Y5.1502 Z-0.2066
X-70.3435 Y5.1459 Z-0.2098
X-70.3451 Y5.1413 Z-0.2125
X-70.3468 Y5.1364 Z-0.2147
X-70.3485 Y5.1313 Z-0.2162
X-70.3504 Y5.1261 Z-0.2172
X-70.3522 Y5.1208 Z-0.2175
X-70.3571 Y5.1067
G3 X-70.2934 Y5.1375 I0.0164 J0.0472
G1 X-70.1385 Y5.5835
G3 X-70.1409 Y5.59 I-0.0052 J0.0018
G1 X-70.141
G2 X-70.3405 Y5.7595 I0.4269 J0.7047
G3 X-70.3472 Y5.7608 I-0.0042 J-0.0035
G1 X-70.9613 Y5.4289
G3 X-70.9641 Y5.424 I0.0027 J-0.0048
G1 Y5.4239
G2 X-71.1162 Y5.1272 I-0.3627 J-0.0014
G1 X-71.1165 Y5.127
G3 X-71.1156 Y5.1177 I0.0031 J-0.0044
G1 X-70.5877 Y4.874
X-70.5876 Y4.8739
G2 X-70.4891 Y4.8083 I-0.1628 J-0.351
G3 X-70.4833 Y4.8073 I0.0037 J0.0041
G1 X-70.4832
G2 X-70.4035 Y4.8296 I0.1368 J-0.3357
G3 X-70.3991 Y4.8333 I-0.0009 J0.0054
G1 X-70.2934 Y5.1375
G3 X-70.3243 Y5.2012 I-0.0472 J0.0164
G1 X-70.3292 Y5.1871
X-70.331 Y5.1818 Z-0.2172
X-70.3328 Y5.1766 Z-0.2162
X-70.3346 Y5.1715 Z-0.2147
X-70.3363 Y5.1666 Z-0.2125
X-70.3379 Y5.1619 Z-0.2098
X-70.3394 Y5.1576 Z-0.2066
X-70.3408 Y5.1537 Z-0.2029
X-70.342 Y5.1501 Z-0.1987
X-70.343 Y5.1471 Z-0.1941
X-70.3439 Y5.1445 Z-0.1892
X-70.3446 Y5.1425 Z-0.184
X-70.3451 Y5.141 Z-0.1786
X-70.3455 Y5.1401 Z-0.1731
X-70.3456 Y5.1398 Z-0.1675
G0 Z0.4
X-69.7341 Y5.3462
Z0.2
G1 Z0.1 F13.333
Z-0.1675
X-69.734 Y5.3459 Z-0.1731 F40.
X-69.7338 Y5.3449 Z-0.1786
X-69.7335 Y5.3434 Z-0.184
X-69.733 Y5.3413 Z-0.1892
X-69.7324 Y5.3387 Z-0.1941
X-69.7318 Y5.3355 Z-0.1987
X-69.731 Y5.3319 Z-0.2029
X-69.7301 Y5.3278 Z-0.2066
X-69.7291 Y5.3233 Z-0.2098
X-69.7281 Y5.3185 Z-0.2125
X-69.727 Y5.3134 Z-0.2147
X-69.7259 Y5.3082 Z-0.2162
X-69.7247 Y5.3028 Z-0.2172
X-69.7236 Y5.2973 Z-0.2175
X-69.7204 Y5.2827
G3 X-69.682 Y5.3421 I-0.0105 J0.0489
G1 X-69.7087 Y5.4663
G3 X-69.7141 Y5.4707 I-0.0054 J-0.0012
G1 X-69.7142
G2 X-69.8149 Y5.4769 I-0.0001 J0.8238
G3 X-69.8205 Y5.4733 I-0.0006 J-0.0053
G1 X-69.8206 Y5.4732
X-70.0812 Y4.723
G3 X-70.0801 Y4.7177 I0.0052 J-0.0018
G2 X-70.07 Y4.7064 I-0.2644 J-0.2482
X-70.0695 Y4.7059 I-0.0564 J-0.0487
G3 X-70.0643 Y4.7041 I0.0042 J0.0035
G1 X-70.037 Y4.7099
G3 X-70.0327 Y4.715 I-0.0012 J0.0054
G2 X-69.6714 Y5.2729 I0.6641 J-0.0341
G3 X-69.6685 Y5.279 I-0.0026 J0.005
G1 X-69.682 Y5.3421
G3 X-69.7414 Y5.3805 I-0.0489 J-0.0105
G1 X-69.7383 Y5.3659
X-69.7371 Y5.3604 Z-0.2172
X-69.736 Y5.355 Z-0.2162
X-69.7348 Y5.3498 Z-0.2147
X-69.7337 Y5.3447 Z-0.2125
X-69.7327 Y5.3399 Z-0.2098
X-69.7318 Y5.3354 Z-0.2066
X-69.7309 Y5.3314 Z-0.2029
X-69.7301 Y5.3277 Z-0.1987
X-69.7294 Y5.3245 Z-0.1941
X-69.7288 Y5.3219 Z-0.1892
X-69.7284 Y5.3198 Z-0.184
X-69.7281 Y5.3183 Z-0.1786
X-69.7279 Y5.3173 Z-0.1731
X-69.7278 Y5.317 Z-0.1675
G0 Z0.4
X-69.2396 Y5.4729
Z0.2
G1 Z0.1 F13.333
Z-0.1675
X-69.2394 Y5.4727 Z-0.1731 F40.
X-69.2387 Y5.472 Z-0.1786
X-69.2377 Y5.4709 Z-0.184
X-69.2362 Y5.4693 Z-0.1892
X-69.2343 Y5.4674 Z-0.1941
X-69.2321 Y5.465 Z-0.1987
X-69.2295 Y5.4623 Z-0.2029
X-69.2267 Y5.4592 Z-0.2066
X-69.2235 Y5.4559 Z-0.2098
X-69.2202 Y5.4523 Z-0.2125
X-69.2166 Y5.4486 Z-0.2147
X-69.2129 Y5.4446 Z-0.2162
X-69.2091 Y5.4406 Z-0.2172
X-69.2053 Y5.4365 Z-0.2175
X-69.1951 Y5.4257
G3 X-69.193 Y5.4964 I-0.0343 J0.0364
G1 X-69.2802 Y5.5889
G3 X-69.287 Y5.5899 I-0.004 J-0.0038
G2 X-69.3765 Y5.543 I-0.4265 J0.7047
G3 X-69.3796 Y5.537 I0.0022 J-0.0049
G1 X-69.3795 Y5.5368
X-69.3394 Y5.3495
X-69.3393 Y5.3494
G3 X-69.3344 Y5.3451 I0.0053 J0.0011
G2 X-68.7766 Y4.984 I-0.0342 J-0.6641
G1 Y4.9839
G3 X-68.7705 Y4.981 I0.0049 J0.0025
G1 X-68.7433 Y4.9869
X-68.743 Y4.987
G3 X-68.7389 Y4.9907 I-0.0011 J0.0053
G2 X-68.7346 Y5.005 I0.349 J-0.0982
X-68.7345 Y5.0054 I0.0708 J-0.0231
G3 X-68.7357 Y5.011 I-0.0053 J0.0018
G1 X-69.193 Y5.4964
G3 X-69.2637 Y5.4985 I-0.0364 J-0.0343
G1 X-69.2534 Y5.4876
X-69.2496 Y5.4836 Z-0.2172
X-69.2458 Y5.4795 Z-0.2162
X-69.2421 Y5.4756 Z-0.2147
X-69.2386 Y5.4718 Z-0.2125
X-69.2352 Y5.4683 Z-0.2098
X-69.2321 Y5.4649 Z-0.2066
X-69.2292 Y5.4619 Z-0.2029
X-69.2266 Y5.4592 Z-0.1987
X-69.2244 Y5.4568 Z-0.1941
X-69.2226 Y5.4548 Z-0.1892
X-69.2211 Y5.4533 Z-0.184
X-69.22 Y5.4522 Z-0.1786
X-69.2194 Y5.4515 Z-0.1731
X-69.2192 Y5.4512 Z-0.1675
G0 Z0.4
X-68.3391 Y6.8151
Z0.2
G1 Z0.1 F13.333
Z-0.1675
G19 G2 Y6.7651 Z-0.2175 J-0.05 K0. F40.
G1 Y6.7502
G17 G3 X-68.2891 Y6.8002 I0. J0.05
G1 Y7.8162
G3 X-68.2989 Y7.8197 I-0.0055 J0.
G1 Y7.8196
X-69.08 Y6.8274
G3 Y6.8204 I0.0044 J-0.0035
G2 X-69.0359 Y5.8266 I-0.6338 J-0.5259
G1 X-69.036 Y5.8265
G3 X-69.0355 Y5.8197 I0.0045 J-0.0031
G1 X-68.4907 Y5.2418
G3 X-68.4852 Y5.2403 I0.004 J0.0038
G2 X-68.2959 I0.0946 J-0.3499
G3 X-68.2891 Y5.2455 I0.0014 J0.0053
G1 Y6.8002
G3 X-68.3391 Y6.8502 I-0.05 J0.
G1 Y6.8353
G19 G2 Y6.7853 Z-0.1675 J0. K0.05
G0 Z0.4
X-69.0478 Y7.4932
Z0.2
G1 Z0.1 F13.333
Z-0.1675
X-69.048 Y7.4929 Z-0.1731 F40.
X-69.0486 Y7.4922 Z-0.1786
X-69.0495 Y7.491 Z-0.184
X-69.0509 Y7.4893 Z-0.1892
X-69.0525 Y7.4871 Z-0.1941
X-69.0545 Y7.4846 Z-0.1987
X-69.0569 Y7.4817 Z-0.2029
X-69.0594 Y7.4784 Z-0.2066
X-69.0623 Y7.4748 Z-0.2098
X-69.0653 Y7.4709 Z-0.2125
X-69.0685 Y7.4668 Z-0.2147
X-69.0718 Y7.4626 Z-0.2162
X-69.0753 Y7.4583 Z-0.2172
X-69.0787 Y7.4539 Z-0.2175
X-69.0879 Y7.4422
G17 G3 X-69.0177 Y7.4505 I0.0309 J0.0393
G1 X-68.4058 Y8.2279
X-68.4057 Y8.2281
G3 X-68.4109 Y8.2368 I-0.0042 J0.0034
G1 X-69.6423 Y8.0154
G3 X-69.6468 Y8.0102 I0.001 J-0.0054
G2 X-69.9912 Y7.3674 I-0.8233 J0.0274
G3 X-69.993 Y7.3605 I0.0034 J-0.0046
G1 X-69.8824 Y7.1053
G3 X-69.8762 Y7.102 I0.0051 J0.0022
G1 X-69.8761 Y7.1021
G2 X-69.3511 Y7.0341 I0.1623 J-0.8076
G3 X-69.3443 Y7.0356 I0.0024 J0.0049
G1 X-69.0177 Y7.4505
G3 X-69.0261 Y7.5207 I-0.0393 J0.0309
G1 X-69.0353 Y7.509
X-69.0388 Y7.5046 Z-0.2172
X-69.0422 Y7.5003 Z-0.2162
X-69.0455 Y7.4961 Z-0.2147
X-69.0487 Y7.492 Z-0.2125
X-69.0518 Y7.4881 Z-0.2098
X-69.0546 Y7.4845 Z-0.2066
X-69.0572 Y7.4813 Z-0.2029
X-69.0595 Y7.4783 Z-0.1987
X-69.0615 Y7.4758 Z-0.1941
X-69.0632 Y7.4736 Z-0.1892
X-69.0645 Y7.4719 Z-0.184
X-69.0655 Y7.4707 Z-0.1786
X-69.066 Y7.47 Z-0.1731
X-69.0662 Y7.4697 Z-0.1675
G0 Z0.4
X-70.4289 Y6.7968
Z0.2
G1 Z0.1 F13.333
Z-0.1675
X-70.429 Y6.7966 Z-0.1731 F40.
X-70.4296 Y6.7958 Z-0.1786
X-70.4304 Y6.7945 Z-0.184
X-70.4316 Y6.7927 Z-0.1892
X-70.4332 Y6.7905 Z-0.1941
X-70.435 Y6.7878 Z-0.1987
X-70.4371 Y6.7847 Z-0.2029
X-70.4394 Y6.7813 Z-0.2066
X-70.442 Y6.7775 Z-0.2098
X-70.4447 Y6.7734 Z-0.2125
X-70.4476 Y6.7691 Z-0.2147
X-70.4507 Y6.7647 Z-0.2162
X-70.4538 Y6.7601 Z-0.2172
X-70.4569 Y6.7554 Z-0.2175
X-70.4652 Y6.7431
G3 X-70.3958 Y6.7565 I0.028 J0.0414
G2 X-70.193 Y6.9646 I0.6822 J-0.4618
G1 X-70.1928 Y6.9648
G3 X-70.1909 Y6.9715 I-0.0032 J0.0046
G1 X-70.3018 Y7.2266
Y7.2267
G3 X-70.3078 Y7.2299 I-0.005 J-0.0022
G2 X-71.0795 Y7.4832 I-0.1622 J0.8077
G3 X-71.0863 Y7.4843 I-0.004 J-0.0037
G2 X-71.0866 Y7.4841 I-0.0374 J0.0645
G1 X-71.1004 Y7.4762
G3 X-71.103 Y7.4708 I0.0028 J-0.0046
G1 X-71.1029 Y7.4707
G2 X-71.2842 Y7.0465 I-0.4455 J-0.0605
G1 X-71.2843 Y7.0464
G3 X-71.2824 Y7.0367 I0.0032 J-0.0044
G1 X-71.2823
G2 X-70.8109 Y6.5447 I-0.155 J-0.6204
G3 X-70.8059 Y6.5403 I0.0054 J0.0011
G1 X-70.5109 Y6.5195
X-70.5108
G3 X-70.505 Y6.5235 I0.0004 J0.0056
G2 X-70.3958 Y6.7565 I0.7914 J-0.2289
G3 X-70.4092 Y6.8259 I-0.0414 J0.028
G1 X-70.4175 Y6.8136
X-70.4207 Y6.8089 Z-0.2172
X-70.4238 Y6.8044 Z-0.2162
X-70.4268 Y6.7999 Z-0.2147
X-70.4297 Y6.7956 Z-0.2125
X-70.4324 Y6.7915 Z-0.2098
X-70.435 Y6.7878 Z-0.2066
X-70.4374 Y6.7843 Z-0.2029
X-70.4394 Y6.7812 Z-0.1987
X-70.4413 Y6.7785 Z-0.1941
X-70.4428 Y6.7763 Z-0.1892
X-70.444 Y6.7745 Z-0.184
X-70.4449 Y6.7732 Z-0.1786
X-70.4454 Y6.7724 Z-0.1731
X-70.4456 Y6.7722 Z-0.1675
G0 Z0.4
X-70.114 Y3.9302
Z0.2
G1 Z0.1 F13.333
Z-0.1675
X-70.1142 Y3.9299 Z-0.1731 F40.
X-70.1147 Y3.9291 Z-0.1786
X-70.1156 Y3.9278 Z-0.184
X-70.1167 Y3.926 Z-0.1892
X-70.1182 Y3.9238 Z-0.1941
X-70.12 Y3.921 Z-0.1987
X-70.122 Y3.9179 Z-0.2029
X-70.1243 Y3.9144 Z-0.2066
X-70.1267 Y3.9105 Z-0.2098
X-70.1294 Y3.9064 Z-0.2125
X-70.1322 Y3.9021 Z-0.2147
X-70.1351 Y3.8975 Z-0.2162
X-70.1382 Y3.8929 Z-0.2172
X-70.1412 Y3.8882 Z-0.2175
X-70.1493 Y3.8757
G3 X-70.0801 Y3.8905 I0.0272 J0.042
G1 X-69.8614 Y4.2285
G3 X-69.862 Y4.2353 I-0.0047 J0.003
G2 X-69.9604 Y4.378 I0.4935 J0.4457
G3 X-69.9665 Y4.3809 I-0.0049 J-0.0025
G1 X-69.9937 Y4.3751
X-69.994 Y4.375
G3 X-69.9981 Y4.3712 I0.0011 J-0.0053
G2 X-70.3573 Y4.1093 I-0.3483 J0.1005
G3 X-70.3629 Y4.1039 I-0.0001 J-0.0055
G1 Y3.4926
Y3.4925
G3 X-70.3578 Y3.4871 I0.0055 J0.
G2 X-70.3452 Y3.4863 I-0.0168 J-0.3621
G3 X-70.3401 Y3.4888 I0.0004 J0.0055
G1 X-70.0801 Y3.8905
G3 X-70.095 Y3.9597 I-0.042 J0.0272
G1 X-70.1031 Y3.9471
X-70.1061 Y3.9424 Z-0.2172
X-70.1091 Y3.9378 Z-0.2162
X-70.112 Y3.9333 Z-0.2147
X-70.1148 Y3.9289 Z-0.2125
X-70.1175 Y3.9248 Z-0.2098
X-70.12 Y3.921 Z-0.2066
X-70.1223 Y3.9175 Z-0.2029
X-70.1243 Y3.9143 Z-0.1987
X-70.1261 Y3.9116 Z-0.1941
X-70.1275 Y3.9093 Z-0.1892
X-70.1287 Y3.9075 Z-0.184
X-70.1295 Y3.9062 Z-0.1786
X-70.1301 Y3.9054 Z-0.1731
X-70.1302 Y3.9052 Z-0.1675
G0 Z0.4
X-69.281 Y3.6828
Z0.2
G1 Z0.1 F13.333
Z-0.1675
X-69.2809 Y3.6825 Z-0.1731 F40.
X-69.2806 Y3.6816 Z-0.1786
X-69.2802 Y3.6801 Z-0.184
X-69.2795 Y3.6781 Z-0.1892
X-69.2787 Y3.6755 Z-0.1941
X-69.2777 Y3.6724 Z-0.1987
X-69.2766 Y3.6688 Z-0.2029
X-69.2753 Y3.6648 Z-0.2066
X-69.2739 Y3.6605 Z-0.2098
X-69.2725 Y3.6558 Z-0.2125
X-69.2709 Y3.6509 Z-0.2147
X-69.2693 Y3.6457 Z-0.2162
X-69.2676 Y3.6405 Z-0.2172
X-69.2659 Y3.6351 Z-0.2175
X-69.2614 Y3.6209
G3 X-69.2289 Y3.6837 I-0.0151 J0.0477
G1 X-69.3332 Y4.0128
X-69.3333 Y4.0129
G3 X-69.3386 Y4.0167 I-0.0051 J-0.0016
G1 X-69.3388
G2 X-69.5725 Y4.0481 I-0.0296 J0.6643
G3 X-69.5788 Y4.0459 I-0.0017 J-0.0052
G1 X-70.0575 Y3.3061
G3 X-70.0576 Y3.3004 I0.0047 J-0.003
G2 X-70.0557 Y3.2965 I-0.0652 J-0.0361
X-70.0551 Y3.2955 I-0.327 J-0.1568
G3 X-70.0508 Y3.2932 I0.0044 J0.0033
G1 X-69.1992
G3 X-69.1944 Y3.2961 I0. J0.0055
G2 X-69.135 Y3.3777 I0.32 J-0.1706
G1 X-69.1348 Y3.3779
G3 X-69.1336 Y3.3832 I-0.0038 J0.0037
G1 Y3.3834
X-69.2289 Y3.6837
G3 X-69.2916 Y3.7162 I-0.0477 J-0.0151
G1 X-69.2871 Y3.702
X-69.2854 Y3.6967 Z-0.2172
X-69.2838 Y3.6914 Z-0.2162
X-69.2821 Y3.6863 Z-0.2147
X-69.2806 Y3.6814 Z-0.2125
X-69.2791 Y3.6767 Z-0.2098
X-69.2777 Y3.6723 Z-0.2066
X-69.2764 Y3.6683 Z-0.2029
X-69.2753 Y3.6648 Z-0.1987
X-69.2743 Y3.6617 Z-0.1941
X-69.2735 Y3.6591 Z-0.1892
X-69.2729 Y3.6571 Z-0.184
X-69.2724 Y3.6556 Z-0.1786
X-69.2721 Y3.6547 Z-0.1731
X-69.272 Y3.6544 Z-0.1675
G0 Z0.4
X-68.6169 Y3.9586
Z0.2
G1 Z0.1 F13.333
Z-0.1675
X-68.617 Y3.9583 Z-0.1731 F40.
X-68.6176 Y3.9576 Z-0.1786
X-68.6185 Y3.9563 Z-0.184
X-68.6197 Y3.9545 Z-0.1892
X-68.6212 Y3.9523 Z-0.1941
X-68.6231 Y3.9496 Z-0.1987
X-68.6252 Y3.9466 Z-0.2029
X-68.6276 Y3.9431 Z-0.2066
X-68.6302 Y3.9394 Z-0.2098
X-68.633 Y3.9353 Z-0.2125
X-68.636 Y3.9311 Z-0.2147
X-68.639 Y3.9267 Z-0.2162
X-68.6422 Y3.9221 Z-0.2172
X-68.6454 Y3.9175 Z-0.2175
X-68.6539 Y3.9053
G3 X-68.5843 Y3.9178 I0.0285 J0.0411
G1 X-68.4821 Y4.0651
G3 X-68.2994 Y4.5318 I-0.8864 J0.6161
X-68.3061 Y4.5379 I-0.0054 J0.0008
G1 X-68.3063 Y4.5378
G2 X-68.6674 Y4.6561 I-0.0845 J0.3526
G3 X-68.6727 Y4.6579 I-0.0042 J-0.0036
G1 X-68.7 Y4.6521
G3 X-68.7043 Y4.6469 I0.0012 J-0.0054
G2 X-69.0101 Y4.1209 I-0.6641 J0.0342
G3 X-69.0124 Y4.1145 I0.0031 J-0.0047
G1 X-68.8388 Y3.5671
G3 X-68.8289 Y3.5656 I0.0053 J0.0017
G1 X-68.5843 Y3.9178
G3 X-68.5968 Y3.9874 I-0.0411 J0.0285
G1 X-68.6053 Y3.9752
X-68.6085 Y3.9706 Z-0.2172
X-68.6117 Y3.966 Z-0.2162
X-68.6148 Y3.9616 Z-0.2147
X-68.6177 Y3.9574 Z-0.2125
X-68.6205 Y3.9533 Z-0.2098
X-68.6231 Y3.9496 Z-0.2066
X-68.6255 Y3.9461 Z-0.2029
X-68.6276 Y3.9431 Z-0.1987
X-68.6295 Y3.9404 Z-0.1941
X-68.631 Y3.9382 Z-0.1892
X-68.6323 Y3.9364 Z-0.184
X-68.6331 Y3.9352 Z-0.1786
X-68.6337 Y3.9344 Z-0.1731
X-68.6339 Y3.9341 Z-0.1675
G0 Z0.4
X-69.1929 Y2.1382
Z0.2
G1 Z0.1 F13.333
Z-0.1675
X-69.1931 Y2.1379 Z-0.1731 F40.
X-69.1936 Y2.1372 Z-0.1786
X-69.1946 Y2.136 Z-0.184
X-69.1959 Y2.1343 Z-0.1892
X-69.1975 Y2.1321 Z-0.1941
X-69.1995 Y2.1295 Z-0.1987
X-69.2018 Y2.1266 Z-0.2029
X-69.2043 Y2.1233 Z-0.2066
X-69.2071 Y2.1196 Z-0.2098
X-69.2101 Y2.1157 Z-0.2125
X-69.2133 Y2.1116 Z-0.2147
X-69.2166 Y2.1074 Z-0.2162
X-69.2199 Y2.103 Z-0.2172
X-69.2233 Y2.0985 Z-0.2175
X-69.2324 Y2.0867
G3 X-69.1623 Y2.0959 I0.0305 J0.0396
G2 X-68.8923 Y2.2371 I0.2874 J-0.221
G3 X-68.8871 Y2.2425 I-0.0003 J0.0055
G1 Y2.2426
Y2.7574
Y2.7575
G3 X-68.8923 Y2.7629 I-0.0055 J0.
G2 X-69.1944 Y2.9538 I0.0174 J0.3621
G3 X-69.1992 Y2.9568 I-0.0048 J-0.0026
G1 X-70.0508
G3 X-70.0556 Y2.9539 I0. J-0.0055
G2 X-70.3577 Y2.7629 I-0.3196 J0.1712
G3 X-70.3629 Y2.7575 I0.0003 J-0.0055
G1 Y2.7574
Y2.2426
Y2.2425
G3 X-70.3577 Y2.2371 I0.0055 J0.
G2 X-70.013 Y1.8923 I-0.0174 J-0.3621
G3 X-70.0075 Y1.887 I0.0055 J0.0003
G1 X-69.2425
G3 X-69.237 Y1.8922 I0. J0.0055
G2 X-69.1623 Y2.0959 I0.3621 J-0.0173
G3 X-69.1715 Y2.166 I-0.0396 J0.0305
G1 X-69.1806 Y2.1542
X-69.184 Y2.1498 Z-0.2172
X-69.1873 Y2.1454 Z-0.2162
X-69.1906 Y2.1411 Z-0.2147
X-69.1938 Y2.137 Z-0.2125
X-69.1968 Y2.1331 Z-0.2098
X-69.1996 Y2.1295 Z-0.2066
X-69.2021 Y2.1262 Z-0.2029
X-69.2044 Y2.1232 Z-0.1987
X-69.2064 Y2.1206 Z-0.1941
X-69.208 Y2.1185 Z-0.1892
X-69.2093 Y2.1168 Z-0.184
X-69.2103 Y2.1156 Z-0.1786
X-69.2108 Y2.1148 Z-0.1731
X-69.211 Y2.1146 Z-0.1675
G0 Z0.4
X-73.2841 Y6.6374
Z0.2
G1 Z0.1 F13.333
Z-0.1675
X-73.284 Y6.6371 Z-0.1731 F40.
X-73.2835 Y6.6363 Z-0.1786
X-73.2828 Y6.6349 Z-0.184
X-73.2818 Y6.633 Z-0.1892
X-73.2805 Y6.6307 Z-0.1941
X-73.2789 Y6.6278 Z-0.1987
X-73.2771 Y6.6245 Z-0.2029
X-73.2751 Y6.6208 Z-0.2066
X-73.273 Y6.6168 Z-0.2098
X-73.2706 Y6.6125 Z-0.2125
X-73.2681 Y6.608 Z-0.2147
X-73.2656 Y6.6032 Z-0.2162
X-73.2629 Y6.5984 Z-0.2172
X-73.2602 Y6.5935 Z-0.2175
X-73.2531 Y6.5804
G3 X-73.2331 Y6.6482 I-0.0239 J0.0439
G1 X-73.2654 Y6.7075
G3 X-73.2718 Y6.7102 I-0.0049 J-0.0027
G2 X-74.2608 Y7.1701 I-0.2341 J0.7898
G3 X-74.2668 Y7.1732 I-0.005 J-0.0022
G1 X-74.6269 Y7.0999
G3 X-74.631 Y7.0961 I0.0011 J-0.0052
G2 X-74.6313 Y7.0952 I-0.0714 J0.0213
X-74.6404 Y7.0695 I-0.3458 J0.1084
G3 X-74.6382 Y7.063 I0.0053 J-0.0018
G1 X-73.9387 Y6.5979
X-73.9386
G3 X-73.9364 Y6.597 I0.003 J0.0045
G1 X-73.2563 Y6.5026
X-73.2562
G2 X-73.1543 Y6.4848 I-0.2081 J-1.4911
G3 X-73.1484 Y6.4927 I0.0011 J0.0053
G1 X-73.1485 Y6.4928
X-73.2331 Y6.6482
G3 X-73.3009 Y6.6682 I-0.0439 J-0.0239
G1 X-73.2938 Y6.6551
X-73.2911 Y6.6502 Z-0.2172
X-73.2885 Y6.6454 Z-0.2162
X-73.2859 Y6.6406 Z-0.2147
X-73.2834 Y6.6361 Z-0.2125
X-73.2811 Y6.6318 Z-0.2098
X-73.2789 Y6.6277 Z-0.2066
X-73.2769 Y6.6241 Z-0.2029
X-73.2751 Y6.6208 Z-0.1987
X-73.2736 Y6.6179 Z-0.1941
X-73.2723 Y6.6156 Z-0.1892
X-73.2712 Y6.6137 Z-0.184
X-73.2705 Y6.6123 Z-0.1786
X-73.27 Y6.6115 Z-0.1731
X-73.2699 Y6.6112 Z-0.1675
G0 Z0.4
X-73.7181 Y8.4784
Z0.2
G1 Z0.1 F13.333
Z-0.1675
Y8.4781 Z-0.1731 F40.
Y8.4771 Z-0.1786
Y8.4756 Z-0.184
Y8.4734 Z-0.1892
Y8.4707 Z-0.1941
Y8.4675 Z-0.1987
Y8.4637 Z-0.2029
X-73.7182 Y8.4596 Z-0.2066
Y8.455 Z-0.2098
Y8.4501 Z-0.2125
X-73.7183 Y8.4449 Z-0.2147
Y8.4395 Z-0.2162
Y8.434 Z-0.2172
Y8.4284 Z-0.2175
X-73.7184 Y8.4135
G3 X-73.6682 Y8.4632 I0.0003 J0.05
G1 X-73.6666 Y8.7401
Y8.7402
G3 X-73.6709 Y8.7456 I-0.0055 J0.
G2 X-73.8621 Y8.8133 I0.1775 J0.8044
G1 X-73.8622 Y8.8134
G3 X-73.869 Y8.8119 I-0.0025 J-0.005
G1 X-74.6623 Y7.8208
X-74.6625 Y7.8205
G3 X-74.6633 Y7.815 I0.0042 J-0.0034
G2 X-74.71 Y7.4505 I-0.3332 J-0.1426
G1 X-74.7101 Y7.4504
G3 X-74.7099 Y7.4435 I0.0042 J-0.0033
G2 X-74.6996 Y7.4318 I-0.2677 J-0.2445
G1 X-74.6993 Y7.4315
G3 X-74.694 Y7.4296 I0.0042 J0.0035
G1 X-74.3339 Y7.503
G3 X-74.3296 Y7.5083 I-0.0012 J0.0054
G1 Y7.5084
G2 X-73.6735 Y8.3065 I0.8237 J-0.0084
G3 X-73.669 Y8.312 I-0.0012 J0.0056
G1 X-73.6682 Y8.4632
G3 X-73.7179 Y8.5135 I-0.05 J0.0003
G1 X-73.718 Y8.4986
Y8.493 Z-0.2172
Y8.4875 Z-0.2162
Y8.4821 Z-0.2147
X-73.7181 Y8.4769 Z-0.2125
Y8.472 Z-0.2098
Y8.4674 Z-0.2066
X-73.7182 Y8.4632 Z-0.2029
Y8.4595 Z-0.1987
Y8.4562 Z-0.1941
Y8.4535 Z-0.1892
Y8.4514 Z-0.184
Y8.4498 Z-0.1786
Y8.4489 Z-0.1731
Y8.4486 Z-0.1675
G0 Z0.4
X-74.3669 Y8.808
Z0.2
G1 Z0.1 F13.333
Z-0.1675
X-74.3671 Y8.8078 Z-0.1731 F40.
X-74.3677 Y8.807 Z-0.1786
X-74.3687 Y8.8058 Z-0.184
X-74.37 Y8.8042 Z-0.1892
X-74.3717 Y8.802 Z-0.1941
X-74.3738 Y8.7995 Z-0.1987
X-74.3761 Y8.7966 Z-0.2029
X-74.3787 Y8.7933 Z-0.2066
X-74.3816 Y8.7898 Z-0.2098
X-74.3846 Y8.7859 Z-0.2125
X-74.3879 Y8.7819 Z-0.2147
X-74.3912 Y8.7777 Z-0.2162
X-74.3947 Y8.7734 Z-0.2172
X-74.3982 Y8.769 Z-0.2175
X-74.4075 Y8.7574
G3 X-74.3372 Y8.7651 I0.0313 J0.039
G1 X-74.1315 Y9.022
G3 X-74.1316 Y9.0289 I-0.0043 J0.0034
G2 X-74.1318 Y9.0292 I0.0576 J0.0473
X-74.1733 Y9.0849 I0.6394 J0.5196
G3 X-74.1798 Y9.087 I-0.0046 J-0.0032
G1 X-74.1799 Y9.0869
G2 X-74.5551 Y9.1891 I-0.1138 J0.3219
G1 Y9.1892
G3 X-74.5602 Y9.1911 I-0.0042 J-0.0035
G1 X-74.5603 Y9.191
X-74.6846 Y9.1691
G3 X-74.6892 Y9.1641 I0.001 J-0.0056
G1 X-74.7754 Y8.2342
G3 X-74.7657 Y8.2302 I0.0055 J-0.0005
G1 X-74.7656 Y8.2303
X-74.3372 Y8.7651
G3 X-74.345 Y8.8354 I-0.039 J0.0313
G1 X-74.3543 Y8.8238
X-74.3578 Y8.8194 Z-0.2172
X-74.3613 Y8.8151 Z-0.2162
X-74.3646 Y8.8109 Z-0.2147
X-74.3679 Y8.8069 Z-0.2125
X-74.3709 Y8.803 Z-0.2098
X-74.3738 Y8.7995 Z-0.2066
X-74.3764 Y8.7962 Z-0.2029
X-74.3788 Y8.7933 Z-0.1987
X-74.3808 Y8.7907 Z-0.1941
X-74.3825 Y8.7886 Z-0.1892
X-74.3838 Y8.787 Z-0.184
X-74.3848 Y8.7857 Z-0.1786
X-74.3854 Y8.785 Z-0.1731
X-74.3856 Y8.7848 Z-0.1675
G0 Z0.4
X-75.0383 Y9.5826
Z0.2
G1 Z0.1 F13.333
Z-0.1675
Y9.5823 Z-0.1731 F40.
X-75.0384 Y9.5814 Z-0.1786
X-75.0385 Y9.5798 Z-0.184
X-75.0387 Y9.5777 Z-0.1892
X-75.039 Y9.575 Z-0.1941
X-75.0393 Y9.5717 Z-0.1987
X-75.0396 Y9.568 Z-0.2029
X-75.04 Y9.5639 Z-0.2066
X-75.0404 Y9.5593 Z-0.2098
X-75.0409 Y9.5544 Z-0.2125
X-75.0414 Y9.5493 Z-0.2147
X-75.0419 Y9.5439 Z-0.2162
X-75.0424 Y9.5384 Z-0.2172
X-75.0429 Y9.5328 Z-0.2175
X-75.0443 Y9.518
G3 X-74.9898 Y9.5631 I0.0046 J0.0498
G1 X-74.8994 Y10.5384
Y10.5385
G3 X-74.9088 Y10.5429 I-0.0055 J0.0005
G1 X-74.9089 Y10.5428
X-75.2604 Y10.1929
X-75.2606 Y10.1927
G3 X-75.262 Y10.1873 I0.0039 J-0.0039
G2 X-75.5554 Y9.725 I-0.3474 J-0.1038
X-75.5563 Y9.7249 I-0.0111 J0.0737
G3 X-75.5576 Y9.7247 I0.1221 J-0.8791
X-75.5619 Y9.7174 I0.0009 J-0.0054
G1 X-75.1032 Y8.4575
G3 X-75.0923 Y8.4589 I0.0053 J0.0019
G1 X-74.9898 Y9.5631
G3 X-75.035 Y9.6175 I-0.0498 J0.0046
G1 X-75.0364 Y9.6027
X-75.0369 Y9.5971 Z-0.2172
X-75.0374 Y9.5916 Z-0.2162
X-75.0379 Y9.5863 Z-0.2147
X-75.0384 Y9.5811 Z-0.2125
X-75.0388 Y9.5762 Z-0.2098
X-75.0393 Y9.5717 Z-0.2066
X-75.0397 Y9.5675 Z-0.2029
X-75.04 Y9.5638 Z-0.1987
X-75.0403 Y9.5606 Z-0.1941
X-75.0406 Y9.5579 Z-0.1892
X-75.0407 Y9.5557 Z-0.184
X-75.0409 Y9.5542 Z-0.1786
X-75.041 Y9.5532 Z-0.1731
Y9.5529 Z-0.1675
G0 Z0.4
X-74.2497 Y9.9878
Z0.2
G1 Z0.1 F13.333
Z-0.1675
X-74.2499 Y9.9876 Z-0.1731 F40.
X-74.2503 Y9.9867 Z-0.1786
X-74.2511 Y9.9854 Z-0.184
X-74.2521 Y9.9835 Z-0.1892
X-74.2534 Y9.9811 Z-0.1941
X-74.255 Y9.9783 Z-0.1987
X-74.2568 Y9.975 Z-0.2029
X-74.2589 Y9.9714 Z-0.2066
X-74.2611 Y9.9674 Z-0.2098
X-74.2635 Y9.9631 Z-0.2125
X-74.266 Y9.9586 Z-0.2147
X-74.2686 Y9.9539 Z-0.2162
X-74.2713 Y9.949 Z-0.2172
X-74.274 Y9.9441 Z-0.2175
X-74.2813 Y9.9311
G3 X-74.2133 Y9.9505 I0.0243 J0.0437
G2 X-74.1387 Y10.062 I0.7198 J-0.4008
G1 X-74.1386 Y10.0621
G3 X-74.1387 Y10.069 I-0.0043 J0.0034
G1 X-74.5492 Y10.5674
G3 X-74.5589 Y10.5645 I-0.0042 J-0.0035
G1 X-74.6557 Y9.5229
G3 X-74.6493 Y9.517 I0.0055 J-0.0005
G1 X-74.6492
X-74.6187 Y9.5224
G3 X-74.6145 Y9.5259 I-0.001 J0.0054
G2 X-74.2968 Y9.7504 I0.3208 J-0.1171
G3 X-74.2914 Y9.7545 I-0.0001 J0.0055
G2 X-74.2133 Y9.9505 I0.798 J-0.2048
G3 X-74.2326 Y10.0185 I-0.0437 J0.0243
G1 X-74.2399 Y10.0055
X-74.2426 Y10.0006 Z-0.2172
X-74.2453 Y9.9958 Z-0.2162
X-74.2479 Y9.991 Z-0.2147
X-74.2504 Y9.9865 Z-0.2125
X-74.2528 Y9.9822 Z-0.2098
X-74.255 Y9.9782 Z-0.2066
X-74.2571 Y9.9746 Z-0.2029
X-74.2589 Y9.9713 Z-0.1987
X-74.2605 Y9.9685 Z-0.1941
X-74.2618 Y9.9661 Z-0.1892
X-74.2628 Y9.9642 Z-0.184
X-74.2636 Y9.9629 Z-0.1786
X-74.2641 Y9.9621 Z-0.1731
X-74.2642 Y9.9618 Z-0.1675
G0 Z0.4
X-73.4984 Y11.526
Z0.2
G1 Z0.1 F13.333
Z-0.1675
Y11.5257 Z-0.1731 F40.
X-73.4985 Y11.5247 Z-0.1786
X-73.4987 Y11.5232 Z-0.184
X-73.4989 Y11.5211 Z-0.1892
X-73.4992 Y11.5184 Z-0.1941
X-73.4996 Y11.5151 Z-0.1987
X-73.5 Y11.5114 Z-0.2029
X-73.5004 Y11.5073 Z-0.2066
X-73.5009 Y11.5027 Z-0.2098
X-73.5014 Y11.4978 Z-0.2125
X-73.502 Y11.4927 Z-0.2147
X-73.5026 Y11.4873 Z-0.2162
X-73.5032 Y11.4818 Z-0.2172
X-73.5038 Y11.4763 Z-0.2175
X-73.5054 Y11.4615
G3 X-73.4503 Y11.5058 I0.0054 J0.0497
G1 X-73.3595 Y12.3411
Y12.3412
G3 X-73.3618 Y12.3463 I-0.0055 J0.0006
G2 X-73.3925 Y12.3698 I0.2049 J0.2991
G3 X-73.3981 Y12.3708 I-0.0036 J-0.0042
G1 X-74.4471 Y11.9613
G3 X-74.4504 Y11.957 I0.002 J-0.005
G1 Y11.9567
G2 X-74.6016 Y11.7038 I-0.3601 J0.0435
G1 X-74.6017 Y11.7037
G3 X-74.604 Y11.6985 I0.0032 J-0.0045
G1 X-74.5603 Y11.3426
G3 X-74.5568 Y11.3382 I0.0055 J0.0007
G1 X-74.5566 Y11.3381
G2 X-74.3524 Y10.8621 I-0.1309 J-0.3379
G3 X-74.3515 Y10.8565 I0.0051 J-0.0021
G1 X-73.8791 Y10.2829
X-73.879 Y10.2828
G3 X-73.8722 Y10.2814 I0.0043 J0.0035
G1 X-73.8721 Y10.2815
G2 X-73.5782 Y10.3693 I0.3788 J-0.7315
G3 X-73.5733 Y10.3742 I-0.0006 J0.0055
G1 X-73.4503 Y11.5058
G3 X-73.4946 Y11.5609 I-0.0497 J0.0054
G1 X-73.4962 Y11.5461
X-73.4968 Y11.5405 Z-0.2172
X-73.4974 Y11.535 Z-0.2162
X-73.498 Y11.5297 Z-0.2147
X-73.4985 Y11.5245 Z-0.2125
X-73.4991 Y11.5196 Z-0.2098
X-73.4996 Y11.5151 Z-0.2066
X-73.5 Y11.5109 Z-0.2029
X-73.5004 Y11.5072 Z-0.1987
X-73.5008 Y11.504 Z-0.1941
X-73.5011 Y11.5013 Z-0.1892
X-73.5013 Y11.4992 Z-0.184
X-73.5015 Y11.4976 Z-0.1786
X-73.5016 Y11.4967 Z-0.1731
Y11.4964 Z-0.1675
G0 Z0.4
X-73.7216 Y12.8191
Z0.2
G1 Z0.1 F13.333
Z-0.1675
X-73.7214 Y12.8189 Z-0.1731 F40.
X-73.7209 Y12.8181 Z-0.1786
X-73.7199 Y12.8169 Z-0.184
X-73.7187 Y12.8151 Z-0.1892
X-73.7171 Y12.8129 Z-0.1941
X-73.7151 Y12.8103 Z-0.1987
X-73.7129 Y12.8073 Z-0.2029
X-73.7105 Y12.8039 Z-0.2066
X-73.7077 Y12.8003 Z-0.2098
X-73.7048 Y12.7963 Z-0.2125
X-73.7018 Y12.7921 Z-0.2147
X-73.6986 Y12.7878 Z-0.2162
X-73.6953 Y12.7833 Z-0.2172
X-73.692 Y12.7788 Z-0.2175
X-73.6832 Y12.7668
G3 X-73.6725 Y12.8367 I-0.0296 J0.0403
X-73.7983 Y12.9853 I-1.1384 J-0.8363
G1 Y12.9854
G3 X-73.8067 Y12.9849 I-0.004 J-0.0039
G1 X-73.8068
X-74.2741 Y12.4011
G3 X-74.2677 Y12.3925 I0.0044 J-0.0035
G1 X-74.2676
X-73.5712 Y12.6644
G3 X-73.5683 Y12.6722 I-0.002 J0.0052
X-73.6725 Y12.8367 I-1.2426 J-0.6718
X-73.7424 Y12.8474 I-0.0403 J-0.0296
G1 X-73.7336 Y12.8354
X-73.7302 Y12.8309 Z-0.2172
X-73.727 Y12.8264 Z-0.2162
X-73.7238 Y12.8221 Z-0.2147
X-73.7207 Y12.8179 Z-0.2125
X-73.7178 Y12.814 Z-0.2098
X-73.7151 Y12.8103 Z-0.2066
X-73.7126 Y12.8069 Z-0.2029
X-73.7104 Y12.8039 Z-0.1987
X-73.7085 Y12.8013 Z-0.1941
X-73.7069 Y12.7991 Z-0.1892
X-73.7056 Y12.7974 Z-0.184
X-73.7047 Y12.7961 Z-0.1786
X-73.7041 Y12.7954 Z-0.1731
X-73.704 Y12.7951 Z-0.1675
G0 Z0.4
X-74.1113 Y13.3376
Z0.2
G1 Z0.1 F13.333
Z-0.1675
X-74.1112 Y13.3373 Z-0.1731 F40.
X-74.1111 Y13.3363 Z-0.1786
X-74.1109 Y13.3348 Z-0.184
X-74.1105 Y13.3327 Z-0.1892
X-74.1101 Y13.33 Z-0.1941
X-74.1096 Y13.3268 Z-0.1987
X-74.1091 Y13.3231 Z-0.2029
X-74.1084 Y13.319 Z-0.2066
X-74.1077 Y13.3144 Z-0.2098
X-74.107 Y13.3096 Z-0.2125
X-74.1062 Y13.3045 Z-0.2147
X-74.1054 Y13.2991 Z-0.2162
X-74.1045 Y13.2937 Z-0.2172
X-74.1037 Y13.2881 Z-0.2175
X-74.1014 Y13.2734
G3 X-74.0596 Y13.3305 I-0.0076 J0.0494
G2 X-73.9078 Y13.6838 I0.3584 J0.0553
X-73.9075 Y13.684 I0.0424 J-0.0612
G3 X-73.9051 Y13.6891 I-0.0031 J0.0045
G1 X-73.9783 Y14.3291
G3 X-73.9818 Y14.3336 I-0.0055 J-0.0006
G1 X-73.9819 Y14.3337
G2 X-74.0423 Y14.3646 I0.1344 J0.3368
G3 X-74.05 Y14.3623 I-0.0029 J-0.0046
G1 X-75.0295 Y12.3018
G3 X-75.0213 Y12.2949 I0.005 J-0.0024
G2 X-74.7444 Y12.3565 I0.2108 J-0.2949
G3 X-74.7393 Y12.3584 I0.0009 J0.0053
G1 X-74.0354 Y13.2375
G3 X-74.0346 Y13.2432 I-0.0044 J0.0035
G2 X-74.0596 Y13.3305 I0.3335 J0.1426
G3 X-74.1166 Y13.3723 I-0.0494 J-0.0076
G1 X-74.1144 Y13.3575
X-74.1135 Y13.352 Z-0.2172
X-74.1127 Y13.3465 Z-0.2162
X-74.1118 Y13.3412 Z-0.2147
X-74.1111 Y13.3361 Z-0.2125
X-74.1103 Y13.3312 Z-0.2098
X-74.1096 Y13.3267 Z-0.2066
X-74.109 Y13.3226 Z-0.2029
X-74.1084 Y13.3189 Z-0.1987
X-74.1079 Y13.3157 Z-0.1941
X-74.1075 Y13.313 Z-0.1892
X-74.1072 Y13.3109 Z-0.184
X-74.1069 Y13.3094 Z-0.1786
X-74.1068 Y13.3084 Z-0.1731
X-74.1067 Y13.3081 Z-0.1675
G0 Z0.4
X-73.551 Y14.347
Z0.2
G1 Z0.1 F13.333
Z-0.1675
X-73.5512 Y14.3467 Z-0.1731 F40.
X-73.5515 Y14.3458 Z-0.1786
X-73.5521 Y14.3444 Z-0.184
X-73.5529 Y14.3424 Z-0.1892
X-73.5539 Y14.3399 Z-0.1941
X-73.5551 Y14.3369 Z-0.1987
X-73.5565 Y14.3334 Z-0.2029
X-73.5581 Y14.3295 Z-0.2066
X-73.5598 Y14.3253 Z-0.2098
X-73.5616 Y14.3207 Z-0.2125
X-73.5635 Y14.3159 Z-0.2147
X-73.5655 Y14.3109 Z-0.2162
X-73.5676 Y14.3058 Z-0.2172
X-73.5697 Y14.3006 Z-0.2175
X-73.5752 Y14.2867
G3 X-73.5102 Y14.3145 I0.0186 J0.0464
G2 X-73.4144 Y14.4615 I0.418 J-0.1678
G3 X-73.4133 Y14.4676 I-0.0041 J0.0039
G1 X-73.4333 Y14.5138
X-73.4334 Y14.514
G3 X-73.4384 Y14.5172 I-0.005 J-0.0021
G2 X-73.5127 Y14.5223 I-0.0068 J0.4495
G3 X-73.5185 Y14.5191 I-0.0008 J-0.0055
G2 X-73.6414 Y14.3724 I-0.3294 J0.1511
X-73.6417 Y14.3722 I-0.0425 J0.0612
G3 X-73.6441 Y14.3671 I0.0031 J-0.0045
G1 X-73.5815 Y13.8197
G3 X-73.5716 Y13.8168 I0.0055 J0.0006
G1 X-73.487 Y13.9228
X-73.4869 Y13.923
G3 X-73.4864 Y13.9288 I-0.0041 J0.0033
G1 X-73.4865 Y13.929
G2 X-73.5102 Y14.3145 I0.3943 J0.2177
G3 X-73.538 Y14.3796 I-0.0464 J0.0186
G1 X-73.5435 Y14.3657
X-73.5456 Y14.3605 Z-0.2172
X-73.5477 Y14.3554 Z-0.2162
X-73.5497 Y14.3504 Z-0.2147
X-73.5516 Y14.3456 Z-0.2125
X-73.5534 Y14.341 Z-0.2098
