%
(971-23-P-0068_ARM GEARBOX PLATE 2V2_1490)
(T1  D=0.149 CR=0. - ZMIN=-0.2176 - FLAT END MILL)
G90 G94 G17 G91.1
G64 P0.001 Q0.001
G20
G53 G0 Z0.
(.3 CIRCLUAR THROUGH HOLE 2)
M9
T1 M6
S22000 M3
G4 P10.
G54
M7
G0 X-69.8739 Y14.2022
G43 Z0.6 H1
G0 Z0.13
G1 Z0.0649 F40.
G18 G2 X-69.859 Z0.05 I0.0149 K0.
G1 X-69.8516
G17 G3 X-69.8386 Y14.2152 I0. J0.013
X-69.8906 Z0.0323 I-0.026 J0.
X-69.8747 Y14.1913 Z0.0257 I0.026 J0.
X-69.8544 Y14.2392 Z0.008 I0.0102 J0.0239
X-69.8747 Y14.1913 Z-0.0098 I-0.0102 J-0.0239
X-69.8544 Y14.2392 Z-0.0275 I0.0102 J0.0239
X-69.8747 Y14.1913 Z-0.0452 I-0.0102 J-0.0239
X-69.8544 Y14.2392 Z-0.0629 I0.0102 J0.0239
X-69.8882 Y14.2262 Z-0.0716 I-0.0102 J-0.0239
X-69.841 Y14.2043 Z-0.0893 I0.0236 J-0.011
X-69.8453 Y14.2326 Z-0.0959 I-0.0236 J0.011
X-69.8839 Y14.1978 Z-0.1136 I-0.0193 J-0.0174
X-69.8453 Y14.2326 Z-0.1314 I0.0193 J0.0174
X-69.8905 Y14.217 Z-0.1445 I-0.0193 J-0.0174
X-69.8387 Y14.2134 Z-0.1623 I0.0259 J-0.0018
X-69.8905 Y14.217 Z-0.18 I-0.0259 J0.0018
X-69.8478 Y14.1953 Z-0.1932 I0.0259 J-0.0018
X-69.8813 Y14.2351 Z-0.2109 I-0.0168 J0.0199
X-69.8894 Y14.2076 Z-0.2175 I0.0168 J-0.0199
X-69.8397 Y14.2229 I0.0248 J0.0077
X-69.8894 Y14.2076 I-0.0248 J-0.0077
X-69.8732 Y14.199 I0.0124 J0.0038
G1 X-69.8661 Y14.2012
X-69.8633 Y14.202 Z-0.2172
X-69.8606 Y14.2028 Z-0.2164
X-69.8582 Y14.2036 Z-0.215
X-69.856 Y14.2043 Z-0.2131
X-69.8542 Y14.2048 Z-0.2109
X-69.8529 Y14.2052 Z-0.2083
X-69.8521 Y14.2055 Z-0.2055
X-69.8518 Z-0.2026
G0 Z0.4
X-71.1969 Y13.487
Z0.13
G1 Z0.0649 F40.
G18 G2 X-71.1819 Z0.05 I0.0149 K0.
G1 X-71.1745
G17 G3 X-71.1615 Y13.5 I0. J0.013
X-71.2135 Z0.0323 I-0.026 J0.
X-71.1977 Y13.4761 Z0.0257 I0.026 J0.
X-71.1773 Y13.5239 Z0.008 I0.0102 J0.0239
X-71.2056 Y13.5187 Z0.0014 I-0.0102 J-0.0239
X-71.1694 Y13.4813 Z-0.0164 I0.0181 J-0.0187
X-71.2056 Y13.5187 Z-0.0341 I-0.0181 J0.0187
X-71.1694 Y13.4813 Z-0.0518 I0.0181 J-0.0187
X-71.2056 Y13.5187 Z-0.0695 I-0.0181 J0.0187
X-71.2111 Y13.511 Z-0.0716 I0.0181 J-0.0187
X-71.1639 Y13.489 Z-0.0893 I0.0236 J-0.011
X-71.1682 Y13.5174 Z-0.0959 I-0.0236 J0.011
X-71.2068 Y13.4826 Z-0.1136 I-0.0193 J-0.0174
X-71.1682 Y13.5174 Z-0.1314 I0.0193 J0.0174
X-71.2134 Y13.5018 Z-0.1445 I-0.0193 J-0.0174
X-71.1616 Y13.4982 Z-0.1623 I0.0259 J-0.0018
X-71.1757 Y13.5232 Z-0.1689 I-0.0259 J0.0018
X-71.1993 Y13.4768 Z-0.1866 I-0.0118 J-0.0232
X-71.1707 Y13.4801 Z-0.1932 I0.0118 J0.0232
X-71.2043 Y13.5199 Z-0.2109 I-0.0168 J0.0199
X-71.2123 Y13.4923 Z-0.2175 I0.0168 J-0.0199
X-71.1627 Y13.5077 I0.0248 J0.0077
X-71.2123 Y13.4923 I-0.0248 J-0.0077
X-71.1961 Y13.4837 I0.0124 J0.0038
G1 X-71.189 Y13.4859
X-71.1862 Y13.4868 Z-0.2172
X-71.1835 Y13.4876 Z-0.2164
X-71.1811 Y13.4884 Z-0.215
X-71.1789 Y13.489 Z-0.2131
X-71.1771 Y13.4896 Z-0.2109
X-71.1758 Y13.49 Z-0.2083
X-71.175 Y13.4902 Z-0.2055
X-71.1747 Y13.4903 Z-0.2026
G0 Z0.4
X-71.4399 Y11.987
Z0.13
G1 Z0.0649 F40.
G18 G2 X-71.425 Z0.05 I0.0149 K0.
G1 X-71.4175
G17 G3 X-71.4045 Y12. I0. J0.013
X-71.4565 Z0.0323 I-0.026 J0.
X-71.4407 Y11.9761 Z0.0257 I0.026 J0.
X-71.4204 Y12.0239 Z0.008 I0.0102 J0.0239
X-71.4407 Y11.9761 Z-0.0098 I-0.0102 J-0.0239
X-71.4063 Y12.0093 Z-0.023 I0.0102 J0.0239
X-71.4548 Y11.9907 Z-0.0407 I-0.0243 J-0.0093
X-71.4063 Y12.0093 Z-0.0584 I0.0243 J0.0093
X-71.4548 Y11.9907 Z-0.0761 I-0.0243 J-0.0093
X-71.4063 Y12.0093 Z-0.0938 I0.0243 J0.0093
X-71.4548 Y11.9907 Z-0.1116 I-0.0243 J-0.0093
X-71.4063 Y12.0093 Z-0.1293 I0.0243 J0.0093
X-71.4548 Y11.9907 Z-0.147 I-0.0243 J-0.0093
X-71.4063 Y12.0093 Z-0.1647 I0.0243 J0.0093
X-71.4548 Y11.9907 Z-0.1824 I-0.0243 J-0.0093
X-71.4063 Y12.0093 Z-0.2002 I0.0243 J0.0093
X-71.4554 Y11.9923 Z-0.2175 I-0.0243 J-0.0093
X-71.4057 Y12.0077 I0.0248 J0.0077
X-71.4554 Y11.9923 I-0.0248 J-0.0077
X-71.4391 Y11.9837 I0.0124 J0.0038
G1 X-71.432 Y11.9859
X-71.4292 Y11.9868 Z-0.2172
X-71.4266 Y11.9876 Z-0.2164
X-71.4241 Y11.9884 Z-0.215
X-71.422 Y11.989 Z-0.2131
X-71.4202 Y11.9896 Z-0.2109
X-71.4189 Y11.99 Z-0.2083
X-71.4181 Y11.9902 Z-0.2055
X-71.4178 Y11.9903 Z-0.2026
G0 Z0.4
X-68.5769 Y11.7694
Z0.13
G1 Z0.0649 F40.
G18 G2 X-68.5619 Z0.05 I0.0149 K0.
G1 X-68.5545
G17 G3 X-68.5415 Y11.7824 I0. J0.013
X-68.5935 Z0.0323 I-0.026 J0.
X-68.5777 Y11.7584 Z0.0257 I0.026 J0.
X-68.5573 Y11.8063 Z0.008 I0.0102 J0.0239
X-68.5777 Y11.7584 Z-0.0098 I-0.0102 J-0.0239
X-68.5573 Y11.8063 Z-0.0275 I0.0102 J0.0239
X-68.5777 Y11.7584 Z-0.0452 I-0.0102 J-0.0239
X-68.5573 Y11.8063 Z-0.0629 I0.0102 J0.0239
X-68.5911 Y11.7933 Z-0.0716 I-0.0102 J-0.0239
X-68.5439 Y11.7714 Z-0.0893 I0.0236 J-0.011
X-68.5482 Y11.7998 Z-0.0959 I-0.0236 J0.011
X-68.5868 Y11.765 Z-0.1136 I-0.0193 J-0.0174
X-68.5482 Y11.7998 Z-0.1314 I0.0193 J0.0174
X-68.5934 Y11.7842 Z-0.1445 I-0.0193 J-0.0174
X-68.5416 Y11.7806 Z-0.1623 I0.0259 J-0.0018
X-68.5934 Y11.7842 Z-0.18 I-0.0259 J0.0018
X-68.5507 Y11.7625 Z-0.1932 I0.0259 J-0.0018
X-68.5843 Y11.8023 Z-0.2109 I-0.0168 J0.0199
X-68.5923 Y11.7747 Z-0.2175 I0.0168 J-0.0199
X-68.5427 Y11.79 I0.0248 J0.0077
X-68.5923 Y11.7747 I-0.0248 J-0.0077
X-68.5761 Y11.7661 I0.0124 J0.0038
G1 X-68.569 Y11.7683
X-68.5662 Y11.7692 Z-0.2172
X-68.5635 Y11.77 Z-0.2164
X-68.5611 Y11.7708 Z-0.215
X-68.5589 Y11.7714 Z-0.2131
X-68.5571 Y11.772 Z-0.2109
X-68.5558 Y11.7724 Z-0.2083
X-68.555 Y11.7726 Z-0.2055
X-68.5547 Y11.7727 Z-0.2026
G0 Z0.4
X-67.6969 Y11.987
Z0.13
G1 Z0.0649 F40.
G18 G2 X-67.682 Z0.05 I0.0149 K0.
G1 X-67.6745
G17 G3 X-67.6615 Y12. I0. J0.013
X-67.7135 Z0.0323 I-0.026 J0.
X-67.6977 Y11.9761 Z0.0257 I0.026 J0.
X-67.6773 Y12.0239 Z0.008 I0.0102 J0.0239
X-67.6977 Y11.9761 Z-0.0098 I-0.0102 J-0.0239
X-67.6632 Y12.0093 Z-0.023 I0.0102 J0.0239
X-67.7118 Y11.9907 Z-0.0407 I-0.0243 J-0.0093
X-67.6884 Y11.974 Z-0.0473 I0.0243 J0.0093
X-67.6866 Y12.026 Z-0.065 I0.0009 J0.026
X-67.6884 Y11.974 Z-0.0827 I-0.0009 J-0.026
X-67.6682 Y12.0174 Z-0.0959 I0.0009 J0.026
X-67.7068 Y11.9826 Z-0.1136 I-0.0193 J-0.0174
X-67.679 Y11.9754 Z-0.1202 I0.0193 J0.0174
X-67.696 Y12.0246 Z-0.1379 I-0.0085 J0.0246
X-67.7134 Y12.0018 Z-0.1445 I0.0085 J-0.0246
X-67.6616 Y11.9982 Z-0.1623 I0.0259 J-0.0018
X-67.6757 Y12.0232 Z-0.1689 I-0.0259 J0.0018
X-67.6993 Y11.9768 Z-0.1866 I-0.0118 J-0.0232
X-67.6707 Y11.9801 Z-0.1932 I0.0118 J0.0232
X-67.7043 Y12.0199 Z-0.2109 I-0.0168 J0.0199
X-67.7123 Y11.9923 Z-0.2175 I0.0168 J-0.0199
X-67.6627 Y12.0077 I0.0248 J0.0077
X-67.7123 Y11.9923 I-0.0248 J-0.0077
X-67.6961 Y11.9837 I0.0124 J0.0038
G1 X-67.689 Y11.9859
X-67.6862 Y11.9868 Z-0.2172
X-67.6835 Y11.9876 Z-0.2164
X-67.6811 Y11.9884 Z-0.215
X-67.6789 Y11.989 Z-0.2131
X-67.6771 Y11.9896 Z-0.2109
X-67.6758 Y11.99 Z-0.2083
X-67.675 Y11.9902 Z-0.2055
X-67.6747 Y11.9903 Z-0.2026
G0 Z0.4
X-67.6969 Y10.987
Z0.13
G1 Z0.0649 F40.
G18 G2 X-67.682 Z0.05 I0.0149 K0.
G1 X-67.6745
G17 G3 X-67.6615 Y11. I0. J0.013
X-67.7135 Z0.0323 I-0.026 J0.
X-67.6977 Y10.9761 Z0.0257 I0.026 J0.
X-67.6773 Y11.0239 Z0.008 I0.0102 J0.0239
X-67.7056 Y11.0187 Z0.0014 I-0.0102 J-0.0239
X-67.6694 Y10.9813 Z-0.0164 I0.0181 J-0.0187
X-67.6632 Y11.0093 Z-0.023 I-0.0181 J0.0187
X-67.7118 Y10.9907 Z-0.0407 I-0.0243 J-0.0093
X-67.6884 Y10.974 Z-0.0473 I0.0243 J0.0093
X-67.6866 Y11.026 Z-0.065 I0.0009 J0.026
X-67.7111 Y11.011 Z-0.0716 I-0.0009 J-0.026
X-67.6639 Y10.989 Z-0.0893 I0.0236 J-0.011
X-67.6682 Y11.0174 Z-0.0959 I-0.0236 J0.011
X-67.7068 Y10.9826 Z-0.1136 I-0.0193 J-0.0174
X-67.679 Y10.9754 Z-0.1202 I0.0193 J0.0174
X-67.696 Y11.0246 Z-0.1379 I-0.0085 J0.0246
X-67.7134 Y11.0018 Z-0.1445 I0.0085 J-0.0246
X-67.6616 Y10.9982 Z-0.1623 I0.0259 J-0.0018
X-67.6757 Y11.0232 Z-0.1689 I-0.0259 J0.0018
X-67.6993 Y10.9768 Z-0.1866 I-0.0118 J-0.0232
X-67.6707 Y10.9801 Z-0.1932 I0.0118 J0.0232
X-67.7043 Y11.0199 Z-0.2109 I-0.0168 J0.0199
X-67.7123 Y10.9923 Z-0.2175 I0.0168 J-0.0199
X-67.6627 Y11.0077 I0.0248 J0.0077
X-67.7123 Y10.9923 I-0.0248 J-0.0077
X-67.6961 Y10.9837 I0.0124 J0.0038
G1 X-67.689 Y10.9859
X-67.6862 Y10.9868 Z-0.2172
X-67.6835 Y10.9876 Z-0.2164
X-67.6811 Y10.9884 Z-0.215
X-67.6789 Y10.989 Z-0.2131
X-67.6771 Y10.9896 Z-0.2109
X-67.6758 Y10.99 Z-0.2083
X-67.675 Y10.9902 Z-0.2055
X-67.6747 Y10.9903 Z-0.2026
G0 Z0.4
X-68.824 Y9.6652
Z0.1151
G1 Z0.05 F40.
X-68.8215 Y9.6627
G3 X-68.819 Y9.6652 I0. J0.0025
X-68.829 Z0.036 I-0.005 J0.
X-68.8245 Y9.6602 Z0.0294 I0.005 J0.
X-68.8235 Y9.6701 Z0.0154 I0.0005 J0.005
X-68.8289 Y9.6662 Z0.0088 I-0.0005 J-0.005
X-68.8191 Y9.6642 Z-0.0052 I0.0049 J-0.001
X-68.8225 Y9.6699 Z-0.0117 I-0.0049 J0.001
X-68.8255 Y9.6604 Z-0.0257 I-0.0015 J-0.0048
X-68.8194 Y9.6632 Z-0.0323 I0.0015 J0.0048
X-68.8286 Y9.6671 Z-0.0463 I-0.0046 J0.002
X-68.8264 Y9.6608 Z-0.0529 I0.0046 J-0.002
X-68.8216 Y9.6695 Z-0.0669 I0.0024 J0.0044
X-68.8281 Y9.668 Z-0.0735 I-0.0024 J-0.0044
X-68.8199 Y9.6623 Z-0.0875 I0.0041 J-0.0028
X-68.8208 Y9.669 Z-0.094 I-0.0041 J0.0028
X-68.8272 Y9.6614 Z-0.1081 I-0.0032 J-0.0038
X-68.8205 Y9.6616 Z-0.1146 I0.0032 J0.0038
X-68.8275 Y9.6688 Z-0.1286 I-0.0035 J0.0036
X-68.8279 Y9.6621 Z-0.1352 I0.0035 J-0.0036
X-68.8201 Y9.6682 Z-0.1492 I0.0039 J0.0031
X-68.8267 Y9.6694 Z-0.1558 I-0.0039 J-0.0031
X-68.8213 Y9.6609 Z-0.1698 I0.0027 J-0.0042
X-68.8195 Y9.6674 Z-0.1763 I-0.0027 J0.0042
X-68.8285 Y9.6629 Z-0.1904 I-0.0045 J-0.0022
X-68.8222 Y9.6605 Z-0.1969 I0.0045 J0.0022
X-68.8258 Y9.6698 Z-0.2109 I-0.0018 J0.0047
X-68.8288 Y9.6639 Z-0.2175 I0.0018 J-0.0047
X-68.8192 Y9.6664 I0.0048 J0.0013
X-68.8288 Y9.6639 I-0.0048 J-0.0013
X-68.8258 Y9.6621 I0.0024 J0.0006
G1 X-68.824 Y9.6652
G0 Z0.4
X-70.351 Y10.2209
Z0.1151
G1 Z0.05 F40.
X-70.3485 Y10.2184
G3 X-70.346 Y10.2209 I0. J0.0025
X-70.356 Z0.036 I-0.005 J0.
X-70.3515 Y10.216 Z0.0294 I0.005 J0.
X-70.3505 Y10.2259 Z0.0154 I0.0005 J0.005
X-70.3515 Y10.216 Z0.0014 I-0.0005 J-0.005
X-70.3495 Y10.2257 Z-0.0117 I0.0005 J0.005
X-70.3525 Y10.2162 Z-0.0257 I-0.0015 J-0.0048
X-70.3464 Y10.219 Z-0.0323 I0.0015 J0.0048
X-70.3556 Y10.2229 Z-0.0463 I-0.0046 J0.002
X-70.3534 Y10.2166 Z-0.0529 I0.0046 J-0.002
X-70.3486 Y10.2253 Z-0.0669 I0.0024 J0.0044
X-70.3551 Y10.2238 Z-0.0735 I-0.0024 J-0.0044
X-70.3469 Y10.2181 Z-0.0875 I0.0041 J-0.0028
X-70.3478 Y10.2248 Z-0.094 I-0.0041 J0.0028
X-70.3542 Y10.2171 Z-0.1081 I-0.0032 J-0.0038
X-70.3475 Y10.2173 Z-0.1146 I0.0032 J0.0038
X-70.3545 Y10.2246 Z-0.1286 I-0.0035 J0.0036
X-70.3549 Y10.2179 Z-0.1352 I0.0035 J-0.0036
X-70.3471 Y10.224 Z-0.1492 I0.0039 J0.0031
X-70.3537 Y10.2252 Z-0.1558 I-0.0039 J-0.0031
X-70.3483 Y10.2167 Z-0.1698 I0.0027 J-0.0042
X-70.3465 Y10.2232 Z-0.1763 I-0.0027 J0.0042
X-70.3555 Y10.2187 Z-0.1904 I-0.0045 J-0.0022
X-70.3492 Y10.2163 Z-0.1969 I0.0045 J0.0022
X-70.3528 Y10.2256 Z-0.2109 I-0.0018 J0.0047
X-70.3558 Y10.2197 Z-0.2175 I0.0018 J-0.0047
X-70.3462 Y10.2222 I0.0048 J0.0013
X-70.3558 Y10.2197 I-0.0048 J-0.0013
X-70.3528 Y10.2179 I0.0024 J0.0006
G1 X-70.351 Y10.2209
G0 Z0.4
X-71.6343 Y9.487
Z0.13
G1 Z0.0649 F40.
G18 G2 X-71.6195 Z0.05 I0.0149 K0.
G1 X-71.612
G17 G3 X-71.599 Y9.5 I0. J0.013
X-71.651 Z0.0323 I-0.026 J0.
X-71.6352 Y9.4761 Z0.0257 I0.026 J0.
X-71.6148 Y9.5239 Z0.008 I0.0102 J0.0239
X-71.6431 Y9.5187 Z0.0014 I-0.0102 J-0.0239
X-71.6069 Y9.4813 Z-0.0164 I0.0181 J-0.0187
X-71.6007 Y9.5093 Z-0.023 I-0.0181 J0.0187
X-71.6493 Y9.4907 Z-0.0407 I-0.0243 J-0.0093
X-71.6259 Y9.474 Z-0.0473 I0.0243 J0.0093
X-71.6241 Y9.526 Z-0.065 I0.0009 J0.026
X-71.6259 Y9.474 Z-0.0827 I-0.0009 J-0.026
X-71.6241 Y9.526 Z-0.1004 I0.0009 J0.026
X-71.6259 Y9.474 Z-0.1182 I-0.0009 J-0.026
X-71.6241 Y9.526 Z-0.1359 I0.0009 J0.026
X-71.6259 Y9.474 Z-0.1536 I-0.0009 J-0.026
X-71.6132 Y9.5232 Z-0.1689 I0.0009 J0.026
X-71.6368 Y9.4768 Z-0.1866 I-0.0118 J-0.0232
X-71.6082 Y9.4801 Z-0.1932 I0.0118 J0.0232
X-71.6418 Y9.5199 Z-0.2109 I-0.0168 J0.0199
X-71.6498 Y9.4923 Z-0.2175 I0.0168 J-0.0199
X-71.6002 Y9.5077 I0.0248 J0.0077
X-71.6498 Y9.4923 I-0.0248 J-0.0077
X-71.6336 Y9.4837 I0.0124 J0.0038
G1 X-71.6265 Y9.4859
X-71.6237 Y9.4868 Z-0.2172
X-71.621 Y9.4876 Z-0.2164
X-71.6186 Y9.4884 Z-0.215
X-71.6164 Y9.489 Z-0.2131
X-71.6146 Y9.4896 Z-0.2109
X-71.6133 Y9.49 Z-0.2083
X-71.6125 Y9.4902 Z-0.2055
X-71.6122 Y9.4903 Z-0.2026
G0 Z0.4
X-72.6933 Y9.6911
Z0.1151
G1 Z0.05 F40.
X-72.6908 Y9.6886
G3 X-72.6883 Y9.6911 I0. J0.0025
X-72.6983 Z0.036 I-0.005 J0.
X-72.6938 Y9.6861 Z0.0294 I0.005 J0.
X-72.6928 Y9.696 Z0.0154 I0.0005 J0.005
X-72.6982 Y9.6921 Z0.0088 I-0.0005 J-0.005
X-72.6884 Y9.6901 Z-0.0052 I0.0049 J-0.001
X-72.6982 Y9.6921 Z-0.0192 I-0.0049 J0.001
X-72.6887 Y9.6891 Z-0.0323 I0.0049 J-0.001
X-72.6979 Y9.693 Z-0.0463 I-0.0046 J0.002
X-72.6957 Y9.6867 Z-0.0529 I0.0046 J-0.002
X-72.6909 Y9.6954 Z-0.0669 I0.0024 J0.0044
X-72.6974 Y9.6939 Z-0.0735 I-0.0024 J-0.0044
X-72.6892 Y9.6882 Z-0.0875 I0.0041 J-0.0028
X-72.6901 Y9.6949 Z-0.094 I-0.0041 J0.0028
X-72.6965 Y9.6872 Z-0.1081 I-0.0032 J-0.0038
X-72.6898 Y9.6874 Z-0.1146 I0.0032 J0.0038
X-72.6968 Y9.6947 Z-0.1286 I-0.0035 J0.0036
X-72.6972 Y9.688 Z-0.1352 I0.0035 J-0.0036
X-72.6894 Y9.6941 Z-0.1492 I0.0039 J0.0031
X-72.696 Y9.6953 Z-0.1558 I-0.0039 J-0.0031
X-72.6906 Y9.6868 Z-0.1698 I0.0027 J-0.0042
X-72.696 Y9.6953 Z-0.1838 I-0.0027 J0.0042
X-72.6915 Y9.6864 Z-0.1969 I0.0027 J-0.0042
X-72.6951 Y9.6957 Z-0.2109 I-0.0018 J0.0047
X-72.6981 Y9.6898 Z-0.2175 I0.0018 J-0.0047
X-72.6885 Y9.6923 I0.0048 J0.0013
X-72.6981 Y9.6898 I-0.0048 J-0.0013
X-72.6951 Y9.688 I0.0024 J0.0006
G1 X-72.6933 Y9.6911
G0 Z0.4
X-74.2936 Y9.4089
Z0.1151
G1 Z0.05 F40.
X-74.2911 Y9.4064
G3 X-74.2886 Y9.4089 I0. J0.0025
X-74.2986 Z0.036 I-0.005 J0.
X-74.2941 Y9.4039 Z0.0294 I0.005 J0.
X-74.2931 Y9.4138 Z0.0154 I0.0005 J0.005
X-74.2985 Y9.4099 Z0.0088 I-0.0005 J-0.005
X-74.2887 Y9.4079 Z-0.0052 I0.0049 J-0.001
X-74.2921 Y9.4136 Z-0.0117 I-0.0049 J0.001
X-74.2951 Y9.4041 Z-0.0257 I-0.0015 J-0.0048
X-74.289 Y9.4069 Z-0.0323 I0.0015 J0.0048
X-74.2982 Y9.4108 Z-0.0463 I-0.0046 J0.002
X-74.296 Y9.4045 Z-0.0529 I0.0046 J-0.002
X-74.2912 Y9.4133 Z-0.0669 I0.0024 J0.0044
X-74.2977 Y9.4117 Z-0.0735 I-0.0024 J-0.0044
X-74.2895 Y9.406 Z-0.0875 I0.0041 J-0.0028
X-74.2904 Y9.4127 Z-0.094 I-0.0041 J0.0028
X-74.2969 Y9.4051 Z-0.1081 I-0.0032 J-0.0038
X-74.2902 Y9.4053 Z-0.1146 I0.0032 J0.0038
X-74.2971 Y9.4125 Z-0.1286 I-0.0035 J0.0036
X-74.2976 Y9.4058 Z-0.1352 I0.0035 J-0.0036
X-74.2897 Y9.412 Z-0.1492 I0.0039 J0.0031
X-74.2963 Y9.4131 Z-0.1558 I-0.0039 J-0.0031
X-74.291 Y9.4046 Z-0.1698 I0.0027 J-0.0042
X-74.2963 Y9.4131 Z-0.1838 I-0.0027 J0.0042
X-74.2919 Y9.4042 Z-0.1969 I0.0027 J-0.0042
X-74.2954 Y9.4136 Z-0.2109 I-0.0018 J0.0047
X-74.2984 Y9.4076 Z-0.2175 I0.0018 J-0.0047
X-74.2888 Y9.4102 I0.0048 J0.0013
X-74.2984 Y9.4076 I-0.0048 J-0.0013
X-74.2954 Y9.4058 I0.0024 J0.0006
G1 X-74.2936 Y9.4089
G0 Z0.4
X-74.6969 Y10.987
Z0.13
G1 Z0.0649 F40.
G18 G2 X-74.6819 Z0.05 I0.0149 K0.
G1 X-74.6745
G17 G3 X-74.6615 Y11. I0. J0.013
X-74.7135 Z0.0323 I-0.026 J0.
X-74.6977 Y10.9761 Z0.0257 I0.026 J0.
X-74.6773 Y11.0239 Z0.008 I0.0102 J0.0239
X-74.7056 Y11.0187 Z0.0014 I-0.0102 J-0.0239
X-74.6694 Y10.9813 Z-0.0164 I0.0181 J-0.0187
X-74.7056 Y11.0187 Z-0.0341 I-0.0181 J0.0187
X-74.6694 Y10.9813 Z-0.0518 I0.0181 J-0.0187
X-74.7056 Y11.0187 Z-0.0695 I-0.0181 J0.0187
X-74.7111 Y11.011 Z-0.0716 I0.0181 J-0.0187
X-74.6639 Y10.989 Z-0.0893 I0.0236 J-0.011
X-74.6682 Y11.0174 Z-0.0959 I-0.0236 J0.011
X-74.7068 Y10.9826 Z-0.1136 I-0.0193 J-0.0174
X-74.6682 Y11.0174 Z-0.1314 I0.0193 J0.0174
X-74.7068 Y10.9826 Z-0.1491 I-0.0193 J-0.0174
X-74.6682 Y11.0174 Z-0.1668 I0.0193 J0.0174
X-74.7068 Y10.9826 Z-0.1845 I-0.0193 J-0.0174
X-74.6682 Y11.0174 Z-0.2022 I0.0193 J0.0174
X-74.7123 Y10.9923 Z-0.2175 I-0.0193 J-0.0174
X-74.6627 Y11.0077 I0.0248 J0.0077
X-74.7123 Y10.9923 I-0.0248 J-0.0077
X-74.6961 Y10.9837 I0.0124 J0.0038
G1 X-74.689 Y10.9859
X-74.6862 Y10.9868 Z-0.2172
X-74.6835 Y10.9876 Z-0.2164
X-74.6811 Y10.9884 Z-0.215
X-74.6789 Y10.989 Z-0.2131
X-74.6771 Y10.9896 Z-0.2109
X-74.6758 Y10.99 Z-0.2083
X-74.675 Y10.9902 Z-0.2055
X-74.6747 Y10.9903 Z-0.2026
G0 Z0.4
X-74.8199 Y11.987
Z0.13
G1 Z0.0649 F40.
G18 G2 X-74.805 Z0.05 I0.0149 K0.
G1 X-74.7975
G17 G3 X-74.7845 Y12. I0. J0.013
X-74.8365 Z0.0323 I-0.026 J0.
X-74.8207 Y11.9761 Z0.0257 I0.026 J0.
X-74.8004 Y12.0239 Z0.008 I0.0102 J0.0239
X-74.8286 Y12.0187 Z0.0014 I-0.0101 J-0.0239
X-74.7925 Y11.9813 Z-0.0164 I0.0181 J-0.0187
X-74.7863 Y12.0093 Z-0.023 I-0.0181 J0.0187
X-74.8348 Y11.9907 Z-0.0407 I-0.0243 J-0.0093
X-74.8114 Y11.974 Z-0.0473 I0.0243 J0.0093
X-74.8096 Y12.026 Z-0.065 I0.0009 J0.026
X-74.8341 Y12.011 Z-0.0716 I-0.0009 J-0.026
X-74.787 Y11.989 Z-0.0893 I0.0236 J-0.011
X-74.8341 Y12.011 Z-0.107 I-0.0236 J0.011
X-74.802 Y11.9754 Z-0.1202 I0.0236 J-0.011
X-74.819 Y12.0246 Z-0.1379 I-0.0085 J0.0246
X-74.802 Y11.9754 Z-0.1557 I0.0085 J-0.0246
X-74.7988 Y12.0232 Z-0.1689 I-0.0085 J0.0246
X-74.8223 Y11.9768 Z-0.1866 I-0.0118 J-0.0232
X-74.7938 Y11.9801 Z-0.1932 I0.0118 J0.0232
X-74.8273 Y12.0199 Z-0.2109 I-0.0168 J0.0199
X-74.8354 Y11.9923 Z-0.2175 I0.0168 J-0.0199
X-74.7857 Y12.0077 I0.0248 J0.0077
X-74.8354 Y11.9923 I-0.0248 J-0.0077
X-74.8191 Y11.9837 I0.0124 J0.0038
G1 X-74.812 Y11.9859
X-74.8092 Y11.9868 Z-0.2172
X-74.8066 Y11.9876 Z-0.2164
X-74.8041 Y11.9884 Z-0.215
X-74.8019 Y11.989 Z-0.2131
X-74.8002 Y11.9896 Z-0.2109
X-74.7988 Y11.99 Z-0.2083
X-74.798 Y11.9902 Z-0.2055
X-74.7978 Y11.9903 Z-0.2026
G0 Z0.4
X-73.8572 Y14.6575
Z0.13
G1 Z0.0649 F40.
G18 G2 X-73.8423 Z0.05 I0.0149 K0.
G1 X-73.8348
G17 G3 X-73.8218 Y14.6705 I0. J0.013
X-73.8738 Z0.0323 I-0.026 J0.
X-73.858 Y14.6466 Z0.0257 I0.026 J0.
X-73.8377 Y14.6944 Z0.008 I0.0102 J0.0239
X-73.8659 Y14.6892 Z0.0014 I-0.0102 J-0.0239
X-73.8297 Y14.6518 Z-0.0164 I0.0181 J-0.0187
X-73.8235 Y14.6798 Z-0.023 I-0.0181 J0.0187
X-73.8721 Y14.6612 Z-0.0407 I-0.0243 J-0.0093
X-73.8487 Y14.6445 Z-0.0473 I0.0243 J0.0093
X-73.8469 Y14.6965 Z-0.065 I0.0009 J0.026
X-73.8487 Y14.6445 Z-0.0827 I-0.0009 J-0.026
X-73.8469 Y14.6965 Z-0.1004 I0.0009 J0.026
X-73.8487 Y14.6445 Z-0.1182 I-0.0009 J-0.026
X-73.8469 Y14.6965 Z-0.1359 I0.0009 J0.026
X-73.8487 Y14.6445 Z-0.1536 I-0.0009 J-0.026
X-73.8361 Y14.6937 Z-0.1689 I0.0009 J0.026
X-73.8596 Y14.6473 Z-0.1866 I-0.0118 J-0.0232
X-73.8311 Y14.6506 Z-0.1932 I0.0118 J0.0232
X-73.8646 Y14.6904 Z-0.2109 I-0.0168 J0.0199
X-73.8727 Y14.6629 Z-0.2175 I0.0168 J-0.0199
X-73.823 Y14.6782 I0.0248 J0.0077
X-73.8727 Y14.6629 I-0.0248 J-0.0077
X-73.8564 Y14.6543 I0.0124 J0.0038
G1 X-73.8493 Y14.6565
X-73.8465 Y14.6573 Z-0.2172
X-73.8438 Y14.6581 Z-0.2164
X-73.8414 Y14.6589 Z-0.215
X-73.8392 Y14.6596 Z-0.2131
X-73.8375 Y14.6601 Z-0.2109
X-73.8361 Y14.6605 Z-0.2083
X-73.8353 Y14.6608 Z-0.2055
X-73.8351 Z-0.2026
G0 Z0.4
X-75.0059 Y7.6597
Z0.13
G1 Z0.0649 F40.
G18 G2 X-74.991 Z0.05 I0.0149 K0.
G1 X-74.9835
G17 G3 X-74.9705 Y7.6727 I0. J0.013
X-75.0225 Z0.0323 I-0.026 J0.
X-75.0067 Y7.6487 Z0.0257 I0.026 J0.
X-74.9864 Y7.6966 Z0.008 I0.0102 J0.0239
X-75.0067 Y7.6487 Z-0.0098 I-0.0102 J-0.0239
X-74.9864 Y7.6966 Z-0.0275 I0.0102 J0.0239
X-75.0067 Y7.6487 Z-0.0452 I-0.0102 J-0.0239
X-74.9864 Y7.6966 Z-0.0629 I0.0102 J0.0239
X-75.0067 Y7.6487 Z-0.0806 I-0.0102 J-0.0239
X-74.9772 Y7.6901 Z-0.0959 I0.0102 J0.0239
X-75.0158 Y7.6552 Z-0.1136 I-0.0193 J-0.0174
X-74.988 Y7.6481 Z-0.1202 I0.0193 J0.0174
X-75.005 Y7.6972 Z-0.1379 I-0.0085 J0.0246
X-75.0225 Y7.6744 Z-0.1445 I0.0085 J-0.0246
X-74.9706 Y7.6709 Z-0.1623 I0.0259 J-0.0018
X-74.9848 Y7.6959 Z-0.1689 I-0.0259 J0.0018
X-75.0083 Y7.6495 Z-0.1866 I-0.0118 J-0.0232
X-74.9798 Y7.6528 Z-0.1932 I0.0118 J0.0232
X-75.0133 Y7.6925 Z-0.2109 I-0.0168 J0.0199
X-75.0214 Y7.665 Z-0.2175 I0.0168 J-0.0199
X-74.9717 Y7.6803 I0.0248 J0.0077
X-75.0214 Y7.665 I-0.0248 J-0.0077
X-75.0051 Y7.6564 I0.0124 J0.0038
G1 X-74.998 Y7.6586
X-74.9952 Y7.6595 Z-0.2172
X-74.9926 Y7.6603 Z-0.2164
X-74.9901 Y7.661 Z-0.215
X-74.9879 Y7.6617 Z-0.2131
X-74.9862 Y7.6623 Z-0.2109
X-74.9848 Y7.6627 Z-0.2083
X-74.984 Y7.6629 Z-0.2055
X-74.9838 Y7.663 Z-0.2026
G0 Z0.4
X-74.9878 Y7.187
Z0.13
G1 Z0.0649 F40.
G18 G2 X-74.9729 Z0.05 I0.0149 K0.
G1 X-74.9654
G17 G3 X-74.9524 Y7.2 I0. J0.013
X-75.0044 Z0.0323 I-0.026 J0.
X-74.9886 Y7.1761 Z0.0257 I0.026 J0.
X-74.9683 Y7.2239 Z0.008 I0.0102 J0.0239
X-74.9965 Y7.2187 Z0.0014 I-0.0102 J-0.0239
X-74.9604 Y7.1813 Z-0.0164 I0.0181 J-0.0187
X-74.9542 Y7.2093 Z-0.023 I-0.0181 J0.0187
X-75.0027 Y7.1907 Z-0.0407 I-0.0243 J-0.0093
X-74.9793 Y7.174 Z-0.0473 I0.0243 J0.0093
X-74.9776 Y7.226 Z-0.065 I0.0009 J0.026
X-74.9793 Y7.174 Z-0.0827 I-0.0009 J-0.026
X-74.9776 Y7.226 Z-0.1004 I0.0009 J0.026
X-74.9793 Y7.174 Z-0.1182 I-0.0009 J-0.026
X-74.9776 Y7.226 Z-0.1359 I0.0009 J0.026
X-74.9793 Y7.174 Z-0.1536 I-0.0009 J-0.026
X-74.9667 Y7.2232 Z-0.1689 I0.0009 J0.026
X-74.9902 Y7.1768 Z-0.1866 I-0.0118 J-0.0232
X-74.9617 Y7.1801 Z-0.1932 I0.0118 J0.0232
X-74.9952 Y7.2199 Z-0.2109 I-0.0168 J0.0199
X-75.0033 Y7.1923 Z-0.2175 I0.0168 J-0.0199
X-74.9536 Y7.2077 I0.0248 J0.0077
X-75.0033 Y7.1923 I-0.0248 J-0.0077
X-74.987 Y7.1837 I0.0124 J0.0038
G1 X-74.9799 Y7.1859
X-74.9771 Y7.1868 Z-0.2172
X-74.9745 Y7.1876 Z-0.2164
X-74.972 Y7.1884 Z-0.215
X-74.9698 Y7.189 Z-0.2131
X-74.9681 Y7.1896 Z-0.2109
X-74.9668 Y7.19 Z-0.2083
X-74.9659 Y7.1902 Z-0.2055
X-74.9657 Y7.1903 Z-0.2026
G0 Z0.4
X-71.3173 Y5.4355
Z0.13
G1 Z0.0649 F40.
G18 G3 X-71.3322 Z0.05 I-0.0149 K0.
G1 X-71.3397
G17 G3 X-71.3527 Y5.4225 I0. J-0.013
X-71.3007 Z0.0323 I0.026 J0.
X-71.3165 Y5.4464 Z0.0257 I-0.026 J0.
X-71.3368 Y5.3986 Z0.008 I-0.0102 J-0.0239
X-71.3086 Y5.4038 Z0.0014 I0.0102 J0.0239
X-71.3447 Y5.4412 Z-0.0164 I-0.0181 J0.0187
X-71.3086 Y5.4038 Z-0.0341 I0.0181 J-0.0187
X-71.3447 Y5.4412 Z-0.0518 I-0.0181 J0.0187
X-71.3086 Y5.4038 Z-0.0695 I0.0181 J-0.0187
X-71.3031 Y5.4115 Z-0.0716 I-0.0181 J0.0187
X-71.3502 Y5.4335 Z-0.0893 I-0.0236 J0.011
X-71.346 Y5.4051 Z-0.0959 I0.0236 J-0.011
X-71.3074 Y5.4399 Z-0.1136 I0.0193 J0.0174
X-71.346 Y5.4051 Z-0.1314 I-0.0193 J-0.0174
X-71.3074 Y5.4399 Z-0.1491 I0.0193 J0.0174
X-71.346 Y5.4051 Z-0.1668 I-0.0193 J-0.0174
X-71.3074 Y5.4399 Z-0.1845 I0.0193 J0.0174
X-71.3434 Y5.4424 Z-0.1932 I-0.0193 J-0.0174
X-71.3099 Y5.4026 Z-0.2109 I0.0168 J-0.0199
X-71.3018 Y5.4302 Z-0.2175 I-0.0168 J0.0199
X-71.3515 Y5.4148 I-0.0248 J-0.0077
X-71.3018 Y5.4302 I0.0248 J0.0077
X-71.3181 Y5.4388 I-0.0124 J-0.0038
G1 X-71.3252 Y5.4366
X-71.328 Y5.4357 Z-0.2172
X-71.3306 Y5.4349 Z-0.2164
X-71.3331 Y5.4341 Z-0.215
X-71.3353 Y5.4335 Z-0.2131
X-71.337 Y5.4329 Z-0.2109
X-71.3383 Y5.4325 Z-0.2083
X-71.3392 Y5.4323 Z-0.2055
X-71.3394 Y5.4322 Z-0.2026
G0 Z0.4
X-70.337 Y4.4847
Z0.13
G1 Z0.0649 F40.
G18 G3 X-70.3519 Z0.05 I-0.0149 K0.
G1 X-70.3593
G17 G3 X-70.3723 Y4.4717 I0. J-0.013
X-70.3203 Z0.0323 I0.026 J0.
X-70.3362 Y4.4956 Z0.0257 I-0.026 J0.
X-70.3565 Y4.4477 Z0.008 I-0.0102 J-0.0239
X-70.3362 Y4.4956 Z-0.0098 I0.0102 J0.0239
X-70.3565 Y4.4477 Z-0.0275 I-0.0102 J-0.0239
X-70.3362 Y4.4956 Z-0.0452 I0.0102 J0.0239
X-70.3565 Y4.4477 Z-0.0629 I-0.0102 J-0.0239
X-70.3362 Y4.4956 Z-0.0806 I0.0102 J0.0239
X-70.3656 Y4.4542 Z-0.0959 I-0.0102 J-0.0239
X-70.327 Y4.4891 Z-0.1136 I0.0193 J0.0174
X-70.3548 Y4.4962 Z-0.1202 I-0.0193 J-0.0174
X-70.3378 Y4.4471 Z-0.1379 I0.0085 J-0.0246
X-70.3204 Y4.4699 Z-0.1445 I-0.0085 J0.0246
X-70.3723 Y4.4734 Z-0.1623 I-0.0259 J0.0018
X-70.3581 Y4.4485 Z-0.1689 I0.0259 J-0.0018
X-70.3346 Y4.4948 Z-0.1866 I0.0118 J0.0232
X-70.3631 Y4.4915 Z-0.1932 I-0.0118 J-0.0232
X-70.3296 Y4.4518 Z-0.2109 I0.0168 J-0.0199
X-70.3215 Y4.4793 Z-0.2175 I-0.0168 J0.0199
X-70.3712 Y4.464 I-0.0248 J-0.0077
X-70.3215 Y4.4793 I0.0248 J0.0077
X-70.3378 Y4.4879 I-0.0124 J-0.0038
G1 X-70.3449 Y4.4857
X-70.3476 Y4.4849 Z-0.2172
X-70.3503 Y4.484 Z-0.2164
X-70.3528 Y4.4833 Z-0.215
X-70.3549 Y4.4826 Z-0.2131
X-70.3567 Y4.4821 Z-0.2109
X-70.358 Y4.4817 Z-0.2083
X-70.3588 Y4.4814 Z-0.2055
X-70.3591 Y4.4813 Z-0.2026
G0 Z0.4
X-70.3843 Y3.112
Z0.13
G1 Z0.0649 F40.
G18 G2 X-70.3695 Z0.05 I0.0149 K0.
G1 X-70.362
G17 G3 X-70.349 Y3.125 I0. J0.013
X-70.401 Z0.0323 I-0.026 J0.
X-70.3852 Y3.1011 Z0.0257 I0.026 J0.
X-70.3648 Y3.1489 Z0.008 I0.0102 J0.0239
X-70.3931 Y3.1437 Z0.0014 I-0.0102 J-0.0239
X-70.3569 Y3.1063 Z-0.0164 I0.0181 J-0.0187
X-70.3507 Y3.1343 Z-0.023 I-0.0181 J0.0187
X-70.3993 Y3.1157 Z-0.0407 I-0.0243 J-0.0093
X-70.3759 Y3.099 Z-0.0473 I0.0243 J0.0093
X-70.3741 Y3.151 Z-0.065 I0.0009 J0.026
X-70.3986 Y3.136 Z-0.0716 I-0.0009 J-0.026
X-70.3514 Y3.114 Z-0.0893 I0.0236 J-0.011
X-70.3986 Y3.136 Z-0.107 I-0.0236 J0.011
X-70.3514 Y3.114 Z-0.1248 I0.0236 J-0.011
X-70.3986 Y3.136 Z-0.1425 I-0.0236 J0.011
X-70.3514 Y3.114 Z-0.1602 I0.0236 J-0.011
X-70.3632 Y3.1482 Z-0.1689 I-0.0236 J0.011
X-70.3868 Y3.1018 Z-0.1866 I-0.0118 J-0.0232
X-70.3582 Y3.1051 Z-0.1932 I0.0118 J0.0232
X-70.3918 Y3.1449 Z-0.2109 I-0.0168 J0.0199
X-70.3998 Y3.1173 Z-0.2175 I0.0168 J-0.0199
X-70.3502 Y3.1327 I0.0248 J0.0077
X-70.3998 Y3.1173 I-0.0248 J-0.0077
X-70.3836 Y3.1087 I0.0124 J0.0038
G1 X-70.3765 Y3.1109
X-70.3737 Y3.1118 Z-0.2172
X-70.371 Y3.1126 Z-0.2164
X-70.3686 Y3.1134 Z-0.215
X-70.3664 Y3.114 Z-0.2131
X-70.3646 Y3.1146 Z-0.2109
X-70.3633 Y3.115 Z-0.2083
X-70.3625 Y3.1152 Z-0.2055
X-70.3622 Y3.1153 Z-0.2026
G0 Z0.4
X-70.3843 Y1.862
Z0.13
G1 Z0.0649 F40.
G18 G2 X-70.3695 Z0.05 I0.0149 K0.
G1 X-70.362
G17 G3 X-70.349 Y1.875 I0. J0.013
X-70.401 Z0.0323 I-0.026 J0.
X-70.3852 Y1.8511 Z0.0257 I0.026 J0.
X-70.3648 Y1.8989 Z0.008 I0.0102 J0.0239
X-70.3931 Y1.8937 Z0.0014 I-0.0102 J-0.0239
X-70.3569 Y1.8563 Z-0.0164 I0.0181 J-0.0187
X-70.3507 Y1.8843 Z-0.023 I-0.0181 J0.0187
X-70.3993 Y1.8657 Z-0.0407 I-0.0243 J-0.0093
X-70.3759 Y1.849 Z-0.0473 I0.0243 J0.0093
X-70.3741 Y1.901 Z-0.065 I0.0009 J0.026
X-70.3986 Y1.886 Z-0.0716 I-0.0009 J-0.026
X-70.3514 Y1.864 Z-0.0893 I0.0236 J-0.011
X-70.3986 Y1.886 Z-0.107 I-0.0236 J0.011
X-70.3514 Y1.864 Z-0.1248 I0.0236 J-0.011
X-70.3986 Y1.886 Z-0.1425 I-0.0236 J0.011
X-70.3514 Y1.864 Z-0.1602 I0.0236 J-0.011
X-70.3632 Y1.8982 Z-0.1689 I-0.0236 J0.011
X-70.3868 Y1.8518 Z-0.1866 I-0.0118 J-0.0232
X-70.3582 Y1.8551 Z-0.1932 I0.0118 J0.0232
X-70.3918 Y1.8949 Z-0.2109 I-0.0168 J0.0199
X-70.3998 Y1.8673 Z-0.2175 I0.0168 J-0.0199
X-70.3502 Y1.8827 I0.0248 J0.0077
X-70.3998 Y1.8673 I-0.0248 J-0.0077
X-70.3836 Y1.8587 I0.0124 J0.0038
G1 X-70.3765 Y1.8609
X-70.3737 Y1.8618 Z-0.2172
X-70.371 Y1.8626 Z-0.2164
X-70.3686 Y1.8634 Z-0.215
X-70.3664 Y1.864 Z-0.2131
X-70.3646 Y1.8646 Z-0.2109
X-70.3633 Y1.865 Z-0.2083
X-70.3625 Y1.8652 Z-0.2055
X-70.3622 Y1.8653 Z-0.2026
G0 Z0.4
X-68.8843 Y1.862
Z0.13
G1 Z0.0649 F40.
G18 G2 X-68.8695 Z0.05 I0.0149 K0.
G1 X-68.862
G17 G3 X-68.849 Y1.875 I0. J0.013
X-68.901 Z0.0323 I-0.026 J0.
X-68.8852 Y1.8511 Z0.0257 I0.026 J0.
X-68.8649 Y1.8989 Z0.008 I0.0102 J0.0239
X-68.8931 Y1.8937 Z0.0014 I-0.0101 J-0.0239
X-68.8569 Y1.8563 Z-0.0164 I0.0181 J-0.0187
X-68.8931 Y1.8937 Z-0.0341 I-0.0181 J0.0187
X-68.8759 Y1.849 Z-0.0473 I0.0181 J-0.0187
X-68.8741 Y1.901 Z-0.065 I0.0009 J0.026
X-68.8986 Y1.886 Z-0.0716 I-0.0009 J-0.026
X-68.8514 Y1.864 Z-0.0893 I0.0236 J-0.011
X-68.8986 Y1.886 Z-0.107 I-0.0236 J0.011
X-68.8514 Y1.864 Z-0.1248 I0.0236 J-0.011
X-68.8986 Y1.886 Z-0.1425 I-0.0236 J0.011
X-68.8514 Y1.864 Z-0.1602 I0.0236 J-0.011
X-68.8632 Y1.8982 Z-0.1689 I-0.0236 J0.011
X-68.8868 Y1.8518 Z-0.1866 I-0.0118 J-0.0232
X-68.8582 Y1.8551 Z-0.1932 I0.0118 J0.0232
X-68.8918 Y1.8949 Z-0.2109 I-0.0168 J0.0199
X-68.8998 Y1.8673 Z-0.2175 I0.0168 J-0.0199
X-68.8502 Y1.8827 I0.0248 J0.0077
X-68.8998 Y1.8673 I-0.0248 J-0.0077
X-68.8836 Y1.8587 I0.0124 J0.0038
G1 X-68.8765 Y1.8609
X-68.8737 Y1.8618 Z-0.2172
X-68.871 Y1.8626 Z-0.2164
X-68.8686 Y1.8634 Z-0.215
X-68.8664 Y1.864 Z-0.2131
X-68.8646 Y1.8646 Z-0.2109
X-68.8633 Y1.865 Z-0.2083
X-68.8625 Y1.8652 Z-0.2055
X-68.8622 Y1.8653 Z-0.2026
G0 Z0.4
X-68.8843 Y3.112
Z0.13
G1 Z0.0649 F40.
G18 G2 X-68.8695 Z0.05 I0.0149 K0.
G1 X-68.862
G17 G3 X-68.849 Y3.125 I0. J0.013
X-68.901 Z0.0323 I-0.026 J0.
X-68.8852 Y3.1011 Z0.0257 I0.026 J0.
X-68.8649 Y3.1489 Z0.008 I0.0102 J0.0239
X-68.8931 Y3.1437 Z0.0014 I-0.0101 J-0.0239
X-68.8569 Y3.1063 Z-0.0164 I0.0181 J-0.0187
X-68.8931 Y3.1437 Z-0.0341 I-0.0181 J0.0187
X-68.8759 Y3.099 Z-0.0473 I0.0181 J-0.0187
X-68.8741 Y3.151 Z-0.065 I0.0009 J0.026
X-68.8986 Y3.136 Z-0.0716 I-0.0009 J-0.026
X-68.8514 Y3.114 Z-0.0893 I0.0236 J-0.011
X-68.8986 Y3.136 Z-0.107 I-0.0236 J0.011
X-68.8514 Y3.114 Z-0.1248 I0.0236 J-0.011
X-68.8986 Y3.136 Z-0.1425 I-0.0236 J0.011
X-68.8514 Y3.114 Z-0.1602 I0.0236 J-0.011
X-68.8632 Y3.1482 Z-0.1689 I-0.0236 J0.011
X-68.8868 Y3.1018 Z-0.1866 I-0.0118 J-0.0232
X-68.8582 Y3.1051 Z-0.1932 I0.0118 J0.0232
X-68.8918 Y3.1449 Z-0.2109 I-0.0168 J0.0199
X-68.8998 Y3.1173 Z-0.2175 I0.0168 J-0.0199
X-68.8502 Y3.1327 I0.0248 J0.0077
X-68.8998 Y3.1173 I-0.0248 J-0.0077
X-68.8836 Y3.1087 I0.0124 J0.0038
G1 X-68.8765 Y3.1109
X-68.8737 Y3.1118 Z-0.2172
X-68.871 Y3.1126 Z-0.2164
X-68.8686 Y3.1134 Z-0.215
X-68.8664 Y3.114 Z-0.2131
X-68.8646 Y3.1146 Z-0.2109
X-68.8633 Y3.115 Z-0.2083
X-68.8625 Y3.1152 Z-0.2055
X-68.8622 Y3.1153 Z-0.2026
G0 Z0.4
X-68.3813 Y4.9033
Z0.13
G1 Z0.0649 F40.
G18 G3 X-68.3962 Z0.05 I-0.0149 K0.
G1 X-68.4037
G17 G3 X-68.4167 Y4.8903 I0. J-0.013
X-68.3647 Z0.0323 I0.026 J0.
X-68.3805 Y4.9143 Z0.0257 I-0.026 J0.
X-68.4008 Y4.8664 Z0.008 I-0.0102 J-0.0239
X-68.3726 Y4.8717 Z0.0014 I0.0101 J0.0239
X-68.4087 Y4.909 Z-0.0164 I-0.0181 J0.0187
X-68.3726 Y4.8716 Z-0.0341 I0.0181 J-0.0187
X-68.3898 Y4.9163 Z-0.0473 I-0.0181 J0.0187
X-68.3915 Y4.8644 Z-0.065 I-0.0009 J-0.026
X-68.3898 Y4.9163 Z-0.0827 I0.0009 J0.026
X-68.3915 Y4.8644 Z-0.1004 I-0.0009 J-0.026
X-68.3898 Y4.9163 Z-0.1182 I0.0009 J0.026
X-68.3915 Y4.8644 Z-0.1359 I-0.0009 J-0.026
X-68.3898 Y4.9163 Z-0.1536 I0.0009 J0.026
X-68.4024 Y4.8672 Z-0.1689 I-0.0009 J-0.026
X-68.3789 Y4.9135 Z-0.1866 I0.0118 J0.0232
X-68.4074 Y4.9102 Z-0.1932 I-0.0118 J-0.0232
X-68.3739 Y4.8705 Z-0.2109 I0.0168 J-0.0199
X-68.3658 Y4.898 Z-0.2175 I-0.0168 J0.0199
X-68.4155 Y4.8827 I-0.0248 J-0.0077
X-68.3658 Y4.898 I0.0248 J0.0077
X-68.3821 Y4.9066 I-0.0124 J-0.0038
G1 X-68.3892 Y4.9044
X-68.392 Y4.9035 Z-0.2172
X-68.3946 Y4.9027 Z-0.2164
X-68.3971 Y4.902 Z-0.215
X-68.3993 Y4.9013 Z-0.2131
X-68.401 Y4.9008 Z-0.2109
X-68.4023 Y4.9003 Z-0.2083
X-68.4032 Y4.9001 Z-0.2055
X-68.4034 Y4.9 Z-0.2026
G0 Z0.6
(.3 CIRCULAR THROUGH HOLE)
M7
G0 X-73.4398 Y9.5067
Z0.6
Z0.2
G1 Z0.1144 F13.333
G3 X-73.4385 Y9.5063 Z0.1081 I0.0124 J0.0433 F55.
X-73.4346 Y9.5055 Z0.103 I0.0111 J0.0436
X-73.4289 Y9.505 Z0.1 I0.0072 J0.0444
X-73.4004 Y9.514 Z0.0918 I0.0015 J0.045
X-73.4544 Y9.586 Z0.054 I-0.027 J0.036
X-73.4004 Y9.514 Z0.0161 I0.027 J-0.036
X-73.4544 Y9.586 Z-0.0218 I-0.027 J0.036
X-73.4004 Y9.514 Z-0.0597 I0.027 J-0.036
X-73.4544 Y9.586 Z-0.0976 I-0.027 J0.036
X-73.4724 Y9.55 Z-0.1087 I0.027 J-0.036
X-73.4146 I0.0289 J0. F60.
X-73.5724 I-0.0789 J0.
X-73.3146 I0.1289 J0.
X-73.6724 I-0.1789 J0.
X-73.2146 I0.2289 J0.
X-73.7724 I-0.2789 J0.
X-73.1146 I0.3289 J0.
X-73.8724 I-0.3789 J0.
X-73.1146 I0.3789 J0.
G2 X-73.0712 Y9.6195 I0.0774 J0.
G3 X-73.039 Y9.6949 I-0.0276 J0.0563
X-73.9706 Y9.55 I-0.4545 J-0.1452
X-73.0164 I0.4771 J0.0002
X-73.039 Y9.6949 I-0.4771 J-0.0002
X-73.0495 Y9.6993 I-0.0071 J-0.0023
G1 X-73.0995 Y9.674
X-73.3861 Y9.5677
G3 X-73.4004 Y9.586 Z-0.115 I-0.0414 J-0.0178 F55.
X-73.4544 Y9.514 Z-0.1529 I-0.027 J-0.036
X-73.4004 Y9.586 Z-0.1908 I0.027 J0.036
X-73.4724 Y9.55 Z-0.2175 I-0.027 J-0.036
X-73.4146 I0.0289 J0. F60.
X-73.5724 I-0.0789 J0.
X-73.3146 I0.1289 J0.
X-73.6724 I-0.1789 J0.
X-73.2146 I0.2289 J0.
X-73.7724 I-0.2789 J0.
X-73.1146 I0.3289 J0.
X-73.8724 I-0.3789 J0.
X-73.1146 I0.3789 J0.
G2 X-73.0712 Y9.6195 I0.0774 J0.
G3 X-73.039 Y9.6949 I-0.0276 J0.0563
X-73.9706 Y9.55 I-0.4545 J-0.1452
X-73.0164 I0.4771 J0.0002
X-73.039 Y9.6949 I-0.4771 J-0.0002
G2 X-73.0366 Y9.7035 I0.0077 J0.0025
G3 X-73.0343 Y9.7122 I-0.0052 J0.006
X-73.9806 Y9.55 I-0.4592 J-0.1624
X-73.0064 I0.4871 J0.0002
X-73.0343 Y9.7122 I-0.4871 J-0.0002
X-73.0371 Y9.7171 Z-0.2164 I-0.014 J-0.005
X-73.0409 Y9.7201 Z-0.2131 I-0.0112 J-0.0099
X-73.0438 Y9.7214 Z-0.2083 I-0.0075 J-0.0129
X-73.0449 Y9.7217 Z-0.2026 I-0.0045 J-0.0142
G0 Z0.4
X-73.4506 Y7.4567
Z0.2
G1 Z0.1144 F13.333
G3 X-73.4493 Y7.4564 Z0.1081 I0.0124 J0.0433 F55.
X-73.4454 Y7.4556 Z0.103 I0.0111 J0.0436
X-73.4397 Y7.455 Z0.1 I0.0072 J0.0444
X-73.4112 Y7.464 Z0.0918 I0.0015 J0.045
X-73.4652 Y7.536 Z0.054 I-0.027 J0.036
X-73.4112 Y7.464 Z0.0161 I0.027 J-0.036
X-73.4652 Y7.536 Z-0.0218 I-0.027 J0.036
X-73.4112 Y7.464 Z-0.0597 I0.027 J-0.036
X-73.4652 Y7.536 Z-0.0976 I-0.027 J0.036
X-73.4832 Y7.5 Z-0.1087 I0.027 J-0.036
X-73.4286 I0.0273 J0. F60.
X-73.5832 I-0.0773 J0.
X-73.3286 I0.1273 J0.
X-73.6832 I-0.1773 J0.
X-73.2286 I0.2273 J0.
X-73.7832 I-0.2773 J0.
X-73.1286 I0.3273 J0.
X-73.8832 I-0.3773 J0.
X-73.0286 I0.4273 J0.
X-73.9832 I-0.4773 J0.
X-73.0286 I0.4773 J0.
X-73.0736 Y7.545 Z-0.1239 I-0.045 J0. F55.
G1 X-73.4382 Z-0.2023
G3 X-73.4832 Y7.5 Z-0.2175 I0. J-0.045
X-73.4286 I0.0273 J0. F60.
X-73.5832 I-0.0773 J0.
X-73.3286 I0.1273 J0.
X-73.6832 I-0.1773 J0.
X-73.2286 I0.2273 J0.
X-73.7832 I-0.2773 J0.
X-73.1286 I0.3273 J0.
X-73.8832 I-0.3773 J0.
X-73.0286 I0.4273 J0.
X-73.9832 I-0.4773 J0.
X-73.0186 I0.4823 J0.
X-73.9932 I-0.4873 J0.
X-73.0186 I0.4873 J0.
X-73.0197 Y7.5056 Z-0.2164 I-0.0149 J0.
X-73.0222 Y7.5097 Z-0.2131 I-0.0138 J-0.0056
X-73.0245 Y7.5119 Z-0.2083 I-0.0113 J-0.0097
X-73.0254 Y7.5125 Z-0.2026 I-0.009 J-0.0119
G0 Z0.4
X-71.5781 Y7.4535
Z0.2
G1 Z0.1144 F13.333
G3 X-71.5795 Y7.4538 Z0.1081 I-0.0124 J-0.0433 F55.
X-71.5833 Y7.4546 Z0.103 I-0.0111 J-0.0436
X-71.589 Y7.4552 Z0.1 I-0.0072 J-0.0444
X-71.6175 Y7.4462 Z0.0918 I-0.0015 J-0.045
X-71.5635 Y7.3742 Z0.054 I0.027 J-0.036
X-71.6175 Y7.4462 Z0.0161 I-0.027 J0.036
X-71.5635 Y7.3742 Z-0.0218 I0.027 J-0.036
X-71.6175 Y7.4462 Z-0.0597 I-0.027 J0.036
X-71.5635 Y7.3742 Z-0.0976 I0.027 J-0.036
X-71.5455 Y7.4102 Z-0.1087 I-0.027 J0.036
X-71.5513 I-0.0029 J0. F60.
X-71.4455 I0.0529 J0.
X-71.6513 I-0.1029 J0.
X-71.4455 I0.1029 J0.
X-71.4536 Y7.4176 I-0.0074 J0.
G1 X-71.5406 Y7.4107
X-71.6257 Y7.4028
G3 X-71.6319 Y7.3924 I0.0007 J-0.0074
X-71.6175 Y7.3742 Z-0.115 I0.0414 J0.0178 F55.
X-71.5635 Y7.4462 Z-0.1529 I0.027 J0.036
X-71.6175 Y7.3742 Z-0.1908 I-0.027 J-0.036
X-71.5455 Y7.4102 Z-0.2175 I0.027 J0.036
X-71.5513 I-0.0029 J0. F60.
X-71.4455 I0.0529 J0.
X-71.6513 I-0.1029 J0.
X-71.4355 I0.1079 J0.
X-71.6613 I-0.1129 J0.
X-71.4355 I0.1129 J0.
X-71.4366 Y7.4158 Z-0.2164 I-0.0149 J0.
X-71.4391 Y7.4199 Z-0.2131 I-0.0138 J-0.0056
X-71.4414 Y7.4221 Z-0.2083 I-0.0113 J-0.0097
X-71.4424 Y7.4227 Z-0.2026 I-0.009 J-0.0119
G0 Z0.4
X-71.3979 Y6.3731
Z0.2
G1 Z0.1144 F13.333
G3 X-71.3965 Y6.3727 Z0.1081 I0.0124 J0.0433 F55.
X-71.3927 Y6.3719 Z0.103 I0.0111 J0.0436
X-71.387 Y6.3714 Z0.1 I0.0072 J0.0444
X-71.3585 Y6.3803 Z0.0918 I0.0015 J0.045
X-71.4125 Y6.4523 Z0.054 I-0.027 J0.036
X-71.3585 Y6.3803 Z0.0161 I0.027 J-0.036
X-71.4125 Y6.4523 Z-0.0218 I-0.027 J0.036
X-71.3585 Y6.3803 Z-0.0597 I0.027 J-0.036
X-71.4125 Y6.4523 Z-0.0976 I-0.027 J0.036
X-71.4305 Y6.4163 Z-0.1087 I0.027 J-0.036
X-71.3443 I0.0431 J0. F60.
X-71.5305 I-0.0931 J0.
X-71.2443 I0.1431 J0.
X-71.6305 I-0.1931 J0.
X-71.1443 I0.2431 J0.
X-71.7305 I-0.2931 J0.
X-71.1443 I0.2931 J0.
X-71.1525 Y6.4238 I-0.0074 J0.
G1 X-71.3368 Y6.4062
G2 X-71.345 Y6.4143 I-0.0008 J0.0074
G1 X-71.3435 Y6.4305
G3 X-71.3441 Y6.4341 I-0.0074 J0.0007
X-71.3585 Y6.4523 Z-0.115 I-0.0413 J-0.0178 F55.
X-71.4125 Y6.3803 Z-0.1529 I-0.027 J-0.036
X-71.3585 Y6.4523 Z-0.1908 I0.027 J0.036
X-71.4305 Y6.4163 Z-0.2175 I-0.027 J-0.036
X-71.3443 I0.0431 J0. F60.
X-71.5305 I-0.0931 J0.
X-71.2443 I0.1431 J0.
X-71.6305 I-0.1931 J0.
X-71.1443 I0.2431 J0.
X-71.7305 I-0.2931 J0.
X-71.1343 I0.2981 J0.
X-71.7405 I-0.3031 J0.
X-71.1343 I0.3031 J0.
X-71.1354 Y6.4219 Z-0.2164 I-0.0149 J0.
X-71.1379 Y6.426 Z-0.2131 I-0.0138 J-0.0056
X-71.1403 Y6.4282 Z-0.2083 I-0.0113 J-0.0097
X-71.1412 Y6.4289 Z-0.2026 I-0.009 J-0.0119
G0 Z0.4
X-69.6603 Y6.2512
Z0.2
G1 Z0.1144 F13.333
G3 X-69.6589 Y6.2508 Z0.1081 I0.0124 J0.0433 F55.
X-69.6551 Y6.25 Z0.103 I0.0111 J0.0436
X-69.6494 Y6.2495 Z0.1 I0.0072 J0.0444
X-69.6209 Y6.2584 Z0.0918 I0.0015 J0.045
X-69.6749 Y6.3304 Z0.054 I-0.027 J0.036
X-69.6209 Y6.2584 Z0.0161 I0.027 J-0.036
X-69.6749 Y6.3304 Z-0.0218 I-0.027 J0.036
X-69.6209 Y6.2584 Z-0.0597 I0.027 J-0.036
X-69.6749 Y6.3304 Z-0.0976 I-0.027 J0.036
X-69.6929 Y6.2944 Z-0.1087 I0.027 J-0.036
X-69.6351 I0.0289 J0. F60.
X-69.7929 I-0.0789 J0.
X-69.5351 I0.1289 J0.
X-69.8929 I-0.1789 J0.
X-69.4351 I0.2289 J0.
X-69.9929 I-0.2789 J0.
X-69.3351 I0.3289 J0.
X-70.0929 I-0.3789 J0.
X-69.3351 I0.3789 J0.
G2 X-69.2917 Y6.364 I0.0774 J0.
G3 X-69.2595 Y6.4394 I-0.0276 J0.0563
X-70.1911 Y6.2944 I-0.4545 J-0.1452
X-69.2369 I0.4771 J0.0002
X-69.2595 Y6.4394 I-0.4771 J-0.0002
X-69.2699 Y6.4438 I-0.0071 J-0.0023
G1 X-69.32 Y6.4185
X-69.6065 Y6.3122
G3 X-69.6209 Y6.3304 Z-0.115 I-0.0414 J-0.0178 F55.
X-69.6749 Y6.2584 Z-0.1529 I-0.027 J-0.036
X-69.6209 Y6.3304 Z-0.1908 I0.027 J0.036
X-69.6929 Y6.2944 Z-0.2175 I-0.027 J-0.036
X-69.6351 I0.0289 J0. F60.
X-69.7929 I-0.0789 J0.
X-69.5351 I0.1289 J0.
X-69.8929 I-0.1789 J0.
X-69.4351 I0.2289 J0.
X-69.9929 I-0.2789 J0.
X-69.3351 I0.3289 J0.
X-70.0929 I-0.3789 J0.
X-69.3351 I0.3789 J0.
G2 X-69.2917 Y6.364 I0.0774 J0.
G3 X-69.2595 Y6.4394 I-0.0276 J0.0563
X-70.1911 Y6.2944 I-0.4545 J-0.1452
X-69.2369 I0.4771 J0.0002
X-69.2595 Y6.4394 I-0.4771 J-0.0002
G2 X-69.257 Y6.448 I0.0077 J0.0025
G3 X-69.2547 Y6.4567 I-0.0052 J0.006
X-70.2011 Y6.2944 I-0.4592 J-0.1624
X-69.2269 I0.4871 J0.0002
X-69.2547 Y6.4567 I-0.4871 J-0.0002
X-69.2576 Y6.4616 Z-0.2164 I-0.014 J-0.005
X-69.2613 Y6.4646 Z-0.2131 I-0.0112 J-0.0099
X-69.2643 Y6.4659 Z-0.2083 I-0.0075 J-0.0129
X-69.2654 Y6.4662 Z-0.2026 I-0.0045 J-0.0142
G0 Z0.4
X-69.3825 Y4.7242
Z0.2
G1 Z0.1144 F13.333
G3 X-69.3838 Y4.7246 Z0.1081 I-0.0124 J-0.0433 F55.
X-69.3876 Y4.7254 Z0.103 I-0.0111 J-0.0436
X-69.3933 Y4.726 Z0.1 I-0.0072 J-0.0444
X-69.4219 Y4.717 Z0.0918 I-0.0015 J-0.045
X-69.3679 Y4.645 Z0.054 I0.027 J-0.036
X-69.4219 Y4.717 Z0.0161 I-0.027 J0.036
X-69.3679 Y4.645 Z-0.0218 I0.027 J-0.036
X-69.4219 Y4.717 Z-0.0597 I-0.027 J0.036
X-69.3679 Y4.645 Z-0.0976 I0.027 J-0.036
X-69.3499 Y4.681 Z-0.1087 I-0.027 J0.036
X-69.3872 I-0.0186 J0. F60.
X-69.2499 I0.0687 J0.
X-69.4872 I-0.1186 J0.
X-69.1499 I0.1687 J0.
X-69.5872 I-0.2187 J0.
X-69.0499 I0.2687 J0.
X-69.6871 I-0.3186 J0.
X-69.0499 I0.3186 J0.
X-69.0585 Y4.6883 I-0.0074 J0.
G1 X-69.1139 Y4.6796
X-69.4208 Y4.6667
X-69.4337 Y4.6669
G3 X-69.4362 Y4.6632 I0. J-0.0027
X-69.4219 Y4.645 Z-0.115 I0.0414 J0.0178 F55.
X-69.3679 Y4.717 Z-0.1529 I0.027 J0.036
X-69.4219 Y4.645 Z-0.1908 I-0.027 J-0.036
X-69.3499 Y4.681 Z-0.2175 I0.027 J0.036
X-69.3872 I-0.0186 J0. F60.
X-69.2499 I0.0687 J0.
X-69.4872 I-0.1186 J0.
X-69.1499 I0.1687 J0.
X-69.5872 I-0.2187 J0.
X-69.0499 I0.2687 J0.
X-69.6872 I-0.3186 J0.
X-69.0399 I0.3236 J0.
X-69.6972 I-0.3286 J0.
X-69.0399 I0.3286 J0.
X-69.0409 Y4.6865 Z-0.2164 I-0.0149 J0.
X-69.0434 Y4.6907 Z-0.2131 I-0.0138 J-0.0056
X-69.0458 Y4.6929 Z-0.2083 I-0.0113 J-0.0097
X-69.0467 Y4.6935 Z-0.2026 I-0.009 J-0.0119
G0 Z0.4
X-70.4148 Y7.9943
Z0.2
G1 Z0.1144 F13.333
G3 X-70.4134 Y7.9939 Z0.1081 I0.0124 J0.0433 F55.
X-70.4096 Y7.9931 Z0.103 I0.0111 J0.0436
X-70.4039 Y7.9925 Z0.1 I0.0072 J0.0444
X-70.3754 Y8.0015 Z0.0918 I0.0015 J0.045
X-70.4294 Y8.0735 Z0.054 I-0.027 J0.036
X-70.3754 Y8.0015 Z0.0161 I0.027 J-0.036
X-70.4294 Y8.0735 Z-0.0218 I-0.027 J0.036
X-70.3754 Y8.0015 Z-0.0597 I0.027 J-0.036
X-70.4294 Y8.0735 Z-0.0976 I-0.027 J0.036
X-70.4474 Y8.0375 Z-0.1087 I0.027 J-0.036
X-70.3928 I0.0273 J0. F60.
X-70.5474 I-0.0773 J0.
X-70.2928 I0.1273 J0.
X-70.6474 I-0.1773 J0.
X-70.1928 I0.2273 J0.
X-70.7474 I-0.2773 J0.
X-70.0928 I0.3273 J0.
X-70.8474 I-0.3773 J0.
X-69.9928 I0.4273 J0.
X-70.9474 I-0.4773 J0.
X-69.9928 I0.4773 J0.
X-70.0378 Y8.0825 Z-0.1239 I-0.045 J0. F55.
G1 X-70.4024 Z-0.2023
G3 X-70.4474 Y8.0375 Z-0.2175 I0. J-0.045
X-70.3928 I0.0273 J0. F60.
X-70.5474 I-0.0773 J0.
X-70.2928 I0.1273 J0.
X-70.6474 I-0.1773 J0.
X-70.1928 I0.2273 J0.
X-70.7474 I-0.2773 J0.
X-70.0928 I0.3273 J0.
X-70.8474 I-0.3773 J0.
X-69.9928 I0.4273 J0.
X-70.9474 I-0.4773 J0.
X-69.9828 I0.4823 J0.
X-70.9574 I-0.4873 J0.
X-69.9828 I0.4873 J0.
X-69.9838 Y8.0431 Z-0.2164 I-0.0149 J0.
X-69.9863 Y8.0472 Z-0.2131 I-0.0138 J-0.0056
X-69.9887 Y8.0494 Z-0.2083 I-0.0113 J-0.0097
X-69.9896 Y8.0501 Z-0.2026 I-0.009 J-0.0119
G0 Z0.4
X-69.5321 Y9.8998
Z0.2
G1 Z0.1144 F13.333
G3 X-69.5308 Y9.8994 Z0.1081 I0.0124 J0.0433 F55.
X-69.5269 Y9.8987 Z0.103 I0.0111 J0.0436
X-69.5212 Y9.8981 Z0.1 I0.0072 J0.0444
X-69.4927 Y9.9071 Z0.0918 I0.0015 J0.045
X-69.5467 Y9.9791 Z0.054 I-0.027 J0.036
X-69.4927 Y9.9071 Z0.0161 I0.027 J-0.036
X-69.5467 Y9.9791 Z-0.0218 I-0.027 J0.036
X-69.4927 Y9.9071 Z-0.0597 I0.027 J-0.036
X-69.5467 Y9.9791 Z-0.0976 I-0.027 J0.036
X-69.5647 Y9.9431 Z-0.1087 I0.027 J-0.036
X-69.5101 I0.0273 J0. F60.
X-69.6647 I-0.0773 J0.
X-69.4101 I0.1273 J0.
X-69.7647 I-0.1773 J0.
X-69.3101 I0.2273 J0.
X-69.8647 I-0.2773 J0.
X-69.2101 I0.3273 J0.
X-69.9647 I-0.3773 J0.
X-69.1101 I0.4273 J0.
X-70.0647 I-0.4773 J0.
X-69.1101 I0.4773 J0.
X-69.1551 Y9.9881 Z-0.1239 I-0.045 J0. F55.
G1 X-69.5197 Z-0.2023
G3 X-69.5647 Y9.9431 Z-0.2175 I0. J-0.045
X-69.5101 I0.0273 J0. F60.
X-69.6647 I-0.0773 J0.
X-69.4101 I0.1273 J0.
X-69.7647 I-0.1773 J0.
X-69.3101 I0.2273 J0.
X-69.8647 I-0.2773 J0.
X-69.2101 I0.3273 J0.
X-69.9647 I-0.3773 J0.
X-69.1101 I0.4273 J0.
X-70.0647 I-0.4773 J0.
X-69.1001 I0.4823 J0.
X-70.0747 I-0.4873 J0.
X-69.1001 I0.4873 J0.
X-69.1012 Y9.9486 Z-0.2164 I-0.0149 J0.
X-69.1037 Y9.9528 Z-0.2131 I-0.0138 J-0.0056
X-69.106 Y9.955 Z-0.2083 I-0.0113 J-0.0097
X-69.1069 Y9.9556 Z-0.2026 I-0.009 J-0.0119
G0 Z0.4
X-69.4614 Y14.5121
Z0.2
G1 Z0.1144 F13.333
G3 X-69.4627 Y14.5124 Z0.1081 I-0.0124 J-0.0433 F55.
X-69.4665 Y14.5132 Z0.103 I-0.0111 J-0.0436
X-69.4722 Y14.5138 Z0.1 I-0.0072 J-0.0444
X-69.5008 Y14.5048 Z0.0918 I-0.0015 J-0.045
X-69.4468 Y14.4328 Z0.054 I0.027 J-0.036
X-69.5008 Y14.5048 Z0.0161 I-0.027 J0.036
X-69.4468 Y14.4328 Z-0.0218 I0.027 J-0.036
X-69.5008 Y14.5048 Z-0.0597 I-0.027 J0.036
X-69.4468 Y14.4328 Z-0.0976 I0.027 J-0.036
X-69.4288 Y14.4688 Z-0.1087 I-0.027 J0.036
X-69.4386 I-0.0049 J0. F60.
X-69.4288 I0.0049 J0.
G2 X-69.405 Y14.518 I0.0627 J0.
G3 X-69.4193 Y14.5707 I-0.0184 J0.0233
X-69.5368 Y14.4688 I-0.0144 J-0.1021
X-69.3306 I0.1031 J0.0002
X-69.4193 Y14.5707 I-0.1031 J-0.0002
X-69.4266 Y14.5678 I-0.0011 J-0.0079
G1 X-69.514 Y14.4592
G3 X-69.5151 Y14.4511 I0.0062 J-0.005
X-69.5008 Y14.4328 Z-0.115 I0.0413 J0.0178 F55.
X-69.4468 Y14.5048 Z-0.1529 I0.027 J0.036
X-69.5008 Y14.4328 Z-0.1908 I-0.027 J-0.036
X-69.4288 Y14.4688 Z-0.2175 I0.027 J0.036
X-69.4386 I-0.0049 J0. F60.
X-69.4288 I0.0049 J0.
G2 X-69.405 Y14.518 I0.0627 J0.
G3 X-69.4193 Y14.5707 I-0.0184 J0.0233
X-69.5368 Y14.4688 I-0.0144 J-0.1021
X-69.3306 I0.1031 J0.0002
X-69.4193 Y14.5707 I-0.1031 J-0.0002
G2 X-69.4258 Y14.5764 I0.0011 J0.0079
G3 X-69.4328 Y14.5817 I-0.007 J-0.002
X-69.5468 Y14.4688 I-0.0009 J-0.1131
X-69.3206 I0.1131 J0.0002
X-69.4328 Y14.5817 I-0.1131 J-0.0002
X-69.4384 Y14.5807 Z-0.2164 I-0.0001 J-0.0149
X-69.4425 Y14.5782 Z-0.2131 I0.0055 J-0.0139
X-69.4447 Y14.5759 Z-0.2083 I0.0096 J-0.0114
X-69.4454 Y14.575 Z-0.2026 I0.0118 J-0.0091
G0 Z0.4
X-73.4746 Y15.01
Z0.2
G1 Z0.1144 F13.333
G3 X-73.4759 Y15.0103 Z0.1081 I-0.0124 J-0.0433 F55.
X-73.4798 Y15.0111 Z0.103 I-0.0111 J-0.0436
X-73.4855 Y15.0117 Z0.1 I-0.0072 J-0.0444
X-73.514 Y15.0027 Z0.0918 I-0.0015 J-0.045
X-73.46 Y14.9307 Z0.054 I0.027 J-0.036
X-73.514 Y15.0027 Z0.0161 I-0.027 J0.036
X-73.46 Y14.9307 Z-0.0218 I0.027 J-0.036
X-73.514 Y15.0027 Z-0.0597 I-0.027 J0.036
X-73.46 Y14.9307 Z-0.0976 I0.027 J-0.036
X-73.442 Y14.9667 Z-0.1087 I-0.027 J0.036
X-73.4478 I-0.0029 J0. F60.
X-73.342 I0.0529 J0.
X-73.5478 I-0.1029 J0.
X-73.342 I0.1029 J0.
X-73.35 Y14.9741 I-0.0074 J0.
G1 X-73.4371 Y14.9672
X-73.5222 Y14.9593
G3 X-73.5283 Y14.9489 I0.0007 J-0.0074
X-73.514 Y14.9307 Z-0.115 I0.0413 J0.0178 F55.
X-73.46 Y15.0027 Z-0.1529 I0.027 J0.036
X-73.514 Y14.9307 Z-0.1908 I-0.027 J-0.036
X-73.442 Y14.9667 Z-0.2175 I0.027 J0.036
X-73.4478 I-0.0029 J0. F60.
X-73.342 I0.0529 J0.
X-73.5478 I-0.1029 J0.
X-73.332 I0.1079 J0.
X-73.5578 I-0.1129 J0.
X-73.332 I0.1129 J0.
X-73.3331 Y14.9723 Z-0.2164 I-0.0149 J0.
X-73.3356 Y14.9764 Z-0.2131 I-0.0138 J-0.0056
X-73.3379 Y14.9786 Z-0.2083 I-0.0113 J-0.0097
X-73.3388 Y14.9792 Z-0.2026 I-0.009 J-0.0119
G0 Z0.6
(SHAPE THROUGH HOLE)
M7
G0 X-75.7647 Y8.7203
Z0.6
Z0.1
G3 X-75.8647 Y8.7528 Z0.0791 I-0.0646 J-0.0288 F50.
X-75.8865 Y8.6499 Z0.0582 I0.0354 J-0.0613
X-75.7721 Y8.7331 Z0.019 I0.0572 J0.0416
X-75.8866 Z-0.0045 I-0.0572 J-0.0416
X-75.8647 Y8.6302 Z-0.0255 I0.0573 J-0.0416
X-75.7939 Y8.7528 Z-0.0647 I0.0354 J0.0613
X-75.8985 Y8.7062 Z-0.0882 I-0.0354 J-0.0613
X-75.8367 Y8.6211 Z-0.1091 I0.0692 J-0.0147
X-75.7585 Y8.6915 Z-0.13 I0.0074 J0.0704
X-75.9001 I-0.0708 J0.
X-75.7585 I0.0708 J0.
X-75.9094 Y8.8146 I-0.0774 J0.0592 F60.
G1 X-75.9177 Y8.8094
X-75.9256 Y8.8037
X-75.9332 Y8.7974
X-75.9403 Y8.7907
X-75.947 Y8.7836
X-75.9532 Y8.776
X-75.959 Y8.7681
X-75.9642 Y8.7598
X-75.9688 Y8.7512
X-75.9729 Y8.7423
X-75.9764 Y8.7331
X-75.9794 Y8.7238
X-75.9817 Y8.7143
X-75.9834 Y8.7046
X-75.9845 Y8.6949
X-75.9849 Y8.6851
X-75.9848 Y8.6753
X-75.984 Y8.6656
X-75.9825 Y8.6559
X-75.9805 Y8.6463
X-75.9779 Y8.6369
X-75.9746 Y8.6276
X-75.9708 Y8.6186
X-75.9664 Y8.6099
X-75.9614 Y8.6014
X-75.9559 Y8.5933
X-75.9499 Y8.5856
X-75.9435 Y8.5782
X-75.9365 Y8.5713
X-75.9292 Y8.5649
X-75.9214 Y8.5589
X-75.9133 Y8.5534
X-75.9048 Y8.5485
X-75.8961 Y8.5442
X-75.887 Y8.5403
X-75.8778 Y8.5371
X-75.8684 Y8.5345
X-75.8588 Y8.5325
X-75.8491 Y8.5311
X-75.8393 Y8.5304
X-75.8295 Y8.5302
X-75.8198 Y8.5307
X-75.81 Y8.5318
X-75.8004 Y8.5336
X-75.7909 Y8.5359
X-75.7816 Y8.5389
X-75.7724 Y8.5424
X-75.7636 Y8.5465
X-75.755 Y8.5512
X-75.7467 Y8.5565
X-75.7388 Y8.5622
X-75.7312 Y8.5685
X-75.7241 Y8.5752
X-75.7174 Y8.5823
X-75.7112 Y8.5899
X-75.7055 Y8.5978
X-75.7003 Y8.6061
X-75.6957 Y8.6148
X-75.6916 Y8.6237
X-75.6848 Y8.6324
X-75.6786 Y8.6414
X-75.6728 Y8.6509
X-75.6676 Y8.6606
X-75.663 Y8.6706
X-75.6589 Y8.6809
X-75.6555 Y8.6913
X-75.6526 Y8.702
X-75.6503 Y8.7128
X-75.6487 Y8.7237
X-75.6477 Y8.7347
X-75.6473 Y8.7457
X-75.6476 Y8.7568
X-75.6484 Y8.7678
X-75.6499 Y8.7787
X-75.6521 Y8.7895
X-75.6548 Y8.8002
X-75.6581 Y8.8107
X-75.6621 Y8.821
X-75.6666 Y8.8311
X-75.6716 Y8.8409
X-75.6773 Y8.8504
X-75.6834 Y8.8595
X-75.6901 Y8.8683
X-75.6973 Y8.8767
X-75.7049 Y8.8847
X-75.713 Y8.8922
X-75.7214 Y8.8993
X-75.7303 Y8.9058
X-75.7395 Y8.9119
X-75.7491 Y8.9174
X-75.759 Y8.9223
X-75.7691 Y8.9267
X-75.7794 Y8.9305
X-75.79 Y8.9337
X-75.8007 Y8.9363
X-75.8116 Y8.9383
X-75.8225 Y8.9396
X-75.8335 Y8.9404
X-75.8445 Y8.9405
X-75.8556 Y8.9399
X-75.8665 Y8.9388
X-75.8774 Y8.937
X-75.8882 Y8.9346
X-75.8988 Y8.9316
X-75.9092 Y8.928
X-75.9194 Y8.9239
X-75.9294 Y8.9191
X-75.939 Y8.9138
X-75.9484 Y8.9079
X-75.9574 Y8.9015
X-75.966 Y8.8946
X-75.9742 Y8.8873
X-75.982 Y8.8795
X-75.9893 Y8.8712
G3 X-76.0757 Y8.6392 I0.1275 J-0.1796
G1 X-76.0679 Y8.6141
X-76.0642 Y8.6024
X-76.0591 Y8.5908
X-76.0534 Y8.5796
X-76.0472 Y8.5686
X-76.0404 Y8.5579
X-76.0332 Y8.5475
X-76.0254 Y8.5376
X-76.0172 Y8.528
X-76.0085 Y8.5188
X-75.9994 Y8.51
X-75.9899 Y8.5017
X-75.98 Y8.4939
X-75.9697 Y8.4865
X-75.9591 Y8.4797
X-75.9482 Y8.4734
X-75.9369 Y8.4676
X-75.9254 Y8.4623
X-75.9137 Y8.4576
X-75.9018 Y8.4535
X-75.8896 Y8.45
X-75.8773 Y8.4471
X-75.8649 Y8.4447
X-75.8524 Y8.443
X-75.8398 Y8.4418
X-75.8272 Y8.4413
X-75.8146 Y8.4414
X-75.802 Y8.4421
X-75.7894 Y8.4434
X-75.7769 Y8.4453
X-75.7645 Y8.4478
X-75.7523 Y8.4509
X-75.7402 Y8.4546
X-75.7283 Y8.4589
X-75.7166 Y8.4637
X-75.7052 Y8.4691
X-75.6941 Y8.475
X-75.6832 Y8.4815
X-75.6727 Y8.4885
X-75.6625 Y8.496
X-75.6527 Y8.5039
X-75.6433 Y8.5124
X-75.6343 Y8.5212
X-75.6257 Y8.5305
X-75.6177 Y8.5402
X-75.61 Y8.5503
X-75.6029 Y8.5608
X-75.5963 Y8.5715
X-75.5902 Y8.5826
X-75.5847 Y8.594
X-75.5797 Y8.6056
X-75.5753 Y8.6174
X-75.5714 Y8.6294
X-75.5682 Y8.6416
X-75.5655 Y8.654
X-75.5635 Y8.6664
X-75.562 Y8.679
X-75.6437 Y8.915
X-75.6513 Y8.9253
X-75.6593 Y8.9352
X-75.6678 Y8.9448
X-75.6767 Y8.954
X-75.6861 Y8.9627
X-75.6958 Y8.971
X-75.7059 Y8.9788
X-75.7164 Y8.9861
X-75.7272 Y8.9929
X-75.7384 Y8.9992
X-75.7498 Y9.005
X-75.7615 Y9.0102
X-75.7734 Y9.0149
X-75.7855 Y9.019
X-75.7978 Y9.0226
X-75.8102 Y9.0255
X-75.8228 Y9.0279
X-75.8355 Y9.0296
X-75.8482 Y9.0308
X-75.861 Y9.0314
X-75.8738 Y9.0313
X-75.8865 Y9.0307
X-75.8993 Y9.0294
X-75.9119 Y9.0276
X-75.9245 Y9.0252
X-75.9369 Y9.0221
X-75.9492 Y9.0185
X-75.9613 Y9.0143
X-75.9731 Y9.0096
X-75.9848 Y9.0043
X-75.9961 Y8.9984
X-76.0072 Y8.9921
X-76.018 Y8.9852
X-76.0284 Y8.9778
X-76.0385 Y8.9699
X-76.0482 Y8.9616
X-76.0575 Y8.9528
X-76.0664 Y8.9436
X-76.0748 Y8.934
X-76.0828 Y8.924
X-76.0902 Y8.9136
X-76.0972 Y8.9029
X-76.1037 Y8.8918
X-76.1096 Y8.8805
X-76.1179 Y8.8824
X-76.1184 Y8.8806
Y8.8786
G3 X-76.0757 Y8.6392 I0.8155 J0.0218
X-76.0473 Y8.648 I0.0142 J0.0044
X-76.0674 Y8.6573 I-0.0142 J-0.0044
X-76.0745 Y8.6363 I0.0059 J-0.0137
G1 X-76.0627 Y8.6154
G3 X-76.0367 Y8.63 I0.013 J0.0073
X-76.0645 Y8.6244 I-0.013 J-0.0073
X-76.0604 Y8.5938 I0.0619 J-0.0073 F50.
X-75.9486 Y8.4079 I0.6109 J0.2409 F60.
G1 X-75.9388 Y8.4002
X-75.9286 Y8.393
X-75.9182 Y8.3863
X-75.9074 Y8.3802
X-75.8963 Y8.3745
X-75.8849 Y8.3694
X-75.8734 Y8.3649
X-75.8616 Y8.3609
X-75.8496 Y8.3575
X-75.8375 Y8.3546
X-75.8253 Y8.3524
X-75.8129 Y8.3508
X-75.8005 Y8.3497
X-75.7881 Y8.3493
X-75.7757 Y8.3495
X-75.7633 Y8.3502
X-75.7509 Y8.3516
X-75.7386 Y8.3536
X-75.7264 Y8.3561
X-75.7144 Y8.3593
X-75.7025 Y8.363
X-75.6909 Y8.3673
X-75.6794 Y8.3721
X-75.6682 Y8.3775
X-75.6573 Y8.3835
X-75.6467 Y8.3899
X-75.6364 Y8.3969
X-75.6264 Y8.4043
X-75.6168 Y8.4123
X-75.6076 Y8.4207
X-75.5989 Y8.4295
X-75.5905 Y8.4387
X-75.5827 Y8.4483
X-75.5753 Y8.4583
X-75.5684 Y8.4687
X-75.562 Y8.4793
G3 X-75.5095 Y8.546 I-0.0208 J0.0704
G1 X-75.5577 Y8.6786
G3 X-75.5694 Y8.6878 I-0.0138 J-0.0056
X-75.6152 Y8.6307 I-0.006 J-0.0421
X-75.5362 Y8.5583 I0.1106 J0.0414
X-75.5212 Y8.5552 I0.0316 J0.1138 F50.
G2 X-75.5095 Y8.546 I-0.0021 J-0.0148
G1 X-75.4921 Y8.4984 F60.
G2 X-75.7614 Y8.2631 I-0.2489 J0.0131
X-75.8124 Y8.2548 I-0.0298 J0.0218
G1 X-75.9283 Y8.3827
X-75.9486 Y8.4079
G2 X-75.9455 Y8.4287 I0.012 J0.0089
X-75.9327 Y8.4312 I0.0089 J-0.0121
X-75.8154 Y8.2848 I-0.0401 J-0.1523
X-75.8159 Y8.2656 I-0.1574 J-0.0059 F50.
G3 X-75.8124 Y8.2547 I0.0148 J-0.0013
G1 X-75.7816 Y8.2207 F60.
X-75.7707 Y8.2152
X-75.7595 Y8.2103
X-75.7481 Y8.206
X-75.7365 Y8.2023
X-75.7247 Y8.1991
X-75.7128 Y8.1966
X-75.7008 Y8.1946
X-75.6887 Y8.1933
X-75.6765 Y8.1926
X-75.6643 Y8.1925
X-75.6522 Y8.193
X-75.64 Y8.1941
X-75.628 Y8.1958
X-75.616 Y8.1981
X-75.6042 Y8.2011
X-75.5925 Y8.2046
X-75.581 Y8.2087
X-75.5698 Y8.2134
X-75.5588 Y8.2186
X-75.5481 Y8.2244
X-75.5377 Y8.2307
X-75.5276 Y8.2375
X-75.5178 Y8.2449
X-75.5085 Y8.2527
X-75.4995 Y8.261
X-75.491 Y8.2697
X-75.483 Y8.2788
X-75.4754 Y8.2883
X-75.4683 Y8.2982
X-75.4617 Y8.3085
X-75.4556 Y8.3191
X-75.4501 Y8.3299
X-75.4451 Y8.341
X-75.4362 Y8.34
X-75.4358 Y8.3425
X-75.4363 Y8.345
X-75.4921 Y8.4984
G3 X-75.5038 Y8.5075 I-0.0138 J-0.0056
X-75.5495 Y8.4662 I-0.0056 J-0.0396
X-75.463 Y8.3573 I0.118 J0.0049
X-75.448 Y8.3542 I0.0316 J0.1138 F50.
G2 X-75.4363 Y8.345 I-0.0021 J-0.0148
G1 X-75.4223 Y8.3065 F60.
G2 X-75.6611 Y8.0978 I-0.2178 J0.0083
G1 X-75.6639 Y8.0926
X-75.666 Y8.0935
X-75.6678 Y8.0949
X-75.7816 Y8.2207
G2 X-75.7842 Y8.2353 I0.0114 J0.0096
X-75.7326 Y8.2571 I0.0358 J-0.0129
X-75.6662 Y8.1243 I-0.0489 J-0.1075
X-75.6704 Y8.1096 I-0.1154 J0.0252 F50.
G3 X-75.6678 Y8.0949 I0.014 J-0.005
G1 X-75.6407 Y8.0651 F60.
G3 X-75.3682 Y8.1579 I0.0897 J0.1833
G1 X-75.4223 Y8.3065
G3 X-75.434 Y8.3156 I-0.0138 J-0.0056
X-75.4807 Y8.27 I-0.0058 J-0.0408
X-75.395 Y8.1702 I0.1173 J0.014
X-75.38 Y8.1671 I0.0316 J0.1138 F50.
G2 X-75.3682 Y8.1579 I-0.0021 J-0.0148
G1 X-75.3548 Y8.1211 F60.
Y8.111
X-75.3554 Y8.101
X-75.3566 Y8.091
X-75.3583 Y8.0811
X-75.3607 Y8.0714
X-75.3636 Y8.0618
X-75.3672 Y8.0524
X-75.3712 Y8.0432
X-75.3758 Y8.0343
X-75.381 Y8.0256
X-75.3866 Y8.0173
X-75.3928 Y8.0094
X-75.3994 Y8.0018
X-75.4064 Y7.9946
X-75.4139 Y7.9879
X-75.4217 Y7.9816
X-75.4299 Y7.9759
X-75.4385 Y7.9706
X-75.4473 Y7.9658
X-75.4564 Y7.9616
X-75.4658 Y7.9579
X-75.4753 Y7.9548
X-75.4851 Y7.9523
X-75.4949 Y7.9504
X-75.5049 Y7.949
X-75.5149 Y7.9483
X-75.5249 Y7.9481
X-75.535 Y7.9486
X-75.6407 Y8.0651
G2 X-75.6434 Y8.0798 I0.0114 J0.0096
X-75.5808 Y8.0995 I0.0388 J-0.014
X-75.5334 Y7.9777 I-0.068 J-0.0966
X-75.5376 Y7.963 I-0.1154 J0.0252 F50.
G3 X-75.535 Y7.9483 I0.014 J-0.005
G1 X-75.5092 Y7.9198 F60.
G3 X-75.3034 Y7.9797 I0.0741 J0.1288
G1 X-75.3548 Y8.1211
G3 X-75.3666 Y8.1302 I-0.0138 J-0.0056
X-75.4135 Y8.0789 I-0.0059 J-0.0418
X-75.3301 Y7.992 I0.115 J0.027
X-75.3151 Y7.9889 I0.0316 J0.1138 F50.
G2 X-75.3034 Y7.9797 I-0.0021 J-0.0148
G1 X-75.2917 Y7.9476 F60.
G2 X-75.2926 Y7.9054 I-0.0486 J-0.0201
G1 X-75.2989 Y7.8966
X-75.3161 Y7.8735
G2 X-75.4143 Y7.815 I-0.0828 J0.0273
G1 X-75.5092 Y7.9198
G2 X-75.4938 Y7.9437 I0.0114 J0.0096
G1 X-75.3268 Y7.897
X-75.3243 Y7.8963 F50.
G2 X-75.3161 Y7.8735 I-0.004 J-0.0143
G3 X-75.3541 Y7.7913 I0.2476 J-0.1646 F60.
G1 X-75.3561 Y7.7857
X-75.3605 Y7.7781
X-75.3643 Y7.7733
X-75.368 Y7.7708
X-75.3724 Y7.7707
X-75.3762 Y7.773
X-75.4143 Y7.815
G2 X-75.3931 Y7.8359 I0.0114 J0.0096
G1 X-75.3698 Y7.8157
X-75.3589 Y7.8062 F50.
G2 X-75.3541 Y7.7913 I-0.0098 J-0.0113
G1 X-75.3571 Y7.7809 F60.
X-75.362 Y7.7636
X-75.3634 Y7.7592
X-75.3636 Y7.759
X-75.3762 Y7.773
G2 X-75.3772 Y7.7749 I0.0038 J0.0032
X-75.3679 Y7.7784 I0.0048 J0.0013 F50.
G1 X-75.3623 Y7.767
X-75.3619 Y7.7654
X-75.362 Y7.7636
X-75.363 Y7.7597 F60.
X-75.3634 Y7.7592
X-75.3644 Y7.7606 Z-0.1294
X-75.3638 Y7.7618 Z-0.1267
G0 Z0.4
X-75.3306 Y7.8805
Z-0.1002
G1 Z-0.1151 F50.
X-75.3304 Y7.8806 Z-0.118
X-75.3296 Y7.8809 Z-0.1208
X-75.3283 Y7.8815 Z-0.1234
X-75.3266 Y7.8822 Z-0.1256
X-75.3246 Y7.8831 Z-0.1275
X-75.3222 Y7.8841 Z-0.1289
X-75.3196 Y7.8852 Z-0.1297
X-75.317 Y7.8864 Z-0.13
G3 X-75.2926 Y7.9054 I-0.0249 J0.0571
X-75.2917 Y7.9476 I-0.0151 J0.0214 F60.
X-75.3171 Y7.9514 I-0.0138 J-0.0056
G1 X-75.3189 Y7.9492 Z-0.1297
X-75.3207 Y7.947 Z-0.1289
X-75.3223 Y7.945 Z-0.1275
X-75.3237 Y7.9433 Z-0.1256
X-75.3249 Y7.9418 Z-0.1234
X-75.3258 Y7.9407 Z-0.1208
X-75.3263 Y7.9401 Z-0.118
X-75.3265 Y7.9399 Z-0.1151
G0 Z-0.1002
X-75.6445 Y8.8695
G1 Z-0.1151 F50.
Y8.8697 Z-0.118
X-75.6443 Y8.8706 Z-0.1208
X-75.6441 Y8.8719 Z-0.1234
X-75.6437 Y8.8737 Z-0.1256
X-75.6433 Y8.876 Z-0.1275
X-75.6428 Y8.8785 Z-0.1289
X-75.6423 Y8.8812 Z-0.1297
X-75.6418 Y8.8841 Z-0.13
G3 X-75.6437 Y8.915 I-0.0612 J0.0116
G1 X-75.6858 Y9.0307 F60.
X-75.6936 Y9.0403
X-75.7017 Y9.0495
X-75.7104 Y9.0583
X-75.7195 Y9.0666
X-75.7289 Y9.0745
X-75.7388 Y9.0819
X-75.749 Y9.0888
X-75.7595 Y9.0952
X-75.7703 Y9.1011
X-75.7814 Y9.1064
X-75.7928 Y9.1112
X-75.8044 Y9.1154
X-75.8162 Y9.119
X-75.8281 Y9.122
X-75.8402 Y9.1244
X-75.8524 Y9.1263
X-75.8646 Y9.1275
X-75.8769 Y9.1281
X-75.8892
X-75.9015 Y9.1275
X-75.9138 Y9.1263
X-75.926 Y9.1245
X-75.9381 Y9.1221
X-75.95 Y9.1191
X-75.9618 Y9.1154
X-75.9734 Y9.1113
X-75.9847 Y9.1065
X-75.9959 Y9.1012
X-76.0067 Y9.0954
X-76.0172 Y9.089
X-76.0274 Y9.0821
X-76.0373 Y9.0747
X-76.0468 Y9.0668
X-76.0558 Y9.0585
G3 X-76.134 Y9.0069 I-0.0068 J-0.0748
G1 X-76.1184 Y8.8786
G3 X-76.109 Y8.867 I0.0147 J0.0023
X-76.0928 Y8.8712 I0.0052 J0.0135
X-76.111 Y8.9885 I-0.0602 J0.0507
X-76.1247 Y8.9954 I-0.042 J-0.0666 F50.
G2 X-76.134 Y9.0069 I0.0054 J0.0139
G1 X-76.1385 Y9.0434 F60.
X-76.1356 Y9.0548
X-76.1322 Y9.0661
X-76.1282 Y9.0771
X-76.1236 Y9.0879
X-76.1184 Y9.0985
X-76.1127 Y9.1088
X-76.1065 Y9.1188
X-76.0997 Y9.1284
X-76.0925 Y9.1376
X-76.0847 Y9.1465
X-76.0766 Y9.155
X-76.0679 Y9.163
X-76.0589 Y9.1705
X-76.0495 Y9.1776
X-76.0398 Y9.1841
X-76.0297 Y9.1902
X-76.0193 Y9.1957
X-76.0086 Y9.2006
X-75.9977 Y9.205
X-75.9866 Y9.2088
X-75.9752 Y9.212
X-75.9638 Y9.2146
X-75.9522 Y9.2166
X-75.9405 Y9.218
X-75.9288 Y9.2188
X-75.917 Y9.219
X-75.9053 Y9.2185
X-75.8936 Y9.2175
X-75.8819 Y9.2158
X-75.8704 Y9.2135
X-75.859 Y9.2106
G2 X-75.7466 Y9.1976 I0.0484 J-0.0741
G1 X-75.6858 Y9.0307
G2 X-75.6889 Y9.0161 I-0.0142 J-0.0046
X-75.7363 Y9.0124 I-0.0256 J0.023
X-75.7591 Y9.171 I0.0745 J0.0917
X-75.7497 Y9.183 I0.0973 J-0.0669 F50.
G3 X-75.7466 Y9.1976 I-0.0111 J0.01
G1 X-75.7616 Y9.239 F60.
G3 X-76.1097 Y9.2402 I-0.1746 J-0.1674
X-76.1586 Y9.2083 I-0.0107 J-0.037
G1 X-76.1385 Y9.0434
G3 X-76.1291 Y9.0318 I0.0147 J0.0023
X-76.0768 Y9.0594 I0.0141 J0.0366
X-76.1353 Y9.1903 I-0.115 J0.0271
X-76.1492 Y9.1967 I-0.0564 J-0.1038 F50.
G2 X-76.1586 Y9.2083 I0.0054 J0.0139
G1 X-76.1639 Y9.2517 F60.
G2 X-75.8503 Y9.3929 I0.2242 J-0.0792
G1 X-75.8477 Y9.3953
X-75.8448 Y9.3973
X-75.8415 Y9.3987
X-75.838 Y9.3996
X-75.8345 Y9.3998
X-75.8309 Y9.3995
X-75.8275 Y9.3986
X-75.8242 Y9.3971
X-75.8213 Y9.3951
X-75.8187 Y9.3927
X-75.8166 Y9.3898
X-75.7616 Y9.239
G2 X-75.7647 Y9.2244 I-0.0142 J-0.0046
X-75.8282 Y9.2281 I-0.0303 J0.0272
X-75.8291 Y9.3632 I0.0964 J0.0682
X-75.8196 Y9.3753 I0.0973 J-0.0669 F50.
G3 X-75.8165 Y9.3898 I-0.0111 J0.01
G1 X-75.829 Y9.4241 F60.
G3 X-76.0166 Y9.4873 I-0.135 J-0.0907
X-76.0115 Y9.4622 I0.01 J-0.0111
G1 X-76.0114
X-75.8481 Y9.4054
X-75.846 Y9.4049
G3 X-75.829 Y9.4241 I0.0028 J0.0146 F50.
G1 X-75.8597 Y9.5085 F60.
G3 X-75.9207 Y9.5632 I-0.0644 J-0.0105
X-75.9234 Y9.5419 I0.0088 J-0.012
G1 X-75.9191 Y9.5365
X-75.8855 Y9.4946
G3 X-75.8767 Y9.4893 I0.0116 J0.0093
X-75.8597 Y9.5085 I0.0028 J0.0146 F50.
G1 X-75.8876 Y9.585 F60.
G2 X-76.1336 Y9.4116 I-0.9617 J1.1031
G1 X-76.1568 Y9.4039
X-76.1582 Y9.4034
X-76.1594 Y9.403
X-76.165 Y9.4008
X-76.1765 Y9.394
X-76.1788 Y9.392
X-76.1801 Y9.3893
X-76.1803 Y9.3863
G3 X-76.1655 Y9.3737 I0.0147 J0.0023
G1 X-76.1557 Y9.3738
X-76.1551
G3 X-76.1407 Y9.3855 I-0.0001 J0.0149
X-76.1594 Y9.403 I-0.0145 J0.0032 F50.
X-76.1814 Y9.3952 I0.0114 J-0.0671 F60.
G1 X-76.1639 Y9.2517
G3 X-76.1541 Y9.24 I0.0147 J0.0023
G1 X-76.1516 Y9.2395 Z-0.1298
X-76.1492 Y9.2391 Z-0.1291
X-76.1467 Y9.2397 Z-0.1279
X-76.1445 Y9.2402 Z-0.1262
X-76.1426 Y9.2406 Z-0.1241
X-76.1415 Y9.2413 Z-0.1221
X-76.1407 Y9.2418 Z-0.1199
X-76.1402 Y9.2421 Z-0.1175
X-76.14 Y9.2423 Z-0.1151
G0 Z0.4
X-75.2692 Y11.0256
Z0.1
G3 X-75.3692 Y11.058 Z0.0791 I-0.0646 J-0.0288 F50.
X-75.3911 Y10.9551 Z0.0582 I0.0354 J-0.0613
X-75.2766 Y11.0384 Z0.019 I0.0572 J0.0416
X-75.3911 Y11.0383 Z-0.0045 I-0.0572 J-0.0416
X-75.3692 Y10.9355 Z-0.0255 I0.0573 J-0.0416
X-75.2692 Y10.968 Z-0.0464 I0.0354 J0.0613
X-75.3985 Y11.0255 Z-0.0856 I-0.0647 J0.0288
X-75.2692 Y10.968 Z-0.1248 I0.0647 J-0.0288
X-75.2631 Y10.9968 Z-0.13 I-0.0647 J0.0288
X-75.4046 I-0.0708 J0.
X-75.2631 I0.0708 J0.
X-75.414 Y11.1199 I-0.0774 J0.0592 F60.
G1 X-75.4222 Y11.1147
X-75.4302 Y11.1089
X-75.4377 Y11.1027
X-75.4449 Y11.096
X-75.4516 Y11.0888
X-75.4578 Y11.0813
X-75.4635 Y11.0733
X-75.4687 Y11.065
X-75.4734 Y11.0564
X-75.4775 Y11.0475
X-75.481 Y11.0384
X-75.4839 Y11.029
X-75.4862 Y11.0195
X-75.4879 Y11.0099
X-75.489 Y11.0002
X-75.4895 Y10.9904
X-75.4893 Y10.9806
X-75.4885 Y10.9708
X-75.4871 Y10.9611
X-75.485 Y10.9516
X-75.4824 Y10.9421
X-75.4791 Y10.9329
X-75.4753 Y10.9239
X-75.4709 Y10.9151
X-75.466 Y10.9067
X-75.4605 Y10.8986
X-75.4545 Y10.8909
X-75.448 Y10.8835
X-75.4411 Y10.8766
X-75.4337 Y10.8701
X-75.4259 Y10.8642
X-75.4178 Y10.8587
X-75.4094 Y10.8538
X-75.4006 Y10.8494
X-75.3916 Y10.8456
X-75.3823 Y10.8424
X-75.3729 Y10.8398
X-75.3633 Y10.8378
X-75.3536 Y10.8364
X-75.3439 Y10.8356
X-75.3341 Y10.8355
X-75.3243 Y10.836
X-75.3146 Y10.8371
X-75.3049 Y10.8388
X-75.2954 Y10.8412
X-75.2861 Y10.8441
X-75.277 Y10.8477
X-75.2681 Y10.8518
X-75.2595 Y10.8565
X-75.2512 Y10.8617
X-75.2433 Y10.8675
X-75.2358 Y10.8737
X-75.2286 Y10.8804
X-75.222 Y10.8876
X-75.2158 Y10.8952
X-75.2101 Y10.9031
X-75.2049 Y10.9114
X-75.2002 Y10.92
X-75.1961 Y10.9289
X-75.1894 Y10.9376
X-75.1831 Y10.9467
X-75.1773 Y10.9561
X-75.1721 Y10.9659
X-75.1675 Y10.9759
X-75.1635 Y10.9861
X-75.16 Y10.9966
X-75.1571 Y11.0073
X-75.1549 Y11.0181
X-75.1532 Y11.029
X-75.1522 Y11.04
X-75.1518 Y11.051
X-75.1521 Y11.062
X-75.153 Y11.073
X-75.1545 Y11.084
X-75.1566 Y11.0948
X-75.1593 Y11.1055
X-75.1627 Y11.116
X-75.1666 Y11.1263
X-75.1711 Y11.1364
X-75.1762 Y11.1462
X-75.1818 Y11.1556
X-75.188 Y11.1648
X-75.1946 Y11.1736
X-75.2018 Y11.182
X-75.2094 Y11.1899
X-75.2175 Y11.1975
X-75.226 Y11.2045
X-75.2348 Y11.2111
X-75.2441 Y11.2171
X-75.2536 Y11.2226
X-75.2635 Y11.2276
X-75.2736 Y11.232
X-75.284 Y11.2358
X-75.2945 Y11.239
X-75.3052 Y11.2416
X-75.3161 Y11.2435
X-75.327 Y11.2449
X-75.338 Y11.2456
X-75.3491 Y11.2457
X-75.3601 Y11.2452
X-75.3711 Y11.2441
X-75.382 Y11.2423
X-75.3927 Y11.2399
X-75.4033 Y11.2369
X-75.4138 Y11.2333
X-75.424 Y11.2291
X-75.4339 Y11.2244
X-75.4436 Y11.219
X-75.4529 Y11.2132
X-75.4619 Y11.2068
X-75.4705 Y11.1999
X-75.4787 Y11.1925
X-75.4865 Y11.1847
X-75.4938 Y11.1765
X-75.5032 Y11.169
X-75.5121 Y11.1611
X-75.5206 Y11.1528
X-75.5287 Y11.144
X-75.5363 Y11.1349
X-75.5435 Y11.1254
X-75.5501 Y11.1155
X-75.5563 Y11.1053
X-75.5619 Y11.0947
X-75.567 Y11.084
X-75.5715 Y11.0729
X-75.5755 Y11.0617
X-75.5789 Y11.0503
X-75.5817 Y11.0387
X-75.5839 Y11.027
X-75.5855 Y11.0152
X-75.5865 Y11.0033
X-75.587 Y10.9914
X-75.5868 Y10.9794
X-75.586 Y10.9676
X-75.5846 Y10.9557
X-75.5826 Y10.944
X-75.58 Y10.9323
X-75.5768 Y10.9208
X-75.573 Y10.9095
X-75.5687 Y10.8984
X-75.5638 Y10.8876
X-75.5584 Y10.8769
X-75.5524 Y10.8666
X-75.5459 Y10.8566
X-75.539 Y10.847
X-75.5315 Y10.8377
X-75.5236 Y10.8288
X-75.5152 Y10.8203
X-75.5064 Y10.8122
X-75.4972 Y10.8046
X-75.4877 Y10.7975
X-75.4778 Y10.7908
X-75.4676 Y10.7847
X-75.457 Y10.7791
X-75.4462 Y10.7741
G3 X-75.0639 Y10.9744 I0.1115 J0.2523
G2 X-75.061 Y11.0512 I0.7592 J0.01
G1 X-75.0612 Y11.0645
X-75.0619 Y11.0778
X-75.0634 Y11.091
X-75.0654 Y11.1041
X-75.068 Y11.1172
X-75.0713 Y11.1301
X-75.0751 Y11.1428
X-75.0796 Y11.1553
X-75.0846 Y11.1677
X-75.0902 Y11.1797
X-75.0963 Y11.1915
X-75.103 Y11.203
X-75.1102 Y11.2142
X-75.118 Y11.225
X-75.1262 Y11.2355
X-75.1349 Y11.2455
X-75.1441 Y11.2552
X-75.1537 Y11.2644
X-75.1637 Y11.2731
X-75.1741 Y11.2814
X-75.1849 Y11.2891
X-75.1961 Y11.2964
X-75.2076 Y11.3031
X-75.2194 Y11.3093
X-75.2314 Y11.3149
X-75.2437 Y11.32
X-75.2562 Y11.3244
X-75.269 Y11.3283
X-75.2819 Y11.3316
X-75.2949 Y11.3343
X-75.308 Y11.3364
X-75.3212 Y11.3378
X-75.3345 Y11.3386
X-75.3478 Y11.3389
X-75.3611 Y11.3384
X-75.3744 Y11.3374
X-75.3876 Y11.3358
X-75.4007 Y11.3335
X-75.4137 Y11.3306
X-75.4265 Y11.3272
X-75.4392 Y11.3231
X-75.4516 Y11.3184
X-75.4639 Y11.3132
X-75.4758 Y11.3074
X-75.4875 Y11.301
X-75.6435 Y10.9747
X-75.6455 Y10.962
X-75.6468 Y10.9491
X-75.6475 Y10.9362
X-75.6476 Y10.9233
X-75.6471 Y10.9104
X-75.646 Y10.8976
X-75.6443 Y10.8848
X-75.642 Y10.8721
X-75.639 Y10.8595
X-75.6355 Y10.8471
X-75.6314 Y10.8348
X-75.6267 Y10.8228
X-75.6215 Y10.811
X-75.6157 Y10.7995
X-75.6094 Y10.7882
X-75.6025 Y10.7773
X-75.5951 Y10.7667
X-75.5873 Y10.7565
X-75.5789 Y10.7466
X-75.5701 Y10.7372
X-75.5609 Y10.7281
X-75.5512 Y10.7196
X-75.5412 Y10.7115
X-75.5307 Y10.7039
X-75.52 Y10.6967
X-75.5089 Y10.6902
X-75.4975 Y10.6841
X-75.4858 Y10.6786
X-75.4739 Y10.6736
X-75.4617 Y10.6692
X-75.4494 Y10.6654
X-75.4369 Y10.6622
X-75.4243 Y10.6596
X-75.4115 Y10.6576
X-75.3987 Y10.6562
X-75.3858 Y10.6554
X-75.3729 Y10.6552
X-75.36 Y10.6556
X-75.3471 Y10.6566
G3 X-75.2965 Y10.6527 I0.0278 J0.0298
G1 X-75.0526 Y10.8952
G3 X-75.0639 Y10.9744 I-0.0913 J0.0275
X-75.0733 Y10.9859 I-0.0147 J-0.0025
X-75.1904 Y10.9703 I-0.044 J-0.1171
X-75.2972 Y10.682 I0.1612 J-0.2236
G1 X-75.2931 Y10.6672 F50.
G2 X-75.2965 Y10.6527 I-0.0143 J-0.0043
G1 X-75.3451 Y10.6044 F60.
G2 X-75.6864 Y10.743 I-0.1006 J0.2416
G1 X-75.6918 Y10.7453
X-75.697 Y10.7482
X-75.7019 Y10.7516
X-75.7065 Y10.7554
X-75.7106 Y10.7597
X-75.7142 Y10.7643
X-75.7174 Y10.7693
X-75.7201 Y10.7746
X-75.7222 Y10.7802
X-75.7237 Y10.7859
X-75.7247 Y10.7918
X-75.7251 Y10.7977
X-75.7248 Y10.8036
X-75.6435 Y10.9747
G2 X-75.631 Y10.9828 I0.0132 J-0.0069
X-75.6049 Y10.9644 I0.0012 J-0.026
X-75.6971 Y10.8133 I-0.1129 J-0.0348
X-75.7123 Y10.8116 I-0.0207 J0.1163 F50.
G3 X-75.7249 Y10.8036 I0.0007 J-0.0149
G1 X-75.7455 Y10.7601 F60.
G3 X-75.5029 Y10.4993 I0.2488 J-0.0118
G1 X-75.5012 Y10.4958
X-75.4989 Y10.4925
X-75.4963 Y10.4896
X-75.4932 Y10.4872
X-75.4898 Y10.4852
X-75.4861 Y10.4837
X-75.4823 Y10.4828
X-75.4783 Y10.4825
X-75.4744 Y10.4827
X-75.4705 Y10.4836
X-75.4668 Y10.4849
X-75.4634 Y10.4868
X-75.3451 Y10.6044
G3 X-75.3417 Y10.6189 I-0.0109 J0.0102
X-75.395 Y10.6433 I-0.0374 J-0.0113
X-75.4635 Y10.5163 I0.0481 J-0.1079
X-75.46 Y10.5014 I0.1165 J0.0191 F50.
G2 X-75.4634 Y10.4869 I-0.0143 J-0.0043
G1 X-75.4924 Y10.4581 F60.
X-75.4998 Y10.4514
X-75.5042 Y10.4485
X-75.506 Y10.4476
X-75.5079 Y10.4472
X-75.5099 Y10.4473
G3 X-75.6144 Y10.4593 I-0.0834 J-0.2654
G2 X-75.8171 Y10.6117 I0.0314 J0.2529
G1 X-75.7455 Y10.7601
G2 X-75.733 Y10.7681 I0.0132 J-0.0069
X-75.6916 Y10.7231 I0.0018 J-0.0399
X-75.788 Y10.622 I-0.1171 J0.0152
X-75.8033 Y10.6203 I-0.0207 J0.1163 F50.
G3 X-75.8158 Y10.6123 I0.0007 J-0.0149
G1 X-75.8329 Y10.5762 F60.
X-75.8352 Y10.5679
X-75.8368 Y10.5595
X-75.8379 Y10.551
X-75.8384 Y10.5424
X-75.8383 Y10.5339
X-75.8376 Y10.5253
X-75.8364 Y10.5169
X-75.8346 Y10.5085
X-75.8322 Y10.5002
X-75.8292 Y10.4922
X-75.8258 Y10.4844
X-75.8218 Y10.4768
X-75.8172 Y10.4695
X-75.8123 Y10.4625
X-75.8068 Y10.4559
X-75.8009 Y10.4497
X-75.7946 Y10.4439
X-75.7879 Y10.4385
X-75.7809 Y10.4336
X-75.671 Y10.4558
X-75.6479 Y10.458
X-75.6144 Y10.4593
G3 X-75.6092 Y10.4877 I-0.0011 J0.0149
G1 X-75.806 Y10.5794
X-75.8134 Y10.5828 F50.
G3 X-75.8329 Y10.5762 I-0.0063 J-0.0135
G1 X-75.869 Y10.5003 F60.
G3 X-75.8607 Y10.4137 I0.0507 J-0.0388
X-75.8505 Y10.4257 I-0.0046 J0.0142
G1 X-75.8485 Y10.4399
X-75.841 Y10.4913
G3 X-75.8434 Y10.5017 I-0.0147 J0.0021
X-75.869 Y10.5003 I-0.0124 J-0.0083 F50.
G1 X-75.9052 Y10.4242 F60.
X-75.9075 Y10.4187
X-75.9085 Y10.4126
X-75.9086 Y10.4106
X-75.9078 Y10.407
X-75.9056 Y10.4041
X-75.9022 Y10.4026
X-75.8986 Y10.4028
G3 X-75.887 Y10.4089 I-0.0122 J0.0374
X-75.8823 Y10.4201 I-0.0074 J0.0097
X-75.9052 Y10.4242 I-0.0121 J-0.0015 F50.
G1 X-75.9149 Y10.4038 F60.
X-75.9155 Y10.4024
X-75.916 Y10.4014
Y10.3998
X-75.915 Y10.3987
X-75.9135 Y10.3985
X-75.9123 Y10.3997 F50.
X-75.916 Y10.4014
X-75.9173 Y10.3986 F60.
X-75.9176 Y10.3981
G2 X-75.7803 Y10.4345 I0.3627 J-1.0905
G3 X-75.7726 Y10.459 I-0.0033 J0.0145
G1 X-75.7745 Y10.4612 Z-0.1297
X-75.7764 Y10.4633 Z-0.1289
X-75.7781 Y10.4652 Z-0.1275
X-75.7796 Y10.4669 Z-0.1256
X-75.7808 Y10.4682 Z-0.1234
X-75.7817 Y10.4693 Z-0.1208
X-75.7823 Y10.4699 Z-0.118
X-75.7825 Y10.4701 Z-0.1151
G0 Z-0.1002
X-75.4915 Y11.2565
G1 Z-0.1151 F50.
Y11.2568 Z-0.118
X-75.4916 Y11.2577 Z-0.1208
X-75.4917 Y11.259 Z-0.1234
X-75.4919 Y11.2609 Z-0.1256
X-75.4921 Y11.2631 Z-0.1275
X-75.4924 Y11.2657 Z-0.1289
X-75.4926 Y11.2685 Z-0.1297
X-75.4929 Y11.2714 Z-0.13
G2 X-75.488 Y11.3019 I0.062 J0.0058
G1 X-75.4629 Y11.3549 F60.
X-75.4543 Y11.3633
X-75.4453 Y11.3713
X-75.4359 Y11.3789
X-75.4261 Y11.3859
X-75.416 Y11.3925
X-75.4056 Y11.3985
X-75.3949 Y11.404
X-75.3839 Y11.409
X-75.3727 Y11.4134
X-75.3613 Y11.4172
X-75.3497 Y11.4205
X-75.338 Y11.4232
X-75.3261 Y11.4252
X-75.3142 Y11.4267
X-75.3021 Y11.4276
X-75.2901 Y11.4278
X-75.2781 Y11.4275
X-75.2661 Y11.4265
X-75.2541 Y11.425
X-75.2423 Y11.4228
X-75.2306 Y11.4201
X-75.219 Y11.4168
X-75.2076 Y11.4129
X-75.1964 Y11.4084
X-75.1855 Y11.4033
X-75.1748 Y11.3978
X-75.1644 Y11.3916
X-75.1544 Y11.385
X-75.1447 Y11.3779
X-75.1353 Y11.3703
X-75.1264 Y11.3622
X-75.1179 Y11.3537
X-75.1098 Y11.3448
X-75.1021 Y11.3355
G2 X-74.9977 Y11.2137 I-0.1144 J-0.2039
G1 X-74.9989 Y11.2112
G3 X-75.0606 Y11.0511 I0.2831 J-0.2011
G1 X-75.0616 Y11.0484
X-75.063 Y11.0459
X-75.0648 Y11.0437
X-75.0671 Y11.042
X-75.0696 Y11.0406
X-75.0723 Y11.0398
X-75.0751 Y11.0395
X-75.078 Y11.0397
X-75.0807 Y11.0405
X-75.0832 Y11.0417
X-75.0855 Y11.0434
G2 X-75.0881 Y11.0466 I0.01 J0.0111
X-75.0278 Y11.2022 I0.0884 J0.0552
G1 X-75.026 Y11.2026 F50.
G2 X-75.0089 Y11.2058 I0.0298 J-0.1143
G3 X-74.9989 Y11.2112 I-0.0016 J0.0148
G1 X-74.9808 Y11.2353 F60.
G3 X-75.1504 Y11.4769 I-0.1913 J0.046
X-75.3891 Y11.5122 I-0.1581 J-0.2443
G1 X-75.4629 Y11.3549
G3 X-75.4612 Y11.3401 I0.0137 J-0.0059
X-75.4087 Y11.3331 I0.0296 J0.0219
X-75.3787 Y11.4832 I-0.0732 J0.0927
X-75.387 Y11.4961 I-0.1032 J-0.0574 F50.
G2 X-75.3887 Y11.5108 I0.012 J0.0089
G1 X-75.3703 Y11.5495 F60.
G2 X-75.0509 Y11.5342 I0.1519 J-0.1712
X-74.9251 Y11.4313 I-0.0592 J-0.2008
G1 X-74.9099 Y11.3074
G2 X-74.9808 Y11.2353 I-0.387 J0.3099
X-74.9947 Y11.23 I-0.0116 J0.0093
X-75.0151 Y11.2534 I0.0037 J0.0238
X-74.9436 Y11.4085 I0.1968 J0.0033
G1 X-74.9314 Y11.4178 F50.
G3 X-74.9251 Y11.4313 I-0.0086 J0.0122
G1 X-74.9359 Y11.5198 F60.
G3 X-75.2962 Y11.6973 I-0.2945 J-0.1432
G1 X-75.2987 Y11.6966
X-75.3007 Y11.695
X-75.3022 Y11.6929
X-75.3703 Y11.5495
G3 X-75.3686 Y11.5348 I0.0137 J-0.0059
X-75.3039 Y11.5332 I0.033 J0.0244
X-75.2922 Y11.6653 I-0.0916 J0.0746
X-75.3005 Y11.6782 I-0.1032 J-0.0574 F50.
G2 X-75.3022 Y11.6929 I0.012 J0.0089
G1 X-75.286 Y11.7269 F60.
G2 X-75.1106 Y11.774 I0.1202 J-0.0977
G3 X-74.9516 Y11.6471 I0.3859 J0.3206
G1 X-74.9359 Y11.5198
G2 X-74.9587 Y11.5059 I-0.0148 J-0.0013
G1 X-75.272 Y11.7032
X-75.2803 Y11.7084 F50.
G2 X-75.286 Y11.7269 I0.0079 J0.0126
G1 X-75.2475 Y11.8079 F60.
X-75.2438 Y11.8147
X-75.2394 Y11.8213
X-75.2346 Y11.8274
X-75.2293 Y11.8331
X-75.2235 Y11.8384
X-75.2174 Y11.8432
X-75.2108 Y11.8475
X-75.204 Y11.8513
X-75.1969 Y11.8545
X-75.1895 Y11.8571
X-75.1819 Y11.8591
X-75.1743 Y11.8605
X-75.1665 Y11.8613
X-75.1587 Y11.8615
G3 X-75.1104 Y11.7741 I0.2244 J0.0669
G1 X-75.109 Y11.7715
X-75.1081 Y11.7687
X-75.1079 Y11.7657
X-75.1082 Y11.7628
X-75.109 Y11.76
X-75.1104 Y11.7574
X-75.1123 Y11.7551
X-75.1145 Y11.7533
G2 X-75.1358 Y11.7541 I-0.0101 J0.0148
X-75.1644 Y11.829 I0.0489 J0.0617
X-75.159 Y11.8473 I0.0776 J-0.0132 F50.
G3 X-75.1587 Y11.8587 I-0.0136 J0.006
G1 X-75.1647 Y11.8726 F60.
G3 X-75.2055 Y11.8963 I-0.0298 J-0.0044
X-75.1954 Y11.851 I0.0361 J-0.0156
X-75.1762 Y11.8474 I0.0127 J0.0145
X-75.1647 Y11.8726 I-0.0064 J0.0182 F50.
G2 X-75.1766 Y11.9124 I0.1077 J0.0539 F60.
G1 X-75.1779 Y11.9182
X-75.1798 Y11.9216
X-75.1828 Y11.9246
X-75.1869 Y11.9256
X-75.191 Y11.9243
X-75.1937 Y11.9211
G3 X-75.1963 Y11.9128 I0.0361 J-0.0156
Y11.9091 I0.0098 J-0.0019
X-75.1766 Y11.9124 I0.0098 J0.0018 F50.
G1 X-75.1799 Y11.9313 F60.
X-75.1802 Y11.9324
X-75.1804 Y11.9339
X-75.1811 Y11.9368
X-75.1829 Y11.938
X-75.1851 Y11.9377
X-75.1866 Y11.9362
X-75.1872 Y11.9346 F50.
X-75.1817 Y11.9306
X-75.1804 Y11.9339
X-75.1816 Y11.9406 F60.
X-75.1818 Y11.9416
X-75.182 Y11.9427
X-75.1823 Y11.9442
X-75.1825 Y11.9447
X-75.1833 Y11.9429 F50.
X-75.1827 Y11.9419
X-75.182 Y11.9427
X-75.1822 Y11.944 F60.
X-75.1825 Y11.9447
X-75.2475 Y11.8079
G3 X-75.2325 Y11.7872 I0.0137 J-0.0059
G1 X-75.2296 Y11.7874 Z-0.1297
X-75.2268 Y11.7877 Z-0.1289
X-75.2242 Y11.788 Z-0.1275
X-75.222 Y11.7882 Z-0.1256
X-75.2201 Y11.7883 Z-0.1234
X-75.2188 Y11.7885 Z-0.1208
X-75.2179 Y11.7886 Z-0.118
X-75.2176 Z-0.1151
G0 Z-0.1002
X-75.4737 Y10.4996
G1 Z-0.1151 F50.
X-75.4738 Y10.4993 Z-0.118
X-75.474 Y10.4985 Z-0.1208
X-75.4744 Y10.4972 Z-0.1234
X-75.4748 Y10.4954 Z-0.1256
X-75.4754 Y10.4932 Z-0.1275
X-75.476 Y10.4907 Z-0.1289
X-75.4767 Y10.488 Z-0.1297
X-75.4775 Y10.4852 Z-0.13
G2 X-75.4924 Y10.4581 I-0.0603 J0.0155
G1 X-75.5026 Y10.4479 F60.
X-75.5041 Y10.4469
X-75.5048 Y10.4466
X-75.5091 Y10.4471
X-75.5099 Y10.4473
X-75.5123 Y10.4485 Z-0.1299
X-75.5146 Y10.4497 Z-0.1294
X-75.5168 Y10.4508 Z-0.1284
X-75.518 Y10.4525 Z-0.127
X-75.5191 Y10.4541 Z-0.1253
X-75.52 Y10.4553 Z-0.1234
X-75.5206 Y10.4563 Z-0.1212
X-75.5209 Y10.457 Z-0.1192
X-75.521 Y10.4574 Z-0.1172
X-75.5211 Y10.4576 Z-0.1151
G0 Z0.4
X-75.1788 Y9.6164
Z0.1
G3 X-75.2789 Y9.6488 Z0.0791 I-0.0646 J-0.0288 F50.
X-75.3007 Y9.5459 Z0.0582 I0.0354 J-0.0613
X-75.1961 Y9.535 Z0.0373 I0.0572 J0.0416
Y9.6402 Z0.0164 I-0.0474 J0.0526
X-75.2908 Y9.5349 Z-0.0228 I-0.0473 J-0.0526
X-75.1961 Y9.6402 Z-0.062 I0.0473 J0.0526
X-75.2908 Y9.5349 Z-0.1013 I-0.0473 J-0.0526
X-75.1727 Y9.5876 Z-0.13 I0.0473 J0.0526
X-75.3142 I-0.0708 J0.
X-75.1727 I0.0708 J0.
X-75.3236 Y9.7107 I-0.0774 J0.0592 F60.
G1 X-75.3319 Y9.7055
X-75.3398 Y9.6997
X-75.3473 Y9.6935
X-75.3545 Y9.6868
X-75.3612 Y9.6796
X-75.3674 Y9.6721
X-75.3731 Y9.6641
X-75.3783 Y9.6558
X-75.383 Y9.6472
X-75.3871 Y9.6383
X-75.3906 Y9.6292
X-75.3935 Y9.6198
X-75.3958 Y9.6103
X-75.3975 Y9.6007
X-75.3986 Y9.591
X-75.3991 Y9.5812
X-75.3989 Y9.5714
X-75.3981 Y9.5616
X-75.3967 Y9.5519
X-75.3947 Y9.5424
X-75.392 Y9.5329
X-75.3888 Y9.5237
X-75.3849 Y9.5147
X-75.3805 Y9.5059
X-75.3756 Y9.4975
X-75.3701 Y9.4894
X-75.3641 Y9.4816
X-75.3576 Y9.4743
X-75.3507 Y9.4674
X-75.3433 Y9.4609
X-75.3356 Y9.455
X-75.3274 Y9.4495
X-75.319 Y9.4446
X-75.3102 Y9.4402
X-75.3012 Y9.4364
X-75.2919 Y9.4332
X-75.2825 Y9.4306
X-75.2729 Y9.4286
X-75.2632 Y9.4272
X-75.2535 Y9.4264
X-75.2437 Y9.4263
X-75.2339 Y9.4268
X-75.2242 Y9.4279
X-75.2146 Y9.4296
X-75.2051 Y9.432
X-75.1957 Y9.4349
X-75.1866 Y9.4385
X-75.1777 Y9.4426
X-75.1691 Y9.4473
X-75.1608 Y9.4525
X-75.1529 Y9.4583
X-75.1454 Y9.4645
X-75.1383 Y9.4712
X-75.1316 Y9.4784
X-75.1254 Y9.486
X-75.1197 Y9.4939
X-75.1145 Y9.5022
X-75.1098 Y9.5108
X-75.1058 Y9.5197
X-75.0989 Y9.5282
X-75.0926 Y9.5371
X-75.0868 Y9.5463
X-75.0815 Y9.5558
X-75.0767 Y9.5656
X-75.0726 Y9.5757
X-75.069 Y9.586
X-75.066 Y9.5965
X-75.0636 Y9.6071
X-75.0618 Y9.6179
X-75.0606 Y9.6287
X-75.0601 Y9.6396
X-75.0602 Y9.6505
X-75.0608 Y9.6613
X-75.0621 Y9.6722
X-75.0641 Y9.6829
X-75.0666 Y9.6935
X-75.0697 Y9.7039
X-75.0734 Y9.7142
X-75.0777 Y9.7242
X-75.0826 Y9.7339
X-75.088 Y9.7434
X-75.0939 Y9.7525
X-75.1004 Y9.7613
X-75.1073 Y9.7697
X-75.1147 Y9.7777
X-75.1226 Y9.7853
X-75.1308 Y9.7924
X-75.1395 Y9.799
X-75.1485 Y9.8051
X-75.1579 Y9.8107
X-75.1675 Y9.8157
X-75.1775 Y9.8202
X-75.1876 Y9.8242
X-75.198 Y9.8275
X-75.2085 Y9.8302
X-75.2192 Y9.8324
X-75.23 Y9.8339
X-75.2409 Y9.8348
X-75.2518 Y9.8351
X-75.2627 Y9.8347
X-75.2735 Y9.8338
X-75.2843 Y9.8322
X-75.295 Y9.83
X-75.3055 Y9.8272
X-75.3159 Y9.8238
X-75.326 Y9.8198
X-75.3359 Y9.8153
X-75.3455 Y9.8102
G2 X-75.4071 Y9.7649 I-1.263 J1.651
G3 X-75.4945 Y9.5759 I0.1259 J-0.1729
G1 X-75.4932 Y9.5733
X-75.4914 Y9.5711
X-75.4893 Y9.5693
X-75.4868 Y9.5679
X-75.4842 Y9.5669
X-75.4814 Y9.5665
X-75.4786 Y9.5666
X-75.4759 Y9.5673
X-75.4733 Y9.5684
X-75.471 Y9.57
X-75.469 Y9.572
G3 X-75.4671 Y9.5751 I-0.0116 J0.0094
G1 X-75.3871 Y9.7451
X-75.3862 Y9.7478
X-75.3858 Y9.7506
G3 X-75.4071 Y9.7649 I-0.0149 J0.0008 F50.
G2 X-75.4947 Y9.725 I-0.1524 J0.2185 F60.
G3 X-75.5375 Y9.6943 I-0.0074 J-0.0348
X-75.519 Y9.6857 I0.0138 J0.0056
G1 X-75.5109 Y9.6884
X-75.4867 Y9.6963
G3 X-75.4771 Y9.7063 I-0.0046 J0.0142
X-75.4947 Y9.725 I-0.0143 J0.0042 F50.
X-75.5438 Y9.7117 I-0.0021 J-0.0901 F60.
G1 X-75.456 Y9.4704
X-75.4503 Y9.4596
X-75.444 Y9.449
X-75.4373 Y9.4388
X-75.43 Y9.429
X-75.4222 Y9.4195
X-75.414 Y9.4104
X-75.4053 Y9.4017
X-75.3962 Y9.3935
X-75.3867 Y9.3858
X-75.3769 Y9.3785
X-75.3667 Y9.3718
X-75.3561 Y9.3655
X-75.3453 Y9.3598
X-75.3341 Y9.3547
X-75.3228 Y9.3501
X-75.3112 Y9.3461
X-75.2994 Y9.3427
X-75.2875 Y9.3398
X-75.2755 Y9.3376
X-75.2633 Y9.336
X-75.2511 Y9.335
X-75.2389 Y9.3346
X-75.2266 Y9.3348
X-75.2144 Y9.3356
X-75.2022 Y9.3371
X-75.1901 Y9.3391
X-75.1782 Y9.3418
X-75.1664 Y9.345
X-75.1547 Y9.3489
X-75.1433 Y9.3533
X-75.1321 Y9.3583
X-75.1212 Y9.3638
X-75.1106 Y9.3699
X-75.1002 Y9.3765
X-75.0903 Y9.3836
X-75.0807 Y9.3912
X-75.0714 Y9.3993
X-75.0626 Y9.4078
X-75.0543 Y9.4168
X-75.0464 Y9.4262
X-75.039 Y9.4359
X-75.0321 Y9.446
X-75.0257 Y9.4565
X-75.0198 Y9.4672
X-75.0145 Y9.4782
X-74.992 Y9.7018
G3 X-75.2699 Y9.922 I-0.2475 J-0.0269
G2 X-75.3468 Y9.8124 I-0.3396 J0.1566
G3 X-75.3509 Y9.7981 I0.0104 J-0.0107
X-75.3302 Y9.7825 I0.0201 J0.0051
X-75.2607 Y9.894 I-0.0021 J0.0787
X-75.2684 Y9.9072 I-0.0716 J-0.0328 F50.
G2 X-75.2699 Y9.922 I0.0121 J0.0087
G1 X-75.2643 Y9.9333 F60.
X-75.259 Y9.9448
X-75.2513 Y9.9516
X-75.2431 Y9.958
X-75.2347 Y9.9639
X-75.2259 Y9.9692
X-75.2167 Y9.9741
X-75.2074 Y9.9784
X-75.1978 Y9.9822
X-75.188 Y9.9855
X-75.178 Y9.9881
X-75.1679 Y9.9902
X-75.1577 Y9.9917
X-75.1474 Y9.9926
X-75.1371 Y9.993
X-75.1267 Y9.9927
X-75.1164 Y9.9918
X-75.1062 Y9.9904
X-75.0961 Y9.9883
X-75.0861 Y9.9857
X-75.0763 Y9.9825
X-75.0667 Y9.9787
X-75.0573 Y9.9745
X-75.0482 Y9.9696
X-75.0393 Y9.9643
X-75.0308 Y9.9584
X-75.0227 Y9.9521
X-75.0149 Y9.9453
X-75.0075 Y9.9381
X-75.0005 Y9.9305
X-74.994 Y9.9225
X-74.988 Y9.9141
X-74.9825 Y9.9054
X-74.9774 Y9.8964
X-74.974 Y9.896
X-74.992 Y9.7018
G2 X-75.0011 Y9.69 I-0.0148 J0.0019
X-75.024 Y9.695 I-0.0079 J0.0189
X-74.9968 Y9.8773 I0.0866 J0.0803
X-74.983 Y9.8842 I0.0594 J-0.1021 F50.
G3 X-74.974 Y9.896 I-0.0058 J0.0137
G1 X-74.9694 Y9.946 F60.
X-74.972 Y9.9562
X-74.9753 Y9.9662
X-74.979 Y9.9761
X-74.9834 Y9.9857
X-74.9882 Y9.995
X-74.9936 Y10.0041
X-74.9995 Y10.0128
X-75.0058 Y10.0212
X-75.0126 Y10.0293
X-75.0199 Y10.0369
X-75.0276 Y10.0441
X-75.0357 Y10.0509
X-75.0441 Y10.0572
X-75.0529 Y10.063
X-75.062 Y10.0683
X-75.0713 Y10.0731
X-75.081 Y10.0774
X-75.0908 Y10.0811
X-75.1009 Y10.0842
X-75.1111 Y10.0868
X-75.1214 Y10.0888
X-75.1319 Y10.0903
X-75.1424 Y10.0911
X-75.1529 Y10.0913
X-75.1634 Y10.091
X-75.1739 Y10.09
X-75.1843 Y10.0885
X-75.1946 Y10.0864
X-75.2048 Y10.0837
X-75.2148 Y10.0805
X-75.2246 Y10.0766
X-75.2342 Y10.0723
G2 X-75.259 Y9.9448 I-0.3986 J0.0114
G3 X-75.2572 Y9.93 I0.0137 J-0.0058
X-75.2222 Y9.924 I0.0207 J0.0157
X-75.2137 Y10.0492 I-0.0432 J0.0659
X-75.2261 Y10.0581 I-0.0517 J-0.0594 F50.
G2 X-75.2336 Y10.071 I0.0074 J0.0129
G1 X-75.2328 Y10.0953 F60.
G2 X-74.9586 Y10.1034 I0.1397 J-0.0835
G1 X-74.9548 Y10.1032
X-74.9694 Y9.946
G2 X-74.9784 Y9.9342 I-0.0148 J0.0019
X-75.0352 Y9.9666 I-0.0159 J0.038
X-74.9775 Y10.0846 I0.117 J0.0158
X-74.9638 Y10.0914 I0.0594 J-0.1021 F50.
G3 X-74.9548 Y10.1032 I-0.0058 J0.0137
G1 X-74.9513 Y10.1416 F60.
G3 X-75.1774 Y10.2544 I-0.1649 J-0.0474
X-75.2328 Y10.0953 I0.0423 J-0.104
X-75.2073 Y10.085 I0.0149 J0.0002
X-75.2044 Y10.0897 I-0.0089 J0.0087
X-75.1812 Y10.2245 I-0.4098 J0.1399
G1 X-75.1814 Y10.2437 F50.
G2 X-75.1774 Y10.2544 I0.0149 J0.0005
G1 X-75.128 Y10.3036 F60.
X-75.1202 Y10.3091
X-75.1121 Y10.3141
X-75.1037 Y10.3185
X-75.0949 Y10.3224
X-75.086 Y10.3257
X-75.0769 Y10.3284
X-75.0676 Y10.3305
X-75.0582 Y10.3319
X-75.0487 Y10.3328
X-75.0392 Y10.333
X-75.0296 Y10.3326
X-75.0202 Y10.3316
X-75.0108 Y10.33
X-75.0015 Y10.3277
X-74.9924 Y10.3249
X-74.9836 Y10.3214
X-74.9749 Y10.3174
X-74.9666 Y10.3128
X-74.9585 Y10.3077
X-74.9509 Y10.3021
X-74.9436 Y10.296
X-74.9367 Y10.2894
X-74.9513 Y10.1416
G2 X-74.9603 Y10.1297 I-0.0148 J0.0019
X-75.019 Y10.1694 I-0.0164 J0.0391
X-74.9604 Y10.2698 I0.1181 J-0.0017
X-74.9466 Y10.2766 I0.0594 J-0.1021 F50.
G3 X-74.9376 Y10.2885 I-0.0058 J0.0137
G1 X-74.935 Y10.3163 F60.
G3 X-75.0218 Y10.4107 I-0.095 J-0.0002
G1 X-75.0237 Y10.4085
X-75.0251 Y10.4059
X-75.0261 Y10.4032
X-75.0265 Y10.4003
X-75.0263 Y10.3975
X-75.0257 Y10.3947
X-75.0245 Y10.3922
X-75.023 Y10.3899
X-75.0169 Y10.3819
X-74.9617 Y10.3092
X-74.9603 Y10.3076
X-74.9586 Y10.3062
G3 X-74.935 Y10.3163 I0.0088 J0.012 F50.
G1 X-74.9276 Y10.3962 F60.
G3 X-74.9682 Y10.4626 I-0.0576 J0.0105
X-74.9717 Y10.4485 I0.0109 J-0.0102
G1 X-74.9675 Y10.4333
X-74.9679 Y10.4276
X-74.9676 Y10.4219
X-74.9668 Y10.4162
X-74.9655 Y10.4106
X-74.9636 Y10.4052
X-74.9612 Y10.4
X-74.9584 Y10.395
X-74.955 Y10.3903
X-74.9512 Y10.386
X-74.9488 Y10.3846 F50.
X-74.9462 Y10.3837
X-74.9434 Y10.3832
X-74.9406 Y10.3833
X-74.9379 Y10.3839
X-74.9353 Y10.385
X-74.933 Y10.3866
X-74.931 Y10.3885
X-74.9294 Y10.3908
X-74.9283 Y10.3934
X-74.9276 Y10.3962
X-74.9212 Y10.4656 F60.
X-74.9209 Y10.4719
X-74.9215 Y10.4778
X-74.9232 Y10.484
X-74.9257 Y10.4901
X-74.9262 Y10.4908
X-74.9296 Y10.4939
X-74.9343 Y10.4944
X-74.9384 Y10.4923
G3 X-74.9489 Y10.4684 I0.0287 J-0.0269
X-74.9448 Y10.4574 I0.0139 J-0.0011
X-74.9212 Y10.4656 I0.0098 J0.0099 F50.
G1 X-74.9182 Y10.4984 F60.
X-74.918 Y10.4996
X-74.9179 Y10.5008
X-74.9177 Y10.5068
X-74.9191 Y10.5082
X-74.9211 Y10.5086
X-74.9229 Y10.5077
G3 X-74.926 Y10.504 I0.0287 J-0.0269 F50.
G1 X-74.9268 Y10.5013
X-74.9179 Y10.5008
X-74.9171 Y10.51 F60.
X-74.9169 Y10.5119
X-74.9168 Y10.5125
X-74.9174 Y10.5132
X-74.9176 Y10.5129 F50.
X-74.9168 Y10.5125
X-74.9174 Y10.5132 F60.
X-75.128 Y10.3036
G3 X-75.1208 Y10.2789 I0.0109 J-0.0102
G1 X-75.118 Y10.2782 Z-0.1297
X-75.1152 Y10.2775 Z-0.1289
X-75.1127 Y10.2769 Z-0.1275
X-75.1106 Y10.2764 Z-0.1256
X-75.1088 Y10.2759 Z-0.1234
X-75.1074 Y10.2756 Z-0.1208
X-75.1066 Y10.2754 Z-0.118
X-75.1063 Y10.2753 Z-0.1151
G0 Z-0.1002
X-75.0252 Y9.5213
G1 Z-0.1151 F50.
X-75.0251 Y9.5211 Z-0.118
X-75.0247 Y9.5203 Z-0.1208
X-75.0241 Y9.5191 Z-0.1234
X-75.0233 Y9.5174 Z-0.1256
X-75.0223 Y9.5153 Z-0.1275
X-75.0212 Y9.513 Z-0.1289
X-75.02 Y9.5105 Z-0.1297
X-75.0188 Y9.5079 Z-0.13
G2 X-75.0129 Y9.4775 I-0.0563 J-0.0268
G1 X-75.0221 Y9.3778 F60.
X-75.0276 Y9.3667
X-75.0337 Y9.3559
X-75.0403 Y9.3454
X-75.0474 Y9.3353
X-75.055 Y9.3255
X-75.0631 Y9.3161
X-75.0716 Y9.3071
X-75.0806 Y9.2986
X-75.09 Y9.2905
X-75.0998 Y9.2829
X-75.11 Y9.2758
X-75.1205 Y9.2692
X-75.1313 Y9.2631
X-75.1424 Y9.2576
X-75.1538 Y9.2527
X-75.1654 Y9.2483
X-75.1772 Y9.2446
X-75.1892 Y9.2414
X-75.2013 Y9.2388
X-75.2135 Y9.2368
X-75.2259 Y9.2354
X-75.2382 Y9.2347
X-75.2506 Y9.2346
X-75.263 Y9.2351
X-75.2754 Y9.2362
X-75.2876 Y9.2379
X-75.2998 Y9.2402
X-75.3118 Y9.2432
X-75.3237 Y9.2467
X-75.3354 Y9.2509
X-75.3469 Y9.2556
X-75.3581 Y9.2608
X-75.369 Y9.2667
X-75.3797 Y9.273
X-75.3832 Y9.2711
X-75.3841 Y9.2729
X-75.456 Y9.4704
G2 X-75.4529 Y9.485 I0.0142 J0.0046
X-75.3658 Y9.478 I0.0409 J-0.0368
X-75.3713 Y9.2993 I-0.1324 J-0.0853
X-75.381 Y9.2875 I-0.1268 J0.0934 F50.
G3 X-75.3841 Y9.2729 I0.0111 J-0.01
G1 X-75.3665 Y9.2245 F60.
G3 X-75.0432 Y9.2067 I0.17 J0.1424
G1 X-75.0385 Y9.2052
X-75.0379 Y9.2075
X-75.0221 Y9.3778
G3 X-75.0288 Y9.3911 I-0.0149 J0.0009
X-75.0819 Y9.3786 I-0.0206 J-0.0313
X-75.0568 Y9.2301 I0.1023 J-0.0591
X-75.0446 Y9.2208 I0.0772 J0.0894 F50.
G2 X-75.0379 Y9.2075 I-0.0082 J-0.0124
G1 X-75.0414 Y9.1695 F60.
G2 X-75.3106 Y9.0709 I-0.1837 J0.0847
G1 X-75.3665 Y9.2245
G2 X-75.3634 Y9.2391 I0.0142 J0.0046
X-75.3021 Y9.2369 I0.0297 J-0.0267
X-75.298 Y9.0975 I-0.0932 J-0.0725
X-75.3075 Y9.0854 I-0.0973 J0.0669 F50.
G3 X-75.3106 Y9.0709 I0.0111 J-0.01
G1 X-75.2959 Y9.0307 F60.
G3 X-75.0565 Y9.0073 I0.1315 J0.1096
G1 X-75.0414 Y9.1695
G3 X-75.0481 Y9.1828 I-0.0149 J0.0009
X-75.1072 Y9.1648 I-0.0221 J-0.0335
X-75.0754 Y9.0299 I0.109 J-0.0455
X-75.0632 Y9.0207 I0.0772 J0.0894 F50.
G2 X-75.0565 Y9.0073 I-0.0082 J-0.0124
G1 X-75.0598 Y8.9717 F60.
G2 X-75.2451 Y8.891 I-0.1316 J0.0492
G1 X-75.2959 Y9.0307
G2 X-75.2928 Y9.0452 I0.0142 J0.0046
X-75.2231 Y9.0351 I0.0315 J-0.0283
X-75.2325 Y8.9176 I-0.1067 J-0.0506
X-75.242 Y8.9056 I-0.0973 J0.0669 F50.
G3 X-75.2451 Y8.891 I0.0111 J-0.01
G1 X-75.234 Y8.8605 F60.
X-75.2293 Y8.8536
X-75.2241 Y8.847
X-75.2184 Y8.8408
X-75.2123 Y8.835
X-75.2058 Y8.8297
X-75.1989 Y8.8249
X-75.1917 Y8.8206
X-75.1842 Y8.8169
X-75.1764 Y8.8137
X-75.1684 Y8.8111
X-75.1602 Y8.8092
X-75.1519 Y8.8078
X-75.1436 Y8.807
X-75.1352 Y8.8069
X-75.1268 Y8.8074
X-75.1185 Y8.8085
X-75.1102 Y8.8102
X-75.1022 Y8.8126
X-75.0943 Y8.8155
X-75.0867 Y8.819
X-75.0793 Y8.823
X-75.0723 Y8.8276
X-75.0598 Y8.9717
G3 X-75.0665 Y8.985 I-0.0149 J0.0009
X-75.1321 Y8.9544 I-0.0234 J-0.0355
X-75.0919 Y8.8513 I0.1173 J-0.0137
X-75.0797 Y8.842 I0.0772 J0.0894 F50.
G2 X-75.073 Y8.8287 I-0.0082 J-0.0124
G1 X-75.0758 Y8.7992 F60.
G2 X-75.1899 Y8.7363 I-0.0882 J0.0249
G1 X-75.234 Y8.8605
G2 X-75.2309 Y8.8751 I0.0142 J0.0046
X-75.2169 Y8.8788 I0.0099 J-0.0089
X-75.1772 Y8.765 I-0.028 J-0.0736
X-75.1863 Y8.7526 I-0.0677 J0.0403 F50.
G3 X-75.1894 Y8.7381 I0.0111 J-0.01
G1 X-75.1813 Y8.7157 F60.
G3 X-75.0852 Y8.6842 I0.0639 J0.0327
G1 X-75.0758 Y8.7992
G3 X-75.0825 Y8.8125 I-0.0149 J0.0009
X-75.1184 Y8.8037 I-0.0139 J-0.0211
X-75.1048 Y8.7093 I0.0688 J-0.0383
X-75.0929 Y8.6996 I0.0552 J0.0561 F50.
G2 X-75.0863 Y8.6863 I-0.0082 J-0.0124
G1 X-75.088 Y8.6676 F60.
G2 X-75.1489 Y8.6229 I-0.0531 J0.0085
G1 X-75.1813 Y8.7157
G2 X-75.1577 Y8.7319 I0.0142 J0.0046
G1 X-75.1066 Y8.6906
X-75.0935 Y8.6801 F50.
G2 X-75.088 Y8.6676 I-0.0094 J-0.0116
G1 X-75.093 Y8.6141 F60.
G2 X-75.1306 Y8.5766 I-0.0319 J-0.0056
G1 X-75.1485 Y8.6256
G2 X-75.1454 Y8.6402 I0.0142 J0.0046
X-75.1234 Y8.6383 I0.0103 J-0.0092
X-75.1197 Y8.6042 I-0.0334 J-0.0208
X-75.1275 Y8.5911 I-0.0371 J0.0132 F50.
G3 X-75.1306 Y8.5766 I0.0111 J-0.01
G1 X-75.1266 Y8.5657 F60.
X-75.1243 Y8.5602
X-75.1203 Y8.5557
X-75.1154 Y8.5522
X-75.11 Y8.5496
X-75.1084 Y8.5492
X-75.1039
X-75.1001 Y8.5517
X-75.0983 Y8.5559
G3 X-75.1023 Y8.5756 I-0.0393 J0.0023
X-75.1082 Y8.5815 I-0.0118 J-0.0058
X-75.1266 Y8.5657 I-0.0059 J-0.0118 F50.
G1 X-75.1173 Y8.54 F60.
X-75.115 Y8.5345
X-75.114 Y8.5333
X-75.1103 Y8.5307
X-75.1057 Y8.5306
X-75.1018 Y8.5331
X-75.1001 Y8.5374
G3 Y8.5422 I-0.0393 J0.0023
G1 X-75.1002 Y8.5436 F50.
G3 X-75.1108 Y8.5513 I-0.0087 J-0.0009
X-75.1173 Y8.54 I0.0018 J-0.0086
G1 X-75.1117 Y8.5245 F60.
X-75.1093 Y8.519
X-75.1061 Y8.5178
X-75.103 Y8.519
X-75.1015 Y8.522
G3 Y8.5264 I-0.0393 J0.0023 F50.
X-75.1076 Y8.5312 I-0.0052 J-0.0003
X-75.1117 Y8.5245 I0.001 J-0.0051
G1 X-75.1081 Y8.5147 F60.
X-75.1075 Y8.513
X-75.107 Y8.5118
X-75.1065 Y8.5105
X-75.1048 Y8.5099
X-75.1032 Y8.5106
X-75.1024 Y8.5122
Y8.5127 F50.
X-75.1072 Y8.5126
X-75.1055 Y8.5076 F60.
X-75.1051 Y8.5065
X-75.1046 Y8.5052
X-75.1041 Y8.5039
X-75.1037
X-75.1033 Y8.5041
X-75.1031 Y8.5045
Y8.5054 F50.
X-75.1033 Y8.506
X-75.104 Y8.5062
X-75.1045 Y8.5059
X-75.1046 Y8.5052
X-75.1036 Y8.5025 F60.
X-75.1032 Y8.5032
X-75.093 Y8.6141
G3 X-75.1 Y8.6276 I-0.0149 J0.0009
G1 X-75.1022 Y8.6284 Z-0.1298
X-75.1044 Y8.6291 Z-0.1293
X-75.1064 Y8.6298 Z-0.1284
X-75.1078 Z-0.1275
X-75.11 Y8.6294 Z-0.1257
X-75.1118 Y8.6289 Z-0.1234
X-75.1132 Y8.6286 Z-0.1208
X-75.114 Y8.6285 Z-0.118
X-75.1143 Y8.6284 Z-0.1151
G0 Z0.4
X-74.2299 Y13.323
Z0.1
G3 X-74.33 Y13.3554 Z0.0791 I-0.0646 J-0.0288 F50.
X-74.3518 Y13.2525 Z0.0582 I0.0354 J-0.0613
X-74.2373 Y13.3358 Z0.019 I0.0572 J0.0416
X-74.3518 Y13.2525 Z-0.0202 I-0.0572 J-0.0416
X-74.2299 Y13.2654 Z-0.0464 I0.0572 J0.0416
X-74.2727 Y13.3615 Z-0.0673 I-0.0647 J0.0288
X-74.3164 Y13.2269 Z-0.1065 I-0.0219 J-0.0673
X-74.2238 Y13.2942 Z-0.13 I0.0219 J0.0673
X-74.3654 I-0.0708 J0.
X-74.2238 I0.0708 J0.
X-74.3747 Y13.4173 I-0.0774 J0.0592 F60.
G1 X-74.383 Y13.4121
X-74.3909 Y13.4063
X-74.3985 Y13.4001
X-74.4056 Y13.3934
X-74.4123 Y13.3863
X-74.4185 Y13.3787
X-74.4242 Y13.3707
X-74.4294 Y13.3625
X-74.4341 Y13.3538
X-74.4382 Y13.3449
X-74.4417 Y13.3358
X-74.4446 Y13.3265
X-74.447 Y13.3169
X-74.4487 Y13.3073
X-74.4498 Y13.2976
X-74.4502 Y13.2878
X-74.45 Y13.278
X-74.4492 Y13.2682
X-74.4478 Y13.2586
X-74.4458 Y13.249
X-74.4431 Y13.2396
X-74.4399 Y13.2303
X-74.4361 Y13.2213
X-74.4317 Y13.2126
X-74.4267 Y13.2041
X-74.4212 Y13.196
X-74.4152 Y13.1883
X-74.4087 Y13.1809
X-74.4018 Y13.174
X-74.3944 Y13.1676
X-74.3867 Y13.1616
X-74.3786 Y13.1561
X-74.3701 Y13.1512
X-74.3613 Y13.1468
X-74.3523 Y13.143
X-74.3431 Y13.1398
X-74.3336 Y13.1372
X-74.3241 Y13.1352
X-74.3144 Y13.1338
X-74.3046 Y13.133
X-74.2948 Y13.1329
X-74.285 Y13.1334
X-74.2753 Y13.1345
X-74.2657 Y13.1363
X-74.2562 Y13.1386
X-74.2468 Y13.1416
X-74.2377 Y13.1451
X-74.2288 Y13.1492
X-74.2203 Y13.1539
X-74.212 Y13.1591
X-74.2041 Y13.1649
X-74.1965 Y13.1711
X-74.1894 Y13.1779
X-74.1827 Y13.185
X-74.1765 Y13.1926
X-74.1708 Y13.2005
X-74.1656 Y13.2088
X-74.161 Y13.2174
X-74.1569 Y13.2263
X-74.1502 Y13.235
X-74.144 Y13.2441
X-74.1383 Y13.2535
X-74.1332 Y13.2632
X-74.1286 Y13.2731
X-74.1246 Y13.2833
X-74.1211 Y13.2938
X-74.1183 Y13.3044
X-74.1161 Y13.3151
X-74.1144 Y13.326
X-74.1134 Y13.3369
X-74.113 Y13.3478
X-74.1132 Y13.3588
X-74.1141 Y13.3698
X-74.1155 Y13.3806
X-74.1176 Y13.3914
X-74.1203 Y13.402
X-74.1235 Y13.4125
X-74.1274 Y13.4228
X-74.1318 Y13.4328
X-74.1368 Y13.4426
X-74.1423 Y13.4521
X-74.1483 Y13.4612
X-74.1549 Y13.47
X-74.1619 Y13.4784
X-74.1694 Y13.4865
X-74.1774 Y13.494
X-74.1857 Y13.5011
X-74.1945 Y13.5078
X-74.2036 Y13.5139
X-74.213 Y13.5195
X-74.2227 Y13.5245
X-74.2327 Y13.529
X-74.243 Y13.533
X-74.2534 Y13.5363
X-74.264 Y13.5391
X-74.2748 Y13.5412
X-74.2857 Y13.5428
X-74.2966 Y13.5437
X-74.3075 Y13.544
X-74.3185 Y13.5437
X-74.3294 Y13.5428
X-74.3403 Y13.5413
X-74.3511 Y13.5391
X-74.3617 Y13.5364
X-74.3721 Y13.533
X-74.3824 Y13.5291
X-74.3924 Y13.5246
X-74.4021 Y13.5195
X-74.4115 Y13.514
X-74.4206 Y13.5078
X-74.4294 Y13.5012
X-74.4377 Y13.4941
X-74.4457 Y13.4865
X-74.5216 Y13.3354
X-74.5248 Y13.3238
X-74.5273 Y13.3121
X-74.5293 Y13.3002
X-74.5306 Y13.2883
X-74.5313 Y13.2763
X-74.5314 Y13.2643
X-74.5309 Y13.2523
X-74.5297 Y13.2404
X-74.5279 Y13.2285
X-74.5255 Y13.2167
X-74.5225 Y13.2051
X-74.5189 Y13.1937
X-74.5147 Y13.1824
X-74.5099 Y13.1714
X-74.5045 Y13.1607
X-74.4986 Y13.1502
X-74.4921 Y13.1401
X-74.4851 Y13.1304
X-74.4777 Y13.121
X-74.4697 Y13.112
X-74.4613 Y13.1034
X-74.4524 Y13.0953
X-74.4432 Y13.0877
X-74.4335 Y13.0805
X-74.4235 Y13.0739
X-74.4132 Y13.0678
X-74.4025 Y13.0623
X-74.3916 Y13.0573
X-74.3804 Y13.0529
X-74.369 Y13.0491
X-74.3575 Y13.0459
X-74.3458 Y13.0432
X-74.3339 Y13.0413
X-74.322 Y13.0399
X-74.31 Y13.0391
X-74.298 Y13.039
X-74.286 Y13.0395
X-74.2741 Y13.0407
X-74.2622 Y13.0424
X-74.2504 Y13.0448
X-74.2388 Y13.0478
X-74.2273 Y13.0514
X-74.2161 Y13.0556
X-74.2051 Y13.0603
X-74.1943 Y13.0657
X-74.0523 Y13.2404
G2 X-74.0729 Y13.4409 I0.383 J0.1407
G3 X-74.3847 Y13.6226 I-0.2292 J-0.0349
G1 X-74.386 Y13.6206
X-74.4484 Y13.4893
G3 X-74.4467 Y13.4745 I0.0137 J-0.0059
X-74.3751 Y13.4797 I0.0341 J0.0253
X-74.376 Y13.5929 I-0.1041 J0.0558
X-74.3843 Y13.6058 I-0.1032 J-0.0574 F50.
G2 X-74.386 Y13.6206 I0.012 J0.0089
G1 X-74.3676 Y13.6594 F60.
X-74.3587 Y13.6668
X-74.3494 Y13.6737
X-74.3397 Y13.6801
X-74.3298 Y13.686
X-74.3195 Y13.6913
X-74.309 Y13.6961
X-74.2982 Y13.7003
X-74.2872 Y13.7039
X-74.2761 Y13.7069
X-74.2648 Y13.7094
X-74.2533 Y13.7112
X-74.2418 Y13.7124
X-74.2303 Y13.713
X-74.2187
X-74.2072 Y13.7124
X-74.1957 Y13.7112
X-74.1843 Y13.7093
X-74.173 Y13.7069
X-74.1618 Y13.7038
X-74.1508 Y13.7002
X-74.1401 Y13.6959
X-74.1296 Y13.6911
X-74.1193 Y13.6858
X-74.1093 Y13.6799
X-74.0997 Y13.6735
X-74.0904 Y13.6666
X-74.0816 Y13.6592
X-74.0731 Y13.6513
X-74.065 Y13.643
X-74.0574 Y13.6343
X-74.0503 Y13.6252
X-74.0437 Y13.6157
X-74.0376 Y13.6059
X-74.032 Y13.5958
X-74.0269 Y13.5854
X-74.0217 Y13.5845
X-74.023 Y13.5815
G3 X-74.0729 Y13.4409 I0.3472 J-0.2025
G2 X-74.0906 Y13.4293 I-0.0146 J0.003
X-74.1289 Y13.4952 I0.0104 J0.0501
X-74.0516 Y13.5716 I0.1123 J-0.0365
X-74.0328 Y13.5757 I0.035 J-0.1128 F50.
G3 X-74.023 Y13.5815 I-0.0021 J0.0148
G1 X-74.0171 Y13.59 F60.
X-74.0108 Y13.5987
X-74.0089 Y13.6083
X-74.0076 Y13.618
X-74.0069 Y13.6278
X-74.0068 Y13.6376
X-74.0073 Y13.6473
X-74.0084 Y13.6571
X-74.01 Y13.6667
X-74.0123 Y13.6762
X-74.0151 Y13.6856
X-74.0185 Y13.6948
X-74.0225 Y13.7038
X-74.027 Y13.7124
X-74.032 Y13.7209
X-74.0375 Y13.7289
X-74.0435 Y13.7367
X-74.05 Y13.744
X-74.0569 Y13.751
X-74.0642 Y13.7575
X-74.0719 Y13.7635
X-74.08 Y13.7691
X-74.0883 Y13.7742
X-74.097 Y13.7787
X-74.1059 Y13.7827
X-74.1151 Y13.7862
X-74.1245 Y13.7891
X-74.134 Y13.7914
X-74.1436 Y13.7931
X-74.1533 Y13.7942
X-74.1631 Y13.7948
X-74.1729 Y13.7947
X-74.1827 Y13.7941
G3 X-74.2983 Y13.8042 I-0.0705 J-0.1407
G1 X-74.2997 Y13.8021
X-74.3676 Y13.6594
G3 X-74.3659 Y13.6446 I0.0137 J-0.0059
X-74.3005 Y13.6435 I0.0331 J0.0245
X-74.2898 Y13.7744 I-0.0925 J0.0735
X-74.2981 Y13.7873 I-0.1032 J-0.0574 F50.
G2 X-74.2997 Y13.8021 I0.012 J0.0089
G1 X-74.2832 Y13.8368 F60.
X-74.2742 Y13.8438
X-74.2649 Y13.8503
X-74.2552 Y13.8563
X-74.2451 Y13.8618
X-74.2348 Y13.8667
X-74.2243 Y13.8711
X-74.2135 Y13.8748
X-74.2026 Y13.8781
X-74.1915 Y13.8807
X-74.1803 Y13.8827
X-74.1689 Y13.8841
X-74.1576 Y13.885
X-74.1461 Y13.8852
X-74.1347 Y13.8847
X-74.1234 Y13.8837
X-74.1121 Y13.8821
X-74.1009 Y13.8799
X-74.0898 Y13.8771
X-74.0789 Y13.8736
X-74.0683 Y13.8696
X-74.0578 Y13.8651
X-74.0476 Y13.86
X-74.0377 Y13.8543
X-74.0281 Y13.8482
X-74.0188 Y13.8415
X-74.0099 Y13.8343
X-74.0015 Y13.8267
X-73.9934 Y13.8186
X-73.9858 Y13.8101
X-73.9786 Y13.8012
X-73.972 Y13.792
X-73.9658 Y13.7824
X-73.9601 Y13.7725
X-73.955 Y13.7623
X-73.9505 Y13.7518
X-73.9457 Y13.7491
X-73.9412 Y13.746
X-73.9371 Y13.7424
X-73.9334 Y13.7383
X-73.9302 Y13.7339
X-73.9275 Y13.7291
X-73.9253 Y13.7241
X-73.9237 Y13.7188
G2 X-73.9268 Y13.6876 I-0.0163 J-0.0141
G3 X-74.0108 Y13.5987 I0.1669 J-0.2418
G2 X-74.0246 Y13.593 I-0.0118 J0.0091
G1 X-74.0271 Y13.5981
X-74.0228 Y13.6056
G2 X-73.9424 Y13.6964 I0.2716 J-0.1595
G1 X-73.93 Y13.7054 F50.
G3 X-73.9236 Y13.7189 I-0.0085 J0.0123
G1 X-73.9363 Y13.8295 F60.
G3 X-74.2172 Y13.9757 I-0.2265 J-0.0923
G1 X-74.2832 Y13.8368
G3 X-74.2815 Y13.822 I0.0137 J-0.0059
X-74.2137 Y13.8229 I0.0336 J0.0249
X-74.2072 Y13.9481 I-0.0967 J0.0678
X-74.2155 Y13.9609 I-0.1032 J-0.0574 F50.
G2 X-74.2172 Y13.9757 I0.012 J0.0089
G1 X-74.2025 Y14.0066 F60.
G2 X-73.9568 Y14.0086 I0.1239 J-0.1195
G1 X-73.9363 Y13.8295
G2 X-73.9427 Y13.8161 I-0.0149 J-0.0012
X-73.9867 Y13.8221 I-0.0187 J0.0272
X-73.9752 Y13.9856 I0.0906 J0.0758
X-73.9632 Y13.9951 I0.0791 J-0.0877 F50.
G3 X-73.9568 Y14.0086 I-0.0085 J0.0123
G1 X-73.9618 Y14.0528 F60.
X-73.965 Y14.0614
X-73.9687 Y14.0698
X-73.9729 Y14.0779
X-73.9777 Y14.0857
X-73.9829 Y14.0932
X-73.9886 Y14.1003
X-73.9948 Y14.1071
X-74.0014 Y14.1134
X-74.0083 Y14.1193
X-74.0157 Y14.1248
X-74.0233 Y14.1298
X-74.0313 Y14.1342
X-74.0396 Y14.1382
X-74.048 Y14.1416
X-74.0567 Y14.1444
X-74.0656 Y14.1467
X-74.0746 Y14.1484
X-74.0836 Y14.1496
X-74.0927 Y14.1501
X-74.1019
X-74.111 Y14.1494
X-74.1201 Y14.1482
X-74.129 Y14.1464
X-74.1379 Y14.1441
X-74.2025 Y14.0066
G3 X-74.2008 Y13.9918 I0.0137 J-0.0059
X-74.1317 Y13.9939 I0.0338 J0.0251
X-74.1276 Y14.1155 I-0.0992 J0.0642
X-74.1359 Y14.1284 I-0.1032 J-0.0574 F50.
G2 X-74.1376 Y14.1432 I0.012 J0.0089
G1 X-74.1255 Y14.1686 F60.
G2 X-73.9776 Y14.1981 I0.0883 J-0.0568
G1 X-73.9618 Y14.0528
G2 X-73.9682 Y14.0394 I-0.0149 J-0.0012
X-74.0343 Y14.0677 I-0.0241 J0.035
X-73.9968 Y14.1741 I0.1166 J0.0187
X-73.9847 Y14.1836 I0.0791 J-0.0877 F50.
G3 X-73.9783 Y14.197 I-0.0085 J0.0123
G1 X-73.9816 Y14.2254 F60.
G3 X-74.0711 Y14.2859 I-0.078 J-0.0189
G1 X-74.0723 Y14.2829
X-74.0728 Y14.2799
Y14.2768
X-74.0721 Y14.2738
X-74.0709 Y14.271
X-74.0691 Y14.2686
X-74.067 Y14.2666
X-74.0579 Y14.2585
X-74.0063 Y14.213
X-74.0045 Y14.2117
X-74.0026 Y14.2106
G3 X-73.9816 Y14.2254 I0.0062 J0.0136 F50.
G1 X-73.9898 Y14.297 F60.
G3 X-74.0052 Y14.3284 I-0.0395 J0.
X-74.0256 Y14.3098 I-0.0063 J-0.0135
G1 X-74.0186 Y14.2907
G3 X-74.0108 Y14.2823 I0.014 J0.0051
X-73.9898 Y14.297 I0.0061 J0.0136 F50.
X-74.0413 Y14.3458 I-0.0493 J-0.0005 F60.
G1 X-74.1255 Y14.1686
G3 X-74.1104 Y14.1478 I0.0137 J-0.0059
G1 X-74.1075 Y14.1481 Z-0.1297
X-74.1048 Y14.1484 Z-0.1289
X-74.1022 Y14.1486 Z-0.1275
X-74.0999 Y14.1488 Z-0.1256
X-74.0981 Y14.149 Z-0.1234
X-74.0967 Y14.1491 Z-0.1208
X-74.0959 Y14.1492 Z-0.118
X-74.0956 Z-0.1151
G0 Z-0.1002
X-74.4886 Y13.3667
G1 Z-0.1151 F50.
X-74.4888 Y13.3666 Z-0.118
X-74.4895 Y13.3661 Z-0.1208
X-74.4907 Y13.3653 Z-0.1234
X-74.4922 Y13.3643 Z-0.1256
X-74.4941 Y13.3631 Z-0.1275
X-74.4962 Y13.3616 Z-0.1289
X-74.4986 Y13.3601 Z-0.1297
X-74.501 Y13.3584 Z-0.13
G3 X-74.5216 Y13.3354 I0.0347 J-0.0518
G1 X-74.5766 Y13.2197 F60.
X-74.5783 Y13.2082
X-74.5795 Y13.1967
X-74.58 Y13.1852
X-74.5799 Y13.1736
X-74.5793 Y13.1621
X-74.5781 Y13.1506
X-74.5762 Y13.1392
X-74.5738 Y13.1278
X-74.5708 Y13.1167
X-74.5672 Y13.1057
X-74.5631 Y13.0949
X-74.5584 Y13.0843
X-74.5532 Y13.074
X-74.5475 Y13.0639
X-74.5412 Y13.0542
X-74.5345 Y13.0448
X-74.5273 Y13.0358
X-74.5196 Y13.0271
X-74.5115 Y13.0189
X-74.503 Y13.0111
X-74.494 Y13.0037
X-74.4848 Y12.9968
X-74.4751 Y12.9904
X-74.4652 Y12.9845
X-74.455 Y12.9791
X-74.4445 Y12.9742
X-74.4337 Y12.9699
X-74.4228 Y12.9662
X-74.4117 Y12.963
X-74.4004 Y12.9604
X-74.389 Y12.9584
X-74.3776 Y12.957
X-74.366 Y12.9561
X-74.3545 Y12.9559
X-74.3429 Y12.9562
X-74.3314 Y12.9572
G3 X-74.2853 Y12.9494 I0.0265 J0.0166
G1 X-74.1986 Y13.0577
G3 X-74.2017 Y13.0785 I-0.0119 J0.0089
X-74.2246 Y13.0799 I-0.0125 J-0.0168
X-74.2837 Y12.9796 I0.059 J-0.1023
X-74.2825 Y12.9604 I0.1181 J-0.0021 F50.
G2 X-74.2853 Y12.9494 I-0.0147 J-0.0022
G1 X-74.3149 Y12.9124 F60.
X-74.3258 Y12.9073
X-74.3369 Y12.9026
X-74.3483 Y12.8986
X-74.3598 Y12.8951
X-74.3715 Y12.8923
X-74.3834 Y12.89
X-74.3953 Y12.8884
X-74.4073 Y12.8874
X-74.4193 Y12.887
X-74.4314 Y12.8872
X-74.4434 Y12.8881
X-74.4554 Y12.8895
X-74.4673 Y12.8916
X-74.479 Y12.8943
X-74.4906 Y12.8976
X-74.502 Y12.9015
X-74.5132 Y12.906
X-74.5241 Y12.911
X-74.5348 Y12.9166
X-74.5452 Y12.9227
X-74.5552 Y12.9294
X-74.5649 Y12.9366
X-74.5742 Y12.9443
X-74.5831 Y12.9524
X-74.5915 Y12.961
X-74.5995 Y12.97
X-74.6071 Y12.9794
X-74.6141 Y12.9892
X-74.6206 Y12.9993
X-74.6266 Y13.0098
X-74.632 Y13.0205
X-74.6369 Y13.0316
X-74.6412 Y13.0428
X-74.6449 Y13.0543
X-74.6536 Y13.0542
X-74.6537 Y13.0567
X-74.653 Y13.059
X-74.5766 Y13.2197
G2 X-74.5641 Y13.2277 I0.0132 J-0.0069
X-74.5283 Y13.1968 I0.0016 J-0.0343
X-74.6252 Y13.0687 I-0.1175 J-0.0118
X-74.6404 Y13.0671 I-0.0207 J0.1163 F50.
G3 X-74.653 Y13.059 I0.0007 J-0.0149
G1 X-74.6701 Y13.023 F60.
G3 X-74.4241 Y12.7945 I0.2165 J-0.0136
G1 X-74.4202 Y12.7857
X-74.4179 Y12.786
X-74.4158 Y12.787
X-74.414 Y12.7886
X-74.3149 Y12.9124
G3 X-74.3132 Y12.9272 I-0.0119 J0.0089
X-74.376 Y12.9435 I-0.0377 J-0.0162
X-74.4174 Y12.8179 I0.0722 J-0.0934
X-74.4123 Y12.8034 I0.1136 J0.0322 F50.
G2 X-74.414 Y12.7886 I-0.0137 J-0.0059
G1 X-74.4395 Y12.7568 F60.
G2 X-74.7395 Y12.876 I-0.095 J0.1981
G1 X-74.7388 Y12.8784
X-74.6701 Y13.023
G2 X-74.6576 Y13.031 I0.0132 J-0.0069
X-74.6156 Y12.9828 I0.0019 J-0.0407
X-74.7111 Y12.8881 I-0.1161 J0.0216
X-74.7263 Y12.8864 I-0.0207 J0.1163 F50.
G3 X-74.7388 Y12.8784 I0.0007 J-0.0149
G1 X-74.7556 Y12.843 F60.
G3 X-74.5354 Y12.637 I0.2013 J-0.0055
G1 X-74.4395 Y12.7568
G3 X-74.4378 Y12.7716 I-0.012 J0.0089
X-74.5043 Y12.7861 I-0.0385 J-0.0165
X-74.5388 Y12.6662 I0.0791 J-0.0877
X-74.5337 Y12.6518 I0.1136 J0.0322 F50.
G2 X-74.5354 Y12.637 I-0.0137 J-0.0059
G1 X-74.5563 Y12.611 F60.
G2 X-74.8213 Y12.7048 I-0.0932 J0.1581
G1 X-74.7556 Y12.843
G2 X-74.7431 Y12.851 I0.0132 J-0.0069
X-74.701 Y12.7973 I0.0019 J-0.0419
X-74.7936 Y12.7145 I-0.1132 J0.0335
X-74.8088 Y12.7128 I-0.0207 J0.1163 F50.
G3 X-74.8213 Y12.7048 I0.0007 J-0.0149
G1 X-74.8366 Y12.6727 F60.
G3 X-74.6532 Y12.4899 I0.1695 J-0.0133
G1 X-74.5563 Y12.611
G3 X-74.5545 Y12.6258 I-0.0119 J0.0089
X-74.6199 Y12.6409 I-0.0383 J-0.0164
X-74.6565 Y12.5192 I0.077 J-0.0895
X-74.6514 Y12.5047 I0.1136 J0.0322 F50.
G2 X-74.6532 Y12.4899 I-0.0137 J-0.0059
G1 X-74.6765 Y12.4609 F60.
G2 X-74.9012 Y12.5369 I-0.0784 J0.1383
G1 X-74.8366 Y12.6727
G2 X-74.8241 Y12.6807 I0.0132 J-0.0069
X-74.7821 Y12.6251 I0.0019 J-0.0421
X-74.8734 Y12.5466 I-0.1119 J0.0378
X-74.8886 Y12.5449 I-0.0207 J0.1163 F50.
G3 X-74.9012 Y12.5369 I0.0007 J-0.0149
G1 X-74.9156 Y12.5064 F60.
G3 X-74.8492 Y12.3741 I0.1147 J-0.0252
X-74.7458 Y12.3742 I0.0513 J0.4315
G1 X-74.6765 Y12.4609
G3 X-74.6863 Y12.4845 I-0.012 J0.0089
G1 X-74.6864
X-74.8879 Y12.5126
X-74.9004 Y12.5143 F50.
G3 X-74.9156 Y12.5064 I-0.0021 J-0.0148
G1 X-74.9506 Y12.4328 F60.
G3 X-74.9359 Y12.3546 I0.0551 J-0.0301
X-74.9262 Y12.3676 I-0.0052 J0.014
G1 X-74.9253 Y12.3813
G3 X-74.925 Y12.4342 I-0.058 J0.0268
X-74.9506 Y12.4328 I-0.0124 J-0.0083 F50.
G1 X-74.9807 Y12.3695 F60.
X-74.9834 Y12.3631
X-74.9849 Y12.3571
X-74.9856 Y12.3507
X-74.9854 Y12.3464
X-74.9842 Y12.3426
X-74.9813 Y12.3399
X-74.9775 Y12.3389
X-74.9737 Y12.34
G3 X-74.9577 Y12.3591 I-0.0208 J0.0334
X-74.9572 Y12.3664 I-0.0118 J0.0046
X-74.9807 Y12.3695 I-0.0123 J-0.0027 F50.
G1 X-74.9947 Y12.3402 F60.
X-74.9952 Y12.3391
X-74.996 Y12.3374
X-74.9983 Y12.3318
X-74.9973 Y12.3296
X-74.9951 Y12.3286
X-74.9927 Y12.329
G3 X-74.989 Y12.3316 I-0.0208 J0.0334 F50.
G1 X-74.9919 Y12.3398
X-74.996 Y12.3374
X-75.0003 Y12.3284 F60.
X-75.0008 Y12.3274
X-75.0012 Y12.3265
X-75.0016 Y12.3255
X-75.0013 Y12.3249
X-75.0008 Y12.3246
X-75.0002 Y12.3247
X-74.9996 Y12.3251 F50.
X-74.9991 Y12.3259
X-74.9993 Y12.3268
X-75.0002 Y12.3271
X-75.0007 Y12.327
X-75.0012 Y12.3265
X-75.0021 Y12.3245 F60.
G2 X-74.8492 Y12.3741 I0.1839 J-0.3064
G3 X-74.8374 Y12.3838 I-0.0023 J0.0147
G1 X-74.837 Y12.3864 Z-0.1298
X-74.8365 Y12.3888 Z-0.1291
X-74.8371 Y12.3913 Z-0.1279
X-74.8376 Y12.3935 Z-0.1262
X-74.8381 Y12.3954 Z-0.1241
X-74.8388 Y12.3965 Z-0.122
X-74.8393 Y12.3973 Z-0.1198
X-74.8396 Y12.3978 Z-0.1175
X-74.8397 Y12.3979 Z-0.1151
G0 Z0.4
X-74.4373 Y8.926
Z0.1
G3 X-74.5374 Y8.9584 Z0.0791 I-0.0646 J-0.0288 F50.
X-74.5592 Y8.8555 Z0.0582 I0.0354 J-0.0613
X-74.4447 Y8.9388 Z0.019 I0.0572 J0.0416
