%
(971-23-P-0010_BUMPER END MOUNT MIRROR_1508)
(T1  D=0.1508 CR=0. - ZMIN=-0.28 - FLAT END MILL)
G90 G94 G17 G91.1
G64 P0.001 Q0.001
G20
G53 G0 Z0.
(.3 CIRCLUAR THROUGH HOLE 2)
M9
T1 M6
S22000 M3
G4 P10.
G54
M7
G0 X12.25 Y5.5
G43 Z0.6 H1
G0 Z0.1149
G1 Z0.05 F40.
X12.252 Y5.5021
G3 X12.25 Y5.5041 I-0.002 J0.
Y5.4959 Z0.036 I0. J-0.0041
X12.2541 Y5.4996 Z0.0294 I0. J0.0041
X12.2459 Y5.5004 Z0.0154 I-0.0041 J0.0004
X12.2493 Y5.496 Z0.0087 I0.0041 J-0.0004
X12.2507 Y5.504 Z-0.0053 I0.0007 J0.004
X12.246 Y5.5011 Z-0.0119 I-0.0007 J-0.004
X12.254 Y5.4989 Z-0.0259 I0.004 J-0.0011
X12.2514 Y5.5038 Z-0.0325 I-0.004 J0.0011
X12.2486 Y5.4962 Z-0.0465 I-0.0014 J-0.0038
X12.2514 Y5.5038 Z-0.0605 I0.0014 J0.0038
X12.2486 Y5.4962 Z-0.0746 I-0.0014 J-0.0038
X12.2514 Y5.5038 Z-0.0886 I0.0014 J0.0038
X12.2467 Y5.5024 Z-0.0944 I-0.0014 J-0.0038
X12.2533 Y5.4976 Z-0.1084 I0.0033 J-0.0024
X12.2527 Y5.5031 Z-0.115 I-0.0033 J0.0024
X12.2473 Y5.4969 Z-0.129 I-0.0027 J-0.0031
X12.2528 Y5.497 Z-0.1356 I0.0027 J0.0031
X12.2472 Y5.503 Z-0.1496 I-0.0028 J0.003
X12.2528 Y5.497 Z-0.1637 I0.0028 J-0.003
X12.2478 Y5.5034 Z-0.1769 I-0.0028 J0.003
X12.2522 Y5.4966 Z-0.1909 I0.0022 J-0.0034
X12.2536 Y5.5019 Z-0.1975 I-0.0022 J0.0034
X12.2464 Y5.4981 Z-0.2115 I-0.0036 J-0.0019
X12.2516 Y5.4962 Z-0.2181 I0.0036 J0.0019
X12.2484 Y5.5038 Z-0.2321 I-0.0016 J0.0038
X12.2516 Y5.4962 Z-0.2462 I0.0016 J-0.0038
X12.2484 Y5.5038 Z-0.2602 I-0.0016 J0.0038
X12.2516 Y5.4962 Z-0.2742 I0.0016 J-0.0038
X12.2541 Y5.5005 Z-0.28 I-0.0016 J0.0038
X12.2459 Y5.4995 I-0.0041 J-0.0005
X12.2541 Y5.5005 I0.0041 J0.0005
X12.2518 Y5.5023 I-0.002 J-0.0003
G1 X12.25 Y5.5
G0 Z0.4
X9.0126 Y0.4899
Z0.13
G1 Z0.0651 F40.
G19 G3 Y0.505 Z0.05 J0.0151 K0.
G1 Y0.5126
G17 G3 X9. Y0.5251 I-0.0126 J0.
Y0.4749 Z0.0323 I0. J-0.0251
Y0.5251 Z0.0146 I0. J0.0251
Y0.4749 Z-0.0032 I0. J-0.0251
Y0.5251 Z-0.0209 I0. J0.0251
Y0.4749 Z-0.0386 I0. J-0.0251
Y0.5251 Z-0.0563 I0. J0.0251
Y0.4749 Z-0.074 I0. J-0.0251
Y0.5251 Z-0.0918 I0. J0.0251
Y0.4749 Z-0.1095 I0. J-0.0251
Y0.5251 Z-0.1272 I0. J0.0251
Y0.4749 Z-0.1449 I0. J-0.0251
Y0.5251 Z-0.1627 I0. J0.0251
Y0.4749 Z-0.1804 I0. J-0.0251
Y0.5251 Z-0.1981 I0. J0.0251
Y0.4749 Z-0.2158 I0. J-0.0251
Y0.5251 Z-0.2335 I0. J0.0251
Y0.4749 Z-0.2513 I0. J-0.0251
Y0.5251 Z-0.269 I0. J0.0251
X8.9767 Y0.4906 Z-0.28 I0. J-0.0251
X9.0233 Y0.5094 I0.0233 J0.0094
X8.9767 Y0.4906 I-0.0233 J-0.0094
X8.9931 Y0.4837 I0.0116 J0.0047
G1 X9.0001 Y0.4865
X9.0028 Y0.4876 Z-0.2797
X9.0054 Y0.4886 Z-0.2789
X9.0078 Y0.4896 Z-0.2775
X9.0099 Y0.4905 Z-0.2756
X9.0117 Y0.4912 Z-0.2733
X9.013 Y0.4917 Z-0.2707
X9.0138 Y0.492 Z-0.2679
X9.014 Y0.4921 Z-0.2649
G0 Z0.4
X9.0126 Y0.9899
Z0.13
G1 Z0.0651 F40.
G19 G3 Y1.005 Z0.05 J0.0151 K0.
G1 Y1.0125
G17 G3 X9. Y1.0251 I-0.0126 J0.
Y0.9749 Z0.0323 I0. J-0.0251
Y1.0251 Z0.0146 I0. J0.0251
Y0.9749 Z-0.0032 I0. J-0.0251
Y1.0251 Z-0.0209 I0. J0.0251
Y0.9749 Z-0.0386 I0. J-0.0251
Y1.0251 Z-0.0563 I0. J0.0251
Y0.9749 Z-0.074 I0. J-0.0251
Y1.0251 Z-0.0918 I0. J0.0251
Y0.9749 Z-0.1095 I0. J-0.0251
Y1.0251 Z-0.1272 I0. J0.0251
Y0.9749 Z-0.1449 I0. J-0.0251
Y1.0251 Z-0.1627 I0. J0.0251
Y0.9749 Z-0.1804 I0. J-0.0251
Y1.0251 Z-0.1981 I0. J0.0251
Y0.9749 Z-0.2158 I0. J-0.0251
Y1.0251 Z-0.2335 I0. J0.0251
Y0.9749 Z-0.2513 I0. J-0.0251
Y1.0251 Z-0.269 I0. J0.0251
X8.9767 Y0.9906 Z-0.28 I0. J-0.0251
X9.0233 Y1.0094 I0.0233 J0.0094
X8.9767 Y0.9906 I-0.0233 J-0.0094
X8.9931 Y0.9837 I0.0116 J0.0047
G1 X9.0001 Y0.9865
X9.0028 Y0.9876 Z-0.2797
X9.0054 Y0.9886 Z-0.2789
X9.0078 Y0.9896 Z-0.2775
X9.0099 Y0.9905 Z-0.2756
X9.0117 Y0.9912 Z-0.2733
X9.013 Y0.9917 Z-0.2707
X9.0138 Y0.992 Z-0.2679
X9.014 Y0.9921 Z-0.2649
G0 Z0.4
X9.0126 Y1.4899
Z0.13
G1 Z0.0651 F40.
G19 G3 Y1.505 Z0.05 J0.0151 K0.
G1 Y1.5125
G17 G3 X9. Y1.5251 I-0.0126 J0.
Y1.4749 Z0.0323 I0. J-0.0251
Y1.5251 Z0.0146 I0. J0.0251
Y1.4749 Z-0.0032 I0. J-0.0251
Y1.5251 Z-0.0209 I0. J0.0251
Y1.4749 Z-0.0386 I0. J-0.0251
Y1.5251 Z-0.0563 I0. J0.0251
Y1.4749 Z-0.074 I0. J-0.0251
Y1.5251 Z-0.0918 I0. J0.0251
Y1.4749 Z-0.1095 I0. J-0.0251
Y1.5251 Z-0.1272 I0. J0.0251
Y1.4749 Z-0.1449 I0. J-0.0251
Y1.5251 Z-0.1627 I0. J0.0251
Y1.4749 Z-0.1804 I0. J-0.0251
Y1.5251 Z-0.1981 I0. J0.0251
Y1.4749 Z-0.2158 I0. J-0.0251
Y1.5251 Z-0.2335 I0. J0.0251
Y1.4749 Z-0.2513 I0. J-0.0251
Y1.5251 Z-0.269 I0. J0.0251
X8.9767 Y1.4906 Z-0.28 I0. J-0.0251
X9.0233 Y1.5094 I0.0233 J0.0094
X8.9767 Y1.4906 I-0.0233 J-0.0094
X8.9931 Y1.4837 I0.0116 J0.0047
G1 X9.0001 Y1.4865
X9.0028 Y1.4876 Z-0.2797
X9.0054 Y1.4886 Z-0.2789
X9.0078 Y1.4896 Z-0.2775
X9.0099 Y1.4905 Z-0.2756
X9.0117 Y1.4912 Z-0.2733
X9.013 Y1.4917 Z-0.2707
X9.0138 Y1.492 Z-0.2679
X9.014 Y1.4921 Z-0.2649
G0 Z0.4
X8.0113 Y1.4887
Z0.13
G1 Z0.0651 F40.
G19 G3 Y1.5038 Z0.05 J0.0151 K0.
G1 Y1.5113
G17 G3 X8. Y1.5226 I-0.0113 J0.
Y1.4774 Z0.0327 I0. J-0.0226
Y1.5226 Z0.0154 I0. J0.0226
Y1.4774 Z-0.0018 I0. J-0.0226
Y1.5226 Z-0.0191 I0. J0.0226
Y1.4774 Z-0.0364 I0. J-0.0226
Y1.5226 Z-0.0537 I0. J0.0226
Y1.4774 Z-0.071 I0. J-0.0226
Y1.5226 Z-0.0882 I0. J0.0226
Y1.4774 Z-0.1055 I0. J-0.0226
Y1.5226 Z-0.1228 I0. J0.0226
Y1.4774 Z-0.1401 I0. J-0.0226
Y1.5226 Z-0.1574 I0. J0.0226
Y1.4774 Z-0.1746 I0. J-0.0226
Y1.5226 Z-0.1919 I0. J0.0226
Y1.4774 Z-0.2092 I0. J-0.0226
Y1.5226 Z-0.2265 I0. J0.0226
Y1.4774 Z-0.2438 I0. J-0.0226
Y1.5226 Z-0.261 I0. J0.0226
X7.9777 Y1.4966 Z-0.2705 I0. J-0.0226
X8.0068 Y1.4784 Z-0.28 I0.0223 J0.0034
X7.9932 Y1.5216 I-0.0068 J0.0216
X8.0068 Y1.4784 I0.0068 J-0.0216
X8.0142 Y1.4926 I-0.0034 J0.0108
G1 X8.0119 Y1.4998
X8.011 Y1.5026 Z-0.2797
X8.0102 Y1.5053 Z-0.2789
X8.0094 Y1.5078 Z-0.2775
X8.0087 Y1.51 Z-0.2756
X8.0081 Y1.5118 Z-0.2733
X8.0077 Y1.5131 Z-0.2707
X8.0075 Y1.5139 Z-0.2679
X8.0074 Y1.5142 Z-0.2649
G0 Z0.4
X8.0113 Y0.9887
Z0.13
G1 Z0.0651 F40.
G19 G3 Y1.0038 Z0.05 J0.0151 K0.
G1 Y1.0113
G17 G3 X8. Y1.0226 I-0.0113 J0.
Y0.9774 Z0.0327 I0. J-0.0226
Y1.0226 Z0.0154 I0. J0.0226
Y0.9774 Z-0.0018 I0. J-0.0226
Y1.0226 Z-0.0191 I0. J0.0226
Y0.9774 Z-0.0364 I0. J-0.0226
Y1.0226 Z-0.0537 I0. J0.0226
Y0.9774 Z-0.071 I0. J-0.0226
Y1.0226 Z-0.0882 I0. J0.0226
Y0.9774 Z-0.1055 I0. J-0.0226
Y1.0226 Z-0.1228 I0. J0.0226
Y0.9774 Z-0.1401 I0. J-0.0226
Y1.0226 Z-0.1574 I0. J0.0226
Y0.9774 Z-0.1746 I0. J-0.0226
Y1.0226 Z-0.1919 I0. J0.0226
Y0.9774 Z-0.2092 I0. J-0.0226
Y1.0226 Z-0.2265 I0. J0.0226
Y0.9774 Z-0.2438 I0. J-0.0226
Y1.0226 Z-0.261 I0. J0.0226
X7.9777 Y0.9966 Z-0.2705 I0. J-0.0226
X8.0068 Y0.9784 Z-0.28 I0.0223 J0.0034
X7.9932 Y1.0216 I-0.0068 J0.0216
X8.0068 Y0.9784 I0.0068 J-0.0216
X8.0142 Y0.9926 I-0.0034 J0.0108
G1 X8.0119 Y0.9998
X8.011 Y1.0026 Z-0.2797
X8.0102 Y1.0053 Z-0.2789
X8.0094 Y1.0078 Z-0.2775
X8.0087 Y1.01 Z-0.2756
X8.0081 Y1.0118 Z-0.2733
X8.0077 Y1.0131 Z-0.2707
X8.0075 Y1.0139 Z-0.2679
X8.0074 Y1.0142 Z-0.2649
G0 Z0.4
X8.0113 Y0.4887
Z0.13
G1 Z0.0651 F40.
G19 G3 Y0.5038 Z0.05 J0.0151 K0.
G1 Y0.5113
G17 G3 X8. Y0.5226 I-0.0113 J0.
Y0.4774 Z0.0327 I0. J-0.0226
Y0.5226 Z0.0154 I0. J0.0226
Y0.4774 Z-0.0018 I0. J-0.0226
Y0.5226 Z-0.0191 I0. J0.0226
Y0.4774 Z-0.0364 I0. J-0.0226
Y0.5226 Z-0.0537 I0. J0.0226
Y0.4774 Z-0.071 I0. J-0.0226
Y0.5226 Z-0.0882 I0. J0.0226
Y0.4774 Z-0.1055 I0. J-0.0226
Y0.5226 Z-0.1228 I0. J0.0226
Y0.4774 Z-0.1401 I0. J-0.0226
Y0.5226 Z-0.1574 I0. J0.0226
Y0.4774 Z-0.1746 I0. J-0.0226
Y0.5226 Z-0.1919 I0. J0.0226
Y0.4774 Z-0.2092 I0. J-0.0226
Y0.5226 Z-0.2265 I0. J0.0226
Y0.4774 Z-0.2438 I0. J-0.0226
Y0.5226 Z-0.261 I0. J0.0226
X7.9777 Y0.4966 Z-0.2705 I0. J-0.0226
X8.0068 Y0.4784 Z-0.28 I0.0223 J0.0034
X7.9932 Y0.5216 I-0.0068 J0.0216
X8.0068 Y0.4784 I0.0068 J-0.0216
X8.0142 Y0.4926 I-0.0034 J0.0108
G1 X8.0119 Y0.4998
X8.011 Y0.5026 Z-0.2797
X8.0102 Y0.5053 Z-0.2789
X8.0094 Y0.5078 Z-0.2775
X8.0087 Y0.51 Z-0.2756
X8.0081 Y0.5118 Z-0.2733
X8.0077 Y0.5131 Z-0.2707
X8.0075 Y0.5139 Z-0.2679
X8.0074 Y0.5142 Z-0.2649
G0 Z0.4
X7.0113 Y0.4887
Z0.13
G1 Z0.0651 F40.
G19 G3 Y0.5038 Z0.05 J0.0151 K0.
G1 Y0.5113
G17 G3 X7. Y0.5226 I-0.0113 J0.
Y0.4774 Z0.0327 I0. J-0.0226
Y0.5226 Z0.0154 I0. J0.0226
Y0.4774 Z-0.0018 I0. J-0.0226
Y0.5226 Z-0.0191 I0. J0.0226
Y0.4774 Z-0.0364 I0. J-0.0226
Y0.5226 Z-0.0537 I0. J0.0226
Y0.4774 Z-0.071 I0. J-0.0226
Y0.5226 Z-0.0882 I0. J0.0226
Y0.4774 Z-0.1055 I0. J-0.0226
Y0.5226 Z-0.1228 I0. J0.0226
Y0.4774 Z-0.1401 I0. J-0.0226
Y0.5226 Z-0.1574 I0. J0.0226
Y0.4774 Z-0.1746 I0. J-0.0226
Y0.5226 Z-0.1919 I0. J0.0226
Y0.4774 Z-0.2092 I0. J-0.0226
Y0.5226 Z-0.2265 I0. J0.0226
Y0.4774 Z-0.2438 I0. J-0.0226
Y0.5226 Z-0.261 I0. J0.0226
X6.9777 Y0.4966 Z-0.2705 I0. J-0.0226
X7.0068 Y0.4784 Z-0.28 I0.0223 J0.0034
X6.9932 Y0.5216 I-0.0068 J0.0216
X7.0068 Y0.4784 I0.0068 J-0.0216
X7.0142 Y0.4926 I-0.0034 J0.0108
G1 X7.0119 Y0.4998
X7.011 Y0.5026 Z-0.2797
X7.0102 Y0.5053 Z-0.2789
X7.0094 Y0.5078 Z-0.2775
X7.0087 Y0.51 Z-0.2756
X7.0081 Y0.5118 Z-0.2733
X7.0077 Y0.5131 Z-0.2707
X7.0075 Y0.5139 Z-0.2679
X7.0074 Y0.5142 Z-0.2649
G0 Z0.4
X7.0113 Y0.9887
Z0.13
G1 Z0.0651 F40.
G19 G3 Y1.0038 Z0.05 J0.0151 K0.
G1 Y1.0113
G17 G3 X7. Y1.0226 I-0.0113 J0.
Y0.9774 Z0.0327 I0. J-0.0226
Y1.0226 Z0.0154 I0. J0.0226
Y0.9774 Z-0.0018 I0. J-0.0226
Y1.0226 Z-0.0191 I0. J0.0226
Y0.9774 Z-0.0364 I0. J-0.0226
Y1.0226 Z-0.0537 I0. J0.0226
Y0.9774 Z-0.071 I0. J-0.0226
Y1.0226 Z-0.0882 I0. J0.0226
Y0.9774 Z-0.1055 I0. J-0.0226
Y1.0226 Z-0.1228 I0. J0.0226
Y0.9774 Z-0.1401 I0. J-0.0226
Y1.0226 Z-0.1574 I0. J0.0226
Y0.9774 Z-0.1746 I0. J-0.0226
Y1.0226 Z-0.1919 I0. J0.0226
Y0.9774 Z-0.2092 I0. J-0.0226
Y1.0226 Z-0.2265 I0. J0.0226
Y0.9774 Z-0.2438 I0. J-0.0226
Y1.0226 Z-0.261 I0. J0.0226
X6.9777 Y0.9966 Z-0.2705 I0. J-0.0226
X7.0068 Y0.9784 Z-0.28 I0.0223 J0.0034
X6.9932 Y1.0216 I-0.0068 J0.0216
X7.0068 Y0.9784 I0.0068 J-0.0216
X7.0142 Y0.9926 I-0.0034 J0.0108
G1 X7.0119 Y0.9998
X7.011 Y1.0026 Z-0.2797
X7.0102 Y1.0053 Z-0.2789
X7.0094 Y1.0078 Z-0.2775
X7.0087 Y1.01 Z-0.2756
X7.0081 Y1.0118 Z-0.2733
X7.0077 Y1.0131 Z-0.2707
X7.0075 Y1.0139 Z-0.2679
X7.0074 Y1.0142 Z-0.2649
G0 Z0.4
X7.0113 Y1.4887
Z0.13
G1 Z0.0651 F40.
G19 G3 Y1.5038 Z0.05 J0.0151 K0.
G1 Y1.5113
G17 G3 X7. Y1.5226 I-0.0113 J0.
Y1.4774 Z0.0327 I0. J-0.0226
Y1.5226 Z0.0154 I0. J0.0226
Y1.4774 Z-0.0018 I0. J-0.0226
Y1.5226 Z-0.0191 I0. J0.0226
Y1.4774 Z-0.0364 I0. J-0.0226
Y1.5226 Z-0.0537 I0. J0.0226
Y1.4774 Z-0.071 I0. J-0.0226
Y1.5226 Z-0.0882 I0. J0.0226
Y1.4774 Z-0.1055 I0. J-0.0226
Y1.5226 Z-0.1228 I0. J0.0226
Y1.4774 Z-0.1401 I0. J-0.0226
Y1.5226 Z-0.1574 I0. J0.0226
Y1.4774 Z-0.1746 I0. J-0.0226
Y1.5226 Z-0.1919 I0. J0.0226
Y1.4774 Z-0.2092 I0. J-0.0226
Y1.5226 Z-0.2265 I0. J0.0226
Y1.4774 Z-0.2438 I0. J-0.0226
Y1.5226 Z-0.261 I0. J0.0226
X6.9777 Y1.4966 Z-0.2705 I0. J-0.0226
X7.0068 Y1.4784 Z-0.28 I0.0223 J0.0034
X6.9932 Y1.5216 I-0.0068 J0.0216
X7.0068 Y1.4784 I0.0068 J-0.0216
X7.0142 Y1.4926 I-0.0034 J0.0108
G1 X7.0119 Y1.4998
X7.011 Y1.5026 Z-0.2797
X7.0102 Y1.5053 Z-0.2789
X7.0094 Y1.5078 Z-0.2775
X7.0087 Y1.51 Z-0.2756
X7.0081 Y1.5118 Z-0.2733
X7.0077 Y1.5131 Z-0.2707
X7.0075 Y1.5139 Z-0.2679
X7.0074 Y1.5142 Z-0.2649
G0 Z0.6
(SHAPE POCKET)
M7
G0 X11.3853 Y5.057
Z0.6
Z0.12
G3 X11.4722 Y4.9431 Z0.0803 I0.0435 J-0.0569 F50.
X11.3853 Y5.057 Z0.0406 I-0.0435 J0.0569
X11.4722 Y4.9431 Z0.001 I0.0435 J-0.0569
X11.3853 Y5.057 Z-0.0387 I-0.0435 J0.0569
X11.4722 Y4.9431 Z-0.0784 I0.0435 J-0.0569
X11.5004 Y5. Z-0.09 I-0.0435 J0.0569
X11.3571 I-0.0716 J0.
X11.5004 I0.0716 J0.
X11.3537 Y5.1276 I-0.078 J0.0584 F60.
G1 X11.3451 Y5.1227
X11.337 Y5.1172
X11.3291 Y5.1113
X11.3217 Y5.1048
X11.3147 Y5.0979
X11.3082 Y5.0906
X11.3021 Y5.0829
X11.2966 Y5.0747
X11.2916 Y5.0663
X11.2871 Y5.0575
X11.2832 Y5.0485
X11.2799 Y5.0393
X11.2771 Y5.0298
X11.275 Y5.0202
X11.2735 Y5.0105
X11.2727 Y5.0007
X11.2724 Y4.9909
X11.2728 Y4.9811
X11.2738 Y4.9713
X11.2755 Y4.9616
X11.2777 Y4.9521
X11.2806 Y4.9427
X11.2841 Y4.9335
X11.2881 Y4.9245
X11.2927 Y4.9158
X11.2979 Y4.9075
X11.3035 Y4.8994
X11.3097 Y4.8918
X11.3164 Y4.8846
X11.3235 Y4.8778
X11.331 Y4.8715
X11.3389 Y4.8656
X11.3472 Y4.8603
X11.3558 Y4.8556
X11.3646 Y4.8513
X11.3738 Y4.8477
X11.3831 Y4.8447
X11.3926 Y4.8422
X11.4023 Y4.8404
X11.412 Y4.8392
X11.4218 Y4.8386
X11.4317 Y4.8387
X11.4415 Y4.8393
X11.4512 Y4.8406
X11.4608 Y4.8426
X11.4703 Y4.8451
X11.4796 Y4.8482
X11.4887 Y4.852
X11.4976 Y4.8563
X11.5061 Y4.8611
X11.5143 Y4.8665
X11.5222 Y4.8724
X11.5296 Y4.8788
X11.5366 Y4.8857
X11.5432 Y4.893
X11.5493 Y4.9007
X11.5549 Y4.9088
X11.56 Y4.9172
X11.5645 Y4.9259
X11.5684 Y4.9349
X11.575 Y4.9437
X11.581 Y4.9528
X11.5865 Y4.9623
X11.5915 Y4.972
X11.5959 Y4.982
X11.5997 Y4.9923
X11.603 Y5.0027
X11.6056 Y5.0134
X11.6077 Y5.0241
X11.6091 Y5.035
X11.6099 Y5.0459
X11.6101 Y5.0568
X11.6097 Y5.0678
X11.6087 Y5.0787
X11.607 Y5.0895
X11.6048 Y5.1002
X11.6019 Y5.1108
X11.5985 Y5.1211
X11.5944 Y5.1313
X11.5898 Y5.1413
X11.5847 Y5.1509
X11.579 Y5.1603
X11.5728 Y5.1693
X11.5661 Y5.1779
X11.5589 Y5.1862
X11.5513 Y5.194
X11.5432 Y5.2014
X11.5347 Y5.2083
X11.5259 Y5.2148
X11.5167 Y5.2207
X11.5071 Y5.2261
X11.4973 Y5.2309
X11.4873 Y5.2352
X11.477 Y5.2389
X11.4665 Y5.242
X11.4558 Y5.2446
X11.445 Y5.2465
X11.4342 Y5.2478
X11.4233 Y5.2485
X11.4123 Y5.2486
X11.4014 Y5.248
X11.3905 Y5.2469
X11.3797 Y5.2451
X11.369 Y5.2427
X11.3585 Y5.2397
X11.3482 Y5.2362
X11.338 Y5.232
X11.3282 Y5.2273
X11.3186 Y5.222
X11.3093 Y5.2162
X11.3003 Y5.2099
X11.2918 Y5.2031
X11.2836 Y5.1958
X11.2759 Y5.1881
X11.2686 Y5.1799
X11.2592 Y5.1724
X11.2503 Y5.1645
X11.2417 Y5.1561
X11.2336 Y5.1473
X11.226 Y5.138
X11.2188 Y5.1284
X11.2121 Y5.1185
X11.206 Y5.1082
X11.2004 Y5.0976
X11.1953 Y5.0868
X11.1908 Y5.0757
X11.1868 Y5.0643
X11.1835 Y5.0528
X11.1807 Y5.0412
X11.1785 Y5.0294
X11.1769 Y5.0175
X11.176 Y5.0056
X11.1756 Y4.9936
X11.1759 Y4.9816
X11.1767 Y4.9697
X11.1782 Y4.9578
X11.1803 Y4.946
X11.1829 Y4.9343
X11.1862 Y4.9228
X11.19 Y4.9114
X11.1944 Y4.9003
X11.1994 Y4.8894
X11.2049 Y4.8788
X11.211 Y4.8684
X11.2176 Y4.8584
X11.2247 Y4.8488
X11.2322 Y4.8395
X11.2402 Y4.8306
X11.2487 Y4.8221
X11.2576 Y4.814
X11.2669 Y4.8065
X11.2765 Y4.7994
X11.2865 Y4.7928
X11.2969 Y4.7867
X11.3075 Y4.7812
X11.3184 Y4.7762
G3 X11.6959 Y4.9695 I0.1093 J0.2519
X11.5421 Y5.2591 I-0.3118 J0.02
X11.3389 Y5.3236 I-0.1421 J-0.0952
G1 X11.3303 Y5.3069
X11.3212 Y5.2905
X11.3116 Y5.2743
X11.3014 Y5.2584
X11.2908 Y5.2429
X11.2797 Y5.2277
X11.2681 Y5.2129
X11.2561 Y5.1985
X11.2436 Y5.1844
X11.2307 Y5.1707
X11.2173 Y5.1575
X11.2036 Y5.1446
X11.1894 Y5.1322
G3 X11.6677 Y4.8748 I0.2391 J-0.1287
X11.6979 Y4.9692 I-0.2391 J0.1287
G1 X11.6973 Y4.9719
X11.6962 Y4.9742
X11.6947 Y4.9763
X11.6928 Y4.9779
X11.6908 Y4.9792
X11.6751 Y4.9908
G2 X11.5919 Y5.0872 I0.2098 J0.2653
G1 X11.5916 Y5.0878
X11.5772 Y5.1158
X11.5769 Y5.1164
G2 X11.5474 Y5.2343 I0.308 J0.1397
X11.5467 Y5.2597 I0.3375 J0.0219 F50.
G3 X11.5456 Y5.265 I-0.0121 J0.0001
G2 X11.5161 Y5.3352 I0.1555 J0.1065 F60.
G1 X11.5128 Y5.3437
X11.509 Y5.3519
X11.5046 Y5.3599
X11.4997 Y5.3675
X11.4942 Y5.3748
X11.4883 Y5.3817
X11.4819 Y5.3882
X11.4751 Y5.3943
X11.4679 Y5.3998
X11.4604 Y5.4049
X11.4525 Y5.4094
X11.4443 Y5.4134
X11.4359 Y5.4168
X11.4272 Y5.4196
X11.4184 Y5.4218
X11.4095 Y5.4234
X11.4004 Y5.4244
X11.3914 Y5.4248
X11.3823 Y5.4246
X11.3732 Y5.4238
X11.3642 Y5.4223
X11.3554 Y5.4202
X11.3467 Y5.4176
G2 X11.3389 Y5.3236 I-0.3454 J-0.0187
G3 X11.343 Y5.3091 I0.0146 J-0.0037
X11.3975 Y5.3324 I0.0224 J0.023
X11.3685 Y5.3929 I-0.0787 J-0.0006
X11.3559 Y5.4013 I-0.0497 J-0.0611 F50.
G2 X11.3479 Y5.4141 I0.0071 J0.0133
G1 Y5.4308 F60.
X11.351 Y5.438
X11.3546 Y5.445
X11.3588 Y5.4517
X11.3634 Y5.458
X11.3686 Y5.4639
X11.3742 Y5.4694
X11.3801 Y5.4745
X11.3865 Y5.4791
X11.3932 Y5.4831
X11.4002 Y5.4867
X11.4075 Y5.4897
X11.4149 Y5.4921
X11.4226 Y5.4939
X11.4303 Y5.4952
X11.4381 Y5.4958
X11.446
X11.4538 Y5.4952
X11.4615 Y5.494
X11.4692 Y5.4922
X11.4766 Y5.4899
X11.4839 Y5.4869
X11.4909 Y5.4834
X11.4977 Y5.4794
X11.5041 Y5.4749
X11.5101 Y5.4698
G3 X11.5161 Y5.3352 I0.4438 J-0.0475
G2 X11.5102 Y5.3213 I-0.015 J-0.0018
X11.4961 Y5.3208 I-0.0075 J0.0099
X11.489 Y5.4482 I0.0426 J0.0662
X11.5016 Y5.4565 I0.0496 J-0.0611 F50.
G3 X11.5096 Y5.4693 I-0.0071 J0.0133
G1 Y5.4908 F60.
X11.5098 Y5.4947
X11.5074 Y5.5023
X11.5044 Y5.5098
X11.5009 Y5.517
X11.4968 Y5.524
X11.4922 Y5.5306
X11.4872 Y5.5368
X11.4816 Y5.5426
X11.4756 Y5.548
X11.4693 Y5.5529
X11.4626 Y5.5573
X11.4555 Y5.5612
X11.4482 Y5.5645
X11.4406 Y5.5673
X11.4329 Y5.5695
X11.425 Y5.571
X11.417 Y5.572
X11.409 Y5.5723
X11.401 Y5.5721
X11.393 Y5.5712
X11.3851 Y5.5697
X11.3773 Y5.5676
X11.3697 Y5.5649
X11.3624 Y5.5616
X11.3553 Y5.5578
X11.3485 Y5.5535
X11.3421 Y5.5486
X11.3469 Y5.514
X11.3479 Y5.4908
Y5.4308
G3 X11.3559 Y5.418 I0.0151 J0.0005
X11.3964 Y5.4327 I0.0137 J0.0256
X11.4022 Y5.4624 I-0.0729 J0.0297
X11.366 Y5.5287 I-0.0787 J0.
X11.3525 Y5.5356 I-0.0424 J-0.0663 F50.
G2 X11.3431 Y5.5474 I0.0056 J0.014
G1 X11.3416 Y5.5605 F60.
X11.3408 Y5.5669
X11.3429 Y5.5746
X11.3457 Y5.5822
X11.3489 Y5.5895
X11.3527 Y5.5966
X11.357 Y5.6034
X11.3618 Y5.6098
X11.3671 Y5.6159
X11.3728 Y5.6215
X11.3789 Y5.6268
X11.3854 Y5.6315
X11.3922 Y5.6358
X11.3993 Y5.6395
X11.4066 Y5.6428
X11.4142 Y5.6454
X11.4219 Y5.6475
X11.4298 Y5.649
X11.4378 Y5.65
X11.4458 Y5.6503
X11.4539 Y5.65
X11.4618 Y5.6492
X11.4697 Y5.6478
X11.4775 Y5.6457
X11.4851 Y5.6431
X11.4925 Y5.64
X11.4996 Y5.6363
X11.5065 Y5.6321
X11.513 Y5.6274
X11.5192 Y5.6223
X11.5249 Y5.6167
X11.5302 Y5.6107
G3 X11.5098 Y5.4947 I0.2954 J-0.1119
G2 X11.5012 Y5.4822 I-0.015 J0.0012
X11.4529 Y5.5058 I-0.0148 J0.031
X11.5031 Y5.5969 I0.0769 J0.0171
X11.5178 Y5.6007 I0.0266 J-0.0741 F50.
G3 X11.5296 Y5.6101 I-0.0023 J0.0149
G1 X11.5353 Y5.6265 F60.
G3 X11.5282 Y5.6596 I-0.0161 J0.0139
X11.5091 Y5.6572 I0.0038 J-0.1096
X11.5105 Y5.6121 I0.0048 J-0.0224
X11.5353 Y5.6265 I0.0034 J0.0227 F50.
G2 X11.5474 Y5.6551 I0.1036 J-0.0268 F60.
G1 X11.5482 Y5.6565
X11.5492 Y5.6581
X11.5496 Y5.6589
X11.5488 Y5.6595 F50.
X11.5481 Y5.6596
X11.5475 Y5.6591
X11.5474 Y5.6584
X11.5478 Y5.6578
X11.5485 Y5.6576
X11.5492 Y5.6581
X11.5496 Y5.6588 F60.
X11.5489 Y5.6596
X11.3468
G3 X11.316 Y5.6426 I-0.0091 J-0.02
X11.3261 Y5.6341 I0.0138 J0.006
G1 X11.3426 Y5.6299
G3 X11.3594 Y5.6371 I0.0037 J0.0146
X11.3468 Y5.6596 I-0.0131 J0.0074 F50.
G1 X11.3112 F60.
X11.3084
G2 X11.3408 Y5.5669 I-0.33 J-0.1675
G3 X11.3648 Y5.5574 I0.0149 J0.0025
G1 X11.3671 Y5.5591 Z-0.0897
X11.3694 Y5.5608 Z-0.0889
X11.3714 Y5.5624 Z-0.0875
X11.3733 Y5.5638 Z-0.0856
X11.3748 Y5.5649 Z-0.0833
X11.3759 Y5.5657 Z-0.0807
X11.3766 Y5.5663 Z-0.0779
X11.3768 Y5.5664 Z-0.0749
G0 Z0.6
(SHAPE POCKET FINISHING PASS)
M7
G0 X11.3829 Y5.3689
Z0.6
Z0.2
G1 Z0.1 F13.333
Z-0.039
Y5.3692 Z-0.0446 F40.
Y5.3702 Z-0.0501
Y5.3717 Z-0.0555
Y5.3739 Z-0.0607
Y5.3766 Z-0.0656
Y5.3798 Z-0.0702
Y5.3836 Z-0.0744
Y5.3877 Z-0.0781
Y5.3923 Z-0.0813
Y5.3972 Z-0.084
Y5.4024 Z-0.0862
Y5.4078 Z-0.0877
Y5.4133 Z-0.0887
Y5.4189 Z-0.089
Y5.434
G3 X11.3329 Y5.384 I0. J-0.05
G2 X11.2549 Y5.2253 I-0.2004 J0. F50.
G3 X11.6026 Y4.7747 I0.1738 J-0.2253
Y5.2253 I-0.1738 J0.2253
G2 X11.5246 Y5.384 I0.1224 J0.1587
G3 X11.4746 Y5.434 I-0.05 J0.
G1 Y5.4189
G19 G2 Y5.3689 Z-0.039 J0. K0.05
G0 Z0.6
G17
(2D SLOT CUT)
M7
G0 X10.4199 Y-0.0023
Z0.6
Z0.2
G1 Z0.1 F13.333
G2 X10.1556 Y-0.1379 Z0.0456 I-0.2643 J0.1898 F30.
G1 X9.5 Z-0.07
X6.75
G2 X6.4246 Y0.1875 I0. J0.3254
G1 Y2.0188
G2 X6.5241 Y2.253 I0.3254 J0.
G1 X10.1325 Y5.7342
G2 X10.3584 Y5.8254 I0.2259 J-0.2342
G1 X11.0075
G2 X11.3329 Y5.5 I0. J-0.3254
G1 Y5.
G3 X11.5246 I0.0959 J0.
G1 Y5.5
G2 X11.85 Y5.8254 I0.3254 J0.
G1 X12.25
G2 X12.5754 Y5.5 I0. J-0.3254
G1 Y3.817
G2 X12.5318 Y3.6543 I-0.3254 J0.
G1 X10.4375 Y0.0249
G2 X10.1556 Y-0.1379 I-0.2818 J0.1626
G1 X9.5
X8.9974 Z-0.14
X6.75
G2 X6.4246 Y0.1875 I0. J0.3254
G1 Y2.0188
G2 X6.5241 Y2.253 I0.3254 J0.
G1 X10.1325 Y5.7342
G2 X10.3584 Y5.8254 I0.2259 J-0.2342
G1 X11.0075
G2 X11.3329 Y5.5 I0. J-0.3254
G1 Y5.
G3 X11.5246 I0.0959 J0.
G1 Y5.5
G2 X11.85 Y5.8254 I0.3254 J0.
G1 X12.25
G2 X12.5754 Y5.5 I0. J-0.3254
G1 Y3.817
G2 X12.5318 Y3.6543 I-0.3254 J0.
G1 X10.4375 Y0.0249
G2 X10.1556 Y-0.1379 I-0.2818 J0.1626
G1 X9.5
X8.9974
X8.4947 Z-0.21
X6.75
G2 X6.4246 Y0.1875 I0. J0.3254
G1 Y0.6712
Z-0.2
Y1.422
Z-0.21 F13.333
Y2.0188 F30.
G2 X6.5241 Y2.253 I0.3254 J0.
G1 X9.0754 Y4.7143
Z-0.2
X9.6157 Y5.2356
Z-0.21 F13.333
X10.1325 Y5.7342 F30.
G2 X10.3584 Y5.8254 I0.2259 J-0.2342
G1 X11.0075
G2 X11.3329 Y5.5 I0. J-0.3254
G1 Y5.
G3 X11.5246 I0.0959 J0.
G1 Y5.5
G2 X11.85 Y5.8254 I0.3254 J0.
G1 X12.25
G2 X12.5754 Y5.5 I0. J-0.3254
G1 Y5.3079
Z-0.2
Y4.5571
Z-0.21 F13.333
Y3.817 F30.
G2 X12.5318 Y3.6543 I-0.3254 J0.
G1 X12.423 Y3.4657
Z-0.2
X12.0477 Y2.8154
Z-0.21 F13.333
X10.4375 Y0.0249 F30.
G2 X10.1556 Y-0.1379 I-0.2818 J0.1626
G1 X9.8829
Z-0.2
X9.1321
Z-0.21 F13.333
X8.4947 F30.
X7.9921 Z-0.28
X6.75
G2 X6.4246 Y0.1875 I0. J0.3254
G1 Y0.6712
Z-0.2
Y1.422
Z-0.28 F13.333
Y2.0188 F30.
G2 X6.5241 Y2.253 I0.3254 J0.
G1 X9.0754 Y4.7143
Z-0.2
X9.6157 Y5.2356
Z-0.28 F13.333
X10.1325 Y5.7342 F30.
G2 X10.3584 Y5.8254 I0.2259 J-0.2342
G1 X11.0075
G2 X11.3329 Y5.5 I0. J-0.3254
G1 Y5.
G3 X11.5246 I0.0959 J0.
G1 Y5.5
G2 X11.85 Y5.8254 I0.3254 J0.
G1 X12.25
G2 X12.5754 Y5.5 I0. J-0.3254
G1 Y5.3079
Z-0.2
Y4.5571
Z-0.28 F13.333
Y3.817 F30.
G2 X12.5318 Y3.6543 I-0.3254 J0.
G1 X12.423 Y3.4657
Z-0.2
X12.0477 Y2.8154
Z-0.28 F13.333
X10.4375 Y0.0249 F30.
G2 X10.1556 Y-0.1379 I-0.2818 J0.1626
G1 X9.8829
Z-0.2
X9.1321
Z-0.28 F13.333
X7.9921 F30.
G0 Z0.6
M9
G53 Z0.
M30
%
