%
(971-23-P-0010_BUMPER END MOUNT MIRROR_1492)
(T1  D=0.1492 CR=0. - ZMIN=-0.28 - FLAT END MILL)
G90 G94 G17 G91.1
G64 P0.001 Q0.001
G20
G53 G0 Z0.
(.3 CIRCLUAR THROUGH HOLE 2)
M9
T1 M6
S22000 M3
G4 P10.
G54
M7
G0 X7.0117 Y1.4893
G43 Z0.6 H1
G0 Z0.13
G1 Z0.0649 F40.
G19 G3 Y1.5042 Z0.05 J0.0149 K0.
G1 Y1.5117
G17 G3 X7. Y1.5234 I-0.0117 J0.
Y1.4766 Z0.0327 I0. J-0.0234
Y1.5234 Z0.0154 I0. J0.0234
Y1.4766 Z-0.0018 I0. J-0.0234
Y1.5234 Z-0.0191 I0. J0.0234
Y1.4766 Z-0.0364 I0. J-0.0234
Y1.5234 Z-0.0537 I0. J0.0234
Y1.4766 Z-0.071 I0. J-0.0234
Y1.5234 Z-0.0882 I0. J0.0234
Y1.4766 Z-0.1055 I0. J-0.0234
Y1.5234 Z-0.1228 I0. J0.0234
Y1.4766 Z-0.1401 I0. J-0.0234
Y1.5234 Z-0.1574 I0. J0.0234
Y1.4766 Z-0.1746 I0. J-0.0234
Y1.5234 Z-0.1919 I0. J0.0234
Y1.4766 Z-0.2092 I0. J-0.0234
Y1.5234 Z-0.2265 I0. J0.0234
Y1.4766 Z-0.2438 I0. J-0.0234
Y1.5234 Z-0.261 I0. J0.0234
X6.9769 Y1.4964 Z-0.2705 I0. J-0.0234
X7.007 Y1.4777 Z-0.28 I0.0231 J0.0036
X6.993 Y1.5223 I-0.007 J0.0223
X7.007 Y1.4777 I0.007 J-0.0223
X7.0147 Y1.4924 I-0.0035 J0.0112
G1 X7.0124 Y1.4995
X7.0116 Y1.5022 Z-0.2797
X7.0107 Y1.5049 Z-0.2789
X7.0099 Y1.5074 Z-0.2775
X7.0093 Y1.5095 Z-0.2756
X7.0087 Y1.5113 Z-0.2734
X7.0083 Y1.5126 Z-0.2708
X7.008 Y1.5134 Z-0.268
X7.0079 Y1.5137 Z-0.2651
G0 Z0.4
X7.0117 Y0.9893
Z0.13
G1 Z0.0649 F40.
G19 G3 Y1.0042 Z0.05 J0.0149 K0.
G1 Y1.0117
G17 G3 X7. Y1.0234 I-0.0117 J0.
Y0.9766 Z0.0327 I0. J-0.0234
Y1.0234 Z0.0154 I0. J0.0234
Y0.9766 Z-0.0018 I0. J-0.0234
Y1.0234 Z-0.0191 I0. J0.0234
Y0.9766 Z-0.0364 I0. J-0.0234
Y1.0234 Z-0.0537 I0. J0.0234
Y0.9766 Z-0.071 I0. J-0.0234
Y1.0234 Z-0.0882 I0. J0.0234
Y0.9766 Z-0.1055 I0. J-0.0234
Y1.0234 Z-0.1228 I0. J0.0234
Y0.9766 Z-0.1401 I0. J-0.0234
Y1.0234 Z-0.1574 I0. J0.0234
Y0.9766 Z-0.1746 I0. J-0.0234
Y1.0234 Z-0.1919 I0. J0.0234
Y0.9766 Z-0.2092 I0. J-0.0234
Y1.0234 Z-0.2265 I0. J0.0234
Y0.9766 Z-0.2438 I0. J-0.0234
Y1.0234 Z-0.261 I0. J0.0234
X6.9769 Y0.9964 Z-0.2705 I0. J-0.0234
X7.007 Y0.9777 Z-0.28 I0.0231 J0.0036
X6.993 Y1.0223 I-0.007 J0.0223
X7.007 Y0.9777 I0.007 J-0.0223
X7.0147 Y0.9924 I-0.0035 J0.0112
G1 X7.0124 Y0.9995
X7.0116 Y1.0022 Z-0.2797
X7.0107 Y1.0049 Z-0.2789
X7.0099 Y1.0074 Z-0.2775
X7.0093 Y1.0095 Z-0.2756
X7.0087 Y1.0113 Z-0.2734
X7.0083 Y1.0126 Z-0.2708
X7.008 Y1.0134 Z-0.268
X7.0079 Y1.0137 Z-0.2651
G0 Z0.4
X7.0117 Y0.4893
Z0.13
G1 Z0.0649 F40.
G19 G3 Y0.5042 Z0.05 J0.0149 K0.
G1 Y0.5117
G17 G3 X7. Y0.5234 I-0.0117 J0.
Y0.4766 Z0.0327 I0. J-0.0234
Y0.5234 Z0.0154 I0. J0.0234
Y0.4766 Z-0.0018 I0. J-0.0234
Y0.5234 Z-0.0191 I0. J0.0234
Y0.4766 Z-0.0364 I0. J-0.0234
Y0.5234 Z-0.0537 I0. J0.0234
Y0.4766 Z-0.071 I0. J-0.0234
Y0.5234 Z-0.0882 I0. J0.0234
Y0.4766 Z-0.1055 I0. J-0.0234
Y0.5234 Z-0.1228 I0. J0.0234
Y0.4766 Z-0.1401 I0. J-0.0234
Y0.5234 Z-0.1574 I0. J0.0234
Y0.4766 Z-0.1746 I0. J-0.0234
Y0.5234 Z-0.1919 I0. J0.0234
Y0.4766 Z-0.2092 I0. J-0.0234
Y0.5234 Z-0.2265 I0. J0.0234
Y0.4766 Z-0.2438 I0. J-0.0234
Y0.5234 Z-0.261 I0. J0.0234
X6.9769 Y0.4964 Z-0.2705 I0. J-0.0234
X7.007 Y0.4777 Z-0.28 I0.0231 J0.0036
X6.993 Y0.5223 I-0.007 J0.0223
X7.007 Y0.4777 I0.007 J-0.0223
X7.0147 Y0.4924 I-0.0035 J0.0112
G1 X7.0124 Y0.4995
X7.0116 Y0.5022 Z-0.2797
X7.0107 Y0.5049 Z-0.2789
X7.0099 Y0.5074 Z-0.2775
X7.0093 Y0.5095 Z-0.2756
X7.0087 Y0.5113 Z-0.2734
X7.0083 Y0.5126 Z-0.2708
X7.008 Y0.5134 Z-0.268
X7.0079 Y0.5137 Z-0.2651
G0 Z0.4
X8.0117 Y0.4893
Z0.13
G1 Z0.0649 F40.
G19 G3 Y0.5042 Z0.05 J0.0149 K0.
G1 Y0.5117
G17 G3 X8. Y0.5234 I-0.0117 J0.
Y0.4766 Z0.0327 I0. J-0.0234
Y0.5234 Z0.0154 I0. J0.0234
Y0.4766 Z-0.0018 I0. J-0.0234
Y0.5234 Z-0.0191 I0. J0.0234
Y0.4766 Z-0.0364 I0. J-0.0234
Y0.5234 Z-0.0537 I0. J0.0234
Y0.4766 Z-0.071 I0. J-0.0234
Y0.5234 Z-0.0882 I0. J0.0234
Y0.4766 Z-0.1055 I0. J-0.0234
Y0.5234 Z-0.1228 I0. J0.0234
Y0.4766 Z-0.1401 I0. J-0.0234
Y0.5234 Z-0.1574 I0. J0.0234
Y0.4766 Z-0.1746 I0. J-0.0234
Y0.5234 Z-0.1919 I0. J0.0234
Y0.4766 Z-0.2092 I0. J-0.0234
Y0.5234 Z-0.2265 I0. J0.0234
Y0.4766 Z-0.2438 I0. J-0.0234
Y0.5234 Z-0.261 I0. J0.0234
X7.9769 Y0.4964 Z-0.2705 I0. J-0.0234
X8.007 Y0.4777 Z-0.28 I0.0231 J0.0036
X7.993 Y0.5223 I-0.007 J0.0223
X8.007 Y0.4777 I0.007 J-0.0223
X8.0147 Y0.4924 I-0.0035 J0.0112
G1 X8.0124 Y0.4995
X8.0116 Y0.5022 Z-0.2797
X8.0107 Y0.5049 Z-0.2789
X8.0099 Y0.5074 Z-0.2775
X8.0093 Y0.5095 Z-0.2756
X8.0087 Y0.5113 Z-0.2734
X8.0083 Y0.5126 Z-0.2708
X8.008 Y0.5134 Z-0.268
X8.0079 Y0.5137 Z-0.2651
G0 Z0.4
X8.0117 Y0.9893
Z0.13
G1 Z0.0649 F40.
G19 G3 Y1.0042 Z0.05 J0.0149 K0.
G1 Y1.0117
G17 G3 X8. Y1.0234 I-0.0117 J0.
Y0.9766 Z0.0327 I0. J-0.0234
Y1.0234 Z0.0154 I0. J0.0234
Y0.9766 Z-0.0018 I0. J-0.0234
Y1.0234 Z-0.0191 I0. J0.0234
Y0.9766 Z-0.0364 I0. J-0.0234
Y1.0234 Z-0.0537 I0. J0.0234
Y0.9766 Z-0.071 I0. J-0.0234
Y1.0234 Z-0.0882 I0. J0.0234
Y0.9766 Z-0.1055 I0. J-0.0234
Y1.0234 Z-0.1228 I0. J0.0234
Y0.9766 Z-0.1401 I0. J-0.0234
Y1.0234 Z-0.1574 I0. J0.0234
Y0.9766 Z-0.1746 I0. J-0.0234
Y1.0234 Z-0.1919 I0. J0.0234
Y0.9766 Z-0.2092 I0. J-0.0234
Y1.0234 Z-0.2265 I0. J0.0234
Y0.9766 Z-0.2438 I0. J-0.0234
Y1.0234 Z-0.261 I0. J0.0234
X7.9769 Y0.9964 Z-0.2705 I0. J-0.0234
X8.007 Y0.9777 Z-0.28 I0.0231 J0.0036
X7.993 Y1.0223 I-0.007 J0.0223
X8.007 Y0.9777 I0.007 J-0.0223
X8.0147 Y0.9924 I-0.0035 J0.0112
G1 X8.0124 Y0.9995
X8.0116 Y1.0022 Z-0.2797
X8.0107 Y1.0049 Z-0.2789
X8.0099 Y1.0074 Z-0.2775
X8.0093 Y1.0095 Z-0.2756
X8.0087 Y1.0113 Z-0.2734
X8.0083 Y1.0126 Z-0.2708
X8.008 Y1.0134 Z-0.268
X8.0079 Y1.0137 Z-0.2651
G0 Z0.4
X8.0117 Y1.4893
Z0.13
G1 Z0.0649 F40.
G19 G3 Y1.5042 Z0.05 J0.0149 K0.
G1 Y1.5117
G17 G3 X8. Y1.5234 I-0.0117 J0.
Y1.4766 Z0.0327 I0. J-0.0234
Y1.5234 Z0.0154 I0. J0.0234
Y1.4766 Z-0.0018 I0. J-0.0234
Y1.5234 Z-0.0191 I0. J0.0234
Y1.4766 Z-0.0364 I0. J-0.0234
Y1.5234 Z-0.0537 I0. J0.0234
Y1.4766 Z-0.071 I0. J-0.0234
Y1.5234 Z-0.0882 I0. J0.0234
Y1.4766 Z-0.1055 I0. J-0.0234
Y1.5234 Z-0.1228 I0. J0.0234
Y1.4766 Z-0.1401 I0. J-0.0234
Y1.5234 Z-0.1574 I0. J0.0234
Y1.4766 Z-0.1746 I0. J-0.0234
Y1.5234 Z-0.1919 I0. J0.0234
Y1.4766 Z-0.2092 I0. J-0.0234
Y1.5234 Z-0.2265 I0. J0.0234
Y1.4766 Z-0.2438 I0. J-0.0234
Y1.5234 Z-0.261 I0. J0.0234
X7.9769 Y1.4964 Z-0.2705 I0. J-0.0234
X8.007 Y1.4777 Z-0.28 I0.0231 J0.0036
X7.993 Y1.5223 I-0.007 J0.0223
X8.007 Y1.4777 I0.007 J-0.0223
X8.0147 Y1.4924 I-0.0035 J0.0112
G1 X8.0124 Y1.4995
X8.0116 Y1.5022 Z-0.2797
X8.0107 Y1.5049 Z-0.2789
X8.0099 Y1.5074 Z-0.2775
X8.0093 Y1.5095 Z-0.2756
X8.0087 Y1.5113 Z-0.2734
X8.0083 Y1.5126 Z-0.2708
X8.008 Y1.5134 Z-0.268
X8.0079 Y1.5137 Z-0.2651
G0 Z0.4
X9.0129 Y1.4906
Z0.13
G1 Z0.0649 F40.
G19 G3 Y1.5055 Z0.05 J0.0149 K0.
G1 Y1.5129
G17 G3 X9. Y1.5259 I-0.0129 J0.
Y1.4741 Z0.0323 I0. J-0.0259
Y1.5259 Z0.0146 I0. J0.0259
Y1.4741 Z-0.0032 I0. J-0.0259
Y1.5259 Z-0.0209 I0. J0.0259
Y1.4741 Z-0.0386 I0. J-0.0259
Y1.5259 Z-0.0563 I0. J0.0259
Y1.4741 Z-0.074 I0. J-0.0259
Y1.5259 Z-0.0918 I0. J0.0259
Y1.4741 Z-0.1095 I0. J-0.0259
Y1.5259 Z-0.1272 I0. J0.0259
Y1.4741 Z-0.1449 I0. J-0.0259
Y1.5259 Z-0.1627 I0. J0.0259
Y1.4741 Z-0.1804 I0. J-0.0259
Y1.5259 Z-0.1981 I0. J0.0259
Y1.4741 Z-0.2158 I0. J-0.0259
Y1.5259 Z-0.2335 I0. J0.0259
Y1.4741 Z-0.2513 I0. J-0.0259
Y1.5259 Z-0.269 I0. J0.0259
X8.976 Y1.4903 Z-0.28 I0. J-0.0259
X9.024 Y1.5097 I0.024 J0.0097
X8.976 Y1.4903 I-0.024 J-0.0097
X8.9928 Y1.4831 I0.012 J0.0048
G1 X8.9998 Y1.4859
X9.0025 Y1.487 Z-0.2797
X9.0051 Y1.4881 Z-0.2789
X9.0074 Y1.489 Z-0.2775
X9.0095 Y1.4899 Z-0.2756
X9.0113 Y1.4906 Z-0.2734
X9.0125 Y1.4911 Z-0.2708
X9.0133 Y1.4914 Z-0.268
X9.0136 Y1.4915 Z-0.2651
G0 Z0.4
X9.0129 Y0.9906
Z0.13
G1 Z0.0649 F40.
G19 G3 Y1.0055 Z0.05 J0.0149 K0.
G1 Y1.0129
G17 G3 X9. Y1.0259 I-0.0129 J0.
Y0.9741 Z0.0323 I0. J-0.0259
Y1.0259 Z0.0146 I0. J0.0259
Y0.9741 Z-0.0032 I0. J-0.0259
Y1.0259 Z-0.0209 I0. J0.0259
Y0.9741 Z-0.0386 I0. J-0.0259
Y1.0259 Z-0.0563 I0. J0.0259
Y0.9741 Z-0.074 I0. J-0.0259
Y1.0259 Z-0.0918 I0. J0.0259
Y0.9741 Z-0.1095 I0. J-0.0259
Y1.0259 Z-0.1272 I0. J0.0259
Y0.9741 Z-0.1449 I0. J-0.0259
Y1.0259 Z-0.1627 I0. J0.0259
Y0.9741 Z-0.1804 I0. J-0.0259
Y1.0259 Z-0.1981 I0. J0.0259
Y0.9741 Z-0.2158 I0. J-0.0259
Y1.0259 Z-0.2335 I0. J0.0259
Y0.9741 Z-0.2513 I0. J-0.0259
Y1.0259 Z-0.269 I0. J0.0259
X8.976 Y0.9903 Z-0.28 I0. J-0.0259
X9.024 Y1.0097 I0.024 J0.0097
X8.976 Y0.9903 I-0.024 J-0.0097
X8.9928 Y0.9831 I0.012 J0.0048
G1 X8.9998 Y0.9859
X9.0025 Y0.987 Z-0.2797
X9.0051 Y0.9881 Z-0.2789
X9.0074 Y0.989 Z-0.2775
X9.0095 Y0.9899 Z-0.2756
X9.0113 Y0.9906 Z-0.2734
X9.0125 Y0.9911 Z-0.2708
X9.0133 Y0.9914 Z-0.268
X9.0136 Y0.9915 Z-0.2651
G0 Z0.4
X9.0129 Y0.4906
Z0.13
G1 Z0.0649 F40.
G19 G3 Y0.5055 Z0.05 J0.0149 K0.
G1 Y0.5129
G17 G3 X9. Y0.5259 I-0.0129 J0.
Y0.4741 Z0.0323 I0. J-0.0259
Y0.5259 Z0.0146 I0. J0.0259
Y0.4741 Z-0.0032 I0. J-0.0259
Y0.5259 Z-0.0209 I0. J0.0259
Y0.4741 Z-0.0386 I0. J-0.0259
Y0.5259 Z-0.0563 I0. J0.0259
Y0.4741 Z-0.074 I0. J-0.0259
Y0.5259 Z-0.0918 I0. J0.0259
Y0.4741 Z-0.1095 I0. J-0.0259
Y0.5259 Z-0.1272 I0. J0.0259
Y0.4741 Z-0.1449 I0. J-0.0259
Y0.5259 Z-0.1627 I0. J0.0259
Y0.4741 Z-0.1804 I0. J-0.0259
Y0.5259 Z-0.1981 I0. J0.0259
Y0.4741 Z-0.2158 I0. J-0.0259
Y0.5259 Z-0.2335 I0. J0.0259
Y0.4741 Z-0.2513 I0. J-0.0259
Y0.5259 Z-0.269 I0. J0.0259
X8.976 Y0.4903 Z-0.28 I0. J-0.0259
X9.024 Y0.5097 I0.024 J0.0097
X8.976 Y0.4903 I-0.024 J-0.0097
X8.9928 Y0.4831 I0.012 J0.0048
G1 X8.9998 Y0.4859
X9.0025 Y0.487 Z-0.2797
X9.0051 Y0.4881 Z-0.2789
X9.0074 Y0.489 Z-0.2775
X9.0095 Y0.4899 Z-0.2756
X9.0113 Y0.4906 Z-0.2734
X9.0125 Y0.4911 Z-0.2708
X9.0133 Y0.4914 Z-0.268
X9.0136 Y0.4915 Z-0.2651
G0 Z0.4
X12.25 Y5.5
Z0.1151
G1 Z0.05 F40.
X12.2524 Y5.5025
G3 X12.25 Y5.5049 I-0.0024 J0.
Y5.4951 Z0.036 I0. J-0.0049
Y5.5049 Z0.022 I0. J0.0049
Y5.4951 Z0.0079 I0. J-0.0049
Y5.5049 Z-0.0061 I0. J0.0049
Y5.4951 Z-0.0201 I0. J-0.0049
Y5.5049 Z-0.0341 I0. J0.0049
Y5.4951 Z-0.0481 I0. J-0.0049
X12.2544 Y5.4979 Z-0.0531 I0. J0.0049
X12.2456 Y5.5021 Z-0.0671 I-0.0044 J0.0021
X12.2475 Y5.4958 Z-0.0738 I0.0044 J-0.0021
X12.2525 Y5.5042 Z-0.0878 I0.0025 J0.0042
X12.246 Y5.5029 Z-0.0944 I-0.0025 J-0.0042
X12.254 Y5.4971 Z-0.1084 I0.004 J-0.0029
X12.2532 Y5.5037 Z-0.115 I-0.004 J0.0029
X12.2468 Y5.4963 Z-0.129 I-0.0032 J-0.0037
X12.2534 Y5.4964 Z-0.1356 I0.0032 J0.0037
X12.2466 Y5.5036 Z-0.1496 I-0.0034 J0.0036
X12.2462 Y5.497 Z-0.1563 I0.0034 J-0.0036
X12.2538 Y5.503 Z-0.1703 I0.0038 J0.003
X12.2473 Y5.5041 Z-0.1769 I-0.0038 J-0.003
X12.2527 Y5.4959 Z-0.1909 I0.0027 J-0.0041
X12.2543 Y5.5023 Z-0.1975 I-0.0027 J0.0041
X12.2457 Y5.4977 Z-0.2115 I-0.0043 J-0.0023
X12.2519 Y5.4955 Z-0.2181 I0.0043 J0.0023
X12.2481 Y5.5045 Z-0.2321 I-0.0019 J0.0045
X12.2453 Y5.4985 Z-0.2387 I0.0019 J-0.0045
X12.2547 Y5.5015 Z-0.2528 I0.0047 J0.0015
X12.2489 Y5.5048 Z-0.2594 I-0.0047 J-0.0015
X12.2511 Y5.4952 Z-0.2734 I0.0011 J-0.0048
X12.2549 Y5.5006 Z-0.28 I-0.0011 J0.0048
X12.2451 Y5.4994 I-0.0049 J-0.0006
X12.2549 Y5.5006 I0.0049 J0.0006
X12.2521 Y5.5027 I-0.0024 J-0.0003
G1 X12.25 Y5.5
G0 Z0.6
(SHAPE POCKET)
M7
G0 X11.4138 Y5.082
Z0.6
Z0.12
G3 X11.4785 Y4.9559 Z0.0807 I0.0323 J-0.0631 F50.
X11.4138 Y5.082 Z0.0415 I-0.0323 J0.0631
X11.4785 Y4.9559 Z0.0022 I0.0323 J-0.0631
X11.4138 Y5.082 Z-0.037 I-0.0323 J0.0631
X11.4785 Y4.9559 Z-0.0763 I0.0323 J-0.0631
X11.517 Y5.0189 Z-0.09 I-0.0323 J0.0631
X11.3752 I-0.0709 J0.
X11.517 I0.0709 J0.
X11.5246 Y5.0393 I-0.02 J0.0191 F60.
G1 X11.522 Y5.0467
X11.5189 Y5.0539
X11.5152 Y5.0608
X11.511 Y5.0674
X11.5062 Y5.0736
X11.501 Y5.0794
X11.4953 Y5.0848
X11.4892 Y5.0897
X11.4828 Y5.0941
X11.476 Y5.0979
X11.4689 Y5.1013
X11.4616 Y5.104
X11.4541 Y5.1062
X11.4464 Y5.1077
X11.4386 Y5.1086
X11.4308 Y5.1089
X11.423 Y5.1086
X11.4152 Y5.1076
X11.4076 Y5.1061
X11.4001 Y5.1039
X11.3928 Y5.1011
X11.3857 Y5.0978
X11.3789 Y5.0939
X11.3725 Y5.0894
X11.3664 Y5.0845
X11.3608 Y5.0791
X11.3556 Y5.0733
X11.3508 Y5.0671
X11.3466 Y5.0605
X11.343 Y5.0536
X11.3399 Y5.0464
X11.3373 Y5.039
X11.3354 Y5.0314
X11.3341 Y5.0237
X11.3334 Y5.0159
Y5.0081
X11.3339 Y5.0003
X11.3351 Y4.9926
X11.3369 Y4.985
X11.3393 Y4.9776
X11.3423 Y4.9703
X11.3458 Y4.9634
X11.3499 Y4.9567
X11.3545 Y4.9504
X11.3596 Y4.9445
X11.3652 Y4.939
X11.3712 Y4.934
X11.3775 Y4.9295
X11.3843 Y4.9254
X11.3913 Y4.922
X11.3985 Y4.9191
X11.406 Y4.9168
X11.4136 Y4.9151
X11.4213 Y4.914
X11.4291 Y4.9136
X11.4369 Y4.9137
X11.4447 Y4.9145
G3 X11.5246 Y5.0393 I0.013 J0.0797
X11.3988 Y5.1854 I-0.0799 J0.0584
G1 X11.3882 Y5.1834
X11.3778 Y5.1808
X11.3676 Y5.1775
X11.3575 Y5.1737
X11.3477 Y5.1693
X11.3382 Y5.1643
X11.329 Y5.1588
X11.3201 Y5.1528
X11.3116 Y5.1462
X11.3035 Y5.1391
X11.2958 Y5.1316
X11.2886 Y5.1237
X11.2819 Y5.1153
X11.2756 Y5.1066
X11.2699 Y5.0975
X11.2647 Y5.0881
X11.2601 Y5.0784
X11.2561 Y5.0684
X11.2526 Y5.0583
X11.2498 Y5.0479
X11.2475 Y5.0374
X11.2459 Y5.0268
X11.2449 Y5.0161
X11.2445 Y5.0054
X11.2448 Y4.9946
X11.2457 Y4.9839
X11.2472 Y4.9733
X11.2493 Y4.9628
X11.2521 Y4.9524
X11.2555 Y4.9422
X11.2594 Y4.9322
X11.2639 Y4.9225
X11.269 Y4.913
X11.2746 Y4.9039
X11.2808 Y4.8951
X11.2875 Y4.8866
X11.2946 Y4.8786
X11.3022 Y4.871
X11.3102 Y4.8639
X11.3187 Y4.8573
X11.3275 Y4.8511
X11.3366 Y4.8455
X11.3461 Y4.8405
X11.3558 Y4.836
X11.3658 Y4.832
X11.376 Y4.8287
X11.3864 Y4.826
X11.397 Y4.8239
X11.4076 Y4.8224
X11.4183 Y4.8215
X11.429 Y4.8213
X11.4397 Y4.8217
X11.4504 Y4.8227
X11.461 Y4.8243
X11.4715 Y4.8266
G3 X11.6321 Y5.1161 I-0.0433 J0.2133
X11.3097 Y5.2635 I-0.2168 J-0.0479
X11.1599 Y5.021 I0.2259 J-0.3071
G1 X11.1605 Y4.9834
X11.1617 Y4.9705
X11.1634 Y4.9577
X11.1657 Y4.945
X11.1687 Y4.9325
X11.1722 Y4.92
X11.1764 Y4.9078
X11.1811 Y4.8958
X11.1864 Y4.884
X11.1922 Y4.8725
X11.1986 Y4.8613
X11.2055 Y4.8504
X11.213 Y4.8398
X11.2209 Y4.8296
X11.2293 Y4.8198
X11.2382 Y4.8105
X11.2475 Y4.8015
X11.2572 Y4.793
X11.2673 Y4.785
X11.2778 Y4.7775
X11.2886 Y4.7704
X11.2998 Y4.764
X11.3113 Y4.758
X11.323 Y4.7526
X11.335 Y4.7478
X11.3472 Y4.7435
X11.3595 Y4.7399
X11.3721 Y4.7368
X11.3848 Y4.7344
X11.3975 Y4.7325
X11.4104 Y4.7313
X11.4233 Y4.7307
X11.4362
X11.4491 Y4.7313
X11.4619 Y4.7325
X11.4747 Y4.7344
X11.4874 Y4.7368
X11.4999 Y4.7399
X11.5123 Y4.7436
X11.5245 Y4.7478
X11.5365 Y4.7526
X11.5482 Y4.758
X11.5597 Y4.764
X11.5708 Y4.7705
X11.5817 Y4.7775
X11.5922 Y4.785
X11.6023 Y4.793
X11.612 Y4.8015
X11.6213 Y4.8105
X11.6302 Y4.8199
X11.6386 Y4.8297
X11.6465 Y4.8399
X11.6539 Y4.8504
X11.6608 Y4.8613
X11.6672 Y4.8725
X11.6731 Y4.8841
X11.6784 Y4.8958
X11.6831 Y4.9079
X11.6872 Y4.9201
X11.6907 Y4.9325
X11.6937 Y4.9451
X11.696 Y4.9578
X11.6978 Y4.9706
X11.6989 Y4.9834
X11.6994 Y4.9963
X11.6992 Y5.0092
X11.6985 Y5.0221
X11.6972 Y5.035
X11.6952 Y5.0477
X11.6926 Y5.0604
X11.6894 Y5.0729
X11.6857 Y5.0852
X11.6813 Y5.0974
X11.6764 Y5.1093
X11.6709 Y5.121
X11.6648 Y5.1324
X11.6582 Y5.1435
X11.6511 Y5.1543
X11.6435 Y5.1647
X11.6354 Y5.1747
X11.6268 Y5.1844
X11.6178 Y5.1936
X11.6083 Y5.2024
X11.5984 Y5.2107
X11.5881 Y5.2185
X11.5775 Y5.2259
X11.5666 Y5.2327
G2 X11.5237 Y5.311 I0.466 J0.3059
G1 X11.5182 Y5.3189
X11.5122 Y5.3265
X11.5057 Y5.3337
X11.4987 Y5.3405
X11.4914 Y5.3468
X11.4836 Y5.3527
X11.4755 Y5.358
X11.4671 Y5.3628
X11.4583 Y5.367
X11.4493 Y5.3706
X11.4401 Y5.3737
X11.4308 Y5.3762
X11.4212 Y5.3781
X11.4116 Y5.3793
X11.4019 Y5.38
X11.3922
X11.3826 Y5.3794
X11.3729 Y5.3781
X11.3634 Y5.3763
X11.354 Y5.3738
X11.3448 Y5.3708
G2 X11.3097 Y5.2635 I-0.1872 J0.0018
G3 X11.3105 Y5.2486 I0.0133 J-0.0068
X11.3711 Y5.2484 I0.0303 J0.0196
X11.363 Y5.3448 I-0.0659 J0.043
X11.3516 Y5.355 I-0.0579 J-0.0534 F50.
G2 X11.3456 Y5.3686 I0.0088 J0.012
G1 X11.3468 Y5.3769 F60.
X11.3469 Y5.3839
X11.3497 Y5.3914
X11.3531 Y5.3987
X11.357 Y5.4057
X11.3614 Y5.4124
X11.3664 Y5.4187
X11.3718 Y5.4247
X11.3776 Y5.4302
X11.3839 Y5.4352
X11.3905 Y5.4398
X11.3974 Y5.4438
X11.4046 Y5.4473
X11.4121 Y5.4503
X11.4198 Y5.4527
X11.4276 Y5.4544
X11.4355 Y5.4556
X11.4435 Y5.4562
X11.4516
X11.4596 Y5.4555
X11.4675 Y5.4543
X11.4753 Y5.4524
X11.4829 Y5.45
X11.4904 Y5.447
X11.4976 Y5.4434
X11.5045 Y5.4393
X11.511 Y5.4347
G3 X11.5232 Y5.3108 I0.3418 J-0.0292
G1 X11.5239 Y5.3084
X11.5242 Y5.3059
X11.5241 Y5.3033
X11.5235 Y5.3008
X11.5225 Y5.2985
X11.5211 Y5.2963
G2 X11.4859 Y5.2941 I-0.0186 J0.0157
X11.4898 Y5.4128 I0.0537 J0.0576
X11.5025 Y5.4212 I0.0498 J-0.061 F50.
G3 X11.5104 Y5.4339 I-0.007 J0.0132
G1 Y5.4591 F60.
X11.5076 Y5.4667
X11.5043 Y5.474
X11.5004 Y5.4811
X11.4959 Y5.4879
X11.491 Y5.4943
X11.4856 Y5.5003
X11.4797 Y5.5059
X11.4734 Y5.511
X11.4668 Y5.5156
X11.4598 Y5.5197
X11.4525 Y5.5233
X11.445 Y5.5262
X11.4372 Y5.5286
X11.4293 Y5.5304
X11.4213 Y5.5315
X11.4132 Y5.5321
X11.4051 Y5.532
X11.3971 Y5.5313
X11.3891 Y5.53
X11.3812 Y5.528
X11.3735 Y5.5255
X11.3661 Y5.5224
X11.3589 Y5.5187
X11.352 Y5.5145
X11.3454 Y5.5097
X11.3471 Y5.4926
Y5.4
X11.3469 Y5.3839
G3 X11.3546 Y5.3712 I0.0149 J0.0003
X11.3842 Y5.3774 I0.0111 J0.0203
X11.368 Y5.4886 I-0.0627 J0.0476
X11.3548 Y5.4964 I-0.0465 J-0.0635 F50.
G2 X11.3463 Y5.5086 I0.0063 J0.0135
G1 X11.3459 Y5.5158 F60.
X11.3445 Y5.5285
G2 X11.5207 Y5.5793 I0.1022 J-0.0234
G3 X11.5104 Y5.4591 I0.4937 J-0.1027
G2 X11.5025 Y5.4464 I-0.0149 J0.0005
X11.4513 Y5.467 I-0.017 J0.0318
X11.4943 Y5.5637 I0.0748 J0.0246
X11.5089 Y5.5684 I0.0317 J-0.0721 F50.
G3 X11.5198 Y5.5785 I-0.0033 J0.0146
G1 X11.5217 Y5.5852 F60.
X11.5246 Y5.5935
G3 X11.4945 Y5.661 I-0.0601 J0.0137
G1 X11.4916 Y5.6606
X11.4888 Y5.6597
X11.4863 Y5.6583
X11.4841 Y5.6565
X11.4823 Y5.6542
X11.4809 Y5.6517
X11.48 Y5.649
X11.4797 Y5.6462
X11.4799 Y5.6434
X11.4806 Y5.6406
X11.4816 Y5.6377
X11.4966 Y5.5941
X11.4977 Y5.5916
X11.4992 Y5.5893
G3 X11.5246 Y5.5935 I0.0114 J0.0096 F50.
G1 X11.5379 Y5.6315 F60.
X11.5421 Y5.6431
X11.5431 Y5.645
X11.5439 Y5.6466
X11.5446 Y5.648
X11.547 Y5.6534
X11.5465 Y5.6568
X11.5442 Y5.6594
X11.5409 Y5.6604
G3 X11.5353 Y5.6595 I0.0008 J-0.0226
X11.5398 Y5.6441 I0.0023 J-0.0077 F50.
X11.5446 Y5.648 I-0.0023 J0.0077
G1 X11.548 Y5.6547 F60.
X11.5501 Y5.6581
X11.5512 Y5.6598
X11.5507 Y5.6604
X11.388
G3 X11.3189 Y5.6336 I-0.0247 J-0.0387
X11.3346 Y5.6242 I0.0139 J0.0054
G1 X11.3457 Y5.6255
X11.3892 Y5.6307
G3 X11.4003 Y5.6379 I-0.0018 J0.0148
X11.388 Y5.6604 I-0.0128 J0.0076 F50.
G1 X11.314 F60.
X11.3068
G2 X11.3445 Y5.5285 I-0.3293 J-0.1653
G3 X11.3682 Y5.5188 I0.0148 J0.0022
G1 X11.3706 Y5.5206 Z-0.0897
X11.3728 Y5.5223 Z-0.0889
X11.3748 Y5.5238 Z-0.0875
X11.3766 Y5.5252 Z-0.0856
X11.3781 Y5.5263 Z-0.0834
X11.3792 Y5.5272 Z-0.0808
X11.3799 Y5.5277 Z-0.078
X11.3801 Y5.5278 Z-0.0751
G0 Z0.6
(SHAPE POCKET FINISHING PASS)
M7
G0 X11.3821 Y5.3691
Z0.6
Z0.2
G1 Z0.1 F13.333
Z-0.039
Y5.3694 Z-0.0446 F40.
Y5.3703 Z-0.0501
Y5.3719 Z-0.0555
Y5.374 Z-0.0607
Y5.3767 Z-0.0656
Y5.38 Z-0.0702
Y5.3837 Z-0.0744
Y5.3879 Z-0.0781
Y5.3925 Z-0.0813
Y5.3974 Z-0.084
Y5.4026 Z-0.0862
Y5.4079 Z-0.0877
Y5.4135 Z-0.0887
Y5.4191 Z-0.089
Y5.434
G3 X11.3321 Y5.384 I0. J-0.05
G2 X11.2544 Y5.226 I-0.1996 J0. F50.
G3 X11.6031 Y4.774 I0.1743 J-0.226
Y5.226 I-0.1743 J0.226
G2 X11.5254 Y5.384 I0.1219 J0.158
G3 X11.4754 Y5.434 I-0.05 J0.
G1 Y5.4191
G19 G2 Y5.3691 Z-0.039 J0. K0.05
G0 Z0.6
G17
(2D SLOT CUT)
M7
G0 X10.4197 Y-0.0012
Z0.6
Z0.2
G1 Z0.1 F13.333
G2 X10.1556 Y-0.1371 Z0.0456 I-0.2641 J0.1887 F30.
G1 X9.5 Z-0.07
X6.75
G2 X6.4254 Y0.1875 I0. J0.3246
G1 Y2.0188
G2 X6.5246 Y2.2524 I0.3246 J0.
G1 X10.133 Y5.7336
G2 X10.3584 Y5.8246 I0.2254 J-0.2336
G1 X11.0075
G2 X11.3321 Y5.5 I0. J-0.3246
G1 Y5.
G3 X11.5254 I0.0967 J0.
G1 Y5.5
G2 X11.85 Y5.8246 I0.3246 J0.
G1 X12.25
G2 X12.5746 Y5.5 I0. J-0.3246
G1 Y3.817
G2 X12.5311 Y3.6547 I-0.3246 J0.
G1 X10.4368 Y0.0253
G2 X10.1556 Y-0.1371 I-0.2811 J0.1622
G1 X9.5
X8.9975 Z-0.14
X6.75
G2 X6.4254 Y0.1875 I0. J0.3246
G1 Y2.0188
G2 X6.5246 Y2.2524 I0.3246 J0.
G1 X10.133 Y5.7336
G2 X10.3584 Y5.8246 I0.2254 J-0.2336
G1 X11.0075
G2 X11.3321 Y5.5 I0. J-0.3246
G1 Y5.
G3 X11.5254 I0.0967 J0.
G1 Y5.5
G2 X11.85 Y5.8246 I0.3246 J0.
G1 X12.25
G2 X12.5746 Y5.5 I0. J-0.3246
G1 Y3.817
G2 X12.5311 Y3.6547 I-0.3246 J0.
G1 X10.4368 Y0.0253
G2 X10.1556 Y-0.1371 I-0.2811 J0.1622
G1 X9.5
X8.9975
X8.495 Z-0.21
X6.75
G2 X6.4254 Y0.1875 I0. J0.3246
G1 Y0.672
Z-0.2
Y1.4212
Z-0.21 F13.333
Y2.0188 F30.
G2 X6.5246 Y2.2524 I0.3246 J0.
G1 X9.0765 Y4.7143
Z-0.2
X9.6157 Y5.2345
Z-0.21 F13.333
X10.133 Y5.7336 F30.
G2 X10.3584 Y5.8246 I0.2254 J-0.2336
G1 X11.0075
G2 X11.3321 Y5.5 I0. J-0.3246
G1 Y5.
G3 X11.5254 I0.0967 J0.
G1 Y5.5
G2 X11.85 Y5.8246 I0.3246 J0.
G1 X12.25
G2 X12.5746 Y5.5 I0. J-0.3246
G1 Y5.3071
Z-0.2
Y4.5579
Z-0.21 F13.333
Y3.817 F30.
G2 X12.5311 Y3.6547 I-0.3246 J0.
G1 X12.4219 Y3.4654
Z-0.2
X12.0475 Y2.8165
Z-0.21 F13.333
X10.4368 Y0.0253 F30.
G2 X10.1556 Y-0.1371 I-0.2811 J0.1622
G1 X9.8821
Z-0.2
X9.1329
Z-0.21 F13.333
X8.495 F30.
X7.9925 Z-0.28
X6.75
G2 X6.4254 Y0.1875 I0. J0.3246
G1 Y0.672
Z-0.2
Y1.4212
Z-0.28 F13.333
Y2.0188 F30.
G2 X6.5246 Y2.2524 I0.3246 J0.
G1 X9.0765 Y4.7143
Z-0.2
X9.6157 Y5.2345
Z-0.28 F13.333
X10.133 Y5.7336 F30.
G2 X10.3584 Y5.8246 I0.2254 J-0.2336
G1 X11.0075
G2 X11.3321 Y5.5 I0. J-0.3246
G1 Y5.
G3 X11.5254 I0.0967 J0.
G1 Y5.5
G2 X11.85 Y5.8246 I0.3246 J0.
G1 X12.25
G2 X12.5746 Y5.5 I0. J-0.3246
G1 Y5.3071
Z-0.2
Y4.5579
Z-0.28 F13.333
Y3.817 F30.
G2 X12.5311 Y3.6547 I-0.3246 J0.
G1 X12.4219 Y3.4654
Z-0.2
X12.0475 Y2.8165
Z-0.28 F13.333
X10.4368 Y0.0253 F30.
G2 X10.1556 Y-0.1371 I-0.2811 J0.1622
G1 X9.8821
Z-0.2
X9.1329
Z-0.28 F13.333
X7.9925 F30.
G0 Z0.6
M9
G53 Z0.
M30
%
