%
(971-23-P-0078_BUTTERFLY FISH GEARBOX PLATEV2_1490 FINISHING)
(T1  D=0.149 CR=0. - ZMIN=-0.2175 - FLAT END MILL)
G90 G94 G17 G91.1
G64 P0.001 Q0.001
G20
G53 G0 Z0.
(.3 CIRCLUAR THROUGH HOLE 3)
M9
T1 M6
S22000 M3
G4 P10.
G54
M7
G0 X74.9691 Y7.187
G43 Z0.6 H1
G0 Z0.13
G1 Z0.0649 F40.
G18 G2 X74.984 Z0.05 I0.0149 K0.
G1 X74.9914
G17 G3 X75.0044 Y7.2 I0. J0.013
X74.9524 Z0.0323 I-0.026 J0.
X74.9683 Y7.1761 Z0.0257 I0.026 J0.
X74.9886 Y7.2239 Z0.008 I0.0102 J0.0239
X74.9604 Y7.2187 Z0.0014 I-0.0102 J-0.0239
X74.9965 Y7.1813 Z-0.0164 I0.0181 J-0.0187
X74.9604 Y7.2187 Z-0.0341 I-0.0181 J0.0187
X74.9965 Y7.1813 Z-0.0518 I0.0181 J-0.0187
X74.9604 Y7.2187 Z-0.0695 I-0.0181 J0.0187
X74.9549 Y7.211 Z-0.0716 I0.0181 J-0.0187
X75.002 Y7.189 Z-0.0893 I0.0236 J-0.011
X74.9977 Y7.2174 Z-0.0959 I-0.0236 J0.011
X74.9591 Y7.1826 Z-0.1136 I-0.0193 J-0.0174
X74.9977 Y7.2174 Z-0.1314 I0.0193 J0.0174
X74.9525 Y7.2018 Z-0.1445 I-0.0193 J-0.0174
X75.0044 Y7.1982 Z-0.1623 I0.0259 J-0.0018
X74.9525 Y7.2018 Z-0.18 I-0.0259 J0.0018
X74.9952 Y7.1801 Z-0.1932 I0.0259 J-0.0018
X74.9617 Y7.2199 Z-0.2109 I-0.0168 J0.0199
X74.9536 Y7.1923 Z-0.2175 I0.0168 J-0.0199
X75.0033 Y7.2077 I0.0248 J0.0077
X74.9536 Y7.1923 I-0.0248 J-0.0077
X74.9698 Y7.1837 I0.0124 J0.0038
G1 X74.977 Y7.1859
X74.9797 Y7.1868 Z-0.2172
X74.9824 Y7.1876 Z-0.2164
X74.9849 Y7.1884 Z-0.215
X74.987 Y7.189 Z-0.2131
X74.9888 Y7.1896 Z-0.2109
X74.9901 Y7.19 Z-0.2083
X74.9909 Y7.1902 Z-0.2055
X74.9912 Y7.1903 Z-0.2026
G0 Z0.4
X74.6969 Y11.013
Z0.13
G1 Z0.0649 F40.
G18 G3 X74.6819 Z0.05 I-0.0149 K0.
G1 X74.6745
G17 G3 X74.6615 Y11. I0. J-0.013
X74.7135 Z0.0323 I0.026 J0.
X74.6977 Y11.0239 Z0.0257 I-0.026 J0.
X74.6773 Y10.9761 Z0.008 I-0.0102 J-0.0239
X74.6977 Y11.0239 Z-0.0098 I0.0102 J0.0239
X74.6773 Y10.9761 Z-0.0275 I-0.0102 J-0.0239
X74.6977 Y11.0239 Z-0.0452 I0.0102 J0.0239
X74.6773 Y10.9761 Z-0.0629 I-0.0102 J-0.0239
X74.7111 Y10.989 Z-0.0716 I0.0102 J0.0239
X74.6639 Y11.011 Z-0.0893 I-0.0236 J0.011
X74.6682 Y10.9826 Z-0.0959 I0.0236 J-0.011
X74.7068 Y11.0174 Z-0.1136 I0.0193 J0.0174
X74.6682 Y10.9826 Z-0.1314 I-0.0193 J-0.0174
X74.7134 Y10.9982 Z-0.1445 I0.0193 J0.0174
X74.6616 Y11.0018 Z-0.1623 I-0.0259 J0.0018
X74.7134 Y10.9982 Z-0.18 I0.0259 J-0.0018
X74.6707 Y11.0199 Z-0.1932 I-0.0259 J0.0018
X74.7043 Y10.9801 Z-0.2109 I0.0168 J-0.0199
X74.7123 Y11.0077 Z-0.2175 I-0.0168 J0.0199
X74.6627 Y10.9923 I-0.0248 J-0.0077
X74.7123 Y11.0077 I0.0248 J0.0077
X74.6961 Y11.0163 I-0.0124 J-0.0038
G1 X74.689 Y11.0141
X74.6862 Y11.0132 Z-0.2172
X74.6835 Y11.0124 Z-0.2164
X74.6811 Y11.0116 Z-0.215
X74.6789 Y11.011 Z-0.2131
X74.6771 Y11.0104 Z-0.2109
X74.6758 Y11.01 Z-0.2083
X74.675 Y11.0098 Z-0.2055
X74.6747 Y11.0097 Z-0.2026
G0 Z0.4
X74.8012 Y11.987
Z0.13
G1 Z0.0649 F40.
G18 G2 X74.8161 Z0.05 I0.0149 K0.
G1 X74.8235
G17 G3 X74.8365 Y12. I0. J0.013
X74.7845 Z0.0323 I-0.026 J0.
X74.8004 Y11.9761 Z0.0257 I0.026 J0.
X74.8207 Y12.0239 Z0.008 I0.0102 J0.0239
X74.8004 Y11.9761 Z-0.0098 I-0.0102 J-0.0239
X74.8348 Y12.0093 Z-0.023 I0.0102 J0.0239
X74.7863 Y11.9907 Z-0.0407 I-0.0243 J-0.0093
X74.8096 Y11.974 Z-0.0473 I0.0243 J0.0093
X74.8114 Y12.026 Z-0.065 I0.0009 J0.026
X74.8096 Y11.974 Z-0.0827 I-0.0009 J-0.026
X74.8298 Y12.0174 Z-0.0959 I0.0009 J0.026
X74.7912 Y11.9826 Z-0.1136 I-0.0193 J-0.0174
X74.819 Y11.9754 Z-0.1202 I0.0193 J0.0174
X74.802 Y12.0246 Z-0.1379 I-0.0085 J0.0246
X74.7846 Y12.0018 Z-0.1445 I0.0085 J-0.0246
X74.8365 Y11.9982 Z-0.1623 I0.0259 J-0.0018
X74.8223 Y12.0232 Z-0.1689 I-0.0259 J0.0018
X74.7988 Y11.9768 Z-0.1866 I-0.0118 J-0.0232
X74.8273 Y11.9801 Z-0.1932 I0.0118 J0.0232
X74.7938 Y12.0199 Z-0.2109 I-0.0168 J0.0199
X74.7857 Y11.9923 Z-0.2175 I0.0168 J-0.0199
X74.8354 Y12.0077 I0.0248 J0.0077
X74.7857 Y11.9923 I-0.0248 J-0.0077
X74.8019 Y11.9837 I0.0124 J0.0038
G1 X74.8091 Y11.9859
X74.8118 Y11.9868 Z-0.2172
X74.8145 Y11.9876 Z-0.2164
X74.817 Y11.9884 Z-0.215
X74.8191 Y11.989 Z-0.2131
X74.8209 Y11.9896 Z-0.2109
X74.8222 Y11.99 Z-0.2083
X74.823 Y11.9902 Z-0.2055
X74.8233 Y11.9903 Z-0.2026
G0 Z0.4
X73.8385 Y14.6575
Z0.13
G1 Z0.0649 F40.
G18 G2 X73.8534 Z0.05 I0.0149 K0.
G1 X73.8608
G17 G3 X73.8738 Y14.6705 I0. J0.013
X73.8218 Z0.0323 I-0.026 J0.
X73.8377 Y14.6466 Z0.0257 I0.026 J0.
X73.858 Y14.6944 Z0.008 I0.0102 J0.0239
X73.8297 Y14.6892 Z0.0014 I-0.0102 J-0.0239
X73.8659 Y14.6518 Z-0.0164 I0.0181 J-0.0187
X73.8298 Y14.6892 Z-0.0341 I-0.0181 J0.0187
X73.8659 Y14.6518 Z-0.0518 I0.0181 J-0.0187
X73.8298 Y14.6892 Z-0.0695 I-0.0181 J0.0187
X73.8659 Y14.6518 Z-0.0872 I0.0181 J-0.0187
X73.8671 Y14.6879 Z-0.0959 I-0.0181 J0.0187
X73.8285 Y14.6531 Z-0.1136 I-0.0193 J-0.0174
X73.8563 Y14.6459 Z-0.1202 I0.0193 J0.0174
X73.8393 Y14.6951 Z-0.1379 I-0.0085 J0.0246
X73.8219 Y14.6723 Z-0.1445 I0.0085 J-0.0246
X73.8738 Y14.6687 Z-0.1623 I0.0259 J-0.0018
X73.8596 Y14.6937 Z-0.1689 I-0.0259 J0.0018
X73.8361 Y14.6473 Z-0.1866 I-0.0118 J-0.0232
X73.8646 Y14.6506 Z-0.1932 I0.0118 J0.0232
X73.8311 Y14.6904 Z-0.2109 I-0.0168 J0.0199
X73.823 Y14.6629 Z-0.2175 I0.0168 J-0.0199
X73.8727 Y14.6782 I0.0248 J0.0077
X73.823 Y14.6629 I-0.0248 J-0.0077
X73.8392 Y14.6543 I0.0124 J0.0038
G1 X73.8463 Y14.6565
X73.8491 Y14.6573 Z-0.2172
X73.8518 Y14.6581 Z-0.2164
X73.8543 Y14.6589 Z-0.215
X73.8564 Y14.6596 Z-0.2131
X73.8582 Y14.6601 Z-0.2109
X73.8595 Y14.6605 Z-0.2083
X73.8603 Y14.6608 Z-0.2055
X73.8606 Z-0.2026
G0 Z0.4
X73.4356 Y14.9537
Z0.13
G1 Z0.0649 F40.
G18 G2 X73.4505 Z0.05 I0.0149 K0.
G1 X73.458
G17 G3 X73.471 Y14.9667 I0. J0.013
X73.419 Z0.0323 I-0.026 J0.
X73.4348 Y14.9428 Z0.0257 I0.026 J0.
X73.4551 Y14.9906 Z0.008 I0.0102 J0.0239
X73.4269 Y14.9854 Z0.0014 I-0.0102 J-0.0239
X73.463 Y14.948 Z-0.0164 I0.0181 J-0.0187
X73.4269 Y14.9854 Z-0.0341 I-0.0181 J0.0187
X73.463 Y14.948 Z-0.0518 I0.0181 J-0.0187
X73.4269 Y14.9854 Z-0.0695 I-0.0181 J0.0187
X73.463 Y14.948 Z-0.0872 I0.0181 J-0.0187
X73.4643 Y14.9841 Z-0.0959 I-0.0181 J0.0187
X73.4257 Y14.9493 Z-0.1136 I-0.0193 J-0.0174
X73.4535 Y14.9421 Z-0.1202 I0.0193 J0.0174
X73.4365 Y14.9913 Z-0.1379 I-0.0085 J0.0246
X73.419 Y14.9685 Z-0.1445 I0.0085 J-0.0246
X73.4709 Y14.9649 Z-0.1623 I0.0259 J-0.0018
X73.4567 Y14.9899 Z-0.1689 I-0.0259 J0.0018
X73.4332 Y14.9435 Z-0.1866 I-0.0118 J-0.0232
X73.4617 Y14.9468 Z-0.1932 I0.0118 J0.0232
X73.4282 Y14.9866 Z-0.2109 I-0.0168 J0.0199
X73.4201 Y14.959 Z-0.2175 I0.0168 J-0.0199
X73.4698 Y14.9743 I0.0248 J0.0077
X73.4201 Y14.959 I-0.0248 J-0.0077
X73.4364 Y14.9504 I0.0124 J0.0038
G1 X73.4435 Y14.9526
X73.4463 Y14.9535 Z-0.2172
X73.449 Y14.9543 Z-0.2164
X73.4514 Y14.9551 Z-0.215
X73.4536 Y14.9557 Z-0.2131
X73.4553 Y14.9563 Z-0.2109
X73.4567 Y14.9567 Z-0.2083
X73.4575 Y14.9569 Z-0.2055
X73.4577 Y14.957 Z-0.2026
G0 Z0.4
X68.5675 Y11.7824
Z0.1151
G1 Z0.05 F40.
X68.57 Y11.7799
G3 X68.5725 Y11.7824 I0. J0.0025
X68.5625 Z0.036 I-0.005 J0.
X68.567 Y11.7774 Z0.0294 I0.005 J0.
X68.568 Y11.7874 Z0.0154 I0.0005 J0.005
X68.5626 Y11.7834 Z0.0088 I-0.0005 J-0.005
X68.5724 Y11.7814 Z-0.0052 I0.0049 J-0.001
X68.569 Y11.7872 Z-0.0117 I-0.0049 J0.001
X68.566 Y11.7776 Z-0.0257 I-0.0015 J-0.0048
X68.5721 Y11.7804 Z-0.0323 I0.0015 J0.0048
X68.5629 Y11.7843 Z-0.0463 I-0.0046 J0.002
X68.5651 Y11.778 Z-0.0529 I0.0046 J-0.002
X68.5699 Y11.7868 Z-0.0669 I0.0024 J0.0044
X68.5634 Y11.7852 Z-0.0735 I-0.0024 J-0.0044
X68.5716 Y11.7795 Z-0.0875 I0.0041 J-0.0028
X68.5707 Y11.7862 Z-0.094 I-0.0041 J0.0028
X68.5643 Y11.7786 Z-0.1081 I-0.0032 J-0.0038
X68.571 Y11.7788 Z-0.1146 I0.0032 J0.0038
X68.564 Y11.786 Z-0.1286 I-0.0035 J0.0036
X68.5636 Y11.7793 Z-0.1352 I0.0035 J-0.0036
X68.5714 Y11.7855 Z-0.1492 I0.0039 J0.0031
X68.5648 Y11.7866 Z-0.1558 I-0.0039 J-0.0031
X68.5702 Y11.7782 Z-0.1698 I0.0027 J-0.0042
X68.572 Y11.7846 Z-0.1763 I-0.0027 J0.0042
X68.563 Y11.7802 Z-0.1904 I-0.0045 J-0.0022
X68.5693 Y11.7777 Z-0.1969 I0.0045 J0.0022
X68.5657 Y11.7871 Z-0.2109 I-0.0018 J0.0047
X68.5627 Y11.7811 Z-0.2175 I0.0018 J-0.0047
X68.5723 Y11.7837 I0.0048 J0.0013
X68.5627 Y11.7811 I-0.0048 J-0.0013
X68.5657 Y11.7793 I0.0024 J0.0006
G1 X68.5675 Y11.7824
G0 Z0.4
X67.0519 Y10.4206
Z0.13
G1 Z0.0649 F40.
G18 G2 X67.0668 Z0.05 I0.0149 K0.
G1 X67.0742
G17 G3 X67.086 Y10.4324 I0. J0.0117
X67.039 Z0.0327 I-0.0235 J0.
X67.086 Z0.0154 I0.0235 J0.
X67.0429 Y10.4453 Z0.0014 I-0.0235 J0.
X67.0821 Y10.4195 Z-0.0159 I0.0196 J-0.0129
X67.0429 Y10.4453 Z-0.0332 I-0.0196 J0.0129
X67.0718 Y10.4108 Z-0.0473 I0.0196 J-0.0129
X67.0532 Y10.454 Z-0.0646 I-0.0093 J0.0216
X67.0392 Y10.4297 Z-0.0716 I0.0093 J-0.0216
X67.0858 Y10.4351 Z-0.0889 I0.0233 J0.0027
X67.0392 Y10.4297 Z-0.1062 I-0.0233 J-0.0027
X67.0858 Y10.4351 Z-0.1234 I0.0233 J0.0027
X67.0392 Y10.4297 Z-0.1407 I-0.0233 J-0.0027
X67.0463 Y10.4153 Z-0.1445 I0.0233 J0.0027
X67.0787 Y10.4494 Z-0.1618 I0.0162 J0.017
X67.0508 Y10.4528 Z-0.1689 I-0.0162 J-0.017
X67.0742 Y10.412 Z-0.1861 I0.0117 J-0.0204
X67.0508 Y10.4528 Z-0.2034 I-0.0117 J0.0204
X67.061 Y10.4089 Z-0.2175 I0.0117 J-0.0204
X67.0639 Y10.4558 I0.0015 J0.0235
X67.061 Y10.4089 I-0.0015 J-0.0235
X67.0735 Y10.4199 I0.0007 J0.0117
G1 X67.074 Y10.4274
X67.0741 Y10.4303 Z-0.2172
X67.0743 Y10.4331 Z-0.2164
X67.0745 Y10.4356 Z-0.215
X67.0746 Y10.4379 Z-0.2131
X67.0747 Y10.4397 Z-0.2109
X67.0748 Y10.4411 Z-0.2083
X67.0749 Y10.442 Z-0.2055
Y10.4422 Z-0.2026
G0 Z0.4
X67.0519 Y9.6706
Z0.13
G1 Z0.0649 F40.
G18 G2 X67.0668 Z0.05 I0.0149 K0.
G1 X67.0742
G17 G3 X67.086 Y9.6824 I0. J0.0117
X67.039 Z0.0327 I-0.0235 J0.
X67.086 Z0.0154 I0.0235 J0.
X67.0429 Y9.6953 Z0.0014 I-0.0235 J0.
X67.0821 Y9.6695 Z-0.0159 I0.0196 J-0.0129
X67.0429 Y9.6953 Z-0.0332 I-0.0196 J0.0129
X67.0718 Y9.6608 Z-0.0473 I0.0196 J-0.0129
X67.0532 Y9.704 Z-0.0646 I-0.0093 J0.0216
X67.0718 Y9.6608 Z-0.0818 I0.0093 J-0.0216
X67.0666 Y9.7055 Z-0.0959 I-0.0093 J0.0216
X67.0584 Y9.6593 Z-0.1132 I-0.0041 J-0.0231
X67.0666 Y9.7055 Z-0.1305 I0.0041 J0.0231
X67.0463 Y9.6653 Z-0.1445 I-0.0041 J-0.0231
X67.0787 Y9.6994 Z-0.1618 I0.0162 J0.017
X67.0508 Y9.7028 Z-0.1689 I-0.0162 J-0.017
X67.0742 Y9.662 Z-0.1861 I0.0117 J-0.0204
X67.0508 Y9.7028 Z-0.2034 I-0.0117 J0.0204
X67.061 Y9.6589 Z-0.2175 I0.0117 J-0.0204
X67.0639 Y9.7058 I0.0015 J0.0235
X67.061 Y9.6589 I-0.0015 J-0.0235
X67.0735 Y9.6699 I0.0007 J0.0117
G1 X67.074 Y9.6774
X67.0741 Y9.6803 Z-0.2172
X67.0743 Y9.6831 Z-0.2164
X67.0745 Y9.6856 Z-0.215
X67.0746 Y9.6879 Z-0.2131
X67.0747 Y9.6897 Z-0.2109
X67.0748 Y9.6911 Z-0.2083
X67.0749 Y9.692 Z-0.2055
Y9.6922 Z-0.2026
G0 Z0.4
X67.0519 Y8.9206
Z0.13
G1 Z0.0649 F40.
G18 G2 X67.0668 Z0.05 I0.0149 K0.
G1 X67.0742
G17 G3 X67.086 Y8.9324 I0. J0.0117
X67.039 Z0.0327 I-0.0235 J0.
X67.086 Z0.0154 I0.0235 J0.
X67.0429 Y8.9453 Z0.0014 I-0.0235 J0.
X67.0821 Y8.9195 Z-0.0159 I0.0196 J-0.0129
X67.0429 Y8.9453 Z-0.0332 I-0.0196 J0.0129
X67.0718 Y8.9108 Z-0.0473 I0.0196 J-0.0129
X67.0532 Y8.954 Z-0.0646 I-0.0093 J0.0216
X67.0718 Y8.9108 Z-0.0818 I0.0093 J-0.0216
X67.0666 Y8.9555 Z-0.0959 I-0.0093 J0.0216
X67.0584 Y8.9093 Z-0.1132 I-0.0041 J-0.0231
X67.0666 Y8.9555 Z-0.1305 I0.0041 J0.0231
X67.0463 Y8.9153 Z-0.1445 I-0.0041 J-0.0231
X67.0787 Y8.9494 Z-0.1618 I0.0162 J0.017
X67.0508 Y8.9528 Z-0.1689 I-0.0162 J-0.017
X67.0742 Y8.912 Z-0.1861 I0.0117 J-0.0204
X67.0508 Y8.9528 Z-0.2034 I-0.0117 J0.0204
X67.061 Y8.9089 Z-0.2175 I0.0117 J-0.0204
X67.0639 Y8.9558 I0.0015 J0.0235
X67.061 Y8.9089 I-0.0015 J-0.0235
X67.0735 Y8.9199 I0.0007 J0.0117
G1 X67.074 Y8.9274
X67.0741 Y8.9303 Z-0.2172
X67.0743 Y8.9331 Z-0.2164
X67.0745 Y8.9356 Z-0.215
X67.0746 Y8.9379 Z-0.2131
X67.0747 Y8.9397 Z-0.2109
X67.0748 Y8.9411 Z-0.2083
X67.0749 Y8.942 Z-0.2055
Y8.9422 Z-0.2026
G0 Z0.4
X69.1875 Y7.9179
Z0.1151
G1 Z0.05 F40.
X69.19 Y7.9154
G3 X69.1925 Y7.9179 I0. J0.0025
X69.1825 Z0.036 I-0.005 J0.
X69.187 Y7.9129 Z0.0294 I0.005 J0.
X69.188 Y7.9228 Z0.0154 I0.0005 J0.005
X69.1826 Y7.9189 Z0.0088 I-0.0005 J-0.005
X69.1924 Y7.9169 Z-0.0052 I0.0049 J-0.001
X69.189 Y7.9226 Z-0.0117 I-0.0049 J0.001
X69.186 Y7.9131 Z-0.0257 I-0.0015 J-0.0048
X69.1921 Y7.9159 Z-0.0323 I0.0015 J0.0048
X69.1829 Y7.9198 Z-0.0463 I-0.0046 J0.002
X69.1851 Y7.9135 Z-0.0529 I0.0046 J-0.002
X69.1899 Y7.9222 Z-0.0669 I0.0024 J0.0044
X69.1834 Y7.9207 Z-0.0735 I-0.0024 J-0.0044
X69.1916 Y7.915 Z-0.0875 I0.0041 J-0.0028
X69.1907 Y7.9217 Z-0.094 I-0.0041 J0.0028
X69.1843 Y7.9141 Z-0.1081 I-0.0032 J-0.0038
X69.191 Y7.9143 Z-0.1146 I0.0032 J0.0038
X69.184 Y7.9215 Z-0.1286 I-0.0035 J0.0036
X69.1836 Y7.9148 Z-0.1352 I0.0035 J-0.0036
X69.1914 Y7.9209 Z-0.1492 I0.0039 J0.0031
X69.1848 Y7.9221 Z-0.1558 I-0.0039 J-0.0031
X69.1902 Y7.9136 Z-0.1698 I0.0027 J-0.0042
X69.192 Y7.9201 Z-0.1763 I-0.0027 J0.0042
X69.183 Y7.9156 Z-0.1904 I-0.0045 J-0.0022
X69.1893 Y7.9132 Z-0.1969 I0.0045 J0.0022
X69.1857 Y7.9225 Z-0.2109 I-0.0018 J0.0047
X69.1827 Y7.9166 Z-0.2175 I0.0018 J-0.0047
X69.1923 Y7.9191 I0.0048 J0.0013
X69.1827 Y7.9166 I-0.0048 J-0.0013
X69.1857 Y7.9148 I0.0024 J0.0006
G1 X69.1875 Y7.9179
G0 Z0.4
X68.3813 Y4.8773
Z0.13
G1 Z0.0649 F40.
G18 G2 X68.3962 Z0.05 I0.0149 K0.
G1 X68.4037
G17 G3 X68.4167 Y4.8903 I0. J0.013
X68.3647 Z0.0323 I-0.026 J0.
X68.3805 Y4.8664 Z0.0257 I0.026 J0.
X68.4008 Y4.9143 Z0.008 I0.0102 J0.0239
X68.3726 Y4.909 Z0.0014 I-0.0101 J-0.0239
X68.4087 Y4.8717 Z-0.0164 I0.0181 J-0.0187
X68.3726 Y4.909 Z-0.0341 I-0.0181 J0.0187
X68.3898 Y4.8644 Z-0.0473 I0.0181 J-0.0187
X68.3915 Y4.9163 Z-0.065 I0.0009 J0.026
X68.3671 Y4.9013 Z-0.0716 I-0.0009 J-0.026
X68.4142 Y4.8794 Z-0.0893 I0.0236 J-0.011
X68.3671 Y4.9013 Z-0.107 I-0.0236 J0.011
X68.4142 Y4.8794 Z-0.1248 I0.0236 J-0.011
X68.3671 Y4.9013 Z-0.1425 I-0.0236 J0.011
X68.4142 Y4.8794 Z-0.1602 I0.0236 J-0.011
X68.4024 Y4.9135 Z-0.1689 I-0.0236 J0.011
X68.3789 Y4.8672 Z-0.1866 I-0.0118 J-0.0232
X68.4074 Y4.8705 Z-0.1932 I0.0118 J0.0232
X68.3739 Y4.9102 Z-0.2109 I-0.0168 J0.0199
X68.3658 Y4.8827 Z-0.2175 I0.0168 J-0.0199
X68.4155 Y4.898 I0.0248 J0.0077
X68.3658 Y4.8827 I-0.0248 J-0.0077
X68.3821 Y4.8741 I0.0124 J0.0038
G1 X68.3892 Y4.8763
X68.392 Y4.8771 Z-0.2172
X68.3946 Y4.878 Z-0.2164
X68.3971 Y4.8787 Z-0.215
X68.3993 Y4.8794 Z-0.2131
X68.401 Y4.8799 Z-0.2109
X68.4023 Y4.8803 Z-0.2083
X68.4032 Y4.8806 Z-0.2055
X68.4034 Y4.8807 Z-0.2026
G0 Z0.4
X68.875 Y3.125
Z0.1151
G1 Z0.05 F40.
X68.8725 Y3.1275
G3 X68.87 Y3.125 I0. J-0.0025
X68.88 Z0.036 I0.005 J0.
X68.8755 Y3.13 Z0.0294 I-0.005 J0.
X68.8745 Y3.12 Z0.0154 I-0.0005 J-0.005
X68.8799 Y3.124 Z0.0088 I0.0005 J0.005
X68.8701 Y3.126 Z-0.0052 I-0.0049 J0.001
X68.8799 Y3.124 Z-0.0192 I0.0049 J-0.001
X68.8704 Y3.127 Z-0.0323 I-0.0049 J0.001
X68.8796 Y3.123 Z-0.0463 I0.0046 J-0.002
X68.8774 Y3.1294 Z-0.0529 I-0.0046 J0.002
X68.8726 Y3.1206 Z-0.0669 I-0.0024 J-0.0044
X68.8791 Y3.1222 Z-0.0735 I0.0024 J0.0044
X68.8709 Y3.1278 Z-0.0875 I-0.0041 J0.0028
X68.8718 Y3.1212 Z-0.094 I0.0041 J-0.0028
X68.8782 Y3.1288 Z-0.1081 I0.0032 J0.0038
X68.8715 Y3.1286 Z-0.1146 I-0.0032 J-0.0038
X68.8785 Y3.1214 Z-0.1286 I0.0035 J-0.0036
X68.8789 Y3.1281 Z-0.1352 I-0.0035 J0.0036
X68.8711 Y3.1219 Z-0.1492 I-0.0039 J-0.0031
X68.8777 Y3.1208 Z-0.1558 I0.0039 J0.0031
X68.8723 Y3.1292 Z-0.1698 I-0.0027 J0.0042
X68.8777 Y3.1208 Z-0.1838 I0.0027 J-0.0042
X68.8732 Y3.1297 Z-0.1969 I-0.0027 J0.0042
X68.8768 Y3.1203 Z-0.2109 I0.0018 J-0.0047
X68.8798 Y3.1263 Z-0.2175 I-0.0018 J0.0047
X68.8702 Y3.1237 I-0.0048 J-0.0013
X68.8798 Y3.1263 I0.0048 J0.0013
X68.8768 Y3.1281 I-0.0024 J-0.0006
G1 X68.875 Y3.125
G0 Z0.4
Y1.875
Z0.1151
G1 Z0.05 F40.
X68.8725 Y1.8775
G3 X68.87 Y1.875 I0. J-0.0025
X68.88 Z0.036 I0.005 J0.
X68.8755 Y1.88 Z0.0294 I-0.005 J0.
X68.8745 Y1.87 Z0.0154 I-0.0005 J-0.005
X68.8799 Y1.874 Z0.0088 I0.0005 J0.005
X68.8701 Y1.876 Z-0.0052 I-0.0049 J0.001
X68.8799 Y1.874 Z-0.0192 I0.0049 J-0.001
X68.8704 Y1.877 Z-0.0323 I-0.0049 J0.001
X68.8796 Y1.873 Z-0.0463 I0.0046 J-0.002
X68.8774 Y1.8794 Z-0.0529 I-0.0046 J0.002
X68.8726 Y1.8706 Z-0.0669 I-0.0024 J-0.0044
X68.8791 Y1.8722 Z-0.0735 I0.0024 J0.0044
X68.8709 Y1.8778 Z-0.0875 I-0.0041 J0.0028
X68.8718 Y1.8712 Z-0.094 I0.0041 J-0.0028
X68.8782 Y1.8788 Z-0.1081 I0.0032 J0.0038
X68.8715 Y1.8786 Z-0.1146 I-0.0032 J-0.0038
X68.8785 Y1.8714 Z-0.1286 I0.0035 J-0.0036
X68.8789 Y1.8781 Z-0.1352 I-0.0035 J0.0036
X68.8711 Y1.8719 Z-0.1492 I-0.0039 J-0.0031
X68.8777 Y1.8708 Z-0.1558 I0.0039 J0.0031
X68.8723 Y1.8792 Z-0.1698 I-0.0027 J0.0042
X68.8777 Y1.8708 Z-0.1838 I0.0027 J-0.0042
X68.8732 Y1.8797 Z-0.1969 I-0.0027 J0.0042
X68.8768 Y1.8703 Z-0.2109 I0.0018 J-0.0047
X68.8798 Y1.8763 Z-0.2175 I-0.0018 J0.0047
X68.8702 Y1.8737 I-0.0048 J-0.0013
X68.8798 Y1.8763 I0.0048 J0.0013
X68.8768 Y1.8781 I-0.0024 J-0.0006
G1 X68.875 Y1.875
G0 Z0.4
X70.375
Z0.1151
G1 Z0.05 F40.
X70.3775 Y1.8725
G3 X70.38 Y1.875 I0. J0.0025
X70.37 Z0.036 I-0.005 J0.
X70.3745 Y1.87 Z0.0294 I0.005 J0.
X70.3755 Y1.88 Z0.0154 I0.0005 J0.005
X70.3745 Y1.87 Z0.0014 I-0.0005 J-0.005
X70.3765 Y1.8798 Z-0.0117 I0.0005 J0.005
X70.3735 Y1.8702 Z-0.0257 I-0.0015 J-0.0048
X70.3796 Y1.873 Z-0.0323 I0.0015 J0.0048
X70.3704 Y1.877 Z-0.0463 I-0.0046 J0.002
X70.3726 Y1.8706 Z-0.0529 I0.0046 J-0.002
X70.3774 Y1.8794 Z-0.0669 I0.0024 J0.0044
X70.3709 Y1.8778 Z-0.0735 I-0.0024 J-0.0044
X70.3791 Y1.8722 Z-0.0875 I0.0041 J-0.0028
X70.3782 Y1.8788 Z-0.094 I-0.0041 J0.0028
X70.3718 Y1.8712 Z-0.1081 I-0.0032 J-0.0038
X70.3785 Y1.8714 Z-0.1146 I0.0032 J0.0038
X70.3715 Y1.8786 Z-0.1286 I-0.0035 J0.0036
X70.3785 Y1.8714 Z-0.1426 I0.0035 J-0.0036
X70.3723 Y1.8792 Z-0.1558 I-0.0035 J0.0036
X70.3777 Y1.8708 Z-0.1698 I0.0027 J-0.0042
X70.3723 Y1.8792 Z-0.1838 I-0.0027 J0.0042
X70.3777 Y1.8708 Z-0.1978 I0.0027 J-0.0042
X70.3723 Y1.8792 Z-0.2118 I-0.0027 J0.0042
X70.3702 Y1.8737 Z-0.2175 I0.0027 J-0.0042
X70.3798 Y1.8763 I0.0048 J0.0013
X70.3702 Y1.8737 I-0.0048 J-0.0013
X70.3732 Y1.8719 I0.0024 J0.0006
G1 X70.375 Y1.875
G0 Z0.4
Y3.125
Z0.1151
G1 Z0.05 F40.
X70.3775 Y3.1225
G3 X70.38 Y3.125 I0. J0.0025
X70.37 Z0.036 I-0.005 J0.
X70.3745 Y3.12 Z0.0294 I0.005 J0.
X70.3755 Y3.13 Z0.0154 I0.0005 J0.005
X70.3701 Y3.126 Z0.0088 I-0.0005 J-0.005
X70.3799 Y3.124 Z-0.0052 I0.0049 J-0.001
X70.3701 Y3.126 Z-0.0192 I-0.0049 J0.001
X70.3796 Y3.123 Z-0.0323 I0.0049 J-0.001
X70.3704 Y3.127 Z-0.0463 I-0.0046 J0.002
X70.3726 Y3.1206 Z-0.0529 I0.0046 J-0.002
X70.3774 Y3.1294 Z-0.0669 I0.0024 J0.0044
X70.3709 Y3.1278 Z-0.0735 I-0.0024 J-0.0044
X70.3791 Y3.1222 Z-0.0875 I0.0041 J-0.0028
X70.3782 Y3.1288 Z-0.094 I-0.0041 J0.0028
X70.3718 Y3.1212 Z-0.1081 I-0.0032 J-0.0038
X70.3785 Y3.1214 Z-0.1146 I0.0032 J0.0038
X70.3715 Y3.1286 Z-0.1286 I-0.0035 J0.0036
X70.3785 Y3.1214 Z-0.1426 I0.0035 J-0.0036
X70.3723 Y3.1292 Z-0.1558 I-0.0035 J0.0036
X70.3777 Y3.1208 Z-0.1698 I0.0027 J-0.0042
X70.3795 Y3.1272 Z-0.1763 I-0.0027 J0.0042
X70.3705 Y3.1228 Z-0.1904 I-0.0045 J-0.0022
X70.3795 Y3.1272 Z-0.2044 I0.0045 J0.0022
X70.3702 Y3.1237 Z-0.2175 I-0.0045 J-0.0022
X70.3798 Y3.1263 I0.0048 J0.0013
X70.3702 Y3.1237 I-0.0048 J-0.0013
X70.3732 Y3.1219 I0.0024 J0.0006
G1 X70.375 Y3.125
G0 Z0.4
X70.337 Y4.4587
Z0.13
G1 Z0.0649 F40.
G18 G2 X70.3519 Z0.05 I0.0149 K0.
G1 X70.3593
G17 G3 X70.3723 Y4.4717 I0. J0.013
X70.3203 Z0.0323 I-0.026 J0.
X70.3362 Y4.4477 Z0.0257 I0.026 J0.
X70.3565 Y4.4956 Z0.008 I0.0102 J0.0239
X70.3283 Y4.4903 Z0.0014 I-0.0102 J-0.0239
X70.3644 Y4.453 Z-0.0164 I0.0181 J-0.0187
X70.3283 Y4.4903 Z-0.0341 I-0.0181 J0.0187
X70.3644 Y4.453 Z-0.0518 I0.0181 J-0.0187
X70.3283 Y4.4903 Z-0.0695 I-0.0181 J0.0187
X70.3644 Y4.453 Z-0.0872 I0.0181 J-0.0187
X70.3656 Y4.4891 Z-0.0959 I-0.0181 J0.0187
X70.327 Y4.4542 Z-0.1136 I-0.0193 J-0.0174
X70.3548 Y4.4471 Z-0.1202 I0.0193 J0.0174
X70.3378 Y4.4962 Z-0.1379 I-0.0085 J0.0246
X70.3204 Y4.4734 Z-0.1445 I0.0085 J-0.0246
X70.3723 Y4.4699 Z-0.1623 I0.0259 J-0.0018
X70.3581 Y4.4948 Z-0.1689 I-0.0259 J0.0018
X70.3346 Y4.4485 Z-0.1866 I-0.0118 J-0.0232
X70.3631 Y4.4518 Z-0.1932 I0.0118 J0.0232
X70.3296 Y4.4915 Z-0.2109 I-0.0168 J0.0199
X70.3215 Y4.464 Z-0.2175 I0.0168 J-0.0199
X70.3712 Y4.4793 I0.0248 J0.0077
X70.3215 Y4.464 I-0.0248 J-0.0077
X70.3378 Y4.4554 I0.0124 J0.0038
G1 X70.3449 Y4.4576
X70.3476 Y4.4585 Z-0.2172
X70.3503 Y4.4593 Z-0.2164
X70.3528 Y4.46 Z-0.215
X70.3549 Y4.4607 Z-0.2131
X70.3567 Y4.4612 Z-0.2109
X70.358 Y4.4617 Z-0.2083
X70.3588 Y4.4619 Z-0.2055
X70.3591 Y4.462 Z-0.2026
G0 Z0.4
X70.2587 Y5.7207
Z0.1151
G1 Z0.05 F40.
X70.2612 Y5.7182
G3 X70.2637 Y5.7207 I0. J0.0025
X70.2537 Z0.036 I-0.005 J0.
X70.2582 Y5.7157 Z0.0294 I0.005 J0.
X70.2592 Y5.7257 Z0.0154 I0.0005 J0.005
X70.2538 Y5.7217 Z0.0088 I-0.0005 J-0.005
X70.2636 Y5.7197 Z-0.0052 I0.0049 J-0.001
X70.2538 Y5.7217 Z-0.0192 I-0.0049 J0.001
X70.2633 Y5.7187 Z-0.0323 I0.0049 J-0.001
X70.2541 Y5.7226 Z-0.0463 I-0.0046 J0.002
X70.2563 Y5.7163 Z-0.0529 I0.0046 J-0.002
X70.2611 Y5.7251 Z-0.0669 I0.0024 J0.0044
X70.2546 Y5.7235 Z-0.0735 I-0.0024 J-0.0044
X70.2628 Y5.7178 Z-0.0875 I0.0041 J-0.0028
X70.262 Y5.7245 Z-0.094 I-0.0041 J0.0028
X70.2555 Y5.7169 Z-0.1081 I-0.0032 J-0.0038
X70.2622 Y5.7171 Z-0.1146 I0.0032 J0.0038
X70.2553 Y5.7243 Z-0.1286 I-0.0035 J0.0036
X70.2622 Y5.7171 Z-0.1426 I0.0035 J-0.0036
X70.2561 Y5.7249 Z-0.1558 I-0.0035 J0.0036
X70.2614 Y5.7165 Z-0.1698 I0.0027 J-0.0042
X70.2632 Y5.7229 Z-0.1763 I-0.0027 J0.0042
X70.2543 Y5.7185 Z-0.1904 I-0.0045 J-0.0022
X70.2632 Y5.7229 Z-0.2044 I0.0045 J0.0022
X70.2539 Y5.7194 Z-0.2175 I-0.0045 J-0.0022
X70.2636 Y5.722 I0.0048 J0.0013
X70.2539 Y5.7194 I-0.0048 J-0.0013
X70.257 Y5.7176 I0.0024 J0.0006
G1 X70.2587 Y5.7207
G0 Z0.4
X71.3173 Y5.4095
Z0.13
G1 Z0.0649 F40.
G18 G2 X71.3322 Z0.05 I0.0149 K0.
G1 X71.3397
G17 G3 X71.3527 Y5.4225 I0. J0.013
X71.3007 Z0.0323 I-0.026 J0.
X71.3165 Y5.3986 Z0.0257 I0.026 J0.
X71.3368 Y5.4464 Z0.008 I0.0102 J0.0239
X71.3165 Y5.3986 Z-0.0098 I-0.0102 J-0.0239
X71.3368 Y5.4464 Z-0.0275 I0.0102 J0.0239
X71.3165 Y5.3986 Z-0.0452 I-0.0102 J-0.0239
X71.3368 Y5.4464 Z-0.0629 I0.0102 J0.0239
X71.3165 Y5.3986 Z-0.0806 I-0.0102 J-0.0239
X71.3368 Y5.4464 Z-0.0984 I0.0102 J0.0239
X71.3165 Y5.3986 Z-0.1161 I-0.0102 J-0.0239
X71.3368 Y5.4464 Z-0.1338 I0.0102 J0.0239
X71.3165 Y5.3986 Z-0.1515 I-0.0102 J-0.0239
X71.3368 Y5.4464 Z-0.1692 I0.0102 J0.0239
X71.3165 Y5.3986 Z-0.187 I-0.0102 J-0.0239
X71.3368 Y5.4464 Z-0.2047 I0.0102 J0.0239
X71.3018 Y5.4148 Z-0.2175 I-0.0102 J-0.0239
X71.3515 Y5.4302 I0.0248 J0.0077
X71.3018 Y5.4148 I-0.0248 J-0.0077
X71.3181 Y5.4063 I0.0124 J0.0038
G1 X71.3252 Y5.4084
X71.328 Y5.4093 Z-0.2172
X71.3306 Y5.4101 Z-0.2164
X71.3331 Y5.4109 Z-0.215
X71.3353 Y5.4116 Z-0.2131
X71.337 Y5.4121 Z-0.2109
X71.3383 Y5.4125 Z-0.2083
X71.3392 Y5.4128 Z-0.2055
X71.3394 Z-0.2026
G0 Z0.4
X71.539 Y7.3972
Z0.13
G1 Z0.0649 F40.
G18 G2 X71.5539 Z0.05 I0.0149 K0.
G1 X71.5613
G17 G3 X71.5743 Y7.4102 I0. J0.013
X71.5223 Z0.0323 I-0.026 J0.
X71.5382 Y7.3862 Z0.0257 I0.026 J0.
X71.5585 Y7.4341 Z0.008 I0.0102 J0.0239
X71.5303 Y7.4289 Z0.0014 I-0.0102 J-0.0239
X71.5664 Y7.3915 Z-0.0164 I0.0181 J-0.0187
X71.5303 Y7.4289 Z-0.0341 I-0.0181 J0.0187
X71.5664 Y7.3915 Z-0.0518 I0.0181 J-0.0187
X71.5303 Y7.4289 Z-0.0695 I-0.0181 J0.0187
X71.5664 Y7.3915 Z-0.0872 I0.0181 J-0.0187
X71.5676 Y7.4276 Z-0.0959 I-0.0181 J0.0187
X71.529 Y7.3928 Z-0.1136 I-0.0193 J-0.0174
X71.5568 Y7.3856 Z-0.1202 I0.0193 J0.0174
X71.5398 Y7.4348 Z-0.1379 I-0.0085 J0.0246
X71.5224 Y7.412 Z-0.1445 I0.0085 J-0.0246
X71.5743 Y7.4084 Z-0.1623 I0.0259 J-0.0018
X71.5601 Y7.4334 Z-0.1689 I-0.0259 J0.0018
X71.5366 Y7.387 Z-0.1866 I-0.0118 J-0.0232
X71.5651 Y7.3903 Z-0.1932 I0.0118 J0.0232
X71.5316 Y7.4301 Z-0.2109 I-0.0168 J0.0199
X71.5235 Y7.4025 Z-0.2175 I0.0168 J-0.0199
X71.5732 Y7.4178 I0.0248 J0.0077
X71.5235 Y7.4025 I-0.0248 J-0.0077
X71.5397 Y7.3939 I0.0124 J0.0038
G1 X71.5469 Y7.3961
X71.5496 Y7.397 Z-0.2172
X71.5523 Y7.3978 Z-0.2164
X71.5548 Y7.3986 Z-0.215
X71.5569 Y7.3992 Z-0.2131
X71.5587 Y7.3998 Z-0.2109
X71.56 Y7.4002 Z-0.2083
X71.5608 Y7.4004 Z-0.2055
X71.5611 Y7.4005 Z-0.2026
G0 Z0.4
X71.6156 Y9.487
Z0.13
G1 Z0.0649 F40.
G18 G2 X71.6306 Z0.05 I0.0149 K0.
G1 X71.638
G17 G3 X71.651 Y9.5 I0. J0.013
X71.599 Z0.0323 I-0.026 J0.
X71.6148 Y9.4761 Z0.0257 I0.026 J0.
X71.6352 Y9.5239 Z0.008 I0.0102 J0.0239
X71.6069 Y9.5187 Z0.0014 I-0.0102 J-0.0239
X71.6431 Y9.4813 Z-0.0164 I0.0181 J-0.0187
X71.6069 Y9.5187 Z-0.0341 I-0.0181 J0.0187
X71.6431 Y9.4813 Z-0.0518 I0.0181 J-0.0187
X71.6069 Y9.5187 Z-0.0695 I-0.0181 J0.0187
X71.6014 Y9.511 Z-0.0716 I0.0181 J-0.0187
X71.6486 Y9.489 Z-0.0893 I0.0236 J-0.011
X71.6443 Y9.5174 Z-0.0959 I-0.0236 J0.011
X71.6057 Y9.4826 Z-0.1136 I-0.0193 J-0.0174
X71.6443 Y9.5174 Z-0.1314 I0.0193 J0.0174
X71.5991 Y9.5018 Z-0.1445 I-0.0193 J-0.0174
X71.6509 Y9.4982 Z-0.1623 I0.0259 J-0.0018
X71.6368 Y9.5232 Z-0.1689 I-0.0259 J0.0018
X71.6132 Y9.4768 Z-0.1866 I-0.0118 J-0.0232
X71.6418 Y9.4801 Z-0.1932 I0.0118 J0.0232
X71.6082 Y9.5199 Z-0.2109 I-0.0168 J0.0199
X71.6002 Y9.4923 Z-0.2175 I0.0168 J-0.0199
X71.6498 Y9.5077 I0.0248 J0.0077
X71.6002 Y9.4923 I-0.0248 J-0.0077
X71.6164 Y9.4837 I0.0124 J0.0038
G1 X71.6235 Y9.4859
X71.6263 Y9.4868 Z-0.2172
X71.629 Y9.4876 Z-0.2164
X71.6314 Y9.4884 Z-0.215
X71.6336 Y9.489 Z-0.2131
X71.6354 Y9.4896 Z-0.2109
X71.6367 Y9.49 Z-0.2083
X71.6375 Y9.4902 Z-0.2055
X71.6378 Y9.4903 Z-0.2026
G0 Z0.4
X71.4212 Y11.987
Z0.13
G1 Z0.0649 F40.
G18 G2 X71.4361 Z0.05 I0.0149 K0.
G1 X71.4435
G17 G3 X71.4565 Y12. I0. J0.013
X71.4045 Z0.0323 I-0.026 J0.
X71.4204 Y11.9761 Z0.0257 I0.026 J0.
X71.4407 Y12.0239 Z0.008 I0.0102 J0.0239
X71.4204 Y11.9761 Z-0.0098 I-0.0102 J-0.0239
X71.4548 Y12.0093 Z-0.023 I0.0102 J0.0239
X71.4063 Y11.9907 Z-0.0407 I-0.0243 J-0.0093
X71.4548 Y12.0093 Z-0.0584 I0.0243 J0.0093
X71.4063 Y11.9907 Z-0.0761 I-0.0243 J-0.0093
X71.4548 Y12.0093 Z-0.0938 I0.0243 J0.0093
X71.4063 Y11.9907 Z-0.1116 I-0.0243 J-0.0093
X71.4548 Y12.0093 Z-0.1293 I0.0243 J0.0093
X71.4063 Y11.9907 Z-0.147 I-0.0243 J-0.0093
X71.4548 Y12.0093 Z-0.1647 I0.0243 J0.0093
X71.4063 Y11.9907 Z-0.1824 I-0.0243 J-0.0093
X71.4548 Y12.0093 Z-0.2002 I0.0243 J0.0093
X71.4057 Y11.9923 Z-0.2175 I-0.0243 J-0.0093
X71.4554 Y12.0077 I0.0248 J0.0077
X71.4057 Y11.9923 I-0.0248 J-0.0077
X71.422 Y11.9837 I0.0124 J0.0038
G1 X71.4291 Y11.9859
X71.4319 Y11.9868 Z-0.2172
X71.4345 Y11.9876 Z-0.2164
X71.437 Y11.9884 Z-0.215
X71.4391 Y11.989 Z-0.2131
X71.4409 Y11.9896 Z-0.2109
X71.4422 Y11.99 Z-0.2083
X71.443 Y11.9902 Z-0.2055
X71.4433 Y11.9903 Z-0.2026
G0 Z0.4
X71.1875 Y13.5
Z0.1151
G1 Z0.05 F40.
X71.19 Y13.4975
G3 X71.1925 Y13.5 I0. J0.0025
X71.1825 Z0.036 I-0.005 J0.
X71.187 Y13.495 Z0.0294 I0.005 J0.
X71.188 Y13.505 Z0.0154 I0.0005 J0.005
X71.187 Y13.495 Z0.0014 I-0.0005 J-0.005
X71.189 Y13.5048 Z-0.0117 I0.0005 J0.005
X71.186 Y13.4952 Z-0.0257 I-0.0015 J-0.0048
X71.1921 Y13.498 Z-0.0323 I0.0015 J0.0048
X71.1829 Y13.502 Z-0.0463 I-0.0046 J0.002
X71.1851 Y13.4956 Z-0.0529 I0.0046 J-0.002
X71.1899 Y13.5044 Z-0.0669 I0.0024 J0.0044
X71.1834 Y13.5028 Z-0.0735 I-0.0024 J-0.0044
X71.1916 Y13.4972 Z-0.0875 I0.0041 J-0.0028
X71.1907 Y13.5038 Z-0.094 I-0.0041 J0.0028
X71.1843 Y13.4962 Z-0.1081 I-0.0032 J-0.0038
X71.191 Y13.4964 Z-0.1146 I0.0032 J0.0038
X71.184 Y13.5036 Z-0.1286 I-0.0035 J0.0036
X71.191 Y13.4964 Z-0.1427 I0.0035 J-0.0036
X71.1848 Y13.5042 Z-0.1558 I-0.0035 J0.0036
X71.1902 Y13.4958 Z-0.1698 I0.0027 J-0.0042
X71.192 Y13.5022 Z-0.1763 I-0.0027 J0.0042
X71.183 Y13.4978 Z-0.1904 I-0.0045 J-0.0022
X71.1893 Y13.4953 Z-0.1969 I0.0045 J0.0022
X71.1857 Y13.5047 Z-0.2109 I-0.0018 J0.0047
X71.1827 Y13.4987 Z-0.2175 I0.0018 J-0.0047
X71.1923 Y13.5013 I0.0048 J0.0013
X71.1827 Y13.4987 I-0.0048 J-0.0013
X71.1857 Y13.4969 I0.0024 J0.0006
G1 X71.1875 Y13.5
G0 Z0.4
X69.8646 Y14.2152
Z0.1151
G1 Z0.05 F40.
X69.8671 Y14.2127
G3 X69.8696 Y14.2152 I0. J0.0025
X69.8596 Z0.036 I-0.005 J0.
X69.8641 Y14.2102 Z0.0294 I0.005 J0.
X69.8651 Y14.2202 Z0.0154 I0.0005 J0.005
X69.8641 Y14.2102 Z0.0014 I-0.0005 J-0.005
X69.8651 Y14.2202 Z-0.0126 I0.0005 J0.005
X69.8641 Y14.2102 Z-0.0266 I-0.0005 J-0.005
X69.8692 Y14.2133 Z-0.0323 I0.0005 J0.005
X69.86 Y14.2172 Z-0.0463 I-0.0046 J0.002
X69.8622 Y14.2108 Z-0.0529 I0.0046 J-0.002
X69.867 Y14.2196 Z-0.0669 I0.0024 J0.0044
X69.8605 Y14.2181 Z-0.0735 I-0.0024 J-0.0044
X69.8687 Y14.2124 Z-0.0875 I0.0041 J-0.0028
X69.8678 Y14.219 Z-0.094 I-0.0041 J0.0028
X69.8613 Y14.2114 Z-0.1081 I-0.0032 J-0.0038
X69.8681 Y14.2116 Z-0.1146 I0.0032 J0.0038
X69.8611 Y14.2188 Z-0.1286 I-0.0035 J0.0036
X69.8607 Y14.2121 Z-0.1352 I0.0035 J-0.0036
X69.8685 Y14.2183 Z-0.1492 I0.0039 J0.0031
X69.8619 Y14.2194 Z-0.1558 I-0.0039 J-0.0031
X69.8673 Y14.211 Z-0.1698 I0.0027 J-0.0042
X69.8691 Y14.2174 Z-0.1763 I-0.0027 J0.0042
X69.8601 Y14.213 Z-0.1904 I-0.0045 J-0.0022
X69.8664 Y14.2105 Z-0.1969 I0.0045 J0.0022
X69.8628 Y14.2199 Z-0.2109 I-0.0018 J0.0047
X69.8598 Y14.2139 Z-0.2175 I0.0018 J-0.0047
X69.8694 Y14.2165 I0.0048 J0.0013
X69.8598 Y14.2139 I-0.0048 J-0.0013
X69.8628 Y14.2122 I0.0024 J0.0006
G1 X69.8646 Y14.2152
G0 Z0.4
X69.4337 Y14.4688
Z0.1151
G1 Z0.05 F40.
X69.4362 Y14.4663
G3 X69.4387 Y14.4688 I0. J0.0025
X69.4287 Z0.036 I-0.005 J0.
X69.4332 Y14.4638 Z0.0294 I0.005 J0.
X69.4342 Y14.4738 Z0.0154 I0.0005 J0.005
X69.4332 Y14.4638 Z0.0014 I-0.0005 J-0.005
X69.4342 Y14.4738 Z-0.0126 I0.0005 J0.005
X69.4332 Y14.4638 Z-0.0266 I-0.0005 J-0.005
X69.4383 Y14.4668 Z-0.0323 I0.0005 J0.005
X69.4291 Y14.4708 Z-0.0463 I-0.0046 J0.002
X69.4313 Y14.4644 Z-0.0529 I0.0046 J-0.002
X69.4361 Y14.4732 Z-0.0669 I0.0024 J0.0044
X69.4296 Y14.4716 Z-0.0735 I-0.0024 J-0.0044
X69.4378 Y14.466 Z-0.0875 I0.0041 J-0.0028
X69.4369 Y14.4726 Z-0.094 I-0.0041 J0.0028
X69.4304 Y14.465 Z-0.1081 I-0.0032 J-0.0038
X69.4371 Y14.4652 Z-0.1146 I0.0032 J0.0038
X69.4302 Y14.4724 Z-0.1286 I-0.0035 J0.0036
X69.4371 Y14.4652 Z-0.1427 I0.0035 J-0.0036
X69.431 Y14.473 Z-0.1558 I-0.0035 J0.0036
X69.4363 Y14.4646 Z-0.1698 I0.0027 J-0.0042
X69.4381 Y14.471 Z-0.1763 I-0.0027 J0.0042
X69.4292 Y14.4666 Z-0.1904 I-0.0045 J-0.0022
X69.4381 Y14.471 Z-0.2044 I0.0045 J0.0022
X69.4288 Y14.4675 Z-0.2175 I-0.0045 J-0.0022
X69.4385 Y14.4701 I0.0048 J0.0013
X69.4288 Y14.4675 I-0.0048 J-0.0013
X69.4319 Y14.4657 I0.0024 J0.0006
G1 X69.4337 Y14.4688
G0 Z0.4
X67.0519 Y14.1633
Z0.13
G1 Z0.0649 F40.
G18 G2 X67.0668 Z0.05 I0.0149 K0.
G1 X67.0742
G17 G3 X67.086 Y14.175 I0. J0.0118
X67.039 Z0.0327 I-0.0235 J0.
X67.086 Z0.0154 I0.0235 J0.
X67.0429 Y14.1879 Z0.0014 I-0.0235 J0.
X67.0821 Y14.1621 Z-0.0159 I0.0196 J-0.0129
X67.0429 Y14.1879 Z-0.0332 I-0.0196 J0.0129
X67.0821 Y14.1621 Z-0.0505 I0.0196 J-0.0129
X67.0429 Y14.1879 Z-0.0678 I-0.0196 J0.0129
X67.0392 Y14.1723 Z-0.0716 I0.0196 J-0.0129
X67.0858 Y14.1777 Z-0.0889 I0.0233 J0.0027
X67.0666 Y14.1981 Z-0.0959 I-0.0233 J-0.0027
X67.0584 Y14.1519 Z-0.1132 I-0.0041 J-0.0231
X67.0666 Y14.1981 Z-0.1305 I0.0041 J0.0231
X67.0463 Y14.158 Z-0.1445 I-0.0041 J-0.0231
X67.0787 Y14.192 Z-0.1618 I0.0162 J0.0171
X67.0508 Y14.1954 Z-0.1689 I-0.0162 J-0.017
X67.0742 Y14.1546 Z-0.1861 I0.0117 J-0.0204
X67.0854 Y14.1803 Z-0.1932 I-0.0117 J0.0204
X67.0396 Y14.1697 Z-0.2105 I-0.0229 J-0.0053
X67.061 Y14.1515 Z-0.2175 I0.0229 J0.0053
X67.0639 Y14.1985 I0.0015 J0.0235
X67.061 Y14.1515 I-0.0015 J-0.0235
X67.0735 Y14.1625 I0.0007 J0.0117
G1 X67.074 Y14.17
X67.0741 Y14.1729 Z-0.2172
X67.0743 Y14.1757 Z-0.2164
X67.0745 Y14.1782 Z-0.215
X67.0746 Y14.1805 Z-0.2131
X67.0747 Y14.1823 Z-0.2109
X67.0748 Y14.1837 Z-0.2083
X67.0749 Y14.1846 Z-0.2055
Y14.1849 Z-0.2026
G0 Z0.4
X67.0519 Y14.9132
Z0.13
G1 Z0.0649 F40.
G18 G2 X67.0668 Z0.05 I0.0149 K0.
G1 X67.0742
G17 G3 X67.086 Y14.925 I0. J0.0118
X67.039 Z0.0327 I-0.0235 J0.
X67.086 Z0.0154 I0.0235 J0.
X67.0429 Y14.9379 Z0.0014 I-0.0235 J0.
X67.0821 Y14.9121 Z-0.0159 I0.0196 J-0.0129
X67.0429 Y14.9379 Z-0.0332 I-0.0196 J0.0129
X67.0718 Y14.9034 Z-0.0473 I0.0196 J-0.0129
X67.0532 Y14.9466 Z-0.0646 I-0.0093 J0.0216
X67.0718 Y14.9034 Z-0.0818 I0.0093 J-0.0216
X67.0666 Y14.9481 Z-0.0959 I-0.0093 J0.0216
X67.0584 Y14.9019 Z-0.1132 I-0.0041 J-0.0231
X67.0666 Y14.9481 Z-0.1305 I0.0041 J0.0231
X67.0463 Y14.908 Z-0.1445 I-0.0041 J-0.0231
X67.0787 Y14.942 Z-0.1618 I0.0162 J0.017
X67.0508 Y14.9454 Z-0.1689 I-0.0162 J-0.017
X67.0742 Y14.9046 Z-0.1861 I0.0117 J-0.0204
X67.0508 Y14.9454 Z-0.2034 I-0.0117 J0.0204
X67.061 Y14.9015 Z-0.2175 I0.0117 J-0.0204
X67.0639 Y14.9485 I0.0015 J0.0235
X67.061 Y14.9015 I-0.0015 J-0.0235
X67.0735 Y14.9125 I0.0007 J0.0117
G1 X67.074 Y14.92
X67.0741 Y14.9229 Z-0.2172
X67.0743 Y14.9257 Z-0.2164
X67.0745 Y14.9282 Z-0.215
X67.0746 Y14.9305 Z-0.2131
X67.0747 Y14.9323 Z-0.2109
X67.0748 Y14.9337 Z-0.2083
X67.0749 Y14.9346 Z-0.2055
Y14.9349 Z-0.2026
G0 Z0.4
X67.0519 Y15.6633
Z0.13
G1 Z0.0649 F40.
G18 G2 X67.0668 Z0.05 I0.0149 K0.
G1 X67.0742
G17 G3 X67.086 Y15.675 I0. J0.0117
X67.039 Z0.0327 I-0.0235 J0.
X67.086 Z0.0154 I0.0235 J0.
X67.0429 Y15.6879 Z0.0014 I-0.0235 J0.
X67.0821 Y15.6621 Z-0.0159 I0.0196 J-0.0129
X67.0429 Y15.6879 Z-0.0332 I-0.0196 J0.0129
X67.0718 Y15.6534 Z-0.0473 I0.0196 J-0.0129
X67.0532 Y15.6966 Z-0.0646 I-0.0093 J0.0216
X67.0392 Y15.6723 Z-0.0716 I0.0093 J-0.0216
X67.0858 Y15.6777 Z-0.0889 I0.0233 J0.0027
X67.0392 Y15.6723 Z-0.1062 I-0.0233 J-0.0027
X67.0858 Y15.6777 Z-0.1234 I0.0233 J0.0027
X67.0392 Y15.6723 Z-0.1407 I-0.0233 J-0.0027
X67.0463 Y15.658 Z-0.1445 I0.0233 J0.0027
X67.0787 Y15.692 Z-0.1618 I0.0162 J0.017
X67.0508 Y15.6954 Z-0.1689 I-0.0162 J-0.017
X67.0742 Y15.6546 Z-0.1861 I0.0117 J-0.0204
X67.0508 Y15.6954 Z-0.2034 I-0.0117 J0.0204
X67.061 Y15.6515 Z-0.2175 I0.0117 J-0.0204
X67.0639 Y15.6985 I0.0015 J0.0235
X67.061 Y15.6515 I-0.0015 J-0.0235
X67.0735 Y15.6625 I0.0007 J0.0117
G1 X67.074 Y15.67
X67.0741 Y15.6729 Z-0.2172
X67.0743 Y15.6757 Z-0.2164
X67.0745 Y15.6782 Z-0.215
X67.0746 Y15.6805 Z-0.2131
X67.0747 Y15.6823 Z-0.2109
X67.0748 Y15.6837 Z-0.2083
X67.0749 Y15.6846 Z-0.2055
Y15.6849 Z-0.2026
G0 Z0.6
(SHAPE THROUGH FINISHING PASS 2)
M7
G0 X71.3726 Y8.5745
Z0.6
Z0.2
G1 Z0.1 F13.333
Z-0.1675
Y8.5742 Z-0.1731 F40.
Y8.5733 Z-0.1786
X71.3725 Y8.5717 Z-0.184
Y8.5696 Z-0.1892
X71.3724 Y8.5669 Z-0.1941
X71.3722 Y8.5636 Z-0.1987
X71.3721 Y8.5599 Z-0.2029
X71.372 Y8.5557 Z-0.2066
X71.3718 Y8.5512 Z-0.2098
X71.3716 Y8.5462 Z-0.2125
X71.3714 Y8.5411 Z-0.2147
X71.3712 Y8.5357 Z-0.2162
X71.371 Y8.5302 Z-0.2172
X71.3708 Y8.5246 Z-0.2175
X71.3703 Y8.5097
G3 X71.4221 Y8.5578 I0.0018 J0.05
G1 X71.4374 Y8.9749
G3 X71.4274 Y8.9786 I-0.0056 J0.0002
G1 Y8.9785
X71.1046 Y8.5697
G3 X71.1047 Y8.5626 I0.0045 J-0.0035
G2 X71.2531 Y7.7817 I-0.6346 J-0.5252
G1 Y7.7816
G3 X71.2555 Y7.7752 I0.0052 J-0.0017
G1 X71.2556
X71.3524 Y7.7187
G3 X71.3581 Y7.7188 I0.0028 J0.0048
G2 X71.3889 Y7.7358 I0.1903 J-0.3086
G1 X71.389
G3 X71.3921 Y7.7405 I-0.0024 J0.0049
G1 X71.4221 Y8.5578
G3 X71.3739 Y8.6096 I-0.05 J0.0018
G1 X71.3734 Y8.5947
X71.3732 Y8.5891 Z-0.2172
X71.373 Y8.5836 Z-0.2162
X71.3728 Y8.5782 Z-0.2147
X71.3726 Y8.573 Z-0.2125
X71.3724 Y8.5681 Z-0.2098
X71.3722 Y8.5636 Z-0.2066
X71.3721 Y8.5594 Z-0.2029
X71.372 Y8.5557 Z-0.1987
X71.3718 Y8.5524 Z-0.1941
X71.3717 Y8.5497 Z-0.1892
Y8.5476 Z-0.184
X71.3716 Y8.546 Z-0.1786
Y8.5451 Z-0.1731
Y8.5448 Z-0.1675
G0 Z0.4
X72.1469 Y8.3933
Z0.2
G1 Z0.1 F13.333
Z-0.1675
X72.1467 Y8.393 Z-0.1731 F40.
X72.146 Y8.3923 Z-0.1786
X72.145 Y8.3912 Z-0.184
X72.1436 Y8.3896 Z-0.1892
X72.1417 Y8.3876 Z-0.1941
X72.1396 Y8.3852 Z-0.1987
X72.137 Y8.3824 Z-0.2029
X72.1342 Y8.3793 Z-0.2066
X72.1312 Y8.376 Z-0.2098
X72.1279 Y8.3723 Z-0.2125
X72.1244 Y8.3685 Z-0.2147
X72.1207 Y8.3645 Z-0.2162
X72.117 Y8.3604 Z-0.2172
X72.1133 Y8.3563 Z-0.2175
X72.1032 Y8.3452
G3 X72.1739 Y8.3486 I0.0336 J0.037
G1 X72.3193 Y8.5086
X72.3194 Y8.5087
G3 X72.3193 Y8.5161 I-0.004 J0.0037
G1 X71.7875 Y9.0817
G3 X71.778 Y9.0782 I-0.004 J-0.0038
G1 X71.7339 Y7.8789
G3 X71.7433 Y7.875 I0.0054 J-0.0002
G1 X72.1739 Y8.3486
G3 X72.1705 Y8.4192 I-0.037 J0.0336
G1 X72.1605 Y8.4082
X72.1567 Y8.4041 Z-0.2172
X72.153 Y8.4 Z-0.2162
X72.1494 Y8.396 Z-0.2147
X72.1459 Y8.3922 Z-0.2125
X72.1426 Y8.3885 Z-0.2098
X72.1395 Y8.3851 Z-0.2066
X72.1367 Y8.3821 Z-0.2029
X72.1342 Y8.3793 Z-0.1987
X72.132 Y8.3769 Z-0.1941
X72.1302 Y8.3749 Z-0.1892
X72.1287 Y8.3733 Z-0.184
X72.1277 Y8.3721 Z-0.1786
X72.1271 Y8.3714 Z-0.1731
X72.1268 Y8.3712 Z-0.1675
G0 Z0.4
X72.6892 Y7.8112
Z0.2
G1 Z0.1 F13.333
Z-0.1675
X72.6891 Y7.8109 Z-0.1731 F40.
X72.6888 Y7.81 Z-0.1786
X72.6883 Y7.8085 Z-0.184
X72.6876 Y7.8065 Z-0.1892
X72.6866 Y7.804 Z-0.1941
X72.6855 Y7.8009 Z-0.1987
X72.6843 Y7.7974 Z-0.2029
X72.6828 Y7.7935 Z-0.2066
X72.6813 Y7.7892 Z-0.2098
X72.6796 Y7.7845 Z-0.2125
X72.6779 Y7.7797 Z-0.2147
X72.676 Y7.7746 Z-0.2162
X72.6742 Y7.7694 Z-0.2172
X72.6723 Y7.7641 Z-0.2175
X72.6672 Y7.7501
G3 X72.7312 Y7.7802 I0.017 J0.047
G2 X72.828 Y7.9684 I0.7749 J-0.2796
G1 X72.8281 Y7.9686
G3 X72.8276 Y7.9754 I-0.0045 J0.0031
G1 X72.5583 Y8.2621
G3 X72.5501 I-0.0041 J-0.0038
G1 X72.55
X71.9543 Y7.6066
Y7.6065
G3 X71.9586 Y7.5974 I0.004 J-0.0037
G1 X71.9588 Y7.5975
X72.6879 Y7.6309
X72.6882
G3 X72.6935 Y7.6356 I-0.0002 J0.0056
G2 X72.7312 Y7.7802 I0.8127 J-0.1349
G3 X72.7011 Y7.8442 I-0.047 J0.017
G1 X72.6961 Y7.8302
X72.6942 Y7.8249 Z-0.2172
X72.6923 Y7.8197 Z-0.2162
X72.6905 Y7.8146 Z-0.2147
X72.6887 Y7.8098 Z-0.2125
X72.6871 Y7.8051 Z-0.2098
X72.6855 Y7.8008 Z-0.2066
X72.6841 Y7.7969 Z-0.2029
X72.6828 Y7.7934 Z-0.1987
X72.6817 Y7.7903 Z-0.1941
X72.6808 Y7.7878 Z-0.1892
X72.6801 Y7.7858 Z-0.184
X72.6795 Y7.7843 Z-0.1786
X72.6792 Y7.7834 Z-0.1731
X72.6791 Y7.7831 Z-0.1675
G0 Z0.4
X73.9425 Y7.5287
Z0.2
G1 Z0.1 F13.333
Z-0.1675
Y7.5284 Z-0.1731 F40.
X73.9426 Y7.5274 Z-0.1786
Y7.5259 Z-0.184
X73.9427 Y7.5237 Z-0.1892
X73.9428 Y7.521 Z-0.1941
X73.9429 Y7.5178 Z-0.1987
X73.943 Y7.5141 Z-0.2029
X73.9431 Y7.5099 Z-0.2066
X73.9433 Y7.5053 Z-0.2098
X73.9434 Y7.5004 Z-0.2125
X73.9436 Y7.4952 Z-0.2147
X73.9438 Y7.4898 Z-0.2162
X73.9439 Y7.4843 Z-0.2172
X73.9441 Y7.4787 Z-0.2175
X73.9446 Y7.4638
G3 X73.993 Y7.5154 I-0.0016 J0.05
X73.0188 Y7.4846 I-0.4871 J-0.0154
X73.993 Y7.5154 I0.4871 J0.0154
X73.9414 Y7.5638 I-0.05 J-0.0016
G1 X73.9419 Y7.5489
X73.9421 Y7.5433 Z-0.2172
X73.9422 Y7.5378 Z-0.2162
X73.9424 Y7.5324 Z-0.2147
X73.9426 Y7.5272 Z-0.2125
X73.9427 Y7.5223 Z-0.2098
X73.9429 Y7.5177 Z-0.2066
X73.943 Y7.5135 Z-0.2029
X73.9431 Y7.5098 Z-0.1987
X73.9432 Y7.5066 Z-0.1941
X73.9433 Y7.5039 Z-0.1892
X73.9434 Y7.5017 Z-0.184
Y7.5002 Z-0.1786
X73.9435 Y7.4992 Z-0.1731
Y7.4989 Z-0.1675
G0 Z0.4
X74.2042 Y8.4776
Z0.2
G1 Z0.1 F13.333
Z-0.1675
X74.2043 Y8.4773 Z-0.1731 F40.
X74.2046 Y8.4764 Z-0.1786
X74.2051 Y8.4749 Z-0.184
X74.2057 Y8.4729 Z-0.1892
X74.2065 Y8.4703 Z-0.1941
X74.2075 Y8.4672 Z-0.1987
X74.2086 Y8.4636 Z-0.2029
X74.2099 Y8.4596 Z-0.2066
X74.2113 Y8.4553 Z-0.2098
X74.2127 Y8.4506 Z-0.2125
X74.2143 Y8.4457 Z-0.2147
X74.2159 Y8.4405 Z-0.2162
X74.2176 Y8.4353 Z-0.2172
X74.2193 Y8.4299 Z-0.2175
X74.2238 Y8.4157
G3 X74.2564 Y8.4784 I-0.0151 J0.0477
G2 X74.2326 Y9.1294 I1.1676 J0.3686
G3 X74.2289 Y9.1359 I-0.0054 J0.0012
G1 X74.2287 Y9.136
X74.2134 Y9.1409
G3 X74.207 Y9.1384 I-0.0016 J-0.0052
G2 X73.6709 Y8.7456 I-0.7136 J0.4117
G3 X73.6666 Y8.7402 I0.0012 J-0.0053
G1 Y8.7401
X73.669 Y8.312
G3 X73.6735 Y8.3065 I0.0057 J0.0001
G2 X74.3296 Y7.5084 I-0.1676 J-0.8065
G1 Y7.5083
G3 X74.3339 Y7.503 I0.0055 J0.
G1 X74.5959 Y7.4497
G3 X74.6018 Y7.4578 I0.0011 J0.0055
G2 X74.5699 Y7.5313 I0.3944 J0.2153
G1 X74.5698 Y7.5314
X74.2616 Y8.4624
G2 X74.2564 Y8.4784 I1.1625 J0.3846
G3 X74.1937 Y8.5111 I-0.0477 J-0.0151
G1 X74.1981 Y8.4969
X74.1998 Y8.4915 Z-0.2172
X74.2015 Y8.4862 Z-0.2162
X74.2031 Y8.4811 Z-0.2147
X74.2047 Y8.4762 Z-0.2125
X74.2062 Y8.4715 Z-0.2098
X74.2075 Y8.4671 Z-0.2066
X74.2088 Y8.4631 Z-0.2029
X74.2099 Y8.4596 Z-0.1987
X74.2109 Y8.4565 Z-0.1941
X74.2117 Y8.4539 Z-0.1892
X74.2124 Y8.4519 Z-0.184
X74.2128 Y8.4504 Z-0.1786
X74.2131 Y8.4495 Z-0.1731
X74.2132 Y8.4492 Z-0.1675
G0 Z0.4
X73.5086 Y9.113
Z0.2
G1 Z0.1 F13.333
Z-0.1675
X73.5082 Z-0.1731 F40.
X73.5073 Z-0.1786
X73.5058 Z-0.184
X73.5036 Z-0.1892
X73.5009 Z-0.1941
X73.4976 Z-0.1987
X73.4939 Z-0.2029
X73.4897 Z-0.2066
X73.4852 Z-0.2098
X73.4803 Z-0.2125
X73.4751 Z-0.2147
X73.4697 Z-0.2162
X73.4642 Z-0.2172
X73.4586 Z-0.2175
X73.4437
G3 X73.4937 Y9.063 I0.05 J0.
X73.9806 Y9.55 I-0.0002 J0.4871
X73.0064 I-0.4871 J-0.0002
X73.4937 Y9.063 I0.4871 J0.0002
X73.5437 Y9.1131 I0. J0.05
G1 X73.5288
X73.5232 Z-0.2172
X73.5176 Z-0.2162
X73.5122 Y9.113 Z-0.2147
X73.5071 Z-0.2125
X73.5022 Z-0.2098
X73.4976 Z-0.2066
X73.4934 Z-0.2029
X73.4897 Z-0.1987
X73.4864 Z-0.1941
X73.4837 Z-0.1892
X73.4816 Z-0.184
X73.48 Z-0.1786
X73.4791 Z-0.1731
X73.4788 Z-0.1675
G0 Z0.4
X73.2813 Y8.5348
Z0.2
G1 Z0.1 F13.333
Z-0.1675
Y8.5344 Z-0.1731 F40.
X73.2814 Y8.5335 Z-0.1786
Y8.5319 Z-0.184
Y8.5298 Z-0.1892
Y8.5271 Z-0.1941
Y8.5238 Z-0.1987
Y8.5201 Z-0.2029
Y8.5159 Z-0.2066
X73.2815 Y8.5114 Z-0.2098
Y8.5064 Z-0.2125
Y8.5013 Z-0.2147
X73.2816 Y8.4959 Z-0.2162
Y8.4904 Z-0.2172
Y8.4848 Z-0.2175
X73.2817 Y8.4699
G3 X73.3314 Y8.5201 I-0.0003 J0.05
G1 X73.3302 Y8.738
G3 X73.3257 Y8.7435 I-0.0057 J-0.0001
G2 X73.0795 Y8.8378 I0.1678 J0.8064
G1 X73.0794 Y8.8379
G3 X73.0725 Y8.8368 I-0.0028 J-0.0048
G1 X72.7847 Y8.52
X72.7846 Y8.5199
G3 Y8.5125 I0.004 J-0.0037
G1 X73.0728 Y8.206
G3 X73.0796 Y8.205 I0.004 J0.0038
G2 X73.3283 Y8.3044 I0.4259 J-0.7052
G3 X73.3326 Y8.3097 I-0.0012 J0.0053
G1 Y8.3099
X73.3314 Y8.5201
G3 X73.2812 Y8.5699 I-0.05 J-0.0003
G1 Y8.555
X73.2813 Y8.5494 Z-0.2172
Y8.5438 Z-0.2162
Y8.5384 Z-0.2147
X73.2814 Y8.5333 Z-0.2125
Y8.5284 Z-0.2098
Y8.5238 Z-0.2066
Y8.5196 Z-0.2029
X73.2815 Y8.5159 Z-0.1987
Y8.5126 Z-0.1941
Y8.5099 Z-0.1892
Y8.5078 Z-0.184
Y8.5062 Z-0.1786
Y8.5053 Z-0.1731
Y8.505 Z-0.1675
G0 Z0.4
X72.6552 Y9.3032
Z0.2
G1 Z0.1 F13.333
Z-0.1675
X72.6553 Y9.3029 Z-0.1731 F40.
X72.6556 Y9.302 Z-0.1786
X72.656 Y9.3005 Z-0.184
X72.6567 Y9.2985 Z-0.1892
X72.6575 Y9.2959 Z-0.1941
X72.6585 Y9.2928 Z-0.1987
X72.6596 Y9.2892 Z-0.2029
X72.6608 Y9.2852 Z-0.2066
X72.6622 Y9.2809 Z-0.2098
X72.6637 Y9.2762 Z-0.2125
X72.6652 Y9.2713 Z-0.2147
X72.6668 Y9.2661 Z-0.2162
X72.6685 Y9.2608 Z-0.2172
X72.6701 Y9.2555 Z-0.2175
X72.6746 Y9.2413
G3 X72.7074 Y9.3039 I-0.0149 J0.0477
G2 X72.6748 Y9.4589 I0.7859 J0.2462
G3 X72.6698 Y9.4637 I-0.0055 J-0.0006
G1 X72.6697
X71.9926 Y9.5319
G3 X71.9865 Y9.526 I-0.0005 J-0.0055
G2 X71.9687 Y9.3845 I-0.3614 J-0.0263
G1 X71.9686 Y9.3842
G3 X71.9697 Y9.3789 I0.0051 J-0.0017
G1 X72.546 Y8.7665
G3 X72.554 I0.004 J0.0037
G1 X72.8236 Y9.0631
G3 X72.824 Y9.0702 I-0.0043 J0.0038
G2 X72.7074 Y9.3039 I0.6693 J0.4799
G3 X72.6447 Y9.3367 I-0.0477 J-0.0149
G1 X72.6492 Y9.3225
X72.6508 Y9.3171 Z-0.2172
X72.6525 Y9.3119 Z-0.2162
X72.6541 Y9.3067 Z-0.2147
X72.6556 Y9.3018 Z-0.2125
X72.6571 Y9.2971 Z-0.2098
X72.6585 Y9.2927 Z-0.2066
X72.6597 Y9.2887 Z-0.2029
X72.6608 Y9.2852 Z-0.1987
X72.6618 Y9.2821 Z-0.1941
X72.6626 Y9.2795 Z-0.1892
X72.6633 Y9.2774 Z-0.184
X72.6637 Y9.276 Z-0.1786
X72.664 Y9.2751 Z-0.1731
X72.6641 Y9.2748 Z-0.1675
G0 Z0.4
X72.4118 Y10.4958
Z0.2
G1 Z0.1 F13.333
Z-0.1675
X72.412 Y10.4956 Z-0.1731 F40.
X72.4126 Y10.4949 Z-0.1786
X72.4136 Y10.4937 Z-0.184
X72.415 Y10.4921 Z-0.1892
X72.4167 Y10.49 Z-0.1941
X72.4188 Y10.4875 Z-0.1987
X72.4212 Y10.4846 Z-0.2029
X72.4239 Y10.4814 Z-0.2066
X72.4269 Y10.4779 Z-0.2098
X72.43 Y10.4742 Z-0.2125
X72.4334 Y10.4702 Z-0.2147
X72.4368 Y10.4661 Z-0.2162
X72.4404 Y10.4619 Z-0.2172
X72.444 Y10.4576 Z-0.2175
X72.4536 Y10.4462
G3 X72.4597 Y10.5167 I-0.0322 J0.0382
G1 X71.6549 Y11.4724
G3 X71.6451 Y11.4684 I-0.0042 J-0.0036
G1 X71.7801 Y9.8961
G3 X71.7852 Y9.891 I0.0056 J0.0005
G1 X71.7854
X72.7035 Y9.7986
G3 X72.7094 Y9.8024 I0.0006 J0.0056
G2 X72.8427 Y10.0549 I0.7839 J-0.2524
G3 X72.8425 Y10.0619 I-0.0045 J0.0035
G1 X72.4597 Y10.5167
G3 X72.3892 Y10.5227 I-0.0383 J-0.0322
G1 X72.3988 Y10.5113
X72.4024 Y10.507 Z-0.2172
X72.406 Y10.5028 Z-0.2162
X72.4094 Y10.4987 Z-0.2147
X72.4128 Y10.4947 Z-0.2125
X72.4159 Y10.491 Z-0.2098
X72.4189 Y10.4875 Z-0.2066
X72.4216 Y10.4843 Z-0.2029
X72.424 Y10.4814 Z-0.1987
X72.4261 Y10.4789 Z-0.1941
X72.4278 Y10.4768 Z-0.1892
X72.4292 Y10.4752 Z-0.184
X72.4302 Y10.474 Z-0.1786
X72.4308 Y10.4733 Z-0.1731
X72.431 Y10.4731 Z-0.1675
G0 Z0.4
X73.0027 Y12.0454
Z0.2
G1 Z0.1 F13.333
Z-0.1675
Y12.0451 Z-0.1731 F40.
X73.0028 Y12.0441 Z-0.1786
X73.003 Y12.0426 Z-0.184
X73.0032 Y12.0405 Z-0.1892
X73.0035 Y12.0378 Z-0.1941
X73.0038 Y12.0345 Z-0.1987
X73.0042 Y12.0308 Z-0.2029
X73.0047 Y12.0267 Z-0.2066
X73.0052 Y12.0221 Z-0.2098
X73.0057 Y12.0172 Z-0.2125
X73.0063 Y12.0121 Z-0.2147
X73.0069 Y12.0067 Z-0.2162
X73.0075 Y12.0012 Z-0.2172
X73.0081 Y11.9957 Z-0.2175
X73.0097 Y11.9809
G3 X73.054 Y12.036 I-0.0054 J0.0497
G1 X73.0248 Y12.3048
G3 X73.0213 Y12.3093 I-0.0055 J-0.0006
G2 X72.7973 Y12.6022 I0.1359 J0.336
G3 X72.7938 Y12.6067 I-0.0055 J-0.0007
G1 X72.5804 Y12.69
G3 X72.5743 Y12.6887 I-0.002 J-0.0051
G2 X72.1178 Y12.5689 I-0.3256 J0.3113
G3 X72.112 Y12.5672 I-0.0016 J-0.0052
G1 X71.7663 Y12.1445
X71.7662 Y12.1444
G3 X71.7653 Y12.1388 I0.0043 J-0.0035
G2 X71.7672 Y11.8658 I-0.3346 J-0.1388
G3 X71.7681 Y11.8601 I0.0052 J-0.0021
G1 X73.0999 Y10.2786
G3 X73.1067 Y10.2772 I0.0042 J0.0035
G1 Y10.2773
G2 X73.2348 Y10.3321 I0.3868 J-0.7272
G3 X73.2385 Y10.3379 I-0.0017 J0.0052
G1 X73.054 Y12.036
G3 X72.9989 Y12.0803 I-0.0497 J-0.0054
G1 X73.0005 Y12.0655
X73.0011 Y12.0599 Z-0.2172
X73.0017 Y12.0544 Z-0.2162
X73.0023 Y12.049 Z-0.2147
X73.0028 Y12.0439 Z-0.2125
X73.0033 Y12.039 Z-0.2098
X73.0038 Y12.0345 Z-0.2066
X73.0043 Y12.0303 Z-0.2029
X73.0047 Y12.0266 Z-0.1987
X73.005 Y12.0234 Z-0.1941
X73.0053 Y12.0207 Z-0.1892
X73.0056 Y12.0185 Z-0.184
X73.0057 Y12.017 Z-0.1786
X73.0058 Y12.0161 Z-0.1731
X73.0059 Y12.0158 Z-0.1675
G0 Z0.4
X74.0267 Y12.0717
Z0.2
G1 Z0.1 F13.333
Z-0.1675
X74.027 Y12.0716 Z-0.1731 F40.
X74.0279 Y12.0713 Z-0.1786
X74.0293 Y12.0707 Z-0.184
X74.0313 Y12.0699 Z-0.1892
X74.0339 Y12.0689 Z-0.1941
X74.0369 Y12.0678 Z-0.1987
X74.0404 Y12.0664 Z-0.2029
X74.0443 Y12.0649 Z-0.2066
X74.0485 Y12.0632 Z-0.2098
X74.0531 Y12.0614 Z-0.2125
X74.0579 Y12.0595 Z-0.2147
X74.0629 Y12.0576 Z-0.2162
X74.0681 Y12.0556 Z-0.2172
X74.0733 Y12.0535 Z-0.2175
X74.0872 Y12.0481
G3 X74.0588 Y12.1129 I-0.0466 J0.0182
G1 X73.3981 Y12.3708
G3 X73.3925 Y12.3698 I-0.002 J-0.0051
G2 X73.3618 Y12.3463 I-0.2355 J0.2756
G3 X73.3595 Y12.3412 I0.0031 J-0.0045
G1 Y12.3411
X73.4768 Y11.26
G3 X73.4819 Y11.2551 I0.0055 J0.0006
G1 X73.4821
X74.3758 Y11.191
X74.376
G3 X74.3811 Y11.1936 I0.0004 J0.0055
G2 X74.9148 Y11.2822 I0.3064 J-0.1936
G1 X74.9149
G3 X74.9236 Y11.2847 I0.0034 J0.0043
G1 Y11.2848
X75.0673 Y11.7295
G3 X75.0583 Y11.7352 I-0.0053 J0.0016
G2 X74.4504 Y11.9568 I-0.2478 J0.2648
G1 Y11.957
G3 X74.4471 Y11.9613 I-0.0053 J-0.0006
G1 X74.0588 Y12.1129
G3 X73.994 Y12.0845 I-0.0182 J-0.0466
G1 X74.0079 Y12.0791
X74.0131 Y12.077 Z-0.2172
X74.0183 Y12.075 Z-0.2162
X74.0233 Y12.0731 Z-0.2147
X74.0281 Y12.0712 Z-0.2125
X74.0327 Y12.0694 Z-0.2098
X74.037 Y12.0677 Z-0.2066
X74.0408 Y12.0662 Z-0.2029
X74.0443 Y12.0649 Z-0.1987
X74.0473 Y12.0637 Z-0.1941
X74.0499 Y12.0627 Z-0.1892
X74.0519 Y12.0619 Z-0.184
X74.0533 Y12.0613 Z-0.1786
X74.0542 Y12.061 Z-0.1731
X74.0545 Y12.0609 Z-0.1675
G0 Z0.4
X73.8729 Y12.8223
Z0.2
G1 Z0.1 F13.333
Z-0.1675
X73.8731 Y12.822 Z-0.1731 F40.
X73.8737 Y12.8213 Z-0.1786
X73.8747 Y12.8201 Z-0.184
X73.876 Y12.8184 Z-0.1892
X73.8777 Y12.8163 Z-0.1941
X73.8797 Y12.8137 Z-0.1987
X73.8821 Y12.8108 Z-0.2029
X73.8847 Y12.8076 Z-0.2066
X73.8875 Y12.804 Z-0.2098
X73.8906 Y12.8002 Z-0.2125
X73.8938 Y12.7961 Z-0.2147
X73.8972 Y12.7919 Z-0.2162
X73.9007 Y12.7876 Z-0.2172
X73.9042 Y12.7832 Z-0.2175
X73.9135 Y12.7716
G3 X73.9213 Y12.8419 I-0.0312 J0.039
G1 X73.8068 Y12.9849
X73.8067
G3 X73.7983 Y12.9854 I-0.0044 J-0.0035
G1 Y12.9853
G3 X73.5683 Y12.6722 I1.0126 J-0.9849
X73.5712 Y12.6644 I0.0049 J-0.0026
G1 X74.2676 Y12.3925
X74.2677
G3 X74.2741 Y12.4011 I0.002 J0.0052
G1 X73.9213 Y12.8419
G3 X73.851 Y12.8497 I-0.039 J-0.0312
G1 X73.8603 Y12.838
X73.8638 Y12.8337 Z-0.2172
X73.8672 Y12.8293 Z-0.2162
X73.8706 Y12.8251 Z-0.2147
X73.8739 Y12.8211 Z-0.2125
X73.8769 Y12.8173 Z-0.2098
X73.8798 Y12.8137 Z-0.2066
X73.8824 Y12.8104 Z-0.2029
X73.8847 Y12.8075 Z-0.1987
X73.8868 Y12.805 Z-0.1941
X73.8884 Y12.8029 Z-0.1892
X73.8898 Y12.8012 Z-0.184
X73.8908 Y12.8 Z-0.1786
X73.8913 Y12.7992 Z-0.1731
X73.8915 Y12.799 Z-0.1675
G0 Z0.4
X74.4577 Y13.3883
Z0.2
G1 Z0.1 F13.333
Z-0.1675
X74.4578 Y13.388 Z-0.1731 F40.
X74.4582 Y13.3871 Z-0.1786
X74.4589 Y13.3857 Z-0.184
X74.4598 Y13.3838 Z-0.1892
X74.461 Y13.3814 Z-0.1941
X74.4624 Y13.3784 Z-0.1987
X74.464 Y13.375 Z-0.2029
X74.4658 Y13.3713 Z-0.2066
X74.4677 Y13.3671 Z-0.2098
X74.4698 Y13.3627 Z-0.2125
X74.4721 Y13.358 Z-0.2147
X74.4744 Y13.3532 Z-0.2162
X74.4768 Y13.3482 Z-0.2172
X74.4792 Y13.3431 Z-0.2175
X74.4856 Y13.3297
G3 X74.5092 Y13.3963 I-0.0215 J0.0452
G1 X74.05 Y14.3623
G3 X74.0423 Y14.3646 I-0.0049 J-0.0023
G2 X73.9819 Y14.3337 I-0.1947 J0.3059
G1 X73.9818 Y14.3336
G3 X73.9783 Y14.3291 I0.002 J-0.0051
G1 X73.9051 Y13.6891
G3 X73.9075 Y13.684 I0.0054 J-0.0006
G2 X73.9078 Y13.6838 I-0.0421 J-0.0614
X74.0346 Y13.2432 I-0.2066 J-0.298
G3 X74.0354 Y13.2375 I0.0051 J-0.0022
G1 X74.7393 Y12.3584
G3 X74.7444 Y12.3565 I0.0042 J0.0034
G2 X75.0213 Y12.2949 I0.066 J-0.3564
G3 X75.0295 Y12.3018 I0.0032 J0.0045
G1 X74.5092 Y13.3963
G3 X74.4426 Y13.42 I-0.0452 J-0.0215
G1 X74.449 Y13.4065
X74.4514 Y13.4015 Z-0.2172
X74.4538 Y13.3965 Z-0.2162
X74.4561 Y13.3916 Z-0.2147
X74.4583 Y13.3869 Z-0.2125
X74.4604 Y13.3825 Z-0.2098
X74.4624 Y13.3784 Z-0.2066
X74.4642 Y13.3746 Z-0.2029
X74.4658 Y13.3712 Z-0.1987
X74.4672 Y13.3683 Z-0.1941
X74.4684 Y13.3658 Z-0.1892
X74.4693 Y13.3639 Z-0.184
X74.47 Y13.3625 Z-0.1786
X74.4704 Y13.3616 Z-0.1731
X74.4705 Y13.3614 Z-0.1675
G0 Z0.4
X73.5921 Y14.3525
Z0.2
G1 Z0.1 F13.333
Z-0.1675
X73.592 Y14.3522 Z-0.1731 F40.
X73.5919 Y14.3512 Z-0.1786
X73.5918 Y14.3497 Z-0.184
X73.5915 Y14.3476 Z-0.1892
X73.5912 Y14.3449 Z-0.1941
X73.5908 Y14.3416 Z-0.1987
X73.5904 Y14.3379 Z-0.2029
X73.5899 Y14.3338 Z-0.2066
X73.5894 Y14.3292 Z-0.2098
X73.5889 Y14.3244 Z-0.2125
X73.5883 Y14.3192 Z-0.2147
X73.5877 Y14.3139 Z-0.2162
X73.587 Y14.3084 Z-0.2172
X73.5864 Y14.3028 Z-0.2175
X73.5847 Y14.288
G3 X73.6401 Y14.332 I0.0057 J0.0497
G1 X73.6441 Y14.3671
G3 X73.6417 Y14.3722 I-0.0054 J0.0006
G1 X73.6415 Y14.3724
G2 X73.4918 Y14.6021 I0.2063 J0.298
G3 X73.4859 Y14.6065 I-0.0053 J-0.001
G1 X73.4857
G2 X73.4757 Y14.6055 I-0.0396 J0.3604
G3 X73.4712 Y14.6022 I0.0006 J-0.0056
G1 X73.4133 Y14.4676
G3 X73.4144 Y14.4615 I0.0052 J-0.0022
G2 X73.4865 Y13.929 I-0.3223 J-0.3147
G1 X73.4864 Y13.9288
G3 X73.4869 Y13.923 I0.0046 J-0.0026
G1 X73.487 Y13.9228
X73.5716 Y13.8168
G3 X73.5815 Y13.8197 I0.0044 J0.0035
G1 X73.6401 Y14.332
G3 X73.5961 Y14.3874 I-0.0497 J0.0057
G1 X73.5944 Y14.3726
X73.5937 Y14.367 Z-0.2172
X73.5931 Y14.3615 Z-0.2162
X73.5925 Y14.3561 Z-0.2147
X73.5919 Y14.351 Z-0.2125
X73.5913 Y14.3461 Z-0.2098
X73.5908 Y14.3416 Z-0.2066
X73.5904 Y14.3374 Z-0.2029
X73.5899 Y14.3337 Z-0.1987
X73.5896 Y14.3305 Z-0.1941
X73.5893 Y14.3278 Z-0.1892
X73.589 Y14.3257 Z-0.184
X73.5888 Y14.3241 Z-0.1786
X73.5887 Y14.3232 Z-0.1731
Y14.3229 Z-0.1675
G0 Z0.4
X73.1562 Y14.1619
Z0.2
G1 Z0.1 F13.333
Z-0.1675
G19 G2 Y14.1119 Z-0.2175 J-0.05 K0. F40.
G1 Y14.097
G17 G3 X73.2062 Y14.147 I0. J0.05
X73.0207 Y14.236 I-0.1141 J0.
G1 X73.0206 Y14.2359
G3 X72.1426 Y13.0415 I1.7902 J-2.2357
X72.2074 Y12.8938 I0.1062 J-0.0415
X72.355 Y12.9585 I0.0415 J0.1062
G2 X73.1633 Y14.0579 I2.4556 J-0.9586
G3 X73.2062 Y14.147 I-0.0712 J0.0891
X73.1562 Y14.197 I-0.05 J0.
G1 Y14.1821
G19 G2 Y14.1321 Z-0.1675 J0. K0.05
G0 Z0.4
X72.882 Y13.0325
Z0.2
G1 Z0.1 F13.333
Z-0.1675
X72.8818 Y13.0322 Z-0.1731 F40.
X72.8814 Y13.0314 Z-0.1786
X72.8806 Y13.03 Z-0.184
X72.8796 Y13.0281 Z-0.1892
X72.8784 Y13.0257 Z-0.1941
X72.8769 Y13.0228 Z-0.1987
X72.8751 Y13.0195 Z-0.2029
X72.8732 Y13.0158 Z-0.2066
X72.8711 Y13.0118 Z-0.2098
X72.8688 Y13.0075 Z-0.2125
X72.8664 Y13.0029 Z-0.2147
X72.8638 Y12.9981 Z-0.2162
X72.8613 Y12.9932 Z-0.2172
X72.8587 Y12.9883 Z-0.2175
X72.8517 Y12.9751
G17 G3 X72.9193 Y12.996 I0.0233 J0.0442
G2 X73.3438 Y13.5549 I1.8915 J-0.9959
G1 Y13.555
G3 X73.3443 Y13.5622 I-0.0037 J0.0039
G1 X73.3442 Y13.5624
X73.2497 Y13.6806
G3 X73.2417 Y13.6812 I-0.0043 J-0.0034
X72.738 Y12.996 I1.5689 J-1.6812
X72.7409 Y12.9885 I0.0049 J-0.0024
G1 X72.8818 Y12.9334
X72.8819
G3 X72.8889 Y12.9361 I0.002 J0.0052
G2 X72.9193 Y12.996 I1.9218 J-0.936
G3 X72.8983 Y13.0636 I-0.0442 J0.0233
G1 X72.8914 Y13.0504
X72.8888 Y13.0454 Z-0.2172
X72.8862 Y13.0405 Z-0.2162
X72.8837 Y13.0358 Z-0.2147
X72.8813 Y13.0312 Z-0.2125
X72.879 Y13.0268 Z-0.2098
X72.8768 Y13.0228 Z-0.2066
X72.8749 Y13.0191 Z-0.2029
X72.8732 Y13.0158 Z-0.1987
X72.8716 Y13.0129 Z-0.1941
X72.8704 Y13.0105 Z-0.1892
X72.8694 Y13.0086 Z-0.184
X72.8687 Y13.0072 Z-0.1786
X72.8682 Y13.0064 Z-0.1731
X72.8681 Y13.0061 Z-0.1675
G0 Z0.4
X71.6078 Y12.5614
Z0.2
G1 Z0.1 F13.333
Z-0.1675
X71.6076 Y12.5612 Z-0.1731 F40.
X71.607 Y12.5605 Z-0.1786
X71.6061 Y12.5593 Z-0.184
X71.6047 Y12.5576 Z-0.1892
X71.603 Y12.5555 Z-0.1941
X71.6009 Y12.553 Z-0.1987
X71.5986 Y12.5501 Z-0.2029
X71.5959 Y12.5469 Z-0.2066
X71.593 Y12.5433 Z-0.2098
X71.5899 Y12.5395 Z-0.2125
X71.5866 Y12.5355 Z-0.2147
X71.5832 Y12.5313 Z-0.2162
X71.5797 Y12.5271 Z-0.2172
X71.5762 Y12.5227 Z-0.2175
X71.5667 Y12.5112
G3 X71.6371 Y12.5182 I0.0317 J0.0387
G1 X71.8514 Y12.7802
X71.8515 Y12.7804
G3 X71.8521 Y12.7864 I-0.0042 J0.0035
G2 X71.829 Y13.1638 I0.3967 J0.2137
G1 Y13.1639
G2 X71.9672 Y13.469 I2.9805 J-1.1662
G3 X71.9612 Y13.4769 I-0.005 J0.0025
G1 X71.5142 Y13.3913
G3 X71.5101 Y13.3877 I0.0011 J-0.0054
G2 X70.9744 Y13.2332 I-0.3226 J0.1123
G3 X70.9689 Y13.234 I-0.0034 J-0.0043
G1 X70.9688
X70.3484 Y12.9915
X70.3483
G3 X70.3452 Y12.9883 I0.002 J-0.0052
G2 X70.3447 Y12.9839 I-0.0743 J0.0052
G3 X70.3469 Y12.9788 I0.0053 J-0.0007
G1 X71.2641 Y12.3253
G3 X71.2697 Y12.3248 I0.0032 J0.0045
G2 X71.5005 Y12.3557 I0.1609 J-0.3248
G3 X71.5057 Y12.3576 I0.001 J0.0054
G1 X71.6371 Y12.5182
G3 X71.6301 Y12.5886 I-0.0387 J0.0317
G1 X71.6206 Y12.5771
X71.6171 Y12.5727 Z-0.2172
X71.6136 Y12.5685 Z-0.2162
X71.6102 Y12.5643 Z-0.2147
X71.6069 Y12.5603 Z-0.2125
X71.6038 Y12.5565 Z-0.2098
X71.6009 Y12.5529 Z-0.2066
X71.5982 Y12.5497 Z-0.2029
X71.5959 Y12.5468 Z-0.1987
X71.5938 Y12.5443 Z-0.1941
X71.5921 Y12.5422 Z-0.1892
X71.5907 Y12.5405 Z-0.184
X71.5898 Y12.5393 Z-0.1786
X71.5892 Y12.5386 Z-0.1731
X71.589 Y12.5384 Z-0.1675
G0 Z0.4
X70.5588 Y11.3542
Z0.2
G1 Z0.1 F13.333
Z-0.1675
X70.5585 Y11.354 Z-0.1731 F40.
X70.5579 Y11.3533 Z-0.1786
X70.5569 Y11.3521 Z-0.184
X70.5555 Y11.3505 Z-0.1892
X70.5536 Y11.3485 Z-0.1941
X70.5515 Y11.3461 Z-0.1987
X70.549 Y11.3433 Z-0.2029
X70.5462 Y11.3402 Z-0.2066
X70.5431 Y11.3368 Z-0.2098
X70.5399 Y11.3332 Z-0.2125
X70.5364 Y11.3293 Z-0.2147
X70.5328 Y11.3253 Z-0.2162
X70.5291 Y11.3212 Z-0.2172
X70.5254 Y11.317 Z-0.2175
X70.5154 Y11.3059
G3 X70.5861 Y11.3098 I0.0334 J0.0372
G1 X71.0886 Y11.8707
X71.0887 Y11.8708
G3 X71.0898 Y11.8763 I-0.0041 J0.0036
G2 X71.0895 Y11.877 I0.07 J0.0254
X71.0853 Y11.8899 I0.3422 J0.1199
G3 X71.081 Y11.8935 I-0.0053 J-0.0019
G1 X71.0809 Y11.8936
X69.9736 Y12.0983
G3 X69.9684 Y12.0963 I-0.0009 J-0.0053
G2 X69.843 Y11.9964 I-0.2831 J0.2266
G1 X69.8429 Y11.9963
G3 X69.8398 Y11.9917 I0.0024 J-0.0049
G1 X69.789 Y10.7463
G3 X69.7931 Y10.7407 I0.0055 J-0.0003
G2 X69.9964 Y10.6582 I-0.2056 J-0.7977
G3 X70.0032 Y10.6592 I0.0027 J0.0047
G1 X70.5861 Y11.3098
G3 X70.5822 Y11.3804 I-0.0372 J0.0334
G1 X70.5722 Y11.3693
X70.5685 Y11.3651 Z-0.2172
X70.5648 Y11.361 Z-0.2162
X70.5612 Y11.357 Z-0.2147
X70.5578 Y11.3531 Z-0.2125
X70.5545 Y11.3495 Z-0.2098
X70.5514 Y11.3461 Z-0.2066
X70.5486 Y11.3429 Z-0.2029
X70.5462 Y11.3402 Z-0.1987
X70.544 Y11.3377 Z-0.1941
X70.5422 Y11.3357 Z-0.1892
X70.5407 Y11.3341 Z-0.184
X70.5397 Y11.333 Z-0.1786
X70.5391 Y11.3323 Z-0.1731
X70.5389 Y11.332 Z-0.1675
G0 Z0.4
X71.3397 Y10.5095
Z0.2
G1 Z0.1 F13.333
Z-0.1675
X71.3398 Y10.5092 Z-0.1731 F40.
X71.3399 Y10.5082 Z-0.1786
X71.34 Y10.5067 Z-0.184
X71.3402 Y10.5045 Z-0.1892
X71.3404 Y10.5018 Z-0.1941
X71.3407 Y10.4986 Z-0.1987
X71.341 Y10.4949 Z-0.2029
X71.3414 Y10.4907 Z-0.2066
X71.3417 Y10.4862 Z-0.2098
X71.3422 Y10.4813 Z-0.2125
X71.3426 Y10.4761 Z-0.2147
X71.3431 Y10.4707 Z-0.2162
X71.3435 Y10.4652 Z-0.2172
X71.344 Y10.4596 Z-0.2175
X71.3453 Y10.4448
G3 X71.3908 Y10.4989 I-0.0043 J0.0498
G1 X71.2974 Y11.5853
G3 X71.2878 Y11.5885 I-0.0055 J-0.0005
G1 X70.2539 Y10.4347
Y10.4346
G3 X70.2535 Y10.4278 I0.004 J-0.0036
G2 X70.4063 Y10.0342 I-0.666 J-0.485
G1 Y10.0341
G3 X70.4112 Y10.0293 I0.0055 J0.0006
G1 X71.4334 Y9.9264
G3 X71.4395 Y9.9324 I0.0005 J0.0056
G1 X71.3908 Y10.4989
G3 X71.3367 Y10.5444 I-0.0498 J-0.0043
G1 X71.338 Y10.5296
X71.3385 Y10.524 Z-0.2172
X71.339 Y10.5185 Z-0.2162
X71.3394 Y10.5131 Z-0.2147
X71.3399 Y10.508 Z-0.2125
X71.3403 Y10.5031 Z-0.2098
X71.3407 Y10.4985 Z-0.2066
X71.341 Y10.4944 Z-0.2029
X71.3414 Y10.4906 Z-0.1987
X71.3416 Y10.4874 Z-0.1941
X71.3419 Y10.4847 Z-0.1892
X71.3421 Y10.4826 Z-0.184
X71.3422 Y10.481 Z-0.1786
X71.3423 Y10.4801 Z-0.1731
Y10.4798 Z-0.1675
G0 Z0.4
X70.9832 Y9.0396
Z0.2
G1 Z0.1 F13.333
Z-0.1675
X70.983 Y9.0394 Z-0.1731 F40.
X70.9824 Y9.0386 Z-0.1786
X70.9815 Y9.0374 Z-0.184
X70.9801 Y9.0357 Z-0.1892
X70.9785 Y9.0336 Z-0.1941
X70.9764 Y9.031 Z-0.1987
X70.9741 Y9.0281 Z-0.2029
X70.9715 Y9.0248 Z-0.2066
X70.9687 Y9.0212 Z-0.2098
X70.9657 Y9.0174 Z-0.2125
X70.9624 Y9.0133 Z-0.2147
X70.9591 Y9.0091 Z-0.2162
X70.9557 Y9.0048 Z-0.2172
X70.9522 Y9.0004 Z-0.2175
X70.943 Y8.9887
G3 X71.0132 Y8.9969 I0.031 J0.0392
G1 X71.2919 Y9.3496
G3 X71.2927 Y9.3554 I-0.0045 J0.0035
G2 X71.2759 Y9.5975 I0.3325 J0.1447
G3 X71.2711 Y9.6046 I-0.0054 J0.0015
G1 X70.3776 Y9.6945
X70.3775
G3 X70.3717 Y9.6907 I-0.0006 J-0.0054
G2 X70.0826 Y9.2847 I-0.7842 J0.2526
G3 X70.0809 Y9.2781 I0.0033 J-0.0043
G1 X70.081 Y9.278
X70.2818 Y8.844
G3 X70.2881 Y8.8409 I0.0051 J0.0024
G1 X70.2883
G2 X70.8337 Y8.7766 I0.1817 J-0.8034
G3 X70.8403 Y8.7781 I0.0024 J0.0049
G1 X71.0132 Y8.9969
G3 X71.005 Y9.0671 I-0.0392 J0.031
G1 X70.9957 Y9.0554
X70.9923 Y9.0511 Z-0.2172
X70.9888 Y9.0467 Z-0.2162
X70.9855 Y9.0425 Z-0.2147
X70.9823 Y9.0384 Z-0.2125
X70.9792 Y9.0346 Z-0.2098
X70.9764 Y9.031 Z-0.2066
X70.9738 Y9.0277 Z-0.2029
X70.9715 Y9.0248 Z-0.1987
X70.9695 Y9.0222 Z-0.1941
X70.9678 Y9.0201 Z-0.1892
X70.9665 Y9.0184 Z-0.184
X70.9655 Y9.0172 Z-0.1786
X70.9649 Y9.0165 Z-0.1731
X70.9647 Y9.0162 Z-0.1675
G0 Z0.4
X70.9074 Y8.0524
Z0.2
G1 Z0.1 F13.333
Z-0.1675
G19 G2 Y8.0024 Z-0.2175 J-0.05 K0. F40.
G1 Y7.9875
G17 G3 X70.9574 Y8.0375 I0. J0.05
X69.9828 I-0.4873 J0.
X70.9574 I0.4873 J0.
X70.9074 Y8.0875 I-0.05 J0.
G1 Y8.0726
G19 G2 Y8.0226 Z-0.1675 J0. K0.05
G0 Z0.4
X70.8656 Y6.802
Z0.2
G1 Z0.1 F13.333
Z-0.1675
X70.8654 Y6.8017 Z-0.1731 F40.
X70.8649 Y6.8009 Z-0.1786
X70.8641 Y6.7996 Z-0.184
X70.8629 Y6.7978 Z-0.1892
X70.8614 Y6.7955 Z-0.1941
X70.8597 Y6.7928 Z-0.1987
X70.8577 Y6.7896 Z-0.2029
X70.8554 Y6.7861 Z-0.2066
X70.8529 Y6.7823 Z-0.2098
X70.8503 Y6.7781 Z-0.2125
X70.8475 Y6.7738 Z-0.2147
X70.8445 Y6.7693 Z-0.2162
X70.8416 Y6.7646 Z-0.2172
X70.8385 Y6.7599 Z-0.2175
X70.8305 Y6.7474
G17 G3 X70.8996 Y6.7624 I0.0271 J0.042
G2 X71.3345 Y7.0475 I0.5378 J-0.3461
G3 X71.3389 Y7.0522 I-0.0008 J0.0052
G2 X71.339 Y7.0527 I0.0741 J-0.0081
G1 X71.3453 Y7.1065
G3 X71.3429 Y7.1115 I-0.0055 J0.0005
G1 X71.3428 Y7.1116
G2 X71.1862 Y7.4229 I0.2057 J0.2985
G3 X71.1835 Y7.4279 I-0.0055 J0.0002
G1 X71.0863 Y7.4843
G3 X71.0795 Y7.4832 I-0.0027 J-0.0047
G2 X70.3078 Y7.2299 I-0.6094 J0.5543
G3 X70.3018 Y7.2267 I-0.001 J-0.0053
G1 Y7.2266
X70.1909 Y6.9715
G3 X70.1928 Y6.9648 I0.0052 J-0.0022
G1 X70.193 Y6.9646
G2 X70.505 Y6.5235 I-0.4793 J-0.67
G3 X70.5108 Y6.5195 I0.0054 J0.0016
G1 X70.5109
X70.8059 Y6.5403
G3 X70.8109 Y6.5447 I-0.0005 J0.0055
G2 X70.8996 Y6.7624 I0.6265 J-0.1284
G3 X70.8846 Y6.8315 I-0.042 J0.0271
G1 X70.8765 Y6.8189
X70.8735 Y6.8142 Z-0.2172
X70.8705 Y6.8096 Z-0.2162
X70.8676 Y6.8051 Z-0.2147
X70.8648 Y6.8007 Z-0.2125
X70.8621 Y6.7966 Z-0.2098
X70.8596 Y6.7927 Z-0.2066
X70.8574 Y6.7892 Z-0.2029
X70.8554 Y6.7861 Z-0.1987
X70.8536 Y6.7833 Z-0.1941
X70.8521 Y6.7811 Z-0.1892
X70.851 Y6.7793 Z-0.184
X70.8501 Y6.7779 Z-0.1786
X70.8496 Y6.7772 Z-0.1731
X70.8495 Y6.7769 Z-0.1675
G0 Z0.4
X71.6905 Y6.4312
Z0.2
G1 Z0.1 F13.333
Z-0.1675
G19 G2 Y6.3812 Z-0.2175 J-0.05 K0. F40.
G1 Y6.3663
G17 G3 X71.7405 Y6.4163 I0. J0.05
X71.1343 I-0.3031 J0.
X71.7405 I0.3031 J0.
X71.6905 Y6.4663 I-0.05 J0.
G1 Y6.4514
G19 G2 Y6.4014 Z-0.1675 J0. K0.05
G0 Z0.4
X72.6599 Y6.4039
Z0.2
G1 Z0.1 F13.333
Z-0.1675
X72.6598 Y6.4036 Z-0.1731 F40.
X72.6593 Y6.4028 Z-0.1786
X72.6586 Y6.4015 Z-0.184
X72.6576 Y6.3996 Z-0.1892
X72.6563 Y6.3972 Z-0.1941
X72.6547 Y6.3943 Z-0.1987
X72.6529 Y6.3911 Z-0.2029
X72.6509 Y6.3874 Z-0.2066
X72.6487 Y6.3834 Z-0.2098
X72.6464 Y6.3791 Z-0.2125
X72.6439 Y6.3745 Z-0.2147
X72.6413 Y6.3698 Z-0.2162
X72.6387 Y6.3649 Z-0.2172
X72.636 Y6.36 Z-0.2175
X72.6289 Y6.3469
G17 G3 X72.6967 Y6.3669 I0.0239 J0.0439
G1 X72.97 Y6.8686
X72.9701 Y6.8687
G3 X72.9689 Y6.8753 I-0.0047 J0.0026
G1 X72.9687 Y6.8755
G2 X72.8726 Y6.9733 I0.5378 J0.6239
G3 X72.8657 Y6.9747 I-0.0043 J-0.0036
G1 X72.0658 Y6.5557
G3 X72.063 Y6.5496 I0.0027 J-0.0049
G1 Y6.5495
G2 X72.0751 Y6.3691 I-0.6257 J-0.1324
G3 X72.0788 Y6.3635 I0.0056 J-0.0004
G1 X72.5342 Y6.199
G3 X72.5393 Y6.1999 I0.0018 J0.0051
G2 X72.6457 Y6.2755 I0.9244 J-1.1885
X72.6463 Y6.2758 I0.0405 J-0.0625
G3 X72.6481 Y6.2777 I-0.003 J0.0047
G1 X72.6967 Y6.3669
G3 X72.6767 Y6.4347 I-0.0439 J0.0239
G1 X72.6696 Y6.4217
X72.6669 Y6.4167 Z-0.2172
X72.6643 Y6.4119 Z-0.2162
X72.6617 Y6.4072 Z-0.2147
X72.6592 Y6.4026 Z-0.2125
X72.6569 Y6.3983 Z-0.2098
X72.6547 Y6.3943 Z-0.2066
X72.6527 Y6.3906 Z-0.2029
X72.6509 Y6.3873 Z-0.1987
X72.6494 Y6.3845 Z-0.1941
X72.6481 Y6.3821 Z-0.1892
X72.647 Y6.3802 Z-0.184
X72.6463 Y6.3788 Z-0.1786
X72.6458 Y6.378 Z-0.1731
X72.6457 Y6.3777 Z-0.1675
G0 Z0.4
X73.3086 Y6.6486
Z0.2
G1 Z0.1 F13.333
Z-0.1675
X73.3089 Z-0.1731 F40.
X73.3099 Y6.6484 Z-0.1786
X73.3114 Y6.648 Z-0.184
X73.3135 Y6.6476 Z-0.1892
X73.3161 Y6.647 Z-0.1941
X73.3193 Y6.6464 Z-0.1987
X73.323 Y6.6456 Z-0.2029
X73.327 Y6.6447 Z-0.2066
X73.3315 Y6.6437 Z-0.2098
X73.3363 Y6.6427 Z-0.2125
X73.3414 Y6.6416 Z-0.2147
X73.3466 Y6.6405 Z-0.2162
X73.3521 Y6.6393 Z-0.2172
X73.3575 Y6.6382 Z-0.2175
X73.3721 Y6.6351
G3 X73.3337 Y6.6944 I-0.0489 J0.0105
G2 X73.2718 Y6.7102 I0.1723 J0.8056
G3 X73.2654 Y6.7075 I-0.0016 J-0.0054
G1 X73.1485 Y6.4928
X73.1484 Y6.4927
G3 X73.1543 Y6.4848 I0.0048 J-0.0026
G2 X73.2562 Y6.5026 I0.31 J-1.4733
G1 X73.2563
X73.9364 Y6.597
G3 X73.9386 Y6.5979 I-0.0008 J0.0054
G1 X73.9387
X74.6382 Y7.063
G3 X74.6404 Y7.0695 I-0.0031 J0.0047
G2 X74.6313 Y7.0952 I0.3367 J0.134
X74.631 Y7.0961 I0.0711 J0.0223
G3 X74.6269 Y7.0999 I-0.0051 J-0.0015
G1 X74.2668 Y7.1732
G3 X74.2608 Y7.1701 I-0.001 J-0.0053
G2 X73.3337 Y6.6944 I-0.7549 J0.3299
G3 X73.2743 Y6.656 I-0.0105 J-0.0489
G1 X73.2889 Y6.6529
X73.2944 Y6.6517 Z-0.2172
X73.2998 Y6.6505 Z-0.2162
X73.305 Y6.6494 Z-0.2147
X73.3101 Y6.6483 Z-0.2125
X73.3149 Y6.6473 Z-0.2098
X73.3194 Y6.6463 Z-0.2066
X73.3235 Y6.6455 Z-0.2029
X73.3271 Y6.6447 Z-0.1987
X73.3303 Y6.644 Z-0.1941
X73.3329 Y6.6434 Z-0.1892
X73.335 Y6.643 Z-0.184
X73.3365 Y6.6427 Z-0.1786
X73.3375 Y6.6425 Z-0.1731
X73.3378 Y6.6424 Z-0.1675
G0 Z0.4
X72.0484 Y6.9828
Z0.2
G1 Z0.1 F13.333
Z-0.1675
X72.0481 Y6.9827 Z-0.1731 F40.
X72.0473 Y6.9823 Z-0.1786
X72.0459 Y6.9815 Z-0.184
X72.044 Y6.9805 Z-0.1892
X72.0416 Y6.9793 Z-0.1941
X72.0387 Y6.9778 Z-0.1987
X72.0354 Y6.976 Z-0.2029
X72.0317 Y6.9741 Z-0.2066
X72.0276 Y6.972 Z-0.2098
X72.0233 Y6.9697 Z-0.2125
X72.0187 Y6.9673 Z-0.2147
X72.0139 Y6.9648 Z-0.2162
X72.009 Y6.9622 Z-0.2172
X72.0041 Y6.9596 Z-0.2175
X71.9909 Y6.9527
G3 X72.0584 Y6.9316 I0.0443 J0.0232
G1 X72.7095 Y7.2727
G3 X72.7121 Y7.2789 I-0.0025 J0.0047
G2 X72.7119 Y7.2797 I0.0717 J0.0202
X72.709 Y7.2908 I0.7957 J0.214
G3 X72.7035 Y7.2948 I-0.0052 J-0.0015
G1 X72.7034
X71.8802 Y7.257
G3 X71.8755 Y7.2539 I0.0002 J-0.0054
G2 X71.6832 Y7.0736 I-0.3271 J0.1563
G1 X71.683 Y7.0735
G3 X71.6795 Y7.0691 I0.002 J-0.0051
G1 X71.6737 Y7.0152
Y7.015
G3 X71.6771 Y7.0093 I0.0055 J-0.0006
G2 X71.903 Y6.8548 I-0.2398 J-0.5929
G3 X71.9095 Y6.8537 I0.004 J0.0038
G1 X72.0584 Y6.9316
G3 X72.0795 Y6.9991 I-0.0232 J0.0443
G1 X72.0663 Y6.9922
X72.0613 Y6.9896 Z-0.2172
X72.0564 Y6.9871 Z-0.2162
X72.0516 Y6.9846 Z-0.2147
X72.047 Y6.9821 Z-0.2125
X72.0427 Y6.9799 Z-0.2098
X72.0386 Y6.9778 Z-0.2066
X72.0349 Y6.9758 Z-0.2029
X72.0316 Y6.9741 Z-0.1987
X72.0288 Y6.9726 Z-0.1941
X72.0264 Y6.9713 Z-0.1892
X72.0245 Y6.9703 Z-0.184
X72.0231 Y6.9696 Z-0.1786
X72.0222 Y6.9692 Z-0.1731
X72.022 Y6.969 Z-0.1675
G0 Z0.4
X72.0487 Y5.6574
Z0.2
G1 Z0.1 F13.333
Z-0.1675
X72.0485 Y5.6571 Z-0.1731 F40.
X72.0482 Y5.6563 Z-0.1786
X72.0475 Y5.6548 Z-0.184
X72.0467 Y5.6529 Z-0.1892
X72.0456 Y5.6504 Z-0.1941
X72.0442 Y5.6474 Z-0.1987
X72.0427 Y5.644 Z-0.2029
X72.041 Y5.6402 Z-0.2066
X72.0392 Y5.636 Z-0.2098
X72.0372 Y5.6315 Z-0.2125
X72.0351 Y5.6268 Z-0.2147
X72.0329 Y5.6219 Z-0.2162
X72.0306 Y5.6168 Z-0.2172
X72.0284 Y5.6117 Z-0.2175
X72.0223 Y5.5981
G3 X72.0883 Y5.6235 I0.0203 J0.0457
G2 X72.2701 Y5.929 I1.3757 J-0.6117
G3 X72.2676 Y5.9375 I-0.0043 J0.0033
G1 X71.9645 Y6.047
G3 X71.9583 Y6.045 I-0.0018 J-0.0051
G2 X71.5404 Y5.7852 I-0.5207 J0.3714
G3 X71.5359 Y5.7804 I0.0009 J-0.0054
G1 X71.53 Y5.7264
X71.5299 Y5.7261
G3 X71.5322 Y5.721 I0.0056 J-0.0006
G2 X71.6876 Y5.3911 I-0.2055 J-0.2983
G3 X71.6955 Y5.3856 I0.0056 J-0.0005
G1 X72.0569 Y5.5526
X72.0573 Y5.5527
G3 X72.0601 Y5.5557 I-0.0023 J0.0051
G2 X72.0883 Y5.6235 I1.4039 J-0.5439
G3 X72.0629 Y5.6895 I-0.0457 J0.0203
G1 X72.0569 Y5.6759
X72.0546 Y5.6707 Z-0.2172
X72.0524 Y5.6657 Z-0.2162
X72.0502 Y5.6608 Z-0.2147
X72.0481 Y5.656 Z-0.2125
X72.0461 Y5.6516 Z-0.2098
X72.0442 Y5.6474 Z-0.2066
X72.0425 Y5.6436 Z-0.2029
X72.041 Y5.6401 Z-0.1987
X72.0397 Y5.6372 Z-0.1941
X72.0386 Y5.6347 Z-0.1892
X72.0377 Y5.6327 Z-0.184
X72.0371 Y5.6313 Z-0.1786
X72.0367 Y5.6305 Z-0.1731
X72.0366 Y5.6302 Z-0.1675
G0 Z0.4
X70.8501 Y6.0551
Z0.2
G1 Z0.1 F13.333
Z-0.1675
X70.8502 Y6.0548 Z-0.1731 F40.
X70.8507 Y6.054 Z-0.1786
X70.8516 Y6.0527 Z-0.184
X70.8527 Y6.0509 Z-0.1892
X70.8542 Y6.0487 Z-0.1941
X70.856 Y6.0459 Z-0.1987
X70.858 Y6.0428 Z-0.2029
X70.8603 Y6.0393 Z-0.2066
X70.8627 Y6.0354 Z-0.2098
X70.8654 Y6.0313 Z-0.2125
X70.8682 Y6.027 Z-0.2147
X70.8711 Y6.0224 Z-0.2162
X70.8741 Y6.0178 Z-0.2172
X70.8772 Y6.0131 Z-0.2175
X70.8852 Y6.0006
G3 X70.9001 Y6.0697 I-0.0271 J0.042
G2 X70.8354 Y6.2011 I0.5373 J0.3466
G1 X70.8353
G3 X70.8298 Y6.2047 I-0.0051 J-0.0018
G1 X70.8297
X70.5348 Y6.1838
X70.5347
G3 X70.5297 Y6.1791 I0.0004 J-0.0054
G1 Y6.179
G2 X70.4782 Y5.9873 I-0.8157 J0.1161
G3 X70.4798 Y5.981 I0.0052 J-0.0021
G2 X70.5895 Y5.8059 I-0.221 J-0.2604
G3 X70.5933 Y5.8019 I0.0054 J0.0014
G1 X71.0594 Y5.6718
X71.0596 Y5.6717
G3 X71.0651 Y5.6733 I0.0015 J0.0054
G2 X71.1918 Y5.759 I0.2619 J-0.2506
G3 X71.1952 Y5.7635 I-0.0021 J0.0051
G2 X71.1953 Y5.7639 I0.074 J-0.0082
G1 X71.2016 Y5.8177
G3 X71.1981 Y5.8233 I-0.0055 J0.0005
G1 Y5.8234
G2 X70.9001 Y6.0697 I0.2394 J0.5929
G3 X70.831 Y6.0846 I-0.042 J-0.0271
G1 X70.8391 Y6.0721
X70.8421 Y6.0674 Z-0.2172
X70.8451 Y6.0627 Z-0.2162
X70.8481 Y6.0582 Z-0.2147
X70.8509 Y6.0538 Z-0.2125
X70.8535 Y6.0497 Z-0.2098
X70.856 Y6.0459 Z-0.2066
X70.8583 Y6.0424 Z-0.2029
X70.8603 Y6.0392 Z-0.1987
X70.862 Y6.0365 Z-0.1941
X70.8635 Y6.0342 Z-0.1892
X70.8647 Y6.0324 Z-0.184
X70.8655 Y6.0311 Z-0.1786
X70.866 Y6.0303 Z-0.1731
X70.8662 Y6.03 Z-0.1675
G0 Z0.4
X70.5557 Y4.9144
Z0.2
G1 Z0.1 F13.333
Z-0.1675
X70.5555 Y4.9142 Z-0.1731 F40.
X70.5546 Y4.9138 Z-0.1786
X70.5533 Y4.9131 Z-0.184
X70.5514 Y4.912 Z-0.1892
X70.549 Y4.9107 Z-0.1941
X70.5461 Y4.9092 Z-0.1987
X70.5428 Y4.9074 Z-0.2029
X70.5392 Y4.9054 Z-0.2066
X70.5351 Y4.9033 Z-0.2098
X70.5308 Y4.9009 Z-0.2125
X70.5263 Y4.8985 Z-0.2147
X70.5215 Y4.8959 Z-0.2162
X70.5167 Y4.8933 Z-0.2172
X70.5117 Y4.8906 Z-0.2175
X70.4986 Y4.8835
G3 X70.5664 Y4.8633 I0.044 J0.0238
G2 X70.5876 Y4.8739 I0.184 J-0.3404
G1 X70.5877 Y4.874
X71.1156 Y5.1177
G3 X71.1165 Y5.127 I-0.0022 J0.0049
G2 X71.1161 Y5.1273 I0.043 J0.0609
X70.973 Y5.3435 I0.2108 J0.2951
G3 X70.969 Y5.3477 I-0.0055 J-0.0013
G1 X70.9689
X70.5028 Y5.4779
X70.5027
G3 X70.4974 Y5.4765 I-0.0015 J-0.0053
G2 X69.9873 Y5.5134 I-0.2387 J0.2442
G3 X69.9812 Y5.5152 I-0.0043 J-0.0033
G2 X69.7142 Y5.4707 I-0.2672 J0.7793
G1 X69.7141
G3 X69.7087 Y5.4663 I0. J-0.0056
G1 X69.6697 Y5.2835
Y5.2832
G3 X69.6723 Y5.2774 I0.0052 J-0.0011
G2 X69.7753 Y5.1929 I-0.1613 J-0.3016
X69.7755 Y5.1926 I-0.0576 J-0.0473
G3 X69.7772 Y5.1912 I0.0043 J0.0035
G2 X69.957 Y4.9657 I-0.1527 J-0.3062
G1 X69.9571
G3 X69.958 Y4.9636 I0.0052 J0.0013
G1 X69.9581 Y4.9635
G2 X70.0276 Y4.717 I-0.2704 J-0.2093
G3 X70.0319 Y4.711 I0.0054 J-0.0006
G1 X70.0322
X70.0643 Y4.7041
G3 X70.0695 Y4.7059 I0.0011 J0.0054
G2 X70.4833 Y4.8073 I0.2767 J-0.2343
G3 X70.4891 Y4.8083 I0.0021 J0.0051
G2 X70.5664 Y4.8633 I0.2612 J-0.2855
G3 X70.5866 Y4.9311 I-0.0238 J0.044
G1 X70.5735 Y4.924
X70.5686 Y4.9213 Z-0.2172
X70.5637 Y4.9187 Z-0.2162
X70.559 Y4.9161 Z-0.2147
X70.5544 Y4.9137 Z-0.2125
X70.5501 Y4.9113 Z-0.2098
X70.5461 Y4.9092 Z-0.2066
X70.5424 Y4.9072 Z-0.2029
X70.5391 Y4.9054 Z-0.1987
X70.5363 Y4.9039 Z-0.1941
X70.5339 Y4.9026 Z-0.1892
X70.532 Y4.9016 Z-0.184
X70.5306 Y4.9008 Z-0.1786
X70.5298 Y4.9004 Z-0.1731
X70.5295 Y4.9002 Z-0.1675
G0 Z0.4
X70.3129 Y3.9889
Z0.2
G1 Z0.1 F13.333
Z-0.1675
G19 G2 Y3.9389 Z-0.2175 J-0.05 K0. F40.
G1 Y3.924
G17 G3 X70.3629 Y3.974 I0. J0.05
G1 Y4.1038
G3 X70.3573 Y4.1093 I-0.0055 J0.
G2 X69.9981 Y4.3712 I-0.0109 J0.3624
G3 X69.994 Y4.375 I-0.0052 J-0.0015
G1 X69.9937
X69.9587 Y4.3826
X69.9586
G3 X69.9521 Y4.3788 I-0.0012 J-0.0055
G2 X69.8641 Y4.2328 I-0.3277 J0.098
G3 X69.8634 Y4.2258 I0.004 J-0.004
G1 X70.3527 Y3.469
G3 X70.3629 Y3.4719 I0.0047 J0.003
G1 Y3.974
G3 X70.3129 Y4.024 I-0.05 J0.
G1 Y4.0091
G19 G2 Y3.9591 Z-0.1675 J0. K0.05
G0 Z0.4
X69.7163 Y3.7414
Z0.2
G1 Z0.1 F13.333
Z-0.1675
X69.7165 Y3.7411 Z-0.1731 F40.
X69.717 Y3.7403 Z-0.1786
X69.7178 Y3.739 Z-0.184
X69.719 Y3.7372 Z-0.1892
X69.7205 Y3.7349 Z-0.1941
X69.7222 Y3.7322 Z-0.1987
X69.7243 Y3.7291 Z-0.2029
X69.7265 Y3.7256 Z-0.2066
X69.729 Y3.7217 Z-0.2098
X69.7317 Y3.7176 Z-0.2125
X69.7345 Y3.7132 Z-0.2147
X69.7374 Y3.7087 Z-0.2162
X69.7404 Y3.7041 Z-0.2172
X69.7435 Y3.6994 Z-0.2175
X69.7516 Y3.6869
G17 G3 X69.7664 Y3.756 I-0.0272 J0.042
G1 X69.578 Y4.0472
G3 X69.5725 Y4.0496 I-0.0045 J-0.0029
G2 X69.5152 Y4.044 I-0.0617 J0.3364
G3 X69.513 Y4.0435 I0.0001 J-0.0054
G1 X69.5129 Y4.0434
G2 X69.3378 Y4.0129 I-0.1443 J0.3101
G1 X69.3377
G3 X69.3321 Y4.0092 I-0.0005 J-0.0054
G1 X69.332 Y4.0091
X69.1262 Y3.3606
G3 X69.1274 Y3.3552 I0.0053 J-0.0016
G1 X69.1275 Y3.3551
G2 X69.1708 Y3.296 I-0.2524 J-0.2304
G1 Y3.2959
G3 X69.1754 Y3.2932 I0.0046 J0.0027
G1 X70.0555
G3 X70.0602 Y3.3018 I0. J0.0056
G1 X69.7664 Y3.756
G3 X69.6972 Y3.7708 I-0.042 J-0.0272
G1 X69.7053 Y3.7583
X69.7084 Y3.7536 Z-0.2172
X69.7114 Y3.749 Z-0.2162
X69.7143 Y3.7445 Z-0.2147
X69.7171 Y3.7401 Z-0.2125
X69.7198 Y3.736 Z-0.2098
X69.7223 Y3.7321 Z-0.2066
X69.7245 Y3.7286 Z-0.2029
X69.7266 Y3.7255 Z-0.1987
X69.7283 Y3.7228 Z-0.1941
X69.7298 Y3.7205 Z-0.1892
X69.731 Y3.7187 Z-0.184
X69.7318 Y3.7174 Z-0.1786
X69.7323 Y3.7166 Z-0.1731
X69.7325 Y3.7163 Z-0.1675
G0 Z0.4
X69.607 Y4.5957
Z0.2
G1 Z0.1 F13.333
Z-0.1675
X69.6069 Y4.5954 Z-0.1731 F40.
X69.6065 Y4.5945 Z-0.1786
X69.6059 Y4.5931 Z-0.184
X69.6051 Y4.5911 Z-0.1892
X69.604 Y4.5886 Z-0.1941
X69.6028 Y4.5857 Z-0.1987
X69.6013 Y4.5822 Z-0.2029
X69.5997 Y4.5784 Z-0.2066
X69.5979 Y4.5742 Z-0.2098
X69.5959 Y4.5696 Z-0.2125
X69.5939 Y4.5649 Z-0.2147
X69.5918 Y4.5599 Z-0.2162
X69.5896 Y4.5548 Z-0.2172
X69.5874 Y4.5497 Z-0.2175
X69.5816 Y4.536
G3 X69.6472 Y4.5624 I0.0196 J0.046
G2 X69.6897 Y4.603 I0.0686 J-0.0292
G3 X69.6918 Y4.612 I-0.0019 J0.0051
G2 X69.6713 Y4.6669 I0.0539 J0.0514
G3 Y4.6951 I-0.3027 J0.0141
G2 X69.6918 Y4.75 I0.0744 J0.0035
G3 X69.6897 Y4.759 I-0.004 J0.0038
G2 X69.647 Y4.8001 I0.026 J0.0698
G3 X69.635 Y4.8255 I-0.2797 J-0.1166
G2 X69.6299 Y4.8833 I0.0658 J0.0349
G3 X69.624 Y4.8907 I-0.0054 J0.0017
G2 X69.5683 Y4.9088 I-0.0067 J0.0742
G3 X69.5462 Y4.9263 I-0.1993 J-0.2282
G2 X69.5159 Y4.9768 I0.0436 J0.0604
G3 X69.5078 Y4.9807 I-0.0053 J-0.0007
G2 X69.4497 Y4.973 I-0.0381 J0.064
G3 X69.4222 Y4.9792 I-0.0812 J-0.292
G2 X69.3732 Y5.0116 I0.0132 J0.0733
G3 X69.3638 I-0.0047 J-0.0031
G2 X69.3148 Y4.9792 I-0.0622 J0.041
G3 X69.2873 Y4.973 I0.0537 J-0.2982
G2 X69.2292 Y4.9807 I-0.02 J0.0718
G3 X69.2211 Y4.9768 I-0.0028 J-0.0046
G2 X69.1908 Y4.9263 I-0.0738 J0.01
G3 X69.1687 Y4.9088 I0.1772 J-0.2458
G2 X69.113 Y4.8907 I-0.049 J0.0561
G3 X69.1071 Y4.8833 I-0.0005 J-0.0056
G2 X69.102 Y4.8255 I-0.0709 J-0.0229
G3 X69.09 Y4.8001 I0.2677 J-0.142
G2 X69.0473 Y4.759 I-0.0688 J0.0287
G3 X69.0452 Y4.75 I0.0019 J-0.0052
G2 X69.0658 Y4.6951 I-0.0539 J-0.0514
G3 Y4.6669 I0.3027 J-0.0141
G2 X69.0452 Y4.612 I-0.0744 J-0.0035
G3 X69.0473 Y4.603 I0.004 J-0.0038
G2 X69.09 Y4.5619 I-0.026 J-0.0698
G3 X69.102 Y4.5365 I0.2797 J0.1166
G2 X69.1071 Y4.4787 I-0.0658 J-0.0349
G3 X69.113 Y4.4713 I0.0054 J-0.0017
G2 X69.1687 Y4.4532 I0.0067 J-0.0742
G3 X69.1908 Y4.4357 I0.1993 J0.2282
G2 X69.2211 Y4.3852 I-0.0436 J-0.0604
G3 X69.2292 Y4.3813 I0.0053 J0.0007
G2 X69.2873 Y4.3891 I0.0381 J-0.064
G3 X69.3148 Y4.3828 I0.0812 J0.2919
G2 X69.3638 Y4.3504 I-0.0132 J-0.0733
G3 X69.3732 I0.0047 J0.0031
G2 X69.4222 Y4.3828 I0.0622 J-0.041
G3 X69.4497 Y4.3891 I-0.0537 J0.2982
G2 X69.5078 Y4.3813 I0.02 J-0.0718
G3 X69.5159 Y4.3852 I0.0028 J0.0046
G2 X69.5462 Y4.4357 I0.0738 J-0.01
G3 X69.5683 Y4.4532 I-0.1772 J0.2457
G2 X69.624 Y4.4713 I0.049 J-0.0561
G3 X69.6299 Y4.4787 I0.0005 J0.0056
G2 X69.635 Y4.5365 I0.0709 J0.0229
G3 X69.647 Y4.5619 I-0.2676 J0.142
G2 X69.6472 Y4.5624 I0.0688 J-0.0287
G3 X69.6208 Y4.628 I-0.046 J0.0196
G1 X69.6149 Y4.6143
X69.6127 Y4.6091 Z-0.2172
X69.6106 Y4.604 Z-0.2162
X69.6085 Y4.5991 Z-0.2147
X69.6064 Y4.5943 Z-0.2125
X69.6045 Y4.5898 Z-0.2098
X69.6027 Y4.5856 Z-0.2066
X69.6011 Y4.5817 Z-0.2029
X69.5996 Y4.5783 Z-0.1987
X69.5984 Y4.5753 Z-0.1941
X69.5973 Y4.5728 Z-0.1892
X69.5965 Y4.5709 Z-0.184
X69.5958 Y4.5694 Z-0.1786
X69.5955 Y4.5686 Z-0.1731
X69.5954 Y4.5683 Z-0.1675
G0 Z0.4
X68.9254 Y4.0056
Z0.2
G1 Z0.1 F13.333
Z-0.1675
X68.9253 Y4.0053 Z-0.1731 F40.
X68.925 Y4.0044 Z-0.1786
X68.9245 Y4.0029 Z-0.184
X68.9239 Y4.0008 Z-0.1892
X68.9231 Y3.9982 Z-0.1941
X68.9221 Y3.9952 Z-0.1987
X68.921 Y3.9916 Z-0.2029
X68.9197 Y3.9876 Z-0.2066
X68.9183 Y3.9832 Z-0.2098
X68.9168 Y3.9786 Z-0.2125
X68.9153 Y3.9736 Z-0.2147
X68.9136 Y3.9685 Z-0.2162
X68.912 Y3.9632 Z-0.2172
X68.9103 Y3.9579 Z-0.2175
X68.9058 Y3.9437
G3 X68.9686 Y3.9762 I0.0151 J0.0477
G1 X69.0124 Y4.1146
G3 X69.0106 Y4.1205 I-0.0053 J0.0016
G1 X69.0105 Y4.1206
G2 X68.9617 Y4.1692 I0.2156 J0.2656
G1 X68.9615 Y4.1694
G3 X68.9598 Y4.1708 I-0.0043 J-0.0035
G2 X68.78 Y4.3963 I0.1527 J0.3062
G1 X68.7799 Y4.3964
G3 X68.779 Y4.3984 I-0.0052 J-0.0013
G1 X68.7789 Y4.3985
G2 X68.7094 Y4.645 I0.2704 J0.2093
G3 X68.7051 Y4.651 I-0.0054 J0.0006
G1 X68.7049
X68.6727 Y4.6579
G3 X68.6674 Y4.6561 I-0.0011 J-0.0054
G2 X68.3063 Y4.5378 I-0.2767 J0.2344
G1 X68.3061 Y4.5379
G3 X68.2994 Y4.5318 I-0.0013 J-0.0053
X68.482 Y4.0651 I1.0691 J0.1493
G1 X68.8289 Y3.5656
G3 X68.8388 Y3.5671 I0.0046 J0.0032
G1 X68.9686 Y3.9762
G3 X68.936 Y4.039 I-0.0477 J0.0151
G1 X68.9315 Y4.0248
X68.9298 Y4.0195 Z-0.2172
X68.9281 Y4.0142 Z-0.2162
X68.9265 Y4.0091 Z-0.2147
X68.9249 Y4.0041 Z-0.2125
X68.9235 Y3.9995 Z-0.2098
X68.9221 Y3.9951 Z-0.2066
X68.9208 Y3.9911 Z-0.2029
X68.9197 Y3.9875 Z-0.1987
X68.9187 Y3.9845 Z-0.1941
X68.9179 Y3.9819 Z-0.1892
X68.9172 Y3.9798 Z-0.184
X68.9168 Y3.9783 Z-0.1786
X68.9165 Y3.9774 Z-0.1731
X68.9164 Y3.9771 Z-0.1675
G0 Z0.4
X69.1377 Y5.6376
Z0.2
G1 Z0.1 F13.333
Z-0.1675
X69.138 Y5.6373 Z-0.1731 F40.
X69.1387 Y5.6367 Z-0.1786
X69.1399 Y5.6357 Z-0.184
X69.1415 Y5.6344 Z-0.1892
X69.1436 Y5.6326 Z-0.1941
X69.146 Y5.6305 Z-0.1987
X69.1489 Y5.6281 Z-0.2029
X69.1521 Y5.6254 Z-0.2066
X69.1556 Y5.6224 Z-0.2098
X69.1593 Y5.6192 Z-0.2125
X69.1633 Y5.6159 Z-0.2147
X69.1674 Y5.6124 Z-0.2162
X69.1716 Y5.6088 Z-0.2172
X69.1759 Y5.6052 Z-0.2175
X69.1872 Y5.5956
G3 X69.1814 Y5.6661 I-0.0381 J0.0323
G2 X69.0285 Y5.8378 I0.5327 J0.6281
G3 X69.0186 Y5.8365 I-0.0047 J-0.003
G2 X68.8411 Y5.6229 I-0.3666 J0.1241
G3 X68.454 Y5.2549 I0.5272 J-0.9421
X68.4577 Y5.2466 I0.0046 J-0.0029
G1 X68.4579 Y5.2465
G2 X68.7389 Y4.9908 I-0.0674 J-0.3562
G3 X68.743 Y4.987 I0.0052 J0.0015
G1 X68.7433 Y4.9869
X68.7783 Y4.9794
X68.7784 Y4.9793
G3 X68.7849 Y4.9832 I0.0012 J0.0055
G2 X68.9598 Y5.1912 I0.3277 J-0.098
G3 X68.9615 Y5.1926 I-0.0026 J0.0049
G1 X68.9617 Y5.1928
G2 X69.2218 Y5.318 I0.2646 J-0.2168
G3 X69.224 Y5.3186 I-0.0001 J0.0055
G2 X69.3353 Y5.3489 I0.1444 J-0.3101
G1 X69.3356
G3 X69.3405 Y5.3533 I-0.0005 J0.0055
G1 X69.3795 Y5.5367
X69.3796 Y5.537
G3 X69.3765 Y5.543 I-0.0052 J0.0011
G2 X69.1814 Y5.6661 I0.3375 J0.7512
G3 X69.1109 Y5.6603 I-0.0323 J-0.0381
G1 X69.1223 Y5.6506
X69.1266 Y5.647 Z-0.2172
X69.1308 Y5.6434 Z-0.2162
X69.1349 Y5.6399 Z-0.2147
X69.1389 Y5.6366 Z-0.2125
X69.1426 Y5.6334 Z-0.2098
X69.1461 Y5.6305 Z-0.2066
X69.1493 Y5.6278 Z-0.2029
X69.1521 Y5.6253 Z-0.1987
X69.1546 Y5.6232 Z-0.1941
X69.1567 Y5.6215 Z-0.1892
X69.1583 Y5.6201 Z-0.184
X69.1595 Y5.6191 Z-0.1786
X69.1602 Y5.6185 Z-0.1731
X69.1604 Y5.6183 Z-0.1675
G0 Z0.4
X69.729 Y5.8575
Z0.2
G1 Z0.1 F13.333
Z-0.1675
X69.7287 Z-0.1731 F40.
X69.7278 Z-0.1786
X69.7262 Z-0.184
X69.7241 Z-0.1892
X69.7214 Z-0.1941
X69.7181 Z-0.1987
X69.7144 Z-0.2029
X69.7102 Z-0.2066
X69.7056 Z-0.2098
X69.7007 Z-0.2125
X69.6955 Z-0.2147
X69.6902 Z-0.2162
X69.6846 Z-0.2172
X69.679 Z-0.2175
X69.6641
G3 X69.7141 Y5.8075 I0.05 J0.
X70.2011 Y6.2944 I-0.0002 J0.4871
X69.2269 I-0.4871 J-0.0002
X69.7141 Y5.8075 I0.4871 J0.0002
X69.7641 Y5.8575 I0. J0.05
G1 X69.7492
X69.7436 Z-0.2172
X69.7381 Z-0.2162
X69.7327 Z-0.2147
X69.7275 Z-0.2125
X69.7226 Z-0.2098
X69.7181 Z-0.2066
X69.7139 Z-0.2029
X69.7101 Z-0.1987
X69.7069 Z-0.1941
X69.7042 Z-0.1892
X69.702 Z-0.184
X69.7005 Z-0.1786
X69.6995 Z-0.1731
X69.6992 Z-0.1675
G0 Z0.4
X69.0945 Y6.938
Z0.2
G1 Z0.1 F13.333
Z-0.1675
X69.0946 Y6.9377 Z-0.1731 F40.
X69.0951 Y6.9369 Z-0.1786
X69.0958 Y6.9355 Z-0.184
X69.0969 Y6.9337 Z-0.1892
X69.0983 Y6.9313 Z-0.1941
X69.0999 Y6.9285 Z-0.1987
X69.1017 Y6.9252 Z-0.2029
X69.1038 Y6.9216 Z-0.2066
X69.1061 Y6.9176 Z-0.2098
X69.1085 Y6.9134 Z-0.2125
X69.1111 Y6.9089 Z-0.2147
X69.1138 Y6.9042 Z-0.2162
X69.1165 Y6.8994 Z-0.2172
X69.1193 Y6.8945 Z-0.2175
X69.1267 Y6.8816
G3 X69.1453 Y6.9498 I-0.0248 J0.0434
G1 X69.0491 Y7.118
G3 X69.0391 Y7.1153 I-0.0047 J-0.0027
G1 Y6.7839
G3 X69.0489 Y6.7806 I0.0055 J0.
G1 X69.049 Y6.7807
G2 X69.1643 Y6.9079 I0.6644 J-0.4867
G3 X69.1654 Y6.9147 I-0.0037 J0.004
G1 X69.1652 Y6.9149
X69.1453 Y6.9498
G3 X69.077 Y6.9684 I-0.0434 J-0.0248
G1 X69.0844 Y6.9555
X69.0872 Y6.9506 Z-0.2172
X69.09 Y6.9458 Z-0.2162
X69.0926 Y6.9412 Z-0.2147
X69.0952 Y6.9367 Z-0.2125
X69.0976 Y6.9324 Z-0.2098
X69.0999 Y6.9284 Z-0.2066
X69.102 Y6.9248 Z-0.2029
X69.1038 Y6.9216 Z-0.1987
X69.1054 Y6.9187 Z-0.1941
X69.1068 Y6.9164 Z-0.1892
X69.1079 Y6.9145 Z-0.184
X69.1086 Y6.9132 Z-0.1786
X69.1091 Y6.9124 Z-0.1731
X69.1092 Y6.9121 Z-0.1675
G0 Z0.4
X69.7627 Y7.5245
Z0.2
G1 Z0.1 F13.333
Z-0.1675
X69.7628 Y7.5242 Z-0.1731 F40.
X69.7634 Y7.5235 Z-0.1786
X69.7643 Y7.5222 Z-0.184
X69.7656 Y7.5205 Z-0.1892
X69.7673 Y7.5183 Z-0.1941
X69.7692 Y7.5157 Z-0.1987
X69.7715 Y7.5128 Z-0.2029
X69.774 Y7.5094 Z-0.2066
X69.7767 Y7.5058 Z-0.2098
X69.7797 Y7.5018 Z-0.2125
X69.7828 Y7.4977 Z-0.2147
X69.786 Y7.4934 Z-0.2162
X69.7893 Y7.489 Z-0.2172
X69.7927 Y7.4845 Z-0.2175
X69.8017 Y7.4726
G3 X69.8116 Y7.5426 I-0.0301 J0.04
G2 X69.684 Y7.7908 I0.6584 J0.4951
G3 X69.6783 Y7.7947 I-0.0053 J-0.0016
G1 X69.6782
X69.5022 Y7.7782
X69.5021
G3 X69.4976 Y7.775 I0.0005 J-0.0056
G2 X69.1844 Y7.5764 I-0.3102 J0.1428
G3 X69.1796 Y7.5682 I-0.0001 J-0.0054
G1 X69.4576 Y7.0819
G3 X69.464 Y7.0794 I0.0047 J0.0027
G2 X69.8761 Y7.1021 I0.2499 J-0.7849
G1 X69.8762 Y7.102
G3 X69.8824 Y7.1053 I0.0011 J0.0055
G1 X69.993 Y7.3605
G3 X69.9912 Y7.3674 I-0.0052 J0.0023
G2 X69.8116 Y7.5426 I0.4788 J0.6704
G3 X69.7416 Y7.5525 I-0.04 J-0.0301
G1 X69.7505 Y7.5406
X69.7539 Y7.5361 Z-0.2172
X69.7572 Y7.5317 Z-0.2162
X69.7604 Y7.5274 Z-0.2147
X69.7635 Y7.5233 Z-0.2125
X69.7665 Y7.5194 Z-0.2098
X69.7692 Y7.5157 Z-0.2066
X69.7718 Y7.5124 Z-0.2029
X69.774 Y7.5094 Z-0.1987
X69.776 Y7.5068 Z-0.1941
X69.7776 Y7.5046 Z-0.1892
X69.7789 Y7.5029 Z-0.184
X69.7798 Y7.5017 Z-0.1786
X69.7804 Y7.5009 Z-0.1731
X69.7806 Y7.5007 Z-0.1675
G0 Z0.4
X69.7804 Y8.5742
Z0.2
G1 Z0.1 F13.333
Z-0.1675
X69.7802 Y8.5739 Z-0.1731 F40.
X69.7796 Y8.5732 Z-0.1786
X69.7787 Y8.5719 Z-0.184
X69.7774 Y8.5702 Z-0.1892
X69.7758 Y8.5681 Z-0.1941
X69.7738 Y8.5655 Z-0.1987
X69.7716 Y8.5625 Z-0.2029
X69.7691 Y8.5591 Z-0.2066
X69.7663 Y8.5555 Z-0.2098
X69.7634 Y8.5516 Z-0.2125
X69.7603 Y8.5474 Z-0.2147
X69.757 Y8.5431 Z-0.2162
X69.7537 Y8.5387 Z-0.2172
X69.7503 Y8.5342 Z-0.2175
X69.7414 Y8.5223
G3 X69.8114 Y8.5322 I0.03 J0.04
G2 X69.9749 Y8.6958 I0.6587 J-0.4948
G3 X69.9765 Y8.7024 I-0.0033 J0.0043
G1 Y8.7026
X69.7757 Y9.1366
G3 X69.7694 Y9.1397 I-0.0051 J-0.0024
G1 X69.7692 Y9.1396
G2 X69.3325 Y9.1597 I-0.1818 J0.8035
G1 X69.3324 Y9.1598
G3 X69.3259 Y9.1573 I-0.0017 J-0.0053
G1 X68.9932 Y8.5834
X68.993 Y8.5831
G3 X68.9929 Y8.5779 I0.0046 J-0.0027
G2 X69.0391 Y8.395 I-0.3408 J-0.1834
G1 Y8.3949
Y8.234
G3 X69.0468 Y8.229 I0.0055 J0.
G1 X69.0469
G2 X69.4659 Y8.1156 I0.1406 J-0.3112
G3 X69.4709 Y8.1133 I0.0045 J0.0032
G1 X69.471
X69.647 Y8.1297
G3 X69.652 Y8.1346 I-0.0005 J0.0055
G2 X69.8114 Y8.5322 I0.818 J-0.0971
G3 X69.8015 Y8.6023 I-0.04 J0.03
G1 X69.7925 Y8.5903
X69.7891 Y8.5859 Z-0.2172
X69.7858 Y8.5814 Z-0.2162
X69.7826 Y8.5771 Z-0.2147
X69.7795 Y8.573 Z-0.2125
X69.7765 Y8.5691 Z-0.2098
X69.7738 Y8.5654 Z-0.2066
X69.7713 Y8.5621 Z-0.2029
X69.769 Y8.5591 Z-0.1987
X69.7671 Y8.5565 Z-0.1941
X69.7654 Y8.5543 Z-0.1892
X69.7642 Y8.5526 Z-0.184
X69.7632 Y8.5514 Z-0.1786
X69.7627 Y8.5506 Z-0.1731
X69.7625 Y8.5504 Z-0.1675
G0 Z0.4
X70.0247 Y9.958
Z0.2
G1 Z0.1 F13.333
Z-0.1675
G19 G2 Y9.908 Z-0.2175 J-0.05 K0. F40.
G1 Y9.8931
G17 G3 X70.0747 Y9.9431 I0. J0.05
X69.1001 I-0.4873 J0.
X70.0747 I0.4873 J0.
X70.0247 Y9.9931 I-0.05 J0.
G1 Y9.9782
G19 G2 Y9.9282 Z-0.1675 J0. K0.05
G0 Z0.4
X69.4505 Y11.9242
Z0.2
G1 Z0.1 F13.333
Z-0.1675
Y11.9239 Z-0.1731 F40.
Y11.9229 Z-0.1786
X69.4504 Y11.9214 Z-0.184
X69.4503 Y11.9192 Z-0.1892
X69.4502 Y11.9165 Z-0.1941
X69.4501 Y11.9133 Z-0.1987
X69.4499 Y11.9095 Z-0.2029
X69.4497 Y11.9054 Z-0.2066
X69.4496 Y11.9008 Z-0.2098
X69.4493 Y11.8959 Z-0.2125
X69.4491 Y11.8907 Z-0.2147
X69.4489 Y11.8853 Z-0.2162
X69.4487 Y11.8798 Z-0.2172
X69.4485 Y11.8742 Z-0.2175
X69.4478 Y11.8593
G17 G3 X69.4999 Y11.9072 I0.0021 J0.05
G1 X69.5039 Y12.0055
G3 X69.5012 Y12.0104 I-0.0055 J0.0002
G2 X69.3397 Y12.2125 I0.1837 J0.3125
G1 X69.3396 Y12.2126
G3 X69.3355 Y12.2163 I-0.0051 J-0.0016
G1 X69.1105 Y12.2579
X69.1104
G3 X69.1047 Y12.2555 I-0.001 J-0.0055
G2 X69.0222 Y12.1601 I-0.3786 J0.2442
G1 X69.0219 Y12.1599
G3 X69.0203 Y12.154 I0.0036 J-0.0042
G1 X69.4474 Y10.8869
G3 X69.4578 Y10.8884 I0.0051 J0.0017
G1 X69.4999 Y11.9072
G3 X69.452 Y11.9592 I-0.05 J0.0021
G1 X69.4513 Y11.9443
X69.4511 Y11.9388 Z-0.2172
X69.4509 Y11.9332 Z-0.2162
X69.4507 Y11.9278 Z-0.2147
X69.4505 Y11.9227 Z-0.2125
X69.4503 Y11.9178 Z-0.2098
X69.4501 Y11.9132 Z-0.2066
X69.4499 Y11.909 Z-0.2029
X69.4497 Y11.9053 Z-0.1987
X69.4496 Y11.902 Z-0.1941
X69.4495 Y11.8993 Z-0.1892
X69.4494 Y11.8972 Z-0.184
X69.4493 Y11.8956 Z-0.1786
Y11.8947 Z-0.1731
Y11.8944 Z-0.1675
G0 Z0.4
X69.525 Y13.0743
Z0.2
G1 Z0.1 F13.333
Z-0.1675
X69.5249 Y13.074 Z-0.1731 F40.
X69.5244 Y13.0732 Z-0.1786
X69.5237 Y13.0718 Z-0.184
X69.5226 Y13.07 Z-0.1892
X69.5213 Y13.0676 Z-0.1941
X69.5197 Y13.0648 Z-0.1987
X69.5179 Y13.0615 Z-0.2029
X69.5159 Y13.0578 Z-0.2066
X69.5137 Y13.0538 Z-0.2098
X69.5113 Y13.0496 Z-0.2125
X69.5088 Y13.045 Z-0.2147
X69.5062 Y13.0403 Z-0.2162
X69.5035 Y13.0355 Z-0.2172
X69.5008 Y13.0306 Z-0.2175
X69.4935 Y13.0176
G3 X69.5615 Y13.037 I0.0243 J0.0437
G2 X69.595 Y13.0952 I1.869 J-1.0374
G3 X69.5934 Y13.1026 I-0.0048 J0.0028
G1 X69.5933
X69.4701 Y13.1905
G3 X69.4622 Y13.1889 I-0.0032 J-0.0045
G1 Y13.1888
G3 X69.2075 Y12.5883 I1.9684 J-1.1891
X69.2119 Y12.5813 I0.0054 J-0.0014
G1 X69.212
X69.3608 Y12.5538
G3 X69.3671 Y12.5578 I0.001 J0.0054
G2 X69.5615 Y13.037 I2.0635 J-0.5582
G3 X69.5421 Y13.105 I-0.0437 J0.0243
G1 X69.5348 Y13.092
X69.5321 Y13.0871 Z-0.2172
X69.5294 Y13.0822 Z-0.2162
X69.5268 Y13.0775 Z-0.2147
X69.5243 Y13.073 Z-0.2125
X69.5219 Y13.0687 Z-0.2098
X69.5197 Y13.0647 Z-0.2066
X69.5177 Y13.061 Z-0.2029
X69.5159 Y13.0578 Z-0.1987
X69.5143 Y13.0549 Z-0.1941
X69.513 Y13.0526 Z-0.1892
X69.5119 Y13.0507 Z-0.184
X69.5112 Y13.0493 Z-0.1786
X69.5107 Y13.0485 Z-0.1731
X69.5106 Y13.0482 Z-0.1675
G0 Z0.4
X69.6802 Y13.8701
Z0.2
G1 Z0.1 F13.333
Z-0.1675
Y13.8698 Z-0.1731 F40.
X69.6803 Y13.8688 Z-0.1786
X69.6805 Y13.8673 Z-0.184
X69.6807 Y13.8651 Z-0.1892
X69.681 Y13.8624 Z-0.1941
X69.6813 Y13.8592 Z-0.1987
X69.6817 Y13.8555 Z-0.2029
X69.6821 Y13.8513 Z-0.2066
X69.6826 Y13.8468 Z-0.2098
X69.6831 Y13.8419 Z-0.2125
X69.6836 Y13.8368 Z-0.2147
X69.6841 Y13.8314 Z-0.2162
X69.6847 Y13.8259 Z-0.2172
X69.6853 Y13.8203 Z-0.2175
X69.6868 Y13.8055
G3 X69.7314 Y13.8603 I-0.0051 J0.0497
G1 X69.7275 Y13.8993
X69.7274 Y13.8995
G3 X69.7243 Y13.9039 I-0.0055 J-0.0005
G2 X69.5323 Y14.1358 I0.1401 J0.3115
G1 X69.5322 Y14.136
G3 X69.5256 Y14.1399 I-0.0052 J-0.0012
G2 X69.5251 Y14.1398 I-0.02 J0.0718
X69.5192 Y14.1382 I-0.0897 J0.3295
G3 X69.5155 Y14.1345 I0.0015 J-0.0051
G1 X69.5154 Y14.1342
X69.4659 Y13.9572
G3 X69.4678 Y13.9513 I0.0054 J-0.0014
G2 X69.6301 Y13.4941 I-0.2768 J-0.3556
G1 X69.63 Y13.4939
G3 X69.6321 Y13.4884 I0.0051 J-0.0012
G1 X69.6323 Y13.4883
X69.7701 Y13.3898
G3 X69.779 Y13.395 I0.0033 J0.0046
G1 X69.7314 Y13.8603
G3 X69.6766 Y13.905 I-0.0497 J-0.0051
G1 X69.6781 Y13.8902
X69.6787 Y13.8846 Z-0.2172
X69.6793 Y13.8791 Z-0.2162
X69.6798 Y13.8737 Z-0.2147
X69.6803 Y13.8686 Z-0.2125
X69.6808 Y13.8637 Z-0.2098
X69.6813 Y13.8592 Z-0.2066
X69.6817 Y13.855 Z-0.2029
X69.6821 Y13.8513 Z-0.1987
X69.6824 Y13.848 Z-0.1941
X69.6827 Y13.8453 Z-0.1892
X69.6829 Y13.8432 Z-0.184
X69.6831 Y13.8417 Z-0.1786
X69.6832 Y13.8407 Z-0.1731
Y13.8404 Z-0.1675
G0 Z0.4
X70.3653 Y13.6965
Z0.2
G1 Z0.1 F13.333
Z-0.1675
X70.3656 Y13.6963 Z-0.1731 F40.
X70.3664 Y13.6959 Z-0.1786
X70.3678 Y13.6951 Z-0.184
X70.3697 Y13.6941 Z-0.1892
X70.3721 Y13.6928 Z-0.1941
X70.3749 Y13.6913 Z-0.1987
X70.3782 Y13.6895 Z-0.2029
X70.3819 Y13.6875 Z-0.2066
X70.3859 Y13.6853 Z-0.2098
X70.3902 Y13.683 Z-0.2125
X70.3948 Y13.6805 Z-0.2147
X70.3995 Y13.678 Z-0.2162
X70.4044 Y13.6753 Z-0.2172
X70.4093 Y13.6727 Z-0.2175
X70.4224 Y13.6656
G3 X70.4022 Y13.7334 I-0.044 J0.0238
G1 X70.0732 Y13.9112
G3 X70.0651 Y13.9058 I-0.0026 J-0.0048
G1 X70.1198 Y13.3699
Y13.3698
G3 X70.1231 Y13.3652 I0.0055 J0.0005
G2 X70.2204 Y13.3059 I-0.1379 J-0.3353
G1 Y13.3058
G3 X70.226 Y13.3049 I0.0036 J0.0042
G1 X70.7772 Y13.5203
G3 X70.7779 Y13.5303 I-0.002 J0.0052
G1 X70.4022 Y13.7334
G3 X70.3344 Y13.7131 I-0.0238 J-0.044
G1 X70.3475 Y13.7061
X70.3525 Y13.7034 Z-0.2172
X70.3573 Y13.7008 Z-0.2162
X70.3621 Y13.6982 Z-0.2147
X70.3666 Y13.6957 Z-0.2125
X70.3709 Y13.6934 Z-0.2098
X70.375 Y13.6912 Z-0.2066
X70.3786 Y13.6892 Z-0.2029
X70.3819 Y13.6875 Z-0.1987
X70.3848 Y13.6859 Z-0.1941
X70.3872 Y13.6846 Z-0.1892
X70.3891 Y13.6836 Z-0.184
X70.3904 Y13.6829 Z-0.1786
X70.3913 Y13.6824 Z-0.1731
X70.3915 Y13.6823 Z-0.1675
G0 Z0.4
X70.5165 Y14.81
Z0.2
G1 Z0.1 F13.333
Z-0.1675
X70.5166 Y14.8097 Z-0.1731 F40.
X70.5169 Y14.8089 Z-0.1786
X70.5174 Y14.8074 Z-0.184
X70.518 Y14.8054 Z-0.1892
X70.5189 Y14.8028 Z-0.1941
X70.5199 Y14.7997 Z-0.1987
X70.5211 Y14.7962 Z-0.2029
X70.5225 Y14.7922 Z-0.2066
X70.5239 Y14.7879 Z-0.2098
X70.5255 Y14.7832 Z-0.2125
X70.5271 Y14.7783 Z-0.2147
X70.5289 Y14.7732 Z-0.2162
X70.5306 Y14.768 Z-0.2172
X70.5324 Y14.7627 Z-0.2175
X70.5372 Y14.7485
G3 X70.5686 Y14.8119 I-0.0159 J0.0474
G1 X70.4014 Y15.3089
G3 X70.392 Y15.3108 I-0.0053 J-0.0018
G1 X69.7581 Y14.5844
X69.7579 Y14.5843
G3 X69.7568 Y14.5789 I0.0042 J-0.0037
G2 X69.7657 Y14.5484 I-0.3227 J-0.1109
G1 X69.7658 Y14.5482
G3 X69.7726 Y14.5441 I0.0054 J0.0013
G2 X70.206 Y14.2251 I0.092 J-0.3289
G1 Y14.225
G3 X70.2088 Y14.2203 I0.0055 J0.0002
G1 X70.8795 Y13.8577
X70.8796
G3 X70.8873 Y13.8642 I0.0026 J0.0048
G1 Y13.8644
X70.5686 Y14.8119
G3 X70.5053 Y14.8433 I-0.0474 J-0.0159
G1 X70.51 Y14.8292
X70.5118 Y14.8239 Z-0.2172
X70.5136 Y14.8186 Z-0.2162
X70.5153 Y14.8135 Z-0.2147
X70.5169 Y14.8086 Z-0.2125
X70.5185 Y14.804 Z-0.2098
X70.52 Y14.7996 Z-0.2066
X70.5213 Y14.7957 Z-0.2029
X70.5225 Y14.7921 Z-0.1987
X70.5235 Y14.7891 Z-0.1941
X70.5244 Y14.7865 Z-0.1892
X70.5251 Y14.7845 Z-0.184
X70.5256 Y14.783 Z-0.1786
X70.5259 Y14.7821 Z-0.1731
X70.526 Y14.7818 Z-0.1675
G0 Z0.4
X71.6243 Y14.227
Z0.2
G1 Z0.1 F13.333
Z-0.1675
X71.6245 Y14.2268 Z-0.1731 F40.
X71.6252 Y14.2261 Z-0.1786
X71.6263 Y14.225 Z-0.184
X71.6279 Y14.2235 Z-0.1892
X71.6298 Y14.2217 Z-0.1941
X71.6322 Y14.2194 Z-0.1987
X71.6349 Y14.2168 Z-0.2029
X71.6379 Y14.2139 Z-0.2066
X71.6412 Y14.2107 Z-0.2098
X71.6447 Y14.2073 Z-0.2125
X71.6484 Y14.2037 Z-0.2147
X71.6523 Y14.2 Z-0.2162
X71.6563 Y14.1962 Z-0.2172
X71.6603 Y14.1923 Z-0.2175
X71.671 Y14.1819
G3 X71.6698 Y14.2526 I-0.036 J0.0347
G1 X70.8597 Y15.0341
G3 X70.8505 Y15.0284 I-0.0039 J-0.004
G1 X71.2513 Y13.8383
G3 X71.2554 Y13.8347 I0.0051 J0.0017
G2 X71.4457 Y13.7236 I-0.0679 J-0.3348
G1 Y13.7235
G3 X71.4508 Y13.7218 I0.0041 J0.0035
G1 X71.4509
X72.0822 Y13.8427
G3 X72.0849 Y13.8521 I-0.0011 J0.0054
G1 X71.6698 Y14.2526
G3 X71.5991 Y14.2514 I-0.0347 J-0.036
G1 X71.6098 Y14.241
X71.6138 Y14.2371 Z-0.2172
X71.6178 Y14.2333 Z-0.2162
X71.6217 Y14.2295 Z-0.2147
X71.6254 Y14.226 Z-0.2125
X71.6289 Y14.2225 Z-0.2098
X71.6322 Y14.2194 Z-0.2066
X71.6352 Y14.2165 Z-0.2029
X71.6379 Y14.2139 Z-0.1987
X71.6403 Y14.2116 Z-0.1941
X71.6422 Y14.2097 Z-0.1892
X71.6437 Y14.2082 Z-0.184
X71.6449 Y14.2072 Z-0.1786
X71.6455 Y14.2065 Z-0.1731
X71.6458 Y14.2063 Z-0.1675
G0 Z0.4
X72.6289 Y14.4096
Z0.2
G1 Z0.1 F13.333
Z-0.1675
X72.6287 Y14.4094 Z-0.1731 F40.
X72.628 Y14.4088 Z-0.1786
X72.6268 Y14.4077 Z-0.184
X72.6252 Y14.4063 Z-0.1892
X72.6232 Y14.4044 Z-0.1941
X72.6208 Y14.4022 Z-0.1987
X72.6181 Y14.3997 Z-0.2029
X72.615 Y14.3969 Z-0.2066
X72.6116 Y14.3938 Z-0.2098
X72.608 Y14.3905 Z-0.2125
X72.6042 Y14.387 Z-0.2147
X72.6002 Y14.3834 Z-0.2162
X72.5961 Y14.3796 Z-0.2172
X72.592 Y14.3759 Z-0.2175
X72.581 Y14.3658
G3 X72.6516 Y14.3626 I0.0369 J0.0337
G2 X72.8105 Y14.4986 I2.159 J-2.3626
X73.099 Y14.5973 I0.2815 J-0.3517
G3 X73.104 Y14.6006 I0. J0.0054
G1 X73.1041 Y14.6008
X73.1623 Y14.7352
G3 X73.1615 Y14.7408 I-0.0051 J0.0021
G1 X73.1614 Y14.7409
G2 X73.0935 Y15.0548 I0.2835 J0.2256
G3 X73.0888 Y15.0615 I-0.0053 J0.0013
G1 X73.0885
X71.0724 Y15.3104
X71.0723
G3 X71.0678 Y15.301 I-0.0007 J-0.0054
G1 X72.3537 Y14.0604
G3 X72.3619 Y14.0608 I0.0039 J0.004
G2 X72.6516 Y14.3626 I2.4487 J-2.0608
G3 X72.6548 Y14.4333 I-0.0337 J0.0369
G1 X72.6438 Y14.4232
X72.6397 Y14.4194 Z-0.2172
X72.6356 Y14.4157 Z-0.2162
X72.6316 Y14.4121 Z-0.2147
X72.6278 Y14.4086 Z-0.2125
X72.6242 Y14.4053 Z-0.2098
X72.6208 Y14.4022 Z-0.2066
X72.6177 Y14.3994 Z-0.2029
X72.6149 Y14.3969 Z-0.1987
X72.6126 Y14.3947 Z-0.1941
X72.6105 Y14.3928 Z-0.1892
X72.609 Y14.3914 Z-0.184
X72.6078 Y14.3903 Z-0.1786
X72.6071 Y14.3897 Z-0.1731
X72.6069 Y14.3895 Z-0.1675
G0 Z0.4
X69.3542 Y14.8525
Z0.2
G1 Z0.1 F13.333
Z-0.1675
X69.3539 Y14.8524 Z-0.1731 F40.
X69.353 Y14.8522 Z-0.1786
X69.3515 Y14.8518 Z-0.184
X69.3494 Y14.8513 Z-0.1892
X69.3468 Y14.8506 Z-0.1941
X69.3436 Y14.8499 Z-0.1987
X69.34 Y14.849 Z-0.2029
X69.3359 Y14.848 Z-0.2066
X69.3315 Y14.8469 Z-0.2098
X69.3267 Y14.8457 Z-0.2125
X69.3217 Y14.8445 Z-0.2147
X69.3165 Y14.8432 Z-0.2162
X69.3111 Y14.8418 Z-0.2172
X69.3057 Y14.8405 Z-0.2175
X69.2912 Y14.8369
G3 X69.3517 Y14.8004 I0.0485 J0.012
G2 X69.4993 Y14.8039 I0.0819 J-0.3316
G3 X69.5045 Y14.8057 I0.001 J0.0054
G1 X70.0478 Y15.4282
G3 X70.0444 Y15.4373 I-0.0041 J0.0036
G1 X67.4216 Y15.7609
X67.4214 Y15.761
G3 X67.4207 I-0.0007 J-0.0054
G1 X67.4189
G3 X67.4136 Y15.7544 I0. J-0.0055
G2 X67.4225 Y15.6841 I-0.3509 J-0.0802
G1 Y15.6839
G3 X67.4255 Y15.6792 I0.0055 J0.0001
G1 X69.242 Y14.7549
G3 X69.2476 Y14.7552 I0.0025 J0.0049
G2 X69.3517 Y14.8004 I0.186 J-0.2865
G3 X69.3883 Y14.8609 I-0.012 J0.0485
G1 X69.3738 Y14.8573
X69.3684 Y14.856 Z-0.2172
X69.363 Y14.8547 Z-0.2162
X69.3578 Y14.8534 Z-0.2147
X69.3528 Y14.8521 Z-0.2125
X69.348 Y14.8509 Z-0.2098
X69.3436 Y14.8499 Z-0.2066
X69.3395 Y14.8488 Z-0.2029
X69.3359 Y14.848 Z-0.1987
X69.3327 Y14.8472 Z-0.1941
X69.3301 Y14.8465 Z-0.1892
X69.328 Y14.846 Z-0.184
X69.3265 Y14.8456 Z-0.1786
X69.3256 Y14.8454 Z-0.1731
X69.3253 Y14.8453 Z-0.1675
G0 Z0.4
X67.8552 Y15.0269
Z0.2
G1 Z0.1 F13.333
Z-0.1675
X67.8554 Y15.0268 Z-0.1731 F40.
X67.8563 Y15.0264 Z-0.1786
X67.8577 Y15.0257 Z-0.184
X67.8596 Y15.0247 Z-0.1892
X67.862 Y15.0235 Z-0.1941
X67.8649 Y15.022 Z-0.1987
X67.8682 Y15.0203 Z-0.2029
X67.8719 Y15.0184 Z-0.2066
X67.876 Y15.0163 Z-0.2098
X67.8804 Y15.0141 Z-0.2125
X67.885 Y15.0118 Z-0.2147
X67.8898 Y15.0093 Z-0.2162
X67.8947 Y15.0068 Z-0.2172
X67.8997 Y15.0043 Z-0.2175
X67.913 Y14.9975
G3 X67.8911 Y15.0648 I-0.0446 J0.0227
G1 X67.2729 Y15.3792
X67.2728 Y15.3793
G3 X67.2672 Y15.3789 I-0.0025 J-0.0049
G1 X67.267 Y15.3788
G2 X67.2336 Y15.3584 I-0.2041 J0.2964
G3 X67.2308 Y15.3536 I0.0027 J-0.0048
G1 Y15.3534
Y15.2466
Y15.2464
G3 X67.2336 Y15.2416 I0.0055 J0.
G2 Y14.6084 I-0.171 J-0.3166
G3 X67.2308 Y14.6036 I0.0027 J-0.0048
G1 Y14.6034
Y14.4966
Y14.4964
G3 X67.2336 Y14.4916 I0.0055 J0.
G2 X67.3559 Y14.3839 I-0.1706 J-0.317
G1 X67.356 Y14.3838
G3 X67.361 Y14.3815 I0.0044 J0.0031
G1 X68.8495 Y14.5659
G3 X68.8513 Y14.5763 I-0.0007 J0.0055
G1 X67.8911 Y15.0648
G3 X67.8239 Y15.0429 I-0.0227 J-0.0446
G1 X67.8371 Y15.0361
X67.8421 Y15.0336 Z-0.2172
X67.8471 Y15.0311 Z-0.2162
X67.8519 Y15.0286 Z-0.2147
X67.8565 Y15.0263 Z-0.2125
X67.8609 Y15.024 Z-0.2098
X67.8649 Y15.022 Z-0.2066
X67.8687 Y15.0201 Z-0.2029
X67.872 Y15.0184 Z-0.1987
X67.8749 Y15.0169 Z-0.1941
X67.8773 Y15.0157 Z-0.1892
X67.8792 Y15.0147 Z-0.184
X67.8806 Y15.014 Z-0.1786
X67.8814 Y15.0136 Z-0.1731
X67.8817 Y15.0134 Z-0.1675
G0 Z0.4
X68.6816 Y13.7346
Z0.2
G1 Z0.1 F13.333
Z-0.1675
X68.6815 Y13.7343 Z-0.1731 F40.
X68.681 Y13.7335 Z-0.1786
X68.6802 Y13.7322 Z-0.184
X68.679 Y13.7304 Z-0.1892
X68.6776 Y13.7281 Z-0.1941
X68.6759 Y13.7253 Z-0.1987
X68.6739 Y13.7222 Z-0.2029
X68.6717 Y13.7186 Z-0.2066
X68.6692 Y13.7147 Z-0.2098
X68.6666 Y13.7106 Z-0.2125
X68.6639 Y13.7062 Z-0.2147
X68.661 Y13.7016 Z-0.2162
X68.6581 Y13.6969 Z-0.2172
X68.6551 Y13.6922 Z-0.2175
X68.6472 Y13.6795
G3 X68.7161 Y13.6954 I0.0265 J0.0424
G2 X68.8244 Y13.8574 I2.7142 J-1.696
X69.1371 Y14.0433 I0.3668 J-0.2613
G1 X69.1373
G3 X69.142 Y14.0473 I-0.0006 J0.0055
G1 X69.1912 Y14.2244
G3 X69.1898 Y14.2297 I-0.0053 J0.0014
G2 X69.1895 Y14.23 I0.0531 J0.0522
X69.1614 Y14.2628 I0.245 J0.238
G3 X69.1564 Y14.2649 I-0.0043 J-0.0034
G1 X67.5974 Y14.0718
G3 X67.5976 Y14.0608 I0.0007 J-0.0055
G1 X67.598
G2 X67.9344 Y13.7988 I-0.0304 J-0.386
G1 Y13.7987
G3 X67.9368 Y13.7958 I0.0051 J0.0017
G1 X68.5631 Y13.4346
G3 X68.5708 Y13.437 I0.0027 J0.0048
G2 X68.7161 Y13.6954 I2.8595 J-1.4375
G3 X68.7002 Y13.7643 I-0.0424 J0.0265
G1 X68.6923 Y13.7517
X68.6894 Y13.747 Z-0.2172
X68.6864 Y13.7423 Z-0.2162
X68.6836 Y13.7377 Z-0.2147
X68.6808 Y13.7333 Z-0.2125
X68.6782 Y13.7291 Z-0.2098
X68.6758 Y13.7253 Z-0.2066
X68.6736 Y13.7217 Z-0.2029
X68.6716 Y13.7186 Z-0.1987
X68.6699 Y13.7158 Z-0.1941
X68.6685 Y13.7135 Z-0.1892
X68.6673 Y13.7117 Z-0.184
X68.6665 Y13.7104 Z-0.1786
X68.666 Y13.7096 Z-0.1731
X68.6658 Y13.7093 Z-0.1675
G0 Z0.4
X68.7951 Y12.5183
Z0.2
G1 Z0.1 F13.333
Z-0.1675
X68.795 Y12.518 Z-0.1731 F40.
X68.7948 Y12.5171 Z-0.1786
X68.7945 Y12.5156 Z-0.184
X68.7941 Y12.5135 Z-0.1892
X68.7936 Y12.5108 Z-0.1941
X68.793 Y12.5076 Z-0.1987
X68.7923 Y12.504 Z-0.2029
X68.7915 Y12.4999 Z-0.2066
X68.7907 Y12.4954 Z-0.2098
X68.7898 Y12.4905 Z-0.2125
X68.7888 Y12.4855 Z-0.2147
X68.7878 Y12.4802 Z-0.2162
X68.7867 Y12.4747 Z-0.2172
X68.7857 Y12.4692 Z-0.2175
X68.7829 Y12.4546
G3 X68.8414 Y12.4943 I0.0094 J0.0491
G2 X69.2838 Y13.5298 I2.5894 J-0.4941
G3 X69.2571 Y13.6889 I-0.0929 J0.0662
X69.0981 Y13.6622 I-0.0662 J-0.0929
X68.6142 Y12.5207 I2.3326 J-1.6621
X68.8386 Y12.4793 I0.1122 J-0.0207
G2 X68.8414 Y12.4943 I2.5922 J-0.479
G3 X68.8016 Y12.5528 I-0.0491 J0.0094
G1 X68.7989 Y12.5382
X68.7978 Y12.5327 Z-0.2172
X68.7968 Y12.5273 Z-0.2162
X68.7958 Y12.522 Z-0.2147
X68.7948 Y12.5169 Z-0.2125
X68.7939 Y12.5121 Z-0.2098
X68.793 Y12.5076 Z-0.2066
X68.7922 Y12.5035 Z-0.2029
X68.7915 Y12.4998 Z-0.1987
X68.7909 Y12.4966 Z-0.1941
X68.7904 Y12.4939 Z-0.1892
X68.79 Y12.4918 Z-0.184
X68.7897 Y12.4903 Z-0.1786
X68.7895 Y12.4894 Z-0.1731
Y12.4891 Z-0.1675
G0 Z0.4
X68.2592 Y12.3197
Z0.2
G1 Z0.1 F13.333
Z-0.1675
X68.2594 Y12.3194 Z-0.1731 F40.
X68.2597 Y12.3186 Z-0.1786
X68.2603 Y12.3171 Z-0.184
X68.2612 Y12.3151 Z-0.1892
X68.2622 Y12.3126 Z-0.1941
X68.2635 Y12.3097 Z-0.1987
X68.2649 Y12.3062 Z-0.2029
X68.2665 Y12.3024 Z-0.2066
X68.2683 Y12.2981 Z-0.2098
X68.2702 Y12.2936 Z-0.2125
X68.2722 Y12.2888 Z-0.2147
X68.2743 Y12.2839 Z-0.2162
X68.2764 Y12.2788 Z-0.2172
X68.2786 Y12.2736 Z-0.2175
X68.2844 Y12.2599
G3 X68.3111 Y12.3253 I-0.0194 J0.0461
G2 X68.2834 Y12.5819 I0.4153 J0.1745
X68.4313 Y13.1168 I3.1472 J-0.5822
