%
(971-23-P-0228_LEXAN OUTER PLATE_1537)
(T1  D=0.1537 CR=0. - ZMIN=-0.235 - FLAT END MILL)
G90 G94 G17 G91.1
G64 P0.001 Q0.001
G20
G53 G0 Z0.
(.3 CIRCLUAR THROUGH HOLE)
M9
T1 M6
S22000 M3
G4 P10.
G54
M7
G0 X4.798 Y5.601
G43 Z0.6 H1
G0 Z0.13
G1 Z0.0654 F40.
G18 G3 X4.7827 Z0.05 I-0.0154 K0.
G1 X4.775
G17 G3 X4.7596 Y5.5857 I0. J-0.0154
X4.8246 Z0. I0.0325 J0.
X4.7596 Z-0.05 I-0.0325 J0.
X4.8246 Z-0.1 I0.0325 J0.
X4.7596 Z-0.15 I-0.0325 J0.
X4.8246 Z-0.2 I0.0325 J0.
X4.773 Y5.612 Z-0.235 I-0.0325 J0.
X4.8112 Y5.5593 I0.0191 J-0.0263
X4.773 Y5.612 I-0.0191 J0.0263
X4.7696 Y5.5905 I0.009 J-0.0124
G1 X4.7741 Y5.5843
X4.7759 Y5.5819 Z-0.2347
X4.7776 Y5.5795 Z-0.2338
X4.7791 Y5.5774 Z-0.2324
X4.7805 Y5.5755 Z-0.2305
X4.7816 Y5.5739 Z-0.2282
X4.7825 Y5.5728 Z-0.2255
X4.783 Y5.5721 Z-0.2226
X4.7832 Y5.5718 Z-0.2196
G0 Z0.4
X6.1612 Y5.5703
Z0.13
G1 Z0.0654 F40.
G18 G2 X6.1766 Z0.05 I0.0154 K0.
G1 X6.1843
G17 G3 X6.1996 Y5.5857 I0. J0.0154
X6.1346 Z0. I-0.0325 J0.
X6.1996 Z-0.05 I0.0325 J0.
X6.1346 Z-0.1 I-0.0325 J0.
X6.1996 Z-0.15 I0.0325 J0.
X6.1346 Z-0.2 I-0.0325 J0.
X6.1862 Y5.5593 Z-0.235 I0.0325 J0.
X6.148 Y5.612 I-0.0191 J0.0263
X6.1862 Y5.5593 I0.0191 J-0.0263
X6.1896 Y5.5808 I-0.009 J0.0124
G1 X6.1851 Y5.587
X6.1834 Y5.5894 Z-0.2347
X6.1817 Y5.5918 Z-0.2338
X6.1801 Y5.5939 Z-0.2324
X6.1787 Y5.5958 Z-0.2305
X6.1776 Y5.5974 Z-0.2282
X6.1768 Y5.5985 Z-0.2255
X6.1763 Y5.5992 Z-0.2226
X6.1761 Y5.5995 Z-0.2196
G0 Z0.4
X5.9924 Y2.9741
Z0.13
G1 Z0.0654 F40.
G18 G3 X5.977 Z0.05 I-0.0154 K0.
G1 X5.9693
G17 G3 X5.9575 Y2.9623 I0. J-0.0118
X6.0048 Z0. I0.0237 J0.
X5.9866 Y2.9853 Z-0.0212 I-0.0237 J0.
X5.9756 Y2.9393 Z-0.0713 I-0.0055 J-0.023
X5.9866 Y2.9853 Z-0.1213 I0.0055 J0.023
X5.9756 Y2.9393 Z-0.1713 I-0.0055 J-0.023
X5.9866 Y2.9853 Z-0.2213 I0.0055 J0.023
X5.9672 Y2.9814 Z-0.235 I-0.0055 J-0.023
X5.995 Y2.9431 I0.0139 J-0.0191
X5.9672 Y2.9814 I-0.0139 J0.0191
X5.9646 Y2.9649 I0.007 J-0.0096
G1 X5.9691 Y2.9587
X5.9709 Y2.9562 Z-0.2347
X5.9726 Y2.9539 Z-0.2338
X5.9741 Y2.9518 Z-0.2324
X5.9755 Y2.9499 Z-0.2305
X5.9766 Y2.9483 Z-0.2282
X5.9775 Y2.9472 Z-0.2255
X5.978 Y2.9465 Z-0.2226
X5.9782 Y2.9462 Z-0.2196
G0 Z0.4
X4.9894 Y2.9741
Z0.13
G1 Z0.0654 F40.
G18 G3 X4.974 Z0.05 I-0.0154 K0.
G1 X4.9663
G17 G3 X4.9545 Y2.9623 I0. J-0.0118
X5.0018 Z0. I0.0237 J0.
X4.9836 Y2.9853 Z-0.0212 I-0.0237 J0.
X4.9726 Y2.9393 Z-0.0713 I-0.0055 J-0.023
X4.9836 Y2.9853 Z-0.1213 I0.0055 J0.023
X4.9726 Y2.9393 Z-0.1713 I-0.0055 J-0.023
X4.9836 Y2.9853 Z-0.2213 I0.0055 J0.023
X4.9642 Y2.9814 Z-0.235 I-0.0055 J-0.023
X4.992 Y2.9431 I0.0139 J-0.0191
X4.9642 Y2.9814 I-0.0139 J0.0191
X4.9616 Y2.9649 I0.007 J-0.0096
G1 X4.9661 Y2.9587
X4.9679 Y2.9562 Z-0.2347
X4.9696 Y2.9539 Z-0.2338
X4.9711 Y2.9518 Z-0.2324
X4.9725 Y2.9499 Z-0.2305
X4.9736 Y2.9483 Z-0.2282
X4.9745 Y2.9472 Z-0.2255
X4.975 Y2.9465 Z-0.2226
X4.9752 Y2.9462 Z-0.2196
G0 Z0.4
X0.7625 Y0.7631
Z0.13
G1 Z0.0654 F40.
G18 G3 X0.7472 Z0.05 I-0.0154 K0.
G1 X0.7395
G17 G3 X0.7277 Y0.7513 I0. J-0.0118
X0.775 Z0. I0.0236 J0.
X0.7277 Z-0.05 I-0.0236 J0.
X0.775 Z-0.1 I0.0236 J0.
X0.7277 Z-0.15 I-0.0237 J0.
X0.775 Z-0.2 I0.0237 J0.
X0.7374 Y0.7704 Z-0.235 I-0.0237 J0.
X0.7652 Y0.7322 I0.0139 J-0.0191
X0.7374 Y0.7704 I-0.0139 J0.0191
X0.7348 Y0.7539 I0.007 J-0.0096
G1 X0.7393 Y0.7477
X0.7411 Y0.7453 Z-0.2347
X0.7428 Y0.7429 Z-0.2338
X0.7443 Y0.7408 Z-0.2324
X0.7457 Y0.7389 Z-0.2305
X0.7468 Y0.7374 Z-0.2282
X0.7476 Y0.7362 Z-0.2255
X0.7482 Y0.7355 Z-0.2226
X0.7483 Y0.7353 Z-0.2196
G0 Z0.4
X0.9811 Y0.4148
Z0.1146
G1 Z0.05 F40.
X0.9734
G3 X0.9652 Y0.4066 I0. J-0.0082
X0.998 Z0. I0.0164 J0.
X0.9652 Z-0.05 I-0.0164 J0.
X0.998 Z-0.1 I0.0164 J0.
X0.9652 Z-0.15 I-0.0164 J0.
X0.998 Z-0.2 I0.0164 J0.
X0.972 Y0.4199 Z-0.235 I-0.0164 J0.
X0.9913 Y0.3933 I0.0096 J-0.0133
X0.972 Y0.4199 I-0.0096 J0.0133
X0.9702 Y0.4084 I0.0048 J-0.0066
G1 X0.9747 Y0.4022
G0 Z0.4
X0.9811 Y-0.3984
Z0.1146
G1 Z0.05 F40.
X0.9734
G3 X0.9652 Y-0.4066 I0. J-0.0082
X0.998 Z0. I0.0164 J0.
X0.9652 Z-0.05 I-0.0164 J0.
X0.998 Z-0.1 I0.0164 J0.
X0.9652 Z-0.15 I-0.0164 J0.
X0.998 Z-0.2 I0.0164 J0.
X0.972 Y-0.3933 Z-0.235 I-0.0164 J0.
X0.9913 Y-0.4199 I0.0096 J-0.0133
X0.972 Y-0.3933 I-0.0096 J0.0133
X0.9702 Y-0.4048 I0.0048 J-0.0066
G1 X0.9747 Y-0.411
G0 Z0.4
X0.7625 Y-0.7395
Z0.13
G1 Z0.0654 F40.
G18 G3 X0.7472 Z0.05 I-0.0154 K0.
G1 X0.7395
G17 G3 X0.7277 Y-0.7513 I0. J-0.0118
X0.775 Z0. I0.0236 J0.
X0.7277 Z-0.05 I-0.0236 J0.
X0.775 Z-0.1 I0.0236 J0.
X0.7277 Z-0.15 I-0.0237 J0.
X0.775 Z-0.2 I0.0237 J0.
X0.7374 Y-0.7322 Z-0.235 I-0.0237 J0.
X0.7652 Y-0.7704 I0.0139 J-0.0191
X0.7374 Y-0.7322 I-0.0139 J0.0191
X0.7348 Y-0.7487 I0.007 J-0.0096
G1 X0.7393 Y-0.7549
X0.7411 Y-0.7573 Z-0.2347
X0.7428 Y-0.7597 Z-0.2338
X0.7443 Y-0.7618 Z-0.2324
X0.7457 Y-0.7637 Z-0.2305
X0.7468 Y-0.7652 Z-0.2282
X0.7476 Y-0.7664 Z-0.2255
X0.7482 Y-0.7671 Z-0.2226
X0.7483 Y-0.7673 Z-0.2196
G0 Z0.4
X7.7591 Y-4.3677
Z0.13
G1 Z0.0654 F40.
G18 G3 X7.7437 Z0.05 I-0.0154 K0.
G1 X7.736
G17 G3 X7.7242 Y-4.3796 I0. J-0.0118
X7.7715 Z0. I0.0236 J0.
X7.7242 Z-0.05 I-0.0236 J0.
X7.7689 Y-4.3903 Z-0.0925 I0.0236 J0.
X7.7268 Y-4.3688 Z-0.1425 I-0.0211 J0.0107
X7.7325 Y-4.3975 Z-0.1637 I0.0211 J-0.0107
X7.7632 Y-4.3616 Z-0.2138 I0.0154 J0.018
X7.734 Y-4.3604 Z-0.235 I-0.0154 J-0.018
X7.7618 Y-4.3987 I0.0139 J-0.0191
X7.734 Y-4.3604 I-0.0139 J0.0191
X7.7314 Y-4.3769 I0.007 J-0.0096
G1 X7.7359 Y-4.3832
X7.7376 Y-4.3856 Z-0.2347
X7.7393 Y-4.3879 Z-0.2338
X7.7409 Y-4.3901 Z-0.2324
X7.7423 Y-4.392 Z-0.2305
X7.7434 Y-4.3935 Z-0.2282
X7.7442 Y-4.3946 Z-0.2255
X7.7447 Y-4.3954 Z-0.2226
X7.7449 Y-4.3956 Z-0.2196
G0 Z0.6
(.3 CIRCULAR THROUGH HOLE)
M7
G0 X4.0346 Y4.0618
Z0.6
Z0.2
G1 Z0.1148 F13.333
G3 X4.0353 Y4.0606 Z0.1084 I0.0382 J0.0238 F55.
X4.0378 Y4.0574 Z0.1031 I0.0374 J0.025
X4.0418 Y4.053 Z0.1 I0.035 J0.0283
X4.1037 Y4.1183 Z0.0621 I0.031 J0.0326
X4.0418 Y4.053 Z0.0242 I-0.031 J-0.0326
X4.1037 Y4.1183 Z-0.0136 I0.031 J0.0326
X4.0418 Y4.053 Z-0.0515 I-0.031 J-0.0326
X4.1037 Y4.1183 Z-0.0894 I0.031 J0.0326
X4.0277 Y4.0857 Z-0.1175 I-0.031 J-0.0326
X4.0315 I0.0019 J0. F60.
X3.9277 I-0.0519 J0.
X4.1315 I0.1019 J0.
X3.8277 I-0.1519 J0.
X4.2315 I0.2019 J0.
X3.7277 I-0.2519 J0.
X4.2315 I0.2519 J0.
G2 X4.2728 Y4.1535 I0.0763 J0.
G3 X4.2991 Y4.2284 I-0.0265 J0.0514
X3.6297 Y4.0857 I-0.3195 J-0.1428
X4.3295 I0.3499 J0.
X4.2991 Y4.2284 I-0.3499 J0.
X4.2887 Y4.2322 I-0.007 J-0.0031
G1 X4.1119 Y4.1452
G3 X4.1074 Y4.139 I0.0031 J-0.007
G1 X4.1005 Y4.0747
G3 X4.1155 Y4.0715 I0.0076 J-0.0008
X4.03 Y4.0998 Z-0.1554 I-0.0427 J0.0142 F55.
X4.1155 Y4.0715 Z-0.1933 I0.0427 J-0.0142
X4.03 Y4.0998 Z-0.2311 I-0.0427 J0.0142
X4.0277 Y4.0857 Z-0.235 I0.0427 J-0.0142
X4.0315 I0.0019 J0. F60.
X3.9277 I-0.0519 J0.
X4.1315 I0.1019 J0.
X3.8277 I-0.1519 J0.
X4.2315 I0.2019 J0.
X3.7277 I-0.2519 J0.
X4.2315 I0.2519 J0.
G2 X4.2728 Y4.1535 I0.0763 J0.
G3 X4.2991 Y4.2284 I-0.0265 J0.0514
X3.6297 Y4.0857 I-0.3195 J-0.1428
X4.3295 I0.3499 J0.
X4.2991 Y4.2284 I-0.3499 J0.
G2 X4.3005 Y4.2372 I0.0074 J0.0033
G3 X4.3018 Y4.246 I-0.0058 J0.0053
X3.6197 Y4.0857 I-0.3222 J-0.1604
X4.3395 I0.3599 J0.
X4.3018 Y4.246 I-0.3599 J0.
X4.2983 Y4.2507 Z-0.2338 I-0.0138 J-0.0068
X4.2941 Y4.2533 Z-0.2305 I-0.0102 J-0.0115
X4.2909 Y4.2543 Z-0.2255 I-0.006 J-0.0141
X4.2897 Y4.2545 Z-0.2196 I-0.0028 J-0.0151
G0 Z0.4
X7.0346 Y4.0618
Z0.2
G1 Z0.1148 F13.333
G3 X7.0354 Y4.0606 Z0.1084 I0.0382 J0.0238 F55.
X7.0378 Y4.0574 Z0.1031 I0.0374 J0.025
X7.0418 Y4.053 Z0.1 I0.035 J0.0283
X7.1037 Y4.1183 Z0.0621 I0.031 J0.0326
X7.0418 Y4.053 Z0.0242 I-0.031 J-0.0326
X7.1037 Y4.1183 Z-0.0136 I0.031 J0.0326
X7.0418 Y4.053 Z-0.0515 I-0.031 J-0.0326
X7.1037 Y4.1183 Z-0.0894 I0.031 J0.0326
X7.0277 Y4.0857 Z-0.1175 I-0.031 J-0.0326
X7.0315 I0.0019 J0. F60.
X6.9277 I-0.0519 J0.
X7.1315 I0.1019 J0.
X6.8277 I-0.1519 J0.
X7.2315 I0.2019 J0.
X6.7277 I-0.2519 J0.
X7.2315 I0.2519 J0.
G2 X7.2728 Y4.1535 I0.0763 J0.
G3 X7.2991 Y4.2284 I-0.0265 J0.0514
X6.6297 Y4.0857 I-0.3195 J-0.1428
X7.3295 I0.3499 J0.
X7.2991 Y4.2284 I-0.3499 J0.
X7.2887 Y4.2322 I-0.007 J-0.0031
G1 X7.1119 Y4.1452
G3 X7.1074 Y4.139 I0.0031 J-0.007
G1 X7.1005 Y4.0747
G3 X7.1155 Y4.0715 I0.0076 J-0.0008
X7.03 Y4.0998 Z-0.1554 I-0.0427 J0.0142 F55.
X7.1155 Y4.0715 Z-0.1933 I0.0427 J-0.0142
X7.03 Y4.0998 Z-0.2311 I-0.0427 J0.0142
X7.0277 Y4.0857 Z-0.235 I0.0427 J-0.0142
X7.0315 I0.0019 J0. F60.
X6.9277 I-0.0519 J0.
X7.1315 I0.1019 J0.
X6.8277 I-0.1519 J0.
X7.2315 I0.2019 J0.
X6.7277 I-0.2519 J0.
X7.2315 I0.2519 J0.
G2 X7.2728 Y4.1535 I0.0763 J0.
G3 X7.2991 Y4.2284 I-0.0265 J0.0514
X6.6297 Y4.0857 I-0.3195 J-0.1428
X7.3295 I0.3499 J0.
X7.2991 Y4.2284 I-0.3499 J0.
G2 X7.3005 Y4.2372 I0.0074 J0.0033
G3 X7.3018 Y4.2461 I-0.0058 J0.0053
X6.6197 Y4.0857 I-0.3222 J-0.1604
X7.3395 I0.3599 J0.
X7.3018 Y4.2461 I-0.3599 J0.
X7.2983 Y4.2507 Z-0.2338 I-0.0138 J-0.0069
X7.2941 Y4.2533 Z-0.2305 I-0.0102 J-0.0115
X7.2909 Y4.2543 Z-0.2255 I-0.006 J-0.0141
X7.2897 Y4.2545 Z-0.2196 I-0.0028 J-0.0151
G0 Z0.4
X0.0187 Y-0.0238
Z0.2
G1 Z0.1148 F13.333
G3 X0.0195 Y-0.025 Z0.1084 I0.0382 J0.0238 F55.
X0.0219 Y-0.0283 Z0.1031 I0.0374 J0.025
X0.0259 Y-0.0326 Z0.1 I0.035 J0.0283
X0.0878 Y0.0326 Z0.0621 I0.031 J0.0326
X0.0259 Y-0.0326 Z0.0242 I-0.031 J-0.0326
X0.0878 Y0.0326 Z-0.0136 I0.031 J0.0326
X0.0259 Y-0.0326 Z-0.0515 I-0.031 J-0.0326
X0.0878 Y0.0326 Z-0.0894 I0.031 J0.0326
X0.0118 Y0. Z-0.1175 I-0.031 J-0.0326
X0.0882 I0.0381 J0. F60.
X-0.0882 I-0.0882 J0.
X0.1881 I0.1382 J0.
X-0.1881 I-0.1881 J0.
X0.2881 I0.2381 J0.
X-0.2881 I-0.2881 J0.
X0.3881 I0.3381 J0.
X-0.3881 I-0.3881 J0.
X0.4881 I0.4381 J0.
X-0.4881 I-0.4881 J0.
X0.5881 I0.5381 J0.
X-0.5881 I-0.5881 J0.
X0.6881 I0.6381 J0.
X-0.6881 I-0.6881 J0.
X0.7882 I0.7381 J0.
X-0.7882 I-0.7882 J0.
X0.7882 I0.7882 J0.
X0.7432 Y0.045 Z-0.1275 I-0.045 J0. F55.
G1 X0.0568 Z-0.225
G3 X0.0118 Y0. Z-0.235 I0. J-0.045
X0.0882 I0.0381 J0. F60.
X-0.0882 I-0.0882 J0.
X0.1881 I0.1382 J0.
X-0.1881 I-0.1881 J0.
X0.2881 I0.2381 J0.
X-0.2881 I-0.2881 J0.
X0.3881 I0.3381 J0.
X-0.3881 I-0.3881 J0.
X0.4881 I0.4381 J0.
X-0.4881 I-0.4881 J0.
X0.5881 I0.5381 J0.
X-0.5881 I-0.5881 J0.
X0.6881 I0.6381 J0.
X-0.6881 I-0.6881 J0.
X0.7882 I0.7381 J0.
X-0.7882 I-0.7882 J0.
X0.7982 I0.7932 J0.
X-0.7982 I-0.7982 J0.
X0.7982 I0.7982 J0.
X0.797 Y0.0057 Z-0.2338 I-0.0154 J0.
X0.7945 Y0.01 Z-0.2305 I-0.0143 J-0.0057
X0.792 Y0.0123 Z-0.2255 I-0.0117 J-0.01
X0.7911 Y0.0129 Z-0.2196 I-0.0093 J-0.0123
G0 Z0.6
(SHAPE THROUGH HOLE)
M7
G0 X1.7004 Y-1.2239
Z0.6
Z0.1
G3 X1.6279 Y-1.3507 Z0.0596 I-0.0362 J-0.0634 F50.
X1.7004 Y-1.2239 Z0.0191 I0.0362 J0.0634
X1.6279 Y-1.3507 Z-0.0213 I-0.0362 J-0.0634
X1.7004 Y-1.2239 Z-0.0618 I0.0362 J0.0634
X1.6279 Y-1.3507 Z-0.1022 I-0.0362 J-0.0634
X1.7004 Y-1.2239 Z-0.1427 I0.0362 J0.0634
X1.6279 Y-1.3507 Z-0.1831 I-0.0362 J-0.0634
X1.7372 Y-1.2873 Z-0.21 I0.0362 J0.0634
X1.5911 I-0.073 J0.
X1.7369 Y-1.2932 I0.073 J0.
G1 X1.7372 Y-1.2873
G3 X1.7509 Y-1.213 I-0.0396 J0.0458 F60.
G1 X1.711 Y-1.2049
X1.6642 Y-1.195
X1.6173 Y-1.1857
G3 X1.5313 Y-1.3647 I0.0015 J-0.111
G2 X1.7004 Y-1.3988 I-1.061 J-5.7074
G3 X1.8377 Y-1.2306 I-0.0087 J0.1472
G1 X1.7509 Y-1.213
G3 X1.7365 Y-1.2184 I-0.0025 J-0.0152
X1.7558 Y-1.2643 I0.0217 J-0.0179
X1.8128 Y-1.2464 I0.0067 J0.0785
X1.8233 Y-1.2359 I-0.0503 J0.0606 F50.
G2 X1.8377 Y-1.2306 I0.0119 J-0.0098
G1 X1.8568 Y-1.2344 F60.
G2 X1.8457 Y-1.4277 I-0.0693 J-0.093
G1 X1.8046 Y-1.4199
X1.7004 Y-1.3988
G2 X1.6893 Y-1.3882 I0.0036 J0.015
X1.7335 Y-1.3347 I0.04 J0.012
X1.8292 Y-1.4035 I-0.0118 J-0.1175
X1.8345 Y-1.4174 I-0.1076 J-0.0487 F50.
G3 X1.8458 Y-1.4278 I0.0147 J0.0045
G1 X1.8514 Y-1.4289 F60.
X1.8748 Y-1.434
G3 X1.9768 Y-1.2579 I-0.0083 J0.1224
G1 X1.945 Y-1.2525
X1.8982 Y-1.2426
X1.8568 Y-1.2344
G3 X1.8424 Y-1.2399 I-0.0025 J-0.0152
X1.8437 Y-1.2688 I0.0169 J-0.0138
X1.9504 Y-1.2745 I0.0565 J0.0549
X1.9609 Y-1.264 I-0.0503 J0.0606 F50.
G2 X1.9753 Y-1.2587 I0.0119 J-0.0098
G1 X1.9989 Y-1.2635 F60.
G2 X2.0082 Y-1.4617 I-0.0575 J-0.102
G1 X1.8982 Y-1.4391
X1.8748 Y-1.434
G2 X1.8707 Y-1.4059 I0.0038 J0.0149
X1.9004 Y-1.3981 I0.0284 J-0.0478
X1.9873 Y-1.4392 I-0.0026 J-0.1181
X1.9984 Y-1.4544 I-0.0896 J-0.077 F50.
G3 X2.0079 Y-1.4613 I0.0131 J0.008
G1 X2.032 Y-1.4662 F60.
G3 X2.1275 Y-1.2888 I-0.0065 J0.1179
G1 X2.0854 Y-1.281
X1.9989 Y-1.2635
G3 X1.9845 Y-1.2688 I-0.0025 J-0.0152
X1.9832 Y-1.2842 I0.0104 J-0.0086
X2.102 Y-1.3052 I0.0682 J0.0393
X2.1125 Y-1.2946 I-0.0506 J0.0603 F50.
G2 X2.1268 Y-1.2892 I0.0119 J-0.0097
G1 X2.1322 Y-1.2903 F60.
X2.1556 Y-1.2952
G2 X2.1659 Y-1.4944 I-0.0619 J-0.1031
G3 X2.032 Y-1.4662 I-0.6373 J-2.6968
G2 X2.0207 Y-1.4477 I0.0036 J0.0149
X2.0386 Y-1.4314 I0.0209 J-0.005
X2.1446 Y-1.4713 I0.0165 J-0.117
X2.1557 Y-1.4865 I-0.0895 J-0.077 F50.
G3 X2.1652 Y-1.4934 I0.0131 J0.008
G1 X2.179 Y-1.4962 F60.
X2.1919 Y-1.4989
G3 X2.2837 Y-1.3217 I-0.0121 J0.1187
G1 X2.2727 Y-1.3192
X2.179 Y-1.3002
X2.1556 Y-1.2952
G3 X2.1378 Y-1.3077 I-0.0027 J-0.0151
X2.1439 Y-1.3218 I0.0138 J-0.0024
X2.2548 Y-1.3325 I0.0654 J0.0983
X2.2715 Y-1.3239 I-0.0454 J0.109 F50.
G2 X2.2831 Y-1.322 I0.0081 J-0.0131
G1 X2.3117 Y-1.3298 F60.
X2.3188 Y-1.3348
X2.3256 Y-1.3402
X2.332 Y-1.3462
X2.3379 Y-1.3525
X2.3434 Y-1.3593
X2.3484 Y-1.3664
X2.3529 Y-1.3739
X2.3568 Y-1.3817
X2.3602 Y-1.3897
X2.3631 Y-1.3979
X2.3653 Y-1.4063
X2.3669 Y-1.4149
X2.368 Y-1.4235
X2.3684 Y-1.4322
X2.3682 Y-1.441
X2.3674 Y-1.4496
X2.366 Y-1.4582
X2.364 Y-1.4667
X2.3614 Y-1.475
X2.3582 Y-1.4831
X2.3545 Y-1.491
X2.3502 Y-1.4986
X2.3454 Y-1.5058
X2.3401 Y-1.5128
X2.3344 Y-1.5193
X2.3281 Y-1.5254
X2.3215 Y-1.531
X2.3145 Y-1.5362
X2.3072 Y-1.5409
X2.2727 Y-1.5208
X2.2259 Y-1.5059
X2.1919 Y-1.4989
G2 X2.1808 Y-1.4883 I0.0036 J0.0149
X2.2063 Y-1.4473 I0.031 J0.0091
X2.2972 Y-1.5108 I0.0134 J-0.0776
X2.2985 Y-1.5256 I-0.0775 J-0.0141 F50.
G3 X2.306 Y-1.5389 I0.0154 J-0.0001
G1 X2.3195 Y-1.5462 F60.
X2.3228 Y-1.5481
G3 X2.4482 Y-1.3979 I0.0139 J0.1158
X2.3117 Y-1.3298 I-0.437 J-0.705
X2.297 Y-1.3342 I-0.0035 J-0.015
X2.3049 Y-1.3989 I0.0308 J-0.029
X2.4199 Y-1.4059 I0.0638 J0.0994
X2.4328 Y-1.3987 I-0.0512 J0.1064 F50.
G2 X2.4482 Y-1.3979 I0.0083 J-0.0129
G1 X2.4599 Y-1.4044 F60.
X2.4718 Y-1.4109
G2 X2.4343 Y-1.6103 I-0.0806 J-0.0881
G3 X2.3228 Y-1.5481 I-9.3427 J-16.6034
G2 X2.3154 Y-1.5346 I0.0079 J0.0132
X2.3285 Y-1.5181 I0.0174 J-0.0003
X2.4253 Y-1.5811 I0.0192 J-0.0764
X2.4265 Y-1.5958 I-0.0776 J-0.0134 F50.
G3 X2.4339 Y-1.6093 I0.0154 J-0.0003
G1 X2.4568 Y-1.6221 F60.
G3 X2.5931 Y-1.4766 I0.0218 J0.1162
G2 X2.4718 Y-1.4109 I1.474 J2.8649
G3 X2.4503 Y-1.4295 I-0.0069 J-0.0138
X2.472 Y-1.4594 I0.0582 J0.0194
X2.5624 Y-1.4808 I0.0702 J0.095
X2.5806 Y-1.4761 I-0.0201 J0.1164 F50.
G2 X2.5924 Y-1.4768 I0.005 J-0.0145
G1 X2.6003 Y-1.4811 F60.
X2.6159 Y-1.4899
G2 X2.5711 Y-1.6861 I-0.0846 J-0.0839
G3 X2.4568 Y-1.6221 I-1.4366 J-2.4292
G2 X2.4494 Y-1.6086 I0.008 J0.0131
X2.4597 Y-1.5947 I0.015 J-0.0003
X2.5625 Y-1.6569 I0.0251 J-0.0746
X2.5635 Y-1.6716 I-0.0777 J-0.0125 F50.
G3 X2.5708 Y-1.6852 I0.0154 J-0.0005
G1 X2.594 Y-1.6984 F60.
G3 X2.7337 Y-1.5545 I0.0239 J0.1166
G2 X2.6159 Y-1.4899 I1.5167 J2.9028
G3 X2.5942 Y-1.5082 I-0.0071 J-0.0136
X2.6179 Y-1.5399 I0.0572 J0.0181
X2.7028 Y-1.5584 I0.0658 J0.0981
X2.7211 Y-1.5539 I-0.019 J0.1166 F50.
G2 X2.7328 Y-1.5547 I0.0049 J-0.0146
G1 X2.7407 Y-1.559 F60.
X2.7577 Y-1.5685
G2 X2.7108 Y-1.7629 I-0.0878 J-0.0817
G3 X2.594 Y-1.6984 I-2.179 J-3.8097
G2 X2.5867 Y-1.6849 I0.0081 J0.0131
X2.5929 Y-1.6757 I0.0103 J-0.0003
G1 X2.5958 Y-1.6746
G2 X2.7015 Y-1.7338 I0.0282 J-0.0735
X2.7028 Y-1.7485 I-0.0774 J-0.0143 F50.
G3 X2.7104 Y-1.7619 I0.0154 J-0.0001
G1 X2.7342 Y-1.7748 F60.
G3 X2.8734 Y-1.6315 I0.0231 J0.1168
G1 X2.8344 Y-1.6105
X2.7876 Y-1.585
X2.7577 Y-1.5685
G3 X2.7424 Y-1.5693 I-0.007 J-0.0137
X2.7372 Y-1.5817 I0.0065 J-0.0101
X2.844 Y-1.6393 I0.0772 J0.0153
X2.8571 Y-1.6325 I-0.0296 J0.073 F50.
G2 X2.8725 Y-1.6317 I0.0083 J-0.0129
G1 X2.8812 Y-1.6365 F60.
X2.8968 Y-1.645
G2 X2.8498 Y-1.8392 I-0.0868 J-0.0818
G3 X2.7342 Y-1.7748 I-13.4407 J-23.9876
G2 X2.7266 Y-1.7614 I0.0078 J0.0133
X2.7345 Y-1.75 I0.0124 J-0.0001
X2.8409 Y-1.81 I0.0288 J-0.0733
X2.842 Y-1.8247 I-0.0776 J-0.0133 F50.
G3 X2.8495 Y-1.8382 I0.0154 J-0.0003
G1 X2.8701 Y-1.8497 F60.
G3 X3.0123 Y-1.7078 I0.0281 J0.114
G1 X2.9748 Y-1.688
X2.928 Y-1.662
X2.8968 Y-1.645
G3 X2.8814 Y-1.6459 I-0.0069 J-0.0138
X2.8757 Y-1.6588 I0.0072 J-0.0109
G1 X2.8774 Y-1.6655
X2.8796 Y-1.6721
X2.8825 Y-1.6785
X2.8859 Y-1.6846
X2.8898 Y-1.6903
X2.8942 Y-1.6957
X2.899 Y-1.7007
X2.9043 Y-1.7052
X2.91 Y-1.7093
X2.916 Y-1.7128
X2.9223 Y-1.7158
X2.9288 Y-1.7182
X2.9355 Y-1.7201
X2.9424 Y-1.7213
X2.9493 Y-1.7219
X2.9563 Y-1.722
X2.9632 Y-1.7214
X2.9701 Y-1.7201
X2.9768 Y-1.7183
X2.9833 Y-1.7159
G3 X2.9964 Y-1.7089 I-0.0304 J0.0726 F50.
G2 X3.0117 Y-1.708 I0.0085 J-0.0128
G1 X3.0216 Y-1.7133 F60.
X3.0372 Y-1.722
G2 X2.9892 Y-1.9159 I-0.0888 J-0.0809
G3 X2.8701 Y-1.8497 I-2.0182 J-3.4881
G2 X2.8744 Y-1.8216 I0.0079 J0.0132
X2.9036 Y-1.8226 I0.0128 J-0.0519
X2.9756 Y-1.8877 I-0.0362 J-0.1124
X2.9817 Y-1.9054 I-0.1082 J-0.0474 F50.
G3 X2.9888 Y-1.9148 I0.0149 J0.0039
G1 X3.0146 Y-1.9288 F60.
G3 X3.1525 Y-1.7847 I0.0205 J0.1185
G2 X3.0372 Y-1.722 I5.7796 J10.7589
G3 X3.0219 Y-1.7228 I-0.007 J-0.0137
X3.0168 Y-1.7347 I0.0062 J-0.0097
G1 X3.017 Y-1.7357
G3 X3.1228 Y-1.7923 I0.0769 J0.0168
X3.136 Y-1.7856 I-0.0288 J0.0733 F50.
G2 X3.1513 Y-1.785 I0.0082 J-0.013
G1 X3.162 Y-1.7911 F60.
X3.1736 Y-1.7975
G2 X3.1279 Y-1.9927 I-0.0843 J-0.0832
G3 X3.0146 Y-1.9288 I-3.7306 J-6.4902
G2 X3.007 Y-1.9155 I0.0078 J0.0132
X3.0149 Y-1.9044 I0.0119 J-0.0001
X3.1187 Y-1.9639 I0.0264 J-0.0742
X3.12 Y-1.9787 I-0.0774 J-0.0146 F50.
G3 X3.1277 Y-1.992 I0.0154 J0.
G1 X3.1506 Y-2.0043 F60.
G3 X3.2909 Y-1.8616 I0.0249 J0.1158
G2 X3.1736 Y-1.7975 I2.8473 J5.3568
G3 X3.1519 Y-1.8159 I-0.007 J-0.0137
X3.171 Y-1.8429 I0.052 J0.0166
X3.2601 Y-1.8652 I0.071 J0.0944
X3.2784 Y-1.8608 I-0.018 J0.1167 F50.
G2 X3.2901 Y-1.8618 I0.0047 J-0.0146
G1 X3.3024 Y-1.8686 F60.
X3.311 Y-1.8733
G2 X3.2673 Y-2.0688 I-0.0814 J-0.0845
G1 X3.1506 Y-2.0043
G2 X3.1429 Y-1.991 I0.0077 J0.0133
X3.1495 Y-1.981 I0.0109 J0.
G1 X3.1516 Y-1.9801
G2 X3.2586 Y-2.04 I0.0294 J-0.0731
X3.2597 Y-2.0548 I-0.0776 J-0.0132 F50.
G3 X3.2671 Y-2.0682 I0.0154 J-0.0003
G1 X3.2893 Y-2.0806 F60.
G3 X3.4299 Y-1.9379 I0.0257 J0.1154
G1 X3.3961 Y-1.9201
X3.3538 Y-1.8965
X3.311 Y-1.8733
G3 X3.2904 Y-1.8802 I-0.0069 J-0.0138
X3.2945 Y-1.9069 I0.021 J-0.0105
X3.3992 Y-1.9418 I0.0854 J0.0816
X3.4175 Y-1.9372 I-0.0194 J0.1165 F50.
G2 X3.4292 Y-1.938 I0.0049 J-0.0146
G1 X3.4429 Y-1.9454 F60.
X3.4515 Y-1.9502
G2 X3.4065 Y-2.1456 I-0.0836 J-0.0837
G3 X3.2893 Y-2.0806 I-2.0836 J-3.6196
G2 X3.2935 Y-2.0525 I0.008 J0.0131
X3.3239 Y-2.054 I0.0127 J-0.0519
X3.393 Y-2.1178 I-0.039 J-0.1115
X3.3992 Y-2.1356 I-0.1081 J-0.0477 F50.
G3 X3.4063 Y-2.1449 I0.0149 J0.0039
G1 X3.4307 Y-2.1581 F60.
G3 X3.5695 Y-2.0146 I0.0226 J0.1171
G2 X3.4515 Y-1.9502 I8.5163 J15.7579
G3 X3.4308 Y-1.9569 I-0.007 J-0.0137
X3.4337 Y-1.9797 I0.0181 J-0.0093
X3.5385 Y-2.0179 I0.088 J0.0787
X3.5569 Y-2.0137 I-0.0168 J0.1169 F50.
G2 X3.5686 Y-2.0148 I0.0046 J-0.0147
G1 X3.5833 Y-2.0232 F60.
X3.59 Y-2.027
G2 X3.5447 Y-2.2228 I-0.083 J-0.084
G3 X3.4307 Y-2.1581 I-1.8416 J-3.1125
G2 X3.4346 Y-2.13 I0.0078 J0.0133
X3.4506 Y-2.1298 I0.0084 J-0.0322
X3.5308 Y-2.1954 I-0.0271 J-0.115
X3.5373 Y-2.213 I-0.1073 J-0.0494 F50.
G3 X3.5446 Y-2.2223 I0.0148 J0.0041
G1 X3.549 Y-2.2246 F60.
X3.5713 Y-2.2363
X3.58 Y-2.2374
X3.5886 Y-2.2379
X3.5973 Y-2.2377
X3.606 Y-2.237
X3.6146 Y-2.2356
X3.623 Y-2.2335
X3.6313 Y-2.2309
X3.6394 Y-2.2277
X3.6472 Y-2.2239
X3.6547 Y-2.2196
X3.6619 Y-2.2147
X3.6688 Y-2.2094
X3.6752 Y-2.2035
X3.6812 Y-2.1972
X3.6867 Y-2.1905
X3.6918 Y-2.1835
X3.6963 Y-2.176
X3.7002 Y-2.1683
X3.7036 Y-2.1603
X3.7065 Y-2.1521
X3.7087 Y-2.1437
X3.7103 Y-2.1351
X3.7113 Y-2.1265
X3.7116 Y-2.1178
X3.7114 Y-2.1091
X3.7105 Y-2.1005
X3.709 Y-2.0919
G2 X3.59 Y-2.027 I0.9601 J1.9024
G3 X3.5692 Y-2.0334 I-0.0072 J-0.0136
X3.5718 Y-2.0561 I0.0178 J-0.0094
X3.6777 Y-2.0953 I0.089 J0.0777
X3.696 Y-2.0911 I-0.0169 J0.1169 F50.
G2 X3.7078 Y-2.0922 I0.0046 J-0.0147
G1 X3.7237 Y-2.1013 F60.
X3.7323 Y-2.1059
G2 X3.6858 Y-2.2993 I-0.0877 J-0.0812
X3.5713 Y-2.2363 I2.4213 J4.536
X3.5656 Y-2.2154 I0.0076 J0.0133
X3.5808 Y-2.2078 I0.0132 J-0.0075
X3.6709 Y-2.2721 I-0.0156 J-0.1171
X3.6779 Y-2.2895 I-0.1056 J-0.0529 F50.
G3 X3.6855 Y-2.2985 I0.0147 J0.0046
G1 X3.711 Y-2.3107 F60.
G3 X3.8433 Y-2.2176 I0.023 J0.1079
X3.8201 Y-2.2096 I-0.0146 J-0.0047
G1 X3.818 Y-2.211
X3.7095 Y-2.2844
G3 X3.711 Y-2.3107 I0.0086 J-0.0127 F50.
X3.8399 Y-2.2523 I0.0378 J0.088 F60.
X3.77 Y-2.1292 I-0.0911 J0.0296
G1 X3.7323 Y-2.1059
G3 X3.71 Y-2.1193 I-0.0069 J-0.0137
G1 Y-2.1223 Z-0.2097
X3.7099 Y-2.1252 Z-0.2088
X3.7098 Y-2.1279 Z-0.2074
Y-2.1302 Z-0.2055
X3.7097 Y-2.1321 Z-0.2032
Y-2.1335 Z-0.2005
Y-2.1344 Z-0.1976
Y-2.1347 Z-0.1946
G0 Z-0.1793
X1.6561 Y-1.2104
G1 Z-0.1946 F50.
X1.6559 Y-1.2102 Z-0.1976
X1.6552 Y-1.2096 Z-0.2005
X1.6542 Y-1.2087 Z-0.2032
X1.6528 Y-1.2074 Z-0.2055
X1.651 Y-1.2058 Z-0.2074
X1.6491 Y-1.204 Z-0.2088
X1.6469 Y-1.2021 Z-0.2097
X1.6447 Y-1.2001 Z-0.21
G3 X1.6173 Y-1.1857 I-0.0418 J-0.0462
G1 X1.5705 Y-1.1763 F60.
X1.5401 Y-1.1713
G3 X1.4309 Y-1.2649 I0.0018 J-0.1125
X1.4532 Y-1.2783 I0.0154 J0.0004
G1 X1.4558 Y-1.2769 Z-0.2097
X1.4584 Y-1.2756 Z-0.2088
X1.4608 Y-1.2744 Z-0.2074
X1.4629 Y-1.2734 Z-0.2055
X1.4646 Y-1.2725 Z-0.2032
X1.4659 Y-1.2719 Z-0.2005
X1.4666 Y-1.2715 Z-0.1976
X1.4669 Y-1.2714 Z-0.1946
G0 Z0.4
X1.5771 Y-1.3566
Z-0.1793
G1 Z-0.1946 F50.
X1.5768 Y-1.3567 Z-0.1976
X1.576 Y-1.357 Z-0.2005
X1.5746 Y-1.3575 Z-0.2032
X1.5728 Y-1.3581 Z-0.2055
X1.5706 Y-1.3589 Z-0.2074
X1.5681 Y-1.3598 Z-0.2088
X1.5654 Y-1.3607 Z-0.2097
X1.5626 Y-1.3617 Z-0.21
G2 X1.5318 Y-1.3644 I-0.0206 J0.0588
G1 X1.524 F60.
X1.5163 Y-1.3638
X1.5087 Y-1.3626
X1.5012 Y-1.3608
X1.4938 Y-1.3585
X1.4867 Y-1.3555
X1.4798 Y-1.352
X1.4732 Y-1.348
X1.467 Y-1.3435
X1.4611 Y-1.3385
X1.4556 Y-1.333
X1.4506 Y-1.3271
X1.4461 Y-1.3209
X1.442 Y-1.3143
X1.4385 Y-1.3074
X1.4356 Y-1.3002
X1.4332 Y-1.2929
X1.4315 Y-1.2854
X1.4303 Y-1.2777
X1.4297 Y-1.27
Y-1.2623
X1.4304 Y-1.2546
X1.4316 Y-1.247
X1.4335 Y-1.2395
X1.4359 Y-1.2322
X1.4389 Y-1.225
X1.4425 Y-1.2182
X1.4465 Y-1.2116
X1.4511 Y-1.2054
X1.4562 Y-1.1996
X1.4617 Y-1.1942
X1.4676 Y-1.1892
X1.4739 Y-1.1847
X1.4805 Y-1.1808
X1.4875 Y-1.1773
X1.4946 Y-1.1745
X1.502 Y-1.1721
X1.5095 Y-1.1704
X1.5172 Y-1.1693
X1.5249 Y-1.1688
X1.5326 Y-1.1689
X1.5403 Y-1.1696
X1.5433 Y-1.1708
X1.5459 Y-1.1725
X1.5482 Y-1.1746
X1.55 Y-1.1771
X1.5513 Y-1.1798
X1.552 Y-1.1826
X1.5527 Y-1.1856 Z-0.2097
X1.5534 Y-1.1884 Z-0.2088
X1.554 Y-1.1909 Z-0.2074
X1.5546 Y-1.1932 Z-0.2055
X1.5551 Y-1.195 Z-0.2032
X1.5554 Y-1.1964 Z-0.2005
X1.5556 Y-1.1973 Z-0.1976
X1.5557 Y-1.1976 Z-0.1946
G0 Z0.4
X3.9472 Y-0.8959
Z0.1
G3 X3.8747 Y-1.0226 Z0.0596 I-0.0362 J-0.0634 F50.
X3.9472 Y-0.8959 Z0.0191 I0.0362 J0.0634
X3.8747 Y-1.0226 Z-0.0213 I-0.0362 J-0.0634
X3.9472 Y-0.8959 Z-0.0618 I0.0362 J0.0634
X3.8747 Y-1.0226 Z-0.1022 I-0.0362 J-0.0634
X3.9472 Y-0.8959 Z-0.1427 I0.0362 J0.0634
X3.8747 Y-1.0226 Z-0.1831 I-0.0362 J-0.0634
X3.984 Y-0.9592 Z-0.21 I0.0362 J0.0634
X3.8379 I-0.073 J0.
X3.9837 Y-0.9651 I0.073 J0.
G1 X3.984 Y-0.9592
G3 X4.002 Y-0.9001 I-0.0518 J0.0481 F60.
G1 X3.9981 Y-0.8976
X3.9578 Y-0.8832
X3.9098 Y-0.8655
X3.8744 Y-0.8529
X3.8663 Y-0.8525
X3.8582 Y-0.8527
X3.8502 Y-0.8535
X3.8422 Y-0.8548
X3.8343 Y-0.8567
X3.8266 Y-0.8593
X3.8191 Y-0.8623
X3.8118 Y-0.8659
X3.8049 Y-0.8701
X3.7982 Y-0.8747
X3.7919 Y-0.8798
X3.786 Y-0.8853
X3.7806 Y-0.8913
X3.7755 Y-0.8977
X3.771 Y-0.9044
X3.7669 Y-0.9114
X3.7634 Y-0.9187
X3.7605 Y-0.9262
X3.758 Y-0.934
X3.7562 Y-0.9419
X3.7549 Y-0.9499
X3.7543 Y-0.9579
X3.7542 Y-0.966
X3.7547 Y-0.9741
X3.7558 Y-0.9821
X3.7575 Y-0.9901
X3.7598 Y-0.9978
X3.7626 Y-1.0054
X3.766 Y-1.0128
X3.7699 Y-1.0199
G2 X3.9344 Y-1.0788 I-5.7424 J-16.2721
G3 X4.0827 Y-0.9279 I0.0032 J0.1452
X3.9981 Y-0.8976 I-1.0118 J-2.6892
X3.9831 Y-0.9009 I-0.0047 J-0.0146
X3.9941 Y-0.9476 I0.0185 J-0.0203
X4.0557 Y-0.9397 I0.0215 J0.0757
X4.0677 Y-0.931 I-0.0401 J0.0678 F50.
G2 X4.0827 Y-0.9279 I0.0102 J-0.0115
G1 X4.0982 Y-0.9337 F60.
X4.1003 Y-0.9345
G2 X4.0673 Y-1.1269 I-0.081 J-0.0852
G3 X3.9344 Y-1.0788 I-2.7186 J-7.304
G2 X3.9257 Y-1.0589 I0.0057 J0.0143
X3.9412 Y-1.0475 I0.0168 J-0.0067
X4.0499 Y-1.1019 I0.0091 J-0.1178
X4.0587 Y-1.1185 I-0.0997 J-0.0634 F50.
G3 X4.0672 Y-1.1267 I0.0141 J0.0061
G1 X4.0915 Y-1.1354 F60.
X4.1002 Y-1.136
X4.1088 Y-1.1359
X4.1174 Y-1.1352
X4.126 Y-1.1339
X4.1344 Y-1.132
X4.1427 Y-1.1295
X4.1508 Y-1.1264
X4.1586 Y-1.1227
X4.1661 Y-1.1185
X4.1734 Y-1.1138
X4.1802 Y-1.1085
X4.1867 Y-1.1028
X4.1927 Y-1.0966
X4.1983 Y-1.09
X4.2034 Y-1.083
X4.208 Y-1.0756
X4.212 Y-1.068
X4.2155 Y-1.0601
X4.2184 Y-1.0519
X4.2207 Y-1.0436
X4.2224 Y-1.0351
X4.2235 Y-1.0265
X4.224 Y-1.0179
X4.2239 Y-1.0093
X4.2231 Y-1.0006
X4.2217 Y-0.9921
X4.2197 Y-0.9837
X4.2172 Y-0.9754
G2 X4.1003 Y-0.9345 I2.0648 J6.0787
G3 X4.0853 Y-0.9377 I-0.0047 J-0.0146
X4.082 Y-0.9609 I0.0123 J-0.0136
X4.189 Y-0.9875 I0.0671 J0.0413
X4.201 Y-0.9788 I-0.0399 J0.0679 F50.
G2 X4.2161 Y-0.9758 I0.0101 J-0.0116
G1 X4.2386 Y-0.9843 F60.
G2 X4.2209 Y-1.1828 I-0.0709 J-0.0937
G3 X4.0915 Y-1.1354 I-1.8076 J-4.7389
G2 X4.0911 Y-1.1071 I0.0057 J0.0143
X4.1214 Y-1.1032 I0.0218 J-0.0507
X4.2035 Y-1.1573 I-0.0179 J-0.1167
X4.2122 Y-1.174 I-0.1001 J-0.0626 F50.
G3 X4.2206 Y-1.1823 I0.0142 J0.006
G1 X4.2386 Y-1.1889 F60.
X4.2458 Y-1.1915
G3 X4.3634 Y-1.0288 I0.0068 J0.1189
G1 X4.3322 Y-1.0183
X4.2985 Y-1.0061
X4.2386 Y-0.9843
G3 X4.2236 Y-0.9875 I-0.0047 J-0.0146
X4.2203 Y-1.0005 I0.008 J-0.0089
X4.3356 Y-1.0413 I0.0742 J0.0263
X4.3475 Y-1.0324 I-0.0411 J0.0671 F50.
G2 X4.3625 Y-1.0291 I0.0103 J-0.0114
G1 X4.3861 Y-1.0376 F60.
G2 X4.3717 Y-1.2371 I-0.0695 J-0.0953
G1 X4.3322 Y-1.2223
X4.2458 Y-1.1915
G2 X4.2372 Y-1.1715 I0.0057 J0.0143
X4.2603 Y-1.1567 I0.0219 J-0.0087
X4.3542 Y-1.2116 I-0.006 J-0.118
X4.3629 Y-1.2282 I-0.0999 J-0.0631 F50.
G3 X4.3713 Y-1.2365 I0.0141 J0.006
G1 X4.3942 Y-1.2448 F60.
G3 X4.5121 Y-1.0825 I0.0091 J0.1173
G1 X4.4727 Y-1.0689
X4.4258 Y-1.0518
X4.3861 Y-1.0376
G3 X4.3668 Y-1.0475 I-0.0047 J-0.0146
X4.3752 Y-1.0737 I0.0225 J-0.0072
X4.4824 Y-1.091 I0.0704 J0.0948
X4.4998 Y-1.0838 I-0.0368 J0.1122 F50.
G2 X4.5115 Y-1.0828 I0.007 J-0.0137
G1 X4.5195 Y-1.0856 F60.
X4.5385 Y-1.0924
G2 X4.5216 Y-1.2913 I-0.0744 J-0.0939
G1 X4.5127 Y-1.2873
X4.4258 Y-1.2562
X4.3942 Y-1.2448
G2 X4.3857 Y-1.2248 I0.0057 J0.0143
X4.4082 Y-1.2102 I0.0216 J-0.0087
X4.5039 Y-1.2654 I-0.0043 J-0.118
X4.5126 Y-1.2821 I-0.1 J-0.0628 F50.
G3 X4.521 Y-1.2903 I0.0141 J0.006
G1 X4.5442 Y-1.2988 F60.
G3 X4.6619 Y-1.1364 I0.0086 J0.1176
G1 X4.6131 Y-1.1195
X4.5663 Y-1.1022
X4.5385 Y-1.0924
G3 X4.5235 Y-1.0957 I-0.0046 J-0.0147
X4.5198 Y-1.1123 I0.01 J-0.011
X4.6344 Y-1.1491 I0.0728 J0.0299
X4.6462 Y-1.1401 I-0.0417 J0.0668 F50.
G2 X4.6611 Y-1.1367 I0.0104 J-0.0113
G1 X4.6838 Y-1.1446 F60.
G2 X4.6719 Y-1.3441 I-0.0674 J-0.0961
X4.5442 Y-1.2988 I2.9546 J8.5334
X4.5357 Y-1.2788 I0.0058 J0.0143
X4.5527 Y-1.267 I0.0175 J-0.0071
X4.6538 Y-1.3192 I0.003 J-0.1181
X4.663 Y-1.3356 I-0.0981 J-0.0658 F50.
G3 X4.6717 Y-1.3436 I0.014 J0.0064
G1 X4.6992 Y-1.3527 F60.
G3 X4.8106 Y-1.1855 I0.0008 J0.1202
G2 X4.6838 Y-1.1446 I0.4579 J1.6356
G3 X4.6688 Y-1.148 I-0.0045 J-0.0147
X4.6651 Y-1.1616 I0.009 J-0.0097
G1 X4.6678 Y-1.1678
X4.6709 Y-1.1738
X4.6746 Y-1.1796
X4.6787 Y-1.1849
X4.6833 Y-1.1899
X4.6883 Y-1.1945
X4.6937 Y-1.1987
X4.6995 Y-1.2023
X4.7055 Y-1.2055
X4.7117 Y-1.2081
X4.7182 Y-1.2102
X4.7248 Y-1.2117
X4.7316 Y-1.2126
X4.7383 Y-1.213
X4.7451 Y-1.2127
X4.7519 Y-1.2119
X4.7585 Y-1.2105
X4.765 Y-1.2085
X4.7713 Y-1.206
X4.7774 Y-1.203
X4.7832 Y-1.1994
G3 X4.7946 Y-1.19 I-0.0442 J0.0652 F50.
G2 X4.8094 Y-1.186 I0.0109 J-0.0109
G1 X4.8343 Y-1.1936 F60.
G2 X4.8262 Y-1.3931 I-0.0675 J-0.0972
G3 X4.6992 Y-1.3527 I-5.2496 J-16.299
G2 X4.6894 Y-1.3409 I0.0053 J0.0144
X4.694 Y-1.33 I0.0108 J0.0019
G1 X4.6959 Y-1.3287
G2 X4.8118 Y-1.3664 I0.0425 J-0.0663
X4.8159 Y-1.3807 I-0.0734 J-0.0285 F50.
G3 X4.8258 Y-1.3924 I0.0151 J0.0028
G1 X4.8471 Y-1.3992 F60.
X4.8542 Y-1.4014
G3 X4.9613 Y-1.2325 I-0.0034 J0.1206
G2 X4.8343 Y-1.1936 I0.993 J3.4665
G3 X4.8194 Y-1.1976 I-0.004 J-0.0149
X4.8168 Y-1.2105 I0.0085 J-0.0085
X4.9338 Y-1.2464 I0.073 J0.0294
X4.9453 Y-1.237 I-0.044 J0.0653 F50.
G2 X4.9601 Y-1.233 I0.0108 J-0.0109
G1 X4.9841 Y-1.2404 F60.
G2 X4.9788 Y-1.4408 I-0.0655 J-0.0985
G1 X4.9397 Y-1.4279
X4.8542 Y-1.4014
G2 X4.8442 Y-1.3897 I0.0051 J0.0145
X4.8507 Y-1.3752 I0.0136 J0.0026
X4.9644 Y-1.4142 I0.0404 J-0.0676
X4.9685 Y-1.4285 I-0.0733 J-0.0286 F50.
G3 X4.9784 Y-1.4401 I0.0151 J0.0028
G1 X4.9875 Y-1.443 F60.
X5.0055 Y-1.4486
G3 X5.1125 Y-1.2799 I-0.0022 J0.1197
G2 X4.9841 Y-1.2404 I1.3571 J4.6411
G3 X4.9653 Y-1.2513 I-0.004 J-0.0148
X4.9746 Y-1.2765 I0.0225 J-0.0061
X5.0828 Y-1.2898 I0.0669 J0.0973
X5.0999 Y-1.2818 I-0.0413 J0.1106 F50.
G2 X5.1115 Y-1.2804 I0.0076 J-0.0134
G1 X5.137 Y-1.2884 F60.
G2 X5.1307 Y-1.4883 I-0.0673 J-0.0979
G1 X5.0812 Y-1.4722
X5.0344 Y-1.4575
X5.0055 Y-1.4486
G2 X4.9955 Y-1.437 I0.0051 J0.0145
X5.0009 Y-1.424 I0.0125 J0.0024
X5.116 Y-1.4617 I0.0419 J-0.0666
X5.1202 Y-1.4759 I-0.0732 J-0.029 F50.
G3 X5.1302 Y-1.4875 I0.0151 J0.0029
G1 X5.1531 Y-1.4946 F60.
G3 X5.2638 Y-1.3275 I0.0043 J0.1174
G1 X5.2216 Y-1.3147
X5.1748 Y-1.3002
X5.137 Y-1.2884
G3 X5.1222 Y-1.2922 I-0.0041 J-0.0148
X5.1197 Y-1.3037 I0.0075 J-0.0076
G1 X5.1206 Y-1.3059
G3 X5.2369 Y-1.341 I0.0726 J0.0305
X5.2484 Y-1.3317 I-0.0437 J0.0655 F50.
G2 X5.2632 Y-1.3278 I0.0108 J-0.011
G1 X5.2883 Y-1.3357 F60.
G2 X5.2808 Y-1.5363 I-0.0666 J-0.098
G3 X5.1531 Y-1.4946 I-0.9419 J-2.6695
G2 X5.143 Y-1.483 I0.0051 J0.0145
X5.1505 Y-1.4657 I0.0165 J0.0032
X5.268 Y-1.5085 I0.0424 J-0.0663
X5.2711 Y-1.523 I-0.0752 J-0.0235 F50.
G3 X5.2803 Y-1.5354 I0.0153 J0.0018
G1 X5.3036 Y-1.5445 F60.
G3 X5.4189 Y-1.3838 I0.0047 J0.1184
X5.2883 Y-1.3357 I-0.2701 J-0.531
X5.2708 Y-1.3581 I-0.0041 J-0.0148
X5.2761 Y-1.3625 I0.0087 J0.0049
X5.3898 Y-1.3809 I0.1062 J0.2965
G1 X5.4086 Y-1.3799 F50.
G2 X5.4198 Y-1.3835 I0.0013 J-0.0153
G1 X5.4556 Y-1.416 F60.
X5.4606 Y-1.4234
X5.465 Y-1.4312
X5.4689 Y-1.4393
X5.4723 Y-1.4476
X5.475 Y-1.4561
X5.4772 Y-1.4648
X5.4787 Y-1.4736
X5.4797 Y-1.4826
X5.4801 Y-1.4915
X5.4798 Y-1.5005
X5.4789 Y-1.5094
X5.4774 Y-1.5182
X5.4753 Y-1.5269
X5.4727 Y-1.5355
X5.4694 Y-1.5438
X5.4656 Y-1.5519
X5.4612 Y-1.5598
X5.4564 Y-1.5673
X5.451 Y-1.5744
X5.4451 Y-1.5812
X5.4388 Y-1.5876
X5.432 Y-1.5935
X5.4249 Y-1.5989
X5.4174 Y-1.6038
X5.4096 Y-1.6082
X5.4016 Y-1.6121
X5.3932 Y-1.6154
X5.3847 Y-1.6182
X5.376 Y-1.6203
G3 X5.3036 Y-1.5445 I-0.2142 J-0.1323
G2 X5.2944 Y-1.5322 I0.0061 J0.0141
X5.324 Y-1.499 I0.0296 J0.0034
X5.3381 Y-1.5025 I0. J-0.0298
X5.3779 Y-1.5882 I-0.0372 J-0.0694
X5.3735 Y-1.6024 I-0.077 J0.0163 F50.
G3 X5.3754 Y-1.6176 I0.0142 J-0.0059
G1 X5.3889 Y-1.6341 F60.
G3 X5.558 Y-1.5374 I0.0544 J0.1011
X5.4556 Y-1.416 I-2.9366 J-2.3715
X5.4405 Y-1.4132 I-0.0099 J-0.0117
X5.4175 Y-1.4763 I0.0147 J-0.0411
X5.5288 Y-1.5347 I0.1021 J0.0594
X5.5435 Y-1.5326 I-0.0092 J0.1178 F50.
G2 X5.5581 Y-1.5374 I0.0031 J-0.0151
G1 X5.5784 Y-1.5618 F60.
G2 X5.4685 Y-1.7317 I-0.1121 J-0.0479
G1 X5.4556 Y-1.7147
X5.4118 Y-1.6622
X5.3889 Y-1.6341
G2 X5.387 Y-1.6189 I0.0122 J0.0093
X5.4072 Y-1.6079 I0.017 J-0.0071
X5.4706 Y-1.7007 I-0.0138 J-0.0775
X5.4664 Y-1.7149 I-0.0772 J0.0153 F50.
G3 X5.4685 Y-1.7301 I0.0143 J-0.0058
G1 X5.4855 Y-1.7504 F60.
G3 X5.6649 Y-1.6645 I0.0619 J0.101
G2 X5.5784 Y-1.5618 I5.3405 J4.5899
G3 X5.5567 Y-1.5606 I-0.0115 J-0.0102
X5.5507 Y-1.5866 I0.0153 J-0.0172
X5.6348 Y-1.6568 I0.1091 J0.0453
X5.6535 Y-1.6593 I0.025 J0.1154 F50.
G2 X5.6641 Y-1.6644 I-0.0008 J-0.0153
G1 X5.6812 Y-1.6847 F60.
G2 X5.5691 Y-1.851 I-0.109 J-0.0474
G1 X5.5492 Y-1.8265
X5.5294 Y-1.8028
X5.4855 Y-1.7504
G2 X5.4834 Y-1.7352 I0.0121 J0.0095
X5.4963 Y-1.7268 I0.0125 J-0.005
X5.5712 Y-1.8207 I-0.0023 J-0.0787
X5.567 Y-1.8349 I-0.0773 J0.0152 F50.
G3 X5.5691 Y-1.8501 I0.0143 J-0.0057
G1 X5.5871 Y-1.8716 F60.
G3 X5.7677 Y-1.7874 I0.0626 J0.1015
G1 X5.7408 Y-1.756
X5.7365 Y-1.7508
X5.6812 Y-1.6847
G3 X5.6544 Y-1.6942 I-0.0114 J-0.0103
X5.6622 Y-1.7254 I0.0545 J-0.0029
X5.7374 Y-1.7795 I0.101 J0.0612
X5.7561 Y-1.7821 I0.0258 J0.1153 F50.
G2 X5.7667 Y-1.7872 I-0.0009 J-0.0153
G1 X5.7795 Y-1.8028 F60.
X5.7833 Y-1.8074
G2 X5.67 Y-1.9726 I-0.1089 J-0.0468
G3 X5.5871 Y-1.8716 I-2.6283 J-2.0715
G2 X5.5849 Y-1.8564 I0.0121 J0.0095
X5.5964 Y-1.8483 I0.012 J-0.0048
G1 X5.6033 Y-1.8487
X5.6101 Y-1.8497
X5.6168 Y-1.8514
X5.6233 Y-1.8536
X5.6296 Y-1.8563
X5.6357 Y-1.8596
X5.6414 Y-1.8634
X5.6468 Y-1.8677
X5.6518 Y-1.8725
X5.6563 Y-1.8776
X5.6604 Y-1.8832
X5.664 Y-1.8891
X5.667 Y-1.8952
X5.6695 Y-1.9017
X5.6714 Y-1.9083
X5.6728 Y-1.915
X5.6735 Y-1.9219
X5.6737 Y-1.9287
X5.6732 Y-1.9356
X5.6722 Y-1.9424
G2 X5.6679 Y-1.9566 I-0.0772 J0.0154 F50.
G3 X5.67 Y-1.9718 I0.0142 J-0.0058
G1 X5.6854 Y-1.9903 F60.
G3 X5.8691 Y-1.9097 I0.0672 J0.0964
G1 X5.8576 Y-1.8965
X5.8301 Y-1.8638
X5.7833 Y-1.8074
G3 X5.7565 Y-1.8168 I-0.0115 J-0.0102
X5.7659 Y-1.8516 I0.0573 J-0.0033
X5.8392 Y-1.902 I0.0986 J0.0651
X5.8579 Y-1.9045 I0.0252 J0.1154 F50.
G2 X5.8685 Y-1.9096 I-0.0009 J-0.0153
G1 X5.8769 Y-1.9197 F60.
X5.8869 Y-1.9316
G2 X5.772 Y-2.0948 I-0.1115 J-0.0436
G1 X5.6854 Y-1.9903
G2 X5.6882 Y-1.9687 I0.0122 J0.0094
X5.7141 Y-1.9674 I0.0139 J-0.018
X5.7697 Y-2.0635 I-0.0624 J-0.1003
X5.7689 Y-2.0823 I-0.118 J-0.0042 F50.
G3 X5.772 Y-2.0937 I0.0153 J-0.0019
G1 X5.7833 Y-2.1072 F60.
X5.7888 Y-2.1137
G3 X5.9714 Y-2.0315 I0.0653 J0.099
G1 X5.8913 Y-1.9369
X5.8869 Y-1.9316
G3 X5.8722 Y-1.9268 I-0.0114 J-0.0103
X5.8618 Y-1.9379 I0.0028 J-0.013
X5.9412 Y-2.0283 I0.0779 J-0.0117
X5.9559 Y-2.0267 I-0.0015 J0.0787 F50.
G2 X5.9705 Y-2.0314 I0.0032 J-0.015
G1 X5.9754 Y-2.0371 F60.
X5.9883 Y-2.0528
G2 X5.8733 Y-2.2166 I-0.1107 J-0.0446
G3 X5.7888 Y-2.1137 I-2.4366 J-1.9161
G2 X5.7866 Y-2.0985 I0.0121 J0.0095
X5.7977 Y-2.0908 I0.0113 J-0.0045
X5.876 Y-2.1862 I0.0013 J-0.0787
X5.8715 Y-2.2003 I-0.077 J0.0166 F50.
G3 X5.8734 Y-2.2155 I0.0142 J-0.006
G1 X5.8807 Y-2.2246 F60.
X5.8906 Y-2.2364
G3 X6.0731 Y-2.1542 I0.0649 J0.0997
G2 X5.9883 Y-2.0528 I4.245 J3.6357
G3 X5.9737 Y-2.0479 I-0.0115 J-0.0102
X5.9638 Y-2.0578 I0.0025 J-0.0124
X6.0428 Y-2.151 I0.0774 J-0.0145
X6.0575 Y-2.1493 I-0.0016 J0.0787 F50.
G2 X6.0721 Y-2.154 I0.0032 J-0.015
G1 X6.0878 Y-2.1726 F60.
G2 X5.9755 Y-2.3386 I-0.1072 J-0.0484
G1 X5.9237 Y-2.2761
X5.8906 Y-2.2364
G2 X5.8885 Y-2.2212 I0.0121 J0.0094
X5.8978 Y-2.2146 I0.0097 J-0.0039
G1 X5.9006
G2 X5.9776 Y-2.3085 I-0.0002 J-0.0787
X5.9734 Y-2.3227 I-0.0773 J0.0152 F50.
G3 X5.9756 Y-2.3379 I0.0143 J-0.0057
G1 X5.9935 Y-2.3593 F60.
G3 X6.1749 Y-2.2756 I0.0634 J0.1011
G2 X6.0878 Y-2.1726 I5.1001 J4.4066
G3 X6.061 Y-2.1821 I-0.0114 J-0.0103
X6.0698 Y-2.2157 I0.057 J-0.003
X6.1446 Y-2.2679 I0.0997 J0.0633
X6.1633 Y-2.2704 I0.0249 J0.1155 F50.
G2 X6.1739 Y-2.2754 I-0.0008 J-0.0153
G1 X6.1896 Y-2.2942 F60.
G2 X6.0779 Y-2.4604 I-0.1069 J-0.0488
G3 X5.9935 Y-2.3593 I-8.5241 J-7.0326
G2 X5.9914 Y-2.3441 I0.0121 J0.0095
X6.0057 Y-2.3347 I0.0139 J-0.0056
X6.0806 Y-2.4303 I-0.0019 J-0.0787
X6.0761 Y-2.4444 I-0.0769 J0.0168 F50.
G3 X6.078 Y-2.4596 I0.0141 J-0.006
G1 X6.095 Y-2.4807 F60.
G3 X6.2765 Y-2.3982 I0.0642 J0.0999
X6.1896 Y-2.2942 I-9.7889 J-8.0942
X6.1679 Y-2.293 I-0.0114 J-0.0103
X6.162 Y-2.318 I0.0151 J-0.0167
X6.2464 Y-2.3903 I0.11 J0.043
X6.265 Y-2.3929 I0.0256 J0.1153 F50.
G2 X6.2756 Y-2.398 I-0.0009 J-0.0153
G1 X6.2933 Y-2.4193 F60.
G2 X6.1788 Y-2.583 I-0.1104 J-0.0446
G1 X6.1578 Y-2.5569
X6.1151 Y-2.5058
X6.095 Y-2.4807
G2 X6.0931 Y-2.4655 I0.0123 J0.0092
X6.1034 Y-2.4587 I0.0103 J-0.0044
G1 X6.1052
G2 X6.1809 Y-2.5526 I-0.0016 J-0.0787
X6.1767 Y-2.5668 I-0.0773 J0.0152 F50.
G3 X6.1788 Y-2.582 I0.0143 J-0.0057
G1 X6.1969 Y-2.6035 F60.
G3 X6.3785 Y-2.5199 I0.0635 J0.1013
G2 X6.2933 Y-2.4193 I6.0483 J5.214
G3 X6.2787 Y-2.4145 I-0.0115 J-0.0102
X6.2691 Y-2.4244 I0.0025 J-0.012
X6.3482 Y-2.5167 I0.0776 J-0.0136
X6.3629 Y-2.515 I-0.0016 J0.0787 F50.
G2 X6.3775 Y-2.5198 I0.0032 J-0.015
G1 X6.3958 Y-2.5416 F60.
G2 X6.2814 Y-2.7052 I-0.1114 J-0.0439
G3 X6.1969 Y-2.6035 I-4.0685 J-3.2952
G2 X6.1947 Y-2.5883 I0.0121 J0.0095
X6.2058 Y-2.5808 I0.0111 J-0.0045
X6.2835 Y-2.6747 I0.0004 J-0.0787
X6.2793 Y-2.6889 I-0.0773 J0.0151 F50.
G3 X6.2814 Y-2.7041 I0.0143 J-0.0057
G1 X6.2982 Y-2.724 F60.
G3 X6.4804 Y-2.6423 I0.065 J0.099
G1 X6.4446 Y-2.5995
X6.4386 Y-2.5926
X6.3958 Y-2.5416
G3 X6.3812 Y-2.5369 I-0.0114 J-0.0103
X6.3721 Y-2.5463 I0.0024 J-0.0115
X6.4502 Y-2.6388 I0.0775 J-0.0137
X6.465 Y-2.6372 I-0.0006 J0.0787 F50.
G2 X6.4795 Y-2.6422 I0.003 J-0.0151
G1 X6.483 Y-2.6464 F60.
X6.4854 Y-2.6494
X6.4975 Y-2.664
G2 X6.382 Y-2.827 I-0.1113 J-0.0435
G1 X6.3495 Y-2.787
X6.312 Y-2.7401
X6.2982 Y-2.724
G2 X6.3121 Y-2.6993 I0.0121 J0.0095
X6.3413 Y-2.7126 I-0.0064 J-0.0523
X6.3797 Y-2.7958 I-0.0796 J-0.0873
X6.3789 Y-2.8146 I-0.118 J-0.0041 F50.
G3 X6.382 Y-2.826 I0.0153 J-0.0019
G1 X6.3918 Y-2.8377 F60.
X6.3984 Y-2.8456
G3 X6.5818 Y-2.7644 I0.0662 J0.0981
G2 X6.4975 Y-2.664 I2.9893 J2.5987
G3 X6.4829 Y-2.6592 I-0.0115 J-0.0102
X6.4719 Y-2.6707 I0.0028 J-0.0136
X6.5517 Y-2.7613 I0.0778 J-0.0119
X6.5664 Y-2.7596 I-0.0019 J0.0787 F50.
G2 X6.581 Y-2.7642 I0.0032 J-0.015
G1 X6.5961 Y-2.7821 F60.
G2 X6.4846 Y-2.9488 I-0.1063 J-0.0495
G1 X6.4674 Y-2.9276
X6.3984 Y-2.8456
G2 X6.4124 Y-2.8209 I0.0121 J0.0095
X6.4451 Y-2.8362 I-0.007 J-0.0576
X6.4823 Y-2.918 I-0.0808 J-0.0862
X6.4815 Y-2.9368 I-0.118 J-0.0043 F50.
G3 X6.4846 Y-2.9482 I0.0153 J-0.0019
G1 X6.5021 Y-2.9687 F60.
G3 X6.6838 Y-2.8863 I0.0642 J0.1001
G1 X6.5961 Y-2.7821
G3 X6.5815 Y-2.7774 I-0.0114 J-0.0103
X6.5602 Y-2.8367 I0.0078 J-0.0363
X6.6542 Y-2.8815 I0.0926 J0.0733
X6.669 Y-2.8804 I-0.0014 J0.1181 F50.
G2 X6.6832 Y-2.8862 I0.0021 J-0.0152
G1 X6.7011 Y-2.9108 F60.
G2 X6.6314 Y-3.0585 I-0.1014 J-0.0425
X6.5021 Y-2.9687 I0.0282 J0.1788
X6.4998 Y-2.9536 I0.0121 J0.0095
G1 X6.4999 Y-2.9535
X6.5118 Y-2.9623
G2 X6.6067 Y-3.0451 I-0.5461 J-0.7223
G1 X6.6171 Y-3.0557 F50.
G3 X6.6319 Y-3.0599 I0.0111 J0.0107
X6.7011 Y-2.9108 I-0.0016 J0.0914 F60.
X6.6752 Y-2.9133 I-0.0121 J-0.0094
G1 X6.6739 Y-2.916 Z-0.2097
X6.6726 Y-2.9185 Z-0.2088
X6.6714 Y-2.9209 Z-0.2074
X6.6703 Y-2.923 Z-0.2055
X6.6694 Y-2.9247 Z-0.2032
X6.6688 Y-2.926 Z-0.2005
X6.6684 Y-2.9267 Z-0.1976
X6.6683 Y-2.927 Z-0.1946
G0 Z0.4
X3.8161 Y-1.0186
Z-0.1793
G1 Z-0.1946 F50.
X3.8158 Y-1.0187 Z-0.1976
X3.8149 Y-1.0188 Z-0.2005
X3.8136 Y-1.0191 Z-0.2032
X3.8117 Y-1.0195 Z-0.2055
X3.8094 Y-1.0199 Z-0.2074
X3.8068 Y-1.0204 Z-0.2088
X3.804 Y-1.021 Z-0.2097
X3.801 Y-1.0216 Z-0.21
G2 X3.7701 Y-1.0198 I-0.0119 J0.0612
G1 X3.7402 Y-1.009 F60.
G2 X3.7486 Y-0.8071 I0.0641 J0.0985
G1 X3.7705 Y-0.8156
X3.8173 Y-0.8326
X3.8744 Y-0.8529
G2 X3.8831 Y-0.8729 I-0.0057 J-0.0143
X3.8603 Y-0.8875 I-0.0216 J0.0085
X3.7661 Y-0.8327 I0.0057 J0.118
X3.7574 Y-0.816 I0.0998 J0.0631 F50.
G3 X3.749 Y-0.8078 I-0.0141 J-0.006
G1 X3.7237 Y-0.7987 F60.
G3 X3.6099 Y-0.9628 I-0.0049 J-0.1181
G2 X3.7402 Y-1.009 I-1.4012 J-4.1551
G3 X3.7596 Y-0.9991 I0.0047 J0.0146
X3.7527 Y-0.9754 I-0.021 J0.0067
X3.6397 Y-0.9541 I-0.0757 J-0.0907
X3.6223 Y-0.9614 I0.0373 J-0.1121 F50.
G2 X3.6106 Y-0.9625 I-0.0071 J0.0136
G1 X3.5833 Y-0.9528 F60.
G2 X3.5993 Y-0.753 I0.074 J0.0946
G1 X3.6484 Y-0.7718
X3.6769 Y-0.7821
X3.7237 Y-0.7987
G2 X3.7332 Y-0.8108 I-0.0057 J-0.0143
X3.7273 Y-0.823 I-0.0121 J-0.0017
X3.6127 Y-0.7806 I-0.0401 J0.0678
X3.6093 Y-0.7661 I0.0746 J0.0253 F50.
G3 X3.5998 Y-0.754 I-0.0152 J-0.0021
G1 X3.5833 Y-0.748 F60.
X3.5762 Y-0.7453
G3 X3.4579 Y-0.9023 I-0.0082 J-0.1169
X3.5833 Y-0.9528 I0.3014 J0.567
X3.5983 Y-0.9495 I0.0046 J0.0147
X3.5888 Y-0.8907 I-0.0241 J0.0263
X3.4863 Y-0.8934 I-0.0484 J-0.1077
X3.4736 Y-0.901 I0.0541 J-0.105 F50.
G2 X3.4583 Y-0.9022 I-0.0087 J0.0127
G1 X3.4429 Y-0.8942 F60.
X3.4175 Y-0.8655
X3.4072 Y-0.8292
G2 X3.4052 Y-0.815 I0.0201 J0.01
X3.5745 Y-0.7474 I0.1024 J-0.0105
G1 X3.5768 Y-0.7482
X3.5789 Y-0.7494
X3.5809 Y-0.7511
X3.5825 Y-0.7531
X3.5837 Y-0.7554
X3.5844 Y-0.758
X3.5847 Y-0.7607
X3.5844 Y-0.7634
X3.5837 Y-0.7661
X3.5824 Y-0.7686
X3.5806 Y-0.7709
G2 X3.5765 Y-0.7736 I-0.0103 J0.0114
G1 X3.4328 Y-0.8364
X3.4279 Y-0.8385 F50.
G2 X3.4072 Y-0.8292 I-0.0062 J0.0141
G1 X3.4041 Y-0.8186 F60.
X3.4052 Y-0.815
G2 X3.4178 Y-0.8045 I0.0146 J-0.0047
G1 X3.4208 Y-0.8041 Z-0.2097
X3.4237 Y-0.8038 Z-0.2088
X3.4263 Y-0.8034 Z-0.2074
X3.4286 Y-0.8031 Z-0.2055
X3.4305 Y-0.8029 Z-0.2032
X3.4319 Y-0.8027 Z-0.2005
X3.4328 Y-0.8026 Z-0.1976
X3.4331 Z-0.1946
G0 Z0.4
X3.994 Y0.3226
Z0.1
G3 X3.9215 Y0.1959 Z0.0596 I-0.0362 J-0.0634 F50.
X3.994 Y0.3226 Z0.0191 I0.0362 J0.0634
X3.9215 Y0.1959 Z-0.0213 I-0.0362 J-0.0634
X3.994 Y0.3226 Z-0.0618 I0.0362 J0.0634
X3.9215 Y0.1959 Z-0.1022 I-0.0362 J-0.0634
X3.994 Y0.3226 Z-0.1427 I0.0362 J0.0634
X3.9215 Y0.1959 Z-0.1831 I-0.0362 J-0.0634
X4.0308 Y0.2593 Z-0.21 I0.0362 J0.0634
X3.8848 I-0.073 J0.
X4.0305 Y0.2533 I0.073 J0.
G1 X4.0308 Y0.2593
G3 X4.0153 Y0.3794 I-0.0503 J0.0546 F60.
G2 X3.8747 Y0.3404 I-0.2998 J0.8094
G1 X3.8673 Y0.3368
X3.8601 Y0.3327
X3.8533 Y0.328
X3.8468 Y0.3229
X3.8408 Y0.3173
X3.8351 Y0.3112
X3.8299 Y0.3048
X3.8252 Y0.2981
X3.821 Y0.291
X3.8173 Y0.2836
X3.8142 Y0.2759
X3.8116 Y0.2681
X3.8096 Y0.2601
X3.8082 Y0.252
X3.8073 Y0.2437
X3.8071 Y0.2355
X3.8075 Y0.2272
X3.8084 Y0.219
X3.81 Y0.2109
X3.8121 Y0.203
X3.8148 Y0.1952
X3.8181 Y0.1876
X3.8219 Y0.1803
X3.8263 Y0.1732
X3.8311 Y0.1665
X3.8364 Y0.1602
X3.8421 Y0.1543
X3.8483 Y0.1488
X3.8548 Y0.1438
X3.8617 Y0.1392
G2 X4.0351 Y0.1789 I0.5409 J-1.966
G3 X4.1099 Y0.412 I-0.0465 J0.1435
X4.0153 Y0.3794 I-0.0046 J-0.1402
X4.0085 Y0.3656 I0.0085 J-0.0128
G1 X4.0145 Y0.3611
X4.0207 Y0.3627
G3 X4.0834 Y0.3964 I-0.0413 J0.152
X4.094 Y0.4067 I-0.104 J0.1182 F50.
G2 X4.1087 Y0.4111 I0.0112 J-0.0105
X4.2005 Y0.3061 I-0.0228 J-0.1125 F60.
X4.1113 Y0.1177 I-0.1588 J-0.0402
G1 X4.0982 Y0.1333
X4.0832 Y0.1494
G2 X4.0803 Y0.1645 I0.0116 J0.0101
X4.1043 Y0.1659 I0.0123 J-0.0042
X4.1082 Y0.1512 I-0.0354 J-0.0172
X4.1063 Y0.1365 I-0.0393 J-0.0025 F50.
G3 X4.1095 Y0.1215 I0.0146 J-0.0047
G1 X4.1123 Y0.1187 F60.
X4.1232 Y0.1081
X4.131 Y0.1051
X4.1389 Y0.1027
X4.147 Y0.1009
X4.1552 Y0.0997
X4.1635 Y0.0991
X4.1717 Y0.099
X4.18 Y0.0996
X4.1882 Y0.1007
X4.1963 Y0.1025
X4.2043 Y0.1048
X4.212 Y0.1077
X4.2196 Y0.1111
X4.2268 Y0.1151
X4.2338 Y0.1196
X4.2404 Y0.1246
X4.2467 Y0.13
X4.2525 Y0.1359
X4.2579 Y0.1422
X4.2628 Y0.1489
X4.2673 Y0.1559
X4.2712 Y0.1632
X4.2746 Y0.1707
X4.2774 Y0.1785
X4.2797 Y0.1865
X4.2814 Y0.1946
X4.2824 Y0.2028
X4.2814 Y0.2053
X4.2798 Y0.2076
X4.2778 Y0.2096
X4.2754 Y0.2111
X4.2728 Y0.2122
X4.27 Y0.2128
X4.2671
X4.2642 Y0.2122
X4.2614 Y0.2111
X4.2584 Y0.2093
X4.1292 Y0.1336
X4.1265 Y0.132 F50.
G3 X4.1232 Y0.1081 I0.0078 J-0.0133
G1 X4.1285 Y0.1023 F60.
X4.1341 Y0.097
X4.1402 Y0.0921
X4.1467 Y0.0878
X4.1534 Y0.0839
X4.1605 Y0.0807
X4.1678 Y0.078
X4.1753 Y0.0759
X4.1829 Y0.0744
X4.1907 Y0.0735
X4.1984 Y0.0732
X4.2062 Y0.0736
X4.2139 Y0.0746
X4.2215 Y0.0762
X4.229 Y0.0784
X4.2363 Y0.0812
X4.2433 Y0.0846
X4.25 Y0.0885
X4.2564 Y0.0929
X4.2624 Y0.0979
X4.268 Y0.1033
X4.2731 Y0.1091
X4.2778 Y0.1154
X4.2819 Y0.122
X4.2855 Y0.1289
X4.2886 Y0.136
X4.291 Y0.1434
X4.2929 Y0.151
X4.2941 Y0.1586
X4.2948 Y0.1664
Y0.1742
X4.2941 Y0.1819
X4.2929 Y0.1896
X4.2911 Y0.1972
X4.2886 Y0.2046
X4.2856 Y0.2117
X4.282 Y0.2186
X4.2779 Y0.2252
X4.2732 Y0.2314
X4.2681 Y0.2373
X4.2625 Y0.2427
X4.2565 Y0.2477
X4.2501 Y0.2521
X4.2434 Y0.256
X4.2364 Y0.2594
X4.2005 Y0.3061
G3 X4.188 Y0.3092 I-0.0088 J-0.0086
G1 X4.1713 Y0.3043
G2 X4.0879 Y0.2915 I-0.1007 J0.3764
X4.0857 I-0.0007 J0.0154
G1 X3.98 Y0.3019
X3.9779 Y0.3023
G2 X3.9029 Y0.329 I0.0927 J0.3785
X3.8831 Y0.3392 I0.1677 J0.3517 F50.
G3 X3.8747 Y0.3404 I-0.0059 J-0.0108
G1 X3.8641 Y0.3379 F60.
X3.8045 Y0.3239
X3.7951 Y0.3217
X3.7875 Y0.3173
X3.7802 Y0.3123
X3.7733 Y0.3069
X3.7667 Y0.301
X3.7606 Y0.2947
X3.7549 Y0.288
X3.7496 Y0.2809
X3.7449 Y0.2735
X3.7407 Y0.2657
X3.737 Y0.2577
X3.7338 Y0.2495
X3.7312 Y0.2411
X3.7292 Y0.2325
X3.7278 Y0.2238
X3.727 Y0.215
X3.7268 Y0.2062
X3.7271 Y0.1974
X3.7281 Y0.1886
X3.7297 Y0.1799
X3.7318 Y0.1714
X3.7345 Y0.163
X3.7378 Y0.1548
X3.7416 Y0.1469
X3.746 Y0.1392
X3.7508 Y0.1319
X3.7562 Y0.1249
X3.762 Y0.1183
X3.7649 Y0.1184
X3.7676 Y0.1191
X3.7701 Y0.1203
X3.7724 Y0.1218
G2 X3.7736 Y0.1226 I0.009 J-0.0125
G1 X3.7901 Y0.1323
X3.8707 Y0.1796
G2 X3.8892 Y0.1553 I0.0078 J-0.0133
X3.8623 Y0.1401 I-0.0432 J0.0449 F50.
X3.7338 Y0.1202 I-0.0995 J0.2185 F60.
G1 X3.7245 Y0.1211
X3.7231 Y0.1216
X3.7219 Y0.1221
X3.7208 Y0.1228
X3.6915 Y0.1439
G2 X3.6636 Y0.18 I0.0446 J0.0633
X3.794 Y0.3167 I0.1056 J0.0299
G1 X3.796 Y0.3178
X3.7983 Y0.3184
X3.8007 Y0.3185
X3.8032 Y0.3181
X3.8056 Y0.3172
X3.8078 Y0.3158
X3.8098 Y0.3139
X3.8114 Y0.3115
X3.8125 Y0.3089
X3.813 Y0.3059
Y0.3029
G2 X3.811 Y0.2982 I-0.0149 J0.0038
G1 X3.7166 Y0.1538
X3.7129 Y0.1482 F50.
G2 X3.6915 Y0.1439 I-0.0129 J0.0084
G1 X3.6769 Y0.1544 F60.
X3.6675 Y0.1655
X3.6636 Y0.18
G2 X3.6886 Y0.1951 I0.015 J0.0035
G1 X3.744 Y0.1472
X3.7463 Y0.1448
X3.748 Y0.142
G2 X3.7338 Y0.1202 I-0.014 J-0.0064 F50.
G1 X3.7237 Y0.1207 F60.
X3.7208 Y0.1228
G2 X3.7152 Y0.1383 I0.0094 J0.0122
G1 X3.7158 Y0.1412 Z-0.2097
X3.7165 Y0.144 Z-0.2088
X3.717 Y0.1466 Z-0.2074
X3.7175 Y0.1489 Z-0.2055
X3.718 Y0.1508 Z-0.2032
X3.7183 Y0.1522 Z-0.2005
X3.7185 Y0.153 Z-0.1976
Y0.1533 Z-0.1946
G0 Z0.4
X5.5387 Y1.26
Z0.1
G3 X5.4662 Y1.1332 Z0.0596 I-0.0362 J-0.0634 F50.
X5.5387 Y1.26 Z0.0191 I0.0362 J0.0634
X5.4662 Y1.1332 Z-0.0213 I-0.0362 J-0.0634
X5.5387 Y1.26 Z-0.0618 I0.0362 J0.0634
X5.4662 Y1.1332 Z-0.1022 I-0.0362 J-0.0634
X5.5387 Y1.26 Z-0.1427 I0.0362 J0.0634
X5.4662 Y1.1332 Z-0.1831 I-0.0362 J-0.0634
X5.5754 Y1.1966 Z-0.21 I0.0362 J0.0634
X5.4294 I-0.073 J0.
X5.5752 Y1.1907 I0.073 J0.
G1 X5.5754 Y1.1966
G3 X5.561 Y1.3189 I-0.0541 J0.0556 F60.
G1 X5.5492 Y1.3151
X5.5024 Y1.302
X5.4194 Y1.2782
X5.4118 Y1.2745
X5.4046 Y1.2703
X5.3977 Y1.2655
X5.3912 Y1.2603
X5.3851 Y1.2545
X5.3794 Y1.2484
X5.3742 Y1.2419
X5.3695 Y1.2349
X5.3653 Y1.2277
X5.3616 Y1.2202
X5.3585 Y1.2124
X5.3559 Y1.2044
X5.354 Y1.1963
X5.3526 Y1.188
X5.3519 Y1.1797
X5.3518 Y1.1713
X5.3522 Y1.163
X5.3533 Y1.1547
X5.355 Y1.1465
X5.3573 Y1.1384
X5.3602 Y1.1306
X5.3636 Y1.1229
X5.3676 Y1.1156
X5.3721 Y1.1085
X5.3771 Y1.1018
X5.3826 Y1.0955
X5.3885 Y1.0896
X5.3948 Y1.0841
X5.4016 Y1.0792
X5.4086 Y1.0747
G2 X5.5855 Y1.1257 I3.3598 J-11.3134
G1 X5.5942 Y1.1289
X5.6027 Y1.1327
X5.611 Y1.137
X5.6189 Y1.1418
X5.6265 Y1.1472
X5.6337 Y1.153
X5.6406 Y1.1593
X5.647 Y1.166
X5.6529 Y1.1731
X5.6584 Y1.1807
X5.6634 Y1.1885
X5.6679 Y1.1967
X5.6718 Y1.2051
X5.6751 Y1.2137
X5.6779 Y1.2226
X5.6801 Y1.2316
X5.6817 Y1.2408
X5.6827 Y1.25
X5.6831 Y1.2593
X5.6829 Y1.2686
X5.6821 Y1.2778
X5.6806 Y1.287
X5.6786 Y1.2961
X5.676 Y1.305
X5.6728 Y1.3137
X5.6691 Y1.3222
X5.6648 Y1.3305
X5.6599 Y1.3384
X5.6546 Y1.346
X5.6488 Y1.3532
X5.6425 Y1.3601
X5.6358 Y1.3665
X5.6059 Y1.3372
X5.5961 Y1.3301
X5.561 Y1.3189
G3 X5.5511 Y1.3071 I0.0052 J-0.0145
X5.616 Y1.2797 I0.0355 J-0.0064
X5.6304 Y1.3322 I-0.0641 J0.0458
X5.6277 Y1.3468 I-0.0784 J-0.0068 F50.
G2 X5.6315 Y1.3617 I0.0148 J0.0042
G1 X5.6429 Y1.3726 F60.
G2 X5.7628 Y1.2233 I0.0219 J-0.1052
X5.5855 Y1.1257 I-0.1861 J0.1281
X5.566 Y1.1405 I-0.0042 J0.0148
G1 X5.5662 Y1.1431
G2 X5.5965 Y1.138 I0.0152 J-0.0026
X5.585 Y1.1256 I-0.0152 J0.0026
G1 X5.4279 Y1.0878
G2 X5.4207 Y1.1177 I-0.0036 J0.0149
X5.4354 Y1.0921 I0.0036 J-0.0149
X5.4092 Y1.0757 I-0.0452 J0.0429 F50.
G1 X5.3815 Y1.0674 F60.
X5.373 Y1.0678
X5.3645 Y1.0688
X5.3561 Y1.0704
X5.3479 Y1.0727
X5.3398 Y1.0755
X5.332 Y1.0789
X5.3244 Y1.0829
X5.3171 Y1.0874
X5.3102 Y1.0924
X5.3037 Y1.098
X5.2976 Y1.104
X5.292 Y1.1104
X5.2868 Y1.1172
X5.2821 Y1.1244
X5.278 Y1.1318
X5.2745 Y1.1396
X5.2715 Y1.1476
X5.2691 Y1.1558
X5.2673 Y1.1642
X5.2661 Y1.1727
X5.2656 Y1.1812
Y1.1897
X5.2663 Y1.1982
X5.2676 Y1.2067
X5.2696 Y1.215
X5.2721 Y1.2232
X5.2752 Y1.2311
X5.2789 Y1.2388
G3 X5.4194 Y1.2782 I-8.1513 J29.3491
G2 X5.4362 Y1.2554 I0.0037 J-0.0149
X5.4235 Y1.2414 I-0.041 J0.0247
X5.3081 Y1.2278 I-0.0697 J0.0953
X5.2914 Y1.2365 I0.0456 J0.1089 F50.
G3 X5.2798 Y1.2384 I-0.0081 J-0.0131
G1 X5.2684 Y1.2353 F60.
X5.2555 Y1.2317
G3 X5.2528 Y1.0308 I0.0602 J-0.1013
G2 X5.3815 Y1.0674 I1.6432 J-5.5414
G3 X5.3916 Y1.0789 I-0.0049 J0.0146
X5.3877 Y1.0891 I-0.0101 J0.002
G1 X5.3851 Y1.0911
G3 X5.268 Y1.0569 I-0.0446 J-0.0649
X5.2635 Y1.0428 I0.0725 J-0.0308 F50.
G2 X5.2532 Y1.0314 I-0.015 J0.0033
G1 X5.2284 Y1.0244 F60.
G2 X5.1224 Y1.1909 I0.0021 J0.1183
X5.2555 Y1.2317 I0.4315 J-1.1708
X5.2703 Y1.2274 I0.0036 J-0.0149
X5.2696 Y1.21 I-0.0088 J-0.0084
X5.1508 Y1.1862 I-0.0793 J0.0875
X5.1372 Y1.192 I0.0395 J0.1113 F50.
G3 X5.1219 Y1.1912 I-0.0069 J-0.0137
G1 X5.0852 Y1.1653 F60.
X5.0804 Y1.1592
X5.0761 Y1.1527
X5.0723 Y1.1459
X5.0691 Y1.1388
X5.0664 Y1.1315
X5.0643 Y1.124
X5.0628 Y1.1164
X5.062 Y1.1086
X5.0617 Y1.1009
X5.062 Y1.0931
X5.063 Y1.0854
X5.0646 Y1.0777
X5.0667 Y1.0703
X5.0695 Y1.063
X5.0728 Y1.0559
X5.0767 Y1.0492
X5.081 Y1.0427
X5.0859 Y1.0367
X5.0913 Y1.031
X5.097 Y1.0258
X5.1032 Y1.021
X5.1097 Y1.0168
X5.1165 Y1.013
X5.1236 Y1.0099
X5.131 Y1.0073
X5.1385 Y1.0052
X5.1461 Y1.0038
X5.1539 Y1.003
X5.1616 Y1.0028
X5.1694 Y1.0032
X5.1771 Y1.0042
X5.1847 Y1.0059
X5.1922 Y1.0081
X5.1995 Y1.0109
X5.2065 Y1.0142
X5.2132 Y1.0182
X5.2196 Y1.0226
X5.2256 Y1.0275
X5.228 Y1.0278
X5.2302 Y1.0286
X5.2324 Y1.0298
X5.2343 Y1.0315
X5.2359 Y1.0335
X5.237 Y1.0359
X5.2377 Y1.0386
X5.2378 Y1.0414
X5.2374 Y1.0442
X5.2364 Y1.047
X5.2349 Y1.0495
X5.2328 Y1.0517 Z-0.2097
X5.2309 Y1.0538 Z-0.2088
X5.2291 Y1.0558 Z-0.2074
X5.2275 Y1.0575 Z-0.2055
X5.2262 Y1.0589 Z-0.2032
X5.2252 Y1.0599 Z-0.2005
X5.2246 Y1.0605 Z-0.1976
X5.2244 Y1.0608 Z-0.1946
G0 Z0.4
X5.6234 Y1.3309
Z-0.1793
G1 Z-0.1946 F50.
X5.6235 Y1.3312 Z-0.1976
X5.6237 Y1.3321 Z-0.2005
X5.6241 Y1.3334 Z-0.2032
X5.6246 Y1.3353 Z-0.2055
X5.6252 Y1.3375 Z-0.2074
X5.6259 Y1.3401 Z-0.2088
X5.6267 Y1.3429 Z-0.2097
X5.6275 Y1.3458 Z-0.21
G2 X5.6429 Y1.3726 I0.06 J-0.0166
G1 X5.6541 Y1.384 F60.
X5.6748 Y1.4057
G2 X5.8453 Y1.3056 I0.0548 J-0.1018
G1 X5.7853 Y1.2434
X5.7833 Y1.2414
X5.765 Y1.2224
G2 X5.7501 Y1.2186 I-0.0107 J0.011
X5.7335 Y1.2492 I0.0066 J0.0234
X5.8157 Y1.3045 I0.0753 J-0.0231
X5.8303 Y1.3019 I-0.0069 J-0.0784 F50.
G3 X5.8451 Y1.3056 I0.0042 J0.0148
G1 X5.8652 Y1.3264 F60.
G3 X5.7647 Y1.5012 I-0.1074 J0.0545
G2 X5.6748 Y1.4057 I-2.633 J2.3894
G3 X5.6709 Y1.3955 I0.0115 J-0.0102
G1 X5.6711 Y1.393
X5.6717 Y1.3907
G3 X5.6862 Y1.38 I0.0148 J0.0049
X5.7654 Y1.4703 I0.0013 J0.0787
X5.7618 Y1.4847 I-0.0779 J-0.0116 F50.
G2 X5.7647 Y1.4998 I0.0145 J0.0051
G1 X5.7833 Y1.52 F60.
G2 X5.9578 Y1.4239 I0.056 J-0.1049
X5.8652 Y1.3264 I-5.416 J5.0532
X5.8391 Y1.3377 I-0.0107 J0.011
X5.8524 Y1.3747 I0.0611 J-0.001
X5.9272 Y1.4181 I0.0925 J-0.0734
X5.946 Y1.4194 I0.0177 J-0.1168 F50.
G3 X5.9569 Y1.4238 I0.0001 J0.0154
G1 X5.9636 Y1.4309 F60.
X5.9705 Y1.4383
X5.9744 Y1.4422
G3 X5.8735 Y1.6153 I-0.1047 J0.0549
G1 X5.8321 Y1.5715
X5.7875 Y1.5246
X5.7833 Y1.52
G3 X5.7805 Y1.5049 I0.0117 J-0.01
X5.7917 Y1.4965 I0.012 J0.0042
X5.8736 Y1.5851 I0.0038 J0.0786
X5.8703 Y1.5995 I-0.0781 J-0.0099 F50.
G2 X5.8735 Y1.6146 I0.0146 J0.0048
G1 X5.8922 Y1.634 F60.
G2 X6.0677 Y1.5385 I0.0571 J-0.1041
G3 X5.9744 Y1.4422 I5.288 J-5.2215
G2 X5.9483 Y1.4536 I-0.0107 J0.0111
X5.9615 Y1.49 I0.0599 J-0.001
X6.0371 Y1.533 I0.0921 J-0.074
X6.0559 Y1.5342 I0.0165 J-0.1169 F50.
G3 X6.0668 Y1.5385 I0.0003 J0.0154
G1 X6.0858 Y1.5581 F60.
G3 X5.9874 Y1.7294 I-0.1061 J0.053
X5.8922 Y1.634 I1.6073 J-1.6995
X5.889 Y1.6189 I0.0114 J-0.0103
X5.9435 Y1.6038 I0.0323 J0.0105
X5.984 Y1.6998 I-0.0773 J0.0893
X5.9823 Y1.7145 I-0.1179 J-0.0067 F50.
G2 X5.982 Y1.7173 I0.0151 J0.0028
X5.9874 Y1.729 I0.0154 J0.
G1 X6.0109 Y1.7477 F60.
X6.0174 Y1.7523
X6.0183 Y1.7527
X6.0193 Y1.753
X6.0203 Y1.7533
X6.0454 Y1.7577
G2 X6.0759 Y1.7566 I0.0133 J-0.0566
G1 X6.1031 Y1.745
G2 X6.113 Y1.7393 I-0.0064 J-0.0228
X6.0858 Y1.5581 I-0.0838 J-0.0801
X6.0599 Y1.5712 I-0.0107 J0.0111
G1 X6.0819 Y1.7296
X6.0823 Y1.7328 F50.
G2 X6.1031 Y1.745 I0.0152 J-0.0021
G1 X6.1109 Y1.7416 F60.
X6.113 Y1.7393
G2 X6.1158 Y1.7242 I-0.0117 J-0.0099
X6.0958 Y1.7198 I-0.0114 J0.0041
X6.0887 Y1.7298 I0.0282 J0.0275
X6.0847 Y1.744 I0.0352 J0.0176 F50.
G3 X6.0759 Y1.7566 I-0.0153 J-0.0013
X6.0454 Y1.7577 I-0.0162 J-0.0269 F60.
X6.034 Y1.7475 I0.0032 J-0.015
G1 X6.0292 Y1.7334
X6.022 Y1.712
G2 X6.0023 Y1.7024 I-0.0146 J0.0049
X5.9931 Y1.7224 I0.0052 J0.0145
X6.0109 Y1.7477 I0.0583 J-0.0221 F50.
G1 X6.0173 Y1.7528 F60.
X6.0203 Y1.7533
G2 X6.0353 Y1.7465 I0.0021 J-0.0152
G1 X6.0369 Y1.744 Z-0.2097
X6.0385 Y1.7415 Z-0.2088
X6.0399 Y1.7393 Z-0.2074
X6.0412 Y1.7374 Z-0.2055
X6.0422 Y1.7358 Z-0.2032
X6.043 Y1.7346 Z-0.2005
X6.0435 Y1.7338 Z-0.1976
X6.0437 Y1.7336 Z-0.1946
G0 Z0.4
X2.3054 Y-1.4269
Z-0.1793
G1 Z-0.1946 F50.
X2.3052 Y-1.4272 Z-0.1976
X2.3047 Y-1.4279 Z-0.2005
X2.3038 Y-1.429 Z-0.2032
X2.3026 Y-1.4305 Z-0.2055
X2.3012 Y-1.4324 Z-0.2074
X2.2996 Y-1.4345 Z-0.2088
X2.2979 Y-1.4368 Z-0.2097
X2.296 Y-1.4392 Z-0.21
G3 X2.2522 Y-1.5115 I0.3117 J-0.2383
G1 X2.2518 Y-1.5217 F60.
X2.252 Y-1.5319
X2.2529 Y-1.5421
X2.2543 Y-1.5522
X2.2563 Y-1.5623
X2.259 Y-1.5721
X2.2622 Y-1.5819
X2.266 Y-1.5914
X2.2703 Y-1.6006
X2.2752 Y-1.6096
X2.2806 Y-1.6183
X2.2865 Y-1.6266
X2.2929 Y-1.6346
X2.2998 Y-1.6421
X2.3071 Y-1.6493
X2.3149 Y-1.656
X2.323 Y-1.6622
X2.3314 Y-1.6679
X2.3402 Y-1.6732
X2.3493 Y-1.6778
X2.3587 Y-1.682
X2.3683 Y-1.6855
X2.378 Y-1.6885
X2.388 Y-1.6909
X2.398 Y-1.6927
G3 X3.6996 Y-2.4144 I14.8341 J25.2182
X3.9061 Y-2.3189 I0.026 J0.2149
X3.7639 Y-2.0203 I-0.1859 J0.0946
X2.354 Y-1.2377 I-16.8758 J-28.7429
X1.505 Y-1.0689 I-2.8951 J-12.3411
X1.5507 Y-1.4608 I0.0366 J-0.1943
X2.0664 Y-1.5745 I1.5734 J5.9098
G2 X2.2155 Y-1.6883 I-0.0759 J-0.254
G3 X3.1586 Y-2.2369 I4.4209 J6.5151
G1 X3.7242 Y-2.4773
X3.7365 Y-2.4796
X3.7489 Y-2.4813
X3.7614 Y-2.4824
X3.7738 Y-2.4829
X3.7863 Y-2.4828
X3.7988 Y-2.482
X3.8112 Y-2.4807
X3.8236 Y-2.4787
X3.8358 Y-2.4761
X3.8479 Y-2.4729
X3.8598 Y-2.4691
X3.8715 Y-2.4647
X3.883 Y-2.4598
X3.8942 Y-2.4543
X3.9051 Y-2.4482
X3.9158 Y-2.4416
X3.926 Y-2.4345
X3.936 Y-2.4269
X3.9455 Y-2.4188
X3.9546 Y-2.4102
X3.9633 Y-2.4012
X3.9715 Y-2.3918
X3.9792 Y-2.382
X3.9865 Y-2.3718
X3.9932 Y-2.3613
X3.9994 Y-2.3504
X4.0051 Y-2.3393
X4.0102 Y-2.3279
X4.0147 Y-2.3162
X4.0186 Y-2.3044
X4.022 Y-2.2923
X4.0247 Y-2.2801
X4.0269 Y-2.2678
X4.0284 Y-2.2554
X4.0293 Y-2.243
X4.0296 Y-2.2305
X4.0293 Y-2.218
X4.0283 Y-2.2055
X4.0268 Y-2.1931
X4.0246 Y-2.1808
X4.0218 Y-2.1686
X4.0184 Y-2.1566
X4.0144 Y-2.1447
X4.0099 Y-2.1331
X4.0048 Y-2.1217
X3.9991 Y-2.1106
X3.9928 Y-2.0997
X3.5015 Y-1.758
G3 X3.1798 Y-1.5723 I-2.6139 J-4.1557
G1 X2.9355 Y-1.438
G3 X2.18 Y-1.0886 I-1.4974 J-2.2464
G2 X1.7526 Y-1.0097 I1.9532 J11.7795
G1 X1.4739 Y-1.0093
X1.4614 Y-1.0111
X1.449 Y-1.0134
X1.4367 Y-1.0163
X1.4246 Y-1.0198
X1.4127 Y-1.024
X1.4009 Y-1.0286
X1.3895 Y-1.0339
X1.3783 Y-1.0397
X1.3673 Y-1.0461
X1.3568 Y-1.0529
X1.3465 Y-1.0603
X1.3367 Y-1.0682
X1.3272 Y-1.0766
X1.3181 Y-1.0854
X1.3095 Y-1.0946
X1.3014 Y-1.1042
X1.2937 Y-1.1143
X1.2866 Y-1.1247
X1.2799 Y-1.1354
X1.2738 Y-1.1464
X1.2682 Y-1.1578
X1.2632 Y-1.1693
X1.2588 Y-1.1812
X1.2549 Y-1.1932
X1.2517 Y-1.2054
X1.249 Y-1.2177
X1.2469 Y-1.2302
X1.2455 Y-1.2427
X1.2447 Y-1.2553
X1.2444 Y-1.2679
X1.2448 Y-1.2805
X1.2458 Y-1.2931
X1.2475 Y-1.3056
X1.2497 Y-1.318
X1.2526 Y-1.3303
X1.256 Y-1.3425
X1.26 Y-1.3544
X1.2646 Y-1.3662
X1.2698 Y-1.3777
X1.2755 Y-1.389
X1.2818 Y-1.3999
X1.2886 Y-1.4105
X1.2959 Y-1.4208
X1.3037 Y-1.4307
X1.312 Y-1.4403
X1.3208 Y-1.4494
X1.3299 Y-1.458
X1.5677 Y-1.5607
G3 X2.0484 Y-1.678 I1.4531 J4.9093
X2.2947 Y-1.8708 I1.7255 J1.9509
G1 X3.1586 Y-2.2369
G3 X3.1765 Y-2.2315 I0.0055 J0.0143
G1 X3.1829 Y-2.2228
X3.5007 Y-1.785
X3.5048 Y-1.7794 F50.
G3 X3.5015 Y-1.758 I-0.0124 J0.009
G1 X2.6811 Y-1.1906 F60.
G3 X2.2446 Y-1.0094 I-0.659 J-0.9714
G1 X1.7527 Y-1.0093
G3 X1.7387 Y-1.0197 I0.0005 J-0.0154
G1 X1.7347 Y-1.0314
X1.5624 Y-1.5338
X1.5596 Y-1.5418 F50.
G3 X1.5677 Y-1.5607 I0.0145 J-0.005
G1 X2.2953 Y-1.8699 F60.
G3 X2.3161 Y-1.8545 I0.0055 J0.0143
G1 X2.3159 Y-1.8515 Z-0.2097
X2.3157 Y-1.8486 Z-0.2088
X2.3155 Y-1.8459 Z-0.2074
X2.3153 Y-1.8436 Z-0.2055
X2.3152 Y-1.8417 Z-0.2032
X2.3151 Y-1.8403 Z-0.2005
X2.315 Y-1.8394 Z-0.1976
Y-1.8391 Z-0.1946
G0 Z-0.1793
X2.707 Y-1.2286
G1 Z-0.1946 F50.
X2.7068 Y-1.2284 Z-0.1976
X2.7065 Y-1.2276 Z-0.2005
X2.7059 Y-1.2263 Z-0.2032
X2.7051 Y-1.2245 Z-0.2055
X2.7041 Y-1.2224 Z-0.2074
X2.703 Y-1.22 Z-0.2088
X2.7018 Y-1.2174 Z-0.2097
X2.7006 Y-1.2146 Z-0.21
G3 X2.6811 Y-1.1906 I-0.0567 J-0.0259
G1 X2.4307 Y-1.0174 F60.
G3 X2.4115 Y-1.0093 I-0.0169 J-0.0133
G1 X2.2446
G3 X2.2315 Y-1.0318 I0.0005 J-0.0154
G1 X2.2328 Y-1.0344 Z-0.2097
X2.2342 Y-1.037 Z-0.2088
X2.2354 Y-1.0393 Z-0.2074
X2.2364 Y-1.0414 Z-0.2055
X2.2373 Y-1.0431 Z-0.2032
X2.238 Y-1.0444 Z-0.2005
X2.2384 Y-1.0452 Z-0.1976
X2.2385 Y-1.0454 Z-0.1946
G0 Z-0.1793
X1.3748 Y-1.4607
G1 Z-0.1946 F50.
X1.3745 Y-1.4608 Z-0.1976
X1.3737 Y-1.4609 Z-0.2005
X1.3723 Y-1.4611 Z-0.2032
X1.3704 Y-1.4613 Z-0.2055
X1.3681 Y-1.4617 Z-0.2074
X1.3654 Y-1.462 Z-0.2088
X1.3626 Y-1.4624 Z-0.2097
X1.3596 Y-1.4628 Z-0.21
G2 X1.3513 Y-1.4634 I-0.0084 J0.0617
G1 X1.3512
G2 X1.3289 Y-1.4592 I0. J0.0623
G1 X1.2395 Y-1.4212 F60.
G2 X1.2569 Y-1.0175 I0.1749 J0.1947
G1 X1.2551 Y-1.0108
X1.2576 Y-1.0098
X1.2602 Y-1.0094
X1.2629 Y-1.0093
X1.4739
G2 X1.4869 Y-1.0175 I-0.0005 J-0.0154
X1.4551 Y-1.0928 I-0.0465 J-0.0248
X1.281 Y-1.03 I-0.0438 J0.1513
X1.2733 Y-1.0174 I0.1303 J0.0884 F50.
G3 X1.2602 Y-1.0094 I-0.0135 J-0.0074
X1.1205 Y-1.1377 I0.0502 J-0.1948 F60.
X1.0797 Y-1.3533 I0.1332 J-0.1368
G1 X1.2395 Y-1.4212
G3 X1.2547 Y-1.4188 I0.0055 J0.0143
X1.2597 Y-1.3671 I-0.0229 J0.0284
X1.107 Y-1.3424 I-0.0906 J-0.0757
X1.0949 Y-1.3509 I0.0621 J-0.1005 F50.
G2 X1.0797 Y-1.3533 I-0.0097 J0.012
G1 X1.0391 Y-1.336 F60.
G2 X0.9854 Y-1.2209 I0.0544 J0.0954
G3 X1.1113 Y-1.1345 I-0.1937 J0.4172
G2 X1.1355 Y-1.1523 I0.0101 J-0.0116
G1 X1.0617 Y-1.321
X1.0587 Y-1.3279 F50.
G2 X1.0391 Y-1.336 I-0.0141 J0.0062
G1 X0.9582 Y-1.3017 F60.
G2 X0.9261 Y-1.2483 I0.0029 J0.038
G1 X0.9348 Y-1.2449
X0.9816 Y-1.2245
X0.9882 Y-1.2214
G2 X1.0085 Y-1.2413 I0.006 J-0.0141
X0.9972 Y-1.2521 I-0.0175 J0.0071
X0.9557 Y-1.2548 I-0.0257 J0.0744
X0.9379 Y-1.2489 I0.0157 J0.0772 F50.
G3 X0.9261 Y-1.2483 I-0.0065 J-0.0139
G1 X0.9178 Y-1.2517 F60.
X0.9142 Y-1.2526
X0.9085 Y-1.2545
X0.9037 Y-1.258
X0.8996 Y-1.2624
X0.899 Y-1.2634
X0.8974 Y-1.2675
X0.8977 Y-1.2719
X0.8998 Y-1.2758
X0.9034 Y-1.2784
G3 X0.9175 Y-1.281 I0.0141 J0.0367
X0.9306 Y-1.2725 I0. J0.0144
G1 X0.931 Y-1.2715
G3 X0.9142 Y-1.2526 I-0.0135 J0.0049 F50.
G1 X0.9113 Y-1.2534 F60.
X0.89 Y-1.2586
X0.8843 Y-1.2604
X0.8823 Y-1.2628
X0.8818 Y-1.2659
X0.883 Y-1.2688
X0.8854 Y-1.2707
X0.889 Y-1.2721 F50.
G3 X0.8939 Y-1.2589 I0.0025 J0.0066
X0.89 Y-1.2586 I-0.0025 J-0.0066
G1 X0.8784 Y-1.2615 F60.
X0.8767 Y-1.2619
X0.8749 Y-1.2623
X0.8735 Y-1.2628
X0.873 Y-1.2639
X0.8732 Y-1.2651
X0.8741 Y-1.2659
X0.8749 Y-1.2662 F50.
X0.876 Y-1.2661
X0.8769 Y-1.2653
X0.8772 Y-1.2643
X0.8769 Y-1.2632
X0.876 Y-1.2625
X0.8749 Y-1.2623
X0.8707 Y-1.2634 F60.
X0.8701 Y-1.2635
X0.8694 Y-1.2639
X0.9582 Y-1.3017
G3 X0.979 Y-1.2862 I0.0055 J0.0143
G1 X0.9788 Y-1.2832 Z-0.2097
X0.9786 Y-1.2803 Z-0.2088
X0.9784 Y-1.2777 Z-0.2074
X0.9782 Y-1.2753 Z-0.2055
X0.9781 Y-1.2734 Z-0.2032
X0.978 Y-1.272 Z-0.2005
X0.9779 Y-1.2712 Z-0.1976
Y-1.2709 Z-0.1946
G0 Z-0.1793
X3.6913 Y-2.4453
G1 Z-0.1946 F50.
X3.6914 Y-2.4455 Z-0.1976
X3.6919 Y-2.4462 Z-0.2005
X3.6928 Y-2.4473 Z-0.2032
X3.6939 Y-2.4489 Z-0.2055
X3.6953 Y-2.4508 Z-0.2074
X3.6969 Y-2.4529 Z-0.2088
X3.6986 Y-2.4552 Z-0.2097
X3.7003 Y-2.4577 Z-0.21
G3 X3.7242 Y-2.4773 I0.0503 J0.0368
G1 X3.8414 Y-2.5271 F60.
G3 X4.1091 Y-2.278 I0.0313 J0.2347
X4.1155 Y-2.1827 I-0.0615 J0.052
G1 X3.9943 Y-2.0988
G3 X3.979 Y-2.0981 I-0.0083 J-0.0129
X3.9717 Y-2.1687 I0.0194 J-0.0377
X4.0866 Y-2.1879 I0.0744 J0.0918
X4.1002 Y-2.182 I-0.0405 J0.1109 F50.
G2 X4.1155 Y-2.1827 I0.007 J-0.0137
G1 X4.1527 Y-2.2084 F60.
G2 X4.0717 Y-2.5452 I-0.1949 J-0.1312
X4.0052 Y-2.5967 I-0.0651 J0.0154
G1 X3.8414 Y-2.5271
G2 X3.8326 Y-2.5145 I0.0065 J0.0139
X3.8619 Y-2.4776 I0.0342 J0.003
X3.9942 Y-2.5694 I0.0168 J-0.1169
X3.9964 Y-2.5841 I-0.1154 J-0.025 F50.
G3 X4.0052 Y-2.5967 I0.0153 J0.0013
G1 X4.0457 Y-2.6139 F60.
G3 X4.2786 Y-2.3657 I-0.0001 J0.2335
X4.2862 Y-2.3008 I-0.0257 J0.0359
G1 X4.1527 Y-2.2084
G3 X4.1374 Y-2.2077 I-0.0083 J-0.0129
X4.1243 Y-2.2686 I0.0185 J-0.0358
X4.2573 Y-2.306 I0.0924 J0.0735
X4.2709 Y-2.3 I-0.0405 J0.1109 F50.
G2 X4.2862 Y-2.3008 I0.007 J-0.0137
G1 X4.3197 Y-2.3239 F60.
X4.3257 Y-2.334
X4.331 Y-2.3444
X4.3359 Y-2.3551
X4.3402 Y-2.366
X4.3439 Y-2.3771
X4.347 Y-2.3884
X4.3495 Y-2.3998
X4.3515 Y-2.4114
X4.3528 Y-2.423
X4.3535 Y-2.4347
X4.3537 Y-2.4464
X4.3532 Y-2.4581
X4.3521 Y-2.4698
X4.3504 Y-2.4814
X4.3481 Y-2.4929
X4.3452 Y-2.5042
X4.3417 Y-2.5154
X4.3377 Y-2.5264
X4.3331 Y-2.5372
X4.3279 Y-2.5477
X4.3222 Y-2.5579
X4.3159 Y-2.5678
X4.3092 Y-2.5774
X4.302 Y-2.5866
X4.2943 Y-2.5954
X4.2861 Y-2.6039
X4.2776 Y-2.6118
X4.2686 Y-2.6194
X4.2592 Y-2.6264
X4.2495 Y-2.633
X4.2395 Y-2.639
X4.2292 Y-2.6445
G2 X4.1912 Y-2.6757 I-0.0319 J0.0001
G1 X4.0524 Y-2.6168
G2 X4.0436 Y-2.6042 I0.0065 J0.0139
X4.0971 Y-2.56 I0.042 J0.0037
X4.1802 Y-2.6485 I-0.0324 J-0.1136
X4.1824 Y-2.6632 I-0.1154 J-0.025 F50.
G3 X4.1912 Y-2.6757 I0.0153 J0.0013
G1 X4.2294 Y-2.692 F60.
G3 X4.4463 Y-2.4184 I-0.0112 J0.2317
G1 X4.4499 Y-2.4146
X4.4475 Y-2.4123
X4.3197 Y-2.3239
G3 X4.3044 Y-2.3232 I-0.0083 J-0.0129
X4.2938 Y-2.3893 I0.0191 J-0.037
X4.4186 Y-2.4175 I0.0843 J0.0827
X4.4322 Y-2.4116 I-0.0405 J0.1109 F50.
G2 X4.4475 Y-2.4123 I0.007 J-0.0137
G1 X4.4805 Y-2.4351 F60.
G2 X4.3747 Y-2.7485 I-0.1882 J-0.111
G1 X4.3732 Y-2.7526
X4.3702 Y-2.7518
X4.2294 Y-2.692
G2 X4.2206 Y-2.6794 I0.0065 J0.0139
X4.2725 Y-2.6351 I0.0418 J0.0037
X4.3592 Y-2.7246 I-0.0288 J-0.1145
X4.3614 Y-2.7393 I-0.1154 J-0.025 F50.
G3 X4.3702 Y-2.7518 I0.0153 J0.0013
G1 X4.404 Y-2.7662 F60.
G3 X4.6047 Y-2.5243 I0.0024 J0.2022
G1 X4.6053 Y-2.5214
X4.4805 Y-2.4351
G3 X4.4652 Y-2.4344 I-0.0083 J-0.0129
X4.4561 Y-2.5028 I0.0193 J-0.0374
X4.5763 Y-2.5266 I0.0797 J0.0871
X4.5899 Y-2.5207 I-0.0405 J0.1109 F50.
G2 X4.6053 Y-2.5214 I0.007 J-0.0137
G1 X4.6323 Y-2.5401 F60.
X4.6384 Y-2.549
X4.6439 Y-2.5582
X4.6489 Y-2.5677
X4.6533 Y-2.5774
X4.6572 Y-2.5874
X4.6604 Y-2.5976
X4.6631 Y-2.608
X4.6652 Y-2.6185
X4.6667 Y-2.6291
X4.6676 Y-2.6398
X4.6679 Y-2.6505
X4.6675 Y-2.6612
X4.6665 Y-2.6719
X4.665 Y-2.6825
X4.6628 Y-2.693
X4.66 Y-2.7034
X4.6566 Y-2.7135
X4.6527 Y-2.7235
X4.6482 Y-2.7332
X4.6431 Y-2.7427
X4.6375 Y-2.7518
X4.6314 Y-2.7606
X4.6248 Y-2.7691
X4.6178 Y-2.7771
X4.6102 Y-2.7847
X4.6023 Y-2.7919
X4.5939 Y-2.7987
X4.5852 Y-2.8049
X4.5762 Y-2.8106
X4.5668 Y-2.8158
X4.5571 Y-2.8204
X4.5472 Y-2.8245
X4.5451 Y-2.8261
X4.404 Y-2.7662
G2 X4.3952 Y-2.7536 I0.0065 J0.0139
X4.447 Y-2.7093 I0.0417 J0.0037
X4.534 Y-2.7989 I-0.0284 J-0.1146
X4.5363 Y-2.8136 I-0.1154 J-0.025 F50.
G3 X4.5451 Y-2.8261 I0.0153 J0.0013
G1 X4.5794 Y-2.8407 F60.
X4.5897 Y-2.8408
X4.6001 Y-2.8402
X4.6103 Y-2.8391
X4.6205 Y-2.8373
X4.6306 Y-2.835
X4.6405 Y-2.8321
X4.6502 Y-2.8286
X4.6597 Y-2.8246
X4.669 Y-2.82
X4.6779 Y-2.8148
X4.6866 Y-2.8092
X4.6949 Y-2.803
X4.7029 Y-2.7964
X4.7104 Y-2.7894
X4.7175 Y-2.7819
X4.7242 Y-2.774
X4.7304 Y-2.7657
X4.7361 Y-2.7571
X4.7413 Y-2.7482
X4.746 Y-2.739
X4.7501 Y-2.7295
X4.7537 Y-2.7198
X4.7567 Y-2.7099
X4.7591 Y-2.6999
X4.7609 Y-2.6897
X4.7621 Y-2.6794
X4.7628 Y-2.6691
Y-2.6588
X4.7622 Y-2.6485
X4.7611 Y-2.6382
X4.7593 Y-2.628
X4.6323 Y-2.5401
G3 X4.617 Y-2.5394 I-0.0083 J-0.0129
X4.6067 Y-2.6061 I0.0191 J-0.0371
X4.7305 Y-2.6332 I0.0833 J0.0838
X4.7441 Y-2.6273 I-0.0405 J0.1109 F50.
G2 X4.7594 Y-2.628 I0.007 J-0.0137
G1 X4.7904 Y-2.6494 F60.
G2 X4.7156 Y-2.8986 I-0.1417 J-0.0933
G1 X4.5794 Y-2.8407
G2 X4.5706 Y-2.8282 I0.0065 J0.0139
X4.626 Y-2.7842 I0.0422 J0.0037
X4.7045 Y-2.8714 I-0.0369 J-0.1122
X4.7068 Y-2.886 I-0.1154 J-0.025 F50.
G3 X4.7156 Y-2.8986 I0.0153 J0.0013
G1 X4.7442 Y-2.9108 F60.
G3 X4.9097 Y-2.7319 I0.0128 J0.1542
G1 X4.7904 Y-2.6494
G3 X4.7671 Y-2.6657 I-0.0083 J-0.0129
X4.7688 Y-2.6704 I0.0179 J0.0039
X4.8794 Y-2.7324 I0.104 J0.0559
X4.8981 Y-2.7298 I-0.0066 J0.1179 F50.
G2 X4.9097 Y-2.7319 I0.0033 J-0.015
G1 X4.9372 Y-2.751 F60.
X4.9426 Y-2.7585
X4.9475 Y-2.7664
X4.9518 Y-2.7746
X4.9557 Y-2.7831
X4.9589 Y-2.7917
X4.9616 Y-2.8006
X4.9637 Y-2.8097
X4.9652 Y-2.8188
X4.9662 Y-2.8281
X4.9665 Y-2.8374
X4.9662 Y-2.8466
X4.9652 Y-2.8559
X4.9637 Y-2.865
X4.9616 Y-2.8741
X4.9589 Y-2.883
X4.9557 Y-2.8917
X4.9519 Y-2.9001
X4.9475 Y-2.9083
X4.9426 Y-2.9162
X4.9372 Y-2.9237
X4.9313 Y-2.9309
X4.925 Y-2.9377
X4.9182 Y-2.9441
X4.911 Y-2.95
X4.9035 Y-2.9554
X4.8956 Y-2.9603
X4.8874 Y-2.9647
X4.879 Y-2.9685
X4.7442 Y-2.9108
G2 X4.7354 Y-2.8982 I0.0065 J0.0139
X4.7919 Y-2.8545 I0.0423 J0.0037
X4.8677 Y-2.9407 I-0.0396 J-0.1113
X4.87 Y-2.9554 I-0.1154 J-0.025 F50.
G3 X4.8788 Y-2.968 I0.0153 J0.0013
G1 X4.909 Y-2.9808 F60.
X4.9179 Y-2.9814
X4.9268 Y-2.9815
X4.9356 Y-2.9809
X4.9445 Y-2.9797
X4.9532 Y-2.9779
X4.9618 Y-2.9756
X4.9702 Y-2.9727
X4.9784 Y-2.9692
X4.9863 Y-2.9651
X4.994 Y-2.9606
X5.0013 Y-2.9555
X5.0082 Y-2.95
X5.0148 Y-2.944
X5.021 Y-2.9376
X5.0267 Y-2.9307
X5.0319 Y-2.9235
X5.0366 Y-2.916
X5.0408 Y-2.9081
X5.0445 Y-2.9
X5.0476 Y-2.8917
X5.0502 Y-2.8832
X5.0521 Y-2.8745
X5.0535 Y-2.8657
X5.0543 Y-2.8568
X5.0545 Y-2.8479
X5.0541 Y-2.8391
X5.053 Y-2.8302
X4.9372 Y-2.751
G3 X4.9218 Y-2.7502 I-0.0083 J-0.0129
X4.9181 Y-2.8237 I0.0195 J-0.0378
X5.0231 Y-2.8356 I0.0644 J0.099
X5.0367 Y-2.8296 I-0.0405 J0.1109 F50.
G2 X5.052 Y-2.8304 I0.007 J-0.0137
G1 X5.076 Y-2.847 F60.
X5.0814 Y-2.8537
X5.0862 Y-2.8608
X5.0906 Y-2.8682
X5.0943 Y-2.8759
X5.0976 Y-2.8838
X5.1002 Y-2.892
X5.1023 Y-2.9003
X5.1038 Y-2.9088
X5.1047 Y-2.9173
X5.1049 Y-2.9259
X5.1046 Y-2.9344
X5.1037 Y-2.943
X5.1021 Y-2.9514
X5.1 Y-2.9597
X5.0972 Y-2.9678
X5.0939 Y-2.9757
X5.0901 Y-2.9834
X5.0857 Y-2.9908
X5.0808 Y-2.9978
X5.0754 Y-3.0045
X5.0695 Y-3.0107
X5.0632 Y-3.0166
X5.0565 Y-3.0219
X5.0495 Y-3.0268
X5.0421 Y-3.0312
X5.0344 Y-3.035
X4.909 Y-2.9808
G2 X4.9015 Y-2.9604 I0.0065 J0.0139
X4.923 Y-2.9477 I0.0199 J-0.0093
X5.0182 Y-3.0081 I-0.008 J-0.1178
X5.026 Y-3.0252 I-0.1032 J-0.0575 F50.
G3 X5.0339 Y-3.0339 I0.0144 J0.0053
G1 X5.0604 Y-3.0452 F60.
X5.0685 Y-3.046
X5.0766 Y-3.0463
X5.0847 Y-3.046
X5.0928 Y-3.0452
X5.1008 Y-3.0437
X5.1087 Y-3.0416
X5.1164 Y-3.039
X5.1239 Y-3.0358
X5.1312 Y-3.0321
X5.1381 Y-3.0279
X5.1448 Y-3.0232
X5.151 Y-3.018
X5.1569 Y-3.0123
X5.1623 Y-3.0063
X5.1673 Y-2.9998
X5.1718 Y-2.9931
X5.1758 Y-2.986
X5.1793 Y-2.9786
X5.1823 Y-2.971
X5.1846 Y-2.9632
X5.1864 Y-2.9553
X5.1876 Y-2.9472
X5.1883 Y-2.9391
Y-2.931
X5.1877 Y-2.9229
X5.076 Y-2.847
G3 X5.0527 Y-2.8632 I-0.0083 J-0.0129
X5.0705 Y-2.8937 I0.0559 J0.0122
X5.1557 Y-2.9235 I0.0787 J0.0881
X5.1744 Y-2.921 I-0.0066 J0.1179 F50.
G2 X5.186 Y-2.923 I0.0033 J-0.015
G1 X5.2082 Y-2.9384 F60.
G2 X5.1789 Y-3.0968 I-0.0761 J-0.0678
G1 X5.0604 Y-3.0452
G2 X5.0516 Y-3.0326 I0.0065 J0.0139
X5.0614 Y-3.0165 I0.0158 J0.0014
X5.1666 Y-3.068 I0.0294 J-0.073
X5.1693 Y-3.0826 I-0.0758 J-0.0215 F50.
G3 X5.1781 Y-3.0952 I0.0153 J0.0013
G1 X5.201 Y-3.1049 F60.
G3 X5.311 Y-3.0079 I0.0174 J0.0912
G1 X5.2082 Y-2.9384
G3 X5.1928 Y-2.9376 I-0.0083 J-0.0129
X5.1828 Y-2.9623 I0.0094 J-0.0182
X5.2798 Y-3.0128 I0.0747 J0.025
X5.2935 Y-3.0073 I-0.0223 J0.0755 F50.
G2 X5.3089 Y-3.008 I0.007 J-0.0137
G1 X5.3298 Y-3.0225 F60.
G2 X5.3102 Y-3.1529 I-0.0627 J-0.0573
G1 X5.201 Y-3.1049
G2 X5.1922 Y-3.0924 I0.0065 J0.0139
X5.213 Y-3.0669 I0.0234 J0.0021
X5.2975 Y-3.1237 I0.0088 J-0.0783
X5.3002 Y-3.1383 I-0.0758 J-0.0215 F50.
G3 X5.309 Y-3.1508 I0.0153 J0.0013
G1 X5.3303 Y-3.1599 F60.
G3 X5.4222 Y-3.0845 I0.0155 J0.0749
G1 X5.3298 Y-3.0225
G3 X5.3145 Y-3.0218 I-0.0083 J-0.0129
X5.3055 Y-3.0617 I0.0122 J-0.0237
X5.3904 Y-3.0893 I0.0625 J0.0479
X5.4041 Y-3.0838 I-0.0223 J0.0755 F50.
G2 X5.4195 Y-3.0845 I0.007 J-0.0137
G1 X5.4354 Y-3.0956 F60.
G2 X5.4263 Y-3.2025 I-0.0467 J-0.0499
G1 X5.3303 Y-3.1599
G2 X5.3214 Y-3.1473 I0.0065 J0.0139
X5.3557 Y-3.1177 I0.0278 J0.0024
X5.4131 Y-3.1728 I-0.0183 J-0.0766
X5.4158 Y-3.1874 I-0.0758 J-0.0215 F50.
G3 X5.4246 Y-3.2 I0.0153 J0.0013
G1 X5.4425 Y-3.2076 F60.
G3 X5.5184 Y-3.1509 I0.0152 J0.0588
G1 X5.4354 Y-3.0956
G3 X5.4201 Y-3.0948 I-0.0083 J-0.0129
X5.4158 Y-3.1424 I0.013 J-0.0252
X5.4862 Y-3.1556 I0.0481 J0.0623
X5.5 Y-3.1501 I-0.0223 J0.0755 F50.
G2 X5.5153 Y-3.1508 I0.007 J-0.0137
G1 X5.5292 Y-3.1604 F60.
G2 X5.5255 Y-3.2448 I-0.0349 J-0.0407
G1 X5.4425 Y-3.2076
G2 X5.4337 Y-3.195 I0.0065 J0.0139
X5.4758 Y-3.1683 I0.028 J0.0025
X5.512 Y-3.2148 I-0.0396 J-0.068
X5.5146 Y-3.2294 I-0.0758 J-0.0215 F50.
G3 X5.5234 Y-3.242 I0.0153 J0.0013
G1 X5.539 Y-3.2486 F60.
G3 X5.5993 Y-3.2067 I0.0141 J0.0441
G1 X5.5292 Y-3.1604
G3 X5.5139 Y-3.1597 I-0.0083 J-0.0129
X5.5167 Y-3.2095 I0.0125 J-0.0243
X5.5668 Y-3.2114 I0.0278 J0.0737
X5.5806 Y-3.2058 I-0.0223 J0.0755 F50.
G2 X5.5959 Y-3.2066 I0.007 J-0.0137
G1 X5.6078 Y-3.2148 F60.
G2 X5.605 Y-3.2766 I-0.019 J-0.0301
G1 X5.539 Y-3.2486
G2 X5.5302 Y-3.236 I0.0065 J0.0139
X5.574 Y-3.2158 I0.0255 J0.0022
X5.5935 Y-3.2495 I-0.0562 J-0.0551
X5.5962 Y-3.2641 I-0.0758 J-0.0215 F50.
G3 X5.605 Y-3.2766 I0.0153 J0.0013
G1 X5.6178 Y-3.2821 F60.
X5.622 Y-3.2836
X5.6263 Y-3.2846
X5.6307 Y-3.285
X5.6351 Y-3.2848
X5.6394 Y-3.284
X5.6436 Y-3.2827
X5.6476 Y-3.2808
X5.6513 Y-3.2784
X5.6546 Y-3.2755
X5.6575 Y-3.2722
X5.66 Y-3.2685
X5.6619 Y-3.2646
X5.6634 Y-3.2604
X5.6642 Y-3.2561
X5.6645 Y-3.2517
X5.6078 Y-3.2148
G3 X5.5866 Y-3.2194 I-0.0083 J-0.0129
X5.5911 Y-3.2395 I0.0122 J-0.0078
X5.6309 Y-3.2514 I0.0417 J0.0668
X5.6496 Y-3.2496 I0.0019 J0.0787 F50.
G2 X5.6612 Y-3.2517 I0.0033 J-0.015
G1 X5.6736 Y-3.2603 F60.
G2 X5.6701 Y-3.3043 I-0.0087 J-0.0215
G1 X5.6178 Y-3.2821
G2 X5.609 Y-3.2695 I0.0065 J0.0139
X5.6213 Y-3.2558 I0.0125 J0.0011
X5.6573 Y-3.2776 I0.0008 J-0.0394
X5.6613 Y-3.2917 I-0.0352 J-0.0176 F50.
G3 X5.6701 Y-3.3043 I0.0153 J0.0013
G1 X5.6821 Y-3.3094 F60.
X5.6877 Y-3.3115
X5.6937 Y-3.3118
X5.6996 Y-3.3107
X5.7052 Y-3.3086
X5.7104 Y-3.3056
X5.713 Y-3.3036
X5.7159 Y-3.2999
X5.7169 Y-3.2952
X5.7156 Y-3.2907
X5.7125 Y-3.2872
G3 X5.6866 Y-3.2812 I-0.0213 J-0.0331
X5.6798 Y-3.2839 I0.0017 J-0.0147
X5.6821 Y-3.3094 I0.0086 J-0.0121 F50.
G1 X5.712 Y-3.3221 F60.
X5.7176 Y-3.3242
X5.7236 Y-3.3247
X5.7295 Y-3.324
X5.7352 Y-3.3222
X5.7363 Y-3.3216
X5.74 Y-3.3181
X5.7416 Y-3.3132
X5.7406 Y-3.3082
X5.7372 Y-3.3043
G3 X5.7179 Y-3.2981 I-0.0213 J-0.0331
X5.7142 Y-3.2985 I-0.0006 J-0.0126
X5.712 Y-3.3221 I0.0031 J-0.0122 F50.
G1 X5.738 Y-3.3332 F60.
X5.7437 Y-3.3352
X5.7496 Y-3.3356
X5.7516 Y-3.3353
X5.7559 Y-3.3333
X5.7589 Y-3.3296
X5.7598 Y-3.325
X5.7586 Y-3.3204
X5.7554 Y-3.3169
G3 X5.7461 Y-3.3125 I-0.0213 J-0.0331
X5.7436 Y-3.312 I-0.0034 J-0.0106
X5.738 Y-3.3332 I-0.0009 J-0.0111 F50.
G1 X5.7581 Y-3.3417 F60.
X5.7638 Y-3.3438
X5.7684 Y-3.3425
X5.7718 Y-3.3391
X5.7731 Y-3.3345
X5.7721 Y-3.3299
X5.769 Y-3.3263
X5.7672 Y-3.3252
G3 X5.7538 Y-3.3286 I-0.0051 J-0.008 F50.
X5.7581 Y-3.3417 I0.0083 J-0.0046
G1 X5.7722 Y-3.3477 F60.
X5.7778 Y-3.3498
X5.7823 Y-3.3479
X5.7849 Y-3.3437
X5.7846 Y-3.3389
X5.7816 Y-3.335
X5.7793 Y-3.3336 F50.
G3 X5.7685 Y-3.337 I-0.0038 J-0.0069
X5.7722 Y-3.3477 I0.007 J-0.0036
G1 X5.7843 Y-3.3528 F60.
X5.7899 Y-3.3549
X5.7936 Y-3.3533
X5.7956 Y-3.3499
X5.7954 Y-3.3459
X5.7929 Y-3.3428
X5.7901 Y-3.3412 F50.
G3 X5.7812 Y-3.344 I-0.0031 J-0.0058
X5.7843 Y-3.3528 I0.0058 J-0.0029
G1 X5.7949 Y-3.3573 F60.
X5.8005 Y-3.3594
X5.8034 Y-3.358
X5.8049 Y-3.3553
X5.8047 Y-3.3521
X5.8027 Y-3.3496
G3 X5.7996 Y-3.3478 I-0.0213 J-0.0331 F50.
X5.7923 Y-3.3502 I-0.0024 J-0.0047
X5.7949 Y-3.3573 I0.0048 J-0.0023
G1 X5.8051 Y-3.3617 F60.
X5.8079 Y-3.3627
X5.8111 Y-3.3611
X5.812 Y-3.3577
X5.8102 Y-3.3547
X5.8091 Y-3.3541 F50.
X5.8027 Y-3.3585
X5.8051 Y-3.3617
X5.8117 Y-3.3645 F60.
X5.8145 Y-3.3655
X5.817 Y-3.3642
X5.8178 Y-3.3614
X5.8163 Y-3.359
X5.815 Y-3.3582 F50.
X5.8096 Y-3.3612
X5.8117 Y-3.3645
X5.8179 Y-3.3671 F60.
X5.8207 Y-3.3682
X5.8227 Y-3.367
X5.8232 Y-3.3648
X5.8219 Y-3.3629
X5.8206 Y-3.362 F50.
X5.8163 Y-3.3645
X5.8179 Y-3.3671
X5.8229 Y-3.3692 F60.
X5.8257 Y-3.3703
X5.8272 Y-3.3693
X5.8276 Y-3.3676
X5.8266 Y-3.3661
X5.825 Y-3.3652 F50.
X5.8216 Y-3.3672
X5.8229 Y-3.3692
X5.8275 Y-3.3712 F60.
X5.8289 Y-3.3717
X5.8303 Y-3.3711
X5.8307 Y-3.3697
X5.8299 Y-3.3684
X5.8293 Y-3.368 F50.
X5.8265 Y-3.3695
X5.8275 Y-3.3712
X5.8313 Y-3.3728 F60.
X5.8327 Y-3.3733
X5.8336 Y-3.3727
X5.8338 Y-3.3716
X5.8332 Y-3.3707
X5.8327 Y-3.3703 F50.
X5.8317 Y-3.3701
X5.8308 Y-3.3706
X5.8305 Y-3.3715
X5.8307 Y-3.3723
X5.8313 Y-3.3728
X5.8339 Y-3.3739 F60.
X5.8353 Y-3.3744
X5.836 Y-3.374
X5.8362 Y-3.3731
X5.8357 Y-3.3724
X5.835 Y-3.372 F50.
X5.8342 Y-3.3718
X5.8335 Y-3.3722
X5.8333 Y-3.3729
X5.8335 Y-3.3735
X5.8339 Y-3.3739
X5.8361 Y-3.3748 F60.
X5.8371 Y-3.3753
X5.8381 Y-3.3757
X5.8389 Y-3.376
X5.8394 Y-3.3761
X5.8399 Y-3.376
X5.8404 Y-3.3756
X5.8387 Y-3.3746 F50.
X5.8378 Y-3.3749
X5.8381 Y-3.3757
X5.8397 Y-3.3764 F60.
X5.8404 Y-3.3756
X5.839 Y-3.3759 Z-0.2086
G0 Z0.4
X5.766 Y-3.3443
Z-0.1793
G1 Z-0.1946 F50.
X5.7659 Y-3.3441 Z-0.1976
X5.7655 Y-3.3433 Z-0.2005
X5.7649 Y-3.342 Z-0.2032
X5.7641 Y-3.3402 Z-0.2055
X5.7632 Y-3.3381 Z-0.2074
X5.7621 Y-3.3357 Z-0.2088
X5.7609 Y-3.3331 Z-0.2097
X5.7596 Y-3.3304 Z-0.21
G3 X5.7402 Y-3.3063 I-0.0567 J-0.0259
G1 X5.6736 Y-3.2603 F60.
G3 X5.6588 Y-3.2593 I-0.0083 J-0.0129
G1 X5.6569 Y-3.2608 Z-0.2098
X5.6551 Y-3.2622 Z-0.2093
X5.6534 Y-3.2636 Z-0.2084
X5.6524 Y-3.2655 Z-0.207
X5.6516 Y-3.2672 Z-0.2054
X5.6509 Y-3.2686 Z-0.2035
X5.6504 Y-3.2697 Z-0.2013
X5.6502 Y-3.2706 Z-0.1992
X5.6501 Y-3.2711 Z-0.1969
Y-3.2713 Z-0.1946
G0 Z0.4
X5.3817 Y-1.4725
Z-0.1793
G1 Z-0.1946 F50.
X5.3815 Y-1.4727 Z-0.1976
X5.3809 Y-1.4732 Z-0.2005
X5.3798 Y-1.4742 Z-0.2032
X5.3783 Y-1.4754 Z-0.2055
X5.3766 Y-1.4769 Z-0.2074
X5.3746 Y-1.4787 Z-0.2088
X5.3724 Y-1.4806 Z-0.2097
X5.3701 Y-1.4825 Z-0.21
G3 X5.3126 Y-1.5445 I0.2572 J-0.2963
X5.3653 Y-1.7712 I0.1621 J-0.0818 F60.
G1 X5.5211 Y-1.9607
X5.6772 Y-2.1499
X5.8338 Y-2.3387
X5.9907 Y-2.5272
X6.1481 Y-2.7154
X6.3059 Y-2.9032
X6.464 Y-3.0907
G3 X6.7599 Y-3.0856 I0.1456 J0.1359
X6.724 Y-2.7918 I-0.1503 J0.1307
G1 X6.6196 Y-2.6619
X6.5148 Y-2.5323
X6.4095 Y-2.4031
X6.3037 Y-2.2743
X6.1974 Y-2.1459
X6.0907 Y-2.0179
X5.9835 Y-1.8903
X5.8758 Y-1.763
G3 X5.4661 Y-1.3008 I-2.371 J-1.689
G1 X5.2256 Y-1.2196
X4.9853 Y-1.1379
X4.7451 Y-1.0557
X4.5051 Y-0.9731
X4.2653 Y-0.8901
X4.237 Y-0.8771
X4.1787 Y-0.8563
G3 X3.5153 Y-0.6243 I-4.9098 J-12.972
X3.4774 Y-1.0115 I-0.0009 J-0.1954
X4.146 Y-1.2587 I3.5354 J8.5337
X4.9363 Y-1.5317 I3.6872 J9.3933
G1 X5.1358 Y-1.594
G2 X5.2753 Y-1.8144 I-3.6446 J-2.461
G3 X5.7066 Y-2.3417 I12.2124 J9.5489
G1 X6.3206 Y-3.0771
X6.5137 Y-3.2106
X6.5252 Y-3.2161
X6.5369 Y-3.2211
X6.5488 Y-3.2255
X6.5609 Y-3.2293
X6.5732 Y-3.2325
X6.5856 Y-3.2352
X6.5982 Y-3.2372
X6.6108 Y-3.2387
X6.6235 Y-3.2395
X6.6362 Y-3.2398
X6.6489 Y-3.2394
X6.6616 Y-3.2385
X6.6742 Y-3.2369
X6.6867 Y-3.2347
X6.6991 Y-3.232
X6.7114 Y-3.2287
X6.7234 Y-3.2247
X6.7353 Y-3.2203
X6.747 Y-3.2152
X6.7584 Y-3.2096
X6.7695 Y-3.2035
X6.7804 Y-3.1968
X6.7909 Y-3.1897
X6.801 Y-3.182
X6.8108 Y-3.1739
X6.8202 Y-3.1653
X6.8291 Y-3.1563
X6.8376 Y-3.1469
X6.8457 Y-3.1371
X6.8533 Y-3.1269
X6.8604 Y-3.1163
X6.8669 Y-3.1055
X6.873 Y-3.0943
X6.8785 Y-3.0829
X6.8835 Y-3.0712
X6.8879 Y-3.0592
X6.8917 Y-3.0471
X6.895 Y-3.0348
X6.8977 Y-3.0224
X6.8998 Y-3.0099
X6.9012 Y-2.9973
X6.9021 Y-2.9846
X6.9024 Y-2.9719
X6.9021 Y-2.9592
X6.9011 Y-2.9465
X6.8996 Y-2.9339
X6.8281 Y-2.7744
G3 X5.7281 Y-1.4351 I-21.7539 J-16.746
X5.5632 Y-1.2509 I-0.7724 J-0.5256
X4.839 Y-0.9852 I-1.3992 J-2.6937
G1 X4.6157 Y-0.9063
X4.3925 Y-0.8269
X4.1696 Y-0.7471
X3.9467 Y-0.6669
X3.7241 Y-0.5861
X3.4664 Y-0.564
G3 X3.2676 Y-0.9638 I0.0058 J-0.2522
G1 X3.4664 Y-1.103
G3 X5.0675 Y-1.6764 I5.8135 J13.7114
X5.2243 Y-1.9124 I3.0329 J1.8441
G1 X5.3356 Y-2.0495
X5.4474 Y-2.1862
X5.5597 Y-2.3225
X5.6724 Y-2.4584
X5.7855 Y-2.594
X5.8991 Y-2.7292
X6.0132 Y-2.864
X6.3206 Y-3.0771
G3 X6.336 Y-3.0778 I0.0083 J0.0129
X6.3645 Y-3.0131 I-0.0258 J0.05
X6.0416 Y-2.8586 I-0.228 J-0.0618
G1 X6.0282 Y-2.865 F50.
G2 X6.0129 Y-2.8643 I-0.007 J0.0137
G1 X5.7636 Y-2.6918 F60.
G2 X5.0162 Y-1.7861 I4.513 J4.4852
G3 X4.2869 Y-1.5292 I-3.8478 J-9.7589
G1 X4.259 Y-1.5149
G2 X3.8463 Y-1.3658 I0.6618 J2.4769
G1 X3.8456 Y-1.3653
X3.4664 Y-1.103
G2 X3.4796 Y-1.0759 I0.0092 J0.0123
G3 X3.489 Y-1.0467 I0.004 J0.0148
G1 X3.3001 Y-0.9754
X3.2979 Y-0.9747
X3.2957 Y-0.9744
G2 X3.2664 Y-0.9647 I0.0043 J0.0622 F50.
G1 X3.19 Y-0.9119 F60.
G2 X3.2522 Y-0.5457 I0.2081 J0.1531
G1 X3.2551 Y-0.5455
X3.4664 Y-0.564
G2 X3.4787 Y-0.5733 I-0.0019 J-0.0153
X3.437 Y-0.6486 I-0.0503 J-0.0214
X3.2738 Y-0.5681 I-0.0247 J0.1555
X3.2673 Y-0.5547 I0.1385 J0.075 F50.
G3 X3.2551 Y-0.5455 I-0.0141 J-0.006
G1 X3.2085 Y-0.5414 F60.
G3 X3.0465 Y-0.8126 I0.0565 J-0.2177
G1 X3.19 Y-0.9119
G3 X3.2054 Y-0.9126 I0.0083 J0.0129
X3.2209 Y-0.8641 I-0.0165 J0.032
X3.0754 Y-0.8074 I-0.1049 J-0.0543
X3.0618 Y-0.8134 I0.0405 J-0.1109 F50.
G2 X3.0465 Y-0.8126 I-0.007 J0.0137
G1 X3.0116 Y-0.7885 F60.
G2 X3.0436 Y-0.527 I0.1456 J0.1149
G1 X3.2085 Y-0.5414
G2 X3.2208 Y-0.5507 I-0.0019 J-0.0153
X3.1945 Y-0.6042 I-0.0363 J-0.0154
X3.0625 Y-0.5495 I-0.03 J0.1142
X3.0559 Y-0.5362 I0.102 J0.0595 F50.
G3 X3.0436 Y-0.527 I-0.0141 J-0.006
G1 X3.0081 Y-0.5239 F60.
G3 X2.8832 Y-0.6997 I0.0231 J-0.1487
G1 X3.0116 Y-0.7885
G3 X3.0269 Y-0.7892 I0.0083 J0.0129
X3.0378 Y-0.7236 I-0.019 J0.0369
X2.9121 Y-0.6944 I-0.0852 J-0.0818
X2.8985 Y-0.7004 I0.0405 J-0.1109 F50.
G2 X2.8832 Y-0.6997 I-0.007 J0.0137
G1 X2.8569 Y-0.6815 F60.
X2.8512 Y-0.6755
X2.8458 Y-0.669
X2.841 Y-0.6622
X2.8366 Y-0.655
X2.8328 Y-0.6476
X2.8295 Y-0.6399
X2.8268 Y-0.632
X2.8246 Y-0.6239
X2.823 Y-0.6157
X2.822 Y-0.6074
X2.8215 Y-0.5991
X2.8217 Y-0.5907
X2.8225 Y-0.5824
X2.8238 Y-0.5741
X2.8258 Y-0.566
X2.8283 Y-0.558
X2.8314 Y-0.5502
X2.835 Y-0.5427
X2.8391 Y-0.5354
X2.8438 Y-0.5285
X2.8489 Y-0.5219
X2.8545 Y-0.5156
X2.8605 Y-0.5098
X3.0081 Y-0.5239
G2 X3.0204 Y-0.5331 I-0.0019 J-0.0153
X2.9807 Y-0.5921 I-0.039 J-0.0166
X2.8805 Y-0.5335 I0.0019 J0.1181
X2.8739 Y-0.5203 I0.102 J0.0595 F50.
G3 X2.8616 Y-0.511 I-0.0141 J-0.006
G1 X2.8335 Y-0.5086 F60.
G3 X2.7589 Y-0.558 I-0.0006 J-0.0801
G1 X2.7593 Y-0.5609
X2.7602 Y-0.5636
X2.7615 Y-0.5662
X2.7634 Y-0.5684
X2.7655 Y-0.5703
X2.768 Y-0.5717
X2.7707 Y-0.5727
X2.7735 Y-0.5731
X2.7764 Y-0.573
X2.7791 Y-0.5724
X2.7818 Y-0.5713
G3 X2.8446 Y-0.532 I-0.0295 J0.1171
X2.8335 Y-0.5086 I-0.013 J0.0082 F50.
G1 X2.7598 Y-0.5021 F60.
G3 X2.7596 Y-0.614 I0.2478 J-0.0564
G1 X2.7632 Y-0.6167
X2.8569 Y-0.6815
G3 X2.8805 Y-0.6706 I0.0083 J0.0129
G1 X2.8808 Y-0.6676 Z-0.2097
X2.8812 Y-0.6647 Z-0.2088
X2.8816 Y-0.6621 Z-0.2074
X2.8819 Y-0.6598 Z-0.2055
X2.8821 Y-0.6579 Z-0.2032
X2.8823 Y-0.6565 Z-0.2005
X2.8824 Y-0.6556 Z-0.1976
Y-0.6553 Z-0.1946
G0 Z-0.1793
X3.6797 Y-0.5993
G1 Z-0.1946 F50.
X3.68 Y-0.5992 Z-0.1976
X3.6808 Y-0.5988 Z-0.2005
X3.6821 Y-0.5982 Z-0.2032
X3.6838 Y-0.5974 Z-0.2055
X3.6859 Y-0.5964 Z-0.2074
X3.6883 Y-0.5952 Z-0.2088
X3.6909 Y-0.594 Z-0.2097
X3.6936 Y-0.5927 Z-0.21
G2 X3.7239 Y-0.5866 I0.027 J-0.0561
G1 X4.0524 Y-0.6154 F60.
G2 X4.9894 Y-0.9345 I-3.7721 J-12.6119
X5.6234 Y-1.1748 I-0.3321 J-1.8323
X5.8345 Y-1.4006 I-1.0905 J-1.2312
G1 X6.1061 Y-1.7257
X6.3773 Y-2.051
X6.6483 Y-2.3766
X6.8281 Y-2.7744
G2 X6.7997 Y-2.7861 I-0.0142 J-0.0058
X6.8081 Y-2.766 I0.0142 J0.0058
X6.8282 Y-2.7745 I0.0058 J-0.0142
G1 X6.8855 Y-2.9172
G2 X6.857 Y-2.9287 I-0.0143 J-0.0057
X6.88 Y-2.9104 I0.0143 J0.0057
X6.9002 Y-2.9338 I-0.0357 J-0.0511 F50.
G1 X6.9446 Y-3.0321 F60.
X6.9461 Y-3.0445
X6.9471 Y-3.057
X6.9474 Y-3.0696
X6.947 Y-3.0821
X6.9461 Y-3.0946
X6.9445 Y-3.107
X6.9424 Y-3.1194
X6.9396 Y-3.1316
X6.9362 Y-3.1437
X6.9322 Y-3.1556
X6.9277 Y-3.1672
X6.9225 Y-3.1787
X6.9168 Y-3.1899
X6.9106 Y-3.2007
X6.9038 Y-3.2113
X6.8966 Y-3.2215
X6.8888 Y-3.2313
X6.8805 Y-3.2408
X6.8718 Y-3.2498
X6.8627 Y-3.2583
X6.8531 Y-3.2665
X6.8432 Y-3.2741
X6.8328 Y-3.2812
X6.8222 Y-3.2878
X6.8112 Y-3.2939
X6.8 Y-3.2994
X6.7885 Y-3.3044
X6.7767 Y-3.3087
X6.7648 Y-3.3125
X6.7526 Y-3.3157
X6.7404 Y-3.3183
X6.728 Y-3.3203
X6.7155 Y-3.3217
X6.703 Y-3.3224
X6.6937 Y-3.3317
X6.6911 Y-3.3318
X6.6886 Y-3.3312
X6.6863 Y-3.33
X6.5137 Y-3.2106
G2 X6.5076 Y-3.1965 I0.0092 J0.0123
X6.583 Y-3.1519 I0.0547 J-0.0063
X6.6812 Y-3.3011 I-0.0593 J-0.1459
X6.6802 Y-3.3159 I-0.1574 J0.0033 F50.
G3 X6.6863 Y-3.33 I0.0153 J-0.0018
G1 X6.7297 Y-3.36 F60.
G3 X7.0187 Y-3.1961 I0.0574 J0.2354
G1 X6.9446 Y-3.0321
G3 X6.9318 Y-3.0236 I-0.0138 J-0.0068
X6.897 Y-3.0515 I-0.0022 J-0.033
X6.9913 Y-3.1856 I0.1167 J-0.0182
X7.006 Y-3.1875 I0.0224 J0.116 F50.
G2 X7.0187 Y-3.1961 I-0.001 J-0.0153
G1 X7.0352 Y-3.2325 F60.
G2 X6.8661 Y-3.4544 I-0.2009 J-0.0223
G1 X6.7297 Y-3.36
G2 X6.7236 Y-3.346 I0.0092 J0.0123
X6.7727 Y-3.3124 I0.0391 J-0.0045
X6.8608 Y-3.4255 I-0.03 J-0.1142
X6.86 Y-3.4403 I-0.1181 J-0.0012 F50.
G3 X6.8661 Y-3.4544 I0.0153 J-0.0018
G1 X6.8991 Y-3.4772 F60.
X6.9083 Y-3.4802
X6.9176 Y-3.4827
X6.9271 Y-3.4846
X6.9366 Y-3.486
X6.9463 Y-3.4867
X6.9559 Y-3.4869
X6.9656 Y-3.4865
X6.9752 Y-3.4854
X6.9847 Y-3.4838
X6.9941 Y-3.4816
X7.0034 Y-3.4789
X7.0124 Y-3.4756
X7.0213 Y-3.4717
X7.0299 Y-3.4673
X7.0382 Y-3.4624
X7.0462 Y-3.457
X7.0539 Y-3.4511
X7.0612 Y-3.4448
X7.068 Y-3.438
X7.0745 Y-3.4308
X7.0805 Y-3.4233
X7.086 Y-3.4153
X7.0911 Y-3.4071
X7.0956 Y-3.3986
X7.0996 Y-3.3898
X7.103 Y-3.3808
X7.0352 Y-3.2325
G3 X7.0224 Y-3.2239 I-0.0138 J-0.0068
X6.9799 Y-3.2693 I-0.0026 J-0.0402
X7.0746 Y-3.37 I0.1171 J0.0153
X7.0893 Y-3.3719 I0.0224 J0.116 F50.
G2 X7.1021 Y-3.3804 I-0.001 J-0.0153
G1 X7.1168 Y-3.413 F60.
X7.1184 Y-3.4215
X7.1194 Y-3.43
X7.1198 Y-3.4386
X7.1196 Y-3.4472
X7.1188 Y-3.4558
X7.1175 Y-3.4643
X7.1155 Y-3.4726
X7.113 Y-3.4809
X7.1099 Y-3.4889
X7.1063 Y-3.4967
X7.1022 Y-3.5042
X7.0975 Y-3.5115
X7.0924 Y-3.5184
X7.0868 Y-3.5249
X7.0807 Y-3.531
X7.0743 Y-3.5367
X7.0675 Y-3.5419
X7.0603 Y-3.5467
X7.0528 Y-3.5509
X7.0451 Y-3.5547
X7.0371 Y-3.5579
X7.0289 Y-3.5605
X7.0206 Y-3.5625
X6.8991 Y-3.4772
G2 X6.893 Y-3.4631 I0.0092 J0.0123
X6.9566 Y-3.4314 I0.0421 J-0.0049
X7.0149 Y-3.5321 I-0.0598 J-0.1019
X7.0141 Y-3.5469 I-0.1181 J-0.0012 F50.
G3 X7.0202 Y-3.561 I0.0153 J-0.0018
G1 X7.0446 Y-3.5778 F60.
G3 X7.1734 Y-3.5348 I0.0429 J0.0857
G1 X7.1168 Y-3.413
G3 X7.104 Y-3.4045 I-0.0138 J-0.0068
X7.094 Y-3.4101 I-0.0007 J-0.0105
G1 X7.0928 Y-3.4125
G3 X7.144 Y-3.5229 I0.0709 J-0.0342
X7.1586 Y-3.5253 I0.0198 J0.0762 F50.
G2 X7.1714 Y-3.5338 I-0.001 J-0.0153
G1 X7.1808 Y-3.5545 F60.
G2 X7.1394 Y-3.6454 I-0.066 J-0.0248
G1 X7.0446 Y-3.5778
G2 X7.0532 Y-3.5502 I0.0092 J0.0123
G1 X7.1532 Y-3.5465
X7.1665 Y-3.546 F50.
G2 X7.1808 Y-3.5545 I0.0006 J-0.0154
G1 X7.2094 Y-3.6177 F60.
G2 X7.189 Y-3.6777 I-0.0274 J-0.0241
G1 X7.1384 Y-3.6427
G2 X7.1323 Y-3.6286 I0.0092 J0.0123
X7.1418 Y-3.6198 I0.01 J-0.0012
X7.1819 Y-3.6489 I0.0021 J-0.0393
X7.1829 Y-3.6636 I-0.038 J-0.0102 F50.
G3 X7.189 Y-3.6777 I0.0153 J-0.0018
G1 X7.2007 Y-3.6858 F60.
X7.2058 Y-3.6889
X7.2115 Y-3.6905
X7.2175 Y-3.691
X7.2235 Y-3.6905
X7.2284 Y-3.6894
X7.2324 Y-3.6874
X7.2352 Y-3.6839
X7.2363 Y-3.6796
X7.2354 Y-3.6752
G3 X7.2182 Y-3.6577 I-0.0353 J-0.0175
X7.2007 Y-3.6591 I-0.0076 J-0.0147
Y-3.6858 I0.0099 J-0.0133 F50.
G1 X7.2284 Y-3.705 F60.
X7.2335 Y-3.7081
X7.2387 Y-3.7078
X7.243 Y-3.7048
X7.245 Y-3.7
X7.2443 Y-3.6949
G3 X7.2425 Y-3.6918 I-0.0295 J-0.0146
X7.2402 Y-3.6893 I-0.0083 J-0.0053
X7.2265 Y-3.6912 I-0.006 J-0.0078 F50.
X7.2284 Y-3.705 I0.0078 J-0.0059
G1 X7.2404 Y-3.7132 F60.
X7.2413 Y-3.7139
X7.2428 Y-3.7149
X7.2453 Y-3.7165
X7.2488 Y-3.7158
X7.251 Y-3.713
X7.2508 Y-3.7094
G3 X7.25 Y-3.708 I-0.011 J-0.0054 F50.
X7.2416 Y-3.7136 I-0.0042 J-0.0028
X7.2428 Y-3.7149 I0.0042 J0.0028
G1 X7.2495 Y-3.7196 F60.
X7.2508 Y-3.7205
X7.2519 Y-3.7212
X7.2531 Y-3.722
X7.2545 Y-3.7216
X7.2553 Y-3.7204
X7.2551 Y-3.719
X7.2548 Y-3.7184 F50.
X7.2511 Y-3.7195
X7.2519 Y-3.7212
X7.2547 Y-3.7231 F60.
X7.2556 Y-3.7237
X7.2562 Y-3.7242
X7.2567 Y-3.7245
X7.2564 Y-3.7224
X7.2332 Y-3.7057
X7.2315 Y-3.7045
X7.234 Y-3.6981
X7.2368 Y-3.7002
G3 X7.2562 Y-3.7242 I0.0567 J0.0259 F50.
G1 X7.2567 Y-3.7245 F60.
X7.2574 Y-3.724
X7.2094 Y-3.6177
G3 X7.1836 Y-3.615 I-0.0138 J-0.0068
G1 X7.1817 Y-3.6174 Z-0.2097
X7.1799 Y-3.6196 Z-0.2088
X7.1782 Y-3.6217 Z-0.2074
X7.1768 Y-3.6235 Z-0.2055
X7.1756 Y-3.625 Z-0.2032
X7.1747 Y-3.6261 Z-0.2005
X7.1742 Y-3.6268 Z-0.1976
X7.174 Y-3.6271 Z-0.1946
G0 Z-0.1793
X6.6508 Y-2.4225
G1 Z-0.1946 F50.
X6.6509 Y-2.4222 Z-0.1976
X6.651 Y-2.4213 Z-0.2005
X6.6511 Y-2.4199 Z-0.2032
X6.6513 Y-2.418 Z-0.2055
X6.6516 Y-2.4157 Z-0.2074
X6.6519 Y-2.4131 Z-0.2088
X6.6522 Y-2.4102 Z-0.2097
X6.6526 Y-2.4072 Z-0.21
G3 X6.6483 Y-2.3766 I-0.0619 J0.007
G1 X6.521 Y-2.095 F60.
X6.4777 Y-2.0351
X6.4339 Y-1.9756
X6.3897 Y-1.9164
X6.3449 Y-1.8576
X6.2997 Y-1.7991
X6.2539 Y-1.7411
X6.2077 Y-1.6834
X6.161 Y-1.6261
X6.1139 Y-1.5692
X6.0662 Y-1.5127
X6.0181 Y-1.4566
X5.9695 Y-1.4009
X5.9205 Y-1.3456
X5.871 Y-1.2907
X5.821 Y-1.2363
X5.7706 Y-1.1822
X5.7198 Y-1.1286
X5.6685 Y-1.0754
G3 X5.0583 Y-0.8488 I-1.24 J-2.4044
G2 X4.5031 Y-0.6545 I8.5033 J25.1838
G1 X4.0524 Y-0.6154
G3 X4.0387 Y-0.6223 I-0.0008 J-0.0153
X4.0413 Y-0.6813 I0.0425 J-0.0277
X4.4808 Y-0.674 I0.217 J0.1699
G1 X4.4893 Y-0.6618 F50.
G2 X4.5029 Y-0.6548 I0.0129 J-0.0084
G1 X4.7088 Y-0.6728 F60.
X4.7322 Y-0.6737
X4.7791
G2 X5.7398 Y-1.0053 I-0.5811 J-3.2404
X6.3392 Y-1.6954 I-5.7483 J-5.5987
G1 X6.521 Y-2.095
G2 X6.5189 Y-2.1102 I-0.0142 J-0.0058
X6.4427 Y-2.1293 I-0.0501 J0.0386
X6.3293 Y-1.722 I0.1136 J0.2511
G1 X6.338 Y-1.71 F50.
G3 X6.34 Y-1.6948 I-0.0122 J0.0094
G1 X6.2138 Y-1.4156 F60.
G3 X5.179 Y-0.6783 I-1.306 J-0.7381
G1 X4.7791 Y-0.6737
G3 X4.7661 Y-0.6818 I0.0005 J-0.0154
X4.7682 Y-0.7108 I0.024 J-0.0128
X5.1594 Y-0.6947 I0.1902 J0.1401
G1 X5.1668 Y-0.6818 F50.
G2 X5.1798 Y-0.6737 I0.0136 J-0.0072
G1 X5.4354 F60.
G2 X6.039 Y-1.0288 I-0.1965 J-1.0244
G1 X6.2138 Y-1.4156
G2 X6.2118 Y-1.4309 I-0.0142 J-0.0058
X6.115 Y-1.4495 I-0.0589 J0.0454
X6.0282 Y-1.0561 I0.1402 J0.2372
G1 X6.0369 Y-1.0441 F50.
G3 X6.039 Y-1.0288 I-0.0122 J0.0094
G1 X5.9597 Y-0.8534 F60.
G3 X5.7448 Y-0.6737 I-0.4375 J-0.3049
X5.7353 Y-0.7008 I0.0005 J-0.0154
G1 X5.9355 Y-0.8709
G3 X5.9447 Y-0.8746 I0.01 J0.0117
X5.9597 Y-0.8534 I0.0008 J0.0153 F50.
G1 X5.8855 Y-0.6894 F60.
X5.8791 Y-0.6751
X5.8787 Y-0.6745
X5.8783 Y-0.6739
X5.8771 Y-0.6737
X5.4354
G3 X5.4223 Y-0.6961 I0.0005 J-0.0154
G1 X5.4237 Y-0.6988 Z-0.2097
X5.425 Y-0.7013 Z-0.2088
X5.4262 Y-0.7037 Z-0.2074
X5.4273 Y-0.7058 Z-0.2055
X5.4282 Y-0.7075 Z-0.2032
X5.4288 Y-0.7087 Z-0.2005
X5.4292 Y-0.7095 Z-0.1976
X5.4293 Y-0.7098 Z-0.1946
G0 Z-0.1793
X3.8197 Y-1.3273
G1 Z-0.1946 F50.
X3.8198 Y-1.3275 Z-0.1976
X3.8202 Y-1.3283 Z-0.2005
X3.8208 Y-1.3296 Z-0.2032
X3.8216 Y-1.3314 Z-0.2055
X3.8226 Y-1.3335 Z-0.2074
X3.8237 Y-1.3359 Z-0.2088
X3.8249 Y-1.3385 Z-0.2097
X3.8261 Y-1.3412 Z-0.21
G3 X3.8456 Y-1.3653 I0.0567 J0.0259
G1 X4.1104 Y-1.5485 F60.
G3 X4.921 Y-1.8519 I3.1208 J7.1015
X5.3968 Y-2.439 I25.4858 J20.17
G1 X5.7636 Y-2.6918
G3 X5.7789 Y-2.6926 I0.0083 J0.0129
X5.8091 Y-2.6297 I-0.0265 J0.0514
X5.4261 Y-2.4329 I-0.2701 J-0.0546
G1 X5.4127 Y-2.4393 F50.
G2 X5.3974 Y-2.4386 I-0.007 J0.0137
G1 X5.1541 Y-2.2703 F60.
G2 X4.8674 Y-1.9477 I1.762 J1.8546
G3 X4.4821 Y-1.8055 I-2.0734 J-5.0268
G1 X4.1104 Y-1.5485
G2 X4.1044 Y-1.5344 I0.0092 J0.0123
X4.1445 Y-1.4902 I0.0509 J-0.0059
X4.4773 Y-1.7766 I0.0577 J-0.2695
G1 X4.476 Y-1.7914 F50.
G3 X4.4821 Y-1.8055 I0.0153 J-0.0018
G1 X5.1541 Y-2.2703 F60.
G3 X5.169 Y-2.2713 I0.0083 J0.0129
G1 X5.1709 Y-2.2698 Z-0.2098
X5.1727 Y-2.2684 Z-0.2093
X5.1744 Y-2.267 Z-0.2084
X5.1753 Y-2.2651 Z-0.207
X5.1761 Y-2.2635 Z-0.2054
X5.1768 Y-2.262 Z-0.2035
X5.1774 Y-2.2609 Z-0.2013
X5.1775 Y-2.2601 Z-0.1992
X5.1776 Y-2.2595 Z-0.1969
X5.1777 Y-2.2594 Z-0.1946
G0 Z0.4
X4.0636 Y0.2929
Z-0.1793
G1 Z-0.1946 F50.
X4.0635 Y0.2932 Z-0.1976
X4.0632 Y0.294 Z-0.2005
X4.0628 Y0.2954 Z-0.2032
X4.0622 Y0.2972 Z-0.2055
X4.0615 Y0.2994 Z-0.2074
X4.0607 Y0.302 Z-0.2088
X4.0599 Y0.3047 Z-0.2097
X4.059 Y0.3076 Z-0.21
G3 X4.0253 Y0.3851 I-0.3746 J-0.1167
X3.8616 Y0.434 I-0.1121 J-0.0766 F60.
X3.5738 Y0.2724 I-0.0175 J-0.3058
X3.8563 Y0.0458 I0.1917 J-0.0505
G2 X4.0108 Y0.0536 I0.0943 J-0.3344
G3 X4.3163 Y0.0259 I0.1685 J0.1599
G1 X4.3241 Y0.0336
X4.3315 Y0.0418
X4.3385 Y0.0504
X4.3449 Y0.0593
X4.3509 Y0.0686
X4.3564 Y0.0781
X4.3613 Y0.088
X4.3657 Y0.0981
X4.3695 Y0.1084
X4.3728 Y0.119
X4.3755 Y0.1297
X4.3776 Y0.1405
X4.3791 Y0.1514
X4.38 Y0.1624
X4.3803 Y0.1734
X4.3801 Y0.1844
X4.3792 Y0.1954
X4.3777 Y0.2063
X4.3757 Y0.2171
X4.373 Y0.2278
X4.3698 Y0.2384
X4.366 Y0.2487
X4.3617 Y0.2589
X4.3568 Y0.2687
X4.3513 Y0.2783
X4.3454 Y0.2876
X4.339 Y0.2966
X4.3321 Y0.3052
X4.3247 Y0.3134
X4.3169 Y0.3212
X4.3087 Y0.3285
X4.3001 Y0.3354
G3 X4.2099 Y0.466 I-0.2413 J-0.0702
X3.6546 Y0.4812 I-0.2946 J-0.6129
G1 X3.6178 Y0.4585
X3.6065 Y0.4517
X3.5954 Y0.4443
X3.5847 Y0.4365
X3.5744 Y0.4281
X3.5645 Y0.4193
X3.5551 Y0.41
X3.546 Y0.4003
X3.5375 Y0.3901
X3.5294 Y0.3796
X3.5218 Y0.3687
X3.5148 Y0.3575
X3.5083 Y0.3459
X3.5023 Y0.3341
X3.4969 Y0.322
X3.4921 Y0.3096
X3.4879 Y0.2971
X3.4842 Y0.2843
X3.4812 Y0.2714
X3.4787 Y0.2584
X3.4769 Y0.2452
X3.4757 Y0.232
X3.4752 Y0.2188
Y0.2055
X3.4759 Y0.1923
X3.4772 Y0.1791
X3.4791 Y0.1659
X3.4816 Y0.1529
X3.4848 Y0.14
X3.4885 Y0.1273
X3.4929 Y0.1148
X3.4978 Y0.1024
X3.5033 Y0.0904
X3.5093 Y0.0786
X3.5159 Y0.0671
X3.5231 Y0.0559
X3.5307 Y0.0451
X3.5389 Y0.0346
X3.5475 Y0.0245
X3.5566 Y0.0149
X3.5662 Y0.0057
X3.5761 Y-0.0031
X3.5865 Y-0.0113
X3.5972 Y-0.0191
X3.6083 Y-0.0264
X3.6198 Y-0.0331
X3.6315 Y-0.0393
X3.6435 Y-0.0449
X3.6558 Y-0.05
X3.6682 Y-0.0545
X3.6809 Y-0.0583
X3.6938 Y-0.0616
X3.7068 Y-0.0643
X3.7199 Y-0.0664
X3.733 Y-0.0678
X3.7463 Y-0.0686
X3.7595 Y-0.0688
X3.7728 Y-0.0684
X3.786 Y-0.0674
X3.7992 Y-0.0657
X3.8122 Y-0.0634
X3.8252 Y-0.0605
X3.838 Y-0.057
X3.8506 Y-0.0529
G2 X4.0855 Y-0.0983 I0.044 J-0.4035
G1 X4.1931 Y-0.107
G3 X4.4703 Y0.1172 I0.0132 J0.2671
G1 Y0.1774
X4.4681 Y0.1949
X4.4654 Y0.2124
X4.462 Y0.2297
X4.4581 Y0.2469
X4.4535 Y0.264
X4.4484 Y0.2809
X4.4426 Y0.2976
X4.4363 Y0.3141
X4.4294 Y0.3304
X4.422 Y0.3464
X4.4139 Y0.3621
X4.4054 Y0.3776
X4.3963 Y0.3927
X4.3866 Y0.4075
X4.3765 Y0.422
X4.3659 Y0.4361
X4.3548 Y0.4498
X4.3432 Y0.4632
X4.3311 Y0.4761
X4.3186 Y0.4886
X4.3057 Y0.5006
X4.2923 Y0.5122
X4.2786 Y0.5233
X4.2645 Y0.5339
X4.25 Y0.544
X4.2352 Y0.5536
X4.22 Y0.5627
X4.2046 Y0.5712
X4.1888 Y0.5792
X4.1728 Y0.5867
X4.1565 Y0.5936
X4.14 Y0.5999
X4.1233 Y0.6056
X4.1064 Y0.6107
X4.0893 Y0.6152
X4.0721 Y0.6192
X4.0548 Y0.6225
X4.0373 Y0.6252
X4.0198 Y0.6273
X4.0022 Y0.6288
X3.9845 Y0.6297
X3.9669 Y0.63
X3.9492 Y0.6296
X3.9316 Y0.6286
X3.914 Y0.627
X3.8964 Y0.6248
X3.8942 Y0.629
X3.6546 Y0.4812
G3 X3.6708 Y0.455 I0.0081 J-0.0131
X3.6744 Y0.478 I-0.0081 J0.0131
X3.6512 Y0.4782 I-0.0117 J-0.0099
G1 X3.6364 Y0.4614
G3 X3.6595 Y0.4411 I0.0115 J-0.0101
X3.6477 Y0.4667 I-0.0115 J0.0101
X3.6178 Y0.4585 I0.001 J-0.0623 F50.
G1 X3.4545 Y0.3577 F60.
G3 X3.4826 Y-0.0436 I0.2102 J-0.1869
G1 X3.4848 Y-0.0447
X3.4871 Y-0.0452
X4.0858 Y-0.0976
G3 X4.0956 Y-0.0951 I0.0013 J0.0153
G2 X4.1042 Y-0.0926 I0.0085 J-0.0128
G1 X4.1157
G2 X4.1643 Y-0.0957 I0.0207 J-0.0581
G3 X4.1931 Y-0.107 I0.0364 J0.0506 F50.
G1 X4.3571 Y-0.1214 F60.
G3 X4.4703 Y-0.0721 I0.0106 J0.1301
X4.4498 Y-0.0581 I-0.0154 J-0.0005
G1 X4.4478 Y-0.0588
X4.3539 Y-0.0916
G3 X4.346 Y-0.0979 I0.0051 J-0.0145
X4.3571 Y-0.1214 I0.013 J-0.0082 F50.
G1 X4.4654 Y-0.1309 F60.
X4.4697 Y-0.1312
X4.4703 Y-0.1307
Y0.1172
G3 X4.4395 I-0.0154 J0.
X4.4562 Y0.1019 I0.0154 J0.
X4.4701 Y0.1198 I-0.0013 J0.0153
G1 X4.4635 Y0.1581
G3 X4.433 Y0.1556 I-0.0152 J-0.0026
X4.4616 Y0.1477 I0.0154 J0.
X4.4703 Y0.1774 I-0.0536 J0.0318 F50.
G1 Y0.3882 F60.
G3 X4.0364 Y0.7099 I-0.4103 J-0.1
G1 X4.0338 Y0.7151
X3.8942 Y0.629
G3 X3.8873 Y0.6152 I0.0085 J-0.0128
X3.9362 Y0.5789 I0.0397 J0.0025
X4.027 Y0.6865 I-0.0271 J0.115
Y0.7013 I-0.1179 J0.0074 F50.
G2 X4.0338 Y0.7151 I0.0153 J0.001
G1 X4.0993 Y0.7555 F60.
G2 X4.2001 Y0.7678 I0.066 J-0.1215
G1 X4.467 Y0.4858
X4.4676 Y0.4852
X4.4693 Y0.4826
X4.4696 Y0.4819
X4.4703 Y0.4783
Y0.3882
G2 X4.4439 Y0.378 I-0.0154 J0.0005
G1 X4.0996 Y0.7292
X4.0968 Y0.732 F50.
G2 X4.0993 Y0.7555 I0.011 J0.0108
G1 X4.17 Y0.7991 F60.
X4.1704 Y0.7992
X4.2001 Y0.7678
G2 X4.2027 Y0.7516 I-0.0115 J-0.0102
G1 X4.2015 Y0.7488 Z-0.2097
X4.2004 Y0.7462 Z-0.2088
X4.1994 Y0.7437 Z-0.2074
X4.1984 Y0.7416 Z-0.2055
X4.1977 Y0.7398 Z-0.2032
X4.1971 Y0.7385 Z-0.2005
X4.1968 Y0.7377 Z-0.1976
X4.1967 Y0.7374 Z-0.1946
G0 Z-0.1793
X3.4996 Y0.3661
G1 Z-0.1946 F50.
X3.4993 Z-0.1976
X3.4985 Z-0.2005
X3.4971 Z-0.2032
X3.4951 Y0.366 Z-0.2055
X3.4928 Z-0.2074
X3.4902 Y0.3659 Z-0.2088
X3.4873 Z-0.2097
X3.4843 Y0.3658 Z-0.21
G3 X3.4545 Y0.3577 I0.001 J-0.0623
G1 X3.352 Y0.2945 F60.
G3 X3.3583 Y-0.0339 I0.2007 J-0.1604
G1 X3.4871 Y-0.0452
G3 X3.5008 Y-0.0382 I0.0008 J0.0153
X3.5001 Y-0.0215 I-0.0121 J0.0079
X3.3812 Y-0.0153 I-0.0621 J-0.0484
X3.372 Y-0.0269 I0.0568 J-0.0546 F50.
G2 X3.3583 Y-0.0339 I-0.0129 J0.0084
G1 X3.3186 Y-0.0304 F60.
G2 X3.2059 Y0.2044 I0.0715 J0.1788
G1 X3.352 Y0.2945
G2 X3.3674 Y0.2944 I0.0076 J-0.0134
X3.3799 Y0.2419 I-0.0188 J-0.0322
X3.2345 Y0.1976 I-0.099 J0.0644
X3.2213 Y0.2043 I0.0463 J0.1087 F50.
G3 X3.2059 Y0.2044 I-0.0077 J-0.0133
G1 X3.1736 Y0.1844 F60.
G3 X3.1612 Y-0.0166 I0.1025 J-0.1073
G1 X3.3186 Y-0.0304
G3 X3.3323 Y-0.0234 I0.0008 J0.0153
X3.3107 Y0.0381 I-0.0345 J0.0225
X3.1837 Y0.0023 I-0.0369 J-0.1122
X3.1748 Y-0.0096 I0.0901 J-0.0763 F50.
G2 X3.1612 Y-0.0166 I-0.0129 J0.0084
G1 X3.1253 Y-0.0135 F60.
G2 X3.047 Y0.108 I0.0283 J0.1043
G1 X3.1736 Y0.1844
G2 X3.189 I0.0076 J-0.0134
X3.192 Y0.113 I-0.0214 J-0.0367
X3.0778 Y0.1009 I-0.0679 J0.0966
X3.0645 Y0.1076 I0.0463 J0.1087 F50.
G3 X3.0492 Y0.1077 I-0.0077 J-0.0133
G1 X3.0263 Y0.0935 F60.
G3 X3.0058 Y-0.0047 I0.0443 J-0.0605
G1 X3.0088 Y-0.0048
X3.0118 Y-0.0044
X3.0146 Y-0.0034
X3.0171 Y-0.002
X3.0194 Y-0.0002
X3.0212 Y0.0019
X3.0226 Y0.0043
X3.0236 Y0.0069
X3.0275 Y0.0175
X3.0483 Y0.0749
X3.0491 Y0.0781
X3.0492 Y0.0814
G3 X3.0263 Y0.0935 I-0.0153 J-0.0012 F50.
G1 X2.9658 Y0.0562 F60.
G3 X2.9484 Y0.002 I0.0104 J-0.0332
X2.9898 Y0.0428 I0.0021 J0.0393
X2.9896 Y0.0449 I-0.0161 J-0.0006
X2.9658 Y0.0562 I-0.0159 J-0.0027 F50.
G1 X2.9208 Y0.0285 F60.
X2.9159 Y0.0251
X2.9118 Y0.0206
X2.9115 Y0.0201
X2.91 Y0.0152
X2.9111 Y0.0102
X2.9144 Y0.0063
X2.9193 Y0.0046
G3 X2.9296 Y0.0054 I0.0021 J0.0393
X2.9385 Y0.0129 I-0.0026 J0.0122
X2.9208 Y0.0285 I-0.0116 J0.0047 F50.
G1 X2.9026 Y0.0172 F60.
X2.9015 Y0.0166
X2.9 Y0.0156
X2.895 Y0.0122
X2.8947 Y0.0097
X2.8959 Y0.0075
X2.8982 Y0.0064
G3 X2.9027 Y0.0065 I0.0021 J0.0393 F50.
G1 X2.9024 Y0.0163
X2.9 Y0.0156
X2.8918 Y0.0105 F60.
X2.8906 Y0.0098
X2.8893 Y0.009
X2.8884 Y0.0084
X2.8883 Y0.0079
X2.8886 Y0.0074
X2.889 Y0.0072
X2.8897 F50.
X2.8903 Y0.0074
X2.8907 Y0.0078
Y0.0084
X2.8904 Y0.0089
X2.8899 Y0.0091
X2.8893 Y0.009
X2.8873 Y0.0078 F60.
X2.8881 Y0.0073
X3.1253 Y-0.0135
X3.1261
G3 X3.1387 Y-0.0069 I0. J0.0154
G1 X3.1396 Y-0.0047 Z-0.2098
X3.1405 Y-0.0026 Z-0.2093
X3.1413 Y-0.0006 Z-0.2084
X3.1415 Y0.0019 Z-0.2068
X3.1411 Y0.0039 Z-0.2049
X3.1408 Y0.0055 Z-0.2026
X3.1405 Y0.0067 Z-0.2001
X3.1404 Y0.0075 Z-0.1974
Y0.0077 Z-0.1946
G0 Z0.4
X5.6681 Y1.2433
Z-0.1793
G1 Z-0.1946 F50.
X5.668 Y1.243 Z-0.1976
X5.6678 Y1.2421 Z-0.2005
X5.6674 Y1.2407 Z-0.2032
X5.6669 Y1.2389 Z-0.2055
X5.6664 Y1.2366 Z-0.2074
X5.6657 Y1.2341 Z-0.2088
X5.665 Y1.2313 Z-0.2097
X5.6642 Y1.2284 Z-0.21
G3 X5.6522 Y1.1447 I0.3801 J-0.0974
G1 X5.6553 Y1.1386 F60.
X5.6589 Y1.1329
X5.663 Y1.1275
X5.6676 Y1.1226
X5.6727 Y1.1181
X5.6781 Y1.114
X5.6839 Y1.1105
X5.69 Y1.1075
X5.6963 Y1.1052
X5.7029 Y1.1034
X5.7095 Y1.1022
X5.7163 Y1.1016
X5.7231 Y1.1017
X5.7298 Y1.1024
X5.7364 Y1.1037
X5.7429 Y1.1057
X5.7492 Y1.1082
X5.7552 Y1.1113
X5.761 Y1.1149
X5.7663 Y1.1191
X5.7713 Y1.1237
G3 X6.1901 Y1.5335 I-1.1914 J1.6368
G1 X6.1972 Y1.5417
X6.2039 Y1.5504
X6.21 Y1.5593
X6.2156 Y1.5687
X6.2206 Y1.5783
X6.2251 Y1.5882
X6.229 Y1.5984
X6.2323 Y1.6088
X6.235 Y1.6193
X6.2371 Y1.63
X6.2386 Y1.6407
X6.2394 Y1.6516
X6.2397 Y1.6625
X6.2393 Y1.6733
X6.2382 Y1.6842
X6.2366 Y1.6949
X6.2343 Y1.7056
X6.2314 Y1.7161
X6.2279 Y1.7264
X6.2238 Y1.7364
X6.2192 Y1.7463
X6.2139 Y1.7558
X6.2082 Y1.7651
X6.2019 Y1.7739
X6.1951 Y1.7825
X6.1879 Y1.7906
X6.1801 Y1.7982
X6.172 Y1.8054
X6.1634 Y1.8122
X6.1545 Y1.8184
X6.1452 Y1.8241
X6.1357 Y1.8292
X6.1258 Y1.8338
X6.1157 Y1.8378
X6.1054 Y1.8412
X6.0949 Y1.8441
X6.0842 Y1.8463
X6.0734 Y1.8479
X6.0626 Y1.8488
X6.0517 Y1.8492
X6.0408 Y1.8489
X6.03 Y1.8479
X6.0192 Y1.8464
X6.0086 Y1.8442
X5.9981 Y1.8415
X5.9877 Y1.8381
X5.9776 Y1.8341
X5.9677 Y1.8296
X5.9581 Y1.8245
X5.9488 Y1.8188
X5.9399 Y1.8126
X5.9313 Y1.8059
X5.9231 Y1.7987
X5.9154 Y1.7911
X5.9081 Y1.783
X5.9012 Y1.7746
X5.8949 Y1.7657
G3 X5.5629 Y1.4393 I4.3759 J-4.7824
G2 X5.419 Y1.3831 I-0.3354 J0.647
G3 X5.0265 Y1.2467 I0.3381 J-1.6064
G1 X5.0189 Y1.2385
X5.0119 Y1.2299
X5.0054 Y1.221
X4.9993 Y1.2116
X4.9939 Y1.202
X4.9889 Y1.192
X4.9846 Y1.1818
X4.9808 Y1.1713
X4.9777 Y1.1607
X4.9751 Y1.1499
X4.9731 Y1.139
X4.9718 Y1.1279
X4.9711 Y1.1168
Y1.1057
X4.9716 Y1.0947
X4.9728 Y1.0836
X4.9747 Y1.0727
X4.9771 Y1.0618
X4.9801 Y1.0511
X4.9838 Y1.0406
X4.988 Y1.0304
X4.9928 Y1.0204
X4.9982 Y1.0106
X5.0041 Y1.0012
X5.0105 Y0.9922
X5.0175 Y0.9835
X5.0249 Y0.9753
X5.0328 Y0.9674
X5.0411 Y0.9601
X5.0498 Y0.9532
X5.0589 Y0.9468
X5.0683 Y0.9409
X5.0781 Y0.9356
X5.0881 Y0.9309
X5.0984 Y0.9267
X5.1089 Y0.9231
X5.1196 Y0.9201
X5.1305 Y0.9177
X5.1414 Y0.916
X5.1525 Y0.9149
X5.1636 Y0.9143
X5.1747 Y0.9145
X5.1857 Y0.9152
X5.1968 Y0.9166
X5.2077 Y0.9186
X5.2185 Y0.9212
X5.2291 Y0.9245
X5.2395 Y0.9283
X5.2497 Y0.9327
X5.2596 Y0.9377
X5.2693 Y0.9432
G3 X5.6034 Y1.0186 I-5.9457 J27.1195
X6.022 Y1.2163 I0.0693 J0.3953
G1 X6.0518 Y1.2338
X6.1375 Y1.3232
G3 X6.1799 Y1.3678 I-0.1106 J0.1475
G1 X6.301 Y1.583
X6.3057 Y1.5945
X6.3099 Y1.6062
X6.3135 Y1.618
X6.3165 Y1.6301
X6.319 Y1.6423
X6.3208 Y1.6546
X6.3221 Y1.6669
X6.3227 Y1.6793
X6.3228 Y1.6918
X6.3222 Y1.7042
X6.321 Y1.7166
X6.3193 Y1.7289
X6.3169 Y1.7411
X6.314 Y1.7531
X6.3104 Y1.765
X6.3063 Y1.7768
X6.3016 Y1.7883
X6.2964 Y1.7996
X6.2906 Y1.8106
X6.2843 Y1.8213
X6.2775 Y1.8317
X6.2702 Y1.8417
X6.2624 Y1.8514
X6.2542 Y1.8607
X6.2455 Y1.8696
X6.2363 Y1.878
X6.2268 Y1.886
X6.2169 Y1.8935
X6.2067 Y1.9005
X6.1961 Y1.9071
X6.1852 Y1.9131
X6.1741 Y1.9185
X6.1627 Y1.9234
X6.151 Y1.9278
X6.1392 Y1.9316
X6.1272 Y1.9348
X6.115 Y1.9374
X6.1028 Y1.9394
X6.0904 Y1.9408
X6.078 Y1.9417
X6.0656 Y1.9419
X6.0532 Y1.9415
X6.0408 Y1.9405
X6.0285 Y1.9389
X6.0163 Y1.9367
X5.8105 Y1.8112
G3 X5.5171 Y1.5368 I1.7682 J-2.1844
G2 X5.1666 Y1.415 I-0.7156 J1.4935
G1 X4.9666 Y1.2906
X4.9572 Y1.282
X4.9482 Y1.2729
X4.9396 Y1.2634
X4.9315 Y1.2534
X4.924 Y1.2431
X4.9169 Y1.2325
X4.9104 Y1.2215
X4.9044 Y1.2102
X4.8989 Y1.1986
X4.8941 Y1.1867
X4.8898 Y1.1747
X4.8862 Y1.1624
X4.8831 Y1.15
X4.8807 Y1.1374
X4.8788 Y1.1248
X4.8776 Y1.1121
X4.8771 Y1.0993
Y1.0865
X4.8778 Y1.0737
X4.8791 Y1.061
X4.881 Y1.0483
X4.8836 Y1.0358
X4.8867 Y1.0234
X4.8905 Y1.0112
X4.8948 Y0.9991
X4.8998 Y0.9873
X4.9053 Y0.9758
X4.9113 Y0.9645
X4.918 Y0.9536
X4.9251 Y0.943
X4.9328 Y0.9327
X4.9409 Y0.9229
X4.9495 Y0.9134
X4.9586 Y0.9044
X4.9681 Y0.8959
X4.978 Y0.8878
X4.9883 Y0.8802
X4.999 Y0.8731
X5.01 Y0.8666
X5.0213 Y0.8606
X5.0329 Y0.8552
X5.0447 Y0.8503
X5.0568 Y0.846
X5.2479 Y0.845
G3 X5.612 Y0.9113 I-0.7608 J5.208
X5.9983 Y1.045 I0.0499 J0.481
G1 X6.1799 Y1.3678
G3 X6.1792 Y1.3832 I-0.0137 J0.0071
X6.107 Y1.406 I-0.0498 J-0.0318
X5.99 Y1.073 I0.0896 J-0.2186
G1 X5.9976 Y1.0603 F50.
G2 X5.9983 Y1.045 I-0.013 J-0.0083
G1 X5.9277 Y0.9195 F60.
G2 X5.8358 Y0.8447 I-0.1512 J0.0918
G1 X5.2479 Y0.845
G2 X5.2433 Y0.8748 I0.0005 J0.0154
G3 X5.2332 Y0.9039 I-0.0052 J0.0145
G1 X5.089 Y0.8551
X5.0861 Y0.8537
G2 X5.0564 Y0.845 I-0.0318 J0.0536 F50.
G1 X4.9537 F60.
G2 X4.7944 Y1.1844 I0.0934 J0.2509
G1 X4.9666 Y1.2906
G2 X4.9876 Y1.2848 I0.0076 J-0.0134
X4.988 Y1.2662 I-0.0171 J-0.0097
X4.8245 Y1.1819 I-0.1403 J0.0716
X4.8061 Y1.1858 I0.0232 J0.1558 F50.
G3 X4.7944 Y1.1844 I-0.0041 J-0.0148
G1 X4.7492 Y1.1565 F60.
G3 X4.7063 Y0.9876 I0.1094 J-0.1177
X4.7316 Y0.9935 I0.0108 J0.0109
G1 X4.7319 Y0.9945
X4.7716 Y1.139
X4.7721 Y1.1416
Y1.1443
G3 X4.7492 Y1.1565 I-0.0153 J-0.0012 F50.
G1 X4.6705 Y1.1079 F60.
G3 X4.638 Y1.0598 I0.0044 J-0.038
X4.6584 Y1.0588 I0.0108 J0.0109
G1 X4.665 Y1.0642
X4.6878 Y1.0826
G3 X4.6934 Y1.0957 I-0.0097 J0.0119
X4.6705 Y1.1079 I-0.0153 J-0.0012 F50.
G1 X4.6218 Y1.0779 F60.
X4.6215 Y1.0772
X4.8379 Y0.8486
X4.8385 Y0.848
X4.8416 Y0.8458
X4.8452 Y0.8451
