%
(971-23-P-0062_OUTER BEARING CLAMP_1563)
(T1  D=0.1563 CR=0. - ZMIN=-0.28 - FLAT END MILL)
G90 G94 G17 G91.1
G64 P0.001 Q0.001
G20
G53 G0 Z0.
(.3 CIRCLUAR THROUGH HOLE 2)
M9
T1 M6
S22000 M3
G4 P10.
G54
M7
G0 X-2.4276 Y1.4012
G43 Z0.6 H1
G0 Z0.0947
G1 Z0.0303 F40.
Y1.3934
G3 X-2.4224 Y1.3882 I0.0052 J0.
Y1.4089 Z0.0147 I0. J0.0103
Y1.3882 Z-0.0009 I0. J-0.0103
Y1.4089 Z-0.0165 I0. J0.0103
Y1.3882 Z-0.0321 I0. J-0.0103
Y1.4089 Z-0.0477 I0. J0.0103
Y1.3882 Z-0.0633 I0. J-0.0103
Y1.4089 Z-0.0789 I0. J0.0103
Y1.3882 Z-0.0945 I0. J-0.0103
Y1.4089 Z-0.1101 I0. J0.0103
Y1.3882 Z-0.1257 I0. J-0.0103
Y1.4089 Z-0.1413 I0. J0.0103
Y1.3882 Z-0.1569 I0. J-0.0103
Y1.4089 Z-0.1725 I0. J0.0103
Y1.3882 Z-0.1882 I0. J-0.0103
Y1.4089 Z-0.2038 I0. J0.0103
Y1.3882 Z-0.2194 I0. J-0.0103
Y1.4089 Z-0.235 I0. J0.0103
Y1.3882 Z-0.2506 I0. J-0.0103
Y1.4089 Z-0.2662 I0. J0.0103
X-2.4261 Y1.3889 Z-0.28 I0. J-0.0103
X-2.4188 Y1.4083 I0.0036 J0.0097
X-2.4261 Y1.3889 I-0.0036 J-0.0097
X-2.4194 Y1.3919 I0.0018 J0.0048
G1 X-2.4166 Y1.3992
G0 Z0.4
X-1.4038 Y2.4251
Z0.0947
G1 Z0.0303 F40.
Y2.4172
G3 X-1.3986 Y2.4121 I0.0052 J0.
Y2.4328 Z0.0147 I0. J0.0103
Y2.4121 Z-0.0009 I0. J-0.0103
Y2.4328 Z-0.0165 I0. J0.0103
Y2.4121 Z-0.0321 I0. J-0.0103
Y2.4328 Z-0.0477 I0. J0.0104
Y2.4121 Z-0.0633 I0. J-0.0104
Y2.4328 Z-0.0789 I0. J0.0104
Y2.4121 Z-0.0945 I0. J-0.0104
Y2.4328 Z-0.1101 I0. J0.0104
Y2.4121 Z-0.1257 I0. J-0.0104
Y2.4328 Z-0.1413 I0. J0.0104
Y2.4121 Z-0.1569 I0. J-0.0104
Y2.4328 Z-0.1725 I0. J0.0104
Y2.4121 Z-0.1882 I0. J-0.0104
Y2.4328 Z-0.2038 I0. J0.0104
Y2.4121 Z-0.2194 I0. J-0.0104
Y2.4328 Z-0.235 I0. J0.0104
Y2.4121 Z-0.2506 I0. J-0.0104
Y2.4328 Z-0.2662 I0. J0.0104
X-1.4022 Y2.4127 Z-0.28 I0. J-0.0104
X-1.3949 Y2.4321 I0.0036 J0.0097
X-1.4022 Y2.4127 I-0.0036 J-0.0097
X-1.3956 Y2.4158 I0.0018 J0.0048
G1 X-1.3928 Y2.4231
G0 Z0.4
X-0.0052 Y2.7998
Z0.0947
G1 Z0.0303 F40.
Y2.792
G3 X0. Y2.7868 I0.0052 J0.
Y2.8075 Z0.0147 I0. J0.0103
Y2.7868 Z-0.0009 I0. J-0.0103
Y2.8075 Z-0.0165 I0. J0.0103
Y2.7868 Z-0.0321 I0. J-0.0103
Y2.8075 Z-0.0477 I0. J0.0103
Y2.7868 Z-0.0633 I0. J-0.0103
Y2.8075 Z-0.0789 I0. J0.0103
Y2.7868 Z-0.0945 I0. J-0.0103
Y2.8075 Z-0.1101 I0. J0.0103
Y2.7868 Z-0.1257 I0. J-0.0103
Y2.8075 Z-0.1413 I0. J0.0103
Y2.7868 Z-0.1569 I0. J-0.0103
Y2.8075 Z-0.1725 I0. J0.0103
Y2.7868 Z-0.1882 I0. J-0.0103
Y2.8075 Z-0.2038 I0. J0.0103
Y2.7868 Z-0.2194 I0. J-0.0103
Y2.8075 Z-0.235 I0. J0.0103
Y2.7868 Z-0.2506 I0. J-0.0103
Y2.8075 Z-0.2662 I0. J0.0103
X-0.0036 Y2.7875 Z-0.28 I0. J-0.0103
X0.0036 Y2.8069 I0.0036 J0.0097
X-0.0036 Y2.7875 I-0.0036 J-0.0097
X0.003 Y2.7905 I0.0018 J0.0048
G1 X0.0058 Y2.7978
G0 Z0.4
X1.3934 Y2.4251
Z0.0947
G1 Z0.0303 F40.
Y2.4172
G3 X1.3986 Y2.4121 I0.0052 J0.
Y2.4328 Z0.0147 I0. J0.0103
Y2.4121 Z-0.0009 I0. J-0.0103
Y2.4328 Z-0.0165 I0. J0.0103
Y2.4121 Z-0.0321 I0. J-0.0103
Y2.4328 Z-0.0477 I0. J0.0103
Y2.4121 Z-0.0633 I0. J-0.0103
Y2.4328 Z-0.0789 I0. J0.0103
Y2.4121 Z-0.0945 I0. J-0.0103
Y2.4328 Z-0.1101 I0. J0.0103
Y2.4121 Z-0.1257 I0. J-0.0103
Y2.4328 Z-0.1413 I0. J0.0103
Y2.4121 Z-0.1569 I0. J-0.0103
Y2.4328 Z-0.1725 I0. J0.0103
Y2.4121 Z-0.1882 I0. J-0.0103
Y2.4328 Z-0.2038 I0. J0.0103
Y2.4121 Z-0.2194 I0. J-0.0103
Y2.4328 Z-0.235 I0. J0.0103
Y2.4121 Z-0.2506 I0. J-0.0103
Y2.4328 Z-0.2662 I0. J0.0103
X1.3949 Y2.4127 Z-0.28 I0. J-0.0103
X1.4022 Y2.4321 I0.0036 J0.0097
X1.3949 Y2.4127 I-0.0036 J-0.0097
X1.4016 Y2.4158 I0.0018 J0.0048
G1 X1.4044 Y2.4231
G0 Z0.4
X2.4172 Y1.4012
Z0.0947
G1 Z0.0303 F40.
Y1.3934
G3 X2.4224 Y1.3882 I0.0052 J0.
Y1.4089 Z0.0147 I0. J0.0103
Y1.3882 Z-0.0009 I0. J-0.0103
Y1.4089 Z-0.0165 I0. J0.0103
Y1.3882 Z-0.0321 I0. J-0.0103
Y1.4089 Z-0.0477 I0. J0.0103
Y1.3882 Z-0.0633 I0. J-0.0103
Y1.4089 Z-0.0789 I0. J0.0103
Y1.3882 Z-0.0945 I0. J-0.0103
Y1.4089 Z-0.1101 I0. J0.0103
Y1.3882 Z-0.1257 I0. J-0.0103
Y1.4089 Z-0.1413 I0. J0.0103
Y1.3882 Z-0.1569 I0. J-0.0103
Y1.4089 Z-0.1725 I0. J0.0103
Y1.3882 Z-0.1882 I0. J-0.0103
Y1.4089 Z-0.2038 I0. J0.0103
Y1.3882 Z-0.2194 I0. J-0.0103
Y1.4089 Z-0.235 I0. J0.0103
Y1.3882 Z-0.2506 I0. J-0.0103
Y1.4089 Z-0.2662 I0. J0.0103
X2.4188 Y1.3889 Z-0.28 I0. J-0.0103
X2.4261 Y1.4083 I0.0036 J0.0097
X2.4188 Y1.3889 I-0.0036 J-0.0097
X2.4254 Y1.3919 I0.0018 J0.0048
G1 X2.4282 Y1.3992
G0 Z0.4
X2.792 Y0.0026
Z0.0947
G1 Z0.0303 F40.
Y-0.0052
G3 X2.7972 Y-0.0104 I0.0052 J0.
Y0.0103 Z0.0147 I0. J0.0104
Y-0.0103 Z-0.0009 I0. J-0.0103
Y0.0103 Z-0.0165 I0. J0.0103
Y-0.0103 Z-0.0321 I0. J-0.0103
Y0.0103 Z-0.0477 I0. J0.0103
Y-0.0103 Z-0.0633 I0. J-0.0103
Y0.0103 Z-0.0789 I0. J0.0103
Y-0.0103 Z-0.0945 I0. J-0.0103
Y0.0103 Z-0.1101 I0. J0.0103
Y-0.0103 Z-0.1257 I0. J-0.0103
Y0.0103 Z-0.1413 I0. J0.0103
Y-0.0103 Z-0.1569 I0. J-0.0103
Y0.0103 Z-0.1725 I0. J0.0103
Y-0.0103 Z-0.1882 I0. J-0.0103
Y0.0103 Z-0.2038 I0. J0.0103
Y-0.0103 Z-0.2194 I0. J-0.0103
Y0.0103 Z-0.235 I0. J0.0103
Y-0.0103 Z-0.2506 I0. J-0.0103
Y0.0103 Z-0.2662 I0. J0.0103
X2.7935 Y-0.0097 Z-0.28 I0. J-0.0103
X2.8008 Y0.0097 I0.0036 J0.0097
X2.7935 Y-0.0097 I-0.0036 J-0.0097
X2.8002 Y-0.0067 I0.0018 J0.0048
G1 X2.8029 Y0.0007
G0 Z0.4
X2.4172 Y-1.3959
Z0.0947
G1 Z0.0303 F40.
Y-1.4038
G3 X2.4224 Y-1.4089 I0.0052 J0.
Y-1.3882 Z0.0147 I0. J0.0103
Y-1.4089 Z-0.0009 I0. J-0.0103
Y-1.3882 Z-0.0165 I0. J0.0103
Y-1.4089 Z-0.0321 I0. J-0.0103
Y-1.3882 Z-0.0477 I0. J0.0104
Y-1.4089 Z-0.0633 I0. J-0.0104
Y-1.3882 Z-0.0789 I0. J0.0104
Y-1.4089 Z-0.0945 I0. J-0.0104
Y-1.3882 Z-0.1101 I0. J0.0104
Y-1.4089 Z-0.1257 I0. J-0.0104
Y-1.3882 Z-0.1413 I0. J0.0104
Y-1.4089 Z-0.1569 I0. J-0.0104
Y-1.3882 Z-0.1725 I0. J0.0104
Y-1.4089 Z-0.1882 I0. J-0.0104
Y-1.3882 Z-0.2038 I0. J0.0104
Y-1.4089 Z-0.2194 I0. J-0.0104
Y-1.3882 Z-0.235 I0. J0.0104
Y-1.4089 Z-0.2506 I0. J-0.0104
Y-1.3882 Z-0.2662 I0. J0.0104
X2.4188 Y-1.4083 Z-0.28 I0. J-0.0104
X2.4261 Y-1.3889 I0.0036 J0.0097
X2.4188 Y-1.4083 I-0.0036 J-0.0097
X2.4254 Y-1.4052 I0.0018 J0.0048
G1 X2.4282 Y-1.3979
G0 Z0.4
X1.3934 Y-2.4198
Z0.0947
G1 Z0.0303 F40.
Y-2.4276
G3 X1.3986 Y-2.4328 I0.0052 J0.
Y-2.4121 Z0.0147 I0. J0.0103
Y-2.4328 Z-0.0009 I0. J-0.0103
Y-2.4121 Z-0.0165 I0. J0.0103
Y-2.4328 Z-0.0321 I0. J-0.0103
Y-2.4121 Z-0.0477 I0. J0.0103
Y-2.4328 Z-0.0633 I0. J-0.0103
Y-2.4121 Z-0.0789 I0. J0.0103
Y-2.4328 Z-0.0945 I0. J-0.0103
Y-2.4121 Z-0.1101 I0. J0.0103
Y-2.4328 Z-0.1257 I0. J-0.0103
Y-2.4121 Z-0.1413 I0. J0.0103
Y-2.4328 Z-0.1569 I0. J-0.0103
Y-2.4121 Z-0.1725 I0. J0.0103
Y-2.4328 Z-0.1882 I0. J-0.0103
Y-2.4121 Z-0.2038 I0. J0.0103
Y-2.4328 Z-0.2194 I0. J-0.0103
Y-2.4121 Z-0.235 I0. J0.0103
Y-2.4328 Z-0.2506 I0. J-0.0103
Y-2.4121 Z-0.2662 I0. J0.0103
X1.3949 Y-2.4321 Z-0.28 I0. J-0.0103
X1.4022 Y-2.4127 I0.0036 J0.0097
X1.3949 Y-2.4321 I-0.0036 J-0.0097
X1.4016 Y-2.4291 I0.0018 J0.0048
G1 X1.4044 Y-2.4218
G0 Z0.4
X-0.0052 Y-2.7945
Z0.0947
G1 Z0.0303 F40.
Y-2.8023
G3 X0. Y-2.8075 I0.0052 J0.
Y-2.7868 Z0.0147 I0. J0.0104
Y-2.8075 Z-0.0009 I0. J-0.0104
Y-2.7868 Z-0.0165 I0. J0.0104
Y-2.8075 Z-0.0321 I0. J-0.0104
Y-2.7868 Z-0.0477 I0. J0.0104
Y-2.8075 Z-0.0633 I0. J-0.0104
Y-2.7868 Z-0.0789 I0. J0.0104
Y-2.8075 Z-0.0945 I0. J-0.0104
Y-2.7868 Z-0.1101 I0. J0.0104
Y-2.8075 Z-0.1257 I0. J-0.0104
Y-2.7868 Z-0.1413 I0. J0.0104
Y-2.8075 Z-0.1569 I0. J-0.0104
Y-2.7868 Z-0.1725 I0. J0.0104
Y-2.8075 Z-0.1882 I0. J-0.0104
Y-2.7868 Z-0.2038 I0. J0.0104
Y-2.8075 Z-0.2194 I0. J-0.0104
Y-2.7868 Z-0.235 I0. J0.0104
Y-2.8075 Z-0.2506 I0. J-0.0104
Y-2.7868 Z-0.2662 I0. J0.0104
X-0.0036 Y-2.8069 Z-0.28 I0. J-0.0104
X0.0036 Y-2.7875 I0.0036 J0.0097
X-0.0036 Y-2.8069 I-0.0036 J-0.0097
X0.003 Y-2.8038 I0.0018 J0.0048
G1 X0.0058 Y-2.7965
G0 Z0.4
X-1.4038 Y-2.4198
Z0.0947
G1 Z0.0303 F40.
Y-2.4276
G3 X-1.3986 Y-2.4328 I0.0052 J0.
Y-2.4121 Z0.0147 I0. J0.0103
Y-2.4328 Z-0.0009 I0. J-0.0103
Y-2.4121 Z-0.0165 I0. J0.0103
Y-2.4328 Z-0.0321 I0. J-0.0103
Y-2.4121 Z-0.0477 I0. J0.0104
Y-2.4328 Z-0.0633 I0. J-0.0104
Y-2.4121 Z-0.0789 I0. J0.0104
Y-2.4328 Z-0.0945 I0. J-0.0104
Y-2.4121 Z-0.1101 I0. J0.0104
Y-2.4328 Z-0.1257 I0. J-0.0104
Y-2.4121 Z-0.1413 I0. J0.0104
Y-2.4328 Z-0.1569 I0. J-0.0104
Y-2.4121 Z-0.1725 I0. J0.0104
Y-2.4328 Z-0.1882 I0. J-0.0104
Y-2.4121 Z-0.2038 I0. J0.0104
Y-2.4328 Z-0.2194 I0. J-0.0104
Y-2.4121 Z-0.235 I0. J0.0104
Y-2.4328 Z-0.2506 I0. J-0.0104
Y-2.4121 Z-0.2662 I0. J0.0104
X-1.4022 Y-2.4321 Z-0.28 I0. J-0.0104
X-1.3949 Y-2.4127 I0.0036 J0.0097
X-1.4022 Y-2.4321 I-0.0036 J-0.0097
X-1.3956 Y-2.4291 I0.0018 J0.0048
G1 X-1.3928 Y-2.4218
G0 Z0.4
X-2.4276 Y-1.3959
Z0.0947
G1 Z0.0303 F40.
Y-1.4038
G3 X-2.4224 Y-1.4089 I0.0052 J0.
Y-1.3882 Z0.0147 I0. J0.0103
Y-1.4089 Z-0.0009 I0. J-0.0103
Y-1.3882 Z-0.0165 I0. J0.0103
Y-1.4089 Z-0.0321 I0. J-0.0103
Y-1.3882 Z-0.0477 I0. J0.0104
Y-1.4089 Z-0.0633 I0. J-0.0104
Y-1.3882 Z-0.0789 I0. J0.0104
Y-1.4089 Z-0.0945 I0. J-0.0104
Y-1.3882 Z-0.1101 I0. J0.0104
Y-1.4089 Z-0.1257 I0. J-0.0104
Y-1.3882 Z-0.1413 I0. J0.0104
Y-1.4089 Z-0.1569 I0. J-0.0104
Y-1.3882 Z-0.1725 I0. J0.0104
Y-1.4089 Z-0.1882 I0. J-0.0104
Y-1.3882 Z-0.2038 I0. J0.0104
Y-1.4089 Z-0.2194 I0. J-0.0104
Y-1.3882 Z-0.235 I0. J0.0104
Y-1.4089 Z-0.2506 I0. J-0.0104
Y-1.3882 Z-0.2662 I0. J0.0104
X-2.4261 Y-1.4083 Z-0.28 I0. J-0.0104
X-2.4188 Y-1.3889 I0.0036 J0.0097
X-2.4261 Y-1.4083 I-0.0036 J-0.0097
X-2.4194 Y-1.4052 I0.0018 J0.0048
G1 X-2.4166 Y-1.3979
G0 Z0.4
X-2.8023 Y0.0026
Z0.0947
G1 Z0.0303 F40.
Y-0.0052
G3 X-2.7972 Y-0.0104 I0.0052 J0.
Y0.0104 Z0.0147 I0. J0.0104
Y-0.0104 Z-0.0009 I0. J-0.0104
Y0.0104 Z-0.0165 I0. J0.0104
Y-0.0104 Z-0.0321 I0. J-0.0104
Y0.0104 Z-0.0477 I0. J0.0104
Y-0.0104 Z-0.0633 I0. J-0.0104
Y0.0104 Z-0.0789 I0. J0.0104
Y-0.0104 Z-0.0945 I0. J-0.0104
Y0.0104 Z-0.1101 I0. J0.0104
Y-0.0104 Z-0.1257 I0. J-0.0104
Y0.0104 Z-0.1413 I0. J0.0104
Y-0.0104 Z-0.1569 I0. J-0.0104
Y0.0104 Z-0.1725 I0. J0.0104
Y-0.0104 Z-0.1882 I0. J-0.0104
Y0.0104 Z-0.2038 I0. J0.0104
Y-0.0104 Z-0.2194 I0. J-0.0104
Y0.0104 Z-0.235 I0. J0.0104
Y-0.0104 Z-0.2506 I0. J-0.0104
Y0.0104 Z-0.2662 I0. J0.0104
X-2.8008 Y-0.0097 Z-0.28 I0. J-0.0104
X-2.7935 Y0.0097 I0.0036 J0.0097
X-2.8008 Y-0.0097 I-0.0036 J-0.0097
X-2.7941 Y-0.0067 I0.0018 J0.0048
G1 X-2.7914 Y0.0007
G0 Z0.6
(2D SLOT CUT)
M7
G0 X2.7079 Y0.7012
Z0.6
Z0.2
G1 Z0.1159 F13.333
X2.7077 Y0.7011 Z0.1128 F40.
X2.7068 Y0.7009 Z0.1099
X2.7054 Y0.7005 Z0.1072
X2.7035 Y0.7001 Z0.1048
X2.7012 Y0.6995 Z0.1029
X2.6986 Y0.6988 Z0.1014
X2.6957 Y0.6981 Z0.1005
X2.6928 Y0.6973 Z0.1002
X2.6776 Y0.6935
G3 X2.6663 Y0.6745 I0.0038 J-0.0152
G2 X2.7503 Y0.0027 Z-0.0194 I-2.6663 J-0.6745
Y0.0014 Z-0.0196 I-2.7503 J-0.0027
Y0. Z-0.0197 I-2.7503 J-0.0014
X-2.7503 I-2.7503 J0. F30.
X2.7503 I2.7503 J0.
G3 X2.7659 Y-0.0156 I0.0156 J0.
G1 X2.7816
G18 G2 X2.7972 Z-0.0041 I0. K0.0156
G0 Z0.4
X-2.7135 Y0.679
Z0.2
G1 Z0.1159 F13.333
X-2.7138 Y0.6791 Z0.1128 F40.
X-2.7147 Y0.6793 Z0.1099
X-2.7161 Y0.6797 Z0.1072
X-2.7179 Y0.6801 Z0.1048
X-2.7202 Y0.6807 Z0.1029
X-2.7229 Y0.6813 Z0.1014
X-2.7257 Y0.682 Z0.1005
X-2.7287 Y0.6827 Z0.1002
X-2.7439 Y0.6865
G17 G3 X-2.7628 Y0.675 I-0.0037 J-0.0152
X-2.844 Y0.0027 Z-0.0194 I2.7628 J-0.675
Y0.0014 Z-0.0196 I2.844 J-0.0027
Y0. Z-0.0197 I2.844 J-0.0014
X2.844 I2.844 J0. F30.
X-2.844 I-2.844 J0.
X-2.8284 Y-0.0156 I0.0156 J0.
G1 X-2.8128
G18 G2 X-2.7971 Z-0.0041 I0. K0.0156
G0 Z0.6
G17
(2D SLOT CUT 2)
M7
G0 X0.9395 Y2.2561
Z0.6
Z0.2
G1 Z0.1159 F13.333
X0.9396 Y2.2564 Z0.1128 F40.
X0.9399 Y2.2572 Z0.1099
X0.9405 Y2.2586 Z0.1072
X0.9412 Y2.2604 Z0.1048
X0.9421 Y2.2626 Z0.1029
X0.9431 Y2.2651 Z0.1014
X0.9442 Y2.2678 Z0.1005
X0.9454 Y2.2706 Z0.1002
X0.9513 Y2.2851
G3 X0.9427 Y2.3054 I-0.0145 J0.0059
X0.0027 Y2.4907 Z-0.0698 I-0.9427 J-2.3054
X0.0014 Z-0.0699 I-0.0027 J-2.4907
X0. Z-0.07 I-0.0014 J-2.4907
Y-2.4907 I0. J-2.4907 F30.
Y2.4907 I0. J2.4907
X-0.3953 Y2.4592 Z-0.14 I0. J-2.4907 F40.
X0.3953 Y-2.4592 I0.3953 J-2.4592 F30.
X-0.3953 Y2.4592 I-0.3953 J2.4592
X-0.7806 Y2.3653 Z-0.21 I0.3953 J-2.4592 F40.
X0.7806 Y-2.3653 I0.7806 J-2.3653 F30.
X-0.7806 Y2.3653 I-0.7806 J2.3653
X-1.1461 Y2.2114 Z-0.28 I0.7806 J-2.3653 F40.
X1.1461 Y-2.2114 I1.1461 J-2.2114 F30.
X-1.1461 Y2.2114 I-1.1461 J2.2114
X-1.1528 Y2.1903 I0.0072 J-0.0139
G1 X-1.1456 Y2.1765
X-1.1442 Y2.1737 Z-0.2797
X-1.1428 Y2.1711 Z-0.2788
X-1.1416 Y2.1687 Z-0.2774
X-1.1405 Y2.1666 Z-0.2754
X-1.1396 Y2.1649 Z-0.2731
X-1.139 Y2.1636 Z-0.2704
X-1.1385 Y2.1628 Z-0.2674
X-1.1384 Y2.1626 Z-0.2644
G0 Z0.4
X2.9906 Y0.9805
Z0.2
G1 Z0.1159 F13.333
X2.9903 Y0.9804 Z0.1128 F40.
X2.9895 Y0.9801 Z0.1099
X2.9881 Y0.9797 Z0.1072
X2.9863 Y0.9791 Z0.1048
X2.984 Y0.9784 Z0.1029
X2.9814 Y0.9775 Z0.1014
X2.9786 Y0.9766 Z0.1005
X2.9757 Y0.9757 Z0.1002
X2.9609 Y0.9709
G3 X2.9508 Y0.9512 I0.0048 J-0.0149
G2 X3.1003 Y0.0027 Z-0.0698 I-2.9508 J-0.9512
Y0.0014 Z-0.0699 I-3.1003 J-0.0027
Y0. Z-0.07 I-3.1003 J-0.0014
X-3.1003 I-3.1003 J0. F30.
X3.1003 I3.1003 J0.
X3.0671 Y-0.4529 Z-0.14 I-3.1003 J0. F40.
X-3.0671 Y0.4529 I-3.0671 J0.4529 F30.
X3.0671 Y-0.4529 I3.0671 J-0.4529
X2.968 Y-0.8961 Z-0.21 I-3.0671 J0.4529 F40.
X-0.2588 Y-3.0895 I-2.968 J0.8961 F30.
G1 Z-0.2
G2 X-0.9991 Y-2.9349 I0.2588 J3.0895
G1 Z-0.21 F13.333
G2 X-3.0776 Y0.375 I0.9991 J2.9349 F30.
G1 Z-0.2
G2 X-2.8952 Y1.109 I3.0776 J-0.375
G1 Z-0.21 F13.333
G2 X-0.1334 Y3.0974 I2.8952 J-1.109 F30.
G1 Z-0.2
G2 X0.6205 Y3.0376 I0.1334 J-3.0974
G1 Z-0.21 F13.333
G2 X3.0613 Y0.4901 I-0.6205 J-3.0376 F30.
G1 Z-0.2
G2 X3.0889 Y-0.2657 I-3.0613 J-0.4901
G1 Z-0.21 F13.333
G2 X2.968 Y-0.8961 I-3.0889 J0.2657 F30.
X2.8052 Y-1.3201 Z-0.28 I-2.968 J0.8961 F40.
X-0.2588 Y-3.0895 I-2.8052 J1.3201 F30.
G1 Z-0.2
G2 X-0.9991 Y-2.9349 I0.2588 J3.0895
G1 Z-0.28 F13.333
G2 X-3.0776 Y0.375 I0.9991 J2.9349 F30.
G1 Z-0.2
G2 X-2.8952 Y1.109 I3.0776 J-0.375
G1 Z-0.28 F13.333
G2 X-0.1334 Y3.0974 I2.8952 J-1.109 F30.
G1 Z-0.2
G2 X0.6205 Y3.0376 I0.1334 J-3.0974
G1 Z-0.28 F13.333
G2 X3.0613 Y0.4901 I-0.6205 J-3.0376 F30.
G1 Z-0.2
G2 X3.0889 Y-0.2657 I-3.0613 J-0.4901
G1 Z-0.28 F13.333
G2 X2.8052 Y-1.3201 I-3.0889 J0.2657 F30.
G3 X2.8127 Y-1.3408 I0.0141 J-0.0067
G1 X2.8269 Y-1.3475
X2.8296 Y-1.3488 Z-0.2797
X2.8323 Y-1.35 Z-0.2788
X2.8347 Y-1.3512 Z-0.2774
X2.8369 Y-1.3522 Z-0.2754
X2.8386 Y-1.353 Z-0.2731
X2.8399 Y-1.3537 Z-0.2704
X2.8407 Y-1.354 Z-0.2674
X2.841 Y-1.3542 Z-0.2644
G0 Z0.6
M9
G53 Z0.
M30
%
