%
(971-23-P-0175_BUTTON PLATE_1537)
(T1  D=0.1537 CR=0. - ZMIN=-0.2075 - FLAT END MILL)
G90 G94 G17 G91.1
G64 P0.001 Q0.001
G20
G53 G0 Z0.
(.3 CIRCULAR THROUGH HOLE)
M9
T1 M6
S22000 M3
G4 P10.
G54
M7
G0 X7.6553 Y7.8062
G43 Z0.6 H1
G0 Z0.2
G1 Z0.1148 F13.333
G3 X7.6545 Y7.8051 Z0.1084 I0.0366 J-0.0262 F55.
X7.6524 Y7.8016 Z0.1031 I0.0374 J-0.0251
X7.6499 Y7.7963 Z0.1 I0.0395 J-0.0216
X7.7338 Y7.7637 Z0.0621 I0.042 J-0.0163
X7.6499 Y7.7963 Z0.0242 I-0.042 J0.0163
X7.7338 Y7.7637 Z-0.0136 I0.042 J-0.0163
X7.6499 Y7.7963 Z-0.0515 I-0.042 J0.0163
X7.7338 Y7.7637 Z-0.0894 I0.042 J-0.0163
X7.6499 Y7.7963 Z-0.1273 I-0.042 J0.0163
X7.7338 Y7.7637 Z-0.1652 I0.042 J-0.0163
X7.6499 Y7.7963 Z-0.203 I-0.042 J0.0163
X7.6469 Y7.78 Z-0.2075 I0.042 J-0.0163
X7.7031 I0.0282 J0. F60.
X7.5468 I-0.0781 J0.
X7.8032 I0.1282 J0.
X7.4469 I-0.1781 J0.
X7.9031 I0.2282 J0.
X7.3468 I-0.2781 J0.
X8.0032 I0.3282 J0.
X7.2469 I-0.3782 J0.
X8.0132 I0.3831 J0.
X7.2369 I-0.3881 J0.
X8.0132 I0.3881 J0.
X8.012 Y7.7857 Z-0.2063 I-0.0154 J0.
X8.0095 Y7.79 Z-0.203 I-0.0143 J-0.0057
X8.007 Y7.7923 Z-0.198 I-0.0117 J-0.01
X8.0061 Y7.7929 Z-0.1921 I-0.0093 J-0.0123
G0 Z0.4
X9.6553 Y6.8062
Z0.2
G1 Z0.1148 F13.333
G3 X9.6545 Y6.8051 Z0.1084 I0.0366 J-0.0262 F55.
X9.6524 Y6.8016 Z0.1031 I0.0374 J-0.0251
X9.6499 Y6.7963 Z0.1 I0.0395 J-0.0216
X9.7338 Y6.7637 Z0.0621 I0.042 J-0.0163
X9.6499 Y6.7963 Z0.0242 I-0.042 J0.0163
X9.7338 Y6.7637 Z-0.0136 I0.042 J-0.0163
X9.6499 Y6.7963 Z-0.0515 I-0.042 J0.0163
X9.7338 Y6.7637 Z-0.0894 I0.042 J-0.0163
X9.6499 Y6.7963 Z-0.1273 I-0.042 J0.0163
X9.7338 Y6.7637 Z-0.1652 I0.042 J-0.0163
X9.6499 Y6.7963 Z-0.203 I-0.042 J0.0163
X9.6468 Y6.78 Z-0.2075 I0.042 J-0.0163
X9.7031 I0.0282 J0. F60.
X9.5469 I-0.0781 J0.
X9.8032 I0.1281 J0.
X9.4469 I-0.1781 J0.
X9.9031 I0.2281 J0.
X9.3468 I-0.2781 J0.
X10.0032 I0.3281 J0.
X9.2469 I-0.3782 J0.
X10.0132 I0.3831 J0.
X9.2369 I-0.3881 J0.
X10.0132 I0.3881 J0.
X10.012 Y6.7857 Z-0.2063 I-0.0154 J0.
X10.0095 Y6.79 Z-0.203 I-0.0143 J-0.0057
X10.007 Y6.7923 Z-0.198 I-0.0117 J-0.01
X10.0061 Y6.7929 Z-0.1921 I-0.0093 J-0.0123
G0 Z0.4
X9.6553 Y5.3062
Z0.2
G1 Z0.1148 F13.333
G3 X9.6545 Y5.3051 Z0.1084 I0.0366 J-0.0262 F55.
X9.6524 Y5.3016 Z0.1031 I0.0374 J-0.0251
X9.6499 Y5.2963 Z0.1 I0.0395 J-0.0216
X9.7338 Y5.2637 Z0.0621 I0.042 J-0.0163
X9.6499 Y5.2963 Z0.0242 I-0.042 J0.0163
X9.7338 Y5.2637 Z-0.0136 I0.042 J-0.0163
X9.6499 Y5.2963 Z-0.0515 I-0.042 J0.0163
X9.7338 Y5.2637 Z-0.0894 I0.042 J-0.0163
X9.6499 Y5.2963 Z-0.1273 I-0.042 J0.0163
X9.7338 Y5.2637 Z-0.1652 I0.042 J-0.0163
X9.6499 Y5.2963 Z-0.203 I-0.042 J0.0163
X9.6468 Y5.28 Z-0.2075 I0.042 J-0.0163
X9.7031 I0.0282 J0. F60.
X9.5469 I-0.0781 J0.
X9.8032 I0.1281 J0.
X9.4469 I-0.1781 J0.
X9.9031 I0.2281 J0.
X9.3468 I-0.2781 J0.
X10.0032 I0.3281 J0.
X9.2469 I-0.3782 J0.
X10.0132 I0.3831 J0.
X9.2369 I-0.3881 J0.
X10.0132 I0.3881 J0.
X10.012 Y5.2857 Z-0.2063 I-0.0154 J0.
X10.0095 Y5.29 Z-0.203 I-0.0143 J-0.0057
X10.007 Y5.2923 Z-0.198 I-0.0117 J-0.01
X10.0061 Y5.2929 Z-0.1921 I-0.0093 J-0.0123
G0 Z0.4
X11.6553 Y4.8062
Z0.2
G1 Z0.1148 F13.333
G3 X11.6545 Y4.8051 Z0.1084 I0.0366 J-0.0262 F55.
X11.6524 Y4.8016 Z0.1031 I0.0374 J-0.0251
X11.6499 Y4.7963 Z0.1 I0.0395 J-0.0216
X11.7338 Y4.7637 Z0.0621 I0.042 J-0.0163
X11.6499 Y4.7963 Z0.0242 I-0.042 J0.0163
X11.7338 Y4.7637 Z-0.0136 I0.042 J-0.0163
X11.6499 Y4.7963 Z-0.0515 I-0.042 J0.0163
X11.7338 Y4.7637 Z-0.0894 I0.042 J-0.0163
X11.6499 Y4.7963 Z-0.1273 I-0.042 J0.0163
X11.7338 Y4.7637 Z-0.1652 I0.042 J-0.0163
X11.6499 Y4.7963 Z-0.203 I-0.042 J0.0163
X11.6468 Y4.78 Z-0.2075 I0.042 J-0.0163
X11.7031 I0.0282 J0. F60.
X11.5468 I-0.0782 J0.
X11.8032 I0.1282 J0.
X11.4469 I-0.1782 J0.
X11.9031 I0.2282 J0.
X11.3469 I-0.2781 J0.
X12.0031 I0.3282 J0.
X11.2468 I-0.3782 J0.
X12.0131 I0.3832 J0.
X11.2368 I-0.3881 J0.
X12.0131 I0.3881 J0.
X12.012 Y4.7857 Z-0.2063 I-0.0154 J0.
X12.0095 Y4.79 Z-0.203 I-0.0143 J-0.0057
X12.007 Y4.7923 Z-0.198 I-0.0117 J-0.01
X12.0061 Y4.7929 Z-0.1921 I-0.0093 J-0.0123
G0 Z0.4
X13.7458 Y4.8062
Z0.2
G1 Z0.1148 F13.333
G3 X13.745 Y4.8051 Z0.1084 I0.0366 J-0.0262 F55.
X13.7429 Y4.8016 Z0.1031 I0.0374 J-0.0251
X13.7404 Y4.7963 Z0.1 I0.0395 J-0.0216
X13.8243 Y4.7637 Z0.0621 I0.042 J-0.0163
X13.7404 Y4.7963 Z0.0242 I-0.042 J0.0163
X13.8243 Y4.7637 Z-0.0136 I0.042 J-0.0163
X13.7404 Y4.7963 Z-0.0515 I-0.042 J0.0163
X13.8243 Y4.7637 Z-0.0894 I0.042 J-0.0163
X13.7404 Y4.7963 Z-0.1273 I-0.042 J0.0163
X13.8243 Y4.7637 Z-0.1652 I0.042 J-0.0163
X13.7404 Y4.7963 Z-0.203 I-0.042 J0.0163
X13.7373 Y4.78 Z-0.2075 I0.042 J-0.0163
X13.7976 I0.0301 J0. F60.
X13.6374 I-0.0801 J0.
X13.8976 I0.1301 J0.
X13.5374 I-0.1801 J0.
X13.9977 I0.2301 J0.
X13.4373 I-0.2802 J0.
X13.9977 I0.2802 J0.
G2 X14.0395 Y4.8483 I0.0766 J0.
G3 X14.0674 Y4.9234 I-0.0268 J0.0527
X13.3393 Y4.78 I-0.3499 J-0.1434
X14.0957 I0.3782 J0.
X14.0674 Y4.9234 I-0.3782 J0.
G2 X14.0692 Y4.9321 I0.0075 J0.0031
G3 X14.0707 Y4.9409 I-0.0056 J0.0055
X13.3293 Y4.78 I-0.3532 J-0.1609
X14.1057 I0.3882 J0.
X14.0707 Y4.9409 I-0.3882 J0.
X14.0673 Y4.9457 Z-0.2063 I-0.014 J-0.0064
X14.0632 Y4.9485 Z-0.203 I-0.0106 J-0.0111
X14.0601 Y4.9495 Z-0.198 I-0.0065 J-0.0139
X14.0589 Y4.9498 Z-0.1921 I-0.0033 J-0.015
G0 Z0.4
X13.7458 Y6.8062
Z0.2
G1 Z0.1148 F13.333
G3 X13.745 Y6.8051 Z0.1084 I0.0366 J-0.0262 F55.
X13.7429 Y6.8016 Z0.1031 I0.0374 J-0.0251
X13.7404 Y6.7963 Z0.1 I0.0395 J-0.0216
X13.8243 Y6.7637 Z0.0621 I0.042 J-0.0163
X13.7404 Y6.7963 Z0.0242 I-0.042 J0.0163
X13.8243 Y6.7637 Z-0.0136 I0.042 J-0.0163
X13.7404 Y6.7963 Z-0.0515 I-0.042 J0.0163
X13.8243 Y6.7637 Z-0.0894 I0.042 J-0.0163
X13.7404 Y6.7963 Z-0.1273 I-0.042 J0.0163
X13.8243 Y6.7637 Z-0.1652 I0.042 J-0.0163
X13.7404 Y6.7963 Z-0.203 I-0.042 J0.0163
X13.7373 Y6.78 Z-0.2075 I0.042 J-0.0163
X13.7976 I0.0301 J0. F60.
X13.6374 I-0.0801 J0.
X13.8976 I0.1301 J0.
X13.5374 I-0.1801 J0.
X13.9977 I0.2301 J0.
X13.4373 I-0.2802 J0.
X13.9977 I0.2802 J0.
G2 X14.0395 Y6.8483 I0.0766 J0.
G3 X14.0674 Y6.9234 I-0.0268 J0.0527
X13.3393 Y6.78 I-0.3499 J-0.1434
X14.0957 I0.3782 J0.
X14.0674 Y6.9234 I-0.3782 J0.
G2 X14.0692 Y6.9321 I0.0075 J0.0031
G3 X14.0707 Y6.9409 I-0.0056 J0.0055
X13.3293 Y6.78 I-0.3532 J-0.1609
X14.1057 I0.3882 J0.
X14.0707 Y6.9409 I-0.3882 J0.
X14.0673 Y6.9457 Z-0.2063 I-0.014 J-0.0064
X14.0632 Y6.9485 Z-0.203 I-0.0106 J-0.0111
X14.0601 Y6.9495 Z-0.198 I-0.0065 J-0.0139
X14.0589 Y6.9498 Z-0.1921 I-0.0033 J-0.015
G0 Z0.4
X13.7458 Y8.8062
Z0.2
G1 Z0.1148 F13.333
G3 X13.745 Y8.8051 Z0.1084 I0.0366 J-0.0262 F55.
X13.7429 Y8.8016 Z0.1031 I0.0374 J-0.0251
X13.7404 Y8.7963 Z0.1 I0.0395 J-0.0216
X13.7373 Y8.78 Z0.0955 I0.042 J-0.0163
X13.8274 Z0.0577 I0.045 J0.
X13.7373 Z0.0198 I-0.045 J0.
X13.8274 Z-0.0181 I0.045 J0.
X13.7373 Z-0.056 I-0.045 J0.
X13.8274 Z-0.0939 I0.045 J0.
X13.7373 Z-0.1317 I-0.045 J0.
X13.8274 Z-0.1696 I0.045 J0.
X13.7373 Z-0.2075 I-0.045 J0.
X13.7976 I0.0301 J0. F60.
X13.6374 I-0.0801 J0.
X13.8976 I0.1301 J0.
X13.5374 I-0.1801 J0.
X13.9977 I0.2301 J0.
X13.4373 I-0.2802 J0.
X13.9977 I0.2802 J0.
G2 X14.0395 Y8.8483 I0.0766 J0.
G3 X14.0674 Y8.9234 I-0.0268 J0.0527
X13.3393 Y8.78 I-0.3499 J-0.1434
X14.0957 I0.3782 J0.
X14.0674 Y8.9234 I-0.3782 J0.
G2 X14.0692 Y8.9321 I0.0075 J0.0031
G3 X14.0707 Y8.9409 I-0.0056 J0.0055
X13.3293 Y8.78 I-0.3532 J-0.1609
X14.1057 I0.3882 J0.
X14.0707 Y8.9409 I-0.3882 J0.
X14.0673 Y8.9457 Z-0.2063 I-0.014 J-0.0064
X14.0632 Y8.9485 Z-0.203 I-0.0106 J-0.0111
X14.0601 Y8.9495 Z-0.198 I-0.0065 J-0.0139
X14.0589 Y8.9498 Z-0.1921 I-0.0033 J-0.015
G0 Z0.4
X13.7458 Y10.8062
Z0.2
G1 Z0.1148 F13.333
G3 X13.745 Y10.8051 Z0.1084 I0.0366 J-0.0262 F55.
X13.7429 Y10.8016 Z0.1031 I0.0374 J-0.0251
X13.7404 Y10.7963 Z0.1 I0.0395 J-0.0216
X13.8243 Y10.7637 Z0.0621 I0.042 J-0.0163
X13.7404 Y10.7963 Z0.0242 I-0.042 J0.0163
X13.8243 Y10.7637 Z-0.0136 I0.042 J-0.0163
X13.7404 Y10.7963 Z-0.0515 I-0.042 J0.0163
X13.8243 Y10.7637 Z-0.0894 I0.042 J-0.0163
X13.7404 Y10.7963 Z-0.1273 I-0.042 J0.0163
X13.8243 Y10.7637 Z-0.1652 I0.042 J-0.0163
X13.7404 Y10.7963 Z-0.203 I-0.042 J0.0163
X13.7373 Y10.78 Z-0.2075 I0.042 J-0.0163
X13.7976 I0.0301 J0. F60.
X13.6374 I-0.0801 J0.
X13.8976 I0.1301 J0.
X13.5374 I-0.1801 J0.
X13.9977 I0.2301 J0.
X13.4373 I-0.2802 J0.
X13.9977 I0.2802 J0.
G2 X14.0395 Y10.8483 I0.0766 J0.
G3 X14.0674 Y10.9234 I-0.0268 J0.0527
X13.3393 Y10.78 I-0.3499 J-0.1434
X14.0957 I0.3782 J0.
X14.0674 Y10.9234 I-0.3782 J0.
G2 X14.0692 Y10.9321 I0.0075 J0.0031
G3 X14.0707 Y10.9409 I-0.0056 J0.0055
X13.3293 Y10.78 I-0.3532 J-0.1609
X14.1057 I0.3882 J0.
X14.0707 Y10.9409 I-0.3882 J0.
X14.0673 Y10.9457 Z-0.2063 I-0.014 J-0.0064
X14.0632 Y10.9485 Z-0.203 I-0.0106 J-0.0111
X14.0601 Y10.9495 Z-0.198 I-0.0065 J-0.0139
X14.0589 Y10.9498 Z-0.1921 I-0.0033 J-0.015
G0 Z0.4
X11.6553 Y8.8062
Z0.2
G1 Z0.1148 F13.333
G3 X11.6545 Y8.8051 Z0.1084 I0.0366 J-0.0262 F55.
X11.6524 Y8.8016 Z0.1031 I0.0374 J-0.0251
X11.6499 Y8.7963 Z0.1 I0.0395 J-0.0216
X11.6468 Y8.78 Z0.0955 I0.042 J-0.0163
X11.7369 Z0.0577 I0.045 J0.
X11.6468 Z0.0198 I-0.045 J0.
X11.7369 Z-0.0181 I0.045 J0.
X11.6468 Z-0.056 I-0.045 J0.
X11.7369 Z-0.0939 I0.045 J0.
X11.6468 Z-0.1317 I-0.045 J0.
X11.7369 Z-0.1696 I0.045 J0.
X11.6468 Z-0.2075 I-0.045 J0.
X11.7031 I0.0282 J0. F60.
X11.5468 I-0.0782 J0.
X11.8032 I0.1282 J0.
X11.4469 I-0.1782 J0.
X11.9031 I0.2282 J0.
X11.3469 I-0.2781 J0.
X12.0031 I0.3282 J0.
X11.2468 I-0.3782 J0.
X12.0131 I0.3832 J0.
X11.2368 I-0.3881 J0.
X12.0131 I0.3881 J0.
X12.012 Y8.7857 Z-0.2063 I-0.0154 J0.
X12.0095 Y8.79 Z-0.203 I-0.0143 J-0.0057
X12.007 Y8.7923 Z-0.198 I-0.0117 J-0.01
X12.0061 Y8.7929 Z-0.1921 I-0.0093 J-0.0123
G0 Z0.4
X11.6553 Y6.8062
Z0.2
G1 Z0.1148 F13.333
G3 X11.6545 Y6.8051 Z0.1084 I0.0366 J-0.0262 F55.
X11.6524 Y6.8016 Z0.1031 I0.0374 J-0.0251
X11.6499 Y6.7963 Z0.1 I0.0395 J-0.0216
X11.6468 Y6.78 Z0.0955 I0.042 J-0.0163
X11.7369 Z0.0577 I0.045 J0.
X11.6468 Z0.0198 I-0.045 J0.
X11.7369 Z-0.0181 I0.045 J0.
X11.6468 Z-0.056 I-0.045 J0.
X11.7369 Z-0.0939 I0.045 J0.
X11.6468 Z-0.1317 I-0.045 J0.
X11.7369 Z-0.1696 I0.045 J0.
X11.6468 Z-0.2075 I-0.045 J0.
X11.7031 I0.0282 J0. F60.
X11.5468 I-0.0782 J0.
X11.8032 I0.1282 J0.
X11.4469 I-0.1782 J0.
X11.9031 I0.2282 J0.
X11.3469 I-0.2781 J0.
X12.0031 I0.3282 J0.
X11.2468 I-0.3782 J0.
X12.0131 I0.3832 J0.
X11.2368 I-0.3881 J0.
X12.0131 I0.3881 J0.
X12.012 Y6.7857 Z-0.2063 I-0.0154 J0.
X12.0095 Y6.79 Z-0.203 I-0.0143 J-0.0057
X12.007 Y6.7923 Z-0.198 I-0.0117 J-0.01
X12.0061 Y6.7929 Z-0.1921 I-0.0093 J-0.0123
G0 Z0.4
X9.6553 Y8.8062
Z0.2
G1 Z0.1148 F13.333
G3 X9.6545 Y8.8051 Z0.1084 I0.0366 J-0.0262 F55.
X9.6524 Y8.8016 Z0.1031 I0.0374 J-0.0251
X9.6499 Y8.7963 Z0.1 I0.0395 J-0.0216
X9.6468 Y8.78 Z0.0955 I0.042 J-0.0163
X9.7369 Z0.0577 I0.045 J0.
X9.6468 Z0.0198 I-0.045 J0.
X9.7369 Z-0.0181 I0.045 J0.
X9.6468 Z-0.056 I-0.045 J0.
X9.7369 Z-0.0939 I0.045 J0.
X9.6468 Z-0.1317 I-0.045 J0.
X9.7369 Z-0.1696 I0.045 J0.
X9.6468 Z-0.2075 I-0.045 J0.
X9.7031 I0.0282 J0. F60.
X9.5469 I-0.0781 J0.
X9.8032 I0.1281 J0.
X9.4469 I-0.1781 J0.
X9.9031 I0.2281 J0.
X9.3468 I-0.2781 J0.
X10.0032 I0.3281 J0.
X9.2469 I-0.3782 J0.
X10.0132 I0.3831 J0.
X9.2369 I-0.3881 J0.
X10.0132 I0.3881 J0.
X10.012 Y8.7857 Z-0.2063 I-0.0154 J0.
X10.0095 Y8.79 Z-0.203 I-0.0143 J-0.0057
X10.007 Y8.7923 Z-0.198 I-0.0117 J-0.01
X10.0061 Y8.7929 Z-0.1921 I-0.0093 J-0.0123
G0 Z0.4
X10.6076 Y10.9912
Z0.2
G1 Z0.1148 F13.333
G3 X10.6084 Y10.9924 Z0.1084 I-0.0366 J0.0262 F55.
X10.6105 Y10.9959 Z0.1031 I-0.0374 J0.0251
X10.613 Y11.0012 Z0.1 I-0.0395 J0.0216
X10.616 Y11.0175 Z0.0955 I-0.042 J0.0163
X10.526 Z0.0577 I-0.045 J0.
X10.616 Z0.0198 I0.045 J0.
X10.526 Z-0.0181 I-0.045 J0.
X10.616 Z-0.056 I0.045 J0.
X10.526 Z-0.0939 I-0.045 J0.
X10.616 Z-0.1317 I0.045 J0.
X10.526 Z-0.1696 I-0.045 J0.
X10.616 Z-0.2075 I0.045 J0.
X10.5897 I-0.0132 J0. F60.
X10.716 I0.0631 J0.
X10.4897 I-0.1132 J0.
X10.816 I0.1632 J0.
X10.3897 I-0.2132 J0.
X10.916 I0.2632 J0.
X10.2897 I-0.3132 J0.
X11.016 I0.3632 J0.
X10.1897 I-0.4132 J0.
X11.116 I0.4631 J0.
X10.0897 I-0.5132 J0.
X11.216 I0.5632 J0.
X9.9897 I-0.6132 J0.
X11.226 I0.6182 J0.
X9.9797 I-0.6232 J0.
X11.226 I0.6232 J0.
X11.2249 Y11.0232 Z-0.2063 I-0.0154 J0.
X11.2223 Y11.0275 Z-0.203 I-0.0143 J-0.0057
X11.2199 Y11.0297 Z-0.198 I-0.0117 J-0.01
X11.219 Y11.0304 Z-0.1921 I-0.0093 J-0.0123
G0 Z0.4
X7.6553 Y9.8062
Z0.2
G1 Z0.1148 F13.333
G3 X7.6545 Y9.8051 Z0.1084 I0.0366 J-0.0262 F55.
X7.6524 Y9.8016 Z0.1031 I0.0374 J-0.0251
X7.6499 Y9.7963 Z0.1 I0.0395 J-0.0216
X7.7338 Y9.7637 Z0.0621 I0.042 J-0.0163
X7.6499 Y9.7963 Z0.0242 I-0.042 J0.0163
X7.7338 Y9.7637 Z-0.0136 I0.042 J-0.0163
X7.6499 Y9.7963 Z-0.0515 I-0.042 J0.0163
X7.7338 Y9.7637 Z-0.0894 I0.042 J-0.0163
X7.6499 Y9.7963 Z-0.1273 I-0.042 J0.0163
X7.7338 Y9.7637 Z-0.1652 I0.042 J-0.0163
X7.6499 Y9.7963 Z-0.203 I-0.042 J0.0163
X7.6469 Y9.78 Z-0.2075 I0.042 J-0.0163
X7.7031 I0.0282 J0. F60.
X7.5468 I-0.0781 J0.
X7.8032 I0.1282 J0.
X7.4469 I-0.1781 J0.
X7.9031 I0.2282 J0.
X7.3468 I-0.2781 J0.
X8.0032 I0.3282 J0.
X7.2469 I-0.3782 J0.
X8.0132 I0.3831 J0.
X7.2369 I-0.3881 J0.
X8.0132 I0.3881 J0.
X8.012 Y9.7857 Z-0.2063 I-0.0154 J0.
X8.0095 Y9.79 Z-0.203 I-0.0143 J-0.0057
X8.007 Y9.7923 Z-0.198 I-0.0117 J-0.01
X8.0061 Y9.7929 Z-0.1921 I-0.0093 J-0.0123
G0 Z0.4
X5.5628 Y8.8062
Z0.2
G1 Z0.1148 F13.333
G3 X5.562 Y8.8051 Z0.1084 I0.0366 J-0.0262 F55.
X5.5599 Y8.8016 Z0.1031 I0.0374 J-0.0251
X5.5574 Y8.7963 Z0.1 I0.0395 J-0.0216
X5.5544 Y8.78 Z0.0955 I0.042 J-0.0163
X5.6444 Z0.0577 I0.045 J0.
X5.5544 Z0.0198 I-0.045 J0.
X5.6444 Z-0.0181 I0.045 J0.
X5.5544 Z-0.056 I-0.045 J0.
X5.6444 Z-0.0939 I0.045 J0.
X5.5544 Z-0.1317 I-0.045 J0.
X5.6444 Z-0.1696 I0.045 J0.
X5.5544 Z-0.2075 I-0.045 J0.
X5.6107 I0.0282 J0. F60.
X5.4544 I-0.0782 J0.
X5.7107 I0.1282 J0.
X5.3544 I-0.1781 J0.
X5.8107 I0.2282 J0.
X5.2544 I-0.2781 J0.
X5.9107 I0.3282 J0.
X5.1544 I-0.3782 J0.
X5.9207 I0.3831 J0.
X5.1444 I-0.3881 J0.
X5.9207 I0.3881 J0.
X5.9196 Y8.7857 Z-0.2063 I-0.0154 J0.
X5.917 Y8.79 Z-0.203 I-0.0143 J-0.0057
X5.9146 Y8.7923 Z-0.198 I-0.0117 J-0.01
X5.9136 Y8.7929 Z-0.1921 I-0.0093 J-0.0123
G0 Z0.4
X5.5628 Y6.8062
Z0.2
G1 Z0.1148 F13.333
G3 X5.562 Y6.8051 Z0.1084 I0.0366 J-0.0262 F55.
X5.5599 Y6.8016 Z0.1031 I0.0374 J-0.0251
X5.5574 Y6.7963 Z0.1 I0.0395 J-0.0216
X5.6413 Y6.7637 Z0.0621 I0.042 J-0.0163
X5.5574 Y6.7963 Z0.0242 I-0.042 J0.0163
X5.6413 Y6.7637 Z-0.0136 I0.042 J-0.0163
X5.5574 Y6.7963 Z-0.0515 I-0.042 J0.0163
X5.6413 Y6.7637 Z-0.0894 I0.042 J-0.0163
X5.5574 Y6.7963 Z-0.1273 I-0.042 J0.0163
X5.6413 Y6.7637 Z-0.1652 I0.042 J-0.0163
X5.5574 Y6.7963 Z-0.203 I-0.042 J0.0163
X5.5544 Y6.78 Z-0.2075 I0.042 J-0.0163
X5.6107 I0.0282 J0. F60.
X5.4544 I-0.0782 J0.
X5.7107 I0.1282 J0.
X5.3544 I-0.1781 J0.
X5.8107 I0.2282 J0.
X5.2544 I-0.2781 J0.
X5.9107 I0.3282 J0.
X5.1544 I-0.3782 J0.
X5.9207 I0.3831 J0.
X5.1444 I-0.3881 J0.
X5.9207 I0.3881 J0.
X5.9196 Y6.7857 Z-0.2063 I-0.0154 J0.
X5.917 Y6.79 Z-0.203 I-0.0143 J-0.0057
X5.9146 Y6.7923 Z-0.198 I-0.0117 J-0.01
X5.9136 Y6.7929 Z-0.1921 I-0.0093 J-0.0123
G0 Z0.4
X5.5483 Y4.8062
Z0.2
G1 Z0.1148 F13.333
G3 X5.5475 Y4.8051 Z0.1084 I0.0366 J-0.0262 F55.
X5.5454 Y4.8016 Z0.1031 I0.0374 J-0.0251
X5.5429 Y4.7963 Z0.1 I0.0395 J-0.0216
X5.6268 Y4.7637 Z0.0621 I0.042 J-0.0163
X5.5429 Y4.7963 Z0.0242 I-0.042 J0.0163
X5.6268 Y4.7637 Z-0.0136 I0.042 J-0.0163
X5.5429 Y4.7963 Z-0.0515 I-0.042 J0.0163
X5.6268 Y4.7637 Z-0.0894 I0.042 J-0.0163
X5.5429 Y4.7963 Z-0.1273 I-0.042 J0.0163
X5.6268 Y4.7637 Z-0.1652 I0.042 J-0.0163
X5.5429 Y4.7963 Z-0.203 I-0.042 J0.0163
X5.5399 Y4.78 Z-0.2075 I0.042 J-0.0163
X5.6251 I0.0426 J0. F60.
X5.4399 I-0.0926 J0.
X5.6251 I0.0926 J0.
G2 X5.6601 Y4.8421 I0.0727 J0.
G3 X5.6692 Y4.9129 I-0.0236 J0.039
X5.3418 Y4.78 I-0.1367 J-0.1329
X5.7232 I0.1907 J0.
X5.6692 Y4.9129 I-0.1907 J0.
G2 X5.6675 Y4.9216 I0.0058 J0.0056
G3 X5.6655 Y4.9302 I-0.0071 J0.0029
X5.3318 Y4.78 I-0.133 J-0.1502
X5.7331 I0.2007 J0.
X5.6655 Y4.9302 I-0.2007 J0.
X5.6605 Y4.9332 Z-0.2063 I-0.0102 J-0.0115
X5.6556 Y4.9341 Z-0.203 I-0.0052 J-0.0145
X5.6523 Y4.9338 Z-0.198 I-0.0003 J-0.0154
X5.6512 Y4.9335 Z-0.1921 I0.003 J-0.0151
G0 Z0.4
X7.6408 Y4.8062
Z0.2
G1 Z0.1148 F13.333
G3 X7.64 Y4.8051 Z0.1084 I0.0366 J-0.0262 F55.
X7.6379 Y4.8016 Z0.1031 I0.0374 J-0.0251
X7.6354 Y4.7963 Z0.1 I0.0395 J-0.0216
X7.7194 Y4.7637 Z0.0621 I0.042 J-0.0163
X7.6354 Y4.7963 Z0.0242 I-0.042 J0.0163
X7.7194 Y4.7637 Z-0.0136 I0.042 J-0.0163
X7.6354 Y4.7963 Z-0.0515 I-0.042 J0.0163
X7.7194 Y4.7637 Z-0.0894 I0.042 J-0.0163
X7.6354 Y4.7963 Z-0.1273 I-0.042 J0.0163
X7.7194 Y4.7637 Z-0.1652 I0.042 J-0.0163
X7.6354 Y4.7963 Z-0.203 I-0.042 J0.0163
X7.6324 Y4.78 Z-0.2075 I0.042 J-0.0163
X7.7176 I0.0426 J0. F60.
X7.5324 I-0.0926 J0.
X7.7176 I0.0926 J0.
G2 X7.7527 Y4.8421 I0.0727 J0.
G3 X7.7617 Y4.9129 I-0.0236 J0.039
X7.4344 Y4.78 I-0.1367 J-0.1329
X7.8157 I0.1907 J0.
X7.7617 Y4.9129 I-0.1906 J0.
G2 X7.76 Y4.9216 I0.0058 J0.0056
G3 X7.758 Y4.9302 I-0.0071 J0.0029
X7.4244 Y4.78 I-0.133 J-0.1502
X7.8257 I0.2007 J0.
X7.758 Y4.9302 I-0.2006 J0.
X7.753 Y4.9332 Z-0.2063 I-0.0102 J-0.0115
X7.7481 Y4.9341 Z-0.203 I-0.0052 J-0.0145
X7.7448 Y4.9338 Z-0.198 I-0.0003 J-0.0154
X7.7437 Y4.9335 Z-0.1921 I0.003 J-0.0151
G0 Z0.4
X11.6553 Y2.8062
Z0.2
G1 Z0.1148 F13.333
G3 X11.6545 Y2.8051 Z0.1084 I0.0366 J-0.0262 F55.
X11.6524 Y2.8016 Z0.1031 I0.0374 J-0.0251
X11.6499 Y2.7963 Z0.1 I0.0395 J-0.0216
X11.7338 Y2.7637 Z0.0621 I0.042 J-0.0163
X11.6499 Y2.7963 Z0.0242 I-0.042 J0.0163
X11.7338 Y2.7637 Z-0.0136 I0.042 J-0.0163
X11.6499 Y2.7963 Z-0.0515 I-0.042 J0.0163
X11.7338 Y2.7637 Z-0.0894 I0.042 J-0.0163
X11.6499 Y2.7963 Z-0.1273 I-0.042 J0.0163
X11.7338 Y2.7637 Z-0.1652 I0.042 J-0.0163
X11.6499 Y2.7963 Z-0.203 I-0.042 J0.0163
X11.6468 Y2.78 Z-0.2075 I0.042 J-0.0163
X11.7031 I0.0282 J0. F60.
X11.5468 I-0.0782 J0.
X11.8032 I0.1282 J0.
X11.4469 I-0.1782 J0.
X11.9031 I0.2282 J0.
X11.3469 I-0.2781 J0.
X12.0031 I0.3282 J0.
X11.2468 I-0.3782 J0.
X12.0131 I0.3832 J0.
X11.2368 I-0.3881 J0.
X12.0131 I0.3881 J0.
X12.012 Y2.7857 Z-0.2063 I-0.0154 J0.
X12.0095 Y2.79 Z-0.203 I-0.0143 J-0.0057
X12.007 Y2.7923 Z-0.198 I-0.0117 J-0.01
X12.0061 Y2.7929 Z-0.1921 I-0.0093 J-0.0123
G0 Z0.4
X13.7458 Y2.8062
Z0.2
G1 Z0.1148 F13.333
G3 X13.745 Y2.8051 Z0.1084 I0.0366 J-0.0262 F55.
X13.7429 Y2.8016 Z0.1031 I0.0374 J-0.0251
X13.7404 Y2.7963 Z0.1 I0.0395 J-0.0216
X13.7373 Y2.78 Z0.0955 I0.042 J-0.0163
X13.8274 Z0.0577 I0.045 J0.
X13.7373 Z0.0198 I-0.045 J0.
X13.8274 Z-0.0181 I0.045 J0.
X13.7373 Z-0.056 I-0.045 J0.
X13.8274 Z-0.0939 I0.045 J0.
X13.7373 Z-0.1317 I-0.045 J0.
X13.8274 Z-0.1696 I0.045 J0.
X13.7373 Z-0.2075 I-0.045 J0.
X13.7976 I0.0301 J0. F60.
X13.6374 I-0.0801 J0.
X13.8976 I0.1301 J0.
X13.5374 I-0.1801 J0.
X13.9977 I0.2301 J0.
X13.4373 I-0.2802 J0.
X13.9977 I0.2802 J0.
G2 X14.0395 Y2.8483 I0.0766 J0.
G3 X14.0674 Y2.9234 I-0.0268 J0.0527
X13.3393 Y2.78 I-0.3499 J-0.1434
X14.0957 I0.3782 J0.
X14.0674 Y2.9234 I-0.3782 J0.
G2 X14.0692 Y2.9321 I0.0075 J0.0031
G3 X14.0707 Y2.9409 I-0.0056 J0.0055
X13.3293 Y2.78 I-0.3532 J-0.1609
X14.1057 I0.3882 J0.
X14.0707 Y2.9409 I-0.3882 J0.
X14.0673 Y2.9457 Z-0.2063 I-0.014 J-0.0064
X14.0632 Y2.9485 Z-0.203 I-0.0106 J-0.0111
X14.0601 Y2.9495 Z-0.198 I-0.0065 J-0.0139
X14.0589 Y2.9498 Z-0.1921 I-0.0033 J-0.015
G0 Z0.4
X3.5608 Y6.8062
Z0.2
G1 Z0.1148 F13.333
G3 X3.56 Y6.8051 Z0.1084 I0.0366 J-0.0262 F55.
X3.5579 Y6.8016 Z0.1031 I0.0374 J-0.0251
X3.5554 Y6.7963 Z0.1 I0.0395 J-0.0216
X3.6393 Y6.7637 Z0.0621 I0.042 J-0.0163
X3.5554 Y6.7963 Z0.0242 I-0.042 J0.0163
X3.6393 Y6.7637 Z-0.0136 I0.042 J-0.0163
X3.5554 Y6.7963 Z-0.0515 I-0.042 J0.0163
X3.6393 Y6.7637 Z-0.0894 I0.042 J-0.0163
X3.5554 Y6.7963 Z-0.1273 I-0.042 J0.0163
X3.6393 Y6.7637 Z-0.1652 I0.042 J-0.0163
X3.5554 Y6.7963 Z-0.203 I-0.042 J0.0163
X3.5524 Y6.78 Z-0.2075 I0.042 J-0.0163
X3.6127 I0.0301 J0. F60.
X3.4524 I-0.0801 J0.
X3.7127 I0.1301 J0.
X3.3524 I-0.1801 J0.
X3.8127 I0.2301 J0.
X3.2524 I-0.2801 J0.
X3.8127 I0.2801 J0.
G2 X3.8545 Y6.8483 I0.0766 J0.
G3 X3.8824 Y6.9233 I-0.0268 J0.0527
X3.1544 Y6.78 I-0.3499 J-0.1433
X3.9107 I0.3782 J0.
X3.8824 Y6.9233 I-0.3782 J0.
G2 X3.8842 Y6.9321 I0.0075 J0.0031
G3 X3.8857 Y6.9409 I-0.0056 J0.0055
X3.1444 Y6.78 I-0.3532 J-0.1609
X3.9207 I0.3882 J0.
X3.8857 Y6.9409 I-0.3882 J0.
X3.8824 Y6.9457 Z-0.2063 I-0.014 J-0.0064
X3.8783 Y6.9485 Z-0.203 I-0.0106 J-0.0111
X3.8751 Y6.9495 Z-0.198 I-0.0065 J-0.0139
X3.874 Y6.9497 Z-0.1921 I-0.0033 J-0.015
G0 Z0.4
X3.5608 Y8.8062
Z0.2
G1 Z0.1148 F13.333
G3 X3.56 Y8.8051 Z0.1084 I0.0366 J-0.0262 F55.
X3.5579 Y8.8016 Z0.1031 I0.0374 J-0.0251
X3.5554 Y8.7963 Z0.1 I0.0395 J-0.0216
X3.5524 Y8.78 Z0.0955 I0.042 J-0.0163
X3.6424 Z0.0577 I0.045 J0.
X3.5524 Z0.0198 I-0.045 J0.
X3.6424 Z-0.0181 I0.045 J0.
X3.5524 Z-0.056 I-0.045 J0.
X3.6424 Z-0.0939 I0.045 J0.
X3.5524 Z-0.1317 I-0.045 J0.
X3.6424 Z-0.1696 I0.045 J0.
X3.5524 Z-0.2075 I-0.045 J0.
X3.6127 I0.0301 J0. F60.
X3.4524 I-0.0801 J0.
X3.7127 I0.1301 J0.
X3.3524 I-0.1801 J0.
X3.8127 I0.2301 J0.
X3.2524 I-0.2801 J0.
X3.8127 I0.2801 J0.
G2 X3.8545 Y8.8483 I0.0766 J0.
G3 X3.8824 Y8.9233 I-0.0268 J0.0527
X3.1544 Y8.78 I-0.3499 J-0.1433
X3.9107 I0.3782 J0.
X3.8824 Y8.9233 I-0.3782 J0.
G2 X3.8842 Y8.9321 I0.0075 J0.0031
G3 X3.8857 Y8.9409 I-0.0056 J0.0055
X3.1444 Y8.78 I-0.3532 J-0.1609
X3.9207 I0.3882 J0.
X3.8857 Y8.9409 I-0.3882 J0.
X3.8824 Y8.9457 Z-0.2063 I-0.014 J-0.0064
X3.8783 Y8.9485 Z-0.203 I-0.0106 J-0.0111
X3.8751 Y8.9495 Z-0.198 I-0.0065 J-0.0139
X3.874 Y8.9497 Z-0.1921 I-0.0033 J-0.015
G0 Z0.4
X3.5608 Y10.8062
Z0.2
G1 Z0.1148 F13.333
G3 X3.56 Y10.8051 Z0.1084 I0.0366 J-0.0262 F55.
X3.5579 Y10.8016 Z0.1031 I0.0374 J-0.0251
X3.5554 Y10.7963 Z0.1 I0.0395 J-0.0216
X3.6393 Y10.7637 Z0.0621 I0.042 J-0.0163
X3.5554 Y10.7963 Z0.0242 I-0.042 J0.0163
X3.6393 Y10.7637 Z-0.0136 I0.042 J-0.0163
X3.5554 Y10.7963 Z-0.0515 I-0.042 J0.0163
X3.6393 Y10.7637 Z-0.0894 I0.042 J-0.0163
X3.5554 Y10.7963 Z-0.1273 I-0.042 J0.0163
X3.6393 Y10.7637 Z-0.1652 I0.042 J-0.0163
X3.5554 Y10.7963 Z-0.203 I-0.042 J0.0163
X3.5524 Y10.78 Z-0.2075 I0.042 J-0.0163
X3.6127 I0.0301 J0. F60.
X3.4524 I-0.0801 J0.
X3.7127 I0.1301 J0.
X3.3524 I-0.1801 J0.
X3.8127 I0.2301 J0.
X3.2524 I-0.2801 J0.
X3.8127 I0.2801 J0.
G2 X3.8545 Y10.8483 I0.0766 J0.
G3 X3.8824 Y10.9233 I-0.0268 J0.0527
X3.1544 Y10.78 I-0.3499 J-0.1433
X3.9107 I0.3782 J0.
X3.8824 Y10.9233 I-0.3782 J0.
G2 X3.8842 Y10.9321 I0.0075 J0.0031
G3 X3.8857 Y10.9409 I-0.0056 J0.0055
X3.1444 Y10.78 I-0.3532 J-0.1609
X3.9207 I0.3882 J0.
X3.8857 Y10.9409 I-0.3882 J0.
X3.8824 Y10.9457 Z-0.2063 I-0.014 J-0.0064
X3.8783 Y10.9485 Z-0.203 I-0.0106 J-0.0111
X3.8751 Y10.9495 Z-0.198 I-0.0065 J-0.0139
X3.874 Y10.9497 Z-0.1921 I-0.0033 J-0.015
G0 Z0.4
X5.5628 Y10.8062
Z0.2
G1 Z0.1148 F13.333
G3 X5.562 Y10.8051 Z0.1084 I0.0366 J-0.0262 F55.
X5.5599 Y10.8016 Z0.1031 I0.0374 J-0.0251
X5.5574 Y10.7963 Z0.1 I0.0395 J-0.0216
X5.6413 Y10.7637 Z0.0621 I0.042 J-0.0163
X5.5574 Y10.7963 Z0.0242 I-0.042 J0.0163
X5.6413 Y10.7637 Z-0.0136 I0.042 J-0.0163
X5.5574 Y10.7963 Z-0.0515 I-0.042 J0.0163
X5.6413 Y10.7637 Z-0.0894 I0.042 J-0.0163
X5.5574 Y10.7963 Z-0.1273 I-0.042 J0.0163
X5.6413 Y10.7637 Z-0.1652 I0.042 J-0.0163
X5.5574 Y10.7963 Z-0.203 I-0.042 J0.0163
X5.5544 Y10.78 Z-0.2075 I0.042 J-0.0163
X5.6107 I0.0282 J0. F60.
X5.4544 I-0.0782 J0.
X5.7107 I0.1282 J0.
X5.3544 I-0.1781 J0.
X5.8107 I0.2282 J0.
X5.2544 I-0.2781 J0.
X5.9107 I0.3282 J0.
X5.1544 I-0.3782 J0.
X5.9207 I0.3831 J0.
X5.1444 I-0.3881 J0.
X5.9207 I0.3881 J0.
X5.9196 Y10.7857 Z-0.2063 I-0.0154 J0.
X5.917 Y10.79 Z-0.203 I-0.0143 J-0.0057
X5.9146 Y10.7923 Z-0.198 I-0.0117 J-0.01
X5.9136 Y10.7929 Z-0.1921 I-0.0093 J-0.0123
G0 Z0.4
X1.5628 Y10.8062
Z0.2
G1 Z0.1148 F13.333
G3 X1.562 Y10.8051 Z0.1084 I0.0366 J-0.0262 F55.
X1.5599 Y10.8016 Z0.1031 I0.0374 J-0.0251
X1.5574 Y10.7963 Z0.1 I0.0395 J-0.0216
X1.6413 Y10.7637 Z0.0621 I0.042 J-0.0163
X1.5574 Y10.7963 Z0.0242 I-0.042 J0.0163
X1.6413 Y10.7637 Z-0.0136 I0.042 J-0.0163
X1.5574 Y10.7963 Z-0.0515 I-0.042 J0.0163
X1.6413 Y10.7637 Z-0.0894 I0.042 J-0.0163
X1.5574 Y10.7963 Z-0.1273 I-0.042 J0.0163
X1.6413 Y10.7637 Z-0.1652 I0.042 J-0.0163
X1.5574 Y10.7963 Z-0.203 I-0.042 J0.0163
X1.5544 Y10.78 Z-0.2075 I0.042 J-0.0163
X1.6107 I0.0281 J0. F60.
X1.4544 I-0.0782 J0.
X1.7106 I0.1281 J0.
X1.3543 I-0.1781 J0.
X1.8106 I0.2281 J0.
X1.2544 I-0.2782 J0.
X1.9106 I0.3281 J0.
X1.1543 I-0.3782 J0.
X1.9207 I0.3832 J0.
X1.1443 I-0.3882 J0.
X1.9207 I0.3882 J0.
X1.9195 Y10.7857 Z-0.2063 I-0.0154 J0.
X1.917 Y10.79 Z-0.203 I-0.0143 J-0.0057
X1.9145 Y10.7923 Z-0.198 I-0.0117 J-0.01
X1.9136 Y10.7929 Z-0.1921 I-0.0093 J-0.0123
G0 Z0.4
X1.5628 Y8.8062
Z0.2
G1 Z0.1148 F13.333
G3 X1.562 Y8.8051 Z0.1084 I0.0366 J-0.0262 F55.
X1.5599 Y8.8016 Z0.1031 I0.0374 J-0.0251
X1.5574 Y8.7963 Z0.1 I0.0395 J-0.0216
X1.5544 Y8.78 Z0.0955 I0.042 J-0.0163
X1.6443 Z0.0577 I0.045 J0.
X1.5544 Z0.0198 I-0.045 J0.
X1.6443 Z-0.0181 I0.045 J0.
X1.5544 Z-0.056 I-0.045 J0.
X1.6443 Z-0.0939 I0.045 J0.
X1.5544 Z-0.1317 I-0.045 J0.
X1.6443 Z-0.1696 I0.045 J0.
X1.5544 Z-0.2075 I-0.045 J0.
X1.6107 I0.0281 J0. F60.
X1.4544 I-0.0782 J0.
X1.7106 I0.1281 J0.
X1.3543 I-0.1781 J0.
X1.8106 I0.2281 J0.
X1.2544 I-0.2782 J0.
X1.9106 I0.3281 J0.
X1.1543 I-0.3782 J0.
X1.9207 I0.3832 J0.
X1.1443 I-0.3882 J0.
X1.9207 I0.3882 J0.
X1.9195 Y8.7857 Z-0.2063 I-0.0154 J0.
X1.917 Y8.79 Z-0.203 I-0.0143 J-0.0057
X1.9145 Y8.7923 Z-0.198 I-0.0117 J-0.01
X1.9136 Y8.7929 Z-0.1921 I-0.0093 J-0.0123
G0 Z0.4
X1.5628 Y6.8062
Z0.2
G1 Z0.1148 F13.333
G3 X1.562 Y6.8051 Z0.1084 I0.0366 J-0.0262 F55.
X1.5599 Y6.8016 Z0.1031 I0.0374 J-0.0251
X1.5574 Y6.7963 Z0.1 I0.0395 J-0.0216
X1.6413 Y6.7637 Z0.0621 I0.042 J-0.0163
X1.5574 Y6.7963 Z0.0242 I-0.042 J0.0163
X1.6413 Y6.7637 Z-0.0136 I0.042 J-0.0163
X1.5574 Y6.7963 Z-0.0515 I-0.042 J0.0163
X1.6413 Y6.7637 Z-0.0894 I0.042 J-0.0163
X1.5574 Y6.7963 Z-0.1273 I-0.042 J0.0163
X1.6413 Y6.7637 Z-0.1652 I0.042 J-0.0163
X1.5574 Y6.7963 Z-0.203 I-0.042 J0.0163
X1.5544 Y6.78 Z-0.2075 I0.042 J-0.0163
X1.6107 I0.0281 J0. F60.
X1.4544 I-0.0782 J0.
X1.7106 I0.1281 J0.
X1.3543 I-0.1781 J0.
X1.8106 I0.2281 J0.
X1.2544 I-0.2782 J0.
X1.9106 I0.3281 J0.
X1.1543 I-0.3782 J0.
X1.9207 I0.3832 J0.
X1.1443 I-0.3882 J0.
X1.9207 I0.3882 J0.
X1.9195 Y6.7857 Z-0.2063 I-0.0154 J0.
X1.917 Y6.79 Z-0.203 I-0.0143 J-0.0057
X1.9145 Y6.7923 Z-0.198 I-0.0117 J-0.01
X1.9136 Y6.7929 Z-0.1921 I-0.0093 J-0.0123
G0 Z0.6
(2D SLOT CUT)
M7
G0 X9.2805 Y-0.0769
Z0.6
Z0.2
G1 Z0.1 F13.333
X8.125 Z-0.1038 F40.
X0. F55.
G2 X-0.0769 Y0. I0. J0.0769
G1 Y13.3125
G2 X0. Y13.3893 I0.0769 J0.
G1 X14.
G2 X14.3268 Y13.0625 I0. J-0.3269
G1 Y12.5625
G3 X14.5 Y12.3893 I0.1732 J0.
G1 X15.
G2 X15.3269 Y12.0625 I0. J-0.3269
G1 Y8.25
G3 X15.5 Y8.0769 I0.1732 J0.
G1 X16.
G2 X16.3269 Y7.75 I0. J-0.3268
G1 Y0.25
G2 X16. Y-0.0769 I-0.3269 J0.
G1 X8.125
X7.8274 Z-0.1189 F40.
Z-0.1075
X7.0737
Z-0.1572 F13.333
X6.0858 Z-0.2075 F40.
X3.7774 F55.
Z-0.1075
X3.0237
Z-0.2075 F13.333
X0. F55.
G2 X-0.0769 Y0. I0. J0.0769
G1 Y3.9939
Z-0.1075
Y4.7476
Z-0.2075 F13.333
Y9.4798 F55.
Z-0.1075
Y10.2335
Z-0.2075 F13.333
Y13.3125 F55.
G2 X0. Y13.3893 I0.0769 J0.
G1 X3.334
Z-0.1075
X4.0877
Z-0.2075 F13.333
X7.1238 F55.
Z-0.1075
X7.8775
Z-0.2075 F13.333
X11.3178 F55.
Z-0.1075
X12.0715
Z-0.2075 F13.333
X14. F55.
G2 X14.3268 Y13.0625 I0. J-0.3269
G1 Y12.5625
G3 X14.5 Y12.3893 I0.1732 J0.
G1 X15.
G2 X15.3269 Y12.0625 I0. J-0.3269
G1 Y10.2536
Z-0.1075
Y9.4999
Z-0.2075 F13.333
Y8.25 F55.
G3 X15.5 Y8.0769 I0.1732 J0.
G1 X16.
G2 X16.3269 Y7.75 I0. J-0.3268
G1 Y3.7456
Z-0.1075
Y2.9919
Z-0.2075 F13.333
Y0.25 F55.
G2 X16. Y-0.0769 I-0.3269 J0.
G1 X11.9298
Z-0.1075
X11.1761
Z-0.2075 F13.333
X7.8274 F55.
Z-0.1075
X7.0737
Z-0.2075 F13.333
X6.0858 F55.
G0 Z0.6
M9
G53 Z0.
M30
%
