%
(971-23-P-009_BUMPER END MOUNT_1508)
(T1  D=0.1508 CR=0. - ZMIN=-0.28 - FLAT END MILL)
G90 G94 G17 G91.1
G64 P0.001 Q0.001
G20
G53 G0 Z0.
(.3 CIRCLUAR THROUGH HOLE 2)
M9
T1 M6
S22000 M3
G4 P10.
G54
M7
G0 X-5.5 Y-12.25
G43 Z0.6 H1
G0 Z0.1149
G1 Z0.05 F40.
X-5.5021 Y-12.248
G3 X-5.5041 Y-12.25 I0. J-0.002
X-5.4959 Z0.036 I0.0041 J0.
X-5.4996 Y-12.2459 Z0.0294 I-0.0041 J0.
X-5.5004 Y-12.2541 Z0.0154 I-0.0004 J-0.0041
X-5.496 Y-12.2507 Z0.0087 I0.0004 J0.0041
X-5.504 Y-12.2493 Z-0.0053 I-0.004 J0.0007
X-5.5011 Y-12.254 Z-0.0119 I0.004 J-0.0007
X-5.4989 Y-12.246 Z-0.0259 I0.0011 J0.004
X-5.5038 Y-12.2486 Z-0.0325 I-0.0011 J-0.004
X-5.4962 Y-12.2514 Z-0.0465 I0.0038 J-0.0014
X-5.5038 Y-12.2486 Z-0.0605 I-0.0038 J0.0014
X-5.4962 Y-12.2514 Z-0.0746 I0.0038 J-0.0014
X-5.5038 Y-12.2486 Z-0.0886 I-0.0038 J0.0014
X-5.5024 Y-12.2533 Z-0.0944 I0.0038 J-0.0014
X-5.4976 Y-12.2467 Z-0.1084 I0.0024 J0.0033
X-5.5031 Y-12.2473 Z-0.115 I-0.0024 J-0.0033
X-5.4969 Y-12.2527 Z-0.129 I0.0031 J-0.0027
X-5.497 Y-12.2472 Z-0.1356 I-0.0031 J0.0027
X-5.503 Y-12.2528 Z-0.1496 I-0.003 J-0.0028
X-5.4975 Y-12.2532 Z-0.1563 I0.003 J0.0028
X-5.5025 Y-12.2468 Z-0.1703 I-0.0025 J0.0032
X-5.5034 Y-12.2522 Z-0.1769 I0.0025 J-0.0032
X-5.4966 Y-12.2478 Z-0.1909 I0.0034 J0.0022
X-5.5019 Y-12.2464 Z-0.1975 I-0.0034 J-0.0022
X-5.4981 Y-12.2536 Z-0.2115 I0.0019 J-0.0036
X-5.4962 Y-12.2484 Z-0.2181 I-0.0019 J0.0036
X-5.5038 Y-12.2516 Z-0.2321 I-0.0038 J-0.0016
X-5.4988 Y-12.2539 Z-0.2387 I0.0038 J0.0016
X-5.5012 Y-12.2461 Z-0.2528 I-0.0012 J0.0039
X-5.504 Y-12.2509 Z-0.2594 I0.0012 J-0.0039
X-5.496 Y-12.2491 Z-0.2734 I0.004 J0.0009
X-5.5005 Y-12.2459 Z-0.28 I-0.004 J-0.0009
X-5.4995 Y-12.2541 I0.0005 J-0.0041
X-5.5005 Y-12.2459 I-0.0005 J0.0041
X-5.5023 Y-12.2482 I0.0003 J-0.002
G1 X-5.5 Y-12.25
G0 Z0.4
X-1.4899 Y-8.9875
Z0.13
G1 Z0.0651 F40.
G18 G3 X-1.505 Z0.05 I-0.0151 K0.
G1 X-1.5125
G17 G3 X-1.5251 Y-9. I0. J-0.0126
X-1.4749 Z0.0323 I0.0251 J0.
X-1.5251 Z0.0146 I-0.0251 J0.
X-1.4749 Z-0.0032 I0.0251 J0.
X-1.5251 Z-0.0209 I-0.0251 J0.
X-1.4749 Z-0.0386 I0.0251 J0.
X-1.5251 Z-0.0563 I-0.0251 J0.
X-1.4749 Z-0.074 I0.0251 J0.
X-1.5251 Z-0.0918 I-0.0251 J0.
X-1.4749 Z-0.1095 I0.0251 J0.
X-1.5251 Z-0.1272 I-0.0251 J0.
X-1.4749 Z-0.1449 I0.0251 J0.
X-1.5251 Z-0.1627 I-0.0251 J0.
X-1.4749 Z-0.1804 I0.0251 J0.
X-1.5251 Z-0.1981 I-0.0251 J0.
X-1.4749 Z-0.2158 I0.0251 J0.
X-1.5251 Z-0.2335 I-0.0251 J0.
X-1.4749 Z-0.2513 I0.0251 J0.
X-1.5251 Z-0.269 I-0.0251 J0.
X-1.4906 Y-9.0233 Z-0.28 I0.0251 J0.
X-1.5094 Y-8.9767 I-0.0094 J0.0233
X-1.4906 Y-9.0233 I0.0094 J-0.0233
X-1.4837 Y-9.0069 I-0.0047 J0.0116
G1 X-1.4865 Y-8.9999
X-1.4876 Y-8.9972 Z-0.2797
X-1.4886 Y-8.9946 Z-0.2789
X-1.4896 Y-8.9922 Z-0.2775
X-1.4905 Y-8.9901 Z-0.2756
X-1.4912 Y-8.9883 Z-0.2733
X-1.4917 Y-8.987 Z-0.2707
X-1.492 Y-8.9862 Z-0.2679
X-1.4921 Y-8.986 Z-0.2649
G0 Z0.4
X-0.9899 Y-8.9875
Z0.13
G1 Z0.0651 F40.
G18 G3 X-1.005 Z0.05 I-0.0151 K0.
G1 X-1.0125
G17 G3 X-1.0251 Y-9. I0. J-0.0126
X-0.9749 Z0.0323 I0.0251 J0.
X-1.0251 Z0.0146 I-0.0251 J0.
X-0.9749 Z-0.0032 I0.0251 J0.
X-1.0251 Z-0.0209 I-0.0251 J0.
X-0.9749 Z-0.0386 I0.0251 J0.
X-1.0251 Z-0.0563 I-0.0251 J0.
X-0.9749 Z-0.074 I0.0251 J0.
X-1.0251 Z-0.0918 I-0.0251 J0.
X-0.9749 Z-0.1095 I0.0251 J0.
X-1.0251 Z-0.1272 I-0.0251 J0.
X-0.9749 Z-0.1449 I0.0251 J0.
X-1.0251 Z-0.1627 I-0.0251 J0.
X-0.9749 Z-0.1804 I0.0251 J0.
X-1.0251 Z-0.1981 I-0.0251 J0.
X-0.9749 Z-0.2158 I0.0251 J0.
X-1.0251 Z-0.2335 I-0.0251 J0.
X-0.9749 Z-0.2513 I0.0251 J0.
X-1.0251 Z-0.269 I-0.0251 J0.
X-0.9906 Y-9.0233 Z-0.28 I0.0251 J0.
X-1.0094 Y-8.9767 I-0.0094 J0.0233
X-0.9906 Y-9.0233 I0.0094 J-0.0233
X-0.9837 Y-9.0069 I-0.0047 J0.0116
G1 X-0.9865 Y-8.9999
X-0.9876 Y-8.9972 Z-0.2797
X-0.9886 Y-8.9946 Z-0.2789
X-0.9896 Y-8.9922 Z-0.2775
X-0.9905 Y-8.9901 Z-0.2756
X-0.9912 Y-8.9883 Z-0.2733
X-0.9917 Y-8.987 Z-0.2707
X-0.992 Y-8.9862 Z-0.2679
X-0.9921 Y-8.986 Z-0.2649
G0 Z0.4
X-0.4899 Y-8.9875
Z0.13
G1 Z0.0651 F40.
G18 G3 X-0.505 Z0.05 I-0.0151 K0.
G1 X-0.5126
G17 G3 X-0.5251 Y-9. I0. J-0.0126
X-0.4749 Z0.0323 I0.0251 J0.
X-0.5251 Z0.0146 I-0.0251 J0.
X-0.4749 Z-0.0032 I0.0251 J0.
X-0.5251 Z-0.0209 I-0.0251 J0.
X-0.4749 Z-0.0386 I0.0251 J0.
X-0.5251 Z-0.0563 I-0.0251 J0.
X-0.4749 Z-0.074 I0.0251 J0.
X-0.5251 Z-0.0918 I-0.0251 J0.
X-0.4749 Z-0.1095 I0.0251 J0.
X-0.5251 Z-0.1272 I-0.0251 J0.
X-0.4749 Z-0.1449 I0.0251 J0.
X-0.5251 Z-0.1627 I-0.0251 J0.
X-0.4749 Z-0.1804 I0.0251 J0.
X-0.5251 Z-0.1981 I-0.0251 J0.
X-0.4749 Z-0.2158 I0.0251 J0.
X-0.5251 Z-0.2335 I-0.0251 J0.
X-0.4749 Z-0.2513 I0.0251 J0.
X-0.5251 Z-0.269 I-0.0251 J0.
X-0.4906 Y-9.0233 Z-0.28 I0.0251 J0.
X-0.5094 Y-8.9767 I-0.0094 J0.0233
X-0.4906 Y-9.0233 I0.0094 J-0.0233
X-0.4837 Y-9.0069 I-0.0047 J0.0116
G1 X-0.4865 Y-8.9999
X-0.4876 Y-8.9972 Z-0.2797
X-0.4886 Y-8.9946 Z-0.2789
X-0.4896 Y-8.9922 Z-0.2775
X-0.4905 Y-8.9901 Z-0.2756
X-0.4912 Y-8.9883 Z-0.2733
X-0.4917 Y-8.987 Z-0.2707
X-0.492 Y-8.9862 Z-0.2679
X-0.4921 Y-8.986 Z-0.2649
G0 Z0.4
X-0.4887 Y-7.9887
Z0.13
G1 Z0.0651 F40.
G18 G3 X-0.5038 Z0.05 I-0.0151 K0.
G1 X-0.5113
G17 G3 X-0.5226 Y-8. I0. J-0.0113
X-0.4774 Z0.0327 I0.0226 J0.
X-0.5226 Z0.0154 I-0.0226 J0.
X-0.4774 Z-0.0018 I0.0226 J0.
X-0.5226 Z-0.0191 I-0.0226 J0.
X-0.4774 Z-0.0364 I0.0226 J0.
X-0.5226 Z-0.0537 I-0.0226 J0.
X-0.4774 Z-0.071 I0.0226 J0.
X-0.5226 Z-0.0882 I-0.0226 J0.
X-0.4774 Z-0.1055 I0.0226 J0.
X-0.5226 Z-0.1228 I-0.0226 J0.
X-0.4774 Z-0.1401 I0.0226 J0.
X-0.5226 Z-0.1574 I-0.0226 J0.
X-0.4774 Z-0.1746 I0.0226 J0.
X-0.5226 Z-0.1919 I-0.0226 J0.
X-0.4774 Z-0.2092 I0.0226 J0.
X-0.5226 Z-0.2265 I-0.0226 J0.
X-0.4774 Z-0.2438 I0.0226 J0.
X-0.5226 Z-0.261 I-0.0226 J0.
X-0.4966 Y-8.0223 Z-0.2705 I0.0226 J0.
X-0.4784 Y-7.9932 Z-0.28 I-0.0034 J0.0223
X-0.5216 Y-8.0068 I-0.0216 J-0.0068
X-0.4784 Y-7.9932 I0.0216 J0.0068
X-0.4926 Y-7.9858 I-0.0108 J-0.0034
G1 X-0.4998 Y-7.9881
X-0.5026 Y-7.989 Z-0.2797
X-0.5053 Y-7.9898 Z-0.2789
X-0.5078 Y-7.9906 Z-0.2775
X-0.51 Y-7.9913 Z-0.2756
X-0.5118 Y-7.9919 Z-0.2733
X-0.5131 Y-7.9923 Z-0.2707
X-0.5139 Y-7.9925 Z-0.2679
X-0.5142 Y-7.9926 Z-0.2649
G0 Z0.4
X-0.9887 Y-7.9887
Z0.13
G1 Z0.0651 F40.
G18 G3 X-1.0038 Z0.05 I-0.0151 K0.
G1 X-1.0113
G17 G3 X-1.0226 Y-8. I0. J-0.0113
X-0.9774 Z0.0327 I0.0226 J0.
X-1.0226 Z0.0154 I-0.0226 J0.
X-0.9774 Z-0.0018 I0.0226 J0.
X-1.0226 Z-0.0191 I-0.0226 J0.
X-0.9774 Z-0.0364 I0.0226 J0.
X-1.0226 Z-0.0537 I-0.0226 J0.
X-0.9774 Z-0.071 I0.0226 J0.
X-1.0226 Z-0.0882 I-0.0226 J0.
X-0.9774 Z-0.1055 I0.0226 J0.
X-1.0226 Z-0.1228 I-0.0226 J0.
X-0.9774 Z-0.1401 I0.0226 J0.
X-1.0226 Z-0.1574 I-0.0226 J0.
X-0.9774 Z-0.1746 I0.0226 J0.
X-1.0226 Z-0.1919 I-0.0226 J0.
X-0.9774 Z-0.2092 I0.0226 J0.
X-1.0226 Z-0.2265 I-0.0226 J0.
X-0.9774 Z-0.2438 I0.0226 J0.
X-1.0226 Z-0.261 I-0.0226 J0.
X-0.9966 Y-8.0223 Z-0.2705 I0.0226 J0.
X-0.9784 Y-7.9932 Z-0.28 I-0.0034 J0.0223
X-1.0216 Y-8.0068 I-0.0216 J-0.0068
X-0.9784 Y-7.9932 I0.0216 J0.0068
X-0.9926 Y-7.9858 I-0.0108 J-0.0034
G1 X-0.9998 Y-7.9881
X-1.0026 Y-7.989 Z-0.2797
X-1.0053 Y-7.9898 Z-0.2789
X-1.0078 Y-7.9906 Z-0.2775
X-1.01 Y-7.9913 Z-0.2756
X-1.0118 Y-7.9919 Z-0.2733
X-1.0131 Y-7.9923 Z-0.2707
X-1.0139 Y-7.9925 Z-0.2679
X-1.0142 Y-7.9926 Z-0.2649
G0 Z0.4
X-1.4887 Y-7.9887
Z0.13
G1 Z0.0651 F40.
G18 G3 X-1.5038 Z0.05 I-0.0151 K0.
G1 X-1.5113
G17 G3 X-1.5226 Y-8. I0. J-0.0113
X-1.4774 Z0.0327 I0.0226 J0.
X-1.5226 Z0.0154 I-0.0226 J0.
X-1.4774 Z-0.0018 I0.0226 J0.
X-1.5226 Z-0.0191 I-0.0226 J0.
X-1.4774 Z-0.0364 I0.0226 J0.
X-1.5226 Z-0.0537 I-0.0226 J0.
X-1.4774 Z-0.071 I0.0226 J0.
X-1.5226 Z-0.0882 I-0.0226 J0.
X-1.4774 Z-0.1055 I0.0226 J0.
X-1.5226 Z-0.1228 I-0.0226 J0.
X-1.4774 Z-0.1401 I0.0226 J0.
X-1.5226 Z-0.1574 I-0.0226 J0.
X-1.4774 Z-0.1746 I0.0226 J0.
X-1.5226 Z-0.1919 I-0.0226 J0.
X-1.4774 Z-0.2092 I0.0226 J0.
X-1.5226 Z-0.2265 I-0.0226 J0.
X-1.4774 Z-0.2438 I0.0226 J0.
X-1.5226 Z-0.261 I-0.0226 J0.
X-1.4966 Y-8.0223 Z-0.2705 I0.0226 J0.
X-1.4784 Y-7.9932 Z-0.28 I-0.0034 J0.0223
X-1.5216 Y-8.0068 I-0.0216 J-0.0068
X-1.4784 Y-7.9932 I0.0216 J0.0068
X-1.4926 Y-7.9858 I-0.0108 J-0.0034
G1 X-1.4998 Y-7.9881
X-1.5026 Y-7.989 Z-0.2797
X-1.5053 Y-7.9898 Z-0.2789
X-1.5078 Y-7.9906 Z-0.2775
X-1.51 Y-7.9913 Z-0.2756
X-1.5118 Y-7.9919 Z-0.2733
X-1.5131 Y-7.9923 Z-0.2707
X-1.5139 Y-7.9925 Z-0.2679
X-1.5142 Y-7.9926 Z-0.2649
G0 Z0.4
X-1.4887 Y-6.9887
Z0.13
G1 Z0.0651 F40.
G18 G3 X-1.5038 Z0.05 I-0.0151 K0.
G1 X-1.5113
G17 G3 X-1.5226 Y-7. I0. J-0.0113
X-1.4774 Z0.0327 I0.0226 J0.
X-1.5226 Z0.0154 I-0.0226 J0.
X-1.4774 Z-0.0018 I0.0226 J0.
X-1.5226 Z-0.0191 I-0.0226 J0.
X-1.4774 Z-0.0364 I0.0226 J0.
X-1.5226 Z-0.0537 I-0.0226 J0.
X-1.4774 Z-0.071 I0.0226 J0.
X-1.5226 Z-0.0882 I-0.0226 J0.
X-1.4774 Z-0.1055 I0.0226 J0.
X-1.5226 Z-0.1228 I-0.0226 J0.
X-1.4774 Z-0.1401 I0.0226 J0.
X-1.5226 Z-0.1574 I-0.0226 J0.
X-1.4774 Z-0.1746 I0.0226 J0.
X-1.5226 Z-0.1919 I-0.0226 J0.
X-1.4774 Z-0.2092 I0.0226 J0.
X-1.5226 Z-0.2265 I-0.0226 J0.
X-1.4774 Z-0.2438 I0.0226 J0.
X-1.5226 Z-0.261 I-0.0226 J0.
X-1.4966 Y-7.0223 Z-0.2705 I0.0226 J0.
X-1.4784 Y-6.9932 Z-0.28 I-0.0034 J0.0223
X-1.5216 Y-7.0068 I-0.0216 J-0.0068
X-1.4784 Y-6.9932 I0.0216 J0.0068
X-1.4926 Y-6.9858 I-0.0108 J-0.0034
G1 X-1.4998 Y-6.9881
X-1.5026 Y-6.989 Z-0.2797
X-1.5053 Y-6.9898 Z-0.2789
X-1.5078 Y-6.9906 Z-0.2775
X-1.51 Y-6.9913 Z-0.2756
X-1.5118 Y-6.9919 Z-0.2733
X-1.5131 Y-6.9923 Z-0.2707
X-1.5139 Y-6.9925 Z-0.2679
X-1.5142 Y-6.9926 Z-0.2649
G0 Z0.4
X-0.9887 Y-6.9887
Z0.13
G1 Z0.0651 F40.
G18 G3 X-1.0038 Z0.05 I-0.0151 K0.
G1 X-1.0113
G17 G3 X-1.0226 Y-7. I0. J-0.0113
X-0.9774 Z0.0327 I0.0226 J0.
X-1.0226 Z0.0154 I-0.0226 J0.
X-0.9774 Z-0.0018 I0.0226 J0.
X-1.0226 Z-0.0191 I-0.0226 J0.
X-0.9774 Z-0.0364 I0.0226 J0.
X-1.0226 Z-0.0537 I-0.0226 J0.
X-0.9774 Z-0.071 I0.0226 J0.
X-1.0226 Z-0.0882 I-0.0226 J0.
X-0.9774 Z-0.1055 I0.0226 J0.
X-1.0226 Z-0.1228 I-0.0226 J0.
X-0.9774 Z-0.1401 I0.0226 J0.
X-1.0226 Z-0.1574 I-0.0226 J0.
X-0.9774 Z-0.1746 I0.0226 J0.
X-1.0226 Z-0.1919 I-0.0226 J0.
X-0.9774 Z-0.2092 I0.0226 J0.
X-1.0226 Z-0.2265 I-0.0226 J0.
X-0.9774 Z-0.2438 I0.0226 J0.
X-1.0226 Z-0.261 I-0.0226 J0.
X-0.9966 Y-7.0223 Z-0.2705 I0.0226 J0.
X-0.9784 Y-6.9932 Z-0.28 I-0.0034 J0.0223
X-1.0216 Y-7.0068 I-0.0216 J-0.0068
X-0.9784 Y-6.9932 I0.0216 J0.0068
X-0.9926 Y-6.9858 I-0.0108 J-0.0034
G1 X-0.9998 Y-6.9881
X-1.0026 Y-6.989 Z-0.2797
X-1.0053 Y-6.9898 Z-0.2789
X-1.0078 Y-6.9906 Z-0.2775
X-1.01 Y-6.9913 Z-0.2756
X-1.0118 Y-6.9919 Z-0.2733
X-1.0131 Y-6.9923 Z-0.2707
X-1.0139 Y-6.9925 Z-0.2679
X-1.0142 Y-6.9926 Z-0.2649
G0 Z0.4
X-0.4887 Y-6.9887
Z0.13
G1 Z0.0651 F40.
G18 G3 X-0.5038 Z0.05 I-0.0151 K0.
G1 X-0.5113
G17 G3 X-0.5226 Y-7. I0. J-0.0113
X-0.4774 Z0.0327 I0.0226 J0.
X-0.5226 Z0.0154 I-0.0226 J0.
X-0.4774 Z-0.0018 I0.0226 J0.
X-0.5226 Z-0.0191 I-0.0226 J0.
X-0.4774 Z-0.0364 I0.0226 J0.
X-0.5226 Z-0.0537 I-0.0226 J0.
X-0.4774 Z-0.071 I0.0226 J0.
X-0.5226 Z-0.0882 I-0.0226 J0.
X-0.4774 Z-0.1055 I0.0226 J0.
X-0.5226 Z-0.1228 I-0.0226 J0.
X-0.4774 Z-0.1401 I0.0226 J0.
X-0.5226 Z-0.1574 I-0.0226 J0.
X-0.4774 Z-0.1746 I0.0226 J0.
X-0.5226 Z-0.1919 I-0.0226 J0.
X-0.4774 Z-0.2092 I0.0226 J0.
X-0.5226 Z-0.2265 I-0.0226 J0.
X-0.4774 Z-0.2438 I0.0226 J0.
X-0.5226 Z-0.261 I-0.0226 J0.
X-0.4966 Y-7.0223 Z-0.2705 I0.0226 J0.
X-0.4784 Y-6.9932 Z-0.28 I-0.0034 J0.0223
X-0.5216 Y-7.0068 I-0.0216 J-0.0068
X-0.4784 Y-6.9932 I0.0216 J0.0068
X-0.4926 Y-6.9858 I-0.0108 J-0.0034
G1 X-0.4998 Y-6.9881
X-0.5026 Y-6.989 Z-0.2797
X-0.5053 Y-6.9898 Z-0.2789
X-0.5078 Y-6.9906 Z-0.2775
X-0.51 Y-6.9913 Z-0.2756
X-0.5118 Y-6.9919 Z-0.2733
X-0.5131 Y-6.9923 Z-0.2707
X-0.5139 Y-6.9925 Z-0.2679
X-0.5142 Y-6.9926 Z-0.2649
G0 Z0.6
(SHAPE POCKET)
M7
G0 X-5.0435 Y-11.3718
Z0.6
Z0.12
G3 X-4.9566 Y-11.4857 Z0.0803 I0.0435 J-0.0569 F50.
X-5.0435 Y-11.3718 Z0.0406 I-0.0435 J0.0569
X-4.9566 Y-11.4857 Z0.001 I0.0435 J-0.0569
X-5.0435 Y-11.3718 Z-0.0387 I-0.0435 J0.0569
X-4.9566 Y-11.4857 Z-0.0784 I0.0435 J-0.0569
X-4.9284 Y-11.4288 Z-0.09 I-0.0435 J0.0569
X-5.0717 I-0.0716 J0.
X-4.9284 I0.0716 J0.
X-5.0751 Y-11.3012 I-0.078 J0.0584 F60.
G1 X-5.0836 Y-11.3061
X-5.0918 Y-11.3116
X-5.0996 Y-11.3175
X-5.1071 Y-11.324
X-5.1141 Y-11.3309
X-5.1206 Y-11.3382
X-5.1267 Y-11.3459
X-5.1322 Y-11.3541
X-5.1372 Y-11.3625
X-5.1417 Y-11.3713
X-5.1456 Y-11.3803
X-5.1489 Y-11.3895
X-5.1516 Y-11.399
X-5.1537 Y-11.4086
X-5.1552 Y-11.4183
X-5.1561 Y-11.4281
X-5.1563 Y-11.4379
X-5.156 Y-11.4477
X-5.1549 Y-11.4575
X-5.1533 Y-11.4672
X-5.151 Y-11.4767
X-5.1482 Y-11.4861
X-5.1447 Y-11.4953
X-5.1407 Y-11.5043
X-5.1361 Y-11.513
X-5.1309 Y-11.5213
X-5.1252 Y-11.5293
X-5.1191 Y-11.537
X-5.1124 Y-11.5442
X-5.1053 Y-11.551
X-5.0978 Y-11.5573
X-5.0899 Y-11.5632
X-5.0816 Y-11.5685
X-5.073 Y-11.5732
X-5.0641 Y-11.5775
X-5.055 Y-11.5811
X-5.0457 Y-11.5841
X-5.0362 Y-11.5866
X-5.0265 Y-11.5884
X-5.0168 Y-11.5896
X-5.007 Y-11.5902
X-4.9971 Y-11.5901
X-4.9873 Y-11.5895
X-4.9776 Y-11.5882
X-4.968 Y-11.5862
X-4.9585 Y-11.5837
X-4.9492 Y-11.5806
X-4.9401 Y-11.5768
X-4.9312 Y-11.5725
X-4.9227 Y-11.5677
X-4.9145 Y-11.5623
X-4.9066 Y-11.5564
X-4.8992 Y-11.55
X-4.8921 Y-11.5431
X-4.8856 Y-11.5358
X-4.8795 Y-11.5281
X-4.8739 Y-11.52
X-4.8688 Y-11.5116
X-4.8643 Y-11.5029
X-4.8603 Y-11.4939
X-4.8538 Y-11.4851
X-4.8478 Y-11.476
X-4.8423 Y-11.4665
X-4.8373 Y-11.4568
X-4.8329 Y-11.4468
X-4.8291 Y-11.4365
X-4.8258 Y-11.4261
X-4.8232 Y-11.4154
X-4.8211 Y-11.4047
X-4.8197 Y-11.3938
X-4.8189 Y-11.3829
X-4.8187 Y-11.372
X-4.8191 Y-11.361
X-4.8201 Y-11.3501
X-4.8218 Y-11.3393
X-4.824 Y-11.3286
X-4.8269 Y-11.318
X-4.8303 Y-11.3077
X-4.8343 Y-11.2975
X-4.8389 Y-11.2875
X-4.8441 Y-11.2779
X-4.8498 Y-11.2685
X-4.856 Y-11.2595
X-4.8627 Y-11.2509
X-4.8699 Y-11.2426
X-4.8775 Y-11.2348
X-4.8856 Y-11.2274
X-4.8941 Y-11.2205
X-4.9029 Y-11.214
X-4.9121 Y-11.2081
X-4.9217 Y-11.2027
X-4.9315 Y-11.1979
X-4.9415 Y-11.1936
X-4.9518 Y-11.1899
X-4.9623 Y-11.1868
X-4.973 Y-11.1842
X-4.9837 Y-11.1823
X-4.9946 Y-11.181
X-5.0055 Y-11.1803
X-5.0165 Y-11.1802
X-5.0274 Y-11.1808
X-5.0383 Y-11.1819
X-5.0491 Y-11.1837
X-5.0598 Y-11.1861
X-5.0703 Y-11.1891
X-5.0806 Y-11.1926
X-5.0908 Y-11.1968
X-5.1006 Y-11.2015
X-5.1102 Y-11.2068
X-5.1195 Y-11.2126
X-5.1284 Y-11.2189
X-5.137 Y-11.2257
X-5.1452 Y-11.233
X-5.1529 Y-11.2407
X-5.1602 Y-11.2489
X-5.1696 Y-11.2564
X-5.1785 Y-11.2643
X-5.1871 Y-11.2727
X-5.1952 Y-11.2815
X-5.2028 Y-11.2908
X-5.21 Y-11.3004
X-5.2166 Y-11.3103
X-5.2228 Y-11.3206
X-5.2284 Y-11.3312
X-5.2335 Y-11.342
X-5.238 Y-11.3531
X-5.242 Y-11.3645
X-5.2453 Y-11.376
X-5.2481 Y-11.3876
X-5.2503 Y-11.3994
X-5.2518 Y-11.4113
X-5.2528 Y-11.4232
X-5.2532 Y-11.4352
X-5.2529 Y-11.4472
X-5.2521 Y-11.4591
X-5.2506 Y-11.471
X-5.2485 Y-11.4828
X-5.2459 Y-11.4945
X-5.2426 Y-11.506
X-5.2388 Y-11.5174
X-5.2343 Y-11.5285
X-5.2294 Y-11.5394
X-5.2238 Y-11.55
X-5.2178 Y-11.5604
X-5.2112 Y-11.5704
X-5.2041 Y-11.58
X-5.1966 Y-11.5893
X-5.1885 Y-11.5982
X-5.1801 Y-11.6067
X-5.1712 Y-11.6148
X-5.1619 Y-11.6223
X-5.1523 Y-11.6294
X-5.1423 Y-11.636
X-5.1319 Y-11.6421
X-5.1213 Y-11.6476
X-5.1104 Y-11.6526
G3 X-4.7347 Y-11.4652 I0.1094 J0.251
X-5.2347 Y-11.2924 I-0.2674 J0.0361
G1 X-5.2585 Y-11.3075
X-5.267 Y-11.3131
X-5.2751 Y-11.3172
X-5.2832 Y-11.3235
X-5.2909 Y-11.3302
X-5.2982 Y-11.3374
X-5.305 Y-11.345
X-5.3113 Y-11.3531
X-5.3171 Y-11.3615
X-5.3224 Y-11.3702
X-5.3272 Y-11.3792
X-5.3314 Y-11.3886
X-5.335 Y-11.3981
X-5.338 Y-11.4079
X-5.3404 Y-11.4178
X-5.3422 Y-11.4279
X-5.3434 Y-11.4381
X-5.344 Y-11.4483
X-5.3439 Y-11.4585
X-5.3432 Y-11.4687
X-5.3419 Y-11.4789
X-5.3399 Y-11.4889
X-5.3373 Y-11.4988
X-5.3342 Y-11.5085
X-5.3304 Y-11.518
G2 X-5.1747 Y-11.6334 I-0.0694 J-0.2563
G3 X-4.7337 Y-11.4653 I0.1747 J0.2043
G1 X-4.7339 Y-11.4625
X-4.7345 Y-11.4598
X-4.7356 Y-11.4573
X-4.7371 Y-11.455
X-4.7389 Y-11.4531
X-4.7411 Y-11.4515
X-4.7434 Y-11.4503
X-4.746 Y-11.4495
X-4.7556 Y-11.447
X-5.2451 Y-11.3214
X-5.265 Y-11.3163 F50.
G3 X-5.2751 Y-11.3172 I-0.0037 J-0.0146
G2 X-5.341 Y-11.3423 I-0.0871 J0.13 F60.
G1 X-5.3492 Y-11.3452
X-5.3572 Y-11.3487
X-5.365 Y-11.3527
X-5.3724 Y-11.3572
X-5.3796 Y-11.3622
X-5.3864 Y-11.3677
X-5.3928 Y-11.3737
X-5.3988 Y-11.38
X-5.4043 Y-11.3867
X-5.4094 Y-11.3938
X-5.414 Y-11.4013
X-5.4181 Y-11.409
X-5.4216 Y-11.417
X-5.4246 Y-11.4252
X-5.4271 Y-11.4335
X-5.429 Y-11.4421
X-5.4303 Y-11.4507
X-5.431 Y-11.4594
X-5.4311 Y-11.4681
X-5.4307 Y-11.4768
X-5.4296 Y-11.4855
X-5.428 Y-11.4941
X-5.4258 Y-11.5025
X-5.423 Y-11.5108
G2 X-5.3285 Y-11.5172 I0.0285 J-0.2828
G3 X-5.3146 Y-11.5113 I0.0018 J0.015
X-5.3419 Y-11.46 I-0.0255 J0.0193
X-5.3986 Y-11.489 I0.0044 J-0.0786
X-5.407 Y-11.5016 I0.0611 J-0.0496 F50.
G2 X-5.4198 Y-11.5096 I-0.0133 J0.0071
G1 X-5.437 F60.
X-5.4443 Y-11.5065
X-5.4513 Y-11.5029
X-5.4579 Y-11.4988
X-5.4643 Y-11.4941
X-5.4702 Y-11.489
X-5.4758 Y-11.4834
X-5.4808 Y-11.4775
X-5.4854 Y-11.4711
X-5.4895 Y-11.4644
X-5.4931 Y-11.4574
X-5.4961 Y-11.4501
X-5.4985 Y-11.4427
X-5.5004 Y-11.435
X-5.5016 Y-11.4273
X-5.5023 Y-11.4195
Y-11.4116
X-5.5017 Y-11.4038
X-5.5005 Y-11.396
X-5.4988 Y-11.3884
X-5.4964 Y-11.3809
X-5.4934 Y-11.3736
X-5.4899 Y-11.3666
X-5.4859 Y-11.3598
X-5.4813 Y-11.3534
X-5.4763 Y-11.3474
G3 X-5.341 Y-11.3423 I0.0508 J0.4487
G2 X-5.3271 Y-11.3482 I0.0018 J-0.015
X-5.3265 Y-11.3602 I-0.0085 J-0.0064
G1 X-5.3278 Y-11.3622
G2 X-5.4546 Y-11.3685 I-0.0657 J0.0433
X-5.463 Y-11.3559 I0.0611 J0.0496 F50.
G3 X-5.4758 Y-11.3479 I-0.0133 J-0.0071
G1 X-5.4908 F60.
X-5.4978 Y-11.3476
G3 X-5.5545 Y-11.516 I0.0226 J-0.1014
G1 X-5.514 Y-11.5106
X-5.4908 Y-11.5096
X-5.437
G3 X-5.4243 Y-11.5016 I-0.0005 J0.0151
X-5.4387 Y-11.4617 I-0.0252 J0.0134
X-5.5346 Y-11.4922 I-0.0296 J-0.073
X-5.5415 Y-11.5057 I0.0663 J-0.0425 F50.
G2 X-5.5533 Y-11.515 I-0.014 J0.0056
G1 X-5.5605 Y-11.5158 F60.
X-5.5721 Y-11.5174
G2 X-5.6162 Y-11.3252 I0.0242 J0.1067
G3 X-5.514 Y-11.3469 I0.1019 J0.2289
G1 X-5.4978 Y-11.3476
G2 X-5.4854 Y-11.3561 I-0.0012 J-0.015
X-5.5051 Y-11.401 I-0.0292 J-0.014
X-5.6023 Y-11.3525 I-0.0232 J0.0752
X-5.6061 Y-11.3378 I0.0741 J0.0267 F50.
G3 X-5.6155 Y-11.3261 I-0.0149 J-0.0023
G1 X-5.6302 Y-11.3209 F60.
X-5.6335 Y-11.3196
X-5.6391 Y-11.3177
X-5.646 Y-11.317
X-5.6512 Y-11.3172
X-5.6554 Y-11.3185
X-5.6585 Y-11.3217
X-5.6596 Y-11.3259
G3 X-5.6577 Y-11.3399 I0.0698 J0.0024
X-5.6259 Y-11.3457 I0.0171 J0.0041
X-5.6335 Y-11.3196 I-0.0146 J0.0099 F50.
G1 X-5.6499 Y-11.3131 F60.
X-5.6534 Y-11.3112
X-5.6565 Y-11.3093
X-5.6588 Y-11.3079
X-5.6596 Y-11.3084
Y-11.5118
G3 X-5.6434 Y-11.542 I0.0186 J-0.0094
X-5.6352 Y-11.5328 I-0.0062 J0.0137
G1 X-5.6302 Y-11.5169
X-5.6298 Y-11.5154
G3 X-5.6371 Y-11.4992 I-0.0148 J0.003
X-5.6596 Y-11.5118 I-0.0074 J-0.0131 F50.
G1 Y-11.5474 F60.
Y-11.5489
G2 X-5.5721 Y-11.5174 I0.2341 J-0.5115
G3 X-5.5655 Y-11.4925 I-0.0042 J0.0145
G1 X-5.5675 Y-11.4903 Z-0.0897
X-5.5695 Y-11.4883 Z-0.0889
X-5.5713 Y-11.4864 Z-0.0875
X-5.5728 Y-11.4848 Z-0.0856
X-5.5741 Y-11.4834 Z-0.0833
X-5.5751 Y-11.4824 Z-0.0807
X-5.5757 Y-11.4818 Z-0.0779
X-5.5759 Y-11.4816 Z-0.0749
G0 Z0.6
(SHAPE POCKET FINISHING PASS)
M7
G0 X-5.3689 Y-11.4746
Z0.6
Z0.2
G1 Z0.1 F13.333
Z-0.039
G18 G3 X-5.4189 Z-0.089 I-0.05 K0. F40.
G1 X-5.434
G17 G3 X-5.384 Y-11.5246 I0.05 J0.
G2 X-5.2253 Y-11.6026 I0. J-0.2004 F50.
G3 X-4.7747 Y-11.2549 I0.2253 J0.1738
X-5.2253 I-0.2253 J-0.1738
G2 X-5.384 Y-11.3329 I-0.1586 J0.1224
G3 X-5.4341 Y-11.3829 I0. J-0.05
G1 X-5.419
X-5.4134 Z-0.0887
X-5.4078 Z-0.0877
X-5.4025 Z-0.0862
X-5.3973 Z-0.084
X-5.3924 Z-0.0813
X-5.3878 Z-0.0781
X-5.3836 Z-0.0744
X-5.3799 Z-0.0702
X-5.3766 Z-0.0656
X-5.3739 Z-0.0607
X-5.3718 Z-0.0555
X-5.3702 Z-0.0501
X-5.3693 Z-0.0446
X-5.369 Z-0.039
G0 Z0.6
(2D SLOT CUT)
M7
G0 X0.1379 Y-8.5359
Z0.6
Z0.2
G1 Z0.1 F13.333
Y-9.5 Z-0.07 F30.
Y-10.1556
G2 X-0.0249 Y-10.4375 I-0.3254 J0.
G1 X-3.6543 Y-12.5318
G2 X-3.817 Y-12.5754 I-0.1626 J0.2818
G1 X-5.5
G2 X-5.8254 Y-12.25 I0. J0.3254
G1 Y-11.85
G2 X-5.5 Y-11.5246 I0.3254 J0.
G1 X-5.
G3 Y-11.3329 I0. J0.0959
G1 X-5.5
G2 X-5.8254 Y-11.0075 I0. J0.3254
G1 Y-10.3584
G2 X-5.7342 Y-10.1325 I0.3254 J0.
G1 X-2.253 Y-6.5241
G2 X-2.0188 Y-6.4246 I0.2342 J-0.2259
G1 X-0.1875
G2 X0.1379 Y-6.75 I0. J-0.3254
G1 Y-9.5
Y-10.0026 Z-0.14
Y-10.1556
G2 X-0.0249 Y-10.4375 I-0.3254 J0.
G1 X-3.6543 Y-12.5318
G2 X-3.817 Y-12.5754 I-0.1626 J0.2818
G1 X-5.5
G2 X-5.8254 Y-12.25 I0. J0.3254
G1 Y-11.85
G2 X-5.5 Y-11.5246 I0.3254 J0.
G1 X-5.
G3 Y-11.3329 I0. J0.0959
G1 X-5.5
G2 X-5.8254 Y-11.0075 I0. J0.3254
G1 Y-10.3584
G2 X-5.7342 Y-10.1325 I0.3254 J0.
G1 X-2.253 Y-6.5241
G2 X-2.0188 Y-6.4246 I0.2342 J-0.2259
G1 X-0.1875
G2 X0.1379 Y-6.75 I0. J-0.3254
G1 Y-9.5
Y-10.0026
Y-10.1556 Z-0.1613
G2 X-0.0249 Y-10.4375 Z-0.2088 I-0.3254 J0.
G1 X-0.0325 Y-10.4419 Z-0.21
X-0.4712 Y-10.695
Z-0.2
X-1.1215 Y-11.0703
Z-0.21 F13.333
X-3.6543 Y-12.5318 F30.
G2 X-3.817 Y-12.5754 I-0.1626 J0.2818
G1 X-4.4062
Z-0.2
X-5.157
Z-0.21 F13.333
X-5.5 F30.
G2 X-5.8254 Y-12.25 I0. J0.3254
G1 Y-11.85
G2 X-5.5 Y-11.5246 I0.3254 J0.
G1 X-5.
G3 Y-11.3329 I0. J0.0959
G1 X-5.5
G2 X-5.8254 Y-11.0075 I0. J0.3254
G1 Y-10.3584
G2 X-5.7342 Y-10.1325 I0.3254 J0.
G1 X-4.8249 Y-9.19
Z-0.2
X-4.3036 Y-8.6497
Z-0.21 F13.333
X-2.253 Y-6.5241 F30.
G2 X-2.0188 Y-6.4246 I0.2342 J-0.2259
G1 X-1.3547
Z-0.2
X-0.6039
Z-0.21 F13.333
X-0.1875 F30.
G2 X0.1379 Y-6.75 I0. J-0.3254
G1 Y-10.1556
G2 X-0.0249 Y-10.4375 I-0.3254 J0.
G1 X-0.0325 Y-10.4419
X-0.4678 Y-10.6931 Z-0.28
X-0.4712 Y-10.695
Z-0.2
X-1.1215 Y-11.0703
Z-0.28 F13.333
X-3.6543 Y-12.5318 F30.
G2 X-3.817 Y-12.5754 I-0.1626 J0.2818
G1 X-4.4062
Z-0.2
X-5.157
Z-0.28 F13.333
X-5.5 F30.
G2 X-5.8254 Y-12.25 I0. J0.3254
G1 Y-11.85
G2 X-5.5 Y-11.5246 I0.3254 J0.
G1 X-5.
G3 Y-11.3329 I0. J0.0959
G1 X-5.5
G2 X-5.8254 Y-11.0075 I0. J0.3254
G1 Y-10.3584
G2 X-5.7342 Y-10.1325 I0.3254 J0.
G1 X-4.8249 Y-9.19
Z-0.2
X-4.3036 Y-8.6497
Z-0.28 F13.333
X-2.253 Y-6.5241 F30.
G2 X-2.0188 Y-6.4246 I0.2342 J-0.2259
G1 X-1.3547
Z-0.2
X-0.6039
Z-0.28 F13.333
X-0.1875 F30.
G2 X0.1379 Y-6.75 I0. J-0.3254
G1 Y-10.1556
G2 X-0.0249 Y-10.4375 I-0.3254 J0.
G1 X-0.4678 Y-10.6931
G0 Z0.6
M9
G53 Z0.
M30
%
