%
(971-23-P-0013_GEARBOX PLATE 1_1554)
(T1  D=0.1554 CR=0. - ZMIN=-0.2175 - FLAT END MILL)
G90 G94 G17 G91.1
G64 P0.001 Q0.001
G20
G53 G0 Z0.
(.3 CIRCLUAR THROUGH HOLE 2)
M9
T1 M6
S22000 M3
G4 P10.
G54
M7
G0 X-0.6225 Y2.705
G43 Z0.6 H1
G0 Z0.13
G1 Z0.0655 F40.
G19 G2 Y2.6895 Z0.05 J-0.0155 K0.
G1 Y2.6817
G17 G3 X-0.6111 Y2.6703 I0.0114 J0.
Y2.7159 Z0.0323 I0. J0.0228
Y2.6703 Z0.0146 I0. J-0.0228
Y2.7159 Z-0.0032 I0. J0.0228
Y2.6703 Z-0.0209 I0. J-0.0228
Y2.7159 Z-0.0386 I0. J0.0228
Y2.6703 Z-0.0563 I0. J-0.0228
Y2.7159 Z-0.074 I0. J0.0228
Y2.6703 Z-0.0918 I0. J-0.0228
Y2.7159 Z-0.1095 I0. J0.0228
Y2.6703 Z-0.1272 I0. J-0.0228
Y2.7159 Z-0.1449 I0. J0.0228
Y2.6703 Z-0.1627 I0. J-0.0228
Y2.7159 Z-0.1804 I0. J0.0228
Y2.6703 Z-0.1981 I0. J-0.0228
X-0.5886 Y2.6965 Z-0.2078 I0. J0.0228
X-0.6178 Y2.7149 Z-0.2175 I-0.0225 J-0.0034
X-0.6044 Y2.6713 I0.0067 J-0.0218
X-0.6178 Y2.7149 I-0.0067 J0.0218
X-0.6254 Y2.7006 I0.0034 J-0.0109
G1 X-0.6231 Y2.6932
X-0.6222 Y2.6903 Z-0.2172
X-0.6213 Y2.6875 Z-0.2163
X-0.6205 Y2.6849 Z-0.2149
X-0.6198 Y2.6827 Z-0.2129
X-0.6193 Y2.6808 Z-0.2106
X-0.6188 Y2.6795 Z-0.2079
X-0.6186 Y2.6786 Z-0.205
X-0.6185 Y2.6783 Z-0.202
G0 Z0.4
X0.5271 Y4.3416
Z0.13
G1 Z0.0655 F40.
G19 G2 Y4.3261 Z0.05 J-0.0155 K0.
G1 Y4.3183
G17 G3 X0.5385 Y4.3069 I0.0114 J0.
Y4.3525 Z0.0323 I0. J0.0228
Y4.3069 Z0.0146 I0. J-0.0228
Y4.3525 Z-0.0032 I0. J0.0228
Y4.3069 Z-0.0209 I0. J-0.0228
Y4.3525 Z-0.0386 I0. J0.0228
Y4.3069 Z-0.0563 I0. J-0.0228
Y4.3525 Z-0.074 I0. J0.0228
Y4.3069 Z-0.0918 I0. J-0.0228
Y4.3525 Z-0.1095 I0. J0.0228
Y4.3069 Z-0.1272 I0. J-0.0228
Y4.3525 Z-0.1449 I0. J0.0228
Y4.3069 Z-0.1627 I0. J-0.0228
Y4.3525 Z-0.1804 I0. J0.0228
Y4.3069 Z-0.1981 I0. J-0.0228
X0.561 Y4.3331 Z-0.2078 I0. J0.0228
X0.5317 Y4.3515 Z-0.2175 I-0.0225 J-0.0034
X0.5452 Y4.3079 I0.0067 J-0.0218
X0.5317 Y4.3515 I-0.0067 J0.0218
X0.5242 Y4.3372 I0.0034 J-0.0109
G1 X0.5265 Y4.3298
X0.5274 Y4.3269 Z-0.2172
X0.5282 Y4.3241 Z-0.2163
X0.529 Y4.3216 Z-0.2149
X0.5297 Y4.3193 Z-0.2129
X0.5303 Y4.3175 Z-0.2106
X0.5307 Y4.3161 Z-0.2079
X0.531 Y4.3152 Z-0.205
X0.5311 Y4.315 Z-0.202
G0 Z0.4
X1.8848 Y4.6678
Z0.13
G1 Z0.0655 F40.
G19 G3 Y4.6834 Z0.05 J0.0155 K0.
G1 Y4.6911
G17 G3 X1.8734 Y4.7025 I-0.0114 J0.
Y4.6569 Z0.0323 I0. J-0.0228
Y4.7025 Z0.0146 I0. J0.0228
Y4.6569 Z-0.0032 I0. J-0.0228
Y4.7025 Z-0.0209 I0. J0.0228
Y4.6569 Z-0.0386 I0. J-0.0228
Y4.7025 Z-0.0563 I0. J0.0228
Y4.6569 Z-0.074 I0. J-0.0228
Y4.7025 Z-0.0918 I0. J0.0228
Y4.6569 Z-0.1095 I0. J-0.0228
Y4.7025 Z-0.1272 I0. J0.0228
Y4.6569 Z-0.1449 I0. J-0.0228
Y4.7025 Z-0.1627 I0. J0.0228
Y4.6569 Z-0.1804 I0. J-0.0228
Y4.7025 Z-0.1981 I0. J0.0228
X1.8509 Y4.6763 Z-0.2078 I0. J-0.0228
X1.8801 Y4.6579 Z-0.2175 I0.0225 J0.0034
X1.8667 Y4.7015 I-0.0067 J0.0218
X1.8801 Y4.6579 I0.0067 J-0.0218
X1.8877 Y4.6722 I-0.0034 J0.0109
G1 X1.8854 Y4.6796
X1.8845 Y4.6825 Z-0.2172
X1.8836 Y4.6853 Z-0.2163
X1.8828 Y4.6879 Z-0.2149
X1.8821 Y4.6901 Z-0.2129
X1.8816 Y4.692 Z-0.2106
X1.8811 Y4.6933 Z-0.2079
X1.8809 Y4.6942 Z-0.205
X1.8808 Y4.6945 Z-0.202
G0 Z0.4
X3.0173 Y3.0194
Z0.13
G1 Z0.0655 F40.
G19 G3 Y3.0349 Z0.05 J0.0155 K0.
G1 Y3.0427
G17 G3 X3.0059 Y3.0541 I-0.0114 J0.
Y3.0085 Z0.0323 I0. J-0.0228
Y3.0541 Z0.0146 I0. J0.0228
Y3.0085 Z-0.0032 I0. J-0.0228
Y3.0541 Z-0.0209 I0. J0.0228
Y3.0085 Z-0.0386 I0. J-0.0228
Y3.0541 Z-0.0563 I0. J0.0228
Y3.0085 Z-0.074 I0. J-0.0228
Y3.0541 Z-0.0918 I0. J0.0228
Y3.0085 Z-0.1095 I0. J-0.0228
Y3.0541 Z-0.1272 I0. J0.0228
Y3.0085 Z-0.1449 I0. J-0.0228
Y3.0541 Z-0.1627 I0. J0.0228
Y3.0085 Z-0.1804 I0. J-0.0228
Y3.0541 Z-0.1981 I0. J0.0228
X2.9834 Y3.0279 Z-0.2078 I0. J-0.0228
X3.0127 Y3.0095 Z-0.2175 I0.0225 J0.0034
X2.9992 Y3.0531 I-0.0067 J0.0218
X3.0127 Y3.0095 I0.0067 J-0.0218
X3.0202 Y3.0237 I-0.0034 J0.0109
G1 X3.0179 Y3.0312
X3.017 Y3.0341 Z-0.2172
X3.0161 Y3.0369 Z-0.2163
X3.0154 Y3.0394 Z-0.2149
X3.0147 Y3.0417 Z-0.2129
X3.0141 Y3.0435 Z-0.2106
X3.0137 Y3.0449 Z-0.2079
X3.0134 Y3.0457 Z-0.205
X3.0133 Y3.046 Z-0.202
G0 Z0.4
X3.4451 Y1.2478
Z0.13
G1 Z0.0655 F40.
G19 G3 Y1.2634 Z0.05 J0.0155 K0.
G1 Y1.2711
G17 G3 X3.4337 Y1.2825 I-0.0114 J0.
Y1.2369 Z0.0323 I0. J-0.0228
Y1.2825 Z0.0146 I0. J0.0228
Y1.2369 Z-0.0032 I0. J-0.0228
Y1.2825 Z-0.0209 I0. J0.0228
Y1.2369 Z-0.0386 I0. J-0.0228
Y1.2825 Z-0.0563 I0. J0.0228
Y1.2369 Z-0.074 I0. J-0.0228
Y1.2825 Z-0.0918 I0. J0.0228
Y1.2369 Z-0.1095 I0. J-0.0228
Y1.2825 Z-0.1272 I0. J0.0228
Y1.2369 Z-0.1449 I0. J-0.0228
Y1.2825 Z-0.1627 I0. J0.0228
Y1.2369 Z-0.1804 I0. J-0.0228
Y1.2825 Z-0.1981 I0. J0.0228
X3.4112 Y1.2563 Z-0.2078 I0. J-0.0228
X3.4405 Y1.2379 Z-0.2175 I0.0225 J0.0034
X3.427 Y1.2815 I-0.0067 J0.0218
X3.4405 Y1.2379 I0.0067 J-0.0218
X3.448 Y1.2522 I-0.0034 J0.0109
G1 X3.4457 Y1.2596
X3.4448 Y1.2625 Z-0.2172
X3.4439 Y1.2653 Z-0.2163
X3.4432 Y1.2679 Z-0.2149
X3.4425 Y1.2701 Z-0.2129
X3.4419 Y1.272 Z-0.2106
X3.4415 Y1.2733 Z-0.2079
X3.4412 Y1.2742 Z-0.205
X3.4411 Y1.2745 Z-0.202
G0 Z0.4
X3.0947 Y0.5912
Z0.13
G1 Z0.0655 F40.
G19 G3 Y0.6068 Z0.05 J0.0155 K0.
G1 Y0.6146
G17 G3 X3.0833 Y0.626 I-0.0114 J0.
Y0.5804 Z0.0323 I0. J-0.0228
Y0.626 Z0.0146 I0. J0.0228
Y0.5804 Z-0.0032 I0. J-0.0228
Y0.626 Z-0.0209 I0. J0.0228
Y0.5804 Z-0.0386 I0. J-0.0228
Y0.626 Z-0.0563 I0. J0.0228
Y0.5804 Z-0.074 I0. J-0.0228
Y0.626 Z-0.0918 I0. J0.0228
Y0.5804 Z-0.1095 I0. J-0.0228
Y0.626 Z-0.1272 I0. J0.0228
Y0.5804 Z-0.1449 I0. J-0.0228
Y0.626 Z-0.1627 I0. J0.0228
Y0.5804 Z-0.1804 I0. J-0.0228
Y0.626 Z-0.1981 I0. J0.0228
X3.0607 Y0.5998 Z-0.2078 I0. J-0.0228
X3.09 Y0.5814 Z-0.2175 I0.0225 J0.0034
X3.0766 Y0.6249 I-0.0067 J0.0218
X3.09 Y0.5814 I0.0067 J-0.0218
X3.0975 Y0.5956 I-0.0034 J0.0109
G1 X3.0953 Y0.603
X3.0944 Y0.6059 Z-0.2172
X3.0935 Y0.6087 Z-0.2163
X3.0927 Y0.6113 Z-0.2149
X3.092 Y0.6135 Z-0.2129
X3.0914 Y0.6154 Z-0.2106
X3.091 Y0.6168 Z-0.2079
X3.0908 Y0.6176 Z-0.205
X3.0907 Y0.6179 Z-0.202
G0 Z0.4
X0.9375 Y1.
Z0.1145
G1 Z0.05 F40.
X0.9384 Y1.0009
G3 X0.9375 Y1.0018 I-0.0009 J0.
Y0.9982 Z0.036 I0. J-0.0018
Y1.0018 Z0.022 I0. J0.0018
Y0.9982 Z0.0079 I0. J-0.0018
Y1.0018 Z-0.0061 I0. J0.0018
Y0.9982 Z-0.0201 I0. J-0.0018
Y1.0018 Z-0.0341 I0. J0.0018
Y0.9982 Z-0.0481 I0. J-0.0018
Y1.0018 Z-0.0621 I0. J0.0018
Y0.9982 Z-0.0762 I0. J-0.0018
Y1.0018 Z-0.0902 I0. J0.0018
Y0.9982 Z-0.1042 I0. J-0.0018
Y1.0018 Z-0.1182 I0. J0.0018
Y0.9982 Z-0.1322 I0. J-0.0018
Y1.0018 Z-0.1463 I0. J0.0018
Y0.9982 Z-0.1603 I0. J-0.0018
Y1.0018 Z-0.1743 I0. J0.0018
Y0.9982 Z-0.1883 I0. J-0.0018
Y1.0018 Z-0.2023 I0. J0.0018
X0.9357 Y0.9998 Z-0.2099 I0. J-0.0018
X0.938 Y0.9983 Z-0.2175 I0.0018 J0.0002
X0.937 Y1.0017 I-0.0005 J0.0017
X0.938 Y0.9983 I0.0005 J-0.0017
X0.9386 Y0.9994 I-0.0002 J0.0009
G1 X0.9375 Y1.
G0 Z0.4
X-0.9375
Z0.1145
G1 Z0.05 F40.
X-0.9366 Y1.0009
G3 X-0.9375 Y1.0018 I-0.0009 J0.
Y0.9982 Z0.036 I0. J-0.0018
Y1.0018 Z0.022 I0. J0.0018
Y0.9982 Z0.0079 I0. J-0.0018
Y1.0018 Z-0.0061 I0. J0.0018
Y0.9982 Z-0.0201 I0. J-0.0018
Y1.0018 Z-0.0341 I0. J0.0018
Y0.9982 Z-0.0481 I0. J-0.0018
Y1.0018 Z-0.0621 I0. J0.0018
Y0.9982 Z-0.0762 I0. J-0.0018
Y1.0018 Z-0.0902 I0. J0.0018
Y0.9982 Z-0.1042 I0. J-0.0018
Y1.0018 Z-0.1182 I0. J0.0018
Y0.9982 Z-0.1322 I0. J-0.0018
Y1.0018 Z-0.1463 I0. J0.0018
Y0.9982 Z-0.1603 I0. J-0.0018
Y1.0018 Z-0.1743 I0. J0.0018
Y0.9982 Z-0.1883 I0. J-0.0018
Y1.0018 Z-0.2023 I0. J0.0018
X-0.9393 Y0.9998 Z-0.2099 I0. J-0.0018
X-0.937 Y0.9983 Z-0.2175 I0.0018 J0.0002
X-0.938 Y1.0017 I-0.0005 J0.0017
X-0.937 Y0.9983 I0.0005 J-0.0017
X-0.9364 Y0.9994 I-0.0002 J0.0009
G1 X-0.9375 Y1.
G0 Z0.4
X-1.7493 Y1.4681
Z0.13
G1 Z0.0655 F40.
G19 G3 Y1.4836 Z0.05 J0.0155 K0.
G1 Y1.4914
G17 G3 X-1.7607 Y1.5028 I-0.0114 J0.
Y1.4572 Z0.0323 I0. J-0.0228
Y1.5028 Z0.0146 I0. J0.0228
Y1.4572 Z-0.0032 I0. J-0.0228
Y1.5028 Z-0.0209 I0. J0.0228
Y1.4572 Z-0.0386 I0. J-0.0228
Y1.5028 Z-0.0563 I0. J0.0228
Y1.4572 Z-0.074 I0. J-0.0228
Y1.5028 Z-0.0918 I0. J0.0228
Y1.4572 Z-0.1095 I0. J-0.0228
Y1.5028 Z-0.1272 I0. J0.0228
Y1.4572 Z-0.1449 I0. J-0.0228
Y1.5028 Z-0.1627 I0. J0.0228
Y1.4572 Z-0.1804 I0. J-0.0228
Y1.5028 Z-0.1981 I0. J0.0228
X-1.7833 Y1.4766 Z-0.2078 I0. J-0.0228
X-1.754 Y1.4582 Z-0.2175 I0.0225 J0.0034
X-1.7675 Y1.5018 I-0.0067 J0.0218
X-1.754 Y1.4582 I0.0067 J-0.0218
X-1.7465 Y1.4725 I-0.0034 J0.0109
G1 X-1.7488 Y1.4799
X-1.7497 Y1.4828 Z-0.2172
X-1.7505 Y1.4856 Z-0.2163
X-1.7513 Y1.4881 Z-0.2149
X-1.752 Y1.4904 Z-0.2129
X-1.7526 Y1.4922 Z-0.2106
X-1.753 Y1.4936 Z-0.2079
X-1.7533 Y1.4945 Z-0.205
X-1.7534 Y1.4947 Z-0.202
G0 Z0.4
X-1.9952 Y0.7881
Z0.13
G1 Z0.0655 F40.
G19 G3 Y0.8036 Z0.05 J0.0155 K0.
G1 Y0.8114
G17 G3 X-2.0066 Y0.8228 I-0.0114 J0.
Y0.7772 Z0.0323 I0. J-0.0228
Y0.8228 Z0.0146 I0. J0.0228
Y0.7772 Z-0.0032 I0. J-0.0228
Y0.8228 Z-0.0209 I0. J0.0228
Y0.7772 Z-0.0386 I0. J-0.0228
Y0.8228 Z-0.0563 I0. J0.0228
Y0.7772 Z-0.074 I0. J-0.0228
Y0.8228 Z-0.0918 I0. J0.0228
Y0.7772 Z-0.1095 I0. J-0.0228
Y0.8228 Z-0.1272 I0. J0.0228
Y0.7772 Z-0.1449 I0. J-0.0228
Y0.8228 Z-0.1627 I0. J0.0228
Y0.7772 Z-0.1804 I0. J-0.0228
Y0.8228 Z-0.1981 I0. J0.0228
X-2.0291 Y0.7966 Z-0.2078 I0. J-0.0228
X-1.9999 Y0.7782 Z-0.2175 I0.0225 J0.0034
X-2.0133 Y0.8218 I-0.0067 J0.0218
X-1.9999 Y0.7782 I0.0067 J-0.0218
X-1.9923 Y0.7925 I-0.0034 J0.0109
G1 X-1.9946 Y0.7999
X-1.9955 Y0.8028 Z-0.2172
X-1.9964 Y0.8056 Z-0.2163
X-1.9972 Y0.8081 Z-0.2149
X-1.9979 Y0.8104 Z-0.2129
X-1.9984 Y0.8122 Z-0.2106
X-1.9989 Y0.8136 Z-0.2079
X-1.9991 Y0.8145 Z-0.205
X-1.9992 Y0.8147 Z-0.202
G0 Z0.6
(.3 CIRCULAR THROUGH HOLE)
M7
G0 X1.4393 Y2.6567
Z0.6
Z0.2
G1 Z0.115 F13.333
G3 X1.4379 Y2.6565 Z0.1084 I0.0052 J-0.0447 F55.
X1.4339 Y2.6557 Z0.1031 I0.0066 J-0.0445
X1.4282 Y2.6539 Z0.1 I0.0107 J-0.0437
X1.4609 Y2.5701 Z0.0621 I0.0164 J-0.0419
X1.4282 Y2.6539 Z0.0242 I-0.0164 J0.0419
X1.4609 Y2.5701 Z-0.0136 I0.0164 J-0.0419
X1.4282 Y2.6539 Z-0.0515 I-0.0164 J0.0419
X1.4609 Y2.5701 Z-0.0894 I0.0164 J-0.0419
X1.4282 Y2.6539 Z-0.1273 I-0.0163 J0.0419
X1.4609 Y2.5701 Z-0.1652 I0.0163 J-0.0419
X1.4282 Y2.6539 Z-0.203 I-0.0163 J0.0419
X1.3995 Y2.612 Z-0.2175 I0.0163 J-0.0419
X1.4016 I0.001 J0. F60.
X1.2995 I-0.051 J0.
X1.5016 I0.101 J0.
X1.1995 I-0.151 J0.
X1.6016 I0.201 J0.
X1.0995 I-0.251 J0.
X1.6016 I0.251 J0.
G2 X1.6429 Y2.6798 I0.0763 J0.
G3 X1.6691 Y2.7547 I-0.0265 J0.0513
X1.3506 Y2.961 I-0.3186 J-0.1427
Y2.2629 I0. J-0.349
X1.6691 Y2.7547 I0. J0.349
G2 X1.6706 Y2.7635 I0.0074 J0.0033
G3 X1.6718 Y2.7723 I-0.0058 J0.0053
X1.3506 Y2.971 I-0.3213 J-0.1603
Y2.2529 I0. J-0.3591
X1.6718 Y2.7723 I0. J0.359
X1.6682 Y2.777 Z-0.2163 I-0.0139 J-0.0069
X1.664 Y2.7797 Z-0.2129 I-0.0103 J-0.0116
X1.6608 Y2.7807 Z-0.2079 I-0.0061 J-0.0143
X1.6596 Y2.7808 Z-0.202 I-0.0028 J-0.0153
G0 Z0.4
X2.4147 Y3.8108
Z0.2
G1 Z0.115 F13.333
G3 X2.4161 Y3.811 Z0.1084 I-0.0052 J0.0447 F55.
X2.4201 Y3.8118 Z0.1031 I-0.0066 J0.0445
X2.4258 Y3.8136 Z0.1 I-0.0107 J0.0437
X2.3931 Y3.8974 Z0.0621 I-0.0164 J0.0419
X2.4258 Y3.8136 Z0.0242 I0.0164 J-0.0419
X2.3931 Y3.8974 Z-0.0136 I-0.0164 J0.0419
X2.4258 Y3.8136 Z-0.0515 I0.0164 J-0.0419
X2.3931 Y3.8974 Z-0.0894 I-0.0164 J0.0419
X2.4258 Y3.8136 Z-0.1273 I0.0164 J-0.0419
X2.3931 Y3.8974 Z-0.1652 I-0.0164 J0.0419
X2.4258 Y3.8136 Z-0.203 I0.0164 J-0.0419
X2.4545 Y3.8555 Z-0.2175 I-0.0164 J0.0419
X2.4249 I-0.0148 J0. F60.
X2.5545 I0.0648 J0.
X2.3249 I-0.1148 J0.
X2.6545 I0.1648 J0.
X2.2249 I-0.2148 J0.
X2.6545 I0.2148 J0.
G2 X2.6949 Y3.9225 I0.0758 J0.
G3 X2.7185 Y3.9971 I-0.0261 J0.0493
X2.4397 Y4.1683 I-0.2789 J-0.1416
Y3.5427 I0. J-0.3128
X2.7185 Y3.9971 I0. J0.3128
G2 X2.7196 Y4.006 I0.0072 J0.0037
G3 X2.7204 Y4.0149 I-0.006 J0.005
X2.4397 Y4.1783 I-0.2807 J-0.1594
Y3.5327 I0. J-0.3228
X2.7204 Y4.0149 I0. J0.3228
X2.7165 Y4.0194 Z-0.2163 I-0.0135 J-0.0077
X2.7121 Y4.0218 Z-0.2129 I-0.0097 J-0.0122
X2.7089 Y4.0226 Z-0.2079 I-0.0053 J-0.0146
X2.7077 Y4.0227 Z-0.202 I-0.002 J-0.0154
G0 Z0.4
X3.0709 Y2.2197
Z0.2
G1 Z0.115 F13.333
G3 X3.0695 Y2.2195 Z0.1084 I0.0052 J-0.0447 F55.
X3.0654 Y2.2187 Z0.1031 I0.0066 J-0.0445
X3.0598 Y2.2169 Z0.1 I0.0107 J-0.0437
X3.0925 Y2.1331 Z0.0621 I0.0164 J-0.0419
X3.0598 Y2.2169 Z0.0242 I-0.0164 J0.0419
X3.0925 Y2.1331 Z-0.0136 I0.0164 J-0.0419
X3.0598 Y2.2169 Z-0.0515 I-0.0164 J0.0419
X3.0925 Y2.1331 Z-0.0894 I0.0164 J-0.0419
X3.0598 Y2.2169 Z-0.1273 I-0.0163 J0.0419
X3.0925 Y2.1331 Z-0.1652 I0.0163 J-0.0419
X3.0598 Y2.2169 Z-0.203 I-0.0163 J0.0419
X3.0311 Y2.175 Z-0.2175 I0.0163 J-0.0419
X3.1307 I0.0498 J0. F60.
X2.9311 I-0.0998 J0.
X3.1407 I0.1048 J0.
X2.9211 I-0.1098 J0.
X3.1407 I0.1098 J0.
X3.1396 Y2.1808 Z-0.2163 I-0.0155 J0.
X3.137 Y2.1851 Z-0.2129 I-0.0144 J-0.0058
X3.1345 Y2.1874 Z-0.2079 I-0.0118 J-0.0101
X3.1336 Y2.1881 Z-0.202 I-0.0094 J-0.0124
G0 Z0.4
X2.4127 Y1.3238
Z0.2
G1 Z0.115 F13.333
G3 X2.4141 Y1.324 Z0.1084 I-0.0052 J0.0447 F55.
X2.4181 Y1.3248 Z0.1031 I-0.0066 J0.0445
X2.4238 Y1.3266 Z0.1 I-0.0107 J0.0437
X2.3911 Y1.4104 Z0.0621 I-0.0164 J0.0419
X2.4238 Y1.3266 Z0.0242 I0.0164 J-0.0419
X2.3911 Y1.4104 Z-0.0136 I-0.0164 J0.0419
X2.4238 Y1.3266 Z-0.0515 I0.0164 J-0.0419
X2.3911 Y1.4104 Z-0.0894 I-0.0164 J0.0419
X2.4238 Y1.3266 Z-0.1273 I0.0164 J-0.0419
X2.3911 Y1.4104 Z-0.1652 I-0.0164 J0.0419
X2.4238 Y1.3266 Z-0.203 I0.0164 J-0.0419
X2.4525 Y1.3685 Z-0.2175 I-0.0164 J0.0419
X2.4269 I-0.0128 J0. F60.
X2.5525 I0.0628 J0.
X2.3269 I-0.1128 J0.
X2.6525 I0.1628 J0.
X2.2269 I-0.2128 J0.
X2.7525 I0.2628 J0.
X2.1269 I-0.3128 J0.
X2.7625 I0.3178 J0.
X2.1169 I-0.3228 J0.
X2.7625 I0.3228 J0.
X2.7613 Y1.3743 Z-0.2163 I-0.0155 J0.
X2.7587 Y1.3786 Z-0.2129 I-0.0144 J-0.0058
X2.7563 Y1.3809 Z-0.2079 I-0.0118 J-0.0101
X2.7553 Y1.3816 Z-0.202 I-0.0094 J-0.0124
G0 Z0.4
X1.8884 Y0.6067
Z0.2
G1 Z0.115 F13.333
G3 X1.887 Y0.6065 Z0.1084 I0.0052 J-0.0447 F55.
X1.883 Y0.6057 Z0.1031 I0.0066 J-0.0445
X1.8773 Y0.6039 Z0.1 I0.0107 J-0.0437
X1.91 Y0.5201 Z0.0621 I0.0164 J-0.0419
X1.8773 Y0.6039 Z0.0242 I-0.0164 J0.0419
X1.91 Y0.5201 Z-0.0136 I0.0164 J-0.0419
X1.8773 Y0.6039 Z-0.0515 I-0.0164 J0.0419
X1.91 Y0.5201 Z-0.0894 I0.0164 J-0.0419
X1.8773 Y0.6039 Z-0.1273 I-0.0164 J0.0419
X1.91 Y0.5201 Z-0.1652 I0.0164 J-0.0419
X1.8773 Y0.6039 Z-0.203 I-0.0164 J0.0419
X1.8486 Y0.562 Z-0.2175 I0.0164 J-0.0419
X1.9482 I0.0498 J0. F60.
X1.7486 I-0.0998 J0.
X1.9582 I0.1048 J0.
X1.7386 I-0.1098 J0.
X1.9582 I0.1098 J0.
X1.9571 Y0.5678 Z-0.2163 I-0.0155 J0.
X1.9545 Y0.5721 Z-0.2129 I-0.0144 J-0.0058
X1.9521 Y0.5744 Z-0.2079 I-0.0118 J-0.0101
X1.9511 Y0.5751 Z-0.202 I-0.0094 J-0.0124
G0 Z0.4
X0.0635 Y1.0447
Z0.2
G1 Z0.115 F13.333
G3 X0.0621 Y1.0445 Z0.1084 I0.0052 J-0.0447 F55.
X0.058 Y1.0437 Z0.1031 I0.0066 J-0.0445
X0.0523 Y1.0419 Z0.1 I0.0107 J-0.0437
X0.0851 Y0.9581 Z0.0621 I0.0164 J-0.0419
X0.0523 Y1.0419 Z0.0242 I-0.0164 J0.0419
X0.0851 Y0.9581 Z-0.0136 I0.0164 J-0.0419
X0.0523 Y1.0419 Z-0.0515 I-0.0164 J0.0419
X0.0851 Y0.9581 Z-0.0894 I0.0164 J-0.0419
X0.0523 Y1.0419 Z-0.1273 I-0.0164 J0.0419
X0.0851 Y0.9581 Z-0.1652 I0.0164 J-0.0419
X0.0523 Y1.0419 Z-0.203 I-0.0164 J0.0419
X0.0237 Y1. Z-0.2175 I0.0164 J-0.0419
X0.0763 I0.0263 J0. F60.
X-0.0763 I-0.0763 J0.
X0.1763 I0.1263 J0.
X-0.1763 I-0.1763 J0.
X0.2763 I0.2263 J0.
X-0.2763 I-0.2763 J0.
X0.3763 I0.3263 J0.
X-0.3763 I-0.3763 J0.
X0.4763 I0.4263 J0.
X-0.4763 I-0.4763 J0.
X0.4863 I0.4813 J0.
X-0.4863 I-0.4863 J0.
X0.4863 I0.4863 J0.
X0.4852 Y1.0058 Z-0.2163 I-0.0155 J0.
X0.4826 Y1.0101 Z-0.2129 I-0.0144 J-0.0058
X0.4801 Y1.0124 Z-0.2079 I-0.0118 J-0.0101
X0.4792 Y1.0131 Z-0.202 I-0.0094 J-0.0124
G0 Z0.4
X-0.0633 Y3.4667
Z0.2
G1 Z0.115 F13.333
G3 X-0.0619 Y3.4669 Z0.1084 I-0.0052 J0.0447 F55.
X-0.0579 Y3.4677 Z0.1031 I-0.0066 J0.0445
X-0.0522 Y3.4695 Z0.1 I-0.0107 J0.0437
X-0.0849 Y3.5533 Z0.0621 I-0.0164 J0.0419
X-0.0522 Y3.4695 Z0.0242 I0.0164 J-0.0419
X-0.0849 Y3.5533 Z-0.0136 I-0.0164 J0.0419
X-0.0522 Y3.4695 Z-0.0515 I0.0164 J-0.0419
X-0.0849 Y3.5533 Z-0.0894 I-0.0164 J0.0419
X-0.0522 Y3.4695 Z-0.1273 I0.0164 J-0.0419
X-0.0849 Y3.5533 Z-0.1652 I-0.0164 J0.0419
X-0.0522 Y3.4695 Z-0.203 I0.0164 J-0.0419
X-0.0235 Y3.5114 Z-0.2175 I-0.0164 J0.0419
X-0.0491 I-0.0128 J0. F60.
X0.0765 I0.0628 J0.
X-0.1491 I-0.1128 J0.
X0.1765 I0.1628 J0.
X-0.2491 I-0.2128 J0.
X0.2765 I0.2628 J0.
X-0.3491 I-0.3128 J0.
X0.2865 I0.3178 J0.
X-0.3591 I-0.3228 J0.
X0.2865 I0.3228 J0.
X0.2853 Y3.5172 Z-0.2163 I-0.0155 J0.
X0.2827 Y3.5215 Z-0.2129 I-0.0144 J-0.0058
X0.2803 Y3.5238 Z-0.2079 I-0.0118 J-0.0101
X0.2793 Y3.5245 Z-0.202 I-0.0094 J-0.0124
G0 Z0.6
(SHAPE THROUGH HOLE)
M7
G0 X-0.5961 Y1.9276
Z0.6
Z0.1
G3 X-0.7053 Y1.8282 Z0.0591 I-0.0546 J-0.0497 F50.
X-0.5961 Y1.9276 Z0.0182 I0.0546 J0.0497
X-0.7053 Y1.8282 Z-0.0227 I-0.0546 J-0.0497
X-0.5961 Y1.9276 Z-0.0636 I0.0546 J0.0497
X-0.7053 Y1.8282 Z-0.1044 I-0.0546 J-0.0497
X-0.5961 Y1.9276 Z-0.1453 I0.0546 J0.0497
X-0.7053 Y1.8282 Z-0.1862 I-0.0546 J-0.0497
X-0.5769 Y1.8779 Z-0.2175 I0.0546 J0.0497
X-0.7245 I-0.0738 J0.
X-0.5771 Y1.8718 I0.0738 J0.
G1 X-0.5769 Y1.8779
X-0.5726 Y1.8839 F60.
X-0.5687 Y1.8902
X-0.5654 Y1.8969
X-0.5626 Y1.9037
X-0.5604 Y1.9108
X-0.5588 Y1.918
X-0.5577 Y1.9253
X-0.5572 Y1.9327
X-0.5574 Y1.9401
X-0.5581 Y1.9475
X-0.5594 Y1.9548
X-0.5612 Y1.962
X-0.5637 Y1.9689
X-0.5666 Y1.9757
X-0.5702 Y1.9822
X-0.5742 Y1.9884
X-0.5787 Y1.9943
X-0.5837 Y1.9998
X-0.589 Y2.0049
X-0.5948 Y2.0095
X-0.6009 Y2.0137
X-0.6074 Y2.0173
X-0.6141 Y2.0205
X-0.621 Y2.023
X-0.6282 Y2.0251
X-0.6354 Y2.0265
X-0.6428 Y2.0274
X-0.6502 Y2.0276
X-0.6576 Y2.0273
G3 X-0.7748 Y1.9006 I0.725 J-0.7885
X-0.7833 Y1.8116 I0.0834 J-0.0529
G1 X-0.7814 Y1.8091
X-0.779 Y1.8071
X-0.7763 Y1.8056
X-0.7734 Y1.8047
X-0.7703 Y1.8043
X-0.7672 Y1.8046
X-0.7643 Y1.8055
X-0.7615 Y1.8069
X-0.7591 Y1.8089
X-0.7572 Y1.8112
G3 X-0.7546 Y1.8182 I-0.0129 J0.0086
X-0.7488 Y1.8994 I-0.088 J0.0472
X-0.7748 Y1.9006 I-0.0134 J-0.0078 F50.
G1 X-0.7788 Y1.8942 F60.
X-0.7824 Y1.8875
X-0.7853 Y1.8805
X-0.7877 Y1.8733
X-0.7896 Y1.8659
X-0.7908 Y1.8584
X-0.7914 Y1.8508
X-0.7915 Y1.8432
X-0.7909 Y1.8356
X-0.7897 Y1.8281
X-0.7879 Y1.8207
X-0.7856 Y1.8135
X-0.7827 Y1.8065
X-0.7792 Y1.7997
X-0.7752 Y1.7933
X-0.7707 Y1.7871
X-0.7658 Y1.7814
X-0.7604 Y1.776
X-0.7546 Y1.7712
X-0.7484 Y1.7667
X-0.7419 Y1.7628
X-0.7351 Y1.7594
X-0.728 Y1.7566
X-0.7208 Y1.7544
X-0.7133 Y1.7527
X-0.7058 Y1.7516
X-0.6982 Y1.7511
X-0.6906 Y1.7512
X-0.6831 Y1.752
X-0.6756 Y1.7533
X-0.6683 Y1.7552
X-0.6611 Y1.7577
X-0.6541 Y1.7607
X-0.6474 Y1.7643
X-0.641 Y1.7685
X-0.635 Y1.7731
X-0.6294 Y1.7781
X-0.6241 Y1.7837
X-0.6194 Y1.7896
X-0.6151 Y1.7958
X-0.6113 Y1.8024
X-0.608 Y1.8093
X-0.5802 Y1.8309
X-0.5311 Y1.8779
X-0.5144 Y1.8936
G3 X-0.5809 Y2.0953 I-0.1007 J0.0786
X-0.6574 Y2.0257 I1.5886 J-1.8237
X-0.6614 Y2.0107 I0.011 J-0.0109
X-0.6232 Y1.9953 I0.0249 J0.0068
X-0.5849 Y2.0639 I-0.0403 J0.0676
X-0.5864 Y2.0784 I-0.0787 J-0.001 F50.
G2 X-0.5815 Y2.0932 I0.0152 J0.0031
G1 X-0.5624 Y2.1088 F60.
G2 X-0.4051 Y1.9933 I0.0405 J-0.1098
X-0.5144 Y1.8936 I-0.6505 J0.6039
X-0.5297 Y1.8906 I-0.0102 J0.0117
X-0.5449 Y1.9306 I0.0089 J0.0263
X-0.4342 Y1.9901 I0.1027 J-0.0583
X-0.4196 Y1.9882 I-0.0081 J-0.1178 F50.
G3 X-0.4049 Y1.9933 I0.003 J0.0153
G1 X-0.384 Y2.019 F60.
X-0.3737 Y2.0555
G3 X-0.5603 Y2.1078 I-0.0983 J0.0083
G1 X-0.5622 Y2.1062
X-0.5639 Y2.1043
X-0.5652 Y2.102
X-0.5661 Y2.0995
X-0.5665 Y2.0969
X-0.5664 Y2.0942
X-0.5657 Y2.0915
X-0.5646 Y2.089
X-0.563 Y2.0867
X-0.561 Y2.0847
X-0.5586 Y2.0831
X-0.5558 Y2.0818 Z-0.2172
X-0.5532 Y2.0806 Z-0.2163
X-0.5507 Y2.0795 Z-0.2149
X-0.5486 Y2.0785 Z-0.2129
X-0.5468 Y2.0777 Z-0.2106
X-0.5455 Y2.0771 Z-0.2079
X-0.5447 Y2.0767 Z-0.205
X-0.5444 Y2.0766 Z-0.202
G0 Z0.4
X0.4859 Y2.304
Z0.1
G3 X0.3767 Y2.2046 Z0.0591 I-0.0546 J-0.0497 F50.
X0.4859 Y2.304 Z0.0182 I0.0546 J0.0497
X0.3767 Y2.2046 Z-0.0227 I-0.0546 J-0.0497
X0.4859 Y2.304 Z-0.0636 I0.0546 J0.0497
X0.3767 Y2.2046 Z-0.1044 I-0.0546 J-0.0497
X0.4859 Y2.304 Z-0.1453 I0.0546 J0.0497
X0.3767 Y2.2046 Z-0.1862 I-0.0546 J-0.0497
X0.5051 Y2.2543 Z-0.2175 I0.0546 J0.0497
X0.3575 I-0.0738 J0.
X0.5049 Y2.2482 I0.0738 J0.
G1 X0.5051 Y2.2543
G3 X0.5208 Y2.3071 I-0.0449 J0.042 F60.
G1 X0.5173 Y2.3143
X0.5134 Y2.3212
X0.5088 Y2.3278
X0.5038 Y2.334
X0.4983 Y2.3398
X0.4924 Y2.3451
X0.4861 Y2.35
X0.4794 Y2.3543
X0.4724 Y2.3581
X0.4651 Y2.3613
X0.4576 Y2.364
X0.4499 Y2.366
X0.442 Y2.3674
X0.4341 Y2.3683
X0.4261 Y2.3684
X0.4182 Y2.368
X0.4103 Y2.3669
X0.4025 Y2.3652
X0.3948 Y2.3629
X0.3874 Y2.3601
X0.3802 Y2.3566
X0.3734 Y2.3526
X0.3668 Y2.348
X0.3606 Y2.343
X0.3549 Y2.3374
X0.3496 Y2.3315
X0.3448 Y2.3251
X0.3405 Y2.3184
X0.3367 Y2.3114
X0.3336 Y2.3041
X0.3309 Y2.2966
X0.3289 Y2.2888
X0.3276 Y2.281
X0.3268 Y2.2731
X0.3267 Y2.2651
X0.3271 Y2.2571
X0.3283 Y2.2492
X0.33 Y2.2415
X0.3323 Y2.2338
X0.3353 Y2.2264
X0.3388 Y2.2193
X0.3428 Y2.2124
G3 X0.4595 Y2.1274 I0.0956 J0.0086
X0.5284 Y2.2543 I-0.0211 J0.0936
G1 X0.5247 Y2.3013
X0.5208 Y2.3071
G3 X0.4947 Y2.3056 I-0.0125 J-0.0092
G1 X0.4932 Y2.3029 Z-0.2172
X0.4918 Y2.3004 Z-0.2163
X0.4905 Y2.298 Z-0.2149
X0.4893 Y2.296 Z-0.2129
X0.4884 Y2.2943 Z-0.2106
X0.4877 Y2.2931 Z-0.2079
X0.4872 Y2.2923 Z-0.205
X0.4871 Y2.292 Z-0.202
G0 Z0.4
X0.8152 Y0.2339
Z0.1
G3 X0.706 Y0.1345 Z0.0591 I-0.0546 J-0.0497 F50.
X0.8152 Y0.2339 Z0.0182 I0.0546 J0.0497
X0.706 Y0.1345 Z-0.0227 I-0.0546 J-0.0497
X0.8152 Y0.2339 Z-0.0636 I0.0546 J0.0497
X0.706 Y0.1345 Z-0.1044 I-0.0546 J-0.0497
X0.8152 Y0.2339 Z-0.1453 I0.0546 J0.0497
X0.706 Y0.1345 Z-0.1862 I-0.0546 J-0.0497
X0.8344 Y0.1842 Z-0.2175 I0.0546 J0.0497
X0.6868 I-0.0738 J0.
X0.8342 Y0.1781 I0.0738 J0.
G1 X0.8344 Y0.1842
G3 X0.8017 Y0.3165 I-0.0586 J0.0557 F60.
X0.6635 Y0.1373 I0.0498 J-0.1812
X0.8684 Y0.1284 I0.1063 J0.0836
X0.8905 Y0.3615 I-0.0746 J0.1247
G1 X0.8547 Y0.3494
X0.8153 Y0.3254
X0.8017 Y0.3165
G3 X0.7951 Y0.3025 I0.0089 J-0.0127
X0.8161 Y0.2867 I0.0175 J0.0015
X0.8734 Y0.3334 I-0.0152 J0.0773
X0.8778 Y0.3474 I-0.0726 J0.0306 F50.
G2 X0.8882 Y0.3589 I0.0152 J-0.0033
G1 X0.9017 Y0.3628 F60.
X0.9253 Y0.3637
G2 X1.0078 Y0.1713 I-0.0271 J-0.1255
G3 X0.8684 Y0.1284 I-0.0151 J-0.1986
G2 X0.8529 Y0.1281 I-0.0079 J0.0134
X0.8459 Y0.1402 I0.0067 J0.0121
X0.9841 Y0.192 I0.0787 J0.0003
X0.9926 Y0.1801 I-0.0595 J-0.0516 F50.
G3 X1.0061 Y0.1724 I0.0134 J0.0078
G1 X1.0282 Y0.1732 F60.
G3 X1.0715 Y0.3597 I-0.0423 J0.108
G1 X1.0686 Y0.3601
X1.0656 Y0.3599
X1.0628 Y0.3592
X1.0601 Y0.358
X1.0577 Y0.3562
X1.0557 Y0.354
X1.0541 Y0.3515
X1.053 Y0.3487
X1.0514 Y0.3422
X1.0138 Y0.1951
X1.0131 Y0.1926 F50.
G3 X1.0282 Y0.1732 I0.0151 J-0.0038
X1.0483 Y0.371 I0.01 J0.0989 F60.
X0.9975 Y0.3628 I-0.01 J-0.0989
G1 X0.9253 Y0.3637
G3 X0.9127 Y0.3408 I0.0011 J-0.0155
G1 X0.9141 Y0.3382 Z-0.2172
X0.9155 Y0.3356 Z-0.2163
X0.9168 Y0.3332 Z-0.2149
X0.9179 Y0.3311 Z-0.2129
X0.9188 Y0.3294 Z-0.2106
X0.9195 Y0.3282 Z-0.2079
X0.9199 Y0.3274 Z-0.205
X0.9201 Y0.3271 Z-0.202
G0 Z0.4
X1.4738 Y1.5512
Z0.1
G3 X1.3647 Y1.4518 Z0.0591 I-0.0546 J-0.0497 F50.
X1.4738 Y1.5512 Z0.0182 I0.0546 J0.0497
X1.3647 Y1.4518 Z-0.0227 I-0.0546 J-0.0497
X1.4738 Y1.5512 Z-0.0636 I0.0546 J0.0497
X1.3647 Y1.4518 Z-0.1044 I-0.0546 J-0.0497
X1.4738 Y1.5512 Z-0.1453 I0.0546 J0.0497
X1.3647 Y1.4518 Z-0.1862 I-0.0546 J-0.0497
X1.493 Y1.5015 Z-0.2175 I0.0546 J0.0497
X1.3454 I-0.0738 J0.
X1.4928 Y1.4954 I0.0738 J0.
G1 X1.493 Y1.5015
G3 X1.3257 Y1.6171 I-0.0853 J0.0553 F60.
X1.2646 Y1.4833 I0.0461 J-0.1019
G2 X1.3556 Y1.4075 I0.0036 J-0.0882
G3 X1.5547 Y1.4282 I0.0943 J0.0605
G1 X1.5447 Y1.4545
X1.531 Y1.5015
X1.5604 Y1.5374
X1.5644 Y1.5451
X1.5679 Y1.553
X1.5708 Y1.5611
X1.5732 Y1.5694
X1.575 Y1.5778
X1.5763 Y1.5863
X1.5769 Y1.5949
X1.577 Y1.6036
X1.5765 Y1.6122
X1.5753 Y1.6207
X1.5737 Y1.6292
X1.5714 Y1.6375
X1.5686 Y1.6457
X1.5652 Y1.6536
X1.5613 Y1.6613
X1.5569 Y1.6687
X1.5519 Y1.6758
X1.5466 Y1.6826
X1.5407 Y1.6889
X1.5345 Y1.6948
X1.5278 Y1.7004
X1.5208 Y1.7054
X1.5135 Y1.7099
X1.5059 Y1.714
X1.498 Y1.7175
X1.4899 Y1.7204
X1.4816 Y1.7228
X1.4792 Y1.7211
X1.4771 Y1.719
X1.4755 Y1.7166
X1.4743 Y1.7139
X1.4736 Y1.7111
X1.4735 Y1.7082
X1.4739 Y1.7054
X1.4748 Y1.7027
X1.4781 Y1.694
X1.535 Y1.5433
Y1.5431 F50.
G3 X1.5604 Y1.5374 I0.0145 J0.0055
X1.6252 Y1.6321 I-0.073 J0.1195 F60.
X1.4413 Y1.6879 I-0.0975 J0.0096
G1 X1.4192 Y1.6734
X1.3722 Y1.654
X1.3251 Y1.6695
G3 X1.1769 Y1.5088 I-0.0121 J-0.1376
G2 X1.2673 Y1.4841 I-0.0708 J-0.437
G3 X1.2824 Y1.4877 I0.0044 J0.0149
X1.258 Y1.5479 I-0.0239 J0.0254
X1.2053 Y1.5267 I0.001 J-0.0787
X1.1956 Y1.5158 I0.0537 J-0.0576 F50.
G2 X1.1814 Y1.5095 I-0.0125 J0.0092
G1 X1.1636 Y1.5121 F60.
X1.1569 Y1.5173
X1.1506 Y1.5229
X1.1447 Y1.5289
X1.1393 Y1.5354
X1.1344 Y1.5423
X1.1301 Y1.5495
X1.1262 Y1.557
X1.1229 Y1.5647
X1.1202 Y1.5727
X1.1181 Y1.5809
X1.1167 Y1.5892
X1.1158 Y1.5976
X1.1155 Y1.606
X1.1159 Y1.6144
X1.1169 Y1.6228
X1.1185 Y1.6311
X1.1207 Y1.6392
X1.1235 Y1.6472
X1.1269 Y1.6549
X1.1309 Y1.6623
X1.1354 Y1.6695
X1.1404 Y1.6762
X1.1459 Y1.6826
X1.1518 Y1.6886
X1.1582 Y1.6941
X1.165 Y1.6992
X1.1721 Y1.7037
X1.1795 Y1.7076
G2 X1.3251 Y1.6695 I-0.1187 J-0.7509
X1.335 Y1.6576 I-0.0054 J-0.0146
X1.3078 Y1.6234 I-0.0289 J-0.0049
X1.1973 Y1.6855 I-0.0064 J0.1179
X1.1912 Y1.6988 I0.104 J0.0559 F50.
G3 X1.1791 Y1.7085 I-0.0145 J-0.0056
G1 X1.141 Y1.7132 F60.
X1.1388 Y1.7134
X1.137 Y1.7137
G3 X1.0478 Y1.5173 I0.0274 J-0.1309
G1 X1.0507 Y1.5168
X1.0536
X1.0564 Y1.5174
X1.0591 Y1.5184
X1.0616 Y1.5198
X1.0637 Y1.5217
X1.0654 Y1.5238
X1.0668 Y1.5263
X1.0712 Y1.5352
X1.1477 Y1.6898
X1.1485 Y1.6914 F50.
G3 X1.137 Y1.7137 I-0.0139 J0.0069
X0.9932 Y1.5956 I-0.0155 J-0.1277 F60.
X1.1606 Y1.5177 I0.1129 J0.0238
G1 X1.1621 Y1.5163
X1.1639 Y1.5151
X1.166 Y1.5142
X1.1684 Y1.5137
X1.1709 Y1.5136
X1.1735 Y1.514
G2 X1.1867 Y1.5151 I0.0077 J-0.0135
G1 X1.1932 Y1.5126
X1.3436 Y1.4557
G2 X1.3533 Y1.4383 I-0.0055 J-0.0145
G3 X1.3553 Y1.4074 I0.0612 J-0.0116 F50.
G1 X1.3724 Y1.3604 F60.
X1.3777 Y1.3423
G3 X1.5848 Y1.329 I0.108 J0.0621
X1.554 Y1.4285 I-1.1134 J-0.2903
X1.5419 Y1.4381 I-0.0144 J-0.0058
X1.5102 Y1.4065 I-0.004 J-0.0276
X1.5578 Y1.3449 I0.078 J0.011
X1.5718 Y1.3406 I0.0303 J0.0727 F50.
G2 X1.5833 Y1.3302 I-0.0032 J-0.0152
G1 X1.5882 Y1.3133 F60.
X1.5904 Y1.3062
G2 X1.4196 Y1.2069 I-0.1185 J0.0072
X1.3777 Y1.3423 I1.4164 J0.5127
X1.3819 Y1.3572 I0.0151 J0.0038
X1.4282 Y1.3508 I0.0206 J-0.0212
X1.4291 Y1.2348 I-0.1024 J-0.0588
X1.4213 Y1.2224 I-0.1034 J0.0572 F50.
G3 X1.4196 Y1.207 I0.0126 J-0.0091
G1 X1.4365 Y1.1722 F60.
G3 X1.4866 Y1.1399 I0.087 J0.0801
X1.4982 Y1.1684 I0.0037 J0.0151
X1.4507 Y1.194 I-0.0588 J-0.0521
X1.4365 Y1.1722 I0. J-0.0155 F50.
G1 X1.4663 Y1.1457 F60.
X1.4898 Y1.139
G3 X1.5904 Y1.3062 I0.0173 J0.1034
X1.5651 Y1.3123 I-0.0147 J-0.0052
G1 X1.5629 Y1.3103 Z-0.2172
X1.5607 Y1.3083 Z-0.2163
X1.5588 Y1.3064 Z-0.2149
X1.5571 Y1.3048 Z-0.2129
X1.5557 Y1.3035 Z-0.2106
X1.5546 Y1.3025 Z-0.2079
X1.554 Y1.3019 Z-0.205
X1.5538 Y1.3017 Z-0.202
G0 Z0.4
X2.3676 Y2.4451
Z0.1
G3 X2.2585 Y2.3457 Z0.0591 I-0.0546 J-0.0497 F50.
X2.3676 Y2.4451 Z0.0182 I0.0546 J0.0497
X2.2585 Y2.3457 Z-0.0227 I-0.0546 J-0.0497
X2.3676 Y2.4451 Z-0.0636 I0.0546 J0.0497
X2.2585 Y2.3457 Z-0.1044 I-0.0546 J-0.0497
X2.3676 Y2.4451 Z-0.1453 I0.0546 J0.0497
X2.2585 Y2.3457 Z-0.1862 I-0.0546 J-0.0497
X2.3869 Y2.3954 Z-0.2175 I0.0546 J0.0497
X2.2393 I-0.0738 J0.
X2.3866 Y2.3893 I0.0738 J0.
G1 X2.3869 Y2.3954
G3 X2.258 Y2.5353 I-0.0783 J0.0571 F60.
G2 X2.2059 Y2.3648 I-0.7038 J0.122
G1 X2.2049 Y2.3566
X2.2046 Y2.3483
X2.205 Y2.34
X2.2059 Y2.3318
X2.2074 Y2.3237
X2.2096 Y2.3157
X2.2123 Y2.3079
X2.2157 Y2.3003
X2.2196 Y2.293
X2.224 Y2.286
X2.2289 Y2.2794
X2.2343 Y2.2731
X2.2402 Y2.2673
X2.2465 Y2.2619
X2.2532 Y2.257
X2.2602 Y2.2527
X2.2675 Y2.2488
X2.2751 Y2.2455
X2.2829 Y2.2429
X2.2909 Y2.2408
X2.2991 Y2.2393
X2.3073 Y2.2384
X2.3156 Y2.2381
X2.3238 Y2.2385
X2.332 Y2.2395
X2.3401 Y2.2411
X2.3481 Y2.2433
X2.3559 Y2.2461
X2.3635 Y2.2494
X2.365 Y2.2519
X2.366 Y2.2546
X2.3665 Y2.2575
X2.3664 Y2.2605
X2.3658 Y2.2634
X2.3646 Y2.2661
X2.3629 Y2.2685
X2.3607 Y2.2706
X2.3555 Y2.2746
X2.2319 Y2.3687
X2.2294 Y2.3706 F50.
G3 X2.2059 Y2.3648 I-0.0094 J-0.0124
G1 X2.2015 Y2.3583 F60.
X2.1976 Y2.3516
X2.1943 Y2.3446
X2.1915 Y2.3373
X2.1893 Y2.3298
X2.1877 Y2.3222
X2.1867 Y2.3145
X2.1863 Y2.3067
X2.1865 Y2.2989
X2.1873 Y2.2912
X2.1887 Y2.2835
X2.1907 Y2.276
X2.1932 Y2.2687
X2.1964 Y2.2616
X2.2001 Y2.2547
X2.2043 Y2.2481
X2.209 Y2.2419
X2.2141 Y2.2361
X2.2197 Y2.2307
X2.2257 Y2.2258
X2.2321 Y2.2213
X2.2388 Y2.2174
X2.2458 Y2.214
X2.2531 Y2.2111
X2.2605 Y2.2088
X2.2681 Y2.2071
X2.2758 Y2.206
X2.2836 Y2.2055
X2.2913 Y2.2056
X2.2991 Y2.2063
X2.3068 Y2.2076
X2.3143 Y2.2095
X2.3217 Y2.212
X2.3288 Y2.215
X2.3357 Y2.2186
X2.3423 Y2.2228
X2.3486 Y2.2274
X2.3545 Y2.2325
X2.3599 Y2.238
X2.3649 Y2.244
X2.3695 Y2.2503
X2.3735 Y2.257
X2.377 Y2.2639
X2.38 Y2.2711
X2.3823 Y2.2785
X2.3841 Y2.2861
X2.3853 Y2.2938
X2.3859 Y2.3015
G3 X2.447 Y2.4895 I-1.107 J0.4633
X2.2846 Y2.6302 I-0.1316 J0.0121
G1 X2.2713 Y2.5836
X2.2584 Y2.5365
X2.258 Y2.5353
G3 X2.2623 Y2.5204 I0.0151 J-0.0037
X2.3068 Y2.5308 I0.0189 J0.0196
X2.2983 Y2.601 I-0.0741 J0.0266
X2.2891 Y2.6124 I-0.0656 J-0.0436 F50.
G2 X2.2852 Y2.6275 I0.0111 J0.0109
G1 X2.2862 Y2.6306 F60.
X2.2876 Y2.6436
X2.2923 Y2.6503
X2.2975 Y2.6567
X2.3031 Y2.6627
X2.3092 Y2.6683
X2.3156 Y2.6735
X2.3224 Y2.6781
X2.3295 Y2.6823
X2.3369 Y2.6859
X2.3445 Y2.689
X2.3524 Y2.6915
X2.3603 Y2.6934
X2.3685 Y2.6948
X2.3767 Y2.6956
X2.3849 Y2.6958
X2.3931 Y2.6954
X2.4013 Y2.6944
X2.4094 Y2.6928
X2.4173 Y2.6906
X2.4251 Y2.6879
X2.4326 Y2.6846
X2.4399 Y2.6808
X2.4469 Y2.6765
X2.4536 Y2.6716
X2.4599 Y2.6663
X2.4658 Y2.6606
X2.4712 Y2.6544
X2.4762 Y2.6479
X2.4808 Y2.641
X2.4848 Y2.6339
G2 X2.447 Y2.4895 I-2.6466 J0.6162
X2.4354 Y2.4791 I-0.0148 J0.0048
X2.4043 Y2.5019 I-0.0054 J0.0253
X2.4632 Y2.6155 I0.1176 J0.0111
X2.4763 Y2.622 I0.0587 J-0.1025 F50.
G3 X2.4858 Y2.6344 I-0.006 J0.0143
G1 X2.4894 Y2.6735 F60.
X2.4897 Y2.6758
X2.4898 Y2.6777
G3 X2.2701 Y2.7482 I-0.1318 J-0.033
G1 X2.2777 Y2.7247
X2.2912 Y2.6777
X2.2876 Y2.6436
G3 X2.2944 Y2.6296 I0.0155 J-0.0011
X2.3438 Y2.6542 I0.0177 J0.0263
X2.2974 Y2.7301 I-0.0786 J0.0041
X2.2836 Y2.7349 I-0.0323 J-0.0718 F50.
G2 X2.2723 Y2.7456 I0.0036 J0.0151
G1 X2.2672 Y2.7652 F60.
X2.2687 Y2.7735
X2.2707 Y2.7816
X2.2734 Y2.7896
X2.2766 Y2.7973
X2.2803 Y2.8048
X2.2846 Y2.812
X2.2894 Y2.8189
X2.2947 Y2.8254
X2.3005 Y2.8315
X2.3067 Y2.8372
X2.3133 Y2.8424
X2.3202 Y2.8471
X2.3275 Y2.8513
X2.3351 Y2.8549
X2.3429 Y2.858
X2.3509 Y2.8605
X2.359 Y2.8624
X2.3673 Y2.8637
X2.3757 Y2.8644
X2.3841 Y2.8645
X2.3924 Y2.864
X2.4008 Y2.8629
X2.409 Y2.8612
X2.417 Y2.8588
X2.4249 Y2.8559
X2.4325 Y2.8525
X2.4399 Y2.8484
X2.447 Y2.8439
G2 X2.4898 Y2.6777 I-5.3185 J-1.4611
X2.4804 Y2.6653 I-0.0154 J0.002
X2.4215 Y2.6855 I-0.0181 J0.0433
X2.4327 Y2.8182 I0.1028 J0.0582
X2.4426 Y2.829 I0.0916 J-0.0745 F50.
G3 X2.447 Y2.8439 I-0.0107 J0.0112
G1 X2.4408 Y2.8659 F60.
X2.4362 Y2.8788
X2.4308 Y2.886
X2.4248 Y2.8928
X2.4184 Y2.8991
X2.4116 Y2.905
X2.4043 Y2.9104
X2.3967 Y2.9153
X2.3888 Y2.9197
X2.3807 Y2.9234
X2.3722 Y2.9267
X2.3636 Y2.9293
X2.3548 Y2.9313
X2.3459 Y2.9327
X2.3369 Y2.9335
X2.3279 Y2.9336
X2.3188 Y2.9332
X2.3099 Y2.9321
X2.301 Y2.9303
X2.2923 Y2.928
X2.2838 Y2.9251
X2.2755 Y2.9216
X2.2674 Y2.9175
X2.2597 Y2.9129
X2.2523 Y2.9077
X2.2452 Y2.9021
X2.2386 Y2.8959
X2.2324 Y2.8894
X2.2267 Y2.8824
X2.2215 Y2.875
X2.2168 Y2.8673
X2.2127 Y2.8593
X2.2146 Y2.8569
X2.2169 Y2.855
X2.2195 Y2.8535
X2.2223 Y2.8525
X2.2251 Y2.8521
X2.228
X2.2442 Y2.8527
X2.4196 Y2.8586
X2.4219 F50.
G3 X2.4362 Y2.8788 I-0.0005 J0.0155
X2.3659 Y2.9773 I-0.1815 J-0.0553 F60.
G1 X2.3627 Y2.98
X2.3613 Y2.9813
X2.3599 Y2.9824
X2.359 Y2.983
G3 X2.345 Y2.9797 I-0.0051 J-0.0097
X2.3491 Y2.9635 I0.0088 J-0.0064
X2.3613 Y2.9813 I0.0047 J0.0098 F50.
G1 X2.3601 Y2.9823 F60.
X2.3483 Y2.9891
G3 X2.2543 Y2.9969 I-0.0557 J-0.1009
X2.2621 Y2.9693 I0.0096 J-0.0122
G1 X2.3383 Y2.9605
G3 X2.3488 Y2.963 I0.0018 J0.0154
X2.3483 Y2.9891 I-0.0087 J0.0129 F50.
G1 X2.342 Y2.9933 F60.
X2.3353 Y2.9969
X2.3283 Y3.
X2.3211 Y3.0025
X2.3138 Y3.0045
X2.3063 Y3.0059
X2.2987 Y3.0067
X2.2911 Y3.0069
X2.2835 Y3.0065
X2.276 Y3.0054
X2.2686 Y3.0038
X2.2613 Y3.0017
X2.2542 Y2.9989
X2.2473 Y2.9956
X2.2407 Y2.9918
X2.2345 Y2.9874
X2.2286 Y2.9826
X2.2231 Y2.9773
X2.2181 Y2.9716
X2.2135 Y2.9656
X2.2094 Y2.9592
X2.2058 Y2.9524
X2.2028 Y2.9455
X2.2003 Y2.9383
X2.1984 Y2.9309
X2.1971 Y2.9234
X2.1964 Y2.9158
X2.1962 Y2.9082
X2.1967 Y2.9006
X2.1978 Y2.8931
X2.1995 Y2.8857
X2.2017 Y2.8784
X2.2046 Y2.8713
X2.2079 Y2.8645
X2.2118 Y2.858
X2.2162 Y2.8518
X2.2211 Y2.8459
X2.2264 Y2.8405
X2.2322 Y2.8355
X2.2383 Y2.831
X2.2447 Y2.8269
X2.2515 Y2.8234
X2.2655 Y2.7718
X2.266 Y2.7699
X2.2672 Y2.7652
G3 X2.1936 Y2.6596 I0.0433 J-0.1087
X2.0903 Y2.2777 I1.9524 J-0.7329
X2.4855 Y2.304 I0.1956 J0.0425
X2.549 Y2.8472 I-0.6011 J0.3457
X2.3516 Y3.0926 I-0.3252 J-0.0596
X2.1344 Y2.812 I-0.0502 J-0.1855
X2.066 Y2.5856 I11.1446 J-3.4934
G2 X2.0251 Y2.3718 I-0.6725 J0.0177
G1 X2.0213 Y2.3598
X2.018 Y2.3477
X2.0153 Y2.3354
X2.0133 Y2.323
X2.0118 Y2.3105
X2.0109 Y2.298
X2.0107 Y2.2854
X2.011 Y2.2728
X2.012 Y2.2603
X2.0135 Y2.2478
X2.0157 Y2.2354
X2.0184 Y2.2232
X2.0218 Y2.2111
X2.0257 Y2.1991
X2.0302 Y2.1874
X2.0352 Y2.1759
X2.0408 Y2.1646
X2.0469 Y2.1537
X2.0536 Y2.143
X2.0608 Y2.1327
X2.0684 Y2.1227
X2.0765 Y2.1131
X2.0851 Y2.1039
X2.0941 Y2.0952
X2.1035 Y2.0869
X2.1134 Y2.079
X2.1235 Y2.0716
X2.1341 Y2.0648
X2.1449 Y2.0584
X2.156 Y2.0526
X2.1674 Y2.0473
X2.1791 Y2.0426
X2.1909 Y2.0384
X2.203 Y2.0348
X2.2152 Y2.0318
X2.2275 Y2.0294
X2.2399 Y2.0276
X2.2525 Y2.0264
X2.265 Y2.0258
X2.3132 Y2.037
X2.3367 Y2.0407
X2.3544 Y2.0425
G3 X2.5683 Y2.2318 I-0.0798 J0.3056
G2 X2.6077 Y2.3719 I0.4062 J-0.0387
G3 X2.4487 Y3.1611 I-0.5697 J0.2958
X2.3834 Y3.1788 I-0.0937 J-0.2162
G1 X2.3603 Y3.1801
X2.3367 Y3.183
X2.3238 Y3.1859
G3 X2.0209 Y2.8621 I-0.0333 J-0.2724
G2 X2.0658 Y2.5856 I-0.6479 J-0.247
G3 X2.073 Y2.5719 I0.0155 J-0.0006
X2.115 Y2.5744 I0.0192 J0.0304
X2.0477 Y2.8505 I-0.0996 J0.122
X2.0332 Y2.8529 I-0.0323 J-0.1541 F50.
G2 X2.0207 Y2.8621 I0.0018 J0.0154
G1 X2.0006 Y2.913 F60.
X1.9892 Y2.9365
X1.9755 Y2.9601
G2 X1.9633 Y3.0286 I0.0485 J0.044
G1 X2.125 Y3.2133
G2 X2.1589 Y3.2365 I0.0292 J-0.0063
G3 X2.3238 Y3.1859 I0.2482 J0.5141
G2 X2.3171 Y3.1555 I-0.0034 J-0.0152
X2.3054 Y3.1747 I0.0034 J0.0152
X2.3251 Y3.1855 I0.015 J-0.004
G1 X2.3651 Y3.1728
G2 X2.376 Y3.158 I-0.0047 J-0.0148
X2.3449 I-0.0155 J0.
X2.3533 Y3.1718 I0.0155 J0.
X2.3834 Y3.1788 I0.0286 J-0.0553 F50.
G3 X2.4908 Y3.1784 I0.0551 J0.3615 F60.
G2 X2.6345 Y3.1015 I0.0015 J-0.1697
G3 X2.7296 Y2.7717 I0.3566 J-0.0758
G2 X2.7648 Y2.5596 I-0.2168 J-0.1449
G3 X2.6077 Y2.3719 I0.2673 J-0.3832
G2 X2.5789 Y2.3819 I-0.0134 J0.0078
G3 X2.5637 Y2.3996 I-0.0154 J0.0022
X2.5481 Y2.3822 I-0.0002 J-0.0155
G1 X2.5618 Y2.2668
X2.5622 Y2.2645
X2.563 Y2.2623
G2 X2.5683 Y2.2318 I-0.0568 J-0.0256 F50.
G3 X2.5664 Y2.1366 I0.2743 J-0.0531 F60.
G2 X2.5264 Y2.0431 I-0.0763 J-0.0227
G3 X2.3544 Y2.0425 I-0.0841 J-0.6289
X2.3523 Y2.0735 I-0.0011 J0.0155
X2.3455 Y2.0715 I0.0011 J-0.0155
G1 X2.2886 Y2.0382
G2 X2.2729 Y2.0651 I-0.0078 J0.0134
X2.2917 Y2.0406 I0.0078 J-0.0134
X2.265 Y2.025 I-0.0439 J0.0443 F50.
G1 X2.2411 Y2.019 F60.
X2.2191 Y2.012
X2.1783 Y1.9955
G2 X2.14 Y1.9936 I-0.0206 J0.0282
G1 X1.9604 Y2.1988
X1.9483 Y2.214
X1.948 Y2.2149
X1.9479 Y2.2157
X1.9482 Y2.2166
G3 X2.0247 Y2.3719 I-0.5044 J0.3451
G2 X2.0532 Y2.3595 I0.0142 J-0.0062
G1 X1.986 Y2.2034
Y2.2033 F50.
G2 X1.9604 Y2.1988 I-0.0143 J0.0061
G1 X1.9478 Y2.2131 F60.
X1.9472 Y2.2138
X1.9473 Y2.2146
X1.9479 Y2.216
X1.9482 Y2.2166
X1.9548 Y2.2176
X1.9715 Y2.2016
X2.1631 Y2.0181
X2.1795 Y2.0023 F50.
X2.1783 Y1.9955
G2 X2.14 Y1.9936 I-0.0195 J0.0062 F60.
G0 Z0.4
X2.5466 Y2.1783
Z-0.1864
G1 Z-0.202 F50.
X2.5468 Y2.1781 Z-0.205
X2.5473 Y2.1773 Z-0.2079
X2.5481 Y2.1762 Z-0.2106
X2.5492 Y2.1746 Z-0.2129
X2.5506 Y2.1726 Z-0.2149
X2.5521 Y2.1704 Z-0.2163
X2.5538 Y2.1681 Z-0.2172
X2.5555 Y2.1656 Z-0.2175
G2 X2.5664 Y2.1366 I-0.051 J-0.0358
G1 X2.5682 Y2.1131 F60.
X2.5713 Y2.0896
X2.5811 Y2.0531
X2.5824 Y2.0473
Y2.0465
X2.5815 Y2.0417
X2.5786 Y2.0378
X2.5743 Y2.0355
X2.5694 Y2.0353
X2.5264 Y2.0431
G2 X2.5146 Y2.0619 I0.0033 J0.0152
X2.5337 Y2.0733 I0.0151 J-0.0036
G1 X2.5555 Y2.0675
X2.5702 Y2.0636 F50.
G2 X2.5811 Y2.0531 I-0.004 J-0.015
G1 X2.5858 Y2.0356 F60.
X2.5864 Y2.0327
X2.5861 Y2.0323
X2.5694 Y2.0353
G2 X2.5663 Y2.0373 I0.0011 J0.0053
X2.5734 Y2.0451 I0.0043 J0.0033 F50.
G1 X2.5836 Y2.0386
X2.5849 Y2.0373
X2.5858 Y2.0356
X2.5866 Y2.0328 F60.
X2.5864 Y2.0327
X2.5841 Y2.0336 Z-0.2158
Y2.0341 Z-0.2141
G0 Z0.4
X2.0115 Y2.9312
Z-0.1864
G1 Z-0.202 F50.
X2.0113 Y2.9314 Z-0.205
X2.0105 Y2.9318 Z-0.2079
X2.0092 Y2.9325 Z-0.2106
X2.0076 Y2.9335 Z-0.2129
X2.0055 Y2.9346 Z-0.2149
X2.0031 Y2.9359 Z-0.2163
X2.0006 Y2.9373 Z-0.2172
X1.9979 Y2.9388 Z-0.2175
G2 X1.9755 Y2.9601 I0.0303 J0.0545
X1.9475 Y3.0105 I0.0692 J0.0715 F60.
G1 X1.9633 Y3.0286
G2 X1.9896 Y3.0132 I0.0117 J-0.0102
G3 X2.0098 Y2.9936 I0.0147 J-0.0051
G1 X2.4585 Y3.1647
X2.4604 Y3.1656
X2.4622 Y3.1667
G2 X2.4908 Y3.1784 I0.037 J-0.0501 F50.
G1 X2.5485 Y3.1842 F60.
X2.572 Y3.1883
X2.5849 Y3.1917
G2 X2.6552 Y3.1785 I0.0255 J-0.0581
G1 X2.6546 Y3.1732
X2.6426 Y3.1416
X2.638 Y3.1282
G2 X2.6261 Y3.1183 I-0.0145 J0.0055
X2.61 Y3.137 I-0.0024 J0.0142
X2.6284 Y3.1592 I0.0374 J-0.0122
X2.6423 Y3.1638 I0.019 J-0.0345 F50.
G3 X2.6546 Y3.1732 I-0.002 J0.0154
G1 X2.6604 Y3.1887 F60.
X2.6608 Y3.1898
X2.6614 Y3.1915
X2.6633 Y3.1972
X2.6632 Y3.1979
X2.663 Y3.1999
X2.6623 Y3.2018
X2.6613 Y3.2036
X2.6553 Y3.2017 F50.
X2.655 Y3.1929
X2.6614 Y3.1915
X2.6629 Y3.1953 F60.
X2.6641 Y3.1994
X2.6639 Y3.1998
X2.6633 Y3.2007
X2.6574 Y3.2093
X2.6568 Y3.2101
X2.6562
X2.6527 Y3.2097
X2.5849 Y3.1917
G3 X2.5777 Y3.1667 I0.0045 J-0.0149
G1 X2.5797 Y3.1644 Z-0.2172
X2.5816 Y3.1622 Z-0.2163
X2.5833 Y3.1601 Z-0.2149
X2.5849 Y3.1584 Z-0.2129
X2.5861 Y3.1569 Z-0.2106
X2.5871 Y3.1558 Z-0.2079
X2.5876 Y3.1551 Z-0.205
X2.5878 Y3.1549 Z-0.202
G0 Z0.4
X2.6879 Y2.7912
Z-0.1864
G1 Z-0.202 F50.
X2.6882 Y2.7911 Z-0.205
X2.6891 Y2.7909 Z-0.2079
X2.6904 Y2.7905 Z-0.2106
X2.6923 Y2.79 Z-0.2129
X2.6946 Y2.7894 Z-0.2149
X2.6972 Y2.7887 Z-0.2163
X2.7 Y2.7879 Z-0.2172
X2.7029 Y2.7871 Z-0.2175
G2 X2.7298 Y2.7718 I-0.0164 J-0.0601
G3 X2.8072 Y2.7086 I0.1946 J0.1592 F60.
G2 X2.8296 Y2.6827 I-0.0156 J-0.036
G1 X2.832 Y2.5994
G2 X2.7648 Y2.5596 I-0.5602 J0.8678
X2.7416 Y2.5777 I-0.0085 J0.013
G1 X2.7835 Y2.6973
X2.7846 Y2.7004 F50.
G2 X2.8072 Y2.7086 I0.0147 J-0.0051
X2.8296 Y2.6827 I0.0017 J-0.0211 F60.
X2.8203 Y2.6686 I-0.0155 J0.0001
G1 X2.8175 Y2.6674 Z-0.2172
X2.8148 Y2.6662 Z-0.2163
X2.8124 Y2.6651 Z-0.2149
X2.8102 Y2.6642 Z-0.2129
X2.8084 Y2.6634 Z-0.2106
X2.8071 Y2.6628 Z-0.2079
X2.8063 Y2.6625 Z-0.205
X2.806 Y2.6623 Z-0.202
G0 Z-0.1864
X2.1092 Y3.1699
G1 Z-0.202 F50.
X2.1093 Y3.1702 Z-0.205
X2.1094 Y3.1711 Z-0.2079
X2.1097 Y3.1725 Z-0.2106
X2.11 Y3.1744 Z-0.2129
X2.1105 Y3.1767 Z-0.2149
X2.1109 Y3.1793 Z-0.2163
X2.1115 Y3.1822 Z-0.2172
X2.112 Y3.1852 Z-0.2175
G2 X2.125 Y3.2133 I0.0613 J-0.0113
X2.1589 Y3.2365 I0.0223 J0.0038 F60.
G1 X2.1615 Y3.2351
X2.1637 Y3.2331
X2.1656 Y3.2308
X2.167 Y3.2282
X2.1679 Y3.2254
X2.1682 Y3.2224
Y3.2194 Z-0.2172
X2.1683 Y3.2165 Z-0.2163
Y3.2138 Z-0.2149
Y3.2114 Z-0.2129
Y3.2095 Z-0.2106
Y3.2081 Z-0.2079
Y3.2072 Z-0.205
Y3.2069 Z-0.202
G0 Z0.4
X-0.9054 Y0.4456
Z0.1
G3 X-1.0145 Y0.3462 Z0.0591 I-0.0546 J-0.0497 F50.
X-0.9054 Y0.4456 Z0.0182 I0.0546 J0.0497
X-1.0145 Y0.3462 Z-0.0227 I-0.0546 J-0.0497
X-0.9054 Y0.4456 Z-0.0636 I0.0546 J0.0497
X-1.0145 Y0.3462 Z-0.1044 I-0.0546 J-0.0497
X-0.9054 Y0.4456 Z-0.1453 I0.0546 J0.0497
X-1.0145 Y0.3462 Z-0.1862 I-0.0546 J-0.0497
X-0.8862 Y0.3959 Z-0.2175 I0.0546 J0.0497
X-1.0338 I-0.0738 J0.
X-0.8864 Y0.3898 I0.0738 J0.
G1 X-0.8862 Y0.3959
G3 X-1.0533 Y0.5114 I-0.0851 J0.0555 F60.
X-0.8689 Y0.2633 I0.0922 J-0.124
X-0.8098 Y0.3561 I-0.0922 J0.124
X-1.109 Y0.5839 I-0.1611 J0.0988
X-1.1473 Y0.2267 I0.1328 J-0.1949
G1 X-1.0978 Y0.1916
G3 X-0.791 Y0.2082 I0.1434 J0.1917
G1 X-0.7896 Y0.211
X-0.7887 Y0.2139
X-0.7885 Y0.217
X-0.7888 Y0.2201
X-0.7898 Y0.223
X-0.7913 Y0.2257
X-0.7933 Y0.2281
X-0.7957 Y0.2299
X-0.7985 Y0.2313
X-0.8015 Y0.2321
G3 X-0.8047 Y0.2323 I-0.0025 J-0.0153
G1 X-1.0891 Y0.2194
X-1.0914 Y0.2191
X-1.0937 Y0.2185
X-1.0958 Y0.2175
G3 X-1.0978 Y0.1916 I0.0074 J-0.0136 F50.
G1 X-0.9566 Y0.0913 F60.
G3 X-0.8837 Y0.0778 I0.0472 J0.0512
X-0.8916 Y0.1011 I-0.013 J0.0086
G1 X-0.8941 Y0.1019
X-0.9422 Y0.1184
G3 X-0.9547 Y0.1173 I-0.005 J-0.0147
X-0.9566 Y0.0913 I0.0074 J-0.0136 F50.
G1 X-0.9018 Y0.0524 F60.
X-0.9012 Y0.0531
X-0.7331 Y0.2899
G3 X-0.6905 Y0.5146 I-0.2128 J0.1568
X-0.7186 Y0.509 I-0.0129 J-0.0087
G1 X-0.7607 Y0.3024
G3 X-0.7591 Y0.2918 I0.0152 J-0.0031
X-0.7331 Y0.2899 I0.0136 J0.0074 F50.
G1 X-0.6286 Y0.4369 F60.
G2 X-0.7468 Y0.6075 I0.6061 J0.5462
G3 X-0.8037 Y0.6678 I-0.06 J0.0005
X-0.8101 Y0.6448 I0.0063 J-0.0142
G1 X-0.8081 Y0.6418
X-0.7739 Y0.5925
G3 X-0.7614 Y0.5858 I0.0128 J0.0089
X-0.7468 Y0.6075 I0.0003 J0.0155 F50.
G1 X-0.7794 Y0.677 F60.
G2 X-1.0743 Y0.6674 I-0.1587 J0.341
G3 X-1.2965 Y0.3373 I0.0119 J-0.2478
G1 X-1.2982 Y0.3339
X-1.1473 Y0.2267
G3 X-1.1318 Y0.2258 I0.0086 J0.013
X-1.1166 Y0.2607 I-0.0133 J0.0265
X-1.2692 Y0.3387 I-0.1133 J-0.0334
X-1.2827 Y0.333 I0.0393 J-0.1114 F50.
G2 X-1.2982 Y0.3339 I-0.0069 J0.0139
G1 X-1.3435 Y0.3661 F60.
G2 X-1.2805 Y0.685 I0.2032 J0.1255
G1 X-1.139 Y0.6991
G2 X-1.0743 Y0.6674 I-0.0249 J-0.1327
X-1.0664 Y0.654 I-0.0076 J-0.0135
X-1.0987 Y0.6125 I-0.0422 J-0.0004
X-1.2579 Y0.6663 I-0.037 J0.1531
X-1.2666 Y0.6781 I0.1222 J0.0993 F50.
G3 X-1.2805 Y0.685 I-0.0129 J-0.0086
G1 X-1.3426 Y0.6788 F60.
G3 X-1.4727 Y0.4578 I0.0658 J-0.1875
G1 X-1.3435 Y0.3661
G3 X-1.328 Y0.3652 I0.0086 J0.013
X-1.3155 Y0.429 I-0.0184 J0.0368
X-1.4437 Y0.4626 I-0.0889 J-0.0777
X-1.4572 Y0.4569 I0.0393 J-0.1114 F50.
G2 X-1.4727 Y0.4578 I-0.0069 J0.0139
G1 X-1.5038 Y0.4799 F60.
G2 X-1.5068 Y0.6634 I0.0976 J0.0934
G1 X-1.3426 Y0.6788
G2 X-1.3287 Y0.6719 I0.001 J-0.0155
X-1.3455 Y0.6135 I-0.0331 J-0.0221
X-1.4831 Y0.644 I-0.0483 J0.1078
X-1.492 Y0.6557 I0.0893 J0.0773 F50.
G3 X-1.5059 Y0.6625 I-0.0129 J-0.0086
G1 X-1.54 Y0.6591 F60.
G3 X-1.6164 Y0.5579 I0.0194 J-0.0941
G1 X-1.6139 Y0.5564
X-1.6112 Y0.5553
X-1.6085 Y0.5547
X-1.6056 Y0.5546
X-1.6029 Y0.555
X-1.6002 Y0.5558
X-1.5978 Y0.557
X-1.5957 Y0.5586
X-1.5938 Y0.5606
X-1.5878 Y0.5672
X-1.5275 Y0.6331
X-1.5257 Y0.6355
X-1.5244 Y0.6382
G3 X-1.54 Y0.6591 I-0.0146 J0.0054 F50.
G1 X-1.6153 Y0.6516 F60.
G3 X-1.6716 Y0.5991 I-0.0105 J-0.0452
X-1.6562 Y0.5982 I0.0086 J0.013
G1 X-1.643 Y0.6047
X-1.6075 Y0.6222
G3 X-1.5998 Y0.6307 I-0.0069 J0.0139
X-1.6153 Y0.6516 I-0.0146 J0.0054 F50.
X-1.6793 Y0.6046 I-0.0145 J-0.0473 F60.
G1 X-1.5038 Y0.4799
G3 X-1.4891 Y0.4786 I0.0086 J0.013
G1 X-1.4871 Y0.48 Z-0.2173
X-1.4853 Y0.4814 Z-0.2168
X-1.4835 Y0.4827 Z-0.2159
X-1.4825 Y0.4845 Z-0.2146
X-1.4816 Y0.4862 Z-0.2129
X-1.4808 Y0.4876 Z-0.211
X-1.4802 Y0.4887 Z-0.2089
X-1.48 Y0.4896 Z-0.2067
X-1.4799 Y0.4902 Z-0.2044
Y0.4903 Z-0.202
G0 Z0.4
X-0.5255 Y2.0055
Z-0.1864
G1 Z-0.202 F50.
X-0.5257 Y2.0057 Z-0.205
X-0.5263 Y2.0064 Z-0.2079
X-0.5272 Y2.0075 Z-0.2106
X-0.5284 Y2.009 Z-0.2129
X-0.5299 Y2.0108 Z-0.2149
X-0.5316 Y2.0129 Z-0.2163
X-0.5335 Y2.0151 Z-0.2172
X-0.5354 Y2.0175 Z-0.2175
G3 X-0.5967 Y2.077 I-0.3056 J-0.253
X-0.7516 Y2.0608 I-0.07 J-0.079 F60.
X-0.8409 Y1.7333 I0.0926 J-0.2012
X-0.5177 Y1.764 I0.1502 J0.1353
X-0.2836 Y2.0437 I-0.2104 J0.414
X-0.5901 Y2.208 I-0.1873 J0.0187
X-0.8013 Y2.1416 I0.0045 J-0.3831
G1 X-0.9331 Y1.9601
X-0.9391 Y1.9489
X-0.9446 Y1.9373
X-0.9495 Y1.9256
X-0.9538 Y1.9136
X-0.9575 Y1.9014
X-0.9606 Y1.889
X-0.9632 Y1.8766
X-0.9651 Y1.864
X-0.9663 Y1.8513
X-0.967 Y1.8386
X-0.9671 Y1.8258
X-0.9665 Y1.8131
X-0.9653 Y1.8004
X-0.9635 Y1.7878
X-0.961 Y1.7753
X-0.958 Y1.7629
X-0.9544 Y1.7507
X-0.9502 Y1.7387
X-0.9453 Y1.7269
X-0.94 Y1.7153
X-0.934 Y1.7041
X-0.9276 Y1.6931
X-0.9206 Y1.6825
X-0.913 Y1.6722
X-0.905 Y1.6623
X-0.8966 Y1.6527
X-0.8876 Y1.6437
X-0.8783 Y1.635
X-0.8685 Y1.6269
X-0.8583 Y1.6192
X-0.8478 Y1.612
X-0.8369 Y1.6053
X-0.8258 Y1.5992
X-0.8143 Y1.5937
X-0.8026 Y1.5887
X-0.7906 Y1.5842
X-0.7785 Y1.5804
X-0.7662 Y1.5772
X-0.7537 Y1.5745
X-0.7411 Y1.5725
X-0.7285 Y1.5711
X-0.7157 Y1.5703
X-0.703 Y1.5702
X-0.6903 Y1.5706
X-0.6776 Y1.5717
X-0.665 Y1.5734
X-0.6524 Y1.5757
X-0.64 Y1.5786
X-0.6278 Y1.5821
X-0.6157 Y1.5862
X-0.6039 Y1.5909
G2 X-0.3921 Y1.7468 I0.6133 J-0.6115
G3 X-0.2007 Y1.9811 I-0.1981 J0.3571
X-0.2281 Y1.9903 I-0.0155 J-0.0008
G1 X-0.41 Y1.7711
G3 X-0.4136 Y1.7615 I0.012 J-0.0099
X-0.3921 Y1.7468 I0.0155 J-0.0003 F50.
G2 X-0.2274 Y1.8113 I0.3229 J-0.582 F60.
G3 X-0.1985 Y1.8319 I0.0012 J0.0289
X-0.2182 Y1.8461 I-0.0155 J-0.0008
G1 X-0.2211 Y1.8453
X-0.2355 Y1.8413
G3 X-0.2467 Y1.8288 I0.0042 J-0.015
X-0.2274 Y1.8113 I0.0153 J-0.0025 F50.
G1 X-0.199 Y1.8199 F60.
X-0.1983 Y1.8206
X-0.2026 Y2.1131
G3 X-0.4674 Y2.3426 I-0.2574 J-0.0295
G2 X-0.5567 Y2.3181 I-0.105 J0.2079
G3 X-0.6934 Y2.2899 I-0.0093 J-0.3006
X-0.6779 Y2.2659 I0.0129 J-0.0087
G1 X-0.5523 Y2.2874
G3 X-0.5401 Y2.2981 I-0.0026 J0.0153
X-0.5567 Y2.3181 I-0.0148 J0.0046 F50.
X-0.674 Y2.3166 I-0.0148 J-3.4699 F60.
G1 X-0.8013 Y2.1416
G3 X-0.8023 Y2.1261 I0.0129 J-0.0087
X-0.7328 Y2.0856 I0.0649 J0.0316
X-0.4786 Y2.3155 I-0.0177 J0.275
G1 X-0.4766 Y2.33 F50.
G2 X-0.4674 Y2.3425 I0.0154 J-0.0017
G3 X-0.4095 Y2.3719 I-0.0479 J0.1662 F60.
G2 X-0.2056 Y2.3215 I0.0707 J-0.1517
G1 X-0.2026 Y2.1131
G2 X-0.2293 Y2.1027 I-0.0155 J0.0003
X-0.2559 Y2.2439 I0.0947 J0.091
X-0.2232 Y2.297 I0.1819 J-0.0753
X-0.2104 Y2.3106 I0.1492 J-0.1284 F50.
G3 X-0.2056 Y2.3215 I-0.0108 J0.0112
G1 X-0.2063 Y2.3719 F60.
G3 X-0.3062 Y2.4679 I-0.1122 J-0.0168
G2 X-0.4095 Y2.3719 I-0.257 J0.173
G3 X-0.4157 Y2.3577 I0.0093 J-0.0125
X-0.4079 Y2.3481 I0.0113 J0.0013
G1 X-0.4063 Y2.3476
G3 X-0.3055 Y2.4356 I0.0231 J0.0753
X-0.3092 Y2.4498 I-0.0777 J-0.0128 F50.
G2 X-0.3065 Y2.4651 I0.0146 J0.0053
G1 X-0.3056 Y2.466 F60.
X-0.298 Y2.4772
X-0.2968 Y2.4793
G2 X-0.2063 Y2.491 I0.0511 J-0.039
G1 Y2.3719
G2 X-0.2351 Y2.3641 I-0.0155 J0.0003
G1 X-0.2885 Y2.4513
X-0.2963 Y2.464 F50.
G2 X-0.2968 Y2.4793 I0.0133 J0.0081
G1 X-0.2689 Y2.5285 F60.
G2 X-0.2089 Y2.5475 I0.0357 J-0.0084
G1 X-0.208 Y2.4888
G2 X-0.216 Y2.4755 I-0.0155 J0.0003
X-0.2318 Y2.4798 I-0.0057 J0.0102
X-0.2281 Y2.525 I0.0339 J0.02
X-0.2169 Y2.5342 I0.0303 J-0.0252 F50.
G3 X-0.2089 Y2.5475 I-0.0075 J0.0136
G1 X-0.2091 Y2.5623 F60.
G3 X-0.2477 Y2.586 I-0.0232 J0.0056
X-0.2405 Y2.5517 I0.0381 J-0.0099
X-0.2303 Y2.5454 I0.0138 J0.0109
X-0.2091 Y2.5623 I0.0036 J0.0172 F50.
G1 X-0.2096 Y2.5998 F60.
X-0.21 Y2.6058
X-0.2118 Y2.6115
X-0.2147 Y2.6168
X-0.2184 Y2.6215
X-0.2206 Y2.6235
X-0.2256 Y2.6261
X-0.2313 Y2.6259
X-0.2361 Y2.6229
X-0.2388 Y2.6179
G3 X-0.2365 Y2.5946 I0.0386 J-0.008
X-0.2322 Y2.589 I0.0129 J0.0054
X-0.2096 Y2.5998 I0.0086 J0.011 F50.
G1 X-0.2101 Y2.6307 F60.
X-0.2104 Y2.6367
X-0.2124 Y2.6423
X-0.2158 Y2.6473
X-0.2162 Y2.6477
X-0.2204 Y2.6503
X-0.2254 Y2.6508
X-0.2301 Y2.6491
X-0.2335 Y2.6454
X-0.2349 Y2.6407
G2 X-0.2689 Y2.5285 I-0.3763 J0.0528
G3 X-0.2607 Y2.5069 I0.0138 J-0.0072
X-0.2401 Y2.5173 I0.0056 J0.0145
G1 X-0.2176 Y2.6008
X-0.2106 Y2.627 F50.
X-0.2102 Y2.6288
X-0.2101 Y2.6307
X-0.2104 Y2.6542 F60.
X-0.2108 Y2.6602
X-0.213 Y2.6658
X-0.2137 Y2.6667
X-0.2178 Y2.6701
X-0.223 Y2.6711
X-0.2281 Y2.6696
X-0.2319 Y2.6659
X-0.2335 Y2.6608
G3 X-0.2329 Y2.6523 I0.0394 J-0.0012
X-0.2322 Y2.6501 I0.0111 J0.0021
X-0.2104 Y2.6542 I0.0105 J0.0043 F50.
G1 X-0.2107 Y2.6757 F60.
X-0.2111 Y2.6817
X-0.2115 Y2.6825
X-0.2153 Y2.6868
X-0.2207 Y2.6886
X-0.2263 Y2.6875
X-0.2306 Y2.6838
X-0.2324 Y2.6783
X-0.234 Y2.6542
X-0.2349 Y2.6407
G3 X-0.2244 Y2.6369 I0.0059 J-0.0002
X-0.2185 Y2.6461 I-0.052 J0.0402
X-0.2107 Y2.6757 I-0.058 J0.031 F50.
G1 X-0.211 Y2.6924 F60.
X-0.2113 Y2.6984
X-0.2149 Y2.7025
X-0.2201 Y2.7043
X-0.2255 Y2.7032
X-0.2296 Y2.6996
X-0.2314 Y2.6944
Y2.6924
G3 X-0.211 I0.0102 J0.0002 F50.
G1 X-0.2112 Y2.707 F60.
X-0.2115 Y2.713
X-0.2151 Y2.7171
X-0.2202 Y2.7189
X-0.2255 Y2.7177
X-0.2295 Y2.714
X-0.2309 Y2.7087
Y2.7013
X-0.2324 Y2.6783
G3 X-0.2299 Y2.6736 I0.0054 J-0.0002
X-0.2115 Y2.6859 I0.0064 J0.0103
X-0.2132 Y2.6904 I-0.0119 J-0.002 F50.
X-0.2281 Y2.7042 I-0.0333 J-0.021
G2 X-0.2309 Y2.7087 I0.0025 J0.0048
G1 Y2.713 F60.
X-0.232 Y2.7211
X-0.2324 Y2.7271
X-0.2297 Y2.7312
X-0.2253 Y2.7337
X-0.2204 Y2.734
X-0.2158 Y2.732
X-0.2126 Y2.7282
X-0.2114 Y2.7234
X-0.2112 Y2.707
G2 X-0.2192 Y2.6937 I-0.0155 J0.0003
X-0.2293 Y2.7 I-0.0033 J0.0059
X-0.2271 Y2.7046 I0.0068 J-0.0004 F50.
X-0.2194 Y2.7101 I0.0267 J-0.029
G3 X-0.2114 Y2.7234 I-0.0075 J0.0136
G1 X-0.2116 Y2.7377 F60.
X-0.212 Y2.7437
X-0.2147 Y2.7491
X-0.216 Y2.7506
X-0.2207 Y2.7537
X-0.2263 Y2.7541
X-0.2314 Y2.7517
X-0.2346 Y2.7471
X-0.2351 Y2.7415
G3 X-0.2331 Y2.7346 I0.0386 J0.0077
G1 X-0.2327 Y2.7336 F50.
G3 X-0.2116 Y2.7377 I0.0101 J0.0043
G1 X-0.2119 Y2.7582 F60.
X-0.2123 Y2.7642
X-0.2148 Y2.7696
X-0.2186 Y2.7742
X-0.2235 Y2.7778
X-0.2237 Y2.7779
X-0.2283 Y2.7789
X-0.2329 Y2.7778
X-0.2367 Y2.775
X-0.2389 Y2.7708
X-0.2391 Y2.7661
G3 X-0.234 Y2.7531 I0.0386 J0.0077
G1 X-0.2333 Y2.7519 F50.
G3 X-0.2119 Y2.7582 I0.0097 J0.0065
G1 X-0.2123 Y2.7839 F60.
X-0.2127 Y2.7899
X-0.215 Y2.7954
X-0.2186 Y2.8002
X-0.2232 Y2.8041
X-0.2284 Y2.8071
X-0.23 Y2.8077
X-0.2356 Y2.808
X-0.2407 Y2.8056
X-0.2439 Y2.8009
X-0.2444 Y2.7952
G3 X-0.2348 Y2.7769 I0.0384 J0.0085
G1 X-0.2332 Y2.7753 F50.
G3 X-0.2123 Y2.7839 I0.0085 J0.0089
G1 X-0.2127 Y2.8141 F60.
G3 X-0.2571 Y2.8283 I-0.0227 J0.0055
X-0.238 Y2.8088 I0.0359 J0.0161
X-0.2222 Y2.8051 I0.0168 J0.0356 F50.
X-0.2127 Y2.8141 I0.0002 J0.0093
G1 X-0.2132 Y2.8507 F60.
X-0.2133 Y2.8531
G3 X-0.2509 Y2.8664 I-0.0325 J-0.0321
G1 X-0.2567 Y2.8679
X-0.2619 Y2.8671
X-0.266 Y2.8639
X-0.268 Y2.859
X-0.2674 Y2.8538
G3 X-0.2641 Y2.8483 I0.0246 J0.0107
X-0.2531 Y2.8438 I0.0093 J0.0071
X-0.2509 Y2.8664 I-0.0017 J0.0115 F50.
G1 X-0.2669 Y2.8714 F60.
X-0.2703 Y2.872
X-0.2708 Y2.8716
X-0.2726 Y2.8691
G2 X-0.2401 Y2.7718 I-1.2765 J-0.4807
G3 X-0.2304 Y2.7607 I0.0152 J0.0034
G1 X-0.2276 Y2.7602 Z-0.2172
X-0.2249 Y2.7597 Z-0.2164
X-0.2223 Y2.7602 Z-0.2151
X-0.2201 Y2.7608 Z-0.2133
X-0.2182 Y2.7612 Z-0.2111
X-0.2171 Y2.7618 Z-0.209
X-0.2163 Y2.7623 Z-0.2067
X-0.2158 Y2.7626 Z-0.2044
X-0.2157 Y2.7627 Z-0.202
G0 Z0.4
X-0.8944 Y1.9851
Z-0.1864
G1 Z-0.202 F50.
X-0.8946 Y1.985 Z-0.205
X-0.8954 Y1.9846 Z-0.2079
X-0.8968 Y1.9841 Z-0.2106
X-0.8985 Y1.9833 Z-0.2129
X-0.9007 Y1.9824 Z-0.2149
X-0.9032 Y1.9813 Z-0.2163
X-0.9058 Y1.9802 Z-0.2172
X-0.9086 Y1.979 Z-0.2175
G3 X-0.9331 Y1.9601 I0.0246 J-0.0572
G1 X-1.0185 Y1.8426 F60.
G3 X-0.7829 Y1.4962 I0.2474 J-0.085
X-0.6913 Y1.4818 I0.0541 J0.0457
G1 X-0.6744 Y1.5075
X-0.6602 Y1.525
X-0.6033 Y1.5895
G3 X-0.6007 Y1.6048 I-0.012 J0.0099
X-0.6107 Y1.6128 I-0.0117 J-0.0044
G1 X-0.612 Y1.613
G3 X-0.6967 Y1.5108 I-0.0097 J-0.0781
X-0.6909 Y1.4973 I0.075 J0.0241 F50.
G2 X-0.6913 Y1.4818 I-0.0137 J-0.0074
G1 X-0.7094 Y1.4544 F60.
G2 X-1.0083 Y1.5116 I-0.1239 J0.1618
X-1.1266 Y1.6959 I0.1464 J0.2241
G1 X-1.0185 Y1.8426
G2 X-1.0041 Y1.8484 I0.0122 J-0.0096
X-0.9761 Y1.8151 I-0.0045 J-0.0322
X-1.0959 Y1.7009 I-0.118 J0.0039
X-1.1105 Y1.702 I0.0017 J0.1181 F50.
G3 X-1.1249 Y1.6962 I-0.0021 J-0.0154
G1 X-1.1514 Y1.6597 F60.
G3 X-0.9665 Y1.3616 I0.248 J-0.0525
G1 X-0.9655 Y1.3568
G2 X-0.8264 Y1.3411 I0.0348 J-0.3145
G3 X-0.7721 Y1.3381 I0.0288 J0.0279
X-0.7817 Y1.3591 I-0.0142 J0.0062
G1 X-0.7863 Y1.3606
X-0.8157 Y1.3698
G3 X-0.8309 Y1.3664 I-0.0047 J-0.0148
X-0.8265 Y1.3407 I0.0105 J-0.0114 F50.
G1 X-0.7823 Y1.3235 F60.
G2 X-0.7095 Y1.4545 I0.8345 J-0.3782
G1 X-0.7083 Y1.4568
X-0.7075 Y1.4594
X-0.7072 Y1.4621
X-0.7074 Y1.4648
X-0.708 Y1.4674
X-0.709 Y1.4699
G3 X-0.7312 Y1.4863 I-0.0286 J-0.0155
X-0.9473 Y1.3799 I-0.0393 J-0.1929
G1 X-0.9533 Y1.3665 F50.
G2 X-0.9655 Y1.3568 I-0.0144 J0.0058
G1 X-1.0037 Y1.3526 F60.
X-1.0155 Y1.3511
X-1.0272 Y1.3481
G2 X-1.2446 Y1.5315 I-0.0017 J0.2185
G1 X-1.1514 Y1.6597
G2 X-1.137 Y1.6655 I0.0122 J-0.0096
X-1.1016 Y1.6248 I-0.0057 J-0.0407
X-1.1048 Y1.6091 I-0.0411 J0.
X-1.2156 Y1.5362 I-0.1091 J0.0452
X-1.2302 Y1.5373 I0.0017 J0.1181 F50.
G3 X-1.2446 Y1.5315 I-0.0021 J-0.0154
G1 X-1.2664 Y1.5014 F60.
X-1.2697 Y1.4922
X-1.2724 Y1.4827
X-1.2746 Y1.4731
X-1.2762 Y1.4634
X-1.2772 Y1.4536
X-1.2776 Y1.4437
X-1.2774 Y1.4339
X-1.2766 Y1.4241
X-1.2752 Y1.4143
X-1.2733 Y1.4047
X-1.2708 Y1.3951
X-1.2677 Y1.3858
X-1.2641 Y1.3766
X-1.2599 Y1.3677
X-1.2552 Y1.3591
X-1.25 Y1.3507
X-1.2443 Y1.3427
X-1.2381 Y1.335
X-1.2315 Y1.3277
X-1.2245 Y1.3208
X-1.217 Y1.3144
X-1.2092 Y1.3084
X-1.201 Y1.3029
X-1.1926 Y1.2979
X-1.1838 Y1.2934
X-1.1748 Y1.2894
X-1.1656 Y1.286
X-1.1561 Y1.2831
G2 X-1.0272 Y1.3481 I0.2012 J-0.2389
G3 X-1.0186 Y1.3683 I-0.0058 J0.0144
X-1.0635 Y1.3907 I-0.0351 J-0.0141
X-1.1454 Y1.3126 I0.0305 J-0.1141
X-1.1497 Y1.2944 I0.1125 J-0.036 F50.
G2 X-1.1558 Y1.2842 I-0.0154 J0.0023
G1 X-1.1684 Y1.2757 F60.
X-1.1742 Y1.2705
X-1.1827 Y1.2673
X-1.1914 Y1.2648
X-1.2003 Y1.2629
X-1.2092 Y1.2616
X-1.2183 Y1.2609
X-1.2273 Y1.2608
X-1.2364 Y1.2613
X-1.2454 Y1.2625
X-1.2543 Y1.2643
X-1.263 Y1.2667
X-1.2716 Y1.2696
X-1.2799 Y1.2732
X-1.288 Y1.2773
X-1.2958 Y1.282
X-1.3032 Y1.2871
X-1.3103 Y1.2928
X-1.317 Y1.2989
X-1.3232 Y1.3055
X-1.3289 Y1.3125
X-1.3342 Y1.3199
X-1.339 Y1.3276
X-1.3432 Y1.3356
X-1.3468 Y1.3439
X-1.3499 Y1.3525
X-1.3524 Y1.3612
X-1.3543 Y1.37
X-1.3556 Y1.379
X-1.2664 Y1.5014
G2 X-1.252 Y1.5073 I0.0122 J-0.0096
X-1.2208 Y1.4455 I-0.0058 J-0.0417
X-1.3263 Y1.3837 I-0.1038 J0.0564
X-1.341 Y1.3849 I0.0017 J0.1181 F50.
G3 X-1.3554 Y1.379 I-0.0021 J-0.0154
G1 X-1.3751 Y1.3519 F60.
G3 X-1.2476 Y1.1757 I0.1248 J-0.0439
G2 X-1.1742 Y1.2705 I0.2571 J-0.1234
G3 X-1.1699 Y1.2854 I-0.0108 J0.0112
X-1.2185 Y1.3077 I-0.0332 J-0.0082
X-1.2555 Y1.2069 I0.0356 J-0.0703
X-1.2486 Y1.194 I0.0726 J0.0305 F50.
G2 X-1.2477 Y1.1785 I-0.013 J-0.0086
G1 X-1.2574 Y1.1606 F60.
G2 X-1.4564 Y1.2403 I-0.0768 J0.0967
G1 X-1.3751 Y1.3519
G2 X-1.3474 Y1.3442 I0.0122 J-0.0096
X-1.3508 Y1.319 I-0.0503 J-0.0062
X-1.4275 Y1.2499 I-0.1094 J0.0444
X-1.4458 Y1.2462 I-0.0327 J0.1135 F50.
G3 X-1.4562 Y1.2403 I0.0019 J-0.0154
G1 X-1.4716 Y1.2191 F60.
G3 X-1.3707 Y1.0507 I0.1193 J-0.043
G1 X-1.2932 Y1.0585
G3 X-1.2745 Y1.125 I-0.2841 J0.1157
G1 X-1.2701 Y1.1368
X-1.2639 Y1.1486
X-1.2574 Y1.1606
G3 X-1.2583 Y1.1761 I-0.0139 J0.0069
X-1.2666 Y1.1776 I-0.0048 J-0.0032
G1 X-1.2708 Y1.1744
G3 X-1.3525 Y1.0736 I0.1672 J-0.2191
G1 X-1.3585 Y1.0602 F50.
G2 X-1.3707 Y1.0507 I-0.0144 J0.0059
G1 X-1.4507 Y1.0428 F60.
G2 X-1.5501 Y1.1142 I-0.0007 J0.1039
G1 X-1.4716 Y1.2191
G2 X-1.4572 Y1.225 I0.0122 J-0.0096
X-1.4442 Y1.2123 I-0.0021 J-0.0152
X-1.518 Y1.1204 I-0.0776 J-0.0133
X-1.5326 Y1.1211 I-0.0037 J0.0787 F50.
G3 X-1.547 Y1.1152 I-0.0021 J-0.0154
G1 X-1.5604 Y1.0968 F60.
G3 X-1.5573 Y1.0304 I0.0403 J-0.0314
G1 X-1.5544 Y1.0309
X-1.5517 Y1.0318
X-1.5493 Y1.0332
X-1.5471 Y1.0349
X-1.5452 Y1.0369
X-1.5438 Y1.0392
X-1.5428 Y1.0417
X-1.5422 Y1.0443
X-1.5394 Y1.0561
X-1.533 Y1.0837
G3 X-1.5345 Y1.0945 I-0.0151 J0.0035
X-1.5604 Y1.0968 I-0.0137 J-0.0073 F50.
G1 X-1.5943 Y1.0502 F60.
X-1.5976 Y1.0452
X-1.598 Y1.044
X-1.5985 Y1.0385
X-1.5964 Y1.0334
X-1.592 Y1.0301
X-1.5866 Y1.0292
G3 X-1.5802 Y1.0308 I-0.004 J0.0298
X-1.572 Y1.0425 I-0.0043 J0.0117
X-1.5943 Y1.0502 I-0.0125 J0. F50.
G1 X-1.6056 Y1.0346 F60.
X-1.6064 Y1.0335
X-1.6075 Y1.0321
X-1.609 Y1.0297
X-1.6089 Y1.0284
X-1.608 Y1.0275
X-1.6067 Y1.0272
X-1.6048 Y1.0275 F50.
X-1.6052 Y1.0332
X-1.6075 Y1.0321
X-1.6104 Y1.0281 F60.
X-1.6108 Y1.0275
X-1.6103 Y1.0269
X-1.4507 Y1.0428
G3 X-1.4387 Y1.0515 I-0.0021 J0.0154
G1 X-1.4382 Y1.0538 Z-0.2173
X-1.4377 Y1.056 Z-0.2168
X-1.4372 Y1.0582 Z-0.2159
X-1.4377 Y1.0603 Z-0.2146
X-1.4381 Y1.0621 Z-0.2129
X-1.4384 Y1.0637 Z-0.211
X-1.4387 Y1.0649 Z-0.2089
X-1.4392 Y1.0657 Z-0.2067
X-1.4394 Y1.0662 Z-0.2044
X-1.4395 Y1.0664 Z-0.202
G0 Z0.4
X-0.822 Y3.2686
Z0.1
G3 X-0.9311 Y3.1692 Z0.0591 I-0.0546 J-0.0497 F50.
X-0.822 Y3.2686 Z0.0182 I0.0546 J0.0497
X-0.9311 Y3.1692 Z-0.0227 I-0.0546 J-0.0497
X-0.822 Y3.2686 Z-0.0636 I0.0546 J0.0497
X-0.9311 Y3.1692 Z-0.1044 I-0.0546 J-0.0497
X-0.822 Y3.2686 Z-0.1453 I0.0546 J0.0497
X-0.9311 Y3.1692 Z-0.1862 I-0.0546 J-0.0497
X-0.8028 Y3.2189 Z-0.2175 I0.0546 J0.0497
X-0.9504 I-0.0738 J0.
X-0.803 Y3.2128 I0.0738 J0.
G1 X-0.8028 Y3.2189
G3 X-0.9701 Y3.3345 I-0.0853 J0.0554 F60.
G1 X-0.9777 Y3.3283
X-0.985 Y3.3218
X-0.9918 Y3.3147
X-0.9982 Y3.3073
X-1.0041 Y3.2995
X-1.0095 Y3.2913
X-1.0143 Y3.2827
X-1.0186 Y3.2739
X-1.0224 Y3.2649
X-1.0255 Y3.2556
X-1.0281 Y3.2461
X-1.03 Y3.2365
X-1.0314 Y3.2268
X-1.0321 Y3.217
X-1.0322 Y3.2072
X-1.0317 Y3.1974
X-1.0305 Y3.1877
X-1.0288 Y3.1781
X-1.0264 Y3.1686
X-1.0235 Y3.1592
X-1.0199 Y3.1501
X-1.0158 Y3.1412
X-1.0112 Y3.1326
X-1.0059 Y3.1243
X-1.0002 Y3.1163
X-0.994 Y3.1087
X-0.9873 Y3.1015
X-0.9802 Y3.0948
X-0.9727 Y3.0886
X-0.9648 Y3.0828
X-0.9565 Y3.0775
X-0.9479 Y3.0728
X-0.939 Y3.0686
X-0.9299 Y3.065
X-0.9206 Y3.062
X-0.9111 Y3.0596
X-0.9015 Y3.0577
X-0.8918 Y3.0565
X-0.882 Y3.056
X-0.8722
X-0.8624 Y3.0566
X-0.8527 Y3.0579
X-0.8431 Y3.0598
X-0.8336 Y3.0623
X-0.8243 Y3.0654
X-0.8152 Y3.0691
X-0.8064 Y3.0733
X-0.7978 Y3.0781
X-0.7896 Y3.0834
X-0.7817 Y3.0892
X-0.7742 Y3.0956
X-0.7672 Y3.1023
X-0.7605 Y3.1096
X-0.7544 Y3.1172
X-0.7487 Y3.1252
X-0.7436 Y3.1335
X-0.739 Y3.1422
X-0.7349 Y3.1511
X-0.7315 Y3.1602
X-0.7286 Y3.1696
X-0.7263 Y3.1791
X-0.721 Y3.1886
X-0.7162 Y3.1984
X-0.712 Y3.2085
X-0.7084 Y3.2187
X-0.7053 Y3.2292
X-0.7029 Y3.2398
X-0.7011 Y3.2505
X-0.6999 Y3.2613
X-0.6993 Y3.2722
Y3.2831
X-0.7 Y3.294
X-0.7012 Y3.3048
X-0.7031 Y3.3155
X-0.7056 Y3.3261
X-0.7087 Y3.3365
X-0.7124 Y3.3468
X-0.7167 Y3.3568
X-0.7215 Y3.3666
X-0.7268 Y3.376
X-0.7327 Y3.3852
X-0.7392 Y3.394
X-0.7461 Y3.4024
X-0.7534 Y3.4104
X-0.7613 Y3.418
X-0.7695 Y3.4251
X-0.7781 Y3.4317
X-0.7871 Y3.4378
X-0.7964 Y3.4434
X-0.8061 Y3.4485
X-0.816 Y3.453
X-0.8261 Y3.457
X-0.8365 Y3.4603
X-0.847 Y3.4631
X-0.8577 Y3.4652
X-0.8684 Y3.4668
X-0.8793 Y3.4677
X-0.8902 Y3.468
X-0.901 Y3.4677
X-0.9119 Y3.4668
X-0.9226 Y3.4652
X-0.9333 Y3.4631
X-0.9438 Y3.4603
X-0.9542 Y3.4569
X-0.9643 Y3.453
X-0.9742 Y3.4485
X-0.9839 Y3.4434
X-0.9932 Y3.4378
X-1.0022 Y3.4316
X-1.0108 Y3.425
X-1.019 Y3.4179
X-1.0268 Y3.4103
X-1.1 Y3.2188
X-1.102 Y3.2077
X-1.1034 Y3.1965
X-1.1043 Y3.1852
X-1.1045 Y3.1739
X-1.1041 Y3.1626
X-1.1031 Y3.1514
X-1.1014 Y3.1402
X-1.0992 Y3.1291
X-1.0964 Y3.1182
X-1.093 Y3.1074
X-1.089 Y3.0968
X-1.0844 Y3.0865
X-1.0793 Y3.0764
X-1.0736 Y3.0666
X-1.0674 Y3.0572
X-1.0607 Y3.0481
X-1.0536 Y3.0393
X-1.0459 Y3.031
X-1.0379 Y3.0231
X-1.0294 Y3.0156
X-1.0205 Y3.0087
X-1.0112 Y3.0022
X-1.0017 Y2.9962
X-0.9918 Y2.9907
X-0.9816 Y2.9858
X-0.9711 Y2.9815
X-0.9605 Y2.9777
X-0.9496 Y2.9745
X-0.9387 Y2.9719
X-0.9275 Y2.9699
X-0.9163 Y2.9685
X-0.905 Y2.9678
X-0.8937 Y2.9676
X-0.8825 Y2.968
X-0.8712 Y2.9691
G2 X-0.7276 Y3.0542 I0.2447 J-0.2493
G3 X-0.6227 Y3.1692 I-0.065 J0.1647
G1 X-0.6246 Y3.1717
X-0.6269 Y3.1738
X-0.6295 Y3.1754
X-0.6323 Y3.1765
X-0.6353 Y3.177
X-0.6383
X-0.6412 Y3.1765
X-0.6439 Y3.1754
X-0.6464 Y3.1739
X-0.6485 Y3.172
X-0.6514 Y3.1691
X-0.7419 Y3.0804
X-0.7439 Y3.078
X-0.7454 Y3.0753
X-0.7463 Y3.0724
G3 X-0.7276 Y3.0542 I0.0152 J-0.003 F50.
G2 X-0.6379 Y3.0713 I0.087 J-0.2121 F60.
G3 X-0.5823 Y3.1071 I0.018 J0.0331
X-0.5987 Y3.1129 I-0.0125 J-0.0093
G1 X-0.6108 Y3.1098
X-0.6416 Y3.1019
G3 X-0.6519 Y3.0933 I0.0039 J-0.0151
X-0.6379 Y3.0713 I0.0142 J-0.0064 F50.
X-0.5731 Y3.0933 I0.0251 J0.0326 F60.
G2 X-0.7107 Y3.4306 I0.516 J0.4073
G3 X-0.9849 Y3.537 I-0.1882 J-0.0784
X-0.9762 Y3.5179 I0.0148 J-0.0048
G1 X-0.9689 Y3.5148
X-0.7322 Y3.4146
X-0.7309 Y3.4141
G3 X-0.7107 Y3.4306 I0.0047 J0.0148 F50.
G1 X-0.7142 Y3.4541 F60.
X-0.7156 Y3.4776
X-0.7153 Y3.5141
G3 X-0.7325 Y3.5648 I-0.0458 J0.0128
X-0.7527 Y3.5484 I-0.0048 J-0.0148
G1 X-0.7526 Y3.5473
X-0.7461 Y3.512
G3 X-0.7378 Y3.5008 I0.0153 J0.0028
X-0.7153 Y3.5141 I0.0069 J0.0139 F50.
G1 X-0.715 Y3.5545 F60.
X-0.7155 Y3.5585
X-0.7161 Y3.5589
X-0.899 Y3.625
G3 X-0.9525 Y3.6266 I-0.0275 J-0.025
X-0.9428 Y3.6071 I0.0148 J-0.0048
G1 X-0.9364 Y3.6049
X-0.9098 Y3.5959
G3 X-0.894 Y3.5994 I0.005 J0.0147
X-0.899 Y3.625 I-0.0108 J0.0112 F50.
G1 X-0.9469 Y3.6423 F60.
X-1.0297 Y3.4131
G3 X-1.0299 Y3.403 I0.0146 J-0.0053
G2 Y3.3933 I-0.0148 J-0.0048
G1 X-1.0332 Y3.3831
X-1.0768 Y3.2509
X-1.078 Y3.2482
X-1.0796 Y3.2458
X-1.0817 Y3.2438
G3 X-1.1 Y3.2188 I0.0395 J-0.0482 F50.
G1 X-1.1425 Y3.1012 F60.
G3 X-0.9393 Y2.8852 I0.2073 J-0.0086
G2 X-0.8712 Y2.969 I0.2534 J-0.1365
G3 X-0.8666 Y2.9838 I-0.0106 J0.0114
X-0.9188 Y3.0028 I-0.0322 J-0.0073
X-0.9455 Y2.914 I0.0477 J-0.0627
X-0.9394 Y2.9007 I0.0743 J0.0261 F50.
G2 X-0.9393 Y2.8852 I-0.0135 J-0.0078
G1 X-0.944 Y2.8777 F60.
X-0.9482 Y2.8683
X-0.9562 Y2.8625
X-0.9646 Y2.8571
X-0.9732 Y2.8523
X-0.9822 Y2.848
X-0.9914 Y2.8443
X-1.0008 Y2.8412
X-1.0104 Y2.8387
X-1.0201 Y2.8368
X-1.0299 Y2.8355
X-1.0398 Y2.8348
X-1.0497
X-1.0596 Y2.8354
X-1.0694 Y2.8366
X-1.0792 Y2.8384
X-1.0888 Y2.8408
X-1.0982 Y2.8438
X-1.1074 Y2.8474
X-1.1164 Y2.8516
X-1.1251 Y2.8564
X-1.1335 Y2.8616
X-1.1415 Y2.8674
X-1.1492 Y2.8737
X-1.1564 Y2.8805
X-1.1633 Y2.8877
X-1.1696 Y2.8953
X-1.1754 Y2.9033
X-1.1808 Y2.9117
X-1.1856 Y2.9203
X-1.1898 Y2.9293
X-1.1935 Y2.9385
X-1.1966 Y2.9479
X-1.1425 Y3.1012
G2 X-1.1303 Y3.1108 I0.0144 J-0.0058
X-1.0846 Y3.0698 I0.0057 J-0.0396
X-1.1715 Y2.96 I-0.118 J0.0041
X-1.1859 Y2.957 I-0.0312 J0.1139 F50.
G3 X-1.1981 Y2.9475 I0.0022 J-0.0154
G1 X-1.2105 Y2.913 F60.
X-1.2107 Y2.903
X-1.2103 Y2.893
X-1.2093 Y2.883
X-1.2077 Y2.8731
X-1.2055 Y2.8634
X-1.2027 Y2.8538
X-1.1993 Y2.8443
X-1.1954 Y2.8351
X-1.1909 Y2.8262
X-1.1859 Y2.8175
X-1.1804 Y2.8092
X-1.1744 Y2.8012
X-1.1679 Y2.7935
X-1.1609 Y2.7863
X-1.1536 Y2.7795
X-1.1458 Y2.7732
X-1.1377 Y2.7674
X-1.1292 Y2.762
X-1.1204 Y2.7572
X-1.1114 Y2.7529
X-1.1021 Y2.7492
X-1.0926 Y2.746
X-1.0829 Y2.7434
X-1.0731 Y2.7414
X-1.0632 Y2.74
X-1.0533 Y2.7392
X-1.0432 Y2.739
X-1.0332 Y2.7394
X-1.0233 Y2.7404
X-1.0134 Y2.742
X-1.0036 Y2.7442
X-0.994 Y2.747
X-0.9846 Y2.7504
G2 X-0.9482 Y2.8683 I0.3427 J-0.0411
G3 X-0.9503 Y2.8837 I-0.0144 J0.0059
X-0.9947 Y2.8881 I-0.0242 J-0.0187
X-1.0019 Y2.7766 I0.0518 J-0.0593
X-0.9912 Y2.7666 I0.059 J0.0521 F50.
G2 X-0.9853 Y2.7522 I-0.0095 J-0.0123
G1 X-0.9892 Y2.7296 F60.
G2 X-1.2601 Y2.7674 I-0.1245 J0.0968
G1 X-1.2624 Y2.7695
X-1.2105 Y2.913
G2 X-1.1983 Y2.9226 I0.0144 J-0.0058
X-1.1512 Y2.8728 I0.006 J-0.0415
X-1.2358 Y2.7821 I-0.1158 J0.0233
X-1.2502 Y2.7791 I-0.0312 J0.1139 F50.
G3 X-1.2624 Y2.7695 I0.0022 J-0.0154
G1 X-1.2748 Y2.7354 F60.
X-1.2735 Y2.7249
X-1.2716 Y2.7145
X-1.2692 Y2.7043
X-1.2661 Y2.6942
X-1.2625 Y2.6843
X-1.2582 Y2.6746
X-1.2534 Y2.6652
X-1.2481 Y2.6561
X-1.2423 Y2.6474
X-1.2359 Y2.639
X-1.229 Y2.6309
X-1.2217 Y2.6233
X-1.214 Y2.6162
X-1.2059 Y2.6095
X-1.1973 Y2.6033
X-1.1884 Y2.5976
X-1.1793 Y2.5924
X-1.1698 Y2.5878
X-1.16 Y2.5838
X-1.1501 Y2.5803
X-1.1399 Y2.5774
X-1.1296 Y2.5752
X-1.1192 Y2.5735
X-1.1087 Y2.5725
X-1.0982 Y2.572
X-1.0877 Y2.5722
X-1.0771 Y2.573
X-1.0667 Y2.5744
X-1.0564 Y2.5765
X-1.0462 Y2.5791
X-1.0361 Y2.5824
X-1.0263 Y2.5862
X-1.0167 Y2.5906
X-1.0074 Y2.5955
X-0.9984 Y2.601
X-0.9897 Y2.607
X-0.9814 Y2.6135
G2 X-0.9892 Y2.7296 I0.3301 J0.0805
G3 X-0.9951 Y2.7439 I-0.0154 J0.0021
X-1.0494 Y2.7277 I-0.0214 J-0.0275
X-1.0077 Y2.6306 I0.0745 J-0.0255
X-0.9939 Y2.6258 I0.0328 J0.0716 F50.
G2 X-0.9827 Y2.615 I-0.0037 J-0.0151
G1 X-0.9807 Y2.6072 F60.
X-0.9782 Y2.5988
X-0.9792 Y2.5903
X-0.9808 Y2.582
X-0.9829 Y2.5737
X-0.9857 Y2.5657
X-0.9889 Y2.5578
X-0.9928 Y2.5502
X-0.9971 Y2.5429
X-1.002 Y2.5359
X-1.0073 Y2.5293
X-1.013 Y2.5231
X-1.0192 Y2.5172
X-1.0258 Y2.5119
X-1.0328 Y2.507
X-1.04 Y2.5025
X-1.0476 Y2.4987
X-1.0554 Y2.4953
X-1.0634 Y2.4925
X-1.0716 Y2.4903
X-1.08 Y2.4886
X-1.0884 Y2.4876
X-1.0969 Y2.4871
X-1.1054 Y2.4872
X-1.1139 Y2.4879
X-1.1222 Y2.4893
X-1.1305 Y2.4912
X-1.1387 Y2.4936
X-1.1466 Y2.4967
X-1.1543 Y2.5002
G2 X-1.3236 Y2.6003 I-0.0018 J0.1901
G1 X-1.2748 Y2.7354
G2 X-1.2625 Y2.745 I0.0144 J-0.0058
X-1.2162 Y2.6894 I0.0061 J-0.0421
X-1.297 Y2.6129 I-0.112 J0.0374
X-1.3114 Y2.6099 I-0.0312 J0.1139 F50.
G3 X-1.3236 Y2.6003 I0.0022 J-0.0154
G1 X-1.3358 Y2.5664 F60.
G3 X-1.0751 Y2.4055 I0.1919 J0.0193
G1 X-1.0715 Y2.404
X-0.9666 Y2.5483
G3 X-0.9782 Y2.5988 I-0.052 J0.0146
X-0.9898 Y2.6091 I-0.0147 J-0.0049
X-1.0518 Y2.5867 I-0.0127 J-0.0617
X-1.0762 Y2.433 I0.123 J-0.0983
X-1.0704 Y2.4195 I0.1474 J0.0554 F50.
G2 X-1.0715 Y2.404 I-0.014 J-0.0068
G1 X-1.0978 Y2.3678 F60.
G2 X-1.385 Y2.4305 I-0.1167 J0.1546
G1 X-1.3358 Y2.5664
G2 X-1.3236 Y2.576 I0.0144 J-0.0058
X-1.2751 Y2.534 I0.006 J-0.0421
X-1.2771 Y2.521 I-0.0425 J0.
X-1.3584 Y2.4431 I-0.1125 J0.036
X-1.3728 Y2.4401 I-0.0312 J0.1139 F50.
G3 X-1.385 Y2.4305 I0.0022 J-0.0154
G1 X-1.3959 Y2.4002 F60.
X-1.3958 Y2.3902
X-1.3951 Y2.3802
X-1.3937 Y2.3703
X-1.3918 Y2.3605
X-1.3892 Y2.3508
X-1.3861 Y2.3413
X-1.3824 Y2.332
X-1.3782 Y2.3229
X-1.3734 Y2.3142
X-1.3681 Y2.3057
X-1.3622 Y2.2975
X-1.3559 Y2.2898
X-1.3492 Y2.2824
X-1.342 Y2.2754
X-1.3344 Y2.2689
X-1.3264 Y2.2629
X-1.3181 Y2.2574
X-1.3094 Y2.2524
X-1.3005 Y2.2479
X-1.2913 Y2.2439
X-1.2819 Y2.2406
X-1.2722 Y2.2378
X-1.2625 Y2.2356
X-1.2526 Y2.2339
X-1.2427 Y2.2329
X-1.2327 Y2.2325
X-1.2227 Y2.2327
X-1.2127 Y2.2335
X-1.2028 Y2.235
X-1.193 Y2.237
X-1.0978 Y2.3678
G3 X-1.0967 Y2.3833 I-0.0129 J0.0087
X-1.1576 Y2.3977 I-0.0363 J-0.0177
X-1.1975 Y2.2659 I0.0719 J-0.0937
X-1.1919 Y2.2523 I0.1118 J0.0381 F50.
G2 X-1.193 Y2.2369 I-0.014 J-0.0068
G1 X-1.2145 Y2.2072 F60.
G2 X-1.4456 Y2.2628 I-0.0919 J0.1262
G1 X-1.3959 Y2.4002
G2 X-1.3837 Y2.4098 I0.0144 J-0.0058
X-1.337 Y2.3557 I0.006 J-0.042
X-1.4191 Y2.2754 I-0.1132 J0.0337
X-1.4334 Y2.2724 I-0.0312 J0.1139 F50.
G3 X-1.4456 Y2.2628 I0.0022 J-0.0154
G1 X-1.4572 Y2.2307 F60.
X-1.4573 Y2.2218
X-1.4569 Y2.2128
X-1.4558 Y2.2039
X-1.4542 Y2.195
X-1.452 Y2.1863
X-1.4493 Y2.1778
X-1.446 Y2.1694
X-1.4421 Y2.1613
X-1.4377 Y2.1535
X-1.4328 Y2.1459
X-1.4275 Y2.1387
X-1.4217 Y2.1319
X-1.4154 Y2.1254
X-1.4087 Y2.1194
X-1.4017 Y2.1138
X-1.3943 Y2.1087
X-1.3866 Y2.1041
X-1.3786 Y2.1
X-1.3703 Y2.0964
X-1.3619 Y2.0934
X-1.3532 Y2.091
X-1.3445 Y2.0891
X-1.3356 Y2.0878
X-1.3266 Y2.0871
X-1.3176 Y2.0869
X-1.3087 Y2.0874
X-1.2998 Y2.0884
X-1.2145 Y2.2072
G3 X-1.2134 Y2.2227 I-0.0129 J0.0087
X-1.2847 Y2.2307 I-0.0382 J-0.0186
X-1.3044 Y2.1187 I0.0921 J-0.0739
X-1.2988 Y2.1051 I0.1118 J0.0381 F50.
G2 X-1.2999 Y2.0896 I-0.014 J-0.0068
G1 X-1.3171 Y2.0661 F60.
X-1.3236 Y2.0607
X-1.3306 Y2.0559
X-1.3378 Y2.0515
X-1.3454 Y2.0476
X-1.3531 Y2.0443
X-1.3611 Y2.0416
X-1.3693 Y2.0393
X-1.3776 Y2.0377
X-1.386 Y2.0367
X-1.3945 Y2.0362
X-1.4029 Y2.0363
X-1.4114 Y2.037
X-1.4197 Y2.0383
X-1.428 Y2.0402
X-1.4361 Y2.0427
X-1.444 Y2.0457
X-1.4517 Y2.0492
X-1.4591 Y2.0533
X-1.4662 Y2.0579
X-1.473 Y2.0629
X-1.4794 Y2.0685
X-1.4854 Y2.0744
X-1.491 Y2.0808
X-1.4961 Y2.0875
X-1.5008 Y2.0946
X-1.5049 Y2.102
X-1.4572 Y2.2307
G2 X-1.437 Y2.2394 I0.0144 J-0.0058
X-1.4235 Y2.2192 I-0.008 J-0.02
X-1.4786 Y2.1199 I-0.1181 J0.0006
X-1.4952 Y2.1112 I-0.0629 J0.0999 F50.
G3 X-1.5035 Y2.1027 I0.0061 J-0.0143
G1 X-1.5129 Y2.0767 F60.
G3 X-1.396 Y1.9556 I0.1068 J-0.0139
G1 X-1.3171 Y2.0661
G3 X-1.3213 Y2.0876 I-0.0129 J0.0087
X-1.3469 Y2.0872 I-0.0125 J-0.0186
X-1.3958 Y1.9875 I0.0691 J-0.0958
X-1.3937 Y1.9689 I0.118 J0.0039 F50.
G2 X-1.3961 Y1.9573 I-0.0153 J-0.003
G1 X-1.4116 Y1.9359 F60.
G2 X-1.5577 Y1.9573 I-0.0643 J0.0703
G1 X-1.5129 Y2.0767
G2 X-1.5007 Y2.0862 I0.0144 J-0.0058
X-1.4814 Y2.0751 I0.0026 J-0.0178
X-1.5292 Y1.9715 I-0.0732 J-0.029
X-1.5434 Y1.9681 I-0.0254 J0.0745 F50.
G3 X-1.5556 Y1.9585 I0.0022 J-0.0154
G1 X-1.564 Y1.9355 F60.
G3 X-1.4802 Y1.8388 I0.082 J-0.0136
G1 X-1.4785 Y1.8416
X-1.4774 Y1.8446
X-1.4769 Y1.8477
Y1.8508
X-1.4776 Y1.8539
X-1.4788 Y1.8567
X-1.4805 Y1.8591
X-1.4875 Y1.869
X-1.5368 Y1.9387
X-1.5384 Y1.9405
G3 X-1.564 Y1.9355 I-0.0112 J-0.0108 F50.
G1 X-1.5848 Y1.8779 F60.
G3 X-1.573 Y1.8099 I0.0685 J-0.0231
G1 X-1.5703 Y1.8089
X-1.5674 Y1.8085
X-1.5645
X-1.5616 Y1.8091
X-1.5589 Y1.8102
X-1.5565 Y1.8118
X-1.5544 Y1.8137
X-1.5527 Y1.8161
X-1.5514 Y1.8186
X-1.5506 Y1.8214
X-1.5504 Y1.8242
G3 Y1.8259 I-0.0155 J0.0003
G1 X-1.5549 Y1.8735
G3 X-1.5592 Y1.8829 I-0.0155 J-0.0014
X-1.5848 Y1.8779 I-0.0112 J-0.0108 F50.
X-1.5448 Y1.7926 I0.0386 J-0.0339 F60.
G1 X-1.5326 Y1.7838
X-1.5261 Y1.7791
X-1.5254 Y1.7793
X-1.4116 Y1.9359
G3 X-1.4102 Y1.9506 I-0.0129 J0.0087
G1 X-1.4116 Y1.9526 Z-0.2173
X-1.4129 Y1.9544 Z-0.2168
X-1.4142 Y1.9562 Z-0.2159
X-1.416 Y1.9573 Z-0.2146
X-1.4177 Y1.9582 Z-0.2129
X-1.4191 Y1.959 Z-0.211
X-1.4202 Y1.9596 Z-0.2089
X-1.4211 Y1.9598 Z-0.2067
X-1.4216 Y1.9599 Z-0.2044
X-1.4218 Z-0.202
G0 Z0.4
X0.0913 Y4.358
Z0.1
G3 X-0.0178 Y4.2586 Z0.0591 I-0.0546 J-0.0497 F50.
X0.0913 Y4.358 Z0.0182 I0.0546 J0.0497
X-0.0178 Y4.2586 Z-0.0227 I-0.0546 J-0.0497
X0.0913 Y4.358 Z-0.0636 I0.0546 J0.0497
X-0.0178 Y4.2586 Z-0.1044 I-0.0546 J-0.0497
X0.0913 Y4.358 Z-0.1453 I0.0546 J0.0497
X-0.0178 Y4.2586 Z-0.1862 I-0.0546 J-0.0497
X0.1105 Y4.3083 Z-0.2175 I0.0546 J0.0497
X-0.0371 I-0.0738 J0.
X0.1103 Y4.3022 I0.0738 J0.
G1 X0.1105 Y4.3083
G3 X0.0881 Y4.4381 I-0.0606 J0.0564 F60.
G1 X-0.0286 Y4.4219
G3 X-0.0642 Y4.1891 I0.039 J-0.1251
G1 X-0.0392 Y4.1912
X-0.0157 Y4.1916
X0.0716 Y4.1825
X0.0796 Y4.1823
X0.0877 Y4.1827
X0.0956 Y4.1838
X0.1035 Y4.1854
X0.1112 Y4.1876
X0.1187 Y4.1905
X0.126 Y4.1939
X0.133 Y4.1978
X0.1396 Y4.2023
X0.1459 Y4.2073
X0.1518 Y4.2128
X0.1572 Y4.2186
X0.1622 Y4.225
X0.1667 Y4.2316
X0.1706 Y4.2386
X0.1697 Y4.2416
X0.1683 Y4.2443
X0.1664 Y4.2466
X0.1642 Y4.2486
X0.1616 Y4.2502
X0.1588 Y4.2512
X0.1559 Y4.2517
X0.153 Y4.2516
X0.1502 Y4.251
X0.1475 Y4.2499
X0.1447 Y4.2486
G3 X0.0606 Y4.2062 I0.0113 J-0.127
X0.0716 Y4.1825 I0.0132 J-0.0082 F50.
G1 X0.0784 Y4.1818 F60.
X0.1019 Y4.1772
X0.1442 Y4.1657
G3 X0.1893 Y4.1811 I0.0186 J0.0192
X0.1473 Y4.2049 I-0.0363 J-0.0152
X0.1307 Y4.1902 I0.0029 J-0.02
X0.1442 Y4.1657 I0.0195 J-0.0052 F50.
X0.188 Y4.1552 I0.0282 J0.021 F60.
G2 X0.1643 Y4.4084 I0.6052 J0.1844
G3 X0.1557 Y4.4475 I-0.0149 J0.0173
X0.1436 Y4.437 I0.0027 J-0.0153
G1 X0.1393 Y4.4236
X0.1372 Y4.4174
G3 X0.1418 Y4.4008 I0.0148 J-0.0048
X0.1669 Y4.4081 I0.0102 J0.0117 F50.
G1 X0.1697 Y4.4187 F60.
X0.1774 Y4.446
X0.1785 Y4.4499
X0.1779 Y4.4506
X0.0881 Y4.4381
G3 X0.0791 Y4.4336 I0.0021 J-0.0154
G2 X0.0711 Y4.4292 I-0.0112 J0.0108
G1 X0.06 Y4.4268
G2 X0.002 Y4.4174 I-0.0402 J0.0642
G3 X-0.0286 Y4.4219 I-0.0242 J-0.0574 F50.
G1 X-0.1169 Y4.4097 F60.
G3 X-0.1681 Y4.1762 I0.055 J-0.1344
G2 X-0.0638 Y4.1897 I0.0879 J-0.2687
G3 X-0.0512 Y4.1987 I-0.0015 J0.0155
X-0.0842 Y4.2467 I-0.0309 J0.0141
X-0.1501 Y4.2026 I0.005 J-0.0786
X-0.1552 Y4.1889 I0.0708 J-0.0344 F50.
G2 X-0.1662 Y4.1779 I-0.015 J0.0041
G1 X-0.1875 Y4.1731 F60.
X-0.1961 Y4.175
X-0.2046 Y4.1776
X-0.2129 Y4.1807
X-0.221 Y4.1843
X-0.2288 Y4.1885
X-0.2363 Y4.1932
X-0.2435 Y4.1984
X-0.2503 Y4.2041
X-0.2566 Y4.2102
X-0.2626 Y4.2168
X-0.2681 Y4.2237
X-0.2731 Y4.231
X-0.2777 Y4.2387
X-0.2817 Y4.2466
X-0.2851 Y4.2547
X-0.288 Y4.2631
X-0.2903 Y4.2717
X-0.292 Y4.2804
X-0.2932 Y4.2891
X-0.2937 Y4.298
X-0.2936 Y4.3068
X-0.293 Y4.3157
X-0.2917 Y4.3244
X-0.2899 Y4.3331
X-0.2874 Y4.3416
X-0.2844 Y4.35
X-0.2809 Y4.3581
X-0.2767 Y4.3659
X-0.2721 Y4.3735
X-0.267 Y4.3807
G2 X-0.1169 Y4.4097 I0.3337 J-1.3266
X-0.1027 Y4.4033 I0.0016 J-0.0155
X-0.1159 Y4.3512 I-0.0283 J-0.0205
X-0.2419 Y4.3667 I-0.0509 J0.1066
X-0.2526 Y4.3767 I0.0751 J0.0912 F50.
G3 X-0.2675 Y4.3811 I-0.0113 J-0.0107
G1 X-0.2744 Y4.3792 F60.
X-0.3054 Y4.3694
G3 X-0.3042 Y4.134 I0.0792 J-0.1173
G2 X-0.1875 Y4.1731 I0.1731 J-0.3233
G3 X-0.1764 Y4.184 I-0.004 J0.015
X-0.1946 Y4.216 I-0.0251 J0.0069
X-0.2913 Y4.1625 I-0.0212 J-0.0758
X-0.2941 Y4.1481 I0.0755 J-0.0224 F50.
G2 X-0.3032 Y4.1356 I-0.0155 J0.0016
G1 X-0.3215 Y4.1281 F60.
X-0.3254 Y4.1264
G2 X-0.4455 Y4.313 I0.0025 J0.1336
X-0.3054 Y4.3694 I0.3677 J-0.7114
X-0.2904 Y4.3655 I0.0042 J-0.015
X-0.2937 Y4.3158 I-0.023 J-0.0235
X-0.4173 Y4.3047 I-0.0708 J0.0945
X-0.43 Y4.312 I0.0528 J0.1056 F50.
G3 X-0.4455 Y4.313 I-0.0086 J-0.0129
G1 X-0.4626 Y4.3038 F60.
X-0.4777 Y4.295
G3 X-0.4308 Y4.0646 I0.0977 J-0.1001
G1 X-0.354 Y4.1128
X-0.345 Y4.1181
X-0.3254 Y4.1264
G3 X-0.3165 Y4.1391 I-0.0066 J0.0141
X-0.336 Y4.1629 I-0.0219 J0.0019
X-0.4229 Y4.0945 I-0.0087 J-0.0783
X-0.4233 Y4.0798 I0.0781 J-0.0098 F50.
G2 X-0.4303 Y4.0659 I-0.0155 J-0.001
G1 X-0.4391 Y4.0601 F60.
X-0.4449 Y4.0552
G2 X-0.6043 Y4.209 I-0.0362 J0.1221
G1 X-0.5448 Y4.254
X-0.5332 Y4.2625
X-0.4777 Y4.295
G2 X-0.4622 Y4.2946 I0.0074 J-0.0137
X-0.4549 Y4.2345 I-0.0203 J-0.0329
X-0.5758 Y4.205 I-0.0842 J0.0828
X-0.5894 Y4.2104 I0.0367 J0.1123 F50.
G3 X-0.6049 Y4.2091 I-0.0066 J-0.0141
G1 X-0.6078 Y4.2069 F60.
X-0.6273 Y4.19
X-0.6343 Y4.1834
G3 X-0.5367 Y3.9694 I0.1181 J-0.0754
G2 X-0.4449 Y4.0552 I0.345 J-0.2773
G3 X-0.4402 Y4.07 I-0.0105 J0.0115
X-0.477 Y4.0941 I-0.0306 J-0.0067
X-0.5386 Y4.001 I0.0155 J-0.0772
X-0.5343 Y3.987 I0.0771 J0.0159 F50.
G2 X-0.5364 Y3.9716 I-0.0144 J-0.0059
G1 X-0.5517 Y3.9532 F60.
G2 X-0.7391 Y4.0732 I-0.0546 J0.121
G1 X-0.6979 Y4.1215
X-0.6845 Y4.1364
X-0.6343 Y4.1834
G2 X-0.6191 Y4.1864 I0.0102 J-0.0117
X-0.5992 Y4.13 I-0.0123 J-0.036
X-0.7098 Y4.0756 I-0.0998 J0.0632
X-0.7243 Y4.0779 I0.0109 J0.1176 F50.
G3 X-0.7391 Y4.0732 I-0.0033 J-0.0152
G1 X-0.7454 Y4.0658 F60.
X-0.7629 Y4.0423
G3 X-0.7675 Y3.974 I0.0374 J-0.0368
X-0.7477 Y3.9847 I0.0048 J0.0148
G1 X-0.7462 Y3.9903
X-0.7358 Y4.0284
G3 X-0.737 Y4.0397 I-0.015 J0.0041
X-0.7629 Y4.0423 I-0.0138 J-0.0071 F50.
G1 X-0.7989 Y3.989 F60.
X-0.8008 Y3.9861
X-0.8004 Y3.9859
X-0.5891 Y3.9095
G3 X-0.5517 Y3.9532 I-0.0811 J0.1072
X-0.5493 Y3.9678 I-0.0123 J0.0095
G1 X-0.5506 Y3.9698 Z-0.2173
X-0.5518 Y3.9717 Z-0.2168
X-0.553 Y3.9736 Z-0.2159
X-0.5548 Y3.9748 Z-0.2146
X-0.5563 Y3.9758 Z-0.2129
X-0.5577 Y3.9766 Z-0.211
X-0.5588 Y3.9773 Z-0.2089
X-0.5596 Y3.9776 Z-0.2067
X-0.5602 Y3.9777 Z-0.2044
X-0.5603 Y3.9778 Z-0.202
G0 Z0.4
X-0.0591 Y-0.0129
Z0.1
G3 X-0.1683 Y-0.1123 Z0.0591 I-0.0546 J-0.0497 F50.
X-0.0591 Y-0.0129 Z0.0182 I0.0546 J0.0497
X-0.1683 Y-0.1123 Z-0.0227 I-0.0546 J-0.0497
X-0.0591 Y-0.0129 Z-0.0636 I0.0546 J0.0497
X-0.1683 Y-0.1123 Z-0.1044 I-0.0546 J-0.0497
X-0.0591 Y-0.0129 Z-0.1453 I0.0546 J0.0497
X-0.1683 Y-0.1123 Z-0.1862 I-0.0546 J-0.0497
X-0.0399 Y-0.0626 Z-0.2175 I0.0546 J0.0497
X-0.1875 I-0.0738 J0.
X-0.0401 Y-0.0687 I0.0738 J0.
G1 X-0.0399 Y-0.0626
G3 X-0.207 Y0.0529 I-0.0851 J0.0555 F60.
X-0.0227 Y-0.1951 I0.0922 J-0.124
X0.0365 Y-0.1023 I-0.0922 J0.124
X-0.0358 Y0.1569 I-0.1362 J0.1017
G1 X-0.0392 Y0.1574
X-0.1098 Y0.1638
X-0.1333 Y0.1665
G3 X-0.2581 Y-0.2663 I-0.0023 J-0.2337
X-0.0627 Y-0.2918 I0.2149 J0.8848
X0.1524 Y-0.086 I-0.0406 J0.2578
G1 X0.0784 Y0.1448
X0.0739 Y0.1589
X0.0734 Y0.1594
X-0.0157 Y0.1562
X-0.0357 Y0.1572
G3 X-0.0492 Y0.1497 I-0.0003 J-0.0155
X-0.0526 Y0.1357 I0.0204 J-0.0123
X0.1262 Y-0.0729 I0.2353 J0.0208
G1 X0.1406 Y-0.076 F50.
G2 X0.1524 Y-0.086 I-0.0028 J-0.0153
G1 X0.1761 Y-0.1598 F60.
G2 X0.1378 Y-0.2874 I-0.1403 J-0.0275
X-0.0627 Y-0.2918 I-0.1288 J1.2932
X-0.0598 Y-0.2609 I0.0015 J0.0155
X-0.0458 Y-0.2782 I-0.0015 J-0.0155
X-0.0635 Y-0.2917 I-0.0154 J0.0019
G1 X-0.2354 Y-0.2665
G2 X-0.2309 Y-0.2358 I0.0023 J0.0154
X-0.2283 Y-0.2659 I-0.0023 J-0.0154
X-0.2591 Y-0.268 I-0.0195 J0.0592 F50.
G1 X-0.2744 Y-0.2646 F60.
X-0.345 Y-0.2467
G2 X-0.4339 Y0.0671 I0.117 J0.2026
G1 X-0.3764 Y0.148
G2 X-0.3027 Y0.2133 I0.0816 J-0.0178
G1 X-0.2509 Y0.1948
X-0.2274 Y0.1872
X-0.1333 Y0.1665
G2 X-0.1363 Y0.1359 I-0.0039 J-0.0151
G1 X-0.3626 Y0.124
X-0.366 Y0.1241
G2 X-0.3764 Y0.148 I0.0025 J0.0153 F50.
G1 X-0.3247 Y0.2209 F60.
X-0.3243 Y0.221
X-0.3027 Y0.2133
G2 X-0.2931 Y0.2011 I-0.0057 J-0.0144
X-0.4049 Y0.0722 I-0.1114 J-0.0164
X-0.4196 Y0.0731 I0.0004 J0.1181 F50.
G3 X-0.4339 Y0.0671 I-0.002 J-0.0154
G1 X-0.5097 Y-0.0396 F60.
G3 X-0.522 Y-0.185 I0.1252 J-0.0838
G1 X-0.519 Y-0.1861
X-0.5158 Y-0.1865
X-0.5127 Y-0.1864
X-0.5097 Y-0.1856
X-0.5068 Y-0.1844
X-0.5043 Y-0.1826
X-0.5022 Y-0.1804
X-0.5006 Y-0.1779
X-0.4995 Y-0.1751
X-0.4989 Y-0.1722
X-0.4986 Y-0.1698
X-0.482 Y-0.0512
X-0.4818 Y-0.0479
X-0.4824 Y-0.0446
X-0.4837 Y-0.0416
G3 X-0.5097 Y-0.0396 I-0.0136 J-0.0074 F50.
G1 X-0.5748 Y-0.1313 F60.
X-0.5778 Y-0.1355
X-0.5792 Y-0.1374
X-0.5824 Y-0.1425
X-0.5827 Y-0.1433
X-0.5836 Y-0.1488
X-0.5816 Y-0.1541
X-0.5773 Y-0.1577
G3 X-0.567 Y-0.1593 I0.0083 J0.0196
X-0.555 Y-0.1426 I-0.0012 J0.0136
X-0.5792 Y-0.1374 I-0.0133 J-0.0031 F50.
G1 X-0.5892 Y-0.1515 F60.
G3 X-0.345 Y-0.2467 I0.5319 J1.0032
X-0.3349 Y-0.2459 I0.0038 J0.0151
G2 X-0.3323 Y-0.245 I0.0063 J-0.0142
G1 X-0.315 Y-0.2408
X0.1448 Y-0.1307
G2 X0.1587 Y-0.1342 I0.0036 J-0.0151
X0.1761 Y-0.1598 I-0.0413 J-0.0467 F50.
G1 X0.2058 Y-0.2524 F60.
X0.2088 Y-0.2637
X0.2091 Y-0.2659
X0.2087 Y-0.2702
X0.2068 Y-0.274
X0.2036 Y-0.2768
X0.1995 Y-0.2782
X0.1368 Y-0.2864
G2 X0.1317 Y-0.2558 I-0.0015 J0.0155
G1 X0.1795 Y-0.2445
X0.1876 Y-0.2426 F50.
G2 X0.2058 Y-0.2524 I0.0036 J-0.0151
G1 X0.2133 Y-0.2759 F60.
X0.2129 Y-0.2764
X0.1995 Y-0.2782
G2 X0.1972 I-0.0015 J0.0155
G1 X0.1949 Y-0.2776 Z-0.2173
X0.1927 Y-0.2769 Z-0.2168
X0.1906 Y-0.2763 Z-0.2159
X0.189 Y-0.2749 Z-0.2146
X0.1876 Y-0.2736 Z-0.2129
X0.1864 Y-0.2726 Z-0.211
X0.1854 Y-0.2717 Z-0.2089
X0.1849 Y-0.271 Z-0.2067
X0.1846 Y-0.2705 Z-0.2044
X0.1845 Y-0.2703 Z-0.202
G0 Z0.4
X0.4354 Y2.2201
Z-0.1864
G1 Z-0.202 F50.
X0.4351 Y2.2202 Z-0.205
X0.4343 Y2.2204 Z-0.2079
X0.4329 Y2.2207 Z-0.2106
X0.431 Y2.2212 Z-0.2129
X0.4287 Y2.2217 Z-0.2149
X0.4261 Y2.2224 Z-0.2163
X0.4233 Y2.2231 Z-0.2172
X0.4203 Y2.2238 Z-0.2175
G3 X0.3356 Y2.2347 I-0.0929 J-0.3857
X0.3531 Y2.0675 I0.0335 J-0.081 F60.
G1 X0.3621 Y2.0623
X0.3715 Y2.0576
X0.3811 Y2.0535
X0.391 Y2.05
X0.401 Y2.0471
X0.4112 Y2.0447
X0.4216 Y2.043
X0.432 Y2.0419
X0.4424 Y2.0414
X0.4529 Y2.0415
X0.4633 Y2.0423
X0.4737 Y2.0437
X0.484 Y2.0457
X0.4941 Y2.0483
X0.5041 Y2.0514
X0.5138 Y2.0552
X0.5234 Y2.0596
X0.5326 Y2.0645
X0.5415 Y2.0699
X0.5501 Y2.0759
X0.5584 Y2.0823
X0.5662 Y2.0893
X0.5736 Y2.0967
X0.5805 Y2.1045
X0.587 Y2.1127
X0.593 Y2.1213
X0.5984 Y2.1302
X0.6034 Y2.1395
X0.6077 Y2.149
X0.6115 Y2.1587
X0.6147 Y2.1687
X0.6173 Y2.1788
X0.6193 Y2.1891
X0.6207 Y2.1994
X0.6215 Y2.2099
X0.6216 Y2.2203
X0.6212 Y2.2308
X0.6201 Y2.2412
X0.6184 Y2.2515
X0.616 Y2.2617
X0.6131 Y2.2718
G3 X0.2494 Y2.3088 I-0.1832 J0.0054
G1 X0.2423 Y2.2992
X0.2356 Y2.2893
X0.2295 Y2.279
X0.224 Y2.2684
X0.2189 Y2.2576
X0.2145 Y2.2465
X0.2106 Y2.2352
X0.2074 Y2.2237
X0.2047 Y2.2121
X0.2026 Y2.2003
X0.2012 Y2.1885
X0.2003 Y2.1766
X0.2001 Y2.1646
X0.2005 Y2.1527
X0.2015 Y2.1408
X0.2031 Y2.129
X0.2054 Y2.1173
X0.2082 Y2.1057
X0.2117 Y2.0942
X0.2157 Y2.083
X0.2203 Y2.072
X0.2255 Y2.0612
X0.2312 Y2.0508
X0.2375 Y2.0406
X0.2442 Y2.0308
X0.2515 Y2.0213
X0.2593 Y2.0122
X0.2675 Y2.0036
X0.2761 Y1.9953
X0.2852 Y1.9876
X0.2946 Y1.9803
X0.3045 Y1.9735
X0.3146 Y1.9672
X0.3251 Y1.9615
X0.3358 Y1.9563
X0.3468 Y1.9517
X0.3581 Y1.9477
X0.3695 Y1.9442
X0.3811 Y1.9413
X0.3928 Y1.9391
X0.4046 Y1.9374
X0.4165 Y1.9364
X0.4284 Y1.936
X0.4404 Y1.9362
X0.4523 Y1.937
X0.4641 Y1.9385
X0.4759 Y1.9405
X0.4875 Y1.9432
X0.499 Y1.9464
X0.5103 Y1.9503
X0.5214 Y1.9547
X0.5322 Y1.9597
X0.5428 Y1.9653
X0.553 Y1.9713
X0.563 Y1.978
X0.5726 Y1.9851
X0.5817 Y1.9927
X0.6665 Y2.0859
G3 X0.7155 Y2.2815 I-0.2362 J0.163
G1 X0.7136 Y2.2838
X0.7114 Y2.2857
X0.7089 Y2.2872
X0.7062 Y2.2882
X0.7034 Y2.2887
X0.7005
X0.6977 Y2.2881
X0.695 Y2.2871
X0.6926 Y2.2855
X0.6905 Y2.2836
X0.6888 Y2.2813
G3 X0.6868 Y2.2769 I0.0131 J-0.0084
G1 X0.6399 Y2.1002
G3 X0.6408 Y2.0899 I0.015 J-0.004
X0.6665 Y2.0859 I0.0142 J0.0063 F50.
G1 X0.7627 Y2.2006 F60.
G2 X0.6665 Y2.3974 I0.6383 J0.4336
G1 X0.6609 Y2.4089
X0.6548 Y2.42
X0.6482 Y2.4309
X0.641 Y2.4414
X0.6333 Y2.4516
X0.6252 Y2.4614
X0.6166 Y2.4708
X0.6076 Y2.4798
X0.5982 Y2.4884
X0.5883 Y2.4965
X0.5781 Y2.5041
X0.5676 Y2.5112
X0.5567 Y2.5178
X0.5455 Y2.5239
X0.5341 Y2.5295
X0.5223 Y2.5345
X0.5104 Y2.5389
X0.4983 Y2.5428
X0.486 Y2.546
X0.4735 Y2.5487
X0.461 Y2.5508
X0.4483 Y2.5524
X0.4356 Y2.5533
X0.4229 Y2.5536
X0.4102 Y2.5532
X0.3975 Y2.5523
X0.3848 Y2.5508
X0.3723 Y2.5487
X0.3598 Y2.546
X0.3475 Y2.5427
X0.3354 Y2.5388
X0.3235 Y2.5344
X0.3118 Y2.5294
X0.3003 Y2.5238
X0.2891 Y2.5177
X0.2782 Y2.5111
X0.2677 Y2.504
X0.2575 Y2.4964
X0.2477 Y2.4883
X0.2382 Y2.4797
X0.2292 Y2.4707
X0.2206 Y2.4613
X0.2125 Y2.4515
X0.2049 Y2.4413
X0.1977 Y2.4308
X0.1911 Y2.4199
X0.185 Y2.4087
X0.1794 Y2.3973
X0.1744 Y2.3856
X0.1699 Y2.3737
X0.1714 Y2.0425
G3 X0.4713 Y1.8529 I0.2477 J0.0598
G1 X0.5852 Y1.9888
G3 X0.5873 Y2.0041 I-0.0123 J0.0096
X0.5436 Y2.0238 I-0.0321 J-0.013
X0.4689 Y1.8822 I0.0394 J-0.1114
X0.4735 Y1.8683 I0.1142 J0.0303 F50.
G2 X0.4713 Y1.8529 I-0.0144 J-0.0058
G1 X0.4376 Y1.8126 F60.
G2 X0.3187 Y1.7799 I-0.0924 J0.1034
G1 X0.2901 Y1.7925
X0.2666 Y1.8001
X0.2537 Y1.8037
G2 X0.1741 Y1.8533 I-0.0056 J0.0796
G1 X0.1714 Y2.0425
G2 X0.2017 Y2.0469 I0.0155 J-0.0003
G1 X0.2721 Y1.8235
X0.2725 Y1.8217
G2 X0.2537 Y1.8037 I-0.0153 J-0.0029 F50.
G1 X0.1752 Y1.8253 F60.
X0.1745 Y1.8258
X0.1741 Y1.8533
G2 X0.1822 Y1.8666 I0.0155 J-0.0003
X0.307 Y1.8117 I0.0414 J-0.0751
G1 X0.308 Y1.8072
G2 X0.31 Y1.7927 I-0.1158 J-0.0234 F50.
G3 X0.3187 Y1.7799 I0.0155 J0.0012
G1 X0.3842 Y1.7511 F60.
X0.3854 Y1.7506
X0.386 Y1.751
X0.4376 Y1.8126
G3 X0.4349 Y1.8344 I-0.0123 J0.0096
X0.4125 Y1.8235 I-0.0085 J-0.0109
X0.427 Y1.8097 I0.0138 J0.
X0.4401 Y1.8247 I-0.0006 J0.0138
X0.1854 Y2.3514 I-0.8235 J-0.0734
G1 X0.1717 Y2.3641 F50.
G2 X0.1666 Y2.3748 I0.0104 J0.0115
G1 X0.1653 Y2.466 F60.
X0.1698 Y2.4784
X0.1749 Y2.4906
X0.1806 Y2.5025
X0.1869 Y2.5141
X0.1937 Y2.5254
X0.201 Y2.5363
X0.2088 Y2.5469
X0.2172 Y2.5572
X0.226 Y2.567
X0.2353 Y2.5764
X0.245 Y2.5853
X0.2551 Y2.5938
X0.2656 Y2.6017
X0.2765 Y2.6092
X0.2877 Y2.6161
X0.2992 Y2.6225
X0.311 Y2.6284
X0.3231 Y2.6336
X0.3355 Y2.6383
X0.348 Y2.6424
X0.3607 Y2.6459
X0.3736 Y2.6488
X0.3866 Y2.6511
X0.3997 Y2.6527
X0.4128 Y2.6538
X0.426 Y2.6542
X0.4392 Y2.654
X0.4523 Y2.6531
X0.4654 Y2.6516
X0.4784 Y2.6495
X0.4914 Y2.6468
X0.5041 Y2.6435
X0.5167 Y2.6396
X0.5291 Y2.6351
X0.5413 Y2.63
X0.5532 Y2.6243
X0.5648 Y2.6181
X0.5761 Y2.6113
X0.5871 Y2.604
G2 X0.6361 Y2.5798 I0.0135 J-0.0345
G3 X0.6671 Y2.3976 I0.6249 J0.0126
G1 X0.6673 Y2.3948
X0.6671 Y2.392
X0.6663 Y2.3893
X0.6651 Y2.3869
X0.6635 Y2.3846
X0.6616 Y2.3827
G2 X0.6052 Y2.3854 I-0.0268 J0.0303
X0.6169 Y2.5576 I0.0863 J0.0806
X0.6288 Y2.5661 I0.0746 J-0.0916 F50.
G3 X0.6361 Y2.5798 I-0.0082 J0.0132
G1 X0.6342 Y2.6072 F60.
X0.6343 Y2.6201
X0.6292 Y2.6305
X0.6235 Y2.6407
X0.6173 Y2.6505
X0.6106 Y2.66
X0.6034 Y2.6691
X0.5957 Y2.6779
X0.5877 Y2.6862
X0.5791 Y2.6941
X0.5702 Y2.7016
X0.5609 Y2.7086
X0.5513 Y2.715
X0.5413 Y2.721
X0.5311 Y2.7265
X0.5206 Y2.7314
X0.5098 Y2.7358
X0.4988 Y2.7396
X0.4877 Y2.7428
X0.4763 Y2.7455
X0.4649 Y2.7475
X0.4534 Y2.749
X0.4418 Y2.7498
X0.4302 Y2.7501
X0.4186 Y2.7498
X0.407 Y2.7488
X0.3955 Y2.7473
X0.384 Y2.7451
X0.3727 Y2.7424
X0.3616 Y2.7391
X0.3507 Y2.7352
X0.3399 Y2.7308
X0.3294 Y2.7258
X0.3192 Y2.7203
G3 X0.1627 Y2.6424 I-0.0064 J-0.1834
G1 X0.1653 Y2.466
G3 X0.1737 Y2.453 I0.0155 J0.0008
X0.2204 Y2.4672 I0.0161 J0.0312
X0.1837 Y2.6218 I-0.1034 J0.0571
X0.1711 Y2.6293 I-0.0666 J-0.0975 F50.
G2 X0.1627 Y2.6424 I0.0071 J0.0138
G1 X0.162 Y2.6907 F60.
G2 X0.4862 Y2.826 I0.2314 J-0.0984
X0.6499 Y2.7574 I0.0325 J-0.152
G3 X0.6343 Y2.6201 I0.5038 J-0.1266
G2 X0.626 Y2.607 I-0.0155 J0.0007
X0.6083 Y2.6088 I-0.0075 J0.0144
X0.6249 Y2.7418 I0.0493 J0.0614
X0.6387 Y2.7466 I0.0328 J-0.0716 F50.
G3 X0.6499 Y2.7574 I-0.0037 J0.0151
G1 X0.6568 Y2.7848 F60.
G3 X0.6364 Y2.8529 I-0.0812 J0.0128
X0.6134 Y2.8356 I-0.008 J-0.0133
X0.6318 Y2.7772 I0.0782 J-0.0074
X0.6568 Y2.7848 I0.01 J0.0119 F50.
X0.6677 Y2.8326 I-0.0887 J0.0455 F60.
G1 X0.58 Y2.8895
G3 X0.296 Y2.9192 I-0.1793 J-0.3414
X0.3023 Y2.8905 I0.008 J-0.0133
G1 X0.5694 Y2.8613
G3 X0.5791 Y2.8634 I0.0017 J0.0154
X0.58 Y2.8895 I-0.008 J0.0133 F50.
G1 X0.4195 Y2.9936 F60.
G2 X0.2199 Y2.8813 I-0.8062 J1.1994
G3 X0.1598 Y2.845 I-0.0073 J-0.056
X0.1815 Y2.8316 I0.0155 J0.0008
G1 X0.1823 Y2.8319
X0.2307 Y2.853
G3 X0.2399 Y2.8657 I-0.0062 J0.0142
X0.2196 Y2.882 I-0.0155 J0.0016 F50.
X0.1596 Y2.8591 I0.0267 J-0.1593 F60.
G1 X0.162 Y2.6907
G3 X0.1697 Y2.6781 I0.0155 J0.0008
G1 X0.1719 Y2.6773 Z-0.2173
X0.1741 Y2.6766 Z-0.2168
X0.1762 Y2.676 Z-0.2159
X0.1775 Y2.6759 Z-0.2151
X0.1799 Y2.6765 Z-0.2132
X0.1819 Y2.6769 Z-0.2108
X0.1833 Y2.6772 Z-0.2081
X0.1843 Y2.6774 Z-0.2051
X0.1845 Y2.6775 Z-0.2036
X0.1846 Y2.6776 Z-0.202
G0 Z0.4
X0.9205 Y0.264
Z-0.1864
G1 Z-0.202 F50.
Y0.2637 Z-0.205
X0.9206 Y0.2628 Z-0.2079
X0.9207 Y0.2614 Z-0.2106
X0.9208 Y0.2594 Z-0.2129
X0.9209 Y0.2571 Z-0.2149
X0.9211 Y0.2544 Z-0.2163
X0.9213 Y0.2515 Z-0.2172
X0.9215 Y0.2485 Z-0.2175
G3 X0.9357 Y0.1642 I0.396 J0.0236
X1.2109 Y0.3188 I0.1312 J0.0886 F60.
X0.946 Y0.4544 I-0.1942 J-0.0529
G1 X0.9301 Y0.4542
X0.9143 Y0.4534
X0.8985 Y0.452
X0.8828 Y0.45
X0.8672 Y0.4473
X0.8517 Y0.4441
X0.8364 Y0.4402
X0.8212 Y0.4357
X0.8062 Y0.4307
X0.7914 Y0.425
X0.7768 Y0.4188
X0.7625 Y0.412
X0.7485 Y0.4046
X0.7348 Y0.3967
X0.7214 Y0.3883
X0.7083 Y0.3793
X0.6956 Y0.3699
X0.6833 Y0.3599
X0.6714 Y0.3495
X0.6599 Y0.3386
X0.6489 Y0.3272
X0.6383 Y0.3155
X0.6281 Y0.3033
X0.6185 Y0.2907
X0.6094 Y0.2778
X0.6007 Y0.2645
X0.5927 Y0.2509
X0.5851 Y0.237
X0.5781 Y0.2228
X0.5717 Y0.2083
G3 X0.87 Y0.019 I0.1973 J-0.0187
X1.117 Y0.0066 I0.1525 J0.5716
X0.9988 Y0.5504 I-0.0771 J0.2679
X0.6299 Y0.4372 I-0.0579 J-0.469
G1 X0.5891 Y0.3957
X0.5724 Y0.3803
G3 X0.8257 Y-0.0942 I0.1884 J-0.2043
G1 X1.2911 Y0.0542
G3 X1.3408 Y0.4818 I-0.1503 J0.2341
G1 X1.344 Y0.4886
X1.3418 Y0.4901
X1.3393 Y0.491
X0.8312 Y0.6114
G3 X0.7425 Y0.6012 I-0.0366 J-0.0717
X0.7556 Y0.5786 I0.0139 J-0.007
G1 X0.7569
X0.8276 Y0.5809
G3 X0.8391 Y0.5866 I-0.0005 J0.0155
X0.8312 Y0.6114 I-0.012 J0.0099 F50.
G1 X0.7583 Y0.6287 F60.
G2 X0.629 Y0.4382 I-0.7623 J0.3784
G1 X0.6273 Y0.4359
X0.626 Y0.4333
X0.6253 Y0.4304
X0.6251 Y0.4275
X0.6255 Y0.4246
X0.6264 Y0.4217
X0.632 Y0.41
X0.8538 Y-0.0607
G2 X0.8514 Y-0.0776 I-0.0141 J-0.0066
X0.8258 Y-0.0949 I-0.0467 J0.0413 F50.
G1 X0.6685 Y-0.1454 F60.
G2 X0.5556 Y-0.1221 I-0.0331 J0.1248
G1 X0.4348 Y0.2546
X0.4318 Y0.2658
X0.4316 Y0.2677
X0.4318 Y0.2718
X0.4335 Y0.2755
X0.4365 Y0.2783
G3 X0.5724 Y0.3803 I-0.3665 J0.63
G2 X0.5919 Y0.3561 I0.0096 J-0.0122
G1 X0.4602 Y0.2486
X0.4593 Y0.2478 F50.
G2 X0.4348 Y0.2546 I-0.0098 J0.012
G1 X0.4289 Y0.2732 F60.
X0.4295 Y0.2737
X0.4365 Y0.2783
G2 X0.4534 Y0.2778 I0.0081 J-0.0133
G1 X0.4559 Y0.2761 Z-0.2172
X0.4583 Y0.2744 Z-0.2163
X0.4605 Y0.2729 Z-0.2149
X0.4624 Y0.2716 Z-0.2129
X0.464 Y0.2705 Z-0.2106
X0.4652 Y0.2696 Z-0.2079
X0.4659 Y0.2691 Z-0.205
X0.4662 Y0.269 Z-0.202
G0 Z-0.1864
X0.7044 Y-0.1164
G1 Z-0.202 F50.
X0.7042 Y-0.1166 Z-0.205
X0.7036 Y-0.1173 Z-0.2079
X0.7027 Y-0.1183 Z-0.2106
X0.7014 Y-0.1198 Z-0.2129
X0.6998 Y-0.1216 Z-0.2149
X0.698 Y-0.1236 Z-0.2163
X0.6961 Y-0.1258 Z-0.2172
X0.6941 Y-0.128 Z-0.2175
G2 X0.6685 Y-0.1454 I-0.0467 J0.0413
G1 X0.5731 Y-0.176 F60.
X0.5726 Y-0.1753
X0.5556 Y-0.1221
G2 X0.5606 Y-0.1059 I0.015 J0.0042
G1 X0.5629 Y-0.104 Z-0.2172
X0.5652 Y-0.1021 Z-0.2163
X0.5672 Y-0.1004 Z-0.2149
X0.569 Y-0.0989 Z-0.2129
X0.5705 Y-0.0976 Z-0.2106
X0.5716 Y-0.0967 Z-0.2079
X0.5723 Y-0.0962 Z-0.205
X0.5725 Y-0.096 Z-0.202
G0 Z-0.1864
X1.245 Y0.057
G1 Z-0.202 F50.
X1.2453 Y0.0569 Z-0.205
X1.2462 Y0.0567 Z-0.2079
X1.2476 Y0.0564 Z-0.2106
X1.2495 Y0.0559 Z-0.2129
X1.2518 Y0.0554 Z-0.2149
X1.2544 Y0.0548 Z-0.2163
X1.2572 Y0.0542 Z-0.2172
X1.2602 Y0.0535 Z-0.2175
G3 X1.2911 Y0.0542 I0.014 J0.0607
G1 X1.4022 Y0.0899 F60.
X1.4114 Y0.094
X1.4203 Y0.0986
X1.4289 Y0.1038
X1.4372 Y0.1096
X1.4451 Y0.1158
X1.4526 Y0.1225
X1.4597 Y0.1296
X1.4663 Y0.1372
X1.4725 Y0.1452
X1.4781 Y0.1535
X1.4832 Y0.1622
X1.4878 Y0.1711
X1.4918 Y0.1804
X1.4952 Y0.1898
X1.4981 Y0.1995
X1.5003 Y0.2093
X1.502 Y0.2192
X1.503 Y0.2292
X1.5034 Y0.2393
X1.5032 Y0.2493
X1.5009 Y0.2512
X1.4983 Y0.2526
X1.4956 Y0.2535
X1.4927 Y0.2539
X1.4899 Y0.2538
X1.4871 Y0.2533
X1.4845 Y0.2522
X1.4821 Y0.2507
X1.4801 Y0.2489
X1.4784 Y0.2467
X1.4758 Y0.243
X1.3853 Y0.1137
X1.384 Y0.1117
X1.3832 Y0.1094
X1.3826 Y0.1071
G3 X1.4022 Y0.0899 I0.0154 J-0.0022 F50.
G1 X1.5086 Y0.124 F60.
X1.5215 Y0.1281
X1.5225 Y0.1285
G3 X1.4892 Y0.2593 I-0.0524 J0.0563
G2 X1.3871 Y0.4797 I0.4039 J0.321
G1 X1.3393 Y0.491
G3 X1.3252 Y0.4867 I-0.0031 J-0.0152
G1 X1.324 Y0.4847 Z-0.2173
X1.3227 Y0.4827 Z-0.2168
X1.3216 Y0.4808 Z-0.2159
X1.3213 Y0.479 Z-0.2147
X1.321 Y0.4773 Z-0.2133
X1.3207 Y0.4758 Z-0.2117
X1.3209 Y0.4743 Z-0.2095
X1.321 Y0.4733 Z-0.2071
X1.3211 Y0.4726 Z-0.2046
Y0.4724 Z-0.202
G0 Z0.4
X1.6827 Y3.4673
Z0.1
G3 X1.5735 Y3.3679 Z0.0591 I-0.0546 J-0.0497 F50.
X1.6827 Y3.4673 Z0.0182 I0.0546 J0.0497
X1.5735 Y3.3679 Z-0.0227 I-0.0546 J-0.0497
X1.6827 Y3.4673 Z-0.0636 I0.0546 J0.0497
X1.5735 Y3.3679 Z-0.1044 I-0.0546 J-0.0497
X1.6827 Y3.4673 Z-0.1453 I0.0546 J0.0497
X1.5735 Y3.3679 Z-0.1862 I-0.0546 J-0.0497
X1.7019 Y3.4176 Z-0.2175 I0.0546 J0.0497
X1.5543 I-0.0738 J0.
X1.7017 Y3.4115 I0.0738 J0.
G1 X1.7019 Y3.4176
G3 X1.6607 Y3.559 I-0.066 J0.0574 F60.
G1 X1.583 Y3.5482
G3 X1.5148 Y3.3081 I0.0248 J-0.1368
G1 X1.5604 Y3.2968
X1.5841 Y3.2894
X1.6075 Y3.2797
G3 X1.6871 Y3.2793 I0.0403 J0.0882
X1.6763 Y3.3046 I-0.012 J0.0098
G1 X1.6151 Y3.3093
G3 X1.6037 Y3.3055 I-0.0012 J-0.0155
X1.6075 Y3.2797 I0.0103 J-0.0117 F50.
X1.6669 Y3.2562 I0.0561 J0.0551 F60.
G1 X1.7722 Y3.3763
G3 X1.7716 Y3.5744 I-0.1064 J0.0988
X1.7588 Y3.5603 I0.0027 J-0.0153
G1 X1.758 Y3.5499
X1.7453 Y3.3882
Y3.3857
X1.7457 Y3.3833
X1.7465 Y3.381
G3 X1.7722 Y3.3763 I0.0143 J0.006 F50.
G1 X1.8518 Y3.4673 F60.
X1.8545 Y3.4704
X1.8556 Y3.4716
X1.8593 Y3.4763
X1.8633 Y3.4837
X1.8646 Y3.4873
X1.8645 Y3.4911
X1.8631 Y3.4947
G3 X1.8464 Y3.5075 I-0.0265 J-0.0172
X1.8274 Y3.4684 I-0.0068 J-0.0209
X1.8556 Y3.4716 I0.0123 J0.0182 F50.
G1 X1.8675 Y3.4852 F60.
G2 X1.8163 Y3.5806 I0.9515 J0.5722
G1 X1.6607 Y3.559
G3 X1.6517 Y3.5544 I0.0021 J-0.0154
G2 X1.6456 Y3.5506 I-0.0112 J0.0108
G1 X1.633 Y3.5462
X1.6248 Y3.5433
G2 X1.6136 Y3.5437 I-0.0051 J0.0147
G3 X1.583 Y3.5482 I-0.0242 J-0.0574 F50.
G1 X1.4769 Y3.5335 F60.
G3 X1.402 Y3.3243 I0.0474 J-0.135
G2 X1.5148 Y3.3081 I0.0056 J-0.3618
G3 X1.5295 Y3.3129 I0.0032 J0.0152
X1.5222 Y3.3576 I-0.0216 J0.0194
X1.4267 Y3.3437 I-0.0388 J-0.0685
X1.4175 Y3.3323 I0.0568 J-0.0546 F50.
G2 X1.4037 Y3.3253 I-0.013 J0.0085
G1 X1.377 Y3.3277 F60.
X1.3693 Y3.3313
X1.3618 Y3.3354
X1.3547 Y3.3401
X1.3478 Y3.3452
X1.3414 Y3.3508
X1.3354 Y3.3569
X1.3298 Y3.3633
X1.3247 Y3.3702
X1.3201 Y3.3774
X1.316 Y3.3848
X1.3125 Y3.3926
X1.3095 Y3.4006
X1.307 Y3.4088
X1.3052 Y3.4171
X1.3039 Y3.4255
X1.3033 Y3.434
X1.3032 Y3.4426
X1.3038 Y3.4511
X1.3049 Y3.4596
X1.3067 Y3.4679
X1.309 Y3.4761
X1.3119 Y3.4841
X1.3154 Y3.4919
X1.3194 Y3.4995
X1.3239 Y3.5067
X1.3289 Y3.5136
X1.4769 Y3.5335
G2 X1.4911 Y3.5271 I0.0016 J-0.0155
X1.4666 Y3.4611 I-0.0342 J-0.0249
X1.3532 Y3.4954 I-0.0271 J0.115
X1.3439 Y3.5067 I0.0863 J0.0807 F50.
G3 X1.3297 Y3.513 I-0.0126 J-0.0091
G1 X1.3017 Y3.5091 F60.
G3 X1.2565 Y3.3213 I0.0422 J-0.1095
G2 X1.377 Y3.3277 I0.0909 J-0.5781
G3 X1.3909 Y3.3347 I0.0009 J0.0155
X1.3838 Y3.3664 I-0.019 J0.0124
X1.2779 Y3.3445 I-0.0414 J-0.067
X1.2706 Y3.3318 I0.0646 J-0.0451 F50.
G2 X1.258 Y3.3227 I-0.0142 J0.0064
G1 X1.2546 Y3.3225 F60.
X1.2385 Y3.3193
G2 X1.1674 Y3.4909 I0.0173 J0.1077
G1 X1.3017 Y3.5091
G2 X1.3187 Y3.4952 I0.0016 J-0.0155
X1.3065 Y3.4731 I-0.0221 J-0.0023
X1.1948 Y3.4765 I-0.0527 J0.1057
X1.1794 Y3.4871 I0.0591 J0.1023 F50.
G3 X1.168 Y3.4905 I-0.0098 J-0.0121
G1 X1.1418 Y3.4869 F60.
X1.1344 Y3.4831
X1.1273 Y3.4789
X1.1206 Y3.4741
X1.1142 Y3.4689
X1.1081 Y3.4632
X1.1025 Y3.4572
X1.0974 Y3.4507
X1.0927 Y3.4439
X1.0886 Y3.4367
X1.0849 Y3.4293
X1.0818 Y3.4216
X1.0793 Y3.4138
X1.0773 Y3.4058
X1.0759 Y3.3976
X1.0751 Y3.3894
X1.0749 Y3.3811
X1.0753 Y3.3729
X1.0763 Y3.3647
X1.0778 Y3.3566
X1.08 Y3.3486
X1.0827 Y3.3408
X1.0859 Y3.3332
X1.0897 Y3.3258
X1.094 Y3.3188
X1.0988 Y3.3121
X1.1041 Y3.3057
X1.1098 Y3.2997
X1.1159 Y3.2942
X1.1224 Y3.2891
G2 X1.2385 Y3.3193 I0.1763 J-0.4387
G3 X1.2498 Y3.3299 I-0.0035 J0.0151
X1.2242 Y3.3713 I-0.0309 J0.0095
X1.1363 Y3.3176 I-0.013 J-0.0777
X1.1331 Y3.3033 I0.075 J-0.024 F50.
G2 X1.1238 Y3.2909 I-0.0154 J0.0019
G1 X1.1064 Y3.2843 F60.
G2 X1.0124 Y3.4689 I-0.0012 J0.1156
G1 X1.1418 Y3.4869
G2 X1.1559 Y3.4805 I0.0016 J-0.0155
X1.1568 Y3.4667 I-0.0104 J-0.0076
G1 X1.1528 Y3.461
X1.1483 Y3.4557
X1.1434 Y3.4508
X1.1381 Y3.4463
X1.1324 Y3.4423
X1.1264 Y3.4389
X1.1201 Y3.436
X1.1136 Y3.4336
X1.1069 Y3.4319
X1.1001 Y3.4307
X1.0931 Y3.4301
X1.0862 Y3.4302
X1.0793 Y3.4308
X1.0725 Y3.4321
X1.0658 Y3.434
X1.0593 Y3.4364
X1.053 Y3.4394
X1.0471 Y3.443
X1.0415 Y3.447
X1.0362 Y3.4516
G2 X1.0265 Y3.4626 I0.0541 J0.0573 F50.
G3 X1.0124 Y3.4689 I-0.0126 J-0.0091
G1 X0.9829 Y3.4648 F60.
G3 X0.9944 Y3.2312 I0.0671 J-0.1138
G2 X1.1064 Y3.2843 I0.223 J-0.326
G3 X1.1157 Y3.2967 I-0.0061 J0.0143
X1.0937 Y3.3261 I-0.0263 J0.0033
X1.0033 Y3.2607 I-0.0127 J-0.0777
X1.0023 Y3.2461 I0.0778 J-0.0124 F50.
G2 X0.9949 Y3.2325 I-0.0155 J-0.0004
G1 X0.9767 Y3.2221 F60.
G2 X0.8523 Y3.4462 I-0.0118 J0.14
G1 X0.9829 Y3.4648
G2 X0.9971 Y3.4585 I0.0016 J-0.0155
X0.9977 Y3.4468 I-0.0086 J-0.0063
G1 X0.9965 Y3.4448
G2 X0.8756 Y3.4292 I-0.0668 J0.0417
X0.8659 Y3.4402 I0.0541 J0.0573 F50.
G3 X0.8518 Y3.4466 I-0.0126 J-0.0091
G1 X0.8241 Y3.4427 F60.
G3 X0.8221 Y3.1806 I0.0783 J-0.1316
G1 X0.8547 Y3.1558
X0.8705 Y3.1456
G3 X0.9488 Y3.2058 I-0.048 J0.1435
G1 X0.9723 Y3.2196
X0.9767 Y3.2221
G3 X0.9841 Y3.2357 I-0.0082 J0.0132
G1 X0.9831 Y3.2364
X0.9703 Y3.233
G3 X0.8489 Y3.1847 I0.1709 J-0.6063
G1 X0.836 Y3.1777 F50.
G2 X0.8205 Y3.178 I-0.0075 J0.0136
G1 X0.7212 Y3.2424 F60.
G2 X0.687 Y3.4253 I0.0917 J0.1118
G1 X0.8241 Y3.4427
G2 X0.8377 Y3.4175 I0.0016 J-0.0155
X0.8137 Y3.4006 I-0.0415 J0.0337
X0.716 Y3.41 I-0.0386 J0.1116
X0.7006 Y3.4206 I0.0591 J0.1023 F50.
G3 X0.6892 Y3.424 I-0.0098 J-0.0121
G1 X0.6594 Y3.4198 F60.
X0.6579 Y3.4196
X0.6565 Y3.4194
G3 X0.6356 Y3.4058 I-0.0008 J-0.0217
X0.6402 Y3.3852 I0.03 J-0.0041
X0.6802 Y3.4036 I0.0187 J0.0121
X0.6565 Y3.4194 I-0.0214 J-0.0062 F50.
X0.6317 Y3.3835 I-0.0045 J-0.0234 F60.
X0.6148 Y3.3114 I0.1149 J-0.065
G1 X0.7212 Y3.2424
G3 X0.7359 Y3.2417 I0.008 J0.0133
G1 X0.7378 Y3.2432 Z-0.2173
X0.7396 Y3.2446 Z-0.2168
X0.7413 Y3.246 Z-0.2159
X0.7423 Y3.2479 Z-0.2146
X0.7431 Y3.2496 Z-0.2129
X0.7438 Y3.251 Z-0.211
X0.7443 Y3.2522 Z-0.2089
X0.7445 Y3.2531 Z-0.2067
X0.7446 Y3.2536 Z-0.2044
Y3.2538 Z-0.202
G0 Z0.4
X1.448 Y1.5486
Z-0.1864
G1 Z-0.202 F50.
X1.4483 Y1.5485 Z-0.205
X1.4491 Y1.5481 Z-0.2079
X1.4504 Y1.5475 Z-0.2106
X1.4521 Y1.5467 Z-0.2129
X1.4543 Y1.5457 Z-0.2149
X1.4567 Y1.5446 Z-0.2163
X1.4594 Y1.5434 Z-0.2172
X1.4621 Y1.5421 Z-0.2175
G3 X1.5432 Y1.515 I0.1656 J0.3605
X1.6782 Y1.744 I0.0457 J0.1273 F60.
X1.4146 Y1.7892 I-0.1488 J-0.0766
X1.1017 Y1.8159 I-0.4271 J-3.1607
X0.905 Y1.5826 I0.0083 J-0.2066
X1.1548 Y1.4075 I0.205 J0.0267
G1 X1.1653 Y1.4041
X1.1755 Y1.4002
X1.1854 Y1.3956
X1.1951 Y1.3905
X1.2045 Y1.3848
X1.2136 Y1.3786
X1.2223 Y1.3719
X1.2305 Y1.3647
X1.2384 Y1.357
X1.2458 Y1.349
X1.2527 Y1.3404
X1.2591 Y1.3316
X1.265 Y1.3223
X1.2704 Y1.3128
X1.2752 Y1.3029
X1.2794 Y1.2928
X1.2831 Y1.2824
X1.2861 Y1.2719
X1.2886 Y1.2612
X1.2904 Y1.2504
X1.2916 Y1.2395
X1.2922 Y1.2286
G2 X1.3146 Y1.1821 I-0.2341 J-0.1415
G3 X1.5926 Y1.0671 I0.1892 J0.0639
X1.6691 Y1.3581 I-0.0888 J0.1789
X1.7755 Y1.5123 I-1.3527 J1.0469
G2 X1.7957 Y1.5834 I0.2844 J-0.0425
G1 X1.799 Y1.5957
X1.8017 Y1.6081
X1.8039 Y1.6207
X1.8054 Y1.6333
X1.8063 Y1.646
X1.8066 Y1.6587
X1.8063 Y1.6714
X1.8054 Y1.6841
X1.8039 Y1.6968
X1.8018 Y1.7093
X1.7991 Y1.7218
X1.7957 Y1.734
X1.7919 Y1.7462
X1.7874 Y1.7581
X1.7823 Y1.7698
X1.7768 Y1.7812
X1.7706 Y1.7924
X1.764 Y1.8032
X1.7568 Y1.8137
X1.7491 Y1.8239
X1.741 Y1.8337
X1.7324 Y1.843
X1.7234 Y1.852
X1.7139 Y1.8605
X1.7041 Y1.8686
X1.6938 Y1.8761
X1.6832 Y1.8832
X1.6723 Y1.8898
X1.6611 Y1.8958
X1.6496 Y1.9013
X1.6379 Y1.9062
X1.626 Y1.9106
X1.6138 Y1.9144
X1.6015 Y1.9176
X1.589 Y1.9202
X1.5765 Y1.9222
X1.5638 Y1.9236
X1.5511 Y1.9244
G2 X1.2311 Y1.906 I-0.1997 J0.6815
G3 X0.9685 Y1.8656 I-0.0764 J-0.3777
X0.9829 Y1.8407 I0.0123 J-0.0096
G1 X1.2294 Y1.8756
G3 X1.2394 Y1.8813 I-0.0022 J0.0154
X1.2311 Y1.906 I-0.0122 J0.0097 F50.
X1.0488 Y1.9614 I-0.963 J-2.8409 F60.
G1 X1.0484 Y1.961
X0.8547 Y1.7298
X0.8479 Y1.7195
X0.8416 Y1.7088
X0.8358 Y1.6978
X0.8306 Y1.6866
X0.8259 Y1.6751
X0.8218 Y1.6634
X0.8183 Y1.6515
X0.8153 Y1.6395
X0.813 Y1.6273
X0.8112 Y1.615
X0.8101 Y1.6027
X0.8096 Y1.5903
Y1.5779
X0.8103 Y1.5655
X0.8116 Y1.5532
X0.8135 Y1.541
X0.816 Y1.5288
X0.819 Y1.5168
X0.8227 Y1.505
X0.8269 Y1.4933
X0.8317 Y1.4819
X0.8371 Y1.4707
X0.843 Y1.4598
X0.8494 Y1.4492
X0.8564 Y1.4389
X0.8638 Y1.429
X0.8717 Y1.4195
X0.8801 Y1.4103
X0.8889 Y1.4016
X0.8981 Y1.3933
X0.9077 Y1.3855
X0.9177 Y1.3782
X0.928 Y1.3713
X0.9387 Y1.365
X0.9497 Y1.3592
G2 X1.2787 Y1.1121 I-0.0129 J-0.3598
G1 X1.2839 Y1.1004
X1.2897 Y1.0889
X1.2961 Y1.0778
X1.303 Y1.0669
X1.3104 Y1.0564
X1.3184 Y1.0463
X1.3268 Y1.0366
X1.3357 Y1.0273
X1.345 Y1.0185
X1.3547 Y1.0101
X1.3648 Y1.0022
X1.3753 Y0.9948
X1.3862 Y0.9879
X1.3974 Y0.9816
X1.4088 Y0.9758
X1.4206 Y0.9706
X1.4326 Y0.9659
X1.4448 Y0.9619
X1.4571 Y0.9584
X1.4697 Y0.9555
X1.4823 Y0.9533
X1.4951 Y0.9517
X1.5079 Y0.9507
X1.5207 Y0.9503
X1.5336 Y0.9506
X1.5464 Y0.9515
X1.5592 Y0.953
X1.5718 Y0.9551
X1.5844 Y0.9579
X1.5968 Y0.9612
X1.609 Y0.9652
X1.621 Y0.9697
X1.6328 Y0.9748
X1.6443 Y0.9805
X1.6556 Y0.9868
X1.6665 Y0.9936
X1.677 Y1.0009
X1.6872 Y1.0087
X1.697 Y1.017
X1.7064 Y1.0258
X1.7154 Y1.035
X1.7239 Y1.0446
X1.7319 Y1.0547
X1.7394 Y1.0651
X1.7464 Y1.0759
X1.7528 Y1.087
X1.7587 Y1.0984
X1.7641 Y1.1101
X1.7689 Y1.122
X1.773 Y1.1342
X1.7766 Y1.1465
X1.7796 Y1.159
X1.782 Y1.1716
X1.7837 Y1.1844
G2 X1.7759 Y1.512 I0.6619 J0.1797
G3 X1.7628 Y1.5297 I-0.0154 J0.0022
X1.7356 Y1.522 I-0.005 J-0.0342
X1.7615 Y1.2017 I0.1263 J-0.151
X1.778 Y1.1929 I0.1004 J0.1693 F50.
G2 X1.786 Y1.1841 I-0.0066 J-0.0141
G1 X1.805 Y1.125 F60.
X1.8098 Y1.1121
G2 X1.7978 Y1.0259 I-0.0502 J-0.0369
G3 X1.5307 Y0.9048 I0.0578 J-0.4825
G1 X1.5216 Y0.8995
X1.5121 Y0.8947
X1.5024 Y0.8905
X1.4925 Y0.8868
X1.4824 Y0.8836
X1.4722 Y0.881
X1.4618 Y0.879
X1.4513 Y0.8776
X1.4408 Y0.8767
X1.4302 Y0.8764
X1.4196 Y0.8768
X1.4091 Y0.8777
X1.3986 Y0.8792
X1.3882 Y0.8812
X1.378 Y0.8839
X1.3679 Y0.8871
X1.358 Y0.8908
X1.3483 Y0.8951
X1.3389 Y0.9
X1.3298 Y0.9053
X1.321 Y0.9111
X1.3125 Y0.9175
X1.3044 Y0.9242
X1.2966 Y0.9315
X1.2893 Y0.9391
G3 X1.2782 Y1.112 I-0.3014 J0.0673
G2 X1.3017 Y1.1283 I0.0152 J0.0033
X1.3143 Y0.9622 I-0.0564 J-0.0878
G1 X1.3131 Y0.9612
G2 X1.298 Y0.9502 I-0.0768 J0.0897 F50.
G3 X1.291 Y0.9406 I0.0081 J-0.0132
G1 X1.2902 Y0.9368 F60.
X1.2846 Y0.9133
G3 X1.2923 Y0.8854 I0.0183 J-0.0099
X1.3118 Y0.8861 I0.0083 J0.0413
X1.3081 Y0.9294 I-0.0059 J0.0213
X1.2846 Y0.9133 I-0.0021 J-0.022 F50.
G1 X1.279 Y0.8898 F60.
X1.2789 Y0.889
X1.2796 Y0.8884
X1.4733 Y0.8425
G3 X1.5307 Y0.9048 I-1.0307 J1.0077
X1.5343 Y0.9155 I-0.0087 J0.0089
G1 X1.5317 Y0.9345
G2 X1.5309 Y1.1023 I0.7106 J0.0873
X1.5319 Y1.1062 I0.0154 J-0.0017
G1 X1.6613 Y1.4393
X1.6622 Y1.4411
X1.6633 Y1.4428
G2 X1.7731 Y1.5625 I0.579 J-0.421
X1.792 Y1.5783 I0.4691 J-0.5408 F50.
G3 X1.7957 Y1.5834 I-0.0078 J0.0097
G2 X1.8493 Y1.7035 I0.4142 J-0.113 F60.
G3 X1.859 Y1.7486 I-0.0284 J0.0297
X1.8334 Y1.7442 I-0.0113 J-0.0106
G1 X1.8333 Y1.7439
X1.8218 Y1.7177
G3 X1.8233 Y1.7026 I0.0142 J-0.0063
X1.836 Y1.6959 I0.0127 J0.0089 F50.
X1.8493 Y1.7035 I0. J0.0155
G1 X1.8663 Y1.734 F60.
X1.8679 Y1.738
X1.8678 Y1.7385
X1.6781 Y1.9551
X1.6667 Y1.968
G2 X1.5511 Y1.9249 I-0.2816 J0.5777
G3 X1.5461 Y1.922 I0.0034 J-0.012
G2 X1.3822 Y1.8061 I-0.5223 J0.5645
X1.3791 Y1.8048 I-0.0072 J0.0137
G1 X1.07 Y1.7192
X1.0667 Y1.7186
G2 X0.8841 Y1.7302 I-0.043 J0.7679
G1 X0.8665 Y1.7337 F50.
G3 X0.8547 Y1.7298 I-0.0025 J-0.0122
G1 X0.7619 Y1.6191 F60.
X0.7567 Y1.6091
X0.752 Y1.5989
X0.7479 Y1.5885
X0.7443 Y1.5778
X0.7413 Y1.567
X0.7388 Y1.556
X0.737 Y1.5449
X0.7357 Y1.5338
X0.735 Y1.5226
X0.7348 Y1.5113
X0.7353 Y1.5001
X0.7363 Y1.4889
X0.738 Y1.4778
X0.7402 Y1.4668
X0.743 Y1.4559
X0.7463 Y1.4452
X0.7502 Y1.4347
X0.7547 Y1.4244
X0.7597 Y1.4143
X0.7652 Y1.4045
X0.7712 Y1.395
X0.7777 Y1.3858
X0.7846 Y1.377
X0.792 Y1.3686
X0.7999 Y1.3606
X0.8081 Y1.3529
X0.8168 Y1.3458
X0.8258 Y1.3391
X0.8286 Y1.3404
X0.8311 Y1.3421
X0.8332 Y1.3443
X0.8348 Y1.3468
X0.8359 Y1.3495
X0.8366 Y1.3524
X0.8367 Y1.3553
X0.8362 Y1.3581
X0.8344 Y1.3679
X0.7887 Y1.6115
X0.7883 Y1.6133
X0.7877 Y1.615
G3 X0.7619 Y1.6191 I-0.0142 J-0.0063 F50.
G1 X0.69 Y1.5333 F60.
X0.6862 Y1.5287
X0.6853 Y1.5276
G3 X0.6774 Y1.502 I0.0105 J-0.0172
X0.7004 Y1.4995 I0.0126 J0.0091
G1 X0.704 Y1.5028
X0.7072 Y1.5056
G3 X0.711 Y1.5235 I-0.0103 J0.0116
X0.6853 Y1.5276 I-0.0142 J-0.0063 F50.
G1 X0.672 Y1.5117 F60.
G2 X0.7841 Y1.3242 I-1.1966 J-0.8429
X0.9253 Y1.3592 I0.1497 J-0.3016
G3 X0.9357 Y1.3831 I-0.0025 J0.0153
G1 X0.9341 Y1.3856 Z-0.2172
X0.9325 Y1.388 Z-0.2163
X0.931 Y1.3903 Z-0.2149
X0.9297 Y1.3922 Z-0.2129
X0.9286 Y1.3938 Z-0.2106
X0.9278 Y1.395 Z-0.2079
X0.9273 Y1.3958 Z-0.205
X0.9272 Y1.396 Z-0.202
G0 Z-0.1864
X1.7791 Y1.1465
G1 Z-0.202 F50.
X1.7793 Y1.1463 Z-0.205
