%
(971-23-P-0063_PROXIMAL SPROCKET_1563 FIRST)
(T1  D=0.1563 CR=0. - ZMIN=-0.2175 - FLAT END MILL)
G90 G94 G17 G91.1
G64 P0.001 Q0.001
G20
G53 G0 Z0.
(.3 CIRCLUAR THROUGH HOLE 2)
M9
T1 M6
S22000 M3
G4 P10.
G54
M7
G0 X3.1985 Y0.0123
G43 Z0.6 H1
G0 Z0.13
G1 Z0.0656 F40.
G19 G2 Y-0.0034 Z0.05 J-0.0156 K0.
G1 Y-0.0112
G17 G3 X3.2097 Y-0.0224 I0.0112 J0.
Y0.0223 Z0.0323 I0. J0.0224
Y-0.0223 Z0.0146 I0. J-0.0223
Y0.0223 Z-0.0032 I0. J0.0223
Y-0.0223 Z-0.0209 I0. J-0.0223
Y0.0223 Z-0.0386 I0. J0.0223
Y-0.0223 Z-0.0563 I0. J-0.0223
Y0.0223 Z-0.074 I0. J0.0223
Y-0.0223 Z-0.0918 I0. J-0.0223
Y0.0223 Z-0.1095 I0. J0.0223
Y-0.0223 Z-0.1272 I0. J-0.0223
Y0.0223 Z-0.1449 I0. J0.0223
Y-0.0223 Z-0.1627 I0. J-0.0223
Y0.0223 Z-0.1804 I0. J0.0223
Y-0.0223 Z-0.1981 I0. J-0.0223
X3.2318 Y0.0033 Z-0.2078 I0. J0.0223
X3.2031 Y0.0214 Z-0.2175 I-0.0221 J-0.0033
X3.2163 Y-0.0214 I0.0066 J-0.0214
X3.2031 Y0.0214 I-0.0066 J0.0214
X3.1957 Y0.0074 I0.0033 J-0.0107
G1 X3.198 Y-0.0001
X3.1989 Y-0.003 Z-0.2172
X3.1998 Y-0.0058 Z-0.2163
X3.2006 Y-0.0084 Z-0.2149
X3.2013 Y-0.0106 Z-0.2129
X3.2018 Y-0.0125 Z-0.2106
X3.2023 Y-0.0139 Z-0.2079
X3.2025 Y-0.0147 Z-0.2049
X3.2026 Y-0.015 Z-0.2019
G0 Z0.4
X2.2618 Y-2.2696
Z0.1144
G1 Z0.05 F40.
Y-2.2774
G3 X2.2696 Y-2.2852 I0.0078 J0.
Y-2.254 Z0.0335 I0. J0.0156
Y-2.2852 Z0.0169 I0. J-0.0156
Y-2.254 Z0.0004 I0. J0.0156
Y-2.2852 Z-0.0161 I0. J-0.0156
Y-2.254 Z-0.0327 I0. J0.0156
Y-2.2852 Z-0.0492 I0. J-0.0156
Y-2.254 Z-0.0657 I0. J0.0156
Y-2.2852 Z-0.0822 I0. J-0.0156
Y-2.254 Z-0.0988 I0. J0.0156
Y-2.2852 Z-0.1153 I0. J-0.0156
Y-2.254 Z-0.1318 I0. J0.0156
Y-2.2852 Z-0.1484 I0. J-0.0156
Y-2.254 Z-0.1649 I0. J0.0156
Y-2.2852 Z-0.1814 I0. J-0.0156
Y-2.254 Z-0.198 I0. J0.0156
Y-2.2852 Z-0.2145 I0. J-0.0156
X2.278 Y-2.2827 Z-0.2175 I0. J0.0156
X2.2611 Y-2.2565 I-0.0084 J0.0131
X2.278 Y-2.2827 I0.0084 J-0.0131
X2.2804 Y-2.2719 I-0.0042 J0.0066
G1 X2.2761 Y-2.2653
G0 Z0.4
X0.2612 Y-3.7583
Z0.13
G1 Z0.0656 F40.
G19 G3 Y-3.7427 Z0.05 J0.0156 K0.
G1 Y-3.7349
G17 G3 X0.25 Y-3.7237 I-0.0112 J0.
Y-3.7684 Z0.0323 I0. J-0.0223
Y-3.7237 Z0.0146 I0. J0.0223
Y-3.7684 Z-0.0032 I0. J-0.0223
Y-3.7237 Z-0.0209 I0. J0.0223
Y-3.7684 Z-0.0386 I0. J-0.0223
Y-3.7237 Z-0.0563 I0. J0.0223
Y-3.7684 Z-0.074 I0. J-0.0223
Y-3.7237 Z-0.0918 I0. J0.0223
Y-3.7684 Z-0.1095 I0. J-0.0223
Y-3.7237 Z-0.1272 I0. J0.0223
Y-3.7684 Z-0.1449 I0. J-0.0223
Y-3.7237 Z-0.1627 I0. J0.0223
Y-3.7684 Z-0.1804 I0. J-0.0223
Y-3.7237 Z-0.1981 I0. J0.0224
X0.2279 Y-3.7494 Z-0.2078 I0. J-0.0224
X0.2566 Y-3.7674 Z-0.2175 I0.0221 J0.0033
X0.2434 Y-3.7247 I-0.0066 J0.0214
X0.2566 Y-3.7674 I0.0066 J-0.0214
X0.264 Y-3.7534 I-0.0033 J0.0107
G1 X0.2617 Y-3.746
X0.2608 Y-3.7431 Z-0.2172
X0.2599 Y-3.7403 Z-0.2163
X0.2591 Y-3.7377 Z-0.2149
X0.2584 Y-3.7354 Z-0.2129
X0.2578 Y-3.7335 Z-0.2106
X0.2574 Y-3.7322 Z-0.2079
X0.2572 Y-3.7313 Z-0.2049
X0.2571 Y-3.731 Z-0.2019
G0 Z0.4
X-0.2388 Y-3.7583
Z0.13
G1 Z0.0656 F40.
G19 G3 Y-3.7427 Z0.05 J0.0156 K0.
G1 Y-3.7349
G17 G3 X-0.25 Y-3.7237 I-0.0112 J0.
Y-3.7684 Z0.0323 I0. J-0.0223
Y-3.7237 Z0.0146 I0. J0.0223
Y-3.7684 Z-0.0032 I0. J-0.0223
Y-3.7237 Z-0.0209 I0. J0.0223
Y-3.7684 Z-0.0386 I0. J-0.0223
Y-3.7237 Z-0.0563 I0. J0.0223
Y-3.7684 Z-0.074 I0. J-0.0223
Y-3.7237 Z-0.0918 I0. J0.0223
Y-3.7684 Z-0.1095 I0. J-0.0223
Y-3.7237 Z-0.1272 I0. J0.0223
Y-3.7684 Z-0.1449 I0. J-0.0223
Y-3.7237 Z-0.1627 I0. J0.0223
Y-3.7684 Z-0.1804 I0. J-0.0223
Y-3.7237 Z-0.1981 I0. J0.0224
X-0.2721 Y-3.7494 Z-0.2078 I0. J-0.0224
X-0.2434 Y-3.7674 Z-0.2175 I0.0221 J0.0033
X-0.2566 Y-3.7247 I-0.0066 J0.0214
X-0.2434 Y-3.7674 I0.0066 J-0.0214
X-0.236 Y-3.7534 I-0.0033 J0.0107
G1 X-0.2383 Y-3.746
X-0.2392 Y-3.7431 Z-0.2172
X-0.2401 Y-3.7403 Z-0.2163
X-0.2409 Y-3.7377 Z-0.2149
X-0.2416 Y-3.7354 Z-0.2129
X-0.2422 Y-3.7335 Z-0.2106
X-0.2426 Y-3.7322 Z-0.2079
X-0.2428 Y-3.7313 Z-0.2049
X-0.2429 Y-3.731 Z-0.2019
G0 Z0.4
X-0.0112 Y-3.1974
Z0.13
G1 Z0.0656 F40.
G19 G2 Y-3.213 Z0.05 J-0.0156 K0.
G1 Y-3.2208
G17 G3 X0. Y-3.232 I0.0112 J0.
Y-3.1873 Z0.0323 I0. J0.0224
Y-3.232 Z0.0146 I0. J-0.0224
Y-3.1873 Z-0.0032 I0. J0.0224
Y-3.232 Z-0.0209 I0. J-0.0224
Y-3.1873 Z-0.0386 I0. J0.0224
Y-3.232 Z-0.0563 I0. J-0.0224
Y-3.1873 Z-0.074 I0. J0.0224
Y-3.232 Z-0.0918 I0. J-0.0224
Y-3.1873 Z-0.1095 I0. J0.0224
Y-3.232 Z-0.1272 I0. J-0.0224
Y-3.1873 Z-0.1449 I0. J0.0224
Y-3.232 Z-0.1627 I0. J-0.0224
Y-3.1873 Z-0.1804 I0. J0.0224
Y-3.232 Z-0.1981 I0. J-0.0224
X0.0221 Y-3.2063 Z-0.2078 I0. J0.0224
X-0.0066 Y-3.1883 Z-0.2175 I-0.0221 J-0.0033
X0.0066 Y-3.231 I0.0066 J-0.0214
X-0.0066 Y-3.1883 I-0.0066 J0.0214
X-0.014 Y-3.2023 I0.0033 J-0.0107
G1 X-0.0117 Y-3.2097
X-0.0108 Y-3.2127 Z-0.2172
X-0.0099 Y-3.2155 Z-0.2163
X-0.0091 Y-3.218 Z-0.2149
X-0.0084 Y-3.2203 Z-0.2129
X-0.0078 Y-3.2222 Z-0.2106
X-0.0074 Y-3.2235 Z-0.2079
X-0.0072 Y-3.2244 Z-0.2049
X-0.0071 Y-3.2247 Z-0.2019
G0 Z0.4
X-2.2774 Y-2.2696
Z0.1144
G1 Z0.05 F40.
Y-2.2774
G3 X-2.2696 Y-2.2852 I0.0078 J0.
Y-2.254 Z0.0335 I0. J0.0156
Y-2.2852 Z0.0169 I0. J-0.0156
Y-2.254 Z0.0004 I0. J0.0156
Y-2.2852 Z-0.0161 I0. J-0.0156
Y-2.254 Z-0.0327 I0. J0.0156
Y-2.2852 Z-0.0492 I0. J-0.0156
Y-2.254 Z-0.0657 I0. J0.0156
Y-2.2852 Z-0.0822 I0. J-0.0156
Y-2.254 Z-0.0988 I0. J0.0156
Y-2.2852 Z-0.1153 I0. J-0.0156
Y-2.254 Z-0.1318 I0. J0.0156
Y-2.2852 Z-0.1484 I0. J-0.0156
Y-2.254 Z-0.1649 I0. J0.0156
Y-2.2852 Z-0.1814 I0. J-0.0156
Y-2.254 Z-0.198 I0. J0.0156
Y-2.2852 Z-0.2145 I0. J-0.0156
X-2.2611 Y-2.2827 Z-0.2175 I0. J0.0156
X-2.278 Y-2.2565 I-0.0084 J0.0131
X-2.2611 Y-2.2827 I0.0084 J-0.0131
X-2.2588 Y-2.2719 I-0.0042 J0.0066
G1 X-2.263 Y-2.2653
G0 Z0.4
X-3.2208 Y0.0123
Z0.13
G1 Z0.0656 F40.
G19 G2 Y-0.0034 Z0.05 J-0.0156 K0.
G1 Y-0.0112
G17 G3 X-3.2097 Y-0.0224 I0.0112 J0.
Y0.0224 Z0.0323 I0. J0.0224
Y-0.0224 Z0.0146 I0. J-0.0224
Y0.0224 Z-0.0032 I0. J0.0224
Y-0.0224 Z-0.0209 I0. J-0.0224
Y0.0224 Z-0.0386 I0. J0.0224
Y-0.0224 Z-0.0563 I0. J-0.0224
Y0.0224 Z-0.074 I0. J0.0224
Y-0.0224 Z-0.0918 I0. J-0.0224
Y0.0224 Z-0.1095 I0. J0.0224
Y-0.0224 Z-0.1272 I0. J-0.0224
Y0.0224 Z-0.1449 I0. J0.0224
Y-0.0224 Z-0.1627 I0. J-0.0224
Y0.0224 Z-0.1804 I0. J0.0224
Y-0.0224 Z-0.1981 I0. J-0.0224
X-3.1876 Y0.0033 Z-0.2078 I0. J0.0224
X-3.2163 Y0.0214 Z-0.2175 I-0.0221 J-0.0033
X-3.2031 Y-0.0214 I0.0066 J-0.0214
X-3.2163 Y0.0214 I-0.0066 J0.0214
X-3.2236 Y0.0074 I0.0033 J-0.0107
G1 X-3.2213 Y-0.0001
X-3.2204 Y-0.003 Z-0.2172
X-3.2196 Y-0.0058 Z-0.2163
X-3.2188 Y-0.0084 Z-0.2149
X-3.2181 Y-0.0106 Z-0.2129
X-3.2175 Y-0.0125 Z-0.2106
X-3.2171 Y-0.0139 Z-0.2079
X-3.2168 Y-0.0147 Z-0.2049
X-3.2167 Y-0.015 Z-0.2019
G0 Z0.4
X-2.2774 Y2.2696
Z0.1144
G1 Z0.05 F40.
Y2.2618
G3 X-2.2696 Y2.254 I0.0078 J0.
Y2.2852 Z0.0335 I0. J0.0156
Y2.254 Z0.0169 I0. J-0.0156
Y2.2852 Z0.0004 I0. J0.0156
Y2.254 Z-0.0161 I0. J-0.0156
Y2.2852 Z-0.0327 I0. J0.0156
Y2.254 Z-0.0492 I0. J-0.0156
Y2.2852 Z-0.0657 I0. J0.0156
Y2.254 Z-0.0822 I0. J-0.0156
Y2.2852 Z-0.0988 I0. J0.0156
Y2.254 Z-0.1153 I0. J-0.0156
Y2.2852 Z-0.1318 I0. J0.0156
Y2.254 Z-0.1484 I0. J-0.0156
Y2.2852 Z-0.1649 I0. J0.0156
Y2.254 Z-0.1814 I0. J-0.0156
Y2.2852 Z-0.198 I0. J0.0156
Y2.254 Z-0.2145 I0. J-0.0156
X-2.2611 Y2.2565 Z-0.2175 I0. J0.0156
X-2.278 Y2.2827 I-0.0084 J0.0131
X-2.2611 Y2.2565 I0.0084 J-0.0131
X-2.2588 Y2.2672 I-0.0042 J0.0066
G1 X-2.263 Y2.2738
G0 Z0.4
X-0.0112 Y3.2219
Z0.13
G1 Z0.0656 F40.
G19 G2 Y3.2063 Z0.05 J-0.0156 K0.
G1 Y3.1985
G17 G3 X0. Y3.1873 I0.0112 J0.
Y3.232 Z0.0323 I0. J0.0223
Y3.1873 Z0.0146 I0. J-0.0223
Y3.232 Z-0.0032 I0. J0.0223
Y3.1873 Z-0.0209 I0. J-0.0223
Y3.232 Z-0.0386 I0. J0.0223
Y3.1873 Z-0.0563 I0. J-0.0223
Y3.232 Z-0.074 I0. J0.0223
Y3.1873 Z-0.0918 I0. J-0.0223
Y3.232 Z-0.1095 I0. J0.0223
Y3.1873 Z-0.1272 I0. J-0.0223
Y3.232 Z-0.1449 I0. J0.0223
Y3.1873 Z-0.1627 I0. J-0.0223
Y3.232 Z-0.1804 I0. J0.0223
Y3.1873 Z-0.1981 I0. J-0.0224
X0.0221 Y3.213 Z-0.2078 I0. J0.0224
X-0.0066 Y3.231 Z-0.2175 I-0.0221 J-0.0033
X0.0066 Y3.1883 I0.0066 J-0.0214
X-0.0066 Y3.231 I-0.0066 J0.0214
X-0.014 Y3.2171 I0.0033 J-0.0107
G1 X-0.0117 Y3.2096
X-0.0108 Y3.2067 Z-0.2172
X-0.0099 Y3.2039 Z-0.2163
X-0.0091 Y3.2013 Z-0.2149
X-0.0084 Y3.199 Z-0.2129
X-0.0078 Y3.1972 Z-0.2106
X-0.0074 Y3.1958 Z-0.2079
X-0.0072 Y3.1949 Z-0.2049
X-0.0071 Y3.1946 Z-0.2019
G0 Z0.4
X2.2618 Y2.2696
Z0.1144
G1 Z0.05 F40.
Y2.2618
G3 X2.2696 Y2.254 I0.0078 J0.
Y2.2852 Z0.0335 I0. J0.0156
Y2.254 Z0.0169 I0. J-0.0156
Y2.2852 Z0.0004 I0. J0.0156
Y2.254 Z-0.0161 I0. J-0.0156
Y2.2852 Z-0.0327 I0. J0.0156
Y2.254 Z-0.0492 I0. J-0.0156
Y2.2852 Z-0.0657 I0. J0.0156
Y2.254 Z-0.0822 I0. J-0.0156
Y2.2852 Z-0.0988 I0. J0.0156
Y2.254 Z-0.1153 I0. J-0.0156
Y2.2852 Z-0.1318 I0. J0.0156
Y2.254 Z-0.1484 I0. J-0.0156
Y2.2852 Z-0.1649 I0. J0.0156
Y2.254 Z-0.1814 I0. J-0.0156
Y2.2852 Z-0.198 I0. J0.0156
Y2.254 Z-0.2145 I0. J-0.0156
X2.278 Y2.2565 Z-0.2175 I0. J0.0156
X2.2611 Y2.2827 I-0.0084 J0.0131
X2.278 Y2.2565 I0.0084 J-0.0131
X2.2804 Y2.2672 I-0.0042 J0.0066
G1 X2.2761 Y2.2738
G0 Z0.6
(.3 CIRCULAR THROUGH HOLE)
M7
G0 X-0.026 Y3.7923
Z0.6
Z0.2
G1 Z0.1151 F13.333
G3 X-0.0246 Y3.7925 Z0.1085 I-0.0051 J0.0447 F55.
X-0.0205 Y3.7933 Z0.1031 I-0.0066 J0.0445
X-0.0148 Y3.7951 Z0.1 I-0.0106 J0.0437
X-0.0475 Y3.8789 Z0.0621 I-0.0164 J0.0419
X-0.0148 Y3.7951 Z0.0242 I0.0164 J-0.0419
X-0.0475 Y3.8789 Z-0.0136 I-0.0164 J0.0419
X-0.0148 Y3.7951 Z-0.0515 I0.0164 J-0.0419
X-0.0475 Y3.8789 Z-0.0894 I-0.0164 J0.0419
X-0.0148 Y3.7951 Z-0.1273 I0.0164 J-0.0419
X-0.0475 Y3.8789 Z-0.1652 I-0.0164 J0.0419
X-0.0148 Y3.7951 Z-0.203 I0.0164 J-0.0419
X0.0139 Y3.837 Z-0.2175 I-0.0164 J0.0419
X-0.0139 I-0.0139 J0. F60.
X0.1138 I0.0638 J0.
X-0.1138 I-0.1138 J0.
X0.1138 I0.1138 J0.
G2 X0.1502 Y3.9005 I0.0735 J0.
G3 X0.1629 Y3.9725 I-0.0242 J0.0414
X0. Y4.0489 I-0.1629 J-0.1355
Y3.6252 I0. J-0.2119
X0.1629 Y3.9725 I0. J0.2119
G2 X0.1619 Y3.9813 I0.0062 J0.0052
G3 X0.1606 Y3.9901 I-0.0069 J0.0035
X0. Y4.0589 I-0.1606 J-0.1531
Y3.6151 I0. J-0.2219
X0.1606 Y3.9901 I0. J0.2219
X0.1557 Y3.9935 Z-0.2163 I-0.0113 J-0.0108
X0.1509 Y3.9948 Z-0.2129 I-0.0065 J-0.0142
X0.1475 Z-0.2079 I-0.0016 J-0.0155
X0.1463 Y3.9946 Z-0.2019 I0.0018 J-0.0155
G0 Z0.6
(SHAPE POCKET)
M7
G0 X-4.3686 Y-0.0742
Z0.6
Z0.1
G3 X-4.3666 Y0.0743 Z0.0589 I0.001 J0.0742 F50.
X-4.3686 Y-0.0742 Z0.0177 I-0.001 J-0.0742
X-4.3666 Y0.0743 Z-0.0234 I0.001 J0.0742
X-4.3686 Y-0.0742 Z-0.0645 I-0.001 J-0.0742
X-4.3666 Y0.0743 Z-0.1056 I0.001 J0.0742
X-4.3686 Y-0.0742 Z-0.1468 I-0.001 J-0.0742
X-4.2933 Y0. Z-0.1675 I0.001 J0.0742
X-4.4418 I-0.0742 J0.
X-4.2936 Y-0.0062 I0.0742 J0.
G1 X-4.2933 Y0.
G3 X-4.4591 Y0.1178 I-0.0855 J0.0552 F60.
G1 X-4.4669 Y0.1119
X-4.4743 Y0.1054
X-4.4813 Y0.0985
X-4.4878 Y0.0912
X-4.4939 Y0.0835
X-4.4995 Y0.0754
X-4.5045 Y0.067
X-4.509 Y0.0583
X-4.513 Y0.0493
X-4.5163 Y0.0401
X-4.5191 Y0.0306
X-4.5212 Y0.0211
X-4.5228 Y0.0114
X-4.5237 Y0.0016
X-4.524 Y-0.0082
X-4.5237 Y-0.018
X-4.5228 Y-0.0278
X-4.5213 Y-0.0375
X-4.5191 Y-0.0471
X-4.5163 Y-0.0565
X-4.513 Y-0.0657
X-4.509 Y-0.0747
X-4.5045 Y-0.0834
X-4.4995 Y-0.0918
X-4.4939 Y-0.0999
X-4.4879 Y-0.1076
X-4.4813 Y-0.1149
X-4.4743 Y-0.1218
X-4.4669 Y-0.1283
X-4.4591 Y-0.1342
X-4.4509 Y-0.1396
X-4.4424 Y-0.1445
X-4.4336 Y-0.1489
X-4.4246 Y-0.1527
X-4.4153 Y-0.1559
X-4.4058 Y-0.1585
X-4.3962 Y-0.1605
X-4.3865 Y-0.1619
X-4.3767 Y-0.1627
X-4.3669 Y-0.1628
X-4.3571 Y-0.1624
X-4.3474 Y-0.1613
X-4.3377 Y-0.1596
X-4.3282 Y-0.1573
X-4.3188 Y-0.1543
X-4.3096 Y-0.1508
X-4.3007 Y-0.1468
X-4.292 Y-0.1421
X-4.2837 Y-0.1369
X-4.2757 Y-0.1312
X-4.2681 Y-0.1251
X-4.2609 Y-0.1184
X-4.2541 Y-0.1113
X-4.2478 Y-0.1038
X-4.242 Y-0.0959
X-4.2367 Y-0.0876
X-4.232 Y-0.079
X-4.2277 Y-0.0702
X-4.2241 Y-0.061
X-4.221 Y-0.0517
X-4.2152 Y-0.0424
X-4.2099 Y-0.0328
X-4.2051 Y-0.0229
X-4.201 Y-0.0128
X-4.1974 Y-0.0024
X-4.1944 Y0.0082
X-4.192 Y0.0189
X-4.1902 Y0.0297
X-4.1891 Y0.0406
X-4.1885 Y0.0516
X-4.1886 Y0.0626
X-4.1893 Y0.0736
X-4.1907 Y0.0844
X-4.1927 Y0.0952
X-4.1952 Y0.1059
X-4.1984 Y0.1164
X-4.2022 Y0.1267
X-4.2066 Y0.1368
X-4.2115 Y0.1466
X-4.217 Y0.1561
X-4.223 Y0.1653
X-4.2295 Y0.1742
X-4.2365 Y0.1826
X-4.244 Y0.1906
X-4.252 Y0.1982
X-4.2603 Y0.2053
X-4.2691 Y0.212
X-4.2782 Y0.2181
X-4.2876 Y0.2237
X-4.2974 Y0.2287
X-4.3074 Y0.2332
X-4.3177 Y0.2371
X-4.3281 Y0.2404
X-4.3388 Y0.2431
X-4.3495 Y0.2452
X-4.3604 Y0.2467
X-4.3714 Y0.2476
X-4.3823 Y0.2478
X-4.3933 Y0.2474
X-4.4042 Y0.2464
X-4.4151 Y0.2447
X-4.4258 Y0.2425
X-4.4364 Y0.2396
X-4.4469 Y0.2361
X-4.4571 Y0.2321
X-4.467 Y0.2274
X-4.4767 Y0.2222
X-4.486 Y0.2165
X-4.4951 Y0.2103
X-4.5037 Y0.2035
X-4.5119 Y0.1962
X-4.5198 Y0.1885
X-4.5271 Y0.1804
X-4.5366 Y0.1728
X-4.5458 Y0.1648
X-4.5544 Y0.1563
X-4.5627 Y0.1473
X-4.5705 Y0.138
X-4.5777 Y0.1282
X-4.5845 Y0.1181
X-4.5907 Y0.1077
X-4.5964 Y0.0969
X-4.6015 Y0.0859
X-4.6061 Y0.0746
X-4.61 Y0.0631
X-4.6134 Y0.0514
X-4.6161 Y0.0396
X-4.6183 Y0.0276
X-4.6198 Y0.0155
X-4.6207 Y0.0034
X-4.6209 Y-0.0088
X-4.6206 Y-0.0209
X-4.6196 Y-0.0331
X-4.618 Y-0.0451
X-4.6158 Y-0.0571
X-4.6129 Y-0.0689
X-4.6095 Y-0.0805
X-4.6054 Y-0.092
X-4.6008 Y-0.1033
X-4.5956 Y-0.1142
X-4.5898 Y-0.125
X-4.5835 Y-0.1354
X-4.5767 Y-0.1454
X-4.5693 Y-0.1551
X-4.5615 Y-0.1644
X-4.5532 Y-0.1733
X-4.5444 Y-0.1817
X-4.5353 Y-0.1897
X-4.5257 Y-0.1972
X-4.5157 Y-0.2042
X-4.5054 Y-0.2107
X-4.4948 Y-0.2166
X-4.4839 Y-0.222
X-4.4727 Y-0.2268
X-4.4601 Y-0.231
X-4.4472 Y-0.2346
X-4.4342 Y-0.2376
X-4.4211 Y-0.2401
X-4.4079 Y-0.2419
X-4.3946 Y-0.2431
X-4.3812 Y-0.2437
X-4.3679 Y-0.2436
X-4.3546 Y-0.243
X-4.3413 Y-0.2417
X-4.328 Y-0.2399
X-4.3149 Y-0.2374
X-4.3019 Y-0.2343
X-4.2891 Y-0.2306
X-4.2765 Y-0.2263
X-4.264 Y-0.2215
X-4.2518 Y-0.2161
X-4.2399 Y-0.2101
X-4.2282 Y-0.2036
X-4.2169 Y-0.1965
X-4.2059 Y-0.1889
X-4.1953 Y-0.1809
X-4.185 Y-0.1723
X-4.1752 Y-0.1633
X-4.1658 Y-0.1538
X-4.1568 Y-0.1439
X-4.1483 Y-0.1337
X-4.1403 Y-0.123
X-4.1328 Y-0.112
X-4.1258 Y-0.1006
X-4.1193 Y-0.0889
X-4.1134 Y-0.0769
X-4.108 Y-0.0647
X-4.1032 Y-0.0523
X-4.099 Y-0.0396
X-4.0954 Y-0.0267
X-4.0924 Y-0.0137
X-4.0899 Y-0.0006
X-4.0881 Y0.0126
X-4.0869 Y0.0259
X-4.0863 Y0.0392
X-4.0864 Y0.0526
X-4.087 Y0.0659
X-4.0883 Y0.0792
X-4.0902 Y0.0924
X-4.0927 Y0.1055
X-4.0957 Y0.1185
X-4.0994 Y0.1314
X-4.1037 Y0.144
X-4.1086 Y0.1564
X-4.114 Y0.1686
X-4.12 Y0.1806
X-4.1265 Y0.1922
X-4.1335 Y0.2035
X-4.1411 Y0.2145
X-4.1492 Y0.2252
X-4.1577 Y0.2354
X-4.1668 Y0.2453
X-4.1762 Y0.2547
X-4.1861 Y0.2636
X-4.1964 Y0.2721
X-4.2071 Y0.2802
X-4.2181 Y0.2877
X-4.2295 Y0.2947
X-4.2411 Y0.3011
X-4.2531 Y0.3071
X-4.2653 Y0.3124
X-4.2778 Y0.3172
X-4.2905 Y0.3214
X-4.3033 Y0.325
X-4.3163 Y0.3281
X-4.3294 Y0.3305
X-4.3427 Y0.3323
X-4.356 Y0.3335
X-4.3693 Y0.3341
X-4.3826 Y0.334
X-4.396 Y0.3334
X-4.4093 Y0.3321
X-4.4225 Y0.3302
G3 X-4.4603 Y-0.3316 I0.0436 J-0.3345
G1 X-4.4451 Y-0.3346
X-4.4297 Y-0.3369
X-4.4143 Y-0.3385
X-4.3988 Y-0.3396
X-4.3832 Y-0.34
X-4.3677 Y-0.3399
X-4.3522 Y-0.339
X-4.3367 Y-0.3376
X-4.3213 Y-0.3356
X-4.306 Y-0.3329
X-4.2908 Y-0.3296
X-4.2758 Y-0.3257
X-4.2609 Y-0.3213
X-4.2462 Y-0.3162
X-4.2318 Y-0.3105
X-4.2175 Y-0.3043
X-4.2036 Y-0.2975
X-4.1899 Y-0.2901
X-4.1765 Y-0.2822
X-4.1635 Y-0.2738
X-4.1508 Y-0.2649
X-4.1384 Y-0.2554
X-4.1265 Y-0.2455
X-4.115 Y-0.2351
X-4.1039 Y-0.2242
X-4.0932 Y-0.2129
X-4.083 Y-0.2012
X-4.0733 Y-0.1891
X-4.0641 Y-0.1766
X-4.0553 Y-0.1637
X-4.0471 Y-0.1505
X-4.0395 Y-0.137
X-4.0324 Y-0.1232
X-4.0258 Y-0.1091
X-4.0198 Y-0.0948
X-4.0144 Y-0.0802
X-4.0096 Y-0.0655
X-4.0054 Y-0.0505
X-4.0018 Y-0.0354
X-3.9988 Y-0.0202
X-3.9964 Y-0.0048
X-3.9946 Y0.0106
X-3.9935 Y0.0261
X-3.9929 Y0.0416
X-3.993 Y0.0571
X-3.9937 Y0.0727
X-3.9951 Y0.0881
X-3.997 Y0.1035
X-3.9996 Y0.1189
X-4.0028 Y0.1341
X-4.0066 Y0.1491
X-4.011 Y0.164
X-4.016 Y0.1787
X-4.0215 Y0.1932
X-4.0277 Y0.2075
X-4.0344 Y0.2215
X-4.0417 Y0.2352
X-4.0495 Y0.2487
X-4.0578 Y0.2618
X-4.0667 Y0.2745
X-4.0761 Y0.2869
X-4.0859 Y0.2989
X-4.0963 Y0.3105
X-4.1071 Y0.3217
X-4.1183 Y0.3324
X-4.13 Y0.3427
X-4.142 Y0.3524
X-4.1544 Y0.3617
X-4.1673 Y0.3705
X-4.1804 Y0.3788
X-4.1939 Y0.3866
X-4.2076 Y0.3938
X-4.2217 Y0.4004
X-4.236 Y0.4065
X-4.2505 Y0.4119
X-4.2652 Y0.4169
X-4.2802 Y0.4212
X-4.2952 Y0.4249
X-4.3105 Y0.428
X-4.3258 Y0.4304
X-4.3412 Y0.4323
X-4.3567 Y0.4336
X-4.3722 Y0.4342
X-4.3878
X-4.4033 Y0.4336
X-4.4188 Y0.4323
X-4.4342 Y0.4305
X-4.4495 Y0.428
X-4.4647 Y0.4249
X-4.4798 Y0.4212
X-4.4947 Y0.4169
X-4.5095 Y0.412
X-4.524 Y0.4065
X-4.5383 Y0.4004
X-4.5524 Y0.3938
X-4.5661 Y0.3866
X-4.5796 Y0.3789
X-4.5927 Y0.3706
X-4.6055 Y0.3618
X-4.618 Y0.3525
X-4.63 Y0.3427
X-4.6417 Y0.3325
G3 X-4.8103 Y-0.0166 I0.2304 J-0.3265
G1 X-4.8091 Y-0.0333
X-4.8074 Y-0.0499
X-4.805 Y-0.0665
X-4.8021 Y-0.083
X-4.7985 Y-0.0993
X-4.7943 Y-0.1156
X-4.7895 Y-0.1316
X-4.7841 Y-0.1475
X-4.7781 Y-0.1631
X-4.7715 Y-0.1785
X-4.7644 Y-0.1936
X-4.7567 Y-0.2085
X-4.7484 Y-0.2231
X-4.7397 Y-0.2373
X-4.7303 Y-0.2513
X-4.7205 Y-0.2648
X-4.7102 Y-0.278
X-4.6994 Y-0.2908
X-4.6881 Y-0.3032
X-4.6764 Y-0.3151
X-4.6642 Y-0.3266
X-4.6516 Y-0.3376
X-4.6386 Y-0.3482
X-4.6252 Y-0.3583
X-4.6115 Y-0.3678
X-4.5974 Y-0.3769
X-4.5829 Y-0.3854
X-4.5682 Y-0.3933
X-4.5532 Y-0.4007
X-4.5379 Y-0.4076
X-4.5224 Y-0.4138
X-4.5066 Y-0.4195
X-4.4907 Y-0.4246
X-4.4745 Y-0.4291
X-4.4582 Y-0.433
X-4.4418 Y-0.4362
X-4.4253 Y-0.4389
X-4.4087 Y-0.4409
X-4.392 Y-0.4423
X-4.3752 Y-0.4431
X-4.3585 Y-0.4433
X-4.3418 Y-0.4428
X-4.325 Y-0.4417
X-4.3084 Y-0.44
X-4.2918 Y-0.4377
X-4.2753 Y-0.4347
X-4.259 Y-0.4311
X-4.2427 Y-0.427
X-4.2267 Y-0.4222
X-4.2108 Y-0.4168
X-4.1952 Y-0.4109
X-4.1798 Y-0.4043
X-4.1646 Y-0.3972
X-4.1497 Y-0.3895
X-4.1351 Y-0.3813
X-4.1209 Y-0.3725
X-4.107 Y-0.3632
X-4.0934 Y-0.3534
X-4.0802 Y-0.3431
X-4.0674 Y-0.3323
X-4.055 Y-0.3211
X-4.043 Y-0.3093
X-4.0315 Y-0.2972
X-4.0205 Y-0.2846
X-4.0099 Y-0.2716
X-3.9998 Y-0.2583
X-3.9902 Y-0.2445
X-3.9812 Y-0.2304
X-3.9726 Y-0.216
X-3.9647 Y-0.2013
X-3.9572 Y-0.1863
X-3.9504 Y-0.171
X-3.9441 Y-0.1555
X-3.9384 Y-0.1398
X-3.9333 Y-0.1238
X-3.9288 Y-0.1077
X-3.9249 Y-0.0914
X-3.9216 Y-0.075
X-3.9189 Y-0.0584
X-3.9168 Y-0.0418
X-3.913 Y-0.0259
X-3.9097 Y-0.0099
X-3.907 Y0.0063
X-3.905 Y0.0225
X-3.9035 Y0.0388
X-3.9026 Y0.0551
X-3.9024 Y0.0715
X-3.9027 Y0.0879
X-3.9036 Y0.1042
X-3.9052 Y0.1205
X-3.9073 Y0.1367
X-3.9101 Y0.1529
X-3.9134 Y0.1689
X-3.9173 Y0.1848
X-3.9218 Y0.2005
X-3.9269 Y0.2161
X-3.9326 Y0.2314
X-3.9388 Y0.2466
X-3.9456 Y0.2615
X-3.9529 Y0.2761
X-3.9607 Y0.2905
X-3.9691 Y0.3045
X-3.978 Y0.3183
X-3.9874 Y0.3317
X-3.9973 Y0.3447
X-4.0076 Y0.3574
X-4.0184 Y0.3697
X-4.0297 Y0.3815
X-4.0414 Y0.393
X-4.0535 Y0.404
X-4.066 Y0.4146
X-4.0789 Y0.4247
X-4.0921 Y0.4343
X-4.1057 Y0.4434
X-4.1196 Y0.452
X-4.1339 Y0.4601
X-4.1484 Y0.4676
X-4.1632 Y0.4746
X-4.1782 Y0.4811
X-4.1935 Y0.487
X-4.2105 Y0.4932
X-4.2277 Y0.4987
X-4.2451 Y0.5037
X-4.2627 Y0.5081
X-4.2804 Y0.5119
X-4.2982 Y0.515
X-4.3161 Y0.5176
X-4.3341 Y0.5195
X-4.3521 Y0.5208
X-4.3702 Y0.5215
X-4.3883 Y0.5216
X-4.4064 Y0.5211
X-4.4244 Y0.5199
X-4.4425 Y0.5182
X-4.4604 Y0.5158
X-4.4782 Y0.5128
X-4.496 Y0.5092
X-4.5136 Y0.505
X-4.531 Y0.5002
X-4.5483 Y0.4947
X-4.5653 Y0.4888
X-4.5822 Y0.4822
X-4.5988 Y0.475
X-4.6152 Y0.4673
X-4.6313 Y0.459
X-4.6471 Y0.4502
X-4.6626 Y0.4409
X-4.6777 Y0.431
X-4.6926 Y0.4206
X-4.707 Y0.4097
X-4.7211 Y0.3983
X-4.7348 Y0.3865
X-4.748 Y0.3742
X-4.7608 Y0.3614
X-4.7732 Y0.3482
X-4.7851 Y0.3346
X-4.7966 Y0.3206
X-4.8076 Y0.3062
X-4.818 Y0.2914
X-4.828 Y0.2763
X-4.8374 Y0.2609
X-4.8463 Y0.2451
X-4.8547 Y0.2291
X-4.8625 Y0.2128
X-4.8697 Y0.1962
X-4.8764 Y0.1794
X-4.8825 Y0.1623
X-4.888 Y0.1451
X-4.8929 Y0.1277
X-4.8972 Y0.1101
X-4.9009 Y0.0924
X-4.904 Y0.0745
X-4.9064 Y0.0566
X-4.9083 Y0.0386
X-4.9096 Y0.0206
X-4.9102 Y0.0025
Y-0.0156
X-4.9096 Y-0.0337
X-4.9084 Y-0.0518
X-4.9065 Y-0.0698
X-4.9041 Y-0.0877
X-4.901 Y-0.1055
X-4.8973 Y-0.1232
X-4.893 Y-0.1408
X-4.8881 Y-0.1582
X-4.8826 Y-0.1755
X-4.8766 Y-0.1925
X-4.8699 Y-0.2094
X-4.8627 Y-0.2259
X-4.8549 Y-0.2423
X-4.8466 Y-0.2583
X-4.8377 Y-0.2741
X-4.8283 Y-0.2896
X-4.8184 Y-0.3047
X-4.8079 Y-0.3195
X-4.797 Y-0.3339
X-4.7855 Y-0.3479
X-4.7736 Y-0.3615
X-4.7613 Y-0.3747
X-4.7484 Y-0.3875
X-4.7352 Y-0.3998
X-4.7215 Y-0.4117
X-4.7075 Y-0.4231
X-4.693 Y-0.434
X-4.6782 Y-0.4444
X-4.6631 Y-0.4543
X-4.6476 Y-0.4637
X-4.6318 Y-0.4725
X-4.6157 Y-0.4808
X-4.5994 Y-0.4885
X-4.5828 Y-0.4957
X-4.5659 Y-0.5023
X-4.5488 Y-0.5083
X-4.5316 Y-0.5137
X-4.5141 Y-0.5185
X-4.4966 Y-0.5228
X-4.4788 Y-0.5264
X-4.461 Y-0.5294
X-4.4431 Y-0.5318
X-4.425 Y-0.5336
X-4.407 Y-0.5348
X-4.3889 Y-0.5353
X-4.3708
X-4.3527 Y-0.5346
X-4.3347 Y-0.5333
X-4.3167 Y-0.5314
X-4.2988 Y-0.5288
X-4.281 Y-0.5257
X-4.2633 Y-0.5219
X-4.2457 Y-0.5176
G3 X-3.8422 Y0.2628 I-0.135 J0.5643
X-4.6731 Y0.5479 I-0.5385 J-0.216
X-4.9247 Y-0.3124 I0.3002 J-0.5547
X-4.062 Y-0.5554 I0.5517 J0.3056
X-4.575 Y0.6965 I-0.3212 J0.5994
X-5.0599 Y0.2419 I0.1898 J-0.6885
G1 X-5.0662 Y0.
X-5.0611 Y-0.1888
X-5.0561 Y-0.2093
X-5.0505 Y-0.2296
X-5.0442 Y-0.2497
X-5.0374 Y-0.2697
X-5.03 Y-0.2894
X-5.022 Y-0.3089
X-5.0134 Y-0.3281
X-5.0042 Y-0.3471
X-4.9945 Y-0.3658
X-4.9842 Y-0.3842
X-4.9734 Y-0.4023
X-4.9621 Y-0.4201
X-4.9502 Y-0.4375
X-4.9378 Y-0.4546
X-4.925 Y-0.4712
X-4.9116 Y-0.4875
X-4.8977 Y-0.5034
X-4.8834 Y-0.5189
X-4.8686 Y-0.5339
X-4.8534 Y-0.5485
X-4.8378 Y-0.5626
X-4.8217 Y-0.5763
X-4.8053 Y-0.5895
X-4.7884 Y-0.6021
X-4.7712 Y-0.6143
X-4.7537 Y-0.626
X-4.7358 Y-0.6371
X-4.7175 Y-0.6477
X-4.699 Y-0.6577
X-4.6802 Y-0.6672
X-4.6611 Y-0.6761
X-4.6417 Y-0.6844
X-4.6221 Y-0.6922
X-4.6023 Y-0.6994
X-4.5823 Y-0.706
X-4.5621 Y-0.712
X-4.5417 Y-0.7173
X-4.5212 Y-0.7221
X-4.5005 Y-0.7263
X-4.4798 Y-0.7298
X-4.4589 Y-0.7328
X-4.4379 Y-0.7351
X-4.4169 Y-0.7367
X-4.3959 Y-0.7378
X-4.3748 Y-0.7382
X-4.3537 Y-0.738
X-4.3327 Y-0.7372
X-4.3116 Y-0.7357
X-4.2907 Y-0.7336
X-4.2698 Y-0.7309
X-4.249 Y-0.7276
X-4.2282 Y-0.7236
X-4.2077 Y-0.7191
X-4.1872 Y-0.7139
X-4.167 Y-0.7081
X-4.1469 Y-0.7018
X-4.127 Y-0.6948
X-4.1073 Y-0.6872
X-4.0879 Y-0.6791
X-4.0687 Y-0.6704
X-4.0498 Y-0.6611
X-4.0311 Y-0.6512
X-4.0128 Y-0.6408
X-3.9948 Y-0.6299
X-3.9771 Y-0.6184
X-3.7063 Y-0.2966
G3 X-3.6208 Y0.1933 I-0.5514 J0.3487
G1 X-4.0474 Y0.708
G3 X-4.5118 Y0.8111 I-0.3406 J-0.4371
X-5.043 Y0.4826 I0.1273 J-0.7996
G1 X-5.058 Y0.2832
X-5.0592 Y0.2596
X-5.0597 Y0.2418
G3 X-5.0518 Y0.2284 I0.0156 J0.0001
X-4.9944 Y0.2401 I0.022 J0.0387
X-5.0229 Y0.4595 I-0.1254 J0.0953
X-5.0348 Y0.468 I-0.0969 J-0.1241 F50.
G2 X-5.0419 Y0.4818 I0.0084 J0.0132
G1 X-5.037 Y0.5428 F60.
X-5.0339 Y0.5664
X-5.0307 Y0.59
G2 X-4.6807 Y0.8695 I0.4761 J-0.2374
X-4.2027 Y0.8978 I0.2884 J-0.8184
G1 X-4.0474 Y0.708
G2 X-4.0453 Y0.6925 I-0.0124 J-0.0095
X-4.0938 Y0.668 I-0.0384 J0.0157
X-4.2059 Y0.8667 I0.0386 J0.1527
X-4.201 Y0.8804 I0.1506 J-0.046 F50.
G3 X-4.2031 Y0.8959 I-0.0145 J0.0059
G1 X-4.2491 Y0.9514 F60.
G3 X-4.623 Y0.9886 I-0.2221 J-0.3352
X-5.0038 Y0.7973 I0.1849 J-0.843
G1 X-5.0307 Y0.59
G3 X-5.0052 Y0.5764 I0.0156 J-0.0016
X-4.962 Y0.7127 I-0.0829 J0.1013
X-4.9882 Y0.7697 I-0.1897 J-0.0527
X-4.9994 Y0.7847 I-0.1634 J-0.1097 F50.
G2 X-5.0028 Y0.7961 I0.0121 J0.0099
G1 X-5.002 Y0.8024 F60.
X-4.9981 Y0.826
X-4.9891 Y0.8732
G2 X-4.6826 Y1.0746 I0.3599 J-0.2139
X-4.3761 Y1.1046 I0.2173 J-0.6386
G1 X-4.2491 Y0.9514
G2 X-4.247 Y0.9359 I-0.0124 J-0.0095
X-4.2609 Y0.9263 I-0.0144 J0.0059
X-4.3786 Y1.0753 I-0.0038 J0.118
X-4.374 Y1.0891 I0.114 J-0.031 F50.
G3 X-4.3761 Y1.1046 I-0.0145 J0.0059
G1 X-4.4143 Y1.1507 F60.
G3 X-4.7587 Y1.146 I-0.1682 J-0.2909
X-4.955 Y1.0588 I0.0736 J-0.4304
G1 X-4.9891 Y0.8732
G3 X-4.9834 Y0.8587 I0.0154 J-0.0024
X-4.9489 Y0.8585 I0.0173 J0.0215
X-4.9376 Y1.0332 I-0.0735 J0.0925
X-4.9484 Y1.043 I-0.0848 J-0.0822 F50.
G2 X-4.954 Y1.0576 I0.0098 J0.0122
G1 X-4.9531 Y1.062 F60.
X-4.9484 Y1.0856
X-4.9394 Y1.1222
G2 X-4.6244 Y1.2866 I0.3103 J-0.2105
X-4.5275 Y1.2873 I0.0491 J-0.0877
G1 X-4.4143 Y1.1507
G2 X-4.4122 Y1.1352 I-0.0124 J-0.0095
X-4.4558 Y1.1158 I-0.032 J0.0131
X-4.5301 Y1.258 I0.0397 J0.1113
X-4.5254 Y1.2718 I0.114 J-0.031 F50.
G3 X-4.5275 Y1.2873 I-0.0145 J0.0059
G1 X-4.5613 Y1.3281 F60.
G3 X-4.8948 Y1.3008 I-0.1452 J-0.2767
G1 X-4.8961 Y1.2978
X-4.9394 Y1.1222
G3 X-4.9345 Y1.1074 I0.0153 J-0.0032
X-4.8909 I0.0218 J0.0242
X-4.881 Y1.2726 I-0.0792 J0.0876
X-4.8912 Y1.2829 I-0.0891 J-0.0775 F50.
G2 X-4.8961 Y1.2978 I0.0104 J0.0116
G1 X-4.8843 Y1.3452 F60.
G2 X-4.6679 Y1.4567 I0.1862 J-0.0956
G1 X-4.5613 Y1.3281
G2 X-4.5592 Y1.3126 I-0.0124 J-0.0095
X-4.6143 Y1.2934 I-0.036 J0.0148
X-4.6705 Y1.4275 I0.0578 J0.103
X-4.6658 Y1.4413 I0.114 J-0.031 F50.
G3 X-4.6679 Y1.4567 I-0.0145 J0.0059
G1 X-4.6929 Y1.4868 F60.
G3 X-4.8361 Y1.5083 I-0.0857 J-0.083
G1 X-4.8368 Y1.5052
Y1.502
X-4.8362 Y1.4989
X-4.8351 Y1.496
X-4.8335 Y1.4934
X-4.8314 Y1.4912
X-4.829 Y1.4894
X-4.8263 Y1.4881
X-4.8234 Y1.4873
X-4.8179 Y1.4861
G3 X-4.7014 Y1.4621 I0.0957 J0.1703
X-4.6929 Y1.4868 I-0.0039 J0.0151 F50.
G1 X-4.7515 Y1.5576 F60.
G3 X-4.8134 Y1.578 I-0.0369 J-0.0078
X-4.8077 Y1.5615 I0.0151 J-0.004
G1 X-4.7978 Y1.5541
X-4.7733 Y1.5356
G3 X-4.76 Y1.5329 I0.0094 J0.0125
X-4.7515 Y1.5576 I-0.0039 J0.0151 F50.
X-4.7978 Y1.6089 I-0.0713 J-0.0179 F60.
G1 X-4.7993
X-4.8001 Y1.6087
X-4.8008 Y1.6084
X-4.8014 Y1.6081
X-4.8025 Y1.6071
X-4.8029 Y1.6066
X-4.807 Y1.5989
X-4.8843 Y1.3452
G3 X-4.8659 Y1.3267 I0.0153 J-0.0032
G1 X-4.8629 Y1.3273 Z-0.1672
X-4.8601 Y1.3279 Z-0.1663
X-4.8574 Y1.3284 Z-0.1649
X-4.8551 Y1.3289 Z-0.1629
X-4.8532 Y1.3293 Z-0.1606
X-4.8518 Y1.3296 Z-0.1579
X-4.8509 Y1.3298 Z-0.1549
X-4.8506 Z-0.1519
G0 Z-0.1362
X-5.0456 Y-0.1453
G1 Z-0.1519 F50.
X-5.0457 Y-0.1455 Z-0.1549
X-5.0462 Y-0.1463 Z-0.1579
X-5.0469 Y-0.1476 Z-0.1606
X-5.0478 Y-0.1493 Z-0.1629
X-5.049 Y-0.1513 Z-0.1649
X-5.0503 Y-0.1537 Z-0.1663
X-5.0517 Y-0.1563 Z-0.1672
X-5.0532 Y-0.1589 Z-0.1675
G3 X-5.0611 Y-0.1888 I0.0544 J-0.0304
G1 X-5.0592 Y-0.2596 F60.
X-5.058 Y-0.2832
X-5.0466 Y-0.4248
G3 X-4.6654 Y-0.7778 I0.5612 J0.2237
X-4.1169 Y-0.7937 I0.2969 J0.7707
G1 X-3.9753 Y-0.6211
G3 X-3.9732 Y-0.6056 I-0.0124 J0.0095
X-4.0469 Y-0.5801 I-0.0481 J-0.0197
X-4.1201 Y-0.7632 I0.0774 J-0.1371
X-4.1152 Y-0.7769 I0.1506 J0.046 F50.
G2 X-4.1173 Y-0.7924 I-0.0145 J-0.0059
G1 X-4.1783 Y-0.866 F60.
X-4.1915 Y-0.8744
X-4.205 Y-0.8822
X-4.2188 Y-0.8895
X-4.2329 Y-0.8963
X-4.2473 Y-0.9026
X-4.2618 Y-0.9083
X-4.2766 Y-0.9134
X-4.2916 Y-0.918
X-4.3067 Y-0.922
X-4.3219 Y-0.9254
X-4.3373 Y-0.9283
X-4.3528 Y-0.9305
X-4.3683 Y-0.9322
X-4.384 Y-0.9332
X-4.3996 Y-0.9337
X-4.4152 Y-0.9335
X-4.4308 Y-0.9328
X-4.4464 Y-0.9315
X-4.4619 Y-0.9296
X-4.4774 Y-0.9271
X-4.4927 Y-0.924
X-4.5079 Y-0.9203
X-4.523 Y-0.916
X-4.5378 Y-0.9112
X-4.5525 Y-0.9058
G2 X-5.0225 Y-0.6575 I0.1233 J0.8025
G1 X-5.0339 Y-0.5664
X-5.037 Y-0.5428
X-5.0466 Y-0.4248
G2 X-5.0394 Y-0.4109 I0.0156 J0.0007
X-4.9799 Y-0.4221 I0.0238 J-0.0371
X-5.0038 Y-0.6335 I-0.1274 J-0.0926
X-5.0152 Y-0.6425 I-0.1034 J0.1187 F50.
G3 X-5.0217 Y-0.6568 I0.0091 J-0.0127
G1 X-5.0115 Y-0.7316 F60.
G3 X-4.7147 Y-0.9689 I0.3805 J0.1718
X-4.3049 Y-1.0188 I0.2996 J0.7529
G1 X-4.1783 Y-0.866
G3 X-4.1762 Y-0.8505 I-0.0124 J0.0095
X-4.1909 Y-0.8404 I-0.0151 J-0.0062
X-4.3075 Y-0.9895 I-0.0027 J-0.1181
X-4.3028 Y-1.0033 I0.114 J0.031 F50.
G2 X-4.3049 Y-1.0188 I-0.0145 J-0.0059
G1 X-4.3408 Y-1.062 F60.
G2 X-4.6957 Y-1.0702 I-0.184 J0.2785
X-4.9777 Y-0.9395 I0.1168 J0.6212
G1 X-4.9981 Y-0.826
X-5.002 Y-0.8024
X-5.0115 Y-0.7316
G2 X-5.0051 Y-0.7174 I0.0156 J0.0016
X-4.9246 Y-0.74 I0.0312 J-0.0433
X-4.9601 Y-0.9141 I-0.1452 J-0.0611
X-4.9711 Y-0.9237 I-0.1097 J0.113 F50.
G3 X-4.9767 Y-0.9383 I0.0098 J-0.0122
G1 X-4.9642 Y-1.0042 F60.
G3 X-4.6587 Y-1.1903 I0.3317 J0.2006
X-4.4609 Y-1.207 I0.1314 J0.3776
G1 X-4.3408 Y-1.062
G3 X-4.3387 Y-1.0465 I-0.0124 J0.0095
X-4.368 Y-1.03 I-0.0251 J-0.0103
X-4.4635 Y-1.1777 I0.0185 J-0.1167
X-4.4588 Y-1.1915 I0.114 J0.031 F50.
G2 X-4.4609 Y-1.207 I-0.0145 J-0.0059
G1 X-4.4972 Y-1.2508 F60.
G2 X-4.8891 Y-1.2021 I-0.1574 J0.3343
X-4.9231 Y-1.1881 I-0.01 J0.024
G1 X-4.9484 Y-1.0856
X-4.9531 Y-1.062
X-4.9642 Y-1.0042
G2 X-4.9585 Y-0.9896 I0.0154 J0.0024
X-4.9293 Y-0.9887 I0.0152 J-0.0189
X-4.908 Y-1.1629 I-0.0678 J-0.0967
X-4.9183 Y-1.1733 I-0.0891 J0.0775 F50.
G3 X-4.9231 Y-1.1881 I0.0104 J-0.0116
G1 X-4.9098 Y-1.242 F60.
G3 X-4.6077 Y-1.3833 I0.2647 J0.1723
G1 X-4.6052 Y-1.3811
X-4.4972 Y-1.2508
G3 X-4.4952 Y-1.2353 I-0.0124 J0.0095
X-4.548 Y-1.2159 I-0.0353 J-0.0145
X-4.6078 Y-1.3519 I0.0542 J-0.105
X-4.6032 Y-1.3656 I0.114 J0.031 F50.
G2 X-4.6052 Y-1.3811 I-0.0145 J-0.0059
G1 X-4.6342 Y-1.416 F60.
G2 X-4.8622 Y-1.4181 I-0.1154 J0.1541
G1 X-4.8843 Y-1.3452
X-4.9098 Y-1.242
G2 X-4.905 Y-1.2272 I0.0153 J0.0032
X-4.8697 Y-1.2258 I0.0185 J-0.0206
X-4.8485 Y-1.3921 I-0.072 J-0.0936
X-4.8581 Y-1.403 I-0.0932 J0.0726 F50.
G3 X-4.8622 Y-1.4181 I0.0111 J-0.0111
G1 X-4.8484 Y-1.4632 F60.
G3 X-4.732 Y-1.5365 I0.1092 J0.0443
G1 X-4.7301 Y-1.5339
X-4.7288 Y-1.531
X-4.7281 Y-1.5279
X-4.7279 Y-1.5247
X-4.7284 Y-1.5217
X-4.7294 Y-1.5188
X-4.7309 Y-1.5162
X-4.7329 Y-1.5139
X-4.7352 Y-1.5121
X-4.7401 Y-1.5085
G3 X-4.831 Y-1.4437 I-0.142 J-0.1032
X-4.8484 Y-1.4632 I-0.0023 J-0.0155 F50.
G1 X-4.8229 Y-1.547 F60.
G3 X-4.7771 Y-1.5885 I0.0344 J-0.0081
X-4.8044 Y-1.5253 I-0.0312 J0.0241
X-4.807 Y-1.5252 I-0.0017 J-0.0173
X-4.8229 Y-1.547 I0.0008 J-0.0173 F50.
X-4.8001 Y-1.6087 I0.0492 J-0.0168 F60.
G1 X-4.7993 Y-1.6089
X-4.7978
X-4.7971 Y-1.6087
G3 X-4.7878 Y-1.6014 I-0.0077 J0.0193
G1 X-4.6342 Y-1.416
G0 Z0.4
X-3.7467 Y-0.3191
Z-0.1362
G1 Z-0.1519 F50.
X-3.7464 Y-0.319 Z-0.1549
X-3.7456 Y-0.3187 Z-0.1579
X-3.7442 Y-0.3182 Z-0.1606
X-3.7424 Y-0.3176 Z-0.1629
X-3.7402 Y-0.3168 Z-0.1649
X-3.7376 Y-0.3159 Z-0.1663
X-3.7348 Y-0.3149 Z-0.1672
X-3.732 Y-0.3138 Z-0.1675
G3 X-3.7063 Y-0.2966 I-0.0209 J0.0587
X-3.5799 Y-0.1409 I-0.3352 J0.4014 F60.
G2 X-3.5851 Y0.1503 I0.5859 J0.1561
G1 X-3.6208 Y0.1933
G3 X-3.6345 Y0.1984 I-0.0117 J-0.0104
G1 X-3.6368 Y0.1976 Z-0.1673
X-3.6389 Y0.1968 Z-0.1668
X-3.641 Y0.196 Z-0.1659
X-3.6425 Y0.1945 Z-0.1646
X-3.6438 Y0.1931 Z-0.1629
X-3.6449 Y0.192 Z-0.1611
X-3.6458 Y0.191 Z-0.1589
X-3.6463 Y0.1902 Z-0.1567
X-3.6465 Y0.1897 Z-0.1543
X-3.6466 Y0.1895 Z-0.1519
G0 Z0.4
X-3.0894 Y-3.1626
Z0.1
G3 X-3.0873 Y-3.0141 Z0.0589 I0.001 J0.0742 F50.
X-3.0894 Y-3.1626 Z0.0177 I-0.001 J-0.0742
X-3.0873 Y-3.0141 Z-0.0234 I0.001 J0.0742
X-3.0894 Y-3.1626 Z-0.0645 I-0.001 J-0.0742
X-3.0873 Y-3.0141 Z-0.1056 I0.001 J0.0742
X-3.0894 Y-3.1626 Z-0.1468 I-0.001 J-0.0742
X-3.0141 Y-3.0883 Z-0.1675 I0.001 J0.0742
X-3.1626 I-0.0742 J0.
X-3.0144 Y-3.0945 I0.0742 J0.
G1 X-3.0141 Y-3.0883
G3 X-3.1798 Y-2.9706 I-0.0855 J0.0552 F60.
G1 X-3.1876 Y-2.9765
X-3.1951 Y-2.9829
X-3.2021 Y-2.9898
X-3.2086 Y-2.9971
X-3.2147 Y-3.0049
X-3.2202 Y-3.0129
X-3.2253 Y-3.0214
X-3.2298 Y-3.0301
X-3.2337 Y-3.0391
X-3.2371 Y-3.0483
X-3.2399 Y-3.0577
X-3.242 Y-3.0673
X-3.2436 Y-3.077
X-3.2445 Y-3.0868
X-3.2448 Y-3.0966
X-3.2445 Y-3.1064
X-3.2436 Y-3.1162
X-3.242 Y-3.1258
X-3.2399 Y-3.1354
X-3.2371 Y-3.1448
X-3.2337 Y-3.1541
X-3.2298 Y-3.1631
X-3.2253 Y-3.1718
X-3.2203 Y-3.1802
X-3.2147 Y-3.1883
X-3.2086 Y-3.196
X-3.2021 Y-3.2033
X-3.1951 Y-3.2102
X-3.1877 Y-3.2166
X-3.1799 Y-3.2226
X-3.1717 Y-3.228
X-3.1632 Y-3.2329
X-3.1544 Y-3.2373
X-3.1453 Y-3.2411
X-3.1361 Y-3.2443
X-3.1266 Y-3.2469
X-3.117 Y-3.2489
X-3.1073 Y-3.2503
X-3.0975 Y-3.2511
X-3.0877 Y-3.2512
X-3.0779 Y-3.2507
X-3.0681 Y-3.2496
X-3.0585 Y-3.2479
X-3.0489 Y-3.2456
X-3.0396 Y-3.2427
X-3.0304 Y-3.2392
X-3.0215 Y-3.2351
X-3.0128 Y-3.2305
X-3.0045 Y-3.2253
X-2.9965 Y-3.2196
X-2.9889 Y-3.2134
X-2.9817 Y-3.2068
X-2.9749 Y-3.1996
X-2.9686 Y-3.1921
X-2.9628 Y-3.1842
X-2.9575 Y-3.176
X-2.9527 Y-3.1674
X-2.9485 Y-3.1585
X-2.9449 Y-3.1494
X-2.9418 Y-3.1401
X-2.936 Y-3.1308
X-2.9307 Y-3.1212
X-2.9259 Y-3.1113
X-2.9217 Y-3.1011
X-2.9181 Y-3.0908
X-2.9151 Y-3.0802
X-2.9127 Y-3.0695
X-2.911 Y-3.0586
X-2.9098 Y-3.0477
X-2.9093 Y-3.0367
X-2.9094 Y-3.0258
X-2.9101 Y-3.0148
X-2.9115 Y-3.0039
X-2.9134 Y-2.9931
X-2.916 Y-2.9824
X-2.9192 Y-2.9719
X-2.923 Y-2.9616
X-2.9273 Y-2.9515
X-2.9323 Y-2.9417
X-2.9378 Y-2.9322
X-2.9438 Y-2.923
X-2.9503 Y-2.9142
X-2.9573 Y-2.9058
X-2.9648 Y-2.8977
X-2.9727 Y-2.8902
X-2.9811 Y-2.883
X-2.9898 Y-2.8764
X-2.999 Y-2.8703
X-3.0084 Y-2.8647
X-3.0182 Y-2.8596
X-3.0282 Y-2.8552
X-3.0384 Y-2.8513
X-3.0489 Y-2.848
X-3.0595 Y-2.8452
X-3.0703 Y-2.8431
X-3.0812 Y-2.8417
X-3.0921 Y-2.8408
X-3.1031 Y-2.8406
X-3.1141 Y-2.841
X-3.125 Y-2.842
X-3.1359 Y-2.8436
X-3.1466 Y-2.8459
X-3.1572 Y-2.8488
X-3.1676 Y-2.8522
X-3.1778 Y-2.8563
X-3.1878 Y-2.8609
X-3.1974 Y-2.8661
X-3.2068 Y-2.8719
X-3.2158 Y-2.8781
X-3.2245 Y-2.8849
X-3.2327 Y-2.8921
X-3.2405 Y-2.8998
X-3.2479 Y-2.908
X-3.2574 Y-2.9155
X-3.2665 Y-2.9236
X-3.2752 Y-2.9321
X-3.2835 Y-2.941
X-3.2912 Y-2.9504
X-3.2985 Y-2.9602
X-3.3053 Y-2.9703
X-3.3115 Y-2.9807
X-3.3172 Y-2.9915
X-3.3223 Y-3.0025
X-3.3268 Y-3.0138
X-3.3308 Y-3.0253
X-3.3341 Y-3.037
X-3.3369 Y-3.0488
X-3.339 Y-3.0608
X-3.3406 Y-3.0728
X-3.3414 Y-3.085
X-3.3417 Y-3.0971
X-3.3414 Y-3.1093
X-3.3404 Y-3.1214
X-3.3388 Y-3.1335
X-3.3365 Y-3.1454
X-3.3337 Y-3.1572
X-3.3302 Y-3.1689
X-3.3262 Y-3.1804
X-3.3216 Y-3.1916
X-3.3164 Y-3.2026
X-3.3106 Y-3.2133
X-3.3043 Y-3.2237
X-3.2974 Y-3.2338
X-3.2901 Y-3.2435
X-3.2823 Y-3.2528
X-3.274 Y-3.2616
X-3.2652 Y-3.2701
X-3.256 Y-3.2781
X-3.2465 Y-3.2856
X-3.2365 Y-3.2926
X-3.2262 Y-3.299
X-3.2156 Y-3.305
X-3.2047 Y-3.3103
X-3.1935 Y-3.3151
X-3.1808 Y-3.3194
X-3.168 Y-3.323
X-3.155 Y-3.326
X-3.1419 Y-3.3284
X-3.1286 Y-3.3302
X-3.1153 Y-3.3314
X-3.102 Y-3.332
X-3.0887
X-3.0753 Y-3.3314
X-3.062 Y-3.3301
X-3.0488 Y-3.3282
X-3.0357 Y-3.3257
X-3.0227 Y-3.3226
X-3.0099 Y-3.319
X-2.9972 Y-3.3147
X-2.9848 Y-3.3098
X-2.9726 Y-3.3044
X-2.9607 Y-3.2984
X-2.949 Y-3.2919
X-2.9377 Y-3.2849
X-2.9267 Y-3.2773
X-2.9161 Y-3.2692
X-2.9058 Y-3.2607
X-2.896 Y-3.2517
X-2.8865 Y-3.2422
X-2.8776 Y-3.2323
X-2.8691 Y-3.222
X-2.8611 Y-3.2113
X-2.8535 Y-3.2003
X-2.8465 Y-3.1889
X-2.8401 Y-3.1773
X-2.8341 Y-3.1653
X-2.8288 Y-3.1531
X-2.824 Y-3.1406
X-2.8198 Y-3.128
X-2.8162 Y-3.1151
X-2.8131 Y-3.1021
X-2.8107 Y-3.089
X-2.8089 Y-3.0758
X-2.8077 Y-3.0625
X-2.8071 Y-3.0491
X-2.8072 Y-3.0358
X-2.8078 Y-3.0224
X-2.8091 Y-3.0092
X-2.8109 Y-2.9959
X-2.8134 Y-2.9828
X-2.8165 Y-2.9698
X-2.8202 Y-2.957
X-2.8245 Y-2.9444
X-2.8293 Y-2.9319
X-2.8347 Y-2.9197
X-2.8407 Y-2.9078
X-2.8473 Y-2.8961
X-2.8543 Y-2.8848
X-2.8619 Y-2.8738
X-2.87 Y-2.8632
X-2.8785 Y-2.8529
X-2.8875 Y-2.8431
X-2.897 Y-2.8337
X-2.9069 Y-2.8247
X-2.9172 Y-2.8162
X-2.9278 Y-2.8082
X-2.9389 Y-2.8007
X-2.9502 Y-2.7937
X-2.9619 Y-2.7872
X-2.9739 Y-2.7813
X-2.9861 Y-2.7759
X-2.9986 Y-2.7712
X-3.0112 Y-2.7669
X-3.0241 Y-2.7633
X-3.0371 Y-2.7603
X-3.0502 Y-2.7579
X-3.0634 Y-2.7561
X-3.0767 Y-2.7549
X-3.0901 Y-2.7543
X-3.1034
X-3.1167 Y-2.755
X-3.13 Y-2.7562
X-3.1432 Y-2.7581
G3 X-3.1811 Y-3.42 I0.0436 J-0.3345
G1 X-3.1658 Y-3.4229
X-3.1505 Y-3.4252
X-3.135 Y-3.4269
X-3.1195 Y-3.428
X-3.104 Y-3.4284
X-3.0885 Y-3.4282
X-3.073 Y-3.4274
X-3.0575 Y-3.426
X-3.0421 Y-3.4239
X-3.0268 Y-3.4213
X-3.0116 Y-3.418
X-2.9966 Y-3.4141
X-2.9817 Y-3.4096
X-2.967 Y-3.4046
X-2.9525 Y-3.3989
X-2.9383 Y-3.3927
X-2.9244 Y-3.3859
X-2.9107 Y-3.3785
X-2.8973 Y-3.3706
X-2.8842 Y-3.3622
X-2.8715 Y-3.3532
X-2.8592 Y-3.3438
X-2.8473 Y-3.3338
X-2.8357 Y-3.3234
X-2.8246 Y-3.3126
X-2.814 Y-3.3013
X-2.8038 Y-3.2896
X-2.7941 Y-3.2775
X-2.7848 Y-3.265
X-2.7761 Y-3.2521
X-2.7679 Y-3.2389
X-2.7603 Y-3.2254
X-2.7531 Y-3.2116
X-2.7466 Y-3.1975
X-2.7406 Y-3.1832
X-2.7352 Y-3.1686
X-2.7304 Y-3.1538
X-2.7262 Y-3.1389
X-2.7226 Y-3.1238
X-2.7196 Y-3.1085
X-2.7172 Y-3.0932
X-2.7154 Y-3.0778
X-2.7142 Y-3.0623
X-2.7137 Y-3.0467
X-2.7138 Y-3.0312
X-2.7145 Y-3.0157
X-2.7158 Y-3.0002
X-2.7178 Y-2.9848
X-2.7204 Y-2.9695
X-2.7236 Y-2.9543
X-2.7273 Y-2.9392
X-2.7317 Y-2.9243
X-2.7367 Y-2.9096
X-2.7423 Y-2.8951
X-2.7484 Y-2.8809
X-2.7552 Y-2.8669
X-2.7624 Y-2.8531
X-2.7703 Y-2.8397
X-2.7786 Y-2.8266
X-2.7875 Y-2.8139
X-2.7968 Y-2.8015
X-2.8067 Y-2.7895
X-2.817 Y-2.7779
X-2.8278 Y-2.7667
X-2.8391 Y-2.756
X-2.8507 Y-2.7457
X-2.8628 Y-2.7359
X-2.8752 Y-2.7266
X-2.888 Y-2.7178
X-2.9012 Y-2.7095
X-2.9146 Y-2.7018
X-2.9284 Y-2.6946
X-2.9424 Y-2.688
X-2.9567 Y-2.6819
X-2.9713 Y-2.6764
X-2.986 Y-2.6715
X-3.0009 Y-2.6672
X-3.016 Y-2.6635
X-3.0312 Y-2.6604
X-3.0466 Y-2.6579
X-3.062 Y-2.656
X-3.0775 Y-2.6548
X-3.093 Y-2.6542
X-3.1085
X-3.124 Y-2.6548
X-3.1395 Y-2.656
X-3.1549 Y-2.6579
X-3.1703 Y-2.6604
X-3.1855 Y-2.6635
X-3.2006 Y-2.6672
X-3.2155 Y-2.6715
X-3.2302 Y-2.6764
X-3.2448 Y-2.6819
X-3.2591 Y-2.6879
X-3.2731 Y-2.6946
X-3.2869 Y-2.7018
X-3.3004 Y-2.7095
X-3.3135 Y-2.7178
X-3.3263 Y-2.7266
X-3.3388 Y-2.7358
X-3.3508 Y-2.7456
X-3.3625 Y-2.7559
G3 X-3.531 Y-3.1049 I0.2304 J-0.3265
G1 X-3.5299 Y-3.1216
X-3.5282 Y-3.1383
X-3.5258 Y-3.1549
X-3.5228 Y-3.1713
X-3.5193 Y-3.1877
X-3.5151 Y-3.2039
X-3.5103 Y-3.22
X-3.5049 Y-3.2358
X-3.4989 Y-3.2515
X-3.4923 Y-3.2669
X-3.4852 Y-3.282
X-3.4775 Y-3.2969
X-3.4692 Y-3.3115
X-3.4604 Y-3.3257
X-3.4511 Y-3.3396
X-3.4413 Y-3.3532
X-3.431 Y-3.3664
X-3.4202 Y-3.3792
X-3.4089 Y-3.3915
X-3.3971 Y-3.4035
X-3.385 Y-3.415
X-3.3724 Y-3.426
X-3.3594 Y-3.4366
X-3.346 Y-3.4466
X-3.3322 Y-3.4562
X-3.3181 Y-3.4652
X-3.3037 Y-3.4737
X-3.289 Y-3.4817
X-3.274 Y-3.4891
X-3.2587 Y-3.4959
X-3.2431 Y-3.5022
X-3.2274 Y-3.5079
X-3.2114 Y-3.513
X-3.1953 Y-3.5174
X-3.179 Y-3.5213
X-3.1626 Y-3.5246
X-3.1461 Y-3.5272
X-3.1294 Y-3.5293
X-3.1127 Y-3.5307
X-3.096 Y-3.5315
X-3.0793 Y-3.5316
X-3.0625 Y-3.5312
X-3.0458 Y-3.5301
X-3.0292 Y-3.5284
X-3.0126 Y-3.526
X-2.9961 Y-3.5231
X-2.9797 Y-3.5195
X-2.9635 Y-3.5153
X-2.9475 Y-3.5106
X-2.9316 Y-3.5052
X-2.916 Y-3.4992
X-2.9005 Y-3.4927
X-2.8854 Y-3.4856
X-2.8705 Y-3.4779
X-2.8559 Y-3.4697
X-2.8417 Y-3.4609
X-2.8277 Y-3.4516
X-2.8141 Y-3.4418
X-2.801 Y-3.4315
X-2.7881 Y-3.4207
X-2.7758 Y-3.4094
X-2.7638 Y-3.3977
X-2.7523 Y-3.3856
X-2.7412 Y-3.373
X-2.7306 Y-3.36
X-2.7206 Y-3.3466
X-2.711 Y-3.3329
X-2.7019 Y-3.3188
X-2.6934 Y-3.3044
X-2.6854 Y-3.2897
X-2.678 Y-3.2747
X-2.6711 Y-3.2594
X-2.6649 Y-3.2439
X-2.6592 Y-3.2281
X-2.654 Y-3.2122
X-2.6495 Y-3.196
X-2.6456 Y-3.1798
X-2.6423 Y-3.1633
X-2.6397 Y-3.1468
X-2.6376 Y-3.1302
X-2.6338 Y-3.1143
X-2.6305 Y-3.0982
X-2.6278 Y-3.0821
X-2.6257 Y-3.0659
X-2.6243 Y-3.0496
X-2.6234 Y-3.0332
X-2.6231 Y-3.0169
X-2.6235 Y-3.0005
X-2.6244 Y-2.9842
X-2.626 Y-2.9679
X-2.6281 Y-2.9516
X-2.6308 Y-2.9355
X-2.6342 Y-2.9195
X-2.6381 Y-2.9036
X-2.6426 Y-2.8879
X-2.6477 Y-2.8723
X-2.6533 Y-2.8569
X-2.6596 Y-2.8418
X-2.6663 Y-2.8269
X-2.6736 Y-2.8123
X-2.6815 Y-2.7979
X-2.6899 Y-2.7838
X-2.6988 Y-2.7701
X-2.7082 Y-2.7567
X-2.718 Y-2.7436
X-2.7284 Y-2.731
X-2.7392 Y-2.7187
X-2.7505 Y-2.7068
X-2.7622 Y-2.6954
X-2.7743 Y-2.6843
X-2.7868 Y-2.6738
X-2.7996 Y-2.6637
X-2.8129 Y-2.6541
X-2.8265 Y-2.645
X-2.8404 Y-2.6364
X-2.8546 Y-2.6283
X-2.8692 Y-2.6207
X-2.8839 Y-2.6137
X-2.899 Y-2.6073
X-2.9142 Y-2.6014
X-2.9313 Y-2.5952
X-2.9485 Y-2.5896
X-2.9659 Y-2.5847
X-2.9834 Y-2.5803
X-3.0011 Y-2.5765
X-3.0189 Y-2.5733
X-3.0369 Y-2.5708
X-3.0548 Y-2.5688
X-3.0729 Y-2.5675
X-3.091 Y-2.5668
X-3.1091 Y-2.5667
X-3.1272 Y-2.5673
X-3.1452 Y-2.5684
X-3.1632 Y-2.5702
X-3.1812 Y-2.5726
X-3.199 Y-2.5756
X-3.2167 Y-2.5792
X-3.2343 Y-2.5834
X-3.2518 Y-2.5882
X-3.269 Y-2.5936
X-3.2861 Y-2.5996
X-3.303 Y-2.6062
X-3.3196 Y-2.6133
X-3.336 Y-2.621
X-3.3521 Y-2.6293
X-3.3679 Y-2.6381
X-3.3834 Y-2.6475
X-3.3985 Y-2.6574
X-3.4133 Y-2.6678
X-3.4278 Y-2.6786
X-3.4419 Y-2.69
X-3.4555 Y-2.7019
X-3.4688 Y-2.7142
X-3.4816 Y-2.727
X-3.494 Y-2.7401
X-3.5059 Y-2.7538
X-3.5174 Y-2.7678
X-3.5283 Y-2.7822
X-3.5388 Y-2.7969
X-3.5488 Y-2.812
X-3.5582 Y-2.8275
X-3.5671 Y-2.8432
X-3.5754 Y-2.8593
X-3.5832 Y-2.8756
X-3.5905 Y-2.8922
X-3.5971 Y-2.909
X-3.6032 Y-2.9261
X-3.6087 Y-2.9433
X-3.6136 Y-2.9607
X-3.6179 Y-2.9783
X-3.6216 Y-2.996
X-3.6247 Y-3.0138
X-3.6272 Y-3.0317
X-3.6291 Y-3.0497
X-3.6303 Y-3.0678
X-3.631 Y-3.0859
Y-3.104
X-3.6304 Y-3.1221
X-3.6291 Y-3.1401
X-3.6273 Y-3.1581
X-3.6248 Y-3.176
X-3.6218 Y-3.1939
X-3.6181 Y-3.2116
X-3.6138 Y-3.2292
X-3.6089 Y-3.2466
X-3.6034 Y-3.2638
X-3.5974 Y-3.2809
X-3.5907 Y-3.2977
X-3.5835 Y-3.3143
X-3.5757 Y-3.3306
X-3.5674 Y-3.3467
X-3.5585 Y-3.3625
X-3.5491 Y-3.3779
X-3.5391 Y-3.393
X-3.5287 Y-3.4078
X-3.5177 Y-3.4222
X-3.5063 Y-3.4362
X-3.4944 Y-3.4499
X-3.482 Y-3.4631
X-3.4692 Y-3.4758
X-3.456 Y-3.4882
X-3.4423 Y-3.5
X-3.4283 Y-3.5114
X-3.4138 Y-3.5223
X-3.399 Y-3.5328
X-3.3839 Y-3.5426
X-3.3684 Y-3.552
X-3.3526 Y-3.5608
X-3.3365 Y-3.5691
X-3.3201 Y-3.5769
X-3.3035 Y-3.584
X-3.2867 Y-3.5906
X-3.2696 Y-3.5966
X-3.2524 Y-3.6021
X-3.2349 Y-3.6069
X-3.2173 Y-3.6111
X-3.1996 Y-3.6148
X-3.1818 Y-3.6178
X-3.1638 Y-3.6202
X-3.1458 Y-3.622
X-3.1278 Y-3.6232
X-3.1097 Y-3.6237
X-3.0916 Y-3.6236
X-3.0735 Y-3.623
X-3.0555 Y-3.6217
X-3.0375 Y-3.6197
X-3.0195 Y-3.6172
X-3.0017 Y-3.6141
X-2.984 Y-3.6103
X-2.9665 Y-3.6059
G3 X-2.563 Y-2.8256 I-0.135 J0.5643
X-3.3939 Y-2.5405 I-0.5385 J-0.216
X-3.6454 Y-3.4007 I0.3002 J-0.5547
X-2.7828 Y-3.6438 I0.5517 J0.3056
X-2.8678 Y-2.4061 I-0.3219 J0.5997
G1 X-3.1636 Y-2.3799
X-3.1844 Y-2.3815
X-3.2051 Y-2.3836
X-3.2257 Y-2.3864
X-3.2463 Y-2.3899
X-3.2667 Y-2.3939
X-3.287 Y-2.3985
X-3.3072 Y-2.4037
X-3.3272 Y-2.4095
X-3.347 Y-2.4159
X-3.3667 Y-2.4229
X-3.3861 Y-2.4305
X-3.4053 Y-2.4386
X-3.4242 Y-2.4473
X-3.4429 Y-2.4565
X-3.4613 Y-2.4663
X-3.4793 Y-2.4767
X-3.4971 Y-2.4875
X-3.5146 Y-2.4989
X-3.5317 Y-2.5108
X-3.5484 Y-2.5232
X-3.5648 Y-2.5361
X-3.5807 Y-2.5495
X-3.5963 Y-2.5633
X-3.6115 Y-2.5776
X-3.6262 Y-2.5924
X-3.6405 Y-2.6075
X-3.6543 Y-2.6231
X-3.6677 Y-2.6391
X-3.6806 Y-2.6554
X-3.693 Y-2.6722
X-3.7049 Y-2.6893
X-3.7163 Y-2.7067
X-3.7271 Y-2.7245
X-3.7375 Y-2.7426
X-3.7473 Y-2.761
X-3.7565 Y-2.7797
X-3.7652 Y-2.7986
X-3.7733 Y-2.8178
X-3.7809 Y-2.8372
X-3.7879 Y-2.8568
X-3.7943 Y-2.8766
X-3.8001 Y-2.8967
X-3.8053 Y-2.9168
X-3.8099 Y-2.9371
X-3.8139 Y-2.9576
X-3.8173 Y-2.9781
X-3.8201 Y-2.9988
X-3.8223 Y-3.0195
X-3.8238 Y-3.0403
X-3.8248 Y-3.0611
X-3.8251 Y-3.0819
X-3.8249 Y-3.1028
X-3.824 Y-3.1236
X-3.8224 Y-3.1443
X-3.8203 Y-3.1651
X-3.8176 Y-3.1857
X-3.8142 Y-3.2063
X-3.8103 Y-3.2267
X-3.8057 Y-3.2471
X-3.8006 Y-3.2673
X-3.7948 Y-3.2873
X-3.7885 Y-3.3071
X-3.7816 Y-3.3268
X-3.7741 Y-3.3462
X-3.766 Y-3.3654
X-3.7574 Y-3.3844
X-3.7482 Y-3.4031
X-3.5883 Y-3.576
X-3.5771 Y-3.5873
X-3.4526 Y-3.7053
G3 X-2.4279 Y-3.4079 I0.386 J0.5842
X-2.3683 Y-3.2872 I-0.2007 J0.174
G1 X-2.422 Y-2.7141
G3 X-2.4703 Y-2.5981 I-0.2292 J-0.0274
X-2.4926 Y-2.6173 I-0.0078 J-0.0136
G1 X-2.4521 Y-2.7207
G3 X-2.4429 Y-2.7297 I0.0146 J0.0057
X-2.422 Y-2.7141 I0.0053 J0.0147 F50.
X-2.5273 Y-2.5657 I-0.1173 J0.0283 F60.
G2 X-2.5859 Y-2.4899 I0.3201 J0.3081
G3 X-2.6401 Y-2.4291 I-0.0929 J-0.0283
X-2.6541 Y-2.4544 I-0.0017 J-0.0155
G1 X-2.6117 Y-2.5074
G3 X-2.5978 Y-2.5131 I0.0122 J0.0098
X-2.5859 Y-2.4899 I-0.0018 J0.0155 F50.
X-2.6444 Y-2.4285 I-0.0594 J0.002 F60.
G1 X-2.8684 Y-2.4075
G3 X-2.884 Y-2.4285 I-0.0009 J-0.0156
G1 X-2.8829 Y-2.4313 Z-0.1672
X-2.8819 Y-2.4341 Z-0.1663
X-2.881 Y-2.4366 Z-0.1649
X-2.8802 Y-2.4389 Z-0.1629
X-2.8795 Y-2.4407 Z-0.1606
X-2.879 Y-2.442 Z-0.1579
X-2.8787 Y-2.4429 Z-0.1549
X-2.8786 Y-2.4432 Z-0.1519
G0 Z-0.1362
X-2.389 Y-3.2458
G1 Z-0.1519 F50.
X-2.3888 Y-3.2461 Z-0.1549
X-2.3883 Y-3.2468 Z-0.1579
X-2.3874 Y-3.2479 Z-0.1606
X-2.3863 Y-3.2495 Z-0.1629
X-2.3849 Y-3.2514 Z-0.1649
X-2.3833 Y-3.2536 Z-0.1663
X-2.3816 Y-3.256 Z-0.1672
X-2.3798 Y-3.2585 Z-0.1675
G2 X-2.3683 Y-3.2872 I-0.0504 J-0.0367
G1 X-2.3557 Y-3.4221 F60.
G2 X-2.6268 Y-3.7821 I-0.5413 J0.1255
X-3.2217 Y-3.9098 I-0.4592 J0.6896
G1 X-3.3771 Y-3.7761
X-3.3996 Y-3.7555
X-3.4526 Y-3.7053
G2 X-3.4565 Y-3.6902 I0.0111 J0.011
X-3.4077 Y-3.655 I0.0462 J-0.0127
X-3.2236 Y-3.8793 I-0.0108 J-0.1966
G1 X-3.2262 Y-3.8936 F50.
G3 X-3.2214 Y-3.9085 I0.0153 J-0.0033
G1 X-3.1829 Y-3.9413 F60.
X-3.1636 Y-3.9565
X-3.14 Y-3.9744
G3 X-2.7469 Y-3.9545 I0.1748 J0.4382
X-2.3341 Y-3.6336 I-0.329 J0.8491
G1 X-2.3557 Y-3.4221
G3 X-2.3652 Y-3.4097 I-0.0155 J-0.002
X-2.4406 Y-3.4526 I-0.0212 J-0.0506
X-2.3587 Y-3.6136 I0.1559 J-0.0219
X-2.3455 Y-3.6198 I0.074 J0.139 F50.
G2 X-2.336 Y-3.6322 I-0.006 J-0.0144
G1 X-2.3292 Y-3.7053 F60.
X-2.334 Y-3.7207
X-2.3394 Y-3.736
X-2.3454 Y-3.751
X-2.352 Y-3.7659
X-2.3591 Y-3.7804
X-2.3667 Y-3.7947
X-2.3749 Y-3.8087
X-2.3836 Y-3.8223
X-2.3928 Y-3.8357
X-2.4025 Y-3.8486
X-2.4127 Y-3.8612
X-2.4233 Y-3.8734
X-2.4344 Y-3.8852
X-2.446 Y-3.8966
X-2.4579 Y-3.9075
X-2.4703 Y-3.918
X-2.483 Y-3.9279
X-2.4961 Y-3.9374
X-2.5096 Y-3.9464
X-2.5234 Y-3.9549
X-2.5375 Y-3.9629
X-2.5519 Y-3.9703
X-2.5665 Y-3.9772
X-2.5814 Y-3.9835
X-2.5966 Y-3.9893
X-2.6119 Y-3.9944
X-2.6274 Y-3.999
G2 X-2.9702 Y-4.1052 I-0.3642 J0.5696
G1 X-3.14 Y-3.9744
G2 X-3.1455 Y-3.9598 I0.0099 J0.0121
X-3.0711 Y-3.9183 I0.0537 J-0.0087
X-2.9741 Y-4.0747 I-0.06 J-0.1456
X-2.9757 Y-4.0892 I-0.1571 J0.0108 F50.
G3 X-2.9702 Y-4.1038 I0.0154 J-0.0025
G1 X-2.9667 Y-4.1065 F60.
X-2.9512 Y-4.1175
X-2.904 Y-4.1496
X-2.8874 Y-4.1529
X-2.8708 Y-4.1556
X-2.854 Y-4.1576
X-2.8372 Y-4.1591
X-2.8203 Y-4.1599
X-2.8034 Y-4.1601
X-2.7865 Y-4.1596
X-2.7697 Y-4.1586
X-2.7528 Y-4.1569
X-2.7361 Y-4.1546
X-2.7195 Y-4.1517
X-2.703 Y-4.1481
X-2.6866 Y-4.144
X-2.6704 Y-4.1392
X-2.6543 Y-4.1339
X-2.6385 Y-4.128
X-2.6229 Y-4.1215
X-2.6076 Y-4.1144
X-2.5926 Y-4.1067
X-2.5778 Y-4.0985
X-2.5633 Y-4.0898
X-2.5492 Y-4.0805
X-2.5355 Y-4.0707
X-2.5221 Y-4.0604
X-2.5091 Y-4.0496
X-2.4965 Y-4.0384
G3 X-2.3119 Y-3.8904 I-0.1584 J0.3867
G1 X-2.3292 Y-3.7053
G3 X-2.3387 Y-3.6929 I-0.0155 J-0.002
X-2.3741 Y-3.7036 I-0.0112 J-0.0268
X-2.3344 Y-3.8715 I0.0983 J-0.0654
X-2.3213 Y-3.8779 I0.0587 J0.1025 F50.
G2 X-2.3119 Y-3.8904 I-0.006 J-0.0144
G1 X-2.3071 Y-3.9413 F60.
G2 X-2.5545 Y-4.1825 I-0.3081 J0.0685
X-2.7492 Y-4.2563 I-0.2373 J0.332
G1 X-2.904 Y-4.1496
G2 X-2.9103 Y-4.1353 I0.0092 J0.0126
X-2.8853 Y-4.1104 I0.0279 J-0.003
X-2.755 Y-4.226 I0.0122 J-0.1175
X-2.7556 Y-4.2405 I-0.1181 J-0.0019 F50.
G3 X-2.7493 Y-4.2548 I0.0155 J-0.0017
G1 X-2.7388 Y-4.2619 F60.
X-2.7231 Y-4.2717
X-2.6916 Y-4.2907
G3 X-2.3105 Y-4.1398 I0.0622 J0.3997
G1 X-2.2932 Y-4.1316
X-2.2913 Y-4.1289
X-2.2903 Y-4.1258
X-2.2901 Y-4.1226
X-2.3071 Y-3.9413
G3 X-2.3166 Y-3.9289 I-0.0155 J-0.002
X-2.3563 Y-3.9423 I-0.0123 J-0.0293
X-2.3126 Y-4.1038 I0.1023 J-0.0589
X-2.2996 Y-4.1102 I0.0587 J0.1025 F50.
G2 X-2.2901 Y-4.1226 I-0.006 J-0.0144
G1 X-2.2855 Y-4.1725 F60.
G2 X-2.5343 Y-4.3853 I-0.2877 J0.0846
G1 X-2.5372 Y-4.384
X-2.6916 Y-4.2907
G2 X-2.6987 Y-4.2768 I0.0085 J0.0131
X-2.6673 Y-4.2457 I0.0328 J-0.0018
X-2.5444 Y-4.3555 I0.0051 J-0.118
X-2.5443 Y-4.3701 I-0.1178 J-0.0082 F50.
G3 X-2.5372 Y-4.384 I0.0156 J-0.0008
G1 X-2.5029 Y-4.4048 F60.
X-2.4869 Y-4.4133
G3 X-2.2698 Y-4.3398 I0.0538 J0.1987
G1 X-2.2855 Y-4.1725
G3 X-2.2949 Y-4.1601 I-0.0155 J-0.002
X-2.3468 Y-4.1847 I-0.0149 J-0.0356
X-2.2923 Y-4.321 I0.1132 J-0.0338
X-2.2793 Y-4.3274 I0.0587 J0.1025 F50.
G2 X-2.2698 Y-4.3398 I-0.006 J-0.0144
G1 X-2.2659 Y-4.3812 F60.
G2 X-2.347 Y-4.4895 I-0.1146 J0.0013
G1 X-2.4869 Y-4.4133
G2 X-2.4804 Y-4.3842 I0.0078 J0.0135
G1 X-2.2898 Y-4.3682
X-2.2827 Y-4.3677 F50.
G2 X-2.2659 Y-4.3812 I0.0013 J-0.0156
G1 X-2.2578 Y-4.4676 F60.
G2 X-2.2849 Y-4.521 I-0.029 J-0.0188
G1 X-2.3477 Y-4.4875
G2 X-2.3409 Y-4.4584 I0.0078 J0.0135
G1 X-2.2817 Y-4.4545
X-2.2744 Y-4.454 F50.
G2 X-2.2578 Y-4.4676 I0.001 J-0.0156
X-2.256 Y-4.5313 I-0.0394 J-0.033 F60.
X-2.2849 Y-4.521 I-0.0083 J0.0225
X-2.2926 Y-4.5056 I0.0078 J0.0135
G1 X-2.2922 Y-4.5026 Z-0.1672
X-2.2919 Y-4.4997 Z-0.1663
X-2.2916 Y-4.497 Z-0.1649
X-2.2913 Y-4.4947 Z-0.1629
X-2.2911 Y-4.4927 Z-0.1606
X-2.2909 Y-4.4913 Z-0.1579
X-2.2908 Y-4.4904 Z-0.1549
Y-4.4901 Z-0.1519
G0 Z-0.1362
X-3.7091 Y-3.4243
G1 Z-0.1519 F50.
X-3.7094 Y-3.4242 Z-0.1549
X-3.7103 Y-3.4239 Z-0.1579
X-3.7117 Y-3.4235 Z-0.1606
X-3.7135 Y-3.423 Z-0.1629
X-3.7158 Y-3.4224 Z-0.1649
X-3.7184 Y-3.4216 Z-0.1663
X-3.7212 Y-3.4208 Z-0.1672
X-3.7242 Y-3.42 Z-0.1675
G2 X-3.7509 Y-3.4045 I0.017 J0.06
G1 X-3.7566 Y-3.3985 F60.
X-3.7771 Y-3.3759
X-3.8715 Y-3.2649
G2 X-3.848 Y-2.7504 I0.5638 J0.232
X-3.4621 Y-2.3508 I0.7434 J-0.3318
G1 X-3.1636 Y-2.3799
G2 X-3.1512 Y-2.3894 I-0.002 J-0.0155
X-3.1769 Y-2.4602 I-0.0513 J-0.0215
X-3.443 Y-2.3747 I-0.0906 J0.1747
G1 X-3.4491 Y-2.3615 F50.
G3 X-3.4615 Y-2.352 I-0.0144 J-0.006
G1 X-3.5541 Y-2.3433 F60.
G3 X-3.8632 Y-2.5762 I0.0823 J-0.4308
X-4.0164 Y-3.0874 I0.7443 J-0.5017
G1 X-3.9573 Y-3.1625
X-3.9423 Y-3.1817
X-3.8715 Y-3.2649
G3 X-3.8566 Y-3.2696 I0.0115 J0.0105
X-3.821 Y-3.2137 I-0.01 J0.0457
X-3.9854 Y-3.0913 I-0.1536 J-0.0347
X-3.9999 Y-3.0929 I0.0108 J-0.1571 F50.
G2 X-4.0145 Y-3.0874 I-0.0025 J0.0154
G1 X-4.0603 Y-3.0273 F60.
G2 X-4.0178 Y-2.6501 I0.3905 J0.147
X-3.7599 Y-2.3241 I0.7419 J-0.3218
G1 X-3.5541 Y-2.3433
G2 X-3.5406 Y-2.3608 I-0.002 J-0.0155
X-3.5475 Y-2.371 I-0.0136 J0.0017
X-3.7373 Y-2.3441 I-0.0774 J0.1372
X-3.7495 Y-2.33 I0.1124 J0.1103 F50.
G3 X-3.7599 Y-2.3241 I-0.0124 J-0.0095
G1 X-3.8243 Y-2.318 F60.
G3 X-4.076 Y-2.5633 I0.0864 J-0.3404
X-4.1832 Y-2.8567 I0.5403 J-0.3636
G1 X-4.1183 Y-2.9501
X-4.1075 Y-2.9653
X-4.0603 Y-3.0273
G3 X-4.0457 Y-3.0328 I0.0121 J0.0099
X-4.0049 Y-2.9597 I-0.0086 J0.0528
X-4.1528 Y-2.8623 I-0.1455 J-0.0601
X-4.1673 Y-2.8632 I0.0024 J-0.1575 F50.
G2 X-4.1816 Y-2.8569 I-0.0017 J0.0155
G1 X-4.2146 Y-2.8085 F60.
G2 X-4.1285 Y-2.4595 I0.3301 J0.1036
X-4.005 Y-2.3011 I0.3191 J-0.1215
G1 X-3.8243 Y-2.318
G2 X-3.8119 Y-2.3275 I-0.002 J-0.0155
X-3.8259 Y-2.368 I-0.0297 J-0.0124
X-3.9861 Y-2.3237 I-0.0577 J0.1031
X-3.9925 Y-2.3106 I0.1025 J0.0587 F50.
G3 X-4.005 Y-2.3011 I-0.0144 J-0.006
G1 X-4.0603 Y-2.296 F60.
G3 X-4.3041 Y-2.6027 I0.1178 J-0.3439
X-4.3203 Y-2.6427 I0.0126 J-0.0284
G1 X-4.2727 Y-2.7214
X-4.2627 Y-2.7377
X-4.2146 Y-2.8085
G3 X-4.2003 Y-2.8148 I0.0126 J0.0092
X-4.1878 Y-2.8047 I-0.0016 J0.0147
X-4.2918 Y-2.6499 I-0.1122 J0.037
X-4.3063 Y-2.6498 I-0.0082 J-0.1178 F50.
G2 X-4.3203 Y-2.6427 I-0.0008 J0.0156
G1 X-4.3485 Y-2.5961 F60.
G2 X-4.2339 Y-2.2802 I0.3089 J0.0667
G1 X-4.2306 Y-2.28
X-4.0603 Y-2.296
G2 X-4.0479 Y-2.3054 I-0.002 J-0.0155
X-4.07 Y-2.3553 I-0.0346 J-0.0145
X-4.2118 Y-2.3025 I-0.0393 J0.1114
X-4.2182 Y-2.2895 I0.1025 J0.0587 F50.
G3 X-4.2306 Y-2.28 I-0.0144 J-0.006
G1 X-4.2727 Y-2.2761 F60.
G3 X-4.4398 Y-2.4372 I0.0231 J-0.1912
G1 X-4.4054 Y-2.5017
X-4.3838 Y-2.5375
X-4.3485 Y-2.5961
G3 X-4.3345 Y-2.6031 I0.0131 J0.0085
X-4.3094 Y-2.5802 I-0.0014 J0.0268
X-4.4118 Y-2.4459 I-0.1169 J0.0172
X-4.4263 Y-2.445 I-0.0145 J-0.1172 F50.
G2 X-4.4398 Y-2.4372 I0. J0.0156
G1 X-4.4615 Y-2.3966 F60.
G2 X-4.4308 Y-2.2597 I0.1087 J0.0475
G1 X-4.2727 Y-2.2761
G2 X-4.267 Y-2.3052 I-0.002 J-0.0155
G1 X-4.4345 Y-2.3992
X-4.4403 Y-2.4024 F50.
G2 X-4.4615 Y-2.3966 I-0.0076 J0.0136
G1 X-4.5061 Y-2.3128 F60.
G2 X-4.5006 Y-2.2547 I0.0201 J0.0274
G1 X-4.4293 Y-2.2614
G2 X-4.4248 Y-2.2911 I-0.002 J-0.0155
G1 X-4.4789 Y-2.316
X-4.486 Y-2.3192 F50.
G2 X-4.5061 Y-2.3128 I-0.0065 J0.0142
X-4.5316 Y-2.2566 I0.0214 J0.0437 F60.
X-4.5006 Y-2.2547 I0.0166 J-0.0171
X-4.4981 Y-2.2553 I-0.002 J-0.0155
G1 X-4.4961 Y-2.2564 Z-0.1673
X-4.494 Y-2.2576 Z-0.1668
X-4.4921 Y-2.2587 Z-0.1659
X-4.4909 Y-2.2604 Z-0.1646
X-4.4898 Y-2.262 Z-0.1629
X-4.4889 Y-2.2633 Z-0.1611
X-4.4882 Y-2.2643 Z-0.1589
X-4.4879 Y-2.2652 Z-0.1567
X-4.4877 Y-2.2658 Z-0.1543
X-4.4876 Y-2.2659 Z-0.1519
G0 Z0.4
X-3.0894 Y3.0141
Z0.1
G3 X-3.0874 Y3.1626 Z0.0589 I0.001 J0.0742 F50.
X-3.0894 Y3.0141 Z0.0177 I-0.001 J-0.0742
X-3.0874 Y3.1626 Z-0.0234 I0.001 J0.0742
X-3.0894 Y3.0141 Z-0.0645 I-0.001 J-0.0742
X-3.0874 Y3.1626 Z-0.1056 I0.001 J0.0742
X-3.0894 Y3.0141 Z-0.1468 I-0.001 J-0.0742
X-3.0141 Y3.0883 Z-0.1675 I0.001 J0.0742
X-3.1626 I-0.0742 J0.
X-3.0144 Y3.0821 I0.0742 J0.
G1 X-3.0141 Y3.0883
G3 X-3.1798 Y3.2061 I-0.0855 J0.0552 F60.
G1 X-3.1877 Y3.2002
X-3.1951 Y3.1938
X-3.2021 Y3.1869
X-3.2086 Y3.1796
X-3.2147 Y3.1718
X-3.2203 Y3.1638
X-3.2253 Y3.1553
X-3.2298 Y3.1466
X-3.2338 Y3.1376
X-3.2371 Y3.1284
X-3.2399 Y3.119
X-3.242 Y3.1094
X-3.2436 Y3.0997
X-3.2445 Y3.0899
X-3.2448 Y3.0801
X-3.2445 Y3.0703
X-3.2436 Y3.0605
X-3.2421 Y3.0509
X-3.2399 Y3.0413
X-3.2371 Y3.0319
X-3.2338 Y3.0226
X-3.2298 Y3.0136
X-3.2253 Y3.0049
X-3.2203 Y2.9965
X-3.2147 Y2.9884
X-3.2087 Y2.9807
X-3.2021 Y2.9734
X-3.1951 Y2.9665
X-3.1877 Y2.9601
X-3.1799 Y2.9541
X-3.1717 Y2.9487
X-3.1632 Y2.9438
X-3.1544 Y2.9394
X-3.1454 Y2.9356
X-3.1361 Y2.9324
X-3.1266 Y2.9298
X-3.117 Y2.9278
X-3.1073 Y2.9264
X-3.0975 Y2.9256
X-3.0877 Y2.9255
X-3.0779 Y2.926
X-3.0682 Y2.927
X-3.0585 Y2.9288
X-3.049 Y2.9311
X-3.0396 Y2.934
X-3.0304 Y2.9375
X-3.0215 Y2.9416
X-3.0128 Y2.9462
X-3.0045 Y2.9514
X-2.9965 Y2.9571
X-2.9889 Y2.9633
X-2.9817 Y2.9699
X-2.9749 Y2.977
X-2.9686 Y2.9846
X-2.9628 Y2.9925
X-2.9575 Y3.0007
X-2.9527 Y3.0093
X-2.9485 Y3.0182
X-2.9449 Y3.0273
X-2.9418 Y3.0366
X-2.936 Y3.0459
X-2.9307 Y3.0555
X-2.9259 Y3.0654
X-2.9217 Y3.0756
X-2.9182 Y3.0859
X-2.9152 Y3.0965
X-2.9128 Y3.1072
X-2.911 Y3.1181
X-2.9098 Y3.129
X-2.9093 Y3.1399
X-2.9094 Y3.1509
X-2.9101 Y3.1619
X-2.9115 Y3.1728
X-2.9135 Y3.1836
X-2.916 Y3.1943
X-2.9192 Y3.2048
X-2.923 Y3.2151
X-2.9274 Y3.2251
X-2.9323 Y3.235
X-2.9378 Y3.2445
X-2.9438 Y3.2537
X-2.9503 Y3.2625
X-2.9573 Y3.2709
X-2.9648 Y3.2789
X-2.9728 Y3.2865
X-2.9811 Y3.2937
X-2.9899 Y3.3003
X-2.999 Y3.3064
X-3.0084 Y3.312
X-3.0182 Y3.3171
X-3.0282 Y3.3215
X-3.0385 Y3.3254
X-3.0489 Y3.3287
X-3.0596 Y3.3315
X-3.0703 Y3.3335
X-3.0812 Y3.335
X-3.0922 Y3.3359
X-3.1031 Y3.3361
X-3.1141 Y3.3357
X-3.125 Y3.3347
X-3.1359 Y3.3331
X-3.1466 Y3.3308
X-3.1572 Y3.3279
X-3.1676 Y3.3245
X-3.1778 Y3.3204
X-3.1878 Y3.3158
X-3.1975 Y3.3106
X-3.2068 Y3.3048
X-3.2158 Y3.2986
X-3.2245 Y3.2918
X-3.2327 Y3.2846
X-3.2406 Y3.2769
X-3.2479 Y3.2687
X-3.2574 Y3.2612
X-3.2666 Y3.2531
X-3.2752 Y3.2446
X-3.2835 Y3.2357
X-3.2912 Y3.2263
X-3.2985 Y3.2165
X-3.3053 Y3.2064
X-3.3115 Y3.196
X-3.3172 Y3.1852
X-3.3223 Y3.1742
X-3.3269 Y3.1629
X-3.3308 Y3.1514
X-3.3342 Y3.1397
X-3.3369 Y3.1279
X-3.3391 Y3.1159
X-3.3406 Y3.1038
X-3.3415 Y3.0917
X-3.3417 Y3.0796
X-3.3414 Y3.0674
X-3.3404 Y3.0553
X-3.3388 Y3.0432
X-3.3366 Y3.0313
X-3.3337 Y3.0194
X-3.3303 Y3.0078
X-3.3262 Y2.9963
X-3.3216 Y2.9851
X-3.3164 Y2.9741
X-3.3106 Y2.9634
X-3.3043 Y2.953
X-3.2975 Y2.9429
X-3.2901 Y2.9332
X-3.2823 Y2.9239
X-3.274 Y2.915
X-3.2652 Y2.9066
X-3.2561 Y2.8986
X-3.2465 Y2.8911
X-3.2365 Y2.8841
X-3.2262 Y2.8777
X-3.2156 Y2.8717
X-3.2047 Y2.8664
X-3.1935 Y2.8616
X-3.1809 Y2.8573
X-3.168 Y2.8537
X-3.155 Y2.8507
X-3.1419 Y2.8483
X-3.1287 Y2.8464
X-3.1154 Y2.8452
X-3.102 Y2.8447
X-3.0887
X-3.0754 Y2.8453
X-3.0621 Y2.8466
X-3.0488 Y2.8485
X-3.0357 Y2.851
X-3.0227 Y2.854
X-3.0099 Y2.8577
X-2.9973 Y2.862
X-2.9848 Y2.8669
X-2.9726 Y2.8723
X-2.9607 Y2.8783
X-2.949 Y2.8848
X-2.9377 Y2.8918
X-2.9267 Y2.8994
X-2.9161 Y2.9075
X-2.9058 Y2.916
X-2.896 Y2.925
X-2.8866 Y2.9345
X-2.8776 Y2.9444
X-2.8691 Y2.9547
X-2.8611 Y2.9653
X-2.8536 Y2.9764
X-2.8466 Y2.9877
X-2.8401 Y2.9994
X-2.8342 Y3.0114
X-2.8288 Y3.0236
X-2.824 Y3.0361
X-2.8198 Y3.0487
X-2.8162 Y3.0616
X-2.8132 Y3.0746
X-2.8107 Y3.0877
X-2.8089 Y3.1009
X-2.8077 Y3.1142
X-2.8071 Y3.1276
X-2.8072 Y3.1409
X-2.8078 Y3.1543
X-2.8091 Y3.1675
X-2.811 Y3.1808
X-2.8135 Y3.1939
X-2.8165 Y3.2069
X-2.8202 Y3.2197
X-2.8245 Y3.2323
X-2.8294 Y3.2448
X-2.8348 Y3.257
X-2.8408 Y3.2689
X-2.8473 Y3.2805
X-2.8543 Y3.2919
X-2.8619 Y3.3029
X-2.87 Y3.3135
X-2.8785 Y3.3238
X-2.8875 Y3.3336
X-2.897 Y3.343
X-2.9069 Y3.352
X-2.9172 Y3.3605
X-2.9279 Y3.3685
X-2.9389 Y3.376
X-2.9503 Y3.383
X-2.9619 Y3.3895
X-2.9739 Y3.3954
X-2.9861 Y3.4008
X-2.9986 Y3.4055
X-3.0113 Y3.4097
X-3.0241 Y3.4134
X-3.0371 Y3.4164
X-3.0502 Y3.4188
X-3.0635 Y3.4206
X-3.0767 Y3.4218
X-3.0901 Y3.4224
X-3.1034
X-3.1168 Y3.4217
X-3.13 Y3.4204
X-3.1433 Y3.4186
G3 X-3.1811 Y2.7567 I0.0436 J-0.3345
G1 X-3.1659 Y2.7538
X-3.1505 Y2.7515
X-3.135 Y2.7498
X-3.1195 Y2.7487
X-3.104 Y2.7483
X-3.0885 Y2.7485
X-3.073 Y2.7493
X-3.0575 Y2.7507
X-3.0421 Y2.7528
X-3.0268 Y2.7554
X-3.0116 Y2.7587
X-2.9966 Y2.7626
X-2.9817 Y2.7671
X-2.967 Y2.7721
X-2.9526 Y2.7778
X-2.9383 Y2.784
X-2.9244 Y2.7908
X-2.9107 Y2.7982
X-2.8973 Y2.8061
X-2.8843 Y2.8145
X-2.8716 Y2.8235
X-2.8592 Y2.8329
X-2.8473 Y2.8429
X-2.8358 Y2.8533
X-2.8247 Y2.8641
X-2.814 Y2.8754
X-2.8038 Y2.8871
X-2.7941 Y2.8992
X-2.7849 Y2.9117
X-2.7761 Y2.9246
X-2.7679 Y2.9378
X-2.7603 Y2.9513
X-2.7532 Y2.9651
X-2.7466 Y2.9792
X-2.7406 Y2.9935
X-2.7352 Y3.0081
X-2.7304 Y3.0229
X-2.7262 Y3.0378
X-2.7226 Y3.0529
X-2.7196 Y3.0682
X-2.7172 Y3.0835
X-2.7154 Y3.0989
X-2.7143 Y3.1144
X-2.7137 Y3.1299
X-2.7138 Y3.1455
X-2.7145 Y3.161
X-2.7159 Y3.1765
X-2.7178 Y3.1919
X-2.7204 Y3.2072
X-2.7236 Y3.2224
X-2.7274 Y3.2375
X-2.7318 Y3.2524
X-2.7367 Y3.2671
X-2.7423 Y3.2816
X-2.7485 Y3.2958
X-2.7552 Y3.3098
X-2.7625 Y3.3236
X-2.7703 Y3.337
X-2.7786 Y3.3501
X-2.7875 Y3.3628
X-2.7969 Y3.3752
X-2.8067 Y3.3872
X-2.8171 Y3.3988
X-2.8279 Y3.41
X-2.8391 Y3.4207
X-2.8507 Y3.431
X-2.8628 Y3.4408
X-2.8752 Y3.4501
X-2.888 Y3.4589
X-2.9012 Y3.4671
X-2.9147 Y3.4749
X-2.9284 Y3.4821
X-2.9425 Y3.4887
X-2.9568 Y3.4948
X-2.9713 Y3.5003
X-2.986 Y3.5052
X-3.001 Y3.5095
X-3.016 Y3.5132
X-3.0313 Y3.5163
X-3.0466 Y3.5188
X-3.062 Y3.5206
X-3.0775 Y3.5219
X-3.093 Y3.5225
X-3.1085
X-3.1241 Y3.5219
X-3.1396 Y3.5207
X-3.155 Y3.5188
X-3.1703 Y3.5163
X-3.1855 Y3.5132
X-3.2006 Y3.5095
X-3.2155 Y3.5052
X-3.2303 Y3.5003
X-3.2448 Y3.4948
X-3.2591 Y3.4888
X-3.2731 Y3.4821
X-3.2869 Y3.4749
X-3.3004 Y3.4672
X-3.3135 Y3.4589
X-3.3263 Y3.4501
X-3.3388 Y3.4408
X-3.3508 Y3.4311
X-3.3625 Y3.4208
G3 X-3.5311 Y3.0718 I0.2304 J-0.3265
G1 X-3.5299 Y3.0551
X-3.5282 Y3.0384
X-3.5258 Y3.0218
X-3.5229 Y3.0053
X-3.5193 Y2.989
X-3.5151 Y2.9728
X-3.5103 Y2.9567
X-3.5049 Y2.9409
X-3.4989 Y2.9252
X-3.4923 Y2.9098
X-3.4852 Y2.8947
X-3.4775 Y2.8798
X-3.4692 Y2.8652
X-3.4605 Y2.851
X-3.4511 Y2.8371
X-3.4413 Y2.8235
X-3.431 Y2.8103
X-3.4202 Y2.7975
X-3.4089 Y2.7852
X-3.3972 Y2.7732
X-3.385 Y2.7617
X-3.3724 Y2.7507
X-3.3594 Y2.7401
X-3.346 Y2.7301
X-3.3323 Y2.7205
X-3.3182 Y2.7115
X-3.3037 Y2.703
X-3.289 Y2.695
X-3.274 Y2.6876
X-3.2587 Y2.6808
X-3.2432 Y2.6745
X-3.2274 Y2.6688
X-3.2115 Y2.6637
X-3.1953 Y2.6593
X-3.179 Y2.6554
X-3.1626 Y2.6521
X-3.1461 Y2.6495
X-3.1295 Y2.6474
X-3.1128 Y2.646
X-3.096 Y2.6452
X-3.0793 Y2.6451
X-3.0626 Y2.6455
X-3.0458 Y2.6466
X-3.0292 Y2.6483
X-3.0126 Y2.6507
X-2.9961 Y2.6536
X-2.9798 Y2.6572
X-2.9635 Y2.6614
X-2.9475 Y2.6661
X-2.9316 Y2.6715
X-2.916 Y2.6775
X-2.9006 Y2.684
X-2.8854 Y2.6911
X-2.8705 Y2.6988
X-2.8559 Y2.707
X-2.8417 Y2.7158
X-2.8277 Y2.7251
X-2.8142 Y2.7349
X-2.801 Y2.7452
X-2.7882 Y2.756
X-2.7758 Y2.7673
X-2.7638 Y2.779
X-2.7523 Y2.7911
X-2.7412 Y2.8037
X-2.7307 Y2.8167
X-2.7206 Y2.8301
X-2.711 Y2.8438
X-2.702 Y2.8579
X-2.6934 Y2.8723
X-2.6854 Y2.887
X-2.678 Y2.902
X-2.6712 Y2.9173
X-2.6649 Y2.9328
X-2.6592 Y2.9486
X-2.6541 Y2.9645
X-2.6496 Y2.9807
X-2.6457 Y2.9969
X-2.6424 Y3.0134
X-2.6397 Y3.0299
X-2.6376 Y3.0465
X-2.6338 Y3.0624
X-2.6305 Y3.0784
X-2.6278 Y3.0946
X-2.6258 Y3.1108
X-2.6243 Y3.1271
X-2.6234 Y3.1435
X-2.6232 Y3.1598
X-2.6235 Y3.1762
X-2.6244 Y3.1925
X-2.626 Y3.2088
X-2.6281 Y3.2251
X-2.6309 Y3.2412
X-2.6342 Y3.2572
X-2.6381 Y3.2731
X-2.6426 Y3.2888
X-2.6477 Y3.3044
X-2.6534 Y3.3198
X-2.6596 Y3.3349
X-2.6664 Y3.3498
X-2.6737 Y3.3644
X-2.6815 Y3.3788
X-2.6899 Y3.3929
X-2.6988 Y3.4066
X-2.7082 Y3.42
X-2.7181 Y3.433
X-2.7284 Y3.4457
X-2.7392 Y3.458
X-2.7505 Y3.4699
X-2.7622 Y3.4813
X-2.7743 Y3.4923
X-2.7868 Y3.5029
X-2.7997 Y3.513
X-2.8129 Y3.5226
X-2.8265 Y3.5317
X-2.8404 Y3.5403
X-2.8547 Y3.5484
X-2.8692 Y3.556
X-2.884 Y3.563
X-2.899 Y3.5694
X-2.9143 Y3.5753
X-2.9313 Y3.5815
X-2.9485 Y3.5871
X-2.9659 Y3.592
X-2.9835 Y3.5964
X-3.0011 Y3.6002
X-3.019 Y3.6034
X-3.0369 Y3.6059
X-3.0549 Y3.6079
X-3.0729 Y3.6092
X-3.091 Y3.6099
X-3.1091 Y3.61
X-3.1272 Y3.6094
X-3.1452 Y3.6083
X-3.1632 Y3.6065
X-3.1812 Y3.6041
X-3.199 Y3.6011
X-3.2168 Y3.5975
X-3.2344 Y3.5933
X-3.2518 Y3.5885
X-3.2691 Y3.5831
X-3.2861 Y3.5771
X-3.303 Y3.5705
X-3.3196 Y3.5634
X-3.336 Y3.5556
X-3.3521 Y3.5474
X-3.3679 Y3.5386
X-3.3834 Y3.5292
X-3.3985 Y3.5193
X-3.4134 Y3.5089
X-3.4278 Y3.4981
X-3.4419 Y3.4867
X-3.4555 Y3.4748
X-3.4688 Y3.4625
X-3.4816 Y3.4497
X-3.494 Y3.4365
X-3.5059 Y3.4229
X-3.5174 Y3.4089
X-3.5284 Y3.3945
X-3.5388 Y3.3798
X-3.5488 Y3.3647
X-3.5582 Y3.3492
X-3.5671 Y3.3335
X-3.5755 Y3.3174
X-3.5833 Y3.3011
X-3.5905 Y3.2845
X-3.5972 Y3.2677
X-3.6033 Y3.2506
X-3.6088 Y3.2334
X-3.6137 Y3.216
X-3.618 Y3.1984
X-3.6217 Y3.1807
X-3.6248 Y3.1629
X-3.6272 Y3.1449
X-3.6291 Y3.1269
X-3.6303 Y3.1089
X-3.631 Y3.0908
Y3.0727
X-3.6304 Y3.0546
X-3.6292 Y3.0366
X-3.6273 Y3.0186
X-3.6248 Y3.0007
X-3.6218 Y2.9828
X-3.6181 Y2.9651
X-3.6138 Y2.9475
X-3.6089 Y2.9301
X-3.6034 Y2.9129
X-3.5974 Y2.8958
X-3.5907 Y2.879
X-3.5835 Y2.8624
X-3.5757 Y2.8461
X-3.5674 Y2.83
X-3.5585 Y2.8142
X-3.5491 Y2.7988
X-3.5392 Y2.7837
X-3.5287 Y2.7689
X-3.5178 Y2.7545
X-3.5063 Y2.7405
X-3.4944 Y2.7268
X-3.4821 Y2.7136
X-3.4692 Y2.7008
X-3.456 Y2.6885
X-3.4423 Y2.6766
X-3.4283 Y2.6653
X-3.4138 Y2.6543
X-3.399 Y2.6439
X-3.3839 Y2.634
X-3.3684 Y2.6247
X-3.3526 Y2.6158
X-3.3365 Y2.6076
X-3.3202 Y2.5998
X-3.3036 Y2.5927
X-3.2867 Y2.5861
X-3.2696 Y2.5801
X-3.2524 Y2.5746
X-3.2349 Y2.5698
X-3.2174 Y2.5656
X-3.1996 Y2.5619
X-3.1818 Y2.5589
X-3.1639 Y2.5565
X-3.1458 Y2.5547
X-3.1278 Y2.5535
X-3.1097 Y2.553
X-3.0916 Y2.5531
X-3.0735 Y2.5537
X-3.0555 Y2.555
X-3.0375 Y2.557
X-3.0196 Y2.5595
X-3.0018 Y2.5626
X-2.9841 Y2.5664
X-2.9665 Y2.5707
G3 X-2.563 Y3.3511 I-0.135 J0.5643
X-3.3939 Y3.6362 I-0.5385 J-0.216
X-3.6455 Y2.7759 I0.3002 J-0.5547
X-2.7828 Y2.5329 I0.5517 J0.3056
X-3.2958 Y3.7848 I-0.3212 J0.5994
X-3.4169 Y3.7391 I0.0459 J-0.305
G1 X-3.5771 Y3.5873
X-3.5883 Y3.576
X-3.7063 Y3.4515
X-3.7174 Y3.4338
X-3.728 Y3.4158
X-3.738 Y3.3974
X-3.7475 Y3.3788
X-3.7564 Y3.3599
X-3.7647 Y3.3408
X-3.7725 Y3.3214
X-3.7797 Y3.3018
X-3.7863 Y3.282
X-3.7924 Y3.262
X-3.7978 Y3.2418
X-3.8026 Y3.2215
X-3.8069 Y3.2011
X-3.8105 Y3.1805
X-3.8135 Y3.1598
X-3.816 Y3.1391
X-3.8178 Y3.1183
X-3.8189 Y3.0974
X-3.8195 Y3.0766
X-3.8194 Y3.0557
X-3.8188 Y3.0348
X-3.8175 Y3.014
X-3.8156 Y2.9932
X-3.8131 Y2.9724
X-3.8099 Y2.9518
X-3.8062 Y2.9312
X-3.8018 Y2.9108
X-3.7969 Y2.8905
X-3.7913 Y2.8704
X-3.7852 Y2.8504
X-3.7785 Y2.8306
X-3.7712 Y2.8111
X-3.7633 Y2.7917
X-3.7548 Y2.7726
X-3.7458 Y2.7538
X-3.7363 Y2.7352
X-3.7262 Y2.717
X-3.7155 Y2.699
X-3.7043 Y2.6813
X-3.6926 Y2.664
X-3.6804 Y2.6471
X-3.6678 Y2.6305
X-3.6546 Y2.6143
X-3.6409 Y2.5985
X-3.6268 Y2.5831
X-3.6123 Y2.5681
X-3.5973 Y2.5536
X-3.5818 Y2.5395
X-3.566 Y2.5259
X-3.5498 Y2.5127
X-3.5332 Y2.5001
X-3.5162 Y2.4879
X-3.4989 Y2.4762
X-3.4812 Y2.4651
X-3.4632 Y2.4545
X-3.4449 Y2.4444
X-3.4263 Y2.4349
X-3.4075 Y2.4259
X-3.3884 Y2.4175
X-3.369 Y2.4096
X-3.3494 Y2.4024
X-3.3297 Y2.3957
X-3.3097 Y2.3896
X-3.2895 Y2.3841
X-3.2692 Y2.3791
X-3.2488 Y2.3748
X-2.8568 Y2.4086
G3 X-2.4162 Y2.7755 I-0.1753 J0.6585
G1 X-2.3667 Y3.3041
G3 X-2.9907 Y3.8944 I-0.6831 J-0.0971
X-3.2346 Y3.8973 I-0.1285 J-0.55
G1 X-3.3771 Y3.7761
X-3.3996 Y3.7555
X-3.4169 Y3.7391
G3 X-3.4209 Y3.724 I0.0111 J-0.011
X-3.3738 Y3.6925 I0.0417 J0.0115
X-3.2369 Y3.8681 I-0.0194 J0.1563
X-3.2393 Y3.8824 I-0.1563 J-0.0192 F50.
G2 X-3.2346 Y3.8973 I0.0153 J0.0033
G1 X-3.1829 Y3.9413 F60.
X-3.1636 Y3.9565
X-3.1525 Y3.9649
G2 X-2.7358 Y3.9265 I0.166 J-0.4789
X-2.3411 Y3.5628 I-0.3539 J-0.78
G1 X-2.3667 Y3.3041
G2 X-2.3762 Y3.2916 I-0.0155 J0.002
X-2.3871 Y3.2894 I-0.011 J0.0262
G1 X-2.3905 Y3.2896
G2 X-2.4082 Y3.2988 I0.0033 J0.0282
X-2.3652 Y3.5433 I0.117 J0.1054
X-2.3521 Y3.5495 I0.074 J-0.139 F50.
G3 X-2.3426 Y3.562 I-0.006 J0.0144
G1 X-2.3346 Y3.6475 F60.
G3 X-2.5691 Y3.9463 I-0.4208 J-0.0887
G1 X-2.5889 Y3.9592
X-2.6089 Y3.9715
X-2.6293 Y3.9832
X-2.65 Y3.9944
X-2.671 Y4.0051
X-2.6922 Y4.0152
X-2.7138 Y4.0248
X-2.7355 Y4.0338
X-2.7575 Y4.0422
X-2.7797 Y4.05
X-2.8021 Y4.0572
X-2.8247 Y4.0639
X-2.8474 Y4.0699
X-2.8703 Y4.0754
X-2.8933 Y4.0802
X-2.9165 Y4.0845
X-2.9397 Y4.0881
X-2.9631 Y4.0911
X-2.9865 Y4.0935
X-3.1525 Y3.9649
G3 X-3.1581 Y3.9503 I0.0099 J-0.0121
X-3.0796 Y3.9093 I0.0546 J0.0089
X-2.9906 Y4.0621 I-0.068 J0.142
X-2.9922 Y4.0766 I-0.1571 J-0.0108 F50.
G2 X-2.9867 Y4.0912 I0.0154 J0.0025
G1 X-2.9667 Y4.1065 F60.
X-2.9512 Y4.1175
X-2.9327 Y4.1301
X-2.9185 Y4.1345
X-2.9041 Y4.1384
X-2.8896 Y4.1416
X-2.8749 Y4.1443
X-2.8602 Y4.1464
X-2.8453 Y4.1478
X-2.8305 Y4.1487
X-2.8156 Y4.1489
X-2.8007 Y4.1485
X-2.7858 Y4.1475
X-2.771 Y4.146
X-2.7563 Y4.1438
X-2.7417 Y4.141
X-2.7272 Y4.1376
X-2.7129 Y4.1336
X-2.6987 Y4.129
X-2.6847 Y4.1239
X-2.671 Y4.1182
X-2.6575 Y4.1119
X-2.6442 Y4.1051
X-2.6313 Y4.0977
X-2.6187 Y4.0898
X-2.6064 Y4.0814
X-2.5944 Y4.0726
X-2.5829 Y4.0632
X-2.5717 Y4.0534
G2 X-2.3145 Y3.848 I-0.2535 J-0.5811
G1 X-2.3346 Y3.6475
G2 X-2.3441 Y3.635 I-0.0155 J0.002
X-2.3578 Y3.637 I-0.0052 J0.0125
X-2.3384 Y3.8281 I0.078 J0.0886
X-2.3254 Y3.8346 I0.0587 J-0.1025 F50.
G3 X-2.3159 Y3.847 I-0.006 J0.0144
G1 X-2.3103 Y3.9071 F60.
G3 X-2.5557 Y4.1574 I-0.3318 J-0.0797
X-2.7696 Y4.241 I-0.2483 J-0.3203
G1 X-2.9327 Y4.1301
G3 X-2.939 Y4.1158 I0.0092 J-0.0126
X-2.9262 Y4.1006 I0.0177 J0.0019
X-2.7753 Y4.2121 I0.0328 J0.1135
X-2.7759 Y4.2267 I-0.1181 J0.0019 F50.
G2 X-2.7696 Y4.241 I0.0155 J0.0017
G1 X-2.7388 Y4.2619 F60.
X-2.7231 Y4.2717
G2 X-2.3826 Y4.1643 I0.0848 J-0.3246
X-2.2933 Y4.0888 I-0.0114 J-0.1041
G1 X-2.3103 Y3.9071
G2 X-2.3198 Y3.8946 I-0.0155 J0.002
X-2.3591 Y3.9078 I-0.0122 J0.0291
X-2.3158 Y4.0699 I0.102 J0.0596
X-2.3028 Y4.0764 I0.0587 J-0.1025 F50.
G3 X-2.2933 Y4.0888 I-0.006 J0.0144
G1 X-2.2882 Y4.1431 F60.
X-2.2924 Y4.1561
X-2.2971 Y4.169
X-2.3023 Y4.1816
X-2.3081 Y4.194
X-2.3145 Y4.2061
X-2.3214 Y4.2179
X-2.3287 Y4.2295
X-2.3366 Y4.2407
X-2.3449 Y4.2515
X-2.3537 Y4.262
X-2.363 Y4.272
X-2.3727 Y4.2817
X-2.3828 Y4.2909
X-2.3933 Y4.2997
X-2.4041 Y4.3081
X-2.4153 Y4.3159
X-2.4269 Y4.3233
X-2.4387 Y4.3301
X-2.4509 Y4.3364
X-2.4633 Y4.3422
X-2.4759 Y4.3474
X-2.4887 Y4.3521
X-2.5018 Y4.3563
X-2.515 Y4.3598
X-2.5284 Y4.3628
X-2.5418 Y4.3652
X-2.5554 Y4.367
X-2.558 Y4.3709
X-2.5609 Y4.3697
X-2.7231 Y4.2717
G3 X-2.73 Y4.2577 I0.0087 J-0.013
X-2.7088 Y4.2335 I0.0263 J0.0017
X-2.5681 Y4.3412 I0.0229 J0.1159
X-2.568 Y4.3558 I-0.1178 J0.0082 F50.
G2 X-2.5609 Y4.3697 I0.0156 J0.0008
G1 X-2.5147 Y4.3976 F60.
G2 X-2.2724 Y4.3118 I0.0567 J-0.2246
G1 X-2.2882 Y4.1431
G2 X-2.2977 Y4.1306 I-0.0155 J0.002
X-2.3487 Y4.1541 I-0.0147 J0.0352
X-2.2949 Y4.2929 I0.1124 J0.0364
X-2.2819 Y4.2994 I0.0587 J-0.1025 F50.
G3 X-2.2724 Y4.3118 I-0.006 J0.0144
G1 X-2.2683 Y4.3555 F60.
G3 X-2.3664 Y4.479 I-0.1328 J-0.0047
G1 X-2.369 Y4.4772
X-2.3713 Y4.4749
X-2.3731 Y4.4723
X-2.3743 Y4.4694
X-2.375 Y4.4663
Y4.4632
X-2.3745 Y4.4602
X-2.3734 Y4.4573
X-2.3717 Y4.4548
X-2.3689 Y4.4507
X-2.2966 Y4.3484
X-2.2944 Y4.346
X-2.2918 Y4.344
G3 X-2.2683 Y4.3555 I0.008 J0.0134 F50.
G1 X-2.2595 Y4.4499 F60.
G3 X-2.295 Y4.5156 I-0.0465 J0.0174
X-2.3023 Y4.4984 I0.0078 J-0.0135
G1 X-2.2998 Y4.4879
X-2.2902 Y4.4482
G3 X-2.283 Y4.4384 I0.0152 J0.0037
X-2.2595 Y4.4499 I0.008 J0.0134 F50.
G1 X-2.2531 Y4.518 F60.
X-2.2537 Y4.5254
X-2.254 Y4.5283
X-2.2548 Y4.5301
X-2.256 Y4.5313
X-2.2565 Y4.5316
X-2.2578 Y4.5322
X-2.2596 Y4.5323
X-2.26 Y4.5322
X-2.2684 Y4.5298
X-2.4869 Y4.4133
X-2.5029 Y4.4048
X-2.5147 Y4.3976
G3 Y4.3715 I0.0085 J-0.0131
G1 X-2.5122 Y4.3698 Z-0.1672
X-2.5098 Y4.3682 Z-0.1663
X-2.5075 Y4.3667 Z-0.1649
X-2.5055 Y4.3654 Z-0.1629
X-2.5039 Y4.3643 Z-0.1606
X-2.5027 Y4.3636 Z-0.1579
X-2.502 Y4.3631 Z-0.1549
X-2.5017 Y4.3629 Z-0.1519
G0 Z-0.1362
X-3.6646 Y3.4713
G1 Z-0.1519 F50.
X-3.6649 Y3.4712 Z-0.1549
X-3.6657 Y3.471 Z-0.1579
X-3.6671 Y3.4706 Z-0.1606
X-3.669 Y3.47 Z-0.1629
X-3.6712 Y3.4694 Z-0.1649
X-3.6738 Y3.4687 Z-0.1663
X-3.6767 Y3.4679 Z-0.1672
X-3.6796 Y3.467 Z-0.1675
G3 X-3.7063 Y3.4515 I0.017 J-0.06
G1 X-3.7566 Y3.3985 F60.
X-3.7771 Y3.3759
X-3.8715 Y3.2649
G3 X-3.8362 Y2.7221 I0.594 J-0.2339
X-3.4723 Y2.3499 I0.7408 J0.3602
G1 X-3.2494 Y2.3719
G3 X-3.237 Y2.3813 I-0.002 J0.0155
X-3.2704 Y2.451 I-0.0477 J0.02
X-3.453 Y2.3737 I-0.0436 J-0.1513
X-3.4593 Y2.3605 I0.139 J-0.074 F50.
G2 X-3.4717 Y2.3511 I-0.0144 J0.006
G1 X-3.5647 Y2.3423 F60.
G2 X-3.8656 Y2.5761 I0.0929 J0.4301
X-4.0165 Y3.0873 I0.7514 J0.4997
G1 X-3.9573 Y3.1625
X-3.9423 Y3.1817
X-3.8715 Y3.2649
G2 X-3.8566 Y3.2696 I0.0115 J-0.0105
X-3.821 Y3.2138 I-0.01 J-0.0456
X-3.9855 Y3.0911 I-0.1537 J0.0344
X-4. Y3.0928 I0.0108 J0.1571 F50.
G3 X-4.0146 Y3.0873 I-0.0025 J-0.0154
G1 X-4.0603 Y3.0273 F60.
G3 X-4.0188 Y2.649 I0.3909 J-0.1485
X-3.7643 Y2.3237 I0.742 J0.3181
G1 X-3.5647 Y2.3423
G3 X-3.5523 Y2.3518 I-0.002 J0.0155
X-3.5543 Y2.3655 I-0.0124 J0.0052
X-3.7455 Y2.3462 I-0.0887 J-0.078
X-3.7519 Y2.3331 I0.1025 J-0.0587 F50.
G2 X-3.7643 Y2.3237 I-0.0144 J0.006
G1 X-3.8243 Y2.318 F60.
G2 X-4.0774 Y2.5634 I0.0768 J0.3324
X-4.1837 Y2.8559 I0.5324 J0.3591
G1 X-4.1183 Y2.9501
X-4.1075 Y2.9653
X-4.0603 Y3.0273
G2 X-4.0457 Y3.0328 I0.0121 J-0.0099
X-4.0048 Y2.9604 I-0.0086 J-0.0526
X-4.1534 Y2.8615 I-0.1462 J0.0585
X-4.1679 Y2.8624 I0.0024 J0.1575 F50.
G3 X-4.1822 Y2.8561 I-0.0017 J-0.0155
G1 X-4.2206 Y2.7996 F60.
G3 X-4.0956 Y2.4067 I0.4167 J-0.0838
X-4.0078 Y2.3009 I0.1446 J0.0306
G1 X-3.8243 Y2.318
G3 X-3.8119 Y2.3275 I-0.002 J0.0155
X-3.8238 Y2.3648 I-0.0279 J0.0117
X-3.9889 Y2.3234 I-0.0627 J-0.1001
X-3.9954 Y2.3103 I0.1025 J-0.0587 F50.
G2 X-4.0078 Y2.3009 I-0.0144 J0.006
G1 X-4.0603 Y2.296 F60.
G2 X-4.2848 Y2.5444 I0.0792 J0.2972
X-4.3212 Y2.6412 I0.0571 J0.0767
G1 X-4.2727 Y2.7214
X-4.2627 Y2.7377
X-4.2206 Y2.7996
G2 X-4.2063 Y2.8059 I0.0126 J-0.0092
X-4.1843 Y2.7851 I-0.0027 J-0.0249
X-4.2927 Y2.6484 I-0.1166 J-0.0188
X-4.3072 Y2.6483 I-0.0082 J0.1178 F50.
G3 X-4.3212 Y2.6412 I-0.0008 J-0.0156
G1 X-4.3485 Y2.5961 F60.
G3 X-4.236 Y2.28 I0.3052 J-0.0695
G1 X-4.2328 Y2.2798
X-4.0603 Y2.296
G3 X-4.0479 Y2.3054 I-0.002 J0.0155
X-4.0683 Y2.3536 I-0.0338 J0.0141
X-4.2139 Y2.3023 I-0.0431 J-0.11
X-4.2204 Y2.2893 I0.1025 J-0.0587 F50.
G2 X-4.2328 Y2.2798 I-0.0144 J0.006
G1 X-4.2798 Y2.2754 F60.
G2 X-4.4407 Y2.4355 I0.0303 J0.1913
G1 X-4.4054 Y2.5017
X-4.3838 Y2.5375
X-4.3485 Y2.5961
G2 X-4.3345 Y2.6031 I0.0131 J-0.0085
X-4.3109 Y2.5822 I-0.0014 J-0.0254
X-4.4126 Y2.4442 I-0.1163 J-0.0207
X-4.4271 Y2.4434 I-0.0145 J0.1172 F50.
G3 X-4.4407 Y2.4355 I0. J-0.0156
G1 X-4.4615 Y2.3966 F60.
G3 X-4.4323 Y2.2595 I0.1066 J-0.0489
G1 X-4.4292 Y2.2601
X-4.4262 Y2.2612
X-4.4235 Y2.2629
X-4.4213 Y2.2649
X-4.4194 Y2.2674
X-4.4181 Y2.2701
X-4.4173 Y2.273
X-4.417 Y2.276
X-4.4173 Y2.2789
X-4.4181 Y2.2851
G3 X-4.4354 Y2.3981 I-0.1713 J0.0317
X-4.4615 Y2.3966 I-0.0125 J-0.0093 F50.
G1 X-4.5061 Y2.3128 F60.
G3 X-4.5013 Y2.2547 I0.0194 J-0.0277
X-4.4716 Y2.3122 I-0.005 J0.039
X-4.4792 Y2.3201 I-0.0174 J-0.0093
X-4.5061 Y2.3128 I-0.0098 J-0.0171 F50.
X-4.5316 Y2.2566 I0.0214 J-0.0437 F60.
G1 X-4.5311 Y2.2558
X-4.5304 Y2.2551
G3 X-4.5146 Y2.2534 I0.01 J0.0185
G1 X-4.2798 Y2.2754
G3 X-4.2684 Y2.2989 I-0.002 J0.0155
G1 X-4.2699 Y2.3015 Z-0.1672
X-4.2714 Y2.304 Z-0.1663
X-4.2728 Y2.3064 Z-0.1649
X-4.274 Y2.3084 Z-0.1629
X-4.275 Y2.3101 Z-0.1606
X-4.2757 Y2.3113 Z-0.1579
X-4.2762 Y2.3121 Z-0.1549
X-4.2764 Y2.3123 Z-0.1519
G0 Z-0.1362
X-2.9013 Y2.4212
G1 Z-0.1519 F50.
X-2.901 Y2.4211 Z-0.1549
X-2.9002 Y2.4207 Z-0.1579
X-2.8989 Y2.4201 Z-0.1606
X-2.8972 Y2.4193 Z-0.1629
X-2.895 Y2.4182 Z-0.1649
X-2.8926 Y2.4171 Z-0.1663
X-2.8899 Y2.4158 Z-0.1672
X-2.8872 Y2.4145 Z-0.1675
G3 X-2.8568 Y2.4086 I0.0267 J0.0563
G1 X-2.6444 Y2.4285 F60.
G3 X-2.6079 Y2.4544 I0.0049 J0.0318
G2 X-2.4321 Y2.624 I0.374 J-0.2119
G1 X-2.4286 Y2.6433
X-2.4162 Y2.7755
G3 X-2.4223 Y2.7888 I-0.0156 J0.0009
G1 X-2.4245 Y2.7898 Z-0.1673
X-2.4266 Y2.7908 Z-0.1668
X-2.4286 Y2.7917 Z-0.1659
X-2.4303 Y2.7919 Z-0.1649
X-2.4318 Y2.792 Z-0.1637
X-2.4337 Y2.7917 Z-0.1618
X-2.4352 Y2.7914 Z-0.1596
X-2.4363 Y2.7913 Z-0.1572
X-2.4369 Y2.7911 Z-0.1546
X-2.4372 Z-0.1519
G0 Z0.4
X-3.5772 Y-1.5555
Z0.1
G3 X-3.5751 Y-1.4071 Z0.0589 I0.001 J0.0742 F50.
X-3.5772 Y-1.5555 Z0.0177 I-0.001 J-0.0742
X-3.5751 Y-1.4071 Z-0.0234 I0.001 J0.0742
X-3.5772 Y-1.5555 Z-0.0645 I-0.001 J-0.0742
X-3.5751 Y-1.4071 Z-0.1056 I0.001 J0.0742
X-3.5772 Y-1.5555 Z-0.1468 I-0.001 J-0.0742
X-3.5019 Y-1.4813 Z-0.1675 I0.001 J0.0742
X-3.6504 I-0.0742 J0.
X-3.5022 Y-1.4875 I0.0742 J0.
G1 X-3.5019 Y-1.4813
G3 X-3.6676 Y-1.3635 I-0.0855 J0.0552 F60.
G1 X-3.6754 Y-1.3695
X-3.6829 Y-1.3759
X-3.6899 Y-1.3828
X-3.6964 Y-1.3901
X-3.7025 Y-1.3978
X-3.7081 Y-1.4059
X-3.7131 Y-1.4143
X-3.7176 Y-1.423
X-3.7215 Y-1.432
X-3.7249 Y-1.4412
X-3.7277 Y-1.4507
X-3.7298 Y-1.4602
X-3.7314 Y-1.4699
X-3.7323 Y-1.4797
X-3.7326 Y-1.4895
X-3.7323 Y-1.4993
X-3.7314 Y-1.5091
X-3.7298 Y-1.5188
X-3.7277 Y-1.5284
X-3.7249 Y-1.5378
X-3.7215 Y-1.547
X-3.7176 Y-1.556
X-3.7131 Y-1.5647
X-3.7081 Y-1.5731
X-3.7025 Y-1.5812
X-3.6964 Y-1.5889
X-3.6899 Y-1.5963
X-3.6829 Y-1.6031
X-3.6755 Y-1.6096
X-3.6677 Y-1.6155
X-3.6595 Y-1.6209
X-3.651 Y-1.6259
X-3.6422 Y-1.6302
X-3.6331 Y-1.634
X-3.6239 Y-1.6372
X-3.6144 Y-1.6398
X-3.6048 Y-1.6418
X-3.5951 Y-1.6432
X-3.5853 Y-1.644
X-3.5755 Y-1.6442
X-3.5657 Y-1.6437
X-3.5559 Y-1.6426
X-3.5463 Y-1.6409
X-3.5367 Y-1.6386
X-3.5274 Y-1.6356
X-3.5182 Y-1.6321
X-3.5093 Y-1.6281
X-3.5006 Y-1.6234
X-3.4923 Y-1.6182
X-3.4843 Y-1.6125
X-3.4767 Y-1.6064
X-3.4695 Y-1.5997
X-3.4627 Y-1.5926
X-3.4564 Y-1.5851
X-3.4506 Y-1.5772
X-3.4453 Y-1.5689
X-3.4405 Y-1.5603
X-3.4363 Y-1.5515
X-3.4327 Y-1.5424
X-3.4296 Y-1.533
X-3.4238 Y-1.5237
X-3.4185 Y-1.5141
X-3.4137 Y-1.5042
X-3.4095 Y-1.4941
X-3.4059 Y-1.4837
X-3.4029 Y-1.4731
X-3.4005 Y-1.4624
X-3.3988 Y-1.4516
X-3.3976 Y-1.4407
X-3.3971 Y-1.4297
X-3.3972 Y-1.4187
X-3.3979 Y-1.4078
X-3.3993 Y-1.3969
X-3.4012 Y-1.3861
X-3.4038 Y-1.3754
X-3.407 Y-1.3649
X-3.4108 Y-1.3546
X-3.4151 Y-1.3445
X-3.4201 Y-1.3347
X-3.4256 Y-1.3252
X-3.4316 Y-1.316
X-3.4381 Y-1.3072
X-3.4451 Y-1.2987
X-3.4526 Y-1.2907
X-3.4605 Y-1.2831
X-3.4689 Y-1.276
X-3.4776 Y-1.2693
X-3.4868 Y-1.2632
X-3.4962 Y-1.2576
X-3.506 Y-1.2526
X-3.516 Y-1.2481
X-3.5262 Y-1.2442
X-3.5367 Y-1.2409
X-3.5473 Y-1.2382
X-3.5581 Y-1.2361
X-3.569 Y-1.2346
X-3.5799 Y-1.2338
X-3.5909 Y-1.2335
X-3.6019 Y-1.2339
X-3.6128 Y-1.2349
X-3.6237 Y-1.2366
X-3.6344 Y-1.2388
X-3.645 Y-1.2417
X-3.6554 Y-1.2452
X-3.6656 Y-1.2492
X-3.6756 Y-1.2539
X-3.6852 Y-1.2591
X-3.6946 Y-1.2648
X-3.7036 Y-1.2711
X-3.7123 Y-1.2778
X-3.7205 Y-1.2851
X-3.7283 Y-1.2928
X-3.7357 Y-1.3009
X-3.7452 Y-1.3085
X-3.7543 Y-1.3165
X-3.763 Y-1.325
X-3.7713 Y-1.334
X-3.779 Y-1.3433
X-3.7863 Y-1.3531
X-3.7931 Y-1.3632
X-3.7993 Y-1.3737
X-3.805 Y-1.3844
X-3.8101 Y-1.3954
X-3.8146 Y-1.4067
X-3.8186 Y-1.4182
X-3.822 Y-1.4299
X-3.8247 Y-1.4418
X-3.8268 Y-1.4537
X-3.8284 Y-1.4658
X-3.8293 Y-1.4779
X-3.8295 Y-1.4901
X-3.8292 Y-1.5022
X-3.8282 Y-1.5144
X-3.8266 Y-1.5264
X-3.8243 Y-1.5384
X-3.8215 Y-1.5502
X-3.818 Y-1.5619
X-3.814 Y-1.5733
X-3.8094 Y-1.5846
X-3.8042 Y-1.5956
X-3.7984 Y-1.6063
X-3.7921 Y-1.6167
X-3.7852 Y-1.6267
X-3.7779 Y-1.6364
X-3.7701 Y-1.6457
X-3.7618 Y-1.6546
X-3.753 Y-1.663
X-3.7438 Y-1.671
X-3.7343 Y-1.6785
X-3.7243 Y-1.6855
X-3.714 Y-1.692
X-3.7034 Y-1.6979
X-3.6925 Y-1.7033
X-3.6813 Y-1.7081
X-3.6686 Y-1.7123
X-3.6558 Y-1.7159
X-3.6428 Y-1.719
X-3.6297 Y-1.7214
X-3.6164 Y-1.7232
X-3.6032 Y-1.7244
X-3.5898 Y-1.725
X-3.5765 Y-1.7249
X-3.5631 Y-1.7243
X-3.5498 Y-1.723
X-3.5366 Y-1.7212
X-3.5235 Y-1.7187
X-3.5105 Y-1.7156
X-3.4977 Y-1.7119
X-3.485 Y-1.7076
X-3.4726 Y-1.7028
X-3.4604 Y-1.6974
X-3.4485 Y-1.6914
X-3.4368 Y-1.6849
X-3.4255 Y-1.6778
X-3.4145 Y-1.6702
X-3.4039 Y-1.6622
X-3.3936 Y-1.6536
X-3.3838 Y-1.6446
X-3.3743 Y-1.6351
X-3.3654 Y-1.6253
X-3.3569 Y-1.615
X-3.3489 Y-1.6043
X-3.3413 Y-1.5933
X-3.3343 Y-1.5819
X-3.3279 Y-1.5702
X-3.3219 Y-1.5583
X-3.3166 Y-1.546
X-3.3118 Y-1.5336
X-3.3076 Y-1.5209
X-3.304 Y-1.5081
X-3.3009 Y-1.4951
X-3.2985 Y-1.4819
X-3.2967 Y-1.4687
X-3.2955 Y-1.4554
X-3.2949 Y-1.4421
X-3.295 Y-1.4287
X-3.2956 Y-1.4154
X-3.2969 Y-1.4021
X-3.2987 Y-1.3889
X-3.3012 Y-1.3758
X-3.3043 Y-1.3628
X-3.308 Y-1.35
X-3.3123 Y-1.3373
X-3.3171 Y-1.3249
X-3.3226 Y-1.3127
X-3.3285 Y-1.3007
X-3.3351 Y-1.2891
X-3.3421 Y-1.2778
X-3.3497 Y-1.2668
X-3.3578 Y-1.2561
X-3.3663 Y-1.2459
X-3.3753 Y-1.236
X-3.3848 Y-1.2266
X-3.3947 Y-1.2177
X-3.405 Y-1.2092
X-3.4156 Y-1.2011
X-3.4267 Y-1.1936
X-3.438 Y-1.1866
X-3.4497 Y-1.1802
X-3.4617 Y-1.1742
X-3.4739 Y-1.1689
X-3.4864 Y-1.1641
X-3.499 Y-1.1599
X-3.5119 Y-1.1563
X-3.5249 Y-1.1532
X-3.538 Y-1.1508
X-3.5512 Y-1.149
X-3.5645 Y-1.1478
X-3.5779 Y-1.1472
X-3.5912 Y-1.1473
X-3.6045 Y-1.1479
X-3.6178 Y-1.1492
X-3.631 Y-1.1511
G3 X-3.6689 Y-1.8129 I0.0436 J-0.3345
G1 X-3.6536 Y-1.8159
X-3.6383 Y-1.8182
X-3.6228 Y-1.8198
X-3.6073 Y-1.8209
X-3.5918 Y-1.8213
X-3.5763 Y-1.8212
X-3.5608 Y-1.8204
X-3.5453 Y-1.8189
X-3.5299 Y-1.8169
X-3.5146 Y-1.8142
X-3.4994 Y-1.8109
X-3.4844 Y-1.8071
X-3.4695 Y-1.8026
X-3.4548 Y-1.7975
X-3.4403 Y-1.7918
X-3.4261 Y-1.7856
X-3.4122 Y-1.7788
X-3.3985 Y-1.7714
X-3.3851 Y-1.7635
X-3.3721 Y-1.7551
X-3.3594 Y-1.7462
X-3.347 Y-1.7367
X-3.3351 Y-1.7268
X-3.3235 Y-1.7164
X-3.3124 Y-1.7055
X-3.3018 Y-1.6942
X-3.2916 Y-1.6825
X-3.2819 Y-1.6704
X-3.2726 Y-1.6579
X-3.2639 Y-1.645
X-3.2557 Y-1.6319
X-3.2481 Y-1.6183
X-3.2409 Y-1.6045
X-3.2344 Y-1.5904
X-3.2284 Y-1.5761
X-3.223 Y-1.5615
X-3.2182 Y-1.5468
X-3.214 Y-1.5318
X-3.2104 Y-1.5167
X-3.2074 Y-1.5015
X-3.205 Y-1.4861
X-3.2032 Y-1.4707
X-3.202 Y-1.4552
X-3.2015 Y-1.4397
X-3.2016 Y-1.4242
X-3.2023 Y-1.4086
X-3.2036 Y-1.3932
X-3.2056 Y-1.3778
X-3.2082 Y-1.3624
X-3.2114 Y-1.3472
X-3.2151 Y-1.3322
X-3.2195 Y-1.3173
X-3.2245 Y-1.3026
X-3.2301 Y-1.2881
X-3.2362 Y-1.2738
X-3.243 Y-1.2598
X-3.2502 Y-1.2461
X-3.2581 Y-1.2327
X-3.2664 Y-1.2196
X-3.2753 Y-1.2068
X-3.2847 Y-1.1944
X-3.2945 Y-1.1824
X-3.3049 Y-1.1708
X-3.3156 Y-1.1597
X-3.3269 Y-1.1489
X-3.3385 Y-1.1387
X-3.3506 Y-1.1289
X-3.363 Y-1.1196
X-3.3758 Y-1.1108
X-3.389 Y-1.1025
X-3.4024 Y-1.0947
X-3.4162 Y-1.0876
X-3.4302 Y-1.0809
X-3.4445 Y-1.0748
X-3.4591 Y-1.0694
X-3.4738 Y-1.0645
X-3.4887 Y-1.0601
X-3.5038 Y-1.0564
X-3.519 Y-1.0533
X-3.5344 Y-1.0509
X-3.5498 Y-1.049
X-3.5653 Y-1.0477
X-3.5808 Y-1.0471
X-3.5963
X-3.6118 Y-1.0477
X-3.6273 Y-1.049
X-3.6427 Y-1.0508
X-3.6581 Y-1.0533
X-3.6733 Y-1.0564
X-3.6884 Y-1.0601
X-3.7033 Y-1.0644
X-3.7181 Y-1.0693
X-3.7326 Y-1.0748
X-3.7469 Y-1.0809
X-3.7609 Y-1.0875
X-3.7747 Y-1.0947
X-3.7882 Y-1.1024
X-3.8013 Y-1.1107
X-3.8141 Y-1.1195
X-3.8266 Y-1.1288
X-3.8386 Y-1.1386
X-3.8503 Y-1.1489
G3 X-4.0188 Y-1.4979 I0.2304 J-0.3265
G1 X-4.0177 Y-1.5146
X-4.016 Y-1.5312
X-4.0136 Y-1.5478
X-4.0106 Y-1.5643
X-4.0071 Y-1.5807
X-4.0029 Y-1.5969
X-3.9981 Y-1.6129
X-3.9927 Y-1.6288
X-3.9867 Y-1.6444
X-3.9801 Y-1.6598
X-3.973 Y-1.675
X-3.9653 Y-1.6898
X-3.957 Y-1.7044
X-3.9482 Y-1.7187
X-3.9389 Y-1.7326
X-3.9291 Y-1.7461
X-3.9188 Y-1.7593
X-3.908 Y-1.7721
X-3.8967 Y-1.7845
X-3.8849 Y-1.7964
X-3.8728 Y-1.8079
X-3.8602 Y-1.819
X-3.8472 Y-1.8295
X-3.8338 Y-1.8396
X-3.82 Y-1.8491
X-3.8059 Y-1.8582
X-3.7915 Y-1.8667
X-3.7768 Y-1.8746
X-3.7618 Y-1.882
X-3.7465 Y-1.8889
X-3.7309 Y-1.8951
X-3.7152 Y-1.9008
X-3.6992 Y-1.9059
X-3.6831 Y-1.9104
X-3.6668 Y-1.9143
X-3.6504 Y-1.9175
X-3.6339 Y-1.9202
X-3.6172 Y-1.9222
X-3.6005 Y-1.9236
X-3.5838 Y-1.9244
X-3.5671 Y-1.9246
X-3.5503 Y-1.9241
X-3.5336 Y-1.923
X-3.517 Y-1.9213
X-3.5004 Y-1.919
X-3.4839 Y-1.916
X-3.4675 Y-1.9124
X-3.4513 Y-1.9083
X-3.4353 Y-1.9035
X-3.4194 Y-1.8981
X-3.4038 Y-1.8922
X-3.3884 Y-1.8856
X-3.3732 Y-1.8785
X-3.3583 Y-1.8708
X-3.3437 Y-1.8626
X-3.3295 Y-1.8538
X-3.3155 Y-1.8445
X-3.302 Y-1.8347
X-3.2888 Y-1.8244
X-3.2759 Y-1.8136
X-3.2636 Y-1.8024
X-3.2516 Y-1.7907
X-3.2401 Y-1.7785
X-3.229 Y-1.7659
X-3.2184 Y-1.7529
X-3.2084 Y-1.7396
X-3.1988 Y-1.7258
X-3.1897 Y-1.7117
X-3.1812 Y-1.6973
X-3.1732 Y-1.6826
X-3.1658 Y-1.6676
X-3.1589 Y-1.6523
X-3.1527 Y-1.6368
X-3.147 Y-1.6211
X-3.1418 Y-1.6051
X-3.1373 Y-1.589
X-3.1334 Y-1.5727
X-3.1301 Y-1.5563
X-3.1275 Y-1.5398
X-3.1254 Y-1.5231
G3 X-3.1098 Y-1.379 I-0.2579 J0.1008
G1 X-3.1825 Y-1.2036
X-3.1872 Y-1.192
X-3.1953 Y-1.1774
X-3.204 Y-1.1631
X-3.2132 Y-1.149
X-3.2228 Y-1.1354
X-3.233 Y-1.1221
X-3.2437 Y-1.1092
X-3.2548 Y-1.0966
X-3.2664 Y-1.0845
X-3.2784 Y-1.0729
X-3.2909 Y-1.0617
X-3.3037 Y-1.0509
X-3.3169 Y-1.0406
X-3.3305 Y-1.0308
X-3.3445 Y-1.0215
X-3.3587 Y-1.0128
X-3.3733 Y-1.0046
X-3.3882 Y-0.9969
X-3.4033 Y-0.9897
X-3.4187 Y-0.9831
X-3.4344 Y-0.9771
X-3.4502 Y-0.9717
X-3.4663 Y-0.9668
X-3.4825 Y-0.9626
X-3.4988 Y-0.9589
X-3.5153 Y-0.9559
X-3.5318 Y-0.9534
X-3.5485 Y-0.9516
X-3.5652 Y-0.9503
X-3.5819 Y-0.9497
X-3.5987
X-3.6154 Y-0.9503
X-3.6321 Y-0.9515
X-3.6488 Y-0.9534
X-3.6653 Y-0.9558
X-3.6818 Y-0.9589
X-3.6981 Y-0.9625
X-3.7143 Y-0.9668
X-3.7304 Y-0.9716
X-3.7462 Y-0.977
X-3.7619 Y-0.983
X-3.7773 Y-0.9896
X-4.0603 Y-1.329
G3 X-4.0028 Y-1.8127 I0.3851 J-0.1995
X-3.8822 Y-1.9246 I0.2293 J0.1262
G1 X-3.4232 Y-1.9676
G3 X-3.0648 Y-1.6803 I-0.0589 J0.4407
X-3.0252 Y-1.5541 I-0.1205 J0.1071
G1 X-3.094 Y-1.416
X-3.1043 Y-1.3924
X-3.1098 Y-1.379
G3 X-3.1225 Y-1.3699 I-0.0142 J-0.0065
X-3.1446 Y-1.3833 I-0.0021 J-0.0215
X-3.053 Y-1.5447 I0.1094 J-0.0446
X-3.0385 Y-1.546 I0.0178 J0.1168 F50.
G2 X-3.0252 Y-1.5541 I-0.0004 J-0.0156
G1 X-2.9984 Y-1.608 F60.
X-2.9925 Y-1.6192
G2 X-3.1847 Y-1.9734 I-0.3542 J-0.037
G1 X-3.1906 Y-1.9866
X-3.1929 Y-1.9879
X-3.1956 Y-1.9886
X-3.1983 Y-1.9887
X-3.4232 Y-1.9676
G2 X-3.4356 Y-1.9581 I0.002 J0.0155
X-3.4043 Y-1.8901 I0.0469 J0.0196
X-3.2169 Y-1.966 I0.0484 J-0.1499
X-3.2107 Y-1.9792 I-0.139 J-0.074 F50.
G3 X-3.1983 Y-1.9887 I0.0144 J0.006
G1 X-3.127 Y-1.9953 F60.
G3 X-2.9069 Y-1.7658 I-0.0748 J0.2921
G1 X-2.9876 Y-1.6284
G3 X-3.0015 Y-1.6212 I-0.0132 J-0.0084
X-3.0391 Y-1.6735 I0.0017 J-0.0409
X-2.9353 Y-1.7583 I0.1134 J0.0329
X-2.9207 Y-1.7586 I0.0096 J0.1177 F50.
G2 X-2.9069 Y-1.7658 I0.0007 J-0.0156
G1 X-2.885 Y-1.8031 F60.
G2 X-2.9552 Y-2.0114 I-0.1708 J-0.0584
G1 X-3.127 Y-1.9953
G2 X-3.1394 Y-1.9859 I0.002 J0.0155
X-3.1185 Y-1.9372 I0.034 J0.0142
X-2.974 Y-1.9889 I0.042 J-0.1104
X-2.9676 Y-2.0019 I-0.1025 J-0.0587 F50.
G3 X-2.9552 Y-2.0114 I0.0144 J0.006
G1 X-2.9146 Y-2.0152 F60.
G3 X-2.8003 Y-1.9268 I0.0016 J0.1162
G1 X-2.8022 Y-1.9244
X-2.8046 Y-1.9223
X-2.8072 Y-1.9208
X-2.81 Y-1.9198
X-2.813 Y-1.9193
X-2.8159
X-2.8188 Y-1.9199
X-2.8215 Y-1.9209
X-2.8239 Y-1.9224
X-2.8299 Y-1.9264
X-2.9212 Y-1.9867
X-2.9239 Y-1.9889
X-2.9261 Y-1.9917
G3 X-2.9146 Y-2.0152 I0.0134 J-0.008 F50.
G1 X-2.8261 Y-2.0235 F60.
G3 X-2.7606 Y-1.9877 I0.0172 J0.0463
X-2.7765 Y-1.9817 I-0.0126 J-0.0093
G1 X-2.7891 Y-1.9844
X-2.8274 Y-1.9927
G3 X-2.8375 Y-2. I0.0033 J-0.0153
X-2.8261 Y-2.0235 I0.0134 J-0.008 F50.
G1 X-2.7566 Y-2.03 F60.
X-2.7534 Y-2.0303
X-2.7526 Y-2.0302
X-2.7425 Y-2.0292
X-2.7419 Y-2.0291
X-2.7407 Y-2.0284
X-2.74 Y-2.0277
X-2.7394 Y-2.027
X-2.7391 Y-2.0263
G3 X-2.748 Y-2.006 I-0.0203 J0.0031
G1 X-2.8613 Y-1.8408
X-2.8766 Y-1.8172
X-2.885 Y-1.8031
G3 X-2.9111 Y-1.8027 I-0.0132 J-0.0084
G1 X-2.9128 Y-1.8052 Z-0.1672
X-2.9144 Y-1.8076 Z-0.1663
X-2.916 Y-1.8099 Z-0.1649
X-2.9173 Y-1.8118 Z-0.1629
X-2.9184 Y-1.8134 Z-0.1606
X-2.9192 Y-1.8146 Z-0.1579
X-2.9197 Y-1.8154 Z-0.1549
X-2.9199 Y-1.8156 Z-0.1519
G0 Z-0.1362
X-3.8378 Y-1.912
G1 Z-0.1519 F50.
X-3.838 Y-1.9121 Z-0.1549
X-3.8388 Y-1.9125 Z-0.1579
X-3.8401 Y-1.9131 Z-0.1606
X-3.8419 Y-1.914 Z-0.1629
X-3.844 Y-1.915 Z-0.1649
X-3.8465 Y-1.9162 Z-0.1663
X-3.8491 Y-1.9174 Z-0.1672
X-3.8519 Y-1.9187 Z-0.1675
G2 X-3.8822 Y-1.9246 I-0.0267 J0.0563
G1 X-3.9789 Y-1.9156 F60.
G2 X-4.2071 Y-1.5596 I0.1637 J0.3561
X-4.2073 Y-1.5064 I0.0479 J0.0268
G1 X-4.0603 Y-1.329
G2 X-4.0455 Y-1.3241 I0.0117 J-0.0104
X-4.0076 Y-1.3834 I-0.0099 J-0.0481
X-4.1781 Y-1.5037 I-0.1532 J0.0363
X-4.1925 Y-1.5014 I0.0173 J0.1565 F50.
G3 X-4.2073 Y-1.5064 I-0.0031 J-0.0153
G1 X-4.2491 Y-1.5568 F60.
G3 X-4.1722 Y-1.8971 I0.3007 J-0.1109
G1 X-4.1692 Y-1.8978
X-3.9789 Y-1.9156
G3 X-3.9649 Y-1.9086 I0.0009 J0.0156
X-3.9667 Y-1.8792 I-0.0205 J0.0135
X-4.1464 Y-1.8791 I-0.0899 J-0.0767
X-4.1552 Y-1.8908 I0.0898 J-0.0767 F50.
G2 X-4.1692 Y-1.8978 I-0.013 J0.0086
G1 X-4.2255 Y-1.8925 F60.
G2 X-4.3633 Y-1.6946 I0.0739 J0.1984
G1 X-4.2491 Y-1.5568
G2 X-4.2343 Y-1.5518 I0.0117 J-0.0104
X-4.2076 Y-1.5892 I-0.0068 J-0.033
X-4.334 Y-1.6917 I-0.1171 J0.0153
X-4.3485 Y-1.6896 I0.0093 J0.1177 F50.
G3 X-4.3633 Y-1.6946 I-0.0031 J-0.0153
G1 X-4.3907 Y-1.7276 F60.
G3 X-4.3834 Y-1.8791 I0.1036 J-0.071
G1 X-4.3802
X-4.3771 Y-1.8785
X-4.3742 Y-1.8774
X-4.3716 Y-1.8757
X-4.3693 Y-1.8736
X-4.3675 Y-1.8711
X-4.3663 Y-1.8684
X-4.3655 Y-1.8655
X-4.3654 Y-1.8625
X-4.3653 Y-1.8568
X-4.3634 Y-1.7382
X-4.3637 Y-1.7347
X-4.3648 Y-1.7314
G3 X-4.3907 Y-1.7276 I-0.0142 J-0.0066 F50.
G1 X-4.4503 Y-1.7995 F60.
G3 X-4.4591 Y-1.8706 I0.0228 J-0.0389
X-4.4438 Y-1.8613 I0.0009 J0.0156
G1 X-4.4391 Y-1.8504
X-4.4242 Y-1.8161
G3 X-4.4244 Y-1.8033 I-0.0143 J0.0062
X-4.4385 Y-1.7943 I-0.0142 J-0.0066 F50.
G1 X-4.4386
G3 X-4.4503 Y-1.7995 I0. J-0.0156
G1 X-4.4916 Y-1.8494 F60.
X-4.4921 Y-1.8501
X-4.4955 Y-1.8561
X-4.4969 Y-1.8587
X-4.4972 Y-1.8594
X-4.4974 Y-1.8609
X-4.4971 Y-1.8623
X-4.4968 Y-1.863
X-4.4963 Y-1.8637
X-4.4957 Y-1.8644
X-4.4944 Y-1.8654
X-4.4843 Y-1.8683
X-4.2255 Y-1.8925
G3 X-4.2099 Y-1.8716 I0.0009 J0.0156
G1 X-4.2109 Y-1.8687 Z-0.1672
X-4.2119 Y-1.8659 Z-0.1663
X-4.2129 Y-1.8634 Z-0.1649
X-4.2137 Y-1.8612 Z-0.1629
X-4.2143 Y-1.8593 Z-0.1606
X-4.2148 Y-1.858 Z-0.1579
X-4.2151 Y-1.8571 Z-0.1549
X-4.2152 Y-1.8569 Z-0.1519
G0 Z-0.1362
X-3.7925 Y-1.0321
G1 Z-0.1519 F50.
Y-1.0318 Z-0.1549
X-3.7923 Y-1.0309 Z-0.1579
X-3.7921 Y-1.0295 Z-0.1606
X-3.7918 Y-1.0276 Z-0.1629
X-3.7914 Y-1.0252 Z-0.1649
X-3.791 Y-1.0226 Z-0.1663
X-3.7906 Y-1.0197 Z-0.1672
X-3.7901 Y-1.0166 Z-0.1675
G2 X-3.7779 Y-0.9882 I0.0616 J-0.0097
G1 X-3.7217 Y-0.9204 F60.
G2 X-3.3563 Y-0.9122 I0.1884 J-0.2509
X-3.2646 Y-0.9591 I0.0058 J-0.1018
G1 X-3.2623 Y-0.9676
X-3.258 Y-0.9809
X-3.1913 Y-1.18
X-3.1872 Y-1.192
G2 X-3.1908 Y-1.2072 I-0.015 J-0.0045
X-3.2618 Y-1.212 I-0.0381 J0.0358
X-3.2794 Y-0.9844 I0.0993 J0.1222
X-3.2692 Y-0.974 I0.117 J-0.1054 F50.
G3 X-3.2646 Y-0.9591 I-0.0106 J0.0115
G1 X-3.2807 Y-0.8968 F60.
G3 X-3.5961 Y-0.7689 I-0.2566 J-0.1799
G1 X-3.7217 Y-0.9204
G3 X-3.7237 Y-0.9359 I0.0124 J-0.0095
X-3.7066 Y-0.9473 I0.017 J0.007
X-3.5935 Y-0.7982 I-0.0009 J0.1181
X-3.5982 Y-0.7844 I-0.114 J-0.031 F50.
G2 X-3.5961 Y-0.7689 I0.0145 J0.0059
G1 X-3.5652 Y-0.7316 F60.
G2 X-3.3238 Y-0.7272 I0.1235 J-0.1555
G1 X-3.323 Y-0.7316
X-3.3175 Y-0.7552
X-3.2807 Y-0.8968
G2 X-3.2854 Y-0.9117 I-0.0153 J-0.0034
X-3.3492 Y-0.9063 I-0.0294 J0.032
X-3.3403 Y-0.7515 I0.0934 J0.0723
X-3.3295 Y-0.7418 I0.0845 J-0.0825 F50.
G3 X-3.3238 Y-0.7272 I-0.0098 J0.0122
G1 X-3.3304 Y-0.6917 F60.
X-3.3332 Y-0.6836
X-3.3364 Y-0.6757
X-3.3402 Y-0.6681
X-3.3446 Y-0.6607
X-3.3494 Y-0.6537
X-3.3547 Y-0.647
X-3.3605 Y-0.6406
X-3.3667 Y-0.6348
X-3.3733 Y-0.6293
X-3.3802 Y-0.6243
X-3.3875 Y-0.6199
X-3.3951 Y-0.6159
X-3.4029 Y-0.6125
X-3.411 Y-0.6096
X-3.4192 Y-0.6073
X-3.4276 Y-0.6056
X-3.436 Y-0.6044
X-3.4446 Y-0.6039
X-3.4531
X-3.4616 Y-0.6046
X-3.4634 Y-0.6072
X-3.4646 Y-0.61
X-3.4653 Y-0.613
X-3.4654 Y-0.616
X-3.465 Y-0.619
X-3.4641 Y-0.6218
X-3.4626 Y-0.6244
X-3.4607 Y-0.6266
X-3.4585 Y-0.6285
X-3.4535 Y-0.6322
X-3.3553 Y-0.7065
X-3.3527 Y-0.7081
X-3.3499 Y-0.7092
G3 X-3.3304 Y-0.6917 I0.004 J0.0151 F50.
G1 X-3.3474 Y-0.6006 F60.
G3 X-3.4091 Y-0.5433 I-0.0627 J-0.0057
X-3.4097 Y-0.5616 I0.0124 J-0.0095
G1 X-3.4033 Y-0.571
X-3.3759 Y-0.6117
G3 X-3.3669 Y-0.6181 I0.013 J0.0087
X-3.3474 Y-0.6006 I0.004 J0.0151 F50.
G1 X-3.3607 Y-0.5298 F60.
X-3.3621 Y-0.5237
X-3.3643 Y-0.5181
X-3.3658 Y-0.5155
X-3.3696 Y-0.5115
X-3.3748 Y-0.5097
X-3.3802 Y-0.5105
X-3.3846 Y-0.5138
X-3.3912 Y-0.523
G3 X-3.3793 Y-0.549 I0.014 J-0.0094
X-3.3607 Y-0.5298 I0.002 J0.0167 F50.
G1 X-3.3626 Y-0.5192 F60.
X-3.3648 Y-0.5125
X-3.367 Y-0.5065
X-3.3672 Y-0.5059
X-3.3684 Y-0.5046
X-3.37 Y-0.5038
X-3.3704 Y-0.5037
X-3.3718 Y-0.5036
G3 X-3.3828 Y-0.5115 I0.0133 J-0.0301
G1 X-3.5652 Y-0.7316
G3 X-3.5684 Y-0.7411 I0.0124 J-0.0095
G1 X-3.5682 Y-0.7437
X-3.5676 Y-0.7461
X-3.5664 Y-0.7481 Z-0.1673
X-3.5652 Y-0.7501 Z-0.1668
X-3.5641 Y-0.752 Z-0.1659
X-3.5617 Y-0.7535 Z-0.1641
X-3.5598 Y-0.7548 Z-0.1617
X-3.5583 Y-0.7558 Z-0.1589
X-3.5574 Y-0.7561 Z-0.1567
X-3.5568 Y-0.7563 Z-0.1543
X-3.5567 Z-0.1519
G0 Z0.4
X-3.5771 Y1.407
Z0.1
G3 X-3.5751 Y1.5555 Z0.0589 I0.001 J0.0742 F50.
X-3.5771 Y1.407 Z0.0177 I-0.001 J-0.0742
X-3.5751 Y1.5555 Z-0.0234 I0.001 J0.0742
X-3.5771 Y1.407 Z-0.0645 I-0.001 J-0.0742
X-3.5751 Y1.5555 Z-0.1056 I0.001 J0.0742
X-3.5771 Y1.407 Z-0.1468 I-0.001 J-0.0742
X-3.5019 Y1.4812 Z-0.1675 I0.001 J0.0742
X-3.6504 I-0.0742 J0.
X-3.5022 Y1.475 I0.0742 J0.
G1 X-3.5019 Y1.4812
G3 X-3.6676 Y1.599 I-0.0855 J0.0552 F60.
G1 X-3.6754 Y1.5931
X-3.6828 Y1.5867
X-3.6898 Y1.5798
X-3.6964 Y1.5725
X-3.7025 Y1.5647
X-3.708 Y1.5567
X-3.7131 Y1.5482
X-3.7176 Y1.5395
X-3.7215 Y1.5305
X-3.7249 Y1.5213
X-3.7276 Y1.5119
X-3.7298 Y1.5023
X-3.7314 Y1.4926
X-3.7323 Y1.4828
X-3.7326 Y1.473
X-3.7323 Y1.4632
X-3.7314 Y1.4534
X-3.7298 Y1.4438
X-3.7277 Y1.4342
X-3.7249 Y1.4248
X-3.7215 Y1.4155
X-3.7176 Y1.4065
X-3.7131 Y1.3978
X-3.7081 Y1.3894
X-3.7025 Y1.3813
X-3.6964 Y1.3736
X-3.6899 Y1.3663
X-3.6829 Y1.3594
X-3.6755 Y1.353
X-3.6676 Y1.347
X-3.6595 Y1.3416
X-3.651 Y1.3367
X-3.6422 Y1.3323
X-3.6331 Y1.3285
X-3.6239 Y1.3253
X-3.6144 Y1.3227
X-3.6048 Y1.3207
X-3.5951 Y1.3193
X-3.5853 Y1.3185
X-3.5755 Y1.3184
X-3.5657 Y1.3189
X-3.5559 Y1.32
X-3.5463 Y1.3217
X-3.5367 Y1.324
X-3.5273 Y1.3269
X-3.5182 Y1.3304
X-3.5093 Y1.3345
X-3.5006 Y1.3391
X-3.4923 Y1.3443
X-3.4843 Y1.35
X-3.4767 Y1.3562
X-3.4695 Y1.3628
X-3.4627 Y1.3699
X-3.4564 Y1.3775
X-3.4506 Y1.3854
X-3.4453 Y1.3936
X-3.4405 Y1.4022
X-3.4363 Y1.4111
X-3.4327 Y1.4202
X-3.4296 Y1.4295
X-3.4238 Y1.4388
X-3.4184 Y1.4484
X-3.4137 Y1.4583
X-3.4095 Y1.4685
X-3.4059 Y1.4788
X-3.4029 Y1.4894
X-3.4005 Y1.5001
X-3.3988 Y1.511
X-3.3976 Y1.5219
X-3.3971 Y1.5328
X-3.3972 Y1.5438
X-3.3979 Y1.5548
X-3.3993 Y1.5657
X-3.4012 Y1.5765
X-3.4038 Y1.5872
X-3.407 Y1.5977
X-3.4108 Y1.608
X-3.4151 Y1.618
X-3.4201 Y1.6279
X-3.4255 Y1.6374
X-3.4316 Y1.6466
X-3.4381 Y1.6554
X-3.4451 Y1.6638
X-3.4526 Y1.6719
X-3.4605 Y1.6794
X-3.4689 Y1.6866
X-3.4776 Y1.6932
X-3.4867 Y1.6993
X-3.4962 Y1.7049
X-3.5059 Y1.71
X-3.516 Y1.7144
X-3.5262 Y1.7183
X-3.5367 Y1.7216
X-3.5473 Y1.7244
X-3.5581 Y1.7264
X-3.569 Y1.7279
X-3.5799 Y1.7288
X-3.5909 Y1.729
X-3.6019 Y1.7286
X-3.6128 Y1.7276
X-3.6237 Y1.726
X-3.6344 Y1.7237
X-3.645 Y1.7208
X-3.6554 Y1.7174
X-3.6656 Y1.7133
X-3.6756 Y1.7087
X-3.6852 Y1.7035
X-3.6946 Y1.6977
X-3.7036 Y1.6915
X-3.7123 Y1.6847
X-3.7205 Y1.6775
X-3.7283 Y1.6698
X-3.7357 Y1.6616
X-3.7452 Y1.6541
X-3.7543 Y1.646
X-3.763 Y1.6375
X-3.7712 Y1.6286
X-3.779 Y1.6192
X-3.7863 Y1.6094
X-3.793 Y1.5993
X-3.7993 Y1.5889
X-3.805 Y1.5781
X-3.8101 Y1.5671
X-3.8146 Y1.5558
X-3.8186 Y1.5443
X-3.8219 Y1.5326
X-3.8247 Y1.5208
X-3.8268 Y1.5088
X-3.8283 Y1.4967
X-3.8292 Y1.4846
X-3.8295 Y1.4725
X-3.8291 Y1.4603
X-3.8282 Y1.4482
X-3.8265 Y1.4361
X-3.8243 Y1.4242
X-3.8215 Y1.4123
X-3.818 Y1.4007
X-3.814 Y1.3892
X-3.8093 Y1.378
X-3.8041 Y1.367
X-3.7984 Y1.3563
X-3.7921 Y1.3459
X-3.7852 Y1.3358
X-3.7779 Y1.3261
X-3.77 Y1.3168
X-3.7617 Y1.3079
X-3.753 Y1.2995
X-3.7438 Y1.2915
X-3.7342 Y1.284
X-3.7243 Y1.277
X-3.714 Y1.2706
X-3.7034 Y1.2646
X-3.6925 Y1.2593
X-3.6813 Y1.2545
X-3.6686 Y1.2502
X-3.6558 Y1.2466
X-3.6428 Y1.2436
X-3.6297 Y1.2412
X-3.6164 Y1.2393
X-3.6031 Y1.2381
X-3.5898 Y1.2376
X-3.5764
X-3.5631 Y1.2382
X-3.5498 Y1.2395
X-3.5366 Y1.2414
X-3.5235 Y1.2439
X-3.5105 Y1.2469
X-3.4977 Y1.2506
X-3.485 Y1.2549
X-3.4726 Y1.2598
X-3.4604 Y1.2652
X-3.4485 Y1.2712
X-3.4368 Y1.2777
X-3.4255 Y1.2847
X-3.4145 Y1.2923
X-3.4038 Y1.3004
X-3.3936 Y1.3089
X-3.3838 Y1.3179
X-3.3743 Y1.3274
X-3.3654 Y1.3373
X-3.3569 Y1.3476
X-3.3488 Y1.3582
X-3.3413 Y1.3693
X-3.3343 Y1.3806
X-3.3279 Y1.3923
X-3.3219 Y1.4043
X-3.3166 Y1.4165
X-3.3118 Y1.429
X-3.3076 Y1.4416
X-3.3039 Y1.4545
X-3.3009 Y1.4675
X-3.2985 Y1.4806
X-3.2967 Y1.4938
X-3.2955 Y1.5071
X-3.2949 Y1.5205
Y1.5338
X-3.2956 Y1.5472
X-3.2969 Y1.5604
X-3.2987 Y1.5737
X-3.3012 Y1.5868
X-3.3043 Y1.5998
X-3.308 Y1.6126
X-3.3123 Y1.6252
X-3.3171 Y1.6377
X-3.3225 Y1.6499
X-3.3285 Y1.6618
X-3.335 Y1.6734
X-3.3421 Y1.6848
X-3.3497 Y1.6958
X-3.3577 Y1.7064
X-3.3663 Y1.7167
X-3.3753 Y1.7265
X-3.3848 Y1.7359
X-3.3947 Y1.7449
X-3.405 Y1.7534
X-3.4156 Y1.7614
X-3.4267 Y1.7689
X-3.438 Y1.7759
X-3.4497 Y1.7824
X-3.4617 Y1.7883
X-3.4739 Y1.7937
X-3.4863 Y1.7984
X-3.499 Y1.8027
X-3.5119 Y1.8063
X-3.5249 Y1.8093
X-3.538 Y1.8117
X-3.5512 Y1.8135
X-3.5645 Y1.8147
X-3.5778 Y1.8153
X-3.5912
X-3.6045 Y1.8146
X-3.6178 Y1.8133
X-3.631 Y1.8115
G3 X-3.6689 Y1.1496 I0.0436 J-0.3345
G1 X-3.6536 Y1.1467
X-3.6383 Y1.1444
X-3.6228 Y1.1427
X-3.6073 Y1.1416
X-3.5918 Y1.1412
X-3.5763 Y1.1414
X-3.5607 Y1.1422
X-3.5453 Y1.1436
X-3.5299 Y1.1457
X-3.5146 Y1.1483
X-3.4994 Y1.1516
X-3.4843 Y1.1555
X-3.4695 Y1.16
X-3.4548 Y1.165
X-3.4403 Y1.1707
X-3.4261 Y1.1769
X-3.4121 Y1.1837
X-3.3985 Y1.1911
X-3.3851 Y1.199
X-3.372 Y1.2074
X-3.3593 Y1.2164
X-3.347 Y1.2258
X-3.3351 Y1.2358
X-3.3235 Y1.2462
X-3.3124 Y1.257
X-3.3018 Y1.2683
X-3.2916 Y1.28
X-3.2818 Y1.2921
X-3.2726 Y1.3046
X-3.2639 Y1.3175
X-3.2557 Y1.3307
X-3.248 Y1.3442
X-3.2409 Y1.358
X-3.2344 Y1.3721
X-3.2284 Y1.3864
X-3.223 Y1.401
X-3.2182 Y1.4158
X-3.214 Y1.4307
X-3.2103 Y1.4458
X-3.2073 Y1.4611
X-3.2049 Y1.4764
X-3.2032 Y1.4918
X-3.202 Y1.5073
X-3.2015 Y1.5228
X-3.2016 Y1.5384
X-3.2023 Y1.5539
X-3.2036 Y1.5694
X-3.2056 Y1.5848
X-3.2082 Y1.6001
X-3.2113 Y1.6153
X-3.2151 Y1.6304
X-3.2195 Y1.6453
X-3.2245 Y1.66
X-3.2301 Y1.6745
X-3.2362 Y1.6887
X-3.243 Y1.7027
X-3.2502 Y1.7165
X-3.258 Y1.7299
X-3.2664 Y1.743
X-3.2753 Y1.7557
X-3.2846 Y1.7681
X-3.2945 Y1.7801
X-3.3048 Y1.7917
X-3.3156 Y1.8029
X-3.3269 Y1.8136
X-3.3385 Y1.8239
X-3.3506 Y1.8337
X-3.363 Y1.843
X-3.3758 Y1.8518
X-3.389 Y1.8601
X-3.4024 Y1.8678
X-3.4162 Y1.875
X-3.4302 Y1.8816
X-3.4445 Y1.8877
X-3.4591 Y1.8932
X-3.4738 Y1.8981
X-3.4887 Y1.9024
X-3.5038 Y1.9061
X-3.519 Y1.9092
X-3.5344 Y1.9117
X-3.5498 Y1.9135
X-3.5653 Y1.9148
X-3.5808 Y1.9154
X-3.5963
X-3.6118 Y1.9148
X-3.6273 Y1.9136
X-3.6427 Y1.9117
X-3.6581 Y1.9092
X-3.6733 Y1.9061
X-3.6884 Y1.9024
X-3.7033 Y1.8981
X-3.718 Y1.8932
X-3.7326 Y1.8877
X-3.7469 Y1.8817
X-3.7609 Y1.875
X-3.7747 Y1.8678
X-3.7881 Y1.8601
X-3.8013 Y1.8518
X-3.8141 Y1.843
X-3.8265 Y1.8337
X-3.8386 Y1.824
X-3.8503 Y1.8137
G3 X-4.0188 Y1.4647 I0.2304 J-0.3265
G1 X-4.0177 Y1.448
X-4.016 Y1.4313
X-4.0136 Y1.4147
X-4.0106 Y1.3982
X-4.007 Y1.3819
X-4.0028 Y1.3657
X-3.998 Y1.3496
X-3.9926 Y1.3338
X-3.9867 Y1.3181
X-3.9801 Y1.3027
X-3.973 Y1.2876
X-3.9653 Y1.2727
X-3.957 Y1.2581
X-3.9482 Y1.2439
X-3.9389 Y1.23
X-3.9291 Y1.2164
X-3.9188 Y1.2032
X-3.9079 Y1.1904
X-3.8967 Y1.1781
X-3.8849 Y1.1661
X-3.8728 Y1.1546
X-3.8602 Y1.1436
X-3.8472 Y1.133
X-3.8338 Y1.123
X-3.82 Y1.1134
X-3.8059 Y1.1044
X-3.7915 Y1.0959
X-3.7768 Y1.0879
X-3.7617 Y1.0805
X-3.7465 Y1.0737
X-3.7309 Y1.0674
X-3.7152 Y1.0617
X-3.6992 Y1.0566
X-3.6831 Y1.0522
X-3.6668 Y1.0483
X-3.6504 Y1.045
X-3.6338 Y1.0424
X-3.6172 Y1.0403
X-3.6005 Y1.0389
X-3.5838 Y1.0381
X-3.5671 Y1.038
X-3.5503 Y1.0384
X-3.5336 Y1.0395
X-3.517 Y1.0412
X-3.5004 Y1.0436
X-3.4839 Y1.0465
X-3.4675 Y1.0501
X-3.4513 Y1.0543
X-3.4353 Y1.059
X-3.4194 Y1.0644
X-3.4038 Y1.0704
X-3.3883 Y1.0769
X-3.3732 Y1.084
X-3.3583 Y1.0917
X-3.3437 Y1.0999
X-3.3294 Y1.1087
X-3.3155 Y1.118
X-3.3019 Y1.1278
X-3.2887 Y1.1381
X-3.2759 Y1.1489
X-3.2635 Y1.1602
X-3.2516 Y1.1719
X-3.2401 Y1.184
X-3.229 Y1.1966
X-3.2184 Y1.2096
X-3.2084 Y1.223
X-3.1988 Y1.2367
X-3.1897 Y1.2508
X-3.1812 Y1.2652
X-3.1732 Y1.2799
X-3.1658 Y1.2949
X-3.1589 Y1.3102
X-3.1526 Y1.3257
X-3.1469 Y1.3415
X-3.1418 Y1.3574
X-3.1373 Y1.3736
X-3.1334 Y1.3898
X-3.1301 Y1.4063
X-3.1275 Y1.4228
X-3.1254 Y1.4394
X-3.1216 Y1.4553
X-3.1184 Y1.4713
X-3.1157 Y1.4875
X-3.1137 Y1.5037
X-3.1122 Y1.52
X-3.1114 Y1.5363
X-3.1111 Y1.5527
X-3.1115 Y1.569
X-3.1124 Y1.5853
X-3.114 Y1.6016
X-3.1161 Y1.6178
X-3.1188 Y1.634
X-3.1222 Y1.65
X-3.1261 Y1.6659
X-3.1306 Y1.6816
X-3.1356 Y1.6971
X-3.1413 Y1.7125
X-3.1474 Y1.7276
X-3.1542 Y1.7425
X-3.1615 Y1.7572
X-3.1693 Y1.7715
X-3.1776 Y1.7856
X-3.1865 Y1.7993
X-3.1958 Y1.8128
X-3.2056 Y1.8258
X-3.2159 Y1.8385
X-3.2267 Y1.8508
X-3.2379 Y1.8628
X-3.2495 Y1.8742
X-3.2616 Y1.8853
X-3.274 Y1.8959
X-3.2869 Y1.9061
X-3.3001 Y1.9157
X-3.3136 Y1.9249
X-3.3274 Y1.9336
X-3.3416 Y1.9417
X-3.3561 Y1.9494
X-3.3708 Y1.9565
X-3.3858 Y1.963
X-3.401 Y1.969
X-3.8137 Y1.931
G3 X-4.1152 Y1.4577 I0.1543 J-0.431
X-4.1053 Y1.3833 I0.1128 J-0.0228
G1 X-3.8101 Y1.0271
G3 X-3.3019 Y1.0155 I0.2623 J0.3562
X-3.2282 Y1.0699 I-0.0381 J0.1289
G1 X-3.1913 Y1.18
X-3.1872 Y1.192
X-3.1825 Y1.2036
X-3.1043 Y1.3924
X-3.094 Y1.416
X-3.0399 Y1.5247
G3 X-3.23 Y1.9825 I-0.4449 J0.0836
G1 X-3.2325 Y1.984
X-3.2353 Y1.9848
X-3.2383 Y1.9849
X-3.4007 Y1.9697
G3 X-3.4132 Y1.9602 I0.002 J-0.0155
X-3.3847 Y1.9056 I0.0369 J-0.0155
X-3.2571 Y1.9624 I0.0251 J0.1154
X-3.2507 Y1.9754 I-0.1025 J0.0587 F50.
G2 X-3.2383 Y1.9849 I0.0144 J-0.006
G1 X-3.1742 Y1.9909 F60.
G2 X-2.9403 Y1.712 I-0.0917 J-0.3144
G1 X-2.9407 Y1.709
X-2.9419 Y1.7062
X-2.9876 Y1.6284
X-2.9984 Y1.608
X-3.0399 Y1.5247
G2 X-3.0611 Y1.5184 I-0.0137 J0.0075
X-3.0749 Y1.5408 I0.0126 J0.0232
X-2.9696 Y1.6942 I0.1574 J0.0048
X-2.9517 Y1.6993 I0.0521 J-0.1486 F50.
G3 X-2.9419 Y1.7062 I-0.0034 J0.0153
G1 X-2.9113 Y1.7582 F60.
G3 X-3.0016 Y2.0071 I-0.2313 J0.0568
G1 X-3.1742 Y1.9909
G3 X-3.1866 Y1.9814 I0.002 J-0.0155
X-3.1663 Y1.9333 I0.0337 J-0.0141
X-3.0205 Y1.9845 I0.0433 J0.1099
X-3.014 Y1.9976 I-0.1025 J0.0587 F50.
G2 X-3.0016 Y2.0071 I0.0144 J-0.006
G1 X-2.956 Y2.0113 F60.
X-2.9469 Y2.0105
X-2.9379 Y2.009
X-2.9291 Y2.007
X-2.9203 Y2.0045
X-2.9118 Y2.0013
X-2.9034 Y1.9977
X-2.8954 Y1.9935
X-2.8876 Y1.9889
X-2.8801 Y1.9837
X-2.8729 Y1.9781
X-2.8661 Y1.972
X-2.8597 Y1.9655
X-2.8538 Y1.9586
X-2.8483 Y1.9514
X-2.8432 Y1.9438
X-2.8387 Y1.936
X-2.8346 Y1.9278
X-2.8311 Y1.9194
X-2.8281 Y1.9108
X-2.8257 Y1.902
X-2.8238 Y1.8931
X-2.8613 Y1.8408
X-2.8766 Y1.8172
X-2.9113 Y1.7582
G2 X-2.9252 Y1.751 I-0.0132 J0.0084
X-2.9642 Y1.809 I0.0018 J0.0434
X-2.8545 Y1.8873 I0.1112 J-0.0399
X-2.8399 Y1.8866 I0.0014 J-0.1181 F50.
G3 X-2.8256 Y1.8928 I0.0017 J0.0155
G1 X-2.8057 Y1.9219 F60.
G3 X-2.8196 Y2.0259 I-0.0748 J0.0429
G1 X-2.8227 Y2.0254
X-2.8255 Y2.0244
X-2.8282 Y2.023
X-2.8304 Y2.0211
X-2.8323 Y2.0189
X-2.8338 Y2.0164
X-2.8348 Y2.0137
X-2.8353 Y2.0109
Y2.0081
X-2.8351 Y2.
G3 X-2.8318 Y1.9233 I0.1113 J-0.0335
X-2.8057 Y1.9219 I0.0135 J0.0079 F50.
G1 X-2.7642 Y1.9824 F60.
G3 X-2.7654 Y2.0292 I-0.0114 J0.0231
X-2.799 Y1.9978 I0.005 J-0.039
X-2.7917 Y1.9785 I0.0191 J-0.0038
X-2.7642 Y1.9824 I0.0118 J0.0155 F50.
X-2.74 Y2.0277 I-0.0078 J0.0333 F60.
G1 X-2.7407 Y2.0284
X-2.7419 Y2.0291
X-2.7425 Y2.0292
X-2.753 Y2.0303
X-2.7534
X-2.956 Y2.0113
G3 X-2.9674 Y1.9879 I0.002 J-0.0155
G1 X-2.9659 Y1.9852 Z-0.1672
X-2.9644 Y1.9827 Z-0.1663
X-2.963 Y1.9804 Z-0.1649
X-2.9618 Y1.9783 Z-0.1629
X-2.9608 Y1.9767 Z-0.1606
X-2.9601 Y1.9754 Z-0.1579
X-2.9596 Y1.9747 Z-0.1549
X-2.9595 Y1.9744 Z-0.1519
G0 Z-0.1362
X-3.2303 Y1.1161
G1 Z-0.1519 F50.
X-3.2302 Y1.1158 Z-0.1549
X-3.23 Y1.1149 Z-0.1579
X-3.2297 Y1.1135 Z-0.1606
X-3.2293 Y1.1116 Z-0.1629
X-3.2288 Y1.1093 Z-0.1649
X-3.2283 Y1.1067 Z-0.1663
X-3.2276 Y1.1038 Z-0.1672
X-3.227 Y1.1008 Z-0.1675
G2 X-3.2282 Y1.0699 I-0.0609 J-0.0132
G1 X-3.2545 Y0.9912 F60.
G2 X-3.593 Y0.8448 I-0.2817 J0.1869
X-3.668 Y0.8557 I-0.0257 J0.0874
G1 X-3.8101 Y1.0271
G2 X-3.8122 Y1.0426 I0.0124 J0.0095
X-3.7387 Y1.0682 I0.0481 J-0.0197
X-3.6652 Y0.8848 I-0.0771 J-0.1373
X-3.6701 Y0.8711 I-0.1506 J0.046 F50.
G3 X-3.668 Y0.8557 I0.0145 J-0.0059
G1 X-3.6239 Y0.8024 F60.
G3 X-3.3025 Y0.8129 I0.1521 J0.2658
G2 X-3.2545 Y0.9912 I1.3786 J-0.2754
G3 X-3.2582 Y1.0064 I-0.015 J0.0044
X-3.2972 Y1.0099 I-0.0215 J-0.0204
X-3.3173 Y0.8383 I0.07 J-0.0951
X-3.3072 Y0.8278 I0.09 J0.0764 F50.
G2 X-3.3025 Y0.8129 I-0.0106 J-0.0115
G1 X-3.3147 Y0.7658 F60.
G2 X-3.5134 Y0.6692 I-0.1647 J0.086
G1 X-3.6239 Y0.8024
G2 X-3.6259 Y0.8179 I0.0124 J0.0095
X-3.5772 Y0.8376 I0.034 J-0.0139
X-3.5109 Y0.6985 I-0.0476 J-0.1081
X-3.5155 Y0.6847 I-0.114 J0.031 F50.
G3 X-3.5134 Y0.6692 I0.0145 J-0.0059
G1 X-3.4869 Y0.6372 F60.
G3 X-3.3421 Y0.6202 I0.0832 J0.0832
G1 X-3.3418 Y0.6233
X-3.342 Y0.6264
X-3.3428 Y0.6294
X-3.3441 Y0.6322
X-3.3458 Y0.6346
X-3.348 Y0.6367
X-3.3504 Y0.6383
X-3.3531 Y0.6394
X-3.3559 Y0.64
X-3.3628 Y0.6413
X-3.4716 Y0.6621
X-3.475 Y0.6624
X-3.4784 Y0.6619
G3 X-3.4869 Y0.6372 I0.0039 J-0.0151 F50.
G1 X-3.4283 Y0.5664 F60.
G3 X-3.3573 Y0.5478 I0.0438 J0.0224
X-3.3647 Y0.5636 I-0.0155 J0.0023
G1 X-3.3754 Y0.57
X-3.4079 Y0.5894
G3 X-3.4197 Y0.5911 I-0.008 J-0.0134
X-3.4283 Y0.5664 I0.0039 J-0.0151 F50.
G1 X-3.3861 Y0.5155 F60.
X-3.3828 Y0.5115
X-3.3822 Y0.511
X-3.3746 Y0.5047
X-3.3739 Y0.5042
X-3.3725 Y0.5037
X-3.3718 Y0.5036
X-3.3704 Y0.5037
X-3.37 Y0.5038
X-3.3684 Y0.5046
G3 X-3.3626 Y0.5192 I-0.0181 J0.0156
G1 X-3.323 Y0.7316
X-3.3175 Y0.7552
X-3.3147 Y0.7658
G0 Z-0.1362
X-4.0649 Y1.3608
G1 Z-0.1519 F50.
X-4.0652 Y1.3609 Z-0.1549
X-4.0661 Y1.3612 Z-0.1579
X-4.0674 Y1.3617 Z-0.1606
X-4.0693 Y1.3623 Z-0.1629
X-4.0715 Y1.3631 Z-0.1649
X-4.074 Y1.364 Z-0.1663
X-4.0768 Y1.365 Z-0.1672
X-4.0797 Y1.366 Z-0.1675
G2 X-4.1053 Y1.3833 I0.0209 J0.0587
G1 X-4.1631 Y1.4531 F60.
G2 X-4.1079 Y1.8165 I0.2927 J0.1414
X-4.0375 Y1.9101 I0.1189 J-0.0161
G1 X-3.8137 Y1.931
G2 X-3.7997 Y1.924 I0.0009 J-0.0156
X-3.8186 Y1.8505 I-0.0428 J-0.0282
