%
(971-23-P-0063_PROXIMAL SPROCKET_1501)
(T1  D=0.1501 CR=0. - ZMIN=-0.2175 - FLAT END MILL)
G90 G94 G17 G91.1
G64 P0.001 Q0.001
G20
G53 G0 Z0.
(.3 CIRCLUAR THROUGH HOLE 2)
M9
T1 M6
S22000 M3
G4 P10.
G54
M7
G0 X2.2602 Y2.2827
G43 Z0.6 H1
G0 Z0.13
G1 Z0.065 F40.
G19 G2 Y2.2677 Z0.05 J-0.015 K0.
G1 Y2.2602
G17 G3 X2.2696 Y2.2509 I0.0093 J0.
Y2.2883 Z0.0335 I0. J0.0187
Y2.2509 Z0.0169 I0. J-0.0187
Y2.2883 Z0.0004 I0. J0.0187
Y2.2509 Z-0.0161 I0. J-0.0187
Y2.2883 Z-0.0327 I0. J0.0187
Y2.2509 Z-0.0492 I0. J-0.0187
Y2.2883 Z-0.0657 I0. J0.0187
Y2.2509 Z-0.0822 I0. J-0.0187
Y2.2883 Z-0.0988 I0. J0.0187
Y2.2509 Z-0.1153 I0. J-0.0187
Y2.2883 Z-0.1318 I0. J0.0187
Y2.2509 Z-0.1484 I0. J-0.0187
Y2.2883 Z-0.1649 I0. J0.0187
Y2.2509 Z-0.1814 I0. J-0.0187
Y2.2883 Z-0.198 I0. J0.0187
Y2.2509 Z-0.2145 I0. J-0.0187
X2.2797 Y2.2539 Z-0.2175 I0. J0.0187
X2.2595 Y2.2853 I-0.0101 J0.0157
X2.2797 Y2.2539 I0.0101 J-0.0157
X2.2825 Y2.2668 I-0.0051 J0.0079
G1 X2.2784 Y2.2731
X2.2769 Y2.2755 Z-0.2172
X2.2753 Y2.2779 Z-0.2164
X2.2739 Y2.2801 Z-0.215
X2.2727 Y2.282 Z-0.2131
X2.2717 Y2.2836 Z-0.2108
X2.2709 Y2.2847 Z-0.2082
X2.2705 Y2.2855 Z-0.2054
X2.2703 Y2.2857 Z-0.2025
G0 Z0.4
X-0.0127 Y3.2195
Z0.13
G1 Z0.065 F40.
G19 G2 Y3.2044 Z0.05 J-0.015 K0.
G1 Y3.1969
G17 G3 X0. Y3.1842 I0.0127 J0.
Y3.2351 Z0.0323 I0. J0.0255
Y3.1842 Z0.0146 I0. J-0.0255
Y3.2351 Z-0.0032 I0. J0.0255
Y3.1842 Z-0.0209 I0. J-0.0255
Y3.2351 Z-0.0386 I0. J0.0255
Y3.1842 Z-0.0563 I0. J-0.0255
Y3.2351 Z-0.074 I0. J0.0255
Y3.1842 Z-0.0918 I0. J-0.0255
Y3.2351 Z-0.1095 I0. J0.0255
Y3.1842 Z-0.1272 I0. J-0.0255
Y3.2351 Z-0.1449 I0. J0.0255
Y3.1842 Z-0.1627 I0. J-0.0255
Y3.2351 Z-0.1804 I0. J0.0255
Y3.1842 Z-0.1981 I0. J-0.0255
X0.0252 Y3.2135 Z-0.2078 I0. J0.0255
X-0.0075 Y3.234 Z-0.2175 I-0.0252 J-0.0038
X0.0075 Y3.1853 I0.0075 J-0.0243
X-0.0075 Y3.234 I-0.0075 J0.0243
X-0.0159 Y3.2181 I0.0037 J-0.0122
G1 X-0.0137 Y3.2109
X-0.0128 Y3.2081 Z-0.2172
X-0.012 Y3.2054 Z-0.2164
X-0.0112 Y3.2029 Z-0.215
X-0.0106 Y3.2008 Z-0.2131
X-0.01 Y3.199 Z-0.2108
X-0.0096 Y3.1977 Z-0.2082
X-0.0094 Y3.1968 Z-0.2054
X-0.0093 Y3.1966 Z-0.2025
G0 Z0.4
X-2.2789 Y2.2827
Z0.13
G1 Z0.065 F40.
G19 G2 Y2.2677 Z0.05 J-0.015 K0.
G1 Y2.2602
G17 G3 X-2.2696 Y2.2509 I0.0094 J0.
Y2.2883 Z0.0335 I0. J0.0187
Y2.2509 Z0.0169 I0. J-0.0187
Y2.2883 Z0.0004 I0. J0.0187
Y2.2509 Z-0.0161 I0. J-0.0187
Y2.2883 Z-0.0327 I0. J0.0187
Y2.2509 Z-0.0492 I0. J-0.0187
Y2.2883 Z-0.0657 I0. J0.0187
Y2.2509 Z-0.0822 I0. J-0.0187
Y2.2883 Z-0.0988 I0. J0.0187
Y2.2509 Z-0.1153 I0. J-0.0187
Y2.2883 Z-0.1318 I0. J0.0187
Y2.2509 Z-0.1484 I0. J-0.0187
Y2.2883 Z-0.1649 I0. J0.0187
Y2.2509 Z-0.1814 I0. J-0.0187
Y2.2883 Z-0.198 I0. J0.0187
Y2.2509 Z-0.2145 I0. J-0.0187
X-2.2595 Y2.2539 Z-0.2175 I0. J0.0187
X-2.2797 Y2.2853 I-0.0101 J0.0157
X-2.2595 Y2.2539 I0.0101 J-0.0157
X-2.2567 Y2.2668 I-0.0051 J0.0079
G1 X-2.2607 Y2.2731
X-2.2623 Y2.2755 Z-0.2172
X-2.2638 Y2.2779 Z-0.2164
X-2.2652 Y2.2801 Z-0.215
X-2.2665 Y2.282 Z-0.2131
X-2.2675 Y2.2836 Z-0.2108
X-2.2682 Y2.2847 Z-0.2082
X-2.2687 Y2.2855 Z-0.2054
X-2.2688 Y2.2857 Z-0.2025
G0 Z0.4
X-3.2224 Y0.0098
Z0.13
G1 Z0.065 F40.
G19 G2 Y-0.0052 Z0.05 J-0.015 K0.
G1 Y-0.0127
G17 G3 X-3.2097 Y-0.0255 I0.0127 J0.
Y0.0255 Z0.0323 I0. J0.0255
Y-0.0255 Z0.0146 I0. J-0.0255
Y0.0255 Z-0.0032 I0. J0.0255
Y-0.0255 Z-0.0209 I0. J-0.0255
Y0.0255 Z-0.0386 I0. J0.0255
Y-0.0255 Z-0.0563 I0. J-0.0255
Y0.0255 Z-0.074 I0. J0.0255
Y-0.0255 Z-0.0918 I0. J-0.0255
Y0.0255 Z-0.1095 I0. J0.0255
Y-0.0255 Z-0.1272 I0. J-0.0255
Y0.0255 Z-0.1449 I0. J0.0255
Y-0.0255 Z-0.1627 I0. J-0.0255
Y0.0255 Z-0.1804 I0. J0.0255
Y-0.0255 Z-0.1981 I0. J-0.0255
X-3.1845 Y0.0038 Z-0.2078 I0. J0.0255
X-3.2172 Y0.0243 Z-0.2175 I-0.0252 J-0.0038
X-3.2022 Y-0.0243 I0.0075 J-0.0243
X-3.2172 Y0.0243 I-0.0075 J0.0243
X-3.2256 Y0.0084 I0.0037 J-0.0122
G1 X-3.2234 Y0.0012
X-3.2225 Y-0.0016 Z-0.2172
X-3.2217 Y-0.0043 Z-0.2164
X-3.2209 Y-0.0067 Z-0.215
X-3.2202 Y-0.0089 Z-0.2131
X-3.2197 Y-0.0107 Z-0.2108
X-3.2193 Y-0.012 Z-0.2082
X-3.219 Y-0.0128 Z-0.2054
X-3.2189 Y-0.0131 Z-0.2025
G0 Z0.4
X-2.2789 Y-2.2564
Z0.13
G1 Z0.065 F40.
G19 G2 Y-2.2714 Z0.05 J-0.015 K0.
G1 Y-2.2789
G17 G3 X-2.2696 Y-2.2883 I0.0094 J0.
Y-2.2509 Z0.0335 I0. J0.0187
Y-2.2883 Z0.0169 I0. J-0.0187
Y-2.2509 Z0.0004 I0. J0.0187
Y-2.2883 Z-0.0161 I0. J-0.0187
Y-2.2509 Z-0.0327 I0. J0.0187
Y-2.2883 Z-0.0492 I0. J-0.0187
Y-2.2509 Z-0.0657 I0. J0.0187
Y-2.2883 Z-0.0822 I0. J-0.0187
Y-2.2509 Z-0.0988 I0. J0.0187
Y-2.2883 Z-0.1153 I0. J-0.0187
Y-2.2509 Z-0.1318 I0. J0.0187
Y-2.2883 Z-0.1484 I0. J-0.0187
Y-2.2509 Z-0.1649 I0. J0.0187
Y-2.2883 Z-0.1814 I0. J-0.0187
Y-2.2509 Z-0.198 I0. J0.0187
Y-2.2883 Z-0.2145 I0. J-0.0187
X-2.2595 Y-2.2853 Z-0.2175 I0. J0.0187
X-2.2797 Y-2.2539 I-0.0101 J0.0157
X-2.2595 Y-2.2853 I0.0101 J-0.0157
X-2.2567 Y-2.2724 I-0.0051 J0.0079
G1 X-2.2607 Y-2.2661
X-2.2623 Y-2.2636 Z-0.2172
X-2.2638 Y-2.2612 Z-0.2164
X-2.2652 Y-2.2591 Z-0.215
X-2.2665 Y-2.2571 Z-0.2131
X-2.2675 Y-2.2556 Z-0.2108
X-2.2682 Y-2.2544 Z-0.2082
X-2.2687 Y-2.2537 Z-0.2054
X-2.2688 Y-2.2534 Z-0.2025
G0 Z0.4
X-0.0127 Y-3.1999
Z0.13
G1 Z0.065 F40.
G19 G2 Y-3.2149 Z0.05 J-0.015 K0.
G1 Y-3.2224
G17 G3 X0. Y-3.2351 I0.0127 J0.
Y-3.1842 Z0.0323 I0. J0.0255
Y-3.2351 Z0.0146 I0. J-0.0255
Y-3.1842 Z-0.0032 I0. J0.0255
Y-3.2351 Z-0.0209 I0. J-0.0255
Y-3.1842 Z-0.0386 I0. J0.0254
Y-3.2351 Z-0.0563 I0. J-0.0254
Y-3.1842 Z-0.074 I0. J0.0254
Y-3.2351 Z-0.0918 I0. J-0.0254
Y-3.1842 Z-0.1095 I0. J0.0254
Y-3.2351 Z-0.1272 I0. J-0.0254
Y-3.1842 Z-0.1449 I0. J0.0254
Y-3.2351 Z-0.1627 I0. J-0.0254
Y-3.1842 Z-0.1804 I0. J0.0254
Y-3.2351 Z-0.1981 I0. J-0.0254
X0.0252 Y-3.2059 Z-0.2078 I0. J0.0254
X-0.0075 Y-3.1853 Z-0.2175 I-0.0252 J-0.0038
X0.0075 Y-3.234 I0.0075 J-0.0243
X-0.0075 Y-3.1853 I-0.0075 J0.0243
X-0.0159 Y-3.2013 I0.0037 J-0.0122
G1 X-0.0137 Y-3.2084
X-0.0128 Y-3.2112 Z-0.2172
X-0.012 Y-3.2139 Z-0.2164
X-0.0112 Y-3.2164 Z-0.215
X-0.0106 Y-3.2186 Z-0.2131
X-0.01 Y-3.2204 Z-0.2108
X-0.0096 Y-3.2217 Z-0.2082
X-0.0094 Y-3.2225 Z-0.2054
X-0.0093 Y-3.2228 Z-0.2025
G0 Z0.4
X-0.2373 Y-3.7558
Z0.13
G1 Z0.065 F40.
G19 G3 Y-3.7408 Z0.05 J0.015 K0.
G1 Y-3.7333
G17 G3 X-0.25 Y-3.7206 I-0.0127 J0.
Y-3.7715 Z0.0323 I0. J-0.0255
Y-3.7206 Z0.0146 I0. J0.0255
Y-3.7715 Z-0.0032 I0. J-0.0255
Y-3.7206 Z-0.0209 I0. J0.0255
Y-3.7715 Z-0.0386 I0. J-0.0255
Y-3.7206 Z-0.0563 I0. J0.0255
Y-3.7715 Z-0.074 I0. J-0.0255
Y-3.7206 Z-0.0918 I0. J0.0255
Y-3.7715 Z-0.1095 I0. J-0.0255
Y-3.7206 Z-0.1272 I0. J0.0255
Y-3.7715 Z-0.1449 I0. J-0.0255
Y-3.7206 Z-0.1627 I0. J0.0255
Y-3.7715 Z-0.1804 I0. J-0.0255
Y-3.7206 Z-0.1981 I0. J0.0255
X-0.2752 Y-3.7498 Z-0.2078 I0. J-0.0255
X-0.2425 Y-3.7704 Z-0.2175 I0.0252 J0.0038
X-0.2575 Y-3.7217 I-0.0075 J0.0243
X-0.2425 Y-3.7704 I0.0075 J-0.0243
X-0.2341 Y-3.7545 I-0.0037 J0.0122
G1 X-0.2363 Y-3.7473
X-0.2372 Y-3.7445 Z-0.2172
X-0.238 Y-3.7418 Z-0.2164
X-0.2388 Y-3.7393 Z-0.215
X-0.2394 Y-3.7371 Z-0.2131
X-0.24 Y-3.7354 Z-0.2108
X-0.2404 Y-3.734 Z-0.2082
X-0.2406 Y-3.7332 Z-0.2054
X-0.2407 Y-3.7329 Z-0.2025
G0 Z0.4
X0.2627 Y-3.7558
Z0.13
G1 Z0.065 F40.
G19 G3 Y-3.7408 Z0.05 J0.015 K0.
G1 Y-3.7333
G17 G3 X0.25 Y-3.7206 I-0.0127 J0.
Y-3.7715 Z0.0323 I0. J-0.0255
Y-3.7206 Z0.0146 I0. J0.0255
Y-3.7715 Z-0.0032 I0. J-0.0255
Y-3.7206 Z-0.0209 I0. J0.0255
Y-3.7715 Z-0.0386 I0. J-0.0255
Y-3.7206 Z-0.0563 I0. J0.0255
Y-3.7715 Z-0.074 I0. J-0.0255
Y-3.7206 Z-0.0918 I0. J0.0255
Y-3.7715 Z-0.1095 I0. J-0.0255
Y-3.7206 Z-0.1272 I0. J0.0255
Y-3.7715 Z-0.1449 I0. J-0.0255
Y-3.7206 Z-0.1627 I0. J0.0255
Y-3.7715 Z-0.1804 I0. J-0.0255
Y-3.7206 Z-0.1981 I0. J0.0255
X0.2248 Y-3.7498 Z-0.2078 I0. J-0.0255
X0.2575 Y-3.7704 Z-0.2175 I0.0252 J0.0038
X0.2425 Y-3.7217 I-0.0075 J0.0243
X0.2575 Y-3.7704 I0.0075 J-0.0243
X0.2659 Y-3.7545 I-0.0037 J0.0122
G1 X0.2637 Y-3.7473
X0.2628 Y-3.7445 Z-0.2172
X0.262 Y-3.7418 Z-0.2164
X0.2612 Y-3.7393 Z-0.215
X0.2606 Y-3.7371 Z-0.2131
X0.26 Y-3.7354 Z-0.2108
X0.2596 Y-3.734 Z-0.2082
X0.2594 Y-3.7332 Z-0.2054
X0.2593 Y-3.7329 Z-0.2025
G0 Z0.4
X2.2602 Y-2.2564
Z0.13
G1 Z0.065 F40.
G19 G2 Y-2.2714 Z0.05 J-0.015 K0.
G1 Y-2.2789
G17 G3 X2.2696 Y-2.2883 I0.0093 J0.
Y-2.2509 Z0.0335 I0. J0.0187
Y-2.2883 Z0.0169 I0. J-0.0187
Y-2.2509 Z0.0004 I0. J0.0187
Y-2.2883 Z-0.0161 I0. J-0.0187
Y-2.2509 Z-0.0327 I0. J0.0187
Y-2.2883 Z-0.0492 I0. J-0.0187
Y-2.2509 Z-0.0657 I0. J0.0187
Y-2.2883 Z-0.0822 I0. J-0.0187
Y-2.2509 Z-0.0988 I0. J0.0187
Y-2.2883 Z-0.1153 I0. J-0.0187
Y-2.2509 Z-0.1318 I0. J0.0187
Y-2.2883 Z-0.1484 I0. J-0.0187
Y-2.2509 Z-0.1649 I0. J0.0187
Y-2.2883 Z-0.1814 I0. J-0.0187
Y-2.2509 Z-0.198 I0. J0.0187
Y-2.2883 Z-0.2145 I0. J-0.0187
X2.2797 Y-2.2853 Z-0.2175 I0. J0.0187
X2.2595 Y-2.2539 I-0.0101 J0.0157
X2.2797 Y-2.2853 I0.0101 J-0.0157
X2.2825 Y-2.2724 I-0.0051 J0.0079
G1 X2.2784 Y-2.2661
X2.2769 Y-2.2636 Z-0.2172
X2.2753 Y-2.2612 Z-0.2164
X2.2739 Y-2.2591 Z-0.215
X2.2727 Y-2.2571 Z-0.2131
X2.2717 Y-2.2556 Z-0.2108
X2.2709 Y-2.2544 Z-0.2082
X2.2705 Y-2.2537 Z-0.2054
X2.2703 Y-2.2534 Z-0.2025
G0 Z0.4
X3.1969 Y0.0098
Z0.13
G1 Z0.065 F40.
G19 G2 Y-0.0052 Z0.05 J-0.015 K0.
G1 Y-0.0127
G17 G3 X3.2097 Y-0.0255 I0.0127 J0.
Y0.0254 Z0.0323 I0. J0.0255
Y-0.0254 Z0.0146 I0. J-0.0254
Y0.0254 Z-0.0032 I0. J0.0254
Y-0.0254 Z-0.0209 I0. J-0.0254
Y0.0254 Z-0.0386 I0. J0.0254
Y-0.0254 Z-0.0563 I0. J-0.0254
Y0.0254 Z-0.074 I0. J0.0254
Y-0.0254 Z-0.0918 I0. J-0.0254
Y0.0254 Z-0.1095 I0. J0.0254
Y-0.0254 Z-0.1272 I0. J-0.0254
Y0.0254 Z-0.1449 I0. J0.0254
Y-0.0254 Z-0.1627 I0. J-0.0254
Y0.0254 Z-0.1804 I0. J0.0254
Y-0.0254 Z-0.1981 I0. J-0.0254
X3.2348 Y0.0038 Z-0.2078 I0. J0.0254
X3.2022 Y0.0243 Z-0.2175 I-0.0252 J-0.0038
X3.2172 Y-0.0243 I0.0075 J-0.0243
X3.2022 Y0.0243 I-0.0075 J0.0243
X3.1938 Y0.0084 I0.0037 J-0.0122
G1 X3.196 Y0.0012
X3.1968 Y-0.0016 Z-0.2172
X3.1977 Y-0.0043 Z-0.2164
X3.1984 Y-0.0067 Z-0.215
X3.1991 Y-0.0089 Z-0.2131
X3.1996 Y-0.0107 Z-0.2108
X3.2001 Y-0.012 Z-0.2082
X3.2003 Y-0.0128 Z-0.2054
X3.2004 Y-0.0131 Z-0.2025
G0 Z0.6
(.3 CIRCULAR THROUGH HOLE)
M7
G0 X-0.0225 Y3.7924
Z0.6
Z0.2
G1 Z0.1145 F13.333
G3 X-0.0211 Y3.7925 Z0.1082 I-0.0056 J0.0447 F55.
X-0.0172 Y3.7933 Z0.103 I-0.007 J0.0445
X-0.0117 Y3.7951 Z0.1 I-0.0109 J0.0437
X-0.0444 Y3.8789 Z0.0621 I-0.0164 J0.0419
X-0.0117 Y3.7951 Z0.0242 I0.0164 J-0.0419
X-0.0444 Y3.8789 Z-0.0136 I-0.0164 J0.0419
X-0.0117 Y3.7951 Z-0.0515 I0.0164 J-0.0419
X-0.0444 Y3.8789 Z-0.0894 I-0.0164 J0.0419
X-0.0117 Y3.7951 Z-0.1273 I0.0164 J-0.0419
X-0.0444 Y3.8789 Z-0.1652 I-0.0164 J0.0419
X-0.0117 Y3.7951 Z-0.203 I0.0164 J-0.0419
X0.017 Y3.837 Z-0.2175 I-0.0164 J0.0419
X-0.017 I-0.017 J0. F60.
X0.117 I0.0669 J0.
X-0.117 I-0.117 J0.
X0.117 I0.117 J0.
G2 X0.1535 Y3.9006 I0.0736 J0.
G3 X0.1666 Y3.9728 I-0.0243 J0.0417
X0. Y4.052 I-0.1666 J-0.1358
Y3.622 I0. J-0.215
X0.1666 Y3.9728 I0. J0.215
G2 X0.1657 Y3.9816 I0.0063 J0.0051
G3 X0.1645 Y3.9904 I-0.0068 J0.0035
X0. Y4.062 I-0.1645 J-0.1534
Y3.6121 I0. J-0.225
X0.1645 Y3.9904 I0. J0.225
X0.1599 Y3.9938 Z-0.2164 I-0.011 J-0.0102
X0.1552 Y3.9951 Z-0.2131 I-0.0064 J-0.0136
X0.152 Z-0.2082 I-0.0017 J-0.0149
X0.1508 Y3.995 Z-0.2025 I0.0016 J-0.0149
G0 Z0.6
(SHAPE POCKET)
M7
G0 X-4.4215 Y-0.0466
Z0.6
Z0.1
G3 X-4.3136 Y0.0467 Z0.0605 I0.0539 J0.0466 F50.
X-4.4215 Y-0.0466 Z0.021 I-0.0539 J-0.0466
X-4.3136 Y0.0467 Z-0.0185 I0.0539 J0.0466
X-4.4215 Y-0.0466 Z-0.058 I-0.0539 J-0.0466
X-4.3136 Y0.0467 Z-0.0975 I0.0539 J0.0466
X-4.4215 Y-0.0466 Z-0.137 I-0.0539 J-0.0466
X-4.2963 Y0. Z-0.1675 I0.0539 J0.0466
X-4.4389 I-0.0713 J0.
X-4.2963 I0.0713 J0.
X-4.4446 Y0.1259 I-0.0778 J0.0587 F60.
G1 X-4.4529 Y0.1209
X-4.4609 Y0.1154
X-4.4685 Y0.1094
X-4.4757 Y0.1029
X-4.4825 Y0.096
X-4.4888 Y0.0887
X-4.4947 Y0.0809
X-4.5001 Y0.0729
X-4.5049 Y0.0645
X-4.5092 Y0.0558
X-4.513 Y0.0469
X-4.5162 Y0.0377
X-4.5188 Y0.0284
X-4.5208 Y0.0189
X-4.5222 Y0.0093
X-4.523 Y-0.0004
X-4.5232 Y-0.01
X-4.5227 Y-0.0197
X-4.5217 Y-0.0294
X-4.52 Y-0.0389
X-4.5178 Y-0.0483
X-4.515 Y-0.0576
X-4.5116 Y-0.0667
X-4.5076 Y-0.0755
X-4.5031 Y-0.0841
X-4.498 Y-0.0923
X-4.4924 Y-0.1003
X-4.4864 Y-0.1078
X-4.4799 Y-0.115
X-4.4729 Y-0.1218
X-4.4655 Y-0.128
X-4.4578 Y-0.1339
X-4.4497 Y-0.1392
X-4.4412 Y-0.1439
X-4.4325 Y-0.1482
X-4.4236 Y-0.1519
X-4.4144 Y-0.155
X-4.405 Y-0.1575
X-4.3955 Y-0.1595
X-4.3859 Y-0.1608
X-4.3763 Y-0.1615
X-4.3666 Y-0.1616
X-4.3569 Y-0.1612
X-4.3473 Y-0.16
X-4.3378 Y-0.1583
X-4.3283 Y-0.156
X-4.3191 Y-0.1531
X-4.3101 Y-0.1497
X-4.3013 Y-0.1456
X-4.2927 Y-0.141
X-4.2845 Y-0.1359
X-4.2766 Y-0.1303
X-4.2691 Y-0.1242
X-4.262 Y-0.1176
X-4.2553 Y-0.1106
X-4.249 Y-0.1032
X-4.2433 Y-0.0954
X-4.238 Y-0.0873
X-4.2333 Y-0.0788
X-4.2291 Y-0.0701
X-4.2255 Y-0.0611
X-4.2224 Y-0.0519
X-4.2164 Y-0.0429
X-4.2109 Y-0.0336
X-4.2059 Y-0.024
X-4.2015 Y-0.0141
X-4.1977 Y-0.004
X-4.1944 Y0.0063
X-4.1917 Y0.0168
X-4.1897 Y0.0274
X-4.1882 Y0.0382
X-4.1874 Y0.0489
X-4.1871 Y0.0598
X-4.1875 Y0.0706
X-4.1885 Y0.0813
X-4.1901 Y0.092
X-4.1923 Y0.1026
X-4.1951 Y0.1131
X-4.1985 Y0.1234
X-4.2025 Y0.1334
X-4.207 Y0.1432
X-4.2121 Y0.1528
X-4.2177 Y0.162
X-4.2238 Y0.1709
X-4.2305 Y0.1795
X-4.2376 Y0.1876
X-4.2451 Y0.1954
X-4.2531 Y0.2027
X-4.2615 Y0.2095
X-4.2703 Y0.2159
X-4.2794 Y0.2217
X-4.2888 Y0.227
X-4.2985 Y0.2318
X-4.3085 Y0.236
X-4.3187 Y0.2396
X-4.3291 Y0.2426
X-4.3396 Y0.2451
X-4.3503 Y0.2469
X-4.361 Y0.2482
X-4.3718 Y0.2488
X-4.3826
X-4.3934 Y0.2482
X-4.4042 Y0.247
X-4.4148 Y0.2452
X-4.4254 Y0.2427
X-4.4358 Y0.2397
X-4.446 Y0.2361
X-4.4559 Y0.2319
X-4.4657 Y0.2272
X-4.4751 Y0.2219
X-4.4842 Y0.2161
X-4.493 Y0.2098
X-4.5014 Y0.2029
X-4.5094 Y0.1957
X-4.517 Y0.1879
X-4.5268 Y0.1809
X-4.5363 Y0.1734
X-4.5454 Y0.1654
X-4.5541 Y0.1569
X-4.5623 Y0.148
X-4.57 Y0.1387
X-4.5773 Y0.129
X-4.584 Y0.1189
X-4.5902 Y0.1085
X-4.5959 Y0.0978
X-4.6011 Y0.0869
X-4.6056 Y0.0756
X-4.6096 Y0.0642
X-4.613 Y0.0526
X-4.6158 Y0.0408
X-4.6179 Y0.0289
X-4.6195 Y0.0169
X-4.6204 Y0.0048
X-4.6208 Y-0.0073
X-4.6205 Y-0.0194
X-4.6195 Y-0.0315
X-4.618 Y-0.0435
X-4.6159 Y-0.0554
X-4.6131 Y-0.0672
X-4.6097 Y-0.0789
X-4.6058 Y-0.0903
X-4.6012 Y-0.1015
X-4.5961 Y-0.1125
X-4.5905 Y-0.1232
X-4.5843 Y-0.1336
X-4.5775 Y-0.1437
X-4.5703 Y-0.1534
X-4.5626 Y-0.1627
X-4.5544 Y-0.1716
X-4.5457 Y-0.1801
X-4.5367 Y-0.1882
X-4.5272 Y-0.1957
X-4.5174 Y-0.2028
X-4.5072 Y-0.2093
X-4.4967 Y-0.2153
X-4.4859 Y-0.2208
X-4.4748 Y-0.2257
X-4.4635 Y-0.23
G3 X-4.2881 Y0.3248 I0.0877 J0.2774
X-4.4976 Y0.3115 I-0.0877 J-0.2774
X-4.4598 Y-0.3326 I0.1196 J-0.3162
G1 X-4.4445 Y-0.3355
X-4.4291 Y-0.3378
X-4.4136 Y-0.3394
X-4.3981 Y-0.3405
X-4.3825 Y-0.3409
X-4.3669 Y-0.3407
X-4.3514 Y-0.3399
X-4.3359 Y-0.3384
X-4.3205 Y-0.3364
X-4.3051 Y-0.3337
X-4.2899 Y-0.3304
X-4.2748 Y-0.3265
X-4.2599 Y-0.322
X-4.2452 Y-0.3169
X-4.2307 Y-0.3113
X-4.2164 Y-0.305
X-4.2024 Y-0.2982
X-4.1887 Y-0.2908
X-4.1753 Y-0.2829
X-4.1622 Y-0.2745
X-4.1495 Y-0.2655
X-4.1371 Y-0.2561
X-4.1252 Y-0.2461
X-4.1136 Y-0.2357
X-4.1024 Y-0.2248
X-4.0917 Y-0.2135
X-4.0815 Y-0.2018
X-4.0717 Y-0.1897
X-4.0625 Y-0.1771
X-4.0537 Y-0.1643
X-4.0455 Y-0.1511
X-4.0378 Y-0.1375
X-4.0306 Y-0.1237
X-4.024 Y-0.1096
X-4.018 Y-0.0952
X-4.0125 Y-0.0807
X-4.0077 Y-0.0659
X-4.0034 Y-0.0509
X-3.9997 Y-0.0358
X-3.9967 Y-0.0205
X-3.9942 Y-0.0051
X-3.9924 Y0.0103
X-3.9912 Y0.0259
X-3.9906 Y0.0414
X-3.9907 Y0.057
X-3.9913 Y0.0725
X-3.9926 Y0.0881
X-3.9945 Y0.1035
X-3.997 Y0.1189
X-4.0002 Y0.1341
X-4.0039 Y0.1492
X-4.0083 Y0.1642
X-4.0132 Y0.179
X-4.0187 Y0.1935
X-4.0248 Y0.2078
X-4.0315 Y0.2219
X-4.0387 Y0.2357
X-4.0465 Y0.2492
X-4.0548 Y0.2624
X-4.0636 Y0.2752
X-4.073 Y0.2876
X-4.0828 Y0.2997
X-4.0931 Y0.3114
X-4.1038 Y0.3227
X-4.115 Y0.3335
X-4.1267 Y0.3438
X-4.1387 Y0.3537
X-4.1511 Y0.3631
X-4.1639 Y0.372
X-4.177 Y0.3804
X-4.1905 Y0.3882
X-4.2042 Y0.3955
X-4.2183 Y0.4023
X-4.2326 Y0.4084
X-4.2471 Y0.414
X-4.2618 Y0.419
X-4.2768 Y0.4235
X-4.2919 Y0.4273
X-4.3071 Y0.4305
X-4.3224 Y0.4331
X-4.3379 Y0.4351
X-4.3534 Y0.4364
X-4.3689 Y0.4372
X-4.3845 Y0.4373
X-4.4001 Y0.4368
X-4.4156 Y0.4356
X-4.4311 Y0.4339
X-4.4465 Y0.4315
X-4.4617 Y0.4285
X-4.4769 Y0.425
X-4.4919 Y0.4208
X-4.5067 Y0.416
X-4.5213 Y0.4106
X-4.5357 Y0.4046
X-4.5498 Y0.3981
X-4.5637 Y0.391
X-4.5773 Y0.3834
X-4.5905 Y0.3752
X-4.6034 Y0.3665
X-4.616 Y0.3573
X-4.6282 Y0.3476
X-4.6399 Y0.3374
X-4.6513 Y0.3268
X-4.6622 Y0.3157
G3 X-4.8114 Y-0.0054 I0.2385 J-0.306
X-3.9218 Y-0.0776 I0.4485 J0.0098
G1 X-3.9167 Y-0.0619
X-3.9122 Y-0.0461
X-3.9083 Y-0.0301
X-3.9049 Y-0.014
X-3.9022 Y0.0022
X-3.9 Y0.0185
X-3.8985 Y0.0349
X-3.8975 Y0.0513
X-3.8972 Y0.0677
X-3.8975 Y0.0842
X-3.8983 Y0.1006
X-3.8998 Y0.117
X-3.9019 Y0.1333
X-3.9046 Y0.1495
X-3.9078 Y0.1656
X-3.9117 Y0.1816
X-3.9161 Y0.1974
X-3.9211 Y0.2131
X-3.9267 Y0.2286
X-3.9329 Y0.2438
X-3.9396 Y0.2588
X-3.9469 Y0.2736
X-3.9547 Y0.288
X-3.963 Y0.3022
X-3.9718 Y0.3161
X-3.9812 Y0.3296
X-3.991 Y0.3428
X-4.0013 Y0.3556
X-4.0121 Y0.368
X-4.0233 Y0.3801
X-4.035 Y0.3917
X-4.047 Y0.4028
X-4.0595 Y0.4135
X-4.0724 Y0.4238
X-4.0856 Y0.4335
X-4.0992 Y0.4428
X-4.1131 Y0.4516
X-4.1273 Y0.4598
X-4.1418 Y0.4675
X-4.1566 Y0.4747
X-4.1717 Y0.4814
X-4.1885 Y0.4883
X-4.2056 Y0.4946
X-4.223 Y0.5004
X-4.2404 Y0.5055
X-4.2581 Y0.51
X-4.2759 Y0.514
X-4.2938 Y0.5173
X-4.3119 Y0.52
X-4.33 Y0.5221
X-4.3482 Y0.5235
X-4.3664 Y0.5243
X-4.3846 Y0.5245
X-4.4028 Y0.5241
X-4.421 Y0.5231
X-4.4392 Y0.5214
X-4.4573 Y0.5191
X-4.4753 Y0.5162
X-4.4932 Y0.5126
X-4.5109 Y0.5085
X-4.5285 Y0.5037
X-4.546 Y0.4983
X-4.5632 Y0.4924
X-4.5802 Y0.4858
X-4.597 Y0.4787
X-4.6135 Y0.471
X-4.6298 Y0.4627
X-4.6457 Y0.4539
X-4.6614 Y0.4446
X-4.6767 Y0.4347
X-4.6917 Y0.4242
X-4.7063 Y0.4133
X-4.7205 Y0.4019
X-4.7343 Y0.39
X-4.7477 Y0.3776
X-4.7607 Y0.3648
X-4.7732 Y0.3515
X-4.7852 Y0.3379
X-4.7968 Y0.3238
X-4.8079 Y0.3093
X-4.8185 Y0.2944
X-4.8285 Y0.2792
X-4.8381 Y0.2637
X-4.8471 Y0.2478
X-4.8555 Y0.2317
X-4.8634 Y0.2152
X-4.8707 Y0.1985
X-4.8774 Y0.1816
X-4.8836 Y0.1644
X-4.8891 Y0.147
X-4.8941 Y0.1295
X-4.8984 Y0.1118
X-4.9022 Y0.0939
X-4.9053 Y0.076
X-4.9078 Y0.0579
X-4.9097 Y0.0398
X-4.9109 Y0.0216
X-4.9115 Y0.0034
Y-0.0149
X-4.9109 Y-0.0331
X-4.9097 Y-0.0513
X-4.9078 Y-0.0694
X-4.9053 Y-0.0875
X-4.9022 Y-0.1055
X-4.8984 Y-0.1233
X-4.8941 Y-0.141
X-4.8891 Y-0.1586
X-4.8836 Y-0.1759
X-4.8774 Y-0.1931
X-4.8707 Y-0.21
X-4.8634 Y-0.2267
X-4.8555 Y-0.2432
X-4.847 Y-0.2593
X-4.8381 Y-0.2752
X-4.8285 Y-0.2907
X-4.8185 Y-0.306
X-4.8079 Y-0.3208
X-4.7968 Y-0.3353
X-4.7852 Y-0.3494
X-4.7732 Y-0.3631
X-4.7607 Y-0.3763
X-4.7477 Y-0.3891
X-4.7343 Y-0.4015
X-4.7205 Y-0.4134
X-4.7063 Y-0.4248
X-4.6917 Y-0.4357
X-4.6767 Y-0.4462
X-4.6614 Y-0.4561
X-4.6457 Y-0.4654
X-4.6298 Y-0.4742
X-4.6135 Y-0.4825
X-4.597 Y-0.4902
X-4.5802 Y-0.4973
X-4.5632 Y-0.5039
X-4.546 Y-0.5098
X-4.5285 Y-0.5152
X-4.5109 Y-0.52
X-4.4932 Y-0.5241
X-4.4753 Y-0.5277
X-4.4573 Y-0.5306
X-4.4392 Y-0.5329
X-4.4211 Y-0.5346
X-4.4029 Y-0.5356
X-4.3846 Y-0.536
X-4.3664 Y-0.5358
X-4.3482 Y-0.535
X-4.33 Y-0.5336
X-4.3119 Y-0.5315
X-4.2939 Y-0.5288
X-4.2759 Y-0.5255
G3 X-3.8253 Y0.2285 I-0.1028 J0.5731
X-4.6343 Y0.5707 I-0.5534 J-0.1809
X-4.9486 Y-0.2683 I0.2616 J-0.5764
X-4.1089 Y-0.581 I0.5758 J0.2627
X-3.8381 Y0.4626 I-0.2796 J0.6295
G1 X-3.8507 Y0.4756
G3 X-5.0609 Y0.2388 I-0.5392 J-0.4551
G1 X-5.069 Y0.0116
Y-0.0116
X-5.064 Y-0.1972
X-5.0586 Y-0.2176
X-5.0526 Y-0.2378
X-5.046 Y-0.2578
X-5.0389 Y-0.2777
X-5.0311 Y-0.2973
X-5.0228 Y-0.3166
X-5.0139 Y-0.3358
X-5.0044 Y-0.3546
X-4.9944 Y-0.3732
X-4.9839 Y-0.3914
X-4.9728 Y-0.4093
X-4.9612 Y-0.4269
X-4.949 Y-0.4442
X-4.9364 Y-0.4611
X-4.9233 Y-0.4776
X-4.9097 Y-0.4937
X-4.8956 Y-0.5094
X-4.8811 Y-0.5247
X-4.8661 Y-0.5395
X-4.8507 Y-0.5539
X-4.8349 Y-0.5679
X-4.8187 Y-0.5813
X-4.8021 Y-0.5943
X-4.7851 Y-0.6068
X-4.7677 Y-0.6188
X-4.75 Y-0.6302
X-4.732 Y-0.6412
X-4.7137 Y-0.6516
X-4.695 Y-0.6614
X-4.6761 Y-0.6707
X-4.6569 Y-0.6795
X-4.6375 Y-0.6876
X-4.6178 Y-0.6952
X-4.5979 Y-0.7022
X-4.5779 Y-0.7087
X-4.5576 Y-0.7145
X-4.5372 Y-0.7197
X-4.5166 Y-0.7243
X-4.4959 Y-0.7283
X-4.4751 Y-0.7317
X-4.4542 Y-0.7345
X-4.4332 Y-0.7367
X-4.4122 Y-0.7382
X-4.3911 Y-0.7391
X-4.37 Y-0.7395
X-4.349 Y-0.7391
X-4.3279 Y-0.7382
X-4.3069 Y-0.7366
X-4.2859 Y-0.7345
X-4.265 Y-0.7317
X-4.2442 Y-0.7282
X-4.2235 Y-0.7242
X-4.2029 Y-0.7196
X-4.1825 Y-0.7144
X-4.1623 Y-0.7085
X-4.1422 Y-0.7021
X-4.1223 Y-0.6951
X-4.1026 Y-0.6875
X-4.0832 Y-0.6793
X-4.064 Y-0.6705
X-4.0451 Y-0.6612
X-4.0265 Y-0.6513
X-4.0081 Y-0.6409
X-3.9901 Y-0.63
X-3.9724 Y-0.6185
X-3.7018 Y-0.2959
G3 X-3.6151 Y0.1914 I-0.5543 J0.3499
G1 X-3.8392 Y0.4618
G3 X-3.865 Y0.4472 I-0.0116 J-0.0096
X-3.8483 Y0.4531 I0.0083 J0.0029
X-3.8613 Y0.4576 I-0.0083 J-0.0029
X-3.8453 Y0.4322 I0.008 J-0.0127
X-3.8385 Y0.4472 I-0.008 J0.0127
X-3.8507 Y0.4756 I-0.0616 J-0.0097 F50.
G1 X-4.0498 Y0.7158 F60.
G3 X-4.5083 Y0.8151 I-0.336 J-0.4432
X-5.0457 Y0.4834 I0.1265 J-0.8061
G1 X-5.0605 Y0.29
X-5.0621 Y0.2668
X-5.0629 Y0.2394
G3 X-5.0553 Y0.2265 I0.015 J0.0001
X-5.0022 Y0.2361 I0.0208 J0.0366
X-5.0257 Y0.4608 I-0.1209 J0.1009
X-5.0381 Y0.4696 I-0.0974 J-0.1237 F50.
G2 X-5.045 Y0.4829 I0.0081 J0.0126
G1 X-5.0418 Y0.522 F60.
X-5.0399 Y0.5452
X-5.0336 Y0.5916
G2 X-4.7424 Y0.8491 I0.4344 J-0.1979
X-4.2034 Y0.9031 I0.3533 J-0.8102
G1 X-4.0498 Y0.7158
G2 X-4.0478 Y0.7009 I-0.0119 J-0.0092
X-4.1 Y0.6757 I-0.0401 J0.0164
X-4.2068 Y0.8723 I0.044 J0.1512
X-4.2017 Y0.8866 I0.1508 J-0.0454 F50.
G3 X-4.2037 Y0.9015 I-0.0139 J0.0057
G1 X-4.2546 Y0.9629 F60.
G3 X-4.6236 Y0.9924 I-0.2143 J-0.3577
X-5.0066 Y0.8015 I0.2151 J-0.9111
G1 X-5.0336 Y0.5916
G3 X-5.0274 Y0.578 I0.0149 J-0.0015
X-4.9438 Y0.6033 I0.0321 J0.0446
X-4.9873 Y0.7769 I-0.1474 J0.0553
X-4.9992 Y0.7864 I-0.1039 J-0.1183 F50.
G2 X-5.0054 Y0.8001 I0.0088 J0.0122
G1 X-5.0017 Y0.8237 F60.
X-4.9928 Y0.8701
G2 X-4.6833 Y1.0786 I0.3609 J-0.2018
X-4.3775 Y1.1112 I0.2289 J-0.6952
G1 X-4.2546 Y0.9629
G2 X-4.2526 Y0.948 I-0.0119 J-0.0092
X-4.2756 Y0.9338 I-0.0212 J0.0087
X-4.3804 Y1.082 I0.0094 J0.1177
X-4.3755 Y1.0964 I0.1141 J-0.0304 F50.
G3 X-4.3775 Y1.1112 I-0.0139 J0.0057
G1 X-4.4153 Y1.1568 F60.
G3 X-4.7617 Y1.1493 I-0.1669 J-0.2928
X-4.9568 Y1.064 I0.0777 J-0.4432
G1 X-4.9928 Y0.8701
G3 X-4.9874 Y0.8561 I0.0148 J-0.0023
X-4.9665 Y0.8544 I0.0117 J0.0146
X-4.9395 Y1.0388 I-0.0583 J0.1027
X-4.9507 Y1.0491 I-0.0853 J-0.0817 F50.
G2 X-4.9561 Y1.0631 I0.0094 J0.0117
G1 X-4.9531 Y1.0789 F60.
X-4.9475 Y1.1021
X-4.9418 Y1.1253
G2 X-4.6231 Y1.2921 I0.3152 J-0.2143
X-4.5295 Y1.2945 I0.049 J-0.0837
G1 X-4.4153 Y1.1568
G2 X-4.4133 Y1.142 I-0.0119 J-0.0092
X-4.4551 Y1.1227 I-0.0312 J0.0128
X-4.5323 Y1.2653 I0.0369 J0.1122
X-4.5275 Y1.2797 I0.1141 J-0.0304 F50.
G3 X-4.5295 Y1.2945 I-0.0139 J0.0057
G1 X-4.5601 Y1.3316 F60.
G3 X-4.8885 Y1.3048 I-0.1456 J-0.2404
G1 X-4.8951 Y1.3089
X-4.8966 Y1.3071
X-4.8975 Y1.3049
X-4.9418 Y1.1253
G3 X-4.9371 Y1.111 I0.0147 J-0.0031
X-4.8989 Y1.1098 I0.0199 J0.0222
X-4.8822 Y1.2797 I-0.0729 J0.0929
X-4.8928 Y1.2906 I-0.0895 J-0.077 F50.
G2 X-4.8975 Y1.3049 I0.01 J0.0112
G1 X-4.8903 Y1.3341 F60.
X-4.8849 Y1.354
G2 X-4.6709 Y1.4652 I0.1892 J-0.1027
G1 X-4.5601 Y1.3316
G2 X-4.5581 Y1.3167 I-0.0119 J-0.0092
X-4.6063 Y1.297 I-0.0337 J0.0138
X-4.6737 Y1.4359 I0.0467 J0.1085
X-4.6689 Y1.4503 I0.1141 J-0.0304 F50.
G3 X-4.6709 Y1.4652 I-0.0139 J0.0057
G1 X-4.6969 Y1.4965 F60.
G3 X-4.8358 Y1.5189 I-0.0848 J-0.0837
G1 X-4.8364 Y1.516
Y1.513
X-4.8359 Y1.5101
X-4.8349 Y1.5074
X-4.8334 Y1.5049
X-4.8315 Y1.5028
X-4.8292 Y1.5011
X-4.8267 Y1.4998
X-4.824 Y1.499
X-4.8173 Y1.4975
X-4.7122 Y1.4727
X-4.7092 Y1.4724
X-4.7062 Y1.4726
G3 X-4.6969 Y1.4965 I-0.0025 J0.0148 F50.
G1 X-4.7546 Y1.5661 F60.
G3 X-4.813 Y1.5901 I-0.0411 J-0.0171
X-4.8086 Y1.5751 I0.0145 J-0.0039
G1 X-4.7979 Y1.5653
X-4.7766 Y1.5459
G3 X-4.7639 Y1.5422 I0.0101 J0.0111
X-4.7546 Y1.5661 I-0.0025 J0.0148 F50.
X-4.8 Y1.612 I-0.0506 J-0.0047 F60.
G1 X-4.8027 Y1.611
X-4.8034 Y1.6105
X-4.805 Y1.6091
X-4.8053 Y1.6087
X-4.8099 Y1.6002
X-4.8849 Y1.354
G3 X-4.8664 Y1.3361 I0.0146 J-0.0034
G1 X-4.8636 Y1.3368 Z-0.1672
X-4.8609 Y1.3376 Z-0.1664
X-4.8584 Y1.3382 Z-0.165
X-4.8562 Y1.3388 Z-0.1631
X-4.8544 Y1.3393 Z-0.1608
X-4.853 Y1.3396 Z-0.1582
X-4.8522 Y1.3399 Z-0.1554
X-4.8519 Z-0.1525
G0 Z-0.1375
X-5.0488 Y-0.1542
G1 Z-0.1525 F50.
X-5.0489 Y-0.1545 Z-0.1554
X-5.0493 Y-0.1552 Z-0.1582
X-5.05 Y-0.1564 Z-0.1608
X-5.0509 Y-0.1581 Z-0.1631
X-5.052 Y-0.16 Z-0.165
X-5.0533 Y-0.1623 Z-0.1664
X-5.0547 Y-0.1648 Z-0.1672
X-5.0561 Y-0.1673 Z-0.1675
G3 X-5.064 Y-0.1972 I0.0544 J-0.0304
G1 X-5.0621 Y-0.2668 F60.
X-5.0605 Y-0.29
X-5.0493 Y-0.4292
G3 X-4.6736 Y-0.7769 I0.5661 J0.235
X-4.1146 Y-0.7954 I0.3054 J0.7711
G1 X-3.971 Y-0.6207
G3 X-3.969 Y-0.6059 I-0.0119 J0.0092
X-4.0396 Y-0.5799 I-0.0472 J-0.0193
X-4.118 Y-0.7652 I0.0724 J-0.1399
X-4.1129 Y-0.7795 I0.1508 J0.0454 F50.
G2 X-4.1149 Y-0.7944 I-0.0139 J-0.0057
G1 X-4.1776 Y-0.8701 F60.
G2 X-4.5532 Y-0.9147 I-0.2359 J0.3831
X-5.0256 Y-0.6594 I0.1771 J0.8924
G1 X-5.0399 Y-0.5452
X-5.0418 Y-0.522
X-5.0493 Y-0.4292
G2 X-5.0424 Y-0.4159 I0.015 J0.0007
X-4.9799 Y-0.4288 I0.0247 J-0.0385
X-5.0065 Y-0.6352 I-0.1306 J-0.088
X-5.0184 Y-0.6446 I-0.1039 J0.1183 F50.
G3 X-5.0246 Y-0.6583 I0.0088 J-0.0122
G1 X-5.013 Y-0.7436 F60.
G3 X-4.7168 Y-0.9709 I0.3906 J0.2024
X-4.3043 Y-1.0229 I0.3087 J0.7869
G1 X-4.1776 Y-0.8701
G3 X-4.1756 Y-0.8552 I-0.0119 J0.0092
X-4.1902 Y-0.8452 I-0.0149 J-0.0061
X-4.3072 Y-0.9937 I-0.0029 J-0.1181
X-4.3023 Y-1.0081 I0.1141 J0.0304 F50.
G2 X-4.3043 Y-1.0229 I-0.0139 J-0.0057
G1 X-4.3411 Y-1.0673 F60.
G2 X-4.6983 Y-1.0721 I-0.1825 J0.2838
X-4.9791 Y-0.9423 I0.1296 J0.6485
G1 X-5.0017 Y-0.8237
X-5.0053 Y-0.8005
X-5.013 Y-0.7436
G2 X-4.9996 Y-0.7272 I0.0149 J0.0015
X-4.9869 Y-0.7321 I0.0015 J-0.015
X-4.966 Y-0.915 I-0.1165 J-0.106
X-4.9764 Y-0.9311 I-0.1374 J0.077 F50.
G3 X-4.9791 Y-0.9423 I0.0121 J-0.0089
G1 X-4.9663 Y-1.0093 F60.
G3 X-4.6586 Y-1.1937 I0.3363 J0.2122
X-4.4615 Y-1.2126 I0.1401 J0.4243
G1 X-4.3411 Y-1.0673
G3 X-4.3391 Y-1.0524 I-0.0119 J0.0092
X-4.3678 Y-1.0361 I-0.0247 J-0.0101
X-4.4644 Y-1.1833 I0.0175 J-0.1168
X-4.4595 Y-1.1977 I0.1141 J0.0304 F50.
G2 X-4.4615 Y-1.2126 I-0.0139 J-0.0057
G1 X-4.4983 Y-1.2569 F60.
G2 X-4.8354 Y-1.2325 I-0.1486 J0.2886
X-4.925 Y-1.1935 I-0.0127 J0.093
G1 X-4.9475 Y-1.1021
X-4.9531 Y-1.0789
X-4.9663 Y-1.0093
G2 X-4.9609 Y-0.9953 I0.0148 J0.0023
X-4.932 Y-0.9943 I0.0152 J-0.0188
X-4.9097 Y-1.1684 I-0.0672 J-0.0971
X-4.9203 Y-1.1793 I-0.0895 J0.077 F50.
G3 X-4.925 Y-1.1935 I0.01 J-0.0112
G1 X-4.9104 Y-1.2526 F60.
G3 X-4.6084 Y-1.3893 I0.2702 J0.1949
G1 X-4.6066 Y-1.3877
X-4.4983 Y-1.2569
G3 X-4.4962 Y-1.242 I-0.0119 J0.0092
X-4.5485 Y-1.2225 I-0.0351 J-0.0144
X-4.6095 Y-1.3584 I0.0531 J-0.1055
X-4.6046 Y-1.3728 I0.1141 J0.0304 F50.
G2 X-4.6066 Y-1.3877 I-0.0139 J-0.0057
G1 X-4.6392 Y-1.4269 F60.
G2 X-4.8631 Y-1.4255 I-0.1109 J0.1687
G1 X-4.8849 Y-1.354
X-4.8903 Y-1.3341
X-4.9104 Y-1.2526
G2 X-4.9057 Y-1.2383 I0.0147 J0.0031
X-4.8856 Y-1.2306 I0.0202 J-0.0225
X-4.8659 Y-1.2379 I0. J-0.0302
X-4.8492 Y-1.3996 I-0.0769 J-0.0897
X-4.8592 Y-1.411 I-0.0936 J0.0721 F50.
G3 X-4.8631 Y-1.4255 I0.0106 J-0.0106
G1 X-4.8486 Y-1.4733 F60.
G3 X-4.7362 Y-1.5458 I0.1098 J0.0469
G1 X-4.7345 Y-1.5433
X-4.7333 Y-1.5407
X-4.7327 Y-1.5378
X-4.7325 Y-1.5349
X-4.7329 Y-1.5321
X-4.7338 Y-1.5294
X-4.7351 Y-1.5269
X-4.7369 Y-1.5247
X-4.739 Y-1.5229
X-4.7448 Y-1.5186
X-4.825 Y-1.4575
X-4.8277 Y-1.4559
X-4.8307 Y-1.4548
G3 X-4.8486 Y-1.4733 I-0.0034 J-0.0146 F50.
G1 X-4.8217 Y-1.5614 F60.
G3 X-4.7822 Y-1.5995 I0.0357 J-0.0024
X-4.7957 Y-1.5402 I-0.0312 J0.0241
X-4.8067 Y-1.5385 I-0.0083 J-0.0164
X-4.8217 Y-1.5614 I0.0028 J-0.0182 F50.
X-4.8 Y-1.612 I0.0405 J-0.0125 F60.
G1 X-4.7974
G3 X-4.7855 Y-1.6035 I-0.005 J0.0195
G1 X-4.6392 Y-1.4269
G0 Z0.4
X-3.7416 Y-0.3182
Z-0.1375
G1 Z-0.1525 F50.
X-3.7413 Y-0.3181 Z-0.1554
X-3.7405 Y-0.3179 Z-0.1582
X-3.7392 Y-0.3174 Z-0.1608
X-3.7374 Y-0.3168 Z-0.1631
X-3.7353 Y-0.316 Z-0.165
X-3.7328 Y-0.3151 Z-0.1664
X-3.7302 Y-0.3142 Z-0.1672
X-3.7274 Y-0.3132 Z-0.1675
G3 X-3.7018 Y-0.2959 I-0.0209 J0.0587
X-3.577 Y-0.1421 I-0.352 J0.4132 F60.
G2 X-3.5826 Y0.1521 I0.6331 J0.1592
G1 X-3.6151 Y0.1914
G3 X-3.6296 Y0.1961 I-0.0112 J-0.01
G1 X-3.6317 Y0.195 Z-0.1673
X-3.6337 Y0.1941 Z-0.1668
X-3.6357 Y0.1931 Z-0.1659
X-3.637 Y0.1915 Z-0.1645
X-3.6382 Y0.19 Z-0.1629
X-3.6391 Y0.1888 Z-0.1609
X-3.6399 Y0.1878 Z-0.1587
X-3.6402 Y0.1872 Z-0.1567
X-3.6403 Y0.1867 Z-0.1546
X-3.6404 Y0.1866 Z-0.1525
G0 Z0.4
X-3.1423 Y-3.135
Z0.1
G3 X-3.0344 Y-3.0417 Z0.0605 I0.0539 J0.0466 F50.
X-3.1423 Y-3.135 Z0.021 I-0.0539 J-0.0466
X-3.0344 Y-3.0417 Z-0.0185 I0.0539 J0.0466
X-3.1423 Y-3.135 Z-0.058 I-0.0539 J-0.0466
X-3.0344 Y-3.0417 Z-0.0975 I0.0539 J0.0466
X-3.1423 Y-3.135 Z-0.137 I-0.0539 J-0.0466
X-3.0171 Y-3.0883 Z-0.1675 I0.0539 J0.0466
X-3.1597 I-0.0713 J0.
X-3.0171 I0.0713 J0.
X-3.1654 Y-2.9625 I-0.0778 J0.0587 F60.
G1 X-3.1737 Y-2.9675
X-3.1817 Y-2.973
X-3.1893 Y-2.979
X-3.1965 Y-2.9854
X-3.2033 Y-2.9924
X-3.2096 Y-2.9997
X-3.2155 Y-3.0074
X-3.2209 Y-3.0155
X-3.2257 Y-3.0239
X-3.23 Y-3.0325
X-3.2338 Y-3.0415
X-3.237 Y-3.0506
X-3.2396 Y-3.06
X-3.2416 Y-3.0695
X-3.243 Y-3.079
X-3.2438 Y-3.0887
X-3.244 Y-3.0984
X-3.2435 Y-3.1081
X-3.2425 Y-3.1177
X-3.2409 Y-3.1273
X-3.2386 Y-3.1367
X-3.2358 Y-3.146
X-3.2324 Y-3.155
X-3.2284 Y-3.1639
X-3.2239 Y-3.1724
X-3.2188 Y-3.1807
X-3.2132 Y-3.1886
X-3.2072 Y-3.1962
X-3.2007 Y-3.2034
X-3.1937 Y-3.2101
X-3.1863 Y-3.2164
X-3.1786 Y-3.2222
X-3.1705 Y-3.2275
X-3.162 Y-3.2323
X-3.1533 Y-3.2366
X-3.1444 Y-3.2402
X-3.1352 Y-3.2434
X-3.1259 Y-3.2459
X-3.1164 Y-3.2478
X-3.1068 Y-3.2492
X-3.0971 Y-3.2499
X-3.0874 Y-3.25
X-3.0777 Y-3.2495
X-3.0681 Y-3.2484
X-3.0586 Y-3.2467
X-3.0492 Y-3.2444
X-3.0399 Y-3.2415
X-3.0309 Y-3.238
X-3.0221 Y-3.234
X-3.0135 Y-3.2294
X-3.0053 Y-3.2243
X-2.9974 Y-3.2187
X-2.9899 Y-3.2125
X-2.9828 Y-3.206
X-2.9761 Y-3.199
X-2.9698 Y-3.1916
X-2.9641 Y-3.1838
X-2.9588 Y-3.1756
X-2.9541 Y-3.1672
X-2.9499 Y-3.1584
X-2.9463 Y-3.1494
X-2.9433 Y-3.1402
X-2.9372 Y-3.1313
X-2.9317 Y-3.1219
X-2.9268 Y-3.1123
X-2.9223 Y-3.1025
X-2.9185 Y-3.0923
X-2.9152 Y-3.082
X-2.9126 Y-3.0715
X-2.9105 Y-3.0609
X-2.909 Y-3.0502
X-2.9082 Y-3.0394
X-2.9079 Y-3.0286
X-2.9083 Y-3.0178
X-2.9093 Y-3.007
X-2.9109 Y-2.9963
X-2.9131 Y-2.9857
X-2.9159 Y-2.9753
X-2.9193 Y-2.965
X-2.9233 Y-2.9549
X-2.9278 Y-2.9451
X-2.9329 Y-2.9356
X-2.9385 Y-2.9263
X-2.9447 Y-2.9174
X-2.9513 Y-2.9089
X-2.9584 Y-2.9007
X-2.966 Y-2.893
X-2.974 Y-2.8857
X-2.9823 Y-2.8788
X-2.9911 Y-2.8725
X-3.0002 Y-2.8667
X-3.0096 Y-2.8614
X-3.0194 Y-2.8566
X-3.0293 Y-2.8524
X-3.0395 Y-2.8488
X-3.0499 Y-2.8457
X-3.0604 Y-2.8433
X-3.0711 Y-2.8414
X-3.0818 Y-2.8402
X-3.0926 Y-2.8396
X-3.1035
X-3.1143 Y-2.8402
X-3.125 Y-2.8414
X-3.1357 Y-2.8432
X-3.1462 Y-2.8456
X-3.1566 Y-2.8486
X-3.1668 Y-2.8523
X-3.1768 Y-2.8564
X-3.1865 Y-2.8612
X-3.1959 Y-2.8665
X-3.205 Y-2.8723
X-3.2138 Y-2.8786
X-3.2222 Y-2.8854
X-3.2302 Y-2.8927
X-3.2378 Y-2.9004
X-3.2477 Y-2.9075
X-3.2571 Y-2.915
X-3.2662 Y-2.923
X-3.2749 Y-2.9315
X-3.2831 Y-2.9404
X-3.2908 Y-2.9497
X-3.2981 Y-2.9594
X-3.3048 Y-2.9694
X-3.3111 Y-2.9798
X-3.3167 Y-2.9905
X-3.3219 Y-3.0015
X-3.3264 Y-3.0127
X-3.3304 Y-3.0242
X-3.3338 Y-3.0358
X-3.3366 Y-3.0476
X-3.3388 Y-3.0595
X-3.3403 Y-3.0715
X-3.3413 Y-3.0836
X-3.3416 Y-3.0957
X-3.3413 Y-3.1078
X-3.3404 Y-3.1199
X-3.3388 Y-3.1319
X-3.3367 Y-3.1438
X-3.3339 Y-3.1556
X-3.3305 Y-3.1672
X-3.3266 Y-3.1787
X-3.3221 Y-3.1899
X-3.3169 Y-3.2009
X-3.3113 Y-3.2116
X-3.3051 Y-3.222
X-3.2983 Y-3.232
X-3.2911 Y-3.2418
X-3.2834 Y-3.2511
X-3.2752 Y-3.26
X-3.2665 Y-3.2685
X-3.2575 Y-3.2765
X-3.248 Y-3.2841
X-3.2382 Y-3.2911
X-3.228 Y-3.2977
X-3.2175 Y-3.3037
X-3.2067 Y-3.3091
X-3.1956 Y-3.314
X-3.1843 Y-3.3184
G3 X-3.0089 Y-2.7636 I0.0877 J0.2774
X-3.2184 Y-2.7768 I-0.0877 J-0.2774
X-3.1806 Y-3.4209 I0.1196 J-0.3162
G1 X-3.1653 Y-3.4238
X-3.1499 Y-3.4261
X-3.1344 Y-3.4278
X-3.1189 Y-3.4288
X-3.1033 Y-3.4293
X-3.0878 Y-3.4291
X-3.0722 Y-3.4282
X-3.0567 Y-3.4268
X-3.0413 Y-3.4247
X-3.0259 Y-3.4221
X-3.0107 Y-3.4188
X-2.9956 Y-3.4149
X-2.9807 Y-3.4104
X-2.966 Y-3.4053
X-2.9515 Y-3.3996
X-2.9373 Y-3.3934
X-2.9233 Y-3.3866
X-2.9095 Y-3.3792
X-2.8961 Y-3.3713
X-2.883 Y-3.3628
X-2.8703 Y-3.3539
X-2.8579 Y-3.3444
X-2.846 Y-3.3345
X-2.8344 Y-3.3241
X-2.8232 Y-3.3132
X-2.8125 Y-3.3019
X-2.8023 Y-3.2901
X-2.7925 Y-3.278
X-2.7833 Y-3.2655
X-2.7745 Y-3.2526
X-2.7663 Y-3.2394
X-2.7586 Y-3.2259
X-2.7514 Y-3.2121
X-2.7448 Y-3.198
X-2.7388 Y-3.1836
X-2.7333 Y-3.169
X-2.7285 Y-3.1542
X-2.7242 Y-3.1393
X-2.7205 Y-3.1241
X-2.7175 Y-3.1089
X-2.715 Y-3.0935
X-2.7132 Y-3.078
X-2.712 Y-3.0625
X-2.7114 Y-3.0469
X-2.7115 Y-3.0314
X-2.7121 Y-3.0158
X-2.7134 Y-3.0003
X-2.7153 Y-2.9848
X-2.7179 Y-2.9695
X-2.721 Y-2.9542
X-2.7247 Y-2.9391
X-2.7291 Y-2.9242
X-2.734 Y-2.9094
X-2.7395 Y-2.8948
X-2.7456 Y-2.8805
X-2.7523 Y-2.8664
X-2.7595 Y-2.8527
X-2.7673 Y-2.8392
X-2.7756 Y-2.826
X-2.7844 Y-2.8132
X-2.7938 Y-2.8007
X-2.8036 Y-2.7886
X-2.8139 Y-2.777
X-2.8247 Y-2.7657
X-2.8359 Y-2.7549
X-2.8475 Y-2.7445
X-2.8595 Y-2.7346
X-2.8719 Y-2.7252
X-2.8847 Y-2.7164
X-2.8978 Y-2.708
X-2.9113 Y-2.7001
X-2.925 Y-2.6928
X-2.9391 Y-2.6861
X-2.9534 Y-2.6799
X-2.9679 Y-2.6743
X-2.9826 Y-2.6693
X-2.9976 Y-2.6649
X-3.0127 Y-2.6611
X-3.0279 Y-2.6579
X-3.0433 Y-2.6553
X-3.0587 Y-2.6533
X-3.0742 Y-2.6519
X-3.0898 Y-2.6512
X-3.1053 Y-2.6511
X-3.1209 Y-2.6516
X-3.1364 Y-2.6527
X-3.1519 Y-2.6545
X-3.1673 Y-2.6568
X-3.1826 Y-2.6598
X-3.1977 Y-2.6634
X-3.2127 Y-2.6676
X-3.2275 Y-2.6724
X-3.2421 Y-2.6778
X-3.2565 Y-2.6837
X-3.2706 Y-2.6902
X-3.2845 Y-2.6973
X-3.2981 Y-2.705
X-3.3113 Y-2.7131
X-3.3242 Y-2.7218
X-3.3368 Y-2.731
X-3.349 Y-2.7407
X-3.3608 Y-2.7509
X-3.3721 Y-2.7616
X-3.383 Y-2.7727
G3 X-3.5322 Y-3.0937 I0.2385 J-0.306
X-2.6426 Y-3.1659 I0.4485 J0.0098
G1 X-2.6375 Y-3.1503
X-2.633 Y-3.1345
X-2.6291 Y-3.1185
X-2.6257 Y-3.1024
X-2.623 Y-3.0862
X-2.6209 Y-3.0699
X-2.6193 Y-3.0535
X-2.6184 Y-3.0371
X-2.618 Y-3.0206
X-2.6183 Y-3.0042
X-2.6192 Y-2.9878
X-2.6206 Y-2.9714
X-2.6227 Y-2.9551
X-2.6254 Y-2.9389
X-2.6286 Y-2.9227
X-2.6325 Y-2.9068
X-2.6369 Y-2.8909
X-2.642 Y-2.8753
X-2.6475 Y-2.8598
X-2.6537 Y-2.8446
X-2.6604 Y-2.8295
X-2.6677 Y-2.8148
X-2.6755 Y-2.8003
X-2.6838 Y-2.7861
X-2.6926 Y-2.7723
X-2.702 Y-2.7587
X-2.7118 Y-2.7456
X-2.7221 Y-2.7327
X-2.7329 Y-2.7203
X-2.7441 Y-2.7083
X-2.7558 Y-2.6967
X-2.7678 Y-2.6855
X-2.7803 Y-2.6748
X-2.7932 Y-2.6646
X-2.8064 Y-2.6548
X-2.82 Y-2.6456
X-2.8339 Y-2.6368
X-2.8481 Y-2.6285
X-2.8627 Y-2.6208
X-2.8774 Y-2.6136
X-2.8925 Y-2.607
X-2.9094 Y-2.6001
X-2.9265 Y-2.5937
X-2.9438 Y-2.588
X-2.9613 Y-2.5829
X-2.9789 Y-2.5783
X-2.9967 Y-2.5744
X-3.0147 Y-2.5711
X-3.0327 Y-2.5684
X-3.0508 Y-2.5663
X-3.069 Y-2.5648
X-3.0872 Y-2.564
X-3.1054 Y-2.5638
X-3.1237 Y-2.5642
X-3.1419 Y-2.5653
X-3.16 Y-2.567
X-3.1781 Y-2.5693
X-3.1961 Y-2.5722
X-3.214 Y-2.5757
X-3.2317 Y-2.5799
X-3.2493 Y-2.5847
X-3.2668 Y-2.59
X-3.284 Y-2.596
X-3.301 Y-2.6025
X-3.3178 Y-2.6097
X-3.3343 Y-2.6174
X-3.3506 Y-2.6256
X-3.3666 Y-2.6344
X-3.3822 Y-2.6438
X-3.3975 Y-2.6537
X-3.4125 Y-2.6641
X-3.4271 Y-2.675
X-3.4413 Y-2.6865
X-3.4551 Y-2.6984
X-3.4685 Y-2.7107
X-3.4815 Y-2.7236
X-3.494 Y-2.7368
X-3.506 Y-2.7505
X-3.5176 Y-2.7646
X-3.5287 Y-2.7791
X-3.5393 Y-2.7939
X-3.5493 Y-2.8091
X-3.5589 Y-2.8247
X-3.5679 Y-2.8405
X-3.5763 Y-2.8567
X-3.5842 Y-2.8731
X-3.5915 Y-2.8898
X-3.5982 Y-2.9068
X-3.6044 Y-2.9239
X-3.6099 Y-2.9413
X-3.6149 Y-2.9589
X-3.6192 Y-2.9766
X-3.623 Y-2.9944
X-3.6261 Y-3.0124
X-3.6286 Y-3.0304
X-3.6305 Y-3.0486
X-3.6317 Y-3.0668
X-3.6323 Y-3.085
Y-3.1032
X-3.6317 Y-3.1215
X-3.6305 Y-3.1396
X-3.6286 Y-3.1578
X-3.6261 Y-3.1758
X-3.623 Y-3.1938
X-3.6192 Y-3.2117
X-3.6149 Y-3.2294
X-3.6099 Y-3.2469
X-3.6044 Y-3.2643
X-3.5982 Y-3.2814
X-3.5915 Y-3.2984
X-3.5842 Y-3.3151
X-3.5763 Y-3.3315
X-3.5679 Y-3.3477
X-3.5589 Y-3.3636
X-3.5493 Y-3.3791
X-3.5393 Y-3.3943
X-3.5287 Y-3.4092
X-3.5176 Y-3.4236
X-3.506 Y-3.4377
X-3.494 Y-3.4514
X-3.4815 Y-3.4647
X-3.4685 Y-3.4775
X-3.4551 Y-3.4899
X-3.4413 Y-3.5018
X-3.4271 Y-3.5132
X-3.4125 Y-3.5241
X-3.3975 Y-3.5345
X-3.3822 Y-3.5444
X-3.3666 Y-3.5538
X-3.3506 Y-3.5626
X-3.3343 Y-3.5709
X-3.3178 Y-3.5786
X-3.301 Y-3.5857
X-3.284 Y-3.5922
X-3.2668 Y-3.5982
X-3.2494 Y-3.6036
X-3.2318 Y-3.6083
X-3.214 Y-3.6125
X-3.1961 Y-3.616
X-3.1781 Y-3.6189
X-3.16 Y-3.6212
X-3.1419 Y-3.6229
X-3.1237 Y-3.624
X-3.1054 Y-3.6244
X-3.0872 Y-3.6242
X-3.069 Y-3.6234
X-3.0508 Y-3.6219
X-3.0327 Y-3.6198
X-3.0147 Y-3.6171
X-2.9967 Y-3.6138
G3 X-2.5462 Y-2.8598 I-0.1028 J0.5731
X-3.3551 Y-2.5176 I-0.5534 J-0.1809
X-3.6694 Y-3.3567 I0.2616 J-0.5764
X-2.8298 Y-3.6693 I0.5758 J0.2627
X-2.8627 Y-2.4031 I-0.2743 J0.6264
G1 X-3.1682 Y-2.3763
X-3.189 Y-2.3781
X-3.2098 Y-2.3805
X-3.2305 Y-2.3835
X-3.251 Y-2.3871
X-3.2715 Y-2.3913
X-3.2918 Y-2.3962
X-3.312 Y-2.4016
X-3.332 Y-2.4076
X-3.3519 Y-2.4142
X-3.3715 Y-2.4214
X-3.3909 Y-2.4291
X-3.4101 Y-2.4374
X-3.429 Y-2.4463
X-3.4476 Y-2.4557
X-3.466 Y-2.4657
X-3.484 Y-2.4762
X-3.5018 Y-2.4873
X-3.5192 Y-2.4989
X-3.5362 Y-2.5109
X-3.5529 Y-2.5235
X-3.5692 Y-2.5366
X-3.5852 Y-2.5501
X-3.6007 Y-2.5641
X-3.6158 Y-2.5785
X-3.6304 Y-2.5934
X-3.6447 Y-2.6087
X-3.6584 Y-2.6245
X-3.6717 Y-2.6406
X-3.6845 Y-2.6571
X-3.6969 Y-2.674
X-3.7087 Y-2.6912
X-3.72 Y-2.7088
X-3.7307 Y-2.7267
X-3.741 Y-2.7449
X-3.7507 Y-2.7634
X-3.7599 Y-2.7822
X-3.7685 Y-2.8012
X-3.7765 Y-2.8205
X-3.7839 Y-2.84
X-3.7908 Y-2.8598
X-3.7971 Y-2.8797
X-3.8028 Y-2.8998
X-3.8079 Y-2.9201
X-3.8125 Y-2.9405
X-3.8164 Y-2.961
X-3.8197 Y-2.9816
X-3.8224 Y-3.0023
X-3.8244 Y-3.0231
X-3.8259 Y-3.044
X-3.8268 Y-3.0649
X-3.827 Y-3.0858
X-3.8266 Y-3.1067
X-3.8256 Y-3.1275
X-3.824 Y-3.1484
X-3.8218 Y-3.1691
X-3.8189 Y-3.1898
X-3.8155 Y-3.2104
X-3.8114 Y-3.2309
X-3.8068 Y-3.2513
X-3.8015 Y-3.2715
X-3.7957 Y-3.2916
X-3.7892 Y-3.3115
X-3.7822 Y-3.3312
X-3.7746 Y-3.3506
X-3.7665 Y-3.3699
X-3.7577 Y-3.3888
X-3.7484 Y-3.4076
X-3.5844 Y-3.5847
X-3.4466 Y-3.7153
X-3.4282 Y-3.726
X-3.4096 Y-3.7363
X-3.3906 Y-3.746
X-3.3714 Y-3.7551
X-3.3519 Y-3.7637
X-3.3322 Y-3.7716
X-3.3123 Y-3.779
X-3.2921 Y-3.7859
X-3.2718 Y-3.7921
X-3.2512 Y-3.7977
X-3.2306 Y-3.8027
X-3.2097 Y-3.8071
X-3.1888 Y-3.8109
X-3.1678 Y-3.8141
X-3.1466 Y-3.8166
X-3.1255 Y-3.8186
X-3.1042 Y-3.8199
X-3.0829 Y-3.8206
X-3.0617 Y-3.8207
X-3.0404 Y-3.8201
X-3.0192 Y-3.8189
X-2.998 Y-3.8171
X-2.9768 Y-3.8147
X-2.9558 Y-3.8117
X-2.9348 Y-3.808
X-2.914 Y-3.8038
X-2.8932 Y-3.7989
X-2.8727 Y-3.7934
X-2.8523 Y-3.7873
X-2.8321 Y-3.7806
X-2.8121 Y-3.7734
X-2.7923 Y-3.7655
X-2.7728 Y-3.7571
X-2.7535 Y-3.7481
X-2.7345 Y-3.7385
X-2.7158 Y-3.7284
X-2.6974 Y-3.7177
X-2.6793 Y-3.7065
X-2.6615 Y-3.6948
X-2.6441 Y-3.6826
X-2.6271 Y-3.6699
X-2.6104 Y-3.6566
X-2.5941 Y-3.6429
X-2.5783 Y-3.6287
X-2.5629 Y-3.6141
X-2.5479 Y-3.599
X-2.5333 Y-3.5834
X-2.5192 Y-3.5675
X-2.5056 Y-3.5511
X-2.4925 Y-3.5344
X-2.4799 Y-3.5173
X-2.4677 Y-3.4998
X-2.4561 Y-3.482
X-2.4451 Y-3.4638
X-2.4345 Y-3.4453
X-2.4245 Y-3.4265
X-2.4151 Y-3.4074
X-2.4062 Y-3.3881
X-2.3979 Y-3.3685
X-2.3902 Y-3.3487
X-2.3831 Y-3.3287
X-2.3765 Y-3.3084
X-2.3706 Y-3.288
X-2.4199 Y-2.703
G3 X-2.4633 Y-2.5987 I-0.1977 J-0.0211
X-2.4848 Y-2.6172 I-0.0075 J-0.013
G1 X-2.4489 Y-2.7094
G3 X-2.4411 Y-2.7175 I0.014 J0.0054
X-2.4199 Y-2.703 I0.0063 J0.0136 F50.
X-2.5158 Y-2.5695 I-0.1045 J0.0261 F60.
G2 X-2.5882 Y-2.4803 I0.2409 J0.2695
G3 X-2.6357 Y-2.4262 I-0.0768 J-0.0195
X-2.6486 Y-2.4502 I-0.0009 J-0.015
G1 X-2.6132 Y-2.4968
G3 X-2.6013 Y-2.5028 I0.012 J0.0091
G1 X-2.6012
G3 X-2.5882 Y-2.4803 I0. J0.015 F50.
X-2.6346 Y-2.4263 I-0.0555 J-0.0008 F60.
G1 X-2.8634 Y-2.4049
G3 X-2.8779 Y-2.4261 I-0.0009 J-0.015
G1 X-2.8766 Y-2.4288 Z-0.1672
X-2.8755 Y-2.4313 Z-0.1664
X-2.8744 Y-2.4337 Z-0.165
X-2.8734 Y-2.4358 Z-0.1631
X-2.8727 Y-2.4375 Z-0.1608
X-2.8721 Y-2.4387 Z-0.1582
X-2.8717 Y-2.4395 Z-0.1554
X-2.8716 Y-2.4398 Z-0.1525
G0 Z-0.1375
X-2.3853 Y-3.2487
G1 Z-0.1525 F50.
X-2.3851 Y-3.2489 Z-0.1554
X-2.3846 Y-3.2496 Z-0.1582
X-2.3838 Y-3.2507 Z-0.1608
X-2.3827 Y-3.2522 Z-0.1631
X-2.3813 Y-3.254 Z-0.165
X-2.3798 Y-3.2561 Z-0.1664
X-2.3782 Y-3.2584 Z-0.1672
X-2.3764 Y-3.2608 Z-0.1675
G2 X-2.365 Y-3.2895 I-0.0504 J-0.0367
G1 X-2.3526 Y-3.4223 F60.
G2 X-2.6231 Y-3.7821 I-0.5436 J0.1272
X-3.2236 Y-3.9118 I-0.4636 J0.6907
G1 X-3.377 Y-3.7803
X-3.3885 Y-3.7703
X-3.4466 Y-3.7153
G2 X-3.4504 Y-3.7007 I0.0107 J0.0105
X-3.3871 Y-3.6605 I0.0538 J-0.0148
X-3.2253 Y-3.8816 I-0.0332 J-0.194
G1 X-3.228 Y-3.8966 F50.
G3 X-3.2234 Y-3.9109 I0.0147 J-0.0032
G1 X-3.1914 Y-3.9381 F60.
X-3.1694 Y-3.9559
X-3.139 Y-3.9791
G3 X-2.7487 Y-3.9578 I0.1712 J0.4467
X-2.3312 Y-3.6355 I-0.3345 J0.8648
G1 X-2.3526 Y-3.4223
G3 X-2.3617 Y-3.4104 I-0.0149 J-0.0019
X-2.4364 Y-3.4518 I-0.021 J-0.0502
X-2.3555 Y-3.616 I0.1554 J-0.0255
X-2.3418 Y-3.6225 I0.0745 J0.1387 F50.
G2 X-2.3327 Y-3.6344 I-0.0058 J-0.0138
G1 X-2.3265 Y-3.7007 F60.
G2 X-2.5686 Y-3.9798 I-0.3852 J0.0895
X-2.9696 Y-4.108 I-0.464 J0.7603
G1 X-2.9826 Y-4.0982
X-3.139 Y-3.9791
G2 X-3.1443 Y-3.9651 I0.0095 J0.0116
X-3.071 Y-3.9241 I0.053 J-0.0086
X-2.9734 Y-4.0789 I-0.0596 J-0.1458
X-2.975 Y-4.094 I-0.1572 J0.0091 F50.
G3 X-2.9696 Y-4.108 I0.0148 J-0.0023
G1 X-2.9594 Y-4.1157 F60.
X-2.9066 Y-4.1516
G3 X-2.5437 Y-4.079 I0.1064 J0.4117
X-2.3084 Y-3.8941 I-0.3001 J0.6239
G1 X-2.3265 Y-3.7007
G3 X-2.3356 Y-3.6888 I-0.0149 J-0.0019
X-2.3597 Y-3.6942 I-0.0082 J-0.0197
X-2.3311 Y-3.8754 I0.0878 J-0.079
X-2.3175 Y-3.8821 I0.0592 J0.1022 F50.
G2 X-2.3084 Y-3.8941 I-0.0058 J-0.0138
G1 X-2.3036 Y-3.9455 F60.
G2 X-2.5542 Y-4.1855 I-0.31 J0.0729
X-2.7475 Y-4.2596 I-0.2463 J0.3531
G1 X-2.7508 Y-4.2576
X-2.9066 Y-4.1516
G2 X-2.9127 Y-4.1378 I0.0089 J0.0121
X-2.8974 Y-4.1208 I0.0196 J-0.0021
X-2.7536 Y-4.2309 I0.0258 J-0.1152
X-2.7539 Y-4.2461 I-0.118 J-0.0051 F50.
G3 X-2.7475 Y-4.2596 I0.015 J-0.0013
G1 X-2.7274 Y-4.2727 F60.
X-2.6926 Y-4.2937
G3 X-2.3542 Y-4.1822 I0.0729 J0.3482
X-2.2865 Y-4.1276 I-0.0064 J0.0771
G1 X-2.3036 Y-3.9455
G3 X-2.3127 Y-3.9336 I-0.0149 J-0.0019
X-2.3516 Y-3.9465 I-0.0121 J-0.0288
X-2.3093 Y-4.1089 I0.1016 J-0.0602
X-2.2956 Y-4.1156 I0.0592 J0.1022 F50.
G2 X-2.2865 Y-4.1276 I-0.0058 J-0.0138
G1 X-2.2819 Y-4.1775 F60.
G2 X-2.5281 Y-4.3838 I-0.2693 J0.0713
G1 X-2.5299 Y-4.3906
X-2.5322 Y-4.3903
X-2.5344 Y-4.3893
X-2.6926 Y-4.2937
G2 X-2.6994 Y-4.2804 I0.0082 J0.0126
X-2.6732 Y-4.2523 I0.0298 J-0.0016
X-2.5413 Y-4.3608 I0.0141 J-0.1173
X-2.5412 Y-4.376 I-0.1178 J-0.0089 F50.
G3 X-2.5344 Y-4.3893 I0.015 J-0.0008
G1 X-2.5186 Y-4.3989 F60.
X-2.4954 Y-4.4123
X-2.481 Y-4.42
G3 X-2.266 Y-4.3467 I0.0487 J0.209
G1 X-2.2819 Y-4.1775
G3 X-2.291 Y-4.1656 I-0.0149 J-0.0019
X-2.3417 Y-4.1887 I-0.0147 J-0.035
X-2.2888 Y-4.328 I0.1121 J-0.0371
X-2.2751 Y-4.3347 I0.0592 J0.1022 F50.
G2 X-2.266 Y-4.3467 I-0.0058 J-0.0138
G1 X-2.2623 Y-4.3868 F60.
G2 X-2.3398 Y-4.4965 I-0.1153 J-0.0008
G1 X-2.481 Y-4.42
G2 X-2.4749 Y-4.392 I0.0075 J0.013
G1 X-2.2864 Y-4.3745
X-2.2786 Y-4.3737 F50.
G2 X-2.2623 Y-4.3868 I0.0014 J-0.0149
G1 X-2.2536 Y-4.4791 F60.
G2 X-2.2762 Y-4.5291 I-0.0334 J-0.015
G1 X-2.3404 Y-4.4949
G2 X-2.3331 Y-4.4669 I0.0075 J0.013
G1 X-2.2778 Y-4.4662
X-2.2687 Y-4.466 F50.
G2 X-2.2536 Y-4.4791 I0.0002 J-0.015
X-2.2547 Y-4.5342 I-0.0261 J-0.027 F60.
G1 X-2.2569 Y-4.5352
G2 X-2.2762 Y-4.5291 I-0.0032 J0.0235
X-2.2837 Y-4.5156 I0.0075 J0.013
G1 X-2.2836 Y-4.5127 Z-0.1672
X-2.2835 Y-4.5099 Z-0.1664
X-2.2834 Y-4.5073 Z-0.165
X-2.2833 Y-4.505 Z-0.1631
Y-4.5031 Z-0.1608
X-2.2832 Y-4.5017 Z-0.1582
Y-4.5009 Z-0.1554
Y-4.5006 Z-0.1525
G0 Z-0.1375
X-3.7098 Y-3.4285
G1 Z-0.1525 F50.
X-3.7101 Y-3.4284 Z-0.1554
X-3.7109 Y-3.4282 Z-0.1582
X-3.7122 Y-3.4278 Z-0.1608
X-3.714 Y-3.4273 Z-0.1631
X-3.7162 Y-3.4267 Z-0.165
X-3.7187 Y-3.426 Z-0.1664
X-3.7214 Y-3.4252 Z-0.1672
X-3.7243 Y-3.4244 Z-0.1675
G2 X-3.751 Y-3.4089 I0.017 J0.06
G1 X-3.7714 Y-3.3874 F60.
X-3.7812 Y-3.3759
X-3.8642 Y-3.2783
G2 X-3.8933 Y-2.87 I0.4437 J0.2369
X-3.463 Y-2.3478 I0.7931 J-0.2152
G1 X-3.1682 Y-2.3763
G2 X-3.1563 Y-2.3854 I-0.0019 J-0.0149
X-3.1848 Y-2.4598 I-0.0532 J-0.0223
X-3.4441 Y-2.3717 I-0.0842 J0.1779
G1 X-3.4506 Y-2.3579 F50.
G3 X-3.4625 Y-2.3488 I-0.0138 J-0.0058
G1 X-3.5626 Y-2.3394 F60.
G3 X-3.8638 Y-2.5722 I0.0993 J-0.4397
X-4.0194 Y-3.0881 I0.7495 J-0.5075
G1 X-3.957 Y-3.1681
X-3.9391 Y-3.1903
X-3.8642 Y-3.2783
G3 X-3.8499 Y-3.2829 I0.0111 J0.0101
X-3.8211 Y-3.2467 I-0.0078 J0.0357
X-3.9888 Y-3.0916 I-0.1575 J-0.0021
X-4.0039 Y-3.0933 I0.0102 J-0.1572 F50.
G2 X-4.0179 Y-3.088 I-0.0024 J0.0148
G1 X-4.0688 Y-3.0212 F60.
G2 X-4.0208 Y-2.6497 I0.4136 J0.1354
X-3.7632 Y-2.3206 I0.7757 J-0.3419
G1 X-3.5626 Y-2.3394
G2 X-3.5507 Y-2.3485 I-0.0019 J-0.0149
X-3.5526 Y-2.3609 I-0.011 J-0.0046
G1 X-3.5539 Y-2.3624
G2 X-3.7445 Y-2.3434 I-0.0884 J0.0783
X-3.7513 Y-2.3297 I0.1022 J0.0592 F50.
G3 X-3.7632 Y-2.3206 I-0.0138 J-0.0058
G1 X-3.8305 Y-2.3143 F60.
G3 X-4.0796 Y-2.5634 I0.0971 J-0.3462
X-4.1874 Y-2.8553 I0.5567 J-0.3713
G1 X-4.1164 Y-2.9582
X-4.0991 Y-2.9815
X-4.0688 Y-3.0212
G3 X-4.0477 Y-3.0233 I0.0116 J0.0095
X-4.0431 Y-3.0134 I-0.0079 J0.0096
X-4.1579 Y-2.8655 I-0.1574 J-0.0036
X-4.1765 Y-2.8614 I-0.0427 J-0.1516 F50.
G2 X-4.1864 Y-2.8555 I0.0023 J0.0148
G1 X-4.2195 Y-2.8067 F60.
G2 X-4.1525 Y-2.4772 I0.348 J0.1008
X-4.0098 Y-2.2976 I0.4433 J-0.2057
G1 X-3.8305 Y-2.3143
G2 X-3.8186 Y-2.3234 I-0.0019 J-0.0149
X-3.8336 Y-2.3654 I-0.0305 J-0.0128
X-3.9911 Y-2.3203 I-0.0553 J0.1044
X-3.9979 Y-2.3067 I0.1022 J0.0592 F50.
G3 X-4.0098 Y-2.2976 I-0.0138 J-0.0058
G1 X-4.0625 Y-2.2926 F60.
G3 X-4.2878 Y-2.545 I0.0833 J-0.3011
X-4.3255 Y-2.64 I0.0544 J-0.0766
G1 X-4.2734 Y-2.7262
X-4.2585 Y-2.7494
X-4.2195 Y-2.8067
G3 X-4.2058 Y-2.8127 I0.0121 J0.0089
X-4.1944 Y-2.8039 I-0.0015 J0.0137
X-4.2969 Y-2.6469 I-0.1114 J0.0392
X-4.3121 Y-2.6468 I-0.0089 J-0.1178 F50.
G2 X-4.3255 Y-2.64 I-0.0008 J0.015
G1 X-4.3575 Y-2.587 F60.
G2 X-4.239 Y-2.2765 I0.3319 J0.0512
G1 X-4.2366 Y-2.2763
X-4.0625 Y-2.2926
G2 X-4.0506 Y-2.3017 I-0.0019 J-0.0149
X-4.0697 Y-2.3486 I-0.0331 J-0.0139
X-4.2179 Y-2.2991 I-0.046 J0.1088
X-4.2246 Y-2.2854 I0.1022 J0.0592 F50.
G3 X-4.2366 Y-2.2763 I-0.0138 J-0.0058
G1 X-4.2817 Y-2.2721 F60.
G3 X-4.4459 Y-2.4323 I0.0314 J-0.1964
G1 X-4.4129 Y-2.4942
X-4.3996 Y-2.5174
X-4.3575 Y-2.587
G3 X-4.3442 Y-2.5938 I0.0126 J0.0082
X-4.315 Y-2.5648 I-0.0017 J0.0308
X-4.4177 Y-2.4408 I-0.1179 J0.0069
X-4.4329 Y-2.4398 I-0.0152 J-0.1171 F50.
G2 X-4.4459 Y-2.4323 I0. J0.015
G1 X-4.4673 Y-2.3921 F60.
G2 X-4.4405 Y-2.2562 I0.1087 J0.0492
G1 X-4.2817 Y-2.2721
G2 X-4.2762 Y-2.3 I-0.0019 J-0.0149
G1 X-4.4405 Y-2.3939
X-4.4469 Y-2.3976 F50.
G2 X-4.4673 Y-2.3921 I-0.0075 J0.013
G1 X-4.5119 Y-2.3086 F60.
G2 X-4.5117 Y-2.2506 I0.0248 J0.0289
G1 X-4.4394 Y-2.2574
G2 X-4.4346 Y-2.2857 I-0.0019 J-0.0149
G1 X-4.4848 Y-2.3108
X-4.4921 Y-2.3145 F50.
G2 X-4.5119 Y-2.3086 I-0.0067 J0.0134
X-4.5337 Y-2.254 I0.019 J0.0393 F60.
X-4.5117 Y-2.2506 I0.0137 J-0.0158
G1 X-4.5105 Y-2.2508
X-4.5084 Y-2.2518 Z-0.1673
X-4.5064 Y-2.2527 Z-0.1668
X-4.5044 Y-2.2537 Z-0.1659
X-4.5031 Y-2.2553 Z-0.1645
X-4.5019 Y-2.2568 Z-0.1629
X-4.5009 Y-2.258 Z-0.1609
X-4.5001 Y-2.2589 Z-0.1587
X-4.4998 Y-2.2596 Z-0.1567
X-4.4997 Y-2.26 Z-0.1546
X-4.4996 Y-2.2602 Z-0.1525
G0 Z0.4
X-3.1423 Y3.0417
Z0.1
G3 X-3.0344 Y3.135 Z0.0605 I0.0539 J0.0466 F50.
X-3.1423 Y3.0417 Z0.021 I-0.0539 J-0.0466
X-3.0344 Y3.135 Z-0.0185 I0.0539 J0.0466
X-3.1423 Y3.0417 Z-0.058 I-0.0539 J-0.0466
X-3.0344 Y3.135 Z-0.0975 I0.0539 J0.0466
X-3.1423 Y3.0417 Z-0.137 I-0.0539 J-0.0466
X-3.0171 Y3.0883 Z-0.1675 I0.0539 J0.0466
X-3.1597 I-0.0713 J0.
X-3.0171 I0.0713 J0.
X-3.1654 Y3.2142 I-0.0778 J0.0587 F60.
G1 X-3.1737 Y3.2092
X-3.1817 Y3.2037
X-3.1893 Y3.1977
X-3.1965 Y3.1912
X-3.2033 Y3.1843
X-3.2096 Y3.177
X-3.2155 Y3.1693
X-3.2209 Y3.1612
X-3.2257 Y3.1528
X-3.23 Y3.1441
X-3.2338 Y3.1352
X-3.237 Y3.126
X-3.2396 Y3.1167
X-3.2416 Y3.1072
X-3.243 Y3.0976
X-3.2438 Y3.088
X-3.244 Y3.0783
X-3.2435 Y3.0686
X-3.2425 Y3.059
X-3.2409 Y3.0494
X-3.2386 Y3.04
X-3.2358 Y3.0307
X-3.2324 Y3.0216
X-3.2284 Y3.0128
X-3.2239 Y3.0042
X-3.2188 Y2.996
X-3.2132 Y2.988
X-3.2072 Y2.9805
X-3.2007 Y2.9733
X-3.1937 Y2.9666
X-3.1863 Y2.9603
X-3.1786 Y2.9545
X-3.1705 Y2.9492
X-3.162 Y2.9444
X-3.1533 Y2.9401
X-3.1444 Y2.9364
X-3.1352 Y2.9333
X-3.1258 Y2.9308
X-3.1164 Y2.9288
X-3.1068 Y2.9275
X-3.0971 Y2.9268
X-3.0874 Y2.9267
X-3.0777 Y2.9272
X-3.0681 Y2.9283
X-3.0586 Y2.93
X-3.0492 Y2.9323
X-3.0399 Y2.9352
X-3.0309 Y2.9387
X-3.0221 Y2.9427
X-3.0135 Y2.9473
X-3.0053 Y2.9524
X-2.9974 Y2.958
X-2.9899 Y2.9641
X-2.9828 Y2.9707
X-2.9761 Y2.9777
X-2.9698 Y2.9851
X-2.9641 Y2.9929
X-2.9588 Y3.0011
X-2.9541 Y3.0095
X-2.9499 Y3.0182
X-2.9463 Y3.0272
X-2.9433 Y3.0364
X-2.9372 Y3.0454
X-2.9317 Y3.0547
X-2.9268 Y3.0643
X-2.9223 Y3.0742
X-2.9185 Y3.0843
X-2.9152 Y3.0946
X-2.9126 Y3.1051
X-2.9105 Y3.1158
X-2.909 Y3.1265
X-2.9082 Y3.1373
X-2.9079 Y3.1481
X-2.9083 Y3.1589
X-2.9093 Y3.1697
X-2.9109 Y3.1804
X-2.9131 Y3.191
X-2.9159 Y3.2014
X-2.9193 Y3.2117
X-2.9233 Y3.2217
X-2.9278 Y3.2316
X-2.9329 Y3.2411
X-2.9385 Y3.2504
X-2.9447 Y3.2593
X-2.9513 Y3.2678
X-2.9584 Y3.276
X-2.966 Y3.2837
X-2.9739 Y3.291
X-2.9823 Y3.2978
X-2.9911 Y3.3042
X-3.0002 Y3.31
X-3.0096 Y3.3153
X-3.0194 Y3.3201
X-3.0293 Y3.3243
X-3.0395 Y3.3279
X-3.0499 Y3.3309
X-3.0604 Y3.3334
X-3.0711 Y3.3352
X-3.0818 Y3.3365
X-3.0926 Y3.3371
X-3.1035
X-3.1143 Y3.3365
X-3.125 Y3.3353
X-3.1357 Y3.3335
X-3.1462 Y3.331
X-3.1566 Y3.328
X-3.1668 Y3.3244
X-3.1768 Y3.3202
X-3.1865 Y3.3155
X-3.1959 Y3.3102
X-3.205 Y3.3044
X-3.2138 Y3.2981
X-3.2222 Y3.2913
X-3.2302 Y3.284
X-3.2378 Y3.2763
X-3.2476 Y3.2692
X-3.2571 Y3.2617
X-3.2662 Y3.2537
X-3.2749 Y3.2452
X-3.2831 Y3.2363
X-3.2908 Y3.227
X-3.2981 Y3.2173
X-3.3048 Y3.2072
X-3.3111 Y3.1968
X-3.3167 Y3.1861
X-3.3219 Y3.1752
X-3.3264 Y3.164
X-3.3304 Y3.1525
X-3.3338 Y3.1409
X-3.3366 Y3.1291
X-3.3388 Y3.1172
X-3.3403 Y3.1052
X-3.3413 Y3.0931
X-3.3416 Y3.081
X-3.3413 Y3.0689
X-3.3404 Y3.0568
X-3.3388 Y3.0448
X-3.3367 Y3.0329
X-3.3339 Y3.0211
X-3.3305 Y3.0095
X-3.3266 Y2.998
X-3.3221 Y2.9868
X-3.3169 Y2.9758
X-3.3113 Y2.9651
X-3.3051 Y2.9547
X-3.2983 Y2.9446
X-3.2911 Y2.9349
X-3.2834 Y2.9256
X-3.2752 Y2.9167
X-3.2665 Y2.9082
X-3.2575 Y2.9002
X-3.248 Y2.8926
X-3.2382 Y2.8856
X-3.228 Y2.879
X-3.2175 Y2.873
X-3.2067 Y2.8675
X-3.1956 Y2.8626
X-3.1843 Y2.8583
G3 X-3.0089 Y3.4131 I0.0877 J0.2774
X-3.2184 Y3.3999 I-0.0877 J-0.2774
X-3.1806 Y2.7557 I0.1196 J-0.3162
G1 X-3.1653 Y2.7528
X-3.1499 Y2.7506
X-3.1344 Y2.7489
X-3.1189 Y2.7478
X-3.1033 Y2.7474
X-3.0878 Y2.7476
X-3.0722 Y2.7484
X-3.0567 Y2.7499
X-3.0413 Y2.7519
X-3.0259 Y2.7546
X-3.0107 Y2.7579
X-2.9956 Y2.7618
X-2.9807 Y2.7663
X-2.966 Y2.7714
X-2.9515 Y2.7771
X-2.9373 Y2.7833
X-2.9233 Y2.7901
X-2.9095 Y2.7975
X-2.8961 Y2.8054
X-2.883 Y2.8138
X-2.8703 Y2.8228
X-2.8579 Y2.8323
X-2.846 Y2.8422
X-2.8344 Y2.8526
X-2.8232 Y2.8635
X-2.8125 Y2.8748
X-2.8023 Y2.8865
X-2.7925 Y2.8987
X-2.7833 Y2.9112
X-2.7745 Y2.924
X-2.7663 Y2.9372
X-2.7586 Y2.9508
X-2.7514 Y2.9646
X-2.7448 Y2.9787
X-2.7388 Y2.9931
X-2.7333 Y3.0077
X-2.7285 Y3.0224
X-2.7242 Y3.0374
X-2.7205 Y3.0525
X-2.7175 Y3.0678
X-2.715 Y3.0832
X-2.7132 Y3.0987
X-2.712 Y3.1142
X-2.7114 Y3.1297
X-2.7115 Y3.1453
X-2.7121 Y3.1609
X-2.7134 Y3.1764
X-2.7153 Y3.1918
X-2.7178 Y3.2072
X-2.721 Y3.2224
X-2.7247 Y3.2376
X-2.7291 Y3.2525
X-2.734 Y3.2673
X-2.7395 Y3.2818
X-2.7456 Y3.2962
X-2.7523 Y3.3102
X-2.7595 Y3.324
X-2.7673 Y3.3375
X-2.7756 Y3.3507
X-2.7844 Y3.3635
X-2.7938 Y3.376
X-2.8036 Y3.388
X-2.8139 Y3.3997
X-2.8247 Y3.411
X-2.8359 Y3.4218
X-2.8475 Y3.4321
X-2.8595 Y3.442
X-2.8719 Y3.4514
X-2.8847 Y3.4603
X-2.8978 Y3.4687
X-2.9113 Y3.4765
X-2.925 Y3.4838
X-2.9391 Y3.4906
X-2.9534 Y3.4967
X-2.9679 Y3.5023
X-2.9826 Y3.5073
X-2.9976 Y3.5118
X-3.0127 Y3.5156
X-3.0279 Y3.5188
X-3.0433 Y3.5214
X-3.0587 Y3.5234
X-3.0742 Y3.5247
X-3.0898 Y3.5255
X-3.1053 Y3.5256
X-3.1209 Y3.5251
X-3.1364 Y3.524
X-3.1519 Y3.5222
X-3.1673 Y3.5198
X-3.1826 Y3.5169
X-3.1977 Y3.5133
X-3.2127 Y3.5091
X-3.2275 Y3.5043
X-3.2421 Y3.4989
X-3.2565 Y3.493
X-3.2706 Y3.4864
X-3.2845 Y3.4793
X-3.2981 Y3.4717
X-3.3113 Y3.4635
X-3.3242 Y3.4548
X-3.3368 Y3.4456
X-3.349 Y3.4359
X-3.3608 Y3.4258
X-3.3721 Y3.4151
X-3.383 Y3.404
G3 X-3.5322 Y3.0829 I0.2385 J-0.306
X-2.6426 Y3.0108 I0.4485 J0.0098
G1 X-2.6375 Y3.0264
X-2.633 Y3.0422
X-2.6291 Y3.0582
X-2.6257 Y3.0743
X-2.623 Y3.0905
X-2.6208 Y3.1068
X-2.6193 Y3.1232
X-2.6184 Y3.1396
X-2.618 Y3.156
X-2.6183 Y3.1725
X-2.6192 Y3.1889
X-2.6206 Y3.2053
X-2.6227 Y3.2216
X-2.6254 Y3.2378
X-2.6286 Y3.2539
X-2.6325 Y3.2699
X-2.6369 Y3.2857
X-2.642 Y3.3014
X-2.6475 Y3.3169
X-2.6537 Y3.3321
X-2.6604 Y3.3471
X-2.6677 Y3.3619
X-2.6755 Y3.3764
X-2.6838 Y3.3905
X-2.6926 Y3.4044
X-2.702 Y3.4179
X-2.7118 Y3.4311
X-2.7221 Y3.4439
X-2.7329 Y3.4564
X-2.7441 Y3.4684
X-2.7558 Y3.48
X-2.7678 Y3.4911
X-2.7803 Y3.5018
X-2.7932 Y3.5121
X-2.8064 Y3.5218
X-2.82 Y3.5311
X-2.8339 Y3.5399
X-2.8481 Y3.5481
X-2.8626 Y3.5559
X-2.8774 Y3.563
X-2.8925 Y3.5697
X-2.9094 Y3.5766
X-2.9265 Y3.5829
X-2.9438 Y3.5887
X-2.9613 Y3.5938
X-2.9789 Y3.5984
X-2.9967 Y3.6023
X-3.0147 Y3.6056
X-3.0327 Y3.6083
X-3.0508 Y3.6104
X-3.069 Y3.6118
X-3.0872 Y3.6127
X-3.1054 Y3.6129
X-3.1237 Y3.6124
X-3.1419 Y3.6114
X-3.16 Y3.6097
X-3.1781 Y3.6074
X-3.1961 Y3.6045
X-3.214 Y3.6009
X-3.2317 Y3.5968
X-3.2493 Y3.592
X-3.2668 Y3.5867
X-3.284 Y3.5807
X-3.301 Y3.5741
X-3.3178 Y3.567
X-3.3343 Y3.5593
X-3.3506 Y3.5511
X-3.3666 Y3.5422
X-3.3822 Y3.5329
X-3.3975 Y3.523
X-3.4125 Y3.5126
X-3.4271 Y3.5016
X-3.4413 Y3.4902
X-3.4551 Y3.4783
X-3.4685 Y3.4659
X-3.4815 Y3.4531
X-3.494 Y3.4399
X-3.506 Y3.4262
X-3.5176 Y3.4121
X-3.5287 Y3.3976
X-3.5393 Y3.3828
X-3.5493 Y3.3676
X-3.5589 Y3.352
X-3.5679 Y3.3361
X-3.5763 Y3.32
X-3.5842 Y3.3035
X-3.5915 Y3.2868
X-3.5982 Y3.2699
X-3.6044 Y3.2527
X-3.6099 Y3.2354
X-3.6149 Y3.2178
X-3.6192 Y3.2001
X-3.623 Y3.1823
X-3.6261 Y3.1643
X-3.6286 Y3.1462
X-3.6305 Y3.1281
X-3.6317 Y3.1099
X-3.6323 Y3.0917
Y3.0734
X-3.6317 Y3.0552
X-3.6305 Y3.037
X-3.6286 Y3.0189
X-3.6261 Y3.0008
X-3.623 Y2.9829
X-3.6192 Y2.965
X-3.6149 Y2.9473
X-3.6099 Y2.9298
X-3.6044 Y2.9124
X-3.5982 Y2.8952
X-3.5915 Y2.8783
X-3.5842 Y2.8616
X-3.5763 Y2.8451
X-3.5679 Y2.829
X-3.5589 Y2.8131
X-3.5493 Y2.7976
X-3.5393 Y2.7824
X-3.5287 Y2.7675
X-3.5176 Y2.753
X-3.506 Y2.7389
X-3.494 Y2.7253
X-3.4815 Y2.712
X-3.4685 Y2.6992
X-3.4551 Y2.6868
X-3.4413 Y2.6749
X-3.4271 Y2.6635
X-3.4125 Y2.6526
X-3.3975 Y2.6422
X-3.3822 Y2.6323
X-3.3666 Y2.6229
X-3.3506 Y2.6141
X-3.3343 Y2.6058
X-3.3178 Y2.5981
X-3.301 Y2.591
X-3.284 Y2.5844
X-3.2668 Y2.5785
X-3.2494 Y2.5731
X-3.2317 Y2.5684
X-3.214 Y2.5642
X-3.1961 Y2.5607
X-3.1781 Y2.5577
X-3.16 Y2.5554
X-3.1419 Y2.5538
X-3.1237 Y2.5527
X-3.1054 Y2.5523
X-3.0872 Y2.5525
X-3.069 Y2.5533
X-3.0508 Y2.5548
X-3.0327 Y2.5568
X-3.0147 Y2.5595
X-2.9967 Y2.5628
G3 X-2.5462 Y3.3168 I-0.1028 J0.5731
X-3.3551 Y3.659 I-0.5534 J-0.1809
X-3.6694 Y2.82 I0.2616 J-0.5764
X-2.8298 Y2.5074 I0.5758 J0.2627
X-3.2311 Y3.8039 I-0.273 J0.6259
X-3.4199 Y3.7405 I0.1167 J-0.6606
G1 X-3.5844 Y3.5847
X-3.7163 Y3.4455
X-3.7271 Y3.4273
X-3.7374 Y3.4088
X-3.7471 Y3.39
X-3.7563 Y3.3709
X-3.7649 Y3.3516
X-3.7729 Y3.332
X-3.7803 Y3.3122
X-3.7871 Y3.2921
X-3.7934 Y3.2719
X-3.799 Y3.2515
X-3.8041 Y3.231
X-3.8085 Y3.2103
X-3.8123 Y3.1894
X-3.8155 Y3.1685
X-3.818 Y3.1475
X-3.82 Y3.1264
X-3.8213 Y3.1053
X-3.8219 Y3.0842
X-3.822 Y3.063
X-3.8214 Y3.0418
X-3.8202 Y3.0207
X-3.8184 Y2.9996
X-3.816 Y2.9786
X-3.8129 Y2.9577
X-3.8092 Y2.9368
X-3.8049 Y2.9161
X-3.7999 Y2.8955
X-3.7944 Y2.8751
X-3.7883 Y2.8548
X-3.7815 Y2.8348
X-3.7742 Y2.8149
X-3.7663 Y2.7953
X-3.7578 Y2.7759
X-3.7488 Y2.7568
X-3.7391 Y2.7379
X-3.7289 Y2.7194
X-3.7182 Y2.7011
X-3.707 Y2.6832
X-3.6952 Y2.6656
X-3.6829 Y2.6484
X-3.6701 Y2.6316
X-3.6567 Y2.6151
X-3.643 Y2.599
X-3.6287 Y2.5834
X-3.614 Y2.5682
X-3.5988 Y2.5534
X-3.5832 Y2.5391
X-3.5672 Y2.5253
X-3.5508 Y2.5119
X-3.534 Y2.499
X-3.5168 Y2.4867
X-3.4993 Y2.4748
X-3.4814 Y2.4635
X-3.4632 Y2.4527
X-3.4447 Y2.4425
X-3.4259 Y2.4328
X-3.4068 Y2.4237
X-3.3874 Y2.4151
X-3.3678 Y2.4071
X-3.348 Y2.3997
X-3.3279 Y2.3929
X-3.3077 Y2.3867
X-3.2873 Y2.3811
X-3.2667 Y2.3761
X-3.246 Y2.3718
X-2.8434 Y2.4067
G3 X-2.4132 Y2.7743 I-0.2104 J0.6818
G1 X-2.3634 Y3.3063
G3 X-2.743 Y3.8262 I-0.661 J-0.0841
X-3.2351 Y3.9019 I-0.36 J-0.702
G1 X-3.377 Y3.7803
X-3.3885 Y3.7703
X-3.4199 Y3.7405
G3 X-3.4237 Y3.726 I0.0107 J-0.0105
X-3.3813 Y3.6962 I0.0393 J0.0108
X-3.237 Y3.8718 I-0.012 J0.157
X-3.2395 Y3.8868 I-0.1564 J-0.0186 F50.
G2 X-3.2349 Y3.9011 I0.0147 J0.0032
G1 X-3.1914 Y3.9381 F60.
X-3.1694 Y3.9559
X-3.1566 Y3.9657
G2 X-2.7635 Y3.9438 I0.1735 J-0.4253
X-2.3379 Y3.5683 I-0.3279 J-0.8006
G1 X-2.3634 Y3.3063
G2 X-2.3725 Y3.2944 I-0.0149 J0.0019
X-2.3992 Y3.2997 I-0.0094 J0.0224
X-2.3618 Y3.5492 I0.1119 J0.1108
X-2.348 Y3.5557 I0.0745 J-0.1387 F50.
G3 X-2.339 Y3.5677 I-0.0058 J0.0138
G1 X-2.3308 Y3.6543 F60.
G3 X-2.5671 Y3.9514 I-0.4253 J-0.0958
X-2.9843 Y4.0988 I-0.5038 J-0.7618
G1 X-3.1566 Y3.9657
G3 X-3.1619 Y3.9517 I0.0095 J-0.0116
X-3.0901 Y3.91 I0.053 J0.0086
X-2.9881 Y4.0677 I-0.0551 J0.1475
X-2.9898 Y4.0828 I-0.1572 J-0.0102 F50.
G2 X-2.9845 Y4.0968 I0.0148 J0.0024
G1 X-2.9594 Y4.1157 F60.
X-2.9213 Y4.1415
G2 X-2.5677 Y4.0591 I0.0992 J-0.374
X-2.3111 Y3.8547 I-0.2831 J-0.6185
G1 X-2.3308 Y3.6543
G2 X-2.3399 Y3.6424 I-0.0149 J0.0019
X-2.3542 Y3.6448 I-0.0052 J0.0125
X-2.3349 Y3.8352 I0.0785 J0.0882
X-2.3213 Y3.8419 I0.0592 J-0.1022 F50.
G3 X-2.3122 Y3.8539 I-0.0058 J0.0138
G1 X-2.307 Y3.9095 F60.
G3 X-2.5561 Y4.1632 I-0.3264 J-0.0715
X-2.7654 Y4.2476 I-0.2585 J-0.3393
G1 X-2.9213 Y4.1415
G3 X-2.9274 Y4.1278 I0.0089 J-0.0121
X-2.9041 Y4.104 I0.0267 J0.0029
X-2.7708 Y4.2187 I0.0152 J0.1171
X-2.7715 Y4.2339 I-0.1181 J0.0025 F50.
G2 X-2.7654 Y4.2476 I0.0149 J0.0016
G1 X-2.7506 Y4.2577 F60.
X-2.7274 Y4.2727
X-2.7141 Y4.2808
G2 X-2.3762 Y4.168 I0.0738 J-0.3413
X-2.2894 Y4.0966 I-0.0096 J-0.1001
G1 X-2.307 Y3.9095
G2 X-2.316 Y3.8976 I-0.0149 J0.0019
X-2.349 Y3.9069 I-0.0106 J0.0253
X-2.3122 Y4.0779 I0.096 J0.0688
X-2.2985 Y4.0847 I0.0592 J-0.1022 F50.
G3 X-2.2894 Y4.0966 I-0.0058 J0.0138
G1 X-2.2846 Y4.1486 F60.
G3 X-2.5389 Y4.3672 I-0.2868 J-0.0763
G1 X-2.5487 Y4.3776
X-2.551 Y4.3779
X-2.5532 Y4.3776
X-2.5553 Y4.3767
X-2.7141 Y4.2808
G3 X-2.7208 Y4.2674 I0.0082 J-0.0126
X-2.6953 Y4.2398 I0.0293 J0.0016
X-2.5623 Y4.3481 I0.0153 J0.1171
X-2.5621 Y4.3633 I-0.1178 J0.0089 F50.
G2 X-2.5553 Y4.3767 I0.015 J0.0008
G1 X-2.5186 Y4.3989 F60.
X-2.507 Y4.4056
G2 X-2.2684 Y4.3212 I0.0544 J-0.2256
G1 X-2.2846 Y4.1486
G2 X-2.2937 Y4.1366 I-0.0149 J0.0019
X-2.3418 Y4.1569 I-0.0141 J0.0337
X-2.2911 Y4.3025 I0.1098 J0.0434
X-2.2775 Y4.3093 I0.0592 J-0.1022 F50.
G3 X-2.2684 Y4.3212 I-0.0058 J0.0138
G1 X-2.2645 Y4.3631 F60.
X-2.2649 Y4.3719
X-2.2658 Y4.3805
X-2.2674 Y4.3891
X-2.2695 Y4.3976
X-2.2722 Y4.4059
X-2.2754 Y4.414
X-2.2792 Y4.4219
X-2.2835 Y4.4295
X-2.2883 Y4.4368
X-2.2936 Y4.4438
X-2.2993 Y4.4503
X-2.3055 Y4.4565
X-2.312 Y4.4623
X-2.319 Y4.4676
X-2.3263 Y4.4724
X-2.3338 Y4.4768
X-2.3417 Y4.4806
X-2.3498 Y4.4838
X-2.3581 Y4.4866
X-2.3606 Y4.4849
X-2.3627 Y4.4828
X-2.3643 Y4.4803
X-2.3655 Y4.4777
X-2.3662 Y4.4748
X-2.3663 Y4.4719
X-2.3658 Y4.4691
X-2.3649 Y4.4664
X-2.3634 Y4.464
X-2.3599 Y4.4586
X-2.2919 Y4.3567
X-2.2901 Y4.3546
X-2.2881 Y4.3528
G3 X-2.2645 Y4.3631 I0.0087 J0.0122 F50.
G1 X-2.2558 Y4.4559 F60.
G3 X-2.2855 Y4.5242 I-0.0382 J0.0239
X-2.2929 Y4.5091 I0.0075 J-0.013
G1 X-2.2911 Y4.4961
X-2.2856 Y4.4558
G3 X-2.2794 Y4.4456 I0.0149 J0.002
X-2.2558 Y4.4559 I0.0087 J0.0122 F50.
X-2.2524 Y4.5321 I-0.0633 J0.041 F60.
G1 X-2.254 Y4.5337
X-2.2547 Y4.5342
X-2.2569 Y4.5352
X-2.2573 Y4.5353
X-2.2598 Y4.5354
X-2.2602
X-2.2692 Y4.5328
X-2.27 Y4.5325
X-2.4954 Y4.4123
X-2.507 Y4.4056
G3 X-2.5066 Y4.3798 I0.008 J-0.0127
G1 X-2.504 Y4.3784 Z-0.1672
X-2.5016 Y4.377 Z-0.1664
X-2.4993 Y4.3757 Z-0.165
X-2.4974 Y4.3745 Z-0.1631
X-2.4957 Y4.3736 Z-0.1608
X-2.4945 Y4.3729 Z-0.1582
X-2.4938 Y4.3725 Z-0.1554
X-2.4935 Y4.3723 Z-0.1525
G0 Z-0.1375
X-3.6751 Y3.4651
G1 Z-0.1525 F50.
X-3.6754 Y3.465 Z-0.1554
X-3.6762 Y3.4648 Z-0.1582
X-3.6776 Y3.4644 Z-0.1608
X-3.6794 Y3.4639 Z-0.1631
X-3.6815 Y3.4633 Z-0.165
X-3.684 Y3.4626 Z-0.1664
X-3.6867 Y3.4618 Z-0.1672
X-3.6896 Y3.461 Z-0.1675
G3 X-3.7163 Y3.4455 I0.017 J-0.06
G1 X-3.7714 Y3.3874 F60.
X-3.7812 Y3.3759
X-3.8642 Y3.2783
G3 X-3.8942 Y2.8705 I0.4459 J-0.2378
X-3.4718 Y2.347 I0.8026 J0.2154
G1 X-3.2466 Y2.369
G3 X-3.2346 Y2.3781 I-0.0019 J0.0149
X-3.2661 Y2.4463 I-0.047 J0.0197
X-3.4528 Y2.3708 I-0.048 J-0.15
X-3.4593 Y2.3571 I0.1387 J-0.0745 F50.
G2 X-3.4713 Y2.348 I-0.0138 J0.0058
G1 X-3.5626 Y2.3394 F60.
G2 X-3.8665 Y2.5732 I0.089 J0.4301
X-4.0194 Y3.088 I0.7554 J0.5046
G1 X-3.957 Y3.1681
X-3.9391 Y3.1903
X-3.8642 Y3.2783
G2 X-3.8499 Y3.2829 I0.0111 J-0.0101
X-3.8212 Y3.2468 I-0.0078 J-0.0356
X-3.9888 Y3.0916 I-0.1575 J0.0019
X-4.0039 Y3.0933 I0.0102 J0.1572 F50.
G3 X-4.018 Y3.088 I-0.0024 J-0.0148
G1 X-4.073 Y3.0158 F60.
X-4.0774 Y3.0005
X-4.0813 Y2.9851
X-4.0846 Y2.9695
X-4.0873 Y2.9538
X-4.0894 Y2.938
X-4.0909 Y2.9222
X-4.0917 Y2.9063
X-4.092 Y2.8903
X-4.0917 Y2.8744
X-4.0907 Y2.8585
X-4.0891 Y2.8427
X-4.087 Y2.8269
X-4.0842 Y2.8112
X-4.0808 Y2.7957
X-4.0769 Y2.7803
X-4.0723 Y2.765
X-4.0672 Y2.7499
X-4.0615 Y2.7351
X-4.0552 Y2.7204
X-4.0484 Y2.7061
X-4.041 Y2.6919
X-4.0331 Y2.6781
X-4.0247 Y2.6646
X-4.0157 Y2.6515
G3 X-3.7676 Y2.3192 I0.7215 J0.28
G1 X-3.5626 Y2.3394
G3 X-3.5496 Y2.3562 I-0.0019 J0.0149
X-3.5585 Y2.3691 I-0.0168 J-0.0022
X-3.7442 Y2.3404 I-0.0736 J-0.1392
X-3.7568 Y2.326 I0.1121 J-0.1106 F50.
G2 X-3.7667 Y2.3203 I-0.0119 J0.0092
G1 X-3.8305 Y2.3143 F60.
G2 X-4.0808 Y2.5637 I0.0886 J0.3393
G1 X-4.0915 Y2.5801
X-4.1016 Y2.5969
X-4.1112 Y2.6139
X-4.1204 Y2.6312
X-4.129 Y2.6487
X-4.1371 Y2.6665
X-4.1446 Y2.6845
X-4.1516 Y2.7028
X-4.1581 Y2.7212
X-4.1641 Y2.7399
X-4.1694 Y2.7587
X-4.1743 Y2.7776
X-4.1785 Y2.7967
X-4.1822 Y2.8159
X-4.1853 Y2.8352
X-4.1879 Y2.8546
X-4.1164 Y2.9582
X-4.0991 Y2.9815
X-4.073 Y3.0158
G2 X-4.0589 Y3.0211 I0.0116 J-0.0095
X-4.0468 Y3.0103 I-0.0024 J-0.0149
X-4.158 Y2.8601 I-0.1137 J-0.0321
G1 X-4.1604 F50.
X-4.1605
G2 X-4.1731 Y2.8608 I0. J0.1181
G3 X-4.1869 Y2.8547 I-0.0016 J-0.0149
G1 X-4.2269 Y2.7958 F60.
G3 X-4.1316 Y2.4527 I0.3718 J-0.0815
X-4.0123 Y2.2973 I0.3399 J0.1376
G1 X-3.8305 Y2.3143
G3 X-3.8186 Y2.3234 I-0.0019 J0.0149
X-3.8317 Y2.3628 I-0.029 J0.0122
X-3.9936 Y2.3201 I-0.0596 J-0.1019
X-4.0003 Y2.3064 I0.1022 J-0.0592 F50.
G2 X-4.0123 Y2.2973 I-0.0138 J0.0058
G1 X-4.0625 Y2.2926 F60.
G2 X-4.2887 Y2.5451 I0.0774 J0.297
X-4.3263 Y2.6387 I0.0524 J0.0754
G1 X-4.2734 Y2.7262
X-4.2585 Y2.7494
X-4.2269 Y2.7958
G2 X-4.2132 Y2.8019 I0.0121 J-0.0089
X-4.1895 Y2.7787 I-0.0029 J-0.0267
X-4.2977 Y2.6456 I-0.1171 J-0.0153
X-4.3129 Y2.6455 I-0.0089 J0.1178 F50.
G3 X-4.3263 Y2.6387 I-0.0008 J-0.015
G1 X-4.3575 Y2.587 F60.
G3 X-4.2407 Y2.2763 I0.328 J-0.054
G1 X-4.2383 Y2.2762
X-4.0625 Y2.2926
G3 X-4.0506 Y2.3017 I-0.0019 J0.0149
X-4.0683 Y2.3471 I-0.0323 J0.0135
X-4.2197 Y2.2989 I-0.0492 J-0.1074
X-4.2264 Y2.2853 I0.1022 J-0.0592 F50.
G2 X-4.2383 Y2.2762 I-0.0138 J0.0058
G1 X-4.2817 Y2.2721 F60.
G2 X-4.4466 Y2.431 I0.0283 J0.1944
G1 X-4.4129 Y2.4942
X-4.3996 Y2.5174
X-4.3575 Y2.587
G2 X-4.3442 Y2.5938 I0.0126 J-0.0082
X-4.316 Y2.5664 I-0.0016 J-0.0299
X-4.4185 Y2.4394 I-0.1177 J-0.0099
X-4.4336 Y2.4384 I-0.0152 J0.1171 F50.
G3 X-4.4466 Y2.431 I0. J-0.015
G1 X-4.4714 Y2.3845 F60.
G3 X-4.4416 Y2.256 I0.1122 J-0.0417
G1 X-4.4387 Y2.2565
X-4.4359 Y2.2576
X-4.4334 Y2.2592
X-4.4313 Y2.2611
X-4.4295 Y2.2635
X-4.4282 Y2.2661
X-4.4275 Y2.2688
X-4.4272 Y2.2716
X-4.4275 Y2.2744
X-4.4286 Y2.2813
X-4.4436 Y2.3792
X-4.4444 Y2.3822
X-4.4457 Y2.3849
G3 X-4.4714 Y2.3845 I-0.0127 J-0.0079 F50.
G1 X-4.5119 Y2.3086 F60.
G3 X-4.5122 Y2.2505 I0.0235 J-0.0292
X-4.4825 Y2.3081 I-0.005 J0.039
X-4.4853 Y2.3119 I-0.0148 J-0.0079
X-4.5119 Y2.3086 I-0.012 J-0.0118 F50.
X-4.5337 Y2.254 I0.019 J-0.0393 F60.
G1 X-4.5323 Y2.2526
X-4.5316 Y2.2521
G3 X-4.5177 Y2.25 I0.0099 J0.0191
G1 X-4.2817 Y2.2721
G3 X-4.2714 Y2.2957 I-0.0019 J0.0149
G1 X-4.2731 Y2.2981 Z-0.1672
X-4.2748 Y2.3004 Z-0.1664
X-4.2763 Y2.3025 Z-0.165
X-4.2776 Y2.3043 Z-0.1631
X-4.2787 Y2.3059 Z-0.1608
X-4.2795 Y2.307 Z-0.1582
X-4.28 Y2.3077 Z-0.1554
X-4.2801 Y2.3079 Z-0.1525
G0 Z-0.1375
X-2.8873 Y2.4191
G1 Z-0.1525 F50.
X-2.8871 Y2.419 Z-0.1554
X-2.8863 Y2.4186 Z-0.1582
X-2.885 Y2.418 Z-0.1608
X-2.8833 Y2.4172 Z-0.1631
X-2.8813 Y2.4162 Z-0.165
X-2.8789 Y2.4151 Z-0.1664
X-2.8764 Y2.4139 Z-0.1672
X-2.8738 Y2.4127 Z-0.1675
G3 X-2.8471 Y2.4066 I0.0267 J0.0563
G1 X-2.8434 Y2.4067
X-2.6346 Y2.4263 F60.
G2 X-2.4233 Y2.6286 I0.634 J-0.4506
G1 X-2.4132 Y2.7743
G3 X-2.4201 Y2.7878 I-0.015 J0.0009
G1 X-2.4223 Y2.7886 Z-0.1673
X-2.4244 Y2.7894 Z-0.1668
X-2.4265 Y2.7901 Z-0.1659
X-2.4282 Y2.7902 Z-0.1648
X-2.4303 Y2.7897 Z-0.163
X-2.4321 Y2.7894 Z-0.1607
X-2.4334 Y2.7891 Z-0.1581
X-2.4342 Y2.7889 Z-0.1554
X-2.4345 Y2.7888 Z-0.1525
G0 Z0.4
X-3.6301 Y-1.5279
Z0.1
G3 X-3.5222 Y-1.4346 Z0.0605 I0.0539 J0.0466 F50.
X-3.6301 Y-1.5279 Z0.021 I-0.0539 J-0.0466
X-3.5222 Y-1.4346 Z-0.0185 I0.0539 J0.0466
X-3.6301 Y-1.5279 Z-0.058 I-0.0539 J-0.0466
X-3.5222 Y-1.4346 Z-0.0975 I0.0539 J0.0466
X-3.6301 Y-1.5279 Z-0.137 I-0.0539 J-0.0466
X-3.5048 Y-1.4813 Z-0.1675 I0.0539 J0.0466
X-3.6474 I-0.0713 J0.
X-3.5048 I0.0713 J0.
X-3.6532 Y-1.3554 I-0.0778 J0.0587 F60.
G1 X-3.6615 Y-1.3604
X-3.6695 Y-1.3659
X-3.6771 Y-1.3719
X-3.6843 Y-1.3784
X-3.6911 Y-1.3853
X-3.6974 Y-1.3926
X-3.7033 Y-1.4003
X-3.7087 Y-1.4084
X-3.7135 Y-1.4168
X-3.7178 Y-1.4255
X-3.7216 Y-1.4344
X-3.7247 Y-1.4436
X-3.7273 Y-1.4529
X-3.7294 Y-1.4624
X-3.7308 Y-1.472
X-3.7316 Y-1.4816
X-3.7317 Y-1.4913
X-3.7313 Y-1.501
X-3.7303 Y-1.5107
X-3.7286 Y-1.5202
X-3.7264 Y-1.5296
X-3.7236 Y-1.5389
X-3.7201 Y-1.548
X-3.7162 Y-1.5568
X-3.7116 Y-1.5654
X-3.7066 Y-1.5736
X-3.701 Y-1.5816
X-3.695 Y-1.5891
X-3.6884 Y-1.5963
X-3.6815 Y-1.603
X-3.6741 Y-1.6093
X-3.6663 Y-1.6151
X-3.6582 Y-1.6205
X-3.6498 Y-1.6252
X-3.6411 Y-1.6295
X-3.6321 Y-1.6332
X-3.623 Y-1.6363
X-3.6136 Y-1.6388
X-3.6041 Y-1.6408
X-3.5945 Y-1.6421
X-3.5849 Y-1.6428
X-3.5752 Y-1.6429
X-3.5655 Y-1.6424
X-3.5559 Y-1.6413
X-3.5463 Y-1.6396
X-3.5369 Y-1.6373
X-3.5277 Y-1.6344
X-3.5186 Y-1.631
X-3.5098 Y-1.6269
X-3.5013 Y-1.6223
X-3.4931 Y-1.6172
X-3.4852 Y-1.6116
X-3.4777 Y-1.6055
X-3.4705 Y-1.5989
X-3.4639 Y-1.5919
X-3.4576 Y-1.5845
X-3.4519 Y-1.5767
X-3.4466 Y-1.5686
X-3.4419 Y-1.5601
X-3.4377 Y-1.5514
X-3.4341 Y-1.5424
X-3.431 Y-1.5332
X-3.425 Y-1.5242
X-3.4195 Y-1.5149
X-3.4145 Y-1.5053
X-3.4101 Y-1.4954
X-3.4063 Y-1.4853
X-3.403 Y-1.475
X-3.4003 Y-1.4645
X-3.3983 Y-1.4539
X-3.3968 Y-1.4431
X-3.3959 Y-1.4324
X-3.3957 Y-1.4215
X-3.3961 Y-1.4107
X-3.3971 Y-1.3999
X-3.3987 Y-1.3892
X-3.4009 Y-1.3787
X-3.4037 Y-1.3682
X-3.4071 Y-1.3579
X-3.411 Y-1.3479
X-3.4156 Y-1.338
X-3.4207 Y-1.3285
X-3.4263 Y-1.3193
X-3.4324 Y-1.3103
X-3.4391 Y-1.3018
X-3.4462 Y-1.2936
X-3.4537 Y-1.2859
X-3.4617 Y-1.2786
X-3.4701 Y-1.2718
X-3.4789 Y-1.2654
X-3.488 Y-1.2596
X-3.4974 Y-1.2543
X-3.5071 Y-1.2495
X-3.5171 Y-1.2453
X-3.5273 Y-1.2417
X-3.5377 Y-1.2387
X-3.5482 Y-1.2362
X-3.5589 Y-1.2344
X-3.5696 Y-1.2331
X-3.5804 Y-1.2325
X-3.5912
X-3.602 Y-1.2331
X-3.6128 Y-1.2343
X-3.6234 Y-1.2361
X-3.634 Y-1.2386
X-3.6444 Y-1.2416
X-3.6546 Y-1.2452
X-3.6645 Y-1.2494
X-3.6743 Y-1.2541
X-3.6837 Y-1.2594
X-3.6928 Y-1.2652
X-3.7016 Y-1.2715
X-3.71 Y-1.2784
X-3.718 Y-1.2856
X-3.7256 Y-1.2933
X-3.7354 Y-1.3004
X-3.7449 Y-1.3079
X-3.754 Y-1.3159
X-3.7626 Y-1.3244
X-3.7709 Y-1.3333
X-3.7786 Y-1.3426
X-3.7859 Y-1.3523
X-3.7926 Y-1.3624
X-3.7988 Y-1.3728
X-3.8045 Y-1.3835
X-3.8096 Y-1.3944
X-3.8142 Y-1.4057
X-3.8182 Y-1.4171
X-3.8216 Y-1.4287
X-3.8243 Y-1.4405
X-3.8265 Y-1.4524
X-3.8281 Y-1.4644
X-3.829 Y-1.4765
X-3.8293 Y-1.4886
X-3.829 Y-1.5007
X-3.8281 Y-1.5128
X-3.8266 Y-1.5248
X-3.8244 Y-1.5367
X-3.8217 Y-1.5485
X-3.8183 Y-1.5602
X-3.8144 Y-1.5716
X-3.8098 Y-1.5828
X-3.8047 Y-1.5938
X-3.7991 Y-1.6045
X-3.7928 Y-1.6149
X-3.7861 Y-1.625
X-3.7789 Y-1.6347
X-3.7712 Y-1.644
X-3.763 Y-1.6529
X-3.7543 Y-1.6614
X-3.7453 Y-1.6694
X-3.7358 Y-1.677
X-3.7259 Y-1.6841
X-3.7158 Y-1.6906
X-3.7052 Y-1.6966
X-3.6944 Y-1.7021
X-3.6834 Y-1.707
X-3.6721 Y-1.7113
G3 X-3.4967 Y-1.1565 I0.0877 J0.2774
X-3.7062 Y-1.1698 I-0.0877 J-0.2774
X-3.6684 Y-1.8139 I0.1196 J-0.3162
G1 X-3.6531 Y-1.8168
X-3.6377 Y-1.8191
X-3.6222 Y-1.8207
X-3.6067 Y-1.8218
X-3.5911 Y-1.8222
X-3.5755 Y-1.822
X-3.56 Y-1.8212
X-3.5445 Y-1.8197
X-3.529 Y-1.8177
X-3.5137 Y-1.815
X-3.4985 Y-1.8117
X-3.4834 Y-1.8078
X-3.4685 Y-1.8033
X-3.4538 Y-1.7982
X-3.4393 Y-1.7926
X-3.425 Y-1.7863
X-3.411 Y-1.7795
X-3.3973 Y-1.7721
X-3.3839 Y-1.7642
X-3.3708 Y-1.7558
X-3.3581 Y-1.7468
X-3.3457 Y-1.7374
X-3.3337 Y-1.7274
X-3.3222 Y-1.717
X-3.311 Y-1.7061
X-3.3003 Y-1.6948
X-3.2901 Y-1.6831
X-3.2803 Y-1.671
X-3.271 Y-1.6584
X-3.2623 Y-1.6456
X-3.254 Y-1.6324
X-3.2463 Y-1.6188
X-3.2392 Y-1.605
X-3.2326 Y-1.5909
X-3.2266 Y-1.5765
X-3.2211 Y-1.562
X-3.2162 Y-1.5472
X-3.212 Y-1.5322
X-3.2083 Y-1.5171
X-3.2053 Y-1.5018
X-3.2028 Y-1.4864
X-3.201 Y-1.471
X-3.1998 Y-1.4554
X-3.1992 Y-1.4399
Y-1.4243
X-3.1999 Y-1.4087
X-3.2012 Y-1.3932
X-3.2031 Y-1.3778
X-3.2056 Y-1.3624
X-3.2088 Y-1.3472
X-3.2125 Y-1.332
X-3.2168 Y-1.3171
X-3.2218 Y-1.3023
X-3.2273 Y-1.2878
X-3.2334 Y-1.2734
X-3.2401 Y-1.2594
X-3.2473 Y-1.2456
X-3.2551 Y-1.2321
X-3.2634 Y-1.2189
X-3.2722 Y-1.2061
X-3.2815 Y-1.1936
X-3.2914 Y-1.1816
X-3.3017 Y-1.1699
X-3.3124 Y-1.1586
X-3.3236 Y-1.1478
X-3.3353 Y-1.1375
X-3.3473 Y-1.1276
X-3.3597 Y-1.1182
X-3.3725 Y-1.1093
X-3.3856 Y-1.1009
X-3.3991 Y-1.0931
X-3.4128 Y-1.0858
X-3.4269 Y-1.079
X-3.4411 Y-1.0729
X-3.4557 Y-1.0673
X-3.4704 Y-1.0623
X-3.4853 Y-1.0578
X-3.5004 Y-1.054
X-3.5157 Y-1.0508
X-3.531 Y-1.0482
X-3.5465 Y-1.0462
X-3.562 Y-1.0449
X-3.5775 Y-1.0441
X-3.5931 Y-1.044
X-3.6087 Y-1.0445
X-3.6242 Y-1.0457
X-3.6397 Y-1.0474
X-3.655 Y-1.0498
X-3.6703 Y-1.0527
X-3.6855 Y-1.0563
X-3.7005 Y-1.0605
X-3.7153 Y-1.0653
X-3.7299 Y-1.0707
X-3.7443 Y-1.0766
X-3.7584 Y-1.0832
X-3.7723 Y-1.0903
X-3.7858 Y-1.0979
X-3.7991 Y-1.1061
X-3.812 Y-1.1148
X-3.8246 Y-1.124
X-3.8367 Y-1.1337
X-3.8485 Y-1.1439
X-3.8599 Y-1.1545
X-3.8708 Y-1.1656
G3 X-4.02 Y-1.4867 I0.2385 J-0.306
X-3.1304 Y-1.5588 I0.4485 J0.0098
X-3.1056 Y-1.3811 I-0.3094 J0.1337
G1 X-3.1827 Y-1.1949
X-3.1872 Y-1.1821
X-3.1956 Y-1.1677
X-3.2046 Y-1.1536
X-3.2141 Y-1.1398
X-3.224 Y-1.1264
X-3.2345 Y-1.1134
X-3.2454 Y-1.1007
X-3.2568 Y-1.0884
X-3.2686 Y-1.0766
X-3.2808 Y-1.0652
X-3.2934 Y-1.0542
X-3.3064 Y-1.0438
X-3.3198 Y-1.0338
X-3.3336 Y-1.0242
X-3.3477 Y-1.0152
X-3.3621 Y-1.0067
X-3.3768 Y-0.9988
X-3.3917 Y-0.9913
X-3.407 Y-0.9844
X-3.4225 Y-0.9781
X-3.4381 Y-0.9724
X-3.454 Y-0.9672
X-3.4701 Y-0.9626
X-3.4863 Y-0.9585
X-3.5027 Y-0.9551
X-3.5192 Y-0.9523
X-3.5357 Y-0.95
X-3.5524 Y-0.9484
X-3.5691 Y-0.9474
X-3.5858 Y-0.9469
X-3.6025 Y-0.9471
X-3.6192 Y-0.9479
X-3.6359 Y-0.9493
X-3.6524 Y-0.9513
X-3.669 Y-0.9539
X-3.6854 Y-0.9571
X-3.7017 Y-0.9608
X-3.7178 Y-0.9652
X-3.7338 Y-0.9702
X-3.7495 Y-0.9757
X-3.7651 Y-0.9818
X-3.7804 Y-0.9885
X-4.0686 Y-1.3341
G3 X-3.9693 Y-1.8536 I0.4174 J-0.1895
X-3.8798 Y-1.928 I0.1459 J0.0845
G1 X-3.4234 Y-1.9707
G3 X-3.0659 Y-1.6887 I-0.0637 J0.4483
X-3.0214 Y-1.5549 I-0.2675 J0.1633
G1 X-3.0851 Y-1.4269
X-3.0962 Y-1.4037
X-3.1056 Y-1.3811
G3 X-3.1178 Y-1.3723 I-0.0137 J-0.0062
X-3.1413 Y-1.3869 I-0.0022 J-0.0227
X-3.0493 Y-1.5456 I0.1104 J-0.042
X-3.0342 Y-1.547 I0.0184 J0.1167 F50.
G2 X-3.0214 Y-1.5549 I-0.0004 J-0.015
G1 X-2.9927 Y-1.6125 F60.
X-2.9896 Y-1.6181
G2 X-3.1786 Y-1.9704 I-0.3474 J-0.0405
X-3.1977 Y-1.9918 I-0.02 J-0.0014
G1 X-3.4234 Y-1.9707
G2 X-3.4353 Y-1.9616 I0.0019 J0.0149
X-3.4046 Y-1.8941 I0.0466 J0.0195
X-3.2162 Y-1.969 I0.0497 J-0.1494
X-3.2096 Y-1.9827 I-0.1387 J-0.0745 F50.
G3 X-3.1977 Y-1.9918 I0.0138 J0.0058
G1 X-3.1322 Y-1.9979 F60.
G3 X-2.9019 Y-1.7682 I-0.068 J0.2985
G1 X-2.9826 Y-1.6309
X-2.9896 Y-1.6181
G3 X-3.0027 Y-1.6108 I-0.0129 J-0.0077
X-3.0381 Y-1.6481 I0.0004 J-0.0359
X-2.9304 Y-1.7609 I0.118 J0.0049
X-2.9152 Y-1.7612 I0.0103 J0.1177 F50.
G2 X-2.9019 Y-1.7682 I0.0006 J-0.015
G1 X-2.8774 Y-1.8098 F60.
G2 X-2.9501 Y-2.015 I-0.1818 J-0.0511
G1 X-3.1322 Y-1.9979
G2 X-3.1442 Y-1.9889 I0.0019 J0.0149
X-3.1313 Y-1.9499 I0.0288 J0.0121
X-2.9688 Y-1.9923 I0.0603 J-0.1016
X-2.9621 Y-2.0059 I-0.1022 J-0.0592 F50.
G3 X-2.9501 Y-2.015 I0.0138 J0.0058
G1 X-2.906 Y-2.0191 F60.
G3 X-2.7937 Y-1.9319 I-0.0009 J0.1171
G1 X-2.7955 Y-1.9297
X-2.7977 Y-1.9278
X-2.8001 Y-1.9264
X-2.8027 Y-1.9255
X-2.8055 Y-1.925
X-2.8082
X-2.8109 Y-1.9255
X-2.8134 Y-1.9265
X-2.8157 Y-1.9278
X-2.8225 Y-1.9323
X-2.9123 Y-1.9917
X-2.9145 Y-1.9934
X-2.9163 Y-1.9955
G3 X-2.906 Y-2.0191 I0.0122 J-0.0087 F50.
G1 X-2.8202 Y-2.0272 F60.
G3 X-2.7516 Y-1.9953 I0.021 J0.0445
X-2.7659 Y-1.9893 I-0.0121 J-0.0089
G1 X-2.7804 Y-1.9915
X-2.8205 Y-1.9974
G3 X-2.8305 Y-2.0036 I0.0022 J-0.0148
X-2.8202 Y-2.0272 I0.0122 J-0.0087 F50.
X-2.738 Y-2.0302 I0.0435 J0.0636 F60.
G1 X-2.7368 Y-2.0287
X-2.7364 Y-2.028
X-2.7356 Y-2.0258
G3 X-2.7436 Y-2.007 I-0.0233 J0.0013
G1 X-2.8666 Y-1.8276
X-2.8706 Y-1.8214
X-2.8774 Y-1.8098
G3 X-2.9032 Y-1.8104 I-0.0127 J-0.0081
G1 X-2.9046 Y-1.813 Z-0.1672
X-2.906 Y-1.8154 Z-0.1664
X-2.9073 Y-1.8177 Z-0.165
X-2.9084 Y-1.8196 Z-0.1631
X-2.9093 Y-1.8213 Z-0.1608
X-2.91 Y-1.8225 Z-0.1582
X-2.9104 Y-1.8232 Z-0.1554
X-2.9106 Y-1.8235 Z-0.1525
G0 Z-0.1375
X-3.8359 Y-1.9156
G1 Z-0.1525 F50.
X-3.8362 Y-1.9157 Z-0.1554
X-3.8369 Y-1.9161 Z-0.1582
X-3.8382 Y-1.9167 Z-0.1608
X-3.8399 Y-1.9175 Z-0.1631
X-3.8419 Y-1.9185 Z-0.165
X-3.8443 Y-1.9196 Z-0.1664
X-3.8468 Y-1.9208 Z-0.1672
X-3.8495 Y-1.9221 Z-0.1675
G2 X-3.8762 Y-1.9281 I-0.0267 J0.0563
G1 X-3.8798 Y-1.928
X-3.9802 Y-1.9186 F60.
G2 X-4.2045 Y-1.5925 I0.1641 J0.3531
X-4.2104 Y-1.5052 I0.0937 J0.0501
G1 X-4.0686 Y-1.3341
G2 X-4.0543 Y-1.3294 I0.0112 J-0.01
X-4.0155 Y-1.3973 I-0.0105 J-0.051
X-4.1811 Y-1.5028 I-0.149 J0.051
X-4.1962 Y-1.5005 I0.0166 J0.1566 F50.
G3 X-4.2104 Y-1.5052 I-0.003 J-0.0147
G1 X-4.2501 Y-1.5531 F60.
G3 X-4.1733 Y-1.892 I0.267 J-0.1176
G1 X-4.1763 Y-1.8989
X-4.1743 Y-1.9001
X-4.172 Y-1.9006
X-3.9802 Y-1.9186
G3 X-3.9668 Y-1.9119 I0.0009 J0.015
X-3.968 Y-1.8848 I-0.0192 J0.0126
X-4.1494 Y-1.8818 I-0.092 J-0.0741
X-4.1586 Y-1.8939 I0.0894 J-0.0772 F50.
G2 X-4.172 Y-1.9006 I-0.0125 J0.0083
G1 X-4.2249 Y-1.8957 F60.
G2 X-4.3684 Y-1.6958 I0.0733 J0.204
G1 X-4.2501 Y-1.5531
G2 X-4.2359 Y-1.5484 I0.0112 J-0.01
X-4.2123 Y-1.5779 I-0.0059 J-0.0289
X-4.3391 Y-1.6932 I-0.1181 J0.0025
X-4.3541 Y-1.6911 I0.0087 J0.1178 F50.
G3 X-4.3684 Y-1.6958 I-0.003 J-0.0147
G1 X-4.3955 Y-1.7285 F60.
X-4.4002 Y-1.7358
X-4.4045 Y-1.7433
X-4.4082 Y-1.7511
X-4.4114 Y-1.7591
X-4.414 Y-1.7673
X-4.4161 Y-1.7757
X-4.4176 Y-1.7842
X-4.4185 Y-1.7928
X-4.4188 Y-1.8014
X-4.4185 Y-1.81
X-4.4176 Y-1.8186
X-4.4162 Y-1.8271
X-4.4141 Y-1.8355
X-4.4115 Y-1.8437
X-4.4084 Y-1.8518
X-4.4047 Y-1.8596
X-4.4005 Y-1.8671
X-4.3957 Y-1.8743
X-4.3905 Y-1.8812
X-4.3876
X-4.3847 Y-1.8806
X-4.382 Y-1.8796
X-4.3795 Y-1.878
X-4.3774 Y-1.8761
X-4.3757 Y-1.8738
X-4.3745 Y-1.8713
X-4.3737 Y-1.8686
X-4.3735 Y-1.8658
X-4.3733 Y-1.8588
X-4.3693 Y-1.739
X-4.3694 Y-1.7361
X-4.3702 Y-1.7333
G3 X-4.3955 Y-1.7285 I-0.0141 J-0.0052 F50.
G1 X-4.4575 Y-1.8033 F60.
G3 X-4.4697 Y-1.8728 I0.0167 J-0.0387
X-4.4554 Y-1.8646 I0.0009 J0.015
G1 X-4.4493 Y-1.8525
X-4.4329 Y-1.8201
G3 X-4.4322 Y-1.8081 I-0.0134 J0.0068
X-4.4575 Y-1.8033 I-0.0141 J-0.0052 F50.
X-4.5004 Y-1.8612 I0.0304 J-0.0675 F60.
G1 X-4.5 Y-1.8634
X-4.4997 Y-1.8641
X-4.4983 Y-1.8663
X-4.4979 Y-1.8667
X-4.4957 Y-1.8683
X-4.4847 Y-1.8713
X-4.2249 Y-1.8957
G3 X-4.2104 Y-1.8744 I0.0009 J0.015
G1 X-4.2116 Y-1.8718 Z-0.1672
X-4.2128 Y-1.8692 Z-0.1664
X-4.2139 Y-1.8668 Z-0.165
X-4.2148 Y-1.8648 Z-0.1631
X-4.2156 Y-1.8631 Z-0.1608
X-4.2162 Y-1.8618 Z-0.1582
X-4.2165 Y-1.861 Z-0.1554
X-4.2167 Y-1.8608 Z-0.1525
G0 Z-0.1375
X-3.7956 Y-1.0304
G1 Z-0.1525 F50.
X-3.7955 Y-1.0301 Z-0.1554
X-3.7954 Y-1.0293 Z-0.1582
X-3.7952 Y-1.0279 Z-0.1608
X-3.7949 Y-1.0261 Z-0.1631
X-3.7945 Y-1.0238 Z-0.165
X-3.7941 Y-1.0213 Z-0.1664
X-3.7937 Y-1.0185 Z-0.1672
X-3.7932 Y-1.0156 Z-0.1675
G2 X-3.781 Y-0.9872 I0.0616 J-0.0097
G1 X-3.7224 Y-0.9165 F60.
G2 X-3.3517 Y-0.9027 I0.1959 J-0.2771
X-3.2626 Y-0.9545 I-0.0078 J-0.1159
G3 X-3.1872 Y-1.1821 I3.9671 J1.1879
G2 X-3.1905 Y-1.1968 I-0.0143 J-0.0044
X-3.2682 Y-1.1995 I-0.0402 J0.0372
X-3.2778 Y-0.9796 I0.1078 J0.1148
X-3.2671 Y-0.9688 I0.1173 J-0.1051 F50.
G3 X-3.2626 Y-0.9545 I-0.0102 J0.011
G1 X-3.2785 Y-0.8933 F60.
G3 X-3.5938 Y-0.7618 I-0.2582 J-0.1754
G1 X-3.5955 Y-0.7633
X-3.7224 Y-0.9165
G3 X-3.7244 Y-0.9313 I0.0119 J-0.0092
X-3.7105 Y-0.941 I0.0145 J0.0059
X-3.5926 Y-0.7926 I0.0037 J0.1181
X-3.5975 Y-0.7782 I-0.1141 J-0.0304 F50.
G2 X-3.5955 Y-0.7633 I0.0139 J0.0057
G1 X-3.5626 Y-0.7236 F60.
G2 X-3.322 Y-0.72 I0.1228 J-0.1649
G1 X-3.32 Y-0.7309
X-3.3146 Y-0.7541
X-3.2785 Y-0.8933
G2 X-3.2829 Y-0.9076 I-0.0147 J-0.0033
X-3.3421 Y-0.9046 I-0.0281 J0.0306
X-3.3387 Y-0.7442 I0.0883 J0.0784
X-3.3275 Y-0.7339 I0.085 J-0.082 F50.
G3 X-3.322 Y-0.72 I-0.0094 J0.0117
G1 X-3.3287 Y-0.6845 F60.
G3 X-3.4575 Y-0.5954 I-0.1187 J-0.034
G1 X-3.4591 Y-0.5978
X-3.4602 Y-0.6004
X-3.4608 Y-0.6031
X-3.461 Y-0.6059
X-3.4606 Y-0.6086
X-3.4598 Y-0.6113
X-3.4585 Y-0.6137
X-3.4568 Y-0.6158
X-3.4548 Y-0.6176
X-3.4489 Y-0.6223
X-3.3528 Y-0.6985
X-3.3508 Y-0.6998
X-3.3485 Y-0.7008
G3 X-3.3287 Y-0.6845 I0.005 J0.0142 F50.
G1 X-3.346 Y-0.5916 F60.
G3 X-3.4037 Y-0.5319 I-0.0645 J-0.0045
X-3.4047 Y-0.5487 I0.0119 J-0.0092
G1 X-3.3981 Y-0.56
X-3.3738 Y-0.6015
G3 X-3.3658 Y-0.608 I0.0129 J0.0076
X-3.346 Y-0.5916 I0.005 J0.0142 F50.
G1 X-3.359 Y-0.522 F60.
X-3.3616 Y-0.5124
X-3.3642 Y-0.5051
X-3.3645 Y-0.5044
X-3.3662 Y-0.5025
X-3.3667 Y-0.502
X-3.3693 Y-0.5007
X-3.3722 Y-0.5005
X-3.3727
G3 X-3.3849 Y-0.5093 I0.005 J-0.0201
G1 X-3.5626 Y-0.7236
G3 X-3.5657 Y-0.7328 I0.0119 J-0.0092
G1 X-3.5654 Y-0.7358
X-3.5645 Y-0.7387
X-3.5631 Y-0.7406 Z-0.1673
X-3.5618 Y-0.7424 Z-0.1668
X-3.5605 Y-0.7441 Z-0.1659
X-3.5586 Y-0.7451 Z-0.1645
X-3.557 Y-0.746 Z-0.1629
X-3.5556 Y-0.7467 Z-0.1609
X-3.5545 Y-0.7473 Z-0.1587
X-3.5538 Y-0.7475 Z-0.1567
X-3.5534 Y-0.7476 Z-0.1546
X-3.5532 Z-0.1525
G0 Z0.4
X-3.6301 Y1.4346
Z0.1
G3 X-3.5222 Y1.5279 Z0.0605 I0.0539 J0.0466 F50.
X-3.6301 Y1.4346 Z0.021 I-0.0539 J-0.0466
X-3.5222 Y1.5279 Z-0.0185 I0.0539 J0.0466
X-3.6301 Y1.4346 Z-0.058 I-0.0539 J-0.0466
X-3.5222 Y1.5279 Z-0.0975 I0.0539 J0.0466
X-3.6301 Y1.4346 Z-0.137 I-0.0539 J-0.0466
X-3.5048 Y1.4813 Z-0.1675 I0.0539 J0.0466
X-3.6474 I-0.0713 J0.
X-3.5048 I0.0713 J0.
X-3.6532 Y1.6072 I-0.0778 J0.0587 F60.
G1 X-3.6615 Y1.6022
X-3.6695 Y1.5966
X-3.6771 Y1.5906
X-3.6843 Y1.5842
X-3.6911 Y1.5773
X-3.6974 Y1.5699
X-3.7033 Y1.5622
X-3.7087 Y1.5541
X-3.7135 Y1.5457
X-3.7178 Y1.5371
X-3.7216 Y1.5281
X-3.7247 Y1.519
X-3.7273 Y1.5096
X-3.7293 Y1.5002
X-3.7308 Y1.4906
X-3.7315 Y1.4809
X-3.7317 Y1.4712
X-3.7313 Y1.4615
X-3.7303 Y1.4519
X-3.7286 Y1.4423
X-3.7264 Y1.4329
X-3.7236 Y1.4237
X-3.7201 Y1.4146
X-3.7162 Y1.4057
X-3.7116 Y1.3972
X-3.7066 Y1.3889
X-3.701 Y1.381
X-3.695 Y1.3734
X-3.6884 Y1.3662
X-3.6815 Y1.3595
X-3.6741 Y1.3532
X-3.6663 Y1.3474
X-3.6582 Y1.3421
X-3.6498 Y1.3373
X-3.6411 Y1.3331
X-3.6321 Y1.3294
X-3.623 Y1.3263
X-3.6136 Y1.3237
X-3.6041 Y1.3218
X-3.5945 Y1.3205
X-3.5849 Y1.3197
X-3.5752 Y1.3196
X-3.5655 Y1.3201
X-3.5559 Y1.3212
X-3.5463 Y1.3229
X-3.5369 Y1.3252
X-3.5277 Y1.3281
X-3.5186 Y1.3316
X-3.5098 Y1.3356
X-3.5013 Y1.3402
X-3.4931 Y1.3453
X-3.4852 Y1.351
X-3.4777 Y1.3571
X-3.4705 Y1.3636
X-3.4639 Y1.3706
X-3.4576 Y1.3781
X-3.4519 Y1.3859
X-3.4466 Y1.394
X-3.4419 Y1.4025
X-3.4377 Y1.4112
X-3.4341 Y1.4202
X-3.431 Y1.4294
X-3.425 Y1.4384
X-3.4195 Y1.4477
X-3.4145 Y1.4573
X-3.4101 Y1.4672
X-3.4063 Y1.4773
X-3.403 Y1.4876
X-3.4003 Y1.4981
X-3.3983 Y1.5087
X-3.3968 Y1.5194
X-3.3959 Y1.5302
X-3.3957 Y1.541
X-3.3961 Y1.5518
X-3.3971 Y1.5626
X-3.3987 Y1.5733
X-3.4009 Y1.5839
X-3.4037 Y1.5943
X-3.4071 Y1.6046
X-3.411 Y1.6147
X-3.4156 Y1.6245
X-3.4207 Y1.6341
X-3.4263 Y1.6433
X-3.4324 Y1.6522
X-3.4391 Y1.6608
X-3.4462 Y1.6689
X-3.4537 Y1.6766
X-3.4617 Y1.6839
X-3.4701 Y1.6908
X-3.4789 Y1.6971
X-3.488 Y1.7029
X-3.4974 Y1.7083
X-3.5071 Y1.713
X-3.5171 Y1.7172
X-3.5273 Y1.7208
X-3.5377 Y1.7239
X-3.5482 Y1.7263
X-3.5589 Y1.7282
X-3.5696 Y1.7294
X-3.5804 Y1.7301
X-3.5912
X-3.602 Y1.7295
X-3.6128 Y1.7282
X-3.6234 Y1.7264
X-3.634 Y1.724
X-3.6444 Y1.721
X-3.6546 Y1.7174
X-3.6645 Y1.7132
X-3.6743 Y1.7084
X-3.6837 Y1.7031
X-3.6928 Y1.6973
X-3.7016 Y1.691
X-3.71 Y1.6842
X-3.718 Y1.6769
X-3.7256 Y1.6692
X-3.7354 Y1.6622
X-3.7449 Y1.6546
X-3.754 Y1.6466
X-3.7626 Y1.6381
X-3.7709 Y1.6292
X-3.7786 Y1.6199
X-3.7859 Y1.6102
X-3.7926 Y1.6002
X-3.7988 Y1.5898
X-3.8045 Y1.5791
X-3.8096 Y1.5681
X-3.8142 Y1.5569
X-3.8182 Y1.5455
X-3.8216 Y1.5338
X-3.8243 Y1.522
X-3.8265 Y1.5101
X-3.8281 Y1.4981
X-3.829 Y1.486
X-3.8293 Y1.4739
X-3.829 Y1.4618
X-3.8281 Y1.4498
X-3.8266 Y1.4377
X-3.8244 Y1.4258
X-3.8217 Y1.414
X-3.8183 Y1.4024
X-3.8144 Y1.391
X-3.8098 Y1.3797
X-3.8047 Y1.3687
X-3.799 Y1.358
X-3.7928 Y1.3476
X-3.7861 Y1.3376
X-3.7789 Y1.3279
X-3.7711 Y1.3185
X-3.763 Y1.3096
X-3.7543 Y1.3011
X-3.7452 Y1.2931
X-3.7358 Y1.2856
X-3.7259 Y1.2785
X-3.7158 Y1.272
X-3.7052 Y1.2659
X-3.6944 Y1.2605
X-3.6834 Y1.2556
X-3.6721 Y1.2512
G3 X-3.4967 Y1.806 I0.0877 J0.2774
X-3.7062 Y1.7928 I-0.0877 J-0.2774
X-3.6684 Y1.1487 I0.1196 J-0.3162
G1 X-3.6531 Y1.1458
X-3.6377 Y1.1435
X-3.6222 Y1.1418
X-3.6067 Y1.1408
X-3.5911 Y1.1404
X-3.5755 Y1.1406
X-3.56 Y1.1414
X-3.5445 Y1.1428
X-3.529 Y1.1449
X-3.5137 Y1.1476
X-3.4985 Y1.1508
X-3.4834 Y1.1547
X-3.4685 Y1.1592
X-3.4538 Y1.1643
X-3.4393 Y1.17
X-3.425 Y1.1762
X-3.411 Y1.1831
X-3.3973 Y1.1904
X-3.3839 Y1.1983
X-3.3708 Y1.2068
X-3.3581 Y1.2157
X-3.3457 Y1.2252
X-3.3337 Y1.2351
X-3.3222 Y1.2456
X-3.311 Y1.2564
X-3.3003 Y1.2677
X-3.2901 Y1.2795
X-3.2803 Y1.2916
X-3.271 Y1.3041
X-3.2623 Y1.317
X-3.254 Y1.3302
X-3.2463 Y1.3437
X-3.2392 Y1.3576
X-3.2326 Y1.3717
X-3.2266 Y1.386
X-3.2211 Y1.4006
X-3.2162 Y1.4154
X-3.212 Y1.4304
X-3.2083 Y1.4455
X-3.2053 Y1.4608
X-3.2028 Y1.4761
X-3.201 Y1.4916
X-3.1998 Y1.5071
X-3.1992 Y1.5227
Y1.5383
X-3.1999 Y1.5538
X-3.2012 Y1.5693
X-3.2031 Y1.5848
X-3.2056 Y1.6001
X-3.2088 Y1.6154
X-3.2125 Y1.6305
X-3.2168 Y1.6455
X-3.2218 Y1.6602
X-3.2273 Y1.6748
X-3.2334 Y1.6891
X-3.2401 Y1.7032
X-3.2473 Y1.717
X-3.2551 Y1.7305
X-3.2634 Y1.7436
X-3.2722 Y1.7564
X-3.2815 Y1.7689
X-3.2914 Y1.781
X-3.3017 Y1.7927
X-3.3124 Y1.8039
X-3.3236 Y1.8147
X-3.3353 Y1.8251
X-3.3473 Y1.835
X-3.3597 Y1.8444
X-3.3725 Y1.8533
X-3.3856 Y1.8616
X-3.3991 Y1.8695
X-3.4128 Y1.8768
X-3.4268 Y1.8835
X-3.4411 Y1.8897
X-3.4557 Y1.8953
X-3.4704 Y1.9003
X-3.4853 Y1.9047
X-3.5004 Y1.9085
X-3.5157 Y1.9117
X-3.531 Y1.9143
X-3.5465 Y1.9163
X-3.562 Y1.9177
X-3.5775 Y1.9184
X-3.5931 Y1.9185
X-3.6087 Y1.918
X-3.6242 Y1.9169
X-3.6397 Y1.9152
X-3.655 Y1.9128
X-3.6703 Y1.9098
X-3.6855 Y1.9062
X-3.7005 Y1.902
X-3.7153 Y1.8972
X-3.7299 Y1.8919
X-3.7443 Y1.8859
X-3.7584 Y1.8794
X-3.7723 Y1.8723
X-3.7858 Y1.8647
X-3.7991 Y1.8565
X-3.812 Y1.8478
X-3.8246 Y1.8386
X-3.8367 Y1.8289
X-3.8485 Y1.8187
X-3.8599 Y1.8081
X-3.8708 Y1.797
G3 X-4.02 Y1.4759 I0.2385 J-0.306
X-3.1304 Y1.4037 I0.4485 J0.0098
G1 X-3.1253 Y1.4193
X-3.1208 Y1.4352
X-3.1168 Y1.4511
X-3.1135 Y1.4672
X-3.1108 Y1.4834
X-3.1086 Y1.4997
X-3.1071 Y1.5161
X-3.1061 Y1.5325
X-3.1058 Y1.549
X-3.1061 Y1.5654
X-3.1069 Y1.5818
X-3.1084 Y1.5982
X-3.1105 Y1.6145
X-3.1131 Y1.6308
X-3.1164 Y1.6469
X-3.1203 Y1.6629
X-3.1247 Y1.6787
X-3.1297 Y1.6943
X-3.1353 Y1.7098
X-3.1415 Y1.7251
X-3.1482 Y1.7401
X-3.1554 Y1.7548
X-3.1632 Y1.7693
X-3.1716 Y1.7835
X-3.1804 Y1.7974
X-3.1897 Y1.8109
X-3.1996 Y1.8241
X-3.2099 Y1.8369
X-3.2207 Y1.8493
X-3.2319 Y1.8613
X-3.2435 Y1.8729
X-3.2556 Y1.8841
X-3.2681 Y1.8948
X-3.281 Y1.905
X-3.2942 Y1.9148
X-3.3078 Y1.9241
X-3.3217 Y1.9328
X-3.3359 Y1.9411
X-3.3504 Y1.9488
X-3.3652 Y1.956
X-3.3803 Y1.9626
G3 X-3.3988 Y1.973 I-0.0188 J-0.0118
G1 X-3.8178 Y1.9338
G3 X-4.1154 Y1.4373 I0.1702 J-0.4395
X-4.1065 Y1.3799 I0.0759 J-0.0177
G1 X-3.8178 Y1.0315
G3 X-3.3631 Y0.9835 I0.2644 J0.3271
X-3.2246 Y1.0707 I-0.088 J0.2933
G1 X-3.1908 Y1.1717
X-3.1827 Y1.1949
X-3.0962 Y1.4037
X-3.0851 Y1.4269
X-3.0389 Y1.5197
G3 X-3.1837 Y1.9485 I-0.4165 J0.0982
X-3.2343 Y1.9884 I-0.0587 J-0.0224
G1 X-3.3988 Y1.973
G3 X-3.4107 Y1.9639 I0.0019 J-0.0149
X-3.3839 Y1.9104 I0.0364 J-0.0152
X-3.2529 Y1.9657 I0.0288 J0.1146
X-3.2462 Y1.9793 I-0.1022 J0.0592 F50.
G2 X-3.2343 Y1.9884 I0.0138 J-0.0058
G1 X-3.1682 Y1.9946 F60.
G2 X-2.9354 Y1.7135 I-0.1001 J-0.3199
G1 X-2.9357 Y1.7113
X-2.9365 Y1.7093
X-2.9826 Y1.6309
X-2.9927 Y1.6125
X-3.0389 Y1.5197
G2 X-3.0665 Y1.5226 I-0.0132 J0.0072
X-3.0681 Y1.5302 I0.0441 J0.0131
X-2.9643 Y1.6974 I0.1564 J0.0187
X-2.9459 Y1.7027 I0.0526 J-0.1484 F50.
G3 X-2.9365 Y1.7093 I-0.0033 J0.0147
G1 X-2.9047 Y1.7633 F60.
G3 X-2.9946 Y2.0108 I-0.2418 J0.0523
G1 X-3.1682 Y1.9946
G3 X-3.1801 Y1.9855 I0.0019 J-0.0149
X-3.1607 Y1.9382 I0.0333 J-0.0139
X-3.0132 Y1.9881 I0.0452 J0.1091
X-3.0065 Y2.0017 I-0.1022 J0.0592 F50.
G2 X-2.9946 Y2.0108 I0.0138 J-0.0058
G1 X-2.9466 Y2.0153 F60.
G2 X-2.8175 Y1.8992 I-0.0169 J-0.1487
G1 X-2.8666 Y1.8276
X-2.8706 Y1.8214
X-2.9047 Y1.7633
G2 X-2.918 Y1.7564 I-0.0127 J0.0081
X-2.9568 Y1.812 I0.0018 J0.0425
X-2.8464 Y1.894 I0.1125 J-0.0361
X-2.8312 Y1.8932 I0.0021 J-0.1181 F50.
G3 X-2.8175 Y1.8992 I0.0017 J0.0149
G1 X-2.797 Y1.9291 F60.
G3 X-2.8086 Y2.0295 I-0.0756 J0.0422
G1 X-2.8116 Y2.029
X-2.8145 Y2.0279
X-2.8171 Y2.0263
X-2.8193 Y2.0242
X-2.8211 Y2.0218
X-2.8223 Y2.0191
X-2.823 Y2.0163
X-2.8232 Y2.0134
X-2.8233 Y2.0039
X-2.8241 Y1.9382
X-2.8237 Y1.9348
X-2.8226 Y1.9315
G3 X-2.797 Y1.9291 I0.0135 J0.0065 F50.
G1 X-2.7546 Y1.9909 F60.
G3 X-2.7511 Y2.0332 I-0.0124 J0.0223
X-2.7564 Y2.0292 I-0.0003 J-0.0051
G1 X-2.7601 Y2.0118
X-2.7637 Y1.995 F50.
G3 X-2.7546 Y1.9909 I0.005 J-0.0011
X-2.742 Y2.0323 I-0.0001 J0.0227 F60.
G1 X-2.7528 Y2.0334
X-2.7535
X-2.9466 Y2.0153
G3 X-2.957 Y1.9917 I0.0019 J-0.0149
G1 X-2.9553 Y1.9894 Z-0.1672
X-2.9536 Y1.9871 Z-0.1664
X-2.9521 Y1.9849 Z-0.165
X-2.9508 Y1.9831 Z-0.1631
X-2.9497 Y1.9816 Z-0.1608
X-2.9489 Y1.9804 Z-0.1582
X-2.9484 Y1.9797 Z-0.1554
X-2.9483 Y1.9795 Z-0.1525
G0 Z-0.1375
X-3.2266 Y1.1163
G1 Z-0.1525 F50.
Y1.116 Z-0.1554
X-3.2264 Y1.1152 Z-0.1582
X-3.2261 Y1.1138 Z-0.1608
X-3.2257 Y1.112 Z-0.1631
X-3.2252 Y1.1098 Z-0.165
X-3.2247 Y1.1073 Z-0.1664
X-3.2241 Y1.1045 Z-0.1672
X-3.2234 Y1.1016 Z-0.1675
G2 X-3.2246 Y1.0707 I-0.0609 J-0.0132
G1 X-3.253 Y0.9861 F60.
G2 X-3.5885 Y0.8429 I-0.2823 J0.1968
X-3.67 Y0.8532 I-0.0293 J0.0956
G1 X-3.8178 Y1.0315
G2 X-3.8198 Y1.0464 I0.0119 J0.0092
X-3.7558 Y1.0726 I0.0449 J-0.0184
X-3.6669 Y0.8824 I-0.0619 J-0.1448
X-3.672 Y0.8681 I-0.1508 J0.0454 F50.
G3 X-3.67 Y0.8532 I0.0139 J-0.0057
G1 X-3.6263 Y0.8005 F60.
G3 X-3.3002 Y0.8093 I0.1556 J0.2762
G1 X-3.2604 Y0.9629
X-3.253 Y0.9861
G3 X-3.2567 Y1.0006 I-0.0144 J0.0041
X-3.2979 Y1.0033 I-0.0221 J-0.0215
X-3.3152 Y0.8346 I0.0731 J-0.0928
X-3.3047 Y0.8237 I0.0905 J0.0759 F50.
G2 X-3.3002 Y0.8093 I-0.0102 J-0.011
G1 X-3.3119 Y0.7645 F60.
G2 X-3.5128 Y0.6636 I-0.17 J0.0879
G1 X-3.6263 Y0.8005
G2 X-3.6283 Y0.8153 I0.0119 J0.0092
X-3.5852 Y0.8347 I0.0318 J-0.013
X-3.5099 Y0.6928 I-0.0389 J-0.1115
X-3.5148 Y0.6784 I-0.1141 J0.0304 F50.
G3 X-3.5128 Y0.6636 I0.0139 J-0.0057
G1 X-3.482 Y0.6265 F60.
G3 X-3.3409 Y0.6126 I0.0801 J0.0898
G1 X-3.3406 Y0.6155
X-3.3408 Y0.6184
X-3.3416 Y0.6212
X-3.3428 Y0.6238
X-3.3445 Y0.6261
X-3.3465 Y0.628
X-3.3489 Y0.6295
X-3.3514 Y0.6306
X-3.3541 Y0.6312
X-3.3616 Y0.6324
X-3.4676 Y0.6504
X-3.4702 Y0.6506
X-3.4727 Y0.6504
G3 X-3.482 Y0.6265 I0.0025 J-0.0148 F50.
G1 X-3.4281 Y0.5614 F60.
G3 X-3.3562 Y0.5366 I0.0473 J0.0206
X-3.3624 Y0.5512 I-0.0148 J0.0022
G1 X-3.3741 Y0.5594
X-3.4076 Y0.5829
G3 X-3.4188 Y0.5854 I-0.0086 J-0.0123
X-3.4281 Y0.5614 I0.0025 J-0.0148 F50.
X-3.3722 Y0.5005 I0.0766 J0.0141 F60.
G1 X-3.3693 Y0.5007
G3 X-3.359 Y0.522 I-0.0098 J0.0179
G1 X-3.32 Y0.7309
X-3.3146 Y0.7541
X-3.3119 Y0.7645
G3 X-3.3305 Y0.7822 I-0.0147 J0.0033
G1 X-3.3333 Y0.7814 Z-0.1672
X-3.3361 Y0.7807 Z-0.1664
X-3.3386 Y0.78 Z-0.165
X-3.3408 Y0.7794 Z-0.1631
X-3.3426 Y0.7789 Z-0.1608
X-3.3439 Y0.7785 Z-0.1582
X-3.3447 Y0.7783 Z-0.1554
X-3.345 Y0.7782 Z-0.1525
G0 Z-0.1375
X-4.0667 Y1.3576
G1 Z-0.1525 F50.
X-4.067 Y1.3577 Z-0.1554
X-4.0678 Y1.358 Z-0.1582
X-4.0691 Y1.3584 Z-0.1608
X-4.0709 Y1.359 Z-0.1631
X-4.073 Y1.3598 Z-0.165
X-4.0755 Y1.3607 Z-0.1664
X-4.0781 Y1.3616 Z-0.1672
X-4.0809 Y1.3626 Z-0.1675
G2 X-4.1065 Y1.3799 I0.0209 J0.0587
G1 X-4.1647 Y1.4501 F60.
G2 X-4.1148 Y1.8212 I0.3188 J0.146
X-4.0391 Y1.9131 I0.1331 J-0.0325
G1 X-3.8178 Y1.9338
G2 X-3.8044 Y1.9271 I0.0009 J-0.015
X-3.8249 Y1.8517 I-0.0435 J-0.0287
X-4.0167 Y1.8941 I-0.0694 J0.1414
X-4.0257 Y1.9063 I0.1225 J0.099 F50.
G3 X-4.0391 Y1.9131 I-0.0125 J-0.0083
G1 X-4.1089 Y1.9065 F60.
G3 X-4.2946 Y1.6074 I0.1499 J-0.3003
G1 X-4.2934 Y1.6054
X-4.1647 Y1.4501
G3 X-4.1505 Y1.4454 I0.0112 J0.01
X-4.1415 Y1.4538 I-0.0024 J0.0115
G1 X-4.1409 Y1.456
G3 X-4.2641 Y1.6028 I-0.1145 J0.029
X-4.2792 Y1.6007 I0.0087 J-0.1178 F50.
G2 X-4.2934 Y1.6054 I-0.003 J0.0147
G1 X-4.3281 Y1.6473 F60.
G2 X-4.2869 Y1.8899 I0.1987 J0.091
G1 X-4.1089 Y1.9065
G2 X-4.0955 Y1.8998 I0.0009 J-0.015
X-4.1032 Y1.8543 I-0.0282 J-0.0186
X-4.2643 Y1.871 I-0.0717 J0.0939
X-4.2735 Y1.8831 I0.0894 J0.0772 F50.
G3 X-4.2869 Y1.8899 I-0.0125 J-0.0083
G1 X-4.3352 Y1.8854 F60.
G3 X-4.4343 Y1.7738 I0.0289 J-0.1256
G1 X-4.4322 Y1.7717
X-4.4297 Y1.77
X-4.427 Y1.7688
X-4.4241 Y1.7682
X-4.4212 Y1.7681
X-4.4183 Y1.7686
X-4.4156 Y1.7696
X-4.4132 Y1.7711
X-4.411 Y1.7729
X-4.4064 Y1.7775
X-4.3237 Y1.8597
X-4.322 Y1.8618
X-4.3206 Y1.8641
G3 X-4.3352 Y1.8854 I-0.0136 J0.0063 F50.
G1 X-4.428 Y1.8767 F60.
G3 X-4.4846 Y1.836 I-0.0142 J-0.0399
X-4.4685 Y1.8318 I0.0112 J0.01
G1 X-4.4559 Y1.8361
X-4.4223 Y1.8475
G3 X-4.4134 Y1.8554 I-0.0048 J0.0142
X-4.428 Y1.8767 I-0.0136 J0.0063 F50.
X-4.4983 Y1.8663 I-0.0263 J-0.0656 F60.
G1 X-4.4997 Y1.8641
X-4.5 Y1.8634
X-4.5004 Y1.8612
G3 X-4.494 Y1.8475 I0.0211 J0.0014
G1 X-4.3281 Y1.6473
G3 X-4.3137 Y1.6426 I0.0112 J0.01
G1 X-4.3116 Y1.6436 Z-0.1673
X-4.3095 Y1.6446 Z-0.1668
X-4.3076 Y1.6455 Z-0.1659
X-4.3063 Y1.6472 Z-0.1645
X-4.3051 Y1.6487 Z-0.1629
X-4.3041 Y1.6499 Z-0.1609
X-4.3034 Y1.6508 Z-0.1587
X-4.3031 Y1.6515 Z-0.1567
X-4.3029 Y1.6519 Z-0.1546
Y1.6521 Z-0.1525
G0 Z0.4
X-1.5352 Y-3.6228
Z0.1
G3 X-1.4274 Y-3.5295 Z0.0605 I0.0539 J0.0466 F50.
X-1.5352 Y-3.6228 Z0.021 I-0.0539 J-0.0466
X-1.4274 Y-3.5295 Z-0.0185 I0.0539 J0.0466
X-1.5352 Y-3.6228 Z-0.058 I-0.0539 J-0.0466
X-1.4274 Y-3.5295 Z-0.0975 I0.0539 J0.0466
X-1.5352 Y-3.6228 Z-0.137 I-0.0539 J-0.0466
X-1.41 Y-3.5761 Z-0.1675 I0.0539 J0.0466
X-1.5526 I-0.0713 J0.
X-1.41 I0.0713 J0.
X-1.5583 Y-3.4503 I-0.0778 J0.0587 F60.
G1 X-1.5666 Y-3.4553
X-1.5746 Y-3.4608
X-1.5822 Y-3.4668
X-1.5894 Y-3.4732
X-1.5962 Y-3.4802
X-1.6026 Y-3.4875
X-1.6084 Y-3.4952
X-1.6138 Y-3.5033
X-1.6187 Y-3.5117
X-1.623 Y-3.5203
X-1.6267 Y-3.5293
X-1.6299 Y-3.5384
X-1.6325 Y-3.5478
X-1.6345 Y-3.5573
X-1.6359 Y-3.5668
X-1.6367 Y-3.5765
X-1.6369 Y-3.5862
X-1.6365 Y-3.5959
X-1.6354 Y-3.6055
X-1.6338 Y-3.6151
X-1.6315 Y-3.6245
X-1.6287 Y-3.6338
X-1.6253 Y-3.6428
X-1.6213 Y-3.6517
X-1.6168 Y-3.6602
X-1.6117 Y-3.6685
X-1.6062 Y-3.6764
X-1.6001 Y-3.684
X-1.5936 Y-3.6912
X-1.5866 Y-3.6979
X-1.5793 Y-3.7042
X-1.5715 Y-3.71
X-1.5634 Y-3.7153
X-1.555 Y-3.7201
X-1.5463 Y-3.7244
X-1.5373 Y-3.728
X-1.5281 Y-3.7312
X-1.5188 Y-3.7337
X-1.5093 Y-3.7356
X-1.4997 Y-3.737
X-1.49 Y-3.7377
X-1.4803 Y-3.7378
X-1.4707 Y-3.7373
X-1.461 Y-3.7362
X-1.4515 Y-3.7345
X-1.4421 Y-3.7322
X-1.4328 Y-3.7293
X-1.4238 Y-3.7258
X-1.415 Y-3.7218
X-1.4065 Y-3.7172
X-1.3982 Y-3.7121
X-1.3903 Y-3.7065
X-1.3828 Y-3.7003
X-1.3757 Y-3.6938
X-1.369 Y-3.6868
X-1.3628 Y-3.6794
X-1.357 Y-3.6716
X-1.3518 Y-3.6634
X-1.347 Y-3.655
X-1.3429 Y-3.6462
X-1.3392 Y-3.6372
X-1.3362 Y-3.628
X-1.3302 Y-3.6191
X-1.3246 Y-3.6097
X-1.3197 Y-3.6001
X-1.3153 Y-3.5903
X-1.3114 Y-3.5801
X-1.3082 Y-3.5698
X-1.3055 Y-3.5593
X-1.3034 Y-3.5487
X-1.302 Y-3.538
X-1.3011 Y-3.5272
X-1.3009 Y-3.5164
X-1.3012 Y-3.5056
X-1.3022 Y-3.4948
X-1.3038 Y-3.4841
X-1.306 Y-3.4735
X-1.3088 Y-3.4631
X-1.3122 Y-3.4528
X-1.3162 Y-3.4427
X-1.3207 Y-3.4329
X-1.3258 Y-3.4234
X-1.3314 Y-3.4141
X-1.3376 Y-3.4052
X-1.3442 Y-3.3967
X-1.3513 Y-3.3885
X-1.3589 Y-3.3808
X-1.3669 Y-3.3735
X-1.3753 Y-3.3666
X-1.384 Y-3.3603
X-1.3931 Y-3.3545
X-1.4026 Y-3.3492
X-1.4123 Y-3.3444
X-1.4223 Y-3.3402
X-1.4324 Y-3.3366
X-1.4428 Y-3.3335
X-1.4534 Y-3.3311
X-1.464 Y-3.3292
X-1.4748 Y-3.328
X-1.4856 Y-3.3274
X-1.4964
X-1.5072 Y-3.328
X-1.5179 Y-3.3292
X-1.5286 Y-3.331
X-1.5391 Y-3.3334
X-1.5495 Y-3.3364
X-1.5597 Y-3.3401
X-1.5697 Y-3.3442
X-1.5794 Y-3.349
X-1.5888 Y-3.3543
X-1.598 Y-3.3601
X-1.6067 Y-3.3664
X-1.6151 Y-3.3732
X-1.6231 Y-3.3805
X-1.6307 Y-3.3882
X-1.6406 Y-3.3953
X-1.6501 Y-3.4028
X-1.6591 Y-3.4108
X-1.6678 Y-3.4193
X-1.676 Y-3.4282
X-1.6838 Y-3.4375
X-1.691 Y-3.4472
X-1.6978 Y-3.4572
X-1.704 Y-3.4676
X-1.7097 Y-3.4783
X-1.7148 Y-3.4893
X-1.7194 Y-3.5005
X-1.7233 Y-3.512
X-1.7267 Y-3.5236
X-1.7295 Y-3.5354
X-1.7317 Y-3.5473
X-1.7332 Y-3.5593
X-1.7342 Y-3.5714
X-1.7345 Y-3.5835
X-1.7342 Y-3.5956
X-1.7333 Y-3.6077
X-1.7317 Y-3.6197
X-1.7296 Y-3.6316
X-1.7268 Y-3.6434
X-1.7235 Y-3.655
X-1.7195 Y-3.6665
X-1.715 Y-3.6777
X-1.7099 Y-3.6887
X-1.7042 Y-3.6994
X-1.698 Y-3.7098
X-1.6913 Y-3.7198
X-1.684 Y-3.7296
X-1.6763 Y-3.7389
X-1.6681 Y-3.7478
X-1.6595 Y-3.7563
X-1.6504 Y-3.7643
X-1.6409 Y-3.7719
X-1.6311 Y-3.7789
X-1.6209 Y-3.7855
X-1.6104 Y-3.7915
X-1.5996 Y-3.7969
X-1.5885 Y-3.8018
X-1.5772 Y-3.8062
G3 X-1.4019 Y-3.2514 I0.0877 J0.2774
X-1.6114 Y-3.2646 I-0.0877 J-0.2774
X-1.5735 Y-3.9087 I0.1196 J-0.3162
G1 X-1.5582 Y-3.9116
X-1.5428 Y-3.9139
X-1.5274 Y-3.9156
X-1.5118 Y-3.9166
X-1.4963 Y-3.9171
X-1.4807 Y-3.9169
X-1.4651 Y-3.916
X-1.4496 Y-3.9146
X-1.4342 Y-3.9125
X-1.4189 Y-3.9099
X-1.4036 Y-3.9066
X-1.3886 Y-3.9027
X-1.3737 Y-3.8982
X-1.3589 Y-3.8931
X-1.3444 Y-3.8874
X-1.3302 Y-3.8812
X-1.3162 Y-3.8744
X-1.3025 Y-3.867
X-1.2891 Y-3.8591
X-1.276 Y-3.8506
X-1.2632 Y-3.8417
X-1.2509 Y-3.8322
X-1.2389 Y-3.8223
X-1.2273 Y-3.8119
X-1.2162 Y-3.801
X-1.2055 Y-3.7897
X-1.1952 Y-3.7779
X-1.1855 Y-3.7658
X-1.1762 Y-3.7533
X-1.1674 Y-3.7404
X-1.1592 Y-3.7272
X-1.1515 Y-3.7137
X-1.1443 Y-3.6999
X-1.1377 Y-3.6858
X-1.1317 Y-3.6714
X-1.1263 Y-3.6568
X-1.1214 Y-3.642
X-1.1171 Y-3.6271
X-1.1135 Y-3.6119
X-1.1104 Y-3.5967
X-1.108 Y-3.5813
X-1.1062 Y-3.5658
X-1.1049 Y-3.5503
X-1.1044 Y-3.5347
Y-3.5192
X-1.1051 Y-3.5036
X-1.1064 Y-3.4881
X-1.1083 Y-3.4726
X-1.1108 Y-3.4573
X-1.1139 Y-3.442
X-1.1177 Y-3.4269
X-1.122 Y-3.412
X-1.1269 Y-3.3972
X-1.1325 Y-3.3826
X-1.1386 Y-3.3683
X-1.1452 Y-3.3542
X-1.1525 Y-3.3405
X-1.1602 Y-3.327
X-1.1685 Y-3.3138
X-1.1774 Y-3.301
X-1.1867 Y-3.2885
X-1.1965 Y-3.2764
X-1.2068 Y-3.2648
X-1.2176 Y-3.2535
X-1.2288 Y-3.2427
X-1.2404 Y-3.2323
X-1.2524 Y-3.2224
X-1.2649 Y-3.213
X-1.2776 Y-3.2042
X-1.2908 Y-3.1958
X-1.3042 Y-3.1879
X-1.318 Y-3.1806
X-1.332 Y-3.1739
X-1.3463 Y-3.1677
X-1.3608 Y-3.1621
X-1.3756 Y-3.1571
X-1.3905 Y-3.1527
X-1.4056 Y-3.1489
X-1.4208 Y-3.1457
X-1.4362 Y-3.1431
X-1.4516 Y-3.1411
X-1.4671 Y-3.1397
X-1.4827 Y-3.139
X-1.4983 Y-3.1389
X-1.5138 Y-3.1394
X-1.5293 Y-3.1405
X-1.5448 Y-3.1423
X-1.5602 Y-3.1446
X-1.5755 Y-3.1476
X-1.5906 Y-3.1512
X-1.6056 Y-3.1554
X-1.6204 Y-3.1602
X-1.6351 Y-3.1655
X-1.6494 Y-3.1715
X-1.6636 Y-3.178
X-1.6774 Y-3.1851
X-1.691 Y-3.1928
X-1.7043 Y-3.2009
X-1.7172 Y-3.2096
X-1.7297 Y-3.2188
X-1.7419 Y-3.2285
X-1.7537 Y-3.2387
X-1.765 Y-3.2494
X-1.776 Y-3.2605
G3 X-1.9251 Y-3.5815 I0.2385 J-0.306
X-1.0355 Y-3.6537 I0.4485 J0.0098
X-1.1342 Y-3.2033 I-0.4164 J0.1448
G1 X-1.1732 Y-3.1903
X-1.1963 Y-3.1822
X-1.4051 Y-3.0957
X-1.4283 Y-3.0845
X-1.4488 Y-3.0743
G3 X-1.9204 Y-3.2624 I-0.1042 J-0.424
X-1.9763 Y-3.3631 I0.1084 J-0.1261
G1 X-1.9339 Y-3.8167
G3 X-1.5261 Y-4.1158 I0.4194 J0.1444
X-1.3804 Y-4.1069 I0.05 J0.3824
G1 X-1.0107 Y-3.8005
G3 X-0.9757 Y-3.2587 I-0.3895 J0.2972
G1 X-0.977 Y-3.257
X-0.9786 Y-3.2557
X-0.9804 Y-3.2548
X-0.9875 Y-3.2525
X-1.1342 Y-3.2033
G3 X-1.1488 Y-3.2068 I-0.0043 J-0.0144
X-1.1439 Y-3.2705 I0.0282 J-0.0299
X-1.0066 Y-3.2682 I0.067 J0.0973
X-0.995 Y-3.2584 I-0.0702 J0.095 F50.
G2 X-0.9804 Y-3.2548 I0.0104 J-0.0108
G1 X-0.9649 Y-3.2599 F60.
X-0.9283 Y-3.2694
G2 X-0.8236 Y-3.5825 I-0.154 J-0.2255
X-0.8278 Y-3.6489 I-0.0491 J-0.0303
G1 X-1.0107 Y-3.8005
G2 X-1.0255 Y-3.8025 I-0.0092 J0.0119
X-1.0514 Y-3.7456 I0.0173 J0.0421
X-0.857 Y-3.6458 I0.149 J-0.0511
X-0.8427 Y-3.6509 I-0.0454 J-0.1508 F50.
G3 X-0.8278 Y-3.6489 I0.0057 J0.0139
G1 X-0.772 Y-3.6027 F60.
G3 X-0.762 Y-3.3125 I-0.2263 J0.1531
G1 X-0.9283 Y-3.2694
G3 X-0.9426 Y-3.2739 I-0.0033 J-0.0147
X-0.9392 Y-3.3275 I0.0274 J-0.0252
X-0.7873 I0.0759 J0.0905
X-0.7763 Y-3.317 I-0.0759 J0.0905 F50.
G2 X-0.762 Y-3.3125 I0.011 J-0.0102
G1 X-0.7555 Y-3.3142 F60.
X-0.7323 Y-3.3197
X-0.7195 Y-3.3221
G2 X-0.6339 Y-3.4883 I-0.0707 J-0.1415
G1 X-0.772 Y-3.6027
G2 X-0.7869 Y-3.6047 I-0.0092 J0.0119
X-0.8061 Y-3.5635 I0.0127 J0.031
X-0.6632 Y-3.4854 I0.1125 J-0.036
X-0.6488 Y-3.4903 I-0.0304 J-0.1141 F50.
G3 X-0.6339 Y-3.4883 I0.0057 J0.0139
G1 X-0.6009 Y-3.4608 F60.
G3 X-0.5825 Y-3.3463 I-0.0713 J0.0702
G1 X-0.5853 Y-3.346
X-0.5881 Y-3.3461
X-0.5908 Y-3.3468
X-0.5934 Y-3.3479
X-0.5957 Y-3.3494
X-0.5977 Y-3.3512
X-0.5993 Y-3.3534
X-0.6005 Y-3.3557
X-0.6012 Y-3.3583
X-0.6036 Y-3.367
X-0.6245 Y-3.4451
X-0.625 Y-3.4482
X-0.6248 Y-3.4515
G3 X-0.6009 Y-3.4608 I0.0148 J0.0025 F50.
G1 X-0.5365 Y-3.4075 F60.
G3 X-0.52 Y-3.3596 I-0.0132 J0.0314
X-0.5664 Y-3.3874 I-0.0085 J-0.0384
X-0.5638 Y-3.4032 I0.0182 J-0.0051
X-0.5365 Y-3.4075 I0.0157 J0.0107 F50.
X-0.5008 Y-3.3691 I0.0016 J0.0344 F60.
X-0.5235 Y-3.3587 I-0.0185 J-0.0103
G1 X-0.7195 Y-3.3221
G3 X-0.7359 Y-3.342 I-0.0022 J-0.0148
G1 X-0.7349 Y-3.3447 Z-0.1672
X-0.734 Y-3.3474 Z-0.1664
X-0.7331 Y-3.3498 Z-0.165
X-0.7324 Y-3.352 Z-0.1631
X-0.7318 Y-3.3537 Z-0.1608
X-0.7313 Y-3.355 Z-0.1582
X-0.731 Y-3.3558 Z-0.1554
X-0.7309 Y-3.3561 Z-0.1525
G0 Z-0.1375
X-1.3581 Y-4.0672
G1 Z-0.1525 F50.
X-1.3582 Y-4.0674 Z-0.1554
X-1.3585 Y-4.0682 Z-0.1582
X-1.3589 Y-4.0695 Z-0.1608
X-1.3596 Y-4.0713 Z-0.1631
X-1.3603 Y-4.0734 Z-0.165
X-1.3612 Y-4.0759 Z-0.1664
X-1.3621 Y-4.0785 Z-0.1672
X-1.3631 Y-4.0813 Z-0.1675
G2 X-1.3804 Y-4.1069 I-0.0587 J0.0209
G1 X-1.4515 Y-4.1658 F60.
G2 X-1.8222 Y-4.1161 I-0.1457 J0.321
X-1.9128 Y-4.0422 I0.0311 J0.1304
G1 X-1.9339 Y-3.8167
G2 X-1.9272 Y-3.8033 I0.015 J0.0009
X-1.855 Y-3.8211 I0.0279 J-0.0423
X-1.8938 Y-4.0198 I-0.1378 J-0.0762
X-1.9061 Y-4.0288 I-0.099 J0.1225 F50.
G3 X-1.9128 Y-4.0422 I0.0083 J-0.0125
G1 X-1.9066 Y-4.1079 F60.
G3 X-1.6128 Y-4.296 I0.2881 J0.1266
G1 X-1.6105
X-1.6082 Y-4.2953
X-1.6062 Y-4.2941
X-1.4515 Y-4.1658
G3 X-1.4467 Y-4.1516 I-0.01 J0.0112
X-1.4559 Y-4.1419 I-0.0124 J-0.0025
G1 X-1.457 Y-4.1416
G3 X-1.6036 Y-4.2648 I-0.0288 J-0.1145
X-1.6015 Y-4.2799 I0.1178 J0.0087 F50.
G2 X-1.6062 Y-4.2941 I-0.0147 J-0.003
G1 X-1.6461 Y-4.3272 F60.
G2 X-1.8897 Y-4.2884 I-0.094 J0.1944
G1 X-1.9066 Y-4.1079
G2 X-1.8999 Y-4.0945 I0.015 J0.0009
X-1.8573 Y-4.1008 I0.0178 J-0.027
X-1.8709 Y-4.2658 I-0.0907 J-0.0756
X-1.883 Y-4.275 I-0.0772 J0.0894 F50.
G3 X-1.8897 Y-4.2884 I0.0083 J-0.0125
G1 X-1.8849 Y-4.3399 F60.
G3 X-1.7748 Y-4.4353 I0.1256 J0.0337
G1 X-1.7727 Y-4.4331
X-1.771 Y-4.4306
X-1.7698 Y-4.4278
X-1.7692 Y-4.4249
X-1.7691 Y-4.4219
X-1.7696 Y-4.419
X-1.7707 Y-4.4163
X-1.7722 Y-4.4138
X-1.7741 Y-4.4117
X-1.7786 Y-4.4073
X-1.8594 Y-4.3283
X-1.8614 Y-4.3267
X-1.8637 Y-4.3254
G3 X-1.8849 Y-4.3399 I-0.0063 J-0.0136 F50.
G1 X-1.8768 Y-4.427 F60.
G3 X-1.8365 Y-4.485 I0.0385 J-0.0162
X-1.8322 Y-4.4692 I-0.01 J0.0112
G1 X-1.8364 Y-4.4562
X-1.8475 Y-4.4215
G3 X-1.8555 Y-4.4125 I-0.0143 J-0.0046
X-1.8768 Y-4.427 I-0.0063 J-0.0136 F50.
X-1.8662 Y-4.4984 I0.0654 J-0.0268 F60.
G1 X-1.8644 Y-4.4996
X-1.8638 Y-4.4999
X-1.8611 Y-4.5005
X-1.8603 Y-4.5004
X-1.8582 Y-4.5001
X-1.8574 Y-4.4998
X-1.848 Y-4.4945
X-1.6461 Y-4.3272
G3 X-1.6509 Y-4.3019 I-0.01 J0.0112
G1 X-1.6536 Y-4.3009 Z-0.1672
X-1.6563 Y-4.2999 Z-0.1664
X-1.6587 Y-4.299 Z-0.165
X-1.6608 Y-4.2982 Z-0.1631
X-1.6626 Y-4.2975 Z-0.1608
X-1.6639 Y-4.2971 Z-0.1582
X-1.6647 Y-4.2968 Z-0.1554
X-1.665 Y-4.2967 Z-0.1525
G0 Z-0.1375
X-1.9561 Y-3.404
G1 Z-0.1525 F50.
X-1.9562 Y-3.4038 Z-0.1554
X-1.9567 Y-3.4031 Z-0.1582
X-1.9575 Y-3.402 Z-0.1608
X-1.9586 Y-3.4005 Z-0.1631
X-1.96 Y-3.3986 Z-0.165
X-1.9615 Y-3.3965 Z-0.1664
X-1.9632 Y-3.3942 Z-0.1672
X-1.9649 Y-3.3919 Z-0.1675
G2 X-1.9763 Y-3.3631 I0.0504 J0.0367
G1 X-1.985 Y-3.2701 F60.
G2 X-1.734 Y-2.9954 I0.3429 J-0.0612
X-1.6506 Y-2.971 I0.0667 J-0.0732
G1 X-1.6328 Y-2.9815
X-1.6139 Y-2.992
X-1.4488 Y-3.0743
G2 X-1.4409 Y-3.087 I-0.0072 J-0.0132
X-1.5077 Y-3.1469 I-0.0588 J-0.0016
X-1.6435 Y-2.9995 I0.0214 J0.156
X-1.6436 Y-2.9843 I0.1572 J0.0086 F50.
G3 X-1.6506 Y-2.971 I-0.015 J0.0006
G1 X-1.7066 Y-2.9381 F60.
G3 X-2.0036 Y-3.0722 I-0.0358 J-0.3164
G1 X-1.985 Y-3.2701
G3 X-1.9759 Y-3.2821 I0.0149 J0.0019
X-1.9591 Y-3.279 I0.0061 J0.0145
X-1.9809 Y-3.0909 I-0.081 J0.0859
X-1.9945 Y-3.0841 I-0.0592 J-0.1022 F50.
G2 X-2.0036 Y-3.0722 I0.0058 J0.0138
G1 X-2.0082 Y-3.0223 F60.
G2 X-1.8498 Y-2.8513 I0.1968 J-0.0235
G1 X-1.8293 Y-2.8654
X-1.8226 Y-2.8698
X-1.7066 Y-2.9381
G2 X-1.6997 Y-2.9514 I-0.0081 J-0.0127
X-1.7551 Y-2.9928 I-0.0446 J0.0019
X-1.8445 Y-2.8803 I0.0287 J0.1146
