%
(971-23-P-0063_PROXIMAL SPROCKET_1501 SECOND)
(T1  D=0.1501 CR=0. - ZMIN=-0.2175 - FLAT END MILL)
G90 G94 G17 G91.1
G64 P0.001 Q0.001
G20
G53 G0 Z0.
(2D SLOT CUT 2)
M9
T1 M6
S22000 M3
G4 P10.
G54
M7
G0 X-5.6319 Y-0.5868
G43 Z0.6 H1
G0 Z0.2
G1 Z0.1 F13.333
G3 X-5.6374 Y-0.5348 Z0.0878 I-0.0111 J0.0251 F30.
G2 X-5.7982 Y-0.4754 Z0.0575 I0.1181 J0.5666
X-5.8524 Y-0.3903 Z0.0389 I0.0506 J0.092
G1 X-5.8527 Y-0.3851 Z0.038
G2 X-5.8103 Y-0.2935 Z0.0194 I0.1048 J0.007
G1 X-5.8102
G2 X-5.6587 Y-0.2134 Z-0.0109 I0.3433 J-0.466
G3 X-5.6605 Y-0.1611 Z-0.0231 I-0.0091 J0.0259
G2 X-5.8169 Y-0.0912 Z-0.0535 I0.1553 J0.5576
G1 X-5.817 Y-0.0911
G2 X-5.8654 Y-0.0026 Z-0.072 I0.0567 J0.0885
G1 Y0. Z-0.0725
Y0.0026
G2 X-5.817 Y0.0911 I0.1051 J0.
G1 X-5.8169 Y0.0912
G2 X-5.6605 Y0.1611 I0.3117 J-0.4877
G3 X-5.6587 Y0.2134 I-0.0074 J0.0264
G2 X-5.8102 Y0.2935 I0.1918 J0.5461
G1 X-5.8103
G2 X-5.8527 Y0.385 I0.0623 J0.0845
G1 X-5.8524 Y0.3903
G2 X-5.7982 Y0.4754 I0.1048 J-0.007
X-5.6374 Y0.5348 I0.2788 J-0.5072
G3 X-5.6322 Y0.5869 I-0.0056 J0.0269
G2 X-5.7781 Y0.6768 I0.2274 J0.5322
G1 X-5.7782 Y0.6769
G2 X-5.8145 Y0.7707 I0.0679 J0.0802
G1 X-5.8139 Y0.7758
G2 X-5.8138 Y0.7763 I0.0744 J-0.0095
X-5.754 Y0.8576 I0.1041 J-0.0139
X-5.5898 Y0.9062 I0.2447 J-0.5245
G3 X-5.5812 Y0.9579 I-0.0038 J0.0272
G2 X-5.7208 Y1.0572 I0.2621 J0.516
X-5.7508 Y1.1536 I0.0729 J0.0756
G1 Y1.1539
X-5.7497 Y1.1589
G2 X-5.6848 Y1.236 I0.103 J-0.0209
X-5.5177 Y1.2737 I0.2095 J-0.5395
G3 X-5.5056 Y1.3247 I-0.002 J0.0274
G2 X-5.6384 Y1.433 I0.2956 J0.4976
G1 Y1.4331
G2 X-5.662 Y1.5311 I0.0778 J0.0706
G1 X-5.6607 Y1.5361
X-5.6606 Y1.5363
G2 X-5.5908 Y1.609 I0.1014 J-0.0275
G1 X-5.5907
G2 X-5.4214 Y1.6356 I0.1734 J-0.5522
G3 X-5.4061 Y1.6856 I-0.0002 J0.0274
G2 X-5.5313 Y1.8025 I0.3279 J0.4769
X-5.5485 Y1.9018 I0.0822 J0.0653
G1 X-5.5468 Y1.9067
X-5.5467 Y1.907
G2 X-5.4722 Y1.975 I0.0994 J-0.0341
X-5.3015 Y1.9903 I0.1365 J-0.5625
G3 X-5.2828 Y2.0392 I0.0016 J0.0274
G2 X-5.4001 Y2.1642 I0.3588 J0.4542
X-5.4106 Y2.2645 I0.0864 J0.0598
G1 X-5.4085 Y2.2694
G2 X-5.3297 Y2.3323 I0.0969 J-0.0406
X-5.1583 Y2.3363 I0.099 J-0.5703
G3 X-5.1365 Y2.3839 I0.0034 J0.0272
G2 X-5.2453 Y2.5163 I0.388 J0.4295
X-5.2491 Y2.6171 I0.0902 J0.0539
G1 X-5.2468 Y2.6219
G2 X-5.1638 Y2.6794 I0.094 J-0.0469
X-4.9927 Y2.6721 I0.0611 J-0.5756
G3 X-4.9677 Y2.7182 I0.0052 J0.0269
G2 X-5.0675 Y2.8575 I0.4155 J0.4029
X-5.0647 Y2.9583 I0.0935 J0.0479
G1 X-5.0646 Y2.9584
X-5.062 Y2.963
G2 X-4.9754 Y3.0149 I0.0907 J-0.0531
X-4.8051 Y2.9962 I0.0229 J-0.5783
G3 X-4.7772 Y3.0406 I0.007 J0.0265
G2 X-4.8675 Y3.1861 I0.4412 J0.3746
X-4.8581 Y3.2865 I0.0964 J0.0416
G1 X-4.8579 Y3.2869
X-4.855 Y3.2912
G2 X-4.7653 Y3.3371 I0.0869 J-0.0591
X-4.5966 Y3.3073 I-0.0153 J-0.5786
G3 X-4.5658 Y3.3496 I0.0087 J0.026
G2 X-4.6463 Y3.5009 I0.465 J0.3446
X-4.6303 Y3.6004 I0.099 J0.0352
G1 X-4.6301 Y3.6006
X-4.6269 Y3.6048
G2 X-4.5343 Y3.6448 I0.0828 J-0.0646
X-4.368 Y3.6038 I-0.0536 J-0.5763
G3 X-4.3345 Y3.6441 I0.0104 J0.0254
G2 X-4.4048 Y3.8003 I0.4868 J0.3131
X-4.3822 Y3.8986 I0.1011 J0.0285
G1 X-4.3788 Y3.9025
X-4.3786 Y3.9026
G2 X-4.2836 Y3.9365 I0.0785 J-0.0699
X-4.1203 Y3.8846 I-0.0915 J-0.5715
G3 X-4.0841 Y3.9226 I0.0121 J0.0246
G2 X-4.144 Y4.0831 I0.5064 J0.2803
X-4.115 Y4.1796 I0.1028 J0.0218
G1 X-4.1113 Y4.1833
X-4.1111 Y4.1835
G2 X-4.014 Y4.211 I0.0736 J-0.075
X-3.8545 Y4.1484 I-0.1291 J-0.5642
G3 X-3.816 Y4.1839 I0.0137 J0.0238
G2 X-3.8651 Y4.348 I0.5238 J0.2462
X-3.8297 Y4.4426 I0.104 J0.0149
G1 X-3.8294 Y4.4428
X-3.8255 Y4.4461
G2 X-3.727 Y4.4671 I0.0684 J-0.0797
X-3.5719 Y4.3941 I-0.166 J-0.5545
G3 X-3.5311 Y4.427 I0.0152 J0.0228
G2 X-3.5693 Y4.594 I0.5389 J0.211
X-3.5277 Y4.686 I0.1047 J0.008
G1 X-3.5274 Y4.6862
X-3.5233 Y4.6892
G2 X-3.4236 Y4.7036 I0.063 J-0.0841
X-3.2737 Y4.6206 I-0.2024 J-0.5423
G3 X-3.2308 Y4.6507 I0.0167 J0.0218
G2 X-3.2579 Y4.8198 I0.5517 J0.175
X-3.2103 Y4.9089 I0.105 J0.0011
G1 X-3.2101 Y4.909
X-3.2057 Y4.9118
G2 X-3.1052 Y4.9196 I0.0573 J-0.088
X-2.9612 Y4.8268 I-0.2377 J-0.5277
G3 X-2.9164 Y4.854 I0.0181 J0.0206
G2 X-2.9322 Y5.0246 I0.5621 J0.1381
X-2.8788 Y5.1103 I0.1049 J-0.0059
G1 X-2.8742 Y5.1129
G2 X-2.7733 Y5.114 I0.0515 J-0.0916
X-2.6357 Y5.012 I-0.2721 J-0.5108
G3 X-2.5892 Y5.0362 I0.0194 J0.0194
G2 X-2.5937 Y5.2074 I0.57 J0.1007
X-2.5348 Y5.2894 I0.1043 J-0.0128
G1 X-2.53 Y5.2917
G2 X-2.4293 Y5.2862 I0.0453 J-0.0948
X-2.2987 Y5.1752 I-0.3053 J-0.4918
G3 X-2.2507 Y5.1963 I0.0207 J0.018
G2 X-2.2439 Y5.3675 I0.5754 J0.0628
X-2.1797 Y5.4453 I0.1032 J-0.0197
X-2.1792 Y5.4455 I0.0279 J-0.0697
G1 X-2.1745 Y5.4474
G2 X-2.0746 Y5.4351 I0.0387 J-0.0976
X-1.9516 Y5.3159 I-0.3371 J-0.4705
G3 X-1.9024 Y5.3337 I0.0218 J0.0166
G2 X-1.8842 Y5.504 I0.5783 J0.0246
X-1.8152 Y5.5774 I0.1017 J-0.0264
G1 X-1.8102 Y5.5791
X-1.81
G2 X-1.7108 Y5.5604 I0.0324 J-0.0999
X-1.596 Y5.4332 I-0.3675 J-0.4472
G3 X-1.5457 Y5.4477 I0.0229 J0.0152
G2 X-1.5163 Y5.6165 I0.5786 J-0.0137
X-1.4424 Y5.6852 I0.0997 J-0.0331
G1 X-1.4373 Y5.6865
G2 X-1.3396 Y5.6613 I0.0258 J-0.1018
X-1.2334 Y5.5268 I-0.3962 J-0.4219
G3 X-1.1823 Y5.538 I0.0238 J0.0136
G2 X-1.1418 Y5.7044 I0.5765 J-0.0519
X-1.0638 Y5.7681 I0.0973 J-0.0396
G1 X-1.0587 Y5.7691
G2 X-1.0583 I0.0139 J-0.0737
X-0.9625 Y5.7374 I0.0189 J-0.1033
X-0.8655 Y5.5962 I-0.4233 J-0.3948
G3 X-0.8137 Y5.604 I0.0247 J0.012
G2 X-0.7623 Y5.7674 I0.5718 J-0.0899
X-0.68 Y5.8258 I0.0945 J-0.0459
G1 X-0.6797 Y5.8259
X-0.6745 Y5.8265
G2 X-0.5812 Y5.7885 I0.0119 J-0.1044
X-0.4937 Y5.6412 I-0.4484 J-0.366
G3 X-0.4415 Y5.6455 I0.0254 J0.0104
G2 X-0.3795 Y5.8052 I0.5646 J-0.1274
X-0.2936 Y5.858 I0.0912 J-0.0521
G1 X-0.2884 Y5.8583
X-0.2882
G2 X-0.1974 Y5.8142 I0.0052 J-0.1049
X-0.1198 Y5.6615 I-0.4716 J-0.3355
G3 X-0.0674 Y5.6624 I0.026 J0.0087
G2 X0.005 Y5.8176 I0.5549 J-0.1645
X0.0942 Y5.8646 I0.0876 J-0.058
G1 X0.0995 Y5.8645
X0.0996
G2 X0.1873 Y5.8146 I-0.0017 J-0.105
X0.2546 Y5.657 I-0.4928 J-0.3036
G3 X0.3069 Y5.6544 I0.0266 J0.0069
G2 X0.3895 Y5.8045 I0.5429 J-0.2008
X0.4817 Y5.8456 I0.0836 J-0.0637
X0.4822 Y5.8455 I-0.0061 J-0.0748
G1 X0.4873 Y5.8451
G2 X0.5712 Y5.7895 I-0.009 J-0.1047
X0.6279 Y5.6278 I-0.5117 J-0.2704
G3 X0.68 Y5.6218 I0.027 J0.0052
G2 X0.7723 Y5.7661 I0.5284 J-0.2362
X0.867 Y5.801 I0.0792 J-0.0691
G1 Y5.8009
X0.8723 Y5.8002
G2 X0.9526 Y5.7391 I-0.0156 J-0.1039
X0.9985 Y5.574 I-0.5285 J-0.236
G3 X1.05 Y5.5646 I0.0273 J0.0034
G2 X1.1517 Y5.7024 I0.5116 J-0.2707
X1.2485 Y5.731 I0.0744 J-0.0741
G1 X1.2487 Y5.7309
X1.2538 Y5.7298
G2 X1.3298 Y5.6636 I-0.0225 J-0.1026
X1.3647 Y5.4958 I-0.5429 J-0.2006
G3 X1.4155 Y5.483 I0.0274 J0.0016
G2 X1.526 Y5.6139 I0.4926 J-0.3039
X1.6244 Y5.636 I0.0694 J-0.0789
G1 X1.6295 Y5.6345
X1.6296
G2 X1.7012 Y5.5634 I-0.0292 J-0.1009
X1.725 Y5.3936 I-0.555 J-0.1642
G3 X1.7748 Y5.3774 I0.0275 J-0.0002
G2 X1.8937 Y5.5008 I0.4715 J-0.3357
G1 X1.8938
G2 X1.9934 Y5.5162 I0.0639 J-0.0834
G1 X1.9936
X1.9985 Y5.5144
G2 X2.0652 Y5.4388 I-0.0358 J-0.0988
X2.0777 Y5.2678 I-0.5646 J-0.1272
G3 X2.1263 Y5.2484 I0.0274 J-0.0021
G2 X2.2531 Y5.3636 I0.4483 J-0.3661
X2.3537 Y5.3724 I0.0583 J-0.0874
G1 X2.3585 Y5.3703
G2 X2.4201 Y5.2904 I-0.0422 J-0.0962
X2.4213 Y5.119 I-0.5718 J-0.0896
G3 X2.4685 Y5.0964 I0.0272 J-0.0039
G2 X2.6027 Y5.2029 I0.4231 J-0.395
X2.7036 Y5.2051 I0.0525 J-0.091
G1 X2.7083 Y5.2027
G2 X2.7645 Y5.1189 I-0.0484 J-0.0932
X2.7543 Y4.9478 I-0.5765 J-0.0516
G3 X2.7999 Y4.9221 I0.0269 J-0.0057
G2 X2.9409 Y5.0196 I0.3961 J-0.4221
X3.0417 Y5.015 I0.0463 J-0.0943
G1 X3.0418
X3.0463 Y5.0123
G2 X3.0967 Y4.9249 I-0.0546 J-0.0897
X3.0753 Y4.7549 I-0.5786 J-0.0134
G3 X3.1191 Y4.7263 I0.0264 J-0.0074
G2 X3.2662 Y4.8142 I0.3672 J-0.4474
X3.3665 Y4.8031 I0.04 J-0.0971
G1 X3.3708 Y4.8001
Y4.8
G2 X3.4154 Y4.7096 I-0.0603 J-0.086
G1 Y4.7095
G2 X3.3828 Y4.5413 I-0.5783 J0.0249
G3 X3.4247 Y4.5098 I0.0259 J-0.0092
G2 X3.5772 Y4.5878 I0.3369 J-0.4706
G1 X3.5773
G2 X3.6765 Y4.5701 I0.0334 J-0.0996
G1 X3.6806 Y4.5668
X3.6807
G2 X3.7192 Y4.4735 I-0.0659 J-0.0818
X3.6756 Y4.3078 I-0.5753 J0.0631
G3 X3.7152 Y4.2736 I0.0252 J-0.0108
G2 X3.8726 Y4.3414 I0.3051 J-0.4919
X3.9705 Y4.3171 I0.0268 J-0.1016
G1 X3.9744 Y4.3135
G2 X4.0067 Y4.2179 I-0.0711 J-0.0773
X3.9522 Y4.0555 I-0.5699 J0.101
G3 X3.9895 Y4.0187 I0.0244 J-0.0125
G2 X4.1511 Y4.076 I0.2719 J-0.511
X4.2471 Y4.0454 I0.02 J-0.1031
G1 X4.2507 Y4.0416
X4.2509 Y4.0414
G2 X4.2768 Y3.9439 I-0.0761 J-0.0724
X4.2116 Y3.7854 I-0.562 J0.1385
G3 X4.2464 Y3.7463 I0.0236 J-0.0141
G2 X4.4114 Y3.7927 I0.2375 J-0.5278
X4.5053 Y3.7557 I0.0132 J-0.1042
G1 X4.5086 Y3.7516
G2 X4.5281 Y3.6526 I-0.0807 J-0.0672
X4.4526 Y3.4988 I-0.5516 J0.1753
G3 X4.4847 Y3.4574 I0.0226 J-0.0156
G2 X4.6524 Y3.4928 I0.2021 J-0.5424
X4.7436 Y3.4497 I0.0063 J-0.1049
G1 X4.7467 Y3.4454
G2 X4.7596 Y3.3453 I-0.085 J-0.0617
X4.6741 Y3.1968 I-0.5388 J0.2113
G3 X4.7035 Y3.1535 I0.0215 J-0.0171
G2 X4.873 Y3.1777 I0.1658 J-0.5545
X4.9612 Y3.1288 I-0.0007 J-0.1051
G1 X4.964 Y3.1243
X4.9641 Y3.1241
G2 X4.9702 Y3.0234 I-0.0889 J-0.0559
X4.8751 Y2.8809 I-0.5237 J0.2464
G3 X4.9016 Y2.8357 I0.0203 J-0.0185
G2 X5.0724 Y2.8487 I0.1288 J-0.5643
X5.1572 Y2.7939 I-0.0076 J-0.1048
G1 X5.1597 Y2.7893
G2 X5.1592 Y2.6884 I-0.0924 J-0.05
X5.0549 Y2.5524 I-0.5062 J0.2805
G3 X5.0783 Y2.5056 I0.0191 J-0.0198
G2 X5.2496 Y2.5072 I0.0912 J-0.5716
X5.3306 Y2.447 I-0.0145 J-0.1041
G1 X5.3328 Y2.4422
G2 X5.3256 Y2.3415 I-0.0955 J-0.0438
X5.2125 Y2.2128 I-0.4866 J0.3134
G3 X5.2328 Y2.1645 I0.0177 J-0.021
G2 X5.4039 Y2.1548 I0.0533 J-0.5763
X5.4806 Y2.0894 I-0.0214 J-0.1029
X5.4808 Y2.0889 I-0.0701 J-0.0267
G1 X5.4826 Y2.0841
G2 X5.4687 Y1.9844 I-0.0983 J-0.0371
X5.3474 Y1.8634 I-0.4649 J0.3448
G3 X5.3644 Y1.8139 I0.0163 J-0.0221
G2 X5.5344 Y1.793 I0.015 J-0.5786
X5.6067 Y1.7226 I-0.0281 J-0.1012
G1 X5.6068 Y1.7223
X5.6083 Y1.7174
G2 X5.5879 Y1.6186 I-0.1005 J-0.0307
X5.4588 Y1.506 I-0.441 J0.3748
G3 X5.4725 Y1.4554 I0.0148 J-0.0231
G2 X5.6408 Y1.4233 I-0.0232 J-0.5783
X5.7083 Y1.3483 I-0.0347 J-0.0991
G1 X5.7095 Y1.3432
Y1.3431
G2 X5.6827 Y1.2458 I-0.1023 J-0.0241
X5.5464 Y1.1419 I-0.4153 J0.4032
G3 X5.5567 Y1.0905 I0.0132 J-0.024
G2 X5.7226 Y1.0473 I-0.0614 J-0.5755
X5.7849 Y0.968 I-0.0412 J-0.0966
G1 X5.7858 Y0.9628
G2 X5.7526 Y0.8675 I-0.1036 J-0.0173
X5.6098 Y0.7728 I-0.3877 J0.4297
G3 X5.6167 Y0.7209 I0.0116 J-0.0249
G2 X5.7793 Y0.6668 I-0.0993 J-0.5702
X5.8362 Y0.5838 I-0.0476 J-0.0936
G1 X5.8368 Y0.5787
Y0.5783
G2 X5.7974 Y0.4854 I-0.1045 J-0.0104
X5.6486 Y0.4004 I-0.3585 J0.4544
G3 X5.652 Y0.3481 I0.01 J-0.0256
G2 X5.8107 Y0.2834 I-0.1368 J-0.5624
X5.8621 Y0.1966 I-0.0536 J-0.0904
G1 Y0.1963
X5.8623 Y0.1911
G2 X5.8167 Y0.1012 I-0.105 J-0.0033
X5.6627 Y0.0262 I-0.3277 J0.4771
G3 Y-0.0262 I0.0082 J-0.0262
G2 X5.8167 Y-0.1012 I-0.1737 J-0.5521
X5.8623 Y-0.1911 I-0.0595 J-0.0866
G1 X5.8621 Y-0.1963
Y-0.1966
G2 X5.8107 Y-0.2834 I-0.105 J0.0035
X5.652 Y-0.3481 I-0.2954 J0.4977
G3 X5.6486 Y-0.4004 I0.0065 J-0.0267
G2 X5.7973 Y-0.4854 I-0.2097 J-0.5395
X5.8368 Y-0.5783 I-0.0651 J-0.0825
G1 Y-0.5787
X5.8362 Y-0.5838
G2 X5.7793 Y-0.6668 I-0.1045 J0.0106
X5.6167 Y-0.7209 I-0.2619 J0.5162
G3 X5.6098 Y-0.7728 I0.0047 J-0.027
G2 X5.7526 Y-0.8675 I-0.2449 J-0.5244
X5.7858 Y-0.9628 I-0.0704 J-0.078
G1 X5.7849 Y-0.9679
G2 X5.7226 Y-1.0473 I-0.1036 J0.0172
X5.5567 Y-1.0905 I-0.2272 J0.5323
G3 X5.5464 Y-1.1419 I0.0029 J-0.0273
G2 X5.6827 Y-1.2458 I-0.279 J-0.5071
X5.7095 Y-1.3431 I-0.0754 J-0.0732
G1 Y-1.3432
X5.7083 Y-1.3483
G2 X5.6408 Y-1.4233 I-0.1022 J0.0242
X5.4725 Y-1.4554 I-0.1915 J0.5462
G3 X5.4588 Y-1.506 I0.0011 J-0.0274
G2 X5.5879 Y-1.6186 I-0.312 J-0.4875
X5.6083 Y-1.7174 I-0.08 J-0.068
G1 X5.6068 Y-1.7223
X5.6067 Y-1.7226
G2 X5.5344 Y-1.793 I-0.1004 J0.0309
X5.3644 Y-1.8139 I-0.155 J0.5577
G3 X5.3474 Y-1.8634 I-0.0007 J-0.0274
G2 X5.4687 Y-1.9844 I-0.3435 J-0.4658
X5.4826 Y-2.0841 I-0.0844 J-0.0626
G1 X5.4808 Y-2.0889
G2 X5.4806 Y-2.0894 I-0.0703 J0.0263
X5.4039 Y-2.1548 I-0.0982 J0.0374
X5.2328 Y-2.1645 I-0.1178 J0.5667
G3 X5.2125 Y-2.2128 I-0.0025 J-0.0273
G2 X5.3256 Y-2.3415 I-0.3735 J-0.4422
X5.3328 Y-2.4422 I-0.0883 J-0.0569
G1 X5.3306 Y-2.447
G2 X5.2496 Y-2.5072 I-0.0955 J0.0438
X5.0783 Y-2.5056 I-0.0801 J0.5732
G3 X5.0549 Y-2.5524 I-0.0044 J-0.0271
G2 X5.1592 Y-2.6884 I-0.4019 J-0.4164
X5.1597 Y-2.7893 I-0.0919 J-0.0509
G1 X5.1572 Y-2.7939
G2 X5.0724 Y-2.8487 I-0.0924 J0.05
X4.9016 Y-2.8357 I-0.042 J0.5773
G3 X4.8751 Y-2.8809 I-0.0061 J-0.0268
G2 X4.9702 Y-3.0234 I-0.4286 J-0.3889
X4.9641 Y-3.1241 I-0.095 J-0.0448
G1 X4.964 Y-3.1243
X4.9612 Y-3.1288
G2 X4.873 Y-3.1777 I-0.0888 J0.0561
X4.7035 Y-3.1535 I-0.0038 J0.5788
G3 X4.6741 Y-3.1968 I-0.0079 J-0.0263
G2 X4.7596 Y-3.3453 I-0.4533 J-0.3598
X4.7467 Y-3.4454 I-0.0978 J-0.0384
G1 X4.7436 Y-3.4497
G2 X4.6524 Y-3.4928 I-0.085 J0.0617
X4.4847 Y-3.4574 I0.0345 J0.5778
G3 X4.4526 Y-3.4988 I-0.0096 J-0.0257
G2 X4.5281 Y-3.6526 I-0.4761 J-0.3291
X4.5086 Y-3.7516 I-0.1001 J-0.0318
G1 X4.5053 Y-3.7557
G2 X4.4114 Y-3.7927 I-0.0807 J0.0672
X4.2464 Y-3.7463 I0.0726 J0.5742
G3 X4.2116 Y-3.7854 I-0.0113 J-0.025
G2 X4.2768 Y-3.9439 I-0.4968 J-0.297
X4.2509 Y-4.0414 I-0.102 J-0.0251
G1 X4.2507 Y-4.0416
X4.2471 Y-4.0454
G2 X4.1511 Y-4.076 I-0.076 J0.0725
X3.9895 Y-4.0187 I0.1104 J0.5682
G3 X3.9522 Y-4.0554 I-0.0129 J-0.0242
G2 X4.0067 Y-4.2179 I-0.5154 J-0.2634
X3.9745 Y-4.3135 I-0.1034 J-0.0184
G1 X3.9706 Y-4.3171
G2 X3.8726 Y-4.3414 I-0.0711 J0.0773
X3.7152 Y-4.2736 I0.1477 J0.5596
G3 X3.6756 Y-4.3078 I-0.0145 J-0.0233
G2 X3.7192 Y-4.4735 I-0.5317 J-0.2287
X3.6807 Y-4.5668 I-0.1044 J-0.0115
G1 X3.6806
X3.6765 Y-4.5701
G2 X3.5773 Y-4.5878 I-0.0658 J0.0819
G1 X3.5772
G2 X3.4247 Y-4.5098 I0.1844 J0.5486
G3 X3.3828 Y-4.5413 I-0.016 J-0.0223
G2 X3.4154 Y-4.7095 I-0.5456 J-0.1931
G1 Y-4.7096
G2 X3.3708 Y-4.8 I-0.105 J-0.0044
G1 Y-4.8001
X3.3665 Y-4.8031
G2 X3.2662 Y-4.8142 I-0.0603 J0.086
X3.1191 Y-4.7263 I0.2201 J0.5353
G3 X3.0753 Y-4.7549 I-0.0174 J-0.0212
G2 X3.0967 Y-4.9249 I-0.5572 J-0.1566
X3.0463 Y-5.0123 I-0.105 J0.0024
G1 X3.0418 Y-5.015
X3.0417
G2 X2.9409 Y-5.0196 I-0.0546 J0.0898
X2.7999 Y-4.9221 I0.2551 J0.5195
G3 X2.7543 Y-4.9478 I-0.0188 J-0.02
G2 X2.7645 Y-5.1189 I-0.5663 J-0.1195
X2.7083 Y-5.2027 I-0.1046 J0.0094
G1 X2.7036 Y-5.2051
G2 X2.6027 Y-5.2029 I-0.0484 J0.0932
X2.4685 Y-5.0964 I0.2889 J0.5015
G3 X2.4213 Y-5.119 I-0.0201 J-0.0187
G2 X2.4201 Y-5.2904 I-0.573 J-0.0818
X2.3585 Y-5.3703 I-0.1038 J0.0163
G1 X2.3537 Y-5.3724
G2 X2.2532 Y-5.3636 I-0.0422 J0.0962
X2.1263 Y-5.2484 I0.3214 J0.4814
G3 X2.0777 Y-5.2678 I-0.0213 J-0.0174
G2 X2.0652 Y-5.4387 I-0.5771 J-0.0437
X1.9985 Y-5.5144 I-0.1025 J0.0231
G1 X1.9936 Y-5.5162
X1.9934
G2 X1.8938 Y-5.5008 I-0.0357 J0.0988
G1 X1.8937
G2 X1.7748 Y-5.3774 I0.3526 J0.459
G3 X1.725 Y-5.3936 I-0.0224 J-0.0159
G2 X1.7012 Y-5.5633 I-0.5788 J-0.0055
X1.6296 Y-5.6345 I-0.1008 J0.0298
G1 X1.6295
X1.6244 Y-5.636
G2 X1.526 Y-5.6139 I-0.029 J0.1009
X1.4155 Y-5.483 I0.3821 J0.4348
G3 X1.3647 Y-5.4958 I-0.0234 J-0.0144
G2 X1.3298 Y-5.6636 I-0.5779 J0.0328
X1.2538 Y-5.7298 I-0.0985 J0.0364
G1 X1.2487 Y-5.7309
X1.2485 Y-5.731
G2 X1.1517 Y-5.7024 I-0.0224 J0.1026
X1.05 Y-5.5646 I0.41 J0.4086
G3 X0.9985 Y-5.574 I-0.0243 J-0.0128
G2 X0.9526 Y-5.7391 I-0.5744 J0.0709
X0.8723 Y-5.8002 I-0.0959 J0.0428
G1 X0.867 Y-5.8009
Y-5.801
G2 X0.7723 Y-5.7661 I-0.0155 J0.1039
X0.68 Y-5.6218 I0.4361 J0.3806
G3 X0.6279 Y-5.6278 I-0.0251 J-0.0112
G2 X0.5712 Y-5.7895 I-0.5685 J0.1087
X0.4873 Y-5.8451 I-0.0929 J0.0491
G1 X0.4822 Y-5.8455
G2 X0.4817 Y-5.8456 I-0.0067 J0.0748
X0.3895 Y-5.8045 I-0.0086 J0.1047
X0.3069 Y-5.6544 I0.4603 J0.3509
G3 X0.2546 Y-5.657 I-0.0257 J-0.0095
G2 X0.1873 Y-5.8146 I-0.5601 J0.146
X0.0996 Y-5.8645 I-0.0894 J0.0551
G1 X0.0995
X0.0942 Y-5.8646
G2 X0.005 Y-5.8176 I-0.0017 J0.105
X-0.0674 Y-5.6624 I0.4824 J0.3198
G3 X-0.1198 Y-5.6615 I-0.0263 J-0.0078
G2 X-0.1974 Y-5.8142 I-0.5492 J0.1828
X-0.2882 Y-5.8583 I-0.0856 J0.0608
G1 X-0.2884
X-0.2936 Y-5.858
G2 X-0.3795 Y-5.8052 I0.0053 J0.1049
X-0.4415 Y-5.6455 I0.5025 J0.2872
G3 X-0.4937 Y-5.6412 I-0.0268 J-0.0061
G2 X-0.5812 Y-5.7885 I-0.5359 J0.2186
X-0.6745 Y-5.8265 I-0.0814 J0.0664
G1 X-0.6797 Y-5.8259
X-0.68 Y-5.8258
G2 X-0.7623 Y-5.7674 I0.0122 J0.1043
X-0.8137 Y-5.604 I0.5204 J0.2533
G3 X-0.8655 Y-5.5962 I-0.0271 J-0.0043
G2 X-0.9625 Y-5.7374 I-0.5203 J0.2536
X-1.0583 Y-5.7691 I-0.0768 J0.0717
X-1.0587 I0.0135 J0.0738
G1 X-1.0638 Y-5.7681
G2 X-1.1418 Y-5.7044 I0.0192 J0.1033
X-1.1823 Y-5.538 I0.536 J0.2184
G3 X-1.2334 Y-5.5268 I-0.0273 J-0.0025
G2 X-1.3396 Y-5.6613 I-0.5024 J0.2874
X-1.4373 Y-5.6865 I-0.0719 J0.0766
G1 X-1.4424 Y-5.6852
G2 X-1.5163 Y-5.6166 I0.0258 J0.1018
X-1.5457 Y-5.4477 I0.5493 J0.1825
G3 X-1.596 Y-5.4332 I-0.0274 J-0.0006
G2 X-1.7108 Y-5.5604 I-0.4823 J0.32
X-1.81 Y-5.5791 I-0.0667 J0.0812
G1 X-1.8102
X-1.8152 Y-5.5774
G2 X-1.8842 Y-5.504 I0.0326 J0.0999
X-1.9024 Y-5.3337 I0.5601 J0.1457
G3 X-1.9516 Y-5.3158 I-0.0274 J0.0012
G2 X-2.0746 Y-5.4351 I-0.46 J0.3512
X-2.1745 Y-5.4474 I-0.0612 J0.0854
G1 X-2.1792 Y-5.4455
G2 X-2.1797 Y-5.4453 I0.0274 J0.0699
X-2.2439 Y-5.3675 I0.039 J0.0975
X-2.2507 Y-5.1963 I0.5685 J0.1084
G3 X-2.2986 Y-5.1752 I-0.0273 J0.003
G2 X-2.4293 Y-5.2862 I-0.4359 J0.3808
X-2.53 Y-5.2917 I-0.0554 J0.0893
G1 X-2.5348 Y-5.2894
G2 X-2.5937 Y-5.2074 I0.0454 J0.0948
X-2.5892 Y-5.0362 I0.5745 J0.0706
G3 X-2.6357 Y-5.012 I-0.027 J0.0048
G2 X-2.7733 Y-5.114 I-0.4097 J0.4088
X-2.8742 Y-5.1129 I-0.0494 J0.0927
G1 X-2.8788 Y-5.1103
G2 X-2.9322 Y-5.0247 I0.0515 J0.0915
X-2.9164 Y-4.854 I0.5779 J0.0325
G3 X-2.9612 Y-4.8268 I-0.0267 J0.0065
G2 X-3.1052 Y-4.9196 I-0.3818 J0.435
X-3.2057 Y-4.9118 I-0.0432 J0.0957
G1 X-3.2101 Y-4.909
X-3.2103 Y-4.9089
G2 X-3.2579 Y-4.8198 I0.0575 J0.0879
X-3.2308 Y-4.6507 I0.5788 J-0.0058
G3 X-3.2737 Y-4.6206 I-0.0262 J0.0083
G2 X-3.4236 Y-4.7036 I-0.3522 J0.4592
X-3.5233 Y-4.6892 I-0.0367 J0.0984
G1 X-3.5274 Y-4.6862
X-3.5277 Y-4.686
G2 X-3.5693 Y-4.594 I0.0631 J0.084
X-3.5311 Y-4.427 I0.5771 J-0.044
G3 X-3.5719 Y-4.3941 I-0.0256 J0.01
G2 X-3.727 Y-4.4671 I-0.3211 J0.4815
X-3.8255 Y-4.4461 I-0.0301 J0.1006
G1 X-3.8294 Y-4.4428
X-3.8297 Y-4.4426
G2 X-3.8651 Y-4.348 I0.0686 J0.0796
X-3.816 Y-4.1839 I0.573 J-0.0821
G3 X-3.8545 Y-4.1484 I-0.0248 J0.0117
G2 X-4.014 Y-4.211 I-0.2886 J0.5017
X-4.1111 Y-4.1835 I-0.0234 J0.1024
G1 X-4.1113 Y-4.1833
X-4.115 Y-4.1796
G2 X-4.144 Y-4.0831 I0.0738 J0.0748
X-4.0841 Y-3.9226 I0.5662 J-0.1198
G3 X-4.1202 Y-3.8846 I-0.024 J0.0133
G2 X-4.2836 Y-3.9365 I-0.2548 J0.5197
X-4.3786 Y-3.9026 I-0.0166 J0.1037
G1 X-4.3788 Y-3.9025
X-4.3822 Y-3.8986
G2 X-4.4048 Y-3.8003 I0.0785 J0.0698
X-4.3345 Y-3.6441 I0.5571 J-0.1569
G3 X-4.368 Y-3.6038 I-0.0231 J0.0148
G2 X-4.5343 Y-3.6448 I-0.2199 J0.5354
X-4.6269 Y-3.6048 I-0.0097 J0.1046
G1 X-4.6301 Y-3.6006
X-4.6303 Y-3.6004
G2 X-4.6463 Y-3.5009 I0.083 J0.0644
X-4.5658 Y-3.3496 I0.5455 J-0.1934
G3 X-4.5966 Y-3.3073 I-0.0221 J0.0163
G2 X-4.7653 Y-3.3371 I-0.1841 J0.5488
X-4.855 Y-3.2912 I-0.0028 J0.105
G1 X-4.8579 Y-3.2869
X-4.8581 Y-3.2865
G2 X-4.8675 Y-3.1861 I0.087 J0.0588
X-4.7772 Y-3.0406 I0.5316 J-0.229
G3 X-4.8051 Y-2.9962 I-0.0209 J0.0178
G2 X-4.9754 Y-3.0149 I-0.1474 J0.5597
X-5.062 Y-2.963 I0.0041 J0.105
G1 X-5.0646 Y-2.9584
X-5.0647 Y-2.9583
G2 X-5.0675 Y-2.8575 I0.0907 J0.053
X-4.9677 Y-2.7182 I0.5153 J-0.2636
G3 X-4.9927 Y-2.6721 I-0.0197 J0.0191
G2 X-5.1638 Y-2.6794 I-0.1101 J0.5682
X-5.2467 Y-2.6219 I0.011 J0.1045
G1 X-5.2491 Y-2.6172
G2 X-5.2453 Y-2.5163 I0.094 J0.0469
X-5.1365 Y-2.3839 I0.4967 J-0.2971
G3 X-5.1583 Y-2.3363 I-0.0184 J0.0204
G2 X-5.3297 Y-2.3323 I-0.0723 J0.5743
X-5.4085 Y-2.2694 I0.018 J0.1035
G1 X-5.4106 Y-2.2645
G2 X-5.4001 Y-2.1642 I0.0969 J0.0406
X-5.2829 Y-2.0392 I0.476 J-0.3293
G3 X-5.3015 Y-1.9903 I-0.017 J0.0216
G2 X-5.4721 Y-1.975 I-0.0342 J0.5778
X-5.5467 Y-1.907 I0.0248 J0.1021
G1 X-5.5468 Y-1.9067
X-5.5485 Y-1.9018
G2 X-5.5313 Y-1.8025 I0.0994 J0.0339
X-5.4061 Y-1.6856 I0.4532 J-0.36
G3 X-5.4214 Y-1.6356 I-0.0155 J0.0226
G2 X-5.5907 Y-1.609 I0.0041 J0.5788
G1 X-5.5908
G2 X-5.6606 Y-1.5363 I0.0315 J0.1002
G1 X-5.6607 Y-1.5361
X-5.662 Y-1.5311
G2 X-5.6384 Y-1.4331 I0.1014 J0.0274
G1 Y-1.433
G2 X-5.5056 Y-1.3247 I0.4284 J-0.3893
G3 X-5.5177 Y-1.2737 I-0.014 J0.0236
G2 X-5.6848 Y-1.236 I0.0424 J0.5772
X-5.7497 Y-1.1589 I0.038 J0.0979
G1 X-5.7508 Y-1.1539
Y-1.1536
G2 X-5.7208 Y-1.0573 I0.103 J0.0207
X-5.5812 Y-0.9579 I0.4018 J-0.4167
G3 X-5.5898 Y-0.9062 I-0.0124 J0.0245
G2 X-5.754 Y-0.8576 I0.0804 J0.5732
X-5.8138 Y-0.7763 I0.0444 J0.0952
X-5.8139 Y-0.7758 I0.0744 J0.01
G1 X-5.8145 Y-0.7707
G2 X-5.7782 Y-0.6769 I0.1042 J0.0136
G1 X-5.7781 Y-0.6768
G2 X-5.6322 Y-0.5869 I0.3733 J-0.4423
G3 X-5.6374 Y-0.5348 I-0.0108 J0.0252
G2 X-5.7982 Y-0.4754 I0.1181 J0.5666
X-5.8524 Y-0.3903 I0.0506 J0.092
G1 X-5.8527 Y-0.3851
G2 X-5.8103 Y-0.2935 I0.1048 J0.007
G1 X-5.8102
G2 X-5.6587 Y-0.2134 I0.3433 J-0.466
G3 X-5.6605 Y-0.1611 I-0.0091 J0.0259
G2 X-5.8169 Y-0.0912 I0.1553 J0.5576
G1 X-5.817 Y-0.0911
G2 X-5.8654 Y-0.0026 I0.0567 J0.0885
G1 Y0.
Y0.0026 Z-0.0726
G2 X-5.817 Y0.0911 Z-0.0779 I0.1051 J0.
G1 X-5.8169 Y0.0912
G2 X-5.6605 Y0.1611 Z-0.0865 I0.3117 J-0.4877
G3 X-5.6587 Y0.2134 Z-0.09 I-0.0074 J0.0264
G2 X-5.8102 Y0.2935 Z-0.0987 I0.1918 J0.5461
G1 X-5.8103
G2 X-5.8527 Y0.385 Z-0.1039 I0.0623 J0.0845
G1 X-5.8524 Y0.3903 Z-0.1042
G2 X-5.7982 Y0.4754 Z-0.1095 I0.1048 J-0.007
X-5.6374 Y0.5348 Z-0.1181 I0.2788 J-0.5072
G3 X-5.6322 Y0.5869 Z-0.1216 I-0.0056 J0.0269
G2 X-5.7781 Y0.6768 Z-0.1302 I0.2274 J0.5322
G1 X-5.7782 Y0.6769
G2 X-5.8145 Y0.7707 Z-0.1355 I0.0679 J0.0802
G1 X-5.8139 Y0.7758 Z-0.1358
G2 X-5.8138 Y0.7763 I0.0744 J-0.0095
X-5.754 Y0.8576 Z-0.1411 I0.1041 J-0.0139
X-5.6811 Y0.8858 Z-0.145 I0.2447 J-0.5245
X-5.5898 Y0.9062 I0.1718 J-0.5527
G3 X-5.5812 Y0.9579 I-0.0038 J0.0272
G2 X-5.7208 Y1.0572 I0.2621 J0.516
X-5.7508 Y1.1536 I0.0729 J0.0756
G1 Y1.1539
X-5.7497 Y1.1589
G2 X-5.6848 Y1.236 I0.103 J-0.0209
X-5.5177 Y1.2737 I0.2095 J-0.5395
G3 X-5.5056 Y1.3247 I-0.002 J0.0274
G2 X-5.6384 Y1.433 I0.2956 J0.4976
G1 Y1.4331
G2 X-5.662 Y1.5311 I0.0778 J0.0706
G1 X-5.6607 Y1.5361
X-5.6606 Y1.5363
G2 X-5.5908 Y1.609 I0.1014 J-0.0275
G1 X-5.5907
G2 X-5.4214 Y1.6356 I0.1734 J-0.5522
G3 X-5.4061 Y1.6856 I-0.0002 J0.0274
G2 X-5.5313 Y1.8025 I0.3279 J0.4769
X-5.5485 Y1.9018 I0.0822 J0.0653
G1 X-5.5468 Y1.9067
X-5.5467 Y1.907
G2 X-5.4722 Y1.975 I0.0994 J-0.0341
X-5.3015 Y1.9903 I0.1365 J-0.5625
G3 X-5.2828 Y2.0392 I0.0016 J0.0274
G2 X-5.4001 Y2.1642 I0.3588 J0.4542
X-5.4106 Y2.2645 I0.0864 J0.0598
G1 X-5.4085 Y2.2694
G2 X-5.3297 Y2.3323 I0.0969 J-0.0406
X-5.1583 Y2.3363 I0.099 J-0.5703
G3 X-5.1365 Y2.3839 I0.0034 J0.0272
G2 X-5.2453 Y2.5163 I0.388 J0.4295
X-5.2491 Y2.6171 I0.0902 J0.0539
G1 X-5.2468 Y2.6219
G2 X-5.1638 Y2.6794 I0.094 J-0.0469
X-4.9927 Y2.6721 I0.0611 J-0.5756
G3 X-4.9677 Y2.7182 I0.0052 J0.0269
G2 X-5.0675 Y2.8575 I0.4155 J0.4029
X-5.0647 Y2.9583 I0.0935 J0.0479
G1 X-5.0646 Y2.9584
X-5.062 Y2.963
G2 X-4.9754 Y3.0149 I0.0907 J-0.0531
X-4.8051 Y2.9962 I0.0229 J-0.5783
G3 X-4.7772 Y3.0406 I0.007 J0.0265
G2 X-4.8675 Y3.1861 I0.4412 J0.3746
X-4.8581 Y3.2865 I0.0964 J0.0416
G1 X-4.8579 Y3.2869
X-4.855 Y3.2912
G2 X-4.7653 Y3.3371 I0.0869 J-0.0591
X-4.5966 Y3.3073 I-0.0153 J-0.5786
G3 X-4.5658 Y3.3496 I0.0087 J0.026
G2 X-4.6463 Y3.5009 I0.465 J0.3446
X-4.6303 Y3.6004 I0.099 J0.0352
G1 X-4.6301 Y3.6006
X-4.6269 Y3.6048
G2 X-4.5343 Y3.6448 I0.0828 J-0.0646
X-4.368 Y3.6038 I-0.0536 J-0.5763
G3 X-4.3345 Y3.6441 I0.0104 J0.0254
G2 X-4.4048 Y3.8003 I0.4868 J0.3131
X-4.3822 Y3.8986 I0.1011 J0.0285
G1 X-4.3788 Y3.9025
X-4.3786 Y3.9026
G2 X-4.2836 Y3.9365 I0.0785 J-0.0699
X-4.1203 Y3.8846 I-0.0915 J-0.5715
G3 X-4.0841 Y3.9226 I0.0121 J0.0246
G2 X-4.144 Y4.0831 I0.5064 J0.2803
X-4.115 Y4.1796 I0.1028 J0.0218
G1 X-4.1113 Y4.1833
X-4.1111 Y4.1835
G2 X-4.014 Y4.211 I0.0736 J-0.075
X-3.8545 Y4.1484 I-0.1291 J-0.5642
G3 X-3.816 Y4.1839 I0.0137 J0.0238
G2 X-3.8651 Y4.348 I0.5238 J0.2462
X-3.8297 Y4.4426 I0.104 J0.0149
G1 X-3.8294 Y4.4428
X-3.8255 Y4.4461
G2 X-3.727 Y4.4671 I0.0684 J-0.0797
X-3.5719 Y4.3941 I-0.166 J-0.5545
G3 X-3.5311 Y4.427 I0.0152 J0.0228
G2 X-3.5693 Y4.594 I0.5389 J0.211
X-3.5277 Y4.686 I0.1047 J0.008
G1 X-3.5274 Y4.6862
X-3.5233 Y4.6892
G2 X-3.4236 Y4.7036 I0.063 J-0.0841
X-3.2737 Y4.6206 I-0.2024 J-0.5423
G3 X-3.2308 Y4.6507 I0.0167 J0.0218
G2 X-3.2579 Y4.8198 I0.5517 J0.175
X-3.2103 Y4.9089 I0.105 J0.0011
G1 X-3.2101 Y4.909
X-3.2057 Y4.9118
G2 X-3.1052 Y4.9196 I0.0573 J-0.088
X-2.9612 Y4.8268 I-0.2377 J-0.5277
G3 X-2.9164 Y4.854 I0.0181 J0.0206
G2 X-2.9322 Y5.0246 I0.5621 J0.1381
X-2.8788 Y5.1103 I0.1049 J-0.0059
G1 X-2.8742 Y5.1129
G2 X-2.7733 Y5.114 I0.0515 J-0.0916
X-2.6357 Y5.012 I-0.2721 J-0.5108
G3 X-2.5892 Y5.0362 I0.0194 J0.0194
G2 X-2.5937 Y5.2074 I0.57 J0.1007
X-2.5348 Y5.2894 I0.1043 J-0.0128
G1 X-2.53 Y5.2917
G2 X-2.4293 Y5.2862 I0.0453 J-0.0948
X-2.2987 Y5.1752 I-0.3053 J-0.4918
G3 X-2.2507 Y5.1963 I0.0207 J0.018
G2 X-2.2439 Y5.3675 I0.5754 J0.0628
X-2.1797 Y5.4453 I0.1032 J-0.0197
X-2.1792 Y5.4455 I0.0279 J-0.0697
G1 X-2.1745 Y5.4474
G2 X-2.0746 Y5.4351 I0.0387 J-0.0976
X-1.9516 Y5.3159 I-0.3371 J-0.4705
G3 X-1.9024 Y5.3337 I0.0218 J0.0166
G2 X-1.8842 Y5.504 I0.5783 J0.0246
X-1.8152 Y5.5774 I0.1017 J-0.0264
G1 X-1.8102 Y5.5791
X-1.81
G2 X-1.7108 Y5.5604 I0.0324 J-0.0999
X-1.596 Y5.4332 I-0.3675 J-0.4472
G3 X-1.5457 Y5.4477 I0.0229 J0.0152
G2 X-1.5163 Y5.6165 I0.5786 J-0.0137
X-1.4424 Y5.6852 I0.0997 J-0.0331
G1 X-1.4373 Y5.6865
G2 X-1.3396 Y5.6613 I0.0258 J-0.1018
X-1.2334 Y5.5268 I-0.3962 J-0.4219
G3 X-1.1823 Y5.538 I0.0238 J0.0136
G2 X-1.1418 Y5.7044 I0.5765 J-0.0519
X-1.0638 Y5.7681 I0.0973 J-0.0396
G1 X-1.0587 Y5.7691
G2 X-1.0583 I0.0139 J-0.0737
X-0.9625 Y5.7374 I0.0189 J-0.1033
X-0.8655 Y5.5962 I-0.4233 J-0.3948
G3 X-0.8137 Y5.604 I0.0247 J0.012
G2 X-0.7623 Y5.7674 I0.5718 J-0.0899
X-0.68 Y5.8258 I0.0945 J-0.0459
G1 X-0.6797 Y5.8259
X-0.6745 Y5.8265
G2 X-0.5812 Y5.7885 I0.0119 J-0.1044
X-0.4937 Y5.6412 I-0.4484 J-0.366
G3 X-0.4415 Y5.6455 I0.0254 J0.0104
G2 X-0.3795 Y5.8052 I0.5646 J-0.1274
X-0.2936 Y5.858 I0.0912 J-0.0521
G1 X-0.2884 Y5.8583
X-0.2882
G2 X-0.1974 Y5.8142 I0.0052 J-0.1049
X-0.1198 Y5.6615 I-0.4716 J-0.3355
G3 X-0.0674 Y5.6624 I0.026 J0.0087
G2 X0.005 Y5.8176 I0.5549 J-0.1645
X0.0942 Y5.8646 I0.0876 J-0.058
G1 X0.0995 Y5.8645
X0.0996
G2 X0.1873 Y5.8146 I-0.0017 J-0.105
X0.2546 Y5.657 I-0.4928 J-0.3036
G3 X0.3069 Y5.6544 I0.0266 J0.0069
G2 X0.3895 Y5.8045 I0.5429 J-0.2008
X0.4817 Y5.8456 I0.0836 J-0.0637
X0.4822 Y5.8455 I-0.0061 J-0.0748
G1 X0.4873 Y5.8451
G2 X0.5712 Y5.7895 I-0.009 J-0.1047
X0.6279 Y5.6278 I-0.5117 J-0.2704
G3 X0.68 Y5.6218 I0.027 J0.0052
G2 X0.7723 Y5.7661 I0.5284 J-0.2362
X0.867 Y5.801 I0.0792 J-0.0691
G1 Y5.8009
X0.8723 Y5.8002
G2 X0.9526 Y5.7391 I-0.0156 J-0.1039
X0.9985 Y5.574 I-0.5285 J-0.236
G3 X1.05 Y5.5646 I0.0273 J0.0034
G2 X1.1517 Y5.7024 I0.5116 J-0.2707
X1.2485 Y5.731 I0.0744 J-0.0741
G1 X1.2487 Y5.7309
X1.2538 Y5.7298
G2 X1.3298 Y5.6636 I-0.0225 J-0.1026
X1.3647 Y5.4958 I-0.5429 J-0.2006
G3 X1.4155 Y5.483 I0.0274 J0.0016
G2 X1.526 Y5.6139 I0.4926 J-0.3039
X1.6244 Y5.636 I0.0694 J-0.0789
G1 X1.6295 Y5.6345
X1.6296
G2 X1.7012 Y5.5634 I-0.0292 J-0.1009
X1.725 Y5.3936 I-0.555 J-0.1642
G3 X1.7748 Y5.3774 I0.0275 J-0.0002
G2 X1.8937 Y5.5008 I0.4715 J-0.3357
G1 X1.8938
G2 X1.9934 Y5.5162 I0.0639 J-0.0834
G1 X1.9936
X1.9985 Y5.5144
G2 X2.0652 Y5.4388 I-0.0358 J-0.0988
X2.0777 Y5.2678 I-0.5646 J-0.1272
G3 X2.1263 Y5.2484 I0.0274 J-0.0021
G2 X2.2531 Y5.3636 I0.4483 J-0.3661
X2.3537 Y5.3724 I0.0583 J-0.0874
G1 X2.3585 Y5.3703
G2 X2.4201 Y5.2904 I-0.0422 J-0.0962
X2.4213 Y5.119 I-0.5718 J-0.0896
G3 X2.4685 Y5.0964 I0.0272 J-0.0039
G2 X2.6027 Y5.2029 I0.4231 J-0.395
X2.7036 Y5.2051 I0.0525 J-0.091
G1 X2.7083 Y5.2027
G2 X2.7645 Y5.1189 I-0.0484 J-0.0932
X2.7543 Y4.9478 I-0.5765 J-0.0516
G3 X2.7999 Y4.9221 I0.0269 J-0.0057
G2 X2.9409 Y5.0196 I0.3961 J-0.4221
X3.0417 Y5.015 I0.0463 J-0.0943
G1 X3.0418
X3.0463 Y5.0123
G2 X3.0967 Y4.9249 I-0.0546 J-0.0897
X3.0753 Y4.7549 I-0.5786 J-0.0134
G3 X3.1191 Y4.7263 I0.0264 J-0.0074
G2 X3.2662 Y4.8142 I0.3672 J-0.4474
X3.3665 Y4.8031 I0.04 J-0.0971
G1 X3.3708 Y4.8001
Y4.8
G2 X3.4154 Y4.7096 I-0.0603 J-0.086
G1 Y4.7095
G2 X3.3828 Y4.5413 I-0.5783 J0.0249
G3 X3.4247 Y4.5098 I0.0259 J-0.0092
G2 X3.5772 Y4.5878 I0.3369 J-0.4706
G1 X3.5773
G2 X3.6765 Y4.5701 I0.0334 J-0.0996
G1 X3.6806 Y4.5668
X3.6807
G2 X3.7192 Y4.4735 I-0.0659 J-0.0818
X3.6756 Y4.3078 I-0.5753 J0.0631
G3 X3.7152 Y4.2736 I0.0252 J-0.0108
G2 X3.8726 Y4.3414 I0.3051 J-0.4919
X3.9705 Y4.3171 I0.0268 J-0.1016
G1 X3.9744 Y4.3135
G2 X4.0067 Y4.2179 I-0.0711 J-0.0773
X3.9522 Y4.0555 I-0.5699 J0.101
G3 X3.9895 Y4.0187 I0.0244 J-0.0125
G2 X4.1511 Y4.076 I0.2719 J-0.511
X4.2471 Y4.0454 I0.02 J-0.1031
G1 X4.2507 Y4.0416
X4.2509 Y4.0414
G2 X4.2768 Y3.9439 I-0.0761 J-0.0724
X4.2116 Y3.7854 I-0.562 J0.1385
G3 X4.2464 Y3.7463 I0.0236 J-0.0141
G2 X4.4114 Y3.7927 I0.2375 J-0.5278
X4.5053 Y3.7557 I0.0132 J-0.1042
G1 X4.5086 Y3.7516
G2 X4.5281 Y3.6526 I-0.0807 J-0.0672
X4.4526 Y3.4988 I-0.5516 J0.1753
G3 X4.4847 Y3.4574 I0.0226 J-0.0156
G2 X4.6524 Y3.4928 I0.2021 J-0.5424
X4.7436 Y3.4497 I0.0063 J-0.1049
G1 X4.7467 Y3.4454
G2 X4.7596 Y3.3453 I-0.085 J-0.0617
X4.6741 Y3.1968 I-0.5388 J0.2113
G3 X4.7035 Y3.1535 I0.0215 J-0.0171
G2 X4.873 Y3.1777 I0.1658 J-0.5545
X4.9612 Y3.1288 I-0.0007 J-0.1051
G1 X4.964 Y3.1243
X4.9641 Y3.1241
G2 X4.9702 Y3.0234 I-0.0889 J-0.0559
X4.8751 Y2.8809 I-0.5237 J0.2464
G3 X4.9016 Y2.8357 I0.0203 J-0.0185
G2 X5.0724 Y2.8487 I0.1288 J-0.5643
X5.1572 Y2.7939 I-0.0076 J-0.1048
G1 X5.1597 Y2.7893
G2 X5.1592 Y2.6884 I-0.0924 J-0.05
X5.0549 Y2.5524 I-0.5062 J0.2805
G3 X5.0783 Y2.5056 I0.0191 J-0.0198
G2 X5.2496 Y2.5072 I0.0912 J-0.5716
X5.3306 Y2.447 I-0.0145 J-0.1041
G1 X5.3328 Y2.4422
G2 X5.3256 Y2.3415 I-0.0955 J-0.0438
X5.2125 Y2.2128 I-0.4866 J0.3134
G3 X5.2328 Y2.1645 I0.0177 J-0.021
G2 X5.4039 Y2.1548 I0.0533 J-0.5763
X5.4806 Y2.0894 I-0.0214 J-0.1029
X5.4808 Y2.0889 I-0.0701 J-0.0267
G1 X5.4826 Y2.0841
G2 X5.4687 Y1.9844 I-0.0983 J-0.0371
X5.3474 Y1.8634 I-0.4649 J0.3448
G3 X5.3644 Y1.8139 I0.0163 J-0.0221
G2 X5.5344 Y1.793 I0.015 J-0.5786
X5.6067 Y1.7226 I-0.0281 J-0.1012
G1 X5.6068 Y1.7223
X5.6083 Y1.7174
G2 X5.5879 Y1.6186 I-0.1005 J-0.0307
X5.4588 Y1.506 I-0.441 J0.3748
G3 X5.4725 Y1.4554 I0.0148 J-0.0231
G2 X5.6408 Y1.4233 I-0.0232 J-0.5783
X5.7083 Y1.3483 I-0.0347 J-0.0991
G1 X5.7095 Y1.3432
Y1.3431
G2 X5.6827 Y1.2458 I-0.1023 J-0.0241
X5.5464 Y1.1419 I-0.4153 J0.4032
G3 X5.5567 Y1.0905 I0.0132 J-0.024
G2 X5.7226 Y1.0473 I-0.0614 J-0.5755
X5.7849 Y0.968 I-0.0412 J-0.0966
G1 X5.7858 Y0.9628
G2 X5.7526 Y0.8675 I-0.1036 J-0.0173
X5.6098 Y0.7728 I-0.3877 J0.4297
G3 X5.6167 Y0.7209 I0.0116 J-0.0249
G2 X5.7793 Y0.6668 I-0.0993 J-0.5702
X5.8362 Y0.5838 I-0.0476 J-0.0936
G1 X5.8368 Y0.5787
Y0.5783
G2 X5.7974 Y0.4854 I-0.1045 J-0.0104
X5.6486 Y0.4004 I-0.3585 J0.4544
G3 X5.652 Y0.3481 I0.01 J-0.0256
G2 X5.8107 Y0.2834 I-0.1368 J-0.5624
X5.8621 Y0.1966 I-0.0536 J-0.0904
G1 Y0.1963
X5.8623 Y0.1911
G2 X5.8167 Y0.1012 I-0.105 J-0.0033
X5.6627 Y0.0262 I-0.3277 J0.4771
G3 Y-0.0262 I0.0082 J-0.0262
G2 X5.8167 Y-0.1012 I-0.1737 J-0.5521
X5.8623 Y-0.1911 I-0.0595 J-0.0866
G1 X5.8621 Y-0.1963
Y-0.1966
G2 X5.8107 Y-0.2834 I-0.105 J0.0035
X5.652 Y-0.3481 I-0.2954 J0.4977
G3 X5.6486 Y-0.4004 I0.0065 J-0.0267
G2 X5.7973 Y-0.4854 I-0.2097 J-0.5395
X5.8368 Y-0.5783 I-0.0651 J-0.0825
G1 Y-0.5787
X5.8362 Y-0.5838
G2 X5.7793 Y-0.6668 I-0.1045 J0.0106
X5.6167 Y-0.7209 I-0.2619 J0.5162
G3 X5.6098 Y-0.7728 I0.0047 J-0.027
G2 X5.7526 Y-0.8675 I-0.2449 J-0.5244
X5.7858 Y-0.9628 I-0.0704 J-0.078
G1 X5.7849 Y-0.9679
G2 X5.7226 Y-1.0473 I-0.1036 J0.0172
X5.5567 Y-1.0905 I-0.2272 J0.5323
G3 X5.5464 Y-1.1419 I0.0029 J-0.0273
G2 X5.6827 Y-1.2458 I-0.279 J-0.5071
X5.7095 Y-1.3431 I-0.0754 J-0.0732
G1 Y-1.3432
X5.7083 Y-1.3483
G2 X5.6408 Y-1.4233 I-0.1022 J0.0242
X5.4725 Y-1.4554 I-0.1915 J0.5462
G3 X5.4588 Y-1.506 I0.0011 J-0.0274
G2 X5.5879 Y-1.6186 I-0.312 J-0.4875
X5.6083 Y-1.7174 I-0.08 J-0.068
G1 X5.6068 Y-1.7223
X5.6067 Y-1.7226
G2 X5.5344 Y-1.793 I-0.1004 J0.0309
X5.3644 Y-1.8139 I-0.155 J0.5577
G3 X5.3474 Y-1.8634 I-0.0007 J-0.0274
G2 X5.4687 Y-1.9844 I-0.3435 J-0.4658
X5.4826 Y-2.0841 I-0.0844 J-0.0626
G1 X5.4808 Y-2.0889
G2 X5.4806 Y-2.0894 I-0.0703 J0.0263
X5.4039 Y-2.1548 I-0.0982 J0.0374
X5.2328 Y-2.1645 I-0.1178 J0.5667
G3 X5.2125 Y-2.2128 I-0.0025 J-0.0273
G2 X5.3256 Y-2.3415 I-0.3735 J-0.4422
X5.3328 Y-2.4422 I-0.0883 J-0.0569
G1 X5.3306 Y-2.447
G2 X5.2496 Y-2.5072 I-0.0955 J0.0438
X5.0783 Y-2.5056 I-0.0801 J0.5732
G3 X5.0549 Y-2.5524 I-0.0044 J-0.0271
G2 X5.1592 Y-2.6884 I-0.4019 J-0.4164
X5.1597 Y-2.7893 I-0.0919 J-0.0509
G1 X5.1572 Y-2.7939
G2 X5.0724 Y-2.8487 I-0.0924 J0.05
X4.9016 Y-2.8357 I-0.042 J0.5773
G3 X4.8751 Y-2.8809 I-0.0061 J-0.0268
G2 X4.9702 Y-3.0234 I-0.4286 J-0.3889
X4.9641 Y-3.1241 I-0.095 J-0.0448
G1 X4.964 Y-3.1243
X4.9612 Y-3.1288
G2 X4.873 Y-3.1777 I-0.0888 J0.0561
X4.7035 Y-3.1535 I-0.0038 J0.5788
G3 X4.6741 Y-3.1968 I-0.0079 J-0.0263
G2 X4.7596 Y-3.3453 I-0.4533 J-0.3598
X4.7467 Y-3.4454 I-0.0978 J-0.0384
G1 X4.7436 Y-3.4497
G2 X4.6524 Y-3.4928 I-0.085 J0.0617
X4.4847 Y-3.4574 I0.0345 J0.5778
G3 X4.4526 Y-3.4988 I-0.0096 J-0.0257
G2 X4.5281 Y-3.6526 I-0.4761 J-0.3291
X4.5086 Y-3.7516 I-0.1001 J-0.0318
G1 X4.5053 Y-3.7557
G2 X4.4114 Y-3.7927 I-0.0807 J0.0672
X4.2464 Y-3.7463 I0.0726 J0.5742
G3 X4.2116 Y-3.7854 I-0.0113 J-0.025
G2 X4.2768 Y-3.9439 I-0.4968 J-0.297
X4.2509 Y-4.0414 I-0.102 J-0.0251
G1 X4.2507 Y-4.0416
X4.2471 Y-4.0454
G2 X4.1511 Y-4.076 I-0.076 J0.0725
X3.9895 Y-4.0187 I0.1104 J0.5682
G3 X3.9522 Y-4.0554 I-0.0129 J-0.0242
G2 X4.0067 Y-4.2179 I-0.5154 J-0.2634
X3.9745 Y-4.3135 I-0.1034 J-0.0184
G1 X3.9706 Y-4.3171
G2 X3.8726 Y-4.3414 I-0.0711 J0.0773
X3.7152 Y-4.2736 I0.1477 J0.5596
G3 X3.6756 Y-4.3078 I-0.0145 J-0.0233
G2 X3.7192 Y-4.4735 I-0.5317 J-0.2287
X3.6807 Y-4.5668 I-0.1044 J-0.0115
G1 X3.6806
X3.6765 Y-4.5701
G2 X3.5773 Y-4.5878 I-0.0658 J0.0819
G1 X3.5772
G2 X3.4247 Y-4.5098 I0.1844 J0.5486
G3 X3.3828 Y-4.5413 I-0.016 J-0.0223
G2 X3.4154 Y-4.7095 I-0.5456 J-0.1931
G1 Y-4.7096
G2 X3.3708 Y-4.8 I-0.105 J-0.0044
G1 Y-4.8001
X3.3665 Y-4.8031
G2 X3.2662 Y-4.8142 I-0.0603 J0.086
X3.1191 Y-4.7263 I0.2201 J0.5353
G3 X3.0753 Y-4.7549 I-0.0174 J-0.0212
G2 X3.0967 Y-4.9249 I-0.5572 J-0.1566
X3.0463 Y-5.0123 I-0.105 J0.0024
G1 X3.0418 Y-5.015
X3.0417
G2 X2.9409 Y-5.0196 I-0.0546 J0.0898
X2.7999 Y-4.9221 I0.2551 J0.5195
G3 X2.7543 Y-4.9478 I-0.0188 J-0.02
G2 X2.7645 Y-5.1189 I-0.5663 J-0.1195
X2.7083 Y-5.2027 I-0.1046 J0.0094
G1 X2.7036 Y-5.2051
G2 X2.6027 Y-5.2029 I-0.0484 J0.0932
X2.4685 Y-5.0964 I0.2889 J0.5015
G3 X2.4213 Y-5.119 I-0.0201 J-0.0187
G2 X2.4201 Y-5.2904 I-0.573 J-0.0818
X2.3585 Y-5.3703 I-0.1038 J0.0163
G1 X2.3537 Y-5.3724
G2 X2.2532 Y-5.3636 I-0.0422 J0.0962
X2.1263 Y-5.2484 I0.3214 J0.4814
G3 X2.0777 Y-5.2678 I-0.0213 J-0.0174
G2 X2.0652 Y-5.4387 I-0.5771 J-0.0437
X1.9985 Y-5.5144 I-0.1025 J0.0231
G1 X1.9936 Y-5.5162
X1.9934
G2 X1.8938 Y-5.5008 I-0.0357 J0.0988
G1 X1.8937
G2 X1.7748 Y-5.3774 I0.3526 J0.459
G3 X1.725 Y-5.3936 I-0.0224 J-0.0159
G2 X1.7012 Y-5.5633 I-0.5788 J-0.0055
X1.6296 Y-5.6345 I-0.1008 J0.0298
G1 X1.6295
X1.6244 Y-5.636
G2 X1.526 Y-5.6139 I-0.029 J0.1009
X1.4155 Y-5.483 I0.3821 J0.4348
G3 X1.3647 Y-5.4958 I-0.0234 J-0.0144
G2 X1.3298 Y-5.6636 I-0.5779 J0.0328
X1.2538 Y-5.7298 I-0.0985 J0.0364
G1 X1.2487 Y-5.7309
X1.2485 Y-5.731
G2 X1.1517 Y-5.7024 I-0.0224 J0.1026
X1.05 Y-5.5646 I0.41 J0.4086
G3 X0.9985 Y-5.574 I-0.0243 J-0.0128
G2 X0.9526 Y-5.7391 I-0.5744 J0.0709
X0.8723 Y-5.8002 I-0.0959 J0.0428
G1 X0.867 Y-5.8009
Y-5.801
G2 X0.7723 Y-5.7661 I-0.0155 J0.1039
X0.68 Y-5.6218 I0.4361 J0.3806
G3 X0.6279 Y-5.6278 I-0.0251 J-0.0112
G2 X0.5712 Y-5.7895 I-0.5685 J0.1087
X0.4873 Y-5.8451 I-0.0929 J0.0491
G1 X0.4822 Y-5.8455
G2 X0.4817 Y-5.8456 I-0.0067 J0.0748
X0.3895 Y-5.8045 I-0.0086 J0.1047
X0.3069 Y-5.6544 I0.4603 J0.3509
G3 X0.2546 Y-5.657 I-0.0257 J-0.0095
G2 X0.1873 Y-5.8146 I-0.5601 J0.146
X0.0996 Y-5.8645 I-0.0894 J0.0551
G1 X0.0995
X0.0942 Y-5.8646
G2 X0.005 Y-5.8176 I-0.0017 J0.105
X-0.0674 Y-5.6624 I0.4824 J0.3198
G3 X-0.1198 Y-5.6615 I-0.0263 J-0.0078
G2 X-0.1974 Y-5.8142 I-0.5492 J0.1828
X-0.2882 Y-5.8583 I-0.0856 J0.0608
G1 X-0.2884
X-0.2936 Y-5.858
G2 X-0.3795 Y-5.8052 I0.0053 J0.1049
X-0.4415 Y-5.6455 I0.5025 J0.2872
G3 X-0.4937 Y-5.6412 I-0.0268 J-0.0061
G2 X-0.5812 Y-5.7885 I-0.5359 J0.2186
X-0.6745 Y-5.8265 I-0.0814 J0.0664
G1 X-0.6797 Y-5.8259
X-0.68 Y-5.8258
G2 X-0.7623 Y-5.7674 I0.0122 J0.1043
X-0.8137 Y-5.604 I0.5204 J0.2533
G3 X-0.8655 Y-5.5962 I-0.0271 J-0.0043
G2 X-0.9625 Y-5.7374 I-0.5203 J0.2536
X-1.0583 Y-5.7691 I-0.0768 J0.0717
X-1.0587 I0.0135 J0.0738
G1 X-1.0638 Y-5.7681
G2 X-1.1418 Y-5.7044 I0.0192 J0.1033
X-1.1823 Y-5.538 I0.536 J0.2184
G3 X-1.2334 Y-5.5268 I-0.0273 J-0.0025
G2 X-1.3396 Y-5.6613 I-0.5024 J0.2874
X-1.4373 Y-5.6865 I-0.0719 J0.0766
G1 X-1.4424 Y-5.6852
G2 X-1.5163 Y-5.6166 I0.0258 J0.1018
X-1.5457 Y-5.4477 I0.5493 J0.1825
G3 X-1.596 Y-5.4332 I-0.0274 J-0.0006
G2 X-1.7108 Y-5.5604 I-0.4823 J0.32
X-1.81 Y-5.5791 I-0.0667 J0.0812
G1 X-1.8102
X-1.8152 Y-5.5774
G2 X-1.8842 Y-5.504 I0.0326 J0.0999
X-1.9024 Y-5.3337 I0.5601 J0.1457
G3 X-1.9516 Y-5.3158 I-0.0274 J0.0012
G2 X-2.0746 Y-5.4351 I-0.46 J0.3512
X-2.1745 Y-5.4474 I-0.0612 J0.0854
G1 X-2.1792 Y-5.4455
G2 X-2.1797 Y-5.4453 I0.0274 J0.0699
X-2.2439 Y-5.3675 I0.039 J0.0975
X-2.2507 Y-5.1963 I0.5685 J0.1084
G3 X-2.2986 Y-5.1752 I-0.0273 J0.003
G2 X-2.4293 Y-5.2862 I-0.4359 J0.3808
X-2.53 Y-5.2917 I-0.0554 J0.0893
G1 X-2.5348 Y-5.2894
G2 X-2.5937 Y-5.2074 I0.0454 J0.0948
X-2.5892 Y-5.0362 I0.5745 J0.0706
G3 X-2.6357 Y-5.012 I-0.027 J0.0048
G2 X-2.7733 Y-5.114 I-0.4097 J0.4088
X-2.8742 Y-5.1129 I-0.0494 J0.0927
G1 X-2.8788 Y-5.1103
G2 X-2.9322 Y-5.0247 I0.0515 J0.0915
X-2.9164 Y-4.854 I0.5779 J0.0325
G3 X-2.9612 Y-4.8268 I-0.0267 J0.0065
G2 X-3.1052 Y-4.9196 I-0.3818 J0.435
X-3.2057 Y-4.9118 I-0.0432 J0.0957
G1 X-3.2101 Y-4.909
X-3.2103 Y-4.9089
G2 X-3.2579 Y-4.8198 I0.0575 J0.0879
X-3.2308 Y-4.6507 I0.5788 J-0.0058
G3 X-3.2737 Y-4.6206 I-0.0262 J0.0083
G2 X-3.4236 Y-4.7036 I-0.3522 J0.4592
X-3.5233 Y-4.6892 I-0.0367 J0.0984
G1 X-3.5274 Y-4.6862
X-3.5277 Y-4.686
G2 X-3.5693 Y-4.594 I0.0631 J0.084
X-3.5311 Y-4.427 I0.5771 J-0.044
G3 X-3.5719 Y-4.3941 I-0.0256 J0.01
G2 X-3.727 Y-4.4671 I-0.3211 J0.4815
X-3.8255 Y-4.4461 I-0.0301 J0.1006
G1 X-3.8294 Y-4.4428
X-3.8297 Y-4.4426
G2 X-3.8651 Y-4.348 I0.0686 J0.0796
X-3.816 Y-4.1839 I0.573 J-0.0821
G3 X-3.8545 Y-4.1484 I-0.0248 J0.0117
G2 X-4.014 Y-4.211 I-0.2886 J0.5017
X-4.1111 Y-4.1835 I-0.0234 J0.1024
G1 X-4.1113 Y-4.1833
X-4.115 Y-4.1796
G2 X-4.144 Y-4.0831 I0.0738 J0.0748
X-4.0841 Y-3.9226 I0.5662 J-0.1198
G3 X-4.1202 Y-3.8846 I-0.024 J0.0133
G2 X-4.2836 Y-3.9365 I-0.2548 J0.5197
X-4.3786 Y-3.9026 I-0.0166 J0.1037
G1 X-4.3788 Y-3.9025
X-4.3822 Y-3.8986
G2 X-4.4048 Y-3.8003 I0.0785 J0.0698
X-4.3345 Y-3.6441 I0.5571 J-0.1569
G3 X-4.368 Y-3.6038 I-0.0231 J0.0148
G2 X-4.5343 Y-3.6448 I-0.2199 J0.5354
X-4.6269 Y-3.6048 I-0.0097 J0.1046
G1 X-4.6301 Y-3.6006
X-4.6303 Y-3.6004
G2 X-4.6463 Y-3.5009 I0.083 J0.0644
X-4.5658 Y-3.3496 I0.5455 J-0.1934
G3 X-4.5966 Y-3.3073 I-0.0221 J0.0163
G2 X-4.7653 Y-3.3371 I-0.1841 J0.5488
X-4.855 Y-3.2912 I-0.0028 J0.105
G1 X-4.8579 Y-3.2869
X-4.8581 Y-3.2865
G2 X-4.8675 Y-3.1861 I0.087 J0.0588
X-4.7772 Y-3.0406 I0.5316 J-0.229
G3 X-4.8051 Y-2.9962 I-0.0209 J0.0178
G2 X-4.9754 Y-3.0149 I-0.1474 J0.5597
X-5.062 Y-2.963 I0.0041 J0.105
G1 X-5.0646 Y-2.9584
X-5.0647 Y-2.9583
G2 X-5.0675 Y-2.8575 I0.0907 J0.053
X-4.9677 Y-2.7182 I0.5153 J-0.2636
G3 X-4.9927 Y-2.6721 I-0.0197 J0.0191
G2 X-5.1638 Y-2.6794 I-0.1101 J0.5682
X-5.2467 Y-2.6219 I0.011 J0.1045
G1 X-5.2491 Y-2.6172
G2 X-5.2453 Y-2.5163 I0.094 J0.0469
X-5.1365 Y-2.3839 I0.4967 J-0.2971
G3 X-5.1583 Y-2.3363 I-0.0184 J0.0204
G2 X-5.3297 Y-2.3323 I-0.0723 J0.5743
X-5.4085 Y-2.2694 I0.018 J0.1035
G1 X-5.4106 Y-2.2645
G2 X-5.4001 Y-2.1642 I0.0969 J0.0406
X-5.2829 Y-2.0392 I0.476 J-0.3293
G3 X-5.3015 Y-1.9903 I-0.017 J0.0216
G2 X-5.4721 Y-1.975 I-0.0342 J0.5778
X-5.5467 Y-1.907 I0.0248 J0.1021
G1 X-5.5468 Y-1.9067
X-5.5485 Y-1.9018
G2 X-5.5313 Y-1.8025 I0.0994 J0.0339
X-5.4061 Y-1.6856 I0.4532 J-0.36
G3 X-5.4214 Y-1.6356 I-0.0155 J0.0226
G2 X-5.5907 Y-1.609 I0.0041 J0.5788
G1 X-5.5908
G2 X-5.6606 Y-1.5363 I0.0315 J0.1002
G1 X-5.6607 Y-1.5361
X-5.662 Y-1.5311
G2 X-5.6384 Y-1.4331 I0.1014 J0.0274
G1 Y-1.433
G2 X-5.5056 Y-1.3247 I0.4284 J-0.3893
G3 X-5.5177 Y-1.2737 I-0.014 J0.0236
G2 X-5.6848 Y-1.236 I0.0424 J0.5772
X-5.7497 Y-1.1589 I0.038 J0.0979
G1 X-5.7508 Y-1.1539
Y-1.1536
G2 X-5.7208 Y-1.0573 I0.103 J0.0207
X-5.5812 Y-0.9579 I0.4018 J-0.4167
G3 X-5.5898 Y-0.9062 I-0.0124 J0.0245
G2 X-5.754 Y-0.8576 I0.0804 J0.5732
X-5.8138 Y-0.7763 I0.0444 J0.0952
X-5.8139 Y-0.7758 I0.0744 J0.01
G1 X-5.8145 Y-0.7707
G2 X-5.7782 Y-0.6769 I0.1042 J0.0136
G1 X-5.7781 Y-0.6768
G2 X-5.6322 Y-0.5869 I0.3733 J-0.4423
G3 X-5.6374 Y-0.5348 I-0.0108 J0.0252
G2 X-5.7982 Y-0.4754 I0.1181 J0.5666
X-5.8524 Y-0.3903 I0.0506 J0.092
G1 X-5.8527 Y-0.3851
G2 X-5.8103 Y-0.2935 I0.1048 J0.007
G1 X-5.8102
G2 X-5.6587 Y-0.2134 I0.3433 J-0.466
G3 X-5.6605 Y-0.1611 I-0.0091 J0.0259
G2 X-5.8169 Y-0.0912 I0.1553 J0.5576
G1 X-5.817 Y-0.0911
G2 X-5.8654 Y-0.0026 I0.0567 J0.0885
G1 Y0.
Y0.0026
G2 X-5.817 Y0.0911 I0.1051 J0.
G1 X-5.8169 Y0.0912
G2 X-5.6605 Y0.1611 I0.3117 J-0.4877
G3 X-5.6587 Y0.2134 I-0.0074 J0.0264
G2 X-5.8102 Y0.2935 I0.1918 J0.5461
G1 X-5.8103
G2 X-5.8527 Y0.385 I0.0623 J0.0845
G1 X-5.8524 Y0.3903
G2 X-5.7982 Y0.4754 I0.1048 J-0.007
X-5.6374 Y0.5348 I0.2788 J-0.5072
G3 X-5.6322 Y0.5869 I-0.0056 J0.0269
G2 X-5.7781 Y0.6768 I0.2274 J0.5322
G1 X-5.7782 Y0.6769
G2 X-5.8145 Y0.7707 I0.0679 J0.0802
G1 X-5.8139 Y0.7758
G2 X-5.8138 Y0.7763 I0.0744 J-0.0095
X-5.754 Y0.8576 I0.1041 J-0.0139
X-5.6811 Y0.8858 I0.2447 J-0.5245
X-5.5898 Y0.9062 Z-0.1497 I0.1718 J-0.5527
G3 X-5.5812 Y0.9579 Z-0.1532 I-0.0038 J0.0272
G2 X-5.7208 Y1.0572 Z-0.1618 I0.2621 J0.516
X-5.7508 Y1.1536 Z-0.1671 I0.0729 J0.0756
G1 Y1.1539
X-5.7497 Y1.1589 Z-0.1674
G2 X-5.6848 Y1.236 Z-0.1727 I0.103 J-0.0209
X-5.5177 Y1.2737 Z-0.1813 I0.2095 J-0.5395
G3 X-5.5056 Y1.3247 Z-0.1848 I-0.002 J0.0274
G2 X-5.6384 Y1.433 Z-0.1934 I0.2956 J0.4976
G1 Y1.4331
G2 X-5.662 Y1.5311 Z-0.1987 I0.0778 J0.0706
G1 X-5.6607 Y1.5361 Z-0.1989
X-5.6606 Y1.5363
G2 X-5.5908 Y1.609 Z-0.2042 I0.1014 J-0.0275
G1 X-5.5907
G2 X-5.4214 Y1.6356 Z-0.2129 I0.1734 J-0.5522
G3 X-5.4061 Y1.6856 Z-0.2163 I-0.0002 J0.0274
G2 X-5.4247 Y1.699 Z-0.2175 I0.3279 J0.4769
X-5.5313 Y1.8025 I0.3466 J0.4635
X-5.5485 Y1.9018 I0.0822 J0.0653
G1 X-5.5468 Y1.9067
X-5.5467 Y1.907
G2 X-5.4722 Y1.975 I0.0994 J-0.0341
X-5.3015 Y1.9903 I0.1365 J-0.5625
G3 X-5.2828 Y2.0392 I0.0016 J0.0274
G2 X-5.4001 Y2.1642 I0.3588 J0.4542
X-5.4106 Y2.2645 I0.0864 J0.0598
G1 X-5.4085 Y2.2694
G2 X-5.3297 Y2.3323 I0.0969 J-0.0406
X-5.1583 Y2.3363 I0.099 J-0.5703
G3 X-5.1365 Y2.3839 I0.0034 J0.0272
G2 X-5.2453 Y2.5163 I0.388 J0.4295
X-5.2491 Y2.6171 I0.0902 J0.0539
G1 X-5.2468 Y2.6219
G2 X-5.1638 Y2.6794 I0.094 J-0.0469
X-4.9927 Y2.6721 I0.0611 J-0.5756
G3 X-4.9677 Y2.7182 I0.0052 J0.0269
G2 X-5.0675 Y2.8575 I0.4155 J0.4029
X-5.0647 Y2.9583 I0.0935 J0.0479
G1 X-5.0646 Y2.9584
X-5.062 Y2.963
G2 X-4.9754 Y3.0149 I0.0907 J-0.0531
X-4.8051 Y2.9962 I0.0229 J-0.5783
G3 X-4.7772 Y3.0406 I0.007 J0.0265
G2 X-4.8675 Y3.1861 I0.4412 J0.3746
X-4.8581 Y3.2865 I0.0964 J0.0416
G1 X-4.8579 Y3.2869
X-4.855 Y3.2912
G2 X-4.7653 Y3.3371 I0.0869 J-0.0591
X-4.5966 Y3.3073 I-0.0153 J-0.5786
G3 X-4.5658 Y3.3496 I0.0087 J0.026
G2 X-4.6463 Y3.5009 I0.465 J0.3446
X-4.6303 Y3.6004 I0.099 J0.0352
G1 X-4.6301 Y3.6006
X-4.6269 Y3.6048
G2 X-4.5343 Y3.6448 I0.0828 J-0.0646
X-4.368 Y3.6038 I-0.0536 J-0.5763
G3 X-4.3345 Y3.6441 I0.0104 J0.0254
G2 X-4.4048 Y3.8003 I0.4868 J0.3131
X-4.3822 Y3.8986 I0.1011 J0.0285
G1 X-4.3788 Y3.9025
X-4.3786 Y3.9026
G2 X-4.2836 Y3.9365 I0.0785 J-0.0699
X-4.1203 Y3.8846 I-0.0915 J-0.5715
G3 X-4.0841 Y3.9226 I0.0121 J0.0246
G2 X-4.144 Y4.0831 I0.5064 J0.2803
X-4.115 Y4.1796 I0.1028 J0.0218
G1 X-4.1113 Y4.1833
X-4.1111 Y4.1835
G2 X-4.014 Y4.211 I0.0736 J-0.075
X-3.8545 Y4.1484 I-0.1291 J-0.5642
G3 X-3.816 Y4.1839 I0.0137 J0.0238
G2 X-3.8651 Y4.348 I0.5238 J0.2462
X-3.8297 Y4.4426 I0.104 J0.0149
G1 X-3.8294 Y4.4428
X-3.8255 Y4.4461
G2 X-3.727 Y4.4671 I0.0684 J-0.0797
X-3.5719 Y4.3941 I-0.166 J-0.5545
G3 X-3.5311 Y4.427 I0.0152 J0.0228
G2 X-3.5693 Y4.594 I0.5389 J0.211
X-3.5277 Y4.686 I0.1047 J0.008
G1 X-3.5274 Y4.6862
X-3.5233 Y4.6892
G2 X-3.4236 Y4.7036 I0.063 J-0.0841
X-3.2737 Y4.6206 I-0.2024 J-0.5423
G3 X-3.2308 Y4.6507 I0.0167 J0.0218
G2 X-3.2579 Y4.8198 I0.5517 J0.175
X-3.2103 Y4.9089 I0.105 J0.0011
G1 X-3.2101 Y4.909
X-3.2057 Y4.9118
G2 X-3.1052 Y4.9196 I0.0573 J-0.088
X-2.9612 Y4.8268 I-0.2377 J-0.5277
G3 X-2.9164 Y4.854 I0.0181 J0.0206
G2 X-2.9322 Y5.0246 I0.5621 J0.1381
X-2.8788 Y5.1103 I0.1049 J-0.0059
G1 X-2.8742 Y5.1129
G2 X-2.7733 Y5.114 I0.0515 J-0.0916
X-2.6357 Y5.012 I-0.2721 J-0.5108
G3 X-2.5892 Y5.0362 I0.0194 J0.0194
G2 X-2.5937 Y5.2074 I0.57 J0.1007
X-2.5348 Y5.2894 I0.1043 J-0.0128
G1 X-2.53 Y5.2917
G2 X-2.4293 Y5.2862 I0.0453 J-0.0948
X-2.2987 Y5.1752 I-0.3053 J-0.4918
G3 X-2.2507 Y5.1963 I0.0207 J0.018
G2 X-2.2439 Y5.3675 I0.5754 J0.0628
X-2.1797 Y5.4453 I0.1032 J-0.0197
X-2.1792 Y5.4455 I0.0279 J-0.0697
G1 X-2.1745 Y5.4474
G2 X-2.0746 Y5.4351 I0.0387 J-0.0976
X-1.9516 Y5.3159 I-0.3371 J-0.4705
G3 X-1.9024 Y5.3337 I0.0218 J0.0166
G2 X-1.8842 Y5.504 I0.5783 J0.0246
X-1.8152 Y5.5774 I0.1017 J-0.0264
G1 X-1.8102 Y5.5791
X-1.81
G2 X-1.7108 Y5.5604 I0.0324 J-0.0999
X-1.596 Y5.4332 I-0.3675 J-0.4472
G3 X-1.5457 Y5.4477 I0.0229 J0.0152
G2 X-1.5163 Y5.6165 I0.5786 J-0.0137
X-1.4424 Y5.6852 I0.0997 J-0.0331
G1 X-1.4373 Y5.6865
G2 X-1.3396 Y5.6613 I0.0258 J-0.1018
X-1.2334 Y5.5268 I-0.3962 J-0.4219
G3 X-1.1823 Y5.538 I0.0238 J0.0136
G2 X-1.1418 Y5.7044 I0.5765 J-0.0519
X-1.0638 Y5.7681 I0.0973 J-0.0396
G1 X-1.0587 Y5.7691
G2 X-1.0583 I0.0139 J-0.0737
X-0.9625 Y5.7374 I0.0189 J-0.1033
X-0.8655 Y5.5962 I-0.4233 J-0.3948
G3 X-0.8137 Y5.604 I0.0247 J0.012
G2 X-0.7623 Y5.7674 I0.5718 J-0.0899
X-0.68 Y5.8258 I0.0945 J-0.0459
G1 X-0.6797 Y5.8259
X-0.6745 Y5.8265
G2 X-0.5812 Y5.7885 I0.0119 J-0.1044
X-0.4937 Y5.6412 I-0.4484 J-0.366
G3 X-0.4415 Y5.6455 I0.0254 J0.0104
G2 X-0.3795 Y5.8052 I0.5646 J-0.1274
X-0.2936 Y5.858 I0.0912 J-0.0521
G1 X-0.2884 Y5.8583
X-0.2882
G2 X-0.1974 Y5.8142 I0.0052 J-0.1049
X-0.1198 Y5.6615 I-0.4716 J-0.3355
G3 X-0.0674 Y5.6624 I0.026 J0.0087
G2 X0.005 Y5.8176 I0.5549 J-0.1645
X0.0942 Y5.8646 I0.0876 J-0.058
G1 X0.0995 Y5.8645
X0.0996
G2 X0.1873 Y5.8146 I-0.0017 J-0.105
X0.2546 Y5.657 I-0.4928 J-0.3036
G3 X0.3069 Y5.6544 I0.0266 J0.0069
G2 X0.3895 Y5.8045 I0.5429 J-0.2008
X0.4817 Y5.8456 I0.0836 J-0.0637
X0.4822 Y5.8455 I-0.0061 J-0.0748
G1 X0.4873 Y5.8451
G2 X0.5712 Y5.7895 I-0.009 J-0.1047
X0.6279 Y5.6278 I-0.5117 J-0.2704
G3 X0.68 Y5.6218 I0.027 J0.0052
G2 X0.7723 Y5.7661 I0.5284 J-0.2362
X0.867 Y5.801 I0.0792 J-0.0691
G1 Y5.8009
X0.8723 Y5.8002
G2 X0.9526 Y5.7391 I-0.0156 J-0.1039
X0.9985 Y5.574 I-0.5285 J-0.236
G3 X1.05 Y5.5646 I0.0273 J0.0034
G2 X1.1517 Y5.7024 I0.5116 J-0.2707
X1.2485 Y5.731 I0.0744 J-0.0741
G1 X1.2487 Y5.7309
X1.2538 Y5.7298
G2 X1.3298 Y5.6636 I-0.0225 J-0.1026
X1.3647 Y5.4958 I-0.5429 J-0.2006
G3 X1.4155 Y5.483 I0.0274 J0.0016
G2 X1.526 Y5.6139 I0.4926 J-0.3039
X1.6244 Y5.636 I0.0694 J-0.0789
G1 X1.6295 Y5.6345
X1.6296
G2 X1.7012 Y5.5634 I-0.0292 J-0.1009
X1.725 Y5.3936 I-0.555 J-0.1642
G3 X1.7748 Y5.3774 I0.0275 J-0.0002
G2 X1.8937 Y5.5008 I0.4715 J-0.3357
G1 X1.8938
G2 X1.9934 Y5.5162 I0.0639 J-0.0834
G1 X1.9936
X1.9985 Y5.5144
G2 X2.0652 Y5.4388 I-0.0358 J-0.0988
X2.0777 Y5.2678 I-0.5646 J-0.1272
G3 X2.1263 Y5.2484 I0.0274 J-0.0021
G2 X2.2531 Y5.3636 I0.4483 J-0.3661
X2.3537 Y5.3724 I0.0583 J-0.0874
G1 X2.3585 Y5.3703
G2 X2.4201 Y5.2904 I-0.0422 J-0.0962
X2.4213 Y5.119 I-0.5718 J-0.0896
G3 X2.4685 Y5.0964 I0.0272 J-0.0039
G2 X2.6027 Y5.2029 I0.4231 J-0.395
X2.7036 Y5.2051 I0.0525 J-0.091
G1 X2.7083 Y5.2027
G2 X2.7645 Y5.1189 I-0.0484 J-0.0932
X2.7543 Y4.9478 I-0.5765 J-0.0516
G3 X2.7999 Y4.9221 I0.0269 J-0.0057
G2 X2.9409 Y5.0196 I0.3961 J-0.4221
X3.0417 Y5.015 I0.0463 J-0.0943
G1 X3.0418
X3.0463 Y5.0123
G2 X3.0967 Y4.9249 I-0.0546 J-0.0897
X3.0753 Y4.7549 I-0.5786 J-0.0134
G3 X3.1191 Y4.7263 I0.0264 J-0.0074
G2 X3.2662 Y4.8142 I0.3672 J-0.4474
X3.3665 Y4.8031 I0.04 J-0.0971
G1 X3.3708 Y4.8001
Y4.8
G2 X3.4154 Y4.7096 I-0.0603 J-0.086
G1 Y4.7095
G2 X3.3828 Y4.5413 I-0.5783 J0.0249
G3 X3.4247 Y4.5098 I0.0259 J-0.0092
G2 X3.5772 Y4.5878 I0.3369 J-0.4706
G1 X3.5773
G2 X3.6765 Y4.5701 I0.0334 J-0.0996
G1 X3.6806 Y4.5668
X3.6807
G2 X3.7192 Y4.4735 I-0.0659 J-0.0818
X3.6756 Y4.3078 I-0.5753 J0.0631
G3 X3.7152 Y4.2736 I0.0252 J-0.0108
G2 X3.8726 Y4.3414 I0.3051 J-0.4919
X3.9705 Y4.3171 I0.0268 J-0.1016
G1 X3.9744 Y4.3135
G2 X4.0067 Y4.2179 I-0.0711 J-0.0773
X3.9522 Y4.0555 I-0.5699 J0.101
G3 X3.9895 Y4.0187 I0.0244 J-0.0125
G2 X4.1511 Y4.076 I0.2719 J-0.511
X4.2471 Y4.0454 I0.02 J-0.1031
G1 X4.2507 Y4.0416
X4.2509 Y4.0414
G2 X4.2768 Y3.9439 I-0.0761 J-0.0724
X4.2116 Y3.7854 I-0.562 J0.1385
G3 X4.2464 Y3.7463 I0.0236 J-0.0141
G2 X4.4114 Y3.7927 I0.2375 J-0.5278
X4.5053 Y3.7557 I0.0132 J-0.1042
G1 X4.5086 Y3.7516
G2 X4.5281 Y3.6526 I-0.0807 J-0.0672
X4.4526 Y3.4988 I-0.5516 J0.1753
G3 X4.4847 Y3.4574 I0.0226 J-0.0156
G2 X4.6524 Y3.4928 I0.2021 J-0.5424
X4.7436 Y3.4497 I0.0063 J-0.1049
G1 X4.7467 Y3.4454
G2 X4.7596 Y3.3453 I-0.085 J-0.0617
X4.6741 Y3.1968 I-0.5388 J0.2113
G3 X4.7035 Y3.1535 I0.0215 J-0.0171
G2 X4.873 Y3.1777 I0.1658 J-0.5545
X4.9612 Y3.1288 I-0.0007 J-0.1051
G1 X4.964 Y3.1243
X4.9641 Y3.1241
G2 X4.9702 Y3.0234 I-0.0889 J-0.0559
X4.8751 Y2.8809 I-0.5237 J0.2464
G3 X4.9016 Y2.8357 I0.0203 J-0.0185
G2 X5.0724 Y2.8487 I0.1288 J-0.5643
X5.1572 Y2.7939 I-0.0076 J-0.1048
G1 X5.1597 Y2.7893
G2 X5.1592 Y2.6884 I-0.0924 J-0.05
X5.0549 Y2.5524 I-0.5062 J0.2805
G3 X5.0783 Y2.5056 I0.0191 J-0.0198
G2 X5.2496 Y2.5072 I0.0912 J-0.5716
X5.3306 Y2.447 I-0.0145 J-0.1041
G1 X5.3328 Y2.4422
G2 X5.3256 Y2.3415 I-0.0955 J-0.0438
X5.2125 Y2.2128 I-0.4866 J0.3134
G3 X5.2328 Y2.1645 I0.0177 J-0.021
G2 X5.4039 Y2.1548 I0.0533 J-0.5763
X5.4806 Y2.0894 I-0.0214 J-0.1029
X5.4808 Y2.0889 I-0.0701 J-0.0267
G1 X5.4826 Y2.0841
G2 X5.4687 Y1.9844 I-0.0983 J-0.0371
X5.3474 Y1.8634 I-0.4649 J0.3448
G3 X5.3644 Y1.8139 I0.0163 J-0.0221
G2 X5.5344 Y1.793 I0.015 J-0.5786
X5.6067 Y1.7226 I-0.0281 J-0.1012
G1 X5.6068 Y1.7223
X5.6083 Y1.7174
G2 X5.5879 Y1.6186 I-0.1005 J-0.0307
X5.4588 Y1.506 I-0.441 J0.3748
G3 X5.4725 Y1.4554 I0.0148 J-0.0231
G2 X5.6408 Y1.4233 I-0.0232 J-0.5783
X5.7083 Y1.3483 I-0.0347 J-0.0991
G1 X5.7095 Y1.3432
Y1.3431
G2 X5.6827 Y1.2458 I-0.1023 J-0.0241
X5.5464 Y1.1419 I-0.4153 J0.4032
G3 X5.5567 Y1.0905 I0.0132 J-0.024
G2 X5.7226 Y1.0473 I-0.0614 J-0.5755
X5.7849 Y0.968 I-0.0412 J-0.0966
G1 X5.7858 Y0.9628
G2 X5.7526 Y0.8675 I-0.1036 J-0.0173
X5.6098 Y0.7728 I-0.3877 J0.4297
G3 X5.6167 Y0.7209 I0.0116 J-0.0249
G2 X5.7793 Y0.6668 I-0.0993 J-0.5702
X5.8362 Y0.5838 I-0.0476 J-0.0936
G1 X5.8368 Y0.5787
Y0.5783
G2 X5.7974 Y0.4854 I-0.1045 J-0.0104
X5.6486 Y0.4004 I-0.3585 J0.4544
G3 X5.652 Y0.3481 I0.01 J-0.0256
G2 X5.8107 Y0.2834 I-0.1368 J-0.5624
X5.8621 Y0.1966 I-0.0536 J-0.0904
G1 Y0.1963
X5.8623 Y0.1911
G2 X5.8167 Y0.1012 I-0.105 J-0.0033
X5.6627 Y0.0262 I-0.3277 J0.4771
G3 Y-0.0262 I0.0082 J-0.0262
G2 X5.8167 Y-0.1012 I-0.1737 J-0.5521
X5.8623 Y-0.1911 I-0.0595 J-0.0866
G1 X5.8621 Y-0.1963
Y-0.1966
G2 X5.8107 Y-0.2834 I-0.105 J0.0035
X5.652 Y-0.3481 I-0.2954 J0.4977
G3 X5.6486 Y-0.4004 I0.0065 J-0.0267
G2 X5.7973 Y-0.4854 I-0.2097 J-0.5395
X5.8368 Y-0.5783 I-0.0651 J-0.0825
G1 Y-0.5787
X5.8362 Y-0.5838
G2 X5.7793 Y-0.6668 I-0.1045 J0.0106
X5.6167 Y-0.7209 I-0.2619 J0.5162
G3 X5.6098 Y-0.7728 I0.0047 J-0.027
G2 X5.7526 Y-0.8675 I-0.2449 J-0.5244
X5.7858 Y-0.9628 I-0.0704 J-0.078
G1 X5.7849 Y-0.9679
G2 X5.7226 Y-1.0473 I-0.1036 J0.0172
X5.5567 Y-1.0905 I-0.2272 J0.5323
G3 X5.5464 Y-1.1419 I0.0029 J-0.0273
G2 X5.6827 Y-1.2458 I-0.279 J-0.5071
X5.7095 Y-1.3431 I-0.0754 J-0.0732
G1 Y-1.3432
X5.7083 Y-1.3483
G2 X5.6408 Y-1.4233 I-0.1022 J0.0242
X5.4725 Y-1.4554 I-0.1915 J0.5462
G3 X5.4588 Y-1.506 I0.0011 J-0.0274
G2 X5.5879 Y-1.6186 I-0.312 J-0.4875
X5.6083 Y-1.7174 I-0.08 J-0.068
G1 X5.6068 Y-1.7223
X5.6067 Y-1.7226
G2 X5.5344 Y-1.793 I-0.1004 J0.0309
X5.3644 Y-1.8139 I-0.155 J0.5577
G3 X5.3474 Y-1.8634 I-0.0007 J-0.0274
G2 X5.4687 Y-1.9844 I-0.3435 J-0.4658
X5.4826 Y-2.0841 I-0.0844 J-0.0626
G1 X5.4808 Y-2.0889
G2 X5.4806 Y-2.0894 I-0.0703 J0.0263
X5.4039 Y-2.1548 I-0.0982 J0.0374
X5.2328 Y-2.1645 I-0.1178 J0.5667
G3 X5.2125 Y-2.2128 I-0.0025 J-0.0273
G2 X5.3256 Y-2.3415 I-0.3735 J-0.4422
X5.3328 Y-2.4422 I-0.0883 J-0.0569
G1 X5.3306 Y-2.447
G2 X5.2496 Y-2.5072 I-0.0955 J0.0438
X5.0783 Y-2.5056 I-0.0801 J0.5732
G3 X5.0549 Y-2.5524 I-0.0044 J-0.0271
G2 X5.1592 Y-2.6884 I-0.4019 J-0.4164
X5.1597 Y-2.7893 I-0.0919 J-0.0509
G1 X5.1572 Y-2.7939
G2 X5.0724 Y-2.8487 I-0.0924 J0.05
X4.9016 Y-2.8357 I-0.042 J0.5773
G3 X4.8751 Y-2.8809 I-0.0061 J-0.0268
G2 X4.9702 Y-3.0234 I-0.4286 J-0.3889
X4.9641 Y-3.1241 I-0.095 J-0.0448
G1 X4.964 Y-3.1243
X4.9612 Y-3.1288
G2 X4.873 Y-3.1777 I-0.0888 J0.0561
X4.7035 Y-3.1535 I-0.0038 J0.5788
G3 X4.6741 Y-3.1968 I-0.0079 J-0.0263
G2 X4.7596 Y-3.3453 I-0.4533 J-0.3598
X4.7467 Y-3.4454 I-0.0978 J-0.0384
G1 X4.7436 Y-3.4497
G2 X4.6524 Y-3.4928 I-0.085 J0.0617
X4.4847 Y-3.4574 I0.0345 J0.5778
G3 X4.4526 Y-3.4988 I-0.0096 J-0.0257
G2 X4.5281 Y-3.6526 I-0.4761 J-0.3291
X4.5086 Y-3.7516 I-0.1001 J-0.0318
G1 X4.5053 Y-3.7557
G2 X4.4114 Y-3.7927 I-0.0807 J0.0672
X4.2464 Y-3.7463 I0.0726 J0.5742
G3 X4.2116 Y-3.7854 I-0.0113 J-0.025
G2 X4.2768 Y-3.9439 I-0.4968 J-0.297
X4.2509 Y-4.0414 I-0.102 J-0.0251
G1 X4.2507 Y-4.0416
X4.2471 Y-4.0454
G2 X4.1511 Y-4.076 I-0.076 J0.0725
X3.9895 Y-4.0187 I0.1104 J0.5682
G3 X3.9522 Y-4.0554 I-0.0129 J-0.0242
G2 X4.0067 Y-4.2179 I-0.5154 J-0.2634
X3.9745 Y-4.3135 I-0.1034 J-0.0184
G1 X3.9706 Y-4.3171
G2 X3.8726 Y-4.3414 I-0.0711 J0.0773
X3.7152 Y-4.2736 I0.1477 J0.5596
G3 X3.6756 Y-4.3078 I-0.0145 J-0.0233
G2 X3.7192 Y-4.4735 I-0.5317 J-0.2287
X3.6807 Y-4.5668 I-0.1044 J-0.0115
G1 X3.6806
X3.6765 Y-4.5701
G2 X3.5773 Y-4.5878 I-0.0658 J0.0819
G1 X3.5772
G2 X3.4247 Y-4.5098 I0.1844 J0.5486
G3 X3.3828 Y-4.5413 I-0.016 J-0.0223
G2 X3.4154 Y-4.7095 I-0.5456 J-0.1931
G1 Y-4.7096
G2 X3.3708 Y-4.8 I-0.105 J-0.0044
G1 Y-4.8001
X3.3665 Y-4.8031
G2 X3.2662 Y-4.8142 I-0.0603 J0.086
X3.1191 Y-4.7263 I0.2201 J0.5353
G3 X3.0753 Y-4.7549 I-0.0174 J-0.0212
G2 X3.0967 Y-4.9249 I-0.5572 J-0.1566
X3.0463 Y-5.0123 I-0.105 J0.0024
G1 X3.0418 Y-5.015
X3.0417
G2 X2.9409 Y-5.0196 I-0.0546 J0.0898
X2.7999 Y-4.9221 I0.2551 J0.5195
G3 X2.7543 Y-4.9478 I-0.0188 J-0.02
G2 X2.7645 Y-5.1189 I-0.5663 J-0.1195
X2.7083 Y-5.2027 I-0.1046 J0.0094
G1 X2.7036 Y-5.2051
G2 X2.6027 Y-5.2029 I-0.0484 J0.0932
X2.4685 Y-5.0964 I0.2889 J0.5015
G3 X2.4213 Y-5.119 I-0.0201 J-0.0187
G2 X2.4201 Y-5.2904 I-0.573 J-0.0818
X2.3585 Y-5.3703 I-0.1038 J0.0163
G1 X2.3537 Y-5.3724
G2 X2.2532 Y-5.3636 I-0.0422 J0.0962
X2.1263 Y-5.2484 I0.3214 J0.4814
G3 X2.0777 Y-5.2678 I-0.0213 J-0.0174
G2 X2.0652 Y-5.4387 I-0.5771 J-0.0437
X1.9985 Y-5.5144 I-0.1025 J0.0231
G1 X1.9936 Y-5.5162
X1.9934
G2 X1.8938 Y-5.5008 I-0.0357 J0.0988
G1 X1.8937
G2 X1.7748 Y-5.3774 I0.3526 J0.459
G3 X1.725 Y-5.3936 I-0.0224 J-0.0159
G2 X1.7012 Y-5.5633 I-0.5788 J-0.0055
X1.6296 Y-5.6345 I-0.1008 J0.0298
G1 X1.6295
X1.6244 Y-5.636
G2 X1.526 Y-5.6139 I-0.029 J0.1009
X1.4155 Y-5.483 I0.3821 J0.4348
G3 X1.3647 Y-5.4958 I-0.0234 J-0.0144
G2 X1.3298 Y-5.6636 I-0.5779 J0.0328
X1.2538 Y-5.7298 I-0.0985 J0.0364
G1 X1.2487 Y-5.7309
X1.2485 Y-5.731
G2 X1.1517 Y-5.7024 I-0.0224 J0.1026
X1.05 Y-5.5646 I0.41 J0.4086
G3 X0.9985 Y-5.574 I-0.0243 J-0.0128
G2 X0.9526 Y-5.7391 I-0.5744 J0.0709
X0.8723 Y-5.8002 I-0.0959 J0.0428
G1 X0.867 Y-5.8009
Y-5.801
G2 X0.7723 Y-5.7661 I-0.0155 J0.1039
X0.68 Y-5.6218 I0.4361 J0.3806
G3 X0.6279 Y-5.6278 I-0.0251 J-0.0112
G2 X0.5712 Y-5.7895 I-0.5685 J0.1087
X0.4873 Y-5.8451 I-0.0929 J0.0491
G1 X0.4822 Y-5.8455
G2 X0.4817 Y-5.8456 I-0.0067 J0.0748
X0.3895 Y-5.8045 I-0.0086 J0.1047
X0.3069 Y-5.6544 I0.4603 J0.3509
G3 X0.2546 Y-5.657 I-0.0257 J-0.0095
G2 X0.1873 Y-5.8146 I-0.5601 J0.146
X0.0996 Y-5.8645 I-0.0894 J0.0551
G1 X0.0995
X0.0942 Y-5.8646
G2 X0.005 Y-5.8176 I-0.0017 J0.105
X-0.0674 Y-5.6624 I0.4824 J0.3198
G3 X-0.1198 Y-5.6615 I-0.0263 J-0.0078
G2 X-0.1974 Y-5.8142 I-0.5492 J0.1828
X-0.2882 Y-5.8583 I-0.0856 J0.0608
G1 X-0.2884
X-0.2936 Y-5.858
G2 X-0.3795 Y-5.8052 I0.0053 J0.1049
X-0.4415 Y-5.6455 I0.5025 J0.2872
G3 X-0.4937 Y-5.6412 I-0.0268 J-0.0061
G2 X-0.5812 Y-5.7885 I-0.5359 J0.2186
X-0.6745 Y-5.8265 I-0.0814 J0.0664
G1 X-0.6797 Y-5.8259
X-0.68 Y-5.8258
G2 X-0.7623 Y-5.7674 I0.0122 J0.1043
X-0.8137 Y-5.604 I0.5204 J0.2533
G3 X-0.8655 Y-5.5962 I-0.0271 J-0.0043
G2 X-0.9625 Y-5.7374 I-0.5203 J0.2536
X-1.0583 Y-5.7691 I-0.0768 J0.0717
X-1.0587 I0.0135 J0.0738
G1 X-1.0638 Y-5.7681
G2 X-1.1418 Y-5.7044 I0.0192 J0.1033
X-1.1823 Y-5.538 I0.536 J0.2184
G3 X-1.2334 Y-5.5268 I-0.0273 J-0.0025
G2 X-1.3396 Y-5.6613 I-0.5024 J0.2874
X-1.4373 Y-5.6865 I-0.0719 J0.0766
G1 X-1.4424 Y-5.6852
G2 X-1.5163 Y-5.6166 I0.0258 J0.1018
X-1.5457 Y-5.4477 I0.5493 J0.1825
G3 X-1.596 Y-5.4332 I-0.0274 J-0.0006
G2 X-1.7108 Y-5.5604 I-0.4823 J0.32
X-1.81 Y-5.5791 I-0.0667 J0.0812
G1 X-1.8102
X-1.8152 Y-5.5774
G2 X-1.8842 Y-5.504 I0.0326 J0.0999
X-1.9024 Y-5.3337 I0.5601 J0.1457
G3 X-1.9516 Y-5.3158 I-0.0274 J0.0012
G2 X-2.0746 Y-5.4351 I-0.46 J0.3512
X-2.1745 Y-5.4474 I-0.0612 J0.0854
G1 X-2.1792 Y-5.4455
G2 X-2.1797 Y-5.4453 I0.0274 J0.0699
X-2.2439 Y-5.3675 I0.039 J0.0975
X-2.2507 Y-5.1963 I0.5685 J0.1084
G3 X-2.2986 Y-5.1752 I-0.0273 J0.003
G2 X-2.4293 Y-5.2862 I-0.4359 J0.3808
X-2.53 Y-5.2917 I-0.0554 J0.0893
G1 X-2.5348 Y-5.2894
G2 X-2.5937 Y-5.2074 I0.0454 J0.0948
X-2.5892 Y-5.0362 I0.5745 J0.0706
G3 X-2.6357 Y-5.012 I-0.027 J0.0048
G2 X-2.7733 Y-5.114 I-0.4097 J0.4088
X-2.8742 Y-5.1129 I-0.0494 J0.0927
G1 X-2.8788 Y-5.1103
G2 X-2.9322 Y-5.0247 I0.0515 J0.0915
X-2.9164 Y-4.854 I0.5779 J0.0325
G3 X-2.9612 Y-4.8268 I-0.0267 J0.0065
G2 X-3.1052 Y-4.9196 I-0.3818 J0.435
X-3.2057 Y-4.9118 I-0.0432 J0.0957
G1 X-3.2101 Y-4.909
X-3.2103 Y-4.9089
G2 X-3.2579 Y-4.8198 I0.0575 J0.0879
X-3.2308 Y-4.6507 I0.5788 J-0.0058
G3 X-3.2737 Y-4.6206 I-0.0262 J0.0083
G2 X-3.4236 Y-4.7036 I-0.3522 J0.4592
X-3.5233 Y-4.6892 I-0.0367 J0.0984
G1 X-3.5274 Y-4.6862
X-3.5277 Y-4.686
G2 X-3.5693 Y-4.594 I0.0631 J0.084
X-3.5311 Y-4.427 I0.5771 J-0.044
G3 X-3.5719 Y-4.3941 I-0.0256 J0.01
G2 X-3.727 Y-4.4671 I-0.3211 J0.4815
X-3.8255 Y-4.4461 I-0.0301 J0.1006
G1 X-3.8294 Y-4.4428
X-3.8297 Y-4.4426
G2 X-3.8651 Y-4.348 I0.0686 J0.0796
X-3.816 Y-4.1839 I0.573 J-0.0821
G3 X-3.8545 Y-4.1484 I-0.0248 J0.0117
G2 X-4.014 Y-4.211 I-0.2886 J0.5017
X-4.1111 Y-4.1835 I-0.0234 J0.1024
G1 X-4.1113 Y-4.1833
X-4.115 Y-4.1796
G2 X-4.144 Y-4.0831 I0.0738 J0.0748
X-4.0841 Y-3.9226 I0.5662 J-0.1198
G3 X-4.1202 Y-3.8846 I-0.024 J0.0133
G2 X-4.2836 Y-3.9365 I-0.2548 J0.5197
X-4.3786 Y-3.9026 I-0.0166 J0.1037
G1 X-4.3788 Y-3.9025
X-4.3822 Y-3.8986
G2 X-4.4048 Y-3.8003 I0.0785 J0.0698
X-4.3345 Y-3.6441 I0.5571 J-0.1569
G3 X-4.368 Y-3.6038 I-0.0231 J0.0148
G2 X-4.5343 Y-3.6448 I-0.2199 J0.5354
X-4.6269 Y-3.6048 I-0.0097 J0.1046
G1 X-4.6301 Y-3.6006
X-4.6303 Y-3.6004
G2 X-4.6463 Y-3.5009 I0.083 J0.0644
X-4.5658 Y-3.3496 I0.5455 J-0.1934
G3 X-4.5966 Y-3.3073 I-0.0221 J0.0163
G2 X-4.7653 Y-3.3371 I-0.1841 J0.5488
X-4.855 Y-3.2912 I-0.0028 J0.105
G1 X-4.8579 Y-3.2869
X-4.8581 Y-3.2865
G2 X-4.8675 Y-3.1861 I0.087 J0.0588
X-4.7772 Y-3.0406 I0.5316 J-0.229
G3 X-4.8051 Y-2.9962 I-0.0209 J0.0178
G2 X-4.9754 Y-3.0149 I-0.1474 J0.5597
X-5.062 Y-2.963 I0.0041 J0.105
G1 X-5.0646 Y-2.9584
X-5.0647 Y-2.9583
G2 X-5.0675 Y-2.8575 I0.0907 J0.053
X-4.9677 Y-2.7182 I0.5153 J-0.2636
G3 X-4.9927 Y-2.6721 I-0.0197 J0.0191
G2 X-5.1638 Y-2.6794 I-0.1101 J0.5682
X-5.2467 Y-2.6219 I0.011 J0.1045
G1 X-5.2491 Y-2.6172
G2 X-5.2453 Y-2.5163 I0.094 J0.0469
X-5.1365 Y-2.3839 I0.4967 J-0.2971
G3 X-5.1583 Y-2.3363 I-0.0184 J0.0204
G2 X-5.3297 Y-2.3323 I-0.0723 J0.5743
X-5.4085 Y-2.2694 I0.018 J0.1035
G1 X-5.4106 Y-2.2645
G2 X-5.4001 Y-2.1642 I0.0969 J0.0406
X-5.2829 Y-2.0392 I0.476 J-0.3293
G3 X-5.3015 Y-1.9903 I-0.017 J0.0216
G2 X-5.4721 Y-1.975 I-0.0342 J0.5778
X-5.5467 Y-1.907 I0.0248 J0.1021
G1 X-5.5468 Y-1.9067
X-5.5485 Y-1.9018
G2 X-5.5313 Y-1.8025 I0.0994 J0.0339
X-5.4061 Y-1.6856 I0.4532 J-0.36
G3 X-5.4214 Y-1.6356 I-0.0155 J0.0226
G2 X-5.5907 Y-1.609 I0.0041 J0.5788
G1 X-5.5908
G2 X-5.6606 Y-1.5363 I0.0315 J0.1002
G1 X-5.6607 Y-1.5361
X-5.662 Y-1.5311
G2 X-5.6384 Y-1.4331 I0.1014 J0.0274
G1 Y-1.433
G2 X-5.5056 Y-1.3247 I0.4284 J-0.3893
G3 X-5.5177 Y-1.2737 I-0.014 J0.0236
G2 X-5.6848 Y-1.236 I0.0424 J0.5772
X-5.7497 Y-1.1589 I0.038 J0.0979
G1 X-5.7508 Y-1.1539
Y-1.1536
G2 X-5.7208 Y-1.0573 I0.103 J0.0207
X-5.5812 Y-0.9579 I0.4018 J-0.4167
G3 X-5.5898 Y-0.9062 I-0.0124 J0.0245
G2 X-5.754 Y-0.8576 I0.0804 J0.5732
X-5.8138 Y-0.7763 I0.0444 J0.0952
X-5.8139 Y-0.7758 I0.0744 J0.01
G1 X-5.8145 Y-0.7707
G2 X-5.7782 Y-0.6769 I0.1042 J0.0136
G1 X-5.7781 Y-0.6768
G2 X-5.6322 Y-0.5869 I0.3733 J-0.4423
G3 X-5.6374 Y-0.5348 I-0.0108 J0.0252
G2 X-5.7982 Y-0.4754 I0.1181 J0.5666
X-5.8524 Y-0.3903 I0.0506 J0.092
G1 X-5.8527 Y-0.3851
G2 X-5.8103 Y-0.2935 I0.1048 J0.007
G1 X-5.8102
G2 X-5.6587 Y-0.2134 I0.3433 J-0.466
G3 X-5.6605 Y-0.1611 I-0.0091 J0.0259
G2 X-5.8169 Y-0.0912 I0.1553 J0.5576
G1 X-5.817 Y-0.0911
G2 X-5.8654 Y-0.0026 I0.0567 J0.0885
G1 Y0.0026
G2 X-5.817 Y0.0911 I0.1051 J0.
G1 X-5.8169 Y0.0912
G2 X-5.6605 Y0.1611 I0.3117 J-0.4877
G3 X-5.6587 Y0.2134 I-0.0074 J0.0264
G2 X-5.8102 Y0.2935 I0.1918 J0.5461
G1 X-5.8103
G2 X-5.8527 Y0.385 I0.0623 J0.0845
G1 X-5.8524 Y0.3903
G2 X-5.7982 Y0.4754 I0.1048 J-0.007
X-5.6374 Y0.5348 I0.2788 J-0.5072
G3 X-5.6322 Y0.5869 I-0.0056 J0.0269
G2 X-5.7781 Y0.6768 I0.2274 J0.5322
G1 X-5.7782 Y0.6769
G2 X-5.8145 Y0.7707 I0.0679 J0.0802
G1 X-5.8139 Y0.7758
G2 X-5.8138 Y0.7763 I0.0744 J-0.0095
X-5.754 Y0.8576 I0.1041 J-0.0139
X-5.5898 Y0.9062 I0.2447 J-0.5245
G3 X-5.5812 Y0.9579 I-0.0038 J0.0272
G2 X-5.7208 Y1.0572 I0.2621 J0.516
X-5.7508 Y1.1536 I0.0729 J0.0756
G1 Y1.1539
X-5.7497 Y1.1589
G2 X-5.6848 Y1.236 I0.103 J-0.0209
X-5.5177 Y1.2737 I0.2095 J-0.5395
G3 X-5.5056 Y1.3247 I-0.002 J0.0274
G2 X-5.6384 Y1.433 I0.2956 J0.4976
G1 Y1.4331
G2 X-5.662 Y1.5311 I0.0778 J0.0706
G1 X-5.6607 Y1.5361
X-5.6606 Y1.5363
G2 X-5.5908 Y1.609 I0.1014 J-0.0275
G1 X-5.5907
G2 X-5.4214 Y1.6356 I0.1734 J-0.5522
G3 X-5.4061 Y1.6856 I-0.0002 J0.0274
G2 X-5.4247 Y1.699 I0.3279 J0.4769
G0 Z0.6
M9
G53 Z0.
M30
%
