%
(971-23-P-0063_PROXIMAL SPROCKET_FIRST 1540)
(T1  D=0.154 CR=0. - ZMIN=-0.2175 - FLAT END MILL)
G90 G94 G17 G91.1
G64 P0.001 Q0.001
G20
G53 G0 Z0.
(.3 CIRCLUAR THROUGH HOLE 2)
M9
T1 M6
S22000 M3
G4 P10.
G54
M7
G0 X3.1979 Y0.0113
G43 Z0.6 H1
G0 Z0.13
G1 Z0.0654 F40.
G19 G2 Y-0.0041 Z0.05 J-0.0154 K0.
G1 Y-0.0117
G17 G3 X3.2097 Y-0.0235 I0.0117 J0.
Y0.0235 Z0.0323 I0. J0.0235
Y-0.0235 Z0.0146 I0. J-0.0235
Y0.0235 Z-0.0032 I0. J0.0235
Y-0.0235 Z-0.0209 I0. J-0.0235
Y0.0235 Z-0.0386 I0. J0.0235
Y-0.0235 Z-0.0563 I0. J-0.0235
Y0.0235 Z-0.074 I0. J0.0235
Y-0.0235 Z-0.0918 I0. J-0.0235
Y0.0235 Z-0.1095 I0. J0.0235
Y-0.0235 Z-0.1272 I0. J-0.0235
Y0.0235 Z-0.1449 I0. J0.0235
Y-0.0235 Z-0.1627 I0. J-0.0235
Y0.0235 Z-0.1804 I0. J0.0235
Y-0.0235 Z-0.1981 I0. J-0.0235
X3.2329 Y0.0035 Z-0.2078 I0. J0.0235
X3.2027 Y0.0225 Z-0.2175 I-0.0232 J-0.0035
X3.2166 Y-0.0225 I0.0069 J-0.0225
X3.2027 Y0.0225 I-0.0069 J0.0225
X3.195 Y0.0078 I0.0035 J-0.0112
G1 X3.1972 Y0.0004
X3.1981 Y-0.0025 Z-0.2172
X3.199 Y-0.0052 Z-0.2163
X3.1998 Y-0.0078 Z-0.2149
X3.2005 Y-0.01 Z-0.213
X3.201 Y-0.0118 Z-0.2107
X3.2014 Y-0.0132 Z-0.208
X3.2017 Y-0.014 Z-0.2051
X3.2018 Y-0.0143 Z-0.2021
G0 Z0.4
X2.2612 Y-2.2703
Z0.1146
G1 Z0.05 F40.
Y-2.278
G3 X2.2696 Y-2.2863 I0.0084 J0.
Y-2.2528 Z0.0335 I0. J0.0168
Y-2.2863 Z0.0169 I0. J-0.0168
Y-2.2528 Z0.0004 I0. J0.0168
Y-2.2863 Z-0.0161 I0. J-0.0168
Y-2.2528 Z-0.0327 I0. J0.0168
Y-2.2863 Z-0.0492 I0. J-0.0168
Y-2.2528 Z-0.0657 I0. J0.0168
Y-2.2863 Z-0.0822 I0. J-0.0168
Y-2.2528 Z-0.0988 I0. J0.0168
Y-2.2863 Z-0.1153 I0. J-0.0168
Y-2.2528 Z-0.1318 I0. J0.0168
Y-2.2863 Z-0.1484 I0. J-0.0168
Y-2.2528 Z-0.1649 I0. J0.0168
Y-2.2863 Z-0.1814 I0. J-0.0168
Y-2.2528 Z-0.198 I0. J0.0168
Y-2.2863 Z-0.2145 I0. J-0.0168
X2.2786 Y-2.2837 Z-0.2175 I0. J0.0168
X2.2605 Y-2.2555 I-0.0091 J0.0141
X2.2786 Y-2.2837 I0.0091 J-0.0141
X2.2812 Y-2.2721 I-0.0045 J0.007
G1 X2.277 Y-2.2656
G0 Z0.4
X0.2617 Y-3.7574
Z0.13
G1 Z0.0654 F40.
G19 G3 Y-3.742 Z0.05 J0.0154 K0.
G1 Y-3.7343
G17 G3 X0.25 Y-3.7225 I-0.0117 J0.
Y-3.7695 Z0.0323 I0. J-0.0235
Y-3.7225 Z0.0146 I0. J0.0235
Y-3.7695 Z-0.0032 I0. J-0.0235
Y-3.7225 Z-0.0209 I0. J0.0235
Y-3.7695 Z-0.0386 I0. J-0.0235
Y-3.7225 Z-0.0563 I0. J0.0235
Y-3.7695 Z-0.074 I0. J-0.0235
Y-3.7225 Z-0.0918 I0. J0.0235
Y-3.7695 Z-0.1095 I0. J-0.0235
Y-3.7225 Z-0.1272 I0. J0.0235
Y-3.7695 Z-0.1449 I0. J-0.0235
Y-3.7225 Z-0.1627 I0. J0.0235
Y-3.7695 Z-0.1804 I0. J-0.0235
Y-3.7225 Z-0.1981 I0. J0.0235
X0.2268 Y-3.7495 Z-0.2078 I0. J-0.0235
X0.2569 Y-3.7685 Z-0.2175 I0.0232 J0.0035
X0.2431 Y-3.7236 I-0.0069 J0.0225
X0.2569 Y-3.7685 I0.0069 J-0.0225
X0.2647 Y-3.7538 I-0.0035 J0.0112
G1 X0.2624 Y-3.7465
X0.2615 Y-3.7436 Z-0.2172
X0.2607 Y-3.7408 Z-0.2163
X0.2599 Y-3.7383 Z-0.2149
X0.2592 Y-3.736 Z-0.213
X0.2586 Y-3.7342 Z-0.2107
X0.2582 Y-3.7329 Z-0.208
X0.258 Y-3.732 Z-0.2051
X0.2579 Y-3.7317 Z-0.2021
G0 Z0.4
X-0.2382 Y-3.7574
Z0.13
G1 Z0.0654 F40.
G19 G3 Y-3.742 Z0.05 J0.0154 K0.
G1 Y-3.7343
G17 G3 X-0.25 Y-3.7225 I-0.0117 J0.
Y-3.7695 Z0.0323 I0. J-0.0235
Y-3.7225 Z0.0146 I0. J0.0235
Y-3.7695 Z-0.0032 I0. J-0.0235
Y-3.7225 Z-0.0209 I0. J0.0235
Y-3.7695 Z-0.0386 I0. J-0.0235
Y-3.7225 Z-0.0563 I0. J0.0235
Y-3.7695 Z-0.074 I0. J-0.0235
Y-3.7225 Z-0.0918 I0. J0.0235
Y-3.7695 Z-0.1095 I0. J-0.0235
Y-3.7225 Z-0.1272 I0. J0.0235
Y-3.7695 Z-0.1449 I0. J-0.0235
Y-3.7225 Z-0.1627 I0. J0.0235
Y-3.7695 Z-0.1804 I0. J-0.0235
Y-3.7225 Z-0.1981 I0. J0.0235
X-0.2732 Y-3.7495 Z-0.2078 I0. J-0.0235
X-0.2431 Y-3.7685 Z-0.2175 I0.0232 J0.0035
X-0.2569 Y-3.7236 I-0.0069 J0.0225
X-0.2431 Y-3.7685 I0.0069 J-0.0225
X-0.2353 Y-3.7538 I-0.0035 J0.0112
G1 X-0.2376 Y-3.7465
X-0.2385 Y-3.7436 Z-0.2172
X-0.2393 Y-3.7408 Z-0.2163
X-0.2401 Y-3.7383 Z-0.2149
X-0.2408 Y-3.736 Z-0.213
X-0.2414 Y-3.7342 Z-0.2107
X-0.2418 Y-3.7329 Z-0.208
X-0.242 Y-3.732 Z-0.2051
X-0.2421 Y-3.7317 Z-0.2021
G0 Z0.4
X-0.0117 Y-3.1983
Z0.13
G1 Z0.0654 F40.
G19 G2 Y-3.2137 Z0.05 J-0.0154 K0.
G1 Y-3.2214
G17 G3 X0. Y-3.2332 I0.0117 J0.
Y-3.1862 Z0.0323 I0. J0.0235
Y-3.2332 Z0.0146 I0. J-0.0235
Y-3.1862 Z-0.0032 I0. J0.0235
Y-3.2332 Z-0.0209 I0. J-0.0235
Y-3.1862 Z-0.0386 I0. J0.0235
Y-3.2332 Z-0.0563 I0. J-0.0235
Y-3.1862 Z-0.074 I0. J0.0235
Y-3.2332 Z-0.0918 I0. J-0.0235
Y-3.1862 Z-0.1095 I0. J0.0235
Y-3.2332 Z-0.1272 I0. J-0.0235
Y-3.1862 Z-0.1449 I0. J0.0235
Y-3.2332 Z-0.1627 I0. J-0.0235
Y-3.1862 Z-0.1804 I0. J0.0235
Y-3.2332 Z-0.1981 I0. J-0.0235
X0.0232 Y-3.2062 Z-0.2078 I0. J0.0235
X-0.0069 Y-3.1872 Z-0.2175 I-0.0232 J-0.0035
X0.0069 Y-3.2321 I0.0069 J-0.0225
X-0.0069 Y-3.1872 I-0.0069 J0.0225
X-0.0147 Y-3.2019 I0.0035 J-0.0112
G1 X-0.0124 Y-3.2093
X-0.0115 Y-3.2121 Z-0.2172
X-0.0107 Y-3.2149 Z-0.2163
X-0.0099 Y-3.2174 Z-0.2149
X-0.0092 Y-3.2197 Z-0.213
X-0.0086 Y-3.2215 Z-0.2107
X-0.0082 Y-3.2229 Z-0.208
X-0.008 Y-3.2237 Z-0.2051
X-0.0079 Y-3.224 Z-0.2021
G0 Z0.4
X-2.278 Y-2.2703
Z0.1146
G1 Z0.05 F40.
Y-2.278
G3 X-2.2696 Y-2.2863 I0.0084 J0.
Y-2.2528 Z0.0335 I0. J0.0168
Y-2.2863 Z0.0169 I0. J-0.0168
Y-2.2528 Z0.0004 I0. J0.0168
Y-2.2863 Z-0.0161 I0. J-0.0168
Y-2.2528 Z-0.0327 I0. J0.0168
Y-2.2863 Z-0.0492 I0. J-0.0168
Y-2.2528 Z-0.0657 I0. J0.0168
Y-2.2863 Z-0.0822 I0. J-0.0168
Y-2.2528 Z-0.0988 I0. J0.0168
Y-2.2863 Z-0.1153 I0. J-0.0168
Y-2.2528 Z-0.1318 I0. J0.0168
Y-2.2863 Z-0.1484 I0. J-0.0168
Y-2.2528 Z-0.1649 I0. J0.0167
Y-2.2863 Z-0.1814 I0. J-0.0167
Y-2.2528 Z-0.198 I0. J0.0167
Y-2.2863 Z-0.2145 I0. J-0.0167
X-2.2605 Y-2.2837 Z-0.2175 I0. J0.0167
X-2.2786 Y-2.2555 I-0.0091 J0.0141
X-2.2605 Y-2.2837 I0.0091 J-0.0141
X-2.258 Y-2.2721 I-0.0045 J0.007
G1 X-2.2622 Y-2.2656
G0 Z0.4
X-3.2214 Y0.0113
Z0.13
G1 Z0.0654 F40.
G19 G2 Y-0.0041 Z0.05 J-0.0154 K0.
G1 Y-0.0117
G17 G3 X-3.2097 Y-0.0235 I0.0118 J0.
Y0.0235 Z0.0323 I0. J0.0235
Y-0.0235 Z0.0146 I0. J-0.0235
Y0.0235 Z-0.0032 I0. J0.0235
Y-0.0235 Z-0.0209 I0. J-0.0235
Y0.0235 Z-0.0386 I0. J0.0235
Y-0.0235 Z-0.0563 I0. J-0.0235
Y0.0235 Z-0.074 I0. J0.0235
Y-0.0235 Z-0.0918 I0. J-0.0235
Y0.0235 Z-0.1095 I0. J0.0235
Y-0.0235 Z-0.1272 I0. J-0.0235
Y0.0235 Z-0.1449 I0. J0.0235
Y-0.0235 Z-0.1627 I0. J-0.0235
Y0.0235 Z-0.1804 I0. J0.0235
Y-0.0235 Z-0.1981 I0. J-0.0235
X-3.1864 Y0.0035 Z-0.2078 I0. J0.0235
X-3.2166 Y0.0225 Z-0.2175 I-0.0232 J-0.0035
X-3.2027 Y-0.0225 I0.0069 J-0.0225
X-3.2166 Y0.0225 I-0.0069 J0.0225
X-3.2244 Y0.0078 I0.0035 J-0.0112
G1 X-3.2221 Y0.0004
X-3.2212 Y-0.0025 Z-0.2172
X-3.2204 Y-0.0052 Z-0.2163
X-3.2196 Y-0.0078 Z-0.2149
X-3.2189 Y-0.01 Z-0.213
X-3.2183 Y-0.0118 Z-0.2107
X-3.2179 Y-0.0132 Z-0.208
X-3.2176 Y-0.014 Z-0.2051
X-3.2175 Y-0.0143 Z-0.2021
G0 Z0.4
X-2.278 Y2.2689
Z0.1146
G1 Z0.05 F40.
Y2.2612
G3 X-2.2696 Y2.2528 I0.0084 J0.
Y2.2863 Z0.0335 I0. J0.0167
Y2.2528 Z0.0169 I0. J-0.0167
Y2.2863 Z0.0004 I0. J0.0167
Y2.2528 Z-0.0161 I0. J-0.0167
Y2.2863 Z-0.0327 I0. J0.0167
Y2.2528 Z-0.0492 I0. J-0.0167
Y2.2863 Z-0.0657 I0. J0.0167
Y2.2528 Z-0.0822 I0. J-0.0167
Y2.2863 Z-0.0988 I0. J0.0167
Y2.2528 Z-0.1153 I0. J-0.0167
Y2.2863 Z-0.1318 I0. J0.0167
Y2.2528 Z-0.1484 I0. J-0.0167
Y2.2863 Z-0.1649 I0. J0.0167
Y2.2528 Z-0.1814 I0. J-0.0167
Y2.2863 Z-0.198 I0. J0.0167
Y2.2528 Z-0.2145 I0. J-0.0167
X-2.2605 Y2.2555 Z-0.2175 I0. J0.0167
X-2.2786 Y2.2837 I-0.0091 J0.0141
X-2.2605 Y2.2555 I0.0091 J-0.0141
X-2.258 Y2.2671 I-0.0045 J0.007
G1 X-2.2622 Y2.2735
G0 Z0.4
X-0.0117 Y3.221
Z0.13
G1 Z0.0654 F40.
G19 G2 Y3.2056 Z0.05 J-0.0154 K0.
G1 Y3.1979
G17 G3 X0. Y3.1862 I0.0117 J0.
Y3.2332 Z0.0323 I0. J0.0235
Y3.1862 Z0.0146 I0. J-0.0235
Y3.2332 Z-0.0032 I0. J0.0235
Y3.1862 Z-0.0209 I0. J-0.0235
Y3.2332 Z-0.0386 I0. J0.0235
Y3.1862 Z-0.0563 I0. J-0.0235
Y3.2332 Z-0.074 I0. J0.0235
Y3.1862 Z-0.0918 I0. J-0.0235
Y3.2332 Z-0.1095 I0. J0.0235
Y3.1862 Z-0.1272 I0. J-0.0235
Y3.2332 Z-0.1449 I0. J0.0235
Y3.1862 Z-0.1627 I0. J-0.0235
Y3.2332 Z-0.1804 I0. J0.0235
Y3.1862 Z-0.1981 I0. J-0.0235
X0.0232 Y3.2132 Z-0.2078 I0. J0.0235
X-0.0069 Y3.2321 Z-0.2175 I-0.0232 J-0.0035
X0.0069 Y3.1872 I0.0069 J-0.0225
X-0.0069 Y3.2321 I-0.0069 J0.0225
X-0.0147 Y3.2174 I0.0035 J-0.0112
G1 X-0.0124 Y3.2101
X-0.0115 Y3.2072 Z-0.2172
X-0.0107 Y3.2044 Z-0.2163
X-0.0099 Y3.2019 Z-0.2149
X-0.0092 Y3.1997 Z-0.213
X-0.0086 Y3.1978 Z-0.2107
X-0.0082 Y3.1965 Z-0.208
X-0.008 Y3.1956 Z-0.2051
X-0.0079 Y3.1954 Z-0.2021
G0 Z0.4
X2.2612 Y2.2689
Z0.1146
G1 Z0.05 F40.
Y2.2612
G3 X2.2696 Y2.2528 I0.0084 J0.
Y2.2863 Z0.0335 I0. J0.0167
Y2.2528 Z0.0169 I0. J-0.0167
Y2.2863 Z0.0004 I0. J0.0167
Y2.2528 Z-0.0161 I0. J-0.0167
Y2.2863 Z-0.0327 I0. J0.0167
Y2.2528 Z-0.0492 I0. J-0.0167
Y2.2863 Z-0.0657 I0. J0.0167
Y2.2528 Z-0.0822 I0. J-0.0167
Y2.2863 Z-0.0988 I0. J0.0167
Y2.2528 Z-0.1153 I0. J-0.0167
Y2.2863 Z-0.1318 I0. J0.0167
Y2.2528 Z-0.1484 I0. J-0.0167
Y2.2863 Z-0.1649 I0. J0.0167
Y2.2528 Z-0.1814 I0. J-0.0167
Y2.2863 Z-0.198 I0. J0.0167
Y2.2528 Z-0.2145 I0. J-0.0167
X2.2786 Y2.2555 Z-0.2175 I0. J0.0167
X2.2605 Y2.2837 I-0.0091 J0.0141
X2.2786 Y2.2555 I0.0091 J-0.0141
X2.2812 Y2.2671 I-0.0045 J0.007
G1 X2.277 Y2.2735
G0 Z0.6
(.3 CIRCULAR THROUGH HOLE)
M7
G0 X-0.0247 Y3.7923
Z0.6
Z0.2
G1 Z0.1149 F13.333
G3 X-0.0233 Y3.7925 Z0.1084 I-0.0053 J0.0447 F55.
X-0.0193 Y3.7933 Z0.1031 I-0.0067 J0.0445
X-0.0136 Y3.7951 Z0.1 I-0.0107 J0.0437
X-0.0464 Y3.8789 Z0.0621 I-0.0164 J0.0419
X-0.0136 Y3.7951 Z0.0242 I0.0164 J-0.0419
X-0.0464 Y3.8789 Z-0.0136 I-0.0164 J0.0419
X-0.0136 Y3.7951 Z-0.0515 I0.0164 J-0.0419
X-0.0464 Y3.8789 Z-0.0894 I-0.0164 J0.0419
X-0.0136 Y3.7951 Z-0.1273 I0.0164 J-0.0419
X-0.0464 Y3.8789 Z-0.1652 I-0.0164 J0.0419
X-0.0136 Y3.7951 Z-0.203 I0.0164 J-0.0419
X0.015 Y3.837 Z-0.2175 I-0.0164 J0.0419
X-0.015 I-0.015 J0. F60.
X0.115 I0.065 J0.
X-0.115 I-0.115 J0.
X0.115 I0.115 J0.
G2 X0.1514 Y3.9005 I0.0736 J0.
G3 X0.1643 Y3.9726 I-0.0243 J0.0415
X0. Y4.05 I-0.1643 J-0.1356
Y3.624 I0. J-0.213
X0.1643 Y3.9726 I0. J0.213
G2 X0.1633 Y3.9814 I0.0062 J0.0051
G3 X0.162 Y3.9902 I-0.0068 J0.0035
X0. Y4.06 I-0.162 J-0.1532
Y3.614 I0. J-0.223
X0.162 Y3.9902 I0. J0.223
X0.1573 Y3.9936 Z-0.2163 I-0.0112 J-0.0106
X0.1525 Y3.9949 Z-0.213 I-0.0064 J-0.014
X0.1491 Z-0.208 I-0.0016 J-0.0153
X0.148 Y3.9948 Z-0.2021 I0.0017 J-0.0153
G0 Z0.6
(SHAPE POCKET)
M7
G0 X-4.3905 Y-0.0695
Z0.6
Z0.1
G3 X-4.3446 Y0.0695 Z0.0595 I0.0229 J0.0695 F50.
X-4.3905 Y-0.0695 Z0.019 I-0.0229 J-0.0695
X-4.3446 Y0.0695 Z-0.0216 I0.0229 J0.0695
X-4.3905 Y-0.0695 Z-0.0621 I-0.0229 J-0.0695
X-4.3446 Y0.0695 Z-0.1026 I0.0229 J0.0695
X-4.3905 Y-0.0695 Z-0.1431 I-0.0229 J-0.0695
X-4.2944 Y0. Z-0.1675 I0.0229 J0.0695
X-4.4407 I-0.0731 J0.
X-4.2946 Y-0.0059 I0.0731 J0.
G1 X-4.2944 Y0.
G3 X-4.4502 Y0.1236 I-0.0819 J0.0568 F60.
G1 X-4.4583 Y0.1183
X-4.4661 Y0.1124
X-4.4735 Y0.1061
X-4.4805 Y0.0993
X-4.487 Y0.092
X-4.493 Y0.0844
X-4.4986 Y0.0764
X-4.5037 Y0.0681
X-4.5082 Y0.0595
X-4.5122 Y0.0506
X-4.5156 Y0.0415
X-4.5184 Y0.0321
X-4.5206 Y0.0227
X-4.5222 Y0.0131
X-4.5233 Y0.0034
X-4.5237 Y-0.0064
X-4.5235 Y-0.0161
X-4.5226 Y-0.0258
X-4.5212 Y-0.0354
X-4.5192 Y-0.0449
X-4.5166 Y-0.0543
X-4.5133 Y-0.0635
X-4.5096 Y-0.0725
X-4.5052 Y-0.0812
X-4.5003 Y-0.0896
X-4.4949 Y-0.0977
X-4.489 Y-0.1055
X-4.4827 Y-0.1128
X-4.4758 Y-0.1198
X-4.4686 Y-0.1262
X-4.4609 Y-0.1323
X-4.4529 Y-0.1378
X-4.4446 Y-0.1428
X-4.4359 Y-0.1473
X-4.427 Y-0.1512
X-4.4179 Y-0.1546
X-4.4086 Y-0.1574
X-4.3991 Y-0.1596
X-4.3895 Y-0.1611
X-4.3798 Y-0.1621
X-4.3701 Y-0.1625
X-4.3603 Y-0.1622
X-4.3506 Y-0.1614
X-4.341 Y-0.1599
X-4.3315 Y-0.1578
X-4.3221 Y-0.1551
X-4.313 Y-0.1519
X-4.304 Y-0.1481
X-4.2953 Y-0.1437
X-4.2869 Y-0.1388
X-4.2789 Y-0.1333
X-4.2711 Y-0.1274
X-4.2638 Y-0.121
X-4.2569 Y-0.1141
X-4.2504 Y-0.1068
X-4.2445 Y-0.0992
X-4.239 Y-0.0911
X-4.234 Y-0.0828
X-4.2295 Y-0.0741
X-4.2257 Y-0.0652
X-4.2223 Y-0.056
X-4.2196 Y-0.0467
X-4.2139 Y-0.0375
X-4.2088 Y-0.0281
X-4.2042 Y-0.0183
X-4.2001 Y-0.0083
X-4.1966 Y0.0019
X-4.1937 Y0.0123
X-4.1914 Y0.0228
X-4.1898 Y0.0335
X-4.1887 Y0.0442
X-4.1882 Y0.055
X-4.1883 Y0.0658
X-4.1891 Y0.0765
X-4.1904 Y0.0872
X-4.1924 Y0.0978
X-4.1949 Y0.1083
X-4.1981 Y0.1186
X-4.2018 Y0.1288
X-4.2061 Y0.1386
X-4.211 Y0.1483
X-4.2164 Y0.1576
X-4.2223 Y0.1666
X-4.2287 Y0.1753
X-4.2356 Y0.1836
X-4.243 Y0.1915
X-4.2507 Y0.1989
X-4.2589 Y0.2059
X-4.2675 Y0.2125
X-4.2765 Y0.2185
X-4.2857 Y0.224
X-4.2953 Y0.229
X-4.3052 Y0.2334
X-4.3152 Y0.2373
X-4.3255 Y0.2406
X-4.3359 Y0.2433
X-4.3465 Y0.2454
X-4.3572 Y0.2468
X-4.3679 Y0.2477
X-4.3787 Y0.248
X-4.3895 Y0.2477
X-4.4002 Y0.2467
X-4.4109 Y0.2452
X-4.4215 Y0.243
X-4.4319 Y0.2402
X-4.4422 Y0.2369
X-4.4522 Y0.233
X-4.462 Y0.2285
X-4.4716 Y0.2235
X-4.4808 Y0.2179
X-4.4897 Y0.2118
X-4.4982 Y0.2053
X-4.5064 Y0.1982
X-4.5141 Y0.1907
X-4.524 Y0.1839
X-4.5334 Y0.1766
X-4.5425 Y0.1688
X-4.5512 Y0.1606
X-4.5595 Y0.1519
X-4.5673 Y0.1428
X-4.5746 Y0.1334
X-4.5815 Y0.1236
X-4.5879 Y0.1135
X-4.5937 Y0.103
X-4.599 Y0.0923
X-4.6037 Y0.0813
X-4.6079 Y0.0701
X-4.6116 Y0.0587
X-4.6146 Y0.0471
X-4.617 Y0.0354
X-4.6189 Y0.0236
X-4.6202 Y0.0117
X-4.6208 Y-0.0002
X-4.6209 Y-0.0122
X-4.6203 Y-0.0241
X-4.6192 Y-0.0361
X-4.6174 Y-0.0479
X-4.6151 Y-0.0596
X-4.6121 Y-0.0712
X-4.6086 Y-0.0827
X-4.6045 Y-0.0939
X-4.5999 Y-0.1049
X-4.5947 Y-0.1157
X-4.5889 Y-0.1262
X-4.5827 Y-0.1364
X-4.5759 Y-0.1462
X-4.5686 Y-0.1557
X-4.5609 Y-0.1649
X-4.5527 Y-0.1736
X-4.5441 Y-0.1819
X-4.5351 Y-0.1898
X-4.5257 Y-0.1971
X-4.5159 Y-0.2041
X-4.5058 Y-0.2105
X-4.4954 Y-0.2163
X-4.4847 Y-0.2217
X-4.4737 Y-0.2265
X-4.4626 Y-0.2308
X-4.4497 Y-0.2344
X-4.4367 Y-0.2375
X-4.4235 Y-0.24
X-4.4103 Y-0.2419
X-4.397 Y-0.2431
X-4.3836 Y-0.2438
X-4.3703
X-4.3569 Y-0.2432
X-4.3436 Y-0.242
X-4.3303 Y-0.2402
X-4.3172 Y-0.2378
X-4.3042 Y-0.2348
X-4.2913 Y-0.2312
X-4.2786 Y-0.227
X-4.2661 Y-0.2222
X-4.2538 Y-0.2168
X-4.2419 Y-0.2109
X-4.2301 Y-0.2045
X-4.2187 Y-0.1975
X-4.2077 Y-0.19
X-4.197 Y-0.1819
X-4.1867 Y-0.1734
X-4.1767 Y-0.1645
X-4.1672 Y-0.1551
X-4.1582 Y-0.1452
X-4.1496 Y-0.135
X-4.1415 Y-0.1244
X-4.1339 Y-0.1134
X-4.1268 Y-0.102
X-4.1202 Y-0.0904
X-4.1142 Y-0.0784
X-4.1087 Y-0.0662
X-4.1038 Y-0.0538
X-4.0995 Y-0.0411
X-4.0957 Y-0.0283
X-4.0926 Y-0.0153
X-4.09 Y-0.0022
X-4.0881 Y0.0111
X-4.0868 Y0.0244
X-4.0861 Y0.0377
X-4.086 Y0.0511
X-4.0865 Y0.0644
X-4.0876 Y0.0778
X-4.0894 Y0.091
X-4.0918 Y0.1042
X-4.0947 Y0.1172
X-4.0983 Y0.1301
X-4.1024 Y0.1428
X-4.1072 Y0.1553
X-4.1125 Y0.1676
X-4.1183 Y0.1796
X-4.1247 Y0.1914
X-4.1317 Y0.2028
X-4.1392 Y0.2139
X-4.1471 Y0.2246
X-4.1556 Y0.235
X-4.1645 Y0.245
X-4.1739 Y0.2545
X-4.1837 Y0.2636
X-4.1939 Y0.2722
X-4.2045 Y0.2804
X-4.2154 Y0.288
X-4.2267 Y0.2952
X-4.2383 Y0.3018
X-4.2503 Y0.3079
X-4.2624 Y0.3134
X-4.2748 Y0.3184
X-4.2875 Y0.3228
X-4.3003 Y0.3265
X-4.3133 Y0.3297
X-4.3264 Y0.3323
X-4.3396 Y0.3343
X-4.3529 Y0.3357
X-4.3663 Y0.3365
X-4.3796 Y0.3366
X-4.393 Y0.3362
X-4.4063 Y0.3351
X-4.4196 Y0.3334
X-4.4328 Y0.3311
X-4.4458 Y0.3282
X-4.4587 Y0.3247
X-4.4715 Y0.3206
X-4.484 Y0.3159
G3 X-4.4641 Y-0.3311 I0.1055 J-0.3206
G1 X-4.4488 Y-0.3342
X-4.4334 Y-0.3366
X-4.4179 Y-0.3385
X-4.4024 Y-0.3397
X-4.3868 Y-0.3403
X-4.3712 Y-0.3402
X-4.3556 Y-0.3396
X-4.3401 Y-0.3383
X-4.3246 Y-0.3364
X-4.3092 Y-0.3339
X-4.294 Y-0.3307
X-4.2788 Y-0.327
X-4.2639 Y-0.3226
X-4.2491 Y-0.3177
X-4.2345 Y-0.3121
X-4.2202 Y-0.306
X-4.2061 Y-0.2993
X-4.1923 Y-0.292
X-4.1788 Y-0.2842
X-4.1657 Y-0.2759
X-4.1528 Y-0.267
X-4.1404 Y-0.2576
X-4.1283 Y-0.2478
X-4.1167 Y-0.2374
X-4.1054 Y-0.2266
X-4.0946 Y-0.2154
X-4.0843 Y-0.2037
X-4.0744 Y-0.1916
X-4.0651 Y-0.1792
X-4.0562 Y-0.1664
X-4.0479 Y-0.1532
X-4.0401 Y-0.1397
X-4.0328 Y-0.1259
X-4.0262 Y-0.1118
X-4.02 Y-0.0975
X-4.0145 Y-0.0829
X-4.0096 Y-0.0681
X-4.0052 Y-0.0531
X-4.0015 Y-0.038
X-3.9983 Y-0.0227
X-3.9958 Y-0.0074
X-3.9939 Y0.0081
X-3.9926 Y0.0236
X-3.992 Y0.0392
Y0.0548
X-3.9926 Y0.0704
X-3.9938 Y0.0859
X-3.9957 Y0.1014
X-3.9981 Y0.1168
X-4.0012 Y0.1321
X-4.0049 Y0.1472
X-4.0092 Y0.1622
X-4.0141 Y0.177
X-4.0196 Y0.1916
X-4.0257 Y0.2059
X-4.0323 Y0.22
X-4.0396 Y0.2338
X-4.0473 Y0.2474
X-4.0556 Y0.2606
X-4.0644 Y0.2734
X-4.0738 Y0.2859
X-4.0836 Y0.298
X-4.0939 Y0.3097
X-4.1046 Y0.321
X-4.1158 Y0.3318
X-4.1275 Y0.3422
X-4.1395 Y0.3521
X-4.1519 Y0.3615
X-4.1647 Y0.3704
X-4.1779 Y0.3788
X-4.1914 Y0.3866
X-4.2051 Y0.3939
X-4.2192 Y0.4007
X-4.2335 Y0.4068
X-4.248 Y0.4124
X-4.2628 Y0.4174
X-4.2778 Y0.4218
X-4.2929 Y0.4256
X-4.3081 Y0.4288
X-4.3235 Y0.4314
X-4.339 Y0.4333
X-4.3545 Y0.4346
X-4.3701 Y0.4353
X-4.3857 Y0.4354
X-4.4012 Y0.4349
X-4.4168 Y0.4337
X-4.4323 Y0.4319
X-4.4477 Y0.4295
X-4.463 Y0.4265
X-4.4781 Y0.4228
X-4.4931 Y0.4186
X-4.5079 Y0.4137
X-4.5225 Y0.4083
X-4.5369 Y0.4022
X-4.551 Y0.3956
X-4.5649 Y0.3885
X-4.5784 Y0.3808
X-4.5916 Y0.3725
X-4.6045 Y0.3637
X-4.617 Y0.3545
X-4.6292 Y0.3447
X-4.6409 Y0.3344
X-4.6522 Y0.3237
G3 X-4.8108 Y0.0032 I0.2298 J-0.3132
X-3.9213 Y-0.0701 I0.4479 J0.0009
G1 X-3.9164 Y-0.0542
X-3.9121 Y-0.0381
X-3.9085 Y-0.0218
X-3.9054 Y-0.0054
X-3.903 Y0.0111
X-3.9011 Y0.0277
X-3.8999 Y0.0443
X-3.8994 Y0.061
Y0.0777
X-3.9001 Y0.0944
X-3.9014 Y0.111
X-3.9033 Y0.1276
X-3.9059 Y0.1441
X-3.909 Y0.1604
X-3.9128 Y0.1767
X-3.9172 Y0.1928
X-3.9221 Y0.2087
X-3.9277 Y0.2245
X-3.9338 Y0.24
X-3.9406 Y0.2552
X-3.9479 Y0.2702
X-3.9557 Y0.2849
X-3.9641 Y0.2994
X-3.973 Y0.3135
X-3.9825 Y0.3272
X-3.9924 Y0.3406
X-4.0029 Y0.3536
X-4.0138 Y0.3662
X-4.0252 Y0.3784
X-4.0371 Y0.3901
X-4.0493 Y0.4014
X-4.062 Y0.4122
X-4.0751 Y0.4226
X-4.0886 Y0.4324
X-4.1024 Y0.4418
X-4.1166 Y0.4506
X-4.1311 Y0.4589
X-4.1458 Y0.4666
X-4.1609 Y0.4738
X-4.1775 Y0.4811
X-4.1943 Y0.4878
X-4.2114 Y0.494
X-4.2287 Y0.4996
X-4.2461 Y0.5046
X-4.2637 Y0.509
X-4.2815 Y0.5127
X-4.2994 Y0.5159
X-4.3173 Y0.5185
X-4.3354 Y0.5204
X-4.3535 Y0.5217
X-4.3716 Y0.5224
X-4.3897 Y0.5225
X-4.4079 Y0.5219
X-4.426 Y0.5207
X-4.444 Y0.5189
X-4.462 Y0.5165
X-4.4799 Y0.5135
X-4.4977 Y0.5098
X-4.5153 Y0.5056
X-4.5328 Y0.5007
X-4.5501 Y0.4953
X-4.5672 Y0.4892
X-4.5841 Y0.4826
X-4.6008 Y0.4754
X-4.6172 Y0.4676
X-4.6333 Y0.4593
X-4.6491 Y0.4504
X-4.6646 Y0.441
X-4.6798 Y0.431
X-4.6946 Y0.4206
X-4.7091 Y0.4096
X-4.7232 Y0.3981
X-4.7369 Y0.3862
X-4.7501 Y0.3738
X-4.7629 Y0.361
X-4.7753 Y0.3477
X-4.7872 Y0.334
X-4.7987 Y0.3199
X-4.8096 Y0.3054
X-4.82 Y0.2906
X-4.83 Y0.2754
X-4.8394 Y0.2599
X-4.8482 Y0.2441
X-4.8565 Y0.2279
X-4.8643 Y0.2115
X-4.8715 Y0.1948
X-4.8781 Y0.1779
X-4.8841 Y0.1608
X-4.8895 Y0.1435
X-4.8944 Y0.126
X-4.8986 Y0.1084
X-4.9022 Y0.0906
X-4.9052 Y0.0727
X-4.9076 Y0.0547
X-4.9094 Y0.0367
X-4.9105 Y0.0185
X-4.9111 Y0.0004
X-4.911 Y-0.0177
X-4.9103 Y-0.0359
X-4.9089 Y-0.054
X-4.907 Y-0.072
X-4.9044 Y-0.09
X-4.9012 Y-0.1078
X-4.8974 Y-0.1256
X-4.893 Y-0.1432
X-4.888 Y-0.1606
X-4.8824 Y-0.1779
X-4.8762 Y-0.1949
X-4.8694 Y-0.2118
X-4.862 Y-0.2284
X-4.8541 Y-0.2447
X-4.8457 Y-0.2607
X-4.8366 Y-0.2765
X-4.8271 Y-0.2919
X-4.817 Y-0.307
X-4.8064 Y-0.3217
X-4.7953 Y-0.3361
X-4.7837 Y-0.3501
X-4.7717 Y-0.3636
X-4.7592 Y-0.3768
X-4.7462 Y-0.3895
X-4.7329 Y-0.4018
X-4.7191 Y-0.4135
X-4.7049 Y-0.4249
X-4.6903 Y-0.4357
X-4.6754 Y-0.446
X-4.6601 Y-0.4558
X-4.6445 Y-0.465
X-4.6286 Y-0.4737
X-4.6124 Y-0.4819
X-4.5959 Y-0.4895
X-4.5792 Y-0.4966
X-4.5622 Y-0.503
X-4.545 Y-0.5089
X-4.5277 Y-0.5142
X-4.5101 Y-0.5189
X-4.4925 Y-0.5229
X-4.4747 Y-0.5264
X-4.4567 Y-0.5292
X-4.4387 Y-0.5315
X-4.4206 Y-0.5331
X-4.4025 Y-0.5341
X-4.3844 Y-0.5345
X-4.3662 Y-0.5342
X-4.3481 Y-0.5333
X-4.33 Y-0.5318
X-4.312 Y-0.5297
X-4.2941 Y-0.527
G3 X-3.8214 Y0.2086 I-0.0847 J0.5741
X-4.6141 Y0.5775 I-0.5574 J-0.1615
X-4.1345 Y-0.5903 I0.2405 J-0.5836
X-4.48 Y0.7184 I-0.2482 J0.6344
X-5.0612 Y0.2403 I0.0997 J-0.7135
G1 X-5.067 Y0.0117
Y-0.0117
X-5.0626 Y-0.176
X-5.0583 Y-0.1963
X-5.0533 Y-0.2165
X-5.0478 Y-0.2365
X-5.0416 Y-0.2564
X-5.0349 Y-0.276
X-5.0276 Y-0.2955
X-5.0197 Y-0.3147
X-5.0113 Y-0.3337
X-5.0022 Y-0.3524
X-4.9927 Y-0.3709
X-4.9826 Y-0.389
X-4.9719 Y-0.4069
X-4.9607 Y-0.4244
X-4.949 Y-0.4416
X-4.9368 Y-0.4584
X-4.9241 Y-0.4748
X-4.9109 Y-0.4909
X-4.8973 Y-0.5066
X-4.8832 Y-0.5218
X-4.8686 Y-0.5366
X-4.8536 Y-0.551
X-4.8382 Y-0.565
X-4.8224 Y-0.5784
X-4.8061 Y-0.5914
X-4.7895 Y-0.6039
X-4.7726 Y-0.6159
X-4.7552 Y-0.6274
X-4.7376 Y-0.6384
X-4.7196 Y-0.6488
X-4.7013 Y-0.6587
X-4.6828 Y-0.668
X-4.664 Y-0.6768
X-4.6449 Y-0.685
X-4.6255 Y-0.6927
X-4.606 Y-0.6998
X-4.5863 Y-0.7063
X-4.5663 Y-0.7121
X-4.5462 Y-0.7174
X-4.526 Y-0.7221
X-4.5056 Y-0.7262
X-4.4851 Y-0.7297
X-4.4646 Y-0.7326
X-4.4439 Y-0.7349
X-4.4232 Y-0.7365
X-4.4024 Y-0.7375
X-4.3817 Y-0.7379
X-4.3609 Y-0.7377
X-4.3401 Y-0.7369
X-4.3194 Y-0.7354
X-4.2987 Y-0.7334
X-4.2781 Y-0.7307
X-4.2576 Y-0.7274
X-4.2372 Y-0.7235
X-4.2169 Y-0.719
X-4.1967 Y-0.7139
X-4.1768 Y-0.7082
X-4.157 Y-0.7019
X-4.1374 Y-0.695
X-4.118 Y-0.6875
X-4.0988 Y-0.6794
X-4.0799 Y-0.6708
G3 X-3.9735 Y-0.6207 I-0.0331 J0.2083
G1 X-3.7022 Y-0.2933
G3 X-3.6184 Y0.1923 I-0.5573 J0.3461
G1 X-4.0489 Y0.7117
G3 X-4.5103 Y0.8127 I-0.3383 J-0.4413
X-5.044 Y0.4826 I0.1266 J-0.8013
G1 X-5.0601 Y0.2699
X-5.0609 Y0.2402
G3 X-5.0531 Y0.2269 I0.0154 J0.0001
X-5.0318 Y0.2213 I0.0214 J0.0376
G1 X-5.0317
G3 X-4.9979 Y0.2376 I0. J0.0433
X-5.024 Y0.4597 I-0.1232 J0.0981
X-5.036 Y0.4683 I-0.0971 J-0.124 F50.
G2 X-5.0431 Y0.4819 I0.0083 J0.013
G1 X-5.0394 Y0.528 F60.
X-5.0371 Y0.5515
X-5.0321 Y0.5878
G2 X-4.7399 Y0.848 I0.4314 J-0.1904
X-4.2029 Y0.8998 I0.3489 J-0.8068
G1 X-4.0489 Y0.7117
G2 X-4.0469 Y0.6964 I-0.0122 J-0.0094
X-4.0982 Y0.6714 I-0.0397 J0.0163
X-4.2062 Y0.8688 I0.0427 J0.1516
X-4.2012 Y0.8827 I0.1507 J-0.0458 F50.
G3 X-4.2033 Y0.898 I-0.0142 J0.0058
G1 X-4.2541 Y0.9592 F60.
G3 X-4.6199 Y0.984 I-0.2057 J-0.3244
X-5.0047 Y0.7986 I0.1323 J-0.7666
G1 X-5.0321 Y0.5878
G3 X-5.0258 Y0.5738 I0.0153 J-0.0015
X-4.9429 Y0.5982 I0.032 J0.0444
X-4.9859 Y0.7743 I-0.1466 J0.0575
X-4.9975 Y0.7835 I-0.1036 J-0.1186 F50.
G2 X-5.0038 Y0.7975 I0.009 J0.0125
G1 X-5.0021 Y0.8096 F60.
X-4.9979 Y0.833
X-4.991 Y0.8694
G2 X-4.6828 Y1.0761 I0.3587 J-0.2018
X-4.3766 Y1.1071 I0.2211 J-0.657
G1 X-4.2541 Y0.9592
G2 X-4.252 Y0.944 I-0.0122 J-0.0094
X-4.276 Y0.9294 I-0.0219 J0.009
X-4.3793 Y1.0778 I0.0108 J0.1176
X-4.3745 Y1.0918 I0.114 J-0.0308 F50.
G3 X-4.3766 Y1.1071 I-0.0142 J0.0058
G1 X-4.4121 Y1.1498 F60.
G3 X-4.7596 Y1.1469 I-0.1714 J-0.2789
X-4.9556 Y1.0607 I0.0705 J-0.4267
G1 X-4.991 Y0.8694
G3 X-4.9854 Y0.8551 I0.0152 J-0.0023
X-4.9599 Y0.8537 I0.0138 J0.0171
X-4.9383 Y1.0353 I-0.0634 J0.0996
X-4.9492 Y1.0453 I-0.085 J-0.082 F50.
G2 X-4.9548 Y1.0596 I0.0097 J0.012
G1 X-4.9532 Y1.0677 F60.
X-4.9482 Y1.0912
X-4.9405 Y1.1224
G2 X-4.6237 Y1.2887 I0.3119 J-0.2093
X-4.5282 Y1.29 I0.0489 J-0.086
G1 X-4.4121 Y1.1498
G2 X-4.41 Y1.1346 I-0.0122 J-0.0094
X-4.4478 Y1.1159 I-0.0295 J0.0121
X-4.5309 Y1.2607 I0.0309 J0.114
X-4.5261 Y1.2747 I0.114 J-0.0308 F50.
G3 X-4.5282 Y1.29 I-0.0142 J0.0058
G1 X-4.5579 Y1.3258 F60.
G3 X-4.8864 Y1.3014 I-0.1478 J-0.234
G1 X-4.8937 Y1.3054
X-4.8955 Y1.3031
X-4.8966 Y1.3004
X-4.9405 Y1.1224
G3 X-4.9357 Y1.1078 I0.0151 J-0.0032
X-4.8954 Y1.107 I0.0206 J0.023
X-4.8814 Y1.2753 I-0.0753 J0.091
X-4.8918 Y1.2858 I-0.0893 J-0.0773 F50.
G2 X-4.8966 Y1.3004 I0.0103 J0.0115
G1 X-4.8903 Y1.3258 F60.
X-4.8843 Y1.3493
G2 X-4.669 Y1.4598 I0.1868 J-0.0989
G1 X-4.5579 Y1.3258
G2 X-4.5559 Y1.3106 I-0.0122 J-0.0094
X-4.6035 Y1.2909 I-0.0335 J0.0137
X-4.6716 Y1.4305 I0.0459 J0.1088
X-4.6669 Y1.4446 I0.114 J-0.0308 F50.
G3 X-4.669 Y1.4598 I-0.0142 J0.0058
G1 X-4.6941 Y1.4901 F60.
G3 X-4.836 Y1.5121 I-0.0855 J-0.0824
G1 X-4.8367 Y1.509
Y1.506
X-4.8362 Y1.5029
X-4.8351 Y1.5001
X-4.8335 Y1.4975
X-4.8315 Y1.4953
X-4.8291 Y1.4936
X-4.8265 Y1.4923
X-4.8237 Y1.4915
X-4.8177 Y1.4902
X-4.7097 Y1.4657
X-4.7063 Y1.4653
X-4.7029 Y1.4657
G3 X-4.6941 Y1.4901 I-0.0034 J0.015 F50.
G1 X-4.7524 Y1.5605 F60.
G3 X-4.8133 Y1.5825 I-0.0418 J-0.0204
X-4.8081 Y1.5665 I0.0149 J-0.004
G1 X-4.7978 Y1.5582
X-4.7743 Y1.5391
G3 X-4.7612 Y1.5361 I0.0097 J0.012
X-4.7524 Y1.5605 I-0.0034 J0.015 F50.
X-4.7977 Y1.61 I-0.066 J-0.0149 F60.
G1 X-4.7997
X-4.8017 Y1.6093
X-4.8022 Y1.6089
X-4.8033 Y1.6079
X-4.8037 Y1.6074
X-4.8077 Y1.6001
X-4.8081 Y1.5994
X-4.8843 Y1.3493
G3 X-4.8659 Y1.331 I0.015 J-0.0033
G1 X-4.863 Y1.3316 Z-0.1672
X-4.8601 Y1.3323 Z-0.1663
X-4.8575 Y1.3329 Z-0.1649
X-4.8553 Y1.3334 Z-0.163
X-4.8534 Y1.3338 Z-0.1607
X-4.852 Y1.3341 Z-0.158
X-4.8512 Y1.3343 Z-0.1551
X-4.8509 Y1.3344 Z-0.1521
G0 Z-0.1367
X-5.0472 Y-0.1327
G1 Z-0.1521 F50.
X-5.0473 Y-0.1329 Z-0.1551
X-5.0478 Y-0.1337 Z-0.158
X-5.0485 Y-0.1349 Z-0.1607
X-5.0494 Y-0.1366 Z-0.163
X-5.0505 Y-0.1386 Z-0.1649
X-5.0518 Y-0.141 Z-0.1663
X-5.0532 Y-0.1435 Z-0.1672
X-5.0547 Y-0.1461 Z-0.1675
G3 X-5.0626 Y-0.176 I0.0544 J-0.0304
G1 X-5.0601 Y-0.2699 F60.
X-5.0583 Y-0.2933
X-5.0478 Y-0.4236
G3 X-4.7254 Y-0.753 I0.5288 J0.195
X-4.1162 Y-0.7945 I0.3569 J0.7482
G1 X-3.9735 Y-0.6207
G3 X-3.9714 Y-0.6054 I-0.0122 J0.0094
X-4.0434 Y-0.5796 I-0.0476 J-0.0195
X-4.1195 Y-0.7641 I0.0746 J-0.1387
X-4.1145 Y-0.7781 I0.1507 J0.0458 F50.
G2 X-4.1166 Y-0.7933 I-0.0142 J-0.0058
G1 X-4.1787 Y-0.8682 F60.
G2 X-4.5548 Y-0.9129 I-0.236 J0.3814
X-5.024 Y-0.6583 I0.1777 J0.8873
G1 X-5.0371 Y-0.5515
X-5.0394 Y-0.528
X-5.0478 Y-0.4236
G2 X-5.0407 Y-0.4099 I0.0154 J0.0007
X-4.983 Y-0.4202 I0.0233 J-0.0364
X-5.0049 Y-0.6339 I-0.1255 J-0.0951
X-5.0164 Y-0.6431 I-0.1036 J0.1186 F50.
G3 X-5.0228 Y-0.6571 I0.009 J-0.0125
G1 X-5.0117 Y-0.7392 F60.
G3 X-4.7158 Y-0.9696 I0.3862 J0.1908
X-4.3047 Y-1.0203 I0.3029 J0.7636
G1 X-4.1787 Y-0.8682
G3 X-4.1766 Y-0.853 I-0.0122 J0.0094
X-4.1927 Y-0.8421 I-0.0162 J-0.0066
X-4.3074 Y-0.991 I-0.0007 J-0.1181
X-4.3026 Y-1.005 I0.114 J0.0308 F50.
G2 X-4.3047 Y-1.0203 I-0.0142 J-0.0058
G1 X-4.344 Y-1.0677 F60.
G2 X-4.6966 Y-1.0716 I-0.1796 J0.2938
X-4.9784 Y-0.9407 I0.1244 J0.6367
G1 X-5.0021 Y-0.8096
X-5.0117 Y-0.7392
G2 X-4.9866 Y-0.7257 I0.0153 J0.0015
X-4.9421 Y-0.8575 I-0.083 J-0.1014
X-4.9644 Y-0.9126 I-0.1915 J0.0455
X-4.9748 Y-0.9282 I-0.1692 J0.1006 F50.
G3 X-4.9776 Y-0.9397 I0.0124 J-0.0091
G1 X-4.9666 Y-0.9973 F60.
G3 X-4.6577 Y-1.1919 I0.331 J0.183
X-4.4612 Y-1.2092 I0.1333 J0.3896
G1 X-4.344 Y-1.0677
G3 X-4.3419 Y-1.0525 I-0.0122 J0.0094
X-4.3774 Y-1.0343 I-0.0284 J-0.0116
X-4.4639 Y-1.1799 I0.0275 J-0.1149
X-4.4592 Y-1.1939 I0.114 J0.0308 F50.
G2 X-4.4612 Y-1.2092 I-0.0142 J-0.0058
G1 X-4.4947 Y-1.2496 F60.
G2 X-4.8311 Y-1.2314 I-0.1542 J0.2679
X-4.9238 Y-1.1901 I-0.0147 J0.0918
G1 X-4.9482 Y-1.0912
X-4.9532 Y-1.0677
X-4.9666 Y-0.9973
G2 X-4.9611 Y-0.983 I0.0152 J0.0023
X-4.9471 Y-0.981 I0.0086 J-0.0107
X-4.9086 Y-1.165 I-0.0508 J-0.1066
X-4.919 Y-1.1755 I-0.0893 J0.0773 F50.
G3 X-4.9238 Y-1.1901 I0.0103 J-0.0115
G1 X-4.9103 Y-1.2449 F60.
G3 X-4.6079 Y-1.3855 I0.2665 J0.1776
G1 X-4.6057 Y-1.3835
X-4.4947 Y-1.2496
G3 X-4.4926 Y-1.2343 I-0.0122 J0.0094
X-4.5403 Y-1.2147 I-0.0335 J-0.0137
X-4.6084 Y-1.3543 I0.0459 J-0.1088
X-4.6037 Y-1.3683 I0.114 J0.0308 F50.
G2 X-4.6057 Y-1.3835 I-0.0142 J-0.0058
G1 X-4.6355 Y-1.4194 F60.
G2 X-4.8625 Y-1.4209 I-0.1145 J0.1576
G1 X-4.8843 Y-1.3493
X-4.8903 Y-1.3258
X-4.9103 Y-1.2449
G2 X-4.9055 Y-1.2302 I0.0151 J0.0032
X-4.87 Y-1.2289 I0.0186 J-0.0207
X-4.8487 Y-1.3949 I-0.0721 J-0.0936
X-4.8585 Y-1.406 I-0.0933 J0.0724 F50.
G3 X-4.8625 Y-1.4209 I0.0109 J-0.0109
G1 X-4.8486 Y-1.4666 F60.
G3 X-4.7335 Y-1.54 I0.1094 J0.0448
G1 X-4.7317 Y-1.5374
X-4.7304 Y-1.5345
X-4.7297 Y-1.5315
X-4.7295 Y-1.5285
X-4.73 Y-1.5255
X-4.7309 Y-1.5227
X-4.7324 Y-1.5201
X-4.7343 Y-1.5179
X-4.7366 Y-1.516
X-4.7418 Y-1.5121
G3 X-4.831 Y-1.4475 I-0.146 J-0.1076
X-4.8486 Y-1.4666 I-0.0027 J-0.0152 F50.
G1 X-4.8232 Y-1.5499 F60.
G3 X-4.7789 Y-1.5925 I0.0399 J-0.0028
X-4.8053 Y-1.5293 I-0.0312 J0.0241
G1 X-4.8065 Y-1.5292
G3 X-4.8232 Y-1.5499 I-0.0008 J-0.0164 F50.
X-4.7997 Y-1.61 I0.0462 J-0.0166 F60.
G1 X-4.7977
X-4.7972
X-4.7956 Y-1.6094
X-4.7952 Y-1.6092
X-4.7877 Y-1.6029
X-4.787 Y-1.6022
X-4.6355 Y-1.4194
G3 X-4.6443 Y-1.395 I-0.0122 J0.0094
G1 X-4.6472 Y-1.3943 Z-0.1672
X-4.6501 Y-1.3937 Z-0.1663
X-4.6527 Y-1.3931 Z-0.1649
X-4.6549 Y-1.3926 Z-0.163
X-4.6568 Y-1.3922 Z-0.1607
X-4.6582 Y-1.3919 Z-0.158
X-4.6591 Y-1.3917 Z-0.1551
X-4.6593 Y-1.3916 Z-0.1521
G0 Z-0.1367
X-3.7423 Y-0.3158
G1 Z-0.1521 F50.
X-3.742 Y-0.3157 Z-0.1551
X-3.7412 Y-0.3154 Z-0.158
X-3.7399 Y-0.3149 Z-0.1607
X-3.7381 Y-0.3143 Z-0.163
X-3.7359 Y-0.3135 Z-0.1649
X-3.7333 Y-0.3126 Z-0.1663
X-3.7306 Y-0.3116 Z-0.1672
X-3.7278 Y-0.3106 Z-0.1675
G3 X-3.7022 Y-0.2933 I-0.0209 J0.0587
G1 X-3.584 Y-0.1508 F60.
X-3.5878 Y-0.1322
X-3.591 Y-0.1136
X-3.5937 Y-0.0948
X-3.5959 Y-0.076
X-3.5975 Y-0.0571
X-3.5985 Y-0.0382
X-3.599 Y-0.0193
X-3.5989 Y-0.0004
X-3.5983 Y0.0185
X-3.5971 Y0.0374
X-3.5953 Y0.0563
X-3.593 Y0.0751
X-3.5902 Y0.0938
X-3.5868 Y0.1124
X-3.5828 Y0.1309
X-3.5783 Y0.1493
X-3.6184 Y0.1923
G3 X-3.63 Y0.1975 I-0.0115 J-0.0102
G1 X-3.6325 Y0.1973
X-3.6347 Y0.1964 Z-0.1673
X-3.6368 Y0.1955 Z-0.1668
X-3.6388 Y0.1947 Z-0.1659
X-3.6407 Y0.1926 Z-0.164
X-3.6422 Y0.1909 Z-0.1617
X-3.6434 Y0.1896 Z-0.1589
X-3.6439 Y0.1885 Z-0.1556
X-3.6441 Y0.1882 Z-0.1521
G0 Z0.4
X-3.1113 Y-3.1578
Z0.1
G3 X-3.0654 Y-3.0189 Z0.0595 I0.0229 J0.0695 F50.
X-3.1113 Y-3.1578 Z0.019 I-0.0229 J-0.0695
X-3.0654 Y-3.0189 Z-0.0216 I0.0229 J0.0695
X-3.1113 Y-3.1578 Z-0.0621 I-0.0229 J-0.0695
X-3.0654 Y-3.0189 Z-0.1026 I0.0229 J0.0695
X-3.1113 Y-3.1578 Z-0.1431 I-0.0229 J-0.0695
X-3.0152 Y-3.0883 Z-0.1675 I0.0229 J0.0695
X-3.1615 I-0.0731 J0.
X-3.0155 Y-3.0943 I0.0732 J0.
G1 X-3.0152 Y-3.0883
G3 X-3.171 Y-2.9647 I-0.0819 J0.0568 F60.
G1 X-3.1792 Y-2.9701
X-3.1869 Y-2.9759
X-3.1943 Y-2.9823
X-3.2013 Y-2.9891
X-3.2078 Y-2.9963
X-3.2139 Y-3.0039
X-3.2194 Y-3.0119
X-3.2245 Y-3.0202
X-3.229 Y-3.0289
X-3.233 Y-3.0378
X-3.2364 Y-3.0469
X-3.2392 Y-3.0562
X-3.2414 Y-3.0657
X-3.2431 Y-3.0753
X-3.2441 Y-3.085
X-3.2445 Y-3.0947
X-3.2443 Y-3.1044
X-3.2435 Y-3.1141
X-3.242 Y-3.1238
X-3.24 Y-3.1333
X-3.2374 Y-3.1427
X-3.2342 Y-3.1518
X-3.2304 Y-3.1608
X-3.2261 Y-3.1695
X-3.2212 Y-3.178
X-3.2158 Y-3.1861
X-3.2099 Y-3.1938
X-3.2035 Y-3.2012
X-3.1967 Y-3.2081
X-3.1894 Y-3.2146
X-3.1818 Y-3.2206
X-3.1737 Y-3.2261
X-3.1654 Y-3.2312
X-3.1568 Y-3.2356
X-3.1479 Y-3.2396
X-3.1387 Y-3.2429
X-3.1294 Y-3.2457
X-3.1199 Y-3.2479
X-3.1103 Y-3.2495
X-3.1006 Y-3.2505
X-3.0909 Y-3.2508
X-3.0812 Y-3.2506
X-3.0715 Y-3.2497
X-3.0618 Y-3.2482
X-3.0523 Y-3.2462
X-3.043 Y-3.2435
X-3.0338 Y-3.2402
X-3.0248 Y-3.2364
X-3.0162 Y-3.232
X-3.0078 Y-3.2271
X-2.9997 Y-3.2217
X-2.992 Y-3.2157
X-2.9846 Y-3.2093
X-2.9777 Y-3.2025
X-2.9713 Y-3.1952
X-2.9653 Y-3.1875
X-2.9598 Y-3.1795
X-2.9548 Y-3.1711
X-2.9504 Y-3.1625
X-2.9465 Y-3.1535
X-2.9432 Y-3.1444
X-2.9404 Y-3.135
X-2.9348 Y-3.1259
X-2.9296 Y-3.1164
X-2.925 Y-3.1067
X-2.9209 Y-3.0967
X-2.9175 Y-3.0864
X-2.9146 Y-3.076
X-2.9123 Y-3.0655
X-2.9106 Y-3.0549
X-2.9095 Y-3.0441
X-2.909 Y-3.0334
X-2.9092 Y-3.0226
X-2.9099 Y-3.0118
X-2.9113 Y-3.0011
X-2.9132 Y-2.9905
X-2.9158 Y-2.98
X-2.9189 Y-2.9697
X-2.9227 Y-2.9596
X-2.927 Y-2.9497
X-2.9318 Y-2.9401
X-2.9372 Y-2.9307
X-2.9431 Y-2.9217
X-2.9495 Y-2.913
X-2.9564 Y-2.9047
X-2.9638 Y-2.8969
X-2.9716 Y-2.8894
X-2.9798 Y-2.8824
X-2.9884 Y-2.8759
X-2.9973 Y-2.8698
X-3.0066 Y-2.8643
X-3.0161 Y-2.8593
X-3.026 Y-2.8549
X-3.0361 Y-2.8511
X-3.0463 Y-2.8478
X-3.0568 Y-2.8451
X-3.0673 Y-2.843
X-3.078 Y-2.8415
X-3.0888 Y-2.8406
X-3.0996 Y-2.8403
X-3.1103 Y-2.8407
X-3.1211 Y-2.8416
X-3.1317 Y-2.8432
X-3.1423 Y-2.8453
X-3.1527 Y-2.8481
X-3.163 Y-2.8514
X-3.173 Y-2.8554
X-3.1828 Y-2.8598
X-3.1924 Y-2.8649
X-3.2016 Y-2.8704
X-3.2105 Y-2.8765
X-3.2191 Y-2.8831
X-3.2272 Y-2.8901
X-3.235 Y-2.8976
X-3.2448 Y-2.9045
X-3.2543 Y-2.9118
X-3.2634 Y-2.9195
X-3.2721 Y-2.9278
X-3.2803 Y-2.9364
X-3.2881 Y-2.9455
X-3.2955 Y-2.9549
X-3.3023 Y-2.9647
X-3.3087 Y-2.9749
X-3.3145 Y-2.9853
X-3.3198 Y-2.996
X-3.3246 Y-3.007
X-3.3288 Y-3.0182
X-3.3324 Y-3.0296
X-3.3354 Y-3.0412
X-3.3379 Y-3.0529
X-3.3397 Y-3.0647
X-3.341 Y-3.0766
X-3.3417 Y-3.0886
Y-3.1005
X-3.3412 Y-3.1125
X-3.34 Y-3.1244
X-3.3382 Y-3.1362
X-3.3359 Y-3.148
X-3.333 Y-3.1596
X-3.3294 Y-3.171
X-3.3253 Y-3.1822
X-3.3207 Y-3.1933
X-3.3155 Y-3.204
X-3.3097 Y-3.2145
X-3.3035 Y-3.2247
X-3.2967 Y-3.2346
X-3.2894 Y-3.2441
X-3.2817 Y-3.2532
X-3.2735 Y-3.2619
X-3.2649 Y-3.2702
X-3.2559 Y-3.2781
X-3.2465 Y-3.2855
X-3.2367 Y-3.2924
X-3.2266 Y-3.2988
X-3.2162 Y-3.3047
X-3.2055 Y-3.31
X-3.1946 Y-3.3148
X-3.1834 Y-3.3191
X-3.1705 Y-3.3228
X-3.1575 Y-3.3259
X-3.1444 Y-3.3283
X-3.1311 Y-3.3302
X-3.1178 Y-3.3315
X-3.1045 Y-3.3321
X-3.0911 Y-3.3322
X-3.0777 Y-3.3316
X-3.0644 Y-3.3304
X-3.0512 Y-3.3286
X-3.038 Y-3.3262
X-3.025 Y-3.3231
X-3.0121 Y-3.3195
X-2.9994 Y-3.3153
X-2.9869 Y-3.3105
X-2.9747 Y-3.3052
X-2.9627 Y-3.2993
X-2.951 Y-3.2928
X-2.9396 Y-3.2858
X-2.9285 Y-3.2783
X-2.9178 Y-3.2703
X-2.9075 Y-3.2618
X-2.8976 Y-3.2528
X-2.8881 Y-3.2434
X-2.879 Y-3.2336
X-2.8704 Y-3.2233
X-2.8623 Y-3.2127
X-2.8547 Y-3.2017
X-2.8476 Y-3.1904
X-2.841 Y-3.1787
X-2.835 Y-3.1668
X-2.8295 Y-3.1546
X-2.8246 Y-3.1421
X-2.8203 Y-3.1295
X-2.8165 Y-3.1166
X-2.8134 Y-3.1036
X-2.8109 Y-3.0905
X-2.8089 Y-3.0773
X-2.8076 Y-3.064
X-2.8069 Y-3.0506
X-2.8068 Y-3.0373
X-2.8073 Y-3.0239
X-2.8085 Y-3.0106
X-2.8102 Y-2.9973
X-2.8126 Y-2.9842
X-2.8156 Y-2.9711
X-2.8191 Y-2.9582
X-2.8233 Y-2.9455
X-2.828 Y-2.933
X-2.8333 Y-2.9207
X-2.8392 Y-2.9087
X-2.8456 Y-2.897
X-2.8525 Y-2.8855
X-2.86 Y-2.8745
X-2.8679 Y-2.8637
X-2.8764 Y-2.8534
X-2.8853 Y-2.8434
X-2.8947 Y-2.8338
X-2.9045 Y-2.8248
X-2.9147 Y-2.8161
X-2.9253 Y-2.808
X-2.9363 Y-2.8003
X-2.9476 Y-2.7931
X-2.9592 Y-2.7865
X-2.9711 Y-2.7804
X-2.9833 Y-2.7749
X-2.9957 Y-2.77
X-3.0083 Y-2.7656
X-3.0211 Y-2.7618
X-3.0341 Y-2.7586
X-3.0472 Y-2.756
X-3.0605 Y-2.754
X-3.0738 Y-2.7526
X-3.0871 Y-2.7519
X-3.1005 Y-2.7517
X-3.1138 Y-2.7522
X-3.1272 Y-2.7533
X-3.1404 Y-2.755
X-3.1536 Y-2.7573
X-3.1667 Y-2.7602
X-3.1796 Y-2.7637
X-3.1923 Y-2.7678
X-3.2048 Y-2.7724
G3 X-3.1849 Y-3.4194 I0.1055 J-0.3206
G1 X-3.1696 Y-3.4225
X-3.1542 Y-3.425
X-3.1387 Y-3.4268
X-3.1232 Y-3.428
X-3.1076 Y-3.4286
X-3.092
X-3.0765 Y-3.4279
X-3.0609 Y-3.4266
X-3.0455 Y-3.4247
X-3.0301 Y-3.4222
X-3.0148 Y-3.4191
X-2.9997 Y-3.4153
X-2.9847 Y-3.411
X-2.9699 Y-3.406
X-2.9554 Y-3.4005
X-2.941 Y-3.3943
X-2.927 Y-3.3876
X-2.9132 Y-3.3804
X-2.8997 Y-3.3726
X-2.8865 Y-3.3642
X-2.8737 Y-3.3554
X-2.8612 Y-3.346
X-2.8492 Y-3.3361
X-2.8375 Y-3.3258
X-2.8263 Y-3.315
X-2.8155 Y-3.3037
X-2.8051 Y-3.2921
X-2.7953 Y-3.28
X-2.7859 Y-3.2675
X-2.777 Y-3.2547
X-2.7687 Y-3.2415
X-2.7609 Y-3.228
X-2.7537 Y-3.2142
X-2.747 Y-3.2001
X-2.7409 Y-3.1858
X-2.7353 Y-3.1712
X-2.7304 Y-3.1565
X-2.726 Y-3.1415
X-2.7223 Y-3.1264
X-2.7192 Y-3.1111
X-2.7166 Y-3.0957
X-2.7147 Y-3.0802
X-2.7135 Y-3.0647
X-2.7128 Y-3.0491
Y-3.0335
X-2.7134 Y-3.018
X-2.7146 Y-3.0024
X-2.7165 Y-2.9869
X-2.719 Y-2.9716
X-2.722 Y-2.9563
X-2.7257 Y-2.9411
X-2.7301 Y-2.9262
X-2.735 Y-2.9114
X-2.7404 Y-2.8968
X-2.7465 Y-2.8824
X-2.7532 Y-2.8683
X-2.7604 Y-2.8545
X-2.7681 Y-2.841
X-2.7764 Y-2.8278
X-2.7853 Y-2.8149
X-2.7946 Y-2.8024
X-2.8044 Y-2.7903
X-2.8147 Y-2.7786
X-2.8255 Y-2.7674
X-2.8367 Y-2.7565
X-2.8483 Y-2.7462
X-2.8603 Y-2.7363
X-2.8728 Y-2.7268
X-2.8856 Y-2.7179
X-2.8987 Y-2.7096
X-2.9122 Y-2.7017
X-2.926 Y-2.6944
X-2.94 Y-2.6877
X-2.9543 Y-2.6815
X-2.9689 Y-2.6759
X-2.9836 Y-2.6709
X-2.9986 Y-2.6665
X-3.0137 Y-2.6627
X-3.029 Y-2.6595
X-3.0443 Y-2.657
X-3.0598 Y-2.655
X-3.0753 Y-2.6537
X-3.0909 Y-2.653
X-3.1065 Y-2.6529
X-3.1221 Y-2.6535
X-3.1376 Y-2.6546
X-3.1531 Y-2.6564
X-3.1685 Y-2.6589
X-3.1838 Y-2.6619
X-3.1989 Y-2.6655
X-3.2139 Y-2.6698
X-3.2288 Y-2.6746
X-3.2434 Y-2.6801
X-3.2577 Y-2.6861
X-3.2719 Y-2.6927
X-3.2857 Y-2.6999
X-3.2992 Y-2.7076
X-3.3125 Y-2.7158
X-3.3254 Y-2.7246
X-3.3379 Y-2.7339
X-3.35 Y-2.7437
X-3.3617 Y-2.7539
X-3.3731 Y-2.7646
G3 X-3.5316 Y-3.0852 I0.2298 J-0.3132
X-2.6421 Y-3.1585 I0.4479 J0.0009
G1 X-2.6372 Y-3.1425
X-2.633 Y-3.1264
X-2.6293 Y-3.1101
X-2.6262 Y-3.0937
X-2.6238 Y-3.0772
X-2.622 Y-3.0606
X-2.6208 Y-3.044
X-2.6202 Y-3.0273
X-2.6203 Y-3.0106
X-2.6209 Y-2.994
X-2.6222 Y-2.9773
X-2.6241 Y-2.9608
X-2.6267 Y-2.9443
X-2.6298 Y-2.9279
X-2.6336 Y-2.9116
X-2.638 Y-2.8955
X-2.643 Y-2.8796
X-2.6485 Y-2.8639
X-2.6547 Y-2.8484
X-2.6614 Y-2.8331
X-2.6687 Y-2.8181
X-2.6765 Y-2.8034
X-2.6849 Y-2.789
X-2.6939 Y-2.7749
X-2.7033 Y-2.7611
X-2.7133 Y-2.7478
X-2.7237 Y-2.7348
X-2.7347 Y-2.7222
X-2.7461 Y-2.71
X-2.7579 Y-2.6982
X-2.7702 Y-2.6869
X-2.7829 Y-2.6761
X-2.796 Y-2.6658
X-2.8094 Y-2.6559
X-2.8232 Y-2.6466
X-2.8374 Y-2.6378
X-2.8519 Y-2.6295
X-2.8667 Y-2.6217
X-2.8817 Y-2.6146
X-2.8983 Y-2.6073
X-2.9152 Y-2.6005
X-2.9322 Y-2.5943
X-2.9495 Y-2.5887
X-2.967 Y-2.5838
X-2.9846 Y-2.5794
X-3.0023 Y-2.5756
X-3.0202 Y-2.5724
X-3.0382 Y-2.5699
X-3.0562 Y-2.5679
X-3.0743 Y-2.5666
X-3.0924 Y-2.5659
X-3.1106
X-3.1287 Y-2.5664
X-3.1468 Y-2.5676
X-3.1649 Y-2.5694
X-3.1829 Y-2.5718
X-3.2008 Y-2.5749
X-3.2185 Y-2.5785
X-3.2362 Y-2.5828
X-3.2537 Y-2.5876
X-3.271 Y-2.5931
X-3.2881 Y-2.5991
X-3.305 Y-2.6058
X-3.3216 Y-2.613
X-3.338 Y-2.6207
X-3.3541 Y-2.6291
X-3.37 Y-2.638
X-3.3855 Y-2.6474
X-3.4007 Y-2.6573
X-3.4155 Y-2.6678
X-3.4299 Y-2.6787
X-3.444 Y-2.6902
X-3.4577 Y-2.7021
X-3.4709 Y-2.7145
X-3.4838 Y-2.7274
X-3.4961 Y-2.7406
X-3.5081 Y-2.7543
X-3.5195 Y-2.7684
X-3.5304 Y-2.7829
X-3.5409 Y-2.7977
X-3.5508 Y-2.8129
X-3.5602 Y-2.8285
X-3.569 Y-2.8443
X-3.5774 Y-2.8604
X-3.5851 Y-2.8768
X-3.5923 Y-2.8935
X-3.5989 Y-2.9104
X-3.6049 Y-2.9275
X-3.6104 Y-2.9448
X-3.6152 Y-2.9623
X-3.6194 Y-2.98
X-3.623 Y-2.9977
X-3.626 Y-3.0156
X-3.6284 Y-3.0336
X-3.6302 Y-3.0517
X-3.6314 Y-3.0698
X-3.6319 Y-3.0879
X-3.6318 Y-3.1061
X-3.6311 Y-3.1242
X-3.6298 Y-3.1423
X-3.6278 Y-3.1604
X-3.6252 Y-3.1783
X-3.622 Y-3.1962
X-3.6182 Y-3.2139
X-3.6138 Y-3.2315
X-3.6088 Y-3.249
X-3.6032 Y-3.2662
X-3.597 Y-3.2833
X-3.5902 Y-3.3001
X-3.5829 Y-3.3167
X-3.575 Y-3.333
X-3.5665 Y-3.3491
X-3.5575 Y-3.3648
X-3.5479 Y-3.3802
X-3.5378 Y-3.3953
X-3.5272 Y-3.4101
X-3.5162 Y-3.4244
X-3.5046 Y-3.4384
X-3.4925 Y-3.452
X-3.48 Y-3.4651
X-3.4671 Y-3.4778
X-3.4537 Y-3.4901
X-3.4399 Y-3.5019
X-3.4257 Y-3.5132
X-3.4111 Y-3.524
X-3.3962 Y-3.5343
X-3.3809 Y-3.5441
X-3.3653 Y-3.5534
X-3.3494 Y-3.5621
X-3.3332 Y-3.5703
X-3.3167 Y-3.5779
X-3.3 Y-3.5849
X-3.283 Y-3.5914
X-3.2659 Y-3.5972
X-3.2485 Y-3.6025
X-3.231 Y-3.6072
X-3.2133 Y-3.6113
X-3.1955 Y-3.6147
X-3.1776 Y-3.6176
X-3.1596 Y-3.6198
X-3.1415 Y-3.6214
X-3.1234 Y-3.6224
X-3.1052 Y-3.6228
X-3.0871 Y-3.6226
X-3.0689 Y-3.6217
X-3.0509 Y-3.6202
X-3.0328 Y-3.6181
X-3.0149 Y-3.6153
G3 X-2.5422 Y-2.8798 I-0.0847 J0.5741
X-3.3349 Y-2.5108 I-0.5574 J-0.1615
X-2.8554 Y-3.6787 I0.2405 J-0.5836
X-2.8659 Y-2.4049 I-0.2491 J0.6348
G1 X-3.1573 Y-2.3793
X-3.1782 Y-2.3807
X-3.1991 Y-2.3827
X-3.2199 Y-2.3853
X-3.2406 Y-2.3885
X-3.2612 Y-2.3924
X-3.2817 Y-2.3968
X-3.3021 Y-2.4019
X-3.3223 Y-2.4075
X-3.3423 Y-2.4138
X-3.3621 Y-2.4207
X-3.3817 Y-2.4281
X-3.4011 Y-2.4361
X-3.4202 Y-2.4447
X-3.439 Y-2.4539
X-3.4576 Y-2.4636
X-3.4759 Y-2.4739
X-3.4939 Y-2.4847
X-3.5115 Y-2.496
X-3.5288 Y-2.5079
X-3.5457 Y-2.5203
X-3.5623 Y-2.5331
X-3.5785 Y-2.5465
X-3.5942 Y-2.5603
X-3.6096 Y-2.5746
X-3.6245 Y-2.5893
X-3.6389 Y-2.6045
X-3.6529 Y-2.6201
X-3.6665 Y-2.6361
X-3.6795 Y-2.6525
X-3.6921 Y-2.6693
X-3.7041 Y-2.6865
X-3.7157 Y-2.704
X-3.7267 Y-2.7219
X-3.7371 Y-2.74
X-3.7471 Y-2.7585
X-3.7564 Y-2.7772
X-3.7653 Y-2.7963
X-3.7735 Y-2.8155
X-3.7812 Y-2.8351
X-3.7882 Y-2.8548
X-3.7947 Y-2.8747
X-3.8006 Y-2.8949
X-3.8059 Y-2.9152
X-3.8106 Y-2.9356
X-3.8147 Y-2.9562
X-3.8181 Y-2.9768
X-3.821 Y-2.9976
X-3.8232 Y-3.0185
X-3.8248 Y-3.0394
X-3.8258 Y-3.0603
X-3.8261 Y-3.0813
X-3.8258 Y-3.1022
X-3.8249 Y-3.1232
X-3.8234 Y-3.1441
X-3.8213 Y-3.165
X-3.8185 Y-3.1857
X-3.8151 Y-3.2064
X-3.8111 Y-3.227
X-3.8065 Y-3.2475
X-3.8013 Y-3.2678
X-3.7955 Y-3.2879
X-3.7891 Y-3.3079
X-3.7821 Y-3.3277
X-3.7745 Y-3.3472
X-3.7663 Y-3.3665
X-3.7576 Y-3.3856
X-3.7483 Y-3.4044
X-3.5875 Y-3.5786
X-3.5796 Y-3.5865
X-3.4509 Y-3.7085
G3 X-2.4155 Y-3.3861 I0.3833 J0.593
X-2.3671 Y-3.2883 I-0.1069 J0.1138
G1 X-2.4212 Y-2.7103
G3 X-2.4677 Y-2.5983 I-0.2176 J-0.0247
X-2.4897 Y-2.6173 I-0.0076 J-0.0134
G1 X-2.4509 Y-2.7168
G3 X-2.4422 Y-2.7255 I0.0143 J0.0056
X-2.4212 Y-2.7103 I0.0057 J0.0143 F50.
X-2.5245 Y-2.5656 I-0.1149 J0.0272 F60.
G2 X-2.5861 Y-2.4874 I0.313 J0.3097
G3 X-2.639 Y-2.4279 I-0.0881 J-0.025
X-2.6523 Y-2.4528 I-0.0013 J-0.0153
G1 X-2.6116 Y-2.5046
G3 X-2.5982 Y-2.5104 I0.0121 J0.0095
X-2.5861 Y-2.4874 I-0.0013 J0.0153 F50.
X-2.6318 Y-2.4287 I-0.0604 J0.0001 F60.
G1 X-2.6411 Y-2.4276
X-2.8665 Y-2.4065
G3 X-2.8817 Y-2.4276 I-0.0009 J-0.0154
G1 X-2.8806 Y-2.4304 Z-0.1672
X-2.8796 Y-2.4331 Z-0.1663
X-2.8786 Y-2.4356 Z-0.1649
X-2.8777 Y-2.4377 Z-0.163
X-2.877 Y-2.4395 Z-0.1607
X-2.8765 Y-2.4408 Z-0.158
X-2.8761 Y-2.4416 Z-0.1551
X-2.876 Y-2.4419 Z-0.1521
G0 Z-0.1367
X-2.3876 Y-3.2472
G1 Z-0.1521 F50.
X-2.3874 Y-3.2474 Z-0.1551
X-2.3869 Y-3.2481 Z-0.158
X-2.386 Y-3.2493 Z-0.1607
X-2.3849 Y-3.2508 Z-0.163
X-2.3835 Y-3.2527 Z-0.1649
X-2.382 Y-3.2549 Z-0.1663
X-2.3803 Y-3.2572 Z-0.1672
X-2.3785 Y-3.2596 Z-0.1675
G2 X-2.3671 Y-3.2883 I-0.0504 J-0.0367
G1 X-2.3553 Y-3.4143 F60.
G2 X-2.5757 Y-3.7464 I-0.4822 J0.0808
X-3.2222 Y-3.9107 I-0.5113 J0.6577
G1 X-3.3685 Y-3.7849
X-3.3899 Y-3.7663
X-3.4509 Y-3.7085
G2 X-3.4547 Y-3.6936 I0.011 J0.0108
X-3.4016 Y-3.6568 I0.0487 J-0.0134
X-3.2241 Y-3.8803 I-0.0174 J-0.1961
G1 X-3.2267 Y-3.8948 F50.
G3 X-3.222 Y-3.9095 I0.015 J-0.0033
G1 X-3.1808 Y-3.9446 F60.
X-3.1687 Y-3.954
X-3.1379 Y-3.9775
G3 X-2.7479 Y-3.9558 I0.1708 J0.446
X-2.3331 Y-3.6345 I-0.3312 J0.8561
G1 X-2.3553 Y-3.4143
G3 X-2.3646 Y-3.4021 I-0.0153 J-0.002
X-2.4362 Y-3.4381 I-0.0204 J-0.0487
X-2.3575 Y-3.6147 I0.1529 J-0.0376
X-2.3441 Y-3.621 I0.0742 J0.1389 F50.
G2 X-2.3348 Y-3.6333 I-0.0059 J-0.0142
G1 X-2.3277 Y-3.7088 F60.
X-2.3328 Y-3.7241
X-2.3384 Y-3.7392
X-2.3446 Y-3.7541
X-2.3513 Y-3.7688
X-2.3586 Y-3.7832
X-2.3664 Y-3.7973
X-2.3747 Y-3.8111
X-2.3835 Y-3.8246
X-2.3928 Y-3.8378
X-2.4026 Y-3.8506
X-2.4128 Y-3.8631
X-2.4235 Y-3.8751
X-2.4346 Y-3.8868
X-2.4462 Y-3.8981
X-2.4582 Y-3.9089
X-2.4705 Y-3.9192
X-2.4833 Y-3.9291
X-2.4963 Y-3.9386
X-2.5098 Y-3.9475
X-2.5235 Y-3.9559
X-2.5375 Y-3.9638
X-2.5519 Y-3.9712
X-2.5665 Y-3.9781
X-2.5813 Y-3.9844
X-2.5964 Y-3.9902
X-2.6116 Y-3.9954
X-2.6271 Y-4.0001
X-2.6443 Y-4.0106
X-2.6618 Y-4.0207
X-2.6796 Y-4.0302
X-2.6976 Y-4.0392
X-2.7159 Y-4.0477
X-2.7345 Y-4.0556
X-2.7533 Y-4.063
X-2.7723 Y-4.0699
X-2.7915 Y-4.0761
X-2.8108 Y-4.0818
X-2.8304 Y-4.087
X-2.85 Y-4.0915
X-2.8698 Y-4.0955
X-2.8897 Y-4.0988
X-2.9097 Y-4.1016
X-2.9298 Y-4.1039
X-2.9499 Y-4.1055
X-2.9701 Y-4.1065
X-3.1379 Y-3.9775
G2 X-3.1433 Y-3.9631 I0.0098 J0.0119
X-3.0668 Y-3.9218 I0.0542 J-0.0088
X-2.9739 Y-4.0762 I-0.0642 J-0.1438
X-2.9756 Y-4.0909 I-0.1571 J0.0106 F50.
G3 X-2.9701 Y-4.1053 I0.0152 J-0.0025
G1 X-2.9521 Y-4.1183 F60.
X-2.9075 Y-4.1486
G3 X-2.549 Y-4.0718 I0.1076 J0.3728
X-2.3091 Y-3.8929 I-0.2317 J0.5608
G1 X-2.3277 Y-3.7088
G3 X-2.337 Y-3.6966 I-0.0153 J-0.002
X-2.375 Y-3.7088 I-0.0118 J-0.0283
X-2.3332 Y-3.8729 I0.1007 J-0.0617
X-2.3199 Y-3.8795 I0.0589 J0.1024 F50.
G2 X-2.3106 Y-3.8917 I-0.0059 J-0.0142
G1 X-2.3057 Y-3.9435 F60.
G2 X-2.5542 Y-4.1835 I-0.3093 J0.0716
X-2.7487 Y-4.2579 I-0.2402 J0.3367
G1 X-2.9075 Y-4.1486
G2 X-2.9137 Y-4.1345 I0.0091 J0.0124
X-2.8944 Y-4.1137 I0.0237 J-0.0026
X-2.7544 Y-4.2276 I0.022 J-0.116
X-2.755 Y-4.2424 I-0.1181 J-0.0021 F50.
G3 X-2.7488 Y-4.2565 I0.0153 J-0.0017
G1 X-2.745 Y-4.2591 F60.
X-2.735 Y-4.2658
X-2.6967 Y-4.289
G3 X-2.3563 Y-4.1803 I0.0801 J0.3367
X-2.2888 Y-4.1244 I-0.007 J0.0772
G1 X-2.3057 Y-3.9435
G3 X-2.3151 Y-3.9312 I-0.0153 J-0.002
X-2.3553 Y-3.945 I-0.0124 J-0.0295
X-2.3114 Y-4.1056 I0.1027 J-0.0583
X-2.2981 Y-4.1122 I0.0589 J0.1024 F50.
G2 X-2.2888 Y-4.1244 I-0.0059 J-0.0142
G1 X-2.2838 Y-4.1781 F60.
G2 X-2.5337 Y-4.387 I-0.295 J0.099
G1 X-2.5364 Y-4.3859
X-2.6967 Y-4.289
G2 X-2.7037 Y-4.2752 I0.0084 J0.0129
X-2.6804 Y-4.2492 I0.0278 J-0.0015
X-2.5435 Y-4.3573 I0.0191 J-0.1166
X-2.5433 Y-4.3721 I-0.1178 J-0.0084 F50.
G3 X-2.5364 Y-4.3859 I0.0154 J-0.0008
G1 X-2.5132 Y-4.3999 F60.
X-2.5003 Y-4.4074
X-2.4886 Y-4.4137
G3 X-2.2684 Y-4.3425 I0.0573 J0.1991
G1 X-2.2838 Y-4.1781
G3 X-2.2931 Y-4.1659 I-0.0153 J-0.002
X-2.3467 Y-4.1928 I-0.0153 J-0.0365
X-2.291 Y-4.3237 I0.1146 J-0.0285
X-2.2777 Y-4.3303 I0.0589 J0.1024 F50.
G2 X-2.2684 Y-4.3425 I-0.0059 J-0.0142
G1 X-2.2645 Y-4.3835 F60.
G2 X-2.3446 Y-4.492 I-0.1146 J0.0008
G1 X-2.4886 Y-4.4137
G2 X-2.482 Y-4.385 I0.0077 J0.0133
G1 X-2.2885 Y-4.3707
X-2.281 Y-4.3701 F50.
G2 X-2.2645 Y-4.3835 I0.0011 J-0.0154
G1 X-2.2564 Y-4.4703 F60.
G2 X-2.2818 Y-4.5239 I-0.0367 J-0.0154
G1 X-2.3452 Y-4.4901
G2 X-2.3386 Y-4.4614 I0.0077 J0.0133
G1 X-2.2804 Y-4.4574
X-2.2728 Y-4.4569 F50.
G2 X-2.2564 Y-4.4703 I0.0011 J-0.0154
X-2.2555 Y-4.5324 I-0.0372 J-0.0316 F60.
X-2.2818 Y-4.5239 I-0.0075 J0.0218
X-2.2895 Y-4.5092 I0.0077 J0.0133
G1 X-2.2892 Y-4.5062 Z-0.1672
X-2.2889 Y-4.5034 Z-0.1663
X-2.2887 Y-4.5007 Z-0.1649
X-2.2885 Y-4.4984 Z-0.163
X-2.2883 Y-4.4965 Z-0.1607
X-2.2882 Y-4.4951 Z-0.158
X-2.2881 Y-4.4942 Z-0.1551
Y-4.4939 Z-0.1521
G0 Z-0.1367
X-3.7096 Y-3.4256
G1 Z-0.1521 F50.
X-3.7099 Y-3.4255 Z-0.1551
X-3.7108 Y-3.4253 Z-0.158
X-3.7121 Y-3.4249 Z-0.1607
X-3.714 Y-3.4244 Z-0.163
X-3.7162 Y-3.4237 Z-0.1649
X-3.7188 Y-3.423 Z-0.1663
X-3.7216 Y-3.4222 Z-0.1672
X-3.7244 Y-3.4214 Z-0.1675
G2 X-3.7512 Y-3.4058 I0.017 J0.06
G1 X-3.7673 Y-3.3888 F60.
X-3.7859 Y-3.3674
X-3.8657 Y-3.2735
G2 X-3.8723 Y-2.8089 I0.5011 J0.2395
X-3.4625 Y-2.3497 I0.7697 J-0.2745
G1 X-3.1573 Y-2.3793
G2 X-3.1451 Y-2.3886 I-0.002 J-0.0153
X-3.1657 Y-2.4522 I-0.0473 J-0.0198
X-3.4435 Y-2.3736 I-0.1025 J0.1681
G1 X-3.4497 Y-2.3601 F50.
G3 X-3.462 Y-2.3508 I-0.0142 J-0.0059
G1 X-3.5562 Y-2.342 F60.
G3 X-3.8637 Y-2.5751 I0.0863 J-0.4332
X-4.0175 Y-3.0877 I0.7474 J-0.5037
G1 X-3.9551 Y-3.1673
X-3.9455 Y-3.1796
X-3.8657 Y-3.2735
G3 X-3.851 Y-3.2782 I0.0114 J0.0104
X-3.8192 Y-3.2349 I-0.0087 J0.0398
X-3.9867 Y-3.0914 I-0.1569 J-0.0137
X-4.0014 Y-3.0931 I0.0106 J-0.1571 F50.
G2 X-4.0157 Y-3.0877 I-0.0025 J0.0152
G1 X-4.0619 Y-3.0271 F60.
G2 X-4.0188 Y-2.6499 I0.393 J0.1462
X-3.7611 Y-2.3228 I0.7547 J-0.3295
G1 X-3.5562 Y-2.342
G2 X-3.5429 Y-2.3592 I-0.002 J-0.0153
X-3.5507 Y-2.3707 I-0.0151 J0.0019
X-3.7385 Y-2.3429 I-0.0755 J0.1382
X-3.7509 Y-2.3287 I0.1123 J0.1104 F50.
G3 X-3.7611 Y-2.3228 I-0.0122 J-0.0094
G1 X-3.8272 Y-2.3166 F60.
G3 X-4.0773 Y-2.5632 I0.092 J-0.3435
X-4.1847 Y-2.8562 I0.5497 J-0.3677
G1 X-4.1193 Y-2.9506
X-4.1066 Y-2.9685
X-4.0619 Y-3.0271
G3 X-4.0475 Y-3.0326 I0.0119 J0.0098
X-4.0066 Y-2.9596 I-0.0086 J0.0527
X-4.1545 Y-2.8617 I-0.1458 J-0.0596
X-4.1693 Y-2.8626 I0.0021 J-0.1575 F50.
G2 X-4.1834 Y-2.8564 I-0.0017 J0.0153
G1 X-4.2189 Y-2.8042 F60.
G2 X-4.1296 Y-2.458 I0.3433 J0.0961
X-4.0067 Y-2.2998 I0.3301 J-0.1296
G1 X-3.8272 Y-2.3166
G2 X-3.8149 Y-2.3259 I-0.002 J-0.0153
X-3.8298 Y-2.3677 I-0.0304 J-0.0127
X-3.9879 Y-2.3224 I-0.0557 J0.1041
X-3.9945 Y-2.3091 I0.1024 J0.0589 F50.
G3 X-4.0067 Y-2.2998 I-0.0142 J-0.0059
G1 X-4.0618 Y-2.2947 F60.
G3 X-4.2855 Y-2.5453 I0.0878 J-0.3035
X-4.3222 Y-2.6417 I0.0568 J-0.0768
G1 X-4.2666 Y-2.7338
X-4.2601 Y-2.7436
X-4.2189 Y-2.8042
G3 X-4.2048 Y-2.8104 I0.0124 J0.0091
X-4.1876 Y-2.7955 I-0.0021 J0.0198
X-4.2937 Y-2.6488 I-0.1145 J0.0289
X-4.3085 Y-2.6486 I-0.0084 J-0.1178 F50.
G2 X-4.3222 Y-2.6417 I-0.0008 J0.0154
G1 X-4.3516 Y-2.593 F60.
G2 X-4.2358 Y-2.2788 I0.3165 J0.0617
G1 X-4.2328 Y-2.2787
X-4.0618 Y-2.2947
G2 X-4.0496 Y-2.304 I-0.002 J-0.0153
X-4.0711 Y-2.3533 I-0.0343 J-0.0144
X-4.214 Y-2.3012 I-0.0405 J0.111
X-4.2206 Y-2.288 I0.1024 J0.0589 F50.
G3 X-4.2328 Y-2.2787 I-0.0142 J-0.0059
G1 X-4.2835 Y-2.2739 F60.
G3 X-4.4421 Y-2.4354 I0.0385 J-0.1964
G1 X-4.4081 Y-2.4991
X-4.4009 Y-2.5116
X-4.3516 Y-2.593
G3 X-4.3379 Y-2.6 I0.0129 J0.0084
X-4.3115 Y-2.5752 I-0.0015 J0.0281
X-4.414 Y-2.444 I-0.1173 J0.014
X-4.4287 Y-2.4431 I-0.0148 J-0.1172 F50.
G2 X-4.4421 Y-2.4354 I0. J0.0154
G1 X-4.4644 Y-2.3935 F60.
G2 X-4.4345 Y-2.2583 I0.1097 J0.0467
G1 X-4.2835 Y-2.2739
G2 X-4.2777 Y-2.3025 I-0.002 J-0.0153
G1 X-4.4375 Y-2.3958
X-4.4433 Y-2.3991 F50.
G2 X-4.4644 Y-2.3935 I-0.0078 J0.0133
G1 X-4.5082 Y-2.3114 F60.
G2 X-4.5048 Y-2.2532 I0.0284 J0.0275
G1 X-4.4331 Y-2.2599
G2 X-4.4284 Y-2.2891 I-0.002 J-0.0153
G1 X-4.481 Y-2.3142
X-4.4882 Y-2.3176 F50.
G2 X-4.5082 Y-2.3114 I-0.0066 J0.0139
X-4.5325 Y-2.2558 I0.0205 J0.0421 F60.
X-4.5048 Y-2.2532 I0.0155 J-0.0162
X-4.5027 Y-2.2536 I-0.002 J-0.0153
G1 X-4.5007 Y-2.2547 Z-0.1673
X-4.4986 Y-2.2558 Z-0.1668
X-4.4967 Y-2.2568 Z-0.1659
X-4.4954 Y-2.2585 Z-0.1645
X-4.4943 Y-2.26 Z-0.1629
X-4.4934 Y-2.2613 Z-0.161
X-4.4926 Y-2.2623 Z-0.1589
X-4.4923 Y-2.2631 Z-0.1567
X-4.4921 Y-2.2636 Z-0.1544
Y-2.2638 Z-0.1521
G0 Z0.4
X-3.1113 Y3.0189
Z0.1
G3 X-3.0654 Y3.1578 Z0.0595 I0.0229 J0.0695 F50.
X-3.1113 Y3.0189 Z0.019 I-0.0229 J-0.0695
X-3.0654 Y3.1578 Z-0.0216 I0.0229 J0.0695
X-3.1113 Y3.0189 Z-0.0621 I-0.0229 J-0.0695
X-3.0654 Y3.1578 Z-0.1026 I0.0229 J0.0695
X-3.1113 Y3.0189 Z-0.1431 I-0.0229 J-0.0695
X-3.0152 Y3.0884 Z-0.1675 I0.0229 J0.0695
X-3.1615 I-0.0731 J0.
X-3.0154 Y3.0824 I0.0731 J0.
G1 X-3.0152 Y3.0884
G3 X-3.171 Y3.212 I-0.0819 J0.0568 F60.
G1 X-3.1791 Y3.2066
X-3.1869 Y3.2008
X-3.1943 Y3.1944
X-3.2013 Y3.1876
X-3.2078 Y3.1804
X-3.2139 Y3.1728
X-3.2194 Y3.1648
X-3.2245 Y3.1565
X-3.229 Y3.1478
X-3.233 Y3.1389
X-3.2364 Y3.1298
X-3.2392 Y3.1205
X-3.2414 Y3.111
X-3.243 Y3.1014
X-3.2441 Y3.0917
X-3.2445 Y3.082
X-3.2443 Y3.0723
X-3.2435 Y3.0626
X-3.242 Y3.0529
X-3.24 Y3.0434
X-3.2374 Y3.034
X-3.2342 Y3.0249
X-3.2304 Y3.0159
X-3.226 Y3.0072
X-3.2211 Y2.9987
X-3.2157 Y2.9906
X-3.2098 Y2.9829
X-3.2035 Y2.9756
X-3.1966 Y2.9686
X-3.1894 Y2.9621
X-3.1817 Y2.9561
X-3.1737 Y2.9506
X-3.1654 Y2.9455
X-3.1567 Y2.9411
X-3.1478 Y2.9371
X-3.1387 Y2.9338
X-3.1294 Y2.931
X-3.1199 Y2.9288
X-3.1103 Y2.9272
X-3.1006 Y2.9263
X-3.0909 Y2.9259
X-3.0811 Y2.9261
X-3.0714 Y2.927
X-3.0618 Y2.9285
X-3.0523 Y2.9305
X-3.0429 Y2.9332
X-3.0338 Y2.9365
X-3.0248 Y2.9403
X-3.0161 Y2.9447
X-3.0077 Y2.9496
X-2.9997 Y2.955
X-2.9919 Y2.961
X-2.9846 Y2.9674
X-2.9777 Y2.9742
X-2.9712 Y2.9815
X-2.9653 Y2.9892
X-2.9598 Y2.9972
X-2.9548 Y3.0056
X-2.9503 Y3.0142
X-2.9465 Y3.0232
X-2.9431 Y3.0323
X-2.9404 Y3.0417
X-2.9347 Y3.0508
X-2.9296 Y3.0603
X-2.925 Y3.0701
X-2.9209 Y3.08
X-2.9174 Y3.0903
X-2.9145 Y3.1007
X-2.9122 Y3.1112
X-2.9106 Y3.1218
X-2.9095 Y3.1326
X-2.909 Y3.1434
X-2.9091 Y3.1541
X-2.9099 Y3.1649
X-2.9112 Y3.1756
X-2.9132 Y3.1862
X-2.9158 Y3.1967
X-2.9189 Y3.207
X-2.9226 Y3.2171
X-2.9269 Y3.227
X-2.9318 Y3.2366
X-2.9372 Y3.246
X-2.9431 Y3.255
X-2.9495 Y3.2637
X-2.9564 Y3.272
X-2.9638 Y3.2799
X-2.9715 Y3.2873
X-2.9798 Y3.2943
X-2.9883 Y3.3008
X-2.9973 Y3.3069
X-3.0066 Y3.3124
X-3.0161 Y3.3174
X-3.026 Y3.3218
X-3.036 Y3.3256
X-3.0463 Y3.3289
X-3.0567 Y3.3316
X-3.0673 Y3.3337
X-3.078 Y3.3352
X-3.0887 Y3.3361
X-3.0995 Y3.3364
X-3.1103 Y3.336
X-3.121 Y3.3351
X-3.1317 Y3.3335
X-3.1423 Y3.3314
X-3.1527 Y3.3286
X-3.163 Y3.3253
X-3.173 Y3.3214
X-3.1828 Y3.3169
X-3.1924 Y3.3118
X-3.2016 Y3.3063
X-3.2105 Y3.3002
X-3.219 Y3.2936
X-3.2272 Y3.2866
X-3.2349 Y3.2791
X-3.2448 Y3.2722
X-3.2542 Y3.2649
X-3.2633 Y3.2572
X-3.272 Y3.2489
X-3.2803 Y3.2403
X-3.2881 Y3.2312
X-3.2954 Y3.2218
X-3.3023 Y3.212
X-3.3087 Y3.2018
X-3.3145 Y3.1914
X-3.3198 Y3.1807
X-3.3245 Y3.1697
X-3.3287 Y3.1585
X-3.3324 Y3.1471
X-3.3354 Y3.1355
X-3.3379 Y3.1238
X-3.3397 Y3.112
X-3.341 Y3.1001
X-3.3416 Y3.0881
X-3.3417 Y3.0762
X-3.3411 Y3.0642
X-3.34 Y3.0523
X-3.3382 Y3.0405
X-3.3359 Y3.0287
X-3.3329 Y3.0171
X-3.3294 Y3.0057
X-3.3253 Y2.9945
X-3.3207 Y2.9835
X-3.3155 Y2.9727
X-3.3097 Y2.9622
X-3.3035 Y2.952
X-3.2967 Y2.9421
X-3.2894 Y2.9326
X-3.2817 Y2.9235
X-3.2735 Y2.9148
X-3.2649 Y2.9065
X-3.2559 Y2.8986
X-3.2465 Y2.8912
X-3.2367 Y2.8843
X-3.2266 Y2.8779
X-3.2162 Y2.872
X-3.2055 Y2.8667
X-3.1945 Y2.8619
X-3.1834 Y2.8576
X-3.1705 Y2.8539
X-3.1575 Y2.8508
X-3.1443 Y2.8484
X-3.1311 Y2.8465
X-3.1178 Y2.8452
X-3.1044 Y2.8446
X-3.0911 Y2.8445
X-3.0777 Y2.8451
X-3.0644 Y2.8463
X-3.0511 Y2.8481
X-3.038 Y2.8505
X-3.025 Y2.8536
X-3.0121 Y2.8572
X-2.9994 Y2.8614
X-2.9869 Y2.8662
X-2.9747 Y2.8715
X-2.9627 Y2.8774
X-2.9509 Y2.8839
X-2.9396 Y2.8909
X-2.9285 Y2.8984
X-2.9178 Y2.9064
X-2.9075 Y2.9149
X-2.8975 Y2.9239
X-2.888 Y2.9333
X-2.879 Y2.9431
X-2.8704 Y2.9534
X-2.8623 Y2.964
X-2.8547 Y2.975
X-2.8476 Y2.9863
X-2.841 Y2.998
X-2.835 Y3.0099
X-2.8295 Y3.0221
X-2.8246 Y3.0346
X-2.8203 Y3.0472
X-2.8165 Y3.0601
X-2.8134 Y3.0731
X-2.8108 Y3.0862
X-2.8089 Y3.0994
X-2.8076 Y3.1127
X-2.8069 Y3.1261
X-2.8068 Y3.1394
X-2.8073 Y3.1528
X-2.8085 Y3.1661
X-2.8102 Y3.1794
X-2.8126 Y3.1926
X-2.8155 Y3.2056
X-2.8191 Y3.2185
X-2.8232 Y3.2312
X-2.828 Y3.2437
X-2.8333 Y3.256
X-2.8391 Y3.268
X-2.8455 Y3.2797
X-2.8525 Y3.2912
X-2.86 Y3.3023
X-2.8679 Y3.313
X-2.8764 Y3.3234
X-2.8853 Y3.3333
X-2.8947 Y3.3429
X-2.9045 Y3.352
X-2.9147 Y3.3606
X-2.9253 Y3.3687
X-2.9362 Y3.3764
X-2.9475 Y3.3836
X-2.9591 Y3.3902
X-2.9711 Y3.3963
X-2.9832 Y3.4018
X-2.9957 Y3.4067
X-3.0083 Y3.4111
X-3.0211 Y3.4149
X-3.0341 Y3.4181
X-3.0472 Y3.4207
X-3.0604 Y3.4227
X-3.0737 Y3.4241
X-3.0871 Y3.4248
X-3.1005 Y3.425
X-3.1138 Y3.4245
X-3.1271 Y3.4234
X-3.1404 Y3.4217
X-3.1536 Y3.4194
X-3.1666 Y3.4165
X-3.1795 Y3.413
X-3.1923 Y3.4089
X-3.2048 Y3.4043
G3 X-3.1849 Y2.7573 I0.1055 J-0.3206
G1 X-3.1696 Y2.7542
X-3.1542 Y2.7517
X-3.1387 Y2.7499
X-3.1232 Y2.7487
X-3.1076 Y2.7481
X-3.092
X-3.0764 Y2.7488
X-3.0609 Y2.7501
X-3.0454 Y2.752
X-3.03 Y2.7545
X-3.0148 Y2.7576
X-2.9996 Y2.7614
X-2.9847 Y2.7657
X-2.9699 Y2.7707
X-2.9553 Y2.7763
X-2.941 Y2.7824
X-2.9269 Y2.7891
X-2.9131 Y2.7963
X-2.8996 Y2.8041
X-2.8865 Y2.8125
X-2.8737 Y2.8213
X-2.8612 Y2.8307
X-2.8491 Y2.8406
X-2.8375 Y2.8509
X-2.8262 Y2.8617
X-2.8154 Y2.873
X-2.8051 Y2.8846
X-2.7952 Y2.8967
X-2.7859 Y2.9092
X-2.777 Y2.922
X-2.7687 Y2.9352
X-2.7609 Y2.9487
X-2.7536 Y2.9625
X-2.747 Y2.9766
X-2.7408 Y2.9909
X-2.7353 Y3.0055
X-2.7304 Y3.0202
X-2.726 Y3.0352
X-2.7223 Y3.0503
X-2.7191 Y3.0656
X-2.7166 Y3.081
X-2.7147 Y3.0965
X-2.7134 Y3.112
X-2.7128 Y3.1276
Y3.1432
X-2.7134 Y3.1587
X-2.7146 Y3.1743
X-2.7165 Y3.1898
X-2.7189 Y3.2051
X-2.722 Y3.2204
X-2.7257 Y3.2356
X-2.73 Y3.2506
X-2.7349 Y3.2653
X-2.7404 Y3.2799
X-2.7465 Y3.2943
X-2.7531 Y3.3084
X-2.7604 Y3.3222
X-2.7681 Y3.3357
X-2.7764 Y3.3489
X-2.7852 Y3.3618
X-2.7946 Y3.3743
X-2.8044 Y3.3864
X-2.8147 Y3.3981
X-2.8254 Y3.4093
X-2.8366 Y3.4202
X-2.8483 Y3.4305
X-2.8603 Y3.4404
X-2.8727 Y3.4499
X-2.8855 Y3.4588
X-2.8987 Y3.4671
X-2.9122 Y3.475
X-2.9259 Y3.4823
X-2.94 Y3.489
X-2.9543 Y3.4952
X-2.9689 Y3.5008
X-2.9836 Y3.5058
X-2.9986 Y3.5102
X-3.0137 Y3.514
X-3.0289 Y3.5172
X-3.0443 Y3.5197
X-3.0598 Y3.5217
X-3.0753 Y3.523
X-3.0909 Y3.5237
X-3.1065 Y3.5238
X-3.122 Y3.5232
X-3.1376 Y3.5221
X-3.1531 Y3.5203
X-3.1685 Y3.5178
X-3.1838 Y3.5148
X-3.1989 Y3.5112
X-3.2139 Y3.5069
X-3.2287 Y3.5021
X-3.2433 Y3.4966
X-3.2577 Y3.4906
X-3.2718 Y3.484
X-3.2857 Y3.4768
X-3.2992 Y3.4691
X-3.3124 Y3.4609
X-3.3253 Y3.4521
X-3.3378 Y3.4428
X-3.35 Y3.433
X-3.3617 Y3.4228
X-3.373 Y3.4121
G3 X-3.5316 Y3.0915 I0.2298 J-0.3132
X-2.6421 Y3.0182 I0.4479 J0.0009
G1 X-2.6372 Y3.0342
X-2.6329 Y3.0503
X-2.6293 Y3.0666
X-2.6262 Y3.083
X-2.6238 Y3.0995
X-2.6219 Y3.1161
X-2.6207 Y3.1327
X-2.6202 Y3.1494
Y3.1661
X-2.6209 Y3.1827
X-2.6222 Y3.1994
X-2.6241 Y3.2159
X-2.6267 Y3.2324
X-2.6298 Y3.2488
X-2.6336 Y3.2651
X-2.638 Y3.2812
X-2.6429 Y3.2971
X-2.6485 Y3.3128
X-2.6546 Y3.3283
X-2.6614 Y3.3436
X-2.6687 Y3.3586
X-2.6765 Y3.3733
X-2.6849 Y3.3877
X-2.6938 Y3.4018
X-2.7033 Y3.4156
X-2.7132 Y3.429
X-2.7237 Y3.442
X-2.7346 Y3.4546
X-2.746 Y3.4667
X-2.7579 Y3.4785
X-2.7701 Y3.4898
X-2.7828 Y3.5006
X-2.7959 Y3.511
X-2.8094 Y3.5208
X-2.8232 Y3.5301
X-2.8374 Y3.5389
X-2.8519 Y3.5472
X-2.8666 Y3.555
X-2.8817 Y3.5621
X-2.8983 Y3.5695
X-2.9152 Y3.5762
X-2.9322 Y3.5824
X-2.9495 Y3.588
X-2.9669 Y3.5929
X-2.9845 Y3.5973
X-3.0023 Y3.6011
X-3.0202 Y3.6043
X-3.0381 Y3.6068
X-3.0562 Y3.6088
X-3.0743 Y3.6101
X-3.0924 Y3.6108
X-3.1105
X-3.1287 Y3.6103
X-3.1468 Y3.6091
X-3.1649 Y3.6073
X-3.1828 Y3.6049
X-3.2007 Y3.6018
X-3.2185 Y3.5982
X-3.2361 Y3.5939
X-3.2536 Y3.5891
X-3.2709 Y3.5836
X-3.288 Y3.5776
X-3.3049 Y3.5709
X-3.3216 Y3.5637
X-3.338 Y3.556
X-3.3541 Y3.5476
X-3.3699 Y3.5387
X-3.3854 Y3.5293
X-3.4006 Y3.5194
X-3.4155 Y3.5089
X-3.4299 Y3.498
X-3.444 Y3.4865
X-3.4577 Y3.4746
X-3.4709 Y3.4622
X-3.4837 Y3.4493
X-3.4961 Y3.4361
X-3.508 Y3.4224
X-3.5195 Y3.4083
X-3.5304 Y3.3938
X-3.5408 Y3.379
X-3.5508 Y3.3638
X-3.5602 Y3.3483
X-3.569 Y3.3324
X-3.5773 Y3.3163
X-3.5851 Y3.2999
X-3.5923 Y3.2832
X-3.5989 Y3.2663
X-3.6049 Y3.2492
X-3.6103 Y3.2319
X-3.6152 Y3.2144
X-3.6194 Y3.1967
X-3.623 Y3.179
X-3.626 Y3.1611
X-3.6284 Y3.1431
X-3.6302 Y3.125
X-3.6313 Y3.1069
X-3.6319 Y3.0888
X-3.6318 Y3.0706
X-3.6311 Y3.0525
X-3.6297 Y3.0344
X-3.6278 Y3.0164
X-3.6252 Y2.9984
X-3.622 Y2.9805
X-3.6182 Y2.9628
X-3.6138 Y2.9452
X-3.6088 Y2.9277
X-3.6032 Y2.9105
X-3.597 Y2.8934
X-3.5902 Y2.8766
X-3.5828 Y2.86
X-3.5749 Y2.8437
X-3.5665 Y2.8276
X-3.5574 Y2.8119
X-3.5479 Y2.7965
X-3.5378 Y2.7814
X-3.5272 Y2.7666
X-3.5161 Y2.7523
X-3.5045 Y2.7383
X-3.4925 Y2.7247
X-3.48 Y2.7116
X-3.467 Y2.6989
X-3.4537 Y2.6866
X-3.4399 Y2.6748
X-3.4257 Y2.6635
X-3.4111 Y2.6527
X-3.3962 Y2.6424
X-3.3809 Y2.6326
X-3.3653 Y2.6233
X-3.3494 Y2.6146
X-3.3332 Y2.6064
X-3.3167 Y2.5988
X-3.3 Y2.5918
X-3.283 Y2.5853
X-3.2658 Y2.5795
X-3.2485 Y2.5742
X-3.2309 Y2.5695
X-3.2133 Y2.5654
X-3.1955 Y2.562
X-3.1775 Y2.5591
X-3.1595 Y2.5569
X-3.1415 Y2.5553
X-3.1233 Y2.5543
X-3.1052 Y2.5539
X-3.087 Y2.5542
X-3.0689 Y2.555
X-3.0508 Y2.5565
X-3.0328 Y2.5586
X-3.0149 Y2.5614
G3 X-2.5422 Y3.2969 I-0.0847 J0.5741
X-3.3349 Y3.6659 I-0.5574 J-0.1615
X-2.8553 Y2.498 I0.2405 J-0.5836
X-3.2008 Y3.8068 I-0.2482 J0.6344
X-3.4179 Y3.7397 I0.0834 J-0.6551
G1 X-3.5796 Y3.5865
X-3.5875 Y3.5786
X-3.7096 Y3.4498
X-3.7205 Y3.432
X-3.7309 Y3.4139
X-3.7408 Y3.3955
X-3.7502 Y3.3768
X-3.759 Y3.3579
X-3.7672 Y3.3387
X-3.7748 Y3.3193
X-3.7819 Y3.2996
X-3.7884 Y3.2798
X-3.7943 Y3.2597
X-3.7996 Y3.2396
X-3.8044 Y3.2192
X-3.8085 Y3.1987
X-3.812 Y3.1782
X-3.8149 Y3.1575
X-3.8172 Y3.1367
X-3.8189 Y3.1159
X-3.8199 Y3.095
X-3.8204 Y3.0742
X-3.8202 Y3.0533
X-3.8195 Y3.0324
X-3.8181 Y3.0116
X-3.8161 Y2.9908
X-3.8134 Y2.9701
X-3.8102 Y2.9495
X-3.8064 Y2.9289
X-3.802 Y2.9085
X-3.7969 Y2.8883
X-3.7913 Y2.8681
X-3.7851 Y2.8482
X-3.7783 Y2.8285
X-3.7709 Y2.8089
X-3.7629 Y2.7896
X-3.7544 Y2.7706
X-3.7453 Y2.7518
X-3.7357 Y2.7332
X-3.7255 Y2.715
X-3.7148 Y2.6971
X-3.7036 Y2.6795
X-3.6919 Y2.6622
X-3.6796 Y2.6453
X-3.6669 Y2.6287
X-3.6536 Y2.6126
X-3.64 Y2.5968
X-3.6258 Y2.5814
X-3.6112 Y2.5665
X-3.5962 Y2.552
X-3.5807 Y2.538
X-3.5649 Y2.5244
X-3.5486 Y2.5113
X-3.532 Y2.4986
X-3.515 Y2.4865
X-3.4977 Y2.4749
X-3.48 Y2.4638
X-3.462 Y2.4532
X-3.4437 Y2.4431
X-3.4251 Y2.4336
X-3.4062 Y2.4247
X-3.3871 Y2.4163
X-3.3677 Y2.4085
X-3.3482 Y2.4012
X-3.3284 Y2.3945
X-3.3084 Y2.3884
X-3.2882 Y2.3829
X-3.2679 Y2.378
X-3.2475 Y2.3737
X-2.8523 Y2.4079
G3 X-2.4152 Y2.7744 I-0.1858 J0.6655
G1 X-2.3662 Y3.297
G3 X-2.7182 Y3.8096 I-0.6512 J-0.0699
X-3.2347 Y3.8999 I-0.3865 J-0.6882
G1 X-3.3685 Y3.7849
X-3.3899 Y3.7663
X-3.4179 Y3.7397
G3 X-3.4218 Y3.7248 I0.011 J-0.0108
X-3.3766 Y3.694 I0.0408 J0.0112
X-3.2367 Y3.8696 I-0.0164 J0.1566
X-3.2392 Y3.8842 I-0.1563 J-0.019 F50.
G2 X-3.2345 Y3.8989 I0.015 J0.0033
G1 X-3.1808 Y3.9446 F60.
X-3.1687 Y3.954
X-3.1573 Y3.9627
G2 X-2.7639 Y3.9407 I0.1737 J-0.4223
X-2.3399 Y3.5649 I-0.3265 J-0.7956
G1 X-2.3662 Y3.297
G2 X-2.3756 Y3.2847 I-0.0153 J0.002
X-2.3927 Y3.2875 I-0.0064 J0.0152
X-2.3639 Y3.5456 I0.1029 J0.1192
X-2.3506 Y3.5519 I0.0742 J-0.1389 F50.
G3 X-2.3412 Y3.5642 I-0.0059 J0.0142
G1 X-2.3333 Y3.649 F60.
G3 X-2.5686 Y3.9484 I-0.4211 J-0.0887
G1 X-2.5884 Y3.9612
X-2.6084 Y3.9734
X-2.6288 Y3.9852
X-2.6495 Y3.9963
X-2.6705 Y4.007
X-2.6917 Y4.0171
X-2.7132 Y4.0266
X-2.735 Y4.0355
X-2.7569 Y4.0439
X-2.7791 Y4.0518
X-2.8015 Y4.059
X-2.8241 Y4.0656
X-2.8468 Y4.0717
X-2.8697 Y4.0771
X-2.8927 Y4.082
X-2.9158 Y4.0863
X-2.939 Y4.0899
X-2.9623 Y4.093
X-2.9857 Y4.0954
X-3.1573 Y3.9627
G3 X-3.1628 Y3.9483 I0.0098 J-0.0119
X-3.0901 Y3.9067 I0.0532 J0.0087
X-2.9897 Y4.0642 I-0.0567 J0.1469
X-2.9914 Y4.0789 I-0.1571 J-0.0106 F50.
G2 X-2.9859 Y4.0932 I0.0152 J0.0025
G1 X-2.9696 Y4.1057 F60.
X-2.9521 Y4.1183
X-2.9227 Y4.1383
G2 X-2.5698 Y4.0567 I0.0989 J-0.3762
X-2.3132 Y3.8507 I-0.2834 J-0.6158
G1 X-2.3333 Y3.649
G2 X-2.3426 Y3.6367 I-0.0153 J0.002
X-2.3549 Y3.6387 I-0.0046 J0.011
G1 X-2.3562 Y3.6398
G2 X-2.3371 Y3.8309 I0.078 J0.0887
X-2.3238 Y3.8374 I0.0589 J-0.1024 F50.
G3 X-2.3145 Y3.8497 I-0.0059 J0.0142
G1 X-2.3091 Y3.9071 F60.
G3 X-2.5557 Y4.1594 I-0.3282 J-0.0741
X-2.768 Y4.2435 I-0.2523 J-0.3272
G1 X-2.9227 Y4.1383
G3 X-2.9289 Y4.1242 I0.0091 J-0.0124
X-2.9038 Y4.0992 I0.028 J0.003
X-2.7736 Y4.2146 I0.0121 J0.1175
X-2.7742 Y4.2294 I-0.1181 J0.0021 F50.
G2 X-2.768 Y4.2435 I0.0153 J0.0017
G1 X-2.745 Y4.2591 F60.
X-2.735 Y4.2658
X-2.7115 Y4.28
G2 X-2.331 Y4.1258 I0.0548 J-0.4111
X-2.2919 Y4.0917 I0.0011 J-0.0382
G1 X-2.3091 Y3.9071
G2 X-2.3185 Y3.8949 I-0.0153 J0.002
X-2.3545 Y3.9059 I-0.0114 J0.0272
X-2.3145 Y4.0729 I0.0989 J0.0645
X-2.3012 Y4.0794 I0.0589 J-0.1024 F50.
G3 X-2.2919 Y4.0917 I-0.0059 J0.0142
G1 X-2.2872 Y4.1418 F60.
G3 X-2.5391 Y4.3626 I-0.2828 J-0.0686
G1 X-2.5505 Y4.3735
X-2.5533 Y4.3739
X-2.5561 Y4.3735
X-2.5587 Y4.3724
X-2.7115 Y4.28
G3 X-2.7185 Y4.2663 I0.0084 J-0.0129
X-2.685 Y4.2342 I0.0339 J0.0018
X-2.5658 Y4.3439 I0.0014 J0.1181
G1 X-2.5655 Y4.3523 F50.
X-2.5657 Y4.3587
G2 X-2.5587 Y4.3724 I0.0154 J0.0008
G1 X-2.5132 Y4.3999 F60.
G2 X-2.2709 Y4.3153 I0.0565 J-0.2274
G1 X-2.2872 Y4.1418
G2 X-2.2965 Y4.1295 I-0.0153 J0.002
X-2.3438 Y4.149 I-0.0139 J0.0333
X-2.2935 Y4.2965 I0.1092 J0.0451
X-2.2803 Y4.3031 I0.0589 J-0.1024 F50.
G3 X-2.2709 Y4.3153 I-0.0059 J0.0142
G1 X-2.2665 Y4.3629 F60.
G3 X-2.3634 Y4.4818 I-0.1329 J-0.0095
G1 X-2.3661 Y4.48
X-2.3683 Y4.4777
X-2.3701 Y4.4751
X-2.3713 Y4.4722
X-2.3719 Y4.4692
X-2.372 Y4.4661
X-2.3714 Y4.4631
X-2.3702 Y4.4603
X-2.3686 Y4.4578
X-2.3656 Y4.4537
X-2.2942 Y4.3558
X-2.2923 Y4.3537
X-2.29 Y4.3519
G3 X-2.2665 Y4.3629 I0.0082 J0.013 F50.
G1 X-2.2586 Y4.4468 F60.
G3 X-2.2917 Y4.5187 I-0.0455 J0.0226
X-2.2991 Y4.5027 I0.0077 J-0.0133
G1 X-2.297 Y4.4907
X-2.2891 Y4.4461
G3 X-2.2821 Y4.4358 I0.0152 J0.0027
X-2.2586 Y4.4468 I0.0082 J0.013 F50.
X-2.2539 Y4.5308 I-0.078 J0.0465 F60.
G1 X-2.2555 Y4.5324
X-2.2576 Y4.5333
X-2.2595 Y4.5334
X-2.2599 Y4.5335
X-2.2686 Y4.5309
X-2.2694 Y4.5306
X-2.5003 Y4.4074
X-2.5132 Y4.3999
G3 X-2.5129 Y4.3739 I0.0084 J-0.0129
G1 X-2.5103 Y4.3723 Z-0.1672
X-2.5079 Y4.3708 Z-0.1663
X-2.5056 Y4.3694 Z-0.1649
X-2.5036 Y4.3682 Z-0.163
X-2.502 Y4.3671 Z-0.1607
X-2.5008 Y4.3664 Z-0.158
X-2.5 Y4.3659 Z-0.1551
X-2.4998 Y4.3658 Z-0.1521
G0 Z-0.1367
X-3.668 Y3.4695
G1 Z-0.1521 F50.
X-3.6683 Y3.4694 Z-0.1551
X-3.6691 Y3.4692 Z-0.158
X-3.6705 Y3.4688 Z-0.1607
X-3.6723 Y3.4683 Z-0.163
X-3.6746 Y3.4676 Z-0.1649
X-3.6772 Y3.4669 Z-0.1663
X-3.6799 Y3.4661 Z-0.1672
X-3.6828 Y3.4653 Z-0.1675
G3 X-3.7096 Y3.4498 I0.017 J-0.06
G1 X-3.7673 Y3.3888 F60.
X-3.7859 Y3.3674
X-3.8612 Y3.2788
G3 X-3.8833 Y2.8381 I0.479 J-0.2449
X-3.4722 Y2.3488 I0.7919 J0.2481
G1 X-3.2481 Y2.3708
G3 X-3.2358 Y2.3802 I-0.002 J0.0153
X-3.2683 Y2.4491 I-0.0474 J0.0198
X-3.453 Y2.3726 I-0.0458 J-0.1507
X-3.4593 Y2.3592 I0.1389 J-0.0742 F50.
G2 X-3.4716 Y2.3499 I-0.0142 J0.0059
G1 X-3.5691 Y2.3408 F60.
G2 X-3.8659 Y2.5751 I0.1045 J0.4375
X-4.0176 Y3.0876 I0.7517 J0.5011
G1 X-3.9551 Y3.1673
X-3.9455 Y3.1796
X-3.8612 Y3.2788
G2 X-3.8465 Y3.2835 I0.0114 J-0.0104
X-3.8186 Y3.2489 I-0.0076 J-0.0346
X-3.9867 Y3.0914 I-0.1575 J-0.0004
X-4.0014 Y3.0931 I0.0106 J0.1571 F50.
G3 X-4.0158 Y3.0876 I-0.0025 J-0.0152
G1 X-4.0619 Y3.0271 F60.
G3 X-4.0198 Y2.6488 I0.3935 J-0.1477
X-3.7651 Y2.3224 I0.754 J0.3258
G1 X-3.5691 Y2.3408
G3 X-3.5568 Y2.3501 I-0.002 J0.0153
X-3.5609 Y2.3702 I-0.0169 J0.0071
X-3.7463 Y2.345 I-0.083 J-0.084
X-3.7528 Y2.3318 I0.1024 J-0.0589 F50.
G2 X-3.7651 Y2.3224 I-0.0142 J0.0059
G1 X-3.8272 Y2.3166 F60.
G2 X-4.0786 Y2.5633 I0.083 J0.336
X-4.1852 Y2.8555 I0.5401 J0.3627
G1 X-4.1193 Y2.9506
X-4.1066 Y2.9685
X-4.0619 Y3.0271
G2 X-4.0475 Y3.0326 I0.0119 J-0.0098
X-4.0065 Y2.9604 I-0.0086 J-0.0526
X-4.155 Y2.8609 I-0.1464 J0.058
X-4.1698 Y2.8618 I0.0021 J0.1575 F50.
G3 X-4.1839 Y2.8556 I-0.0017 J-0.0153
G1 X-4.2189 Y2.8042 F60.
G3 X-4.1305 Y2.4566 I0.341 J-0.0984
X-4.0093 Y2.2996 I0.3222 J0.1234
G1 X-3.8272 Y2.3166
G3 X-3.8149 Y2.3259 I-0.002 J0.0153
X-3.8278 Y2.3648 I-0.0288 J0.0121
X-3.9905 Y2.3222 I-0.0603 J-0.1016
X-3.9971 Y2.3089 I0.1024 J-0.0589 F50.
G2 X-4.0093 Y2.2996 I-0.0142 J0.0059
G1 X-4.0618 Y2.2947 F60.
G2 X-4.2865 Y2.5454 I0.0812 J0.2988
X-4.323 Y2.6404 I0.0548 J0.0756
G1 X-4.2666 Y2.7338
X-4.2601 Y2.7436
X-4.2189 Y2.8042
G2 X-4.2048 Y2.8104 I0.0124 J-0.0091
X-4.1893 Y2.7973 I-0.0019 J-0.018
X-4.2945 Y2.6474 I-0.1137 J-0.032
X-4.3093 Y2.6473 I-0.0084 J0.1178 F50.
G3 X-4.323 Y2.6404 I-0.0008 J-0.0154
G1 X-4.3516 Y2.593 F60.
G3 X-4.2377 Y2.2786 I0.3129 J-0.0645
G1 X-4.2348 Y2.2785
X-4.0618 Y2.2947
G3 X-4.0496 Y2.304 I-0.002 J0.0153
X-4.0696 Y2.3518 I-0.0336 J0.014
X-4.216 Y2.3011 I-0.044 J-0.1096
X-4.2226 Y2.2878 I0.1024 J-0.0589 F50.
G2 X-4.2348 Y2.2785 I-0.0142 J0.0059
G1 X-4.2835 Y2.2739 F60.
G2 X-4.4429 Y2.4339 I0.0343 J0.1935
G1 X-4.4081 Y2.4991
X-4.4009 Y2.5116
X-4.3516 Y2.593
G2 X-4.3379 Y2.6 I0.0129 J-0.0084
X-4.3127 Y2.577 I-0.0015 J-0.0269
X-4.4148 Y2.4425 I-0.1168 J-0.0173
X-4.4295 Y2.4416 I-0.0148 J0.1172 F50.
G3 X-4.4429 Y2.4339 I0. J-0.0154
G1 X-4.4644 Y2.3935 F60.
G3 X-4.4358 Y2.2582 I0.1078 J-0.0479
G1 X-4.4327 Y2.2587
X-4.4298 Y2.2598
X-4.4272 Y2.2614
X-4.425 Y2.2635
X-4.4231 Y2.2658
X-4.4218 Y2.2685
X-4.421 Y2.2713
X-4.4208 Y2.2742
X-4.421 Y2.2771
X-4.4219 Y2.2837
G3 X-4.4384 Y2.3946 I-0.1779 J0.0302
X-4.4644 Y2.3935 I-0.0126 J-0.0088 F50.
G1 X-4.5082 Y2.3114 F60.
G3 X-4.5053 Y2.2531 I0.027 J-0.0279
X-4.4757 Y2.3109 I-0.005 J0.039
X-4.4813 Y2.3173 I-0.0163 J-0.0089
X-4.5082 Y2.3114 I-0.0108 J-0.0152 F50.
X-4.5325 Y2.2558 I0.0205 J-0.0421 F60.
G1 X-4.5323 Y2.2554
X-4.5309 Y2.254
X-4.5305 Y2.2537
X-4.5287 Y2.2529
X-4.5282 Y2.2528
X-4.5182 Y2.252
X-4.2835 Y2.2739
G3 X-4.2725 Y2.2974 I-0.002 J0.0153
G1 X-4.2741 Y2.3 Z-0.1672
X-4.2757 Y2.3024 Z-0.1663
X-4.2771 Y2.3047 Z-0.1649
X-4.2783 Y2.3066 Z-0.163
X-4.2794 Y2.3082 Z-0.1607
X-4.2801 Y2.3094 Z-0.158
X-4.2806 Y2.3102 Z-0.1551
X-4.2808 Y2.3104 Z-0.1521
G0 Z-0.1367
X-2.8966 Y2.4204
G1 Z-0.1521 F50.
X-2.8963 Y2.4203 Z-0.1551
X-2.8955 Y2.4199 Z-0.158
X-2.8942 Y2.4193 Z-0.1607
X-2.8925 Y2.4185 Z-0.163
X-2.8904 Y2.4175 Z-0.1649
X-2.888 Y2.4163 Z-0.1663
X-2.8854 Y2.4151 Z-0.1672
X-2.8826 Y2.4138 Z-0.1675
G3 X-2.8523 Y2.4079 I0.0267 J0.0563
G1 X-2.6411 Y2.4276 F60.
G3 X-2.6079 Y2.4522 I0.0035 J0.0299
G2 X-2.4311 Y2.6233 I0.3798 J-0.2157
G1 X-2.43 Y2.6274
X-2.4277 Y2.6399
X-2.4152 Y2.7744
G3 X-2.4216 Y2.7878 I-0.0154 J0.0009
G1 X-2.4238 Y2.7887 Z-0.1673
X-2.4259 Y2.7896 Z-0.1668
X-2.4279 Y2.7904 Z-0.1659
X-2.4293 Y2.7906 Z-0.1651
X-2.4305 Y2.7907 Z-0.1642
X-2.4325 Y2.7903 Z-0.1623
X-2.4341 Y2.79 Z-0.16
X-2.4353 Y2.7898 Z-0.1575
X-2.436 Y2.7896 Z-0.1549
X-2.4362 Z-0.1521
G0 Z0.4
X-3.5991 Y-1.5508
Z0.1
G3 X-3.5532 Y-1.4118 Z0.0595 I0.0229 J0.0695 F50.
X-3.5991 Y-1.5508 Z0.019 I-0.0229 J-0.0695
X-3.5532 Y-1.4118 Z-0.0216 I0.0229 J0.0695
X-3.5991 Y-1.5508 Z-0.0621 I-0.0229 J-0.0695
X-3.5532 Y-1.4118 Z-0.1026 I0.0229 J0.0695
X-3.5991 Y-1.5508 Z-0.1431 I-0.0229 J-0.0695
X-3.503 Y-1.4813 Z-0.1675 I0.0229 J0.0695
X-3.6493 I-0.0731 J0.
X-3.5032 Y-1.4872 I0.0731 J0.
G1 X-3.503 Y-1.4813
G3 X-3.6588 Y-1.3577 I-0.0819 J0.0568 F60.
G1 X-3.6669 Y-1.363
X-3.6747 Y-1.3689
X-3.6821 Y-1.3752
X-3.689 Y-1.382
X-3.6956 Y-1.3893
X-3.7016 Y-1.3969
X-3.7072 Y-1.4049
X-3.7123 Y-1.4132
X-3.7168 Y-1.4218
X-3.7208 Y-1.4307
X-3.7242 Y-1.4398
X-3.727 Y-1.4492
X-3.7292 Y-1.4586
X-3.7308 Y-1.4682
X-3.7319 Y-1.4779
X-3.7323 Y-1.4876
X-3.7321 Y-1.4974
X-3.7312 Y-1.5071
X-3.7298 Y-1.5167
X-3.7278 Y-1.5262
X-3.7252 Y-1.5356
X-3.7219 Y-1.5448
X-3.7182 Y-1.5538
X-3.7138 Y-1.5625
X-3.7089 Y-1.5709
X-3.7035 Y-1.579
X-3.6976 Y-1.5868
X-3.6913 Y-1.5941
X-3.6844 Y-1.601
X-3.6772 Y-1.6075
X-3.6695 Y-1.6136
X-3.6615 Y-1.6191
X-3.6532 Y-1.6241
X-3.6445 Y-1.6286
X-3.6356 Y-1.6325
X-3.6265 Y-1.6359
X-3.6172 Y-1.6387
X-3.6077 Y-1.6408
X-3.5981 Y-1.6424
X-3.5884 Y-1.6434
X-3.5787 Y-1.6438
X-3.5689 Y-1.6435
X-3.5592 Y-1.6427
X-3.5496 Y-1.6412
X-3.5401 Y-1.6391
X-3.5307 Y-1.6364
X-3.5216 Y-1.6332
X-3.5126 Y-1.6294
X-3.5039 Y-1.625
X-3.4955 Y-1.6201
X-3.4874 Y-1.6146
X-3.4797 Y-1.6087
X-3.4724 Y-1.6023
X-3.4655 Y-1.5954
X-3.459 Y-1.5881
X-3.4531 Y-1.5805
X-3.4476 Y-1.5724
X-3.4426 Y-1.5641
X-3.4381 Y-1.5554
X-3.4343 Y-1.5465
X-3.4309 Y-1.5373
X-3.4282 Y-1.528
X-3.4225 Y-1.5188
X-3.4174 Y-1.5094
X-3.4128 Y-1.4996
X-3.4087 Y-1.4896
X-3.4052 Y-1.4794
X-3.4023 Y-1.469
X-3.4 Y-1.4585
X-3.3983 Y-1.4478
X-3.3973 Y-1.4371
X-3.3968 Y-1.4263
X-3.3969 Y-1.4155
X-3.3977 Y-1.4048
X-3.399 Y-1.3941
X-3.401 Y-1.3835
X-3.4035 Y-1.373
X-3.4067 Y-1.3627
X-3.4104 Y-1.3525
X-3.4147 Y-1.3427
X-3.4196 Y-1.333
X-3.425 Y-1.3237
X-3.4309 Y-1.3147
X-3.4373 Y-1.306
X-3.4442 Y-1.2977
X-3.4515 Y-1.2898
X-3.4593 Y-1.2824
X-3.4675 Y-1.2753
X-3.4761 Y-1.2688
X-3.4851 Y-1.2628
X-3.4943 Y-1.2573
X-3.5039 Y-1.2523
X-3.5137 Y-1.2479
X-3.5238 Y-1.244
X-3.5341 Y-1.2407
X-3.5445 Y-1.238
X-3.5551 Y-1.2359
X-3.5658 Y-1.2345
X-3.5765 Y-1.2336
X-3.5873 Y-1.2333
X-3.5981 Y-1.2336
X-3.6088 Y-1.2346
X-3.6195 Y-1.2361
X-3.6301 Y-1.2383
X-3.6405 Y-1.241
X-3.6508 Y-1.2444
X-3.6608 Y-1.2483
X-3.6706 Y-1.2528
X-3.6801 Y-1.2578
X-3.6894 Y-1.2634
X-3.6983 Y-1.2695
X-3.7068 Y-1.276
X-3.715 Y-1.2831
X-3.7227 Y-1.2906
X-3.7326 Y-1.2974
X-3.742 Y-1.3047
X-3.7511 Y-1.3125
X-3.7598 Y-1.3207
X-3.7681 Y-1.3294
X-3.7759 Y-1.3384
X-3.7832 Y-1.3479
X-3.7901 Y-1.3577
X-3.7965 Y-1.3678
X-3.8023 Y-1.3783
X-3.8076 Y-1.389
X-3.8123 Y-1.4
X-3.8165 Y-1.4112
X-3.8202 Y-1.4226
X-3.8232 Y-1.4342
X-3.8256 Y-1.4459
X-3.8275 Y-1.4577
X-3.8288 Y-1.4696
X-3.8294 Y-1.4815
X-3.8295 Y-1.4935
X-3.8289 Y-1.5054
X-3.8278 Y-1.5174
X-3.826 Y-1.5292
X-3.8237 Y-1.5409
X-3.8207 Y-1.5525
X-3.8172 Y-1.5639
X-3.8131 Y-1.5752
X-3.8085 Y-1.5862
X-3.8033 Y-1.597
X-3.7975 Y-1.6075
X-3.7912 Y-1.6177
X-3.7845 Y-1.6275
X-3.7772 Y-1.637
X-3.7695 Y-1.6462
X-3.7613 Y-1.6549
X-3.7527 Y-1.6632
X-3.7437 Y-1.6711
X-3.7343 Y-1.6784
X-3.7245 Y-1.6853
X-3.7144 Y-1.6918
X-3.704 Y-1.6976
X-3.6933 Y-1.703
X-3.6823 Y-1.7078
X-3.6711 Y-1.712
X-3.6583 Y-1.7157
X-3.6453 Y-1.7188
X-3.6321 Y-1.7213
X-3.6189 Y-1.7232
X-3.6056 Y-1.7244
X-3.5922 Y-1.7251
X-3.5789
X-3.5655 Y-1.7245
X-3.5522 Y-1.7233
X-3.5389 Y-1.7215
X-3.5258 Y-1.7191
X-3.5127 Y-1.7161
X-3.4999 Y-1.7125
X-3.4872 Y-1.7083
X-3.4747 Y-1.7035
X-3.4624 Y-1.6981
X-3.4504 Y-1.6922
X-3.4387 Y-1.6858
X-3.4273 Y-1.6788
X-3.4163 Y-1.6712
X-3.4056 Y-1.6632
X-3.3952 Y-1.6547
X-3.3853 Y-1.6458
X-3.3758 Y-1.6364
X-3.3668 Y-1.6265
X-3.3582 Y-1.6163
X-3.3501 Y-1.6056
X-3.3424 Y-1.5947
X-3.3353 Y-1.5833
X-3.3288 Y-1.5717
X-3.3228 Y-1.5597
X-3.3173 Y-1.5475
X-3.3124 Y-1.5351
X-3.3081 Y-1.5224
X-3.3043 Y-1.5096
X-3.3012 Y-1.4966
X-3.2986 Y-1.4835
X-3.2967 Y-1.4702
X-3.2954 Y-1.4569
X-3.2947 Y-1.4436
X-3.2946 Y-1.4302
X-3.2951 Y-1.4169
X-3.2962 Y-1.4035
X-3.298 Y-1.3903
X-3.3004 Y-1.3771
X-3.3033 Y-1.3641
X-3.3069 Y-1.3512
X-3.311 Y-1.3385
X-3.3158 Y-1.326
X-3.3211 Y-1.3137
X-3.3269 Y-1.3017
X-3.3333 Y-1.2899
X-3.3403 Y-1.2785
X-3.3477 Y-1.2674
X-3.3557 Y-1.2567
X-3.3642 Y-1.2463
X-3.3731 Y-1.2363
X-3.3825 Y-1.2268
X-3.3923 Y-1.2177
X-3.4025 Y-1.2091
X-3.4131 Y-1.2009
X-3.424 Y-1.1932
X-3.4353 Y-1.1861
X-3.4469 Y-1.1795
X-3.4588 Y-1.1734
X-3.471 Y-1.1679
X-3.4834 Y-1.1629
X-3.4961 Y-1.1585
X-3.5089 Y-1.1547
X-3.5219 Y-1.1516
X-3.535 Y-1.149
X-3.5482 Y-1.147
X-3.5615 Y-1.1456
X-3.5749 Y-1.1448
X-3.5882 Y-1.1447
X-3.6016 Y-1.1451
X-3.6149 Y-1.1462
X-3.6282 Y-1.1479
X-3.6414 Y-1.1502
X-3.6544 Y-1.1531
X-3.6673 Y-1.1566
X-3.6801 Y-1.1607
X-3.6926 Y-1.1654
G3 X-3.6727 Y-1.8124 I0.1055 J-0.3206
G1 X-3.6574 Y-1.8155
X-3.642 Y-1.8179
X-3.6265 Y-1.8198
X-3.611 Y-1.821
X-3.5954 Y-1.8216
X-3.5798 Y-1.8215
X-3.5642 Y-1.8209
X-3.5487 Y-1.8196
X-3.5332 Y-1.8177
X-3.5178 Y-1.8152
X-3.5026 Y-1.812
X-3.4874 Y-1.8083
X-3.4725 Y-1.8039
X-3.4577 Y-1.799
X-3.4431 Y-1.7934
X-3.4288 Y-1.7873
X-3.4147 Y-1.7806
X-3.4009 Y-1.7733
X-3.3874 Y-1.7655
X-3.3743 Y-1.7572
X-3.3614 Y-1.7483
X-3.349 Y-1.7389
X-3.3369 Y-1.7291
X-3.3253 Y-1.7187
X-3.314 Y-1.7079
X-3.3032 Y-1.6967
X-3.2929 Y-1.685
X-3.283 Y-1.6729
X-3.2737 Y-1.6605
X-3.2648 Y-1.6477
X-3.2565 Y-1.6345
X-3.2487 Y-1.621
X-3.2414 Y-1.6072
X-3.2347 Y-1.5931
X-3.2286 Y-1.5788
X-3.2231 Y-1.5642
X-3.2181 Y-1.5494
X-3.2138 Y-1.5344
X-3.2101 Y-1.5193
X-3.2069 Y-1.504
X-3.2044 Y-1.4887
X-3.2025 Y-1.4732
X-3.2012 Y-1.4577
X-3.2006 Y-1.4421
Y-1.4265
X-3.2012 Y-1.4109
X-3.2024 Y-1.3954
X-3.2042 Y-1.3799
X-3.2067 Y-1.3645
X-3.2098 Y-1.3492
X-3.2135 Y-1.3341
X-3.2178 Y-1.3191
X-3.2227 Y-1.3043
X-3.2282 Y-1.2897
X-3.2343 Y-1.2754
X-3.2409 Y-1.2613
X-3.2481 Y-1.2475
X-3.2559 Y-1.2339
X-3.2642 Y-1.2207
X-3.273 Y-1.2079
X-3.2823 Y-1.1954
X-3.2922 Y-1.1833
X-3.3025 Y-1.1716
X-3.3132 Y-1.1603
X-3.3244 Y-1.1495
X-3.3361 Y-1.1391
X-3.3481 Y-1.1292
X-3.3605 Y-1.1198
X-3.3733 Y-1.1109
X-3.3865 Y-1.1025
X-3.3999 Y-1.0947
X-3.4137 Y-1.0874
X-3.4278 Y-1.0806
X-3.4421 Y-1.0745
X-3.4566 Y-1.0689
X-3.4714 Y-1.0639
X-3.4864 Y-1.0595
X-3.5015 Y-1.0557
X-3.5167 Y-1.0525
X-3.5321 Y-1.0499
X-3.5476 Y-1.048
X-3.5631 Y-1.0467
X-3.5787 Y-1.0459
X-3.5943
X-3.6098 Y-1.0464
X-3.6254 Y-1.0476
X-3.6409 Y-1.0494
X-3.6563 Y-1.0518
X-3.6716 Y-1.0548
X-3.6867 Y-1.0585
X-3.7017 Y-1.0627
X-3.7165 Y-1.0676
X-3.7311 Y-1.073
X-3.7455 Y-1.0791
X-3.7596 Y-1.0857
X-3.7735 Y-1.0928
X-3.787 Y-1.1005
X-3.8002 Y-1.1088
X-3.8131 Y-1.1176
X-3.8256 Y-1.1268
X-3.8378 Y-1.1366
X-3.8495 Y-1.1469
X-3.8608 Y-1.1576
G3 X-4.0194 Y-1.4781 I0.2298 J-0.3132
X-3.1299 Y-1.5514 I0.4479 J0.0009
X-3.1081 Y-1.3802 I-0.2873 J0.1236
G1 X-3.1808 Y-1.2047
X-3.1884 Y-1.185
X-3.1967 Y-1.1706
X-3.2056 Y-1.1565
X-3.215 Y-1.1428
X-3.2249 Y-1.1294
X-3.2352 Y-1.1163
X-3.2461 Y-1.1037
X-3.2573 Y-1.0914
X-3.269 Y-1.0795
X-3.2812 Y-1.0681
X-3.2937 Y-1.0572
X-3.3066 Y-1.0466
X-3.3199 Y-1.0366
X-3.3336 Y-1.0271
X-3.3476 Y-1.018
X-3.3619 Y-1.0095
X-3.3765 Y-1.0015
X-3.3914 Y-0.994
X-3.4065 Y-0.9871
X-3.4219 Y-0.9807
X-3.4375 Y-0.9749
X-3.4533 Y-0.9696
X-3.4693 Y-0.9649
X-3.4854 Y-0.9608
X-3.5017 Y-0.9573
X-3.5181 Y-0.9544
X-3.5346 Y-0.9521
X-3.5512 Y-0.9504
X-3.5678 Y-0.9493
X-3.5844 Y-0.9487
X-3.6011 Y-0.9488
X-3.6177 Y-0.9495
X-3.6344 Y-0.9508
X-3.6509 Y-0.9527
X-3.6674 Y-0.9552
X-3.6837 Y-0.9583
X-3.7 Y-0.9619
X-3.7161 Y-0.9662
X-3.732 Y-0.971
X-3.7478 Y-0.9764
X-3.7633 Y-0.9824
X-3.7786 Y-0.9889
X-4.0724 Y-1.3418
X-4.0787 Y-1.3572
X-4.0845 Y-1.3729
X-4.0897 Y-1.3889
X-4.0943 Y-1.4049
X-4.0984 Y-1.4212
X-4.1018 Y-1.4376
X-4.1046 Y-1.4541
X-4.1068 Y-1.4706
X-4.1085 Y-1.4873
X-4.1095 Y-1.504
X-4.1098 Y-1.5207
X-4.1096 Y-1.5375
X-4.1088 Y-1.5542
X-4.1074 Y-1.5708
X-4.1053 Y-1.5875
X-4.1026 Y-1.604
X-4.0994 Y-1.6204
X-4.0955 Y-1.6367
X-4.0911 Y-1.6528
X-4.086 Y-1.6688
X-4.0804 Y-1.6845
X-4.0742 Y-1.7001
X-4.0675 Y-1.7154
X-4.0602 Y-1.7304
X-4.0523 Y-1.7452
X-4.0439 Y-1.7597
X-4.035 Y-1.7738
X-4.0256 Y-1.7877
X-4.0156 Y-1.8011
X-4.0052 Y-1.8142
X-3.9943 Y-1.8269
X-3.983 Y-1.8392
X-3.9712 Y-1.8511
X-3.959 Y-1.8625
X-3.9464 Y-1.8735
X-3.9334 Y-1.884
X-3.92 Y-1.8941
X-3.9062 Y-1.9036
X-3.8921 Y-1.9126
X-3.8859 Y-1.9241
X-3.8844 Y-1.925
X-3.8827 Y-1.9256
X-3.881 Y-1.9259
X-3.4154 Y-1.9695
G3 X-3.0417 Y-1.6269 I-0.0898 J0.4731
X-3.0238 Y-1.5545 I-0.0754 J0.0571
G1 X-3.0909 Y-1.4197
X-3.1014 Y-1.3962
X-3.1081 Y-1.3802
G3 X-3.1206 Y-1.3713 I-0.014 J-0.0064
X-3.1436 Y-1.3854 I-0.0022 J-0.0223
X-3.0516 Y-1.5451 I0.11 J-0.043
X-3.0369 Y-1.5465 I0.018 J0.1167 F50.
G2 X-3.0238 Y-1.5545 I-0.0004 J-0.0154
G1 X-2.9931 Y-1.6161 F60.
G2 X-3.1787 Y-1.9689 I-0.3408 J-0.0459
G1 X-3.1908 Y-1.9879
X-3.193 Y-1.9891
X-3.1954 Y-1.9898
X-3.1979
X-3.4154 Y-1.9695
G2 X-3.4276 Y-1.9602 I0.002 J0.0153
X-3.3904 Y-1.8878 I0.0491 J0.0205
X-3.2165 Y-1.9671 I0.035 J-0.1535
X-3.2101 Y-1.9805 I-0.1389 J-0.0742 F50.
G3 X-3.1979 Y-1.9898 I0.0142 J0.0059
G1 X-3.1338 Y-1.9958 F60.
G3 X-2.905 Y-1.7668 I-0.0617 J0.2905
G1 X-2.9849 Y-1.6309
X-2.9931 Y-1.6161
G3 X-3.0065 Y-1.6087 I-0.0132 J-0.0079
X-3.0416 Y-1.6456 I0.0006 J-0.0357
X-2.9334 Y-1.7593 I0.118 J0.004
X-2.9186 Y-1.7596 I0.0099 J0.1177 F50.
G2 X-2.905 Y-1.7668 I0.0006 J-0.0154
G1 X-2.8814 Y-1.8069 F60.
G2 X-2.9532 Y-2.0127 I-0.1756 J-0.0542
G1 X-3.1338 Y-1.9958
G2 X-3.1461 Y-1.9865 I0.002 J0.0153
X-3.1321 Y-1.946 I0.0297 J0.0124
X-2.972 Y-1.9902 I0.0577 J-0.1031
X-2.9655 Y-2.0034 I-0.1024 J-0.0589 F50.
G3 X-2.9532 Y-2.0127 I0.0142 J0.0059
G1 X-2.9098 Y-2.0168 F60.
G3 X-2.7979 Y-1.9288 I-0.0011 J0.1165
G1 X-2.7998 Y-1.9264
X-2.8021 Y-1.9245
X-2.8046 Y-1.923
X-2.8074 Y-1.922
X-2.8103 Y-1.9215
X-2.8131 Y-1.9216
X-2.8159 Y-1.9221
X-2.8185 Y-1.9231
X-2.8209 Y-1.9246
X-2.8271 Y-1.9288
X-2.9164 Y-1.9888
X-2.9188 Y-1.9908
X-2.9208 Y-1.9933
G3 X-2.9098 Y-2.0168 I0.013 J-0.0082 F50.
G1 X-2.8217 Y-2.0251 F60.
G3 X-2.7572 Y-1.9906 I0.0171 J0.0455
X-2.7726 Y-1.9846 I-0.0124 J-0.0091
G1 X-2.7858 Y-1.9873
X-2.8228 Y-1.9947
G3 X-2.8328 Y-2.0015 I0.003 J-0.0151
X-2.8217 Y-2.0251 I0.013 J-0.0082 F50.
G1 X-2.7535 Y-2.0314 F60.
X-2.753
X-2.7453 Y-2.0307
X-2.742 Y-2.0304
X-2.7409 Y-2.0298
X-2.74 Y-2.0293
X-2.7394 Y-2.0288
X-2.7384 Y-2.0276
X-2.7381 Y-2.0269
X-2.7376 Y-2.0254
G3 X-2.7464 Y-2.0063 I-0.0253 J-0.0001
G1 X-2.859 Y-1.8421
X-2.8745 Y-1.8186
X-2.8814 Y-1.8069
G3 X-2.9074 I-0.013 J-0.0083
G1 X-2.909 Y-1.8094 Z-0.1672
X-2.9105 Y-1.8118 Z-0.1663
X-2.912 Y-1.8141 Z-0.1649
X-2.9132 Y-1.816 Z-0.163
X-2.9143 Y-1.8177 Z-0.1607
X-2.915 Y-1.8189 Z-0.158
X-2.9155 Y-1.8196 Z-0.1551
X-2.9156 Y-1.8199 Z-0.1521
G0 Z-0.1367
X-3.8367 Y-1.9134
G1 Z-0.1521 F50.
X-3.837 Y-1.9135 Z-0.1551
X-3.8378 Y-1.9139 Z-0.158
X-3.8391 Y-1.9145 Z-0.1607
X-3.8408 Y-1.9153 Z-0.163
X-3.8429 Y-1.9163 Z-0.1649
X-3.8453 Y-1.9175 Z-0.1663
X-3.8479 Y-1.9187 Z-0.1672
X-3.8507 Y-1.92 Z-0.1675
G2 X-3.881 Y-1.9259 I-0.0267 J0.0563
G1 X-3.9785 Y-1.9168 F60.
G2 X-4.2078 Y-1.5604 I0.1647 J0.3579
X-4.2085 Y-1.506 I0.0484 J0.0278
G1 X-4.0724 Y-1.3418
G2 X-4.0578 Y-1.3369 I0.0115 J-0.0102
X-4.0193 Y-1.413 I-0.0109 J-0.0533
X-4.1793 Y-1.5035 I-0.1429 J0.0661
X-4.1939 Y-1.5012 I0.017 J0.1566 F50.
G3 X-4.2085 Y-1.506 I-0.0031 J-0.0151
G1 X-4.2537 Y-1.5605 F60.
G3 X-4.1702 Y-1.8988 I0.3236 J-0.0996
G1 X-3.9785 Y-1.9168
G3 X-3.9648 Y-1.9099 I0.0009 J0.0154
X-3.9661 Y-1.8826 I-0.0193 J0.0127
X-4.1476 Y-1.8801 I-0.0918 J-0.0744
X-4.1565 Y-1.8919 I0.0897 J-0.0769 F50.
G2 X-4.1702 Y-1.8988 I-0.0129 J0.0085
G1 X-4.2261 Y-1.8936 F60.
G2 X-4.3653 Y-1.6952 I0.075 J0.2007
G1 X-4.2537 Y-1.5605
G2 X-4.2391 Y-1.5556 I0.0115 J-0.0102
X-4.2111 Y-1.5977 I-0.0072 J-0.0351
X-4.336 Y-1.6924 I-0.1158 J0.0231
X-4.3507 Y-1.6903 I0.0091 J0.1178 F50.
G3 X-4.3653 Y-1.6952 I-0.0031 J-0.0151
G1 X-4.3959 Y-1.7321 F60.
G3 X-4.3862 Y-1.8799 I0.1086 J-0.0671
G1 X-4.383
X-4.3799 Y-1.8793
X-4.377 Y-1.8782
X-4.3744 Y-1.8765
X-4.3722 Y-1.8744
X-4.3705 Y-1.8719
X-4.3692 Y-1.8691
X-4.3686 Y-1.8663
X-4.3684 Y-1.8633
X-4.3685 Y-1.8575
X-4.369 Y-1.7423
X-4.3693 Y-1.7392
X-4.3702 Y-1.7362
G3 X-4.3959 Y-1.7321 I-0.0141 J-0.0061 F50.
G1 X-4.4535 Y-1.8016 F60.
G3 X-4.4631 Y-1.8714 I0.0212 J-0.0385
X-4.4481 Y-1.8624 I0.0009 J0.0154
G1 X-4.443 Y-1.8511
X-4.428 Y-1.8182
G3 X-4.4278 Y-1.8057 I-0.014 J0.0064
X-4.4535 Y-1.8016 I-0.0141 J-0.0061 F50.
X-4.4985 Y-1.861 I0.0277 J-0.0677 F60.
G1 X-4.4981 Y-1.8631
X-4.497 Y-1.8647
X-4.4966 Y-1.8652
X-4.4954 Y-1.8661
X-4.4947 Y-1.8665
X-4.4844 Y-1.8694
X-4.2261 Y-1.8936
G3 X-4.2108 Y-1.8725 I0.0009 J0.0154
G1 X-4.212 Y-1.8697 Z-0.1672
X-4.213 Y-1.8671 Z-0.1663
X-4.214 Y-1.8646 Z-0.1649
X-4.2149 Y-1.8624 Z-0.163
X-4.2156 Y-1.8606 Z-0.1607
X-4.2161 Y-1.8593 Z-0.158
X-4.2164 Y-1.8585 Z-0.1551
X-4.2165 Y-1.8582 Z-0.1521
G0 Z-0.1367
X-3.7937 Y-1.0315
G1 Z-0.1521 F50.
Y-1.0312 Z-0.1551
X-3.7935 Y-1.0304 Z-0.158
X-3.7933 Y-1.029 Z-0.1607
X-3.793 Y-1.0271 Z-0.163
X-3.7927 Y-1.0248 Z-0.1649
X-3.7922 Y-1.0221 Z-0.1663
X-3.7918 Y-1.0193 Z-0.1672
X-3.7913 Y-1.0163 Z-0.1675
G2 X-3.7791 Y-0.9879 I0.0616 J-0.0097
G1 X-3.7204 Y-0.9171 F60.
G2 X-3.3562 Y-0.9105 I0.1868 J-0.2562
X-3.2637 Y-0.9573 I0.0054 J-0.1041
G1 X-3.2591 Y-0.9738
X-3.1884 Y-1.185
G2 X-3.1919 Y-1.2 I-0.0148 J-0.0044
X-3.2652 Y-1.2028 I-0.0381 J0.036
X-3.2783 Y-0.9827 I0.1057 J0.1167
X-3.2681 Y-0.972 I0.1188 J-0.1034 F50.
G3 X-3.2637 Y-0.9573 I-0.0106 J0.0112
G1 X-3.2657 Y-0.9504 F60.
X-3.2812 Y-0.8905
G3 X-3.5959 Y-0.7669 I-0.2575 J-0.1931
G1 X-3.7204 Y-0.9171
G3 X-3.7225 Y-0.9324 I0.0122 J-0.0094
X-3.703 Y-0.945 I0.0188 J0.0077
X-3.5932 Y-0.7962 I-0.0043 J0.118
X-3.598 Y-0.7821 I-0.114 J-0.0308 F50.
G2 X-3.5959 Y-0.7669 I0.0142 J0.0058
G1 X-3.5646 Y-0.7291 F60.
G2 X-3.3232 Y-0.7245 I0.1237 J-0.158
G3 X-3.2812 Y-0.8905 I1.2752 J0.2341
G2 X-3.2858 Y-0.9052 I-0.015 J-0.0033
X-3.3527 Y-0.8975 I-0.0301 J0.0328
X-3.3397 Y-0.7487 I0.0977 J0.0664
X-3.3288 Y-0.7388 I0.0847 J-0.0823 F50.
G3 X-3.3232 Y-0.7245 I-0.0096 J0.012
G1 X-3.3305 Y-0.6851 F60.
X-3.3336 Y-0.6769
X-3.3373 Y-0.669
X-3.3415 Y-0.6613
X-3.3462 Y-0.6539
X-3.3515 Y-0.6469
X-3.3572 Y-0.6402
X-3.3634 Y-0.634
X-3.37 Y-0.6282
X-3.377 Y-0.623
X-3.3844 Y-0.6182
X-3.3921 Y-0.6139
X-3.4 Y-0.6103
X-3.4082 Y-0.6071
X-3.4167 Y-0.6046
X-3.4252 Y-0.6027
X-3.4339 Y-0.6014
X-3.4426 Y-0.6007
X-3.4514 Y-0.6006
X-3.4602 Y-0.6011
X-3.4619 Y-0.6037
X-3.4631 Y-0.6065
X-3.4638 Y-0.6094
X-3.4639 Y-0.6124
X-3.4635 Y-0.6154
X-3.4625 Y-0.6182
X-3.4611 Y-0.6207
X-3.4592 Y-0.6229
X-3.4569 Y-0.6247
X-3.4518 Y-0.6285
X-3.3549 Y-0.6998
X-3.3526 Y-0.7012
X-3.3501 Y-0.7022
G3 X-3.3305 Y-0.6851 I0.0044 J0.0148 F50.
G1 X-3.3467 Y-0.5984 F60.
G3 X-3.4072 Y-0.5392 I-0.0643 J-0.0052
X-3.408 Y-0.5568 I0.0122 J-0.0094
G1 X-3.4015 Y-0.567
X-3.3749 Y-0.6089
G3 X-3.3663 Y-0.6154 I0.013 J0.0083
X-3.3467 Y-0.5984 I0.0044 J0.0148 F50.
G1 X-3.3598 Y-0.528 F60.
X-3.3612 Y-0.5215
X-3.3615 Y-0.5199
X-3.3617 Y-0.5188
X-3.3628 Y-0.5147
X-3.3629 Y-0.5144
G3 X-3.3663 Y-0.5113 I-0.0049 J-0.0019
X-3.373 Y-0.5177 I-0.0015 J-0.0051 F50.
G1 X-3.3721 Y-0.5211
G3 X-3.3617 Y-0.5188 I0.0051 J0.0014
G1 X-3.3623 Y-0.5163 F60.
X-3.3633 Y-0.5132
X-3.3639 Y-0.5117
X-3.3644 Y-0.5104
X-3.3666 Y-0.5049
X-3.368
X-3.3707 Y-0.5062 Z-0.1672
X-3.3733 Y-0.5074 Z-0.1663
X-3.3757 Y-0.5085 Z-0.1649
X-3.3778 Y-0.5096 Z-0.163
X-3.3796 Y-0.5104 Z-0.1607
X-3.3809 Y-0.511 Z-0.158
X-3.3816 Y-0.5114 Z-0.1551
X-3.3819 Y-0.5115 Z-0.1521
G0 Z0.4
X-3.3656 Y-0.5564
Z-0.1367
G1 Z-0.1521 F50.
Y-0.5561 Z-0.1551
X-3.3654 Y-0.5552 Z-0.158
X-3.3651 Y-0.5538 Z-0.1607
X-3.3647 Y-0.5519 Z-0.163
X-3.3643 Y-0.5497 Z-0.1649
X-3.3638 Y-0.547 Z-0.1663
X-3.3632 Y-0.5442 Z-0.1672
X-3.3626 Y-0.5413 Z-0.1675
G3 X-3.3644 Y-0.5104 I-0.0611 J0.0121
G1 X-3.3659 Y-0.506 F60.
X-3.3663 Y-0.5053
X-3.3677 Y-0.5037
X-3.3694 Y-0.5028
X-3.3699 Y-0.5026
X-3.3718 Y-0.5025
X-3.3723
G3 X-3.3836 Y-0.5107 I0.0057 J-0.0197
G1 X-3.5646 Y-0.7291
G3 X-3.5668 Y-0.7438 I0.0122 J-0.0094
G1 X-3.5655 Y-0.7458 Z-0.1673
X-3.5643 Y-0.7477 Z-0.1668
X-3.5631 Y-0.7495 Z-0.1659
X-3.5613 Y-0.7506 Z-0.1645
X-3.5597 Y-0.7516 Z-0.1629
X-3.5583 Y-0.7524 Z-0.161
X-3.5572 Y-0.7531 Z-0.1589
X-3.5564 Y-0.7533 Z-0.1567
X-3.5559 Y-0.7535 Z-0.1544
X-3.5557 Z-0.1521
G0 Z0.4
X-3.5991 Y1.4118
Z0.1
G3 X-3.5532 Y1.5507 Z0.0595 I0.0229 J0.0695 F50.
X-3.5991 Y1.4118 Z0.019 I-0.0229 J-0.0695
X-3.5532 Y1.5507 Z-0.0216 I0.0229 J0.0695
X-3.5991 Y1.4118 Z-0.0621 I-0.0229 J-0.0695
X-3.5532 Y1.5507 Z-0.1026 I0.0229 J0.0695
X-3.5991 Y1.4118 Z-0.1431 I-0.0229 J-0.0695
X-3.503 Y1.4813 Z-0.1675 I0.0229 J0.0695
X-3.6493 I-0.0731 J0.
X-3.5032 Y1.4753 I0.0731 J0.
G1 X-3.503 Y1.4813
G3 X-3.6588 Y1.6049 I-0.0819 J0.0568 F60.
G1 X-3.6669 Y1.5995
X-3.6747 Y1.5937
X-3.6821 Y1.5873
X-3.6891 Y1.5805
X-3.6956 Y1.5733
X-3.7016 Y1.5657
X-3.7072 Y1.5577
X-3.7123 Y1.5494
X-3.7168 Y1.5407
X-3.7208 Y1.5319
X-3.7242 Y1.5227
X-3.727 Y1.5134
X-3.7292 Y1.5039
X-3.7308 Y1.4943
X-3.7319 Y1.4847
X-3.7323 Y1.4749
X-3.7321 Y1.4652
X-3.7312 Y1.4555
X-3.7298 Y1.4459
X-3.7278 Y1.4363
X-3.7252 Y1.427
X-3.7219 Y1.4178
X-3.7182 Y1.4088
X-3.7138 Y1.4001
X-3.7089 Y1.3917
X-3.7035 Y1.3836
X-3.6976 Y1.3758
X-3.6913 Y1.3685
X-3.6844 Y1.3615
X-3.6772 Y1.355
X-3.6695 Y1.349
X-3.6615 Y1.3435
X-3.6532 Y1.3385
X-3.6445 Y1.334
X-3.6356 Y1.33
X-3.6265 Y1.3267
X-3.6172 Y1.3239
X-3.6077 Y1.3217
X-3.5981 Y1.3201
X-3.5884 Y1.3192
X-3.5787 Y1.3188
X-3.5689 Y1.3191
X-3.5592 Y1.3199
X-3.5496 Y1.3214
X-3.5401 Y1.3235
X-3.5307 Y1.3261
X-3.5216 Y1.3294
X-3.5126 Y1.3332
X-3.5039 Y1.3376
X-3.4955 Y1.3425
X-3.4874 Y1.3479
X-3.4797 Y1.3539
X-3.4724 Y1.3603
X-3.4655 Y1.3671
X-3.459 Y1.3744
X-3.4531 Y1.3821
X-3.4476 Y1.3901
X-3.4426 Y1.3985
X-3.4381 Y1.4072
X-3.4343 Y1.4161
X-3.4309 Y1.4252
X-3.4282 Y1.4346
X-3.4225 Y1.4437
X-3.4174 Y1.4532
X-3.4128 Y1.463
X-3.4087 Y1.473
X-3.4052 Y1.4832
X-3.4023 Y1.4936
X-3.4 Y1.5041
X-3.3983 Y1.5148
X-3.3973 Y1.5255
X-3.3968 Y1.5363
X-3.3969 Y1.547
X-3.3977 Y1.5578
X-3.399 Y1.5685
X-3.401 Y1.5791
X-3.4035 Y1.5896
X-3.4067 Y1.5999
X-3.4104 Y1.61
X-3.4147 Y1.6199
X-3.4196 Y1.6296
X-3.425 Y1.6389
X-3.4309 Y1.6479
X-3.4373 Y1.6566
X-3.4442 Y1.6649
X-3.4516 Y1.6728
X-3.4593 Y1.6802
X-3.4675 Y1.6872
X-3.4761 Y1.6937
X-3.4851 Y1.6998
X-3.4943 Y1.7053
X-3.5039 Y1.7103
X-3.5137 Y1.7147
X-3.5238 Y1.7185
X-3.5341 Y1.7218
X-3.5445 Y1.7245
X-3.5551 Y1.7266
X-3.5658 Y1.7281
X-3.5765 Y1.729
X-3.5873 Y1.7293
X-3.5981 Y1.7289
X-3.6088 Y1.728
X-3.6195 Y1.7264
X-3.6301 Y1.7243
X-3.6405 Y1.7215
X-3.6508 Y1.7182
X-3.6608 Y1.7143
X-3.6706 Y1.7098
X-3.6801 Y1.7047
X-3.6894 Y1.6992
X-3.6983 Y1.6931
X-3.7068 Y1.6865
X-3.715 Y1.6795
X-3.7227 Y1.672
X-3.7326 Y1.6652
X-3.742 Y1.6578
X-3.7511 Y1.6501
X-3.7598 Y1.6418
X-3.7681 Y1.6332
X-3.7759 Y1.6241
X-3.7832 Y1.6147
X-3.7901 Y1.6049
X-3.7965 Y1.5947
X-3.8023 Y1.5843
X-3.8076 Y1.5736
X-3.8123 Y1.5626
X-3.8165 Y1.5514
X-3.8202 Y1.54
X-3.8232 Y1.5284
X-3.8256 Y1.5167
X-3.8275 Y1.5049
X-3.8288 Y1.493
X-3.8294 Y1.481
X-3.8295 Y1.4691
X-3.8289 Y1.4571
X-3.8278 Y1.4452
X-3.826 Y1.4334
X-3.8237 Y1.4217
X-3.8207 Y1.4101
X-3.8172 Y1.3986
X-3.8131 Y1.3874
X-3.8085 Y1.3764
X-3.8033 Y1.3656
X-3.7975 Y1.3551
X-3.7912 Y1.3449
X-3.7845 Y1.335
X-3.7772 Y1.3255
X-3.7695 Y1.3164
X-3.7613 Y1.3077
X-3.7527 Y1.2994
X-3.7437 Y1.2915
X-3.7343 Y1.2841
X-3.7245 Y1.2772
X-3.7144 Y1.2708
X-3.704 Y1.2649
X-3.6933 Y1.2596
X-3.6823 Y1.2548
X-3.6711 Y1.2505
X-3.6583 Y1.2468
X-3.6453 Y1.2438
X-3.6321 Y1.2413
X-3.6189 Y1.2394
X-3.6056 Y1.2381
X-3.5922 Y1.2375
X-3.5789 Y1.2374
X-3.5655 Y1.238
X-3.5522 Y1.2392
X-3.5389 Y1.241
X-3.5258 Y1.2435
X-3.5128 Y1.2465
X-3.4999 Y1.2501
X-3.4872 Y1.2543
X-3.4747 Y1.2591
X-3.4624 Y1.2644
X-3.4505 Y1.2704
X-3.4387 Y1.2768
X-3.4273 Y1.2838
X-3.4163 Y1.2913
X-3.4056 Y1.2993
X-3.3953 Y1.3078
X-3.3853 Y1.3168
X-3.3758 Y1.3262
X-3.3668 Y1.336
X-3.3582 Y1.3463
X-3.3501 Y1.3569
X-3.3425 Y1.3679
X-3.3354 Y1.3792
X-3.3288 Y1.3909
X-3.3228 Y1.4028
X-3.3173 Y1.415
X-3.3124 Y1.4275
X-3.3081 Y1.4401
X-3.3043 Y1.453
X-3.3012 Y1.466
X-3.2986 Y1.4791
X-3.2967 Y1.4923
X-3.2954 Y1.5056
X-3.2947 Y1.519
X-3.2946 Y1.5324
X-3.2951 Y1.5457
X-3.2962 Y1.559
X-3.298 Y1.5723
X-3.3004 Y1.5855
X-3.3033 Y1.5985
X-3.3069 Y1.6114
X-3.311 Y1.6241
X-3.3158 Y1.6366
X-3.3211 Y1.6489
X-3.3269 Y1.6609
X-3.3333 Y1.6726
X-3.3403 Y1.6841
X-3.3478 Y1.6952
X-3.3557 Y1.7059
X-3.3642 Y1.7163
X-3.3731 Y1.7262
X-3.3825 Y1.7358
X-3.3923 Y1.7449
X-3.4025 Y1.7535
X-3.4131 Y1.7617
X-3.424 Y1.7693
X-3.4353 Y1.7765
X-3.4469 Y1.7831
X-3.4588 Y1.7892
X-3.471 Y1.7947
X-3.4834 Y1.7996
X-3.4961 Y1.804
X-3.5089 Y1.8078
X-3.5219 Y1.811
X-3.535 Y1.8136
X-3.5482 Y1.8156
X-3.5615 Y1.817
X-3.5749 Y1.8178
X-3.5882 Y1.8179
X-3.6016 Y1.8174
X-3.6149 Y1.8164
X-3.6282 Y1.8147
X-3.6414 Y1.8124
X-3.6544 Y1.8094
X-3.6673 Y1.8059
X-3.6801 Y1.8018
X-3.6926 Y1.7972
G3 X-3.6727 Y1.1502 I0.1055 J-0.3206
G1 X-3.6574 Y1.1471
X-3.642 Y1.1446
X-3.6265 Y1.1428
X-3.611 Y1.1416
X-3.5954 Y1.141
X-3.5798
X-3.5642 Y1.1417
X-3.5487 Y1.143
X-3.5332 Y1.1449
X-3.5178 Y1.1474
X-3.5026 Y1.1505
X-3.4874 Y1.1543
X-3.4725 Y1.1587
X-3.4577 Y1.1636
X-3.4431 Y1.1692
X-3.4288 Y1.1753
X-3.4147 Y1.182
X-3.4009 Y1.1892
X-3.3874 Y1.197
X-3.3743 Y1.2054
X-3.3614 Y1.2143
X-3.349 Y1.2236
X-3.3369 Y1.2335
X-3.3253 Y1.2438
X-3.314 Y1.2546
X-3.3032 Y1.2659
X-3.2929 Y1.2776
X-3.283 Y1.2896
X-3.2737 Y1.3021
X-3.2648 Y1.3149
X-3.2565 Y1.3281
X-3.2487 Y1.3416
X-3.2414 Y1.3554
X-3.2347 Y1.3695
X-3.2286 Y1.3838
X-3.2231 Y1.3984
X-3.2181 Y1.4132
X-3.2138 Y1.4281
X-3.2101 Y1.4433
X-3.2069 Y1.4585
X-3.2044 Y1.4739
X-3.2025 Y1.4894
X-3.2012 Y1.5049
X-3.2006 Y1.5205
Y1.5361
X-3.2012 Y1.5517
X-3.2024 Y1.5672
X-3.2043 Y1.5827
X-3.2067 Y1.5981
X-3.2098 Y1.6133
X-3.2135 Y1.6285
X-3.2178 Y1.6435
X-3.2227 Y1.6583
X-3.2282 Y1.6728
X-3.2343 Y1.6872
X-3.2409 Y1.7013
X-3.2482 Y1.7151
X-3.2559 Y1.7286
X-3.2642 Y1.7418
X-3.273 Y1.7547
X-3.2824 Y1.7672
X-3.2922 Y1.7793
X-3.3025 Y1.791
X-3.3132 Y1.8023
X-3.3244 Y1.8131
X-3.3361 Y1.8235
X-3.3481 Y1.8334
X-3.3605 Y1.8428
X-3.3733 Y1.8517
X-3.3865 Y1.86
X-3.4 Y1.8679
X-3.4137 Y1.8752
X-3.4278 Y1.8819
X-3.4421 Y1.8881
X-3.4566 Y1.8937
X-3.4714 Y1.8987
X-3.4864 Y1.9031
X-3.5015 Y1.9069
X-3.5167 Y1.9101
X-3.5321 Y1.9126
X-3.5476 Y1.9146
X-3.5631 Y1.9159
X-3.5787 Y1.9166
X-3.5943 Y1.9167
X-3.6098 Y1.9161
X-3.6254 Y1.915
X-3.6409 Y1.9132
X-3.6563 Y1.9108
X-3.6716 Y1.9077
X-3.6867 Y1.9041
X-3.7017 Y1.8998
X-3.7165 Y1.895
X-3.7311 Y1.8895
X-3.7455 Y1.8835
X-3.7596 Y1.8769
X-3.7735 Y1.8697
X-3.787 Y1.862
X-3.8002 Y1.8538
X-3.8131 Y1.845
X-3.8256 Y1.8357
X-3.8378 Y1.826
X-3.8495 Y1.8157
X-3.8608 Y1.805
G3 X-4.0194 Y1.4844 I0.2298 J-0.3132
X-3.1299 Y1.4111 I0.4479 J0.0009
G1 X-3.125 Y1.4271
X-3.1207 Y1.4432
X-3.1171 Y1.4595
X-3.114 Y1.4759
X-3.1116 Y1.4924
X-3.1097 Y1.509
X-3.1085 Y1.5256
X-3.108 Y1.5423
Y1.559
X-3.1087 Y1.5756
X-3.11 Y1.5923
X-3.1119 Y1.6089
X-3.1145 Y1.6253
X-3.1176 Y1.6417
X-3.1214 Y1.658
X-3.1258 Y1.6741
X-3.1307 Y1.69
X-3.1363 Y1.7057
X-3.1424 Y1.7212
X-3.1492 Y1.7365
X-3.1565 Y1.7515
X-3.1643 Y1.7662
X-3.1727 Y1.7806
X-3.1816 Y1.7947
X-3.1911 Y1.8085
X-3.201 Y1.8219
X-3.2115 Y1.8349
X-3.2224 Y1.8475
X-3.2338 Y1.8596
X-3.2457 Y1.8714
X-3.2579 Y1.8827
X-3.2706 Y1.8935
X-3.2837 Y1.9039
X-3.2972 Y1.9137
X-3.311 Y1.923
X-3.3252 Y1.9319
X-3.3397 Y1.9401
X-3.3544 Y1.9479
X-3.3695 Y1.955
G3 X-3.3984 Y1.9711 I-0.0305 J-0.0209
G1 X-3.8143 Y1.9321
G3 X-4.1159 Y1.4609 I0.1565 J-0.4323
X-4.1057 Y1.382 I0.1211 J-0.0244
G1 X-3.8143 Y1.0304
G3 X-3.3312 Y0.9992 I0.2648 J0.3445
X-3.2269 Y1.0701 I-0.0371 J0.1667
G1 X-3.1884 Y1.185
X-3.1808 Y1.2047
X-3.1014 Y1.3962
X-3.0909 Y1.4197
X-3.04 Y1.5219
G3 X-3.2108 Y1.9692 I-0.4372 J0.0892
X-3.2368 Y1.9862 I-0.0286 J-0.0152
G1 X-3.3984 Y1.9711
G3 X-3.4106 Y1.9618 I0.002 J-0.0153
X-3.3815 Y1.9067 I0.0371 J-0.0155
X-3.2555 Y1.9636 I0.0235 J0.1157
X-3.249 Y1.9769 I-0.1024 J0.0589 F50.
G2 X-3.2368 Y1.9862 I0.0142 J-0.0059
G1 X-3.1808 Y1.9914 F60.
G2 X-2.9521 Y1.7363 I-0.0502 J-0.275
X-2.9399 Y1.7074 I-0.0081 J-0.0205
G1 X-2.9849 Y1.6309
X-2.9931 Y1.6161
X-3.04 Y1.5219
G2 X-3.0683 Y1.5249 I-0.0135 J0.0073
X-3.0718 Y1.5645 I0.0959 J0.0284
X-2.9676 Y1.6955 I0.1565 J-0.0175
X-2.9495 Y1.7007 I0.0523 J-0.1485 F50.
G3 X-2.9399 Y1.7074 I-0.0033 J0.015
G1 X-2.909 Y1.76 F60.
G3 X-2.9991 Y2.0085 I-0.2344 J0.0556
G1 X-3.1808 Y1.9914
G3 X-3.193 Y1.9821 I0.002 J-0.0153
X-3.1798 Y1.9427 I0.0291 J-0.0122
X-3.0179 Y1.9859 I0.0596 J0.102
X-3.0113 Y1.9991 I-0.1024 J0.0589 F50.
G2 X-2.9991 Y2.0085 I0.0142 J-0.0059
G1 X-2.9567 Y2.0124 F60.
G2 X-2.8227 Y1.895 I-0.0082 J-0.1446
G1 X-2.859 Y1.8421
X-2.8745 Y1.8186
X-2.909 Y1.76
G2 X-2.9226 Y1.7528 I-0.013 J0.0083
X-2.9616 Y1.81 I0.0018 J0.0431
X-2.8516 Y1.8896 I0.1117 J-0.0385
X-2.8368 Y1.8889 I0.0017 J-0.1181 F50.
G3 X-2.8227 Y1.895 I0.0017 J0.0153
G1 X-2.8054 Y1.9203 F60.
G3 X-2.8156 Y2.0273 I-0.0724 J0.047
G1 X-2.8185 Y2.0268
X-2.8212 Y2.0259
X-2.8237 Y2.0245
X-2.8259 Y2.0228
X-2.8278 Y2.0207
X-2.8292 Y2.0184
X-2.8303 Y2.0159
X-2.8308 Y2.0132
X-2.8309 Y2.0106
X-2.8312 Y2.0015
G3 X-2.8313 Y1.9221 I0.1096 J-0.0398
X-2.8054 Y1.9203 I0.0135 J0.0074 F50.
G1 X-2.7584 Y1.9888 F60.
G3 X-2.7605 Y2.0308 I-0.0109 J0.0205
X-2.7912 Y2.0081 I0.005 J-0.039
X-2.7859 Y1.9853 I0.0174 J-0.008
X-2.7584 Y1.9888 I0.012 J0.0149 F50.
X-2.74 Y2.0293 I-0.0034 J0.026 F60.
G1 X-2.7414 Y2.0301
X-2.742 Y2.0304
X-2.753 Y2.0314
X-2.7535
X-2.9567 Y2.0124
G3 X-2.9677 Y1.9889 I0.002 J-0.0153
G1 X-2.9661 Y1.9864 Z-0.1672
X-2.9646 Y1.9839 Z-0.1663
X-2.9631 Y1.9817 Z-0.1649
X-2.9619 Y1.9797 Z-0.163
X-2.9609 Y1.9781 Z-0.1607
X-2.9601 Y1.9769 Z-0.158
X-2.9596 Y1.9761 Z-0.1551
X-2.9595 Y1.9759 Z-0.1521
G0 Z-0.1367
X-3.229 Y1.116
G1 Z-0.1521 F50.
X-3.2289 Y1.1157 Z-0.1551
X-3.2287 Y1.1149 Z-0.158
X-3.2284 Y1.1135 Z-0.1607
X-3.228 Y1.1116 Z-0.163
X-3.2275 Y1.1093 Z-0.1649
X-3.227 Y1.1067 Z-0.1663
X-3.2264 Y1.1039 Z-0.1672
X-3.2257 Y1.101 Z-0.1675
G2 X-3.2269 Y1.0701 I-0.0609 J-0.0132
G1 X-3.2556 Y0.9844 F60.
X-3.2647 Y0.9727
X-3.2742 Y0.9615
X-3.2843 Y0.9506
X-3.2947 Y0.9401
X-3.3056 Y0.9301
X-3.3169 Y0.9206
X-3.3285 Y0.9115
X-3.3406 Y0.9029
X-3.3529 Y0.8948
X-3.3656 Y0.8872
X-3.3786 Y0.8802
X-3.3919 Y0.8737
X-3.4054 Y0.8677
X-3.4192 Y0.8623
X-3.4332 Y0.8575
X-3.4473 Y0.8533
X-3.4616 Y0.8496
X-3.4761 Y0.8466
X-3.4907 Y0.8441
X-3.5053 Y0.8423
X-3.5201 Y0.841
X-3.5348 Y0.8404
X-3.5496 Y0.8403
X-3.5644 Y0.8409
X-3.5791 Y0.8421
X-3.5938 Y0.8439
X-3.6084 Y0.8462
X-3.6228 Y0.8492
X-3.6372 Y0.8528
X-3.6514 Y0.857
X-3.6626 Y0.8512
X-3.6649 Y0.8519
X-3.667 Y0.8531
X-3.6687 Y0.8548
X-3.8143 Y1.0304
G2 X-3.8163 Y1.0456 I0.0122 J0.0094
X-3.7484 Y1.0717 I0.0463 J-0.019
X-3.6658 Y0.884 I-0.0681 J-0.142
X-3.6708 Y0.87 I-0.1507 J0.0458 F50.
G3 X-3.6687 Y0.8548 I0.0142 J-0.0058
G1 X-3.6266 Y0.8039 F60.
G3 X-3.3016 Y0.8117 I0.1562 J0.2647
G1 X-3.2657 Y0.9504
X-3.2591 Y0.9738
G3 X-3.2635 Y0.9886 I-0.015 J0.0036
X-3.3212 Y0.9836 I-0.0266 J-0.028
X-3.3444 Y0.9133 I0.0949 J-0.0703
X-3.3165 Y0.837 I0.1181 J0.
X-3.3063 Y0.8263 I0.0902 J0.0763 F50.
G2 X-3.3016 Y0.8117 I-0.0104 J-0.0113
G1 X-3.3144 Y0.7626 F60.
G2 X-3.5133 Y0.6672 I-0.1658 J0.0905
G1 X-3.6266 Y0.8039
G2 X-3.6286 Y0.8191 I0.0122 J0.0094
X-3.5852 Y0.8386 I0.0319 J-0.0131
X-3.5106 Y0.6965 I-0.0394 J-0.1113
X-3.5153 Y0.6824 I-0.114 J0.0308 F50.
G3 X-3.5133 Y0.6672 I0.0142 J-0.0058
G1 X-3.4858 Y0.634 F60.
G3 X-3.3418 Y0.6174 I0.0828 J0.0845
G1 X-3.3415 Y0.6204
X-3.3417 Y0.6234
X-3.3425 Y0.6262
X-3.3437 Y0.6289
X-3.3454 Y0.6312
X-3.3475 Y0.6332
X-3.3498 Y0.6348
X-3.3524 Y0.6359
X-3.3552 Y0.6365
X-3.3624 Y0.6379
X-3.4707 Y0.6586
X-3.4738 Y0.6588
X-3.477 Y0.6585
G3 X-3.4858 Y0.634 I0.0034 J-0.015 F50.
G1 X-3.4271 Y0.5632 F60.
G3 X-3.3569 Y0.5436 I0.044 J0.0222
X-3.364 Y0.559 I-0.0152 J0.0023
G1 X-3.375 Y0.5659
X-3.4067 Y0.5857
G3 X-3.4182 Y0.5876 I-0.0082 J-0.0131
X-3.4271 Y0.5632 I0.0034 J-0.015 F50.
G1 X-3.3852 Y0.5127 F60.
X-3.3836 Y0.5107
X-3.3829 Y0.5101
X-3.3747 Y0.5033
X-3.3742 Y0.5031
X-3.3723 Y0.5025
X-3.3718
X-3.3699 Y0.5026
G3 X-3.3598 Y0.528 I-0.0112 J0.0191
G1 X-3.3215 Y0.7331
X-3.3204 Y0.7392
X-3.3144 Y0.7626
G3 X-3.3328 Y0.781 I-0.015 J0.0033
G1 X-3.3357 Y0.7803 Z-0.1672
X-3.3385 Y0.7797 Z-0.1663
X-3.3411 Y0.7791 Z-0.1649
X-3.3434 Y0.7786 Z-0.163
X-3.3453 Y0.7782 Z-0.1607
X-3.3467 Y0.7779 Z-0.158
X-3.3475 Y0.7777 Z-0.1551
X-3.3478 Y0.7776 Z-0.1521
G0 Z-0.1367
X-4.0655 Y1.3595
G1 Z-0.1521 F50.
X-4.0658 Y1.3596 Z-0.1551
X-4.0666 Y1.3599 Z-0.158
X-4.068 Y1.3604 Z-0.1607
X-4.0698 Y1.361 Z-0.163
X-4.072 Y1.3618 Z-0.1649
X-4.0745 Y1.3627 Z-0.1663
X-4.0772 Y1.3637 Z-0.1672
X-4.08 Y1.3647 Z-0.1675
G2 X-4.1057 Y1.382 I0.0209 J0.0587
G1 X-4.1662 Y1.455 F60.
G2 X-4.109 Y1.8164 I0.2998 J0.1377
X-4.0381 Y1.9112 I0.1211 J-0.0166
G1 X-3.8143 Y1.9321
G2 X-3.8005 Y1.9253 I0.0009 J-0.0154
X-3.8194 Y1.8517 I-0.0428 J-0.0282
X-4.0156 Y1.8923 I-0.0735 J0.1393
X-4.0243 Y1.9043 I0.1227 J0.0987 F50.
G3 X-4.0381 Y1.9112 I-0.0129 J-0.0085
G1 X-4.1087 Y1.9046 F60.
G3 X-4.2907 Y1.6052 I0.1574 J-0.3007
G1 X-4.1662 Y1.455
G3 X-4.1516 Y1.4501 I0.0115 J0.0102
X-4.1356 Y1.467 I-0.0041 J0.0199
X-4.2615 Y1.6025 I-0.1168 J0.0177
X-4.2761 Y1.6004 I0.0091 J-0.1178 F50.
G2 X-4.2907 Y1.6052 I-0.0031 J0.0151
G1 X-4.3263 Y1.6482 F60.
G2 X-4.2839 Y1.8882 I0.1956 J0.0892
G1 X-4.1087 Y1.9046
G2 X-4.095 Y1.8977 I0.0009 J-0.0154
X-4.1044 Y1.8492 I-0.0295 J-0.0195
X-4.2612 Y1.8695 I-0.0672 J0.0971
X-4.2702 Y1.8813 I0.0897 J0.0769 F50.
G3 X-4.2839 Y1.8882 I-0.0129 J-0.0085
G1 X-4.3305 Y1.8838 F60.
G3 X-4.4301 Y1.7714 I0.0278 J-0.1249
G1 X-4.4278 Y1.7691
X-4.4253 Y1.7674
X-4.4224 Y1.7662
X-4.4194 Y1.7655
X-4.4164
X-4.4134 Y1.766
X-4.4106 Y1.767
X-4.4081 Y1.7685
X-4.4059 Y1.7705
X-4.4018 Y1.7746
X-4.3187 Y1.8576
X-4.3167 Y1.86
X-4.3153 Y1.8628
G3 X-4.3305 Y1.8838 I-0.0143 J0.0057 F50.
G1 X-4.4243 Y1.875 F60.
G3 X-4.4788 Y1.8322 I-0.0112 J-0.0419
X-4.4617 Y1.8281 I0.0115 J0.0102
G1 X-4.4504 Y1.8325
X-4.4178 Y1.8453
G3 X-4.4091 Y1.854 I-0.0056 J0.0143
X-4.4243 Y1.875 I-0.0143 J0.0057 F50.
X-4.497 Y1.8647 I-0.0286 J-0.06 F60.
G1 X-4.4981 Y1.8631
X-4.4985 Y1.861
Y1.8606
X-4.4982 Y1.8585
X-4.4929 Y1.8492
X-4.3263 Y1.6482
G3 X-4.3148 Y1.643 I0.0115 J0.0102
G1 X-4.3123 Y1.6432
X-4.3101 Y1.6441 Z-0.1673
X-4.308 Y1.645 Z-0.1668
X-4.3059 Y1.6458 Z-0.1659
X-4.3041 Y1.6479 Z-0.164
X-4.3025 Y1.6496 Z-0.1617
X-4.3013 Y1.6509 Z-0.1589
X-4.3008 Y1.6519 Z-0.1556
X-4.3007 Y1.6523 Z-0.1521
G0 Z0.4
X-1.5042 Y-3.6456
Z0.1
G3 X-1.4584 Y-3.5067 Z0.0595 I0.0229 J0.0695 F50.
X-1.5042 Y-3.6456 Z0.019 I-0.0229 J-0.0695
X-1.4584 Y-3.5067 Z-0.0216 I0.0229 J0.0695
X-1.5042 Y-3.6456 Z-0.0621 I-0.0229 J-0.0695
X-1.4584 Y-3.5067 Z-0.1026 I0.0229 J0.0695
X-1.5042 Y-3.6456 Z-0.1431 I-0.0229 J-0.0695
X-1.4081 Y-3.5761 Z-0.1675 I0.0229 J0.0695
X-1.5544 I-0.0731 J0.
X-1.4084 Y-3.5821 I0.0731 J0.
G1 X-1.4081 Y-3.5761
G3 X-1.5639 Y-3.4525 I-0.0819 J0.0568 F60.
G1 X-1.5721 Y-3.4579
X-1.5798 Y-3.4637
X-1.5872 Y-3.4701
X-1.5942 Y-3.4769
X-1.6007 Y-3.4841
X-1.6068 Y-3.4917
X-1.6124 Y-3.4997
X-1.6174 Y-3.508
X-1.6219 Y-3.5167
X-1.6259 Y-3.5255
X-1.6293 Y-3.5347
X-1.6321 Y-3.544
X-1.6344 Y-3.5535
X-1.636 Y-3.5631
X-1.637 Y-3.5728
X-1.6374 Y-3.5825
X-1.6372 Y-3.5922
X-1.6364 Y-3.6019
X-1.635 Y-3.6115
X-1.6329 Y-3.6211
X-1.6303 Y-3.6304
X-1.6271 Y-3.6396
X-1.6233 Y-3.6486
X-1.619 Y-3.6573
X-1.6141 Y-3.6657
X-1.6087 Y-3.6738
X-1.6028 Y-3.6816
X-1.5964 Y-3.6889
X-1.5896 Y-3.6959
X-1.5823 Y-3.7024
X-1.5747 Y-3.7084
X-1.5667 Y-3.7139
X-1.5583 Y-3.719
X-1.5497 Y-3.7234
X-1.5408 Y-3.7274
X-1.5316 Y-3.7307
X-1.5223 Y-3.7335
X-1.5128 Y-3.7357
X-1.5032 Y-3.7373
X-1.4935 Y-3.7382
X-1.4838 Y-3.7386
X-1.4741 Y-3.7384
X-1.4644 Y-3.7375
X-1.4548 Y-3.736
X-1.4452 Y-3.7339
X-1.4359 Y-3.7313
X-1.4267 Y-3.728
X-1.4178 Y-3.7242
X-1.4091 Y-3.7198
X-1.4007 Y-3.7149
X-1.3926 Y-3.7095
X-1.3849 Y-3.7035
X-1.3776 Y-3.6971
X-1.3707 Y-3.6903
X-1.3642 Y-3.683
X-1.3582 Y-3.6753
X-1.3527 Y-3.6673
X-1.3477 Y-3.6589
X-1.3433 Y-3.6502
X-1.3394 Y-3.6413
X-1.3361 Y-3.6322
X-1.3334 Y-3.6228
X-1.3277 Y-3.6137
X-1.3225 Y-3.6042
X-1.3179 Y-3.5944
X-1.3139 Y-3.5844
X-1.3104 Y-3.5742
X-1.3075 Y-3.5638
X-1.3052 Y-3.5533
X-1.3035 Y-3.5426
X-1.3024 Y-3.5319
X-1.3019 Y-3.5211
X-1.3021 Y-3.5104
X-1.3028 Y-3.4996
X-1.3042 Y-3.4889
X-1.3061 Y-3.4783
X-1.3087 Y-3.4678
X-1.3118 Y-3.4575
X-1.3156 Y-3.4474
X-1.3199 Y-3.4375
X-1.3247 Y-3.4279
X-1.3301 Y-3.4185
X-1.336 Y-3.4095
X-1.3424 Y-3.4008
X-1.3493 Y-3.3925
X-1.3567 Y-3.3846
X-1.3645 Y-3.3772
X-1.3727 Y-3.3702
X-1.3813 Y-3.3637
X-1.3902 Y-3.3576
X-1.3995 Y-3.3521
X-1.4091 Y-3.3471
X-1.4189 Y-3.3427
X-1.429 Y-3.3389
X-1.4392 Y-3.3356
X-1.4497 Y-3.3329
X-1.4603 Y-3.3308
X-1.4709 Y-3.3293
X-1.4817 Y-3.3284
X-1.4925 Y-3.3281
X-1.5032 Y-3.3285
X-1.514 Y-3.3294
X-1.5247 Y-3.331
X-1.5352 Y-3.3331
X-1.5457 Y-3.3359
X-1.5559 Y-3.3392
X-1.566 Y-3.3431
X-1.5758 Y-3.3476
X-1.5853 Y-3.3527
X-1.5945 Y-3.3582
X-1.6034 Y-3.3643
X-1.612 Y-3.3709
X-1.6201 Y-3.3779
X-1.6279 Y-3.3854
X-1.6377 Y-3.3922
X-1.6472 Y-3.3996
X-1.6563 Y-3.4073
X-1.665 Y-3.4156
X-1.6732 Y-3.4242
X-1.681 Y-3.4333
X-1.6884 Y-3.4427
X-1.6952 Y-3.4525
X-1.7016 Y-3.4627
X-1.7074 Y-3.4731
X-1.7127 Y-3.4838
X-1.7175 Y-3.4948
X-1.7217 Y-3.506
X-1.7253 Y-3.5174
X-1.7283 Y-3.529
X-1.7308 Y-3.5407
X-1.7327 Y-3.5525
X-1.7339 Y-3.5644
X-1.7346 Y-3.5764
Y-3.5883
X-1.7341 Y-3.6003
X-1.7329 Y-3.6122
X-1.7312 Y-3.624
X-1.7288 Y-3.6358
X-1.7259 Y-3.6473
X-1.7224 Y-3.6588
X-1.7183 Y-3.67
X-1.7136 Y-3.681
X-1.7084 Y-3.6918
X-1.7027 Y-3.7023
X-1.6964 Y-3.7125
X-1.6896 Y-3.7224
X-1.6824 Y-3.7319
X-1.6746 Y-3.741
X-1.6665 Y-3.7497
X-1.6578 Y-3.758
X-1.6488 Y-3.7659
X-1.6394 Y-3.7733
X-1.6296 Y-3.7802
X-1.6195 Y-3.7866
X-1.6091 Y-3.7925
X-1.5984 Y-3.7978
X-1.5875 Y-3.8026
X-1.5763 Y-3.8069
X-1.5634 Y-3.8106
X-1.5504 Y-3.8137
X-1.5373 Y-3.8161
X-1.5241 Y-3.818
X-1.5107 Y-3.8193
X-1.4974 Y-3.8199
X-1.484 Y-3.82
X-1.4706 Y-3.8194
X-1.4573 Y-3.8182
X-1.4441 Y-3.8164
X-1.4309 Y-3.814
X-1.4179 Y-3.8109
X-1.405 Y-3.8073
X-1.3923 Y-3.8031
X-1.3798 Y-3.7983
X-1.3676 Y-3.793
X-1.3556 Y-3.787
X-1.3439 Y-3.7806
X-1.3325 Y-3.7736
X-1.3214 Y-3.7661
X-1.3107 Y-3.7581
X-1.3004 Y-3.7496
X-1.2905 Y-3.7406
X-1.281 Y-3.7312
X-1.2719 Y-3.7214
X-1.2633 Y-3.7111
X-1.2552 Y-3.7005
X-1.2476 Y-3.6895
X-1.2405 Y-3.6782
X-1.2339 Y-3.6665
X-1.2279 Y-3.6546
X-1.2224 Y-3.6424
X-1.2175 Y-3.6299
X-1.2132 Y-3.6173
X-1.2095 Y-3.6044
X-1.2063 Y-3.5914
X-1.2038 Y-3.5783
X-1.2019 Y-3.5651
X-1.2005 Y-3.5518
X-1.1998 Y-3.5384
X-1.1997 Y-3.525
