%
(971-23-P-0063_PROXIMAL SPROCKET_1565 FIRST)
(T1  D=0.1565 CR=0. - ZMIN=-0.2175 - FLAT END MILL)
G90 G94 G17 G91.1
G64 P0.001 Q0.001
G20
G53 G0 Z0.
(.3 CIRCLUAR THROUGH HOLE 2)
M9
T1 M6
S22000 M3
G4 P10.
G54
M7
G0 X2.2618 Y2.2697
G43 Z0.6 H1
G0 Z0.1143
G1 Z0.05 F40.
Y2.2618
G3 X2.2696 Y2.2541 I0.0077 J0.
Y2.2851 Z0.0335 I0. J0.0155
Y2.2541 Z0.0169 I0. J-0.0155
Y2.2851 Z0.0004 I0. J0.0155
Y2.2541 Z-0.0161 I0. J-0.0155
Y2.2851 Z-0.0327 I0. J0.0155
Y2.2541 Z-0.0492 I0. J-0.0155
Y2.2851 Z-0.0657 I0. J0.0155
Y2.2541 Z-0.0822 I0. J-0.0155
Y2.2851 Z-0.0988 I0. J0.0155
Y2.2541 Z-0.1153 I0. J-0.0155
Y2.2851 Z-0.1318 I0. J0.0155
Y2.2541 Z-0.1484 I0. J-0.0155
Y2.2851 Z-0.1649 I0. J0.0155
Y2.2541 Z-0.1814 I0. J-0.0155
Y2.2851 Z-0.198 I0. J0.0155
Y2.2541 Z-0.2145 I0. J-0.0155
X2.278 Y2.2565 Z-0.2175 I0. J0.0155
X2.2612 Y2.2826 I-0.0084 J0.013
X2.278 Y2.2565 I0.0084 J-0.013
X2.2803 Y2.2673 I-0.0042 J0.0065
G1 X2.2761 Y2.2738
G0 Z0.4
X-0.0111 Y3.222
Z0.13
G1 Z0.0657 F40.
G19 G2 Y3.2064 Z0.05 J-0.0156 K0.
G1 Y3.1985
G17 G3 X0. Y3.1874 I0.0111 J0.
Y3.2319 Z0.0323 I0. J0.0222
Y3.1874 Z0.0146 I0. J-0.0222
Y3.2319 Z-0.0032 I0. J0.0222
Y3.1874 Z-0.0209 I0. J-0.0222
Y3.2319 Z-0.0386 I0. J0.0222
Y3.1874 Z-0.0563 I0. J-0.0222
Y3.2319 Z-0.074 I0. J0.0222
Y3.1874 Z-0.0918 I0. J-0.0222
Y3.2319 Z-0.1095 I0. J0.0222
Y3.1874 Z-0.1272 I0. J-0.0222
Y3.2319 Z-0.1449 I0. J0.0223
Y3.1874 Z-0.1627 I0. J-0.0223
Y3.2319 Z-0.1804 I0. J0.0223
Y3.1874 Z-0.1981 I0. J-0.0223
X0.022 Y3.213 Z-0.2078 I0. J0.0223
X-0.0066 Y3.2309 Z-0.2175 I-0.022 J-0.0033
X0.0066 Y3.1884 I0.0066 J-0.0213
X-0.0066 Y3.2309 I-0.0066 J0.0213
X-0.0139 Y3.217 I0.0033 J-0.0106
G1 X-0.0116 Y3.2095
X-0.0107 Y3.2066 Z-0.2172
X-0.0098 Y3.2038 Z-0.2163
X-0.009 Y3.2012 Z-0.2149
X-0.0083 Y3.199 Z-0.2129
X-0.0078 Y3.1971 Z-0.2105
X-0.0073 Y3.1957 Z-0.2078
X-0.0071 Y3.1949 Z-0.2049
X-0.007 Y3.1946 Z-0.2018
G0 Z0.4
X-2.2773 Y2.2697
Z0.1143
G1 Z0.05 F40.
Y2.2618
G3 X-2.2696 Y2.2541 I0.0078 J0.
Y2.2851 Z0.0335 I0. J0.0155
Y2.2541 Z0.0169 I0. J-0.0155
Y2.2851 Z0.0004 I0. J0.0155
Y2.2541 Z-0.0161 I0. J-0.0155
Y2.2851 Z-0.0327 I0. J0.0155
Y2.2541 Z-0.0492 I0. J-0.0155
Y2.2851 Z-0.0657 I0. J0.0155
Y2.2541 Z-0.0822 I0. J-0.0155
Y2.2851 Z-0.0988 I0. J0.0155
Y2.2541 Z-0.1153 I0. J-0.0155
Y2.2851 Z-0.1318 I0. J0.0155
Y2.2541 Z-0.1484 I0. J-0.0155
Y2.2851 Z-0.1649 I0. J0.0155
Y2.2541 Z-0.1814 I0. J-0.0155
Y2.2851 Z-0.198 I0. J0.0155
Y2.2541 Z-0.2145 I0. J-0.0155
X-2.2612 Y2.2565 Z-0.2175 I0. J0.0155
X-2.278 Y2.2826 I-0.0084 J0.013
X-2.2612 Y2.2565 I0.0084 J-0.013
X-2.2589 Y2.2673 I-0.0042 J0.0065
G1 X-2.2631 Y2.2738
G0 Z0.4
X-3.2208 Y0.0124
Z0.13
G1 Z0.0657 F40.
G19 G2 Y-0.0033 Z0.05 J-0.0157 K0.
G1 Y-0.0111
G17 G3 X-3.2097 Y-0.0223 I0.0111 J0.
Y0.0223 Z0.0323 I0. J0.0223
Y-0.0223 Z0.0146 I0. J-0.0223
Y0.0223 Z-0.0032 I0. J0.0223
Y-0.0223 Z-0.0209 I0. J-0.0223
Y0.0223 Z-0.0386 I0. J0.0223
Y-0.0223 Z-0.0563 I0. J-0.0223
Y0.0223 Z-0.074 I0. J0.0223
Y-0.0223 Z-0.0918 I0. J-0.0223
Y0.0223 Z-0.1095 I0. J0.0223
Y-0.0223 Z-0.1272 I0. J-0.0223
Y0.0223 Z-0.1449 I0. J0.0223
Y-0.0223 Z-0.1627 I0. J-0.0223
Y0.0223 Z-0.1804 I0. J0.0223
Y-0.0223 Z-0.1981 I0. J-0.0223
X-3.1877 Y0.0033 Z-0.2078 I0. J0.0223
X-3.2162 Y0.0213 Z-0.2175 I-0.022 J-0.0033
X-3.2031 Y-0.0213 I0.0066 J-0.0213
X-3.2162 Y0.0213 I-0.0066 J0.0213
X-3.2236 Y0.0074 I0.0033 J-0.0106
G1 X-3.2213 Y-0.0001
X-3.2204 Y-0.003 Z-0.2172
X-3.2195 Y-0.0058 Z-0.2163
X-3.2187 Y-0.0084 Z-0.2149
X-3.218 Y-0.0107 Z-0.2129
X-3.2174 Y-0.0126 Z-0.2105
X-3.217 Y-0.0139 Z-0.2078
X-3.2167 Y-0.0148 Z-0.2049
Y-0.0151 Z-0.2018
G0 Z0.4
X-2.2773 Y-2.2695
Z0.1143
G1 Z0.05 F40.
Y-2.2773
G3 X-2.2696 Y-2.2851 I0.0078 J0.
Y-2.2541 Z0.0335 I0. J0.0155
Y-2.2851 Z0.0169 I0. J-0.0155
Y-2.2541 Z0.0004 I0. J0.0155
Y-2.2851 Z-0.0161 I0. J-0.0155
Y-2.2541 Z-0.0327 I0. J0.0155
Y-2.2851 Z-0.0492 I0. J-0.0155
Y-2.2541 Z-0.0657 I0. J0.0155
Y-2.2851 Z-0.0822 I0. J-0.0155
Y-2.2541 Z-0.0988 I0. J0.0155
Y-2.2851 Z-0.1153 I0. J-0.0155
Y-2.2541 Z-0.1318 I0. J0.0155
Y-2.2851 Z-0.1484 I0. J-0.0155
Y-2.2541 Z-0.1649 I0. J0.0155
Y-2.2851 Z-0.1814 I0. J-0.0155
Y-2.2541 Z-0.198 I0. J0.0155
Y-2.2851 Z-0.2145 I0. J-0.0155
X-2.2612 Y-2.2826 Z-0.2175 I0. J0.0155
X-2.278 Y-2.2565 I-0.0084 J0.013
X-2.2612 Y-2.2826 I0.0084 J-0.013
X-2.2589 Y-2.2719 I-0.0042 J0.0065
G1 X-2.2631 Y-2.2653
G0 Z0.4
X-0.0111 Y-3.1973
Z0.13
G1 Z0.0657 F40.
G19 G2 Y-3.213 Z0.05 J-0.0157 K0.
G1 Y-3.2208
G17 G3 X0. Y-3.2319 I0.0111 J0.
Y-3.1874 Z0.0323 I0. J0.0223
Y-3.2319 Z0.0146 I0. J-0.0223
Y-3.1874 Z-0.0032 I0. J0.0223
Y-3.2319 Z-0.0209 I0. J-0.0223
Y-3.1874 Z-0.0386 I0. J0.0223
Y-3.2319 Z-0.0563 I0. J-0.0223
Y-3.1874 Z-0.074 I0. J0.0223
Y-3.2319 Z-0.0918 I0. J-0.0222
Y-3.1874 Z-0.1095 I0. J0.0222
Y-3.2319 Z-0.1272 I0. J-0.0222
Y-3.1874 Z-0.1449 I0. J0.0222
Y-3.2319 Z-0.1627 I0. J-0.0222
Y-3.1874 Z-0.1804 I0. J0.0222
Y-3.2319 Z-0.1981 I0. J-0.0222
X0.022 Y-3.2064 Z-0.2078 I0. J0.0222
X-0.0066 Y-3.1884 Z-0.2175 I-0.022 J-0.0033
X0.0066 Y-3.2309 I0.0066 J-0.0213
X-0.0066 Y-3.1884 I-0.0066 J0.0213
X-0.0139 Y-3.2023 I0.0033 J-0.0106
G1 X-0.0116 Y-3.2098
X-0.0107 Y-3.2127 Z-0.2172
X-0.0098 Y-3.2155 Z-0.2163
X-0.009 Y-3.2181 Z-0.2149
X-0.0083 Y-3.2204 Z-0.2129
X-0.0078 Y-3.2222 Z-0.2105
X-0.0073 Y-3.2236 Z-0.2078
X-0.0071 Y-3.2245 Z-0.2049
X-0.007 Y-3.2247 Z-0.2018
G0 Z0.4
X-0.2389 Y-3.7584
Z0.13
G1 Z0.0657 F40.
G19 G3 Y-3.7427 Z0.05 J0.0156 K0.
G1 Y-3.7349
G17 G3 X-0.25 Y-3.7238 I-0.0111 J0.
Y-3.7683 Z0.0323 I0. J-0.0222
Y-3.7238 Z0.0146 I0. J0.0222
Y-3.7683 Z-0.0032 I0. J-0.0222
Y-3.7238 Z-0.0209 I0. J0.0222
Y-3.7683 Z-0.0386 I0. J-0.0222
Y-3.7238 Z-0.0563 I0. J0.0222
Y-3.7683 Z-0.074 I0. J-0.0222
Y-3.7238 Z-0.0918 I0. J0.0222
Y-3.7683 Z-0.1095 I0. J-0.0222
Y-3.7238 Z-0.1272 I0. J0.0222
Y-3.7683 Z-0.1449 I0. J-0.0223
Y-3.7238 Z-0.1627 I0. J0.0223
Y-3.7683 Z-0.1804 I0. J-0.0223
Y-3.7238 Z-0.1981 I0. J0.0223
X-0.272 Y-3.7494 Z-0.2078 I0. J-0.0223
X-0.2434 Y-3.7673 Z-0.2175 I0.022 J0.0033
X-0.2566 Y-3.7248 I-0.0066 J0.0213
X-0.2434 Y-3.7673 I0.0066 J-0.0213
X-0.2361 Y-3.7534 I-0.0033 J0.0106
G1 X-0.2384 Y-3.7459
X-0.2393 Y-3.743 Z-0.2172
X-0.2402 Y-3.7402 Z-0.2163
X-0.241 Y-3.7376 Z-0.2149
X-0.2417 Y-3.7353 Z-0.2129
X-0.2422 Y-3.7335 Z-0.2105
X-0.2427 Y-3.7321 Z-0.2078
X-0.2429 Y-3.7313 Z-0.2049
X-0.243 Y-3.731 Z-0.2018
G0 Z0.4
X0.2611 Y-3.7584
Z0.13
G1 Z0.0657 F40.
G19 G3 Y-3.7427 Z0.05 J0.0156 K0.
G1 Y-3.7349
G17 G3 X0.25 Y-3.7238 I-0.0111 J0.
Y-3.7683 Z0.0323 I0. J-0.0222
Y-3.7238 Z0.0146 I0. J0.0222
Y-3.7683 Z-0.0032 I0. J-0.0222
Y-3.7238 Z-0.0209 I0. J0.0222
Y-3.7683 Z-0.0386 I0. J-0.0222
Y-3.7238 Z-0.0563 I0. J0.0222
Y-3.7683 Z-0.074 I0. J-0.0222
Y-3.7238 Z-0.0918 I0. J0.0222
Y-3.7683 Z-0.1095 I0. J-0.0222
Y-3.7238 Z-0.1272 I0. J0.0222
Y-3.7683 Z-0.1449 I0. J-0.0223
Y-3.7238 Z-0.1627 I0. J0.0223
Y-3.7683 Z-0.1804 I0. J-0.0223
Y-3.7238 Z-0.1981 I0. J0.0223
X0.228 Y-3.7494 Z-0.2078 I0. J-0.0223
X0.2566 Y-3.7673 Z-0.2175 I0.022 J0.0033
X0.2434 Y-3.7248 I-0.0066 J0.0213
X0.2566 Y-3.7673 I0.0066 J-0.0213
X0.2639 Y-3.7534 I-0.0033 J0.0106
G1 X0.2616 Y-3.7459
X0.2607 Y-3.743 Z-0.2172
X0.2598 Y-3.7402 Z-0.2163
X0.259 Y-3.7376 Z-0.2149
X0.2583 Y-3.7353 Z-0.2129
X0.2578 Y-3.7335 Z-0.2105
X0.2573 Y-3.7321 Z-0.2078
X0.2571 Y-3.7313 Z-0.2049
X0.257 Y-3.731 Z-0.2018
G0 Z0.4
X2.2618 Y-2.2695
Z0.1143
G1 Z0.05 F40.
Y-2.2773
G3 X2.2696 Y-2.2851 I0.0077 J0.
Y-2.2541 Z0.0335 I0. J0.0155
Y-2.2851 Z0.0169 I0. J-0.0155
Y-2.2541 Z0.0004 I0. J0.0155
Y-2.2851 Z-0.0161 I0. J-0.0155
Y-2.2541 Z-0.0327 I0. J0.0155
Y-2.2851 Z-0.0492 I0. J-0.0155
Y-2.2541 Z-0.0657 I0. J0.0155
Y-2.2851 Z-0.0822 I0. J-0.0155
Y-2.2541 Z-0.0988 I0. J0.0155
Y-2.2851 Z-0.1153 I0. J-0.0155
Y-2.2541 Z-0.1318 I0. J0.0155
Y-2.2851 Z-0.1484 I0. J-0.0155
Y-2.2541 Z-0.1649 I0. J0.0155
Y-2.2851 Z-0.1814 I0. J-0.0155
Y-2.2541 Z-0.198 I0. J0.0155
Y-2.2851 Z-0.2145 I0. J-0.0155
X2.278 Y-2.2826 Z-0.2175 I0. J0.0155
X2.2612 Y-2.2565 I-0.0084 J0.013
X2.278 Y-2.2826 I0.0084 J-0.013
X2.2803 Y-2.2719 I-0.0042 J0.0065
G1 X2.2761 Y-2.2653
G0 Z0.4
X3.1985 Y0.0124
Z0.13
G1 Z0.0657 F40.
G19 G2 Y-0.0033 Z0.05 J-0.0157 K0.
G1 Y-0.0111
G17 G3 X3.2097 Y-0.0223 I0.0111 J0.
Y0.0222 Z0.0323 I0. J0.0223
Y-0.0222 Z0.0146 I0. J-0.0222
Y0.0222 Z-0.0032 I0. J0.0222
Y-0.0222 Z-0.0209 I0. J-0.0222
Y0.0222 Z-0.0386 I0. J0.0222
Y-0.0222 Z-0.0563 I0. J-0.0222
Y0.0222 Z-0.074 I0. J0.0222
Y-0.0222 Z-0.0918 I0. J-0.0222
Y0.0222 Z-0.1095 I0. J0.0222
Y-0.0222 Z-0.1272 I0. J-0.0222
Y0.0222 Z-0.1449 I0. J0.0222
Y-0.0222 Z-0.1627 I0. J-0.0222
Y0.0222 Z-0.1804 I0. J0.0222
Y-0.0222 Z-0.1981 I0. J-0.0222
X3.2317 Y0.0033 Z-0.2078 I0. J0.0222
X3.2031 Y0.0213 Z-0.2175 I-0.022 J-0.0033
X3.2162 Y-0.0213 I0.0066 J-0.0213
X3.2031 Y0.0213 I-0.0066 J0.0213
X3.1958 Y0.0074 I0.0033 J-0.0106
G1 X3.1981 Y-0.0001
X3.199 Y-0.003 Z-0.2172
X3.1998 Y-0.0058 Z-0.2163
X3.2006 Y-0.0084 Z-0.2149
X3.2013 Y-0.0107 Z-0.2129
X3.2019 Y-0.0126 Z-0.2105
X3.2023 Y-0.0139 Z-0.2078
X3.2026 Y-0.0148 Z-0.2049
X3.2027 Y-0.0151 Z-0.2018
G0 Z0.6
(.3 CIRCULAR THROUGH HOLE)
M7
G0 X-0.0261 Y3.7923
Z0.6
Z0.2
G1 Z0.1151 F13.333
G3 X-0.0247 Y3.7925 Z0.1085 I-0.0051 J0.0447 F55.
X-0.0206 Y3.7933 Z0.1031 I-0.0066 J0.0445
X-0.0149 Y3.7951 Z0.1 I-0.0106 J0.0437
X-0.0476 Y3.8789 Z0.0621 I-0.0164 J0.0419
X-0.0149 Y3.7951 Z0.0242 I0.0164 J-0.0419
X-0.0476 Y3.8789 Z-0.0136 I-0.0164 J0.0419
X-0.0149 Y3.7951 Z-0.0515 I0.0164 J-0.0419
X-0.0476 Y3.8789 Z-0.0894 I-0.0164 J0.0419
X-0.0149 Y3.7951 Z-0.1273 I0.0164 J-0.0419
X-0.0476 Y3.8789 Z-0.1652 I-0.0164 J0.0419
X-0.0149 Y3.7951 Z-0.203 I0.0164 J-0.0419
X0.0137 Y3.837 Z-0.2175 I-0.0164 J0.0419
X-0.0137 I-0.0137 J0. F60.
X0.1138 I0.0637 J0.
X-0.1138 I-0.1138 J0.
X0.1138 I0.1138 J0.
G2 X0.1501 Y3.9004 I0.0735 J0.
G3 X0.1627 Y3.9725 I-0.0242 J0.0414
X0. Y4.0488 I-0.1627 J-0.1355
Y3.6253 I0. J-0.2118
X0.1627 Y3.9725 I0. J0.2118
G2 X0.1617 Y3.9813 I0.0062 J0.0052
G3 X0.1604 Y3.9901 I-0.0069 J0.0035
X0. Y4.0588 I-0.1605 J-0.1531
Y3.6152 I0. J-0.2218
X0.1604 Y3.9901 I0. J0.2218
X0.1556 Y3.9935 Z-0.2163 I-0.0113 J-0.0108
X0.1507 Y3.9948 Z-0.2129 I-0.0065 J-0.0142
X0.1473 Z-0.2078 I-0.0016 J-0.0156
X0.1462 Y3.9946 Z-0.2019 I0.0018 J-0.0155
G0 Z0.6
(SHAPE POCKET)
M7
G0 X-4.3667 Y-0.0744
Z0.6
Z0.1
G3 X-4.3685 Y0.0743 Z0.0588 I-0.0009 J0.0743 F50.
X-4.3667 Y-0.0744 Z0.0176 I0.0009 J-0.0743
X-4.3685 Y0.0743 Z-0.0235 I-0.0009 J0.0743
X-4.3667 Y-0.0744 Z-0.0647 I0.0009 J-0.0743
X-4.3685 Y0.0743 Z-0.1059 I-0.0009 J0.0743
X-4.3667 Y-0.0744 Z-0.1471 I0.0009 J-0.0743
X-4.2933 Y0. Z-0.1675 I-0.0009 J0.0743
X-4.4419 I-0.0743 J0.
X-4.2935 Y-0.0063 I0.0743 J0.
G1 X-4.2933 Y0.
G3 X-4.4586 Y0.1182 I-0.0855 J0.0551 F60.
G1 X-4.4664 Y0.1124
X-4.4738 Y0.106
X-4.4808 Y0.0992
X-4.4874 Y0.092
X-4.4935 Y0.0843
X-4.4991 Y0.0763
X-4.5042 Y0.068
X-4.5087 Y0.0593
X-4.5127 Y0.0504
X-4.5161 Y0.0413
X-4.5189 Y0.0319
X-4.5212 Y0.0224
X-4.5228 Y0.0128
X-4.5238 Y0.0031
X-4.5242 Y-0.0067
X-4.524 Y-0.0164
X-4.5232 Y-0.0262
X-4.5218 Y-0.0358
X-4.5197 Y-0.0454
X-4.5171 Y-0.0548
X-4.5139 Y-0.064
X-4.51 Y-0.073
X-4.5057 Y-0.0817
X-4.5008 Y-0.0902
X-4.4953 Y-0.0983
X-4.4894 Y-0.106
X-4.483 Y-0.1134
X-4.4761 Y-0.1203
X-4.4688 Y-0.1268
X-4.4612 Y-0.1329
X-4.4531 Y-0.1384
X-4.4447 Y-0.1434
X-4.4361 Y-0.1479
X-4.4271 Y-0.1518
X-4.4179 Y-0.1551
X-4.4086 Y-0.1579
X-4.399 Y-0.1601
X-4.3894 Y-0.1616
X-4.3797 Y-0.1625
X-4.3699 Y-0.1629
X-4.3602 Y-0.1626
X-4.3505 Y-0.1617
X-4.3408 Y-0.1602
X-4.3313 Y-0.158
X-4.3219 Y-0.1553
X-4.3127 Y-0.152
X-4.3038 Y-0.1481
X-4.2951 Y-0.1437
X-4.2867 Y-0.1387
X-4.2786 Y-0.1332
X-4.2709 Y-0.1272
X-4.2636 Y-0.1208
X-4.2567 Y-0.1139
X-4.2502 Y-0.1065
X-4.2443 Y-0.0988
X-4.2388 Y-0.0907
X-4.2339 Y-0.0823
X-4.2295 Y-0.0736
X-4.2256 Y-0.0646
X-4.2224 Y-0.0554
X-4.2164 Y-0.0462
X-4.2109 Y-0.0367
X-4.206 Y-0.0269
X-4.2017 Y-0.0168
X-4.1979 Y-0.0065
X-4.1947 Y0.004
X-4.1921 Y0.0147
X-4.1902 Y0.0255
X-4.1888 Y0.0363
X-4.1881 Y0.0473
X-4.188 Y0.0583
X-4.1885 Y0.0692
X-4.1897 Y0.0801
X-4.1914 Y0.091
X-4.1938 Y0.1017
X-4.1968 Y0.1122
X-4.2004 Y0.1226
X-4.2045 Y0.1328
X-4.2093 Y0.1427
X-4.2145 Y0.1523
X-4.2204 Y0.1616
X-4.2267 Y0.1705
X-4.2336 Y0.1791
X-4.2409 Y0.1873
X-4.2486 Y0.195
X-4.2568 Y0.2023
X-4.2654 Y0.2091
X-4.2744 Y0.2154
X-4.2837 Y0.2212
X-4.2934 Y0.2265
X-4.3033 Y0.2311
X-4.3134 Y0.2353
X-4.3238 Y0.2388
X-4.3344 Y0.2417
X-4.3451 Y0.2441
X-4.356 Y0.2458
X-4.3669 Y0.2469
X-4.3778 Y0.2474
X-4.3888 Y0.2472
X-4.3997 Y0.2465
X-4.4106 Y0.2451
X-4.4214 Y0.2431
X-4.4321 Y0.2405
X-4.4425 Y0.2373
X-4.4528 Y0.2335
X-4.4629 Y0.2291
X-4.4727 Y0.2241
X-4.4822 Y0.2186
X-4.4913 Y0.2126
X-4.5001 Y0.2061
X-4.5085 Y0.199
X-4.5166 Y0.1915
X-4.5241 Y0.1836
X-4.5338 Y0.1762
X-4.543 Y0.1682
X-4.5518 Y0.1599
X-4.5602 Y0.151
X-4.5681 Y0.1418
X-4.5755 Y0.1321
X-4.5824 Y0.1221
X-4.5888 Y0.1118
X-4.5947 Y0.1011
X-4.6 Y0.0902
X-4.6047 Y0.079
X-4.6089 Y0.0675
X-4.6124 Y0.0559
X-4.6154 Y0.0441
X-4.6177 Y0.0321
X-4.6194 Y0.0201
X-4.6205 Y0.008
X-4.621 Y-0.0042
X-4.6209 Y-0.0164
X-4.6201 Y-0.0285
X-4.6187 Y-0.0406
X-4.6167 Y-0.0526
X-4.614 Y-0.0645
X-4.6108 Y-0.0762
X-4.6069 Y-0.0877
X-4.6025 Y-0.0991
X-4.5975 Y-0.1102
X-4.5919 Y-0.121
X-4.5858 Y-0.1315
X-4.5792 Y-0.1417
X-4.572 Y-0.1515
X-4.5643 Y-0.161
X-4.5562 Y-0.17
X-4.5476 Y-0.1786
X-4.5386 Y-0.1868
X-4.5292 Y-0.1945
X-4.5193 Y-0.2017
X-4.5092 Y-0.2083
X-4.4987 Y-0.2145
X-4.4879 Y-0.2201
X-4.4768 Y-0.2251
X-4.4641 Y-0.2296
X-4.4512 Y-0.2335
X-4.4381 Y-0.2367
X-4.4249 Y-0.2394
X-4.4116 Y-0.2414
X-4.3982 Y-0.2428
X-4.3847 Y-0.2436
X-4.3712 Y-0.2438
X-4.3578 Y-0.2433
X-4.3443 Y-0.2422
X-4.331 Y-0.2405
X-4.3177 Y-0.2381
X-4.3046 Y-0.2351
X-4.2916 Y-0.2316
X-4.2788 Y-0.2274
X-4.2662 Y-0.2226
X-4.2538 Y-0.2173
X-4.2417 Y-0.2113
X-4.2299 Y-0.2048
X-4.2184 Y-0.1978
X-4.2072 Y-0.1902
X-4.1965 Y-0.1822
X-4.1861 Y-0.1736
X-4.1761 Y-0.1646
X-4.1665 Y-0.1551
X-4.1574 Y-0.1451
X-4.1488 Y-0.1348
X-4.1407 Y-0.124
X-4.133 Y-0.1129
X-4.1259 Y-0.1015
X-4.1194 Y-0.0897
X-4.1134 Y-0.0776
X-4.108 Y-0.0653
X-4.1031 Y-0.0527
X-4.0989 Y-0.0399
X-4.0952 Y-0.027
X-4.0922 Y-0.0138
X-4.0898 Y-0.0006
X-4.088 Y0.0128
X-4.0868 Y0.0262
X-4.0862 Y0.0397
X-4.0863 Y0.0531
X-4.087 Y0.0666
X-4.0884 Y0.08
X-4.0903 Y0.0933
X-4.0929 Y0.1066
X-4.0961 Y0.1196
X-4.0999 Y0.1326
X-4.1043 Y0.1453
X-4.1093 Y0.1578
X-4.1149 Y0.1701
X-4.121 Y0.1821
X-4.1277 Y0.1938
X-4.1349 Y0.2051
X-4.1427 Y0.2162
X-4.151 Y0.2268
X-4.1597 Y0.2371
X-4.1689 Y0.2469
X-4.1786 Y0.2563
X-4.1887 Y0.2652
X-4.1992 Y0.2736
X-4.2101 Y0.2816
X-4.2213 Y0.289
X-4.2329 Y0.2959
X-4.2448 Y0.3022
X-4.2569 Y0.308
X-4.2694 Y0.3132
X-4.282 Y0.3179
X-4.2949 Y0.3219
X-4.3079 Y0.3253
X-4.3211 Y0.3281
X-4.3344 Y0.3303
X-4.3478 Y0.3319
X-4.3612 Y0.3328
X-4.3747 Y0.3331
X-4.3881 Y0.3328
G3 X-4.4633 Y-0.3305 I0.0087 J-0.3369
G1 X-4.4481 Y-0.3336
X-4.4327 Y-0.336
X-4.4173 Y-0.3378
X-4.4018 Y-0.339
X-4.3863 Y-0.3396
X-4.3707 Y-0.3395
X-4.3552 Y-0.3389
X-4.3397 Y-0.3376
X-4.3243 Y-0.3356
X-4.309 Y-0.3331
X-4.2938 Y-0.33
X-4.2787 Y-0.3262
X-4.2638 Y-0.3218
X-4.249 Y-0.3169
X-4.2345 Y-0.3113
X-4.2202 Y-0.3052
X-4.2062 Y-0.2985
X-4.1925 Y-0.2913
X-4.179 Y-0.2835
X-4.1659 Y-0.2752
X-4.1531 Y-0.2663
X-4.1407 Y-0.257
X-4.1287 Y-0.2471
X-4.1171 Y-0.2368
X-4.1059 Y-0.226
X-4.0951 Y-0.2148
X-4.0848 Y-0.2032
X-4.075 Y-0.1911
X-4.0657 Y-0.1787
X-4.0569 Y-0.1659
X-4.0486 Y-0.1528
X-4.0408 Y-0.1393
X-4.0336 Y-0.1256
X-4.0269 Y-0.1115
X-4.0209 Y-0.0972
X-4.0153 Y-0.0827
X-4.0104 Y-0.068
X-4.0061 Y-0.053
X-4.0024 Y-0.0379
X-3.9993 Y-0.0227
X-3.9968 Y-0.0074
X-3.9949 Y0.008
X-3.9936 Y0.0235
X-3.993 Y0.039
X-3.9929 Y0.0546
X-3.9936 Y0.0701
X-3.9948 Y0.0856
X-3.9966 Y0.101
X-3.9991 Y0.1164
X-4.0022 Y0.1316
X-4.0059 Y0.1467
X-4.0102 Y0.1616
X-4.0151 Y0.1764
X-4.0205 Y0.1909
X-4.0266 Y0.2052
X-4.0332 Y0.2193
X-4.0404 Y0.233
X-4.0481 Y0.2465
X-4.0564 Y0.2597
X-4.0652 Y0.2725
X-4.0745 Y0.2849
X-4.0843 Y0.297
X-4.0946 Y0.3087
X-4.1053 Y0.3199
X-4.1165 Y0.3307
X-4.1281 Y0.341
X-4.1401 Y0.3509
X-4.1524 Y0.3603
X-4.1652 Y0.3692
X-4.1783 Y0.3775
X-4.1917 Y0.3853
X-4.2054 Y0.3926
X-4.2195 Y0.3993
X-4.2337 Y0.4055
X-4.2482 Y0.4111
X-4.2629 Y0.416
X-4.2778 Y0.4204
X-4.2929 Y0.4242
X-4.3081 Y0.4274
X-4.3234 Y0.43
X-4.3389 Y0.4319
X-4.3543 Y0.4333
X-4.3699 Y0.434
X-4.3854 Y0.4341
X-4.4009 Y0.4335
X-4.4164 Y0.4324
X-4.4319 Y0.4306
X-4.4472 Y0.4282
X-4.4624 Y0.4252
X-4.4776 Y0.4215
X-4.4925 Y0.4173
X-4.5073 Y0.4125
X-4.5218 Y0.4071
X-4.5362 Y0.4011
X-4.5502 Y0.3945
X-4.5641 Y0.3874
X-4.5776 Y0.3797
X-4.5908 Y0.3715
X-4.6036 Y0.3627
X-4.6161 Y0.3535
X-4.6282 Y0.3438
X-4.6399 Y0.3335
G3 X-4.8103 Y-0.0147 I0.2281 J-0.3274
G1 X-4.8092 Y-0.0315
X-4.8076 Y-0.0481
X-4.8053 Y-0.0647
X-4.8024 Y-0.0812
X-4.7989 Y-0.0976
X-4.7947 Y-0.1139
X-4.79 Y-0.1299
X-4.7847 Y-0.1458
X-4.7787 Y-0.1615
X-4.7722 Y-0.1769
X-4.7651 Y-0.1921
X-4.7575 Y-0.207
X-4.7493 Y-0.2216
X-4.7406 Y-0.2359
X-4.7313 Y-0.2499
X-4.7215 Y-0.2635
X-4.7113 Y-0.2767
X-4.7005 Y-0.2896
X-4.6893 Y-0.302
X-4.6776 Y-0.314
X-4.6654 Y-0.3255
X-4.6529 Y-0.3366
X-4.6399 Y-0.3473
X-4.6265 Y-0.3574
X-4.6128 Y-0.367
X-4.5987 Y-0.3761
X-4.5843 Y-0.3846
X-4.5696 Y-0.3927
X-4.5546 Y-0.4001
X-4.5394 Y-0.407
X-4.5238 Y-0.4133
X-4.5081 Y-0.4191
X-4.4922 Y-0.4242
X-4.476 Y-0.4288
X-4.4597 Y-0.4327
X-4.4433 Y-0.436
X-4.4268 Y-0.4387
X-4.4102 Y-0.4408
X-4.3935 Y-0.4423
X-4.3767 Y-0.4431
X-4.36 Y-0.4433
X-4.3432 Y-0.4429
X-4.3265 Y-0.4419
X-4.3098 Y-0.4402
X-4.2932 Y-0.4379
X-4.2767 Y-0.435
X-4.2604 Y-0.4315
X-4.2441 Y-0.4274
X-4.228 Y-0.4226
X-4.2122 Y-0.4173
X-4.1965 Y-0.4114
X-4.181 Y-0.4049
X-4.1659 Y-0.3978
X-4.151 Y-0.3902
X-4.1363 Y-0.382
X-4.122 Y-0.3733
X-4.1081 Y-0.364
X-4.0945 Y-0.3542
X-4.0812 Y-0.3439
X-4.0684 Y-0.3332
X-4.056 Y-0.3219
X-4.044 Y-0.3102
X-4.0324 Y-0.2981
X-4.0213 Y-0.2856
X-4.0107 Y-0.2726
X-4.0006 Y-0.2592
X-3.991 Y-0.2455
X-3.9819 Y-0.2315
X-3.9733 Y-0.2171
X-3.9653 Y-0.2023
X-3.9578 Y-0.1873
X-3.9509 Y-0.1721
X-3.9446 Y-0.1566
X-3.9389 Y-0.1408
X-3.9337 Y-0.1249
X-3.9292 Y-0.1087
X-3.9252 Y-0.0925
X-3.9219 Y-0.076
X-3.9192 Y-0.0595
X-3.9171 Y-0.0429
X-3.9132 Y-0.027
X-3.9099 Y-0.0109
X-3.9072 Y0.0052
X-3.9051 Y0.0215
X-3.9036 Y0.0378
X-3.9027 Y0.0541
X-3.9024 Y0.0705
X-3.9027 Y0.0869
X-3.9037 Y0.1032
X-3.9052 Y0.1195
X-3.9073 Y0.1358
X-3.91 Y0.1519
X-3.9133 Y0.1679
X-3.9172 Y0.1838
X-3.9217 Y0.1996
X-3.9268 Y0.2152
X-3.9324 Y0.2305
X-3.9386 Y0.2457
X-3.9453 Y0.2606
X-3.9526 Y0.2753
X-3.9605 Y0.2897
X-3.9688 Y0.3037
X-3.9777 Y0.3175
X-3.9871 Y0.3309
X-3.9969 Y0.344
X-4.0073 Y0.3567
X-4.0181 Y0.369
X-4.0293 Y0.3809
X-4.041 Y0.3924
X-4.0531 Y0.4034
X-4.0656 Y0.414
X-4.0785 Y0.4241
X-4.0917 Y0.4338
X-4.1053 Y0.4429
X-4.1192 Y0.4515
X-4.1334 Y0.4596
X-4.1479 Y0.4672
X-4.1627 Y0.4743
X-4.1778 Y0.4807
X-4.193 Y0.4867
X-4.21 Y0.4929
X-4.2273 Y0.4984
X-4.2447 Y0.5034
X-4.2622 Y0.5078
X-4.2799 Y0.5116
X-4.2977 Y0.5148
X-4.3157 Y0.5174
X-4.3337 Y0.5193
X-4.3517 Y0.5207
X-4.3698 Y0.5214
X-4.3879 Y0.5215
X-4.406 Y0.521
X-4.4241 Y0.5198
X-4.4421 Y0.5181
X-4.46 Y0.5157
X-4.4779 Y0.5127
X-4.4956 Y0.5091
X-4.5133 Y0.5049
X-4.5307 Y0.5001
X-4.548 Y0.4947
X-4.5651 Y0.4887
X-4.582 Y0.4822
X-4.5986 Y0.475
X-4.615 Y0.4673
X-4.6311 Y0.459
X-4.6469 Y0.4502
X-4.6624 Y0.4409
X-4.6776 Y0.431
X-4.6924 Y0.4206
X-4.7069 Y0.4097
X-4.7209 Y0.3983
X-4.7346 Y0.3865
X-4.7479 Y0.3742
X-4.7607 Y0.3614
X-4.7731 Y0.3482
X-4.7851 Y0.3346
X-4.7965 Y0.3206
X-4.8075 Y0.3062
X-4.818 Y0.2914
X-4.8279 Y0.2763
X-4.8374 Y0.2608
X-4.8463 Y0.2451
X-4.8546 Y0.229
X-4.8624 Y0.2127
X-4.8697 Y0.1961
X-4.8764 Y0.1793
X-4.8824 Y0.1622
X-4.8879 Y0.145
X-4.8928 Y0.1275
X-4.8972 Y0.11
X-4.9009 Y0.0922
X-4.9039 Y0.0744
X-4.9064 Y0.0565
X-4.9083 Y0.0385
X-4.9095 Y0.0204
X-4.9102 Y0.0023
Y-0.0158
X-4.9096 Y-0.0339
X-4.9083 Y-0.052
X-4.9065 Y-0.07
X-4.904 Y-0.0879
X-4.9009 Y-0.1057
X-4.8972 Y-0.1235
X-4.8929 Y-0.1411
X-4.8881 Y-0.1585
X-4.8826 Y-0.1757
X-4.8765 Y-0.1928
X-4.8698 Y-0.2096
X-4.8626 Y-0.2262
X-4.8548 Y-0.2426
X-4.8465 Y-0.2586
X-4.8376 Y-0.2744
X-4.8281 Y-0.2899
X-4.8182 Y-0.305
X-4.8077 Y-0.3197
X-4.7968 Y-0.3342
X-4.7853 Y-0.3482
X-4.7734 Y-0.3618
X-4.761 Y-0.375
X-4.7482 Y-0.3878
X-4.7349 Y-0.4001
X-4.7212 Y-0.412
X-4.7072 Y-0.4234
X-4.6927 Y-0.4343
X-4.6779 Y-0.4447
X-4.6627 Y-0.4545
X-4.6472 Y-0.4639
X-4.6314 Y-0.4727
X-4.6153 Y-0.481
X-4.5989 Y-0.4887
X-4.5823 Y-0.4959
X-4.5655 Y-0.5025
X-4.5484 Y-0.5085
X-4.5311 Y-0.5139
X-4.5136 Y-0.5187
X-4.496 Y-0.5229
X-4.4783 Y-0.5265
X-4.4604 Y-0.5295
X-4.4425 Y-0.5319
X-4.4245 Y-0.5337
X-4.4064 Y-0.5348
X-4.3883 Y-0.5354
X-4.3702 Y-0.5353
X-4.3521 Y-0.5346
X-4.3341 Y-0.5332
X-4.3161 Y-0.5313
X-4.2981 Y-0.5287
X-4.2803 Y-0.5256
X-4.2626 Y-0.5218
X-4.2451 Y-0.5174
G3 X-3.8428 Y0.264 I-0.1357 J0.5641
X-4.6749 Y0.5468 I-0.538 J-0.2173
X-4.9233 Y-0.3148 I0.302 J-0.5536
X-4.0591 Y-0.5539 I0.5504 J0.3079
X-4.5795 Y0.695 I-0.3242 J0.5978
X-5.0598 Y0.2417 I0.194 J-0.6866
G1 X-5.0661 Y0.
X-5.061 Y-0.1888
X-5.056 Y-0.2093
X-5.0504 Y-0.2296
X-5.0441 Y-0.2497
X-5.0373 Y-0.2696
X-5.0299 Y-0.2894
X-5.0219 Y-0.3089
X-5.0133 Y-0.3281
X-5.0042 Y-0.3471
X-4.9945 Y-0.3658
X-4.9842 Y-0.3842
X-4.9734 Y-0.4023
X-4.962 Y-0.4201
X-4.9502 Y-0.4375
X-4.9378 Y-0.4545
X-4.9249 Y-0.4712
X-4.9116 Y-0.4875
X-4.8977 Y-0.5034
X-4.8834 Y-0.5189
X-4.8686 Y-0.5339
X-4.8534 Y-0.5485
X-4.8378 Y-0.5626
X-4.8217 Y-0.5763
X-4.8053 Y-0.5894
X-4.7884 Y-0.6021
X-4.7712 Y-0.6143
X-4.7537 Y-0.6259
X-4.7358 Y-0.6371
X-4.7176 Y-0.6476
X-4.699 Y-0.6577
X-4.6802 Y-0.6672
X-4.6611 Y-0.6761
X-4.6418 Y-0.6844
X-4.6222 Y-0.6922
X-4.6024 Y-0.6994
X-4.5824 Y-0.706
X-4.5622 Y-0.7119
X-4.5418 Y-0.7173
X-4.5213 Y-0.7221
X-4.5006 Y-0.7263
X-4.4798 Y-0.7298
X-4.459 Y-0.7327
X-4.438 Y-0.735
X-4.417 Y-0.7367
X-4.396 Y-0.7378
X-4.3749 Y-0.7382
X-4.3538 Y-0.738
X-4.3328 Y-0.7372
X-4.3117 Y-0.7357
X-4.2908 Y-0.7336
X-4.2699 Y-0.7309
X-4.2491 Y-0.7276
X-4.2284 Y-0.7237
X-4.2078 Y-0.7191
X-4.1874 Y-0.7139
X-4.1671 Y-0.7082
X-4.147 Y-0.7018
X-4.1271 Y-0.6948
X-4.1074 Y-0.6873
X-4.088 Y-0.6791
X-4.0688 Y-0.6704
X-4.0499 Y-0.6611
X-4.0313 Y-0.6513
X-4.0129 Y-0.6409
X-3.9949 Y-0.63
X-3.9772 Y-0.6185
X-3.7063 Y-0.2964
G3 X-3.621 Y0.1935 I-0.5511 J0.3484
G1 X-4.0475 Y0.708
G3 X-4.512 Y0.8109 I-0.3406 J-0.4378
X-5.0429 Y0.4825 I0.1273 J-0.7991
G1 X-5.0579 Y0.2832
X-5.0591 Y0.2596
X-5.0596 Y0.2416
G3 X-5.0517 Y0.2282 I0.0156 J0.0001
X-4.9945 Y0.2398 I0.0219 J0.0386
X-5.0228 Y0.4595 I-0.1252 J0.0955
X-5.0347 Y0.4679 I-0.0969 J-0.1241 F50.
G2 X-5.0419 Y0.4818 I0.0084 J0.0132
G1 X-5.0369 Y0.5428 F60.
X-5.0338 Y0.5664
X-5.0306 Y0.59
G2 X-4.6805 Y0.8694 I0.4762 J-0.2376
X-4.2026 Y0.8977 I0.2881 J-0.8183
G1 X-4.0475 Y0.708
G2 X-4.0454 Y0.6925 I-0.0124 J-0.0096
X-4.0943 Y0.6679 I-0.0386 J0.0158
X-4.2059 Y0.8665 I0.039 J0.1526
X-4.201 Y0.8802 I0.1506 J-0.046 F50.
G3 X-4.2031 Y0.8957 I-0.0145 J0.0059
G1 X-4.2491 Y0.9513 F60.
G3 X-4.623 Y0.9885 I-0.2221 J-0.3351
X-5.0038 Y0.7972 I0.1849 J-0.8425
G1 X-5.0306 Y0.59
G3 X-5.0051 Y0.5763 I0.0156 J-0.0016
X-4.9619 Y0.7125 I-0.0828 J0.1012
X-4.9882 Y0.7696 I-0.1897 J-0.0527
X-4.9993 Y0.7845 I-0.1634 J-0.1097 F50.
G2 X-5.0027 Y0.796 I0.0121 J0.0099
G1 X-5.0019 Y0.8024 F60.
X-4.998 Y0.826
X-4.989 Y0.8732
G2 X-4.6826 Y1.0744 I0.36 J-0.2142
X-4.376 Y1.1044 I0.2171 J-0.6375
G1 X-4.2491 Y0.9513
G2 X-4.247 Y0.9358 I-0.0124 J-0.0096
X-4.261 Y0.9261 I-0.0145 J0.0059
X-4.3786 Y1.0752 I-0.0037 J0.1181
X-4.3739 Y1.0889 I0.114 J-0.031 F50.
G3 X-4.376 Y1.1044 I-0.0145 J0.0059
G1 X-4.4143 Y1.1506 F60.
G3 X-4.7586 Y1.1459 I-0.1682 J-0.2912
X-4.9549 Y1.0586 I0.0738 J-0.4305
G1 X-4.989 Y0.8732
G3 X-4.9833 Y0.8586 I0.0155 J-0.0024
X-4.9485 I0.0174 J0.0216
X-4.9375 Y1.033 I-0.0738 J0.0922
X-4.9483 Y1.0428 I-0.0848 J-0.0822 F50.
G2 X-4.9539 Y1.0574 I0.0098 J0.0122
G1 X-4.953 Y1.062 F60.
X-4.9483 Y1.0856
X-4.9393 Y1.1222
G2 X-4.6244 Y1.2864 I0.3101 J-0.2106
X-4.5274 Y1.2871 I0.0491 J-0.0879
G1 X-4.4143 Y1.1506
G2 X-4.4122 Y1.1351 I-0.0124 J-0.0096
X-4.4559 Y1.1156 I-0.032 J0.0131
X-4.53 Y1.2578 I0.0399 J0.1112
X-4.5253 Y1.2716 I0.114 J-0.031 F50.
G3 X-4.5274 Y1.2871 I-0.0145 J0.0059
G1 X-4.5561 Y1.3216 F60.
G3 X-4.885 Y1.2993 I-0.1497 J-0.2284
G1 X-4.8927 Y1.3032
X-4.8948 Y1.3006
X-4.896 Y1.2976
X-4.9393 Y1.1222
G3 X-4.9344 Y1.1073 I0.0153 J-0.0032
X-4.8905 Y1.1075 I0.0219 J0.0244
X-4.8809 Y1.2723 I-0.0796 J0.0873
X-4.8911 Y1.2827 I-0.0891 J-0.0775 F50.
G2 X-4.896 Y1.2976 I0.0105 J0.0116
G1 X-4.8842 Y1.3452 F60.
G2 X-4.6677 Y1.4564 I0.1859 J-0.0957
G1 X-4.5561 Y1.3216
G2 X-4.554 Y1.3061 I-0.0124 J-0.0096
X-4.6005 Y1.2865 I-0.0331 J0.0136
X-4.6703 Y1.4271 I0.0441 J0.1096
X-4.6656 Y1.4409 I0.114 J-0.031 F50.
G3 X-4.6677 Y1.4564 I-0.0145 J0.0059
G1 X-4.693 Y1.4868 F60.
G3 X-4.8361 Y1.508 I-0.0855 J-0.0835
G1 X-4.8368 Y1.5049
Y1.5017
X-4.8362 Y1.4986
X-4.8351 Y1.4957
X-4.8335 Y1.493
X-4.8314 Y1.4908
X-4.829 Y1.489
X-4.8263 Y1.4877
X-4.8234 Y1.487
X-4.8179 Y1.4858
G3 X-4.7015 Y1.4621 I0.0952 J0.1703
X-4.693 Y1.4868 I-0.0039 J0.0152 F50.
G1 X-4.7517 Y1.5576 F60.
G3 X-4.8134 Y1.5777 I-0.0368 J-0.0082
X-4.8077 Y1.5611 I0.0151 J-0.004
G1 X-4.7978 Y1.5537
X-4.7734 Y1.5355
G3 X-4.7602 Y1.5329 I0.0094 J0.0125
X-4.7517 Y1.5576 I-0.0039 J0.0152 F50.
X-4.7978 Y1.6088 I-0.071 J-0.0177 F60.
G1 X-4.7993
X-4.8001 Y1.6086
X-4.8013 Y1.6081
X-4.8024 Y1.6071
X-4.8028 Y1.6066
X-4.8069 Y1.5989
X-4.8842 Y1.3452
G3 X-4.8658 Y1.3267 I0.0153 J-0.0032
G1 X-4.8629 Y1.3273 Z-0.1672
X-4.86 Y1.3279 Z-0.1663
X-4.8573 Y1.3284 Z-0.1649
X-4.855 Y1.3289 Z-0.1629
X-4.8531 Y1.3292 Z-0.1605
X-4.8517 Y1.3295 Z-0.1578
X-4.8508 Y1.3297 Z-0.1549
X-4.8505 Y1.3298 Z-0.1519
G0 Z-0.1362
X-5.0455 Y-0.1453
G1 Z-0.1519 F50.
X-5.0456 Y-0.1455 Z-0.1549
X-5.0461 Y-0.1463 Z-0.1578
X-5.0468 Y-0.1476 Z-0.1605
X-5.0477 Y-0.1493 Z-0.1629
X-5.0489 Y-0.1513 Z-0.1649
X-5.0502 Y-0.1537 Z-0.1663
X-5.0516 Y-0.1562 Z-0.1672
X-5.0531 Y-0.1589 Z-0.1675
G3 X-5.061 Y-0.1888 I0.0544 J-0.0304
G1 X-5.0591 Y-0.2596 F60.
X-5.0579 Y-0.2832
X-5.0465 Y-0.4248
G3 X-4.6651 Y-0.7779 I0.5611 J0.2236
X-4.117 Y-0.7938 I0.2966 J0.7708
G1 X-3.9755 Y-0.6211
G3 X-3.9734 Y-0.6056 I-0.0124 J0.0096
X-4.0471 Y-0.5801 I-0.0481 J-0.0197
X-4.1202 Y-0.7632 I0.0775 J-0.1371
X-4.1154 Y-0.7769 I0.1506 J0.046 F50.
G2 X-4.1174 Y-0.7924 I-0.0145 J-0.0059
G1 X-4.1783 Y-0.8659 F60.
X-4.1915 Y-0.8742
X-4.205 Y-0.8821
X-4.2189 Y-0.8894
X-4.2329 Y-0.8962
X-4.2473 Y-0.9025
X-4.2618 Y-0.9082
X-4.2766 Y-0.9134
X-4.2916 Y-0.918
X-4.3067 Y-0.922
X-4.322 Y-0.9254
X-4.3373 Y-0.9282
X-4.3528 Y-0.9305
X-4.3684 Y-0.9321
X-4.384 Y-0.9332
X-4.3996 Y-0.9337
X-4.4153 Y-0.9335
X-4.4309 Y-0.9328
X-4.4465 Y-0.9315
X-4.462 Y-0.9295
X-4.4775 Y-0.927
X-4.4928 Y-0.9239
X-4.508 Y-0.9202
X-4.523 Y-0.916
X-4.5379 Y-0.9111
X-4.5526 Y-0.9057
G2 X-5.0224 Y-0.6575 I0.1233 J0.8021
G1 X-5.0338 Y-0.5664
X-5.0369 Y-0.5428
X-5.0465 Y-0.4248
G2 X-5.0393 Y-0.4109 I0.0156 J0.0007
X-4.9798 Y-0.4221 I0.0238 J-0.0371
X-5.0037 Y-0.6335 I-0.1274 J-0.0926
X-5.0151 Y-0.6425 I-0.1034 J0.1188 F50.
G3 X-5.0216 Y-0.6568 I0.0091 J-0.0127
G1 X-5.0114 Y-0.7316 F60.
G3 X-4.7146 Y-0.9688 I0.3804 J0.1718
X-4.305 Y-1.0187 I0.2994 J0.7519
G1 X-4.1783 Y-0.8659
G3 X-4.1762 Y-0.8504 I-0.0124 J0.0096
X-4.1907 Y-0.8403 I-0.0149 J-0.0061
X-4.3076 Y-0.9895 I-0.0029 J-0.1181
X-4.3029 Y-1.0032 I0.114 J0.031 F50.
G2 X-4.305 Y-1.0187 I-0.0145 J-0.0059
G1 X-4.3409 Y-1.062 F60.
G2 X-4.6957 Y-1.0702 I-0.1839 J0.2787
X-4.9776 Y-0.9394 I0.117 J0.6213
G1 X-4.998 Y-0.826
X-5.0019 Y-0.8024
X-5.0114 Y-0.7316
G2 X-5.005 Y-0.7174 I0.0156 J0.0016
X-4.9245 Y-0.7401 I0.0312 J-0.0434
X-4.9601 Y-0.914 I-0.1452 J-0.0609
X-4.971 Y-0.9236 I-0.1097 J0.113 F50.
G3 X-4.9766 Y-0.9382 I0.0098 J-0.0122
G1 X-4.9641 Y-1.0042 F60.
G3 X-4.6587 Y-1.1903 I0.3316 J0.2006
X-4.4609 Y-1.2068 I0.1311 J0.3762
G1 X-4.3409 Y-1.062
G3 X-4.3388 Y-1.0465 I-0.0124 J0.0096
X-4.3684 Y-1.03 I-0.0252 J-0.0103
X-4.4635 Y-1.1776 I0.0188 J-0.1166
X-4.4588 Y-1.1913 I0.114 J0.031 F50.
G2 X-4.4609 Y-1.2068 I-0.0145 J-0.0059
G1 X-4.4974 Y-1.2508 F60.
G2 X-4.8896 Y-1.2018 I-0.1573 J0.3351
X-4.923 Y-1.1879 I-0.0099 J0.0235
G1 X-4.9483 Y-1.0856
X-4.953 Y-1.062
X-4.9641 Y-1.0042
G2 X-4.9584 Y-0.9896 I0.0155 J0.0024
X-4.929 Y-0.9887 I0.0153 J-0.019
X-4.908 Y-1.1627 I-0.0681 J-0.0965
X-4.9182 Y-1.1731 I-0.0891 J0.0775 F50.
G3 X-4.923 Y-1.1879 I0.0105 J-0.0116
G1 X-4.9098 Y-1.2415 F60.
G3 X-4.6077 Y-1.3832 I0.2645 J0.1712
G1 X-4.6052 Y-1.381
X-4.4974 Y-1.2508
G3 X-4.4953 Y-1.2353 I-0.0124 J0.0096
X-4.5484 Y-1.2159 I-0.0354 J-0.0145
X-4.6078 Y-1.3517 I0.0545 J-0.1048
X-4.6031 Y-1.3655 I0.114 J0.031 F50.
G2 X-4.6052 Y-1.381 I-0.0145 J-0.0059
G1 X-4.6343 Y-1.416 F60.
G2 X-4.8621 Y-1.4178 I-0.1151 J0.1542
G1 X-4.8842 Y-1.3452
X-4.9098 Y-1.2415
G2 X-4.905 Y-1.2267 I0.0153 J0.0032
X-4.8701 Y-1.2252 I0.0183 J-0.0204
X-4.8484 Y-1.3919 I-0.0715 J-0.094
X-4.8581 Y-1.4027 I-0.0932 J0.0726 F50.
G3 X-4.8621 Y-1.4178 I0.0111 J-0.0111
G1 X-4.8483 Y-1.4632 F60.
G3 X-4.7319 Y-1.5363 I0.1091 J0.0446
G1 X-4.73 Y-1.5336
X-4.7287 Y-1.5307
X-4.728 Y-1.5276
X-4.7278 Y-1.5244
X-4.7283 Y-1.5214
X-4.7293 Y-1.5185
X-4.7308 Y-1.5158
X-4.7328 Y-1.5136
X-4.7351 Y-1.5117
X-4.7399 Y-1.5082
G3 X-4.8309 Y-1.4437 I-0.1415 J-0.1032
X-4.8483 Y-1.4632 I-0.0022 J-0.0155 F50.
G1 X-4.8228 Y-1.547 F60.
G3 X-4.777 Y-1.5882 I0.0343 J-0.0079
X-4.8038 Y-1.525 I-0.0312 J0.0241
X-4.8071 Y-1.5249 I-0.0019 J-0.0175
X-4.8228 Y-1.547 I0.0013 J-0.0175 F50.
X-4.8001 Y-1.6086 I0.049 J-0.0169 F60.
G1 X-4.7993 Y-1.6088
X-4.7978
X-4.7971 Y-1.6086
G3 X-4.7879 Y-1.6014 I-0.0076 J0.0192
G1 X-4.6343 Y-1.416
G3 X-4.6428 Y-1.3913 I-0.0124 J0.0096
G1 X-4.6457 Y-1.3906 Z-0.1672
X-4.6486 Y-1.3898 Z-0.1663
X-4.6512 Y-1.3892 Z-0.1649
X-4.6535 Y-1.3886 Z-0.1629
X-4.6554 Y-1.3881 Z-0.1605
X-4.6568 Y-1.3877 Z-0.1578
X-4.6577 Y-1.3875 Z-0.1549
X-4.6579 Y-1.3874 Z-0.1519
G0 Z-0.1362
X-3.7467 Y-0.319
G1 Z-0.1519 F50.
X-3.7464 Y-0.3189 Z-0.1549
X-3.7456 Y-0.3186 Z-0.1578
X-3.7442 Y-0.3181 Z-0.1605
X-3.7424 Y-0.3174 Z-0.1629
X-3.7402 Y-0.3166 Z-0.1649
X-3.7376 Y-0.3157 Z-0.1663
X-3.7349 Y-0.3147 Z-0.1672
X-3.732 Y-0.3137 Z-0.1675
G3 X-3.7063 Y-0.2964 I-0.0209 J0.0587
G1 X-3.5851 Y-0.1502 F60.
G2 Y0.1502 I0.6076 J0.1502
G1 X-3.621 Y0.1935
G3 X-3.6348 Y0.1986 I-0.0117 J-0.0104
G1 X-3.637 Y0.1977 Z-0.1673
X-3.6392 Y0.1969 Z-0.1668
X-3.6412 Y0.1962 Z-0.1659
X-3.6427 Y0.1946 Z-0.1646
X-3.644 Y0.1933 Z-0.163
X-3.6452 Y0.1921 Z-0.1611
X-3.6461 Y0.1912 Z-0.1589
X-3.6465 Y0.1904 Z-0.1567
X-3.6468 Y0.1899 Z-0.1543
X-3.6469 Y0.1897 Z-0.1519
G0 Z0.4
X-3.0874 Y-3.1627
Z0.1
G3 X-3.0893 Y-3.014 Z0.0588 I-0.0009 J0.0743 F50.
X-3.0874 Y-3.1627 Z0.0176 I0.0009 J-0.0743
X-3.0893 Y-3.014 Z-0.0235 I-0.0009 J0.0743
X-3.0874 Y-3.1627 Z-0.0647 I0.0009 J-0.0743
X-3.0893 Y-3.014 Z-0.1059 I-0.0009 J0.0743
X-3.0874 Y-3.1627 Z-0.1471 I0.0009 J-0.0743
X-3.014 Y-3.0884 Z-0.1675 I-0.0009 J0.0743
X-3.1627 I-0.0743 J0.
X-3.0143 Y-3.0946 I0.0743 J0.
G1 X-3.014 Y-3.0884
G3 X-3.1794 Y-2.9701 I-0.0855 J0.0551 F60.
G1 X-3.1872 Y-2.976
X-3.1946 Y-2.9823
X-3.2016 Y-2.9891
X-3.2082 Y-2.9964
X-3.2142 Y-3.004
X-3.2198 Y-3.012
X-3.2249 Y-3.0204
X-3.2295 Y-3.029
X-3.2334 Y-3.0379
X-3.2369 Y-3.0471
X-3.2397 Y-3.0564
X-3.2419 Y-3.0659
X-3.2436 Y-3.0755
X-3.2446 Y-3.0853
X-3.245 Y-3.095
X-3.2448 Y-3.1048
X-3.244 Y-3.1145
X-3.2425 Y-3.1242
X-3.2405 Y-3.1337
X-3.2378 Y-3.1431
X-3.2346 Y-3.1523
X-3.2308 Y-3.1613
X-3.2264 Y-3.1701
X-3.2215 Y-3.1785
X-3.2161 Y-3.1866
X-3.2102 Y-3.1944
X-3.2037 Y-3.2017
X-3.1969 Y-3.2087
X-3.1896 Y-3.2152
X-3.1819 Y-3.2212
X-3.1739 Y-3.2267
X-3.1655 Y-3.2317
X-3.1568 Y-3.2362
X-3.1479 Y-3.2401
X-3.1387 Y-3.2435
X-3.1293 Y-3.2462
X-3.1198 Y-3.2484
X-3.1102 Y-3.2499
X-3.1004 Y-3.2509
X-3.0907 Y-3.2512
X-3.0809 Y-3.2509
X-3.0712 Y-3.25
X-3.0616 Y-3.2485
X-3.052 Y-3.2464
X-3.0427 Y-3.2437
X-3.0335 Y-3.2404
X-3.0245 Y-3.2365
X-3.0158 Y-3.232
X-3.0074 Y-3.2271
X-2.9993 Y-3.2216
X-2.9916 Y-3.2156
X-2.9843 Y-3.2091
X-2.9774 Y-3.2022
X-2.971 Y-3.1948
X-2.965 Y-3.1871
X-2.9596 Y-3.179
X-2.9546 Y-3.1706
X-2.9502 Y-3.1619
X-2.9464 Y-3.1529
X-2.9431 Y-3.1437
X-2.9371 Y-3.1345
X-2.9317 Y-3.125
X-2.9268 Y-3.1152
X-2.9224 Y-3.1051
X-2.9186 Y-3.0948
X-2.9155 Y-3.0843
X-2.9129 Y-3.0737
X-2.9109 Y-3.0629
X-2.9096 Y-3.052
X-2.9089 Y-3.041
X-2.9087 Y-3.0301
X-2.9093 Y-3.0191
X-2.9104 Y-3.0082
X-2.9122 Y-2.9974
X-2.9146 Y-2.9867
X-2.9175 Y-2.9761
X-2.9211 Y-2.9657
X-2.9253 Y-2.9556
X-2.93 Y-2.9457
X-2.9353 Y-2.9361
X-2.9411 Y-2.9268
X-2.9475 Y-2.9178
X-2.9543 Y-2.9092
X-2.9616 Y-2.9011
X-2.9694 Y-2.8933
X-2.9776 Y-2.886
X-2.9862 Y-2.8792
X-2.9952 Y-2.8729
X-3.0045 Y-2.8671
X-3.0141 Y-2.8619
X-3.024 Y-2.8572
X-3.0342 Y-2.8531
X-3.0446 Y-2.8495
X-3.0551 Y-2.8466
X-3.0659 Y-2.8442
X-3.0767 Y-2.8425
X-3.0876 Y-2.8414
X-3.0986 Y-2.8409
X-3.1095 Y-2.8411
X-3.1205 Y-2.8418
X-3.1314 Y-2.8432
X-3.1421 Y-2.8452
X-3.1528 Y-2.8478
X-3.1633 Y-2.8511
X-3.1736 Y-2.8549
X-3.1836 Y-2.8593
X-3.1934 Y-2.8642
X-3.2029 Y-2.8697
X-3.2121 Y-2.8757
X-3.2209 Y-2.8823
X-3.2293 Y-2.8893
X-3.2373 Y-2.8968
X-3.2449 Y-2.9047
X-3.2545 Y-2.9122
X-3.2637 Y-2.9201
X-3.2726 Y-2.9285
X-3.2809 Y-2.9373
X-3.2889 Y-2.9465
X-3.2963 Y-2.9562
X-3.3032 Y-2.9662
X-3.3096 Y-2.9765
X-3.3154 Y-2.9872
X-3.3207 Y-2.9982
X-3.3255 Y-3.0094
X-3.3296 Y-3.0208
X-3.3332 Y-3.0325
X-3.3361 Y-3.0443
X-3.3385 Y-3.0562
X-3.3402 Y-3.0682
X-3.3413 Y-3.0804
X-3.3418 Y-3.0925
X-3.3416 Y-3.1047
X-3.3408 Y-3.1168
X-3.3394 Y-3.1289
X-3.3374 Y-3.1409
X-3.3348 Y-3.1528
X-3.3315 Y-3.1645
X-3.3277 Y-3.1761
X-3.3233 Y-3.1874
X-3.3183 Y-3.1985
X-3.3127 Y-3.2093
X-3.3066 Y-3.2198
X-3.2999 Y-3.23
X-3.2928 Y-3.2398
X-3.2851 Y-3.2493
X-3.277 Y-3.2583
X-3.2684 Y-3.267
X-3.2593 Y-3.2751
X-3.2499 Y-3.2828
X-3.2401 Y-3.29
X-3.2299 Y-3.2967
X-3.2194 Y-3.3028
X-3.2086 Y-3.3084
X-3.1975 Y-3.3134
X-3.1848 Y-3.3179
X-3.1719 Y-3.3218
X-3.1588 Y-3.3251
X-3.1456 Y-3.3277
X-3.1323 Y-3.3298
X-3.1189 Y-3.3312
X-3.1055 Y-3.332
X-3.092 Y-3.3321
X-3.0785 Y-3.3316
X-3.0651 Y-3.3305
X-3.0517 Y-3.3288
X-3.0385 Y-3.3264
X-3.0253 Y-3.3235
X-3.0123 Y-3.3199
X-2.9995 Y-3.3157
X-2.9869 Y-3.3109
X-2.9746 Y-3.3056
X-2.9625 Y-3.2997
X-2.9506 Y-3.2932
X-2.9391 Y-3.2861
X-2.928 Y-3.2786
X-2.9172 Y-3.2705
X-2.9068 Y-3.2619
X-2.8968 Y-3.2529
X-2.8873 Y-3.2434
X-2.8782 Y-3.2334
X-2.8695 Y-3.2231
X-2.8614 Y-3.2124
X-2.8538 Y-3.2012
X-2.8467 Y-3.1898
X-2.8401 Y-3.178
X-2.8341 Y-3.1659
X-2.8287 Y-3.1536
X-2.8239 Y-3.141
X-2.8196 Y-3.1283
X-2.816 Y-3.1153
X-2.8129 Y-3.1022
X-2.8105 Y-3.0889
X-2.8087 Y-3.0755
X-2.8075 Y-3.0621
X-2.807 Y-3.0487
X-2.8071 Y-3.0352
X-2.8078 Y-3.0217
X-2.8091 Y-3.0083
X-2.8111 Y-2.995
X-2.8137 Y-2.9818
X-2.8169 Y-2.9687
X-2.8207 Y-2.9558
X-2.8251 Y-2.943
X-2.8301 Y-2.9305
X-2.8356 Y-2.9182
X-2.8418 Y-2.9062
X-2.8485 Y-2.8946
X-2.8557 Y-2.8832
X-2.8634 Y-2.8722
X-2.8717 Y-2.8615
X-2.8805 Y-2.8513
X-2.8897 Y-2.8414
X-2.8993 Y-2.8321
X-2.9094 Y-2.8231
X-2.9199 Y-2.8147
X-2.9308 Y-2.8068
X-2.9421 Y-2.7993
X-2.9536 Y-2.7924
X-2.9655 Y-2.7861
X-2.9777 Y-2.7803
X-2.9901 Y-2.7751
X-3.0028 Y-2.7705
X-3.0156 Y-2.7664
X-3.0287 Y-2.763
X-3.0418 Y-2.7602
X-3.0551 Y-2.758
X-3.0685 Y-2.7565
X-3.082 Y-2.7555
X-3.0954 Y-2.7552
X-3.1089 Y-2.7555
G3 X-3.184 Y-3.4188 I0.0087 J-0.3369
G1 X-3.1688 Y-3.4219
X-3.1535 Y-3.4243
X-3.138 Y-3.4261
X-3.1225 Y-3.4273
X-3.107 Y-3.4279
X-3.0915 Y-3.4278
X-3.076 Y-3.4272
X-3.0605 Y-3.4259
X-3.045 Y-3.424
X-3.0297 Y-3.4214
X-3.0145 Y-3.4183
X-2.9994 Y-3.4145
X-2.9845 Y-3.4102
X-2.9698 Y-3.4052
X-2.9553 Y-3.3997
X-2.941 Y-3.3935
X-2.927 Y-3.3868
X-2.9132 Y-3.3796
X-2.8998 Y-3.3718
X-2.8867 Y-3.3635
X-2.8739 Y-3.3546
X-2.8615 Y-3.3453
X-2.8495 Y-3.3354
X-2.8378 Y-3.3251
X-2.8266 Y-3.3143
X-2.8159 Y-3.3031
X-2.8056 Y-3.2915
X-2.7958 Y-3.2794
X-2.7865 Y-3.267
X-2.7776 Y-3.2542
X-2.7693 Y-3.2411
X-2.7616 Y-3.2276
X-2.7544 Y-3.2139
X-2.7477 Y-3.1998
X-2.7416 Y-3.1855
X-2.7361 Y-3.171
X-2.7312 Y-3.1563
X-2.7268 Y-3.1414
X-2.7231 Y-3.1263
X-2.72 Y-3.111
X-2.7175 Y-3.0957
X-2.7156 Y-3.0803
X-2.7143 Y-3.0648
X-2.7137 Y-3.0493
Y-3.0337
X-2.7143 Y-3.0182
X-2.7155 Y-3.0027
X-2.7174 Y-2.9873
X-2.7198 Y-2.972
X-2.7229 Y-2.9567
X-2.7266 Y-2.9416
X-2.7309 Y-2.9267
X-2.7358 Y-2.912
X-2.7413 Y-2.8974
X-2.7473 Y-2.8831
X-2.754 Y-2.8691
X-2.7612 Y-2.8553
X-2.7689 Y-2.8418
X-2.7772 Y-2.8287
X-2.786 Y-2.8158
X-2.7953 Y-2.8034
X-2.805 Y-2.7913
X-2.8153 Y-2.7797
X-2.826 Y-2.7684
X-2.8372 Y-2.7576
X-2.8488 Y-2.7473
X-2.8608 Y-2.7374
X-2.8732 Y-2.728
X-2.8859 Y-2.7192
X-2.899 Y-2.7108
X-2.9125 Y-2.703
X-2.9262 Y-2.6957
X-2.9402 Y-2.689
X-2.9545 Y-2.6828
X-2.969 Y-2.6773
X-2.9837 Y-2.6723
X-2.9986 Y-2.6679
X-3.0137 Y-2.6641
X-3.0289 Y-2.6609
X-3.0442 Y-2.6583
X-3.0596 Y-2.6564
X-3.0751 Y-2.6551
X-3.0906 Y-2.6544
X-3.1061 Y-2.6543
X-3.1217 Y-2.6548
X-3.1372 Y-2.656
X-3.1526 Y-2.6578
X-3.168 Y-2.6602
X-3.1832 Y-2.6632
X-3.1983 Y-2.6668
X-3.2133 Y-2.671
X-3.228 Y-2.6759
X-3.2426 Y-2.6813
X-3.2569 Y-2.6873
X-3.271 Y-2.6938
X-3.2848 Y-2.701
X-3.2983 Y-2.7086
X-3.3115 Y-2.7169
X-3.3243 Y-2.7256
X-3.3368 Y-2.7348
X-3.3489 Y-2.7446
X-3.3606 Y-2.7548
G3 X-3.531 Y-3.1031 I0.228 J-0.3274
G1 X-3.53 Y-3.1198
X-3.5283 Y-3.1365
X-3.526 Y-3.1531
X-3.5231 Y-3.1696
X-3.5196 Y-3.186
X-3.5155 Y-3.2022
X-3.5107 Y-3.2183
X-3.5054 Y-3.2341
X-3.4995 Y-3.2498
X-3.493 Y-3.2653
X-3.4859 Y-3.2804
X-3.4783 Y-3.2954
X-3.4701 Y-3.31
X-3.4613 Y-3.3243
X-3.4521 Y-3.3382
X-3.4423 Y-3.3518
X-3.432 Y-3.3651
X-3.4212 Y-3.3779
X-3.41 Y-3.3903
X-3.3983 Y-3.4023
X-3.3862 Y-3.4139
X-3.3736 Y-3.425
X-3.3606 Y-3.4356
X-3.3473 Y-3.4457
X-3.3336 Y-3.4553
X-3.3195 Y-3.4644
X-3.3051 Y-3.473
X-3.2904 Y-3.481
X-3.2754 Y-3.4884
X-3.2601 Y-3.4953
X-3.2446 Y-3.5017
X-3.2288 Y-3.5074
X-3.2129 Y-3.5125
X-3.1968 Y-3.5171
X-3.1805 Y-3.521
X-3.1641 Y-3.5243
X-3.1475 Y-3.5271
X-3.1309 Y-3.5291
X-3.1142 Y-3.5306
X-3.0975 Y-3.5314
X-3.0807 Y-3.5317
X-3.064 Y-3.5312
X-3.0473 Y-3.5302
X-3.0306 Y-3.5285
X-3.014 Y-3.5263
X-2.9975 Y-3.5234
X-2.9811 Y-3.5198
X-2.9649 Y-3.5157
X-2.9488 Y-3.511
X-2.9329 Y-3.5056
X-2.9172 Y-3.4997
X-2.9018 Y-3.4932
X-2.8866 Y-3.4861
X-2.8717 Y-3.4785
X-2.8571 Y-3.4703
X-2.8428 Y-3.4616
X-2.8288 Y-3.4523
X-2.8152 Y-3.4426
X-2.802 Y-3.4323
X-2.7891 Y-3.4215
X-2.7767 Y-3.4103
X-2.7647 Y-3.3986
X-2.7532 Y-3.3864
X-2.7421 Y-3.3739
X-2.7315 Y-3.3609
X-2.7213 Y-3.3476
X-2.7117 Y-3.3339
X-2.7026 Y-3.3198
X-2.6941 Y-3.3054
X-2.686 Y-3.2907
X-2.6786 Y-3.2757
X-2.6717 Y-3.2604
X-2.6654 Y-3.2449
X-2.6596 Y-3.2291
X-2.6545 Y-3.2132
X-2.6499 Y-3.1971
X-2.646 Y-3.1808
X-2.6427 Y-3.1644
X-2.64 Y-3.1478
X-2.6379 Y-3.1312
X-2.634 Y-3.1153
X-2.6307 Y-3.0993
X-2.628 Y-3.0831
X-2.6259 Y-3.0669
X-2.6244 Y-3.0506
X-2.6235 Y-3.0342
X-2.6232 Y-3.0178
X-2.6235 Y-3.0015
X-2.6244 Y-2.9851
X-2.6259 Y-2.9688
X-2.628 Y-2.9526
X-2.6308 Y-2.9364
X-2.6341 Y-2.9204
X-2.638 Y-2.9045
X-2.6424 Y-2.8887
X-2.6475 Y-2.8732
X-2.6531 Y-2.8578
X-2.6593 Y-2.8426
X-2.6661 Y-2.8277
X-2.6734 Y-2.8131
X-2.6812 Y-2.7987
X-2.6896 Y-2.7846
X-2.6984 Y-2.7708
X-2.7078 Y-2.7574
X-2.7177 Y-2.7443
X-2.728 Y-2.7316
X-2.7388 Y-2.7193
X-2.7501 Y-2.7074
X-2.7617 Y-2.6959
X-2.7738 Y-2.6849
X-2.7863 Y-2.6743
X-2.7992 Y-2.6642
X-2.8125 Y-2.6546
X-2.826 Y-2.6454
X-2.84 Y-2.6368
X-2.8542 Y-2.6287
X-2.8687 Y-2.6211
X-2.8835 Y-2.6141
X-2.8985 Y-2.6076
X-2.9138 Y-2.6017
X-2.9308 Y-2.5955
X-2.948 Y-2.5899
X-2.9654 Y-2.5849
X-2.983 Y-2.5805
X-3.0007 Y-2.5767
X-3.0185 Y-2.5735
X-3.0364 Y-2.5709
X-3.0544 Y-2.569
X-3.0725 Y-2.5677
X-3.0906 Y-2.5669
X-3.1087 Y-2.5668
X-3.1268 Y-2.5674
X-3.1448 Y-2.5685
X-3.1629 Y-2.5703
X-3.1808 Y-2.5726
X-3.1987 Y-2.5756
X-3.2164 Y-2.5792
X-3.234 Y-2.5834
X-3.2515 Y-2.5882
X-3.2687 Y-2.5936
X-3.2858 Y-2.5996
X-3.3027 Y-2.6062
X-3.3193 Y-2.6133
X-3.3357 Y-2.621
X-3.3518 Y-2.6293
X-3.3676 Y-2.6381
X-3.3831 Y-2.6475
X-3.3983 Y-2.6573
X-3.4131 Y-2.6677
X-3.4276 Y-2.6786
X-3.4417 Y-2.69
X-3.4554 Y-2.7018
X-3.4686 Y-2.7142
X-3.4815 Y-2.7269
X-3.4939 Y-2.7401
X-3.5058 Y-2.7537
X-3.5173 Y-2.7678
X-3.5282 Y-2.7822
X-3.5387 Y-2.7969
X-3.5487 Y-2.812
X-3.5581 Y-2.8275
X-3.567 Y-2.8432
X-3.5754 Y-2.8593
X-3.5832 Y-2.8756
X-3.5904 Y-2.8922
X-3.5971 Y-2.9091
X-3.6032 Y-2.9261
X-3.6087 Y-2.9434
X-3.6136 Y-2.9608
X-3.6179 Y-2.9784
X-3.6216 Y-2.9961
X-3.6247 Y-3.0139
X-3.6272 Y-3.0319
X-3.629 Y-3.0499
X-3.6303 Y-3.0679
X-3.6309 Y-3.086
Y-3.1041
X-3.6303 Y-3.1222
X-3.6291 Y-3.1403
X-3.6272 Y-3.1583
X-3.6248 Y-3.1762
X-3.6217 Y-3.1941
X-3.618 Y-3.2118
X-3.6137 Y-3.2294
X-3.6088 Y-3.2468
X-3.6033 Y-3.2641
X-3.5972 Y-3.2811
X-3.5906 Y-3.298
X-3.5834 Y-3.3146
X-3.5756 Y-3.3309
X-3.5672 Y-3.347
X-3.5583 Y-3.3627
X-3.5489 Y-3.3782
X-3.5389 Y-3.3933
X-3.5285 Y-3.4081
X-3.5175 Y-3.4225
X-3.5061 Y-3.4365
X-3.4941 Y-3.4501
X-3.4817 Y-3.4633
X-3.4689 Y-3.4761
X-3.4557 Y-3.4884
X-3.442 Y-3.5003
X-3.4279 Y-3.5117
X-3.4135 Y-3.5226
X-3.3986 Y-3.533
X-3.3835 Y-3.5429
X-3.368 Y-3.5522
X-3.3522 Y-3.5611
X-3.3361 Y-3.5693
X-3.3197 Y-3.5771
X-3.3031 Y-3.5842
X-3.2862 Y-3.5908
X-3.2691 Y-3.5968
X-3.2518 Y-3.6022
X-3.2344 Y-3.607
X-3.2168 Y-3.6112
X-3.199 Y-3.6148
X-3.1812 Y-3.6178
X-3.1632 Y-3.6202
X-3.1452 Y-3.622
X-3.1272 Y-3.6232
X-3.1091 Y-3.6237
X-3.091 Y-3.6236
X-3.0729 Y-3.6229
X-3.0548 Y-3.6216
X-3.0368 Y-3.6196
X-3.0189 Y-3.6171
X-3.0011 Y-3.6139
X-2.9834 Y-3.6101
X-2.9658 Y-3.6057
G3 X-2.5636 Y-2.8244 I-0.1357 J0.5641
X-3.3957 Y-2.5416 I-0.538 J-0.2173
X-3.644 Y-3.4031 I0.302 J-0.5536
X-2.7799 Y-3.6422 I0.5504 J0.3079
X-2.8681 Y-2.4061 I-0.3248 J0.598
G1 X-3.1636 Y-2.38
X-3.1844 Y-2.3816
X-3.2051 Y-2.3838
X-3.2257 Y-2.3866
X-3.2463 Y-2.39
X-3.2667 Y-2.394
X-3.287 Y-2.3986
X-3.3072 Y-2.4038
X-3.3272 Y-2.4096
X-3.347 Y-2.416
X-3.3666 Y-2.423
X-3.386 Y-2.4306
X-3.4052 Y-2.4387
X-3.4241 Y-2.4474
X-3.4428 Y-2.4566
X-3.4612 Y-2.4664
X-3.4792 Y-2.4768
X-3.497 Y-2.4876
X-3.5145 Y-2.499
X-3.5316 Y-2.5109
X-3.5483 Y-2.5233
X-3.5646 Y-2.5362
X-3.5806 Y-2.5496
X-3.5962 Y-2.5634
X-3.6113 Y-2.5777
X-3.6261 Y-2.5924
X-3.6404 Y-2.6076
X-3.6542 Y-2.6231
X-3.6676 Y-2.6391
X-3.6804 Y-2.6555
X-3.6928 Y-2.6722
X-3.7047 Y-2.6893
X-3.7161 Y-2.7067
X-3.727 Y-2.7245
X-3.7373 Y-2.7426
X-3.7471 Y-2.761
X-3.7564 Y-2.7796
X-3.7651 Y-2.7985
X-3.7732 Y-2.8177
X-3.7807 Y-2.8371
X-3.7877 Y-2.8567
X-3.7941 Y-2.8766
X-3.7999 Y-2.8966
X-3.8052 Y-2.9167
X-3.8098 Y-2.937
X-3.8138 Y-2.9575
X-3.8172 Y-2.978
X-3.82 Y-2.9987
X-3.8222 Y-3.0194
X-3.8238 Y-3.0401
X-3.8247 Y-3.0609
X-3.8251 Y-3.0818
X-3.8248 Y-3.1026
X-3.8239 Y-3.1234
X-3.8224 Y-3.1442
X-3.8203 Y-3.1649
X-3.8176 Y-3.1855
X-3.8142 Y-3.2061
X-3.8103 Y-3.2265
X-3.8057 Y-3.2469
X-3.8006 Y-3.267
X-3.7949 Y-3.2871
X-3.7885 Y-3.3069
X-3.7816 Y-3.3266
X-3.7741 Y-3.346
X-3.7661 Y-3.3652
X-3.7574 Y-3.3841
X-3.7483 Y-3.4028
X-3.5884 Y-3.5758
X-3.577 Y-3.5873
X-3.4525 Y-3.7053
G3 X-2.4276 Y-3.4071 I0.3858 J0.5842
X-2.3684 Y-3.2872 I-0.1897 J0.1681
G1 X-2.4221 Y-2.7141
G3 X-2.4706 Y-2.598 I-0.2314 J-0.0286
X-2.4929 Y-2.6173 I-0.0078 J-0.0136
G1 X-2.4523 Y-2.7207
G3 X-2.443 Y-2.7297 I0.0146 J0.0057
X-2.4221 Y-2.7141 I0.0053 J0.0147 F50.
X-2.5273 Y-2.5658 I-0.1172 J0.0283 F60.
G2 X-2.5861 Y-2.4899 I0.32 J0.3083
G3 X-2.6403 Y-2.4292 I-0.0926 J-0.0282
X-2.6542 Y-2.4545 I-0.0017 J-0.0156
G1 X-2.6119 Y-2.5074
G3 X-2.5978 Y-2.5132 I0.0122 J0.0098
X-2.5861 Y-2.4899 I-0.0018 J0.0155 F50.
X-2.6445 Y-2.4286 I-0.0593 J0.002 F60.
G1 X-2.8687 Y-2.4076
G3 X-2.8843 Y-2.4285 I-0.0009 J-0.0156
G1 X-2.8833 Y-2.4314 Z-0.1672
X-2.8823 Y-2.4342 Z-0.1663
X-2.8814 Y-2.4367 Z-0.1649
X-2.8805 Y-2.4389 Z-0.1629
X-2.8799 Y-2.4408 Z-0.1605
X-2.8794 Y-2.4421 Z-0.1578
X-2.8791 Y-2.443 Z-0.1549
X-2.879 Y-2.4433 Z-0.1519
G0 Z-0.1362
X-2.3891 Y-3.2458
G1 Z-0.1519 F50.
X-2.3889 Y-3.2461 Z-0.1549
X-2.3884 Y-3.2468 Z-0.1578
X-2.3875 Y-3.2479 Z-0.1605
X-2.3864 Y-3.2495 Z-0.1629
X-2.385 Y-3.2514 Z-0.1649
X-2.3834 Y-3.2536 Z-0.1663
X-2.3817 Y-3.256 Z-0.1672
X-2.3799 Y-3.2585 Z-0.1675
G2 X-2.3684 Y-3.2872 I-0.0504 J-0.0367
G1 X-2.3558 Y-3.4221 F60.
G2 X-2.6269 Y-3.7821 I-0.5414 J0.1256
X-3.2216 Y-3.9097 I-0.4589 J0.689
G1 X-3.377 Y-3.7761
X-3.3996 Y-3.7554
X-3.4525 Y-3.7053
G2 X-3.4564 Y-3.6902 I0.0112 J0.011
X-3.4074 Y-3.655 I0.0463 J-0.0127
X-3.2235 Y-3.8792 I-0.011 J-0.1965
G1 X-3.2261 Y-3.8935 F50.
G3 X-3.2214 Y-3.9084 I0.0153 J-0.0033
G1 X-3.1827 Y-3.9413 F60.
X-3.1636 Y-3.9563
X-3.14 Y-3.9743
G3 X-2.7468 Y-3.9545 I0.175 J0.4378
X-2.3342 Y-3.6335 I-0.3292 J0.8488
G1 X-2.3558 Y-3.4221
G3 X-2.3653 Y-3.4096 I-0.0155 J-0.002
X-2.4408 Y-3.4527 I-0.0212 J-0.0506
X-2.3588 Y-3.6135 I0.156 J-0.0217
X-2.3456 Y-3.6197 I0.0739 J0.139 F50.
G2 X-2.3361 Y-3.6321 I-0.006 J-0.0144
G1 X-2.3293 Y-3.7053 F60.
G2 X-2.6274 Y-3.9997 I-0.4147 J0.1218
X-2.9701 Y-4.1052 I-0.3669 J0.5828
G1 X-3.14 Y-3.9743
G2 X-3.1455 Y-3.9597 I0.0099 J0.0121
X-3.0712 Y-3.9181 I0.0536 J-0.0087
X-2.974 Y-4.0746 I-0.0599 J-0.1456
X-2.9757 Y-4.0891 I-0.1571 J0.0108 F50.
G3 X-2.9702 Y-4.1037 I0.0154 J-0.0025
G1 X-2.9665 Y-4.1065 F60.
X-2.9512 Y-4.1173
X-2.904 Y-4.1494
X-2.8875 Y-4.1528
X-2.8708 Y-4.1554
X-2.854 Y-4.1575
X-2.8372 Y-4.159
X-2.8203 Y-4.1598
X-2.8034 Y-4.16
X-2.7865 Y-4.1595
X-2.7697 Y-4.1585
X-2.7528 Y-4.1568
X-2.7361 Y-4.1545
X-2.7195 Y-4.1516
X-2.7029 Y-4.1481
X-2.6866 Y-4.1439
X-2.6703 Y-4.1392
X-2.6543 Y-4.1338
X-2.6385 Y-4.1279
X-2.6229 Y-4.1214
X-2.6076 Y-4.1143
X-2.5925 Y-4.1066
X-2.5778 Y-4.0984
X-2.5633 Y-4.0897
X-2.5492 Y-4.0804
X-2.5354 Y-4.0706
X-2.522 Y-4.0603
X-2.509 Y-4.0495
X-2.4964 Y-4.0383
G3 X-2.312 Y-3.8902 I-0.1576 J0.3854
G1 X-2.3293 Y-3.7053
G3 X-2.3388 Y-3.6929 I-0.0155 J-0.002
X-2.3743 Y-3.7037 I-0.0113 J-0.0269
X-2.3345 Y-3.8714 I0.0985 J-0.0652
X-2.3215 Y-3.8778 I0.0586 J0.1025 F50.
G2 X-2.312 Y-3.8902 I-0.006 J-0.0144
G1 X-2.3072 Y-3.9413 F60.
G2 X-2.5545 Y-4.1824 I-0.3083 J0.0688
X-2.7492 Y-4.2562 I-0.2371 J0.332
G1 X-2.904 Y-4.1494
G2 X-2.9103 Y-4.1351 I0.0092 J0.0126
X-2.8853 Y-4.1102 I0.0279 J-0.003
X-2.755 Y-4.2258 I0.0122 J-0.1175
X-2.7556 Y-4.2404 I-0.1181 J-0.0018 F50.
G3 X-2.7493 Y-4.2547 I0.0156 J-0.0017
G1 X-2.7388 Y-4.2618 F60.
X-2.7229 Y-4.2717
X-2.6917 Y-4.2906
G3 X-2.3106 Y-4.1397 I0.0622 J0.3995
G1 X-2.2933 Y-4.1315
X-2.2914 Y-4.1288
X-2.2904 Y-4.1257
X-2.2902 Y-4.1225
X-2.3072 Y-3.9413
G3 X-2.3167 Y-3.9289 I-0.0155 J-0.002
X-2.3566 Y-3.9424 I-0.0123 J-0.0294
X-2.3128 Y-4.1036 I0.1025 J-0.0587
X-2.2997 Y-4.11 I0.0586 J0.1025 F50.
G2 X-2.2902 Y-4.1225 I-0.006 J-0.0144
G1 X-2.2861 Y-4.1667 F60.
G2 X-2.5343 Y-4.3851 I-0.2843 J0.0728
G1 X-2.5373 Y-4.3838
X-2.6917 Y-4.2906
G2 X-2.6987 Y-4.2766 I0.0086 J0.0131
X-2.6672 Y-4.2455 I0.0328 J-0.0018
X-2.5445 Y-4.3553 I0.0049 J-0.118
X-2.5444 Y-4.3699 I-0.1178 J-0.0082 F50.
G3 X-2.5373 Y-4.3838 I0.0156 J-0.0008
G1 X-2.5029 Y-4.4046 F60.
X-2.4867 Y-4.4133
G3 X-2.2699 Y-4.3395 I0.0533 J0.1986
G1 X-2.2861 Y-4.1667
G3 X-2.2956 Y-4.1542 I-0.0155 J-0.002
X-2.3435 Y-4.1744 I-0.0141 J-0.0336
X-2.2924 Y-4.3206 I0.1097 J-0.0437
X-2.2794 Y-4.3271 I0.0586 J0.1025 F50.
G2 X-2.2699 Y-4.3395 I-0.006 J-0.0144
G1 X-2.266 Y-4.3817 F60.
G2 X-2.3472 Y-4.4893 I-0.1148 J0.0021
G1 X-2.4867 Y-4.4133
G2 X-2.4801 Y-4.3842 I0.0079 J0.0135
G1 X-2.2898 Y-4.3687
X-2.2828 Y-4.3681 F50.
G2 X-2.266 Y-4.3817 I0.0013 J-0.0156
G1 X-2.2579 Y-4.4676 F60.
G2 X-2.2851 Y-4.5207 I-0.0291 J-0.0186
G1 X-2.3479 Y-4.4873
G2 X-2.341 Y-4.4581 I0.0078 J0.0135
G1 X-2.2818 Y-4.4545
X-2.2744 Y-4.454 F50.
G2 X-2.2579 Y-4.4676 I0.001 J-0.0156
X-2.2562 Y-4.5313 I-0.0386 J-0.0329 F60.
X-2.2851 Y-4.5207 I-0.0075 J0.0244
X-2.2928 Y-4.5053 I0.0078 J0.0135
G1 X-2.2925 Y-4.5023 Z-0.1672
X-2.2921 Y-4.4994 Z-0.1663
X-2.2918 Y-4.4967 Z-0.1649
X-2.2915 Y-4.4943 Z-0.1629
X-2.2913 Y-4.4924 Z-0.1605
X-2.2911 Y-4.491 Z-0.1578
X-2.291 Y-4.4901 Z-0.1549
Y-4.4898 Z-0.1519
G0 Z-0.1362
X-3.7092 Y-3.424
G1 Z-0.1519 F50.
X-3.7095 Z-0.1549
X-3.7103 Y-3.4237 Z-0.1578
X-3.7117 Y-3.4233 Z-0.1605
X-3.7136 Y-3.4228 Z-0.1629
X-3.7159 Y-3.4221 Z-0.1649
X-3.7185 Y-3.4214 Z-0.1663
X-3.7213 Y-3.4206 Z-0.1672
X-3.7243 Y-3.4198 Z-0.1675
G2 X-3.751 Y-3.4042 I0.017 J0.06
G1 X-3.7672 Y-3.3871 F60.
X-3.7779 Y-3.3749
X-3.8715 Y-3.2647
G2 X-3.8477 Y-2.7502 I0.5641 J0.2317
X-3.4621 Y-2.3509 I0.7435 J-0.3323
G1 X-3.1636 Y-2.38
G2 X-3.1512 Y-2.3895 I-0.002 J-0.0155
X-3.1769 Y-2.4603 I-0.0513 J-0.0215
X-3.443 Y-2.3748 I-0.0906 J0.1748
G1 X-3.4491 Y-2.3616 F50.
G3 X-3.4615 Y-2.3521 I-0.0144 J-0.006
G1 X-3.5541 Y-2.3434 F60.
G3 X-3.8631 Y-2.5763 I0.0824 J-0.4306
X-4.0163 Y-3.0874 I0.7442 J-0.5017
G1 X-3.9572 Y-3.1625
X-3.9423 Y-3.1815
X-3.8715 Y-3.2647
G3 X-3.8566 Y-3.2695 I0.0116 J0.0105
X-3.821 Y-3.2133 I-0.01 J0.0458
X-3.9853 Y-3.0913 I-0.1535 J-0.0351
X-3.9998 Y-3.0929 I0.0108 J-0.1571 F50.
G2 X-4.0144 Y-3.0874 I-0.0025 J0.0154
G1 X-4.0603 Y-3.0271 F60.
G2 X-4.0176 Y-2.6502 I0.3909 J0.1466
X-3.7598 Y-2.3242 I0.7414 J-0.3215
G1 X-3.5541 Y-2.3434
G2 X-3.5406 Y-2.361 I-0.002 J-0.0155
X-3.5476 Y-2.3713 I-0.0137 J0.0018
X-3.7371 Y-2.3442 I-0.0771 J0.1373
X-3.7494 Y-2.3301 I0.1125 J0.1102 F50.
G3 X-3.7598 Y-2.3242 I-0.0124 J-0.0096
G1 X-3.8243 Y-2.3181 F60.
G3 X-4.0758 Y-2.5632 I0.0869 J-0.3407
X-4.183 Y-2.8568 I0.5409 J-0.3638
G1 X-4.1181 Y-2.9501
X-4.1075 Y-2.9651
X-4.0603 Y-3.0271
G3 X-4.0457 Y-3.0326 I0.0121 J0.0099
X-4.0049 Y-2.9592 I-0.0086 J0.0528
X-4.1526 Y-2.8624 I-0.1453 J-0.0607
X-4.1671 Y-2.8633 I0.0024 J-0.1575 F50.
G2 X-4.1814 Y-2.857 I-0.0017 J0.0156
G1 X-4.2144 Y-2.8085 F60.
G2 X-4.1284 Y-2.4597 I0.3303 J0.1035
X-4.0047 Y-2.3013 I0.3188 J-0.1214
G1 X-3.8243 Y-2.3181
G2 X-3.8119 Y-2.3276 I-0.002 J-0.0155
X-3.8261 Y-2.3684 I-0.0299 J-0.0125
X-3.9859 Y-2.3238 I-0.0573 J0.1033
X-3.9923 Y-2.3107 I0.1025 J0.0586 F50.
G3 X-4.0047 Y-2.3013 I-0.0144 J-0.006
G1 X-4.0603 Y-2.2961 F60.
G3 X-4.3041 Y-2.6033 I0.1186 J-0.3445
X-4.3201 Y-2.6428 I0.0124 J-0.028
G1 X-4.2727 Y-2.7212
X-4.2626 Y-2.7377
X-4.2144 Y-2.8085
G3 X-4.2001 Y-2.8148 I0.0126 J0.0092
X-4.1875 Y-2.8046 I-0.0016 J0.0149
X-4.2916 Y-2.65 I-0.1123 J0.0367
X-4.3061 Y-2.6499 I-0.0082 J-0.1178 F50.
G2 X-4.3201 Y-2.6428 I-0.0008 J0.0156
G1 X-4.3483 Y-2.5961 F60.
G2 X-4.2337 Y-2.2803 I0.3089 J0.0665
G1 X-4.2304 Y-2.2801
X-4.0603 Y-2.2961
G2 X-4.0479 Y-2.3055 I-0.002 J-0.0155
X-4.0702 Y-2.3556 I-0.0347 J-0.0145
X-4.2115 Y-2.3027 I-0.0388 J0.1116
X-4.2179 Y-2.2896 I0.1025 J0.0586 F50.
G3 X-4.2304 Y-2.2801 I-0.0144 J-0.006
G1 X-4.2727 Y-2.2762 F60.
G3 X-4.4396 Y-2.4374 I0.0234 J-0.1912
G1 X-4.4053 Y-2.5017
X-4.3838 Y-2.5374
X-4.3483 Y-2.5961
G3 X-4.3344 Y-2.6031 I0.0131 J0.0086
X-4.3091 Y-2.58 I-0.0015 J0.0269
X-4.4115 Y-2.4461 I-0.1169 J0.0167
X-4.426 Y-2.4452 I-0.0145 J-0.1172 F50.
G2 X-4.4396 Y-2.4374 I0. J0.0157
G1 X-4.4615 Y-2.3963 F60.
G2 X-4.4305 Y-2.2598 I0.1091 J0.047
G1 X-4.2727 Y-2.2762
G2 X-4.2671 Y-2.3054 I-0.002 J-0.0155
G1 X-4.4346 Y-2.3989
X-4.4403 Y-2.4021 F50.
G2 X-4.4615 Y-2.3963 I-0.0076 J0.0137
G1 X-4.506 Y-2.3129 F60.
G2 X-4.5003 Y-2.2549 I0.0202 J0.0273
G1 X-4.429 Y-2.2615
G2 X-4.4245 Y-2.2913 I-0.002 J-0.0155
G1 X-4.4788 Y-2.316
X-4.4859 Y-2.3193 F50.
G2 X-4.506 Y-2.3129 I-0.0065 J0.0142
X-4.5312 Y-2.2561 I0.0188 J0.0424 F60.
X-4.5003 Y-2.2549 I0.0163 J-0.0209
X-4.4977 Y-2.2554 I-0.002 J-0.0155
G1 X-4.4957 Y-2.2566 Z-0.1673
X-4.4936 Y-2.2577 Z-0.1668
X-4.4917 Y-2.2588 Z-0.1659
X-4.4905 Y-2.2606 Z-0.1646
X-4.4894 Y-2.2621 Z-0.163
X-4.4885 Y-2.2635 Z-0.1611
X-4.4878 Y-2.2645 Z-0.1589
X-4.4875 Y-2.2654 Z-0.1567
X-4.4873 Y-2.2659 Z-0.1543
X-4.4872 Y-2.2661 Z-0.1519
G0 Z0.4
X-3.0874 Y3.014
Z0.1
G3 X-3.0893 Y3.1627 Z0.0588 I-0.0009 J0.0743 F50.
X-3.0874 Y3.014 Z0.0176 I0.0009 J-0.0743
X-3.0893 Y3.1627 Z-0.0235 I-0.0009 J0.0743
X-3.0874 Y3.014 Z-0.0647 I0.0009 J-0.0743
X-3.0893 Y3.1627 Z-0.1059 I-0.0009 J0.0743
X-3.0874 Y3.014 Z-0.1471 I0.0009 J-0.0743
X-3.014 Y3.0884 Z-0.1675 I-0.0009 J0.0743
X-3.1627 I-0.0743 J0.
X-3.0143 Y3.0821 I0.0743 J0.
G1 X-3.014 Y3.0884
G3 X-3.1794 Y3.2066 I-0.0855 J0.0551 F60.
G1 X-3.1872 Y3.2007
X-3.1946 Y3.1944
X-3.2016 Y3.1876
X-3.2082 Y3.1803
X-3.2142 Y3.1727
X-3.2198 Y3.1647
X-3.2249 Y3.1564
X-3.2295 Y3.1477
X-3.2334 Y3.1388
X-3.2369 Y3.1297
X-3.2397 Y3.1203
X-3.2419 Y3.1108
X-3.2436 Y3.1012
X-3.2446 Y3.0915
X-3.245 Y3.0817
X-3.2448 Y3.0719
X-3.244 Y3.0622
X-3.2425 Y3.0526
X-3.2405 Y3.043
X-3.2378 Y3.0336
X-3.2346 Y3.0244
X-3.2308 Y3.0154
X-3.2264 Y3.0067
X-3.2215 Y2.9982
X-3.2161 Y2.9901
X-3.2102 Y2.9824
X-3.2037 Y2.975
X-3.1969 Y2.968
X-3.1896 Y2.9616
X-3.1819 Y2.9555
X-3.1739 Y2.95
X-3.1655 Y2.945
X-3.1568 Y2.9405
X-3.1479 Y2.9366
X-3.1387 Y2.9333
X-3.1293 Y2.9305
X-3.1198 Y2.9283
X-3.1102 Y2.9268
X-3.1004 Y2.9258
X-3.0907 Y2.9255
X-3.0809 Y2.9258
X-3.0712 Y2.9267
X-3.0616 Y2.9282
X-3.052 Y2.9303
X-3.0426 Y2.9331
X-3.0335 Y2.9364
X-3.0245 Y2.9402
X-3.0158 Y2.9447
X-3.0074 Y2.9497
X-2.9993 Y2.9552
X-2.9916 Y2.9612
X-2.9843 Y2.9676
X-2.9774 Y2.9745
X-2.971 Y2.9819
X-2.965 Y2.9896
X-2.9596 Y2.9977
X-2.9546 Y3.0061
X-2.9502 Y3.0148
X-2.9464 Y3.0238
X-2.9431 Y3.033
X-2.9371 Y3.0422
X-2.9317 Y3.0517
X-2.9267 Y3.0615
X-2.9224 Y3.0716
X-2.9186 Y3.0819
X-2.9155 Y3.0924
X-2.9129 Y3.1031
X-2.9109 Y3.1139
X-2.9096 Y3.1247
X-2.9088 Y3.1357
X-2.9087 Y3.1467
X-2.9093 Y3.1576
X-2.9104 Y3.1685
X-2.9122 Y3.1794
X-2.9146 Y3.1901
X-2.9175 Y3.2006
X-2.9211 Y3.211
X-2.9253 Y3.2211
X-2.93 Y3.231
X-2.9353 Y3.2407
X-2.9411 Y3.25
X-2.9475 Y3.2589
X-2.9543 Y3.2675
X-2.9616 Y3.2757
X-2.9694 Y3.2834
X-2.9776 Y3.2907
X-2.9862 Y3.2975
X-2.9952 Y3.3038
X-3.0045 Y3.3096
X-3.0141 Y3.3148
X-3.024 Y3.3195
X-3.0342 Y3.3237
X-3.0446 Y3.3272
X-3.0551 Y3.3301
X-3.0659 Y3.3325
X-3.0767 Y3.3342
X-3.0876 Y3.3353
X-3.0986 Y3.3358
X-3.1095 Y3.3356
X-3.1205 Y3.3349
X-3.1314 Y3.3335
X-3.1421 Y3.3315
X-3.1528 Y3.3289
X-3.1633 Y3.3257
X-3.1736 Y3.3219
X-3.1836 Y3.3175
X-3.1934 Y3.3125
X-3.2029 Y3.307
X-3.2121 Y3.301
X-3.2209 Y3.2945
X-3.2293 Y3.2874
X-3.2373 Y3.2799
X-3.2449 Y3.272
X-3.2545 Y3.2646
X-3.2637 Y3.2566
X-3.2726 Y3.2483
X-3.2809 Y3.2394
X-3.2888 Y3.2302
X-3.2963 Y3.2205
X-3.3032 Y3.2105
X-3.3096 Y3.2002
X-3.3154 Y3.1895
X-3.3207 Y3.1786
X-3.3255 Y3.1673
X-3.3296 Y3.1559
X-3.3332 Y3.1443
X-3.3361 Y3.1325
X-3.3385 Y3.1205
X-3.3402 Y3.1085
X-3.3413 Y3.0964
X-3.3417 Y3.0842
X-3.3416 Y3.072
X-3.3408 Y3.0599
X-3.3394 Y3.0478
X-3.3374 Y3.0358
X-3.3348 Y3.0239
X-3.3315 Y3.0122
X-3.3277 Y3.0007
X-3.3233 Y2.9893
X-3.3183 Y2.9782
X-3.3127 Y2.9674
X-3.3066 Y2.9569
X-3.2999 Y2.9467
X-3.2927 Y2.9369
X-3.2851 Y2.9274
X-3.2769 Y2.9184
X-3.2684 Y2.9098
X-3.2593 Y2.9016
X-3.2499 Y2.8939
X-3.2401 Y2.8867
X-3.2299 Y2.8801
X-3.2194 Y2.8739
X-3.2086 Y2.8683
X-3.1975 Y2.8633
X-3.1848 Y2.8588
X-3.1719 Y2.8549
X-3.1588 Y2.8517
X-3.1456 Y2.849
X-3.1323 Y2.847
X-3.1189 Y2.8456
X-3.1055 Y2.8448
X-3.092 Y2.8446
X-3.0785 Y2.8451
X-3.0651 Y2.8462
X-3.0517 Y2.8479
X-3.0385 Y2.8503
X-3.0253 Y2.8532
X-3.0123 Y2.8568
X-2.9995 Y2.861
X-2.9869 Y2.8658
X-2.9745 Y2.8711
X-2.9624 Y2.8771
X-2.9506 Y2.8836
X-2.9391 Y2.8906
X-2.928 Y2.8981
X-2.9172 Y2.9062
X-2.9068 Y2.9148
X-2.8968 Y2.9238
X-2.8873 Y2.9333
X-2.8782 Y2.9433
X-2.8695 Y2.9536
X-2.8614 Y2.9644
X-2.8538 Y2.9755
X-2.8467 Y2.9869
X-2.8401 Y2.9987
X-2.8341 Y3.0108
X-2.8287 Y3.0231
X-2.8239 Y3.0357
X-2.8196 Y3.0485
X-2.816 Y3.0614
X-2.8129 Y3.0746
X-2.8105 Y3.0878
X-2.8087 Y3.1012
X-2.8075 Y3.1146
X-2.807 Y3.1281
X-2.8071 Y3.1415
X-2.8078 Y3.155
X-2.8091 Y3.1684
X-2.8111 Y3.1817
X-2.8136 Y3.195
X-2.8168 Y3.208
X-2.8207 Y3.221
X-2.8251 Y3.2337
X-2.83 Y3.2462
X-2.8356 Y3.2585
X-2.8418 Y3.2705
X-2.8485 Y3.2822
X-2.8557 Y3.2935
X-2.8634 Y3.3046
X-2.8717 Y3.3152
X-2.8805 Y3.3254
X-2.8897 Y3.3353
X-2.8993 Y3.3447
X-2.9094 Y3.3536
X-2.9199 Y3.362
X-2.9308 Y3.37
X-2.9421 Y3.3774
X-2.9536 Y3.3843
X-2.9655 Y3.3906
X-2.9777 Y3.3964
X-2.9901 Y3.4016
X-3.0028 Y3.4063
X-3.0156 Y3.4103
X-3.0287 Y3.4137
X-3.0418 Y3.4165
X-3.0551 Y3.4187
X-3.0685 Y3.4203
X-3.0819 Y3.4212
X-3.0954 Y3.4215
X-3.1089 Y3.4212
G3 X-3.184 Y2.7579 I0.0086 J-0.3369
G1 X-3.1688 Y2.7549
X-3.1535 Y2.7524
X-3.138 Y2.7506
X-3.1225 Y2.7494
X-3.107 Y2.7488
X-3.0915 Y2.7489
X-3.0759 Y2.7496
X-3.0605 Y2.7509
X-3.045 Y2.7528
X-3.0297 Y2.7553
X-3.0145 Y2.7585
X-2.9994 Y2.7622
X-2.9845 Y2.7666
X-2.9698 Y2.7715
X-2.9553 Y2.7771
X-2.941 Y2.7832
X-2.927 Y2.7899
X-2.9132 Y2.7971
X-2.8998 Y2.8049
X-2.8867 Y2.8132
X-2.8739 Y2.8221
X-2.8615 Y2.8314
X-2.8494 Y2.8413
X-2.8378 Y2.8516
X-2.8266 Y2.8624
X-2.8159 Y2.8736
X-2.8056 Y2.8852
X-2.7958 Y2.8973
X-2.7864 Y2.9097
X-2.7776 Y2.9225
X-2.7693 Y2.9356
X-2.7616 Y2.9491
X-2.7543 Y2.9629
X-2.7477 Y2.9769
X-2.7416 Y2.9912
X-2.7361 Y3.0057
X-2.7312 Y3.0204
X-2.7268 Y3.0354
X-2.7231 Y3.0505
X-2.72 Y3.0657
X-2.7175 Y3.081
X-2.7156 Y3.0964
X-2.7143 Y3.1119
X-2.7137 Y3.1274
Y3.143
X-2.7143 Y3.1585
X-2.7155 Y3.174
X-2.7174 Y3.1894
X-2.7198 Y3.2048
X-2.7229 Y3.22
X-2.7266 Y3.2351
X-2.7309 Y3.25
X-2.7358 Y3.2648
X-2.7413 Y3.2793
X-2.7473 Y3.2936
X-2.754 Y3.3077
X-2.7612 Y3.3214
X-2.7689 Y3.3349
X-2.7772 Y3.3481
X-2.786 Y3.3609
X-2.7952 Y3.3733
X-2.805 Y3.3854
X-2.8153 Y3.3971
X-2.826 Y3.4083
X-2.8372 Y3.4191
X-2.8488 Y3.4294
X-2.8608 Y3.4393
X-2.8732 Y3.4487
X-2.8859 Y3.4576
X-2.899 Y3.4659
X-2.9125 Y3.4737
X-2.9262 Y3.481
X-2.9402 Y3.4877
X-2.9545 Y3.4939
X-2.969 Y3.4995
X-2.9837 Y3.5044
X-2.9986 Y3.5088
X-3.0137 Y3.5126
X-3.0289 Y3.5158
X-3.0442 Y3.5184
X-3.0596 Y3.5203
X-3.0751 Y3.5217
X-3.0906 Y3.5224
X-3.1061 Y3.5225
X-3.1217 Y3.5219
X-3.1372 Y3.5207
X-3.1526 Y3.519
X-3.1679 Y3.5166
X-3.1832 Y3.5135
X-3.1983 Y3.5099
X-3.2132 Y3.5057
X-3.228 Y3.5009
X-3.2426 Y3.4954
X-3.2569 Y3.4894
X-3.271 Y3.4829
X-3.2848 Y3.4758
X-3.2983 Y3.4681
X-3.3115 Y3.4599
X-3.3243 Y3.4511
X-3.3368 Y3.4419
X-3.3489 Y3.4321
X-3.3606 Y3.4219
G3 X-3.531 Y3.0736 I0.228 J-0.3274
G1 X-3.53 Y3.0569
X-3.5283 Y3.0403
X-3.526 Y3.0237
X-3.5231 Y3.0072
X-3.5196 Y2.9908
X-3.5155 Y2.9745
X-3.5107 Y2.9585
X-3.5054 Y2.9426
X-3.4995 Y2.9269
X-3.493 Y2.9115
X-3.4859 Y2.8963
X-3.4782 Y2.8814
X-3.4701 Y2.8668
X-3.4613 Y2.8525
X-3.4521 Y2.8385
X-3.4423 Y2.8249
X-3.432 Y2.8117
X-3.4212 Y2.7988
X-3.41 Y2.7864
X-3.3983 Y2.7744
X-3.3862 Y2.7628
X-3.3736 Y2.7518
X-3.3606 Y2.7411
X-3.3473 Y2.731
X-3.3336 Y2.7214
X-3.3195 Y2.7123
X-3.3051 Y2.7038
X-3.2904 Y2.6957
X-3.2754 Y2.6883
X-3.2601 Y2.6814
X-3.2446 Y2.6751
X-3.2288 Y2.6693
X-3.2129 Y2.6642
X-3.1968 Y2.6596
X-3.1805 Y2.6557
X-3.1641 Y2.6524
X-3.1475 Y2.6497
X-3.1309 Y2.6476
X-3.1142 Y2.6461
X-3.0975 Y2.6453
X-3.0807 Y2.6451
X-3.064 Y2.6455
X-3.0473 Y2.6465
X-3.0306 Y2.6482
X-3.014 Y2.6505
X-2.9975 Y2.6534
X-2.9811 Y2.6569
X-2.9649 Y2.661
X-2.9488 Y2.6657
X-2.9329 Y2.6711
X-2.9172 Y2.677
X-2.9018 Y2.6835
X-2.8866 Y2.6906
X-2.8717 Y2.6982
X-2.8571 Y2.7064
X-2.8428 Y2.7151
X-2.8288 Y2.7244
X-2.8152 Y2.7342
X-2.802 Y2.7444
X-2.7891 Y2.7552
X-2.7767 Y2.7665
X-2.7647 Y2.7781
X-2.7532 Y2.7903
X-2.7421 Y2.8028
X-2.7315 Y2.8158
X-2.7213 Y2.8292
X-2.7117 Y2.8429
X-2.7026 Y2.8569
X-2.6941 Y2.8713
X-2.686 Y2.8861
X-2.6786 Y2.9011
X-2.6717 Y2.9163
X-2.6654 Y2.9318
X-2.6596 Y2.9476
X-2.6545 Y2.9635
X-2.6499 Y2.9796
X-2.646 Y2.9959
X-2.6427 Y3.0124
X-2.64 Y3.0289
X-2.6379 Y3.0455
X-2.634 Y3.0614
X-2.6307 Y3.0775
X-2.628 Y3.0936
X-2.6259 Y3.1099
X-2.6244 Y3.1262
X-2.6235 Y3.1425
X-2.6232 Y3.1589
X-2.6235 Y3.1753
X-2.6244 Y3.1916
X-2.6259 Y3.2079
X-2.628 Y3.2241
X-2.6307 Y3.2403
X-2.6341 Y3.2563
X-2.638 Y3.2722
X-2.6424 Y3.288
X-2.6475 Y3.3036
X-2.6531 Y3.3189
X-2.6593 Y3.3341
X-2.6661 Y3.349
X-2.6734 Y3.3637
X-2.6812 Y3.3781
X-2.6896 Y3.3921
X-2.6984 Y3.4059
X-2.7078 Y3.4193
X-2.7177 Y3.4324
X-2.728 Y3.4451
X-2.7388 Y3.4574
X-2.7501 Y3.4693
X-2.7617 Y3.4808
X-2.7738 Y3.4918
X-2.7863 Y3.5024
X-2.7992 Y3.5125
X-2.8124 Y3.5221
X-2.826 Y3.5313
X-2.8399 Y3.5399
X-2.8542 Y3.548
X-2.8687 Y3.5556
X-2.8835 Y3.5626
X-2.8985 Y3.5691
X-2.9138 Y3.5751
X-2.9308 Y3.5812
X-2.948 Y3.5868
X-2.9654 Y3.5918
X-2.983 Y3.5962
X-3.0007 Y3.6
X-3.0185 Y3.6032
X-3.0364 Y3.6058
X-3.0544 Y3.6077
X-3.0725 Y3.6091
X-3.0906 Y3.6098
X-3.1087 Y3.6099
X-3.1268 Y3.6094
X-3.1448 Y3.6082
X-3.1628 Y3.6065
X-3.1808 Y3.6041
X-3.1987 Y3.6011
X-3.2164 Y3.5975
X-3.234 Y3.5933
X-3.2515 Y3.5885
X-3.2687 Y3.5831
X-3.2858 Y3.5771
X-3.3027 Y3.5705
X-3.3193 Y3.5634
X-3.3357 Y3.5557
X-3.3518 Y3.5474
X-3.3676 Y3.5386
X-3.3831 Y3.5293
X-3.3983 Y3.5194
X-3.4131 Y3.509
X-3.4276 Y3.4981
X-3.4417 Y3.4867
X-3.4554 Y3.4749
X-3.4686 Y3.4626
X-3.4815 Y3.4498
X-3.4939 Y3.4366
X-3.5058 Y3.423
X-3.5173 Y3.409
X-3.5282 Y3.3946
X-3.5387 Y3.3798
X-3.5487 Y3.3647
X-3.5581 Y3.3492
X-3.567 Y3.3335
X-3.5754 Y3.3174
X-3.5832 Y3.3011
X-3.5904 Y3.2845
X-3.5971 Y3.2677
X-3.6032 Y3.2506
X-3.6087 Y3.2334
X-3.6136 Y3.2159
X-3.6179 Y3.1984
X-3.6216 Y3.1806
X-3.6247 Y3.1628
X-3.6272 Y3.1449
X-3.629 Y3.1269
X-3.6303 Y3.1088
X-3.6309 Y3.0907
Y3.0726
X-3.6303 Y3.0545
X-3.6291 Y3.0364
X-3.6272 Y3.0184
X-3.6248 Y3.0005
X-3.6217 Y2.9827
X-3.618 Y2.9649
X-3.6137 Y2.9473
X-3.6088 Y2.9299
X-3.6033 Y2.9127
X-3.5972 Y2.8956
X-3.5906 Y2.8788
X-3.5833 Y2.8622
X-3.5756 Y2.8458
X-3.5672 Y2.8298
X-3.5583 Y2.814
X-3.5489 Y2.7985
X-3.5389 Y2.7834
X-3.5285 Y2.7686
X-3.5175 Y2.7542
X-3.5061 Y2.7402
X-3.4941 Y2.7266
X-3.4817 Y2.7134
X-3.4689 Y2.7006
X-3.4557 Y2.6883
X-3.442 Y2.6764
X-3.4279 Y2.665
X-3.4135 Y2.6541
X-3.3986 Y2.6437
X-3.3835 Y2.6339
X-3.368 Y2.6245
X-3.3522 Y2.6157
X-3.3361 Y2.6074
X-3.3197 Y2.5997
X-3.3031 Y2.5925
X-3.2862 Y2.5859
X-3.2691 Y2.5799
X-3.2518 Y2.5745
X-3.2344 Y2.5697
X-3.2168 Y2.5655
X-3.199 Y2.5619
X-3.1812 Y2.5589
X-3.1632 Y2.5565
X-3.1452 Y2.5547
X-3.1272 Y2.5536
X-3.1091 Y2.553
X-3.091 Y2.5531
X-3.0729 Y2.5538
X-3.0548 Y2.5551
X-3.0368 Y2.5571
X-3.0189 Y2.5596
X-3.0011 Y2.5628
X-2.9834 Y2.5666
X-2.9658 Y2.571
G3 X-2.5636 Y3.3524 I-0.1357 J0.5641
X-3.3957 Y3.6352 I-0.538 J-0.2173
X-3.644 Y2.7736 I0.302 J-0.5536
X-2.7799 Y2.5345 I0.5504 J0.3079
X-3.3003 Y3.7834 I-0.3242 J0.5978
X-3.4168 Y3.739 I0.033 J-0.262
G1 X-3.577 Y3.5873
X-3.5884 Y3.5758
X-3.7063 Y3.4513
X-3.7174 Y3.4336
X-3.728 Y3.4156
X-3.738 Y3.3973
X-3.7474 Y3.3787
X-3.7563 Y3.3598
X-3.7647 Y3.3407
X-3.7725 Y3.3213
X-3.7797 Y3.3017
X-3.7863 Y3.2819
X-3.7923 Y3.2619
X-3.7977 Y3.2417
X-3.8026 Y3.2214
X-3.8068 Y3.201
X-3.8104 Y3.1804
X-3.8135 Y3.1598
X-3.8159 Y3.139
X-3.8177 Y3.1182
X-3.8188 Y3.0974
X-3.8194 Y3.0765
X-3.8193 Y3.0556
X-3.8187 Y3.0347
X-3.8174 Y3.0139
X-3.8155 Y2.9931
X-3.813 Y2.9724
X-3.8098 Y2.9517
X-3.8061 Y2.9312
X-3.8017 Y2.9108
X-3.7968 Y2.8905
X-3.7912 Y2.8704
X-3.7851 Y2.8504
X-3.7784 Y2.8307
X-3.7711 Y2.8111
X-3.7632 Y2.7918
X-3.7547 Y2.7727
X-3.7457 Y2.7538
X-3.7362 Y2.7353
X-3.7261 Y2.717
X-3.7154 Y2.699
X-3.7043 Y2.6814
X-3.6926 Y2.6641
X-3.6804 Y2.6472
X-3.6677 Y2.6306
X-3.6545 Y2.6144
X-3.6409 Y2.5986
X-3.6268 Y2.5832
X-3.6122 Y2.5682
X-3.5972 Y2.5537
X-3.5818 Y2.5396
X-3.566 Y2.526
X-3.5498 Y2.5128
X-3.5332 Y2.5002
X-3.5162 Y2.488
X-3.4989 Y2.4763
X-3.4812 Y2.4652
X-3.4632 Y2.4546
X-3.4449 Y2.4445
X-3.4264 Y2.435
X-3.4075 Y2.426
X-3.3884 Y2.4176
X-3.3691 Y2.4097
X-3.3495 Y2.4025
X-3.3297 Y2.3958
X-3.3098 Y2.3897
X-3.2896 Y2.3841
X-3.2693 Y2.3792
X-3.2489 Y2.3749
X-2.8568 Y2.4087
G3 X-2.4163 Y2.7755 I-0.1751 J0.6582
G1 X-2.3668 Y3.3041
G3 X-2.9912 Y3.8944 I-0.6833 J-0.0973
X-3.2345 Y3.8972 I-0.1279 J-0.5442
G1 X-3.377 Y3.7761
X-3.3996 Y3.7554
X-3.4168 Y3.739
G3 X-3.4208 Y3.7239 I0.0112 J-0.011
X-3.3737 Y3.6924 I0.0417 J0.0115
X-3.2368 Y3.868 I-0.0195 J0.1563
X-3.2393 Y3.8823 I-0.1563 J-0.0193 F50.
G2 X-3.2345 Y3.8972 I0.0153 J0.0033
G1 X-3.1827 Y3.9413 F60.
X-3.1636 Y3.9563
X-3.1524 Y3.9649
G2 X-2.7076 Y3.9128 I0.1676 J-0.4937
X-2.3413 Y3.5626 I-0.3802 J-0.7644
G1 X-2.3668 Y3.3041
G2 X-2.3763 Y3.2916 I-0.0155 J0.002
X-2.4086 Y3.2989 I-0.011 J0.0264
X-2.3653 Y3.5431 I0.1172 J0.1052
X-2.3522 Y3.5494 I0.0739 J-0.139 F50.
G3 X-2.3427 Y3.5618 I-0.006 J0.0144
G1 X-2.3347 Y3.6475 F60.
G3 X-2.5691 Y3.9462 I-0.421 J-0.089
G1 X-2.5889 Y3.959
X-2.6089 Y3.9713
X-2.6293 Y3.9831
X-2.65 Y3.9943
X-2.671 Y4.005
X-2.6923 Y4.0151
X-2.7138 Y4.0247
X-2.7355 Y4.0337
X-2.7575 Y4.0421
X-2.7797 Y4.0499
X-2.8021 Y4.0571
X-2.8247 Y4.0638
X-2.8474 Y4.0698
X-2.8703 Y4.0753
X-2.8933 Y4.0801
X-2.9165 Y4.0844
X-2.9398 Y4.088
X-2.9631 Y4.091
X-2.9865 Y4.0934
X-3.1524 Y3.9649
G3 X-3.144 Y3.9372 I0.0099 J-0.0121
X-3.0171 Y4.0029 I0.013 J0.1304
X-2.9951 Y4.0621 I-0.1712 J0.0972
X-2.9924 Y4.0805 I-0.1932 J0.038 F50.
G2 X-2.9867 Y4.0911 I0.0156 J-0.0016
G1 X-2.9665 Y4.1065 F60.
X-2.9512 Y4.1173
X-2.9325 Y4.1301
X-2.9183 Y4.1345
X-2.9039 Y4.1383
X-2.8894 Y4.1416
X-2.8747 Y4.1442
X-2.86 Y4.1463
X-2.8452 Y4.1477
X-2.8303 Y4.1485
X-2.8154 Y4.1488
X-2.8006 Y4.1484
X-2.7857 Y4.1474
X-2.7709 Y4.1458
X-2.7562 Y4.1436
X-2.7416 Y4.1408
X-2.7271 Y4.1374
X-2.7128 Y4.1334
X-2.6986 Y4.1288
X-2.6847 Y4.1237
X-2.6709 Y4.118
X-2.6574 Y4.1117
X-2.6442 Y4.1049
X-2.6313 Y4.0976
X-2.6187 Y4.0897
X-2.6064 Y4.0813
X-2.5944 Y4.0724
X-2.5829 Y4.0631
X-2.5717 Y4.0533
G2 X-2.3146 Y3.8479 I-0.2539 J-0.5813
G1 X-2.3347 Y3.6475
G2 X-2.3442 Y3.635 I-0.0155 J0.002
X-2.358 Y3.6368 I-0.0053 J0.0128
G1 X-2.3588 Y3.6375
G2 X-2.3386 Y3.828 I0.0789 J0.0879
X-2.3255 Y3.8344 I0.0586 J-0.1025 F50.
G3 X-2.316 Y3.8468 I-0.006 J0.0144
G1 X-2.3104 Y3.9071 F60.
G3 X-2.5557 Y4.1573 I-0.3321 J-0.0802
X-2.7697 Y4.2408 I-0.2479 J-0.3196
G1 X-2.9325 Y4.1301
G3 X-2.9388 Y4.1158 I0.0092 J-0.0126
X-2.9256 Y4.1002 I0.0181 J0.002
X-2.7753 Y4.212 I0.0322 J0.1136
X-2.776 Y4.2265 I-0.1181 J0.0018 F50.
G2 X-2.7697 Y4.2408 I0.0156 J0.0017
G1 X-2.7388 Y4.2618 F60.
X-2.7229 Y4.2717
G2 X-2.3827 Y4.1643 I0.0843 J-0.3253
X-2.2934 Y4.0886 I-0.0116 J-0.1042
G1 X-2.3104 Y3.9071
G2 X-2.3199 Y3.8946 I-0.0155 J0.002
X-2.3595 Y3.908 I-0.0122 J0.0292
X-2.3159 Y4.0697 I0.1022 J0.0592
X-2.3029 Y4.0761 I0.0586 J-0.1025 F50.
G3 X-2.2934 Y4.0886 I-0.006 J0.0144
G1 X-2.2883 Y4.1431 F60.
X-2.2925 Y4.1561
X-2.2972 Y4.1689
X-2.3025 Y4.1816
X-2.3083 Y4.1939
X-2.3146 Y4.206
X-2.3215 Y4.2179
X-2.3289 Y4.2294
X-2.3368 Y4.2406
X-2.3451 Y4.2514
X-2.3539 Y4.2619
X-2.3632 Y4.2719
X-2.3728 Y4.2816
X-2.3829 Y4.2908
X-2.3934 Y4.2996
X-2.4043 Y4.3079
X-2.4155 Y4.3158
X-2.427 Y4.3231
X-2.4389 Y4.3299
X-2.451 Y4.3363
X-2.4634 Y4.342
X-2.476 Y4.3473
X-2.4889 Y4.352
X-2.5019 Y4.3561
X-2.5151 Y4.3597
X-2.5284 Y4.3626
X-2.5419 Y4.365
X-2.5555 Y4.3668
X-2.5581 Y4.3708
X-2.561 Y4.3695
X-2.7229 Y4.2717
G3 X-2.7298 Y4.2577 I0.0087 J-0.013
X-2.7081 Y4.2332 I0.0267 J0.0017
X-2.5682 Y4.341 I0.0221 J0.116
X-2.5681 Y4.3556 I-0.1178 J0.0082 F50.
G2 X-2.561 Y4.3695 I0.0156 J0.0008
G1 X-2.5147 Y4.3975 F60.
G2 X-2.2725 Y4.3116 I0.0566 J-0.2246
G1 X-2.2883 Y4.1431
G2 X-2.2978 Y4.1306 I-0.0155 J0.002
X-2.3489 Y4.1543 I-0.0148 J0.0352
X-2.2951 Y4.2927 I0.1125 J0.0359
X-2.282 Y4.2991 I0.0586 J-0.1025 F50.
G3 X-2.2725 Y4.3116 I-0.006 J0.0144
G1 X-2.2684 Y4.3555 F60.
G3 X-2.3665 Y4.4788 I-0.133 J-0.0051
G1 X-2.369 Y4.4772
X-2.3711 Y4.4752
X-2.3728 Y4.4729
X-2.3741 Y4.4703
X-2.375 Y4.4676
X-2.3753 Y4.4648
X-2.3751 Y4.462
X-2.3745 Y4.4593
X-2.3734 Y4.4568
X-2.3719 Y4.4545
X-2.3691 Y4.4505
X-2.2967 Y4.3484
X-2.2945 Y4.346
X-2.2919 Y4.344
G3 X-2.2684 Y4.3555 I0.008 J0.0135 F50.
G1 X-2.2596 Y4.4499 F60.
G3 X-2.2952 Y4.5154 I-0.046 J0.0174
X-2.3026 Y4.4981 I0.0078 J-0.0135
G1 X-2.3 Y4.4876
X-2.2903 Y4.4482
G3 X-2.2831 Y4.4384 I0.0152 J0.0037
X-2.2596 Y4.4499 I0.008 J0.0135 F50.
G1 X-2.2532 Y4.518 F60.
X-2.2538 Y4.5254
X-2.2541 Y4.5284
X-2.2549 Y4.53
X-2.2562 Y4.5313
X-2.2578 Y4.5321
X-2.2595 Y4.5322
X-2.2599
X-2.2684 Y4.5297
X-2.4867 Y4.4133
X-2.5029 Y4.4046
X-2.5147 Y4.3975
G3 X-2.5148 Y4.3714 I0.0086 J-0.0131
G1 X-2.5122 Y4.3697 Z-0.1672
X-2.5098 Y4.3681 Z-0.1663
X-2.5075 Y4.3666 Z-0.1649
X-2.5056 Y4.3653 Z-0.1629
X-2.504 Y4.3642 Z-0.1605
X-2.5027 Y4.3634 Z-0.1578
X-2.502 Y4.3629 Z-0.1549
X-2.5018 Y4.3627 Z-0.1519
G0 Z-0.1362
X-3.6646 Y3.4711
G1 Z-0.1519 F50.
X-3.6648 Z-0.1549
X-3.6657 Y3.4708 Z-0.1578
X-3.6671 Y3.4704 Z-0.1605
X-3.669 Y3.4699 Z-0.1629
X-3.6713 Y3.4692 Z-0.1649
X-3.6739 Y3.4685 Z-0.1663
X-3.6767 Y3.4677 Z-0.1672
X-3.6796 Y3.4669 Z-0.1675
G3 X-3.7063 Y3.4513 I0.017 J-0.06
G1 X-3.7672 Y3.3871 F60.
X-3.7779 Y3.3749
X-3.8715 Y3.2647
G3 X-3.8361 Y2.722 I0.5944 J-0.2337
X-3.4722 Y2.35 I0.7405 J0.3603
G1 X-3.2495 Y2.3719
G3 X-3.2371 Y2.3814 I-0.002 J0.0155
X-3.2706 Y2.4513 I-0.0478 J0.02
X-3.4529 Y2.3738 I-0.0432 J-0.1514
X-3.4591 Y2.3606 I0.139 J-0.0739 F50.
G2 X-3.4716 Y2.3512 I-0.0144 J0.006
G1 X-3.5648 Y2.3424 F60.
G2 X-3.8655 Y2.5762 I0.0931 J0.4302
X-4.0164 Y3.0873 I0.7508 J0.4994
G1 X-3.9572 Y3.1625
X-3.9423 Y3.1815
X-3.8715 Y3.2647
G2 X-3.8566 Y3.2695 I0.0116 J-0.0105
X-3.821 Y3.2134 I-0.01 J-0.0457
X-3.9854 Y3.0912 I-0.1536 J0.0349
X-3.9998 Y3.0928 I0.0108 J0.1571 F50.
G3 X-4.0145 Y3.0873 I-0.0025 J-0.0154
G1 X-4.0603 Y3.0271 F60.
G3 X-4.0187 Y2.6491 I0.3911 J-0.1483
X-3.7642 Y2.3238 I0.7411 J0.3176
G1 X-3.5648 Y2.3424
G3 X-3.5523 Y2.3519 I-0.002 J0.0155
X-3.5542 Y2.3657 I-0.0126 J0.0053
G1 X-3.5599 Y2.3717
X-3.566 Y2.3773
X-3.5725 Y2.3825
X-3.5794 Y2.3872
X-3.5865 Y2.3914
X-3.594 Y2.3951
X-3.6016 Y2.3983
X-3.6095 Y2.4009
X-3.6176 Y2.403
X-3.6257 Y2.4045
X-3.634 Y2.4054
X-3.6423 Y2.4057
X-3.6506 Y2.4055
X-3.6589 Y2.4046
X-3.6671 Y2.4032
X-3.6751 Y2.4012
X-3.683 Y2.3987
X-3.6908 Y2.3956
X-3.6982 Y2.392
X-3.7054 Y2.3878
X-3.7123 Y2.3832
X-3.7189 Y2.378
X-3.725 Y2.3725
X-3.7308 Y2.3665
X-3.7361 Y2.3601
X-3.741 Y2.3534
X-3.7454 Y2.3463
G3 X-3.7518 Y2.3332 I0.1025 J-0.0586 F50.
G2 X-3.7642 Y2.3238 I-0.0144 J0.006
G1 X-3.8243 Y2.3181 F60.
G2 X-4.0773 Y2.5634 I0.0771 J0.3326
X-4.1836 Y2.856 I0.5324 J0.359
G1 X-4.1181 Y2.9501
X-4.1075 Y2.9651
X-4.0603 Y3.0271
G2 X-4.0457 Y3.0326 I0.0121 J-0.0099
X-4.0048 Y2.96 I-0.0086 J-0.0526
X-4.1532 Y2.8615 I-0.146 J0.059
X-4.1677 Y2.8624 I0.0024 J0.1575 F50.
G3 X-4.182 Y2.8561 I-0.0017 J-0.0156
G1 X-4.2205 Y2.7995 F60.
G3 X-4.0955 Y2.4068 I0.4171 J-0.0835
X-4.0076 Y2.301 I0.144 J0.0302
G1 X-3.8243 Y2.3181
G3 X-3.8119 Y2.3276 I-0.002 J0.0155
X-3.8239 Y2.3652 I-0.028 J0.0117
X-3.9888 Y2.3235 I-0.0624 J-0.1003
X-3.9952 Y2.3105 I0.1025 J-0.0586 F50.
G2 X-4.0076 Y2.301 I-0.0144 J0.006
G1 X-4.0603 Y2.2961 F60.
G2 X-4.2847 Y2.5443 I0.0795 J0.2974
X-4.321 Y2.6413 I0.0573 J0.0767
G1 X-4.2727 Y2.7212
X-4.2626 Y2.7377
X-4.2205 Y2.7995
G2 X-4.2062 Y2.8058 I0.0126 J-0.0092
X-4.184 Y2.7847 I-0.0027 J-0.0251
X-4.2925 Y2.6485 I-0.1167 J-0.0184
X-4.3071 Y2.6484 I-0.0082 J0.1178 F50.
G3 X-4.321 Y2.6413 I-0.0008 J-0.0156
G1 X-4.3483 Y2.5961 F60.
G3 X-4.2359 Y2.2801 I0.305 J-0.0695
G1 X-4.2326 Y2.2799
X-4.0603 Y2.2961
G3 X-4.0479 Y2.3055 I-0.002 J0.0155
X-4.0684 Y2.3539 I-0.0338 J0.0142
X-4.2137 Y2.3024 I-0.0428 J-0.1101
X-4.2202 Y2.2894 I0.1025 J-0.0586 F50.
G2 X-4.2326 Y2.2799 I-0.0144 J0.006
G1 X-4.2798 Y2.2755 F60.
G2 X-4.4405 Y2.4357 I0.0305 J0.1912
G1 X-4.4053 Y2.5017
X-4.3838 Y2.5374
X-4.3483 Y2.5961
G2 X-4.3344 Y2.6031 I0.0131 J-0.0086
X-4.3106 Y2.5821 I-0.0014 J-0.0255
X-4.4124 Y2.4444 I-0.1163 J-0.0204
X-4.4269 Y2.4435 I-0.0145 J0.1172 F50.
G3 X-4.4405 Y2.4357 I0. J-0.0157
G1 X-4.4615 Y2.3963 F60.
G3 X-4.432 Y2.2597 I0.1069 J-0.0485
G1 X-4.4289 Y2.2602
X-4.4259 Y2.2613
X-4.4232 Y2.263
X-4.4209 Y2.2651
X-4.4191 Y2.2675
X-4.4177 Y2.2703
X-4.4169 Y2.2732
X-4.4167 Y2.2761
X-4.417 Y2.2791
X-4.4178 Y2.2852
G3 X-4.4354 Y2.3978 I-0.1712 J0.031
X-4.4615 Y2.3963 I-0.0125 J-0.0094 F50.
G1 X-4.506 Y2.3129 F60.
G3 X-4.5009 Y2.2548 I0.0196 J-0.0275
X-4.4711 Y2.3121 I-0.005 J0.039
X-4.4791 Y2.3203 I-0.0176 J-0.0092
X-4.506 Y2.3129 I-0.0097 J-0.0174 F50.
X-4.5312 Y2.2561 I0.0188 J-0.0424 F60.
G1 X-4.5304 Y2.2552
X-4.5297 Y2.2547
X-4.5282 Y2.2541
X-4.5182 Y2.2532
X-4.2798 Y2.2755
G3 X-4.2684 Y2.299 I-0.002 J0.0155
G1 X-4.2699 Y2.3016 Z-0.1672
X-4.2714 Y2.3041 Z-0.1663
X-4.2728 Y2.3065 Z-0.1649
X-4.274 Y2.3085 Z-0.1629
X-4.275 Y2.3102 Z-0.1605
X-4.2757 Y2.3114 Z-0.1578
X-4.2762 Y2.3122 Z-0.1549
X-4.2763 Y2.3125 Z-0.1519
G0 Z-0.1362
X-2.9013 Y2.4213
G1 Z-0.1519 F50.
X-2.9011 Y2.4212 Z-0.1549
X-2.9002 Y2.4208 Z-0.1578
X-2.8989 Y2.4202 Z-0.1605
X-2.8972 Y2.4194 Z-0.1629
X-2.895 Y2.4183 Z-0.1649
X-2.8926 Y2.4172 Z-0.1663
X-2.8899 Y2.4159 Z-0.1672
X-2.8872 Y2.4146 Z-0.1675
G3 X-2.8568 Y2.4087 I0.0267 J0.0563
G1 X-2.6445 Y2.4286 F60.
G3 X-2.608 Y2.4545 I0.0049 J0.0317
G2 X-2.4321 Y2.6243 I0.3771 J-0.2145
G1 X-2.4287 Y2.6433
X-2.4163 Y2.7755
G3 X-2.4224 Y2.7888 I-0.0156 J0.0009
G1 X-2.4246 Y2.7898 Z-0.1673
X-2.4267 Y2.7908 Z-0.1668
X-2.4287 Y2.7917 Z-0.1659
X-2.4304 Y2.7919 Z-0.1649
X-2.4319 Y2.792 Z-0.1637
X-2.4338 Y2.7917 Z-0.1618
X-2.4353 Y2.7915 Z-0.1596
X-2.4364 Y2.7913 Z-0.1571
X-2.437 Y2.7912 Z-0.1545
X-2.4373 Y2.7911 Z-0.1519
G0 Z0.4
X-3.5752 Y-1.5556
Z0.1
G3 X-3.5771 Y-1.4069 Z0.0588 I-0.0009 J0.0743 F50.
X-3.5752 Y-1.5556 Z0.0176 I0.0009 J-0.0743
X-3.5771 Y-1.4069 Z-0.0235 I-0.0009 J0.0743
X-3.5752 Y-1.5556 Z-0.0647 I0.0009 J-0.0743
X-3.5771 Y-1.4069 Z-0.1059 I-0.0009 J0.0743
X-3.5752 Y-1.5556 Z-0.1471 I0.0009 J-0.0743
X-3.5018 Y-1.4813 Z-0.1675 I-0.0009 J0.0743
X-3.6505 I-0.0743 J0.
X-3.5021 Y-1.4875 I0.0743 J0.
G1 X-3.5018 Y-1.4813
G3 X-3.6672 Y-1.363 I-0.0855 J0.0551 F60.
G1 X-3.675 Y-1.3689
X-3.6824 Y-1.3753
X-3.6894 Y-1.3821
X-3.6959 Y-1.3893
X-3.702 Y-1.3969
X-3.7076 Y-1.4049
X-3.7127 Y-1.4133
X-3.7173 Y-1.4219
X-3.7212 Y-1.4308
X-3.7247 Y-1.44
X-3.7275 Y-1.4493
X-3.7297 Y-1.4588
X-3.7314 Y-1.4685
X-3.7324 Y-1.4782
X-3.7328 Y-1.4879
X-3.7326 Y-1.4977
X-3.7317 Y-1.5074
X-3.7303 Y-1.5171
X-3.7283 Y-1.5266
X-3.7256 Y-1.536
X-3.7224 Y-1.5452
X-3.7186 Y-1.5542
X-3.7142 Y-1.563
X-3.7093 Y-1.5714
X-3.7039 Y-1.5795
X-3.6979 Y-1.5873
X-3.6915 Y-1.5946
X-3.6847 Y-1.6016
X-3.6774 Y-1.6081
X-3.6697 Y-1.6141
X-3.6617 Y-1.6196
X-3.6533 Y-1.6247
X-3.6446 Y-1.6291
X-3.6356 Y-1.633
X-3.6265 Y-1.6364
X-3.6171 Y-1.6391
X-3.6076 Y-1.6413
X-3.5979 Y-1.6429
X-3.5882 Y-1.6438
X-3.5785 Y-1.6441
X-3.5687 Y-1.6438
X-3.559 Y-1.6429
X-3.5493 Y-1.6414
X-3.5398 Y-1.6393
X-3.5304 Y-1.6366
X-3.5213 Y-1.6333
X-3.5123 Y-1.6294
X-3.5036 Y-1.625
X-3.4952 Y-1.62
X-3.4871 Y-1.6145
X-3.4794 Y-1.6085
X-3.4721 Y-1.602
X-3.4652 Y-1.5951
X-3.4588 Y-1.5878
X-3.4528 Y-1.58
X-3.4474 Y-1.5719
X-3.4424 Y-1.5635
X-3.438 Y-1.5548
X-3.4342 Y-1.5458
X-3.4309 Y-1.5366
X-3.4249 Y-1.5275
X-3.4195 Y-1.5179
X-3.4145 Y-1.5081
X-3.4102 Y-1.4981
X-3.4064 Y-1.4878
X-3.4032 Y-1.4772
X-3.4007 Y-1.4666
X-3.3987 Y-1.4558
X-3.3974 Y-1.4449
X-3.3966 Y-1.434
X-3.3965 Y-1.423
X-3.3971 Y-1.412
X-3.3982 Y-1.4011
X-3.4 Y-1.3903
X-3.4023 Y-1.3796
X-3.4053 Y-1.369
X-3.4089 Y-1.3586
X-3.4131 Y-1.3485
X-3.4178 Y-1.3386
X-3.4231 Y-1.329
X-3.4289 Y-1.3197
X-3.4353 Y-1.3107
X-3.4421 Y-1.3022
X-3.4494 Y-1.294
X-3.4572 Y-1.2862
X-3.4654 Y-1.279
X-3.474 Y-1.2721
X-3.483 Y-1.2658
X-3.4923 Y-1.26
X-3.5019 Y-1.2548
X-3.5118 Y-1.2501
X-3.522 Y-1.246
X-3.5324 Y-1.2424
X-3.5429 Y-1.2395
X-3.5537 Y-1.2372
X-3.5645 Y-1.2354
X-3.5754 Y-1.2343
X-3.5864 Y-1.2339
X-3.5973 Y-1.234
X-3.6083 Y-1.2348
X-3.6192 Y-1.2362
X-3.6299 Y-1.2382
X-3.6406 Y-1.2408
X-3.6511 Y-1.244
X-3.6614 Y-1.2478
X-3.6714 Y-1.2522
X-3.6812 Y-1.2571
X-3.6907 Y-1.2626
X-3.6999 Y-1.2686
X-3.7087 Y-1.2752
X-3.7171 Y-1.2822
X-3.7251 Y-1.2897
X-3.7327 Y-1.2977
X-3.7423 Y-1.3051
X-3.7515 Y-1.313
X-3.7604 Y-1.3214
X-3.7687 Y-1.3302
X-3.7766 Y-1.3395
X-3.7841 Y-1.3491
X-3.791 Y-1.3591
X-3.7974 Y-1.3695
X-3.8032 Y-1.3801
X-3.8085 Y-1.3911
X-3.8133 Y-1.4023
X-3.8174 Y-1.4137
X-3.821 Y-1.4254
X-3.8239 Y-1.4372
X-3.8262 Y-1.4491
X-3.828 Y-1.4612
X-3.8291 Y-1.4733
X-3.8295 Y-1.4854
X-3.8294 Y-1.4976
X-3.8286 Y-1.5098
X-3.8272 Y-1.5218
X-3.8252 Y-1.5338
X-3.8226 Y-1.5457
X-3.8193 Y-1.5574
X-3.8155 Y-1.569
X-3.8111 Y-1.5803
X-3.806 Y-1.5914
X-3.8005 Y-1.6022
X-3.7944 Y-1.6127
X-3.7877 Y-1.6229
X-3.7805 Y-1.6328
X-3.7729 Y-1.6422
X-3.7647 Y-1.6513
X-3.7561 Y-1.6599
X-3.7471 Y-1.668
X-3.7377 Y-1.6757
X-3.7279 Y-1.6829
X-3.7177 Y-1.6896
X-3.7072 Y-1.6957
X-3.6964 Y-1.7013
X-3.6853 Y-1.7064
X-3.6726 Y-1.7108
X-3.6597 Y-1.7147
X-3.6466 Y-1.718
X-3.6334 Y-1.7206
X-3.6201 Y-1.7227
X-3.6067 Y-1.7241
X-3.5933 Y-1.7249
X-3.5798 Y-1.725
X-3.5663 Y-1.7246
X-3.5529 Y-1.7234
X-3.5395 Y-1.7217
X-3.5262 Y-1.7194
X-3.5131 Y-1.7164
X-3.5001 Y-1.7128
X-3.4873 Y-1.7086
X-3.4747 Y-1.7039
X-3.4623 Y-1.6985
X-3.4502 Y-1.6926
X-3.4384 Y-1.6861
X-3.4269 Y-1.6791
X-3.4158 Y-1.6715
X-3.405 Y-1.6634
X-3.3946 Y-1.6548
X-3.3846 Y-1.6458
X-3.3751 Y-1.6363
X-3.366 Y-1.6264
X-3.3573 Y-1.616
X-3.3492 Y-1.6053
X-3.3416 Y-1.5942
X-3.3345 Y-1.5827
X-3.3279 Y-1.5709
X-3.3219 Y-1.5589
X-3.3165 Y-1.5465
X-3.3117 Y-1.534
X-3.3074 Y-1.5212
X-3.3038 Y-1.5082
X-3.3007 Y-1.4951
X-3.2983 Y-1.4818
X-3.2965 Y-1.4685
X-3.2953 Y-1.455
X-3.2948 Y-1.4416
X-3.2949 Y-1.4281
X-3.2956 Y-1.4147
X-3.2969 Y-1.4012
X-3.2989 Y-1.3879
X-3.3014 Y-1.3747
X-3.3046 Y-1.3616
X-3.3084 Y-1.3487
X-3.3129 Y-1.3359
X-3.3178 Y-1.3234
X-3.3234 Y-1.3112
X-3.3296 Y-1.2992
X-3.3362 Y-1.2875
X-3.3435 Y-1.2761
X-3.3512 Y-1.2651
X-3.3595 Y-1.2544
X-3.3682 Y-1.2442
X-3.3775 Y-1.2344
X-3.3871 Y-1.225
X-3.3972 Y-1.2161
X-3.4077 Y-1.2076
X-3.4186 Y-1.1997
X-3.4298 Y-1.1922
X-3.4414 Y-1.1854
X-3.4533 Y-1.179
X-3.4655 Y-1.1732
X-3.4779 Y-1.168
X-3.4906 Y-1.1634
X-3.5034 Y-1.1594
X-3.5164 Y-1.1559
X-3.5296 Y-1.1531
X-3.5429 Y-1.1509
X-3.5563 Y-1.1494
X-3.5697 Y-1.1484
X-3.5832 Y-1.1481
X-3.5967 Y-1.1484
G3 X-3.6718 Y-1.8117 I0.0086 J-0.3369
G1 X-3.6566 Y-1.8148
X-3.6413 Y-1.8172
X-3.6258 Y-1.819
X-3.6103 Y-1.8202
X-3.5948 Y-1.8208
X-3.5793
X-3.5637 Y-1.8201
X-3.5483 Y-1.8188
X-3.5328 Y-1.8169
X-3.5175 Y-1.8143
X-3.5023 Y-1.8112
X-3.4872 Y-1.8074
X-3.4723 Y-1.8031
X-3.4576 Y-1.7981
X-3.4431 Y-1.7926
X-3.4288 Y-1.7865
X-3.4148 Y-1.7798
X-3.401 Y-1.7725
X-3.3876 Y-1.7647
X-3.3744 Y-1.7564
X-3.3617 Y-1.7476
X-3.3493 Y-1.7382
X-3.3372 Y-1.7284
X-3.3256 Y-1.718
X-3.3144 Y-1.7073
X-3.3037 Y-1.696
X-3.2934 Y-1.6844
X-3.2836 Y-1.6724
X-3.2742 Y-1.6599
X-3.2654 Y-1.6471
X-3.2571 Y-1.634
X-3.2494 Y-1.6206
X-3.2421 Y-1.6068
X-3.2355 Y-1.5928
X-3.2294 Y-1.5785
X-3.2239 Y-1.5639
X-3.219 Y-1.5492
X-3.2146 Y-1.5343
X-3.2109 Y-1.5192
X-3.2078 Y-1.504
X-3.2053 Y-1.4886
X-3.2034 Y-1.4732
X-3.2021 Y-1.4577
X-3.2015 Y-1.4422
Y-1.4267
X-3.2021 Y-1.4111
X-3.2033 Y-1.3956
X-3.2052 Y-1.3802
X-3.2076 Y-1.3649
X-3.2107 Y-1.3496
X-3.2144 Y-1.3346
X-3.2187 Y-1.3196
X-3.2236 Y-1.3049
X-3.2291 Y-1.2903
X-3.2351 Y-1.276
X-3.2418 Y-1.262
X-3.249 Y-1.2482
X-3.2567 Y-1.2347
X-3.265 Y-1.2216
X-3.2737 Y-1.2088
X-3.283 Y-1.1963
X-3.2928 Y-1.1842
X-3.3031 Y-1.1726
X-3.3138 Y-1.1613
X-3.325 Y-1.1505
X-3.3366 Y-1.1402
X-3.3486 Y-1.1303
X-3.361 Y-1.121
X-3.3737 Y-1.1121
X-3.3868 Y-1.1037
X-3.4003 Y-1.0959
X-3.414 Y-1.0886
X-3.428 Y-1.0819
X-3.4423 Y-1.0758
X-3.4568 Y-1.0702
X-3.4715 Y-1.0652
X-3.4864 Y-1.0608
X-3.5015 Y-1.057
X-3.5167 Y-1.0538
X-3.532 Y-1.0513
X-3.5474 Y-1.0493
X-3.5629 Y-1.048
X-3.5784 Y-1.0473
X-3.5939 Y-1.0472
X-3.6095 Y-1.0477
X-3.625 Y-1.0489
X-3.6404 Y-1.0507
X-3.6557 Y-1.0531
X-3.671 Y-1.0561
X-3.6861 Y-1.0597
X-3.701 Y-1.064
X-3.7158 Y-1.0688
X-3.7304 Y-1.0742
X-3.7447 Y-1.0802
X-3.7588 Y-1.0868
X-3.7726 Y-1.0939
X-3.7861 Y-1.1016
X-3.7993 Y-1.1098
X-3.8121 Y-1.1185
X-3.8246 Y-1.1278
X-3.8367 Y-1.1375
X-3.8484 Y-1.1477
G3 X-4.0188 Y-1.496 I0.228 J-0.3274
G1 X-4.0178 Y-1.5127
X-4.0161 Y-1.5294
X-4.0138 Y-1.546
X-4.0109 Y-1.5625
X-4.0074 Y-1.5789
X-4.0033 Y-1.5951
X-3.9985 Y-1.6112
X-3.9932 Y-1.6271
X-3.9873 Y-1.6427
X-3.9808 Y-1.6582
X-3.9737 Y-1.6734
X-3.966 Y-1.6883
X-3.9578 Y-1.7029
X-3.9491 Y-1.7172
X-3.9399 Y-1.7312
X-3.9301 Y-1.7448
X-3.9198 Y-1.758
X-3.909 Y-1.7708
X-3.8978 Y-1.7833
X-3.8861 Y-1.7952
X-3.874 Y-1.8068
X-3.8614 Y-1.8179
X-3.8484 Y-1.8285
X-3.8351 Y-1.8386
X-3.8214 Y-1.8482
X-3.8073 Y-1.8573
X-3.7929 Y-1.8659
X-3.7782 Y-1.8739
X-3.7632 Y-1.8814
X-3.7479 Y-1.8883
X-3.7324 Y-1.8946
X-3.7166 Y-1.9003
X-3.7007 Y-1.9055
X-3.6846 Y-1.91
X-3.6683 Y-1.9139
X-3.6519 Y-1.9173
X-3.6353 Y-1.92
X-3.6187 Y-1.9221
X-3.602 Y-1.9235
X-3.5853 Y-1.9244
X-3.5685 Y-1.9246
X-3.5518 Y-1.9242
X-3.535 Y-1.9231
X-3.5184 Y-1.9215
X-3.5018 Y-1.9192
X-3.4853 Y-1.9163
X-3.4689 Y-1.9128
X-3.4527 Y-1.9086
X-3.4366 Y-1.9039
X-3.4207 Y-1.8986
X-3.405 Y-1.8926
X-3.3896 Y-1.8861
X-3.3744 Y-1.8791
X-3.3595 Y-1.8714
X-3.3449 Y-1.8632
X-3.3306 Y-1.8545
X-3.3166 Y-1.8452
X-3.303 Y-1.8355
X-3.2898 Y-1.8252
X-3.2769 Y-1.8144
X-3.2645 Y-1.8032
X-3.2525 Y-1.7915
X-3.241 Y-1.7794
X-3.2299 Y-1.7668
X-3.2192 Y-1.7538
X-3.2091 Y-1.7405
X-3.1995 Y-1.7268
X-3.1904 Y-1.7127
X-3.1819 Y-1.6983
X-3.1738 Y-1.6836
X-3.1664 Y-1.6686
X-3.1595 Y-1.6533
X-3.1532 Y-1.6378
X-3.1474 Y-1.6221
X-3.1423 Y-1.6061
X-3.1377 Y-1.59
X-3.1338 Y-1.5737
X-3.1305 Y-1.5573
X-3.1277 Y-1.5408
X-3.1257 Y-1.5241
G3 X-3.1099 Y-1.379 I-0.2594 J0.1015
G1 X-3.1826 Y-1.2036
X-3.1872 Y-1.1923
X-3.1953 Y-1.1776
X-3.204 Y-1.1633
X-3.2131 Y-1.1493
X-3.2228 Y-1.1356
X-3.233 Y-1.1223
X-3.2436 Y-1.1094
X-3.2548 Y-1.0968
X-3.2663 Y-1.0847
X-3.2783 Y-1.0731
X-3.2908 Y-1.0618
X-3.3036 Y-1.0511
X-3.3168 Y-1.0408
X-3.3304 Y-1.031
X-3.3444 Y-1.0217
X-3.3586 Y-1.0129
X-3.3732 Y-1.0047
X-3.3881 Y-0.997
X-3.4032 Y-0.9898
X-3.4186 Y-0.9832
X-3.4343 Y-0.9772
X-3.4501 Y-0.9718
X-3.4661 Y-0.9669
X-3.4823 Y-0.9626
X-3.4987 Y-0.959
X-3.5151 Y-0.9559
X-3.5317 Y-0.9534
X-3.5483 Y-0.9516
X-3.565 Y-0.9504
X-3.5818 Y-0.9497
X-3.5985
X-3.6153 Y-0.9503
X-3.632 Y-0.9515
X-3.6486 Y-0.9534
X-3.6652 Y-0.9558
X-3.6817 Y-0.9588
X-3.698 Y-0.9625
X-3.7142 Y-0.9667
X-3.7303 Y-0.9716
X-3.7461 Y-0.977
X-3.7617 Y-0.983
X-3.7771 Y-0.9896
X-4.0603 Y-1.3292
G3 X-4.0026 Y-1.8129 I0.3848 J-0.1994
X-3.8822 Y-1.9245 I0.225 J0.122
G1 X-3.4232 Y-1.9675
G3 X-3.0647 Y-1.6801 I-0.0589 J0.4406
X-3.0253 Y-1.5542 I-0.1142 J0.1049
G1 X-3.0941 Y-1.416
X-3.1044 Y-1.3924
X-3.1099 Y-1.379
G3 X-3.1226 Y-1.3699 I-0.0142 J-0.0065
X-3.1447 Y-1.3832 I-0.0021 J-0.0215
X-3.0531 Y-1.5447 I0.1093 J-0.0447
X-3.0387 Y-1.546 I0.0177 J0.1168 F50.
G2 X-3.0253 Y-1.5542 I-0.0004 J-0.0156
G1 X-2.9984 Y-1.6082 F60.
X-2.9926 Y-1.6193
G2 X-3.1851 Y-1.9736 I-0.3546 J-0.0367
G1 X-3.1905 Y-1.9865
X-3.1929 Y-1.9878
X-3.1956 Y-1.9885
X-3.1983 Y-1.9886
X-3.4232 Y-1.9675
G2 X-3.4356 Y-1.958 I0.002 J0.0155
X-3.4043 Y-1.89 I0.0469 J0.0196
X-3.2169 Y-1.9659 I0.0483 J-0.1499
X-3.2107 Y-1.9791 I-0.139 J-0.0739 F50.
G3 X-3.1983 Y-1.9886 I0.0144 J0.006
G1 X-3.1329 Y-1.9947 F60.
G3 X-2.9069 Y-1.7659 I-0.0629 J0.2881
G1 X-2.9878 Y-1.6284
G3 X-3.0016 Y-1.6212 I-0.0132 J-0.0084
X-3.0392 Y-1.6734 I0.0017 J-0.0409
X-2.9353 Y-1.7584 I0.1135 J0.0328
X-2.9208 Y-1.7586 I0.0096 J0.1177 F50.
G2 X-2.9069 Y-1.7659 I0.0007 J-0.0156
G1 X-2.885 Y-1.8032 F60.
G2 X-2.9554 Y-2.0113 I-0.1706 J-0.0582
G1 X-3.1329 Y-1.9947
G2 X-3.1453 Y-1.9852 I0.002 J0.0155
X-3.1289 Y-1.9414 I0.0315 J0.0132
X-2.9743 Y-1.9888 I0.052 J-0.106
X-2.9679 Y-2.0018 I-0.1025 J-0.0586 F50.
G3 X-2.9554 Y-2.0113 I0.0144 J0.006
G1 X-2.9146 Y-2.0151 F60.
G3 X-2.8005 Y-1.9266 I0.0013 J0.1162
G1 X-2.8025 Y-1.9242
X-2.8048 Y-1.9221
X-2.8075 Y-1.9206
X-2.8103 Y-1.9195
X-2.8133 Y-1.919
X-2.8162 Y-1.9191
X-2.8191 Y-1.9197
X-2.8218 Y-1.9207
X-2.8242 Y-1.9222
X-2.8302 Y-1.9262
G3 X-2.9261 Y-1.9916 I0.0577 J-0.1877
X-2.9146 Y-2.0151 I0.0135 J-0.008 F50.
G1 X-2.8261 Y-2.0234 F60.
G3 X-2.7609 Y-1.9874 I0.0169 J0.0464
X-2.7768 Y-1.9815 I-0.0126 J-0.0093
G1 X-2.7894 Y-1.9842
X-2.8275 Y-1.9926
G3 X-2.8376 Y-1.9999 I0.0034 J-0.0153
X-2.8261 Y-2.0234 I0.0135 J-0.008 F50.
G1 X-2.7592 Y-2.0296 F60.
X-2.7531 Y-2.0299
X-2.7478 Y-2.0279
X-2.744 Y-2.0236
X-2.7428 Y-2.0181
X-2.7443 Y-2.0126
G3 X-2.7491 Y-2.0071 I-0.0209 J-0.0131
X-2.7651 Y-2.0063 I-0.0085 J-0.0098
X-2.7592 Y-2.0296 I0.0075 J-0.0105 F50.
G1 X-2.7534 Y-2.0302 F60.
X-2.752 Y-2.0301
X-2.7428 Y-2.0292
X-2.7421 Y-2.029
X-2.7407 Y-2.0283
X-2.74 Y-2.0276
X-2.7394 Y-2.0268
X-2.7388 Y-2.0253
G3 X-2.7481 Y-2.006 I-0.0254 J-0.0004
G1 X-2.8614 Y-1.8408
X-2.8767 Y-1.8172
X-2.885 Y-1.8032
G3 X-2.9111 Y-1.8027 I-0.0132 J-0.0084
G1 X-2.9129 Y-1.8053 Z-0.1672
X-2.9145 Y-1.8077 Z-0.1663
X-2.916 Y-1.8099 Z-0.1649
X-2.9174 Y-1.8119 Z-0.1629
X-2.9185 Y-1.8135 Z-0.1605
X-2.9193 Y-1.8147 Z-0.1578
X-2.9198 Y-1.8154 Z-0.1549
X-2.92 Y-1.8157 Z-0.1519
G0 Z-0.1362
X-3.8377 Y-1.9119
G1 Z-0.1519 F50.
X-3.8379 Y-1.912 Z-0.1549
X-3.8387 Y-1.9124 Z-0.1578
X-3.8401 Y-1.913 Z-0.1605
X-3.8418 Y-1.9139 Z-0.1629
X-3.844 Y-1.9149 Z-0.1649
X-3.8464 Y-1.9161 Z-0.1663
X-3.8491 Y-1.9173 Z-0.1672
X-3.8518 Y-1.9186 Z-0.1675
G2 X-3.8822 Y-1.9245 I-0.0267 J0.0563
G1 X-3.9789 Y-1.9155 F60.
G2 X-4.2071 Y-1.5595 I0.1635 J0.3559
X-4.2072 Y-1.5064 I0.0479 J0.0267
G1 X-4.0603 Y-1.3292
G2 X-4.0455 Y-1.3242 I0.0117 J-0.0104
X-4.0075 Y-1.3838 I-0.0099 J-0.0482
X-4.178 Y-1.5037 I-0.1532 J0.0367
X-4.1923 Y-1.5015 I0.0173 J0.1565 F50.
G3 X-4.2072 Y-1.5064 I-0.0031 J-0.0153
G1 X-4.2491 Y-1.5569 F60.
G3 X-4.1722 Y-1.897 I0.3007 J-0.1107
G1 X-4.1691 Y-1.8977
X-3.9789 Y-1.9155
G3 X-3.9649 Y-1.9085 I0.0009 J0.0156
X-3.9668 Y-1.8789 I-0.0206 J0.0136
X-4.1464 Y-1.8791 I-0.0897 J-0.0768
X-4.1551 Y-1.8907 I0.0899 J-0.0767 F50.
G2 X-4.1691 Y-1.8977 I-0.0131 J0.0086
G1 X-4.2255 Y-1.8924 F60.
G2 X-4.3631 Y-1.6945 I0.0739 J0.1982
G1 X-4.2491 Y-1.5569
G2 X-4.2343 Y-1.552 I0.0117 J-0.0104
X-4.2075 Y-1.5897 I-0.0068 J-0.0332
X-4.3339 Y-1.6916 I-0.117 J0.0158
X-4.3483 Y-1.6896 I0.0093 J0.1177 F50.
G3 X-4.3631 Y-1.6945 I-0.0031 J-0.0153
G1 X-4.3907 Y-1.7278 F60.
G3 X-4.3832 Y-1.8791 I0.1038 J-0.0707
G1 X-4.38 Y-1.879
X-4.3769 Y-1.8785
X-4.374 Y-1.8773
X-4.3713 Y-1.8756
X-4.3691 Y-1.8735
X-4.3673 Y-1.871
X-4.366 Y-1.8683
X-4.3653 Y-1.8653
X-4.3651 Y-1.8624
Y-1.8567
G3 X-4.3648 Y-1.7315 I-0.2018 J0.063
X-4.3907 Y-1.7278 I-0.0142 J-0.0066 F50.
G1 X-4.4502 Y-1.7996 F60.
G3 X-4.4588 Y-1.8706 I0.0229 J-0.0388
X-4.4435 Y-1.8611 I0.0009 J0.0156
G1 X-4.4388 Y-1.8503
X-4.4241 Y-1.8161
G3 X-4.4243 Y-1.8033 I-0.0144 J0.0062
X-4.4385 Y-1.7943 I-0.0142 J-0.0066 F50.
X-4.4502 Y-1.7996 I0. J-0.0157
G1 X-4.4916 Y-1.8495 F60.
X-4.4921 Y-1.8502
X-4.4954 Y-1.8562
X-4.4969 Y-1.8587
X-4.4971 Y-1.8595
X-4.4972 Y-1.8609
X-4.4969 Y-1.8623
X-4.4966 Y-1.863
X-4.4962 Y-1.8637
X-4.4956 Y-1.8644
X-4.4942 Y-1.8654
X-4.4843 Y-1.8682
X-4.2255 Y-1.8924
G3 X-4.2099 Y-1.8715 I0.0009 J0.0156
G1 X-4.2109 Y-1.8686 Z-0.1672
X-4.2119 Y-1.8658 Z-0.1663
X-4.2128 Y-1.8633 Z-0.1649
X-4.2136 Y-1.8611 Z-0.1629
X-4.2143 Y-1.8592 Z-0.1605
X-4.2148 Y-1.8579 Z-0.1578
X-4.2151 Y-1.857 Z-0.1549
X-4.2152 Y-1.8567 Z-0.1519
G0 Z-0.1362
X-3.7924 Y-1.0321
G1 Z-0.1519 F50.
X-3.7923 Y-1.0318 Z-0.1549
X-3.7922 Y-1.0309 Z-0.1578
X-3.792 Y-1.0295 Z-0.1605
X-3.7917 Y-1.0276 Z-0.1629
X-3.7913 Y-1.0252 Z-0.1649
X-3.7909 Y-1.0226 Z-0.1663
X-3.7904 Y-1.0197 Z-0.1672
X-3.79 Y-1.0166 Z-0.1675
G2 X-3.7777 Y-0.9882 I0.0616 J-0.0097
G1 X-3.7215 Y-0.9204 F60.
G2 X-3.3564 Y-0.9123 I0.1883 J-0.2508
X-3.2646 Y-0.9592 I0.0058 J-0.1017
G1 X-3.2624 Y-0.9676
X-3.258 Y-0.9812
X-3.1914 Y-1.18
X-3.1872 Y-1.1923
G2 X-3.1908 Y-1.2075 I-0.015 J-0.0045
X-3.2616 Y-1.2124 I-0.038 J0.0357
X-3.2795 Y-0.9845 I0.099 J0.1224
X-3.2693 Y-0.9742 I0.117 J-0.1054 F50.
G3 X-3.2646 Y-0.9592 I-0.0106 J0.0115
G1 X-3.2808 Y-0.8968 F60.
G3 X-3.5961 Y-0.7691 I-0.2563 J-0.1797
G1 X-3.7215 Y-0.9204
G3 X-3.7236 Y-0.9359 I0.0124 J-0.0096
X-3.7062 Y-0.9475 I0.0172 J0.007
X-3.5935 Y-0.7983 I-0.0012 J0.1181
X-3.5982 Y-0.7846 I-0.114 J-0.031 F50.
G2 X-3.5961 Y-0.7691 I0.0145 J0.0059
G1 X-3.565 Y-0.7316 F60.
G2 X-3.3239 Y-0.7274 I0.1233 J-0.1554
G1 X-3.3231 Y-0.7316
X-3.3176 Y-0.7552
X-3.2808 Y-0.8968
G2 X-3.2855 Y-0.9117 I-0.0153 J-0.0034
X-3.3495 Y-0.9062 I-0.0295 J0.032
X-3.3404 Y-0.7517 I0.0936 J0.072
X-3.3296 Y-0.742 I0.0845 J-0.0825 F50.
G3 X-3.3239 Y-0.7274 I-0.0098 J0.0122
G1 X-3.3305 Y-0.692 F60.
X-3.3332 Y-0.6838
X-3.3365 Y-0.6759
X-3.3403 Y-0.6683
X-3.3446 Y-0.6609
X-3.3495 Y-0.6539
X-3.3548 Y-0.6472
X-3.3605 Y-0.6409
X-3.3667 Y-0.635
X-3.3733 Y-0.6295
X-3.3803 Y-0.6245
X-3.3876 Y-0.6201
X-3.3951 Y-0.6161
X-3.403 Y-0.6127
X-3.411 Y-0.6098
X-3.4193 Y-0.6075
X-3.4276 Y-0.6058
X-3.4361 Y-0.6046
X-3.4446 Y-0.6041
X-3.4532 Y-0.6042
X-3.4617 Y-0.6048
X-3.4635 Y-0.6074
X-3.4647 Y-0.6102
X-3.4654 Y-0.6132
X-3.4655 Y-0.6163
X-3.4651 Y-0.6193
X-3.4641 Y-0.6221
X-3.4627 Y-0.6247
X-3.4608 Y-0.6269
X-3.4586 Y-0.6287
X-3.4536 Y-0.6325
X-3.3554 Y-0.7068
X-3.3528 Y-0.7084
X-3.3499 Y-0.7094
G3 X-3.3305 Y-0.692 I0.004 J0.0151 F50.
G1 X-3.3475 Y-0.6006 F60.
G3 X-3.4092 Y-0.5436 I-0.0624 J-0.0056
X-3.4098 Y-0.562 I0.0124 J-0.0096
G1 X-3.4034 Y-0.5713
X-3.376 Y-0.6118
G3 X-3.367 Y-0.6181 I0.0129 J0.0088
X-3.3475 Y-0.6006 I0.004 J0.0151 F50.
G1 X-3.3608 Y-0.5298 F60.
X-3.3621 Y-0.524
X-3.3643 Y-0.5184
X-3.3658 Y-0.5158
X-3.3696 Y-0.5118
X-3.3748 Y-0.51
X-3.3803 Y-0.5108
X-3.3848 Y-0.5141
X-3.3912 Y-0.5232
G3 X-3.3795 Y-0.5489 I0.014 J-0.0091
X-3.3608 Y-0.5298 I0.0022 J0.0165 F50.
G1 X-3.3627 Y-0.5192 F60.
X-3.3652 Y-0.5117
X-3.3672 Y-0.5061
X-3.3683 Y-0.5049
X-3.3688 Y-0.5045
X-3.3702 Y-0.5039
X-3.3718 Y-0.5037
X-3.3723 Y-0.5038
X-3.3739 Y-0.5043
X-3.3822 Y-0.5111
X-3.3827 Y-0.5116
X-3.565 Y-0.7316
G3 X-3.5675 Y-0.7461 I0.0124 J-0.0096
G1 X-3.5663 Y-0.7481 Z-0.1673
X-3.5651 Y-0.7501 Z-0.1668
X-3.564 Y-0.752 Z-0.1659
X-3.5622 Y-0.7532 Z-0.1646
X-3.5606 Y-0.7542 Z-0.163
X-3.5593 Y-0.7551 Z-0.1611
X-3.5582 Y-0.7558 Z-0.1589
X-3.5573 Y-0.7561 Z-0.1567
X-3.5567 Y-0.7563 Z-0.1543
X-3.5566 Z-0.1519
G0 Z0.4
X-3.5752 Y1.407
Z0.1
G3 X-3.577 Y1.5556 Z0.0588 I-0.0009 J0.0743 F50.
X-3.5752 Y1.407 Z0.0176 I0.0009 J-0.0743
X-3.577 Y1.5556 Z-0.0235 I-0.0009 J0.0743
X-3.5752 Y1.407 Z-0.0647 I0.0009 J-0.0743
X-3.577 Y1.5556 Z-0.1059 I-0.0009 J0.0743
X-3.5752 Y1.407 Z-0.1471 I0.0009 J-0.0743
X-3.5018 Y1.4813 Z-0.1675 I-0.0009 J0.0743
X-3.6505 I-0.0743 J0.
X-3.502 Y1.4751 I0.0743 J0.
G1 X-3.5018 Y1.4813
G3 X-3.6671 Y1.5995 I-0.0855 J0.0551 F60.
G1 X-3.6749 Y1.5937
X-3.6824 Y1.5873
X-3.6894 Y1.5805
X-3.6959 Y1.5733
X-3.702 Y1.5656
X-3.7076 Y1.5576
X-3.7127 Y1.5493
X-3.7172 Y1.5406
X-3.7212 Y1.5317
X-3.7246 Y1.5226
X-3.7275 Y1.5132
X-3.7297 Y1.5037
X-3.7313 Y1.4941
X-3.7324 Y1.4844
X-3.7328 Y1.4746
X-3.7326 Y1.4649
X-3.7317 Y1.4551
X-3.7303 Y1.4455
X-3.7282 Y1.4359
X-3.7256 Y1.4265
X-3.7224 Y1.4173
X-3.7186 Y1.4083
X-3.7142 Y1.3996
X-3.7093 Y1.3912
X-3.7039 Y1.383
X-3.6979 Y1.3753
X-3.6915 Y1.3679
X-3.6847 Y1.361
X-3.6774 Y1.3545
X-3.6697 Y1.3484
X-3.6616 Y1.3429
X-3.6533 Y1.3379
X-3.6446 Y1.3334
X-3.6356 Y1.3295
X-3.6265 Y1.3262
X-3.6171 Y1.3234
X-3.6076 Y1.3213
X-3.5979 Y1.3197
X-3.5882 Y1.3188
X-3.5785 Y1.3184
X-3.5687 Y1.3187
X-3.559 Y1.3196
X-3.5493 Y1.3211
X-3.5398 Y1.3233
X-3.5304 Y1.326
X-3.5212 Y1.3293
X-3.5123 Y1.3332
X-3.5036 Y1.3376
X-3.4952 Y1.3426
X-3.4871 Y1.3481
X-3.4794 Y1.3541
X-3.4721 Y1.3605
X-3.4652 Y1.3675
X-3.4588 Y1.3748
X-3.4528 Y1.3825
X-3.4473 Y1.3906
X-3.4424 Y1.399
X-3.438 Y1.4077
X-3.4342 Y1.4167
X-3.4309 Y1.4259
X-3.4249 Y1.4351
X-3.4194 Y1.4446
X-3.4145 Y1.4544
X-3.4102 Y1.4645
X-3.4064 Y1.4748
X-3.4032 Y1.4853
X-3.4007 Y1.496
X-3.3987 Y1.5068
X-3.3973 Y1.5177
X-3.3966 Y1.5286
X-3.3965 Y1.5396
X-3.397 Y1.5505
X-3.3982 Y1.5615
X-3.4 Y1.5723
X-3.4023 Y1.583
X-3.4053 Y1.5935
X-3.4089 Y1.6039
X-3.413 Y1.6141
X-3.4178 Y1.624
X-3.4231 Y1.6336
X-3.4289 Y1.6429
X-3.4352 Y1.6518
X-3.4421 Y1.6604
X-3.4494 Y1.6686
X-3.4572 Y1.6763
X-3.4654 Y1.6836
X-3.474 Y1.6904
X-3.4829 Y1.6967
X-3.4923 Y1.7025
X-3.5019 Y1.7078
X-3.5118 Y1.7125
X-3.522 Y1.7166
X-3.5324 Y1.7201
X-3.5429 Y1.7231
X-3.5536 Y1.7254
X-3.5645 Y1.7271
X-3.5754 Y1.7282
X-3.5863 Y1.7287
X-3.5973 Y1.7286
X-3.6083 Y1.7278
X-3.6191 Y1.7264
X-3.6299 Y1.7244
X-3.6406 Y1.7218
X-3.6511 Y1.7186
X-3.6613 Y1.7148
X-3.6714 Y1.7104
X-3.6812 Y1.7054
X-3.6907 Y1.6999
X-3.6998 Y1.6939
X-3.7086 Y1.6874
X-3.7171 Y1.6803
X-3.7251 Y1.6729
X-3.7326 Y1.6649
X-3.7423 Y1.6575
X-3.7515 Y1.6496
X-3.7603 Y1.6412
X-3.7687 Y1.6323
X-3.7766 Y1.6231
X-3.784 Y1.6135
X-3.791 Y1.6035
X-3.7974 Y1.5931
X-3.8032 Y1.5824
X-3.8085 Y1.5715
X-3.8132 Y1.5603
X-3.8174 Y1.5488
X-3.8209 Y1.5372
X-3.8239 Y1.5254
X-3.8262 Y1.5134
X-3.828 Y1.5014
X-3.8291 Y1.4893
X-3.8295 Y1.4771
X-3.8294 Y1.465
X-3.8286 Y1.4528
X-3.8272 Y1.4407
X-3.8252 Y1.4287
X-3.8225 Y1.4168
X-3.8193 Y1.4051
X-3.8155 Y1.3936
X-3.811 Y1.3822
X-3.806 Y1.3712
X-3.8005 Y1.3603
X-3.7943 Y1.3498
X-3.7877 Y1.3396
X-3.7805 Y1.3298
X-3.7729 Y1.3203
X-3.7647 Y1.3113
X-3.7561 Y1.3027
X-3.7471 Y1.2945
X-3.7377 Y1.2868
X-3.7279 Y1.2796
X-3.7177 Y1.273
X-3.7072 Y1.2668
X-3.6964 Y1.2612
X-3.6853 Y1.2562
X-3.6726 Y1.2517
X-3.6597 Y1.2478
X-3.6466 Y1.2446
X-3.6334 Y1.2419
X-3.6201 Y1.2399
X-3.6067 Y1.2385
X-3.5932 Y1.2377
X-3.5798 Y1.2375
X-3.5663 Y1.238
X-3.5529 Y1.2391
X-3.5395 Y1.2408
X-3.5262 Y1.2432
X-3.5131 Y1.2462
X-3.5001 Y1.2497
X-3.4873 Y1.2539
X-3.4747 Y1.2587
X-3.4623 Y1.2641
X-3.4502 Y1.27
X-3.4384 Y1.2765
X-3.4269 Y1.2835
X-3.4158 Y1.2911
X-3.405 Y1.2991
X-3.3946 Y1.3077
X-3.3846 Y1.3168
X-3.375 Y1.3263
X-3.3659 Y1.3362
X-3.3573 Y1.3466
X-3.3492 Y1.3573
X-3.3416 Y1.3684
X-3.3345 Y1.3799
X-3.3279 Y1.3916
X-3.3219 Y1.4037
X-3.3165 Y1.416
X-3.3116 Y1.4286
X-3.3074 Y1.4414
X-3.3037 Y1.4544
X-3.3007 Y1.4675
X-3.2983 Y1.4807
X-3.2965 Y1.4941
X-3.2953 Y1.5075
X-3.2948 Y1.521
Y1.5345
X-3.2955 Y1.5479
X-3.2969 Y1.5613
X-3.2988 Y1.5746
X-3.3014 Y1.5879
X-3.3046 Y1.601
X-3.3084 Y1.6139
X-3.3128 Y1.6266
X-3.3178 Y1.6391
X-3.3234 Y1.6514
X-3.3295 Y1.6634
X-3.3362 Y1.6751
X-3.3435 Y1.6865
X-3.3512 Y1.6975
X-3.3595 Y1.7081
X-3.3682 Y1.7184
X-3.3774 Y1.7282
X-3.3871 Y1.7376
X-3.3972 Y1.7465
X-3.4077 Y1.7549
X-3.4186 Y1.7629
X-3.4298 Y1.7703
X-3.4414 Y1.7772
X-3.4533 Y1.7836
X-3.4655 Y1.7893
X-3.4779 Y1.7945
X-3.4905 Y1.7992
X-3.5034 Y1.8032
X-3.5164 Y1.8066
X-3.5296 Y1.8094
X-3.5429 Y1.8116
X-3.5563 Y1.8132
X-3.5697 Y1.8141
X-3.5832 Y1.8144
X-3.5967 Y1.8141
G3 X-3.6718 Y1.1508 I0.0087 J-0.3369
G1 X-3.6566 Y1.1478
X-3.6412 Y1.1453
X-3.6258 Y1.1435
X-3.6103 Y1.1423
X-3.5948 Y1.1418
X-3.5792
X-3.5637 Y1.1425
X-3.5482 Y1.1438
X-3.5328 Y1.1457
X-3.5175 Y1.1482
X-3.5023 Y1.1514
X-3.4872 Y1.1551
X-3.4723 Y1.1595
X-3.4576 Y1.1644
X-3.443 Y1.17
X-3.4288 Y1.1761
X-3.4147 Y1.1828
X-3.401 Y1.19
X-3.3875 Y1.1978
X-3.3744 Y1.2062
X-3.3617 Y1.215
X-3.3492 Y1.2244
X-3.3372 Y1.2342
X-3.3256 Y1.2445
X-3.3144 Y1.2553
X-3.3037 Y1.2665
X-3.2934 Y1.2782
X-3.2835 Y1.2902
X-3.2742 Y1.3026
X-3.2654 Y1.3154
X-3.2571 Y1.3286
X-3.2493 Y1.342
X-3.2421 Y1.3558
X-3.2355 Y1.3698
X-3.2294 Y1.3841
X-3.2239 Y1.3986
X-3.2189 Y1.4134
X-3.2146 Y1.4283
X-3.2109 Y1.4434
X-3.2078 Y1.4586
X-3.2053 Y1.4739
X-3.2034 Y1.4894
X-3.2021 Y1.5048
X-3.2015 Y1.5204
Y1.5359
X-3.2021 Y1.5514
X-3.2033 Y1.5669
X-3.2051 Y1.5823
X-3.2076 Y1.5977
X-3.2107 Y1.6129
X-3.2144 Y1.628
X-3.2187 Y1.6429
X-3.2236 Y1.6577
X-3.2291 Y1.6722
X-3.2351 Y1.6865
X-3.2417 Y1.7006
X-3.2489 Y1.7144
X-3.2567 Y1.7278
X-3.2649 Y1.741
X-3.2737 Y1.7538
X-3.283 Y1.7662
X-3.2928 Y1.7783
X-3.3031 Y1.79
X-3.3138 Y1.8012
X-3.325 Y1.812
X-3.3366 Y1.8224
X-3.3486 Y1.8322
X-3.361 Y1.8416
X-3.3737 Y1.8505
X-3.3868 Y1.8588
X-3.4002 Y1.8667
X-3.414 Y1.8739
X-3.428 Y1.8807
X-3.4422 Y1.8868
X-3.4567 Y1.8924
X-3.4715 Y1.8974
X-3.4864 Y1.9018
X-3.5014 Y1.9055
X-3.5166 Y1.9087
X-3.532 Y1.9113
X-3.5474 Y1.9132
X-3.5629 Y1.9146
X-3.5784 Y1.9153
X-3.5939 Y1.9154
X-3.6094 Y1.9148
X-3.6249 Y1.9137
X-3.6404 Y1.9119
X-3.6557 Y1.9095
X-3.671 Y1.9065
X-3.6861 Y1.9028
X-3.701 Y1.8986
X-3.7158 Y1.8938
X-3.7304 Y1.8884
X-3.7447 Y1.8824
X-3.7588 Y1.8758
X-3.7726 Y1.8687
X-3.7861 Y1.861
X-3.7993 Y1.8528
X-3.8121 Y1.844
X-3.8246 Y1.8348
X-3.8367 Y1.8251
X-3.8484 Y1.8149
G3 X-4.0188 Y1.4666 I0.228 J-0.3274
G1 X-4.0178 Y1.4498
X-4.0161 Y1.4332
X-4.0138 Y1.4166
X-4.0109 Y1.4001
X-4.0074 Y1.3837
X-4.0032 Y1.3675
X-3.9985 Y1.3514
X-3.9932 Y1.3355
X-3.9872 Y1.3198
X-3.9807 Y1.3044
X-3.9737 Y1.2892
X-3.966 Y1.2743
X-3.9578 Y1.2597
X-3.9491 Y1.2454
X-3.9398 Y1.2314
X-3.9301 Y1.2178
X-3.9198 Y1.2046
X-3.909 Y1.1917
X-3.8978 Y1.1793
X-3.8861 Y1.1673
X-3.8739 Y1.1558
X-3.8614 Y1.1447
X-3.8484 Y1.1341
X-3.8351 Y1.1239
X-3.8213 Y1.1143
X-3.8073 Y1.1052
X-3.7929 Y1.0967
X-3.7782 Y1.0887
X-3.7631 Y1.0812
X-3.7479 Y1.0743
X-3.7324 Y1.068
X-3.7166 Y1.0622
X-3.7007 Y1.0571
X-3.6845 Y1.0526
X-3.6683 Y1.0486
X-3.6518 Y1.0453
X-3.6353 Y1.0426
X-3.6187 Y1.0405
X-3.602 Y1.039
X-3.5853 Y1.0382
X-3.5685 Y1.038
X-3.5518 Y1.0384
X-3.535 Y1.0394
X-3.5184 Y1.0411
X-3.5018 Y1.0434
X-3.4853 Y1.0463
X-3.4689 Y1.0498
X-3.4526 Y1.0539
X-3.4366 Y1.0587
X-3.4207 Y1.064
X-3.405 Y1.0699
X-3.3896 Y1.0764
X-3.3744 Y1.0835
X-3.3595 Y1.0911
X-3.3449 Y1.0993
X-3.3306 Y1.1081
X-3.3166 Y1.1173
X-3.303 Y1.1271
X-3.2898 Y1.1374
X-3.2769 Y1.1481
X-3.2645 Y1.1594
X-3.2525 Y1.1711
X-3.2409 Y1.1832
X-3.2298 Y1.1958
X-3.2192 Y1.2087
X-3.2091 Y1.2221
X-3.1995 Y1.2358
X-3.1904 Y1.2499
X-3.1818 Y1.2643
X-3.1738 Y1.279
X-3.1664 Y1.294
X-3.1595 Y1.3092
X-3.1531 Y1.3248
X-3.1474 Y1.3405
X-3.1423 Y1.3564
X-3.1377 Y1.3726
X-3.1338 Y1.3889
X-3.1304 Y1.4053
X-3.1277 Y1.4218
X-3.1256 Y1.4384
X-3.1218 Y1.4543
X-3.1185 Y1.4704
X-3.1159 Y1.4865
X-3.1138 Y1.5028
X-3.1123 Y1.5191
X-3.1114 Y1.5354
X-3.1112 Y1.5518
X-3.1115 Y1.5682
X-3.1124 Y1.5845
X-3.1139 Y1.6008
X-3.1161 Y1.6171
X-3.1188 Y1.6332
X-3.1221 Y1.6493
X-3.126 Y1.6652
X-3.1304 Y1.6809
X-3.1355 Y1.6965
X-3.1411 Y1.7119
X-3.1473 Y1.727
X-3.154 Y1.742
X-3.1613 Y1.7566
X-3.1691 Y1.771
X-3.1774 Y1.7851
X-3.1863 Y1.7989
X-3.1956 Y1.8123
X-3.2054 Y1.8254
X-3.2157 Y1.8382
X-3.2265 Y1.8505
X-3.2377 Y1.8624
X-3.2494 Y1.8739
X-3.2614 Y1.885
X-3.2739 Y1.8957
X-3.2867 Y1.9058
X-3.2999 Y1.9155
X-3.3134 Y1.9247
X-3.3273 Y1.9334
X-3.3415 Y1.9416
X-3.356 Y1.9492
X-3.3707 Y1.9563
X-3.3857 Y1.9629
X-3.4009 Y1.9689
X-3.8137 Y1.9309
G3 X-4.1151 Y1.4574 I0.1545 J-0.4311
X-4.1053 Y1.3834 I0.112 J-0.0227
G1 X-3.81 Y1.0272
G3 X-3.3018 Y1.0156 I0.2624 J0.3562
X-3.2282 Y1.07 I-0.0383 J0.1288
G1 X-3.1914 Y1.18
X-3.1872 Y1.1923
X-3.1826 Y1.2036
X-3.1044 Y1.3924
X-3.0941 Y1.416
X-3.04 Y1.5248
G3 X-3.23 Y1.9823 I-0.4451 J0.0834
G1 X-3.2325 Y1.9839
X-3.2354 Y1.9847
X-3.2383 Y1.9848
X-3.4007 Y1.9696
G3 X-3.4131 Y1.9601 I0.002 J-0.0155
X-3.3846 Y1.9055 I0.037 J-0.0155
X-3.2572 Y1.9623 I0.0249 J0.1154
X-3.2507 Y1.9753 I-0.1025 J0.0586 F50.
G2 X-3.2383 Y1.9848 I0.0144 J-0.006
G1 X-3.1742 Y1.9908 F60.
G2 X-2.9405 Y1.712 I-0.0917 J-0.3143
G1 X-2.9409 Y1.709
X-2.9421 Y1.7061
X-2.9878 Y1.6284
X-2.9984 Y1.6082
X-3.04 Y1.5248
G2 X-3.0612 Y1.5185 I-0.0138 J0.0075
X-3.0751 Y1.5411 I0.0127 J0.0234
X-2.9698 Y1.6942 I0.1574 J0.0045
X-2.9519 Y1.6993 I0.0521 J-0.1486 F50.
G3 X-2.9421 Y1.7061 I-0.0034 J0.0153
G1 X-2.9114 Y1.7582 F60.
G3 X-3.0018 Y2.0069 I-0.2312 J0.0568
G1 X-3.1742 Y1.9908
G3 X-3.1867 Y1.9813 I0.002 J-0.0155
X-3.1662 Y1.9331 I0.0338 J-0.0141
X-3.0207 Y1.9844 I0.043 J0.11
X-3.0142 Y1.9975 I-0.1025 J0.0586 F50.
G2 X-3.0018 Y2.0069 I0.0144 J-0.006
G1 X-2.956 Y2.0112 F60.
X-2.947 Y2.0103
X-2.938 Y2.0089
X-2.9291 Y2.0069
X-2.9204 Y2.0043
X-2.9119 Y2.0012
X-2.9035 Y1.9975
X-2.8955 Y1.9933
X-2.8877 Y1.9887
X-2.8802 Y1.9835
X-2.873 Y1.9779
X-2.8663 Y1.9718
X-2.8599 Y1.9653
X-2.8539 Y1.9584
X-2.8484 Y1.9512
X-2.8434 Y1.9436
X-2.8389 Y1.9358
X-2.8348 Y1.9276
X-2.8313 Y1.9192
X-2.8283 Y1.9106
X-2.8259 Y1.9019
X-2.824 Y1.893
X-2.8614 Y1.8408
X-2.8767 Y1.8172
X-2.9114 Y1.7582
G2 X-2.9253 Y1.751 I-0.0132 J0.0084
X-2.9643 Y1.8092 I0.0018 J0.0434
X-2.8547 Y1.8871 I0.1111 J-0.0402
X-2.8402 Y1.8864 I0.0014 J-0.1181 F50.
G3 X-2.8259 Y1.8927 I0.0017 J0.0156
G1 X-2.8057 Y1.922 F60.
G3 X-2.8199 Y2.0258 I-0.075 J0.0426
G1 X-2.823 Y2.0253
X-2.8258 Y2.0243
X-2.8285 Y2.0228
X-2.8308 Y2.0209
X-2.8327 Y2.0187
X-2.8341 Y2.0162
X-2.8351 Y2.0135
X-2.8356 Y2.0107
Y2.0079
X-2.8354 Y1.9999
G3 X-2.8318 Y1.9234 I0.1112 J-0.0331
X-2.8057 Y1.922 I0.0135 J0.0079 F50.
G1 X-2.7643 Y1.9824 F60.
G3 X-2.7658 Y2.029 I-0.0115 J0.023
X-2.7993 Y1.9982 I0.005 J-0.039
X-2.7918 Y1.9784 I0.0192 J-0.0041
X-2.7643 Y1.9824 I0.0117 J0.0157 F50.
X-2.74 Y2.0276 I-0.0088 J0.0339 F60.
G1 X-2.7407 Y2.0283
G3 X-2.7534 Y2.0302 I-0.0094 J-0.0196
G1 X-2.956 Y2.0112
G3 X-2.9675 Y1.9878 I0.002 J-0.0155
G1 X-2.9659 Y1.9851 Z-0.1672
X-2.9644 Y1.9826 Z-0.1663
X-2.9631 Y1.9803 Z-0.1649
X-2.9619 Y1.9782 Z-0.1629
X-2.9609 Y1.9765 Z-0.1605
X-2.9601 Y1.9753 Z-0.1578
X-2.9597 Y1.9745 Z-0.1549
X-2.9595 Y1.9743 Z-0.1519
G0 Z-0.1362
X-3.2304 Y1.1162
G1 Z-0.1519 F50.
X-3.2303 Y1.1159 Z-0.1549
X-3.2301 Y1.115 Z-0.1578
X-3.2298 Y1.1136 Z-0.1605
X-3.2294 Y1.1117 Z-0.1629
X-3.2289 Y1.1094 Z-0.1649
X-3.2283 Y1.1068 Z-0.1663
X-3.2277 Y1.1039 Z-0.1672
X-3.2271 Y1.1009 Z-0.1675
G2 X-3.2282 Y1.07 I-0.0609 J-0.0132
G1 X-3.2546 Y0.9912 F60.
G2 X-3.593 Y0.8449 I-0.2816 J0.1868
X-3.6679 Y0.8558 I-0.0256 J0.0873
G1 X-3.81 Y1.0272
G2 X-3.8121 Y1.0427 I0.0124 J0.0096
X-3.7386 Y1.0683 I0.0481 J-0.0197
X-3.6651 Y0.8849 I-0.0771 J-0.1373
X-3.67 Y0.8713 I-0.1506 J0.046 F50.
G3 X-3.6679 Y0.8558 I0.0145 J-0.0059
G1 X-3.6237 Y0.8024 F60.
G3 X-3.3026 Y0.813 I0.1523 J0.255
G2 X-3.2546 Y0.9912 I1.3788 J-0.2755
G3 X-3.2583 Y1.0064 I-0.015 J0.0045
X-3.2975 Y1.0099 I-0.0216 J-0.0204
X-3.3173 Y0.8384 I0.0702 J-0.095
X-3.3073 Y0.828 I0.09 J0.0765 F50.
G2 X-3.3026 Y0.813 I-0.0106 J-0.0115
G1 X-3.3148 Y0.7658 F60.
G2 X-3.5135 Y0.6694 I-0.1645 J0.086
G1 X-3.6237 Y0.8024
G2 X-3.6258 Y0.8179 I0.0124 J0.0096
X-3.5768 Y0.8376 I0.034 J-0.014
X-3.5109 Y0.6987 I-0.048 J-0.1079
X-3.5156 Y0.6849 I-0.114 J0.031 F50.
G3 X-3.5135 Y0.6694 I0.0145 J-0.0059
G1 X-3.4868 Y0.6372 F60.
G3 X-3.3421 Y0.6205 I0.0829 J0.0833
G1 X-3.3418 Y0.6236
X-3.342 Y0.6267
X-3.3428 Y0.6297
X-3.3441 Y0.6325
X-3.3459 Y0.6349
X-3.348 Y0.637
X-3.3505 Y0.6386
X-3.3532 Y0.6397
X-3.356 Y0.6403
X-3.3628 Y0.6416
X-3.4715 Y0.6622
X-3.4749 Y0.6624
X-3.4783 Y0.6619
G3 X-3.4868 Y0.6372 I0.0039 J-0.0152 F50.
G1 X-3.4281 Y0.5664 F60.
G3 X-3.3573 Y0.5482 I0.0434 J0.022
X-3.3648 Y0.564 I-0.0155 J0.0023
G1 X-3.3755 Y0.5703
X-3.4078 Y0.5894
G3 X-3.4196 Y0.5911 I-0.008 J-0.0135
X-3.4281 Y0.5664 I0.0039 J-0.0152 F50.
G1 X-3.386 Y0.5156 F60.
X-3.3819 Y0.5112
X-3.3815 Y0.5109
X-3.3765 Y0.5087
X-3.3711 Y0.5091
X-3.3665 Y0.5119
X-3.3636 Y0.5165
G3 X-3.3627 Y0.5241 I-0.0225 J0.0065
X-3.3737 Y0.5364 I-0.013 J-0.0006
X-3.386 Y0.5156 I-0.002 J-0.0129 F50.
G1 X-3.3827 Y0.5116 F60.
X-3.3822 Y0.5111
X-3.3739 Y0.5043
X-3.3723 Y0.5038
X-3.3718 Y0.5037
X-3.3702 Y0.5039
X-3.3688 Y0.5045
X-3.3683 Y0.5049
X-3.3672 Y0.5061
X-3.3652 Y0.5117
X-3.3627 Y0.5192
X-3.3231 Y0.7316
X-3.3176 Y0.7552
X-3.3148 Y0.7658
G3 X-3.333 Y0.7846 I-0.0153 J0.0034
