%
(971-23-P-0063_PROXIMAL SPROCKET_1497 FIRST)
(T1  D=0.1497 CR=0. - ZMIN=-0.2175 - FLAT END MILL)
G90 G94 G17 G91.1
G64 P0.001 Q0.001
G20
G53 G0 Z0.
(.3 CIRCLUAR THROUGH HOLE 2)
M9
T1 M6
S22000 M3
G4 P10.
G54
M7
G0 X3.1968 Y0.0096
G43 Z0.6 H1
G0 Z0.13
G1 Z0.065 F40.
G19 G2 Y-0.0053 Z0.05 J-0.015 K0.
G1 Y-0.0128
G17 G3 X3.2097 Y-0.0257 I0.0128 J0.
Y0.0256 Z0.0323 I0. J0.0257
Y-0.0256 Z0.0146 I0. J-0.0256
Y0.0256 Z-0.0032 I0. J0.0256
Y-0.0256 Z-0.0209 I0. J-0.0256
Y0.0256 Z-0.0386 I0. J0.0256
Y-0.0256 Z-0.0563 I0. J-0.0256
Y0.0256 Z-0.074 I0. J0.0256
Y-0.0256 Z-0.0918 I0. J-0.0256
Y0.0256 Z-0.1095 I0. J0.0256
Y-0.0256 Z-0.1272 I0. J-0.0256
Y0.0256 Z-0.1449 I0. J0.0256
Y-0.0256 Z-0.1627 I0. J-0.0256
Y0.0256 Z-0.1804 I0. J0.0256
Y-0.0256 Z-0.1981 I0. J-0.0256
X3.235 Y0.0038 Z-0.2078 I0. J0.0256
X3.2021 Y0.0245 Z-0.2175 I-0.0254 J-0.0038
X3.2172 Y-0.0245 I0.0076 J-0.0245
X3.2021 Y0.0245 I-0.0076 J0.0245
X3.1936 Y0.0085 I0.0038 J-0.0123
G1 X3.1958 Y0.0013
X3.1967 Y-0.0015 Z-0.2172
X3.1975 Y-0.0042 Z-0.2164
X3.1983 Y-0.0066 Z-0.215
X3.199 Y-0.0088 Z-0.2131
X3.1995 Y-0.0106 Z-0.2108
X3.1999 Y-0.0119 Z-0.2083
X3.2002 Y-0.0127 Z-0.2055
Y-0.013 Z-0.2025
G0 Z0.4
X2.2601 Y-2.2566
Z0.13
G1 Z0.065 F40.
G19 G2 Y-2.2715 Z0.05 J-0.015 K0.
G1 Y-2.279
G17 G3 X2.2696 Y-2.2885 I0.0094 J0.
Y-2.2507 Z0.0335 I0. J0.0189
Y-2.2885 Z0.0169 I0. J-0.0189
Y-2.2507 Z0.0004 I0. J0.0189
Y-2.2885 Z-0.0161 I0. J-0.0189
Y-2.2507 Z-0.0327 I0. J0.0189
Y-2.2885 Z-0.0492 I0. J-0.0189
Y-2.2507 Z-0.0657 I0. J0.0189
Y-2.2885 Z-0.0822 I0. J-0.0189
Y-2.2507 Z-0.0988 I0. J0.0189
Y-2.2885 Z-0.1153 I0. J-0.0189
Y-2.2507 Z-0.1318 I0. J0.0189
Y-2.2885 Z-0.1484 I0. J-0.0189
Y-2.2507 Z-0.1649 I0. J0.0189
Y-2.2885 Z-0.1814 I0. J-0.0189
Y-2.2507 Z-0.198 I0. J0.0189
Y-2.2885 Z-0.2145 I0. J-0.0189
X2.2798 Y-2.2855 Z-0.2175 I0. J0.0189
X2.2593 Y-2.2537 I-0.0102 J0.0159
X2.2798 Y-2.2855 I0.0102 J-0.0159
X2.2826 Y-2.2724 I-0.0051 J0.0079
G1 X2.2786 Y-2.2661
X2.277 Y-2.2637 Z-0.2172
X2.2755 Y-2.2613 Z-0.2164
X2.2741 Y-2.2591 Z-0.215
X2.2729 Y-2.2572 Z-0.2131
X2.2718 Y-2.2556 Z-0.2108
X2.2711 Y-2.2545 Z-0.2083
X2.2706 Y-2.2538 Z-0.2055
X2.2705 Y-2.2535 Z-0.2025
G0 Z0.4
X0.2628 Y-3.7557
Z0.13
G1 Z0.065 F40.
G19 G3 Y-3.7407 Z0.05 J0.015 K0.
G1 Y-3.7332
G17 G3 X0.25 Y-3.7204 I-0.0128 J0.
Y-3.7717 Z0.0323 I0. J-0.0257
Y-3.7204 Z0.0146 I0. J0.0257
Y-3.7717 Z-0.0032 I0. J-0.0257
Y-3.7204 Z-0.0209 I0. J0.0257
Y-3.7717 Z-0.0386 I0. J-0.0257
Y-3.7204 Z-0.0563 I0. J0.0257
Y-3.7717 Z-0.074 I0. J-0.0257
Y-3.7204 Z-0.0918 I0. J0.0257
Y-3.7717 Z-0.1095 I0. J-0.0257
Y-3.7204 Z-0.1272 I0. J0.0257
Y-3.7717 Z-0.1449 I0. J-0.0257
Y-3.7204 Z-0.1627 I0. J0.0257
Y-3.7717 Z-0.1804 I0. J-0.0257
Y-3.7204 Z-0.1981 I0. J0.0257
X0.2246 Y-3.7499 Z-0.2078 I0. J-0.0257
X0.2576 Y-3.7706 Z-0.2175 I0.0254 J0.0038
X0.2424 Y-3.7215 I-0.0076 J0.0245
X0.2576 Y-3.7706 I0.0076 J-0.0245
X0.266 Y-3.7545 I-0.0038 J0.0123
G1 X0.2638 Y-3.7474
X0.263 Y-3.7446 Z-0.2172
X0.2621 Y-3.7419 Z-0.2164
X0.2614 Y-3.7394 Z-0.215
X0.2607 Y-3.7373 Z-0.2131
X0.2602 Y-3.7355 Z-0.2108
X0.2598 Y-3.7342 Z-0.2083
X0.2595 Y-3.7333 Z-0.2055
X0.2594 Y-3.7331 Z-0.2025
G0 Z0.4
X-0.2372 Y-3.7557
Z0.13
G1 Z0.065 F40.
G19 G3 Y-3.7407 Z0.05 J0.015 K0.
G1 Y-3.7332
G17 G3 X-0.25 Y-3.7204 I-0.0128 J0.
Y-3.7717 Z0.0323 I0. J-0.0257
Y-3.7204 Z0.0146 I0. J0.0257
Y-3.7717 Z-0.0032 I0. J-0.0257
Y-3.7204 Z-0.0209 I0. J0.0257
Y-3.7717 Z-0.0386 I0. J-0.0257
Y-3.7204 Z-0.0563 I0. J0.0257
Y-3.7717 Z-0.074 I0. J-0.0257
Y-3.7204 Z-0.0918 I0. J0.0257
Y-3.7717 Z-0.1095 I0. J-0.0257
Y-3.7204 Z-0.1272 I0. J0.0257
Y-3.7717 Z-0.1449 I0. J-0.0257
Y-3.7204 Z-0.1627 I0. J0.0257
Y-3.7717 Z-0.1804 I0. J-0.0257
Y-3.7204 Z-0.1981 I0. J0.0257
X-0.2754 Y-3.7499 Z-0.2078 I0. J-0.0257
X-0.2424 Y-3.7706 Z-0.2175 I0.0254 J0.0038
X-0.2576 Y-3.7215 I-0.0076 J0.0245
X-0.2424 Y-3.7706 I0.0076 J-0.0245
X-0.234 Y-3.7545 I-0.0038 J0.0123
G1 X-0.2362 Y-3.7474
X-0.237 Y-3.7446 Z-0.2172
X-0.2379 Y-3.7419 Z-0.2164
X-0.2386 Y-3.7394 Z-0.215
X-0.2393 Y-3.7373 Z-0.2131
X-0.2398 Y-3.7355 Z-0.2108
X-0.2402 Y-3.7342 Z-0.2083
X-0.2405 Y-3.7333 Z-0.2055
X-0.2406 Y-3.7331 Z-0.2025
G0 Z0.4
X-0.0128 Y-3.2
Z0.13
G1 Z0.065 F40.
G19 G2 Y-3.215 Z0.05 J-0.015 K0.
G1 Y-3.2225
G17 G3 X0. Y-3.2353 I0.0128 J0.
Y-3.184 Z0.0323 I0. J0.0257
Y-3.2353 Z0.0146 I0. J-0.0257
Y-3.184 Z-0.0032 I0. J0.0257
Y-3.2353 Z-0.0209 I0. J-0.0257
Y-3.184 Z-0.0386 I0. J0.0257
Y-3.2353 Z-0.0563 I0. J-0.0256
Y-3.184 Z-0.074 I0. J0.0256
Y-3.2353 Z-0.0918 I0. J-0.0256
Y-3.184 Z-0.1095 I0. J0.0256
Y-3.2353 Z-0.1272 I0. J-0.0256
Y-3.184 Z-0.1449 I0. J0.0256
Y-3.2353 Z-0.1627 I0. J-0.0256
Y-3.184 Z-0.1804 I0. J0.0256
Y-3.2353 Z-0.1981 I0. J-0.0256
X0.0254 Y-3.2058 Z-0.2078 I0. J0.0256
X-0.0076 Y-3.1852 Z-0.2175 I-0.0254 J-0.0038
X0.0076 Y-3.2342 I0.0076 J-0.0245
X-0.0076 Y-3.1852 I-0.0076 J0.0245
X-0.016 Y-3.2012 I0.0038 J-0.0123
G1 X-0.0138 Y-3.2083
X-0.013 Y-3.2111 Z-0.2172
X-0.0121 Y-3.2138 Z-0.2164
X-0.0114 Y-3.2163 Z-0.215
X-0.0107 Y-3.2185 Z-0.2131
X-0.0102 Y-3.2202 Z-0.2108
X-0.0098 Y-3.2216 Z-0.2083
X-0.0095 Y-3.2224 Z-0.2055
X-0.0094 Y-3.2226 Z-0.2025
G0 Z0.4
X-2.279 Y-2.2566
Z0.13
G1 Z0.065 F40.
G19 G2 Y-2.2715 Z0.05 J-0.015 K0.
G1 Y-2.279
G17 G3 X-2.2696 Y-2.2885 I0.0095 J0.
Y-2.2507 Z0.0335 I0. J0.0189
Y-2.2885 Z0.0169 I0. J-0.0189
Y-2.2507 Z0.0004 I0. J0.0189
Y-2.2885 Z-0.0161 I0. J-0.0189
Y-2.2507 Z-0.0327 I0. J0.0189
Y-2.2885 Z-0.0492 I0. J-0.0189
Y-2.2507 Z-0.0657 I0. J0.0189
Y-2.2885 Z-0.0822 I0. J-0.0189
Y-2.2507 Z-0.0988 I0. J0.0189
Y-2.2885 Z-0.1153 I0. J-0.0189
Y-2.2507 Z-0.1318 I0. J0.0189
Y-2.2885 Z-0.1484 I0. J-0.0189
Y-2.2507 Z-0.1649 I0. J0.0189
Y-2.2885 Z-0.1814 I0. J-0.0189
Y-2.2507 Z-0.198 I0. J0.0189
Y-2.2885 Z-0.2145 I0. J-0.0189
X-2.2593 Y-2.2855 Z-0.2175 I0. J0.0189
X-2.2798 Y-2.2537 I-0.0102 J0.0159
X-2.2593 Y-2.2855 I0.0102 J-0.0159
X-2.2565 Y-2.2724 I-0.0051 J0.0079
G1 X-2.2606 Y-2.2661
X-2.2621 Y-2.2637 Z-0.2172
X-2.2637 Y-2.2613 Z-0.2164
X-2.2651 Y-2.2591 Z-0.215
X-2.2663 Y-2.2572 Z-0.2131
X-2.2673 Y-2.2556 Z-0.2108
X-2.2681 Y-2.2545 Z-0.2083
X-2.2685 Y-2.2538 Z-0.2055
X-2.2687 Y-2.2535 Z-0.2025
G0 Z0.4
X-3.2225 Y0.0096
Z0.13
G1 Z0.065 F40.
G19 G2 Y-0.0053 Z0.05 J-0.015 K0.
G1 Y-0.0128
G17 G3 X-3.2097 Y-0.0257 I0.0128 J0.
Y0.0257 Z0.0323 I0. J0.0257
Y-0.0257 Z0.0146 I0. J-0.0257
Y0.0257 Z-0.0032 I0. J0.0257
Y-0.0257 Z-0.0209 I0. J-0.0257
Y0.0257 Z-0.0386 I0. J0.0257
Y-0.0257 Z-0.0563 I0. J-0.0257
Y0.0257 Z-0.074 I0. J0.0257
Y-0.0257 Z-0.0918 I0. J-0.0257
Y0.0257 Z-0.1095 I0. J0.0257
Y-0.0257 Z-0.1272 I0. J-0.0257
Y0.0257 Z-0.1449 I0. J0.0257
Y-0.0257 Z-0.1627 I0. J-0.0257
Y0.0257 Z-0.1804 I0. J0.0257
Y-0.0257 Z-0.1981 I0. J-0.0257
X-3.1843 Y0.0038 Z-0.2078 I0. J0.0257
X-3.2172 Y0.0245 Z-0.2175 I-0.0254 J-0.0038
X-3.2021 Y-0.0245 I0.0076 J-0.0245
X-3.2172 Y0.0245 I-0.0076 J0.0245
X-3.2257 Y0.0085 I0.0038 J-0.0123
G1 X-3.2235 Y0.0013
X-3.2226 Y-0.0015 Z-0.2172
X-3.2218 Y-0.0042 Z-0.2164
X-3.221 Y-0.0066 Z-0.215
X-3.2204 Y-0.0088 Z-0.2131
X-3.2198 Y-0.0106 Z-0.2108
X-3.2194 Y-0.0119 Z-0.2083
X-3.2192 Y-0.0127 Z-0.2055
X-3.2191 Y-0.013 Z-0.2025
G0 Z0.4
X-2.279 Y2.2826
Z0.13
G1 Z0.065 F40.
G19 G2 Y2.2676 Z0.05 J-0.015 K0.
G1 Y2.2601
G17 G3 X-2.2696 Y2.2507 I0.0095 J0.
Y2.2885 Z0.0335 I0. J0.0189
Y2.2507 Z0.0169 I0. J-0.0189
Y2.2885 Z0.0004 I0. J0.0189
Y2.2507 Z-0.0161 I0. J-0.0189
Y2.2885 Z-0.0327 I0. J0.0189
Y2.2507 Z-0.0492 I0. J-0.0189
Y2.2885 Z-0.0657 I0. J0.0189
Y2.2507 Z-0.0822 I0. J-0.0189
Y2.2885 Z-0.0988 I0. J0.0189
Y2.2507 Z-0.1153 I0. J-0.0189
Y2.2885 Z-0.1318 I0. J0.0189
Y2.2507 Z-0.1484 I0. J-0.0189
Y2.2885 Z-0.1649 I0. J0.0189
Y2.2507 Z-0.1814 I0. J-0.0189
Y2.2885 Z-0.198 I0. J0.0189
Y2.2507 Z-0.2145 I0. J-0.0189
X-2.2593 Y2.2537 Z-0.2175 I0. J0.0189
X-2.2798 Y2.2855 I-0.0102 J0.0159
X-2.2593 Y2.2537 I0.0102 J-0.0159
X-2.2565 Y2.2667 I-0.0051 J0.0079
G1 X-2.2606 Y2.273
X-2.2621 Y2.2755 Z-0.2172
X-2.2637 Y2.2779 Z-0.2164
X-2.2651 Y2.28 Z-0.215
X-2.2663 Y2.2819 Z-0.2131
X-2.2673 Y2.2835 Z-0.2108
X-2.2681 Y2.2847 Z-0.2083
X-2.2685 Y2.2854 Z-0.2055
X-2.2687 Y2.2856 Z-0.2025
G0 Z0.4
X-0.0128 Y3.2193
Z0.13
G1 Z0.065 F40.
G19 G2 Y3.2043 Z0.05 J-0.015 K0.
G1 Y3.1968
G17 G3 X0. Y3.184 I0.0128 J0.
Y3.2353 Z0.0323 I0. J0.0256
Y3.184 Z0.0146 I0. J-0.0256
Y3.2353 Z-0.0032 I0. J0.0256
Y3.184 Z-0.0209 I0. J-0.0256
Y3.2353 Z-0.0386 I0. J0.0256
Y3.184 Z-0.0563 I0. J-0.0256
Y3.2353 Z-0.074 I0. J0.0256
Y3.184 Z-0.0918 I0. J-0.0256
Y3.2353 Z-0.1095 I0. J0.0256
Y3.184 Z-0.1272 I0. J-0.0256
Y3.2353 Z-0.1449 I0. J0.0256
Y3.184 Z-0.1627 I0. J-0.0257
Y3.2353 Z-0.1804 I0. J0.0257
Y3.184 Z-0.1981 I0. J-0.0257
X0.0254 Y3.2135 Z-0.2078 I0. J0.0257
X-0.0076 Y3.2342 Z-0.2175 I-0.0254 J-0.0038
X0.0076 Y3.1852 I0.0076 J-0.0245
X-0.0076 Y3.2342 I-0.0076 J0.0245
X-0.016 Y3.2181 I0.0038 J-0.0123
G1 X-0.0138 Y3.211
X-0.013 Y3.2082 Z-0.2172
X-0.0121 Y3.2055 Z-0.2164
X-0.0114 Y3.203 Z-0.215
X-0.0107 Y3.2009 Z-0.2131
X-0.0102 Y3.1991 Z-0.2108
X-0.0098 Y3.1978 Z-0.2083
X-0.0095 Y3.197 Z-0.2055
X-0.0094 Y3.1967 Z-0.2025
G0 Z0.4
X2.2601 Y2.2826
Z0.13
G1 Z0.065 F40.
G19 G2 Y2.2676 Z0.05 J-0.015 K0.
G1 Y2.2601
G17 G3 X2.2696 Y2.2507 I0.0094 J0.
Y2.2885 Z0.0335 I0. J0.0189
Y2.2507 Z0.0169 I0. J-0.0189
Y2.2885 Z0.0004 I0. J0.0189
Y2.2507 Z-0.0161 I0. J-0.0189
Y2.2885 Z-0.0327 I0. J0.0189
Y2.2507 Z-0.0492 I0. J-0.0189
Y2.2885 Z-0.0657 I0. J0.0189
Y2.2507 Z-0.0822 I0. J-0.0189
Y2.2885 Z-0.0988 I0. J0.0189
Y2.2507 Z-0.1153 I0. J-0.0189
Y2.2885 Z-0.1318 I0. J0.0189
Y2.2507 Z-0.1484 I0. J-0.0189
Y2.2885 Z-0.1649 I0. J0.0189
Y2.2507 Z-0.1814 I0. J-0.0189
Y2.2885 Z-0.198 I0. J0.0189
Y2.2507 Z-0.2145 I0. J-0.0189
X2.2798 Y2.2537 Z-0.2175 I0. J0.0189
X2.2593 Y2.2855 I-0.0102 J0.0159
X2.2798 Y2.2537 I0.0102 J-0.0159
X2.2826 Y2.2667 I-0.0051 J0.0079
G1 X2.2786 Y2.273
X2.277 Y2.2755 Z-0.2172
X2.2755 Y2.2779 Z-0.2164
X2.2741 Y2.28 Z-0.215
X2.2729 Y2.2819 Z-0.2131
X2.2718 Y2.2835 Z-0.2108
X2.2711 Y2.2847 Z-0.2083
X2.2706 Y2.2854 Z-0.2055
X2.2705 Y2.2856 Z-0.2025
G0 Z0.6
(.3 CIRCULAR THROUGH HOLE)
M7
G0 X-0.0222 Y3.7924
Z0.6
Z0.2
G1 Z0.1145 F13.333
G3 X-0.0208 Y3.7926 Z0.1081 I-0.0056 J0.0446 F55.
X-0.017 Y3.7933 Z0.103 I-0.007 J0.0445
X-0.0115 Y3.7951 Z0.1 I-0.0109 J0.0437
X-0.0442 Y3.8789 Z0.0621 I-0.0164 J0.0419
X-0.0115 Y3.7951 Z0.0242 I0.0164 J-0.0419
X-0.0442 Y3.8789 Z-0.0136 I-0.0164 J0.0419
X-0.0115 Y3.7951 Z-0.0515 I0.0164 J-0.0419
X-0.0442 Y3.8789 Z-0.0894 I-0.0164 J0.0419
X-0.0115 Y3.7951 Z-0.1273 I0.0164 J-0.0419
X-0.0442 Y3.8789 Z-0.1652 I-0.0164 J0.0419
X-0.0115 Y3.7951 Z-0.203 I0.0164 J-0.0419
X0.0171 Y3.837 Z-0.2175 I-0.0164 J0.0419
X-0.0171 I-0.0171 J0. F60.
X0.1172 I0.0671 J0.
X-0.1172 I-0.1172 J0.
X0.1172 I0.1172 J0.
G2 X0.1537 Y3.9006 I0.0736 J0.
G3 X0.1669 Y3.9728 I-0.0243 J0.0417
X0. Y4.0522 I-0.1669 J-0.1358
Y3.6218 I0. J-0.2152
X0.1669 Y3.9728 I0. J0.2152
G2 X0.166 Y3.9817 I0.0063 J0.0051
G3 X0.1648 Y3.9905 I-0.0068 J0.0036
X0. Y4.0622 I-0.1648 J-0.1534
Y3.6118 I0. J-0.2252
X0.1648 Y3.9905 I0. J0.2252
X0.1602 Y3.9938 Z-0.2164 I-0.011 J-0.0102
X0.1555 Y3.9951 Z-0.2131 I-0.0064 J-0.0136
X0.1523 Z-0.2083 I-0.0017 J-0.0149
X0.1511 Y3.995 Z-0.2025 I0.0015 J-0.0149
G0 Z0.6
(SHAPE POCKET)
M7
G0 X-4.4239 Y-0.0434
Z0.6
Z0.1
G3 X-4.3112 Y0.0434 Z0.0606 I0.0563 J0.0434 F50.
X-4.4239 Y-0.0434 Z0.0212 I-0.0563 J-0.0434
X-4.3112 Y0.0434 Z-0.0182 I0.0563 J0.0434
X-4.4239 Y-0.0434 Z-0.0576 I-0.0563 J-0.0434
X-4.3112 Y0.0434 Z-0.0969 I0.0563 J0.0434
X-4.4239 Y-0.0434 Z-0.1363 I-0.0563 J-0.0434
X-4.2964 Y0. Z-0.1675 I0.0563 J0.0434
X-4.4387 I-0.0711 J0.
X-4.2964 I0.0711 J0.
X-4.4457 Y0.1249 I-0.0777 J0.0589 F60.
G1 X-4.454 Y0.1198
X-4.4619 Y0.1141
X-4.4695 Y0.108
X-4.4767 Y0.1015
X-4.4834 Y0.0944
X-4.4897 Y0.087
X-4.4955 Y0.0792
X-4.5008 Y0.071
X-4.5055 Y0.0626
X-4.5097 Y0.0538
X-4.5134 Y0.0448
X-4.5165 Y0.0355
X-4.5189 Y0.0261
X-4.5208 Y0.0166
X-4.5221 Y0.007
X-4.5228 Y-0.0027
Y-0.0125
X-4.5222 Y-0.0222
X-4.521 Y-0.0318
X-4.5192 Y-0.0414
X-4.5168 Y-0.0508
X-4.5139 Y-0.0601
X-4.5103 Y-0.0691
X-4.5062 Y-0.0779
X-4.5015 Y-0.0864
X-4.4963 Y-0.0947
X-4.4905 Y-0.1025
X-4.4843 Y-0.11
X-4.4777 Y-0.1171
X-4.4705 Y-0.1237
X-4.463 Y-0.1299
X-4.4551 Y-0.1356
X-4.4469 Y-0.1408
X-4.4384 Y-0.1454
X-4.4296 Y-0.1495
X-4.4205 Y-0.153
X-4.4112 Y-0.156
X-4.4018 Y-0.1583
X-4.3922 Y-0.1601
X-4.3826 Y-0.1612
X-4.3729 Y-0.1617
X-4.3631
X-4.3534 Y-0.161
X-4.3438 Y-0.1596
X-4.3343 Y-0.1577
X-4.3249 Y-0.1552
X-4.3157 Y-0.1521
X-4.3067 Y-0.1484
X-4.2979 Y-0.1442
X-4.2895 Y-0.1394
X-4.2813 Y-0.134
X-4.2736 Y-0.1282
X-4.2662 Y-0.1219
X-4.2592 Y-0.1151
X-4.2526 Y-0.1079
X-4.2466 Y-0.1004
X-4.241 Y-0.0924
X-4.2359 Y-0.0841
X-4.2314 Y-0.0755
X-4.2274 Y-0.0666
X-4.224 Y-0.0575
X-4.2212 Y-0.0482
X-4.2153 Y-0.0393
X-4.2099 Y-0.0301
X-4.205 Y-0.0206
X-4.2007 Y-0.0109
X-4.1969 Y-0.0009
X-4.1937 Y0.0093
X-4.1911 Y0.0197
X-4.1891 Y0.0302
X-4.1877 Y0.0407
X-4.1869 Y0.0514
X-4.1867 Y0.0621
X-4.1871 Y0.0727
X-4.1881 Y0.0833
X-4.1897 Y0.0939
X-4.1919 Y0.1043
X-4.1947 Y0.1146
X-4.1981 Y0.1248
X-4.2021 Y0.1347
X-4.2066 Y0.1444
X-4.2116 Y0.1538
X-4.2172 Y0.1629
X-4.2233 Y0.1716
X-4.2298 Y0.1801
X-4.2369 Y0.1881
X-4.2444 Y0.1957
X-4.2523 Y0.2029
X-4.2606 Y0.2096
X-4.2692 Y0.2158
X-4.2782 Y0.2215
X-4.2876 Y0.2267
X-4.2972 Y0.2314
X-4.307 Y0.2355
X-4.3171 Y0.2391
X-4.3273 Y0.242
X-4.3377 Y0.2444
X-4.3482 Y0.2462
X-4.3588 Y0.2474
X-4.3695 Y0.248
X-4.3802
X-4.3908 Y0.2473
X-4.4014 Y0.2461
X-4.4119 Y0.2443
X-4.4223 Y0.2418
X-4.4326 Y0.2388
X-4.4426 Y0.2352
X-4.4524 Y0.2311
X-4.462 Y0.2264
X-4.4713 Y0.2211
X-4.4803 Y0.2154
X-4.4889 Y0.2091
X-4.4972 Y0.2024
X-4.5077 Y0.1963
X-4.5179 Y0.1898
X-4.5277 Y0.1827
X-4.5371 Y0.1752
X-4.5462 Y0.1671
X-4.5548 Y0.1586
X-4.563 Y0.1497
X-4.5707 Y0.1404
X-4.5779 Y0.1307
X-4.5846 Y0.1207
X-4.5908 Y0.1103
X-4.5965 Y0.0996
X-4.6016 Y0.0886
X-4.6061 Y0.0774
X-4.6101 Y0.066
X-4.6135 Y0.0544
X-4.6162 Y0.0426
X-4.6184 Y0.0307
X-4.62 Y0.0187
X-4.6209 Y0.0066
X-4.6212 Y-0.0055
X-4.6209 Y-0.0176
X-4.62 Y-0.0296
X-4.6185 Y-0.0416
X-4.6163 Y-0.0535
X-4.6136 Y-0.0653
X-4.6103 Y-0.0769
X-4.6063 Y-0.0884
X-4.6018 Y-0.0996
X-4.5967 Y-0.1106
X-4.5911 Y-0.1213
X-4.5849 Y-0.1317
X-4.5782 Y-0.1417
X-4.571 Y-0.1515
X-4.5633 Y-0.1608
X-4.5551 Y-0.1697
X-4.5465 Y-0.1782
X-4.5375 Y-0.1863
X-4.5281 Y-0.1938
X-4.5183 Y-0.2009
X-4.5081 Y-0.2075
X-4.4976 Y-0.2135
X-4.4869 Y-0.219
X-4.4746 Y-0.2241
X-4.462 Y-0.2285
X-4.4493 Y-0.2324
X-4.4364 Y-0.2357
X-4.4234 Y-0.2384
X-4.4103 Y-0.2405
X-4.3971 Y-0.2419
X-4.3838 Y-0.2428
X-4.3705 Y-0.2431
X-4.3572 Y-0.2427
X-4.344 Y-0.2417
X-4.3308 Y-0.2401
X-4.3177 Y-0.2379
X-4.3047 Y-0.2351
X-4.2918 Y-0.2318
X-4.2791 Y-0.2278
X-4.2666 Y-0.2232
X-4.2544 Y-0.2181
X-4.2424 Y-0.2124
X-4.2306 Y-0.2061
X-4.2192 Y-0.1994
X-4.2081 Y-0.1921
X-4.1973 Y-0.1843
X-4.1869 Y-0.176
X-4.1769 Y-0.1672
X-4.1673 Y-0.158
X-4.1582 Y-0.1484
X-4.1495 Y-0.1383
X-4.1413 Y-0.1278
X-4.1335 Y-0.117
X-4.1263 Y-0.1059
X-4.1196 Y-0.0944
X-4.1134 Y-0.0826
X-4.1078 Y-0.0706
X-4.1028 Y-0.0583
X-4.0983 Y-0.0457
X-4.0944 Y-0.033
X-4.0911 Y-0.0202
X-4.0884 Y-0.0071
X-4.0863 Y0.006
X-4.0848 Y0.0192
X-4.0839 Y0.0325
X-4.0836 Y0.0458
X-4.084 Y0.059
X-4.0849 Y0.0723
X-4.0865 Y0.0855
X-4.0887 Y0.0986
X-4.0915 Y0.1116
X-4.0948 Y0.1245
X-4.0988 Y0.1372
X-4.1033 Y0.1497
X-4.1085 Y0.1619
X-4.1141 Y0.1739
X-4.1204 Y0.1857
X-4.1271 Y0.1971
X-4.1344 Y0.2083
X-4.1422 Y0.219
X-4.1505 Y0.2294
X-4.1592 Y0.2394
X-4.1684 Y0.249
X-4.178 Y0.2582
X-4.1881 Y0.2669
X-4.1985 Y0.2751
X-4.2093 Y0.2829
X-4.2205 Y0.2901
X-4.2319 Y0.2968
X-4.2437 Y0.303
X-4.2557 Y0.3087
X-4.268 Y0.3137
X-4.2805 Y0.3182
X-4.2932 Y0.3221
X-4.3072 Y0.3256
X-4.3214 Y0.3285
X-4.3356 Y0.3307
X-4.35 Y0.3324
X-4.3643 Y0.3334
X-4.3788 Y0.3338
X-4.3932 Y0.3336
X-4.4076 Y0.3328
X-4.4219 Y0.3314
X-4.4362 Y0.3293
X-4.4504 Y0.3266
X-4.4644 Y0.3234
X-4.4783 Y0.3195
X-4.4921 Y0.315
X-4.5056 Y0.31
X-4.5189 Y0.3044
X-4.5319 Y0.2982
X-4.5446 Y0.2915
X-4.5571 Y0.2842
X-4.5692 Y0.2764
X-4.581 Y0.2681
X-4.5924 Y0.2592
X-4.6035 Y0.2499
X-4.6141 Y0.2402
X-4.6243 Y0.23
X-4.634 Y0.2193
X-4.6433 Y0.2083
X-4.6521 Y0.1969
X-4.6604 Y0.1851
X-4.6682 Y0.1729
X-4.6754 Y0.1605
X-4.6822 Y0.1477
X-4.6883 Y0.1347
X-4.6939 Y0.1214
X-4.6989 Y0.1078
X-4.7034 Y0.0941
X-4.7072 Y0.0802
X-4.7105 Y0.0662
X-4.7131 Y0.052
X-4.7152 Y0.0377
X-4.7166 Y0.0234
X-4.7174 Y0.0089
X-4.7176 Y-0.0055
X-4.7171 Y-0.0199
X-4.7161 Y-0.0343
X-4.7144 Y-0.0486
X-4.7121 Y-0.0628
X-4.7092 Y-0.077
X-4.7057 Y-0.091
X-4.7017 Y-0.1048
X-4.697 Y-0.1184
X-4.6917 Y-0.1319
X-4.6859 Y-0.1451
X-4.6795 Y-0.158
X-4.6726 Y-0.1706
X-4.6651 Y-0.183
X-4.6571 Y-0.195
X-4.6486 Y-0.2066
X-4.6396 Y-0.2179
X-4.6301 Y-0.2288
X-4.6202 Y-0.2393
X-4.6098 Y-0.2493
X-4.599 Y-0.2589
X-4.5878 Y-0.268
X-4.5763 Y-0.2766
X-4.5644 Y-0.2847
X-4.5521 Y-0.2923
X-4.5395 Y-0.2993
X-4.5266 Y-0.3059
X-4.5135 Y-0.3118
X-4.5001 Y-0.3172
X-4.4865 Y-0.322
G3 X-4.2622 Y0.4165 I0.1122 J0.3693
X-4.4805 Y0.4183 I-0.1122 J-0.3693
X-4.809 Y0.0263 I0.0871 J-0.4066
G1 X-4.8096 Y0.0096
Y-0.007
X-4.809 Y-0.0237
X-4.8078 Y-0.0403
X-4.8059 Y-0.0568
X-4.8034 Y-0.0733
X-4.8003 Y-0.0896
X-4.7967 Y-0.1059
X-4.7924 Y-0.1219
X-4.7875 Y-0.1379
X-4.782 Y-0.1536
X-4.7759 Y-0.1691
X-4.7693 Y-0.1844
X-4.7621 Y-0.1994
X-4.7543 Y-0.2141
X-4.746 Y-0.2285
X-4.7371 Y-0.2426
X-4.7278 Y-0.2564
X-4.7179 Y-0.2698
X-4.7076 Y-0.2829
X-4.6967 Y-0.2955
X-4.6854 Y-0.3077
X-4.6737 Y-0.3195
X-4.6615 Y-0.3309
X-4.6489 Y-0.3417
X-4.6359 Y-0.3522
X-4.6225 Y-0.3621
X-4.6088 Y-0.3715
X-4.5947 Y-0.3804
X-4.5803 Y-0.3887
X-4.5656 Y-0.3966
X-4.5506 Y-0.4038
X-4.5354 Y-0.4105
X-4.5199 Y-0.4166
X-4.5042 Y-0.4222
X-4.4883 Y-0.4271
X-4.4722 Y-0.4315
X-4.456 Y-0.4353
X-4.4397 Y-0.4384
X-4.4232 Y-0.4409
X-4.4067 Y-0.4429
X-4.3901 Y-0.4442
X-4.3734 Y-0.4448
X-4.3568 Y-0.4449
X-4.3402 Y-0.4443
X-4.3235 Y-0.4432
X-4.307 Y-0.4414
X-4.2905 Y-0.439
X-4.2742 Y-0.4359
X-4.2579 Y-0.4323
X-4.2418 Y-0.428
X-4.2259 Y-0.4232
X-4.2101 Y-0.4178
X-4.1946 Y-0.4118
X-4.1793 Y-0.4052
X-4.1643 Y-0.398
X-4.1495 Y-0.3903
X-4.1351 Y-0.3821
X-4.1209 Y-0.3733
X-4.1071 Y-0.364
X-4.0937 Y-0.3541
X-4.0806 Y-0.3438
X-4.0679 Y-0.333
X-4.0557 Y-0.3218
X-4.0438 Y-0.3101
X-4.0324 Y-0.2979
X-4.0215 Y-0.2854
X-4.0111 Y-0.2724
X-4.0011 Y-0.2591
X-3.9916 Y-0.2454
X-3.9827 Y-0.2313
X-3.9743 Y-0.217
X-3.9664 Y-0.2023
X-3.9591 Y-0.1873
X-3.9523 Y-0.1721
X-3.9462 Y-0.1567
X-3.9406 Y-0.141
X-3.9355 Y-0.1251
X-3.9311 Y-0.109
X-3.925 Y-0.0938
X-3.9194 Y-0.0783
X-3.9145 Y-0.0627
X-3.91 Y-0.0469
X-3.9062 Y-0.0309
X-3.903 Y-0.0148
X-3.9003 Y0.0014
X-3.8983 Y0.0177
X-3.8968 Y0.0341
X-3.8959 Y0.0505
X-3.8957 Y0.0669
X-3.896 Y0.0833
X-3.8969 Y0.0997
X-3.8985 Y0.1161
X-3.9006 Y0.1324
X-3.9033 Y0.1486
X-3.9067 Y0.1647
X-3.9106 Y0.1806
X-3.9151 Y0.1964
X-3.9201 Y0.2121
X-3.9258 Y0.2275
X-3.9319 Y0.2427
X-3.9387 Y0.2577
X-3.946 Y0.2724
X-3.9538 Y0.2869
X-3.9621 Y0.301
X-3.971 Y0.3148
X-3.9803 Y0.3283
X-3.9902 Y0.3415
X-4.0005 Y0.3543
X-4.0113 Y0.3667
X-4.0225 Y0.3787
X-4.0342 Y0.3903
X-4.0462 Y0.4014
X-4.0587 Y0.4121
X-4.0715 Y0.4223
X-4.0848 Y0.4321
X-4.0983 Y0.4413
X-4.1122 Y0.4501
X-4.1264 Y0.4584
X-4.1409 Y0.4661
X-4.1573 Y0.4741
X-4.1739 Y0.4816
X-4.1908 Y0.4884
X-4.2078 Y0.4947
X-4.2251 Y0.5005
X-4.2426 Y0.5056
X-4.2603 Y0.5101
X-4.278 Y0.514
X-4.296 Y0.5173
X-4.314 Y0.5199
X-4.3321 Y0.522
X-4.3502 Y0.5234
X-4.3684 Y0.5242
X-4.3866 Y0.5244
X-4.4048 Y0.5239
X-4.423 Y0.5228
X-4.4412 Y0.5211
X-4.4592 Y0.5188
X-4.4772 Y0.5158
X-4.495 Y0.5123
X-4.5128 Y0.5081
X-4.5303 Y0.5033
X-4.5477 Y0.4979
X-4.5649 Y0.492
X-4.5819 Y0.4854
X-4.5987 Y0.4783
X-4.6152 Y0.4705
X-4.6314 Y0.4623
X-4.6473 Y0.4534
X-4.6629 Y0.444
X-4.6782 Y0.4341
X-4.6932 Y0.4237
X-4.7077 Y0.4128
X-4.7219 Y0.4013
X-4.7357 Y0.3894
X-4.749 Y0.3771
X-4.762 Y0.3642
X-4.7744 Y0.351
X-4.7865 Y0.3373
X-4.798 Y0.3232
X-4.809 Y0.3087
X-4.8196 Y0.2939
X-4.8296 Y0.2787
X-4.8391 Y0.2631
X-4.8481 Y0.2473
X-4.8565 Y0.2311
X-4.8643 Y0.2147
X-4.8716 Y0.198
X-4.8783 Y0.1811
X-4.8844 Y0.1639
X-4.8899 Y0.1465
X-4.8948 Y0.129
X-4.8992 Y0.1113
X-4.9029 Y0.0935
X-4.9059 Y0.0755
X-4.9084 Y0.0575
X-4.9103 Y0.0394
X-4.9115 Y0.0212
X-4.9121 Y0.003
Y-0.0152
X-4.9114 Y-0.0334
X-4.9101 Y-0.0516
X-4.9082 Y-0.0697
X-4.9057 Y-0.0877
X-4.9025 Y-0.1057
X-4.8988 Y-0.1235
X-4.8944 Y-0.1412
X-4.8894 Y-0.1587
X-4.8839 Y-0.176
X-4.8777 Y-0.1931
X-4.8709 Y-0.2101
X-4.8636 Y-0.2267
X-4.8557 Y-0.2431
X-4.8473 Y-0.2593
X-4.8383 Y-0.2751
X-4.8287 Y-0.2906
X-4.8186 Y-0.3058
X-4.808 Y-0.3206
X-4.7969 Y-0.335
X-4.7854 Y-0.3491
X-4.7733 Y-0.3627
X-4.7608 Y-0.376
X-4.7478 Y-0.3887
X-4.7344 Y-0.4011
X-4.7206 Y-0.4129
X-4.7064 Y-0.4243
X-4.6918 Y-0.4352
X-4.6768 Y-0.4456
X-4.6615 Y-0.4554
X-4.6459 Y-0.4648
X-4.6299 Y-0.4736
X-4.6137 Y-0.4818
X-4.5971 Y-0.4894
X-4.5804 Y-0.4965
X-4.5634 Y-0.503
X-4.5461 Y-0.509
X-4.5287 Y-0.5143
X-4.5111 Y-0.519
X-4.4934 Y-0.5231
X-4.4755 Y-0.5267
X-4.4576 Y-0.5295
X-4.4395 Y-0.5318
X-4.4214 Y-0.5335
X-4.4032 Y-0.5345
X-4.385 Y-0.5349
X-4.3668 Y-0.5346
X-4.3486 Y-0.5338
X-4.3304 Y-0.5323
X-4.3123 Y-0.5302
G3 X-3.814 Y0.1918 I-0.0653 J0.578
X-4.5976 Y0.5863 I-0.5636 J-0.144
X-4.9649 Y-0.2301 I0.2244 J-0.5918
X-4.1484 Y-0.5971 I0.5917 J0.2246
X-3.8371 Y0.4616 I-0.2396 J0.6456
G1 X-3.8505 Y0.4756
G3 X-5.0611 Y0.2385 I-0.5394 J-0.455
G1 X-5.0692 Y0.0116
Y-0.0116
X-5.0642 Y-0.1972
X-5.0588 Y-0.2176
X-5.0528 Y-0.2378
X-5.0462 Y-0.2579
X-5.039 Y-0.2777
X-5.0313 Y-0.2973
X-5.023 Y-0.3167
X-5.0141 Y-0.3358
X-5.0046 Y-0.3546
X-4.9946 Y-0.3732
X-4.984 Y-0.3915
X-4.973 Y-0.4094
X-4.9613 Y-0.427
X-4.9492 Y-0.4443
X-4.9366 Y-0.4612
X-4.9235 Y-0.4777
X-4.9099 Y-0.4938
X-4.8958 Y-0.5095
X-4.8813 Y-0.5248
X-4.8663 Y-0.5396
X-4.8509 Y-0.554
X-4.8351 Y-0.568
X-4.8188 Y-0.5814
X-4.8022 Y-0.5944
X-4.7852 Y-0.6069
X-4.7679 Y-0.6189
X-4.7502 Y-0.6304
X-4.7321 Y-0.6413
X-4.7138 Y-0.6517
X-4.6952 Y-0.6616
X-4.6762 Y-0.6709
X-4.657 Y-0.6796
X-4.6376 Y-0.6878
X-4.6179 Y-0.6954
X-4.598 Y-0.7024
X-4.5779 Y-0.7088
X-4.5577 Y-0.7146
X-4.5372 Y-0.7199
X-4.5167 Y-0.7245
X-4.496 Y-0.7285
X-4.4751 Y-0.7319
X-4.4542 Y-0.7347
X-4.4333 Y-0.7368
X-4.4122 Y-0.7384
X-4.3912 Y-0.7393
X-4.3701 Y-0.7396
X-4.349 Y-0.7393
X-4.3279 Y-0.7384
X-4.3069 Y-0.7368
X-4.2859 Y-0.7346
X-4.265 Y-0.7318
X-4.2442 Y-0.7284
X-4.2235 Y-0.7244
X-4.2029 Y-0.7198
X-4.1825 Y-0.7145
X-4.1622 Y-0.7087
X-4.1422 Y-0.7022
X-4.1223 Y-0.6952
X-4.1026 Y-0.6876
X-4.0832 Y-0.6794
X-4.064 Y-0.6707
X-4.0451 Y-0.6614
X-4.0264 Y-0.6515
X-4.0081 Y-0.6411
X-3.9901 Y-0.6301
X-3.9724 Y-0.6187
X-3.7017 Y-0.2962
G3 X-3.6146 Y0.1911 I-0.5531 J0.3503
G1 X-3.8382 Y0.4608
G3 X-3.8645 Y0.449 I-0.0115 J-0.0096
X-3.8468 Y0.4517 I0.0088 J0.0013
X-3.8595 Y0.4584 I-0.0088 J-0.0013
X-3.8465 Y0.4314 I0.0065 J-0.0135
X-3.8382 Y0.4472 I-0.0065 J0.0135
X-3.8505 Y0.4756 I-0.0616 J-0.0097 F50.
G1 X-4.0497 Y0.716 F60.
G3 X-4.5081 Y0.8154 I-0.336 J-0.4432
X-5.0459 Y0.4834 I0.1268 J-0.807
G1 X-5.0608 Y0.29
X-5.0623 Y0.2668
X-5.0631 Y0.2391
G3 X-5.0555 Y0.2262 I0.015 J0.0001
X-5.0028 Y0.2357 I0.0207 J0.0364
X-5.0259 Y0.4607 I-0.1205 J0.1013
X-5.0383 Y0.4696 I-0.0975 J-0.1237 F50.
G2 X-5.0452 Y0.4829 I0.0081 J0.0126
G1 X-5.042 Y0.522 F60.
X-5.0401 Y0.5452
X-5.0338 Y0.5916
G2 X-4.7425 Y0.8492 I0.4348 J-0.1982
X-4.2034 Y0.9034 I0.3538 J-0.8111
G1 X-4.0497 Y0.716
G2 X-4.0477 Y0.7012 I-0.0119 J-0.0091
X-4.0998 Y0.6761 I-0.04 J0.0164
X-4.2069 Y0.8727 I0.0437 J0.1513
X-4.2018 Y0.8871 I0.1508 J-0.0453 F50.
G3 X-4.2038 Y0.9019 I-0.0139 J0.0057
G1 X-4.2543 Y0.9629 F60.
G3 X-4.6238 Y0.9926 I-0.2146 J-0.3568
X-5.0066 Y0.8018 I0.216 J-0.9131
G1 X-5.0338 Y0.5916
G3 X-5.0276 Y0.578 I0.0149 J-0.0015
X-4.9494 Y0.6 I0.0304 J0.0421
X-4.988 Y0.7769 I-0.1452 J0.061
X-4.9997 Y0.7867 I-0.1066 J-0.1159 F50.
G2 X-5.0055 Y0.8005 I0.009 J0.0119
G1 X-5.0019 Y0.8237 F60.
X-4.993 Y0.8701
G2 X-4.6833 Y1.0788 I0.3611 J-0.2016
X-4.3776 Y1.1117 I0.2296 J-0.6981
G1 X-4.2543 Y0.9629
G2 X-4.2523 Y0.9481 I-0.0119 J-0.0091
X-4.2746 Y0.9342 I-0.0207 J0.0085
X-4.3805 Y1.0824 I0.0082 J0.1178
X-4.3756 Y1.0968 I0.1141 J-0.0303 F50.
G3 X-4.3776 Y1.1117 I-0.0139 J0.0057
G1 X-4.4152 Y1.157 F60.
G3 X-4.762 Y1.1494 I-0.1671 J-0.2919
X-4.9569 Y1.0643 I0.0771 J-0.4423
G1 X-4.993 Y0.8701
G3 X-4.9876 Y0.8561 I0.0148 J-0.0023
X-4.9673 Y0.8544 I0.0115 J0.0142
X-4.9396 Y1.0392 I-0.0576 J0.1031
X-4.9508 Y1.0495 I-0.0853 J-0.0817 F50.
G2 X-4.9562 Y1.0634 I0.0094 J0.0117
G1 X-4.9533 Y1.0789 F60.
X-4.9477 Y1.1021
X-4.942 Y1.1253
G2 X-4.6232 Y1.2925 I0.3154 J-0.2139
X-4.5296 Y1.295 I0.0491 J-0.0835
G1 X-4.4152 Y1.157
G2 X-4.4132 Y1.1421 I-0.0119 J-0.0091
X-4.4544 Y1.1229 I-0.031 J0.0127
X-4.5324 Y1.2657 I0.0361 J0.1125
X-4.5276 Y1.2802 I0.1141 J-0.0303 F50.
G3 X-4.5296 Y1.295 I-0.0139 J0.0057
G1 X-4.5601 Y1.3318 F60.
G3 X-4.8886 Y1.305 I-0.1458 J-0.2401
G1 X-4.8953 Y1.3093
X-4.8967 Y1.3074
X-4.8976 Y1.3053
X-4.942 Y1.1253
G3 X-4.9374 Y1.1111 I0.0147 J-0.0031
X-4.8997 Y1.1097 I0.0197 J0.0219
X-4.8823 Y1.2802 I-0.0721 J0.0935
X-4.8929 Y1.2911 I-0.0896 J-0.077 F50.
G2 X-4.8976 Y1.3053 I0.01 J0.0111
G1 X-4.8905 Y1.3341 F60.
X-4.8849 Y1.3548
G2 X-4.6711 Y1.4657 I0.1894 J-0.1036
G1 X-4.5601 Y1.3318
G2 X-4.5581 Y1.317 I-0.0119 J-0.0091
X-4.6059 Y1.2973 I-0.0336 J0.0138
X-4.6739 Y1.4364 I0.0461 J0.1088
X-4.6691 Y1.4509 I0.1141 J-0.0303 F50.
G3 X-4.6711 Y1.4657 I-0.0139 J0.0057
G1 X-4.6966 Y1.4965 F60.
G3 X-4.8358 Y1.5196 I-0.0853 J-0.0831
G1 X-4.8364 Y1.5167
Y1.5138
X-4.8359 Y1.5109
X-4.8349 Y1.5082
X-4.8334 Y1.5058
X-4.8315 Y1.5036
X-4.8293 Y1.5019
X-4.8268 Y1.5006
X-4.8241 Y1.4999
X-4.8173 Y1.4982
X-4.712 Y1.4728
X-4.709 Y1.4724
X-4.706 Y1.4726
G3 X-4.6966 Y1.4965 I-0.0024 J0.0148 F50.
G1 X-4.7543 Y1.5661 F60.
G3 X-4.813 Y1.5908 I-0.0415 J-0.0164
X-4.8087 Y1.576 I0.0145 J-0.0039
G1 X-4.7979 Y1.566
X-4.7763 Y1.546
G3 X-4.7637 Y1.5422 I0.0102 J0.011
X-4.7543 Y1.5661 I-0.0024 J0.0148 F50.
X-4.8001 Y1.6122 I-0.0507 J-0.0046 F60.
G1 X-4.8028 Y1.6112
X-4.8035 Y1.6107
X-4.8051 Y1.6092
X-4.8054 Y1.6088
X-4.8101 Y1.6002
X-4.8849 Y1.3548
G3 X-4.8664 Y1.3369 I0.0146 J-0.0034
G1 X-4.8636 Y1.3377 Z-0.1672
X-4.8609 Y1.3384 Z-0.1664
X-4.8584 Y1.3391 Z-0.165
X-4.8562 Y1.3397 Z-0.1631
X-4.8544 Y1.3402 Z-0.1608
X-4.853 Y1.3406 Z-0.1583
X-4.8522 Y1.3408 Z-0.1555
X-4.8519 Y1.3409 Z-0.1525
G0 Z-0.1376
X-5.049 Y-0.1543
G1 Z-0.1525 F50.
X-5.0491 Y-0.1545 Z-0.1555
X-5.0495 Y-0.1553 Z-0.1583
X-5.0502 Y-0.1565 Z-0.1608
X-5.0511 Y-0.1581 Z-0.1631
X-5.0522 Y-0.1601 Z-0.165
X-5.0535 Y-0.1623 Z-0.1664
X-5.0549 Y-0.1648 Z-0.1672
X-5.0563 Y-0.1673 Z-0.1675
G3 X-5.0642 Y-0.1972 I0.0544 J-0.0304
G1 X-5.0623 Y-0.2668 F60.
X-5.0608 Y-0.29
X-5.0495 Y-0.4292
G3 X-4.6742 Y-0.7768 I0.5659 J0.2346
X-4.1144 Y-0.7955 I0.3059 J0.7706
G1 X-3.9709 Y-0.6209
G3 X-3.9689 Y-0.6061 I-0.0119 J0.0091
X-4.0396 Y-0.5802 I-0.0472 J-0.0193
X-4.1178 Y-0.7653 I0.0725 J-0.1398
X-4.1127 Y-0.7797 I0.1508 J0.0453 F50.
G2 X-4.1147 Y-0.7945 I-0.0139 J-0.0057
G1 X-4.1774 Y-0.8701 F60.
G2 X-4.5531 Y-0.9149 I-0.2362 J0.3828
X-5.0258 Y-0.6596 I0.1774 J0.8937
G1 X-5.0401 Y-0.5452
X-5.042 Y-0.522
X-5.0495 Y-0.4292
G2 X-5.0426 Y-0.4159 I0.015 J0.0007
X-4.9803 Y-0.4287 I0.0246 J-0.0384
X-5.0067 Y-0.6354 I-0.1303 J-0.0884
X-5.0186 Y-0.6449 I-0.104 J0.1183 F50.
G3 X-5.0247 Y-0.6586 I0.0087 J-0.0121
G1 X-5.0132 Y-0.7436 F60.
G3 X-4.7168 Y-0.9712 I0.3908 J0.2022
G1 X-4.6949 Y-0.9792
X-4.6728 Y-0.9866
X-4.6505 Y-0.9935
X-4.628 Y-0.9997
X-4.6054 Y-1.0054
X-4.5826 Y-1.0105
X-4.5597 Y-1.0151
X-4.5367 Y-1.019
X-4.5136 Y-1.0223
X-4.4905 Y-1.025
X-4.4672 Y-1.0271
X-4.444 Y-1.0286
X-4.4206 Y-1.0295
X-4.3973 Y-1.0298
X-4.374 Y-1.0295
X-4.3507 Y-1.0286
X-4.3274 Y-1.0271
X-4.3042 Y-1.0249
X-4.1774 Y-0.8701
G3 X-4.1754 Y-0.8552 I-0.0119 J0.0091
X-4.1893 Y-0.8456 I-0.0144 J-0.0059
X-4.3072 Y-0.994 I-0.0037 J-0.1181
X-4.3023 Y-1.0084 I0.1141 J0.0303 F50.
G2 X-4.3043 Y-1.0232 I-0.0139 J-0.0057
G1 X-4.3408 Y-1.0673 F60.
G2 X-4.6984 Y-1.0723 I-0.1828 J0.2826
X-4.9792 Y-0.9426 I0.1295 J0.6493
G1 X-5.0019 Y-0.8237
X-5.0056 Y-0.8005
X-5.0132 Y-0.7436
G2 X-4.9998 Y-0.7272 I0.0149 J0.0015
X-4.9875 Y-0.7319 I0.0015 J-0.0147
X-4.9662 Y-0.9153 I-0.1161 J-0.1064
X-4.9765 Y-0.9314 I-0.1374 J0.077 F50.
G3 X-4.9792 Y-0.9426 I0.0121 J-0.0088
G1 X-4.9665 Y-1.0093 F60.
G3 X-4.6586 Y-1.194 I0.3363 J0.2117
X-4.4616 Y-1.213 I0.1408 J0.4274
G1 X-4.3408 Y-1.0673
G3 X-4.3388 Y-1.0525 I-0.0119 J0.0091
X-4.3667 Y-1.0364 I-0.0243 J-0.0099
X-4.4645 Y-1.1837 I0.0164 J-0.117
X-4.4596 Y-1.1982 I0.1141 J0.0303 F50.
G2 X-4.4616 Y-1.213 I-0.0139 J-0.0057
G1 X-4.4981 Y-1.257 F60.
G2 X-4.8346 Y-1.2331 I-0.1488 J0.2867
X-4.9251 Y-1.194 I-0.0152 J0.0889
G1 X-4.9477 Y-1.1021
X-4.9533 Y-1.0789
X-4.9665 Y-1.0093
G2 X-4.9611 Y-0.9953 I0.0148 J0.0023
X-4.9329 Y-0.9942 I0.0149 J-0.0185
X-4.9097 Y-1.1689 I-0.0664 J-0.0977
X-4.9204 Y-1.1798 I-0.0896 J0.077 F50.
G3 X-4.9251 Y-1.194 I0.01 J-0.0111
G1 X-4.9105 Y-1.2531 F60.
G3 X-4.6085 Y-1.3897 I0.2706 J0.1961
G1 X-4.6068 Y-1.3881
X-4.4981 Y-1.257
G3 X-4.4961 Y-1.2422 I-0.0119 J0.0091
X-4.5478 Y-1.2226 I-0.035 J-0.0143
X-4.6096 Y-1.3589 I0.0523 J-0.1059
X-4.6048 Y-1.3733 I0.1141 J0.0303 F50.
G2 X-4.6068 Y-1.3881 I-0.0139 J-0.0057
G1 X-4.6389 Y-1.4269 F60.
G2 X-4.8632 Y-1.426 I-0.1115 J0.1675
G1 X-4.8849 Y-1.3548
X-4.8905 Y-1.3341
X-4.9105 Y-1.2531
G2 X-4.9058 Y-1.2389 I0.0147 J0.0031
X-4.8659 Y-1.2385 I0.0202 J-0.0225
X-4.8492 Y-1.4001 I-0.0769 J-0.0896
X-4.8593 Y-1.4116 I-0.0936 J0.0721 F50.
G3 X-4.8632 Y-1.426 I0.0106 J-0.0106
G1 X-4.8488 Y-1.4733 F60.
G3 X-4.7364 Y-1.5463 I0.1098 J0.046
G1 X-4.7348 Y-1.5439
X-4.7336 Y-1.5412
X-4.7329 Y-1.5384
X-4.7327 Y-1.5355
X-4.7331 Y-1.5327
X-4.734 Y-1.53
X-4.7353 Y-1.5276
X-4.7371 Y-1.5254
X-4.7392 Y-1.5236
X-4.7451 Y-1.5191
X-4.8252 Y-1.4576
X-4.8279 Y-1.4559
X-4.8308 Y-1.4549
G3 X-4.8488 Y-1.4733 I-0.0035 J-0.0146 F50.
G1 X-4.8219 Y-1.5614 F60.
G3 X-4.7825 Y-1.6001 I0.0357 J-0.003
X-4.7968 Y-1.5405 I-0.0312 J0.0241
X-4.8066 Y-1.5389 I-0.0077 J-0.0163
X-4.8219 Y-1.5614 I0.0021 J-0.0179 F50.
X-4.8001 Y-1.6122 I0.0408 J-0.0125 F60.
G1 X-4.7974
X-4.7968 Y-1.6121
G3 X-4.7854 Y-1.6036 I-0.0059 J0.0199
G1 X-4.6389 Y-1.4269
G3 X-4.6483 Y-1.403 I-0.0119 J0.0091
G1 X-4.6512 Y-1.4025 Z-0.1672
X-4.654 Y-1.4021 Z-0.1664
X-4.6565 Y-1.4016 Z-0.165
X-4.6588 Y-1.4013 Z-0.1631
X-4.6606 Y-1.401 Z-0.1608
X-4.662 Y-1.4008 Z-0.1583
X-4.6628 Y-1.4006 Z-0.1555
X-4.6631 Z-0.1525
G0 Z-0.1376
X-3.7415 Y-0.3185
G1 Z-0.1525 F50.
X-3.7412 Y-0.3184 Z-0.1555
X-3.7404 Y-0.3181 Z-0.1583
X-3.7391 Y-0.3177 Z-0.1608
X-3.7374 Y-0.317 Z-0.1631
X-3.7352 Y-0.3163 Z-0.165
X-3.7328 Y-0.3154 Z-0.1664
X-3.7301 Y-0.3145 Z-0.1672
X-3.7274 Y-0.3135 Z-0.1675
G3 X-3.7017 Y-0.2962 I-0.0209 J0.0587
X-3.5768 Y-0.1421 I-0.3473 J0.4094 F60.
G2 X-3.5824 Y0.1522 I0.6334 J0.1593
G1 X-3.6146 Y0.1911
G3 X-3.6258 Y0.1961 I-0.0112 J-0.0099
G1 X-3.6291 Y0.1957
X-3.6312 Y0.1947 Z-0.1673
X-3.6333 Y0.1937 Z-0.1668
X-3.6352 Y0.1928 Z-0.1659
X-3.6365 Y0.1911 Z-0.1645
X-3.6377 Y0.1897 Z-0.1628
X-3.6386 Y0.1884 Z-0.1609
X-3.6394 Y0.1875 Z-0.1587
X-3.6397 Y0.1868 Z-0.1567
X-3.6398 Y0.1864 Z-0.1546
X-3.6399 Y0.1863 Z-0.1525
G0 Z0.4
X-3.1447 Y-3.1317
Z0.1
G3 X-3.032 Y-3.045 Z0.0606 I0.0563 J0.0434 F50.
X-3.1447 Y-3.1317 Z0.0212 I-0.0563 J-0.0434
X-3.032 Y-3.045 Z-0.0182 I0.0563 J0.0434
X-3.1447 Y-3.1317 Z-0.0576 I-0.0563 J-0.0434
X-3.032 Y-3.045 Z-0.0969 I0.0563 J0.0434
X-3.1447 Y-3.1317 Z-0.1363 I-0.0563 J-0.0434
X-3.0172 Y-3.0884 Z-0.1675 I0.0563 J0.0434
X-3.1594 I-0.0711 J0.
X-3.0172 I0.0711 J0.
X-3.1665 Y-2.9635 I-0.0777 J0.0589 F60.
G1 X-3.1748 Y-2.9686
X-3.1827 Y-2.9742
X-3.1903 Y-2.9803
X-3.1975 Y-2.9869
X-3.2042 Y-2.9939
X-3.2105 Y-3.0013
X-3.2163 Y-3.0091
X-3.2215 Y-3.0173
X-3.2263 Y-3.0258
X-3.2305 Y-3.0345
X-3.2342 Y-3.0436
X-3.2372 Y-3.0528
X-3.2397 Y-3.0622
X-3.2416 Y-3.0717
X-3.2429 Y-3.0814
X-3.2435 Y-3.0911
X-3.2436 Y-3.1008
X-3.243 Y-3.1105
X-3.2418 Y-3.1202
X-3.24 Y-3.1297
X-3.2376 Y-3.1391
X-3.2346 Y-3.1484
X-3.2311 Y-3.1574
X-3.2269 Y-3.1662
X-3.2222 Y-3.1748
X-3.217 Y-3.183
X-3.2113 Y-3.1908
X-3.2051 Y-3.1983
X-3.1984 Y-3.2054
X-3.1913 Y-3.212
X-3.1838 Y-3.2182
X-3.1759 Y-3.2239
X-3.1677 Y-3.2291
X-3.1592 Y-3.2337
X-3.1503 Y-3.2378
X-3.1413 Y-3.2413
X-3.132 Y-3.2443
X-3.1226 Y-3.2466
X-3.113 Y-3.2484
X-3.1034 Y-3.2495
X-3.0936 Y-3.2501
X-3.0839 Y-3.25
X-3.0742 Y-3.2493
X-3.0646 Y-3.248
X-3.0551 Y-3.246
X-3.0457 Y-3.2435
X-3.0365 Y-3.2404
X-3.0275 Y-3.2367
X-3.0187 Y-3.2325
X-3.0103 Y-3.2277
X-3.0021 Y-3.2224
X-2.9943 Y-3.2165
X-2.9869 Y-3.2102
X-2.98 Y-3.2035
X-2.9734 Y-3.1963
X-2.9673 Y-3.1887
X-2.9618 Y-3.1807
X-2.9567 Y-3.1724
X-2.9522 Y-3.1638
X-2.9482 Y-3.155
X-2.9448 Y-3.1459
X-2.942 Y-3.1366
X-2.936 Y-3.1277
X-2.9306 Y-3.1185
X-2.9258 Y-3.109
X-2.9215 Y-3.0992
X-2.9177 Y-3.0892
X-2.9145 Y-3.079
X-2.9119 Y-3.0687
X-2.9099 Y-3.0582
X-2.9085 Y-3.0476
X-2.9077 Y-3.0369
X-2.9075 Y-3.0263
X-2.9079 Y-3.0156
X-2.9089 Y-3.005
X-2.9105 Y-2.9944
X-2.9127 Y-2.984
X-2.9155 Y-2.9737
X-2.9189 Y-2.9636
X-2.9228 Y-2.9536
X-2.9273 Y-2.944
X-2.9324 Y-2.9346
X-2.938 Y-2.9255
X-2.944 Y-2.9167
X-2.9506 Y-2.9083
X-2.9577 Y-2.9003
X-2.9651 Y-2.8926
X-2.973 Y-2.8855
X-2.9813 Y-2.8788
X-2.99 Y-2.8725
X-2.999 Y-2.8668
X-3.0083 Y-2.8616
X-3.0179 Y-2.8569
X-3.0278 Y-2.8528
X-3.0378 Y-2.8493
X-3.0481 Y-2.8463
X-3.0585 Y-2.8439
X-3.069 Y-2.8421
X-3.0796 Y-2.8409
X-3.0903 Y-2.8403
X-3.101 Y-2.8404
X-3.1116 Y-2.841
X-3.1222 Y-2.8422
X-3.1327 Y-2.8441
X-3.1431 Y-2.8465
X-3.1533 Y-2.8495
X-3.1634 Y-2.8531
X-3.1732 Y-2.8572
X-3.1828 Y-2.862
X-3.1921 Y-2.8672
X-3.2011 Y-2.873
X-3.2097 Y-2.8792
X-3.218 Y-2.886
X-3.2285 Y-2.892
X-3.2386 Y-2.8986
X-3.2485 Y-2.9056
X-3.2579 Y-2.9132
X-3.267 Y-2.9212
X-3.2756 Y-2.9297
X-3.2838 Y-2.9386
X-3.2915 Y-2.9479
X-3.2987 Y-2.9576
X-3.3054 Y-2.9677
X-3.3116 Y-2.9781
X-3.3173 Y-2.9887
X-3.3224 Y-2.9997
X-3.3269 Y-3.0109
X-3.3309 Y-3.0224
X-3.3343 Y-3.034
X-3.337 Y-3.0458
X-3.3392 Y-3.0577
X-3.3407 Y-3.0696
X-3.3417 Y-3.0817
X-3.342 Y-3.0938
X-3.3417 Y-3.1059
X-3.3408 Y-3.118
X-3.3393 Y-3.13
X-3.3371 Y-3.1419
X-3.3344 Y-3.1536
X-3.331 Y-3.1653
X-3.3271 Y-3.1767
X-3.3226 Y-3.1879
X-3.3175 Y-3.1989
X-3.3119 Y-3.2096
X-3.3057 Y-3.22
X-3.299 Y-3.2301
X-3.2918 Y-3.2398
X-3.2841 Y-3.2491
X-3.2759 Y-3.258
X-3.2673 Y-3.2665
X-3.2583 Y-3.2746
X-3.2489 Y-3.2822
X-3.2391 Y-3.2892
X-3.2289 Y-3.2958
X-3.2184 Y-3.3019
X-3.2077 Y-3.3074
X-3.1953 Y-3.3124
X-3.1828 Y-3.3169
X-3.1701 Y-3.3207
X-3.1572 Y-3.324
X-3.1442 Y-3.3267
X-3.1311 Y-3.3288
X-3.1179 Y-3.3303
X-3.1046 Y-3.3311
X-3.0913 Y-3.3314
X-3.078 Y-3.331
X-3.0647 Y-3.3301
X-3.0515 Y-3.3285
X-3.0384 Y-3.3263
X-3.0254 Y-3.3235
X-3.0126 Y-3.3201
X-2.9999 Y-3.3161
X-2.9874 Y-3.3115
X-2.9751 Y-3.3064
X-2.9631 Y-3.3007
X-2.9514 Y-3.2945
X-2.94 Y-3.2877
X-2.9288 Y-3.2804
X-2.9181 Y-3.2726
X-2.9077 Y-3.2643
X-2.8977 Y-3.2555
X-2.8881 Y-3.2463
X-2.879 Y-3.2367
X-2.8703 Y-3.2266
X-2.862 Y-3.2162
X-2.8543 Y-3.2054
X-2.8471 Y-3.1942
X-2.8404 Y-3.1827
X-2.8342 Y-3.1709
X-2.8286 Y-3.1589
X-2.8236 Y-3.1466
X-2.8191 Y-3.1341
X-2.8152 Y-3.1214
X-2.8119 Y-3.1085
X-2.8092 Y-3.0955
X-2.8071 Y-3.0823
X-2.8056 Y-3.0691
X-2.8047 Y-3.0559
X-2.8044 Y-3.0426
X-2.8048 Y-3.0293
X-2.8057 Y-3.016
X-2.8073 Y-3.0028
X-2.8095 Y-2.9897
X-2.8122 Y-2.9767
X-2.8156 Y-2.9639
X-2.8196 Y-2.9512
X-2.8241 Y-2.9387
X-2.8292 Y-2.9264
X-2.8349 Y-2.9144
X-2.8411 Y-2.9026
X-2.8479 Y-2.8912
X-2.8552 Y-2.8801
X-2.863 Y-2.8693
X-2.8712 Y-2.8589
X-2.88 Y-2.8489
X-2.8892 Y-2.8393
X-2.8988 Y-2.8301
X-2.9089 Y-2.8214
X-2.9193 Y-2.8132
X-2.9301 Y-2.8054
X-2.9412 Y-2.7982
X-2.9527 Y-2.7915
X-2.9645 Y-2.7853
X-2.9765 Y-2.7797
X-2.9888 Y-2.7746
X-3.0013 Y-2.7701
X-3.014 Y-2.7662
G3 X-3.2073 Y-3.4103 I-0.088 J-0.3247
X-2.983 Y-2.6718 I0.1122 J0.3693
X-3.2012 Y-2.67 I-0.1122 J-0.3693
X-3.5297 Y-3.0621 I0.087 J-0.4066
G1 X-3.5304 Y-3.0787
Y-3.0953
X-3.5298 Y-3.112
X-3.5285 Y-3.1286
X-3.5267 Y-3.1451
X-3.5242 Y-3.1616
X-3.5211 Y-3.178
X-3.5174 Y-3.1942
X-3.5131 Y-3.2103
X-3.5082 Y-3.2262
X-3.5027 Y-3.2419
X-3.4967 Y-3.2574
X-3.49 Y-3.2727
X-3.4828 Y-3.2877
X-3.4751 Y-3.3024
X-3.4667 Y-3.3169
X-3.4579 Y-3.331
X-3.4486 Y-3.3447
X-3.4387 Y-3.3581
X-3.4283 Y-3.3712
X-3.4175 Y-3.3838
X-3.4062 Y-3.396
X-3.3944 Y-3.4078
X-3.3823 Y-3.4192
X-3.3697 Y-3.4301
X-3.3567 Y-3.4405
X-3.3433 Y-3.4504
X-3.3296 Y-3.4598
X-3.3155 Y-3.4687
X-3.3011 Y-3.4771
X-3.2864 Y-3.4849
X-3.2714 Y-3.4922
X-3.2562 Y-3.4989
X-3.2407 Y-3.505
X-3.225 Y-3.5105
X-3.2091 Y-3.5155
X-3.193 Y-3.5198
X-3.1768 Y-3.5236
X-3.1604 Y-3.5267
X-3.144 Y-3.5293
X-3.1275 Y-3.5312
X-3.1109 Y-3.5325
X-3.0942 Y-3.5332
X-3.0776
X-3.0609 Y-3.5327
X-3.0443 Y-3.5315
X-3.0278 Y-3.5297
X-3.0113 Y-3.5273
X-2.9949 Y-3.5243
X-2.9787 Y-3.5206
X-2.9626 Y-3.5164
X-2.9466 Y-3.5115
X-2.9309 Y-3.5061
X-2.9154 Y-3.5001
X-2.9001 Y-3.4935
X-2.8851 Y-3.4864
X-2.8703 Y-3.4786
X-2.8558 Y-3.4704
X-2.8417 Y-3.4616
X-2.8279 Y-3.4523
X-2.8145 Y-3.4425
X-2.8014 Y-3.4322
X-2.7887 Y-3.4214
X-2.7764 Y-3.4101
X-2.7646 Y-3.3984
X-2.7532 Y-3.3863
X-2.7423 Y-3.3737
X-2.7318 Y-3.3607
X-2.7219 Y-3.3474
X-2.7124 Y-3.3337
X-2.7035 Y-3.3197
X-2.6951 Y-3.3053
X-2.6872 Y-3.2906
X-2.6799 Y-3.2757
X-2.6731 Y-3.2604
X-2.6669 Y-3.245
X-2.6613 Y-3.2293
X-2.6563 Y-3.2134
X-2.6519 Y-3.1974
X-2.6458 Y-3.1821
X-2.6402 Y-3.1667
X-2.6352 Y-3.151
X-2.6308 Y-3.1352
X-2.627 Y-3.1192
X-2.6238 Y-3.1031
X-2.6211 Y-3.0869
X-2.619 Y-3.0706
X-2.6176 Y-3.0542
X-2.6167 Y-3.0378
X-2.6164 Y-3.0214
X-2.6168 Y-3.005
X-2.6177 Y-2.9886
X-2.6193 Y-2.9722
X-2.6214 Y-2.9559
X-2.6241 Y-2.9397
X-2.6274 Y-2.9237
X-2.6314 Y-2.9077
X-2.6358 Y-2.8919
X-2.6409 Y-2.8763
X-2.6465 Y-2.8608
X-2.6527 Y-2.8456
X-2.6595 Y-2.8306
X-2.6667 Y-2.8159
X-2.6746 Y-2.8015
X-2.6829 Y-2.7873
X-2.6918 Y-2.7735
X-2.7011 Y-2.76
X-2.711 Y-2.7468
X-2.7213 Y-2.734
X-2.7321 Y-2.7216
X-2.7433 Y-2.7096
X-2.7549 Y-2.6981
X-2.767 Y-2.6869
X-2.7795 Y-2.6762
X-2.7923 Y-2.666
X-2.8055 Y-2.6563
X-2.8191 Y-2.647
X-2.833 Y-2.6382
X-2.8472 Y-2.63
X-2.8617 Y-2.6223
X-2.8781 Y-2.6142
X-2.8947 Y-2.6068
X-2.9115 Y-2.5999
X-2.9286 Y-2.5936
X-2.9459 Y-2.5879
X-2.9634 Y-2.5828
X-2.981 Y-2.5783
X-2.9988 Y-2.5744
X-3.0167 Y-2.5711
X-3.0348 Y-2.5684
X-3.0529 Y-2.5664
X-3.071 Y-2.5649
X-3.0892 Y-2.5641
X-3.1074 Y-2.564
X-3.1256 Y-2.5644
X-3.1438 Y-2.5655
X-3.1619 Y-2.5672
X-3.18 Y-2.5695
X-3.198 Y-2.5725
X-3.2158 Y-2.576
X-3.2336 Y-2.5802
X-3.2511 Y-2.585
X-3.2685 Y-2.5904
X-3.2857 Y-2.5964
X-3.3027 Y-2.6029
X-3.3195 Y-2.6101
X-3.336 Y-2.6178
X-3.3522 Y-2.6261
X-3.3681 Y-2.6349
X-3.3837 Y-2.6443
X-3.399 Y-2.6542
X-3.4139 Y-2.6646
X-3.4285 Y-2.6756
X-3.4427 Y-2.687
X-3.4565 Y-2.6989
X-3.4698 Y-2.7113
X-3.4827 Y-2.7241
X-3.4952 Y-2.7374
X-3.5072 Y-2.751
X-3.5188 Y-2.7651
X-3.5298 Y-2.7796
X-3.5404 Y-2.7945
X-3.5504 Y-2.8097
X-3.5599 Y-2.8252
X-3.5688 Y-2.8411
X-3.5773 Y-2.8572
X-3.5851 Y-2.8736
X-3.5924 Y-2.8903
X-3.5991 Y-2.9073
X-3.6052 Y-2.9244
X-3.6107 Y-2.9418
X-3.6156 Y-2.9593
X-3.6199 Y-2.977
X-3.6236 Y-2.9948
X-3.6267 Y-3.0128
X-3.6292 Y-3.0308
X-3.631 Y-3.049
X-3.6323 Y-3.0671
X-3.6329 Y-3.0853
X-3.6328 Y-3.1035
X-3.6322 Y-3.1217
X-3.6309 Y-3.1399
X-3.629 Y-3.158
X-3.6265 Y-3.1761
X-3.6233 Y-3.194
X-3.6196 Y-3.2118
X-3.6152 Y-3.2295
X-3.6102 Y-3.247
X-3.6046 Y-3.2643
X-3.5985 Y-3.2815
X-3.5917 Y-3.2984
X-3.5844 Y-3.3151
X-3.5765 Y-3.3315
X-3.568 Y-3.3476
X-3.559 Y-3.3634
X-3.5495 Y-3.3789
X-3.5394 Y-3.3941
X-3.5288 Y-3.4089
X-3.5177 Y-3.4234
X-3.5061 Y-3.4374
X-3.4941 Y-3.4511
X-3.4816 Y-3.4643
X-3.4686 Y-3.4771
X-3.4552 Y-3.4894
X-3.4414 Y-3.5013
X-3.4272 Y-3.5127
X-3.4126 Y-3.5235
X-3.3976 Y-3.5339
X-3.3823 Y-3.5438
X-3.3666 Y-3.5531
X-3.3507 Y-3.5619
X-3.3344 Y-3.5701
X-3.3179 Y-3.5778
X-3.3012 Y-3.5849
X-3.2841 Y-3.5914
X-3.2669 Y-3.5973
X-3.2495 Y-3.6026
X-3.2319 Y-3.6074
X-3.2142 Y-3.6115
X-3.1963 Y-3.615
X-3.1783 Y-3.6179
X-3.1603 Y-3.6201
X-3.1421 Y-3.6218
X-3.1239 Y-3.6228
X-3.1057 Y-3.6232
X-3.0875 Y-3.623
X-3.0693 Y-3.6221
X-3.0512 Y-3.6206
X-3.0331 Y-3.6185
G3 X-2.5348 Y-2.8965 I-0.0653 J0.578
X-3.3184 Y-2.5021 I-0.5636 J-0.144
X-3.6857 Y-3.3184 I0.2244 J-0.5918
X-2.8692 Y-3.6854 I0.5917 J0.2246
X-2.8624 Y-2.403 I-0.2348 J0.6425
G1 X-3.1682 Y-2.3761
X-3.189 Y-2.3779
X-3.2098 Y-2.3803
X-3.2304 Y-2.3833
X-3.251 Y-2.3869
X-3.2715 Y-2.3912
X-3.2918 Y-2.396
X-3.312 Y-2.4014
X-3.332 Y-2.4074
X-3.3519 Y-2.414
X-3.3715 Y-2.4212
X-3.3909 Y-2.4289
X-3.4101 Y-2.4373
X-3.429 Y-2.4462
X-3.4476 Y-2.4556
X-3.466 Y-2.4656
X-3.4841 Y-2.4761
X-3.5018 Y-2.4871
X-3.5192 Y-2.4987
X-3.5363 Y-2.5108
X-3.553 Y-2.5234
X-3.5693 Y-2.5364
X-3.5852 Y-2.55
X-3.6007 Y-2.564
X-3.6158 Y-2.5784
X-3.6305 Y-2.5933
X-3.6447 Y-2.6086
X-3.6585 Y-2.6244
X-3.6718 Y-2.6405
X-3.6846 Y-2.657
X-3.6969 Y-2.6739
X-3.7087 Y-2.6911
X-3.72 Y-2.7087
X-3.7308 Y-2.7266
X-3.7411 Y-2.7448
X-3.7508 Y-2.7633
X-3.7599 Y-2.7821
X-3.7685 Y-2.8012
X-3.7766 Y-2.8205
X-3.784 Y-2.84
X-3.7909 Y-2.8597
X-3.7972 Y-2.8796
X-3.8029 Y-2.8998
X-3.808 Y-2.92
X-3.8126 Y-2.9404
X-3.8165 Y-2.961
X-3.8198 Y-2.9816
X-3.8225 Y-3.0023
X-3.8245 Y-3.0231
X-3.826 Y-3.044
X-3.8269 Y-3.0649
X-3.8271 Y-3.0858
X-3.8267 Y-3.1067
X-3.8257 Y-3.1275
X-3.8241 Y-3.1484
X-3.8219 Y-3.1691
X-3.819 Y-3.1899
X-3.8156 Y-3.2105
X-3.8115 Y-3.231
X-3.8069 Y-3.2513
X-3.8016 Y-3.2716
X-3.7958 Y-3.2916
X-3.7894 Y-3.3115
X-3.7823 Y-3.3312
X-3.7747 Y-3.3507
X-3.7666 Y-3.3699
X-3.7578 Y-3.3889
X-3.7485 Y-3.4076
X-3.5847 Y-3.5847
X-3.4466 Y-3.7156
X-3.4282 Y-3.7263
X-3.4095 Y-3.7366
X-3.3906 Y-3.7462
X-3.3714 Y-3.7554
X-3.3519 Y-3.7639
X-3.3321 Y-3.7719
X-3.3122 Y-3.7793
X-3.292 Y-3.7861
X-3.2717 Y-3.7923
X-3.2512 Y-3.7979
X-3.2305 Y-3.8029
X-3.2097 Y-3.8073
X-3.1887 Y-3.8111
X-3.1677 Y-3.8143
X-3.1465 Y-3.8168
X-3.1254 Y-3.8188
X-3.1041 Y-3.8201
X-3.0828 Y-3.8208
X-3.0616
X-3.0403 Y-3.8203
X-3.0191 Y-3.8191
X-2.9978 Y-3.8173
X-2.9767 Y-3.8148
X-2.9556 Y-3.8118
X-2.9347 Y-3.8081
X-2.9138 Y-3.8039
X-2.8931 Y-3.799
X-2.8726 Y-3.7935
X-2.8522 Y-3.7874
X-2.832 Y-3.7807
X-2.812 Y-3.7735
X-2.7922 Y-3.7656
X-2.7727 Y-3.7572
X-2.7534 Y-3.7482
X-2.7344 Y-3.7386
X-2.7157 Y-3.7285
X-2.6972 Y-3.7178
X-2.6791 Y-3.7066
X-2.6614 Y-3.6949
X-2.644 Y-3.6827
X-2.6269 Y-3.6699
X-2.6103 Y-3.6567
X-2.594 Y-3.643
X-2.5782 Y-3.6288
X-2.5627 Y-3.6142
X-2.5477 Y-3.5991
X-2.5332 Y-3.5835
X-2.5191 Y-3.5676
X-2.5055 Y-3.5512
X-2.4923 Y-3.5345
X-2.4797 Y-3.5174
X-2.4676 Y-3.4999
X-2.456 Y-3.4821
X-2.4449 Y-3.4639
X-2.4343 Y-3.4454
X-2.4243 Y-3.4266
X-2.4149 Y-3.4076
X-2.406 Y-3.3882
X-2.3977 Y-3.3686
X-2.39 Y-3.3488
X-2.3828 Y-3.3288
X-2.3763 Y-3.3085
X-2.3703 Y-3.2881
X-2.4197 Y-2.703
G3 X-2.4628 Y-2.5988 I-0.1919 J-0.0184
X-2.4842 Y-2.6172 I-0.0074 J-0.013
G1 X-2.4486 Y-2.7093
G3 X-2.441 Y-2.7174 I0.014 J0.0054
X-2.4197 Y-2.703 I0.0063 J0.0136 F50.
X-2.5155 Y-2.5694 I-0.1045 J0.0262 F60.
G2 X-2.5882 Y-2.48 I0.2401 J0.2692
G3 X-2.6344 Y-2.4261 I-0.0868 J-0.0278
X-2.6393 Y-2.4343 I-0.001 J-0.0049
G1 X-2.6274 Y-2.4485
X-2.6067 Y-2.4734
X-2.5964 Y-2.4857 F50.
G3 X-2.5882 Y-2.48 I0.0039 J0.0032
X-2.6346 Y-2.4261 I-0.0555 J-0.0008 F60.
G1 X-2.8631 Y-2.4047
G3 X-2.8775 Y-2.426 I-0.0009 J-0.0149
G1 X-2.8763 Y-2.4286 Z-0.1672
X-2.8751 Y-2.4312 Z-0.1664
X-2.874 Y-2.4335 Z-0.165
X-2.8731 Y-2.4356 Z-0.1631
X-2.8723 Y-2.4373 Z-0.1608
X-2.8717 Y-2.4385 Z-0.1583
X-2.8713 Y-2.4393 Z-0.1555
X-2.8712 Y-2.4395 Z-0.1525
G0 Z-0.1376
X-2.385 Y-3.2488
G1 Z-0.1525 F50.
X-2.3849 Y-3.249 Z-0.1555
X-2.3844 Y-3.2497 Z-0.1583
X-2.3835 Y-3.2508 Z-0.1608
X-2.3825 Y-3.2523 Z-0.1631
X-2.3811 Y-3.2542 Z-0.165
X-2.3796 Y-3.2563 Z-0.1664
X-2.3779 Y-3.2585 Z-0.1672
X-2.3762 Y-3.2609 Z-0.1675
G2 X-2.3648 Y-3.2896 I-0.0504 J-0.0367
G1 X-2.3524 Y-3.4223 F60.
G2 X-2.6227 Y-3.782 I-0.543 J0.1267
X-3.2236 Y-3.9121 I-0.4641 J0.6908
G1 X-3.377 Y-3.7806
X-3.3888 Y-3.7703
X-3.4466 Y-3.7156
G2 X-3.4503 Y-3.7011 I0.0107 J0.0105
X-3.387 Y-3.6609 I0.0539 J-0.0148
X-3.2253 Y-3.8819 I-0.0333 J-0.194
G1 X-3.228 Y-3.8969 F50.
G3 X-3.2234 Y-3.9111 I0.0146 J-0.0032
G1 X-3.1914 Y-3.9384 F60.
X-3.1698 Y-3.9559
X-3.1393 Y-3.9791
G3 X-2.7487 Y-3.9579 I0.1718 J0.4453
X-2.331 Y-3.6356 I-0.3344 J0.8651
G1 X-2.3524 Y-3.4223
G3 X-2.3614 Y-3.4104 I-0.0148 J-0.0019
X-2.4361 Y-3.4517 I-0.021 J-0.0502
X-2.3553 Y-3.6161 I0.1554 J-0.0258
X-2.3416 Y-3.6227 I0.0746 J0.1387 F50.
G2 X-2.3325 Y-3.6346 I-0.0058 J-0.0138
G1 X-2.3263 Y-3.7007 F60.
G2 X-2.5685 Y-3.9801 I-0.3853 J0.0893
X-2.9695 Y-4.1083 I-0.4655 J0.7642
G1 X-2.9826 Y-4.0985
X-3.1393 Y-3.9791
G2 X-3.1446 Y-3.9651 I0.0095 J0.0116
X-3.0719 Y-3.924 I0.0528 J-0.0086
X-2.9733 Y-4.0792 I-0.0586 J-0.1462
X-2.9749 Y-4.0944 I-0.1572 J0.009 F50.
G3 X-2.9695 Y-4.1083 I0.0148 J-0.0023
G1 X-2.9594 Y-4.1159 F60.
X-2.9014 Y-4.1554
G3 X-2.546 Y-4.0732 I0.0952 J0.3978
X-2.307 Y-3.8953 I-0.2498 J0.5848
G1 X-2.3263 Y-3.7007
G3 X-2.3354 Y-3.6888 I-0.0148 J-0.0019
X-2.3591 Y-3.694 I-0.0081 J-0.0194
X-2.3309 Y-3.8756 I0.0874 J-0.0794
X-2.3172 Y-3.8824 I0.0593 J0.1022 F50.
G2 X-2.3082 Y-3.8943 I-0.0058 J-0.0138
G1 X-2.3024 Y-3.9559 F60.
G2 X-2.5572 Y-4.1886 I-0.3289 J0.1044
X-2.7473 Y-4.261 I-0.2459 J0.3595
G1 X-2.7512 Y-4.2575
X-2.9014 Y-4.1554
G2 X-2.9074 Y-4.1417 I0.0088 J0.0121
X-2.885 Y-4.1191 I0.0254 J-0.0027
X-2.7534 Y-4.2312 I0.0135 J-0.1173
X-2.7538 Y-4.2464 I-0.118 J-0.0052 F50.
G3 X-2.7474 Y-4.26 I0.0149 J-0.0013
G1 X-2.7274 Y-4.2729 F60.
X-2.6926 Y-4.294
G3 X-2.354 Y-4.1825 I0.073 J0.3483
X-2.2863 Y-4.1281 I-0.0062 J0.077
G1 X-2.3024 Y-3.9559
G3 X-2.3115 Y-3.944 I-0.0148 J-0.0019
X-2.3599 Y-3.9647 I-0.0142 J-0.0339
X-2.309 Y-4.1094 I0.1102 J-0.0426
X-2.2954 Y-4.1162 I0.0593 J0.1022 F50.
G2 X-2.2863 Y-4.1281 I-0.0058 J-0.0138
G1 X-2.2817 Y-4.1775 F60.
G2 X-2.528 Y-4.3841 I-0.2689 J0.0705
G1 X-2.5298 Y-4.3909
X-2.532 Y-4.3906
X-2.5342 Y-4.3897
X-2.6926 Y-4.294
G2 X-2.6994 Y-4.2806 I0.0082 J0.0125
X-2.6734 Y-4.2528 I0.0296 J-0.0016
X-2.5411 Y-4.3611 I0.0145 J-0.1172
X-2.5409 Y-4.3764 I-0.1178 J-0.0089 F50.
G3 X-2.5342 Y-4.3897 I0.0149 J-0.0008
G1 X-2.5186 Y-4.3991 F60.
X-2.4954 Y-4.4125
X-2.4815 Y-4.4199
G3 X-2.2658 Y-4.3471 I0.0497 J0.2086
G1 X-2.2817 Y-4.1775
G3 X-2.2907 Y-4.1656 I-0.0148 J-0.0019
X-2.3411 Y-4.1883 I-0.0146 J-0.0348
X-2.2885 Y-4.3285 I0.1118 J-0.038
X-2.2749 Y-4.3352 I0.0593 J0.1022 F50.
G2 X-2.2658 Y-4.3471 I-0.0058 J-0.0138
G1 X-2.2621 Y-4.3863 F60.
G2 X-2.3393 Y-4.497 I-0.1152 J-0.0019
G1 X-2.4815 Y-4.4199
G2 X-2.4754 Y-4.3921 I0.0075 J0.013
G1 X-2.2863 Y-4.3741
X-2.2784 Y-4.3733 F50.
G2 X-2.2621 Y-4.3863 I0.0014 J-0.0149
G1 X-2.2534 Y-4.4791 F60.
G2 X-2.2757 Y-4.5296 I-0.0331 J-0.0156
G1 X-2.3399 Y-4.4954
G2 X-2.3327 Y-4.4675 I0.0075 J0.013
G1 X-2.2776 Y-4.4663
X-2.2686 Y-4.466 F50.
G2 X-2.2534 Y-4.4791 I0.0003 J-0.015
X-2.2546 Y-4.5344 I-0.0328 J-0.027 F60.
G1 X-2.2568 Y-4.5354
G2 X-2.2757 Y-4.5296 I0.0003 J0.035
X-2.2831 Y-4.5162 I0.0075 J0.013
G1 X-2.283 Y-4.5133 Z-0.1672
Y-4.5105 Z-0.1664
X-2.2829 Y-4.5079 Z-0.165
X-2.2828 Y-4.5057 Z-0.1631
Y-4.5038 Z-0.1608
X-2.2827 Y-4.5024 Z-0.1583
Y-4.5016 Z-0.1555
Y-4.5013 Z-0.1525
G0 Z-0.1376
X-3.71 Y-3.4286
G1 Z-0.1525 F50.
X-3.7103 Y-3.4285 Z-0.1555
X-3.7111 Y-3.4283 Z-0.1583
X-3.7125 Y-3.4279 Z-0.1608
X-3.7142 Y-3.4274 Z-0.1631
X-3.7164 Y-3.4268 Z-0.165
X-3.7189 Y-3.4261 Z-0.1664
X-3.7216 Y-3.4253 Z-0.1672
X-3.7244 Y-3.4245 Z-0.1675
G2 X-3.7512 Y-3.409 I0.017 J0.06
G1 X-3.7713 Y-3.3877 F60.
X-3.7815 Y-3.3759
X-3.8729 Y-3.2683
G2 X-3.8648 Y-2.7842 I0.5524 J0.2329
X-3.4631 Y-2.3477 I0.7632 J-0.2994
G1 X-3.1682 Y-2.3761
G2 X-3.1563 Y-2.3852 I-0.0019 J-0.0148
X-3.1847 Y-2.4594 I-0.0531 J-0.0222
X-3.4443 Y-2.3715 I-0.0845 J0.1778
G1 X-3.4507 Y-2.3577 F50.
G3 X-3.4626 Y-2.3486 I-0.0138 J-0.0058
G1 X-3.5625 Y-2.3392 F60.
G3 X-3.8638 Y-2.572 I0.0989 J-0.4394
X-4.0196 Y-3.0881 I0.7497 J-0.5078
G1 X-3.9569 Y-3.1684
X-3.9393 Y-3.1902
X-3.8729 Y-3.2683
G3 X-3.8587 Y-3.2729 I0.0111 J0.0101
X-3.8239 Y-3.2207 I-0.0096 J0.0441
X-3.989 Y-3.0917 I-0.1549 J-0.0281
X-4.0041 Y-3.0934 I0.0101 J-0.1572 F50.
G2 X-4.0181 Y-3.0881 I-0.0024 J0.0148
G1 X-4.0729 Y-3.0162 F60.
X-4.0774 Y-3.0009
X-4.0812 Y-2.9855
X-4.0845 Y-2.9699
X-4.0872 Y-2.9542
X-4.0892 Y-2.9385
X-4.0907 Y-2.9226
X-4.0915 Y-2.9068
X-4.0918 Y-2.8909
X-4.0914 Y-2.875
X-4.0904 Y-2.8591
X-4.0888 Y-2.8433
X-4.0866 Y-2.8275
X-4.0838 Y-2.8119
X-4.0804 Y-2.7963
X-4.0764 Y-2.781
X-4.0719 Y-2.7657
X-4.0667 Y-2.7507
X-4.061 Y-2.7359
X-4.0547 Y-2.7213
X-4.0478 Y-2.7069
X-4.0404 Y-2.6929
X-4.0325 Y-2.6791
X-4.024 Y-2.6656
X-4.015 Y-2.6525
G2 X-3.7642 Y-2.3194 I0.7227 J-0.2832
G1 X-3.5625 Y-2.3392
G2 X-3.5507 Y-2.3483 I-0.0019 J-0.0148
X-3.5525 Y-2.3603 I-0.0108 J-0.0045
G1 X-3.5541 Y-2.3622
G2 X-3.7447 Y-2.3432 I-0.0884 J0.0783
X-3.7515 Y-2.3295 I0.1022 J0.0593 F50.
G3 X-3.7634 Y-2.3204 I-0.0138 J-0.0058
G1 X-3.8305 Y-2.3142 F60.
G3 X-4.0798 Y-2.5633 I0.0967 J-0.346
X-4.1878 Y-2.8552 I0.5627 J-0.3744
G1 X-4.1167 Y-2.9582
X-4.0994 Y-2.9814
X-4.0729 Y-3.0162
G3 X-4.0589 Y-3.0215 I0.0116 J0.0095
X-4.0465 Y-3.0103 I-0.0025 J0.0153
X-4.1578 Y-2.8607 I-0.1138 J0.0315
X-4.173 Y-2.8614 I-0.0026 J-0.1181 F50.
G2 X-4.1867 Y-2.8553 I-0.0016 J0.0149
G1 X-4.2238 Y-2.8008 F60.
G2 X-4.1317 Y-2.4565 I0.3525 J0.0902
X-4.0109 Y-2.2963 I0.3711 J-0.1543
G1 X-3.8305 Y-2.3142
G2 X-3.8186 Y-2.3232 I-0.0019 J-0.0148
X-3.8334 Y-2.3649 I-0.0304 J-0.0127
X-3.9913 Y-2.3201 I-0.0558 J0.1041
X-3.9981 Y-2.3064 I0.1022 J0.0593 F50.
G3 X-4.01 Y-2.2973 I-0.0138 J-0.0058
G1 X-4.0625 Y-2.2924 F60.
G3 X-4.288 Y-2.545 I0.0827 J-0.3008
X-4.3259 Y-2.6398 I0.0541 J-0.0766
G1 X-4.2737 Y-2.7262
X-4.2585 Y-2.7497
X-4.2238 Y-2.8008
G3 X-4.2101 Y-2.8068 I0.0121 J0.0088
X-4.1907 Y-2.7894 I-0.0024 J0.0221
X-4.2973 Y-2.6467 I-0.1155 J0.0249
X-4.3125 Y-2.6466 I-0.0089 J-0.1178 F50.
G2 X-4.3259 Y-2.6398 I-0.0008 J0.0149
G1 X-4.3578 Y-2.587 F60.
G2 X-4.2393 Y-2.2762 I0.3324 J0.0512
G1 X-4.2369 Y-2.2761
X-4.0625 Y-2.2924
G2 X-4.0506 Y-2.3015 I-0.0019 J-0.0148
X-4.0694 Y-2.3481 I-0.0329 J-0.0138
X-4.2182 Y-2.2988 I-0.0466 J0.1085
X-4.225 Y-2.2852 I0.1022 J0.0593 F50.
G3 X-4.2369 Y-2.2761 I-0.0138 J-0.0058
G1 X-4.2817 Y-2.2719 F60.
G3 X-4.4463 Y-2.432 I0.0311 J-0.1966
G1 X-4.4132 Y-2.4942
X-4.3998 Y-2.5174
X-4.3578 Y-2.587
G3 X-4.3444 Y-2.5938 I0.0125 J0.0082
X-4.3155 Y-2.5651 I-0.0017 J0.0306
X-4.4181 Y-2.4405 I-0.1179 J0.0075
X-4.4333 Y-2.4395 I-0.0152 J-0.1171 F50.
G2 X-4.4463 Y-2.432 I0. J0.015
G1 X-4.4673 Y-2.3926 F60.
G2 X-4.441 Y-2.2559 I0.108 J0.0501
G1 X-4.2817 Y-2.2719
G2 X-4.2762 Y-2.2997 I-0.0019 J-0.0148
G1 X-4.4404 Y-2.3944
X-4.4469 Y-2.3981 F50.
G2 X-4.4673 Y-2.3926 I-0.0075 J0.013
G1 X-4.5121 Y-2.3086 F60.
G2 X-4.5124 Y-2.2503 I0.0244 J0.0293
G1 X-4.4399 Y-2.2571
G2 X-4.4351 Y-2.2853 I-0.0019 J-0.0148
G1 X-4.485 Y-2.3107
X-4.4924 Y-2.3144 F50.
G2 X-4.5121 Y-2.3086 I-0.0068 J0.0133
X-4.5324 Y-2.2524 I0.0142 J0.0369 F60.
X-4.5124 Y-2.2503 I0.0122 J-0.0196
G1 X-4.5113 Y-2.2505
X-4.5092 Y-2.2515 Z-0.1673
X-4.5071 Y-2.2524 Z-0.1668
X-4.5052 Y-2.2533 Z-0.1659
X-4.5038 Y-2.255 Z-0.1645
X-4.5026 Y-2.2564 Z-0.1628
X-4.5016 Y-2.2576 Z-0.1609
X-4.5009 Y-2.2586 Z-0.1587
X-4.5006 Y-2.2593 Z-0.1567
X-4.5004 Y-2.2597 Z-0.1546
Y-2.2598 Z-0.1525
G0 Z0.4
X-3.1447 Y3.045
Z0.1
G3 X-3.032 Y3.1317 Z0.0606 I0.0563 J0.0434 F50.
X-3.1447 Y3.045 Z0.0212 I-0.0563 J-0.0434
X-3.032 Y3.1317 Z-0.0182 I0.0563 J0.0434
X-3.1447 Y3.045 Z-0.0576 I-0.0563 J-0.0434
X-3.032 Y3.1317 Z-0.0969 I0.0563 J0.0434
X-3.1447 Y3.045 Z-0.1363 I-0.0563 J-0.0434
X-3.0172 Y3.0884 Z-0.1675 I0.0563 J0.0434
X-3.1595 I-0.0711 J0.
X-3.0172 I0.0711 J0.
X-3.1665 Y3.2133 I-0.0777 J0.0589 F60.
G1 X-3.1748 Y3.2081
X-3.1827 Y3.2025
X-3.1903 Y3.1964
X-3.1975 Y3.1898
X-3.2042 Y3.1828
X-3.2105 Y3.1754
X-3.2163 Y3.1676
X-3.2216 Y3.1594
X-3.2263 Y3.1509
X-3.2305 Y3.1422
X-3.2342 Y3.1332
X-3.2372 Y3.1239
X-3.2397 Y3.1145
X-3.2416 Y3.105
X-3.2429 Y3.0953
X-3.2435 Y3.0856
X-3.2436 Y3.0759
X-3.243 Y3.0662
X-3.2418 Y3.0565
X-3.24 Y3.047
X-3.2376 Y3.0376
X-3.2346 Y3.0283
X-3.2311 Y3.0193
X-3.2269 Y3.0105
X-3.2223 Y3.0019
X-3.217 Y2.9937
X-3.2113 Y2.9859
X-3.2051 Y2.9784
X-3.1984 Y2.9713
X-3.1913 Y2.9647
X-3.1838 Y2.9585
X-3.1759 Y2.9528
X-3.1677 Y2.9476
X-3.1592 Y2.943
X-3.1503 Y2.9389
X-3.1413 Y2.9354
X-3.132 Y2.9324
X-3.1226 Y2.9301
X-3.113 Y2.9283
X-3.1034 Y2.9272
X-3.0937 Y2.9266
X-3.0839 Y2.9267
X-3.0742 Y2.9274
X-3.0646 Y2.9287
X-3.0551 Y2.9307
X-3.0457 Y2.9332
X-3.0365 Y2.9363
X-3.0275 Y2.94
X-3.0187 Y2.9442
X-3.0103 Y2.949
X-3.0021 Y2.9543
X-2.9944 Y2.9602
X-2.987 Y2.9665
X-2.98 Y2.9732
X-2.9734 Y2.9804
X-2.9674 Y2.988
X-2.9618 Y2.996
X-2.9567 Y3.0043
X-2.9522 Y3.0129
X-2.9482 Y3.0217
X-2.9448 Y3.0309
X-2.942 Y3.0402
X-2.9361 Y3.049
X-2.9307 Y3.0583
X-2.9258 Y3.0678
X-2.9215 Y3.0775
X-2.9177 Y3.0875
X-2.9145 Y3.0977
X-2.9119 Y3.108
X-2.9099 Y3.1185
X-2.9085 Y3.1291
X-2.9077 Y3.1398
X-2.9075 Y3.1504
X-2.9079 Y3.1611
X-2.9089 Y3.1717
X-2.9105 Y3.1823
X-2.9127 Y3.1927
X-2.9155 Y3.203
X-2.9189 Y3.2131
X-2.9228 Y3.2231
X-2.9273 Y3.2327
X-2.9324 Y3.2421
X-2.938 Y3.2512
X-2.9441 Y3.26
X-2.9506 Y3.2684
X-2.9577 Y3.2765
X-2.9652 Y3.2841
X-2.9731 Y3.2912
X-2.9814 Y3.2979
X-2.99 Y3.3042
X-2.999 Y3.3099
X-3.0083 Y3.3151
X-3.0179 Y3.3198
X-3.0278 Y3.3239
X-3.0379 Y3.3274
X-3.0481 Y3.3304
X-3.0585 Y3.3328
X-3.069 Y3.3346
X-3.0796 Y3.3358
X-3.0903 Y3.3364
X-3.101 Y3.3363
X-3.1116 Y3.3357
X-3.1222 Y3.3345
X-3.1327 Y3.3326
X-3.1431 Y3.3302
X-3.1534 Y3.3272
X-3.1634 Y3.3236
X-3.1732 Y3.3195
X-3.1828 Y3.3148
X-3.1921 Y3.3095
X-3.2011 Y3.3037
X-3.2097 Y3.2975
X-3.218 Y3.2907
X-3.2285 Y3.2847
X-3.2386 Y3.2782
X-3.2485 Y3.2711
X-3.2579 Y3.2635
X-3.267 Y3.2555
X-3.2756 Y3.247
X-3.2838 Y3.2381
X-3.2915 Y3.2288
X-3.2987 Y3.2191
X-3.3054 Y3.209
X-3.3116 Y3.1986
X-3.3173 Y3.188
X-3.3224 Y3.177
X-3.3269 Y3.1658
X-3.3309 Y3.1543
X-3.3343 Y3.1427
X-3.337 Y3.131
X-3.3392 Y3.1191
X-3.3408 Y3.1071
X-3.3417 Y3.095
X-3.342 Y3.0829
X-3.3417 Y3.0708
X-3.3408 Y3.0588
X-3.3393 Y3.0468
X-3.3371 Y3.0348
X-3.3344 Y3.0231
X-3.331 Y3.0114
X-3.3271 Y3.
X-3.3226 Y2.9888
X-3.3175 Y2.9778
X-3.3119 Y2.9671
X-3.3057 Y2.9567
X-3.299 Y2.9466
X-3.2918 Y2.9369
X-3.2841 Y2.9276
X-3.2759 Y2.9187
X-3.2673 Y2.9102
X-3.2583 Y2.9021
X-3.2489 Y2.8945
X-3.2391 Y2.8875
X-3.2289 Y2.8809
X-3.2184 Y2.8748
X-3.2077 Y2.8693
X-3.1954 Y2.8643
X-3.1828 Y2.8598
X-3.1701 Y2.856
X-3.1572 Y2.8527
X-3.1442 Y2.85
X-3.1311 Y2.8479
X-3.1179 Y2.8464
X-3.1046 Y2.8456
X-3.0913 Y2.8453
X-3.078 Y2.8457
X-3.0648 Y2.8467
X-3.0516 Y2.8482
X-3.0384 Y2.8504
X-3.0254 Y2.8532
X-3.0126 Y2.8566
X-2.9999 Y2.8606
X-2.9874 Y2.8652
X-2.9752 Y2.8703
X-2.9631 Y2.876
X-2.9514 Y2.8822
X-2.94 Y2.889
X-2.9289 Y2.8963
X-2.9181 Y2.9041
X-2.9077 Y2.9124
X-2.8977 Y2.9212
X-2.8881 Y2.9304
X-2.879 Y2.94
X-2.8703 Y2.9501
X-2.8621 Y2.9605
X-2.8543 Y2.9713
X-2.8471 Y2.9825
X-2.8404 Y2.994
X-2.8342 Y3.0058
X-2.8286 Y3.0178
X-2.8236 Y3.0301
X-2.8191 Y3.0426
X-2.8152 Y3.0553
X-2.8119 Y3.0682
X-2.8092 Y3.0812
X-2.8071 Y3.0944
X-2.8056 Y3.1076
X-2.8047 Y3.1208
X-2.8044 Y3.1341
X-2.8048 Y3.1474
X-2.8057 Y3.1607
X-2.8073 Y3.1739
X-2.8095 Y3.187
X-2.8122 Y3.2
X-2.8156 Y3.2129
X-2.8196 Y3.2255
X-2.8241 Y3.238
X-2.8292 Y3.2503
X-2.8349 Y3.2623
X-2.8411 Y3.2741
X-2.8479 Y3.2855
X-2.8552 Y3.2966
X-2.863 Y3.3074
X-2.8712 Y3.3178
X-2.88 Y3.3278
X-2.8892 Y3.3374
X-2.8988 Y3.3466
X-2.9089 Y3.3553
X-2.9193 Y3.3635
X-2.9301 Y3.3713
X-2.9413 Y3.3785
X-2.9527 Y3.3852
X-2.9645 Y3.3914
X-2.9765 Y3.397
X-2.9888 Y3.4021
X-3.0013 Y3.4066
X-3.014 Y3.4105
G3 X-3.2073 Y2.7664 I-0.088 J-0.3247
X-2.983 Y3.5049 I0.1122 J0.3693
X-3.2013 Y3.5067 I-0.1122 J-0.3693
X-3.5298 Y3.1147 I0.087 J-0.4066
G1 X-3.5304 Y3.098
Y3.0814
X-3.5298 Y3.0647
X-3.5285 Y3.0481
X-3.5267 Y3.0316
X-3.5242 Y3.0151
X-3.5211 Y2.9988
X-3.5174 Y2.9825
X-3.5131 Y2.9664
X-3.5082 Y2.9505
X-3.5027 Y2.9348
X-3.4967 Y2.9193
X-3.49 Y2.904
X-3.4828 Y2.889
X-3.4751 Y2.8743
X-3.4668 Y2.8599
X-3.4579 Y2.8457
X-3.4486 Y2.832
X-3.4387 Y2.8186
X-3.4283 Y2.8055
X-3.4175 Y2.7929
X-3.4062 Y2.7807
X-3.3944 Y2.7689
X-3.3823 Y2.7575
X-3.3697 Y2.7466
X-3.3567 Y2.7362
X-3.3433 Y2.7263
X-3.3296 Y2.7169
X-3.3155 Y2.708
X-3.3011 Y2.6996
X-3.2864 Y2.6918
X-3.2714 Y2.6846
X-3.2562 Y2.6779
X-3.2407 Y2.6717
X-3.225 Y2.6662
X-3.2091 Y2.6612
X-3.193 Y2.6569
X-3.1768 Y2.6531
X-3.1605 Y2.65
X-3.144 Y2.6474
X-3.1275 Y2.6455
X-3.1109 Y2.6442
X-3.0942 Y2.6435
X-3.0776
X-3.0609 Y2.644
X-3.0443 Y2.6452
X-3.0278 Y2.647
X-3.0113 Y2.6494
X-2.9949 Y2.6524
X-2.9787 Y2.6561
X-2.9626 Y2.6603
X-2.9467 Y2.6652
X-2.9309 Y2.6706
X-2.9154 Y2.6766
X-2.9001 Y2.6832
X-2.8851 Y2.6903
X-2.8703 Y2.6981
X-2.8559 Y2.7063
X-2.8417 Y2.7151
X-2.8279 Y2.7244
X-2.8145 Y2.7342
X-2.8014 Y2.7445
X-2.7887 Y2.7553
X-2.7765 Y2.7666
X-2.7646 Y2.7783
X-2.7532 Y2.7905
X-2.7423 Y2.803
X-2.7318 Y2.816
X-2.7219 Y2.8293
X-2.7124 Y2.843
X-2.7035 Y2.8571
X-2.6951 Y2.8714
X-2.6872 Y2.8861
X-2.6799 Y2.901
X-2.6731 Y2.9163
X-2.667 Y2.9317
X-2.6614 Y2.9474
X-2.6563 Y2.9633
X-2.6519 Y2.9793
X-2.6458 Y2.9946
X-2.6402 Y3.01
X-2.6353 Y3.0257
X-2.6308 Y3.0415
X-2.627 Y3.0575
X-2.6238 Y3.0736
X-2.6211 Y3.0898
X-2.619 Y3.1061
X-2.6176 Y3.1225
X-2.6167 Y3.1389
X-2.6165 Y3.1553
X-2.6168 Y3.1717
X-2.6177 Y3.1881
X-2.6193 Y3.2045
X-2.6214 Y3.2208
X-2.6241 Y3.237
X-2.6275 Y3.2531
X-2.6314 Y3.269
X-2.6358 Y3.2848
X-2.6409 Y3.3004
X-2.6465 Y3.3159
X-2.6527 Y3.3311
X-2.6595 Y3.3461
X-2.6668 Y3.3608
X-2.6746 Y3.3752
X-2.6829 Y3.3894
X-2.6918 Y3.4032
X-2.7011 Y3.4167
X-2.711 Y3.4299
X-2.7213 Y3.4427
X-2.7321 Y3.4551
X-2.7433 Y3.4671
X-2.7549 Y3.4786
X-2.767 Y3.4898
X-2.7795 Y3.5005
X-2.7923 Y3.5107
X-2.8056 Y3.5205
X-2.8191 Y3.5297
X-2.833 Y3.5385
X-2.8472 Y3.5467
X-2.8617 Y3.5544
X-2.8781 Y3.5625
X-2.8947 Y3.5699
X-2.9115 Y3.5768
X-2.9286 Y3.5831
X-2.9459 Y3.5888
X-2.9634 Y3.5939
X-2.981 Y3.5985
X-2.9988 Y3.6023
X-3.0168 Y3.6056
X-3.0348 Y3.6083
X-3.0529 Y3.6103
X-3.071 Y3.6118
X-3.0892 Y3.6126
X-3.1074 Y3.6127
X-3.1256 Y3.6123
X-3.1438 Y3.6112
X-3.1619 Y3.6095
X-3.18 Y3.6072
X-3.198 Y3.6042
X-3.2158 Y3.6007
X-3.2336 Y3.5965
X-3.2511 Y3.5917
X-3.2685 Y3.5863
X-3.2857 Y3.5803
X-3.3027 Y3.5738
X-3.3195 Y3.5666
X-3.336 Y3.5589
X-3.3522 Y3.5506
X-3.3681 Y3.5418
X-3.3837 Y3.5324
X-3.399 Y3.5225
X-3.4139 Y3.5121
X-3.4285 Y3.5012
X-3.4427 Y3.4897
X-3.4565 Y3.4778
X-3.4698 Y3.4654
X-3.4828 Y3.4526
X-3.4952 Y3.4394
X-3.5072 Y3.4257
X-3.5188 Y3.4116
X-3.5298 Y3.3971
X-3.5404 Y3.3822
X-3.5504 Y3.367
X-3.5599 Y3.3515
X-3.5689 Y3.3356
X-3.5773 Y3.3195
X-3.5851 Y3.3031
X-3.5924 Y3.2864
X-3.5991 Y3.2694
X-3.6052 Y3.2523
X-3.6107 Y3.2349
X-3.6156 Y3.2174
X-3.6199 Y3.1997
X-3.6237 Y3.1819
X-3.6267 Y3.1639
X-3.6292 Y3.1459
X-3.6311 Y3.1278
X-3.6323 Y3.1096
X-3.6329 Y3.0914
X-3.6328 Y3.0732
X-3.6322 Y3.055
X-3.6309 Y3.0368
X-3.629 Y3.0187
X-3.6265 Y3.0007
X-3.6233 Y2.9827
X-3.6196 Y2.9649
X-3.6152 Y2.9472
X-3.6102 Y2.9297
X-3.6047 Y2.9124
X-3.5985 Y2.8952
X-3.5917 Y2.8783
X-3.5844 Y2.8616
X-3.5765 Y2.8452
X-3.568 Y2.8291
X-3.559 Y2.8133
X-3.5495 Y2.7978
X-3.5394 Y2.7826
X-3.5288 Y2.7678
X-3.5177 Y2.7533
X-3.5062 Y2.7393
X-3.4941 Y2.7256
X-3.4816 Y2.7124
X-3.4686 Y2.6996
X-3.4552 Y2.6873
X-3.4414 Y2.6754
X-3.4272 Y2.6641
X-3.4126 Y2.6532
X-3.3976 Y2.6428
X-3.3823 Y2.6329
X-3.3667 Y2.6236
X-3.3507 Y2.6148
X-3.3345 Y2.6066
X-3.3179 Y2.5989
X-3.3012 Y2.5918
X-3.2842 Y2.5853
X-3.2669 Y2.5794
X-3.2495 Y2.5741
X-3.2319 Y2.5694
X-3.2142 Y2.5652
X-3.1963 Y2.5617
X-3.1783 Y2.5588
X-3.1603 Y2.5566
X-3.1421 Y2.5549
X-3.124 Y2.5539
X-3.1058 Y2.5535
X-3.0875 Y2.5537
X-3.0694 Y2.5546
X-3.0512 Y2.5561
X-3.0331 Y2.5582
G3 X-2.5348 Y3.2802 I-0.0653 J0.578
X-3.3184 Y3.6746 I-0.5636 J-0.144
X-3.6857 Y2.8583 I0.2244 J-0.5918
X-2.8692 Y2.4913 I0.5917 J0.2246
X-3.1859 Y3.8114 I-0.2337 J0.642
X-3.4197 Y3.7411 I0.0851 J-0.7062
G1 X-3.5847 Y3.5847
X-3.7166 Y3.4455
X-3.7274 Y3.4273
X-3.7377 Y3.4087
X-3.7474 Y3.3899
X-3.7565 Y3.3708
X-3.7651 Y3.3515
X-3.7731 Y3.3319
X-3.7805 Y3.312
X-3.7874 Y3.292
X-3.7936 Y3.2718
X-3.7992 Y3.2513
X-3.8042 Y3.2308
X-3.8086 Y3.2101
X-3.8124 Y3.1892
X-3.8156 Y3.1683
X-3.8181 Y3.1473
X-3.8201 Y3.1262
X-3.8214 Y3.1051
X-3.822 Y3.0839
X-3.8221 Y3.0627
X-3.8215 Y3.0415
X-3.8203 Y3.0204
X-3.8184 Y2.9993
X-3.816 Y2.9783
X-3.8129 Y2.9573
X-3.8092 Y2.9365
X-3.8049 Y2.9158
X-3.7999 Y2.8952
X-3.7944 Y2.8747
X-3.7882 Y2.8545
X-3.7815 Y2.8344
X-3.7741 Y2.8145
X-3.7662 Y2.7949
X-3.7577 Y2.7755
X-3.7486 Y2.7564
X-3.739 Y2.7375
X-3.7288 Y2.719
X-3.7181 Y2.7007
X-3.7068 Y2.6828
X-3.695 Y2.6652
X-3.6827 Y2.648
X-3.6699 Y2.6312
X-3.6565 Y2.6147
X-3.6427 Y2.5986
X-3.6285 Y2.583
X-3.6138 Y2.5678
X-3.5986 Y2.553
X-3.583 Y2.5387
X-3.567 Y2.5249
X-3.5505 Y2.5115
X-3.5337 Y2.4986
X-3.5165 Y2.4862
X-3.499 Y2.4744
X-3.4811 Y2.4631
X-3.4629 Y2.4523
X-3.4444 Y2.442
X-3.4255 Y2.4323
X-3.4064 Y2.4232
X-3.3871 Y2.4147
X-3.3674 Y2.4067
X-3.3476 Y2.3993
X-3.3276 Y2.3925
X-3.3073 Y2.3863
X-3.2869 Y2.3807
X-3.2663 Y2.3757
X-3.2456 Y2.3713
X-2.8434 Y2.4065
G3 X-2.413 Y2.7743 I-0.2113 J0.683
G1 X-2.3632 Y3.3063
G3 X-2.7418 Y3.826 I-0.6611 J-0.0838
X-3.2349 Y3.9024 I-0.3615 J-0.7041
G1 X-3.377 Y3.7806
X-3.3888 Y3.7703
X-3.4197 Y3.7411
G3 X-3.4234 Y3.7266 I0.0107 J-0.0105
X-3.3808 Y3.6967 I0.0394 J0.0109
X-3.2367 Y3.8722 I-0.0123 J0.157
X-3.2393 Y3.8873 I-0.1564 J-0.0186 F50.
G2 X-3.2347 Y3.9015 I0.0146 J0.0032
G1 X-3.1914 Y3.9384 F60.
X-3.1698 Y3.9559
X-3.1566 Y3.966
G2 X-2.7633 Y3.9441 I0.1736 J-0.4245
X-2.3377 Y3.5687 I-0.3284 J-0.8013
G1 X-2.3632 Y3.3063
G2 X-2.3723 Y3.2944 I-0.0148 J0.0019
X-2.3982 Y3.2994 I-0.0091 J0.0219
X-2.3615 Y3.5497 I0.1112 J0.1115
X-2.3478 Y3.5562 I0.0746 J-0.1387 F50.
G3 X-2.3387 Y3.5681 I-0.0058 J0.0138
G1 X-2.3306 Y3.6543 F60.
G3 X-2.567 Y3.9517 I-0.4247 J-0.0948
X-2.984 Y4.0992 I-0.5046 J-0.7635
G1 X-3.1566 Y3.966
G3 X-3.1619 Y3.952 I0.0095 J-0.0116
X-3.0903 Y3.9103 I0.0529 J0.0086
X-2.9878 Y4.0681 I-0.0546 J0.1477
X-2.9895 Y4.0833 I-0.1572 J-0.0101 F50.
G2 X-2.9842 Y4.0973 I0.0148 J0.0024
G1 X-2.9594 Y4.1159 F60.
X-2.9217 Y4.1415
G2 X-2.5675 Y4.0593 I0.1004 J-0.3719
X-2.3109 Y3.8551 I-0.283 J-0.6191
G1 X-2.3306 Y3.6543
G2 X-2.3397 Y3.6424 I-0.0148 J0.0019
X-2.3531 Y3.6445 I-0.0049 J0.0118
G1 X-2.3538 Y3.6452
G2 X-2.3346 Y3.8357 I0.0784 J0.0883
X-2.321 Y3.8425 I0.0593 J-0.1022 F50.
G3 X-2.3119 Y3.8544 I-0.0058 J0.0138
G1 X-2.3061 Y3.9165 F60.
G3 X-2.5558 Y4.1643 I-0.3366 J-0.0895
X-2.7652 Y4.248 I-0.2612 J-0.3499
G1 X-2.9217 Y4.1415
G3 X-2.9278 Y4.1278 I0.0088 J-0.0121
X-2.9055 Y4.1047 I0.026 J0.0028
X-2.7706 Y4.2191 I0.0168 J0.1169
X-2.7712 Y4.2343 I-0.1181 J0.0026 F50.
G2 X-2.7652 Y4.248 I0.0149 J0.0016
G1 X-2.7506 Y4.2579 F60.
X-2.7274 Y4.2729
X-2.7145 Y4.2807
G2 X-2.376 Y4.1682 I0.0752 J-0.3391
X-2.2892 Y4.0972 I-0.0091 J-0.0997
G1 X-2.3061 Y3.9165
G2 X-2.3152 Y3.9046 I-0.0148 J0.0019
X-2.3557 Y3.9186 I-0.0124 J0.0297
X-2.3119 Y4.0785 I0.103 J0.0578
X-2.2983 Y4.0853 I0.0593 J-0.1022 F50.
G3 X-2.2892 Y4.0972 I-0.0058 J0.0138
G1 X-2.2838 Y4.1543 F60.
G3 X-2.5425 Y4.3696 I-0.296 J-0.0926
G1 X-2.5485 Y4.3781
X-2.5507 Y4.3784
X-2.5528 Y4.3781
X-2.5549 Y4.3772
X-2.7145 Y4.2807
G3 X-2.7213 Y4.2674 I0.0082 J-0.0125
X-2.697 Y4.2407 I0.0285 J0.0015
X-2.5618 Y4.3486 I0.0174 J0.1168
X-2.5616 Y4.3639 I-0.1178 J0.0089 F50.
G2 X-2.5549 Y4.3772 I0.0149 J0.0008
G1 X-2.5186 Y4.3991 F60.
X-2.507 Y4.4058
G2 X-2.2681 Y4.322 I0.055 J-0.2255
G1 X-2.2838 Y4.1543
G2 X-2.2929 Y4.1424 I-0.0148 J0.0019
X-2.3446 Y4.1667 I-0.0149 J0.0355
X-2.2909 Y4.3033 I0.113 J0.0345
X-2.2772 Y4.3101 I0.0593 J-0.1022 F50.
G3 X-2.2681 Y4.322 I-0.0058 J0.0138
G1 X-2.2643 Y4.3626 F60.
X-2.2646 Y4.3714
X-2.2655 Y4.3801
X-2.2669 Y4.3887
X-2.269 Y4.3973
X-2.2716 Y4.4057
X-2.2748 Y4.4138
X-2.2785 Y4.4218
X-2.2828 Y4.4295
X-2.2875 Y4.4368
X-2.2928 Y4.4439
X-2.2985 Y4.4505
X-2.3047 Y4.4568
X-2.3113 Y4.4626
X-2.3182 Y4.4679
X-2.3255 Y4.4728
X-2.3331 Y4.4772
X-2.341 Y4.481
X-2.3492 Y4.4843
X-2.3575 Y4.4871
X-2.36 Y4.4854
X-2.362 Y4.4833
X-2.3637 Y4.4809
X-2.3649 Y4.4783
X-2.3655 Y4.4754
X-2.3656 Y4.4726
X-2.3652 Y4.4698
X-2.3643 Y4.4671
X-2.3629 Y4.4647
X-2.3593 Y4.4592
X-2.2917 Y4.3563
X-2.29 Y4.3541
X-2.2879 Y4.3523
G3 X-2.2643 Y4.3626 I0.0087 J0.0122 F50.
G1 X-2.2556 Y4.4559 F60.
G3 X-2.2849 Y4.5247 I-0.0372 J0.0248
X-2.2922 Y4.5099 I0.0075 J-0.013
G1 X-2.2905 Y4.4966
X-2.2853 Y4.4559
G3 X-2.2792 Y4.4457 I0.0148 J0.0019
X-2.2556 Y4.4559 I0.0087 J0.0122 F50.
X-2.2522 Y4.5322 I-0.0696 J0.0413 F60.
G1 X-2.2539 Y4.5338
X-2.2546 Y4.5344
X-2.2568 Y4.5354
X-2.2572 Y4.5355
X-2.2601 Y4.5356
X-2.2692 Y4.533
X-2.2699 Y4.5327
X-2.4954 Y4.4125
X-2.507 Y4.4058
G3 X-2.5065 Y4.3801 I0.0079 J-0.0127
G1 X-2.5039 Y4.3787 Z-0.1672
X-2.5015 Y4.3773 Z-0.1664
X-2.4992 Y4.376 Z-0.165
X-2.4973 Y4.3749 Z-0.1631
X-2.4956 Y4.374 Z-0.1608
X-2.4944 Y4.3733 Z-0.1583
X-2.4937 Y4.3728 Z-0.1555
X-2.4935 Y4.3727 Z-0.1525
G0 Z-0.1376
X-3.6755 Y3.4651
G1 Z-0.1525 F50.
X-3.6757 Y3.465 Z-0.1555
X-3.6766 Y3.4648 Z-0.1583
X-3.6779 Y3.4644 Z-0.1608
X-3.6797 Y3.4639 Z-0.1631
X-3.6819 Y3.4633 Z-0.165
X-3.6844 Y3.4626 Z-0.1664
X-3.6871 Y3.4618 Z-0.1672
X-3.6899 Y3.461 Z-0.1675
G3 X-3.7166 Y3.4455 I0.017 J-0.06
G1 X-3.7713 Y3.3877 F60.
X-3.7815 Y3.3759
X-3.8641 Y3.2787
G3 X-3.8943 Y2.8707 I0.4462 J-0.2382
X-3.4718 Y2.3468 I0.803 J0.2154
G1 X-3.2461 Y2.3689
G3 X-3.2342 Y2.3779 I-0.0019 J0.0148
X-3.2652 Y2.4457 I-0.0468 J0.0196
X-3.4528 Y2.3706 I-0.0489 J-0.1497
X-3.4594 Y2.3568 I0.1387 J-0.0746 F50.
G2 X-3.4713 Y2.3478 I-0.0138 J0.0058
G1 X-3.5625 Y2.3392 F60.
G2 X-3.8665 Y2.573 I0.0888 J0.4299
X-4.0196 Y3.0881 I0.7555 J0.5048
G1 X-3.9569 Y3.1684
X-3.9393 Y3.1902
X-3.8641 Y3.2787
G2 X-3.8499 Y3.2832 I0.0111 J-0.0101
X-3.8214 Y3.2476 I-0.0077 J-0.0354
X-3.989 Y3.0916 I-0.1575 J0.0012
X-4.0042 Y3.0934 I0.0101 J0.1572 F50.
G3 X-4.0181 Y3.0881 I-0.0024 J-0.0148
G1 X-4.0729 Y3.0162 F60.
X-4.0774 Y3.0009
X-4.0814 Y2.9855
X-4.0847 Y2.97
X-4.0874 Y2.9543
X-4.0895 Y2.9386
X-4.0911 Y2.9228
X-4.092 Y2.9069
X-4.0923 Y2.891
X-4.092 Y2.8751
X-4.091 Y2.8593
X-4.0895 Y2.8435
X-4.0874 Y2.8277
X-4.0846 Y2.8121
X-4.0813 Y2.7965
X-4.0773 Y2.7811
X-4.0728 Y2.7659
X-4.0677 Y2.7509
X-4.062 Y2.736
X-4.0558 Y2.7214
X-4.049 Y2.7071
X-4.0416 Y2.693
X-4.0337 Y2.6792
X-4.0253 Y2.6657
X-4.0164 Y2.6526
G3 X-3.7678 Y2.319 I0.7237 J0.2799
G1 X-3.5625 Y2.3392
G3 X-3.5553 Y2.3659 I-0.0019 J0.0148
X-3.566 Y2.3724 I-0.0345 J-0.0447
X-3.7444 Y2.3402 I-0.0663 J-0.1428
X-3.757 Y2.3258 I0.1121 J-0.1106 F50.
G2 X-3.767 Y2.3201 I-0.0119 J0.0091
G1 X-3.8305 Y2.3142 F60.
G2 X-4.081 Y2.5636 I0.0882 J0.339
G1 X-4.0916 Y2.5801
X-4.1017 Y2.5968
X-4.1114 Y2.6138
X-4.1205 Y2.6311
X-4.1291 Y2.6486
X-4.1372 Y2.6664
X-4.1448 Y2.6845
X-4.1518 Y2.7027
X-4.1583 Y2.7212
X-4.1642 Y2.7398
X-4.1696 Y2.7586
X-4.1744 Y2.7776
X-4.1787 Y2.7966
X-4.1824 Y2.8158
X-4.1855 Y2.8352
X-4.1881 Y2.8545
X-4.1167 Y2.9582
X-4.0994 Y2.9814
X-4.0729 Y3.0162
G2 X-4.0589 Y3.0215 I0.0116 J-0.0095
X-4.0477 Y3.0122 I-0.0023 J-0.0142
G1 X-4.0456 Y3.0041
X-4.044 Y2.9959
X-4.0431 Y2.9876
X-4.0427 Y2.9792
X-4.0429 Y2.9709
X-4.0437 Y2.9625
X-4.0451 Y2.9543
X-4.0471 Y2.9462
X-4.0496 Y2.9382
X-4.0527 Y2.9304
X-4.0564 Y2.9229
X-4.0606 Y2.9156
X-4.0652 Y2.9087
X-4.0704 Y2.9021
X-4.076 Y2.8959
X-4.082 Y2.8901
X-4.0884 Y2.8848
X-4.0952 Y2.8799
X-4.1024 Y2.8755
X-4.1098 Y2.8716
X-4.1174 Y2.8683
X-4.1253 Y2.8655
X-4.1334 Y2.8632
X-4.1416 Y2.8616
X-4.1499 Y2.8605
X-4.1582 Y2.86
G2 X-4.1735 Y2.8607 I-0.0026 J0.1181 F50.
G3 X-4.1871 Y2.8547 I-0.0016 J-0.0149
G1 X-4.2272 Y2.7958 F60.
G3 X-4.132 Y2.4529 I0.3715 J-0.0815
X-4.0125 Y2.2971 I0.3431 J0.1394
G1 X-3.8305 Y2.3142
G3 X-3.8186 Y2.3232 I-0.0019 J0.0148
X-3.8315 Y2.3623 I-0.0289 J0.0121
X-3.9938 Y2.3198 I-0.0601 J-0.1017
X-4.0006 Y2.3062 I0.1022 J-0.0593 F50.
G2 X-4.0125 Y2.2971 I-0.0138 J0.0058
G1 X-4.0625 Y2.2924 F60.
G2 X-4.2889 Y2.5451 I0.0769 J0.2967
X-4.3266 Y2.6386 I0.0522 J0.0754
G1 X-4.2737 Y2.7262
X-4.2585 Y2.7497
X-4.2272 Y2.7958
G2 X-4.2135 Y2.8019 I0.0121 J-0.0088
X-4.1898 Y2.7788 I-0.0029 J-0.0266
X-4.298 Y2.6455 I-0.1171 J-0.0155
X-4.3133 Y2.6453 I-0.0089 J0.1178 F50.
G3 X-4.3266 Y2.6386 I-0.0008 J-0.0149
G1 X-4.3578 Y2.587 F60.
G3 X-4.241 Y2.2761 I0.3287 J-0.054
G1 X-4.2387 Y2.2759
X-4.0625 Y2.2924
G3 X-4.0506 Y2.3015 I-0.0019 J0.0148
X-4.0479 Y2.3149 I-0.0321 J0.0134
G1 Y2.3164
G3 X-4.068 Y2.3465 I-0.0348 J-0.0015
X-4.22 Y2.2987 I-0.0498 J-0.1071
X-4.2268 Y2.285 I0.1022 J-0.0593 F50.
G2 X-4.2387 Y2.2759 I-0.0138 J0.0058
G1 X-4.2817 Y2.2719 F60.
G2 X-4.447 Y2.4307 I0.0281 J0.1947
G1 X-4.4132 Y2.4942
X-4.3998 Y2.5174
X-4.3578 Y2.587
G2 X-4.3444 Y2.5938 I0.0125 J-0.0082
X-4.3164 Y2.5667 I-0.0016 J-0.0297
X-4.4188 Y2.4391 I-0.1177 J-0.0104
X-4.4341 Y2.4382 I-0.0152 J0.1171 F50.
G3 X-4.447 Y2.4307 I0. J-0.015
G1 X-4.4715 Y2.3847 F60.
G3 X-4.4422 Y2.2558 I0.112 J-0.0423
G1 X-4.4393 Y2.2563
X-4.4365 Y2.2574
X-4.4341 Y2.2589
X-4.4319 Y2.2609
X-4.4302 Y2.2632
X-4.4289 Y2.2657
X-4.4281 Y2.2685
X-4.4279 Y2.2713
X-4.4282 Y2.274
X-4.4292 Y2.2811
X-4.4438 Y2.3794
X-4.4445 Y2.3823
X-4.4458 Y2.385
G3 X-4.4715 Y2.3847 I-0.0128 J-0.0078 F50.
G1 X-4.5121 Y2.3086 F60.
G3 X-4.5129 Y2.2503 I0.0231 J-0.0295
X-4.4834 Y2.3082 I-0.005 J0.039
X-4.4857 Y2.3114 I-0.0144 J-0.0079
X-4.5121 Y2.3086 I-0.0122 J-0.0111 F50.
X-4.5324 Y2.2524 I0.0142 J-0.0369 F60.
G1 X-4.5317 Y2.2519
G3 X-4.5177 Y2.2498 I0.0099 J0.0187
G1 X-4.2817 Y2.2719
G3 X-4.2715 Y2.2955 I-0.0019 J0.0148
G1 X-4.2732 Y2.2979 Z-0.1672
X-4.2748 Y2.3002 Z-0.1664
X-4.2763 Y2.3023 Z-0.165
X-4.2776 Y2.3041 Z-0.1631
X-4.2787 Y2.3056 Z-0.1608
X-4.2795 Y2.3067 Z-0.1583
X-4.28 Y2.3074 Z-0.1555
X-4.2802 Y2.3077 Z-0.1525
G0 Z-0.1376
X-2.8873 Y2.4189
G1 Z-0.1525 F50.
X-2.887 Y2.4188 Z-0.1555
X-2.8862 Y2.4184 Z-0.1583
X-2.885 Y2.4178 Z-0.1608
X-2.8833 Y2.417 Z-0.1631
X-2.8812 Y2.416 Z-0.165
X-2.8789 Y2.4149 Z-0.1664
X-2.8764 Y2.4137 Z-0.1672
X-2.8737 Y2.4125 Z-0.1675
G3 X-2.8434 Y2.4065 I0.0267 J0.0563
G1 X-2.6346 Y2.4261 F60.
G2 X-2.4231 Y2.6286 I0.6368 J-0.4534
G1 X-2.413 Y2.7743
G3 X-2.42 Y2.7878 I-0.0149 J0.0009
G1 X-2.4222 Y2.7886 Z-0.1673
X-2.4243 Y2.7893 Z-0.1668
X-2.4263 Y2.79 Z-0.1659
X-2.428 Y2.7901 Z-0.1649
X-2.4301 Y2.7896 Z-0.163
X-2.4319 Y2.7892 Z-0.1608
X-2.4332 Y2.789 Z-0.1582
X-2.434 Y2.7888 Z-0.1554
X-2.4343 Y2.7887 Z-0.1526
G0 Z0.4
X-3.6325 Y-1.5247
Z0.1
G3 X-3.5198 Y-1.4379 Z0.0606 I0.0563 J0.0434 F50.
X-3.6325 Y-1.5247 Z0.0212 I-0.0563 J-0.0434
X-3.5198 Y-1.4379 Z-0.0182 I0.0563 J0.0434
X-3.6325 Y-1.5247 Z-0.0576 I-0.0563 J-0.0434
X-3.5198 Y-1.4379 Z-0.0969 I0.0563 J0.0434
X-3.6325 Y-1.5247 Z-0.1363 I-0.0563 J-0.0434
X-3.505 Y-1.4813 Z-0.1675 I0.0563 J0.0434
X-3.6473 I-0.0711 J0.
X-3.505 I0.0711 J0.
X-3.6543 Y-1.3564 I-0.0777 J0.0589 F60.
G1 X-3.6626 Y-1.3615
X-3.6705 Y-1.3671
X-3.6781 Y-1.3732
X-3.6853 Y-1.3798
X-3.692 Y-1.3868
X-3.6983 Y-1.3942
X-3.7041 Y-1.4021
X-3.7094 Y-1.4102
X-3.7141 Y-1.4187
X-3.7183 Y-1.4275
X-3.722 Y-1.4365
X-3.7251 Y-1.4457
X-3.7275 Y-1.4551
X-3.7294 Y-1.4647
X-3.7307 Y-1.4743
X-3.7313 Y-1.484
X-3.7314 Y-1.4937
X-3.7308 Y-1.5034
X-3.7296 Y-1.5131
X-3.7278 Y-1.5226
X-3.7254 Y-1.5321
X-3.7224 Y-1.5413
X-3.7189 Y-1.5504
X-3.7147 Y-1.5592
X-3.7101 Y-1.5677
X-3.7048 Y-1.5759
X-3.6991 Y-1.5838
X-3.6929 Y-1.5912
X-3.6862 Y-1.5983
X-3.6791 Y-1.605
X-3.6716 Y-1.6111
X-3.6637 Y-1.6168
X-3.6555 Y-1.622
X-3.647 Y-1.6266
X-3.6381 Y-1.6307
X-3.6291 Y-1.6343
X-3.6198 Y-1.6372
X-3.6104 Y-1.6396
X-3.6008 Y-1.6413
X-3.5912 Y-1.6425
X-3.5815 Y-1.643
X-3.5717 Y-1.6429
X-3.562 Y-1.6422
X-3.5524 Y-1.6409
X-3.5429 Y-1.639
X-3.5335 Y-1.6364
X-3.5243 Y-1.6333
X-3.5153 Y-1.6297
X-3.5065 Y-1.6254
X-3.4981 Y-1.6206
X-3.4899 Y-1.6153
X-3.4822 Y-1.6095
X-3.4748 Y-1.6032
X-3.4678 Y-1.5964
X-3.4612 Y-1.5892
X-3.4552 Y-1.5816
X-3.4496 Y-1.5736
X-3.4445 Y-1.5654
X-3.44 Y-1.5568
X-3.436 Y-1.5479
X-3.4326 Y-1.5388
X-3.4298 Y-1.5295
X-3.4239 Y-1.5206
X-3.4185 Y-1.5114
X-3.4136 Y-1.5019
X-3.4093 Y-1.4921
X-3.4055 Y-1.4821
X-3.4023 Y-1.4719
X-3.3997 Y-1.4616
X-3.3977 Y-1.4511
X-3.3963 Y-1.4405
X-3.3955 Y-1.4299
X-3.3953 Y-1.4192
X-3.3957 Y-1.4085
X-3.3967 Y-1.3979
X-3.3983 Y-1.3874
X-3.4005 Y-1.3769
X-3.4033 Y-1.3666
X-3.4067 Y-1.3565
X-3.4106 Y-1.3466
X-3.4152 Y-1.3369
X-3.4202 Y-1.3275
X-3.4258 Y-1.3184
X-3.4319 Y-1.3096
X-3.4384 Y-1.3012
X-3.4455 Y-1.2932
X-3.453 Y-1.2856
X-3.4609 Y-1.2784
X-3.4692 Y-1.2717
X-3.4778 Y-1.2655
X-3.4868 Y-1.2597
X-3.4961 Y-1.2545
X-3.5057 Y-1.2498
X-3.5156 Y-1.2457
X-3.5257 Y-1.2422
X-3.5359 Y-1.2392
X-3.5463 Y-1.2368
X-3.5568 Y-1.235
X-3.5674 Y-1.2339
X-3.5781 Y-1.2333
X-3.5888
X-3.5994 Y-1.2339
X-3.61 Y-1.2351
X-3.6205 Y-1.237
X-3.6309 Y-1.2394
X-3.6412 Y-1.2424
X-3.6512 Y-1.246
X-3.661 Y-1.2502
X-3.6706 Y-1.2549
X-3.6799 Y-1.2601
X-3.6889 Y-1.2659
X-3.6975 Y-1.2721
X-3.7058 Y-1.2789
X-3.7163 Y-1.2849
X-3.7264 Y-1.2915
X-3.7363 Y-1.2985
X-3.7457 Y-1.3061
X-3.7548 Y-1.3141
X-3.7634 Y-1.3226
X-3.7716 Y-1.3315
X-3.7793 Y-1.3408
X-3.7865 Y-1.3505
X-3.7932 Y-1.3606
X-3.7994 Y-1.371
X-3.8051 Y-1.3817
X-3.8102 Y-1.3926
X-3.8147 Y-1.4038
X-3.8187 Y-1.4153
X-3.8221 Y-1.4269
X-3.8248 Y-1.4387
X-3.827 Y-1.4506
X-3.8286 Y-1.4626
X-3.8295 Y-1.4746
X-3.8298 Y-1.4867
X-3.8295 Y-1.4988
X-3.8286 Y-1.5109
X-3.8271 Y-1.5229
X-3.8249 Y-1.5348
X-3.8222 Y-1.5466
X-3.8188 Y-1.5582
X-3.8149 Y-1.5696
X-3.8104 Y-1.5808
X-3.8053 Y-1.5918
X-3.7997 Y-1.6025
X-3.7935 Y-1.6129
X-3.7868 Y-1.623
X-3.7796 Y-1.6327
X-3.7719 Y-1.642
X-3.7637 Y-1.651
X-3.7551 Y-1.6595
X-3.7461 Y-1.6675
X-3.7367 Y-1.6751
X-3.7269 Y-1.6822
X-3.7167 Y-1.6887
X-3.7062 Y-1.6948
X-3.6955 Y-1.7003
X-3.6832 Y-1.7053
X-3.6706 Y-1.7098
X-3.6579 Y-1.7137
X-3.645 Y-1.7169
X-3.632 Y-1.7196
X-3.6189 Y-1.7217
X-3.6057 Y-1.7232
X-3.5924 Y-1.7241
X-3.5791 Y-1.7243
X-3.5658 Y-1.7239
X-3.5526 Y-1.723
X-3.5394 Y-1.7214
X-3.5262 Y-1.7192
X-3.5133 Y-1.7164
X-3.5004 Y-1.713
X-3.4877 Y-1.709
X-3.4752 Y-1.7045
X-3.463 Y-1.6993
X-3.4509 Y-1.6936
X-3.4392 Y-1.6874
X-3.4278 Y-1.6806
X-3.4167 Y-1.6733
X-3.4059 Y-1.6655
X-3.3955 Y-1.6572
X-3.3855 Y-1.6485
X-3.3759 Y-1.6392
X-3.3668 Y-1.6296
X-3.3581 Y-1.6195
X-3.3499 Y-1.6091
X-3.3421 Y-1.5983
X-3.3349 Y-1.5871
X-3.3282 Y-1.5756
X-3.322 Y-1.5639
X-3.3164 Y-1.5518
X-3.3114 Y-1.5395
X-3.3069 Y-1.527
X-3.303 Y-1.5143
X-3.2997 Y-1.5014
X-3.297 Y-1.4884
X-3.2949 Y-1.4753
X-3.2934 Y-1.4621
X-3.2925 Y-1.4488
X-3.2922 Y-1.4355
X-3.2926 Y-1.4222
X-3.2935 Y-1.4089
X-3.2951 Y-1.3957
X-3.2973 Y-1.3826
X-3.3001 Y-1.3696
X-3.3034 Y-1.3568
X-3.3074 Y-1.3441
X-3.3119 Y-1.3316
X-3.317 Y-1.3193
X-3.3227 Y-1.3073
X-3.3289 Y-1.2956
X-3.3357 Y-1.2841
X-3.343 Y-1.273
X-3.3508 Y-1.2622
X-3.359 Y-1.2518
X-3.3678 Y-1.2418
X-3.377 Y-1.2322
X-3.3866 Y-1.223
X-3.3967 Y-1.2143
X-3.4071 Y-1.2061
X-3.4179 Y-1.1984
X-3.4291 Y-1.1911
X-3.4405 Y-1.1844
X-3.4523 Y-1.1782
X-3.4643 Y-1.1726
X-3.4766 Y-1.1675
X-3.4891 Y-1.163
X-3.5018 Y-1.1591
X-3.5158 Y-1.1557
X-3.53 Y-1.1528
X-3.5442 Y-1.1505
X-3.5586 Y-1.1489
X-3.5729 Y-1.1478
X-3.5874 Y-1.1474
X-3.6018 Y-1.1476
X-3.6162 Y-1.1485
X-3.6305 Y-1.1499
X-3.6448 Y-1.152
X-3.659 Y-1.1546
X-3.673 Y-1.1579
X-3.6869 Y-1.1618
X-3.7006 Y-1.1662
X-3.7142 Y-1.1713
X-3.7274 Y-1.1769
X-3.7405 Y-1.1831
X-3.7532 Y-1.1898
X-3.7657 Y-1.1971
X-3.7778 Y-1.2049
X-3.7896 Y-1.2132
X-3.801 Y-1.222
X-3.812 Y-1.2313
X-3.8227 Y-1.2411
X-3.8329 Y-1.2513
X-3.8426 Y-1.2619
X-3.8519 Y-1.273
X-3.8607 Y-1.2844
X-3.869 Y-1.2962
X-3.8768 Y-1.3083
X-3.884 Y-1.3208
X-3.8907 Y-1.3336
X-3.8969 Y-1.3466
X-3.9025 Y-1.3599
X-3.9075 Y-1.3734
X-3.912 Y-1.3871
X-3.9158 Y-1.401
X-3.9191 Y-1.4151
X-3.9217 Y-1.4293
X-3.9238 Y-1.4435
X-3.9252 Y-1.4579
X-3.926 Y-1.4723
X-3.9262 Y-1.4867
X-3.9257 Y-1.5011
X-3.9247 Y-1.5155
X-3.923 Y-1.5299
X-3.9207 Y-1.5441
X-3.9178 Y-1.5582
X-3.9143 Y-1.5722
X-3.9102 Y-1.5861
X-3.9056 Y-1.5997
X-3.9003 Y-1.6131
X-3.8945 Y-1.6263
X-3.8881 Y-1.6393
X-3.8812 Y-1.6519
X-3.8737 Y-1.6642
X-3.8657 Y-1.6762
X-3.8572 Y-1.6879
X-3.8482 Y-1.6992
X-3.8387 Y-1.71
X-3.8288 Y-1.7205
X-3.8184 Y-1.7305
X-3.8076 Y-1.7401
X-3.7964 Y-1.7492
X-3.7849 Y-1.7578
X-3.7729 Y-1.7659
X-3.7607 Y-1.7735
X-3.7481 Y-1.7806
X-3.7352 Y-1.7871
X-3.7221 Y-1.7931
X-3.7087 Y-1.7984
X-3.6951 Y-1.8033
G3 X-3.4708 Y-1.0647 I0.1122 J0.3693
X-3.6891 Y-1.0629 I-0.1122 J-0.3693
X-4.0176 Y-1.455 I0.087 J-0.4066
G1 X-4.0182 Y-1.4716
Y-1.4883
X-4.0176 Y-1.5049
X-4.0163 Y-1.5215
X-4.0145 Y-1.5381
X-4.012 Y-1.5545
X-4.0089 Y-1.5709
X-4.0052 Y-1.5871
X-4.0009 Y-1.6032
X-3.996 Y-1.6191
X-3.9905 Y-1.6348
X-3.9845 Y-1.6503
X-3.9778 Y-1.6656
X-3.9706 Y-1.6806
X-3.9629 Y-1.6953
X-3.9546 Y-1.7098
X-3.9457 Y-1.7239
X-3.9364 Y-1.7377
X-3.9265 Y-1.7511
X-3.9161 Y-1.7641
X-3.9053 Y-1.7767
X-3.894 Y-1.789
X-3.8823 Y-1.8008
X-3.8701 Y-1.8121
X-3.8575 Y-1.823
X-3.8445 Y-1.8334
X-3.8311 Y-1.8433
X-3.8174 Y-1.8527
X-3.8033 Y-1.8616
X-3.7889 Y-1.87
X-3.7742 Y-1.8778
X-3.7592 Y-1.8851
X-3.744 Y-1.8918
X-3.7285 Y-1.8979
X-3.7128 Y-1.9034
X-3.6969 Y-1.9084
X-3.6808 Y-1.9128
X-3.6646 Y-1.9165
X-3.6483 Y-1.9197
X-3.6318 Y-1.9222
X-3.6153 Y-1.9241
X-3.5987 Y-1.9254
X-3.582 Y-1.9261
X-3.5654 Y-1.9262
X-3.5487 Y-1.9256
X-3.5321 Y-1.9244
X-3.5156 Y-1.9226
X-3.4991 Y-1.9202
X-3.4827 Y-1.9172
X-3.4665 Y-1.9135
X-3.4504 Y-1.9093
X-3.4345 Y-1.9045
X-3.4187 Y-1.899
X-3.4032 Y-1.893
X-3.3879 Y-1.8864
X-3.3729 Y-1.8793
X-3.3581 Y-1.8716
X-3.3437 Y-1.8633
X-3.3295 Y-1.8545
X-3.3157 Y-1.8452
X-3.3023 Y-1.8354
X-3.2892 Y-1.8251
X-3.2765 Y-1.8143
X-3.2643 Y-1.803
X-3.2524 Y-1.7913
X-3.241 Y-1.7792
X-3.2301 Y-1.7666
X-3.2196 Y-1.7537
X-3.2097 Y-1.7403
X-3.2002 Y-1.7266
X-3.1913 Y-1.7126
X-3.1829 Y-1.6982
X-3.175 Y-1.6835
X-3.1677 Y-1.6686
X-3.1609 Y-1.6534
X-3.1548 Y-1.6379
X-3.1492 Y-1.6222
X-3.1441 Y-1.6063
X-3.1397 Y-1.5903
G3 X-3.1052 Y-1.3815 I-0.3345 J0.1625
G1 X-3.1825 Y-1.1949
X-3.1906 Y-1.1717
X-3.1996 Y-1.1574
X-3.2091 Y-1.1435
X-3.2192 Y-1.1299
X-3.2297 Y-1.1167
X-3.2407 Y-1.1039
X-3.2521 Y-1.0915
X-3.264 Y-1.0795
X-3.2763 Y-1.068
X-3.2891 Y-1.0569
X-3.3022 Y-1.0463
X-3.3157 Y-1.0361
X-3.3295 Y-1.0265
X-3.3437 Y-1.0173
X-3.3582 Y-1.0087
X-3.373 Y-1.0006
X-3.3881 Y-0.993
X-3.4035 Y-0.986
X-3.4191 Y-0.9795
X-3.4349 Y-0.9737
X-3.4509 Y-0.9684
X-3.4671 Y-0.9636
X-3.4835 Y-0.9595
X-3.5 Y-0.9559
X-3.5166 Y-0.953
X-3.5333 Y-0.9506
X-3.5501 Y-0.9489
X-3.5669 Y-0.9478
X-3.5838 Y-0.9472
X-3.6007 Y-0.9473
X-3.6175 Y-0.948
X-3.6344 Y-0.9493
X-3.6511 Y-0.9512
X-3.6678 Y-0.9537
X-3.6844 Y-0.9568
X-3.7009 Y-0.9606
X-3.7172 Y-0.9649
X-3.7334 Y-0.9698
X-3.7493 Y-0.9752
X-3.7651 Y-0.9813
X-3.7806 Y-0.9879
X-4.0688 Y-1.3341
G3 X-3.9697 Y-1.8533 I0.4178 J-0.1893
X-3.8798 Y-1.9282 I0.147 J0.0851
G1 X-3.4234 Y-1.9709
G3 X-3.066 Y-1.6893 I-0.064 J0.4487
X-3.0211 Y-1.555 I-0.2751 J0.1666
G1 X-3.0849 Y-1.4269
X-3.096 Y-1.4037
X-3.1052 Y-1.3815
G3 X-3.1174 Y-1.3728 I-0.0136 J-0.0062
X-3.1412 Y-1.3876 I-0.0022 J-0.0229
X-3.0491 Y-1.5458 I0.1106 J-0.0415
X-3.0339 Y-1.5472 I0.0184 J0.1167 F50.
G2 X-3.0211 Y-1.555 I-0.0004 J-0.015
G1 X-2.9925 Y-1.6125 F60.
X-2.9895 Y-1.618
G2 X-3.1787 Y-1.9705 I-0.3472 J-0.0407
X-3.1977 Y-1.992 I-0.02 J-0.0015
G1 X-3.4234 Y-1.9709
G2 X-3.4352 Y-1.9618 I0.0019 J0.0148
X-3.4046 Y-1.8943 I0.0466 J0.0195
X-3.2162 Y-1.9692 I0.0497 J-0.1494
X-3.2096 Y-1.983 I-0.1387 J-0.0746 F50.
G3 X-3.1977 Y-1.992 I0.0138 J0.0058
G1 X-3.1322 Y-1.9982 F60.
G3 X-2.9016 Y-1.7683 I-0.0684 J0.2993
G1 X-2.9826 Y-1.6305
X-2.9895 Y-1.618
G3 X-3.0025 Y-1.6107 I-0.0129 J-0.0077
X-3.0378 Y-1.6477 I0.0004 J-0.0357
X-2.9301 Y-1.7611 I0.118 J0.0043
X-2.9148 Y-1.7614 I0.0103 J0.1177 F50.
G2 X-2.9016 Y-1.7683 I0.0006 J-0.015
G1 X-2.8772 Y-1.8097 F60.
G2 X-2.9498 Y-2.0152 I-0.182 J-0.0512
G1 X-3.1322 Y-1.9982
G2 X-3.1441 Y-1.9891 I0.0019 J0.0148
X-3.1314 Y-1.9505 I0.0286 J0.012
X-2.9685 Y-1.9925 I0.0608 J-0.1013
X-2.9617 Y-2.0062 I-0.1022 J-0.0593 F50.
G3 X-2.9498 Y-2.0152 I0.0138 J0.0058
G1 X-2.9002 Y-2.0199 F60.
G3 X-2.793 Y-1.9326 I-0.0077 J0.1191
G1 X-2.7948 Y-1.9303
X-2.797 Y-1.9284
X-2.7995 Y-1.927
X-2.8022 Y-1.926
X-2.805 Y-1.9256
X-2.8078
X-2.8105 Y-1.9262
X-2.813 Y-1.9272
X-2.8153 Y-1.9287
X-2.8217 Y-1.9332
X-2.9069 Y-1.9928
X-2.9088 Y-1.9944
X-2.9105 Y-1.9963
G3 X-2.9002 Y-2.0199 I0.0122 J-0.0087 F50.
G1 X-2.8202 Y-2.0274 F60.
G3 X-2.751 Y-1.9959 I0.0218 J0.044
X-2.7651 Y-1.99 I-0.012 J-0.0089
G1 X-2.7798 Y-1.992
X-2.8203 Y-1.9977
G3 X-2.8304 Y-2.0038 I0.0021 J-0.0148
X-2.8202 Y-2.0274 I0.0122 J-0.0087 F50.
X-2.7386 Y-2.031 I0.0439 J0.0667 F60.
G1 X-2.7381 Y-2.0306
X-2.7365 Y-2.0287
X-2.7362 Y-2.028
G3 X-2.7434 Y-2.007 I-0.0194 J0.0051
G1 X-2.8666 Y-1.8272
X-2.8704 Y-1.8213
X-2.8772 Y-1.8097
G3 X-2.9029 Y-1.8105 I-0.0126 J-0.008
G1 X-2.9043 Y-1.813 Z-0.1672
X-2.9057 Y-1.8155 Z-0.1664
X-2.907 Y-1.8177 Z-0.165
X-2.9081 Y-1.8197 Z-0.1631
X-2.909 Y-1.8213 Z-0.1608
X-2.9097 Y-1.8225 Z-0.1583
X-2.9101 Y-1.8233 Z-0.1555
X-2.9102 Y-1.8235 Z-0.1525
G0 Z-0.1376
X-3.8359 Y-1.9158
G1 Z-0.1525 F50.
X-3.8361 Y-1.916 Z-0.1555
X-3.8369 Y-1.9163 Z-0.1583
X-3.8382 Y-1.9169 Z-0.1608
X-3.8398 Y-1.9177 Z-0.1631
X-3.8419 Y-1.9187 Z-0.165
X-3.8442 Y-1.9198 Z-0.1664
X-3.8468 Y-1.921 Z-0.1672
X-3.8494 Y-1.9223 Z-0.1675
G2 X-3.8798 Y-1.9282 I-0.0267 J0.0563
G1 X-3.9801 Y-1.9188 F60.
G2 X-4.1988 Y-1.6227 I0.1404 J0.3324
X-4.2106 Y-1.5052 I0.1154 J0.071
G1 X-4.0688 Y-1.3341
G2 X-4.0546 Y-1.3294 I0.0112 J-0.0099
X-4.0158 Y-1.3973 I-0.0105 J-0.051
X-4.1813 Y-1.5028 I-0.1489 J0.0511
X-4.1964 Y-1.5005 I0.0166 J0.1566 F50.
G3 X-4.2106 Y-1.5052 I-0.003 J-0.0147
G1 X-4.2502 Y-1.5529 F60.
G3 X-4.1734 Y-1.8922 I0.2669 J-0.1179
G1 X-4.1764 Y-1.8992
X-4.1744 Y-1.9003
X-4.1722 Y-1.9008
X-3.9801 Y-1.9188
G3 X-3.9668 Y-1.9121 I0.0009 J0.0149
X-3.968 Y-1.8854 I-0.019 J0.0125
X-4.1496 Y-1.8819 I-0.0923 J-0.0737
X-4.1588 Y-1.8941 I0.0894 J-0.0772 F50.
G2 X-4.1722 Y-1.9008 I-0.0125 J0.0082
G1 X-4.2249 Y-1.8959 F60.
G2 X-4.3687 Y-1.6959 I0.0732 J0.2044
G1 X-4.2502 Y-1.5529
G2 X-4.236 Y-1.5482 I0.0112 J-0.0099
X-4.2127 Y-1.5773 I-0.0059 J-0.0286
X-4.3394 Y-1.6933 I-0.1181 J0.0018
X-4.3545 Y-1.6912 I0.0086 J0.1178 F50.
G3 X-4.3687 Y-1.6959 I-0.003 J-0.0147
G1 X-4.3957 Y-1.7285 F60.
X-4.4005 Y-1.7357
X-4.4048 Y-1.7432
X-4.4085 Y-1.751
X-4.4117 Y-1.7591
X-4.4144 Y-1.7673
X-4.4164 Y-1.7757
X-4.4179 Y-1.7842
X-4.4188 Y-1.7928
X-4.4192 Y-1.8014
X-4.4189 Y-1.81
X-4.418 Y-1.8186
X-4.4166 Y-1.8272
X-4.4146 Y-1.8356
X-4.412 Y-1.8438
X-4.4088 Y-1.8518
X-4.4052 Y-1.8597
X-4.4009 Y-1.8672
X-4.3962 Y-1.8744
X-4.391 Y-1.8813
X-4.3881
X-4.3852 Y-1.8808
X-4.3825 Y-1.8797
X-4.3801 Y-1.8782
X-4.378 Y-1.8762
X-4.3763 Y-1.874
X-4.3751 Y-1.8715
X-4.3743 Y-1.8688
X-4.3741 Y-1.866
X-4.3738 Y-1.859
X-4.3696 Y-1.739
X-4.3698 Y-1.7361
X-4.3705 Y-1.7334
G3 X-4.3957 Y-1.7285 I-0.0141 J-0.0051 F50.
G1 X-4.4611 Y-1.8074 F60.
G3 X-4.4707 Y-1.8729 I0.0364 J-0.0388
X-4.4564 Y-1.8645 I0.0009 J0.0149
G1 X-4.4505 Y-1.8525
X-4.4364 Y-1.8239
G3 X-4.4358 Y-1.8122 I-0.0134 J0.0066
X-4.4611 Y-1.8074 I-0.0141 J-0.0051 F50.
X-4.5 Y-1.8641 I0.0131 J-0.0507 F60.
G1 X-4.4986 Y-1.8663
G3 X-4.4847 Y-1.8716 I0.0136 J0.0148
G1 X-4.2249 Y-1.8959
G3 X-4.2104 Y-1.8746 I0.0009 J0.0149
G1 X-4.2117 Y-1.872 Z-0.1672
X-4.2129 Y-1.8694 Z-0.1664
X-4.2139 Y-1.8671 Z-0.165
X-4.2149 Y-1.865 Z-0.1631
X-4.2157 Y-1.8633 Z-0.1608
X-4.2163 Y-1.8621 Z-0.1583
X-4.2166 Y-1.8613 Z-0.1555
X-4.2168 Y-1.861 Z-0.1525
G0 Z-0.1376
X-3.7956 Y-1.0301
G1 Z-0.1525 F50.
Y-1.0298 Z-0.1555
X-3.7954 Y-1.029 Z-0.1583
X-3.7952 Y-1.0276 Z-0.1608
X-3.7949 Y-1.0258 Z-0.1631
X-3.7946 Y-1.0235 Z-0.165
X-3.7942 Y-1.021 Z-0.1664
X-3.7937 Y-1.0182 Z-0.1672
X-3.7933 Y-1.0153 Z-0.1675
G2 X-3.7811 Y-0.9869 I0.0616 J-0.0097
G1 X-3.7227 Y-0.9165 F60.
G2 X-3.3515 Y-0.9025 I0.1962 J-0.2771
X-3.2624 Y-0.9542 I-0.0075 J-0.1157
G1 X-3.2602 Y-0.9629
X-3.2528 Y-0.9861
X-3.1906 Y-1.1717
G2 X-3.1941 Y-1.1862 I-0.0144 J-0.0043
X-3.2836 Y-1.1824 I-0.0431 J0.0408
X-3.2776 Y-0.9793 I0.1232 J0.098
X-3.2669 Y-0.9684 I0.1173 J-0.1051 F50.
G3 X-3.2624 Y-0.9542 I-0.0101 J0.011
G1 X-3.2783 Y-0.8933 F60.
G3 X-3.5881 Y-0.7657 I-0.241 J-0.1451
G1 X-3.5918 Y-0.7604
X-3.5938 Y-0.7614
X-3.5954 Y-0.7629
X-3.7227 Y-0.9165
G3 X-3.7247 Y-0.9313 I0.0119 J-0.0091
X-3.7114 Y-0.9406 I0.0139 J0.0057
X-3.5886 Y-0.8226 I0.0047 J0.118
X-3.5926 Y-0.7922 I-0.1181 J0.
X-3.5974 Y-0.7778 I-0.1141 J-0.0303 F50.
G2 X-3.5954 Y-0.7629 I0.0139 J0.0057
G1 X-3.5625 Y-0.7233 F60.
G2 X-3.3219 Y-0.7195 I0.1229 J-0.1652
G1 X-3.3198 Y-0.7309
X-3.3144 Y-0.7541
X-3.2783 Y-0.8933
G2 X-3.2827 Y-0.9075 I-0.0146 J-0.0033
X-3.3413 Y-0.9048 I-0.0279 J0.0304
X-3.3386 Y-0.7437 I0.0877 J0.0791
X-3.3274 Y-0.7334 I0.085 J-0.082 F50.
G3 X-3.3219 Y-0.7195 I-0.0093 J0.0117
G1 X-3.3296 Y-0.6782 F60.
G3 X-3.4572 Y-0.5947 I-0.1185 J-0.0418
G1 X-3.4588 Y-0.5971
X-3.4599 Y-0.5998
X-3.4606 Y-0.6026
X-3.4607 Y-0.6054
X-3.4603 Y-0.6082
X-3.4594 Y-0.6109
X-3.4581 Y-0.6133
X-3.4563 Y-0.6154
X-3.4542 Y-0.6172
X-3.4485 Y-0.6215
X-3.3534 Y-0.6925
X-3.3515 Y-0.6936
X-3.3495 Y-0.6945
G3 X-3.3296 Y-0.6782 I0.0051 J0.0141 F50.
G1 X-3.3458 Y-0.5916 F60.
G3 X-3.4033 Y-0.5311 I-0.0646 J-0.0038
X-3.4044 Y-0.5477 I0.0119 J-0.0091
G1 X-3.3978 Y-0.5592
X-3.3735 Y-0.6013
G3 X-3.3656 Y-0.608 I0.013 J0.0075
X-3.3458 Y-0.5916 I0.0051 J0.0141 F50.
G1 X-3.3588 Y-0.522 F60.
X-3.3614 Y-0.5122
X-3.364 Y-0.5049
X-3.3644 Y-0.5042
X-3.3661 Y-0.5023
X-3.3666 Y-0.5018
X-3.3692 Y-0.5005
X-3.3721 Y-0.5003
X-3.3726
X-3.3755 Y-0.5012
X-3.3846 Y-0.5087
X-3.385 Y-0.5091
X-3.5625 Y-0.7233
G3 X-3.5644 Y-0.7384 I0.0119 J-0.0091
G1 X-3.563 Y-0.7402 Z-0.1673
X-3.5617 Y-0.7421 Z-0.1668
X-3.5604 Y-0.7438 Z-0.1659
X-3.5585 Y-0.7448 Z-0.1645
X-3.5569 Y-0.7456 Z-0.1628
X-3.5555 Y-0.7464 Z-0.1609
X-3.5544 Y-0.7469 Z-0.1587
X-3.5537 Y-0.7471 Z-0.1567
X-3.5533 Y-0.7472 Z-0.1546
X-3.5531 Z-0.1525
G0 Z0.4
X-3.6325 Y1.4379
Z0.1
G3 X-3.5198 Y1.5247 Z0.0606 I0.0563 J0.0434 F50.
X-3.6325 Y1.4379 Z0.0212 I-0.0563 J-0.0434
X-3.5198 Y1.5247 Z-0.0182 I0.0563 J0.0434
X-3.6325 Y1.4379 Z-0.0576 I-0.0563 J-0.0434
X-3.5198 Y1.5247 Z-0.0969 I0.0563 J0.0434
X-3.6325 Y1.4379 Z-0.1363 I-0.0563 J-0.0434
X-3.505 Y1.4813 Z-0.1675 I0.0563 J0.0434
X-3.6472 I-0.0711 J0.
X-3.505 I0.0711 J0.
X-3.6543 Y1.6062 I-0.0777 J0.0589 F60.
G1 X-3.6626 Y1.6011
X-3.6705 Y1.5954
X-3.6781 Y1.5893
X-3.6853 Y1.5828
X-3.692 Y1.5757
X-3.6983 Y1.5683
X-3.7041 Y1.5605
X-3.7094 Y1.5523
X-3.7141 Y1.5439
X-3.7183 Y1.5351
X-3.722 Y1.5261
X-3.725 Y1.5168
X-3.7275 Y1.5074
X-3.7294 Y1.4979
X-3.7307 Y1.4883
X-3.7313 Y1.4785
X-3.7314 Y1.4688
X-3.7308 Y1.4591
X-3.7296 Y1.4495
X-3.7278 Y1.4399
X-3.7254 Y1.4305
X-3.7224 Y1.4212
X-3.7189 Y1.4122
X-3.7147 Y1.4034
X-3.71 Y1.3949
X-3.7048 Y1.3866
X-3.6991 Y1.3788
X-3.6929 Y1.3713
X-3.6862 Y1.3642
X-3.6791 Y1.3576
X-3.6716 Y1.3514
X-3.6637 Y1.3457
X-3.6555 Y1.3405
X-3.647 Y1.3359
X-3.6381 Y1.3318
X-3.6291 Y1.3283
X-3.6198 Y1.3253
X-3.6104 Y1.323
X-3.6008 Y1.3212
X-3.5912 Y1.3201
X-3.5814 Y1.3196
X-3.5717
X-3.562 Y1.3203
X-3.5524 Y1.3217
X-3.5429 Y1.3236
X-3.5335 Y1.3261
X-3.5243 Y1.3292
X-3.5153 Y1.3329
X-3.5065 Y1.3371
X-3.4981 Y1.3419
X-3.4899 Y1.3473
X-3.4821 Y1.3531
X-3.4747 Y1.3594
X-3.4678 Y1.3662
X-3.4612 Y1.3733
X-3.4552 Y1.3809
X-3.4496 Y1.3889
X-3.4445 Y1.3972
X-3.44 Y1.4058
X-3.436 Y1.4147
X-3.4326 Y1.4238
X-3.4298 Y1.4331
X-3.4239 Y1.442
X-3.4185 Y1.4512
X-3.4136 Y1.4607
X-3.4093 Y1.4704
X-3.4055 Y1.4804
X-3.4023 Y1.4906
X-3.3997 Y1.501
X-3.3977 Y1.5115
X-3.3963 Y1.522
X-3.3955 Y1.5327
X-3.3953 Y1.5434
X-3.3957 Y1.554
X-3.3967 Y1.5646
X-3.3983 Y1.5752
X-3.4005 Y1.5856
X-3.4033 Y1.5959
X-3.4067 Y1.6061
X-3.4106 Y1.616
X-3.4151 Y1.6257
X-3.4202 Y1.6351
X-3.4258 Y1.6442
X-3.4319 Y1.6529
X-3.4384 Y1.6613
X-3.4455 Y1.6694
X-3.4529 Y1.677
X-3.4609 Y1.6842
X-3.4691 Y1.6909
X-3.4778 Y1.6971
X-3.4868 Y1.7028
X-3.4961 Y1.708
X-3.5057 Y1.7127
X-3.5156 Y1.7168
X-3.5256 Y1.7204
X-3.5359 Y1.7233
X-3.5463 Y1.7257
X-3.5568 Y1.7275
X-3.5674 Y1.7287
X-3.5781 Y1.7293
X-3.5888
X-3.5994 Y1.7286
X-3.61 Y1.7274
X-3.6205 Y1.7256
X-3.6309 Y1.7231
X-3.6411 Y1.7201
X-3.6512 Y1.7165
X-3.661 Y1.7124
X-3.6706 Y1.7077
X-3.6799 Y1.7024
X-3.6889 Y1.6967
X-3.6975 Y1.6904
X-3.7058 Y1.6837
X-3.7163 Y1.6776
X-3.7264 Y1.6711
X-3.7363 Y1.664
X-3.7457 Y1.6565
X-3.7548 Y1.6484
X-3.7634 Y1.6399
X-3.7716 Y1.631
X-3.7793 Y1.6217
X-3.7865 Y1.612
X-3.7932 Y1.602
X-3.7994 Y1.5916
X-3.8051 Y1.5809
X-3.8102 Y1.5699
X-3.8147 Y1.5587
X-3.8187 Y1.5473
X-3.8221 Y1.5357
X-3.8248 Y1.5239
X-3.827 Y1.512
X-3.8286 Y1.5
X-3.8295 Y1.4879
X-3.8298 Y1.4758
X-3.8295 Y1.4637
X-3.8286 Y1.4517
X-3.8271 Y1.4397
X-3.8249 Y1.4278
X-3.8222 Y1.416
X-3.8188 Y1.4044
X-3.8149 Y1.3929
X-3.8104 Y1.3817
X-3.8053 Y1.3707
X-3.7997 Y1.36
X-3.7935 Y1.3496
X-3.7868 Y1.3396
X-3.7796 Y1.3298
X-3.7719 Y1.3205
X-3.7637 Y1.3116
X-3.7551 Y1.3031
X-3.7461 Y1.295
X-3.7367 Y1.2875
X-3.7269 Y1.2804
X-3.7167 Y1.2738
X-3.7062 Y1.2678
X-3.6955 Y1.2623
X-3.6832 Y1.2572
X-3.6706 Y1.2528
X-3.6579 Y1.2489
X-3.645 Y1.2456
X-3.632 Y1.2429
X-3.6189 Y1.2408
X-3.6057 Y1.2394
X-3.5924 Y1.2385
X-3.5791 Y1.2382
X-3.5658 Y1.2386
X-3.5526 Y1.2396
X-3.5393 Y1.2412
X-3.5262 Y1.2434
X-3.5132 Y1.2462
X-3.5004 Y1.2495
X-3.4877 Y1.2535
X-3.4752 Y1.2581
X-3.4629 Y1.2632
X-3.4509 Y1.2689
X-3.4392 Y1.2752
X-3.4278 Y1.2819
X-3.4166 Y1.2892
X-3.4059 Y1.297
X-3.3955 Y1.3053
X-3.3855 Y1.3141
X-3.3759 Y1.3233
X-3.3668 Y1.3329
X-3.3581 Y1.343
X-3.3498 Y1.3535
X-3.3421 Y1.3643
X-3.3349 Y1.3754
X-3.3282 Y1.3869
X-3.322 Y1.3987
X-3.3164 Y1.4107
X-3.3114 Y1.423
X-3.3069 Y1.4356
X-3.303 Y1.4483
X-3.2997 Y1.4611
X-3.297 Y1.4742
X-3.2949 Y1.4873
X-3.2934 Y1.5005
X-3.2925 Y1.5138
X-3.2922 Y1.5271
X-3.2926 Y1.5403
X-3.2935 Y1.5536
X-3.2951 Y1.5668
X-3.2973 Y1.5799
X-3.3 Y1.5929
X-3.3034 Y1.6058
X-3.3074 Y1.6185
X-3.3119 Y1.631
X-3.317 Y1.6432
X-3.3227 Y1.6552
X-3.3289 Y1.667
X-3.3357 Y1.6784
X-3.343 Y1.6896
X-3.3508 Y1.7003
X-3.359 Y1.7107
X-3.3678 Y1.7207
X-3.377 Y1.7303
X-3.3866 Y1.7395
X-3.3967 Y1.7482
X-3.4071 Y1.7564
X-3.4179 Y1.7642
X-3.429 Y1.7714
X-3.4405 Y1.7781
X-3.4523 Y1.7843
X-3.4643 Y1.79
X-3.4766 Y1.795
X-3.4891 Y1.7995
X-3.5018 Y1.8034
X-3.5158 Y1.8069
X-3.53 Y1.8098
X-3.5442 Y1.812
X-3.5585 Y1.8137
X-3.5729 Y1.8147
X-3.5873 Y1.8151
X-3.6018 Y1.8149
X-3.6162 Y1.8141
X-3.6305 Y1.8127
X-3.6448 Y1.8106
X-3.659 Y1.8079
X-3.673 Y1.8047
X-3.6869 Y1.8008
X-3.7006 Y1.7963
X-3.7142 Y1.7913
X-3.7274 Y1.7857
X-3.7405 Y1.7795
X-3.7532 Y1.7727
X-3.7657 Y1.7655
X-3.7778 Y1.7577
X-3.7896 Y1.7494
X-3.801 Y1.7405
X-3.812 Y1.7312
X-3.8227 Y1.7215
X-3.8329 Y1.7113
X-3.8426 Y1.7006
X-3.8519 Y1.6896
X-3.8607 Y1.6782
X-3.869 Y1.6664
X-3.8768 Y1.6542
X-3.884 Y1.6418
X-3.8907 Y1.629
X-3.8969 Y1.616
X-3.9025 Y1.6027
X-3.9075 Y1.5891
X-3.912 Y1.5754
X-3.9158 Y1.5615
X-3.9191 Y1.5475
X-3.9217 Y1.5333
X-3.9237 Y1.519
X-3.9252 Y1.5047
X-3.926 Y1.4902
X-3.9261 Y1.4758
X-3.9257 Y1.4614
X-3.9247 Y1.447
X-3.923 Y1.4327
X-3.9207 Y1.4185
X-3.9178 Y1.4043
X-3.9143 Y1.3903
X-3.9102 Y1.3765
X-3.9056 Y1.3629
X-3.9003 Y1.3494
X-3.8945 Y1.3362
X-3.8881 Y1.3233
X-3.8811 Y1.3107
X-3.8737 Y1.2983
X-3.8657 Y1.2863
X-3.8572 Y1.2747
X-3.8482 Y1.2634
X-3.8387 Y1.2525
X-3.8288 Y1.242
X-3.8184 Y1.232
X-3.8076 Y1.2224
X-3.7964 Y1.2133
X-3.7849 Y1.2047
X-3.7729 Y1.1966
X-3.7607 Y1.189
X-3.7481 Y1.182
X-3.7352 Y1.1754
X-3.7221 Y1.1695
X-3.7087 Y1.1641
X-3.6951 Y1.1593
G3 X-3.4708 Y1.8978 I0.1122 J0.3693
X-3.689 Y1.8996 I-0.1122 J-0.3693
X-4.0175 Y1.5076 I0.087 J-0.4066
G1 X-4.0182 Y1.4909
Y1.4743
X-4.0176 Y1.4576
X-4.0163 Y1.441
X-4.0145 Y1.4245
X-4.012 Y1.408
X-4.0089 Y1.3917
X-4.0052 Y1.3754
X-4.0009 Y1.3594
X-3.996 Y1.3434
X-3.9905 Y1.3277
X-3.9845 Y1.3122
X-3.9778 Y1.2969
X-3.9706 Y1.2819
X-3.9629 Y1.2672
X-3.9546 Y1.2528
X-3.9457 Y1.2387
X-3.9364 Y1.2249
X-3.9265 Y1.2115
X-3.9161 Y1.1984
X-3.9053 Y1.1858
X-3.894 Y1.1736
X-3.8822 Y1.1618
X-3.8701 Y1.1504
X-3.8575 Y1.1395
X-3.8445 Y1.1291
X-3.8311 Y1.1192
X-3.8174 Y1.1098
X-3.8033 Y1.1009
X-3.7889 Y1.0926
X-3.7742 Y1.0847
X-3.7592 Y1.0775
X-3.744 Y1.0708
X-3.7285 Y1.0646
X-3.7128 Y1.0591
X-3.6969 Y1.0541
X-3.6808 Y1.0498
X-3.6646 Y1.046
X-3.6482 Y1.0429
X-3.6318 Y1.0403
X-3.6153 Y1.0384
X-3.5987 Y1.0371
X-3.582 Y1.0364
X-3.5654
X-3.5487 Y1.0369
X-3.5321 Y1.0381
X-3.5156 Y1.0399
X-3.4991 Y1.0423
X-3.4827 Y1.0454
X-3.4665 Y1.049
X-3.4504 Y1.0532
X-3.4345 Y1.0581
X-3.4187 Y1.0635
X-3.4032 Y1.0695
X-3.3879 Y1.0761
X-3.3729 Y1.0833
X-3.3581 Y1.091
X-3.3436 Y1.0992
X-3.3295 Y1.108
X-3.3157 Y1.1173
X-3.3023 Y1.1272
X-3.2892 Y1.1375
X-3.2765 Y1.1483
X-3.2642 Y1.1595
X-3.2524 Y1.1712
X-3.241 Y1.1834
X-3.2301 Y1.1959
X-3.2196 Y1.2089
X-3.2097 Y1.2222
X-3.2002 Y1.2359
X-3.1913 Y1.25
X-3.1829 Y1.2643
X-3.175 Y1.279
X-3.1677 Y1.294
X-3.1609 Y1.3092
X-3.1547 Y1.3246
X-3.1491 Y1.3403
X-3.1441 Y1.3562
X-3.1397 Y1.3723
X-3.1336 Y1.3875
X-3.128 Y1.403
X-3.1231 Y1.4186
X-3.1186 Y1.4344
X-3.1148 Y1.4504
X-3.1116 Y1.4665
X-3.1089 Y1.4827
X-3.1068 Y1.499
X-3.1054 Y1.5154
X-3.1045 Y1.5318
X-3.1043 Y1.5482
X-3.1046 Y1.5646
X-3.1055 Y1.581
X-3.1071 Y1.5974
X-3.1092 Y1.6137
X-3.1119 Y1.6299
X-3.1152 Y1.646
X-3.1192 Y1.6619
X-3.1236 Y1.6777
X-3.1287 Y1.6934
X-3.1343 Y1.7088
X-3.1405 Y1.724
X-3.1473 Y1.739
X-3.1546 Y1.7537
X-3.1624 Y1.7682
X-3.1707 Y1.7823
X-3.1796 Y1.7961
X-3.1889 Y1.8097
X-3.1988 Y1.8228
X-3.2091 Y1.8356
X-3.2199 Y1.848
X-3.2311 Y1.86
X-3.2427 Y1.8716
X-3.2548 Y1.8827
X-3.2673 Y1.8934
X-3.2801 Y1.9036
X-3.2933 Y1.9134
X-3.3069 Y1.9226
X-3.3208 Y1.9314
X-3.335 Y1.9396
X-3.3495 Y1.9474
G3 X-3.3986 Y1.9732 I-0.0528 J-0.0407
G1 X-3.8177 Y1.934
G3 X-4.1155 Y1.4379 I0.1703 J-0.4396
X-4.1066 Y1.3797 I0.0769 J-0.018
G1 X-3.8177 Y1.0312
G3 X-3.3636 Y0.9832 I0.2643 J0.328
X-3.2244 Y1.0708 I-0.0946 J0.3046
G1 X-3.1906 Y1.1717
X-3.1825 Y1.1949
X-3.096 Y1.4037
X-3.0849 Y1.4269
X-3.0387 Y1.5197
G3 X-3.1833 Y1.9484 I-0.4159 J0.0984
X-3.234 Y1.9886 I-0.059 J-0.0222
G1 X-3.3986 Y1.9732
G3 X-3.4105 Y1.9641 I0.0019 J-0.0148
X-3.3838 Y1.9106 I0.0364 J-0.0152
X-3.2527 Y1.9659 I0.0289 J0.1145
X-3.2459 Y1.9796 I-0.1022 J0.0593 F50.
G2 X-3.234 Y1.9886 I0.0138 J-0.0058
G1 X-3.1682 Y1.9948 F60.
G2 X-2.935 Y1.7136 I-0.1 J-0.3202
G1 X-2.9353 Y1.7115
X-2.9362 Y1.7095
X-2.9826 Y1.6305
X-2.9925 Y1.6125
X-3.0387 Y1.5197
G2 X-3.0514 Y1.5119 I-0.0132 J0.0071
X-3.1088 Y1.5832 I-0.0016 J0.0575
X-2.9647 Y1.7025 I0.1528 J-0.038
X-2.9494 Y1.7026 I0.0087 J-0.1572 F50.
G3 X-2.9362 Y1.7095 I0.0006 J0.015
G1 X-2.9045 Y1.7633 F60.
G3 X-2.9941 Y2.0111 I-0.2422 J0.0525
G1 X-3.1682 Y1.9948
G3 X-3.1801 Y1.9857 I0.0019 J-0.0148
X-3.1609 Y1.9388 I0.0331 J-0.0139
X-3.0128 Y1.9884 I0.046 J0.1088
X-3.006 Y2.002 I-0.1022 J0.0593 F50.
G2 X-2.9941 Y2.0111 I0.0138 J-0.0058
G1 X-2.9466 Y2.0155 F60.
G2 X-2.8169 Y1.8997 I-0.0165 J-0.1491
G1 X-2.8666 Y1.8272
X-2.8704 Y1.8213
X-2.9045 Y1.7633
G2 X-2.9178 Y1.7564 I-0.0126 J0.008
X-2.9565 Y1.8114 I0.0018 J0.0424
X-2.8459 Y1.8944 I0.1128 J-0.0351
X-2.8306 Y1.8937 I0.0021 J-0.1181 F50.
G3 X-2.8169 Y1.8997 I0.0017 J0.0149
G1 X-2.797 Y1.9288 F60.
G3 X-2.8079 Y2.0297 I-0.0754 J0.043
G1 X-2.8109 Y2.0292
X-2.8137 Y2.0281
X-2.8163 Y2.0265
X-2.8185 Y2.0245
X-2.8203 Y2.0221
X-2.8215 Y2.0195
X-2.8222 Y2.0167
X-2.8224 Y2.0138
X-2.8226 Y2.0042
X-2.824 Y1.938
X-2.8237 Y1.9345
X-2.8226 Y1.9313
G3 X-2.797 Y1.9288 I0.0135 J0.0064 F50.
G1 X-2.7545 Y1.9907 F60.
G3 X-2.7503 Y2.0333 I-0.0116 J0.0226
X-2.7883 Y2.0111 I-0.0025 J-0.0393
X-2.782 Y1.9864 I0.0179 J-0.0086
X-2.7545 Y1.9907 I0.0116 J0.0161 F50.
X-2.741 Y2.0323 I-0.0012 J0.0234 F60.
X-2.9466 Y2.0155 I-0.0621 J-0.5083
X-2.9569 Y1.9919 I0.0019 J-0.0148
G1 X-2.9552 Y1.9896 Z-0.1672
X-2.9535 Y1.9873 Z-0.1664
X-2.952 Y1.9852 Z-0.165
X-2.9507 Y1.9833 Z-0.1631
X-2.9496 Y1.9818 Z-0.1608
X-2.9488 Y1.9807 Z-0.1583
X-2.9483 Y1.98 Z-0.1555
X-2.9481 Y1.9798 Z-0.1525
G0 Z-0.1376
X-3.2264 Y1.1163
G1 Z-0.1525 F50.
X-3.2263 Y1.116 Z-0.1555
X-3.2261 Y1.1152 Z-0.1583
X-3.2259 Y1.1139 Z-0.1608
X-3.2255 Y1.112 Z-0.1631
X-3.225 Y1.1098 Z-0.165
X-3.2244 Y1.1073 Z-0.1664
X-3.2238 Y1.1045 Z-0.1672
X-3.2232 Y1.1017 Z-0.1675
G2 X-3.2244 Y1.0708 I-0.0609 J-0.0132
G1 X-3.2528 Y0.9861 F60.
G2 X-3.5886 Y0.8428 I-0.2825 J0.197
X-3.6701 Y0.853 I-0.0294 J0.0957
G1 X-3.8177 Y1.0312
G2 X-3.8197 Y1.046 I0.0119 J0.0091
X-3.7555 Y1.0722 I0.045 J-0.0184
X-3.667 Y0.8822 I-0.0623 J-0.1446
X-3.6721 Y0.8678 I-0.1508 J0.0453 F50.
G3 X-3.6701 Y0.853 I0.0139 J-0.0057
G1 X-3.6265 Y0.8005 F60.
G3 X-3.3009 Y0.8071 I0.1574 J0.2687
G1 X-3.3001 Y0.8091
X-3.2602 Y0.9629
X-3.2528 Y0.9861
G3 X-3.2564 Y1.0006 I-0.0144 J0.0041
X-3.2973 Y1.0034 I-0.022 J-0.0214
X-3.3151 Y0.8344 I0.0727 J-0.0931
X-3.3046 Y0.8234 I0.0905 J0.0759 F50.
G2 X-3.3001 Y0.8091 I-0.0101 J-0.011
G1 X-3.3117 Y0.7645 F60.
G2 X-3.5127 Y0.6632 I-0.1704 J0.088
G1 X-3.6265 Y0.8005
G2 X-3.6285 Y0.8153 I0.0119 J0.0091
X-3.586 Y0.8346 I0.0315 J-0.0129
X-3.5099 Y0.6925 I-0.038 J-0.1118
X-3.5147 Y0.678 I-0.1141 J0.0303 F50.
G3 X-3.5127 Y0.6632 I0.0139 J-0.0057
G1 X-3.4823 Y0.6264 F60.
G3 X-3.3408 Y0.6121 I0.0805 J0.0893
G1 X-3.3405 Y0.615
X-3.3408 Y0.6179
X-3.3415 Y0.6207
X-3.3427 Y0.6232
X-3.3444 Y0.6255
X-3.3464 Y0.6274
X-3.3487 Y0.6289
X-3.3513 Y0.63
X-3.3539 Y0.6306
X-3.3615 Y0.6319
X-3.4679 Y0.6503
X-3.4704 Y0.6506
X-3.4729 Y0.6504
G3 X-3.4823 Y0.6264 I0.0024 J-0.0148 F50.
G1 X-3.4282 Y0.5612 F60.
G3 X-3.3562 Y0.5359 I0.0476 J0.0202
X-3.3623 Y0.5504 I-0.0148 J0.0022
G1 X-3.3741 Y0.5587
X-3.4077 Y0.5826
G3 X-3.4188 Y0.5851 I-0.0087 J-0.0122
X-3.4282 Y0.5612 I0.0024 J-0.0148 F50.
X-3.3726 Y0.5003 I0.138 J0.0701 F60.
G1 X-3.3721
X-3.3692 Y0.5005
G3 X-3.3588 Y0.522 I-0.0099 J0.0181
G1 X-3.3198 Y0.7309
X-3.3144 Y0.7541
X-3.3117 Y0.7645
G0 Z-0.1376
X-4.0669 Y1.3574
G1 Z-0.1525 F50.
X-4.0671 Y1.3575 Z-0.1555
X-4.0679 Y1.3578 Z-0.1583
X-4.0692 Y1.3582 Z-0.1608
X-4.071 Y1.3589 Z-0.1631
X-4.0731 Y1.3596 Z-0.165
X-4.0756 Y1.3605 Z-0.1664
X-4.0782 Y1.3614 Z-0.1672
X-4.081 Y1.3624 Z-0.1675
G2 X-4.1066 Y1.3797 I0.0209 J0.0587
G1 X-4.165 Y1.4501 F60.
G2 X-4.115 Y1.8212 I0.3193 J0.1459
X-4.0392 Y1.9133 I0.1334 J-0.0326
G1 X-3.8177 Y1.934
G2 X-3.8044 Y1.9273 I0.0009 J-0.0149
X-3.7958 Y1.8986 I-0.0434 J-0.0286
X-3.8248 Y1.852 I-0.052 J0.
X-4.0168 Y1.8942 I-0.0696 J0.1413
X-4.0258 Y1.9066 I0.1225 J0.099 F50.
G3 X-4.0392 Y1.9133 I-0.0125 J-0.0082
G1 X-4.1089 Y1.9067 F60.
G3 X-4.2949 Y1.6074 I0.1501 J-0.3007
G1 X-4.2937 Y1.6054
X-4.165 Y1.4501
G3 X-4.1508 Y1.4454 I0.0112 J0.0099
X-4.1419 Y1.4537 I-0.0023 J0.0114
G1 X-4.1412 Y1.4561
G3 X-4.2644 Y1.6028 I-0.1145 J0.0289
X-4.2795 Y1.6007 I0.0086 J-0.1178 F50.
G2 X-4.2937 Y1.6054 I-0.003 J0.0147
G1 X-4.3281 Y1.647 F60.
G2 X-4.2872 Y1.89 I0.1986 J0.0916
G1 X-4.1089 Y1.9067
G2 X-4.0955 Y1.9 I0.0009 J-0.0149
X-4.103 Y1.8549 I-0.0281 J-0.0185
X-4.2646 Y1.8712 I-0.0722 J0.0934
X-4.2738 Y1.8833 I0.0894 J0.0772 F50.
G3 X-4.2872 Y1.89 I-0.0125 J-0.0082
G1 X-4.3351 Y1.8856 F60.
G3 X-4.4348 Y1.774 I0.0284 J-0.1256
G1 X-4.4326 Y1.7719
X-4.4302 Y1.7703
X-4.4275 Y1.7691
X-4.4246 Y1.7685
X-4.4217 Y1.7684
X-4.4188 Y1.7689
X-4.4162 Y1.7698
X-4.4137 Y1.7713
X-4.4116 Y1.7732
X-4.4069 Y1.7778
X-4.3237 Y1.86
X-4.322 Y1.862
X-4.3207 Y1.8643
G3 X-4.3351 Y1.8856 I-0.0136 J0.0063 F50.
G1 X-4.4279 Y1.8769 F60.
G3 X-4.4851 Y1.8364 I-0.015 J-0.0395
X-4.4692 Y1.8321 I0.0112 J0.0099
G1 X-4.4564 Y1.8364
X-4.4223 Y1.8477
G3 X-4.4135 Y1.8556 I-0.0047 J0.0142
X-4.4279 Y1.8769 I-0.0136 J0.0063 F50.
X-4.4986 Y1.8663 I-0.0262 J-0.0661 F60.
G1 X-4.5 Y1.8641
X-4.5002 Y1.8634
X-4.5007 Y1.8612
G3 X-4.4943 Y1.8474 I0.021 J0.0013
G1 X-4.3281 Y1.647
G3 X-4.317 Y1.6419 I0.0112 J0.0099
G1 X-4.3136 Y1.6423
X-4.3115 Y1.6433 Z-0.1673
X-4.3095 Y1.6443 Z-0.1668
X-4.3075 Y1.6452 Z-0.1659
X-4.3062 Y1.6469 Z-0.1645
X-4.3051 Y1.6484 Z-0.1628
X-4.3041 Y1.6496 Z-0.1609
X-4.3034 Y1.6506 Z-0.1587
X-4.3031 Y1.6512 Z-0.1567
X-4.3029 Y1.6516 Z-0.1546
Y1.6518 Z-0.1525
G0 Z0.4
X-1.5376 Y-3.6195
Z0.1
G3 X-1.4249 Y-3.5327 Z0.0606 I0.0563 J0.0434 F50.
X-1.5376 Y-3.6195 Z0.0212 I-0.0563 J-0.0434
X-1.4249 Y-3.5327 Z-0.0182 I0.0563 J0.0434
X-1.5376 Y-3.6195 Z-0.0576 I-0.0563 J-0.0434
X-1.4249 Y-3.5327 Z-0.0969 I0.0563 J0.0434
X-1.5376 Y-3.6195 Z-0.1363 I-0.0563 J-0.0434
X-1.4102 Y-3.5761 Z-0.1675 I0.0563 J0.0434
X-1.5524 I-0.0711 J0.
X-1.4102 I0.0711 J0.
X-1.5594 Y-3.4512 I-0.0777 J0.0589 F60.
G1 X-1.5677 Y-3.4563
X-1.5757 Y-3.4619
X-1.5832 Y-3.4681
X-1.5904 Y-3.4746
X-1.5971 Y-3.4817
X-1.6034 Y-3.4891
X-1.6092 Y-3.4969
X-1.6145 Y-3.5051
X-1.6193 Y-3.5135
X-1.6235 Y-3.5223
X-1.6271 Y-3.5313
X-1.6302 Y-3.5406
X-1.6327 Y-3.55
X-1.6345 Y-3.5595
X-1.6358 Y-3.5691
X-1.6365 Y-3.5788
Y-3.5886
X-1.6359 Y-3.5983
X-1.6348 Y-3.6079
X-1.633 Y-3.6175
X-1.6306 Y-3.6269
X-1.6276 Y-3.6362
X-1.624 Y-3.6452
X-1.6199 Y-3.654
X-1.6152 Y-3.6625
X-1.61 Y-3.6707
X-1.6043 Y-3.6786
X-1.598 Y-3.6861
X-1.5914 Y-3.6932
X-1.5843 Y-3.6998
X-1.5768 Y-3.706
X-1.5689 Y-3.7117
X-1.5606 Y-3.7168
X-1.5521 Y-3.7215
X-1.5433 Y-3.7256
X-1.5342 Y-3.7291
X-1.525 Y-3.7321
X-1.5155 Y-3.7344
X-1.506 Y-3.7362
X-1.4963 Y-3.7373
X-1.4866 Y-3.7378
X-1.4769
X-1.4672 Y-3.7371
X-1.4575 Y-3.7357
X-1.448 Y-3.7338
X-1.4386 Y-3.7313
X-1.4294 Y-3.7282
X-1.4204 Y-3.7245
X-1.4117 Y-3.7202
X-1.4032 Y-3.7155
X-1.3951 Y-3.7101
X-1.3873 Y-3.7043
X-1.3799 Y-3.698
X-1.3729 Y-3.6912
X-1.3664 Y-3.684
X-1.3603 Y-3.6765
X-1.3547 Y-3.6685
X-1.3496 Y-3.6602
X-1.3451 Y-3.6516
X-1.3411 Y-3.6427
X-1.3377 Y-3.6336
X-1.3349 Y-3.6243
X-1.329 Y-3.6154
X-1.3236 Y-3.6062
X-1.3187 Y-3.5967
X-1.3144 Y-3.587
X-1.3106 Y-3.577
X-1.3074 Y-3.5668
X-1.3048 Y-3.5564
X-1.3028 Y-3.5459
X-1.3014 Y-3.5354
X-1.3006 Y-3.5247
X-1.3004 Y-3.514
X-1.3008 Y-3.5034
X-1.3018 Y-3.4927
X-1.3034 Y-3.4822
X-1.3056 Y-3.4718
X-1.3084 Y-3.4615
X-1.3118 Y-3.4513
X-1.3158 Y-3.4414
X-1.3203 Y-3.4317
X-1.3253 Y-3.4223
X-1.3309 Y-3.4132
X-1.337 Y-3.4045
X-1.3436 Y-3.396
X-1.3506 Y-3.388
X-1.3581 Y-3.3804
X-1.366 Y-3.3732
X-1.3743 Y-3.3665
X-1.383 Y-3.3603
X-1.392 Y-3.3546
X-1.4013 Y-3.3494
X-1.4109 Y-3.3447
X-1.4207 Y-3.3406
X-1.4308 Y-3.337
X-1.441 Y-3.3341
X-1.4514 Y-3.3317
X-1.462 Y-3.3299
X-1.4726 Y-3.3287
X-1.4832 Y-3.3281
X-1.4939
X-1.5045 Y-3.3288
X-1.5151 Y-3.33
X-1.5257 Y-3.3318
X-1.5361 Y-3.3343
X-1.5463 Y-3.3373
X-1.5563 Y-3.3409
X-1.5662 Y-3.345
X-1.5757 Y-3.3497
X-1.585 Y-3.355
X-1.594 Y-3.3607
X-1.6027 Y-3.367
X-1.6109 Y-3.3737
X-1.6214 Y-3.3798
X-1.6316 Y-3.3863
X-1.6414 Y-3.3934
X-1.6508 Y-3.4009
X-1.6599 Y-3.409
X-1.6685 Y-3.4174
X-1.6767 Y-3.4264
X-1.6844 Y-3.4357
X-1.6916 Y-3.4454
X-1.6984 Y-3.4554
X-1.7046 Y-3.4658
