%
(971-23-P-0063_PROXIMAL SPROCKET_1563 SECOND)
(T1  D=0.1563 CR=0. - ZMIN=-0.2175 - FLAT END MILL)
G90 G94 G17 G91.1
G64 P0.001 Q0.001
G20
G53 G0 Z0.
(2D SLOT CUT 2)
M9
T1 M6
S22000 M3
G4 P10.
G54
M7
G0 X-5.6364 Y-0.5853
G43 Z0.6 H1
G0 Z0.2
G1 Z0.1 F13.333
G2 X-5.6335 Y-0.5841 Z0.0994 I0.2316 J-0.5338 F30.
G3 X-5.6381 Y-0.5378 Z0.0886 I-0.0096 J0.0224
G2 X-5.7997 Y-0.4781 Z0.0581 I0.1187 J0.5697
X-5.8555 Y-0.3905 Z0.039 I0.0521 J0.0948
G1 X-5.8558 Y-0.3853 Z0.038
G2 X-5.8121 Y-0.291 Z0.0189 I0.1079 J0.0072
X-5.6598 Y-0.2105 Z-0.0116 I0.3451 J-0.4685
G3 X-5.6613 Y-0.164 Z-0.0224 I-0.0081 J0.023
G2 X-5.8186 Y-0.0938 Z-0.0529 I0.1561 J0.5606
G1 X-5.8187 Y-0.0937
G2 X-5.8685 Y-0.0026 Z-0.072 I0.0583 J0.0911
G1 Y0. Z-0.0725
Y0.0026
G2 X-5.8187 Y0.0937 I0.1082 J0.
G1 X-5.8186 Y0.0938
G2 X-5.6613 Y0.164 I0.3134 J-0.4903
G3 X-5.6598 Y0.2105 I-0.0065 J0.0235
G2 X-5.8121 Y0.291 I0.1928 J0.549
X-5.8558 Y0.3852 I0.0642 J0.087
G1 X-5.8555 Y0.3905
G2 X-5.7997 Y0.4781 I0.1079 J-0.0072
X-5.6381 Y0.5378 I0.2803 J-0.5099
G3 X-5.6335 Y0.5841 I-0.005 J0.0238
G2 X-5.7801 Y0.6745 I0.2286 J0.5351
G1 X-5.7802
G2 X-5.8176 Y0.7711 I0.0699 J0.0826
G1 X-5.8169 Y0.7762
G2 Y0.7767 I0.0775 J-0.0099
X-5.7553 Y0.8604 I0.1072 J-0.0144
X-5.5902 Y0.9093 I0.246 J-0.5273
G3 X-5.5826 Y0.9551 I-0.0034 J0.0241
G2 X-5.7229 Y1.055 I0.2635 J0.5188
X-5.7539 Y1.1542 I0.0751 J0.0779
G1 X-5.7538 Y1.1545
X-5.7528 Y1.1596
G2 X-5.686 Y1.2389 I0.106 J-0.0215
X-5.5179 Y1.2768 I0.2106 J-0.5424
G3 X-5.5072 Y1.322 I-0.0018 J0.0243
G2 X-5.6407 Y1.4309 I0.2972 J0.5003
G1 Y1.431
G2 X-5.665 Y1.5319 I0.0801 J0.0727
G1 X-5.6636 Y1.537
Y1.5371
G2 X-5.5917 Y1.6119 I0.1044 J-0.0283
G1 X-5.5916
G2 X-5.4215 Y1.6387 I0.1743 J-0.5552
G3 X-5.4078 Y1.6831 I-0.0002 J0.0243
G2 X-5.5337 Y1.8006 I0.3297 J0.4795
X-5.5514 Y1.9028 I0.0847 J0.0673
G1 X-5.5498 Y1.9077
X-5.5497 Y1.908
G2 X-5.4729 Y1.978 I0.1023 J-0.0351
X-5.3013 Y1.9934 I0.1372 J-0.5655
G3 X-5.2848 Y2.0368 I0.0014 J0.0243
G2 X-5.4027 Y2.1624 I0.3607 J0.4567
X-5.4135 Y2.2657 I0.089 J0.0615
G1 X-5.4114 Y2.2706
G2 X-5.3302 Y2.3353 I0.0997 J-0.0418
G1 Y2.3354
G2 X-5.158 Y2.3394 I0.0996 J-0.5733
G3 X-5.1386 Y2.3816 I0.003 J0.0242
G2 X-5.2479 Y2.5147 I0.3901 J0.4318
X-5.2519 Y2.6185 I0.0928 J0.0555
G1 X-5.2495 Y2.6233
G2 X-5.1641 Y2.6825 I0.0968 J-0.0483
X-4.9921 Y2.6752 I0.0614 J-0.5786
G3 X-4.97 Y2.716 I0.0046 J0.0239
G2 X-5.0702 Y2.8561 I0.4178 J0.4051
X-5.0674 Y2.9599 I0.0963 J0.0493
G1 X-5.0673 Y2.96
X-5.0646 Y2.9645
G2 X-4.9756 Y3.018 I0.0933 J-0.0546
X-4.8044 Y2.9992 I0.023 J-0.5814
G3 X-4.7796 Y3.0386 I0.0062 J0.0236
G2 X-4.8704 Y3.1849 I0.4436 J0.3766
X-4.8607 Y3.2883 I0.0993 J0.0429
G1 X-4.8605 Y3.2886
X-4.8576 Y3.2929
G2 X-4.7653 Y3.3402 I0.0894 J-0.0608
X-4.5956 Y3.3102 I-0.0154 J-0.5817
G3 X-4.5683 Y3.3478 I0.0078 J0.0231
G2 X-4.6492 Y3.4998 I0.4675 J0.3464
X-4.6328 Y3.6023 I0.1019 J0.0362
G1 X-4.6326 Y3.6026
X-4.6294 Y3.6067
G2 X-4.5341 Y3.6478 I0.0853 J-0.0665
X-4.3668 Y3.6067 I-0.0539 J-0.5794
G3 X-4.3371 Y3.6424 I0.0093 J0.0225
G2 X-4.4078 Y3.7994 I0.4894 J0.3148
X-4.3845 Y3.9006 I0.1041 J0.0293
G1 X-4.3811 Y3.9045
X-4.381 Y3.9047
G2 X-4.2831 Y3.9395 I0.0808 J-0.0719
X-4.1189 Y3.8874 I-0.092 J-0.5746
G3 X-4.0868 Y3.9211 I0.0107 J0.0219
G2 X-4.147 Y4.0824 I0.5091 J0.2818
X-4.1172 Y4.1818 I0.1058 J0.0224
G1 X-4.1135 Y4.1855
X-4.1132 Y4.1857
G2 X-4.0134 Y4.214 I0.0758 J-0.0772
X-3.853 Y4.1511 I-0.1298 J-0.5672
G3 X-3.8188 Y4.1826 I0.0121 J0.0211
G2 X-3.8682 Y4.3476 I0.5266 J0.2475
X-3.8317 Y4.4449 I0.1071 J0.0154
G1 X-3.8315 Y4.4451
X-3.8275 Y4.4485
G2 X-3.7261 Y4.47 I0.0705 J-0.082
X-3.5702 Y4.3967 I-0.1669 J-0.5574
G3 X-3.534 Y4.4258 I0.0135 J0.0203
G2 X-3.5724 Y4.5938 I0.5418 J0.2122
X-3.5295 Y4.6884 I0.1078 J0.0082
G1 X-3.5293 Y4.6887
X-3.5251 Y4.6917
G2 X-3.4225 Y4.7065 I0.0648 J-0.0866
X-3.2718 Y4.623 I-0.2034 J-0.5452
G3 X-3.2338 Y4.6497 I0.0148 J0.0193
G2 X-3.261 Y4.8198 I0.5547 J0.1759
X-3.212 Y4.9114 I0.1081 J0.0011
G1 X-3.2118 Y4.9116
X-3.2074 Y4.9144
G2 X-3.104 Y4.9224 I0.059 J-0.0906
X-2.9591 Y4.8292 I-0.239 J-0.5305
G3 X-2.9194 Y4.8533 I0.0161 J0.0183
G2 X-2.9353 Y5.0248 I0.5651 J0.1389
X-2.8804 Y5.113 I0.108 J-0.0061
G1 X-2.8758 Y5.1156
X-2.8757
G2 X-2.7718 Y5.1168 I0.053 J-0.0943
X-2.6335 Y5.0142 I-0.2736 J-0.5135
G3 X-2.5923 Y5.0356 I0.0172 J0.0172
G2 X-2.5968 Y5.2078 I0.573 J0.1012
X-2.5362 Y5.2922 I0.1074 J-0.0132
G1 X-2.5313 Y5.2945
G2 X-2.4276 Y5.2888 I0.0467 J-0.0976
X-2.2963 Y5.1773 I-0.3069 J-0.4944
G3 X-2.2538 Y5.1959 I0.0184 J0.016
G2 X-2.2469 Y5.3681 I0.5785 J0.0631
X-2.1808 Y5.4482 I0.1062 J-0.0203
X-2.1804 Y5.4484 I0.029 J-0.0726
G1 X-2.1756 Y5.4503
G2 X-2.0728 Y5.4377 I0.0399 J-0.1005
X-1.9491 Y5.3177 I-0.3389 J-0.473
G3 X-1.9054 Y5.3335 I0.0194 J0.0147
G2 X-1.8872 Y5.5048 I0.5814 J0.0247
X-1.8161 Y5.5804 I0.1047 J-0.0272
G1 X-1.8112 Y5.582
X-1.8109 Y5.5821
G2 X-1.7089 Y5.5628 I0.0334 J-0.1029
X-1.5934 Y5.4349 I-0.3695 J-0.4496
G3 X-1.5488 Y5.4478 I0.0203 J0.0135
G2 X-1.5193 Y5.6175 I0.5817 J-0.0137
X-1.4432 Y5.6882 I0.1026 J-0.0341
G1 X-1.4381 Y5.6895
G2 X-1.3375 Y5.6635 I0.0266 J-0.1048
X-1.2307 Y5.5283 I-0.3983 J-0.4242
G3 X-1.1854 Y5.5382 I0.0211 J0.0121
G2 X-1.1447 Y5.7056 I0.5795 J-0.0522
X-1.0643 Y5.7711 I0.1002 J-0.0408
G1 X-1.0593 Y5.7721
G2 X-1.0588 Y5.7722 I0.0145 J-0.0768
X-0.9602 Y5.7396 I0.0195 J-0.1064
X-0.8627 Y5.5976 I-0.4255 J-0.3969
G3 X-0.8167 Y5.6045 I0.0219 J0.0107
G2 X-0.7651 Y5.7688 I0.5748 J-0.0903
X-0.6804 Y5.8289 I0.0973 J-0.0473
G1 X-0.68 Y5.829
X-0.6749 Y5.8295
G2 X-0.5788 Y5.7905 I0.0123 J-0.1075
X-0.4909 Y5.6424 I-0.4508 J-0.3679
G3 X-0.4445 Y5.6462 I0.0225 J0.0092
G2 X-0.3822 Y5.8068 I0.5676 J-0.1281
X-0.2938 Y5.8611 I0.0939 J-0.0537
G1 X-0.2885 Y5.8614
X-0.2883
G2 X-0.1948 Y5.816 I0.0053 J-0.108
X-0.1169 Y5.6625 I-0.4742 J-0.3373
G3 X-0.0704 Y5.6632 I0.0231 J0.0077
G2 X0.0024 Y5.8193 I0.5579 J-0.1654
X0.0943 Y5.8677 I0.0902 J-0.0597
G1 X0.0995 Y5.8676
X0.0997
G2 X0.1899 Y5.8163 I-0.0018 J-0.1081
X0.2576 Y5.6578 I-0.4954 J-0.3053
G3 X0.304 Y5.6555 I0.0236 J0.0061
G2 X0.387 Y5.8064 I0.5458 J-0.2019
X0.4819 Y5.8487 I0.086 J-0.0655
X0.4825 Y5.8486 I-0.0064 J-0.0779
G1 X0.4876 Y5.8482
G2 X0.5739 Y5.791 I-0.0092 J-0.1077
X0.631 Y5.6284 I-0.5145 J-0.2719
G3 X0.6771 Y5.623 I0.0239 J0.0046
G2 X0.7699 Y5.7681 I0.5312 J-0.2375
X0.8674 Y5.804 I0.0815 J-0.0711
G1 X0.8675
X0.8727 Y5.8032
G2 X0.9554 Y5.7404 I-0.0161 J-0.107
X1.0016 Y5.5744 I-0.5313 J-0.2372
G3 X1.0473 Y5.566 I0.0242 J0.003
G2 X1.1495 Y5.7046 I0.5143 J-0.2721
X1.2491 Y5.734 I0.0766 J-0.0763
G1 X1.2493
X1.2544 Y5.7328
G2 X1.3327 Y5.6647 I-0.0232 J-0.1056
X1.3678 Y5.496 I-0.5458 J-0.2016
G3 X1.4129 Y5.4846 I0.0243 J0.0014
G2 X1.524 Y5.6162 I0.4952 J-0.3055
X1.6253 Y5.6389 I0.0714 J-0.0812
G1 X1.6303 Y5.6375
X1.6305 Y5.6374
G2 X1.7042 Y5.5642 I-0.0301 J-0.1039
X1.7281 Y5.3936 I-0.558 J-0.1651
G3 X1.7723 Y5.3792 I0.0244 J-0.0002
G2 X1.8918 Y5.5032 I0.474 J-0.3375
G1 X1.8919 Y5.5033
G2 X1.9945 Y5.5192 I0.0658 J-0.0858
G1 X1.9946 Y5.5191
X1.9996 Y5.5173
G2 X2.0682 Y5.4394 I-0.0369 J-0.1017
X2.0808 Y5.2676 I-0.5677 J-0.1279
G3 X2.1239 Y5.2503 I0.0243 J-0.0019
G2 X2.2514 Y5.3662 I0.4507 J-0.3681
X2.3549 Y5.3753 I0.0601 J-0.09
G1 X2.3598 Y5.3731
G2 X2.4232 Y5.2908 I-0.0434 J-0.099
X2.4243 Y5.1186 I-0.5749 J-0.0901
G3 X2.4662 Y5.0985 I0.0241 J-0.0034
G2 X2.6011 Y5.2056 I0.4254 J-0.3971
X2.705 Y5.2079 I0.054 J-0.0937
G1 X2.7097 Y5.2054
G2 X2.7675 Y5.1191 I-0.0499 J-0.096
X2.7573 Y4.9471 I-0.5796 J-0.0519
G3 X2.7978 Y4.9244 I0.0238 J-0.005
G2 X2.9395 Y5.0224 I0.3982 J-0.4243
X3.0433 Y5.0177 I0.0477 J-0.0971
G1 X3.0434 Y5.0176
X3.0479 Y5.0149
G2 X3.0998 Y4.925 I-0.0562 J-0.0924
X3.0783 Y4.7541 I-0.5817 J-0.0134
G3 X3.1172 Y4.7287 I0.0234 J-0.0066
G2 X3.265 Y4.8171 I0.3692 J-0.4498
X3.3682 Y4.8056 I0.0411 J-0.1
G1 X3.3725 Y4.8026
X3.3726
G2 X3.4185 Y4.7095 I-0.0621 J-0.0885
G1 Y4.7094
G2 X3.3857 Y4.5403 I-0.5814 J0.025
G3 X3.4229 Y4.5123 I0.023 J-0.0081
G2 X3.5762 Y4.5908 I0.3387 J-0.4731
G1 X3.5763
G2 X3.6784 Y4.5725 I0.0344 J-0.1026
G1 X3.6825 Y4.5693
X3.6826 Y4.5692
G2 X3.7223 Y4.4731 I-0.0678 J-0.0842
X3.6784 Y4.3066 I-0.5784 J0.0634
G3 X3.7136 Y4.2763 I0.0224 J-0.0096
G2 X3.8718 Y4.3444 I0.3067 J-0.4945
X3.9726 Y4.3194 I0.0276 J-0.1046
G1 X3.9765 Y4.3158
G2 X4.0098 Y4.2173 I-0.0732 J-0.0796
X3.955 Y4.054 I-0.573 J0.1015
G3 X3.9881 Y4.0215 I0.0217 J-0.0111
G2 X4.1505 Y4.079 I0.2734 J-0.5137
X4.2493 Y4.0475 I0.0206 J-0.1062
G1 X4.2529 Y4.0438
X4.2531 Y4.0436
G2 X4.2798 Y3.9431 I-0.0783 J-0.0746
X4.2142 Y3.7838 I-0.565 J0.1392
G3 X4.2452 Y3.7491 I0.0209 J-0.0125
G2 X4.411 Y3.7958 I0.2388 J-0.5306
X4.5077 Y3.7577 I0.0136 J-0.1073
G1 X4.511 Y3.7536
G2 X4.531 Y3.6517 I-0.0831 J-0.0692
X4.4551 Y3.497 I-0.5546 J0.1762
G3 X4.4837 Y3.4603 I0.02 J-0.0138
G2 X4.6522 Y3.4959 I0.2032 J-0.5453
X4.7461 Y3.4515 I0.0065 J-0.1079
G1 X4.7493 Y3.4473
G2 X4.7624 Y3.3442 I-0.0875 J-0.0636
X4.6765 Y3.1949 I-0.5417 J0.2125
G3 X4.7026 Y3.1564 I0.0191 J-0.0151
G2 X4.8731 Y3.1808 I0.1667 J-0.5575
X4.9638 Y3.1304 I-0.0007 J-0.1082
G1 X4.9666 Y3.126
X4.9668 Y3.1258
G2 X4.973 Y3.0221 I-0.0916 J-0.0576
X4.8774 Y2.8789 I-0.5265 J0.2478
G3 X4.9009 Y2.8388 I0.018 J-0.0164
G2 X5.0726 Y2.8518 I0.1295 J-0.5673
X5.1599 Y2.7954 I-0.0078 J-0.1079
G1 X5.1624 Y2.7907
G2 X5.1619 Y2.6868 I-0.0951 J-0.0515
X5.057 Y2.5502 I-0.509 J0.282
G3 X5.0778 Y2.5086 I0.0169 J-0.0175
G2 X5.25 Y2.5103 I0.0917 J-0.5746
X5.3334 Y2.4483 I-0.0149 J-0.1071
G1 X5.3356 Y2.4435
G2 X5.3282 Y2.3399 I-0.0983 J-0.0451
X5.2145 Y2.2104 I-0.4892 J0.3151
G3 X5.2325 Y2.1676 I0.0157 J-0.0186
G2 X5.4045 Y2.1578 I0.0536 J-0.5794
X5.4835 Y2.0905 I-0.022 J-0.1059
X5.4837 Y2.09 I-0.073 J-0.0278
G1 X5.4855 Y2.0852
G2 X5.4712 Y1.9826 I-0.1012 J-0.0382
X5.3492 Y1.8609 I-0.4674 J0.3467
G3 X5.3643 Y1.817 I0.0144 J-0.0196
G2 X5.5352 Y1.7959 I0.0151 J-0.5817
X5.6097 Y1.7235 I-0.0289 J-0.1042
G1 X5.6098 Y1.7232
X5.6113 Y1.7183
G2 X5.5902 Y1.6166 I-0.1034 J-0.0316
X5.4605 Y1.5033 I-0.4434 J0.3768
G3 X5.4727 Y1.4585 I0.0131 J-0.0205
G2 X5.6418 Y1.4262 I-0.0234 J-0.5814
X5.7113 Y1.349 I-0.0358 J-0.1021
G1 X5.7125 Y1.3439
X5.7126 Y1.3438
G2 X5.6849 Y1.2437 I-0.1053 J-0.0248
X5.5479 Y1.1392 I-0.4175 J0.4053
G3 X5.5571 Y1.0936 I0.0117 J-0.0213
G2 X5.7238 Y1.0502 I-0.0617 J-0.5786
X5.788 Y0.9685 I-0.0425 J-0.0995
G1 X5.7889 Y0.9633
G2 X5.7546 Y0.8652 I-0.1067 J-0.0178
X5.6111 Y0.77 I-0.3898 J0.432
G3 X5.6172 Y0.724 I0.0103 J-0.0221
G2 X5.7807 Y0.6696 I-0.0998 J-0.5733
X5.8393 Y0.5841 I-0.049 J-0.0964
G1 X5.8399 Y0.579
Y0.5786
G2 X5.7993 Y0.483 I-0.1076 J-0.0107
X5.6497 Y0.3975 I-0.3604 J0.4568
G3 X5.6528 Y0.3511 I0.0088 J-0.0227
G2 X5.8123 Y0.2861 I-0.1375 J-0.5654
X5.8652 Y0.1967 I-0.0552 J-0.093
G1 Y0.1964
X5.8654 Y0.1912
G2 X5.8185 Y0.0987 I-0.1081 J-0.0034
X5.6636 Y0.0232 I-0.3295 J0.4797
G3 Y-0.0232 I0.0073 J-0.0232
G2 X5.8185 Y-0.0987 I-0.1746 J-0.5551
X5.8654 Y-0.1912 I-0.0612 J-0.0891
G1 X5.8652 Y-0.1964
Y-0.1967
G2 X5.8123 Y-0.2861 I-0.1081 J0.0036
X5.6528 Y-0.3511 I-0.297 J0.5004
G3 X5.6497 Y-0.3975 I0.0058 J-0.0237
G2 X5.7993 Y-0.483 I-0.2108 J-0.5424
X5.8399 Y-0.5786 I-0.067 J-0.0849
G1 Y-0.579
X5.8393 Y-0.5841
G2 X5.7807 Y-0.6696 I-0.1076 J0.0109
X5.6172 Y-0.724 I-0.2633 J0.5189
G3 X5.6111 Y-0.77 I0.0041 J-0.024
G2 X5.7546 Y-0.8652 I-0.2462 J-0.5272
X5.7889 Y-0.9633 I-0.0724 J-0.0803
G1 X5.788 Y-0.9685
G2 X5.7238 Y-1.0502 I-0.1067 J0.0177
X5.5571 Y-1.0936 I-0.2285 J0.5352
G3 X5.5479 Y-1.1392 I0.0026 J-0.0242
G2 X5.6849 Y-1.2437 I-0.2805 J-0.5098
X5.7126 Y-1.3438 I-0.0776 J-0.0753
G1 X5.7125 Y-1.3439
X5.7113 Y-1.349
G2 X5.6418 Y-1.4262 I-0.1052 J0.0249
X5.4727 Y-1.4585 I-0.1925 J0.5491
G3 X5.4605 Y-1.5033 I0.001 J-0.0243
G2 X5.5902 Y-1.6166 I-0.3137 J-0.4901
X5.6113 Y-1.7183 I-0.0824 J-0.07
G1 X5.6098 Y-1.7232
X5.6097 Y-1.7235
G2 X5.5352 Y-1.7959 I-0.1034 J0.0318
X5.3643 Y-1.817 I-0.1558 J0.5606
G3 X5.3492 Y-1.8609 I-0.0006 J-0.0243
G2 X5.4712 Y-1.9826 I-0.3454 J-0.4683
X5.4855 Y-2.0852 I-0.0869 J-0.0644
G1 X5.4837 Y-2.09
G2 X5.4835 Y-2.0905 I-0.0732 J0.0274
X5.4045 Y-2.1578 I-0.1011 J0.0385
X5.2325 Y-2.1676 I-0.1185 J0.5697
G3 X5.2145 Y-2.2104 I-0.0023 J-0.0242
G2 X5.3282 Y-2.3398 I-0.3755 J-0.4445
X5.3356 Y-2.4435 I-0.0909 J-0.0586
G1 X5.3334 Y-2.4483
G2 X5.25 Y-2.5103 I-0.0983 J0.0451
X5.0778 Y-2.5086 I-0.0805 J0.5763
G3 X5.057 Y-2.5502 I-0.0039 J-0.024
G2 X5.1619 Y-2.6868 I-0.4041 J-0.4187
X5.1624 Y-2.7907 I-0.0946 J-0.0524
G1 X5.1599 Y-2.7954
G2 X5.0726 Y-2.8518 I-0.0951 J0.0515
X4.9009 Y-2.8388 I-0.0423 J0.5804
G3 X4.8774 Y-2.8789 I-0.0054 J-0.0237
G2 X4.973 Y-3.0221 I-0.4309 J-0.391
X4.9668 Y-3.1258 I-0.0978 J-0.0461
G1 X4.9666 Y-3.126
X4.9638 Y-3.1304
G2 X4.8731 Y-3.1808 I-0.0914 J0.0577
X4.7026 Y-3.1564 I-0.0038 J0.5819
G3 X4.6765 Y-3.1949 I-0.007 J-0.0233
G2 X4.7624 Y-3.3442 I-0.4558 J-0.3618
X4.7493 Y-3.4473 I-0.1007 J-0.0395
G1 X4.7462 Y-3.4515
G2 X4.6522 Y-3.4959 I-0.0875 J0.0635
X4.4837 Y-3.4603 I0.0347 J0.5809
G3 X4.4551 Y-3.497 I-0.0085 J-0.0228
G2 X4.531 Y-3.6516 I-0.4787 J-0.3309
X4.511 Y-3.7536 I-0.1031 J-0.0327
G1 X4.5077 Y-3.7577
G2 X4.411 Y-3.7958 I-0.0831 J0.0692
X4.2452 Y-3.7491 I0.073 J0.5773
G3 X4.2142 Y-3.7838 I-0.01 J-0.0222
G2 X4.2798 Y-3.9431 I-0.4995 J-0.2986
X4.2531 Y-4.0436 I-0.105 J-0.0259
G1 X4.2529 Y-4.0438
X4.2493 Y-4.0475
G2 X4.1505 Y-4.079 I-0.0782 J0.0747
X3.9881 Y-4.0215 I0.111 J0.5712
G3 X3.955 Y-4.054 I-0.0114 J-0.0215
G2 X4.0098 Y-4.2173 I-0.5182 J-0.2648
X3.9766 Y-4.3158 I-0.1065 J-0.0189
G1 X3.9727 Y-4.3194
G2 X3.8718 Y-4.3444 I-0.0732 J0.0796
X3.7136 Y-4.2763 I0.1485 J0.5626
G3 X3.6784 Y-4.3066 I-0.0128 J-0.0207
G2 X3.7223 Y-4.4731 I-0.5345 J-0.23
X3.6826 Y-4.5692 I-0.1075 J-0.0118
G1 X3.6825 Y-4.5693
X3.6784 Y-4.5725
G2 X3.5763 Y-4.5908 I-0.0678 J0.0843
G1 X3.5762
G2 X3.4229 Y-4.5123 I0.1854 J0.5516
G3 X3.3857 Y-4.5403 I-0.0142 J-0.0198
G2 X3.4185 Y-4.7094 I-0.5486 J-0.1941
G1 Y-4.7095
G2 X3.3726 Y-4.8026 I-0.1081 J-0.0046
G1 X3.3725
X3.3682 Y-4.8056
G2 X3.265 Y-4.8171 I-0.0621 J0.0885
X3.1172 Y-4.7287 I0.2213 J0.5382
G3 X3.0783 Y-4.7541 I-0.0155 J-0.0188
G2 X3.0998 Y-4.925 I-0.5602 J-0.1575
X3.0479 Y-5.0149 I-0.1081 J0.0025
G1 X3.0434 Y-5.0176
X3.0433 Y-5.0177
G2 X2.9395 Y-5.0224 I-0.0562 J0.0924
X2.7978 Y-4.9244 I0.2565 J0.5223
G3 X2.7573 Y-4.9471 I-0.0167 J-0.0178
G2 X2.7675 Y-5.1191 I-0.5694 J-0.1201
X2.7097 Y-5.2054 I-0.1077 J0.0096
G1 X2.705 Y-5.2079
G2 X2.6011 Y-5.2056 I-0.0499 J0.096
X2.4662 Y-5.0985 I0.2905 J0.5042
G3 X2.4243 Y-5.1186 I-0.0178 J-0.0166
G2 X2.4232 Y-5.2908 I-0.5761 J-0.0822
X2.3598 Y-5.3731 I-0.1069 J0.0167
G1 X2.3549 Y-5.3753
G2 X2.2514 Y-5.3662 I-0.0434 J0.099
X2.1239 Y-5.2503 I0.3231 J0.4839
G3 X2.0808 Y-5.2676 I-0.0189 J-0.0154
G2 X2.0682 Y-5.4394 I-0.5802 J-0.044
X1.9996 Y-5.5173 I-0.1055 J0.0238
G1 X1.9946 Y-5.5191
X1.9945 Y-5.5192
G2 X1.8919 Y-5.5033 I-0.0368 J0.1017
G1 X1.8918 Y-5.5032
G2 X1.7723 Y-5.3792 I0.3544 J0.4615
G3 X1.7281 Y-5.3936 I-0.0198 J-0.0141
G2 X1.7042 Y-5.5642 I-0.5819 J-0.0055
X1.6305 Y-5.6374 I-0.1037 J0.0307
G1 X1.6303 Y-5.6375
X1.6253 Y-5.6389
G2 X1.524 Y-5.6162 I-0.0299 J0.1039
X1.4129 Y-5.4846 I0.3841 J0.4371
G3 X1.3678 Y-5.496 I-0.0207 J-0.0128
G2 X1.3327 Y-5.6647 I-0.581 J0.0329
X1.2544 Y-5.7328 I-0.1014 J0.0375
G1 X1.2493 Y-5.734
X1.2491
G2 X1.1495 Y-5.7046 I-0.023 J0.1056
X1.0473 Y-5.566 I0.4122 J0.4108
G3 X1.0016 Y-5.5744 I-0.0215 J-0.0114
G2 X0.9554 Y-5.7404 I-0.5775 J0.0713
X0.8727 Y-5.8032 I-0.0988 J0.0441
G1 X0.8675 Y-5.804
X0.8674
G2 X0.7699 Y-5.7681 I-0.016 J0.107
X0.6771 Y-5.623 I0.4384 J0.3826
G3 X0.631 Y-5.6284 I-0.0222 J-0.0099
G2 X0.5739 Y-5.791 I-0.5715 J0.1093
X0.4876 Y-5.8482 I-0.0956 J0.0505
G1 X0.4825 Y-5.8486
G2 X0.4819 Y-5.8487 I-0.007 J0.0778
X0.387 Y-5.8064 I-0.0088 J0.1078
X0.304 Y-5.6555 I0.4628 J0.3528
G3 X0.2576 Y-5.6578 I-0.0228 J-0.0084
G2 X0.19 Y-5.8162 I-0.5631 J0.1468
X0.0997 Y-5.8676 I-0.0921 J0.0567
G1 X0.0995
X0.0943 Y-5.8677
G2 X0.0024 Y-5.8193 I-0.0017 J0.1081
X-0.0704 Y-5.6632 I0.485 J0.3215
G3 X-0.1169 Y-5.6625 I-0.0233 J-0.0069
G2 X-0.1948 Y-5.816 I-0.5521 J0.1838
X-0.2883 Y-5.8614 I-0.0882 J0.0626
G1 X-0.2885
X-0.2938 Y-5.8611
G2 X-0.3822 Y-5.8068 I0.0055 J0.108
X-0.4445 Y-5.6462 I0.5052 J0.2887
G3 X-0.4909 Y-5.6424 I-0.0238 J-0.0054
G2 X-0.5788 Y-5.7905 I-0.5388 J0.2198
X-0.6749 Y-5.8295 I-0.0838 J0.0684
G1 X-0.68 Y-5.829
X-0.6804 Y-5.8289
G2 X-0.7651 Y-5.7688 I0.0125 J0.1074
X-0.8167 Y-5.6045 I0.5232 J0.2547
G3 X-0.8627 Y-5.5976 I-0.0241 J-0.0038
G2 X-0.9602 Y-5.7396 I-0.5231 J0.2549
X-1.0588 Y-5.7722 I-0.0791 J0.0738
X-1.0593 Y-5.7721 I0.0141 J0.0769
G1 X-1.0643 Y-5.7711
G2 X-1.1447 Y-5.7056 I0.0198 J0.1063
X-1.1854 Y-5.5382 I0.5389 J0.2195
G3 X-1.2307 Y-5.5283 I-0.0243 J-0.0022
G2 X-1.3375 Y-5.6635 I-0.5051 J0.289
X-1.4381 Y-5.6895 I-0.074 J0.0788
G1 X-1.4432 Y-5.6882
G2 X-1.5193 Y-5.6175 I0.0265 J0.1048
X-1.5488 Y-5.4478 I0.5522 J0.1835
G3 X-1.5934 Y-5.4349 I-0.0243 J-0.0006
G2 X-1.7089 Y-5.5628 I-0.4849 J0.3217
X-1.8109 Y-5.5821 I-0.0687 J0.0836
G1 X-1.8112 Y-5.582
X-1.8161 Y-5.5804
G2 X-1.8872 Y-5.5048 I0.0336 J0.1028
X-1.9054 Y-5.3335 I0.5631 J0.1465
G3 X-1.9491 Y-5.3177 I-0.0243 J0.001
G2 X-2.0728 Y-5.4377 I-0.4625 J0.3531
X-2.1756 Y-5.4503 I-0.063 J0.0879
G1 X-2.1804 Y-5.4484
G2 X-2.1808 Y-5.4482 I0.0286 J0.0727
X-2.2469 Y-5.3681 I0.0402 J0.1004
X-2.2538 Y-5.1959 I0.5716 J0.109
G3 X-2.2963 Y-5.1773 I-0.0242 J0.0027
G2 X-2.4276 Y-5.2888 I-0.4382 J0.3829
X-2.5313 Y-5.2945 I-0.057 J0.0919
G1 X-2.5361 Y-5.2922
G2 X-2.5968 Y-5.2078 I0.0467 J0.0976
X-2.5923 Y-5.0356 I0.5775 J0.071
G3 X-2.6335 Y-5.0142 I-0.024 J0.0042
G2 X-2.7718 Y-5.1168 I-0.4119 J0.411
X-2.8757 Y-5.1156 I-0.0509 J0.0954
G1 X-2.8758
X-2.8804 Y-5.113
G2 X-2.9353 Y-5.0249 I0.053 J0.0942
X-2.9194 Y-4.8533 I0.581 J0.0327
G3 X-2.9591 Y-4.8292 I-0.0237 J0.0058
G2 X-3.104 Y-4.9224 I-0.3839 J0.4373
X-3.2074 Y-4.9144 I-0.0444 J0.0986
G1 X-3.2118 Y-4.9116
X-3.212 Y-4.9114
G2 X-3.261 Y-4.8198 I0.0592 J0.0905
X-3.2338 Y-4.6497 I0.5819 J-0.0058
G3 X-3.2718 Y-4.623 I-0.0232 J0.0074
G2 X-3.4225 Y-4.7065 I-0.3541 J0.4617
X-3.5251 Y-4.6917 I-0.0378 J0.1013
G1 X-3.5293 Y-4.6887
X-3.5295 Y-4.6884
G2 X-3.5724 Y-4.5938 I0.065 J0.0864
X-3.534 Y-4.4258 I0.5802 J-0.0442
G3 X-3.5702 Y-4.3967 I-0.0227 J0.0089
G2 X-3.7261 Y-4.47 I-0.3229 J0.4841
X-3.8275 Y-4.4485 I-0.031 J0.1036
G1 X-3.8315 Y-4.4451
X-3.8317 Y-4.4449
G2 X-3.8682 Y-4.3476 I0.0706 J0.082
X-3.8188 Y-4.1826 I0.576 J-0.0825
G3 X-3.853 Y-4.1511 I-0.022 J0.0104
G2 X-4.0134 Y-4.214 I-0.2901 J0.5044
X-4.1132 Y-4.1857 I-0.0241 J0.1054
G1 X-4.1135 Y-4.1855
X-4.1172 Y-4.1818
G2 X-4.147 Y-4.0824 I0.0759 J0.077
X-4.0868 Y-3.9211 I0.5693 J-0.1205
G3 X-4.1189 Y-3.8874 I-0.0213 J0.0118
G2 X-4.2831 Y-3.9395 I-0.2562 J0.5224
X-4.381 Y-3.9047 I-0.0171 J0.1068
G1 X-4.3811 Y-3.9045
X-4.3845 Y-3.9006
G2 X-4.4078 Y-3.7994 I0.0809 J0.0718
X-4.3371 Y-3.6424 I0.5601 J-0.1577
G3 X-4.3668 Y-3.6067 I-0.0205 J0.0132
G2 X-4.5341 Y-3.6478 I-0.2211 J0.5382
X-4.6294 Y-3.6067 I-0.01 J0.1077
G1 X-4.6326 Y-3.6026
X-4.6328 Y-3.6023
G2 X-4.6492 Y-3.4998 I0.0854 J0.0663
X-4.5683 Y-3.3478 I0.5484 J-0.1944
G3 X-4.5956 Y-3.3102 I-0.0196 J0.0145
G2 X-4.7653 Y-3.3402 I-0.185 J0.5517
X-4.8576 Y-3.2929 I-0.0029 J0.1081
G1 X-4.8605 Y-3.2886
X-4.8607 Y-3.2883
G2 X-4.8704 Y-3.1849 I0.0896 J0.0605
X-4.7796 Y-3.0386 I0.5344 J-0.2303
G3 X-4.8043 Y-2.9992 I-0.0186 J0.0158
G2 X-4.9756 Y-3.018 I-0.1482 J0.5627
X-5.0646 Y-2.9645 I0.0043 J0.1081
G1 X-5.0673 Y-2.96
X-5.0674 Y-2.9599
G2 X-5.0702 Y-2.8561 I0.0934 J0.0545
X-4.97 Y-2.716 I0.518 J-0.265
G3 X-4.9921 Y-2.6752 I-0.0175 J0.017
G2 X-5.1641 Y-2.6825 I-0.1107 J0.5713
X-5.2495 Y-2.6233 I0.0114 J0.1076
G1 X-5.2519 Y-2.6185
G2 X-5.2479 Y-2.5147 I0.0968 J0.0483
X-5.1386 Y-2.3816 I0.4994 J-0.2987
G3 X-5.158 Y-2.3394 I-0.0163 J0.0181
G2 X-5.3302 Y-2.3354 I-0.0727 J0.5773
G1 Y-2.3353
G2 X-5.4114 Y-2.2706 I0.0186 J0.1065
G1 X-5.4134 Y-2.2657
G2 X-5.4027 Y-2.1624 I0.0997 J0.0418
X-5.2848 Y-2.0368 I0.4786 J-0.331
G3 X-5.3013 Y-1.9934 I-0.0151 J0.0191
G2 X-5.4729 Y-1.978 I-0.0344 J0.5809
X-5.5497 Y-1.908 I0.0255 J0.1051
G1 X-5.5498 Y-1.9077
X-5.5514 Y-1.9028
G2 X-5.5337 Y-1.8006 I0.1023 J0.0349
X-5.4078 Y-1.6831 I0.4556 J-0.3619
G3 X-5.4214 Y-1.6387 I-0.0138 J0.0201
G2 X-5.5916 Y-1.6119 I0.0041 J0.5819
G1 X-5.5917
G2 X-5.6636 Y-1.5371 I0.0325 J0.1032
G1 Y-1.537
X-5.665 Y-1.5319
G2 X-5.6407 Y-1.431 I0.1044 J0.0283
G1 Y-1.4309
G2 X-5.5072 Y-1.322 I0.4307 J-0.3913
G3 X-5.5179 Y-1.2768 I-0.0125 J0.0209
G2 X-5.6859 Y-1.2389 I0.0426 J0.5803
X-5.7528 Y-1.1596 I0.0392 J0.1008
G1 X-5.7538 Y-1.1545
X-5.7539 Y-1.1542
G2 X-5.7229 Y-1.055 I0.106 J0.0213
X-5.5826 Y-0.9551 I0.4039 J-0.4189
G3 X-5.5902 Y-0.9093 I-0.011 J0.0217
G2 X-5.7553 Y-0.8604 I0.0808 J0.5763
X-5.8169 Y-0.7767 I0.0457 J0.098
Y-0.7762 I0.0775 J0.0104
G1 X-5.8176 Y-0.7711
G2 X-5.7802 Y-0.6745 I0.1072 J0.014
G1 X-5.7801
G2 X-5.6335 Y-0.5841 I0.3753 J-0.4447
G3 X-5.6381 Y-0.5378 I-0.0096 J0.0224
G2 X-5.7997 Y-0.4781 I0.1187 J0.5697
X-5.8555 Y-0.3905 I0.0521 J0.0948
G1 X-5.8558 Y-0.3853
G2 X-5.8121 Y-0.291 I0.1079 J0.0072
X-5.6598 Y-0.2105 I0.3451 J-0.4685
G3 X-5.6613 Y-0.164 I-0.0081 J0.023
G2 X-5.8186 Y-0.0938 I0.1561 J0.5606
G1 X-5.8187 Y-0.0937
G2 X-5.8685 Y-0.0026 I0.0583 J0.0911
G1 Y0.
Y0.0026 Z-0.0726
G2 X-5.8187 Y0.0937 Z-0.0781 I0.1082 J0.
G1 X-5.8186 Y0.0938
G2 X-5.6613 Y0.164 Z-0.0867 I0.3134 J-0.4903
G3 X-5.6598 Y0.2105 Z-0.0898 I-0.0065 J0.0235
G2 X-5.8121 Y0.291 Z-0.0985 I0.1928 J0.549
X-5.8558 Y0.3852 Z-0.1039 I0.0642 J0.087
G1 X-5.8555 Y0.3905 Z-0.1042
G2 X-5.7997 Y0.4781 Z-0.1096 I0.1079 J-0.0072
X-5.6381 Y0.5378 Z-0.1183 I0.2803 J-0.5099
G3 X-5.6335 Y0.5841 Z-0.1214 I-0.005 J0.0238
G2 X-5.7801 Y0.6745 Z-0.1301 I0.2286 J0.5351
G1 X-5.7802
G2 X-5.8176 Y0.7711 Z-0.1355 I0.0699 J0.0826
G1 X-5.8169 Y0.7762 Z-0.1358
G2 Y0.7767 I0.0775 J-0.0099
X-5.7553 Y0.8604 Z-0.1412 I0.1072 J-0.0144
X-5.6854 Y0.8877 Z-0.145 I0.246 J-0.5273
X-5.5902 Y0.9093 I0.176 J-0.5546
G3 X-5.5826 Y0.9551 I-0.0034 J0.0241
G2 X-5.7229 Y1.055 I0.2635 J0.5188
X-5.7539 Y1.1542 I0.0751 J0.0779
G1 X-5.7538 Y1.1545
X-5.7528 Y1.1596
G2 X-5.686 Y1.2389 I0.106 J-0.0215
X-5.5179 Y1.2768 I0.2106 J-0.5424
G3 X-5.5072 Y1.322 I-0.0018 J0.0243
G2 X-5.6407 Y1.4309 I0.2972 J0.5003
G1 Y1.431
G2 X-5.665 Y1.5319 I0.0801 J0.0727
G1 X-5.6636 Y1.537
Y1.5371
G2 X-5.5917 Y1.6119 I0.1044 J-0.0283
G1 X-5.5916
G2 X-5.4215 Y1.6387 I0.1743 J-0.5552
G3 X-5.4078 Y1.6831 I-0.0002 J0.0243
G2 X-5.5337 Y1.8006 I0.3297 J0.4795
X-5.5514 Y1.9028 I0.0847 J0.0673
G1 X-5.5498 Y1.9077
X-5.5497 Y1.908
G2 X-5.4729 Y1.978 I0.1023 J-0.0351
X-5.3013 Y1.9934 I0.1372 J-0.5655
G3 X-5.2848 Y2.0368 I0.0014 J0.0243
G2 X-5.4027 Y2.1624 I0.3607 J0.4567
X-5.4135 Y2.2657 I0.089 J0.0615
G1 X-5.4114 Y2.2706
G2 X-5.3302 Y2.3353 I0.0997 J-0.0418
G1 Y2.3354
G2 X-5.158 Y2.3394 I0.0996 J-0.5733
G3 X-5.1386 Y2.3816 I0.003 J0.0242
G2 X-5.2479 Y2.5147 I0.3901 J0.4318
X-5.2519 Y2.6185 I0.0928 J0.0555
G1 X-5.2495 Y2.6233
G2 X-5.1641 Y2.6825 I0.0968 J-0.0483
X-4.9921 Y2.6752 I0.0614 J-0.5786
G3 X-4.97 Y2.716 I0.0046 J0.0239
G2 X-5.0702 Y2.8561 I0.4178 J0.4051
X-5.0674 Y2.9599 I0.0963 J0.0493
G1 X-5.0673 Y2.96
X-5.0646 Y2.9645
G2 X-4.9756 Y3.018 I0.0933 J-0.0546
X-4.8044 Y2.9992 I0.023 J-0.5814
G3 X-4.7796 Y3.0386 I0.0062 J0.0236
G2 X-4.8704 Y3.1849 I0.4436 J0.3766
X-4.8607 Y3.2883 I0.0993 J0.0429
G1 X-4.8605 Y3.2886
X-4.8576 Y3.2929
G2 X-4.7653 Y3.3402 I0.0894 J-0.0608
X-4.5956 Y3.3102 I-0.0154 J-0.5817
G3 X-4.5683 Y3.3478 I0.0078 J0.0231
G2 X-4.6492 Y3.4998 I0.4675 J0.3464
X-4.6328 Y3.6023 I0.1019 J0.0362
G1 X-4.6326 Y3.6026
X-4.6294 Y3.6067
G2 X-4.5341 Y3.6478 I0.0853 J-0.0665
X-4.3668 Y3.6067 I-0.0539 J-0.5794
G3 X-4.3371 Y3.6424 I0.0093 J0.0225
G2 X-4.4078 Y3.7994 I0.4894 J0.3148
X-4.3845 Y3.9006 I0.1041 J0.0293
G1 X-4.3811 Y3.9045
X-4.381 Y3.9047
G2 X-4.2831 Y3.9395 I0.0808 J-0.0719
X-4.1189 Y3.8874 I-0.092 J-0.5746
G3 X-4.0868 Y3.9211 I0.0107 J0.0219
G2 X-4.147 Y4.0824 I0.5091 J0.2818
X-4.1172 Y4.1818 I0.1058 J0.0224
G1 X-4.1135 Y4.1855
X-4.1132 Y4.1857
G2 X-4.0134 Y4.214 I0.0758 J-0.0772
X-3.853 Y4.1511 I-0.1298 J-0.5672
G3 X-3.8188 Y4.1826 I0.0121 J0.0211
G2 X-3.8682 Y4.3476 I0.5266 J0.2475
X-3.8317 Y4.4449 I0.1071 J0.0154
G1 X-3.8315 Y4.4451
X-3.8275 Y4.4485
G2 X-3.7261 Y4.47 I0.0705 J-0.082
X-3.5702 Y4.3967 I-0.1669 J-0.5574
G3 X-3.534 Y4.4258 I0.0135 J0.0203
G2 X-3.5724 Y4.5938 I0.5418 J0.2122
X-3.5295 Y4.6884 I0.1078 J0.0082
G1 X-3.5293 Y4.6887
X-3.5251 Y4.6917
G2 X-3.4225 Y4.7065 I0.0648 J-0.0866
X-3.2718 Y4.623 I-0.2034 J-0.5452
G3 X-3.2338 Y4.6497 I0.0148 J0.0193
G2 X-3.261 Y4.8198 I0.5547 J0.1759
X-3.212 Y4.9114 I0.1081 J0.0011
G1 X-3.2118 Y4.9116
X-3.2074 Y4.9144
G2 X-3.104 Y4.9224 I0.059 J-0.0906
X-2.9591 Y4.8292 I-0.239 J-0.5305
G3 X-2.9194 Y4.8533 I0.0161 J0.0183
G2 X-2.9353 Y5.0248 I0.5651 J0.1389
X-2.8804 Y5.113 I0.108 J-0.0061
G1 X-2.8758 Y5.1156
X-2.8757
G2 X-2.7718 Y5.1168 I0.053 J-0.0943
X-2.6335 Y5.0142 I-0.2736 J-0.5135
G3 X-2.5923 Y5.0356 I0.0172 J0.0172
G2 X-2.5968 Y5.2078 I0.573 J0.1012
X-2.5362 Y5.2922 I0.1074 J-0.0132
G1 X-2.5313 Y5.2945
G2 X-2.4276 Y5.2888 I0.0467 J-0.0976
X-2.2963 Y5.1773 I-0.3069 J-0.4944
G3 X-2.2538 Y5.1959 I0.0184 J0.016
G2 X-2.2469 Y5.3681 I0.5785 J0.0631
X-2.1808 Y5.4482 I0.1062 J-0.0203
X-2.1804 Y5.4484 I0.029 J-0.0726
G1 X-2.1756 Y5.4503
G2 X-2.0728 Y5.4377 I0.0399 J-0.1005
X-1.9491 Y5.3177 I-0.3389 J-0.473
G3 X-1.9054 Y5.3335 I0.0194 J0.0147
G2 X-1.8872 Y5.5048 I0.5814 J0.0247
X-1.8161 Y5.5804 I0.1047 J-0.0272
G1 X-1.8112 Y5.582
X-1.8109 Y5.5821
G2 X-1.7089 Y5.5628 I0.0334 J-0.1029
X-1.5934 Y5.4349 I-0.3695 J-0.4496
G3 X-1.5488 Y5.4478 I0.0203 J0.0135
G2 X-1.5193 Y5.6175 I0.5817 J-0.0137
X-1.4432 Y5.6882 I0.1026 J-0.0341
G1 X-1.4381 Y5.6895
G2 X-1.3375 Y5.6635 I0.0266 J-0.1048
X-1.2307 Y5.5283 I-0.3983 J-0.4242
G3 X-1.1854 Y5.5382 I0.0211 J0.0121
G2 X-1.1447 Y5.7056 I0.5795 J-0.0522
X-1.0643 Y5.7711 I0.1002 J-0.0408
G1 X-1.0593 Y5.7721
G2 X-1.0588 Y5.7722 I0.0145 J-0.0768
X-0.9602 Y5.7396 I0.0195 J-0.1064
X-0.8627 Y5.5976 I-0.4255 J-0.3969
G3 X-0.8167 Y5.6045 I0.0219 J0.0107
G2 X-0.7651 Y5.7688 I0.5748 J-0.0903
X-0.6804 Y5.8289 I0.0973 J-0.0473
G1 X-0.68 Y5.829
X-0.6749 Y5.8295
G2 X-0.5788 Y5.7905 I0.0123 J-0.1075
X-0.4909 Y5.6424 I-0.4508 J-0.3679
G3 X-0.4445 Y5.6462 I0.0225 J0.0092
G2 X-0.3822 Y5.8068 I0.5676 J-0.1281
X-0.2938 Y5.8611 I0.0939 J-0.0537
G1 X-0.2885 Y5.8614
X-0.2883
G2 X-0.1948 Y5.816 I0.0053 J-0.108
X-0.1169 Y5.6625 I-0.4742 J-0.3373
G3 X-0.0704 Y5.6632 I0.0231 J0.0077
G2 X0.0024 Y5.8193 I0.5579 J-0.1654
X0.0943 Y5.8677 I0.0902 J-0.0597
G1 X0.0995 Y5.8676
X0.0997
G2 X0.1899 Y5.8163 I-0.0018 J-0.1081
X0.2576 Y5.6578 I-0.4954 J-0.3053
G3 X0.304 Y5.6555 I0.0236 J0.0061
G2 X0.387 Y5.8064 I0.5458 J-0.2019
X0.4819 Y5.8487 I0.086 J-0.0655
X0.4825 Y5.8486 I-0.0064 J-0.0779
G1 X0.4876 Y5.8482
G2 X0.5739 Y5.791 I-0.0092 J-0.1077
X0.631 Y5.6284 I-0.5145 J-0.2719
G3 X0.6771 Y5.623 I0.0239 J0.0046
G2 X0.7699 Y5.7681 I0.5312 J-0.2375
X0.8674 Y5.804 I0.0815 J-0.0711
G1 X0.8675
X0.8727 Y5.8032
G2 X0.9554 Y5.7404 I-0.0161 J-0.107
X1.0016 Y5.5744 I-0.5313 J-0.2372
G3 X1.0473 Y5.566 I0.0242 J0.003
G2 X1.1495 Y5.7046 I0.5143 J-0.2721
X1.2491 Y5.734 I0.0766 J-0.0763
G1 X1.2493
X1.2544 Y5.7328
G2 X1.3327 Y5.6647 I-0.0232 J-0.1056
X1.3678 Y5.496 I-0.5458 J-0.2016
G3 X1.4129 Y5.4846 I0.0243 J0.0014
G2 X1.524 Y5.6162 I0.4952 J-0.3055
X1.6253 Y5.6389 I0.0714 J-0.0812
G1 X1.6303 Y5.6375
X1.6305 Y5.6374
G2 X1.7042 Y5.5642 I-0.0301 J-0.1039
X1.7281 Y5.3936 I-0.558 J-0.1651
G3 X1.7723 Y5.3792 I0.0244 J-0.0002
G2 X1.8918 Y5.5032 I0.474 J-0.3375
G1 X1.8919 Y5.5033
G2 X1.9945 Y5.5192 I0.0658 J-0.0858
G1 X1.9946 Y5.5191
X1.9996 Y5.5173
G2 X2.0682 Y5.4394 I-0.0369 J-0.1017
X2.0808 Y5.2676 I-0.5677 J-0.1279
G3 X2.1239 Y5.2503 I0.0243 J-0.0019
G2 X2.2514 Y5.3662 I0.4507 J-0.3681
X2.3549 Y5.3753 I0.0601 J-0.09
G1 X2.3598 Y5.3731
G2 X2.4232 Y5.2908 I-0.0434 J-0.099
X2.4243 Y5.1186 I-0.5749 J-0.0901
G3 X2.4662 Y5.0985 I0.0241 J-0.0034
G2 X2.6011 Y5.2056 I0.4254 J-0.3971
X2.705 Y5.2079 I0.054 J-0.0937
G1 X2.7097 Y5.2054
G2 X2.7675 Y5.1191 I-0.0499 J-0.096
X2.7573 Y4.9471 I-0.5796 J-0.0519
G3 X2.7978 Y4.9244 I0.0238 J-0.005
G2 X2.9395 Y5.0224 I0.3982 J-0.4243
X3.0433 Y5.0177 I0.0477 J-0.0971
G1 X3.0434 Y5.0176
X3.0479 Y5.0149
G2 X3.0998 Y4.925 I-0.0562 J-0.0924
X3.0783 Y4.7541 I-0.5817 J-0.0134
G3 X3.1172 Y4.7287 I0.0234 J-0.0066
G2 X3.265 Y4.8171 I0.3692 J-0.4498
X3.3682 Y4.8056 I0.0411 J-0.1
G1 X3.3725 Y4.8026
X3.3726
G2 X3.4185 Y4.7095 I-0.0621 J-0.0885
G1 Y4.7094
G2 X3.3857 Y4.5403 I-0.5814 J0.025
G3 X3.4229 Y4.5123 I0.023 J-0.0081
G2 X3.5762 Y4.5908 I0.3387 J-0.4731
G1 X3.5763
G2 X3.6784 Y4.5725 I0.0344 J-0.1026
G1 X3.6825 Y4.5693
X3.6826 Y4.5692
G2 X3.7223 Y4.4731 I-0.0678 J-0.0842
X3.6784 Y4.3066 I-0.5784 J0.0634
G3 X3.7136 Y4.2763 I0.0224 J-0.0096
G2 X3.8718 Y4.3444 I0.3067 J-0.4945
X3.9726 Y4.3194 I0.0276 J-0.1046
G1 X3.9765 Y4.3158
G2 X4.0098 Y4.2173 I-0.0732 J-0.0796
X3.955 Y4.054 I-0.573 J0.1015
G3 X3.9881 Y4.0215 I0.0217 J-0.0111
G2 X4.1505 Y4.079 I0.2734 J-0.5137
X4.2493 Y4.0475 I0.0206 J-0.1062
G1 X4.2529 Y4.0438
X4.2531 Y4.0436
G2 X4.2798 Y3.9431 I-0.0783 J-0.0746
X4.2142 Y3.7838 I-0.565 J0.1392
G3 X4.2452 Y3.7491 I0.0209 J-0.0125
G2 X4.411 Y3.7958 I0.2388 J-0.5306
X4.5077 Y3.7577 I0.0136 J-0.1073
G1 X4.511 Y3.7536
G2 X4.531 Y3.6517 I-0.0831 J-0.0692
X4.4551 Y3.497 I-0.5546 J0.1762
G3 X4.4837 Y3.4603 I0.02 J-0.0138
G2 X4.6522 Y3.4959 I0.2032 J-0.5453
X4.7461 Y3.4515 I0.0065 J-0.1079
G1 X4.7493 Y3.4473
G2 X4.7624 Y3.3442 I-0.0875 J-0.0636
X4.6765 Y3.1949 I-0.5417 J0.2125
G3 X4.7026 Y3.1564 I0.0191 J-0.0151
G2 X4.8731 Y3.1808 I0.1667 J-0.5575
X4.9638 Y3.1304 I-0.0007 J-0.1082
G1 X4.9666 Y3.126
X4.9668 Y3.1258
G2 X4.973 Y3.0221 I-0.0916 J-0.0576
X4.8774 Y2.8789 I-0.5265 J0.2478
G3 X4.9009 Y2.8388 I0.018 J-0.0164
G2 X5.0726 Y2.8518 I0.1295 J-0.5673
X5.1599 Y2.7954 I-0.0078 J-0.1079
G1 X5.1624 Y2.7907
G2 X5.1619 Y2.6868 I-0.0951 J-0.0515
X5.057 Y2.5502 I-0.509 J0.282
G3 X5.0778 Y2.5086 I0.0169 J-0.0175
G2 X5.25 Y2.5103 I0.0917 J-0.5746
X5.3334 Y2.4483 I-0.0149 J-0.1071
G1 X5.3356 Y2.4435
G2 X5.3282 Y2.3399 I-0.0983 J-0.0451
X5.2145 Y2.2104 I-0.4892 J0.3151
G3 X5.2325 Y2.1676 I0.0157 J-0.0186
G2 X5.4045 Y2.1578 I0.0536 J-0.5794
X5.4835 Y2.0905 I-0.022 J-0.1059
X5.4837 Y2.09 I-0.073 J-0.0278
G1 X5.4855 Y2.0852
G2 X5.4712 Y1.9826 I-0.1012 J-0.0382
X5.3492 Y1.8609 I-0.4674 J0.3467
G3 X5.3643 Y1.817 I0.0144 J-0.0196
G2 X5.5352 Y1.7959 I0.0151 J-0.5817
X5.6097 Y1.7235 I-0.0289 J-0.1042
G1 X5.6098 Y1.7232
X5.6113 Y1.7183
G2 X5.5902 Y1.6166 I-0.1034 J-0.0316
X5.4605 Y1.5033 I-0.4434 J0.3768
G3 X5.4727 Y1.4585 I0.0131 J-0.0205
G2 X5.6418 Y1.4262 I-0.0234 J-0.5814
X5.7113 Y1.349 I-0.0358 J-0.1021
G1 X5.7125 Y1.3439
X5.7126 Y1.3438
G2 X5.6849 Y1.2437 I-0.1053 J-0.0248
X5.5479 Y1.1392 I-0.4175 J0.4053
G3 X5.5571 Y1.0936 I0.0117 J-0.0213
G2 X5.7238 Y1.0502 I-0.0617 J-0.5786
X5.788 Y0.9685 I-0.0425 J-0.0995
G1 X5.7889 Y0.9633
G2 X5.7546 Y0.8652 I-0.1067 J-0.0178
X5.6111 Y0.77 I-0.3898 J0.432
G3 X5.6172 Y0.724 I0.0103 J-0.0221
G2 X5.7807 Y0.6696 I-0.0998 J-0.5733
X5.8393 Y0.5841 I-0.049 J-0.0964
G1 X5.8399 Y0.579
Y0.5786
G2 X5.7993 Y0.483 I-0.1076 J-0.0107
X5.6497 Y0.3975 I-0.3604 J0.4568
G3 X5.6528 Y0.3511 I0.0088 J-0.0227
G2 X5.8123 Y0.2861 I-0.1375 J-0.5654
X5.8652 Y0.1967 I-0.0552 J-0.093
G1 Y0.1964
X5.8654 Y0.1912
G2 X5.8185 Y0.0987 I-0.1081 J-0.0034
X5.6636 Y0.0232 I-0.3295 J0.4797
G3 Y-0.0232 I0.0073 J-0.0232
G2 X5.8185 Y-0.0987 I-0.1746 J-0.5551
X5.8654 Y-0.1912 I-0.0612 J-0.0891
G1 X5.8652 Y-0.1964
Y-0.1967
G2 X5.8123 Y-0.2861 I-0.1081 J0.0036
X5.6528 Y-0.3511 I-0.297 J0.5004
G3 X5.6497 Y-0.3975 I0.0058 J-0.0237
G2 X5.7993 Y-0.483 I-0.2108 J-0.5424
X5.8399 Y-0.5786 I-0.067 J-0.0849
G1 Y-0.579
X5.8393 Y-0.5841
G2 X5.7807 Y-0.6696 I-0.1076 J0.0109
X5.6172 Y-0.724 I-0.2633 J0.5189
G3 X5.6111 Y-0.77 I0.0041 J-0.024
G2 X5.7546 Y-0.8652 I-0.2462 J-0.5272
X5.7889 Y-0.9633 I-0.0724 J-0.0803
G1 X5.788 Y-0.9685
G2 X5.7238 Y-1.0502 I-0.1067 J0.0177
X5.5571 Y-1.0936 I-0.2285 J0.5352
G3 X5.5479 Y-1.1392 I0.0026 J-0.0242
G2 X5.6849 Y-1.2437 I-0.2805 J-0.5098
X5.7126 Y-1.3438 I-0.0776 J-0.0753
G1 X5.7125 Y-1.3439
X5.7113 Y-1.349
G2 X5.6418 Y-1.4262 I-0.1052 J0.0249
X5.4727 Y-1.4585 I-0.1925 J0.5491
G3 X5.4605 Y-1.5033 I0.001 J-0.0243
G2 X5.5902 Y-1.6166 I-0.3137 J-0.4901
X5.6113 Y-1.7183 I-0.0824 J-0.07
G1 X5.6098 Y-1.7232
X5.6097 Y-1.7235
G2 X5.5352 Y-1.7959 I-0.1034 J0.0318
X5.3643 Y-1.817 I-0.1558 J0.5606
G3 X5.3492 Y-1.8609 I-0.0006 J-0.0243
G2 X5.4712 Y-1.9826 I-0.3454 J-0.4683
X5.4855 Y-2.0852 I-0.0869 J-0.0644
G1 X5.4837 Y-2.09
G2 X5.4835 Y-2.0905 I-0.0732 J0.0274
X5.4045 Y-2.1578 I-0.1011 J0.0385
X5.2325 Y-2.1676 I-0.1185 J0.5697
G3 X5.2145 Y-2.2104 I-0.0023 J-0.0242
G2 X5.3282 Y-2.3398 I-0.3755 J-0.4445
X5.3356 Y-2.4435 I-0.0909 J-0.0586
G1 X5.3334 Y-2.4483
G2 X5.25 Y-2.5103 I-0.0983 J0.0451
X5.0778 Y-2.5086 I-0.0805 J0.5763
G3 X5.057 Y-2.5502 I-0.0039 J-0.024
G2 X5.1619 Y-2.6868 I-0.4041 J-0.4187
X5.1624 Y-2.7907 I-0.0946 J-0.0524
G1 X5.1599 Y-2.7954
G2 X5.0726 Y-2.8518 I-0.0951 J0.0515
X4.9009 Y-2.8388 I-0.0423 J0.5804
G3 X4.8774 Y-2.8789 I-0.0054 J-0.0237
G2 X4.973 Y-3.0221 I-0.4309 J-0.391
X4.9668 Y-3.1258 I-0.0978 J-0.0461
G1 X4.9666 Y-3.126
X4.9638 Y-3.1304
G2 X4.8731 Y-3.1808 I-0.0914 J0.0577
X4.7026 Y-3.1564 I-0.0038 J0.5819
G3 X4.6765 Y-3.1949 I-0.007 J-0.0233
G2 X4.7624 Y-3.3442 I-0.4558 J-0.3618
X4.7493 Y-3.4473 I-0.1007 J-0.0395
G1 X4.7462 Y-3.4515
G2 X4.6522 Y-3.4959 I-0.0875 J0.0635
X4.4837 Y-3.4603 I0.0347 J0.5809
G3 X4.4551 Y-3.497 I-0.0085 J-0.0228
G2 X4.531 Y-3.6516 I-0.4787 J-0.3309
X4.511 Y-3.7536 I-0.1031 J-0.0327
G1 X4.5077 Y-3.7577
G2 X4.411 Y-3.7958 I-0.0831 J0.0692
X4.2452 Y-3.7491 I0.073 J0.5773
G3 X4.2142 Y-3.7838 I-0.01 J-0.0222
G2 X4.2798 Y-3.9431 I-0.4995 J-0.2986
X4.2531 Y-4.0436 I-0.105 J-0.0259
G1 X4.2529 Y-4.0438
X4.2493 Y-4.0475
G2 X4.1505 Y-4.079 I-0.0782 J0.0747
X3.9881 Y-4.0215 I0.111 J0.5712
G3 X3.955 Y-4.054 I-0.0114 J-0.0215
G2 X4.0098 Y-4.2173 I-0.5182 J-0.2648
X3.9766 Y-4.3158 I-0.1065 J-0.0189
G1 X3.9727 Y-4.3194
G2 X3.8718 Y-4.3444 I-0.0732 J0.0796
X3.7136 Y-4.2763 I0.1485 J0.5626
G3 X3.6784 Y-4.3066 I-0.0128 J-0.0207
G2 X3.7223 Y-4.4731 I-0.5345 J-0.23
X3.6826 Y-4.5692 I-0.1075 J-0.0118
G1 X3.6825 Y-4.5693
X3.6784 Y-4.5725
G2 X3.5763 Y-4.5908 I-0.0678 J0.0843
G1 X3.5762
G2 X3.4229 Y-4.5123 I0.1854 J0.5516
G3 X3.3857 Y-4.5403 I-0.0142 J-0.0198
G2 X3.4185 Y-4.7094 I-0.5486 J-0.1941
G1 Y-4.7095
G2 X3.3726 Y-4.8026 I-0.1081 J-0.0046
G1 X3.3725
X3.3682 Y-4.8056
G2 X3.265 Y-4.8171 I-0.0621 J0.0885
X3.1172 Y-4.7287 I0.2213 J0.5382
G3 X3.0783 Y-4.7541 I-0.0155 J-0.0188
G2 X3.0998 Y-4.925 I-0.5602 J-0.1575
X3.0479 Y-5.0149 I-0.1081 J0.0025
G1 X3.0434 Y-5.0176
X3.0433 Y-5.0177
G2 X2.9395 Y-5.0224 I-0.0562 J0.0924
X2.7978 Y-4.9244 I0.2565 J0.5223
G3 X2.7573 Y-4.9471 I-0.0167 J-0.0178
G2 X2.7675 Y-5.1191 I-0.5694 J-0.1201
X2.7097 Y-5.2054 I-0.1077 J0.0096
G1 X2.705 Y-5.2079
G2 X2.6011 Y-5.2056 I-0.0499 J0.096
X2.4662 Y-5.0985 I0.2905 J0.5042
G3 X2.4243 Y-5.1186 I-0.0178 J-0.0166
G2 X2.4232 Y-5.2908 I-0.5761 J-0.0822
X2.3598 Y-5.3731 I-0.1069 J0.0167
G1 X2.3549 Y-5.3753
G2 X2.2514 Y-5.3662 I-0.0434 J0.099
X2.1239 Y-5.2503 I0.3231 J0.4839
G3 X2.0808 Y-5.2676 I-0.0189 J-0.0154
G2 X2.0682 Y-5.4394 I-0.5802 J-0.044
X1.9996 Y-5.5173 I-0.1055 J0.0238
G1 X1.9946 Y-5.5191
X1.9945 Y-5.5192
G2 X1.8919 Y-5.5033 I-0.0368 J0.1017
G1 X1.8918 Y-5.5032
G2 X1.7723 Y-5.3792 I0.3544 J0.4615
G3 X1.7281 Y-5.3936 I-0.0198 J-0.0141
G2 X1.7042 Y-5.5642 I-0.5819 J-0.0055
X1.6305 Y-5.6374 I-0.1037 J0.0307
G1 X1.6303 Y-5.6375
X1.6253 Y-5.6389
G2 X1.524 Y-5.6162 I-0.0299 J0.1039
X1.4129 Y-5.4846 I0.3841 J0.4371
G3 X1.3678 Y-5.496 I-0.0207 J-0.0128
G2 X1.3327 Y-5.6647 I-0.581 J0.0329
X1.2544 Y-5.7328 I-0.1014 J0.0375
G1 X1.2493 Y-5.734
X1.2491
G2 X1.1495 Y-5.7046 I-0.023 J0.1056
X1.0473 Y-5.566 I0.4122 J0.4108
G3 X1.0016 Y-5.5744 I-0.0215 J-0.0114
G2 X0.9554 Y-5.7404 I-0.5775 J0.0713
X0.8727 Y-5.8032 I-0.0988 J0.0441
G1 X0.8675 Y-5.804
X0.8674
G2 X0.7699 Y-5.7681 I-0.016 J0.107
X0.6771 Y-5.623 I0.4384 J0.3826
G3 X0.631 Y-5.6284 I-0.0222 J-0.0099
G2 X0.5739 Y-5.791 I-0.5715 J0.1093
X0.4876 Y-5.8482 I-0.0956 J0.0505
G1 X0.4825 Y-5.8486
G2 X0.4819 Y-5.8487 I-0.007 J0.0778
X0.387 Y-5.8064 I-0.0088 J0.1078
X0.304 Y-5.6555 I0.4628 J0.3528
G3 X0.2576 Y-5.6578 I-0.0228 J-0.0084
G2 X0.19 Y-5.8162 I-0.5631 J0.1468
X0.0997 Y-5.8676 I-0.0921 J0.0567
G1 X0.0995
X0.0943 Y-5.8677
G2 X0.0024 Y-5.8193 I-0.0017 J0.1081
X-0.0704 Y-5.6632 I0.485 J0.3215
G3 X-0.1169 Y-5.6625 I-0.0233 J-0.0069
G2 X-0.1948 Y-5.816 I-0.5521 J0.1838
X-0.2883 Y-5.8614 I-0.0882 J0.0626
G1 X-0.2885
X-0.2938 Y-5.8611
G2 X-0.3822 Y-5.8068 I0.0055 J0.108
X-0.4445 Y-5.6462 I0.5052 J0.2887
G3 X-0.4909 Y-5.6424 I-0.0238 J-0.0054
G2 X-0.5788 Y-5.7905 I-0.5388 J0.2198
X-0.6749 Y-5.8295 I-0.0838 J0.0684
G1 X-0.68 Y-5.829
X-0.6804 Y-5.8289
G2 X-0.7651 Y-5.7688 I0.0125 J0.1074
X-0.8167 Y-5.6045 I0.5232 J0.2547
G3 X-0.8627 Y-5.5976 I-0.0241 J-0.0038
G2 X-0.9602 Y-5.7396 I-0.5231 J0.2549
X-1.0588 Y-5.7722 I-0.0791 J0.0738
X-1.0593 Y-5.7721 I0.0141 J0.0769
G1 X-1.0643 Y-5.7711
G2 X-1.1447 Y-5.7056 I0.0198 J0.1063
X-1.1854 Y-5.5382 I0.5389 J0.2195
G3 X-1.2307 Y-5.5283 I-0.0243 J-0.0022
G2 X-1.3375 Y-5.6635 I-0.5051 J0.289
X-1.4381 Y-5.6895 I-0.074 J0.0788
G1 X-1.4432 Y-5.6882
G2 X-1.5193 Y-5.6175 I0.0265 J0.1048
X-1.5488 Y-5.4478 I0.5522 J0.1835
G3 X-1.5934 Y-5.4349 I-0.0243 J-0.0006
G2 X-1.7089 Y-5.5628 I-0.4849 J0.3217
X-1.8109 Y-5.5821 I-0.0687 J0.0836
G1 X-1.8112 Y-5.582
X-1.8161 Y-5.5804
G2 X-1.8872 Y-5.5048 I0.0336 J0.1028
X-1.9054 Y-5.3335 I0.5631 J0.1465
G3 X-1.9491 Y-5.3177 I-0.0243 J0.001
G2 X-2.0728 Y-5.4377 I-0.4625 J0.3531
X-2.1756 Y-5.4503 I-0.063 J0.0879
G1 X-2.1804 Y-5.4484
G2 X-2.1808 Y-5.4482 I0.0286 J0.0727
X-2.2469 Y-5.3681 I0.0402 J0.1004
X-2.2538 Y-5.1959 I0.5716 J0.109
G3 X-2.2963 Y-5.1773 I-0.0242 J0.0027
G2 X-2.4276 Y-5.2888 I-0.4382 J0.3829
X-2.5313 Y-5.2945 I-0.057 J0.0919
G1 X-2.5361 Y-5.2922
G2 X-2.5968 Y-5.2078 I0.0467 J0.0976
X-2.5923 Y-5.0356 I0.5775 J0.071
G3 X-2.6335 Y-5.0142 I-0.024 J0.0042
G2 X-2.7718 Y-5.1168 I-0.4119 J0.411
X-2.8757 Y-5.1156 I-0.0509 J0.0954
G1 X-2.8758
X-2.8804 Y-5.113
G2 X-2.9353 Y-5.0249 I0.053 J0.0942
X-2.9194 Y-4.8533 I0.581 J0.0327
G3 X-2.9591 Y-4.8292 I-0.0237 J0.0058
G2 X-3.104 Y-4.9224 I-0.3839 J0.4373
X-3.2074 Y-4.9144 I-0.0444 J0.0986
G1 X-3.2118 Y-4.9116
X-3.212 Y-4.9114
G2 X-3.261 Y-4.8198 I0.0592 J0.0905
X-3.2338 Y-4.6497 I0.5819 J-0.0058
G3 X-3.2718 Y-4.623 I-0.0232 J0.0074
G2 X-3.4225 Y-4.7065 I-0.3541 J0.4617
X-3.5251 Y-4.6917 I-0.0378 J0.1013
G1 X-3.5293 Y-4.6887
X-3.5295 Y-4.6884
G2 X-3.5724 Y-4.5938 I0.065 J0.0864
X-3.534 Y-4.4258 I0.5802 J-0.0442
G3 X-3.5702 Y-4.3967 I-0.0227 J0.0089
G2 X-3.7261 Y-4.47 I-0.3229 J0.4841
X-3.8275 Y-4.4485 I-0.031 J0.1036
G1 X-3.8315 Y-4.4451
X-3.8317 Y-4.4449
G2 X-3.8682 Y-4.3476 I0.0706 J0.082
X-3.8188 Y-4.1826 I0.576 J-0.0825
G3 X-3.853 Y-4.1511 I-0.022 J0.0104
G2 X-4.0134 Y-4.214 I-0.2901 J0.5044
X-4.1132 Y-4.1857 I-0.0241 J0.1054
G1 X-4.1135 Y-4.1855
X-4.1172 Y-4.1818
G2 X-4.147 Y-4.0824 I0.0759 J0.077
X-4.0868 Y-3.9211 I0.5693 J-0.1205
G3 X-4.1189 Y-3.8874 I-0.0213 J0.0118
G2 X-4.2831 Y-3.9395 I-0.2562 J0.5224
X-4.381 Y-3.9047 I-0.0171 J0.1068
G1 X-4.3811 Y-3.9045
X-4.3845 Y-3.9006
G2 X-4.4078 Y-3.7994 I0.0809 J0.0718
X-4.3371 Y-3.6424 I0.5601 J-0.1577
G3 X-4.3668 Y-3.6067 I-0.0205 J0.0132
G2 X-4.5341 Y-3.6478 I-0.2211 J0.5382
X-4.6294 Y-3.6067 I-0.01 J0.1077
G1 X-4.6326 Y-3.6026
X-4.6328 Y-3.6023
G2 X-4.6492 Y-3.4998 I0.0854 J0.0663
X-4.5683 Y-3.3478 I0.5484 J-0.1944
G3 X-4.5956 Y-3.3102 I-0.0196 J0.0145
G2 X-4.7653 Y-3.3402 I-0.185 J0.5517
X-4.8576 Y-3.2929 I-0.0029 J0.1081
G1 X-4.8605 Y-3.2886
X-4.8607 Y-3.2883
G2 X-4.8704 Y-3.1849 I0.0896 J0.0605
X-4.7796 Y-3.0386 I0.5344 J-0.2303
G3 X-4.8043 Y-2.9992 I-0.0186 J0.0158
G2 X-4.9756 Y-3.018 I-0.1482 J0.5627
X-5.0646 Y-2.9645 I0.0043 J0.1081
G1 X-5.0673 Y-2.96
X-5.0674 Y-2.9599
G2 X-5.0702 Y-2.8561 I0.0934 J0.0545
X-4.97 Y-2.716 I0.518 J-0.265
G3 X-4.9921 Y-2.6752 I-0.0175 J0.017
G2 X-5.1641 Y-2.6825 I-0.1107 J0.5713
X-5.2495 Y-2.6233 I0.0114 J0.1076
G1 X-5.2519 Y-2.6185
G2 X-5.2479 Y-2.5147 I0.0968 J0.0483
X-5.1386 Y-2.3816 I0.4994 J-0.2987
G3 X-5.158 Y-2.3394 I-0.0163 J0.0181
G2 X-5.3302 Y-2.3354 I-0.0727 J0.5773
G1 Y-2.3353
G2 X-5.4114 Y-2.2706 I0.0186 J0.1065
G1 X-5.4134 Y-2.2657
G2 X-5.4027 Y-2.1624 I0.0997 J0.0418
X-5.2848 Y-2.0368 I0.4786 J-0.331
G3 X-5.3013 Y-1.9934 I-0.0151 J0.0191
G2 X-5.4729 Y-1.978 I-0.0344 J0.5809
X-5.5497 Y-1.908 I0.0255 J0.1051
G1 X-5.5498 Y-1.9077
X-5.5514 Y-1.9028
G2 X-5.5337 Y-1.8006 I0.1023 J0.0349
X-5.4078 Y-1.6831 I0.4556 J-0.3619
G3 X-5.4214 Y-1.6387 I-0.0138 J0.0201
G2 X-5.5916 Y-1.6119 I0.0041 J0.5819
G1 X-5.5917
G2 X-5.6636 Y-1.5371 I0.0325 J0.1032
G1 Y-1.537
X-5.665 Y-1.5319
G2 X-5.6407 Y-1.431 I0.1044 J0.0283
G1 Y-1.4309
G2 X-5.5072 Y-1.322 I0.4307 J-0.3913
G3 X-5.5179 Y-1.2768 I-0.0125 J0.0209
G2 X-5.6859 Y-1.2389 I0.0426 J0.5803
X-5.7528 Y-1.1596 I0.0392 J0.1008
G1 X-5.7538 Y-1.1545
X-5.7539 Y-1.1542
G2 X-5.7229 Y-1.055 I0.106 J0.0213
X-5.5826 Y-0.9551 I0.4039 J-0.4189
G3 X-5.5902 Y-0.9093 I-0.011 J0.0217
G2 X-5.7553 Y-0.8604 I0.0808 J0.5763
X-5.8169 Y-0.7767 I0.0457 J0.098
Y-0.7762 I0.0775 J0.0104
G1 X-5.8176 Y-0.7711
G2 X-5.7802 Y-0.6745 I0.1072 J0.014
G1 X-5.7801
G2 X-5.6335 Y-0.5841 I0.3753 J-0.4447
G3 X-5.6381 Y-0.5378 I-0.0096 J0.0224
G2 X-5.7997 Y-0.4781 I0.1187 J0.5697
X-5.8555 Y-0.3905 I0.0521 J0.0948
G1 X-5.8558 Y-0.3853
G2 X-5.8121 Y-0.291 I0.1079 J0.0072
X-5.6598 Y-0.2105 I0.3451 J-0.4685
G3 X-5.6613 Y-0.164 I-0.0081 J0.023
G2 X-5.8186 Y-0.0938 I0.1561 J0.5606
G1 X-5.8187 Y-0.0937
G2 X-5.8685 Y-0.0026 I0.0583 J0.0911
G1 Y0.
Y0.0026
G2 X-5.8187 Y0.0937 I0.1082 J0.
G1 X-5.8186 Y0.0938
G2 X-5.6613 Y0.164 I0.3134 J-0.4903
G3 X-5.6598 Y0.2105 I-0.0065 J0.0235
G2 X-5.8121 Y0.291 I0.1928 J0.549
X-5.8558 Y0.3852 I0.0642 J0.087
G1 X-5.8555 Y0.3905
G2 X-5.7997 Y0.4781 I0.1079 J-0.0072
X-5.6381 Y0.5378 I0.2803 J-0.5099
G3 X-5.6335 Y0.5841 I-0.005 J0.0238
G2 X-5.7801 Y0.6745 I0.2286 J0.5351
G1 X-5.7802
G2 X-5.8176 Y0.7711 I0.0699 J0.0826
G1 X-5.8169 Y0.7762
G2 Y0.7767 I0.0775 J-0.0099
X-5.7553 Y0.8604 I0.1072 J-0.0144
X-5.6854 Y0.8877 I0.246 J-0.5273
X-5.5902 Y0.9093 Z-0.1499 I0.176 J-0.5546
G3 X-5.5826 Y0.9551 Z-0.153 I-0.0034 J0.0241
G2 X-5.7229 Y1.055 Z-0.1617 I0.2635 J0.5188
X-5.7539 Y1.1542 Z-0.1671 I0.0751 J0.0779
G1 X-5.7538 Y1.1545
X-5.7528 Y1.1596 Z-0.1674
G2 X-5.686 Y1.2389 Z-0.1728 I0.106 J-0.0215
X-5.5179 Y1.2768 Z-0.1815 I0.2106 J-0.5424
G3 X-5.5072 Y1.322 Z-0.1846 I-0.0018 J0.0243
G2 X-5.6407 Y1.4309 Z-0.1932 I0.2972 J0.5003
G1 Y1.431
G2 X-5.665 Y1.5319 Z-0.1987 I0.0801 J0.0727
G1 X-5.6636 Y1.537 Z-0.1989
Y1.5371
G2 X-5.5917 Y1.6119 Z-0.2044 I0.1044 J-0.0283
G1 X-5.5916
G2 X-5.4215 Y1.6387 Z-0.2131 I0.1743 J-0.5552
G3 X-5.4078 Y1.6831 Z-0.2162 I-0.0002 J0.0243
G2 X-5.4296 Y1.6988 Z-0.2175 I0.3297 J0.4795
X-5.5337 Y1.8006 I0.3515 J0.4637
X-5.5514 Y1.9028 I0.0847 J0.0673
G1 X-5.5498 Y1.9077
X-5.5497 Y1.908
G2 X-5.4729 Y1.978 I0.1023 J-0.0351
X-5.3013 Y1.9934 I0.1372 J-0.5655
G3 X-5.2848 Y2.0368 I0.0014 J0.0243
G2 X-5.4027 Y2.1624 I0.3607 J0.4567
X-5.4135 Y2.2657 I0.089 J0.0615
G1 X-5.4114 Y2.2706
G2 X-5.3302 Y2.3353 I0.0997 J-0.0418
G1 Y2.3354
G2 X-5.158 Y2.3394 I0.0996 J-0.5733
G3 X-5.1386 Y2.3816 I0.003 J0.0242
G2 X-5.2479 Y2.5147 I0.3901 J0.4318
X-5.2519 Y2.6185 I0.0928 J0.0555
G1 X-5.2495 Y2.6233
G2 X-5.1641 Y2.6825 I0.0968 J-0.0483
X-4.9921 Y2.6752 I0.0614 J-0.5786
G3 X-4.97 Y2.716 I0.0046 J0.0239
G2 X-5.0702 Y2.8561 I0.4178 J0.4051
X-5.0674 Y2.9599 I0.0963 J0.0493
G1 X-5.0673 Y2.96
X-5.0646 Y2.9645
G2 X-4.9756 Y3.018 I0.0933 J-0.0546
X-4.8044 Y2.9992 I0.023 J-0.5814
G3 X-4.7796 Y3.0386 I0.0062 J0.0236
G2 X-4.8704 Y3.1849 I0.4436 J0.3766
X-4.8607 Y3.2883 I0.0993 J0.0429
G1 X-4.8605 Y3.2886
X-4.8576 Y3.2929
G2 X-4.7653 Y3.3402 I0.0894 J-0.0608
X-4.5956 Y3.3102 I-0.0154 J-0.5817
G3 X-4.5683 Y3.3478 I0.0078 J0.0231
G2 X-4.6492 Y3.4998 I0.4675 J0.3464
X-4.6328 Y3.6023 I0.1019 J0.0362
G1 X-4.6326 Y3.6026
X-4.6294 Y3.6067
G2 X-4.5341 Y3.6478 I0.0853 J-0.0665
X-4.3668 Y3.6067 I-0.0539 J-0.5794
G3 X-4.3371 Y3.6424 I0.0093 J0.0225
G2 X-4.4078 Y3.7994 I0.4894 J0.3148
X-4.3845 Y3.9006 I0.1041 J0.0293
G1 X-4.3811 Y3.9045
X-4.381 Y3.9047
G2 X-4.2831 Y3.9395 I0.0808 J-0.0719
X-4.1189 Y3.8874 I-0.092 J-0.5746
G3 X-4.0868 Y3.9211 I0.0107 J0.0219
G2 X-4.147 Y4.0824 I0.5091 J0.2818
X-4.1172 Y4.1818 I0.1058 J0.0224
G1 X-4.1135 Y4.1855
X-4.1132 Y4.1857
G2 X-4.0134 Y4.214 I0.0758 J-0.0772
X-3.853 Y4.1511 I-0.1298 J-0.5672
G3 X-3.8188 Y4.1826 I0.0121 J0.0211
G2 X-3.8682 Y4.3476 I0.5266 J0.2475
X-3.8317 Y4.4449 I0.1071 J0.0154
G1 X-3.8315 Y4.4451
X-3.8275 Y4.4485
G2 X-3.7261 Y4.47 I0.0705 J-0.082
X-3.5702 Y4.3967 I-0.1669 J-0.5574
G3 X-3.534 Y4.4258 I0.0135 J0.0203
G2 X-3.5724 Y4.5938 I0.5418 J0.2122
X-3.5295 Y4.6884 I0.1078 J0.0082
G1 X-3.5293 Y4.6887
X-3.5251 Y4.6917
G2 X-3.4225 Y4.7065 I0.0648 J-0.0866
X-3.2718 Y4.623 I-0.2034 J-0.5452
G3 X-3.2338 Y4.6497 I0.0148 J0.0193
G2 X-3.261 Y4.8198 I0.5547 J0.1759
X-3.212 Y4.9114 I0.1081 J0.0011
G1 X-3.2118 Y4.9116
X-3.2074 Y4.9144
G2 X-3.104 Y4.9224 I0.059 J-0.0906
X-2.9591 Y4.8292 I-0.239 J-0.5305
G3 X-2.9194 Y4.8533 I0.0161 J0.0183
G2 X-2.9353 Y5.0248 I0.5651 J0.1389
X-2.8804 Y5.113 I0.108 J-0.0061
G1 X-2.8758 Y5.1156
X-2.8757
G2 X-2.7718 Y5.1168 I0.053 J-0.0943
X-2.6335 Y5.0142 I-0.2736 J-0.5135
G3 X-2.5923 Y5.0356 I0.0172 J0.0172
G2 X-2.5968 Y5.2078 I0.573 J0.1012
X-2.5362 Y5.2922 I0.1074 J-0.0132
G1 X-2.5313 Y5.2945
G2 X-2.4276 Y5.2888 I0.0467 J-0.0976
X-2.2963 Y5.1773 I-0.3069 J-0.4944
G3 X-2.2538 Y5.1959 I0.0184 J0.016
G2 X-2.2469 Y5.3681 I0.5785 J0.0631
X-2.1808 Y5.4482 I0.1062 J-0.0203
X-2.1804 Y5.4484 I0.029 J-0.0726
G1 X-2.1756 Y5.4503
G2 X-2.0728 Y5.4377 I0.0399 J-0.1005
X-1.9491 Y5.3177 I-0.3389 J-0.473
G3 X-1.9054 Y5.3335 I0.0194 J0.0147
G2 X-1.8872 Y5.5048 I0.5814 J0.0247
X-1.8161 Y5.5804 I0.1047 J-0.0272
G1 X-1.8112 Y5.582
X-1.8109 Y5.5821
G2 X-1.7089 Y5.5628 I0.0334 J-0.1029
X-1.5934 Y5.4349 I-0.3695 J-0.4496
G3 X-1.5488 Y5.4478 I0.0203 J0.0135
G2 X-1.5193 Y5.6175 I0.5817 J-0.0137
X-1.4432 Y5.6882 I0.1026 J-0.0341
G1 X-1.4381 Y5.6895
G2 X-1.3375 Y5.6635 I0.0266 J-0.1048
X-1.2307 Y5.5283 I-0.3983 J-0.4242
G3 X-1.1854 Y5.5382 I0.0211 J0.0121
G2 X-1.1447 Y5.7056 I0.5795 J-0.0522
X-1.0643 Y5.7711 I0.1002 J-0.0408
G1 X-1.0593 Y5.7721
G2 X-1.0588 Y5.7722 I0.0145 J-0.0768
X-0.9602 Y5.7396 I0.0195 J-0.1064
X-0.8627 Y5.5976 I-0.4255 J-0.3969
G3 X-0.8167 Y5.6045 I0.0219 J0.0107
G2 X-0.7651 Y5.7688 I0.5748 J-0.0903
X-0.6804 Y5.8289 I0.0973 J-0.0473
G1 X-0.68 Y5.829
X-0.6749 Y5.8295
G2 X-0.5788 Y5.7905 I0.0123 J-0.1075
X-0.4909 Y5.6424 I-0.4508 J-0.3679
G3 X-0.4445 Y5.6462 I0.0225 J0.0092
G2 X-0.3822 Y5.8068 I0.5676 J-0.1281
X-0.2938 Y5.8611 I0.0939 J-0.0537
G1 X-0.2885 Y5.8614
X-0.2883
G2 X-0.1948 Y5.816 I0.0053 J-0.108
X-0.1169 Y5.6625 I-0.4742 J-0.3373
G3 X-0.0704 Y5.6632 I0.0231 J0.0077
G2 X0.0024 Y5.8193 I0.5579 J-0.1654
X0.0943 Y5.8677 I0.0902 J-0.0597
G1 X0.0995 Y5.8676
X0.0997
G2 X0.1899 Y5.8163 I-0.0018 J-0.1081
X0.2576 Y5.6578 I-0.4954 J-0.3053
G3 X0.304 Y5.6555 I0.0236 J0.0061
G2 X0.387 Y5.8064 I0.5458 J-0.2019
X0.4819 Y5.8487 I0.086 J-0.0655
X0.4825 Y5.8486 I-0.0064 J-0.0779
G1 X0.4876 Y5.8482
G2 X0.5739 Y5.791 I-0.0092 J-0.1077
X0.631 Y5.6284 I-0.5145 J-0.2719
G3 X0.6771 Y5.623 I0.0239 J0.0046
G2 X0.7699 Y5.7681 I0.5312 J-0.2375
X0.8674 Y5.804 I0.0815 J-0.0711
G1 X0.8675
X0.8727 Y5.8032
G2 X0.9554 Y5.7404 I-0.0161 J-0.107
X1.0016 Y5.5744 I-0.5313 J-0.2372
G3 X1.0473 Y5.566 I0.0242 J0.003
G2 X1.1495 Y5.7046 I0.5143 J-0.2721
X1.2491 Y5.734 I0.0766 J-0.0763
G1 X1.2493
X1.2544 Y5.7328
G2 X1.3327 Y5.6647 I-0.0232 J-0.1056
X1.3678 Y5.496 I-0.5458 J-0.2016
G3 X1.4129 Y5.4846 I0.0243 J0.0014
G2 X1.524 Y5.6162 I0.4952 J-0.3055
X1.6253 Y5.6389 I0.0714 J-0.0812
G1 X1.6303 Y5.6375
X1.6305 Y5.6374
G2 X1.7042 Y5.5642 I-0.0301 J-0.1039
X1.7281 Y5.3936 I-0.558 J-0.1651
G3 X1.7723 Y5.3792 I0.0244 J-0.0002
G2 X1.8918 Y5.5032 I0.474 J-0.3375
G1 X1.8919 Y5.5033
G2 X1.9945 Y5.5192 I0.0658 J-0.0858
G1 X1.9946 Y5.5191
X1.9996 Y5.5173
G2 X2.0682 Y5.4394 I-0.0369 J-0.1017
X2.0808 Y5.2676 I-0.5677 J-0.1279
G3 X2.1239 Y5.2503 I0.0243 J-0.0019
G2 X2.2514 Y5.3662 I0.4507 J-0.3681
X2.3549 Y5.3753 I0.0601 J-0.09
G1 X2.3598 Y5.3731
G2 X2.4232 Y5.2908 I-0.0434 J-0.099
X2.4243 Y5.1186 I-0.5749 J-0.0901
G3 X2.4662 Y5.0985 I0.0241 J-0.0034
G2 X2.6011 Y5.2056 I0.4254 J-0.3971
X2.705 Y5.2079 I0.054 J-0.0937
G1 X2.7097 Y5.2054
G2 X2.7675 Y5.1191 I-0.0499 J-0.096
X2.7573 Y4.9471 I-0.5796 J-0.0519
G3 X2.7978 Y4.9244 I0.0238 J-0.005
G2 X2.9395 Y5.0224 I0.3982 J-0.4243
X3.0433 Y5.0177 I0.0477 J-0.0971
G1 X3.0434 Y5.0176
X3.0479 Y5.0149
G2 X3.0998 Y4.925 I-0.0562 J-0.0924
X3.0783 Y4.7541 I-0.5817 J-0.0134
G3 X3.1172 Y4.7287 I0.0234 J-0.0066
G2 X3.265 Y4.8171 I0.3692 J-0.4498
X3.3682 Y4.8056 I0.0411 J-0.1
G1 X3.3725 Y4.8026
X3.3726
G2 X3.4185 Y4.7095 I-0.0621 J-0.0885
G1 Y4.7094
G2 X3.3857 Y4.5403 I-0.5814 J0.025
G3 X3.4229 Y4.5123 I0.023 J-0.0081
G2 X3.5762 Y4.5908 I0.3387 J-0.4731
G1 X3.5763
G2 X3.6784 Y4.5725 I0.0344 J-0.1026
G1 X3.6825 Y4.5693
X3.6826 Y4.5692
G2 X3.7223 Y4.4731 I-0.0678 J-0.0842
X3.6784 Y4.3066 I-0.5784 J0.0634
G3 X3.7136 Y4.2763 I0.0224 J-0.0096
G2 X3.8718 Y4.3444 I0.3067 J-0.4945
X3.9726 Y4.3194 I0.0276 J-0.1046
G1 X3.9765 Y4.3158
G2 X4.0098 Y4.2173 I-0.0732 J-0.0796
X3.955 Y4.054 I-0.573 J0.1015
G3 X3.9881 Y4.0215 I0.0217 J-0.0111
G2 X4.1505 Y4.079 I0.2734 J-0.5137
X4.2493 Y4.0475 I0.0206 J-0.1062
G1 X4.2529 Y4.0438
X4.2531 Y4.0436
G2 X4.2798 Y3.9431 I-0.0783 J-0.0746
X4.2142 Y3.7838 I-0.565 J0.1392
G3 X4.2452 Y3.7491 I0.0209 J-0.0125
G2 X4.411 Y3.7958 I0.2388 J-0.5306
X4.5077 Y3.7577 I0.0136 J-0.1073
G1 X4.511 Y3.7536
G2 X4.531 Y3.6517 I-0.0831 J-0.0692
X4.4551 Y3.497 I-0.5546 J0.1762
G3 X4.4837 Y3.4603 I0.02 J-0.0138
G2 X4.6522 Y3.4959 I0.2032 J-0.5453
X4.7461 Y3.4515 I0.0065 J-0.1079
G1 X4.7493 Y3.4473
G2 X4.7624 Y3.3442 I-0.0875 J-0.0636
X4.6765 Y3.1949 I-0.5417 J0.2125
G3 X4.7026 Y3.1564 I0.0191 J-0.0151
G2 X4.8731 Y3.1808 I0.1667 J-0.5575
X4.9638 Y3.1304 I-0.0007 J-0.1082
G1 X4.9666 Y3.126
X4.9668 Y3.1258
G2 X4.973 Y3.0221 I-0.0916 J-0.0576
X4.8774 Y2.8789 I-0.5265 J0.2478
G3 X4.9009 Y2.8388 I0.018 J-0.0164
G2 X5.0726 Y2.8518 I0.1295 J-0.5673
X5.1599 Y2.7954 I-0.0078 J-0.1079
G1 X5.1624 Y2.7907
G2 X5.1619 Y2.6868 I-0.0951 J-0.0515
X5.057 Y2.5502 I-0.509 J0.282
G3 X5.0778 Y2.5086 I0.0169 J-0.0175
G2 X5.25 Y2.5103 I0.0917 J-0.5746
X5.3334 Y2.4483 I-0.0149 J-0.1071
G1 X5.3356 Y2.4435
G2 X5.3282 Y2.3399 I-0.0983 J-0.0451
X5.2145 Y2.2104 I-0.4892 J0.3151
G3 X5.2325 Y2.1676 I0.0157 J-0.0186
G2 X5.4045 Y2.1578 I0.0536 J-0.5794
X5.4835 Y2.0905 I-0.022 J-0.1059
X5.4837 Y2.09 I-0.073 J-0.0278
G1 X5.4855 Y2.0852
G2 X5.4712 Y1.9826 I-0.1012 J-0.0382
X5.3492 Y1.8609 I-0.4674 J0.3467
G3 X5.3643 Y1.817 I0.0144 J-0.0196
G2 X5.5352 Y1.7959 I0.0151 J-0.5817
X5.6097 Y1.7235 I-0.0289 J-0.1042
G1 X5.6098 Y1.7232
X5.6113 Y1.7183
G2 X5.5902 Y1.6166 I-0.1034 J-0.0316
X5.4605 Y1.5033 I-0.4434 J0.3768
G3 X5.4727 Y1.4585 I0.0131 J-0.0205
G2 X5.6418 Y1.4262 I-0.0234 J-0.5814
X5.7113 Y1.349 I-0.0358 J-0.1021
G1 X5.7125 Y1.3439
X5.7126 Y1.3438
G2 X5.6849 Y1.2437 I-0.1053 J-0.0248
X5.5479 Y1.1392 I-0.4175 J0.4053
G3 X5.5571 Y1.0936 I0.0117 J-0.0213
G2 X5.7238 Y1.0502 I-0.0617 J-0.5786
X5.788 Y0.9685 I-0.0425 J-0.0995
G1 X5.7889 Y0.9633
G2 X5.7546 Y0.8652 I-0.1067 J-0.0178
X5.6111 Y0.77 I-0.3898 J0.432
G3 X5.6172 Y0.724 I0.0103 J-0.0221
G2 X5.7807 Y0.6696 I-0.0998 J-0.5733
X5.8393 Y0.5841 I-0.049 J-0.0964
G1 X5.8399 Y0.579
Y0.5786
G2 X5.7993 Y0.483 I-0.1076 J-0.0107
X5.6497 Y0.3975 I-0.3604 J0.4568
G3 X5.6528 Y0.3511 I0.0088 J-0.0227
G2 X5.8123 Y0.2861 I-0.1375 J-0.5654
X5.8652 Y0.1967 I-0.0552 J-0.093
G1 Y0.1964
X5.8654 Y0.1912
G2 X5.8185 Y0.0987 I-0.1081 J-0.0034
X5.6636 Y0.0232 I-0.3295 J0.4797
G3 Y-0.0232 I0.0073 J-0.0232
G2 X5.8185 Y-0.0987 I-0.1746 J-0.5551
X5.8654 Y-0.1912 I-0.0612 J-0.0891
G1 X5.8652 Y-0.1964
Y-0.1967
G2 X5.8123 Y-0.2861 I-0.1081 J0.0036
X5.6528 Y-0.3511 I-0.297 J0.5004
G3 X5.6497 Y-0.3975 I0.0058 J-0.0237
G2 X5.7993 Y-0.483 I-0.2108 J-0.5424
X5.8399 Y-0.5786 I-0.067 J-0.0849
G1 Y-0.579
X5.8393 Y-0.5841
G2 X5.7807 Y-0.6696 I-0.1076 J0.0109
X5.6172 Y-0.724 I-0.2633 J0.5189
G3 X5.6111 Y-0.77 I0.0041 J-0.024
G2 X5.7546 Y-0.8652 I-0.2462 J-0.5272
X5.7889 Y-0.9633 I-0.0724 J-0.0803
G1 X5.788 Y-0.9685
G2 X5.7238 Y-1.0502 I-0.1067 J0.0177
X5.5571 Y-1.0936 I-0.2285 J0.5352
G3 X5.5479 Y-1.1392 I0.0026 J-0.0242
G2 X5.6849 Y-1.2437 I-0.2805 J-0.5098
X5.7126 Y-1.3438 I-0.0776 J-0.0753
G1 X5.7125 Y-1.3439
X5.7113 Y-1.349
G2 X5.6418 Y-1.4262 I-0.1052 J0.0249
X5.4727 Y-1.4585 I-0.1925 J0.5491
G3 X5.4605 Y-1.5033 I0.001 J-0.0243
G2 X5.5902 Y-1.6166 I-0.3137 J-0.4901
X5.6113 Y-1.7183 I-0.0824 J-0.07
G1 X5.6098 Y-1.7232
X5.6097 Y-1.7235
G2 X5.5352 Y-1.7959 I-0.1034 J0.0318
X5.3643 Y-1.817 I-0.1558 J0.5606
G3 X5.3492 Y-1.8609 I-0.0006 J-0.0243
G2 X5.4712 Y-1.9826 I-0.3454 J-0.4683
X5.4855 Y-2.0852 I-0.0869 J-0.0644
G1 X5.4837 Y-2.09
G2 X5.4835 Y-2.0905 I-0.0732 J0.0274
X5.4045 Y-2.1578 I-0.1011 J0.0385
X5.2325 Y-2.1676 I-0.1185 J0.5697
G3 X5.2145 Y-2.2104 I-0.0023 J-0.0242
G2 X5.3282 Y-2.3398 I-0.3755 J-0.4445
X5.3356 Y-2.4435 I-0.0909 J-0.0586
G1 X5.3334 Y-2.4483
G2 X5.25 Y-2.5103 I-0.0983 J0.0451
X5.0778 Y-2.5086 I-0.0805 J0.5763
G3 X5.057 Y-2.5502 I-0.0039 J-0.024
G2 X5.1619 Y-2.6868 I-0.4041 J-0.4187
X5.1624 Y-2.7907 I-0.0946 J-0.0524
G1 X5.1599 Y-2.7954
G2 X5.0726 Y-2.8518 I-0.0951 J0.0515
X4.9009 Y-2.8388 I-0.0423 J0.5804
G3 X4.8774 Y-2.8789 I-0.0054 J-0.0237
G2 X4.973 Y-3.0221 I-0.4309 J-0.391
X4.9668 Y-3.1258 I-0.0978 J-0.0461
G1 X4.9666 Y-3.126
X4.9638 Y-3.1304
G2 X4.8731 Y-3.1808 I-0.0914 J0.0577
X4.7026 Y-3.1564 I-0.0038 J0.5819
G3 X4.6765 Y-3.1949 I-0.007 J-0.0233
G2 X4.7624 Y-3.3442 I-0.4558 J-0.3618
X4.7493 Y-3.4473 I-0.1007 J-0.0395
G1 X4.7462 Y-3.4515
G2 X4.6522 Y-3.4959 I-0.0875 J0.0635
X4.4837 Y-3.4603 I0.0347 J0.5809
G3 X4.4551 Y-3.497 I-0.0085 J-0.0228
G2 X4.531 Y-3.6516 I-0.4787 J-0.3309
X4.511 Y-3.7536 I-0.1031 J-0.0327
G1 X4.5077 Y-3.7577
G2 X4.411 Y-3.7958 I-0.0831 J0.0692
X4.2452 Y-3.7491 I0.073 J0.5773
G3 X4.2142 Y-3.7838 I-0.01 J-0.0222
G2 X4.2798 Y-3.9431 I-0.4995 J-0.2986
X4.2531 Y-4.0436 I-0.105 J-0.0259
G1 X4.2529 Y-4.0438
X4.2493 Y-4.0475
G2 X4.1505 Y-4.079 I-0.0782 J0.0747
X3.9881 Y-4.0215 I0.111 J0.5712
G3 X3.955 Y-4.054 I-0.0114 J-0.0215
G2 X4.0098 Y-4.2173 I-0.5182 J-0.2648
X3.9766 Y-4.3158 I-0.1065 J-0.0189
G1 X3.9727 Y-4.3194
G2 X3.8718 Y-4.3444 I-0.0732 J0.0796
X3.7136 Y-4.2763 I0.1485 J0.5626
G3 X3.6784 Y-4.3066 I-0.0128 J-0.0207
G2 X3.7223 Y-4.4731 I-0.5345 J-0.23
X3.6826 Y-4.5692 I-0.1075 J-0.0118
G1 X3.6825 Y-4.5693
X3.6784 Y-4.5725
G2 X3.5763 Y-4.5908 I-0.0678 J0.0843
G1 X3.5762
G2 X3.4229 Y-4.5123 I0.1854 J0.5516
G3 X3.3857 Y-4.5403 I-0.0142 J-0.0198
G2 X3.4185 Y-4.7094 I-0.5486 J-0.1941
G1 Y-4.7095
G2 X3.3726 Y-4.8026 I-0.1081 J-0.0046
G1 X3.3725
X3.3682 Y-4.8056
G2 X3.265 Y-4.8171 I-0.0621 J0.0885
X3.1172 Y-4.7287 I0.2213 J0.5382
G3 X3.0783 Y-4.7541 I-0.0155 J-0.0188
G2 X3.0998 Y-4.925 I-0.5602 J-0.1575
X3.0479 Y-5.0149 I-0.1081 J0.0025
G1 X3.0434 Y-5.0176
X3.0433 Y-5.0177
G2 X2.9395 Y-5.0224 I-0.0562 J0.0924
X2.7978 Y-4.9244 I0.2565 J0.5223
G3 X2.7573 Y-4.9471 I-0.0167 J-0.0178
G2 X2.7675 Y-5.1191 I-0.5694 J-0.1201
X2.7097 Y-5.2054 I-0.1077 J0.0096
G1 X2.705 Y-5.2079
G2 X2.6011 Y-5.2056 I-0.0499 J0.096
X2.4662 Y-5.0985 I0.2905 J0.5042
G3 X2.4243 Y-5.1186 I-0.0178 J-0.0166
G2 X2.4232 Y-5.2908 I-0.5761 J-0.0822
X2.3598 Y-5.3731 I-0.1069 J0.0167
G1 X2.3549 Y-5.3753
G2 X2.2514 Y-5.3662 I-0.0434 J0.099
X2.1239 Y-5.2503 I0.3231 J0.4839
G3 X2.0808 Y-5.2676 I-0.0189 J-0.0154
G2 X2.0682 Y-5.4394 I-0.5802 J-0.044
X1.9996 Y-5.5173 I-0.1055 J0.0238
G1 X1.9946 Y-5.5191
X1.9945 Y-5.5192
G2 X1.8919 Y-5.5033 I-0.0368 J0.1017
G1 X1.8918 Y-5.5032
G2 X1.7723 Y-5.3792 I0.3544 J0.4615
G3 X1.7281 Y-5.3936 I-0.0198 J-0.0141
G2 X1.7042 Y-5.5642 I-0.5819 J-0.0055
X1.6305 Y-5.6374 I-0.1037 J0.0307
G1 X1.6303 Y-5.6375
X1.6253 Y-5.6389
G2 X1.524 Y-5.6162 I-0.0299 J0.1039
X1.4129 Y-5.4846 I0.3841 J0.4371
G3 X1.3678 Y-5.496 I-0.0207 J-0.0128
G2 X1.3327 Y-5.6647 I-0.581 J0.0329
X1.2544 Y-5.7328 I-0.1014 J0.0375
G1 X1.2493 Y-5.734
X1.2491
G2 X1.1495 Y-5.7046 I-0.023 J0.1056
X1.0473 Y-5.566 I0.4122 J0.4108
G3 X1.0016 Y-5.5744 I-0.0215 J-0.0114
G2 X0.9554 Y-5.7404 I-0.5775 J0.0713
X0.8727 Y-5.8032 I-0.0988 J0.0441
G1 X0.8675 Y-5.804
X0.8674
G2 X0.7699 Y-5.7681 I-0.016 J0.107
X0.6771 Y-5.623 I0.4384 J0.3826
G3 X0.631 Y-5.6284 I-0.0222 J-0.0099
G2 X0.5739 Y-5.791 I-0.5715 J0.1093
X0.4876 Y-5.8482 I-0.0956 J0.0505
G1 X0.4825 Y-5.8486
G2 X0.4819 Y-5.8487 I-0.007 J0.0778
X0.387 Y-5.8064 I-0.0088 J0.1078
X0.304 Y-5.6555 I0.4628 J0.3528
G3 X0.2576 Y-5.6578 I-0.0228 J-0.0084
G2 X0.19 Y-5.8162 I-0.5631 J0.1468
X0.0997 Y-5.8676 I-0.0921 J0.0567
G1 X0.0995
X0.0943 Y-5.8677
G2 X0.0024 Y-5.8193 I-0.0017 J0.1081
X-0.0704 Y-5.6632 I0.485 J0.3215
G3 X-0.1169 Y-5.6625 I-0.0233 J-0.0069
G2 X-0.1948 Y-5.816 I-0.5521 J0.1838
X-0.2883 Y-5.8614 I-0.0882 J0.0626
G1 X-0.2885
X-0.2938 Y-5.8611
G2 X-0.3822 Y-5.8068 I0.0055 J0.108
X-0.4445 Y-5.6462 I0.5052 J0.2887
G3 X-0.4909 Y-5.6424 I-0.0238 J-0.0054
G2 X-0.5788 Y-5.7905 I-0.5388 J0.2198
X-0.6749 Y-5.8295 I-0.0838 J0.0684
G1 X-0.68 Y-5.829
X-0.6804 Y-5.8289
G2 X-0.7651 Y-5.7688 I0.0125 J0.1074
X-0.8167 Y-5.6045 I0.5232 J0.2547
G3 X-0.8627 Y-5.5976 I-0.0241 J-0.0038
G2 X-0.9602 Y-5.7396 I-0.5231 J0.2549
X-1.0588 Y-5.7722 I-0.0791 J0.0738
X-1.0593 Y-5.7721 I0.0141 J0.0769
G1 X-1.0643 Y-5.7711
G2 X-1.1447 Y-5.7056 I0.0198 J0.1063
X-1.1854 Y-5.5382 I0.5389 J0.2195
G3 X-1.2307 Y-5.5283 I-0.0243 J-0.0022
G2 X-1.3375 Y-5.6635 I-0.5051 J0.289
X-1.4381 Y-5.6895 I-0.074 J0.0788
G1 X-1.4432 Y-5.6882
G2 X-1.5193 Y-5.6175 I0.0265 J0.1048
X-1.5488 Y-5.4478 I0.5522 J0.1835
G3 X-1.5934 Y-5.4349 I-0.0243 J-0.0006
G2 X-1.7089 Y-5.5628 I-0.4849 J0.3217
X-1.8109 Y-5.5821 I-0.0687 J0.0836
G1 X-1.8112 Y-5.582
X-1.8161 Y-5.5804
G2 X-1.8872 Y-5.5048 I0.0336 J0.1028
X-1.9054 Y-5.3335 I0.5631 J0.1465
G3 X-1.9491 Y-5.3177 I-0.0243 J0.001
G2 X-2.0728 Y-5.4377 I-0.4625 J0.3531
X-2.1756 Y-5.4503 I-0.063 J0.0879
G1 X-2.1804 Y-5.4484
G2 X-2.1808 Y-5.4482 I0.0286 J0.0727
X-2.2469 Y-5.3681 I0.0402 J0.1004
X-2.2538 Y-5.1959 I0.5716 J0.109
G3 X-2.2963 Y-5.1773 I-0.0242 J0.0027
G2 X-2.4276 Y-5.2888 I-0.4382 J0.3829
X-2.5313 Y-5.2945 I-0.057 J0.0919
G1 X-2.5361 Y-5.2922
G2 X-2.5968 Y-5.2078 I0.0467 J0.0976
X-2.5923 Y-5.0356 I0.5775 J0.071
G3 X-2.6335 Y-5.0142 I-0.024 J0.0042
G2 X-2.7718 Y-5.1168 I-0.4119 J0.411
X-2.8757 Y-5.1156 I-0.0509 J0.0954
G1 X-2.8758
X-2.8804 Y-5.113
G2 X-2.9353 Y-5.0249 I0.053 J0.0942
X-2.9194 Y-4.8533 I0.581 J0.0327
G3 X-2.9591 Y-4.8292 I-0.0237 J0.0058
G2 X-3.104 Y-4.9224 I-0.3839 J0.4373
X-3.2074 Y-4.9144 I-0.0444 J0.0986
G1 X-3.2118 Y-4.9116
X-3.212 Y-4.9114
G2 X-3.261 Y-4.8198 I0.0592 J0.0905
X-3.2338 Y-4.6497 I0.5819 J-0.0058
G3 X-3.2718 Y-4.623 I-0.0232 J0.0074
G2 X-3.4225 Y-4.7065 I-0.3541 J0.4617
X-3.5251 Y-4.6917 I-0.0378 J0.1013
G1 X-3.5293 Y-4.6887
X-3.5295 Y-4.6884
G2 X-3.5724 Y-4.5938 I0.065 J0.0864
X-3.534 Y-4.4258 I0.5802 J-0.0442
G3 X-3.5702 Y-4.3967 I-0.0227 J0.0089
G2 X-3.7261 Y-4.47 I-0.3229 J0.4841
X-3.8275 Y-4.4485 I-0.031 J0.1036
G1 X-3.8315 Y-4.4451
X-3.8317 Y-4.4449
G2 X-3.8682 Y-4.3476 I0.0706 J0.082
X-3.8188 Y-4.1826 I0.576 J-0.0825
G3 X-3.853 Y-4.1511 I-0.022 J0.0104
G2 X-4.0134 Y-4.214 I-0.2901 J0.5044
X-4.1132 Y-4.1857 I-0.0241 J0.1054
G1 X-4.1135 Y-4.1855
X-4.1172 Y-4.1818
G2 X-4.147 Y-4.0824 I0.0759 J0.077
X-4.0868 Y-3.9211 I0.5693 J-0.1205
G3 X-4.1189 Y-3.8874 I-0.0213 J0.0118
G2 X-4.2831 Y-3.9395 I-0.2562 J0.5224
X-4.381 Y-3.9047 I-0.0171 J0.1068
G1 X-4.3811 Y-3.9045
X-4.3845 Y-3.9006
G2 X-4.4078 Y-3.7994 I0.0809 J0.0718
X-4.3371 Y-3.6424 I0.5601 J-0.1577
G3 X-4.3668 Y-3.6067 I-0.0205 J0.0132
G2 X-4.5341 Y-3.6478 I-0.2211 J0.5382
X-4.6294 Y-3.6067 I-0.01 J0.1077
G1 X-4.6326 Y-3.6026
X-4.6328 Y-3.6023
G2 X-4.6492 Y-3.4998 I0.0854 J0.0663
X-4.5683 Y-3.3478 I0.5484 J-0.1944
G3 X-4.5956 Y-3.3102 I-0.0196 J0.0145
G2 X-4.7653 Y-3.3402 I-0.185 J0.5517
X-4.8576 Y-3.2929 I-0.0029 J0.1081
G1 X-4.8605 Y-3.2886
X-4.8607 Y-3.2883
G2 X-4.8704 Y-3.1849 I0.0896 J0.0605
X-4.7796 Y-3.0386 I0.5344 J-0.2303
G3 X-4.8043 Y-2.9992 I-0.0186 J0.0158
G2 X-4.9756 Y-3.018 I-0.1482 J0.5627
X-5.0646 Y-2.9645 I0.0043 J0.1081
G1 X-5.0673 Y-2.96
X-5.0674 Y-2.9599
G2 X-5.0702 Y-2.8561 I0.0934 J0.0545
X-4.97 Y-2.716 I0.518 J-0.265
G3 X-4.9921 Y-2.6752 I-0.0175 J0.017
G2 X-5.1641 Y-2.6825 I-0.1107 J0.5713
X-5.2495 Y-2.6233 I0.0114 J0.1076
G1 X-5.2519 Y-2.6185
G2 X-5.2479 Y-2.5147 I0.0968 J0.0483
X-5.1386 Y-2.3816 I0.4994 J-0.2987
G3 X-5.158 Y-2.3394 I-0.0163 J0.0181
G2 X-5.3302 Y-2.3354 I-0.0727 J0.5773
G1 Y-2.3353
G2 X-5.4114 Y-2.2706 I0.0186 J0.1065
G1 X-5.4134 Y-2.2657
G2 X-5.4027 Y-2.1624 I0.0997 J0.0418
X-5.2848 Y-2.0368 I0.4786 J-0.331
G3 X-5.3013 Y-1.9934 I-0.0151 J0.0191
G2 X-5.4729 Y-1.978 I-0.0344 J0.5809
X-5.5497 Y-1.908 I0.0255 J0.1051
G1 X-5.5498 Y-1.9077
X-5.5514 Y-1.9028
G2 X-5.5337 Y-1.8006 I0.1023 J0.0349
X-5.4078 Y-1.6831 I0.4556 J-0.3619
G3 X-5.4214 Y-1.6387 I-0.0138 J0.0201
G2 X-5.5916 Y-1.6119 I0.0041 J0.5819
G1 X-5.5917
G2 X-5.6636 Y-1.5371 I0.0325 J0.1032
G1 Y-1.537
X-5.665 Y-1.5319
G2 X-5.6407 Y-1.431 I0.1044 J0.0283
G1 Y-1.4309
G2 X-5.5072 Y-1.322 I0.4307 J-0.3913
G3 X-5.5179 Y-1.2768 I-0.0125 J0.0209
G2 X-5.6859 Y-1.2389 I0.0426 J0.5803
X-5.7528 Y-1.1596 I0.0392 J0.1008
G1 X-5.7538 Y-1.1545
X-5.7539 Y-1.1542
G2 X-5.7229 Y-1.055 I0.106 J0.0213
X-5.5826 Y-0.9551 I0.4039 J-0.4189
G3 X-5.5902 Y-0.9093 I-0.011 J0.0217
G2 X-5.7553 Y-0.8604 I0.0808 J0.5763
X-5.8169 Y-0.7767 I0.0457 J0.098
Y-0.7762 I0.0775 J0.0104
G1 X-5.8176 Y-0.7711
G2 X-5.7802 Y-0.6745 I0.1072 J0.014
G1 X-5.7801
G2 X-5.6335 Y-0.5841 I0.3753 J-0.4447
G3 X-5.6381 Y-0.5378 I-0.0096 J0.0224
G2 X-5.7997 Y-0.4781 I0.1187 J0.5697
X-5.8555 Y-0.3905 I0.0521 J0.0948
G1 X-5.8558 Y-0.3853
G2 X-5.8121 Y-0.291 I0.1079 J0.0072
X-5.6598 Y-0.2105 I0.3451 J-0.4685
G3 X-5.6613 Y-0.164 I-0.0081 J0.023
G2 X-5.8186 Y-0.0938 I0.1561 J0.5606
G1 X-5.8187 Y-0.0937
G2 X-5.8685 Y-0.0026 I0.0583 J0.0911
G1 Y0.0026
G2 X-5.8187 Y0.0937 I0.1082 J0.
G1 X-5.8186 Y0.0938
G2 X-5.6613 Y0.164 I0.3134 J-0.4903
G3 X-5.6598 Y0.2105 I-0.0065 J0.0235
G2 X-5.8121 Y0.291 I0.1928 J0.549
X-5.8558 Y0.3852 I0.0642 J0.087
G1 X-5.8555 Y0.3905
G2 X-5.7997 Y0.4781 I0.1079 J-0.0072
X-5.6381 Y0.5378 I0.2803 J-0.5099
G3 X-5.6335 Y0.5841 I-0.005 J0.0238
G2 X-5.7801 Y0.6745 I0.2286 J0.5351
G1 X-5.7802
G2 X-5.8176 Y0.7711 I0.0699 J0.0826
G1 X-5.8169 Y0.7762
G2 Y0.7767 I0.0775 J-0.0099
X-5.7553 Y0.8604 I0.1072 J-0.0144
X-5.5902 Y0.9093 I0.246 J-0.5273
G3 X-5.5826 Y0.9551 I-0.0034 J0.0241
G2 X-5.7229 Y1.055 I0.2635 J0.5188
X-5.7539 Y1.1542 I0.0751 J0.0779
G1 X-5.7538 Y1.1545
X-5.7528 Y1.1596
G2 X-5.686 Y1.2389 I0.106 J-0.0215
X-5.5179 Y1.2768 I0.2106 J-0.5424
G3 X-5.5072 Y1.322 I-0.0018 J0.0243
G2 X-5.6407 Y1.4309 I0.2972 J0.5003
G1 Y1.431
G2 X-5.665 Y1.5319 I0.0801 J0.0727
G1 X-5.6636 Y1.537
Y1.5371
G2 X-5.5917 Y1.6119 I0.1044 J-0.0283
G1 X-5.5916
G2 X-5.4215 Y1.6387 I0.1743 J-0.5552
G3 X-5.4078 Y1.6831 I-0.0002 J0.0243
G2 X-5.4296 Y1.6988 I0.3297 J0.4795
G0 Z0.6
M9
G53 Z0.
M30
%
