%
(971-23-P-0063_PROXIMAL SPROCKET_1565 SECOND)
(T1  D=0.1565 CR=0. - ZMIN=-0.2175 - FLAT END MILL)
G90 G94 G17 G91.1
G64 P0.001 Q0.001
G20
G53 G0 Z0.
(2D SLOT CUT 2)
M9
T1 M6
S22000 M3
G4 P10.
G54
M7
G0 X-5.6366 Y-0.5853
G43 Z0.6 H1
G0 Z0.2
G1 Z0.1 F13.333
G2 X-5.6335 Y-0.584 Z0.0994 I0.2317 J-0.5339 F30.
G3 X-5.6381 Y-0.5379 Z0.0886 I-0.0095 J0.0223
G2 X-5.7997 Y-0.4782 Z0.0581 I0.1187 J0.5698
X-5.8556 Y-0.3905 Z0.039 I0.0521 J0.0949
G1 X-5.8559 Y-0.3853 Z0.038
G2 X-5.8122 Y-0.2909 Z0.0189 I0.108 J0.0072
G1 X-5.8121
G2 X-5.6598 Y-0.2104 Z-0.0116 I0.3452 J-0.4686
G3 X-5.6613 Y-0.1641 Z-0.0224 I-0.008 J0.0229
G2 X-5.8186 Y-0.0939 Z-0.0529 I0.1561 J0.5607
G1 X-5.8187 Y-0.0938
G2 X-5.8686 Y-0.0026 Z-0.072 I0.0584 J0.0912
G1 Y0. Z-0.0725
Y0.0026
G2 X-5.8187 Y0.0938 I0.1083 J0.
G1 X-5.8186 Y0.0939
G2 X-5.6613 Y0.1641 I0.3134 J-0.4904
G3 X-5.6598 Y0.2104 I-0.0065 J0.0234
G2 X-5.8121 Y0.2909 I0.1928 J0.5491
G1 X-5.8122
G2 X-5.8559 Y0.3853 I0.0642 J0.0871
G1 X-5.8556 Y0.3905
G2 X-5.7997 Y0.4782 I0.108 J-0.0072
X-5.6381 Y0.5379 I0.2804 J-0.51
G3 X-5.6335 Y0.584 I-0.0049 J0.0237
G2 X-5.7802 Y0.6744 I0.2287 J0.5352
G1 X-5.7803 Y0.6745
G2 X-5.8177 Y0.7711 I0.0699 J0.0826
G1 X-5.817 Y0.7762
G2 Y0.7767 I0.0776 J-0.0099
X-5.7554 Y0.8605 I0.1073 J-0.0144
X-5.5902 Y0.9094 I0.246 J-0.5274
G3 X-5.5826 Y0.955 I-0.0034 J0.024
G2 X-5.723 Y1.0549 I0.2636 J0.5189
X-5.754 Y1.1542 I0.0751 J0.0779
G1 X-5.7539 Y1.1545
X-5.7529 Y1.1596
G2 X-5.686 Y1.239 I0.1061 J-0.0215
X-5.5179 Y1.2769 I0.2107 J-0.5425
G3 X-5.5073 Y1.3219 I-0.0018 J0.0242
G2 X-5.6407 Y1.4309 I0.2973 J0.5004
G1 X-5.6408
G2 X-5.6651 Y1.5319 I0.0802 J0.0727
G1 X-5.6637 Y1.537
Y1.5371
G2 X-5.5917 Y1.612 I0.1045 J-0.0283
X-5.4215 Y1.6388 I0.1743 J-0.5553
G3 X-5.4079 Y1.683 I-0.0002 J0.0242
G2 X-5.5338 Y1.8005 I0.3297 J0.4796
X-5.5515 Y1.9028 I0.0847 J0.0673
G1 X-5.5499 Y1.9077
X-5.5498 Y1.908
G2 X-5.4729 Y1.9781 I0.1024 J-0.0352
X-5.3013 Y1.9935 I0.1373 J-0.5656
G3 X-5.2848 Y2.0367 I0.0014 J0.0242
G2 X-5.4027 Y2.1623 I0.3607 J0.4567
X-5.4135 Y2.2658 I0.089 J0.0616
G1 X-5.4115 Y2.2707
G2 X-5.3302 Y2.3354 I0.0998 J-0.0419
G1 Y2.3355
G2 X-5.1579 Y2.3395 I0.0996 J-0.5734
G3 X-5.1387 Y2.3815 I0.003 J0.0241
G2 X-5.248 Y2.5147 I0.3901 J0.4319
X-5.252 Y2.6186 I0.0929 J0.0556
G1 X-5.2496 Y2.6233
G2 X-5.1641 Y2.6826 I0.0969 J-0.0484
X-4.9921 Y2.6753 I0.0614 J-0.5787
G3 X-4.97 Y2.7159 I0.0046 J0.0238
G2 X-5.0703 Y2.856 I0.4178 J0.4051
X-5.0675 Y2.9599 I0.0963 J0.0493
G1 X-5.0674 Y2.96
X-5.0647 Y2.9646
G2 X-4.9756 Y3.0181 I0.0934 J-0.0547
X-4.8043 Y2.9993 I0.023 J-0.5815
G3 X-4.7797 Y3.0385 I0.0062 J0.0235
G2 X-4.8705 Y3.1848 I0.4437 J0.3767
X-4.8608 Y3.2883 I0.0994 J0.0429
G1 X-4.8606 Y3.2887
X-4.8576 Y3.293
G2 X-4.7653 Y3.3403 I0.0895 J-0.0609
X-4.5956 Y3.3103 I-0.0154 J-0.5818
G3 X-4.5684 Y3.3477 I0.0077 J0.023
G2 X-4.6493 Y3.4998 I0.4676 J0.3465
X-4.6328 Y3.6024 I0.102 J0.0362
G1 X-4.6327 Y3.6026
X-4.6294 Y3.6067
G2 X-4.5341 Y3.6479 I0.0853 J-0.0666
X-4.3668 Y3.6068 I-0.0539 J-0.5795
G3 X-4.3372 Y3.6423 I0.0092 J0.0224
G2 X-4.4079 Y3.7994 I0.4895 J0.3148
X-4.3846 Y3.9007 I0.1042 J0.0294
G1 X-4.3812 Y3.9046
X-4.381 Y3.9047
G2 X-4.2831 Y3.9396 I0.0808 J-0.072
X-4.1189 Y3.8875 I-0.092 J-0.5747
G3 X-4.0869 Y3.921 I0.0107 J0.0218
G2 X-4.1471 Y4.0824 I0.5092 J0.2819
X-4.1173 Y4.1819 I0.1059 J0.0224
G1 X-4.1135 Y4.1856
X-4.1133 Y4.1858
G2 X-4.0133 Y4.2141 I0.0758 J-0.0773
X-3.8529 Y4.1512 I-0.1298 J-0.5673
G3 X-3.8189 Y4.1825 I0.0121 J0.021
G2 X-3.8683 Y4.3476 I0.5267 J0.2476
X-3.8317 Y4.445 I0.1072 J0.0154
G1 X-3.8315 Y4.4452
X-3.8276 Y4.4485
G2 X-3.7261 Y4.4701 I0.0705 J-0.0821
X-3.5701 Y4.3968 I-0.167 J-0.5575
G3 X-3.5341 Y4.4258 I0.0135 J0.0202
G2 X-3.5725 Y4.5938 I0.5419 J0.2122
X-3.5296 Y4.6885 I0.1079 J0.0082
G1 X-3.5293 Y4.6887
X-3.5252 Y4.6918
G2 X-3.4225 Y4.7066 I0.0649 J-0.0867
X-3.2717 Y4.6231 I-0.2035 J-0.5453
G3 X-3.2339 Y4.6497 I0.0148 J0.0192
G2 X-3.2611 Y4.8198 I0.5548 J0.1759
X-3.212 Y4.9115 I0.1082 J0.0011
G1 X-3.2118 Y4.9117
X-3.2075 Y4.9145
G2 X-3.1039 Y4.9225 I0.0591 J-0.0907
X-2.959 Y4.8292 I-0.2391 J-0.5306
G3 X-2.9195 Y4.8533 I0.016 J0.0182
G2 X-2.9354 Y5.0248 I0.5652 J0.1389
X-2.8804 Y5.1131 I0.1081 J-0.0061
G1 X-2.8758 Y5.1157
X-2.8757
G2 X-2.7718 Y5.1168 I0.053 J-0.0944
X-2.6334 Y5.0142 I-0.2736 J-0.5136
G3 X-2.5924 Y5.0356 I0.0172 J0.0171
G2 X-2.5969 Y5.2078 I0.5731 J0.1012
X-2.5362 Y5.2923 I0.1075 J-0.0132
G1 X-2.5314 Y5.2946
G2 X-2.4276 Y5.2889 I0.0467 J-0.0977
X-2.2963 Y5.1774 I-0.307 J-0.4945
G3 X-2.2539 Y5.1959 I0.0183 J0.0159
G2 X-2.247 Y5.3681 I0.5786 J0.0631
X-2.1809 Y5.4483 I0.1063 J-0.0203
X-2.1804 Y5.4485 I0.0291 J-0.0726
G1 X-2.1757 Y5.4504
G2 X-2.0727 Y5.4377 I0.0399 J-0.1006
X-1.9491 Y5.3178 I-0.3389 J-0.4731
G3 X-1.9055 Y5.3335 I0.0193 J0.0147
G2 X-1.8873 Y5.5048 I0.5815 J0.0247
X-1.8162 Y5.5805 I0.1048 J-0.0272
G1 X-1.8112 Y5.5821
X-1.811 Y5.5822
G2 X-1.7088 Y5.5629 I0.0334 J-0.103
X-1.5933 Y5.4349 I-0.3695 J-0.4496
G3 X-1.5489 Y5.4478 I0.0202 J0.0134
G2 X-1.5194 Y5.6175 I0.5818 J-0.0137
X-1.4432 Y5.6883 I0.1027 J-0.0341
G1 X-1.4381 Y5.6896
G2 X-1.3374 Y5.6636 I0.0266 J-0.1049
X-1.2307 Y5.5284 I-0.3984 J-0.4243
G3 X-1.1855 Y5.5382 I0.021 J0.012
G2 X-1.1448 Y5.7057 I0.5796 J-0.0522
X-1.0644 Y5.7712 I0.1002 J-0.0408
G1 X-1.0593 Y5.7722
G2 X-1.0589 Y5.7723 I0.0145 J-0.0769
X-0.9602 Y5.7396 I0.0195 J-0.1065
X-0.8626 Y5.5976 I-0.4256 J-0.397
G3 X-0.8168 Y5.6045 I0.0218 J0.0106
G2 X-0.7652 Y5.7688 I0.5749 J-0.0904
X-0.6804 Y5.829 I0.0974 J-0.0473
G1 X-0.6801 Y5.8291
X-0.6749 Y5.8296
G2 X-0.5787 Y5.7906 I0.0123 J-0.1076
X-0.4908 Y5.6424 I-0.4509 J-0.368
G3 X-0.4446 Y5.6462 I0.0225 J0.0092
G2 X-0.3822 Y5.8068 I0.5677 J-0.1281
X-0.2938 Y5.8612 I0.094 J-0.0537
G1 X-0.2885 Y5.8615
X-0.2883
G2 X-0.1948 Y5.8161 I0.0053 J-0.1081
X-0.1168 Y5.6625 I-0.4742 J-0.3374
G3 X-0.0705 Y5.6633 I0.023 J0.0077
G2 X0.0024 Y5.8194 I0.558 J-0.1654
X0.0943 Y5.8678 I0.0902 J-0.0598
G1 X0.0995 Y5.8677
X0.0997
G2 X0.19 Y5.8163 I-0.0018 J-0.1082
X0.2577 Y5.6578 I-0.4955 J-0.3053
G3 X0.3039 Y5.6555 I0.0235 J0.0061
G2 X0.387 Y5.8065 I0.5459 J-0.2019
X0.4819 Y5.8488 I0.0861 J-0.0656
X0.4825 Y5.8487 I-0.0064 J-0.078
G1 X0.4876 Y5.8483
G2 X0.574 Y5.791 I-0.0093 J-0.1078
X0.6311 Y5.6284 I-0.5146 J-0.2719
G3 X0.677 Y5.6231 I0.0238 J0.0046
G2 X0.7699 Y5.7682 I0.5313 J-0.2375
X0.8674 Y5.8041 I0.0816 J-0.0712
G1 X0.8675
X0.8727 Y5.8033
G2 X0.9555 Y5.7404 I-0.0161 J-0.1071
X1.0017 Y5.5744 I-0.5314 J-0.2373
G3 X1.0472 Y5.566 I0.0241 J0.003
G2 X1.1494 Y5.7047 I0.5144 J-0.2722
X1.2492 Y5.7341 I0.0767 J-0.0764
G1 X1.2494 Y5.734
X1.2545 Y5.7329
G2 X1.3328 Y5.6647 I-0.0232 J-0.1057
X1.3679 Y5.496 I-0.5459 J-0.2017
G3 X1.4128 Y5.4847 I0.0242 J0.0014
G2 X1.5239 Y5.6163 I0.4953 J-0.3055
X1.6253 Y5.639 I0.0715 J-0.0813
G1 X1.6304 Y5.6376
X1.6305 Y5.6375
G2 X1.7043 Y5.5643 I-0.0301 J-0.104
X1.7282 Y5.3936 I-0.5581 J-0.1651
G3 X1.7722 Y5.3793 I0.0243 J-0.0002
G2 X1.8918 Y5.5033 I0.4741 J-0.3375
X1.9945 Y5.5193 I0.0659 J-0.0859
G1 X1.9947 Y5.5192
X1.9996 Y5.5174
G2 X2.0683 Y5.4395 I-0.0369 J-0.1018
X2.0809 Y5.2676 I-0.5678 J-0.1279
G3 X2.1238 Y5.2504 I0.0242 J-0.0018
G2 X2.2514 Y5.3663 I0.4508 J-0.3682
X2.355 Y5.3754 I0.0601 J-0.09
G1 X2.3598 Y5.3732
G2 X2.4233 Y5.2908 I-0.0435 J-0.0991
X2.4244 Y5.1186 I-0.575 J-0.0901
G3 X2.4662 Y5.0986 I0.024 J-0.0034
G2 X2.6011 Y5.2057 I0.4254 J-0.3972
X2.7051 Y5.208 I0.054 J-0.0938
G1 X2.7097 Y5.2055
G2 X2.7676 Y5.1192 I-0.0499 J-0.096
X2.7574 Y4.9471 I-0.5797 J-0.0519
G3 X2.7977 Y4.9244 I0.0237 J-0.005
G2 X2.9395 Y5.0224 I0.3983 J-0.4244
X3.0434 Y5.0178 I0.0477 J-0.0972
G1 X3.0435 Y5.0177
X3.048 Y5.015
G2 X3.0999 Y4.925 I-0.0562 J-0.0925
X3.0784 Y4.7541 I-0.5818 J-0.0134
G3 X3.1171 Y4.7288 I0.0233 J-0.0066
G2 X3.265 Y4.8172 I0.3692 J-0.4499
X3.3683 Y4.8057 I0.0412 J-0.1001
G1 X3.3726 Y4.8027
X3.3727 Y4.8026
G2 X3.4186 Y4.7095 I-0.0622 J-0.0886
G1 Y4.7094
G2 X3.3858 Y4.5402 I-0.5815 J0.025
G3 X3.4228 Y4.5124 I0.0229 J-0.0081
G2 X3.5762 Y4.5909 I0.3388 J-0.4732
X3.6785 Y4.5726 I0.0344 J-0.1027
G1 X3.6826 Y4.5693
X3.6827 Y4.5692
G2 X3.7224 Y4.4731 I-0.0679 J-0.0843
X3.6785 Y4.3065 I-0.5785 J0.0634
G3 X3.7135 Y4.2763 I0.0223 J-0.0096
G2 X3.8718 Y4.3445 I0.3068 J-0.4946
X3.9727 Y4.3195 I0.0276 J-0.1047
G1 X3.9766 Y4.3159
G2 X4.0099 Y4.2173 I-0.0733 J-0.0797
X3.9551 Y4.054 I-0.5731 J0.1015
G3 X3.988 Y4.0216 I0.0216 J-0.011
G2 X4.1505 Y4.0791 I0.2734 J-0.5138
X4.2494 Y4.0476 I0.0206 J-0.1063
G1 X4.253 Y4.0438
X4.2532 Y4.0436
G2 X4.2799 Y3.9431 I-0.0784 J-0.0746
X4.2143 Y3.7837 I-0.5651 J0.1393
G3 X4.2451 Y3.7492 I0.0208 J-0.0124
G2 X4.411 Y3.7959 I0.2388 J-0.5307
X4.5077 Y3.7577 I0.0136 J-0.1074
G1 X4.5111 Y3.7537
G2 X4.5311 Y3.6516 I-0.0832 J-0.0693
X4.4552 Y3.4969 I-0.5547 J0.1762
G3 X4.4836 Y3.4604 I0.02 J-0.0138
G2 X4.6522 Y3.496 I0.2032 J-0.5454
X4.7462 Y3.4516 I0.0065 J-0.108
G1 X4.7493 Y3.4473
G2 X4.7625 Y3.3442 I-0.0876 J-0.0636
X4.6766 Y3.1949 I-0.5418 J0.2125
G3 X4.7025 Y3.1565 I0.019 J-0.0151
G2 X4.8731 Y3.1809 I0.1667 J-0.5576
X4.9639 Y3.1305 I-0.0007 J-0.1083
G1 X4.9667 Y3.1261
X4.9668 Y3.1258
G2 X4.9731 Y3.0221 I-0.0916 J-0.0576
X4.8775 Y2.8788 I-0.5266 J0.2478
G3 X4.9009 Y2.8388 I0.018 J-0.0163
G2 X5.0726 Y2.8519 I0.1295 J-0.5674
X5.16 Y2.7955 I-0.0078 J-0.108
G1 X5.1625 Y2.7908
G2 X5.162 Y2.6868 I-0.0952 J-0.0515
X5.0571 Y2.5501 I-0.509 J0.2821
G3 X5.0778 Y2.5087 I0.0168 J-0.0175
G2 X5.25 Y2.5104 I0.0917 J-0.5747
X5.3335 Y2.4483 I-0.0149 J-0.1072
G1 X5.3357 Y2.4435
G2 X5.3283 Y2.3398 I-0.0984 J-0.0451
X5.2146 Y2.2103 I-0.4893 J0.3151
G3 X5.2325 Y2.1677 I0.0156 J-0.0185
G2 X5.4045 Y2.1579 I0.0536 J-0.5795
X5.4836 Y2.0905 I-0.0221 J-0.106
X5.4838 Y2.09 I-0.0731 J-0.0279
G1 X5.4856 Y2.0853
G2 X5.4713 Y1.9825 I-0.1013 J-0.0382
X5.3493 Y1.8609 I-0.4674 J0.3467
G3 X5.3643 Y1.8171 I0.0144 J-0.0195
G2 X5.5353 Y1.796 I0.0151 J-0.5818
X5.6098 Y1.7235 I-0.029 J-0.1043
G1 X5.6099 Y1.7233
X5.6114 Y1.7183
G2 X5.5903 Y1.6166 I-0.1035 J-0.0316
X5.4606 Y1.5033 I-0.4435 J0.3769
G3 X5.4727 Y1.4586 I0.0131 J-0.0204
G2 X5.6419 Y1.4263 I-0.0234 J-0.5815
X5.7114 Y1.349 I-0.0358 J-0.1022
G1 X5.7126 Y1.3439
X5.7127 Y1.3438
G2 X5.685 Y1.2436 I-0.1054 J-0.0248
X5.548 Y1.1391 I-0.4176 J0.4054
G3 X5.5571 Y1.0937 I0.0117 J-0.0212
G2 X5.7238 Y1.0503 I-0.0617 J-0.5787
X5.7881 Y0.9685 I-0.0425 J-0.0995
G1 X5.789 Y0.9633
G2 X5.7547 Y0.8651 I-0.1068 J-0.0178
X5.6111 Y0.7699 I-0.3899 J0.4321
G3 X5.6172 Y0.7241 I0.0103 J-0.022
G2 X5.7807 Y0.6697 I-0.0999 J-0.5734
G1 X5.7808
G2 X5.8394 Y0.5841 I-0.049 J-0.0965
G1 X5.84 Y0.579
Y0.5787
G2 X5.7994 Y0.4829 I-0.1077 J-0.0108
X5.6497 Y0.3974 I-0.3605 J0.4569
G3 X5.6528 Y0.3512 I0.0088 J-0.0226
G2 X5.8123 Y0.2862 I-0.1375 J-0.5655
X5.8653 Y0.1967 I-0.0552 J-0.0931
G1 Y0.1964
X5.8655 Y0.1912
G2 X5.8186 Y0.0986 I-0.1082 J-0.0034
X5.6637 Y0.0231 I-0.3295 J0.4797
G3 Y-0.0231 I0.0073 J-0.0231
G2 X5.8186 Y-0.0986 I-0.1746 J-0.5552
X5.8655 Y-0.1912 I-0.0613 J-0.0892
G1 X5.8653 Y-0.1964
Y-0.1967
G2 X5.8123 Y-0.2862 I-0.1082 J0.0036
X5.6528 Y-0.3512 I-0.297 J0.5005
G3 X5.6497 Y-0.3974 I0.0057 J-0.0236
G2 X5.7993 Y-0.4829 I-0.2109 J-0.5425
X5.84 Y-0.5787 I-0.0671 J-0.085
G1 Y-0.579
X5.8394 Y-0.5841
G2 X5.7808 Y-0.6697 I-0.1077 J0.011
G1 X5.7807
G2 X5.6172 Y-0.7241 I-0.2634 J0.519
G3 X5.6111 Y-0.7699 I0.0041 J-0.0239
G2 X5.7547 Y-0.8651 I-0.2463 J-0.5273
X5.789 Y-0.9633 I-0.0725 J-0.0804
G1 X5.7881 Y-0.9685
G2 X5.7239 Y-1.0503 I-0.1068 J0.0177
X5.5571 Y-1.0937 I-0.2285 J0.5353
G3 X5.548 Y-1.1391 I0.0026 J-0.0241
G2 X5.685 Y-1.2436 I-0.2806 J-0.5099
X5.7127 Y-1.3438 I-0.0777 J-0.0754
G1 X5.7126 Y-1.3439
X5.7114 Y-1.349
G2 X5.6419 Y-1.4263 I-0.1053 J0.0249
X5.4727 Y-1.4586 I-0.1926 J0.5492
G3 X5.4606 Y-1.5033 I0.001 J-0.0242
G2 X5.5903 Y-1.6166 I-0.3137 J-0.4902
X5.6114 Y-1.7183 I-0.0825 J-0.0701
G1 X5.6099 Y-1.7233
X5.6098 Y-1.7235
G2 X5.5353 Y-1.796 I-0.1035 J0.0318
X5.3643 Y-1.8171 I-0.1559 J0.5607
G3 X5.3493 Y-1.8609 I-0.0006 J-0.0242
G2 X5.4713 Y-1.9825 I-0.3454 J-0.4684
X5.4856 Y-2.0853 I-0.0869 J-0.0645
G1 X5.4838 Y-2.09
G2 X5.4836 Y-2.0905 I-0.0733 J0.0274
X5.4045 Y-2.1579 I-0.1012 J0.0386
X5.2325 Y-2.1677 I-0.1185 J0.5698
G3 X5.2146 Y-2.2103 I-0.0022 J-0.0241
G2 X5.3283 Y-2.3398 I-0.3756 J-0.4446
X5.3357 Y-2.4435 I-0.091 J-0.0586
G1 X5.3335 Y-2.4483
G2 X5.25 Y-2.5104 I-0.0984 J0.0451
X5.0778 Y-2.5087 I-0.0805 J0.5764
G3 X5.0571 Y-2.5501 I-0.0038 J-0.0239
G2 X5.162 Y-2.6868 I-0.4042 J-0.4187
X5.1625 Y-2.7908 I-0.0947 J-0.0525
G1 X5.16 Y-2.7955
G2 X5.0726 Y-2.8519 I-0.0952 J0.0515
X4.9009 Y-2.8388 I-0.0423 J0.5805
G3 X4.8775 Y-2.8788 I-0.0054 J-0.0236
G2 X4.9731 Y-3.0221 I-0.431 J-0.3911
X4.9668 Y-3.1258 I-0.0979 J-0.0461
G1 X4.9667 Y-3.1261
X4.9639 Y-3.1305
G2 X4.8731 Y-3.1809 I-0.0915 J0.0578
X4.7025 Y-3.1565 I-0.0038 J0.582
G3 X4.6766 Y-3.1949 I-0.007 J-0.0232
G2 X4.7625 Y-3.3442 I-0.4558 J-0.3618
X4.7493 Y-3.4473 I-0.1008 J-0.0395
G1 X4.7462 Y-3.4516
G2 X4.6522 Y-3.496 I-0.0876 J0.0636
X4.4836 Y-3.4604 I0.0347 J0.581
G3 X4.4552 Y-3.4969 I-0.0085 J-0.0227
G2 X4.5311 Y-3.6516 I-0.4788 J-0.3309
X4.5111 Y-3.7537 I-0.1032 J-0.0328
G1 X4.5077 Y-3.7577
G2 X4.411 Y-3.7959 I-0.0832 J0.0693
X4.2451 Y-3.7492 I0.073 J0.5774
G3 X4.2143 Y-3.7837 I-0.01 J-0.0221
G2 X4.2799 Y-3.9431 I-0.4995 J-0.2986
X4.2532 Y-4.0436 I-0.1051 J-0.0259
G1 X4.253 Y-4.0438
X4.2494 Y-4.0476
G2 X4.1505 Y-4.0791 I-0.0783 J0.0747
X3.988 Y-4.0216 I0.111 J0.5713
G3 X3.9551 Y-4.054 I-0.0114 J-0.0214
G2 X4.0099 Y-4.2173 I-0.5182 J-0.2649
X3.9766 Y-4.3159 I-0.1066 J-0.0189
G1 X3.9727 Y-4.3195
G2 X3.8718 Y-4.3445 I-0.0733 J0.0797
X3.7135 Y-4.2763 I0.1485 J0.5627
G3 X3.6785 Y-4.3065 I-0.0128 J-0.0206
G2 X3.7224 Y-4.4731 I-0.5346 J-0.23
X3.6827 Y-4.5692 I-0.1076 J-0.0118
G1 X3.6826 Y-4.5693
X3.6785 Y-4.5726
G2 X3.5762 Y-4.5909 I-0.0678 J0.0844
X3.4228 Y-4.5124 I0.1854 J0.5517
G3 X3.3858 Y-4.5402 I-0.0141 J-0.0197
G2 X3.4186 Y-4.7094 I-0.5486 J-0.1942
G1 Y-4.7095
G2 X3.3727 Y-4.8026 I-0.1082 J-0.0046
G1 X3.3726 Y-4.8027
X3.3683 Y-4.8057
G2 X3.265 Y-4.8172 I-0.0621 J0.0886
X3.1171 Y-4.7288 I0.2213 J0.5383
G3 X3.0784 Y-4.7541 I-0.0154 J-0.0187
G2 X3.0999 Y-4.925 I-0.5603 J-0.1575
X3.048 Y-5.015 I-0.1082 J0.0025
G1 X3.0435 Y-5.0177
X3.0434 Y-5.0178
G2 X2.9395 Y-5.0225 I-0.0562 J0.0925
X2.7977 Y-4.9244 I0.2565 J0.5224
G3 X2.7574 Y-4.9471 I-0.0166 J-0.0177
G2 X2.7676 Y-5.1191 I-0.5695 J-0.1201
X2.7098 Y-5.2055 I-0.1078 J0.0097
G1 X2.7051 Y-5.208
G2 X2.6011 Y-5.2057 I-0.0499 J0.096
X2.4662 Y-5.0986 I0.2905 J0.5043
G3 X2.4244 Y-5.1185 I-0.0177 J-0.0166
G2 X2.4233 Y-5.2908 I-0.5762 J-0.0822
X2.3598 Y-5.3732 I-0.107 J0.0168
G1 X2.355 Y-5.3754
G2 X2.2514 Y-5.3663 I-0.0435 J0.0991
X2.1238 Y-5.2504 I0.3232 J0.484
G3 X2.0809 Y-5.2676 I-0.0188 J-0.0153
G2 X2.0683 Y-5.4394 I-0.5803 J-0.044
X1.9996 Y-5.5174 I-0.1056 J0.0238
G1 X1.9947 Y-5.5192
X1.9945 Y-5.5193
G2 X1.8918 Y-5.5033 I-0.0368 J0.1018
X1.7722 Y-5.3793 I0.3545 J0.4616
G3 X1.7282 Y-5.3936 I-0.0198 J-0.0141
G2 X1.7043 Y-5.5642 I-0.582 J-0.0055
X1.6305 Y-5.6375 I-0.1038 J0.0307
G1 X1.6304 Y-5.6376
X1.6253 Y-5.639
G2 X1.5239 Y-5.6163 I-0.0299 J0.104
X1.4128 Y-5.4847 I0.3842 J0.4372
G3 X1.3679 Y-5.496 I-0.0206 J-0.0127
G2 X1.3328 Y-5.6647 I-0.5811 J0.0329
X1.2545 Y-5.7329 I-0.1015 J0.0375
G1 X1.2494 Y-5.734
X1.2492 Y-5.7341
G2 X1.1494 Y-5.7047 I-0.0231 J0.1057
X1.0472 Y-5.566 I0.4122 J0.4108
G3 X1.0017 Y-5.5744 I-0.0214 J-0.0114
G2 X0.9555 Y-5.7404 I-0.5776 J0.0713
X0.8727 Y-5.8033 I-0.0989 J0.0441
G1 X0.8675 Y-5.8041
X0.8674
G2 X0.7699 Y-5.7682 I-0.016 J0.1071
X0.677 Y-5.6231 I0.4385 J0.3827
G3 X0.6311 Y-5.6284 I-0.0221 J-0.0099
G2 X0.574 Y-5.791 I-0.5716 J0.1093
X0.4876 Y-5.8483 I-0.0957 J0.0506
G1 X0.4825 Y-5.8487
G2 X0.4819 Y-5.8488 I-0.007 J0.0779
X0.387 Y-5.8065 I-0.0089 J0.1079
X0.3039 Y-5.6555 I0.4628 J0.3529
G3 X0.2577 Y-5.6578 I-0.0227 J-0.0084
G2 X0.19 Y-5.8163 I-0.5632 J0.1468
X0.0997 Y-5.8677 I-0.0922 J0.0568
G1 X0.0995
X0.0943 Y-5.8678
G2 X0.0024 Y-5.8194 I-0.0017 J0.1082
X-0.0705 Y-5.6633 I0.4851 J0.3215
G3 X-0.1168 Y-5.6625 I-0.0233 J-0.0069
G2 X-0.1948 Y-5.8161 I-0.5522 J0.1838
X-0.2883 Y-5.8615 I-0.0882 J0.0627
G1 X-0.2885
X-0.2938 Y-5.8612
G2 X-0.3822 Y-5.8068 I0.0055 J0.1081
X-0.4446 Y-5.6462 I0.5053 J0.2887
G3 X-0.4908 Y-5.6424 I-0.0237 J-0.0054
G2 X-0.5787 Y-5.7905 I-0.5389 J0.2198
X-0.6749 Y-5.8296 I-0.0839 J0.0685
G1 X-0.6801 Y-5.8291
X-0.6804 Y-5.829
G2 X-0.7652 Y-5.7688 I0.0125 J0.1075
X-0.8168 Y-5.6045 I0.5233 J0.2547
G3 X-0.8626 Y-5.5976 I-0.024 J-0.0038
G2 X-0.9602 Y-5.7396 I-0.5232 J0.255
X-1.0589 Y-5.7723 I-0.0792 J0.0738
X-1.0593 Y-5.7722 I0.0141 J0.077
G1 X-1.0644 Y-5.7712
G2 X-1.1448 Y-5.7057 I0.0198 J0.1064
X-1.1855 Y-5.5382 I0.539 J0.2196
G3 X-1.2307 Y-5.5284 I-0.0242 J-0.0022
G2 X-1.3374 Y-5.6636 I-0.5052 J0.289
X-1.4381 Y-5.6896 I-0.0741 J0.0789
G1 X-1.4432 Y-5.6883
G2 X-1.5194 Y-5.6176 I0.0266 J0.1049
X-1.5489 Y-5.4478 I0.5523 J0.1835
G3 X-1.5933 Y-5.4349 I-0.0242 J-0.0006
G2 X-1.7088 Y-5.5629 I-0.485 J0.3217
X-1.811 Y-5.5822 I-0.0687 J0.0836
G1 X-1.8112 Y-5.5821
X-1.8162 Y-5.5805
G2 X-1.8873 Y-5.5048 I0.0336 J0.1029
X-1.9055 Y-5.3335 I0.5632 J0.1465
G3 X-1.949 Y-5.3178 I-0.0242 J0.001
G2 X-2.0727 Y-5.4377 I-0.4626 J0.3532
X-2.1757 Y-5.4504 I-0.063 J0.088
G1 X-2.1804 Y-5.4485
G2 X-2.1809 Y-5.4483 I0.0286 J0.0728
X-2.247 Y-5.3681 I0.0402 J0.1005
X-2.2539 Y-5.1959 I0.5717 J0.109
G3 X-2.2962 Y-5.1773 I-0.0241 J0.0027
G2 X-2.4276 Y-5.2889 I-0.4383 J0.3829
X-2.5314 Y-5.2946 I-0.0571 J0.092
G1 X-2.5362 Y-5.2923
G2 X-2.5969 Y-5.2078 I0.0467 J0.0977
X-2.5924 Y-5.0356 I0.5776 J0.071
G3 X-2.6334 Y-5.0142 I-0.0239 J0.0042
G2 X-2.7718 Y-5.1168 I-0.412 J0.411
X-2.8757 Y-5.1157 I-0.0509 J0.0955
G1 X-2.8758
X-2.8804 Y-5.1131
G2 X-2.9354 Y-5.0249 I0.0531 J0.0943
X-2.9195 Y-4.8533 I0.5811 J0.0327
G3 X-2.959 Y-4.8292 I-0.0236 J0.0058
G2 X-3.1039 Y-4.9225 I-0.3839 J0.4374
X-3.2075 Y-4.9145 I-0.0445 J0.0987
G1 X-3.2118 Y-4.9117
X-3.212 Y-4.9115
G2 X-3.2611 Y-4.8198 I0.0592 J0.0906
X-3.2339 Y-4.6497 I0.582 J-0.0058
G3 X-3.2717 Y-4.6231 I-0.0231 J0.0073
G2 X-3.4225 Y-4.7066 I-0.3542 J0.4618
X-3.5252 Y-4.6918 I-0.0378 J0.1014
G1 X-3.5293 Y-4.6887
X-3.5296 Y-4.6885
G2 X-3.5725 Y-4.5938 I0.0651 J0.0865
X-3.5341 Y-4.4258 I0.5803 J-0.0442
G3 X-3.5701 Y-4.3968 I-0.0226 J0.0088
G2 X-3.726 Y-4.4701 I-0.3229 J0.4842
X-3.8276 Y-4.4485 I-0.031 J0.1037
G1 X-3.8315 Y-4.4452
X-3.8317 Y-4.445
G2 X-3.8683 Y-4.3476 I0.0706 J0.082
X-3.8189 Y-4.1825 I0.5761 J-0.0825
G3 X-3.8529 Y-4.1512 I-0.022 J0.0103
G2 X-4.0133 Y-4.2141 I-0.2902 J0.5045
X-4.1133 Y-4.1858 I-0.0241 J0.1055
G1 X-4.1135 Y-4.1856
X-4.1173 Y-4.1819
G2 X-4.1471 Y-4.0824 I0.076 J0.0771
X-4.0869 Y-3.921 I0.5694 J-0.1205
G3 X-4.1188 Y-3.8875 I-0.0212 J0.0117
G2 X-4.2831 Y-3.9396 I-0.2563 J0.5225
X-4.381 Y-3.9047 I-0.0171 J0.1069
G1 X-4.3812 Y-3.9046
X-4.3846 Y-3.9007
G2 X-4.4079 Y-3.7994 I0.0809 J0.0719
X-4.3372 Y-3.6423 I0.5602 J-0.1578
G3 X-4.3668 Y-3.6068 I-0.0204 J0.0131
G2 X-4.5341 Y-3.6479 I-0.2212 J0.5383
X-4.6294 Y-3.6067 I-0.01 J0.1078
G1 X-4.6327 Y-3.6026
X-4.6328 Y-3.6024
G2 X-4.6493 Y-3.4998 I0.0855 J0.0664
X-4.5684 Y-3.3477 I0.5485 J-0.1944
G3 X-4.5956 Y-3.3103 I-0.0195 J0.0144
G2 X-4.7653 Y-3.3403 I-0.1851 J0.5518
X-4.8576 Y-3.293 I-0.0029 J0.1082
G1 X-4.8606 Y-3.2887
X-4.8608 Y-3.2883
G2 X-4.8705 Y-3.1848 I0.0897 J0.0606
X-4.7797 Y-3.0385 I0.5345 J-0.2303
G3 X-4.8043 Y-2.9993 I-0.0185 J0.0157
G2 X-4.9756 Y-3.0181 I-0.1482 J0.5628
X-5.0647 Y-2.9646 I0.0043 J0.1082
G1 X-5.0674 Y-2.96
X-5.0675 Y-2.9599
G2 X-5.0703 Y-2.856 I0.0935 J0.0546
X-4.97 Y-2.716 I0.5181 J-0.2651
G3 X-4.9921 Y-2.6753 I-0.0174 J0.0169
G2 X-5.1641 Y-2.6826 I-0.1107 J0.5714
X-5.2496 Y-2.6233 I0.0114 J0.1077
G1 X-5.252 Y-2.6186
G2 X-5.248 Y-2.5147 I0.0969 J0.0483
X-5.1387 Y-2.3815 I0.4995 J-0.2988
G3 X-5.1579 Y-2.3395 I-0.0162 J0.018
G2 X-5.3302 Y-2.3355 I-0.0727 J0.5774
G1 Y-2.3354
G2 X-5.4115 Y-2.2707 I0.0186 J0.1066
G1 X-5.4135 Y-2.2658
G2 X-5.4028 Y-2.1624 I0.0998 J0.0419
X-5.2848 Y-2.0367 I0.4787 J-0.3311
G3 X-5.3013 Y-1.9935 I-0.015 J0.019
G2 X-5.4729 Y-1.9781 I-0.0344 J0.581
X-5.5498 Y-1.908 I0.0255 J0.1052
G1 X-5.5499 Y-1.9077
X-5.5515 Y-1.9028
G2 X-5.5338 Y-1.8005 I0.1024 J0.035
X-5.4079 Y-1.683 I0.4557 J-0.362
G3 X-5.4214 Y-1.6388 I-0.0137 J0.02
G2 X-5.5917 Y-1.612 I0.0041 J0.582
X-5.6637 Y-1.5371 I0.0325 J0.1033
G1 Y-1.537
X-5.6651 Y-1.5319
G2 X-5.6408 Y-1.4309 I0.1045 J0.0283
G1 X-5.6407
G2 X-5.5073 Y-1.3219 I0.4307 J-0.3914
G3 X-5.5179 Y-1.2769 I-0.0124 J0.0208
G2 X-5.686 Y-1.239 I0.0426 J0.5804
X-5.7529 Y-1.1596 I0.0392 J0.1009
G1 X-5.7539 Y-1.1545
X-5.754 Y-1.1542
G2 X-5.723 Y-1.0549 I0.1061 J0.0214
X-5.5826 Y-0.955 I0.404 J-0.419
G3 X-5.5902 Y-0.9094 I-0.011 J0.0216
G2 X-5.7554 Y-0.8605 I0.0808 J0.5764
X-5.817 Y-0.7767 I0.0457 J0.0981
Y-0.7762 I0.0776 J0.0104
G1 X-5.8177 Y-0.7711
G2 X-5.7803 Y-0.6745 I0.1073 J0.014
G1 X-5.7802 Y-0.6744
G2 X-5.6335 Y-0.584 I0.3754 J-0.4448
G3 X-5.6381 Y-0.5379 I-0.0095 J0.0223
G2 X-5.7997 Y-0.4782 I0.1187 J0.5698
X-5.8556 Y-0.3905 I0.0521 J0.0949
G1 X-5.8559 Y-0.3853
G2 X-5.8122 Y-0.2909 I0.108 J0.0072
G1 X-5.8121
G2 X-5.6598 Y-0.2104 I0.3452 J-0.4686
G3 X-5.6613 Y-0.1641 I-0.008 J0.0229
G2 X-5.8186 Y-0.0939 I0.1561 J0.5607
G1 X-5.8187 Y-0.0938
G2 X-5.8686 Y-0.0026 I0.0584 J0.0912
G1 Y0.
Y0.0026 Z-0.0726
G2 X-5.8187 Y0.0938 Z-0.0781 I0.1083 J0.
G1 X-5.8186 Y0.0939
G2 X-5.6613 Y0.1641 Z-0.0867 I0.3134 J-0.4904
G3 X-5.6598 Y0.2104 Z-0.0898 I-0.0065 J0.0234
G2 X-5.8121 Y0.2909 Z-0.0985 I0.1928 J0.5491
G1 X-5.8122
G2 X-5.8559 Y0.3853 Z-0.1039 I0.0642 J0.0871
G1 X-5.8556 Y0.3905 Z-0.1042
G2 X-5.7997 Y0.4782 Z-0.1097 I0.108 J-0.0072
X-5.6381 Y0.5379 Z-0.1183 I0.2804 J-0.51
G3 X-5.6335 Y0.584 Z-0.1214 I-0.0049 J0.0237
G2 X-5.7802 Y0.6744 Z-0.1301 I0.2287 J0.5352
G1 X-5.7803 Y0.6745
G2 X-5.8177 Y0.7711 Z-0.1355 I0.0699 J0.0826
G1 X-5.817 Y0.7762 Z-0.1358
G2 Y0.7767 I0.0776 J-0.0099
X-5.7554 Y0.8605 Z-0.1412 I0.1073 J-0.0144
X-5.6855 Y0.8877 Z-0.145 I0.246 J-0.5274
X-5.5902 Y0.9094 I0.1761 J-0.5547
G3 X-5.5826 Y0.955 I-0.0034 J0.024
G2 X-5.723 Y1.0549 I0.2636 J0.5189
X-5.754 Y1.1542 I0.0751 J0.0779
G1 X-5.7539 Y1.1545
X-5.7529 Y1.1596
G2 X-5.686 Y1.239 I0.1061 J-0.0215
X-5.5179 Y1.2769 I0.2107 J-0.5425
G3 X-5.5073 Y1.3219 I-0.0018 J0.0242
G2 X-5.6407 Y1.4309 I0.2973 J0.5004
G1 X-5.6408
G2 X-5.6651 Y1.5319 I0.0802 J0.0727
G1 X-5.6637 Y1.537
Y1.5371
G2 X-5.5917 Y1.612 I0.1045 J-0.0283
X-5.4215 Y1.6388 I0.1743 J-0.5553
G3 X-5.4079 Y1.683 I-0.0002 J0.0242
G2 X-5.5338 Y1.8005 I0.3297 J0.4796
X-5.5515 Y1.9028 I0.0847 J0.0673
G1 X-5.5499 Y1.9077
X-5.5498 Y1.908
G2 X-5.4729 Y1.9781 I0.1024 J-0.0352
X-5.3013 Y1.9935 I0.1373 J-0.5656
G3 X-5.2848 Y2.0367 I0.0014 J0.0242
G2 X-5.4027 Y2.1623 I0.3607 J0.4567
X-5.4135 Y2.2658 I0.089 J0.0616
G1 X-5.4115 Y2.2707
G2 X-5.3302 Y2.3354 I0.0998 J-0.0419
G1 Y2.3355
G2 X-5.1579 Y2.3395 I0.0996 J-0.5734
G3 X-5.1387 Y2.3815 I0.003 J0.0241
G2 X-5.248 Y2.5147 I0.3901 J0.4319
X-5.252 Y2.6186 I0.0929 J0.0556
G1 X-5.2496 Y2.6233
G2 X-5.1641 Y2.6826 I0.0969 J-0.0484
X-4.9921 Y2.6753 I0.0614 J-0.5787
G3 X-4.97 Y2.7159 I0.0046 J0.0238
G2 X-5.0703 Y2.856 I0.4178 J0.4051
X-5.0675 Y2.9599 I0.0963 J0.0493
G1 X-5.0674 Y2.96
X-5.0647 Y2.9646
G2 X-4.9756 Y3.0181 I0.0934 J-0.0547
X-4.8043 Y2.9993 I0.023 J-0.5815
G3 X-4.7797 Y3.0385 I0.0062 J0.0235
G2 X-4.8705 Y3.1848 I0.4437 J0.3767
X-4.8608 Y3.2883 I0.0994 J0.0429
G1 X-4.8606 Y3.2887
X-4.8576 Y3.293
G2 X-4.7653 Y3.3403 I0.0895 J-0.0609
X-4.5956 Y3.3103 I-0.0154 J-0.5818
G3 X-4.5684 Y3.3477 I0.0077 J0.023
G2 X-4.6493 Y3.4998 I0.4676 J0.3465
X-4.6328 Y3.6024 I0.102 J0.0362
G1 X-4.6327 Y3.6026
X-4.6294 Y3.6067
G2 X-4.5341 Y3.6479 I0.0853 J-0.0666
X-4.3668 Y3.6068 I-0.0539 J-0.5795
G3 X-4.3372 Y3.6423 I0.0092 J0.0224
G2 X-4.4079 Y3.7994 I0.4895 J0.3148
X-4.3846 Y3.9007 I0.1042 J0.0294
G1 X-4.3812 Y3.9046
X-4.381 Y3.9047
G2 X-4.2831 Y3.9396 I0.0808 J-0.072
X-4.1189 Y3.8875 I-0.092 J-0.5747
G3 X-4.0869 Y3.921 I0.0107 J0.0218
G2 X-4.1471 Y4.0824 I0.5092 J0.2819
X-4.1173 Y4.1819 I0.1059 J0.0224
G1 X-4.1135 Y4.1856
X-4.1133 Y4.1858
G2 X-4.0133 Y4.2141 I0.0758 J-0.0773
X-3.8529 Y4.1512 I-0.1298 J-0.5673
G3 X-3.8189 Y4.1825 I0.0121 J0.021
G2 X-3.8683 Y4.3476 I0.5267 J0.2476
X-3.8317 Y4.445 I0.1072 J0.0154
G1 X-3.8315 Y4.4452
X-3.8276 Y4.4485
G2 X-3.7261 Y4.4701 I0.0705 J-0.0821
X-3.5701 Y4.3968 I-0.167 J-0.5575
G3 X-3.5341 Y4.4258 I0.0135 J0.0202
G2 X-3.5725 Y4.5938 I0.5419 J0.2122
X-3.5296 Y4.6885 I0.1079 J0.0082
G1 X-3.5293 Y4.6887
X-3.5252 Y4.6918
G2 X-3.4225 Y4.7066 I0.0649 J-0.0867
X-3.2717 Y4.6231 I-0.2035 J-0.5453
G3 X-3.2339 Y4.6497 I0.0148 J0.0192
G2 X-3.2611 Y4.8198 I0.5548 J0.1759
X-3.212 Y4.9115 I0.1082 J0.0011
G1 X-3.2118 Y4.9117
X-3.2075 Y4.9145
G2 X-3.1039 Y4.9225 I0.0591 J-0.0907
X-2.959 Y4.8292 I-0.2391 J-0.5306
G3 X-2.9195 Y4.8533 I0.016 J0.0182
G2 X-2.9354 Y5.0248 I0.5652 J0.1389
X-2.8804 Y5.1131 I0.1081 J-0.0061
G1 X-2.8758 Y5.1157
X-2.8757
G2 X-2.7718 Y5.1168 I0.053 J-0.0944
X-2.6334 Y5.0142 I-0.2736 J-0.5136
G3 X-2.5924 Y5.0356 I0.0172 J0.0171
G2 X-2.5969 Y5.2078 I0.5731 J0.1012
X-2.5362 Y5.2923 I0.1075 J-0.0132
G1 X-2.5314 Y5.2946
G2 X-2.4276 Y5.2889 I0.0467 J-0.0977
X-2.2963 Y5.1774 I-0.307 J-0.4945
G3 X-2.2539 Y5.1959 I0.0183 J0.0159
G2 X-2.247 Y5.3681 I0.5786 J0.0631
X-2.1809 Y5.4483 I0.1063 J-0.0203
X-2.1804 Y5.4485 I0.0291 J-0.0726
G1 X-2.1757 Y5.4504
G2 X-2.0727 Y5.4377 I0.0399 J-0.1006
X-1.9491 Y5.3178 I-0.3389 J-0.4731
G3 X-1.9055 Y5.3335 I0.0193 J0.0147
G2 X-1.8873 Y5.5048 I0.5815 J0.0247
X-1.8162 Y5.5805 I0.1048 J-0.0272
G1 X-1.8112 Y5.5821
X-1.811 Y5.5822
G2 X-1.7088 Y5.5629 I0.0334 J-0.103
X-1.5933 Y5.4349 I-0.3695 J-0.4496
G3 X-1.5489 Y5.4478 I0.0202 J0.0134
G2 X-1.5194 Y5.6175 I0.5818 J-0.0137
X-1.4432 Y5.6883 I0.1027 J-0.0341
G1 X-1.4381 Y5.6896
G2 X-1.3374 Y5.6636 I0.0266 J-0.1049
X-1.2307 Y5.5284 I-0.3984 J-0.4243
G3 X-1.1855 Y5.5382 I0.021 J0.012
G2 X-1.1448 Y5.7057 I0.5796 J-0.0522
X-1.0644 Y5.7712 I0.1002 J-0.0408
G1 X-1.0593 Y5.7722
G2 X-1.0589 Y5.7723 I0.0145 J-0.0769
X-0.9602 Y5.7396 I0.0195 J-0.1065
X-0.8626 Y5.5976 I-0.4256 J-0.397
G3 X-0.8168 Y5.6045 I0.0218 J0.0106
G2 X-0.7652 Y5.7688 I0.5749 J-0.0904
X-0.6804 Y5.829 I0.0974 J-0.0473
G1 X-0.6801 Y5.8291
X-0.6749 Y5.8296
G2 X-0.5787 Y5.7906 I0.0123 J-0.1076
X-0.4908 Y5.6424 I-0.4509 J-0.368
G3 X-0.4446 Y5.6462 I0.0225 J0.0092
G2 X-0.3822 Y5.8068 I0.5677 J-0.1281
X-0.2938 Y5.8612 I0.094 J-0.0537
G1 X-0.2885 Y5.8615
X-0.2883
G2 X-0.1948 Y5.8161 I0.0053 J-0.1081
X-0.1168 Y5.6625 I-0.4742 J-0.3374
G3 X-0.0705 Y5.6633 I0.023 J0.0077
G2 X0.0024 Y5.8194 I0.558 J-0.1654
X0.0943 Y5.8678 I0.0902 J-0.0598
G1 X0.0995 Y5.8677
X0.0997
G2 X0.19 Y5.8163 I-0.0018 J-0.1082
X0.2577 Y5.6578 I-0.4955 J-0.3053
G3 X0.3039 Y5.6555 I0.0235 J0.0061
G2 X0.387 Y5.8065 I0.5459 J-0.2019
X0.4819 Y5.8488 I0.0861 J-0.0656
X0.4825 Y5.8487 I-0.0064 J-0.078
G1 X0.4876 Y5.8483
G2 X0.574 Y5.791 I-0.0093 J-0.1078
X0.6311 Y5.6284 I-0.5146 J-0.2719
G3 X0.677 Y5.6231 I0.0238 J0.0046
G2 X0.7699 Y5.7682 I0.5313 J-0.2375
X0.8674 Y5.8041 I0.0816 J-0.0712
G1 X0.8675
X0.8727 Y5.8033
G2 X0.9555 Y5.7404 I-0.0161 J-0.1071
X1.0017 Y5.5744 I-0.5314 J-0.2373
G3 X1.0472 Y5.566 I0.0241 J0.003
G2 X1.1494 Y5.7047 I0.5144 J-0.2722
X1.2492 Y5.7341 I0.0767 J-0.0764
G1 X1.2494 Y5.734
X1.2545 Y5.7329
G2 X1.3328 Y5.6647 I-0.0232 J-0.1057
X1.3679 Y5.496 I-0.5459 J-0.2017
G3 X1.4128 Y5.4847 I0.0242 J0.0014
G2 X1.5239 Y5.6163 I0.4953 J-0.3055
X1.6253 Y5.639 I0.0715 J-0.0813
G1 X1.6304 Y5.6376
X1.6305 Y5.6375
G2 X1.7043 Y5.5643 I-0.0301 J-0.104
X1.7282 Y5.3936 I-0.5581 J-0.1651
G3 X1.7722 Y5.3793 I0.0243 J-0.0002
G2 X1.8918 Y5.5033 I0.4741 J-0.3375
X1.9945 Y5.5193 I0.0659 J-0.0859
G1 X1.9947 Y5.5192
X1.9996 Y5.5174
G2 X2.0683 Y5.4395 I-0.0369 J-0.1018
X2.0809 Y5.2676 I-0.5678 J-0.1279
G3 X2.1238 Y5.2504 I0.0242 J-0.0018
G2 X2.2514 Y5.3663 I0.4508 J-0.3682
X2.355 Y5.3754 I0.0601 J-0.09
G1 X2.3598 Y5.3732
G2 X2.4233 Y5.2908 I-0.0435 J-0.0991
X2.4244 Y5.1186 I-0.575 J-0.0901
G3 X2.4662 Y5.0986 I0.024 J-0.0034
G2 X2.6011 Y5.2057 I0.4254 J-0.3972
X2.7051 Y5.208 I0.054 J-0.0938
G1 X2.7097 Y5.2055
G2 X2.7676 Y5.1192 I-0.0499 J-0.096
X2.7574 Y4.9471 I-0.5797 J-0.0519
G3 X2.7977 Y4.9244 I0.0237 J-0.005
G2 X2.9395 Y5.0224 I0.3983 J-0.4244
X3.0434 Y5.0178 I0.0477 J-0.0972
G1 X3.0435 Y5.0177
X3.048 Y5.015
G2 X3.0999 Y4.925 I-0.0562 J-0.0925
X3.0784 Y4.7541 I-0.5818 J-0.0134
G3 X3.1171 Y4.7288 I0.0233 J-0.0066
G2 X3.265 Y4.8172 I0.3692 J-0.4499
X3.3683 Y4.8057 I0.0412 J-0.1001
G1 X3.3726 Y4.8027
X3.3727 Y4.8026
G2 X3.4186 Y4.7095 I-0.0622 J-0.0886
G1 Y4.7094
G2 X3.3858 Y4.5402 I-0.5815 J0.025
G3 X3.4228 Y4.5124 I0.0229 J-0.0081
G2 X3.5762 Y4.5909 I0.3388 J-0.4732
X3.6785 Y4.5726 I0.0344 J-0.1027
G1 X3.6826 Y4.5693
X3.6827 Y4.5692
G2 X3.7224 Y4.4731 I-0.0679 J-0.0843
X3.6785 Y4.3065 I-0.5785 J0.0634
G3 X3.7135 Y4.2763 I0.0223 J-0.0096
G2 X3.8718 Y4.3445 I0.3068 J-0.4946
X3.9727 Y4.3195 I0.0276 J-0.1047
G1 X3.9766 Y4.3159
G2 X4.0099 Y4.2173 I-0.0733 J-0.0797
X3.9551 Y4.054 I-0.5731 J0.1015
G3 X3.988 Y4.0216 I0.0216 J-0.011
G2 X4.1505 Y4.0791 I0.2734 J-0.5138
X4.2494 Y4.0476 I0.0206 J-0.1063
G1 X4.253 Y4.0438
X4.2532 Y4.0436
G2 X4.2799 Y3.9431 I-0.0784 J-0.0746
X4.2143 Y3.7837 I-0.5651 J0.1393
G3 X4.2451 Y3.7492 I0.0208 J-0.0124
G2 X4.411 Y3.7959 I0.2388 J-0.5307
X4.5077 Y3.7577 I0.0136 J-0.1074
G1 X4.5111 Y3.7537
G2 X4.5311 Y3.6516 I-0.0832 J-0.0693
X4.4552 Y3.4969 I-0.5547 J0.1762
G3 X4.4836 Y3.4604 I0.02 J-0.0138
G2 X4.6522 Y3.496 I0.2032 J-0.5454
X4.7462 Y3.4516 I0.0065 J-0.108
G1 X4.7493 Y3.4473
G2 X4.7625 Y3.3442 I-0.0876 J-0.0636
X4.6766 Y3.1949 I-0.5418 J0.2125
G3 X4.7025 Y3.1565 I0.019 J-0.0151
G2 X4.8731 Y3.1809 I0.1667 J-0.5576
X4.9639 Y3.1305 I-0.0007 J-0.1083
G1 X4.9667 Y3.1261
X4.9668 Y3.1258
G2 X4.9731 Y3.0221 I-0.0916 J-0.0576
X4.8775 Y2.8788 I-0.5266 J0.2478
G3 X4.9009 Y2.8388 I0.018 J-0.0163
G2 X5.0726 Y2.8519 I0.1295 J-0.5674
X5.16 Y2.7955 I-0.0078 J-0.108
G1 X5.1625 Y2.7908
G2 X5.162 Y2.6868 I-0.0952 J-0.0515
X5.0571 Y2.5501 I-0.509 J0.2821
G3 X5.0778 Y2.5087 I0.0168 J-0.0175
G2 X5.25 Y2.5104 I0.0917 J-0.5747
X5.3335 Y2.4483 I-0.0149 J-0.1072
G1 X5.3357 Y2.4435
G2 X5.3283 Y2.3398 I-0.0984 J-0.0451
X5.2146 Y2.2103 I-0.4893 J0.3151
G3 X5.2325 Y2.1677 I0.0156 J-0.0185
G2 X5.4045 Y2.1579 I0.0536 J-0.5795
X5.4836 Y2.0905 I-0.0221 J-0.106
X5.4838 Y2.09 I-0.0731 J-0.0279
G1 X5.4856 Y2.0853
G2 X5.4713 Y1.9825 I-0.1013 J-0.0382
X5.3493 Y1.8609 I-0.4674 J0.3467
G3 X5.3643 Y1.8171 I0.0144 J-0.0195
G2 X5.5353 Y1.796 I0.0151 J-0.5818
X5.6098 Y1.7235 I-0.029 J-0.1043
G1 X5.6099 Y1.7233
X5.6114 Y1.7183
G2 X5.5903 Y1.6166 I-0.1035 J-0.0316
X5.4606 Y1.5033 I-0.4435 J0.3769
G3 X5.4727 Y1.4586 I0.0131 J-0.0204
G2 X5.6419 Y1.4263 I-0.0234 J-0.5815
X5.7114 Y1.349 I-0.0358 J-0.1022
G1 X5.7126 Y1.3439
X5.7127 Y1.3438
G2 X5.685 Y1.2436 I-0.1054 J-0.0248
X5.548 Y1.1391 I-0.4176 J0.4054
G3 X5.5571 Y1.0937 I0.0117 J-0.0212
G2 X5.7238 Y1.0503 I-0.0617 J-0.5787
X5.7881 Y0.9685 I-0.0425 J-0.0995
G1 X5.789 Y0.9633
G2 X5.7547 Y0.8651 I-0.1068 J-0.0178
X5.6111 Y0.7699 I-0.3899 J0.4321
G3 X5.6172 Y0.7241 I0.0103 J-0.022
G2 X5.7807 Y0.6697 I-0.0999 J-0.5734
G1 X5.7808
G2 X5.8394 Y0.5841 I-0.049 J-0.0965
G1 X5.84 Y0.579
Y0.5787
G2 X5.7994 Y0.4829 I-0.1077 J-0.0108
X5.6497 Y0.3974 I-0.3605 J0.4569
G3 X5.6528 Y0.3512 I0.0088 J-0.0226
G2 X5.8123 Y0.2862 I-0.1375 J-0.5655
X5.8653 Y0.1967 I-0.0552 J-0.0931
G1 Y0.1964
X5.8655 Y0.1912
G2 X5.8186 Y0.0986 I-0.1082 J-0.0034
X5.6637 Y0.0231 I-0.3295 J0.4797
G3 Y-0.0231 I0.0073 J-0.0231
G2 X5.8186 Y-0.0986 I-0.1746 J-0.5552
X5.8655 Y-0.1912 I-0.0613 J-0.0892
G1 X5.8653 Y-0.1964
Y-0.1967
G2 X5.8123 Y-0.2862 I-0.1082 J0.0036
X5.6528 Y-0.3512 I-0.297 J0.5005
G3 X5.6497 Y-0.3974 I0.0057 J-0.0236
G2 X5.7993 Y-0.4829 I-0.2109 J-0.5425
X5.84 Y-0.5787 I-0.0671 J-0.085
G1 Y-0.579
X5.8394 Y-0.5841
G2 X5.7808 Y-0.6697 I-0.1077 J0.011
G1 X5.7807
G2 X5.6172 Y-0.7241 I-0.2634 J0.519
G3 X5.6111 Y-0.7699 I0.0041 J-0.0239
G2 X5.7547 Y-0.8651 I-0.2463 J-0.5273
X5.789 Y-0.9633 I-0.0725 J-0.0804
G1 X5.7881 Y-0.9685
G2 X5.7239 Y-1.0503 I-0.1068 J0.0177
X5.5571 Y-1.0937 I-0.2285 J0.5353
G3 X5.548 Y-1.1391 I0.0026 J-0.0241
G2 X5.685 Y-1.2436 I-0.2806 J-0.5099
X5.7127 Y-1.3438 I-0.0777 J-0.0754
G1 X5.7126 Y-1.3439
X5.7114 Y-1.349
G2 X5.6419 Y-1.4263 I-0.1053 J0.0249
X5.4727 Y-1.4586 I-0.1926 J0.5492
G3 X5.4606 Y-1.5033 I0.001 J-0.0242
G2 X5.5903 Y-1.6166 I-0.3137 J-0.4902
X5.6114 Y-1.7183 I-0.0825 J-0.0701
G1 X5.6099 Y-1.7233
X5.6098 Y-1.7235
G2 X5.5353 Y-1.796 I-0.1035 J0.0318
X5.3643 Y-1.8171 I-0.1559 J0.5607
G3 X5.3493 Y-1.8609 I-0.0006 J-0.0242
G2 X5.4713 Y-1.9825 I-0.3454 J-0.4684
X5.4856 Y-2.0853 I-0.0869 J-0.0645
G1 X5.4838 Y-2.09
G2 X5.4836 Y-2.0905 I-0.0733 J0.0274
X5.4045 Y-2.1579 I-0.1012 J0.0386
X5.2325 Y-2.1677 I-0.1185 J0.5698
G3 X5.2146 Y-2.2103 I-0.0022 J-0.0241
G2 X5.3283 Y-2.3398 I-0.3756 J-0.4446
X5.3357 Y-2.4435 I-0.091 J-0.0586
G1 X5.3335 Y-2.4483
G2 X5.25 Y-2.5104 I-0.0984 J0.0451
X5.0778 Y-2.5087 I-0.0805 J0.5764
G3 X5.0571 Y-2.5501 I-0.0038 J-0.0239
G2 X5.162 Y-2.6868 I-0.4042 J-0.4187
X5.1625 Y-2.7908 I-0.0947 J-0.0525
G1 X5.16 Y-2.7955
G2 X5.0726 Y-2.8519 I-0.0952 J0.0515
X4.9009 Y-2.8388 I-0.0423 J0.5805
G3 X4.8775 Y-2.8788 I-0.0054 J-0.0236
G2 X4.9731 Y-3.0221 I-0.431 J-0.3911
X4.9668 Y-3.1258 I-0.0979 J-0.0461
G1 X4.9667 Y-3.1261
X4.9639 Y-3.1305
G2 X4.8731 Y-3.1809 I-0.0915 J0.0578
X4.7025 Y-3.1565 I-0.0038 J0.582
G3 X4.6766 Y-3.1949 I-0.007 J-0.0232
G2 X4.7625 Y-3.3442 I-0.4558 J-0.3618
X4.7493 Y-3.4473 I-0.1008 J-0.0395
G1 X4.7462 Y-3.4516
G2 X4.6522 Y-3.496 I-0.0876 J0.0636
X4.4836 Y-3.4604 I0.0347 J0.581
G3 X4.4552 Y-3.4969 I-0.0085 J-0.0227
G2 X4.5311 Y-3.6516 I-0.4788 J-0.3309
X4.5111 Y-3.7537 I-0.1032 J-0.0328
G1 X4.5077 Y-3.7577
G2 X4.411 Y-3.7959 I-0.0832 J0.0693
X4.2451 Y-3.7492 I0.073 J0.5774
G3 X4.2143 Y-3.7837 I-0.01 J-0.0221
G2 X4.2799 Y-3.9431 I-0.4995 J-0.2986
X4.2532 Y-4.0436 I-0.1051 J-0.0259
G1 X4.253 Y-4.0438
X4.2494 Y-4.0476
G2 X4.1505 Y-4.0791 I-0.0783 J0.0747
X3.988 Y-4.0216 I0.111 J0.5713
G3 X3.9551 Y-4.054 I-0.0114 J-0.0214
G2 X4.0099 Y-4.2173 I-0.5182 J-0.2649
X3.9766 Y-4.3159 I-0.1066 J-0.0189
G1 X3.9727 Y-4.3195
G2 X3.8718 Y-4.3445 I-0.0733 J0.0797
X3.7135 Y-4.2763 I0.1485 J0.5627
G3 X3.6785 Y-4.3065 I-0.0128 J-0.0206
G2 X3.7224 Y-4.4731 I-0.5346 J-0.23
X3.6827 Y-4.5692 I-0.1076 J-0.0118
G1 X3.6826 Y-4.5693
X3.6785 Y-4.5726
G2 X3.5762 Y-4.5909 I-0.0678 J0.0844
X3.4228 Y-4.5124 I0.1854 J0.5517
G3 X3.3858 Y-4.5402 I-0.0141 J-0.0197
G2 X3.4186 Y-4.7094 I-0.5486 J-0.1942
G1 Y-4.7095
G2 X3.3727 Y-4.8026 I-0.1082 J-0.0046
G1 X3.3726 Y-4.8027
X3.3683 Y-4.8057
G2 X3.265 Y-4.8172 I-0.0621 J0.0886
X3.1171 Y-4.7288 I0.2213 J0.5383
G3 X3.0784 Y-4.7541 I-0.0154 J-0.0187
G2 X3.0999 Y-4.925 I-0.5603 J-0.1575
X3.048 Y-5.015 I-0.1082 J0.0025
G1 X3.0435 Y-5.0177
X3.0434 Y-5.0178
G2 X2.9395 Y-5.0225 I-0.0562 J0.0925
X2.7977 Y-4.9244 I0.2565 J0.5224
G3 X2.7574 Y-4.9471 I-0.0166 J-0.0177
G2 X2.7676 Y-5.1191 I-0.5695 J-0.1201
X2.7098 Y-5.2055 I-0.1078 J0.0097
G1 X2.7051 Y-5.208
G2 X2.6011 Y-5.2057 I-0.0499 J0.096
X2.4662 Y-5.0986 I0.2905 J0.5043
G3 X2.4244 Y-5.1185 I-0.0177 J-0.0166
G2 X2.4233 Y-5.2908 I-0.5762 J-0.0822
X2.3598 Y-5.3732 I-0.107 J0.0168
G1 X2.355 Y-5.3754
G2 X2.2514 Y-5.3663 I-0.0435 J0.0991
X2.1238 Y-5.2504 I0.3232 J0.484
G3 X2.0809 Y-5.2676 I-0.0188 J-0.0153
G2 X2.0683 Y-5.4394 I-0.5803 J-0.044
X1.9996 Y-5.5174 I-0.1056 J0.0238
G1 X1.9947 Y-5.5192
X1.9945 Y-5.5193
G2 X1.8918 Y-5.5033 I-0.0368 J0.1018
X1.7722 Y-5.3793 I0.3545 J0.4616
G3 X1.7282 Y-5.3936 I-0.0198 J-0.0141
G2 X1.7043 Y-5.5642 I-0.582 J-0.0055
X1.6305 Y-5.6375 I-0.1038 J0.0307
G1 X1.6304 Y-5.6376
X1.6253 Y-5.639
G2 X1.5239 Y-5.6163 I-0.0299 J0.104
X1.4128 Y-5.4847 I0.3842 J0.4372
G3 X1.3679 Y-5.496 I-0.0206 J-0.0127
G2 X1.3328 Y-5.6647 I-0.5811 J0.0329
X1.2545 Y-5.7329 I-0.1015 J0.0375
G1 X1.2494 Y-5.734
X1.2492 Y-5.7341
G2 X1.1494 Y-5.7047 I-0.0231 J0.1057
X1.0472 Y-5.566 I0.4122 J0.4108
G3 X1.0017 Y-5.5744 I-0.0214 J-0.0114
G2 X0.9555 Y-5.7404 I-0.5776 J0.0713
X0.8727 Y-5.8033 I-0.0989 J0.0441
G1 X0.8675 Y-5.8041
X0.8674
G2 X0.7699 Y-5.7682 I-0.016 J0.1071
X0.677 Y-5.6231 I0.4385 J0.3827
G3 X0.6311 Y-5.6284 I-0.0221 J-0.0099
G2 X0.574 Y-5.791 I-0.5716 J0.1093
X0.4876 Y-5.8483 I-0.0957 J0.0506
G1 X0.4825 Y-5.8487
G2 X0.4819 Y-5.8488 I-0.007 J0.0779
X0.387 Y-5.8065 I-0.0089 J0.1079
X0.3039 Y-5.6555 I0.4628 J0.3529
G3 X0.2577 Y-5.6578 I-0.0227 J-0.0084
G2 X0.19 Y-5.8163 I-0.5632 J0.1468
X0.0997 Y-5.8677 I-0.0922 J0.0568
G1 X0.0995
X0.0943 Y-5.8678
G2 X0.0024 Y-5.8194 I-0.0017 J0.1082
X-0.0705 Y-5.6633 I0.4851 J0.3215
G3 X-0.1168 Y-5.6625 I-0.0233 J-0.0069
G2 X-0.1948 Y-5.8161 I-0.5522 J0.1838
X-0.2883 Y-5.8615 I-0.0882 J0.0627
G1 X-0.2885
X-0.2938 Y-5.8612
G2 X-0.3822 Y-5.8068 I0.0055 J0.1081
X-0.4446 Y-5.6462 I0.5053 J0.2887
G3 X-0.4908 Y-5.6424 I-0.0237 J-0.0054
G2 X-0.5787 Y-5.7905 I-0.5389 J0.2198
X-0.6749 Y-5.8296 I-0.0839 J0.0685
G1 X-0.6801 Y-5.8291
X-0.6804 Y-5.829
G2 X-0.7652 Y-5.7688 I0.0125 J0.1075
X-0.8168 Y-5.6045 I0.5233 J0.2547
G3 X-0.8626 Y-5.5976 I-0.024 J-0.0038
G2 X-0.9602 Y-5.7396 I-0.5232 J0.255
X-1.0589 Y-5.7723 I-0.0792 J0.0738
X-1.0593 Y-5.7722 I0.0141 J0.077
G1 X-1.0644 Y-5.7712
G2 X-1.1448 Y-5.7057 I0.0198 J0.1064
X-1.1855 Y-5.5382 I0.539 J0.2196
G3 X-1.2307 Y-5.5284 I-0.0242 J-0.0022
G2 X-1.3374 Y-5.6636 I-0.5052 J0.289
X-1.4381 Y-5.6896 I-0.0741 J0.0789
G1 X-1.4432 Y-5.6883
G2 X-1.5194 Y-5.6176 I0.0266 J0.1049
X-1.5489 Y-5.4478 I0.5523 J0.1835
G3 X-1.5933 Y-5.4349 I-0.0242 J-0.0006
G2 X-1.7088 Y-5.5629 I-0.485 J0.3217
X-1.811 Y-5.5822 I-0.0687 J0.0836
G1 X-1.8112 Y-5.5821
X-1.8162 Y-5.5805
G2 X-1.8873 Y-5.5048 I0.0336 J0.1029
X-1.9055 Y-5.3335 I0.5632 J0.1465
G3 X-1.949 Y-5.3178 I-0.0242 J0.001
G2 X-2.0727 Y-5.4377 I-0.4626 J0.3532
X-2.1757 Y-5.4504 I-0.063 J0.088
G1 X-2.1804 Y-5.4485
G2 X-2.1809 Y-5.4483 I0.0286 J0.0728
X-2.247 Y-5.3681 I0.0402 J0.1005
X-2.2539 Y-5.1959 I0.5717 J0.109
G3 X-2.2962 Y-5.1773 I-0.0241 J0.0027
G2 X-2.4276 Y-5.2889 I-0.4383 J0.3829
X-2.5314 Y-5.2946 I-0.0571 J0.092
G1 X-2.5362 Y-5.2923
G2 X-2.5969 Y-5.2078 I0.0467 J0.0977
X-2.5924 Y-5.0356 I0.5776 J0.071
G3 X-2.6334 Y-5.0142 I-0.0239 J0.0042
G2 X-2.7718 Y-5.1168 I-0.412 J0.411
X-2.8757 Y-5.1157 I-0.0509 J0.0955
G1 X-2.8758
X-2.8804 Y-5.1131
G2 X-2.9354 Y-5.0249 I0.0531 J0.0943
X-2.9195 Y-4.8533 I0.5811 J0.0327
G3 X-2.959 Y-4.8292 I-0.0236 J0.0058
G2 X-3.1039 Y-4.9225 I-0.3839 J0.4374
X-3.2075 Y-4.9145 I-0.0445 J0.0987
G1 X-3.2118 Y-4.9117
X-3.212 Y-4.9115
G2 X-3.2611 Y-4.8198 I0.0592 J0.0906
X-3.2339 Y-4.6497 I0.582 J-0.0058
G3 X-3.2717 Y-4.6231 I-0.0231 J0.0073
G2 X-3.4225 Y-4.7066 I-0.3542 J0.4618
X-3.5252 Y-4.6918 I-0.0378 J0.1014
G1 X-3.5293 Y-4.6887
X-3.5296 Y-4.6885
G2 X-3.5725 Y-4.5938 I0.0651 J0.0865
X-3.5341 Y-4.4258 I0.5803 J-0.0442
G3 X-3.5701 Y-4.3968 I-0.0226 J0.0088
G2 X-3.726 Y-4.4701 I-0.3229 J0.4842
X-3.8276 Y-4.4485 I-0.031 J0.1037
G1 X-3.8315 Y-4.4452
X-3.8317 Y-4.445
G2 X-3.8683 Y-4.3476 I0.0706 J0.082
X-3.8189 Y-4.1825 I0.5761 J-0.0825
G3 X-3.8529 Y-4.1512 I-0.022 J0.0103
G2 X-4.0133 Y-4.2141 I-0.2902 J0.5045
X-4.1133 Y-4.1858 I-0.0241 J0.1055
G1 X-4.1135 Y-4.1856
X-4.1173 Y-4.1819
G2 X-4.1471 Y-4.0824 I0.076 J0.0771
X-4.0869 Y-3.921 I0.5694 J-0.1205
G3 X-4.1188 Y-3.8875 I-0.0212 J0.0117
G2 X-4.2831 Y-3.9396 I-0.2563 J0.5225
X-4.381 Y-3.9047 I-0.0171 J0.1069
G1 X-4.3812 Y-3.9046
X-4.3846 Y-3.9007
G2 X-4.4079 Y-3.7994 I0.0809 J0.0719
X-4.3372 Y-3.6423 I0.5602 J-0.1578
G3 X-4.3668 Y-3.6068 I-0.0204 J0.0131
G2 X-4.5341 Y-3.6479 I-0.2212 J0.5383
X-4.6294 Y-3.6067 I-0.01 J0.1078
G1 X-4.6327 Y-3.6026
X-4.6328 Y-3.6024
G2 X-4.6493 Y-3.4998 I0.0855 J0.0664
X-4.5684 Y-3.3477 I0.5485 J-0.1944
G3 X-4.5956 Y-3.3103 I-0.0195 J0.0144
G2 X-4.7653 Y-3.3403 I-0.1851 J0.5518
X-4.8576 Y-3.293 I-0.0029 J0.1082
G1 X-4.8606 Y-3.2887
X-4.8608 Y-3.2883
G2 X-4.8705 Y-3.1848 I0.0897 J0.0606
X-4.7797 Y-3.0385 I0.5345 J-0.2303
G3 X-4.8043 Y-2.9993 I-0.0185 J0.0157
G2 X-4.9756 Y-3.0181 I-0.1482 J0.5628
X-5.0647 Y-2.9646 I0.0043 J0.1082
G1 X-5.0674 Y-2.96
X-5.0675 Y-2.9599
G2 X-5.0703 Y-2.856 I0.0935 J0.0546
X-4.97 Y-2.716 I0.5181 J-0.2651
G3 X-4.9921 Y-2.6753 I-0.0174 J0.0169
G2 X-5.1641 Y-2.6826 I-0.1107 J0.5714
X-5.2496 Y-2.6233 I0.0114 J0.1077
G1 X-5.252 Y-2.6186
G2 X-5.248 Y-2.5147 I0.0969 J0.0483
X-5.1387 Y-2.3815 I0.4995 J-0.2988
G3 X-5.1579 Y-2.3395 I-0.0162 J0.018
G2 X-5.3302 Y-2.3355 I-0.0727 J0.5774
G1 Y-2.3354
G2 X-5.4115 Y-2.2707 I0.0186 J0.1066
G1 X-5.4135 Y-2.2658
G2 X-5.4028 Y-2.1624 I0.0998 J0.0419
X-5.2848 Y-2.0367 I0.4787 J-0.3311
G3 X-5.3013 Y-1.9935 I-0.015 J0.019
G2 X-5.4729 Y-1.9781 I-0.0344 J0.581
X-5.5498 Y-1.908 I0.0255 J0.1052
G1 X-5.5499 Y-1.9077
X-5.5515 Y-1.9028
G2 X-5.5338 Y-1.8005 I0.1024 J0.035
X-5.4079 Y-1.683 I0.4557 J-0.362
G3 X-5.4214 Y-1.6388 I-0.0137 J0.02
G2 X-5.5917 Y-1.612 I0.0041 J0.582
X-5.6637 Y-1.5371 I0.0325 J0.1033
G1 Y-1.537
X-5.6651 Y-1.5319
G2 X-5.6408 Y-1.4309 I0.1045 J0.0283
G1 X-5.6407
G2 X-5.5073 Y-1.3219 I0.4307 J-0.3914
G3 X-5.5179 Y-1.2769 I-0.0124 J0.0208
G2 X-5.686 Y-1.239 I0.0426 J0.5804
X-5.7529 Y-1.1596 I0.0392 J0.1009
G1 X-5.7539 Y-1.1545
X-5.754 Y-1.1542
G2 X-5.723 Y-1.0549 I0.1061 J0.0214
X-5.5826 Y-0.955 I0.404 J-0.419
G3 X-5.5902 Y-0.9094 I-0.011 J0.0216
G2 X-5.7554 Y-0.8605 I0.0808 J0.5764
X-5.817 Y-0.7767 I0.0457 J0.0981
Y-0.7762 I0.0776 J0.0104
G1 X-5.8177 Y-0.7711
G2 X-5.7803 Y-0.6745 I0.1073 J0.014
G1 X-5.7802 Y-0.6744
G2 X-5.6335 Y-0.584 I0.3754 J-0.4448
G3 X-5.6381 Y-0.5379 I-0.0095 J0.0223
G2 X-5.7997 Y-0.4782 I0.1187 J0.5698
X-5.8556 Y-0.3905 I0.0521 J0.0949
G1 X-5.8559 Y-0.3853
G2 X-5.8122 Y-0.2909 I0.108 J0.0072
G1 X-5.8121
G2 X-5.6598 Y-0.2104 I0.3452 J-0.4686
G3 X-5.6613 Y-0.1641 I-0.008 J0.0229
G2 X-5.8186 Y-0.0939 I0.1561 J0.5607
G1 X-5.8187 Y-0.0938
G2 X-5.8686 Y-0.0026 I0.0584 J0.0912
G1 Y0.
Y0.0026
G2 X-5.8187 Y0.0938 I0.1083 J0.
G1 X-5.8186 Y0.0939
G2 X-5.6613 Y0.1641 I0.3134 J-0.4904
G3 X-5.6598 Y0.2104 I-0.0065 J0.0234
G2 X-5.8121 Y0.2909 I0.1928 J0.5491
G1 X-5.8122
G2 X-5.8559 Y0.3853 I0.0642 J0.0871
G1 X-5.8556 Y0.3905
G2 X-5.7997 Y0.4782 I0.108 J-0.0072
X-5.6381 Y0.5379 I0.2804 J-0.51
G3 X-5.6335 Y0.584 I-0.0049 J0.0237
G2 X-5.7802 Y0.6744 I0.2287 J0.5352
G1 X-5.7803 Y0.6745
G2 X-5.8177 Y0.7711 I0.0699 J0.0826
G1 X-5.817 Y0.7762
G2 Y0.7767 I0.0776 J-0.0099
X-5.7554 Y0.8605 I0.1073 J-0.0144
X-5.6855 Y0.8877 I0.246 J-0.5274
X-5.5902 Y0.9094 Z-0.1499 I0.1761 J-0.5547
G3 X-5.5826 Y0.955 Z-0.153 I-0.0034 J0.024
G2 X-5.723 Y1.0549 Z-0.1617 I0.2636 J0.5189
X-5.754 Y1.1542 Z-0.1671 I0.0751 J0.0779
G1 X-5.7539 Y1.1545
X-5.7529 Y1.1596 Z-0.1674
G2 X-5.686 Y1.239 Z-0.1728 I0.1061 J-0.0215
X-5.5179 Y1.2769 Z-0.1815 I0.2107 J-0.5425
G3 X-5.5073 Y1.3219 Z-0.1846 I-0.0018 J0.0242
G2 X-5.6407 Y1.4309 Z-0.1932 I0.2973 J0.5004
G1 X-5.6408
G2 X-5.6651 Y1.5319 Z-0.1987 I0.0802 J0.0727
G1 X-5.6637 Y1.537 Z-0.1989
Y1.5371
G2 X-5.5917 Y1.612 Z-0.2044 I0.1045 J-0.0283
X-5.4215 Y1.6388 Z-0.2131 I0.1743 J-0.5553
G3 X-5.4079 Y1.683 Z-0.2161 I-0.0002 J0.0242
G2 X-5.4298 Y1.6988 Z-0.2175 I0.3297 J0.4796
X-5.5338 Y1.8005 I0.3517 J0.4637
X-5.5515 Y1.9028 I0.0847 J0.0673
G1 X-5.5499 Y1.9077
X-5.5498 Y1.908
G2 X-5.4729 Y1.9781 I0.1024 J-0.0352
X-5.3013 Y1.9935 I0.1373 J-0.5656
G3 X-5.2848 Y2.0367 I0.0014 J0.0242
G2 X-5.4027 Y2.1623 I0.3607 J0.4567
X-5.4135 Y2.2658 I0.089 J0.0616
G1 X-5.4115 Y2.2707
G2 X-5.3302 Y2.3354 I0.0998 J-0.0419
G1 Y2.3355
G2 X-5.1579 Y2.3395 I0.0996 J-0.5734
G3 X-5.1387 Y2.3815 I0.003 J0.0241
G2 X-5.248 Y2.5147 I0.3901 J0.4319
X-5.252 Y2.6186 I0.0929 J0.0556
G1 X-5.2496 Y2.6233
G2 X-5.1641 Y2.6826 I0.0969 J-0.0484
X-4.9921 Y2.6753 I0.0614 J-0.5787
G3 X-4.97 Y2.7159 I0.0046 J0.0238
G2 X-5.0703 Y2.856 I0.4178 J0.4051
X-5.0675 Y2.9599 I0.0963 J0.0493
G1 X-5.0674 Y2.96
X-5.0647 Y2.9646
G2 X-4.9756 Y3.0181 I0.0934 J-0.0547
X-4.8043 Y2.9993 I0.023 J-0.5815
G3 X-4.7797 Y3.0385 I0.0062 J0.0235
G2 X-4.8705 Y3.1848 I0.4437 J0.3767
X-4.8608 Y3.2883 I0.0994 J0.0429
G1 X-4.8606 Y3.2887
X-4.8576 Y3.293
G2 X-4.7653 Y3.3403 I0.0895 J-0.0609
X-4.5956 Y3.3103 I-0.0154 J-0.5818
G3 X-4.5684 Y3.3477 I0.0077 J0.023
G2 X-4.6493 Y3.4998 I0.4676 J0.3465
X-4.6328 Y3.6024 I0.102 J0.0362
G1 X-4.6327 Y3.6026
X-4.6294 Y3.6067
G2 X-4.5341 Y3.6479 I0.0853 J-0.0666
X-4.3668 Y3.6068 I-0.0539 J-0.5795
G3 X-4.3372 Y3.6423 I0.0092 J0.0224
G2 X-4.4079 Y3.7994 I0.4895 J0.3148
X-4.3846 Y3.9007 I0.1042 J0.0294
G1 X-4.3812 Y3.9046
X-4.381 Y3.9047
G2 X-4.2831 Y3.9396 I0.0808 J-0.072
X-4.1189 Y3.8875 I-0.092 J-0.5747
G3 X-4.0869 Y3.921 I0.0107 J0.0218
G2 X-4.1471 Y4.0824 I0.5092 J0.2819
X-4.1173 Y4.1819 I0.1059 J0.0224
G1 X-4.1135 Y4.1856
X-4.1133 Y4.1858
G2 X-4.0133 Y4.2141 I0.0758 J-0.0773
X-3.8529 Y4.1512 I-0.1298 J-0.5673
G3 X-3.8189 Y4.1825 I0.0121 J0.021
G2 X-3.8683 Y4.3476 I0.5267 J0.2476
X-3.8317 Y4.445 I0.1072 J0.0154
G1 X-3.8315 Y4.4452
X-3.8276 Y4.4485
G2 X-3.7261 Y4.4701 I0.0705 J-0.0821
X-3.5701 Y4.3968 I-0.167 J-0.5575
G3 X-3.5341 Y4.4258 I0.0135 J0.0202
G2 X-3.5725 Y4.5938 I0.5419 J0.2122
X-3.5296 Y4.6885 I0.1079 J0.0082
G1 X-3.5293 Y4.6887
X-3.5252 Y4.6918
G2 X-3.4225 Y4.7066 I0.0649 J-0.0867
X-3.2717 Y4.6231 I-0.2035 J-0.5453
G3 X-3.2339 Y4.6497 I0.0148 J0.0192
G2 X-3.2611 Y4.8198 I0.5548 J0.1759
X-3.212 Y4.9115 I0.1082 J0.0011
G1 X-3.2118 Y4.9117
X-3.2075 Y4.9145
G2 X-3.1039 Y4.9225 I0.0591 J-0.0907
X-2.959 Y4.8292 I-0.2391 J-0.5306
G3 X-2.9195 Y4.8533 I0.016 J0.0182
G2 X-2.9354 Y5.0248 I0.5652 J0.1389
X-2.8804 Y5.1131 I0.1081 J-0.0061
G1 X-2.8758 Y5.1157
X-2.8757
G2 X-2.7718 Y5.1168 I0.053 J-0.0944
X-2.6334 Y5.0142 I-0.2736 J-0.5136
G3 X-2.5924 Y5.0356 I0.0172 J0.0171
G2 X-2.5969 Y5.2078 I0.5731 J0.1012
X-2.5362 Y5.2923 I0.1075 J-0.0132
G1 X-2.5314 Y5.2946
G2 X-2.4276 Y5.2889 I0.0467 J-0.0977
X-2.2963 Y5.1774 I-0.307 J-0.4945
G3 X-2.2539 Y5.1959 I0.0183 J0.0159
G2 X-2.247 Y5.3681 I0.5786 J0.0631
X-2.1809 Y5.4483 I0.1063 J-0.0203
X-2.1804 Y5.4485 I0.0291 J-0.0726
G1 X-2.1757 Y5.4504
G2 X-2.0727 Y5.4377 I0.0399 J-0.1006
X-1.9491 Y5.3178 I-0.3389 J-0.4731
G3 X-1.9055 Y5.3335 I0.0193 J0.0147
G2 X-1.8873 Y5.5048 I0.5815 J0.0247
X-1.8162 Y5.5805 I0.1048 J-0.0272
G1 X-1.8112 Y5.5821
X-1.811 Y5.5822
G2 X-1.7088 Y5.5629 I0.0334 J-0.103
X-1.5933 Y5.4349 I-0.3695 J-0.4496
G3 X-1.5489 Y5.4478 I0.0202 J0.0134
G2 X-1.5194 Y5.6175 I0.5818 J-0.0137
X-1.4432 Y5.6883 I0.1027 J-0.0341
G1 X-1.4381 Y5.6896
G2 X-1.3374 Y5.6636 I0.0266 J-0.1049
X-1.2307 Y5.5284 I-0.3984 J-0.4243
G3 X-1.1855 Y5.5382 I0.021 J0.012
G2 X-1.1448 Y5.7057 I0.5796 J-0.0522
X-1.0644 Y5.7712 I0.1002 J-0.0408
G1 X-1.0593 Y5.7722
G2 X-1.0589 Y5.7723 I0.0145 J-0.0769
X-0.9602 Y5.7396 I0.0195 J-0.1065
X-0.8626 Y5.5976 I-0.4256 J-0.397
G3 X-0.8168 Y5.6045 I0.0218 J0.0106
G2 X-0.7652 Y5.7688 I0.5749 J-0.0904
X-0.6804 Y5.829 I0.0974 J-0.0473
G1 X-0.6801 Y5.8291
X-0.6749 Y5.8296
G2 X-0.5787 Y5.7906 I0.0123 J-0.1076
X-0.4908 Y5.6424 I-0.4509 J-0.368
G3 X-0.4446 Y5.6462 I0.0225 J0.0092
G2 X-0.3822 Y5.8068 I0.5677 J-0.1281
X-0.2938 Y5.8612 I0.094 J-0.0537
G1 X-0.2885 Y5.8615
X-0.2883
G2 X-0.1948 Y5.8161 I0.0053 J-0.1081
X-0.1168 Y5.6625 I-0.4742 J-0.3374
G3 X-0.0705 Y5.6633 I0.023 J0.0077
G2 X0.0024 Y5.8194 I0.558 J-0.1654
X0.0943 Y5.8678 I0.0902 J-0.0598
G1 X0.0995 Y5.8677
X0.0997
G2 X0.19 Y5.8163 I-0.0018 J-0.1082
X0.2577 Y5.6578 I-0.4955 J-0.3053
G3 X0.3039 Y5.6555 I0.0235 J0.0061
G2 X0.387 Y5.8065 I0.5459 J-0.2019
X0.4819 Y5.8488 I0.0861 J-0.0656
X0.4825 Y5.8487 I-0.0064 J-0.078
G1 X0.4876 Y5.8483
G2 X0.574 Y5.791 I-0.0093 J-0.1078
X0.6311 Y5.6284 I-0.5146 J-0.2719
G3 X0.677 Y5.6231 I0.0238 J0.0046
G2 X0.7699 Y5.7682 I0.5313 J-0.2375
X0.8674 Y5.8041 I0.0816 J-0.0712
G1 X0.8675
X0.8727 Y5.8033
G2 X0.9555 Y5.7404 I-0.0161 J-0.1071
X1.0017 Y5.5744 I-0.5314 J-0.2373
G3 X1.0472 Y5.566 I0.0241 J0.003
G2 X1.1494 Y5.7047 I0.5144 J-0.2722
X1.2492 Y5.7341 I0.0767 J-0.0764
G1 X1.2494 Y5.734
X1.2545 Y5.7329
G2 X1.3328 Y5.6647 I-0.0232 J-0.1057
X1.3679 Y5.496 I-0.5459 J-0.2017
G3 X1.4128 Y5.4847 I0.0242 J0.0014
G2 X1.5239 Y5.6163 I0.4953 J-0.3055
X1.6253 Y5.639 I0.0715 J-0.0813
G1 X1.6304 Y5.6376
X1.6305 Y5.6375
G2 X1.7043 Y5.5643 I-0.0301 J-0.104
X1.7282 Y5.3936 I-0.5581 J-0.1651
G3 X1.7722 Y5.3793 I0.0243 J-0.0002
G2 X1.8918 Y5.5033 I0.4741 J-0.3375
X1.9945 Y5.5193 I0.0659 J-0.0859
G1 X1.9947 Y5.5192
X1.9996 Y5.5174
G2 X2.0683 Y5.4395 I-0.0369 J-0.1018
X2.0809 Y5.2676 I-0.5678 J-0.1279
G3 X2.1238 Y5.2504 I0.0242 J-0.0018
G2 X2.2514 Y5.3663 I0.4508 J-0.3682
X2.355 Y5.3754 I0.0601 J-0.09
G1 X2.3598 Y5.3732
G2 X2.4233 Y5.2908 I-0.0435 J-0.0991
X2.4244 Y5.1186 I-0.575 J-0.0901
G3 X2.4662 Y5.0986 I0.024 J-0.0034
G2 X2.6011 Y5.2057 I0.4254 J-0.3972
X2.7051 Y5.208 I0.054 J-0.0938
G1 X2.7097 Y5.2055
G2 X2.7676 Y5.1192 I-0.0499 J-0.096
X2.7574 Y4.9471 I-0.5797 J-0.0519
G3 X2.7977 Y4.9244 I0.0237 J-0.005
G2 X2.9395 Y5.0224 I0.3983 J-0.4244
X3.0434 Y5.0178 I0.0477 J-0.0972
G1 X3.0435 Y5.0177
X3.048 Y5.015
G2 X3.0999 Y4.925 I-0.0562 J-0.0925
X3.0784 Y4.7541 I-0.5818 J-0.0134
G3 X3.1171 Y4.7288 I0.0233 J-0.0066
G2 X3.265 Y4.8172 I0.3692 J-0.4499
X3.3683 Y4.8057 I0.0412 J-0.1001
G1 X3.3726 Y4.8027
X3.3727 Y4.8026
G2 X3.4186 Y4.7095 I-0.0622 J-0.0886
G1 Y4.7094
G2 X3.3858 Y4.5402 I-0.5815 J0.025
G3 X3.4228 Y4.5124 I0.0229 J-0.0081
G2 X3.5762 Y4.5909 I0.3388 J-0.4732
X3.6785 Y4.5726 I0.0344 J-0.1027
G1 X3.6826 Y4.5693
X3.6827 Y4.5692
G2 X3.7224 Y4.4731 I-0.0679 J-0.0843
X3.6785 Y4.3065 I-0.5785 J0.0634
G3 X3.7135 Y4.2763 I0.0223 J-0.0096
G2 X3.8718 Y4.3445 I0.3068 J-0.4946
X3.9727 Y4.3195 I0.0276 J-0.1047
G1 X3.9766 Y4.3159
G2 X4.0099 Y4.2173 I-0.0733 J-0.0797
X3.9551 Y4.054 I-0.5731 J0.1015
G3 X3.988 Y4.0216 I0.0216 J-0.011
G2 X4.1505 Y4.0791 I0.2734 J-0.5138
X4.2494 Y4.0476 I0.0206 J-0.1063
G1 X4.253 Y4.0438
X4.2532 Y4.0436
G2 X4.2799 Y3.9431 I-0.0784 J-0.0746
X4.2143 Y3.7837 I-0.5651 J0.1393
G3 X4.2451 Y3.7492 I0.0208 J-0.0124
G2 X4.411 Y3.7959 I0.2388 J-0.5307
X4.5077 Y3.7577 I0.0136 J-0.1074
G1 X4.5111 Y3.7537
G2 X4.5311 Y3.6516 I-0.0832 J-0.0693
X4.4552 Y3.4969 I-0.5547 J0.1762
G3 X4.4836 Y3.4604 I0.02 J-0.0138
G2 X4.6522 Y3.496 I0.2032 J-0.5454
X4.7462 Y3.4516 I0.0065 J-0.108
G1 X4.7493 Y3.4473
G2 X4.7625 Y3.3442 I-0.0876 J-0.0636
X4.6766 Y3.1949 I-0.5418 J0.2125
G3 X4.7025 Y3.1565 I0.019 J-0.0151
G2 X4.8731 Y3.1809 I0.1667 J-0.5576
X4.9639 Y3.1305 I-0.0007 J-0.1083
G1 X4.9667 Y3.1261
X4.9668 Y3.1258
G2 X4.9731 Y3.0221 I-0.0916 J-0.0576
X4.8775 Y2.8788 I-0.5266 J0.2478
G3 X4.9009 Y2.8388 I0.018 J-0.0163
G2 X5.0726 Y2.8519 I0.1295 J-0.5674
X5.16 Y2.7955 I-0.0078 J-0.108
G1 X5.1625 Y2.7908
G2 X5.162 Y2.6868 I-0.0952 J-0.0515
X5.0571 Y2.5501 I-0.509 J0.2821
G3 X5.0778 Y2.5087 I0.0168 J-0.0175
G2 X5.25 Y2.5104 I0.0917 J-0.5747
X5.3335 Y2.4483 I-0.0149 J-0.1072
G1 X5.3357 Y2.4435
G2 X5.3283 Y2.3398 I-0.0984 J-0.0451
X5.2146 Y2.2103 I-0.4893 J0.3151
G3 X5.2325 Y2.1677 I0.0156 J-0.0185
G2 X5.4045 Y2.1579 I0.0536 J-0.5795
X5.4836 Y2.0905 I-0.0221 J-0.106
X5.4838 Y2.09 I-0.0731 J-0.0279
G1 X5.4856 Y2.0853
G2 X5.4713 Y1.9825 I-0.1013 J-0.0382
X5.3493 Y1.8609 I-0.4674 J0.3467
G3 X5.3643 Y1.8171 I0.0144 J-0.0195
G2 X5.5353 Y1.796 I0.0151 J-0.5818
X5.6098 Y1.7235 I-0.029 J-0.1043
G1 X5.6099 Y1.7233
X5.6114 Y1.7183
G2 X5.5903 Y1.6166 I-0.1035 J-0.0316
X5.4606 Y1.5033 I-0.4435 J0.3769
G3 X5.4727 Y1.4586 I0.0131 J-0.0204
G2 X5.6419 Y1.4263 I-0.0234 J-0.5815
X5.7114 Y1.349 I-0.0358 J-0.1022
G1 X5.7126 Y1.3439
X5.7127 Y1.3438
G2 X5.685 Y1.2436 I-0.1054 J-0.0248
X5.548 Y1.1391 I-0.4176 J0.4054
G3 X5.5571 Y1.0937 I0.0117 J-0.0212
G2 X5.7238 Y1.0503 I-0.0617 J-0.5787
X5.7881 Y0.9685 I-0.0425 J-0.0995
G1 X5.789 Y0.9633
G2 X5.7547 Y0.8651 I-0.1068 J-0.0178
X5.6111 Y0.7699 I-0.3899 J0.4321
G3 X5.6172 Y0.7241 I0.0103 J-0.022
G2 X5.7807 Y0.6697 I-0.0999 J-0.5734
G1 X5.7808
G2 X5.8394 Y0.5841 I-0.049 J-0.0965
G1 X5.84 Y0.579
Y0.5787
G2 X5.7994 Y0.4829 I-0.1077 J-0.0108
X5.6497 Y0.3974 I-0.3605 J0.4569
G3 X5.6528 Y0.3512 I0.0088 J-0.0226
G2 X5.8123 Y0.2862 I-0.1375 J-0.5655
X5.8653 Y0.1967 I-0.0552 J-0.0931
G1 Y0.1964
X5.8655 Y0.1912
G2 X5.8186 Y0.0986 I-0.1082 J-0.0034
X5.6637 Y0.0231 I-0.3295 J0.4797
G3 Y-0.0231 I0.0073 J-0.0231
G2 X5.8186 Y-0.0986 I-0.1746 J-0.5552
X5.8655 Y-0.1912 I-0.0613 J-0.0892
G1 X5.8653 Y-0.1964
Y-0.1967
G2 X5.8123 Y-0.2862 I-0.1082 J0.0036
X5.6528 Y-0.3512 I-0.297 J0.5005
G3 X5.6497 Y-0.3974 I0.0057 J-0.0236
G2 X5.7993 Y-0.4829 I-0.2109 J-0.5425
X5.84 Y-0.5787 I-0.0671 J-0.085
G1 Y-0.579
X5.8394 Y-0.5841
G2 X5.7808 Y-0.6697 I-0.1077 J0.011
G1 X5.7807
G2 X5.6172 Y-0.7241 I-0.2634 J0.519
G3 X5.6111 Y-0.7699 I0.0041 J-0.0239
G2 X5.7547 Y-0.8651 I-0.2463 J-0.5273
X5.789 Y-0.9633 I-0.0725 J-0.0804
G1 X5.7881 Y-0.9685
G2 X5.7239 Y-1.0503 I-0.1068 J0.0177
X5.5571 Y-1.0937 I-0.2285 J0.5353
G3 X5.548 Y-1.1391 I0.0026 J-0.0241
G2 X5.685 Y-1.2436 I-0.2806 J-0.5099
X5.7127 Y-1.3438 I-0.0777 J-0.0754
G1 X5.7126 Y-1.3439
X5.7114 Y-1.349
G2 X5.6419 Y-1.4263 I-0.1053 J0.0249
X5.4727 Y-1.4586 I-0.1926 J0.5492
G3 X5.4606 Y-1.5033 I0.001 J-0.0242
G2 X5.5903 Y-1.6166 I-0.3137 J-0.4902
X5.6114 Y-1.7183 I-0.0825 J-0.0701
G1 X5.6099 Y-1.7233
X5.6098 Y-1.7235
G2 X5.5353 Y-1.796 I-0.1035 J0.0318
X5.3643 Y-1.8171 I-0.1559 J0.5607
G3 X5.3493 Y-1.8609 I-0.0006 J-0.0242
G2 X5.4713 Y-1.9825 I-0.3454 J-0.4684
X5.4856 Y-2.0853 I-0.0869 J-0.0645
G1 X5.4838 Y-2.09
G2 X5.4836 Y-2.0905 I-0.0733 J0.0274
X5.4045 Y-2.1579 I-0.1012 J0.0386
X5.2325 Y-2.1677 I-0.1185 J0.5698
G3 X5.2146 Y-2.2103 I-0.0022 J-0.0241
G2 X5.3283 Y-2.3398 I-0.3756 J-0.4446
X5.3357 Y-2.4435 I-0.091 J-0.0586
G1 X5.3335 Y-2.4483
G2 X5.25 Y-2.5104 I-0.0984 J0.0451
X5.0778 Y-2.5087 I-0.0805 J0.5764
G3 X5.0571 Y-2.5501 I-0.0038 J-0.0239
G2 X5.162 Y-2.6868 I-0.4042 J-0.4187
X5.1625 Y-2.7908 I-0.0947 J-0.0525
G1 X5.16 Y-2.7955
G2 X5.0726 Y-2.8519 I-0.0952 J0.0515
X4.9009 Y-2.8388 I-0.0423 J0.5805
G3 X4.8775 Y-2.8788 I-0.0054 J-0.0236
G2 X4.9731 Y-3.0221 I-0.431 J-0.3911
X4.9668 Y-3.1258 I-0.0979 J-0.0461
G1 X4.9667 Y-3.1261
X4.9639 Y-3.1305
G2 X4.8731 Y-3.1809 I-0.0915 J0.0578
X4.7025 Y-3.1565 I-0.0038 J0.582
G3 X4.6766 Y-3.1949 I-0.007 J-0.0232
G2 X4.7625 Y-3.3442 I-0.4558 J-0.3618
X4.7493 Y-3.4473 I-0.1008 J-0.0395
G1 X4.7462 Y-3.4516
G2 X4.6522 Y-3.496 I-0.0876 J0.0636
X4.4836 Y-3.4604 I0.0347 J0.581
G3 X4.4552 Y-3.4969 I-0.0085 J-0.0227
G2 X4.5311 Y-3.6516 I-0.4788 J-0.3309
X4.5111 Y-3.7537 I-0.1032 J-0.0328
G1 X4.5077 Y-3.7577
G2 X4.411 Y-3.7959 I-0.0832 J0.0693
X4.2451 Y-3.7492 I0.073 J0.5774
G3 X4.2143 Y-3.7837 I-0.01 J-0.0221
G2 X4.2799 Y-3.9431 I-0.4995 J-0.2986
X4.2532 Y-4.0436 I-0.1051 J-0.0259
G1 X4.253 Y-4.0438
X4.2494 Y-4.0476
G2 X4.1505 Y-4.0791 I-0.0783 J0.0747
X3.988 Y-4.0216 I0.111 J0.5713
G3 X3.9551 Y-4.054 I-0.0114 J-0.0214
G2 X4.0099 Y-4.2173 I-0.5182 J-0.2649
X3.9766 Y-4.3159 I-0.1066 J-0.0189
G1 X3.9727 Y-4.3195
G2 X3.8718 Y-4.3445 I-0.0733 J0.0797
X3.7135 Y-4.2763 I0.1485 J0.5627
G3 X3.6785 Y-4.3065 I-0.0128 J-0.0206
G2 X3.7224 Y-4.4731 I-0.5346 J-0.23
X3.6827 Y-4.5692 I-0.1076 J-0.0118
G1 X3.6826 Y-4.5693
X3.6785 Y-4.5726
G2 X3.5762 Y-4.5909 I-0.0678 J0.0844
X3.4228 Y-4.5124 I0.1854 J0.5517
G3 X3.3858 Y-4.5402 I-0.0141 J-0.0197
G2 X3.4186 Y-4.7094 I-0.5486 J-0.1942
G1 Y-4.7095
G2 X3.3727 Y-4.8026 I-0.1082 J-0.0046
G1 X3.3726 Y-4.8027
X3.3683 Y-4.8057
G2 X3.265 Y-4.8172 I-0.0621 J0.0886
X3.1171 Y-4.7288 I0.2213 J0.5383
G3 X3.0784 Y-4.7541 I-0.0154 J-0.0187
G2 X3.0999 Y-4.925 I-0.5603 J-0.1575
X3.048 Y-5.015 I-0.1082 J0.0025
G1 X3.0435 Y-5.0177
X3.0434 Y-5.0178
G2 X2.9395 Y-5.0225 I-0.0562 J0.0925
X2.7977 Y-4.9244 I0.2565 J0.5224
G3 X2.7574 Y-4.9471 I-0.0166 J-0.0177
G2 X2.7676 Y-5.1191 I-0.5695 J-0.1201
X2.7098 Y-5.2055 I-0.1078 J0.0097
G1 X2.7051 Y-5.208
G2 X2.6011 Y-5.2057 I-0.0499 J0.096
X2.4662 Y-5.0986 I0.2905 J0.5043
G3 X2.4244 Y-5.1185 I-0.0177 J-0.0166
G2 X2.4233 Y-5.2908 I-0.5762 J-0.0822
X2.3598 Y-5.3732 I-0.107 J0.0168
G1 X2.355 Y-5.3754
G2 X2.2514 Y-5.3663 I-0.0435 J0.0991
X2.1238 Y-5.2504 I0.3232 J0.484
G3 X2.0809 Y-5.2676 I-0.0188 J-0.0153
G2 X2.0683 Y-5.4394 I-0.5803 J-0.044
X1.9996 Y-5.5174 I-0.1056 J0.0238
G1 X1.9947 Y-5.5192
X1.9945 Y-5.5193
G2 X1.8918 Y-5.5033 I-0.0368 J0.1018
X1.7722 Y-5.3793 I0.3545 J0.4616
G3 X1.7282 Y-5.3936 I-0.0198 J-0.0141
G2 X1.7043 Y-5.5642 I-0.582 J-0.0055
X1.6305 Y-5.6375 I-0.1038 J0.0307
G1 X1.6304 Y-5.6376
X1.6253 Y-5.639
G2 X1.5239 Y-5.6163 I-0.0299 J0.104
X1.4128 Y-5.4847 I0.3842 J0.4372
G3 X1.3679 Y-5.496 I-0.0206 J-0.0127
G2 X1.3328 Y-5.6647 I-0.5811 J0.0329
X1.2545 Y-5.7329 I-0.1015 J0.0375
G1 X1.2494 Y-5.734
X1.2492 Y-5.7341
G2 X1.1494 Y-5.7047 I-0.0231 J0.1057
X1.0472 Y-5.566 I0.4122 J0.4108
G3 X1.0017 Y-5.5744 I-0.0214 J-0.0114
G2 X0.9555 Y-5.7404 I-0.5776 J0.0713
X0.8727 Y-5.8033 I-0.0989 J0.0441
G1 X0.8675 Y-5.8041
X0.8674
G2 X0.7699 Y-5.7682 I-0.016 J0.1071
X0.677 Y-5.6231 I0.4385 J0.3827
G3 X0.6311 Y-5.6284 I-0.0221 J-0.0099
G2 X0.574 Y-5.791 I-0.5716 J0.1093
X0.4876 Y-5.8483 I-0.0957 J0.0506
G1 X0.4825 Y-5.8487
G2 X0.4819 Y-5.8488 I-0.007 J0.0779
X0.387 Y-5.8065 I-0.0089 J0.1079
X0.3039 Y-5.6555 I0.4628 J0.3529
G3 X0.2577 Y-5.6578 I-0.0227 J-0.0084
G2 X0.19 Y-5.8163 I-0.5632 J0.1468
X0.0997 Y-5.8677 I-0.0922 J0.0568
G1 X0.0995
X0.0943 Y-5.8678
G2 X0.0024 Y-5.8194 I-0.0017 J0.1082
X-0.0705 Y-5.6633 I0.4851 J0.3215
G3 X-0.1168 Y-5.6625 I-0.0233 J-0.0069
G2 X-0.1948 Y-5.8161 I-0.5522 J0.1838
X-0.2883 Y-5.8615 I-0.0882 J0.0627
G1 X-0.2885
X-0.2938 Y-5.8612
G2 X-0.3822 Y-5.8068 I0.0055 J0.1081
X-0.4446 Y-5.6462 I0.5053 J0.2887
G3 X-0.4908 Y-5.6424 I-0.0237 J-0.0054
G2 X-0.5787 Y-5.7905 I-0.5389 J0.2198
X-0.6749 Y-5.8296 I-0.0839 J0.0685
G1 X-0.6801 Y-5.8291
X-0.6804 Y-5.829
G2 X-0.7652 Y-5.7688 I0.0125 J0.1075
X-0.8168 Y-5.6045 I0.5233 J0.2547
G3 X-0.8626 Y-5.5976 I-0.024 J-0.0038
G2 X-0.9602 Y-5.7396 I-0.5232 J0.255
X-1.0589 Y-5.7723 I-0.0792 J0.0738
X-1.0593 Y-5.7722 I0.0141 J0.077
G1 X-1.0644 Y-5.7712
G2 X-1.1448 Y-5.7057 I0.0198 J0.1064
X-1.1855 Y-5.5382 I0.539 J0.2196
G3 X-1.2307 Y-5.5284 I-0.0242 J-0.0022
G2 X-1.3374 Y-5.6636 I-0.5052 J0.289
X-1.4381 Y-5.6896 I-0.0741 J0.0789
G1 X-1.4432 Y-5.6883
G2 X-1.5194 Y-5.6176 I0.0266 J0.1049
X-1.5489 Y-5.4478 I0.5523 J0.1835
G3 X-1.5933 Y-5.4349 I-0.0242 J-0.0006
G2 X-1.7088 Y-5.5629 I-0.485 J0.3217
X-1.811 Y-5.5822 I-0.0687 J0.0836
G1 X-1.8112 Y-5.5821
X-1.8162 Y-5.5805
G2 X-1.8873 Y-5.5048 I0.0336 J0.1029
X-1.9055 Y-5.3335 I0.5632 J0.1465
G3 X-1.949 Y-5.3178 I-0.0242 J0.001
G2 X-2.0727 Y-5.4377 I-0.4626 J0.3532
X-2.1757 Y-5.4504 I-0.063 J0.088
G1 X-2.1804 Y-5.4485
G2 X-2.1809 Y-5.4483 I0.0286 J0.0728
X-2.247 Y-5.3681 I0.0402 J0.1005
X-2.2539 Y-5.1959 I0.5717 J0.109
G3 X-2.2962 Y-5.1773 I-0.0241 J0.0027
G2 X-2.4276 Y-5.2889 I-0.4383 J0.3829
X-2.5314 Y-5.2946 I-0.0571 J0.092
G1 X-2.5362 Y-5.2923
G2 X-2.5969 Y-5.2078 I0.0467 J0.0977
X-2.5924 Y-5.0356 I0.5776 J0.071
G3 X-2.6334 Y-5.0142 I-0.0239 J0.0042
G2 X-2.7718 Y-5.1168 I-0.412 J0.411
X-2.8757 Y-5.1157 I-0.0509 J0.0955
G1 X-2.8758
X-2.8804 Y-5.1131
G2 X-2.9354 Y-5.0249 I0.0531 J0.0943
X-2.9195 Y-4.8533 I0.5811 J0.0327
G3 X-2.959 Y-4.8292 I-0.0236 J0.0058
G2 X-3.1039 Y-4.9225 I-0.3839 J0.4374
X-3.2075 Y-4.9145 I-0.0445 J0.0987
G1 X-3.2118 Y-4.9117
X-3.212 Y-4.9115
G2 X-3.2611 Y-4.8198 I0.0592 J0.0906
X-3.2339 Y-4.6497 I0.582 J-0.0058
G3 X-3.2717 Y-4.6231 I-0.0231 J0.0073
G2 X-3.4225 Y-4.7066 I-0.3542 J0.4618
X-3.5252 Y-4.6918 I-0.0378 J0.1014
G1 X-3.5293 Y-4.6887
X-3.5296 Y-4.6885
G2 X-3.5725 Y-4.5938 I0.0651 J0.0865
X-3.5341 Y-4.4258 I0.5803 J-0.0442
G3 X-3.5701 Y-4.3968 I-0.0226 J0.0088
G2 X-3.726 Y-4.4701 I-0.3229 J0.4842
X-3.8276 Y-4.4485 I-0.031 J0.1037
G1 X-3.8315 Y-4.4452
X-3.8317 Y-4.445
G2 X-3.8683 Y-4.3476 I0.0706 J0.082
X-3.8189 Y-4.1825 I0.5761 J-0.0825
G3 X-3.8529 Y-4.1512 I-0.022 J0.0103
G2 X-4.0133 Y-4.2141 I-0.2902 J0.5045
X-4.1133 Y-4.1858 I-0.0241 J0.1055
G1 X-4.1135 Y-4.1856
X-4.1173 Y-4.1819
G2 X-4.1471 Y-4.0824 I0.076 J0.0771
X-4.0869 Y-3.921 I0.5694 J-0.1205
G3 X-4.1188 Y-3.8875 I-0.0212 J0.0117
G2 X-4.2831 Y-3.9396 I-0.2563 J0.5225
X-4.381 Y-3.9047 I-0.0171 J0.1069
G1 X-4.3812 Y-3.9046
X-4.3846 Y-3.9007
G2 X-4.4079 Y-3.7994 I0.0809 J0.0719
X-4.3372 Y-3.6423 I0.5602 J-0.1578
G3 X-4.3668 Y-3.6068 I-0.0204 J0.0131
G2 X-4.5341 Y-3.6479 I-0.2212 J0.5383
X-4.6294 Y-3.6067 I-0.01 J0.1078
G1 X-4.6327 Y-3.6026
X-4.6328 Y-3.6024
G2 X-4.6493 Y-3.4998 I0.0855 J0.0664
X-4.5684 Y-3.3477 I0.5485 J-0.1944
G3 X-4.5956 Y-3.3103 I-0.0195 J0.0144
G2 X-4.7653 Y-3.3403 I-0.1851 J0.5518
X-4.8576 Y-3.293 I-0.0029 J0.1082
G1 X-4.8606 Y-3.2887
X-4.8608 Y-3.2883
G2 X-4.8705 Y-3.1848 I0.0897 J0.0606
X-4.7797 Y-3.0385 I0.5345 J-0.2303
G3 X-4.8043 Y-2.9993 I-0.0185 J0.0157
G2 X-4.9756 Y-3.0181 I-0.1482 J0.5628
X-5.0647 Y-2.9646 I0.0043 J0.1082
G1 X-5.0674 Y-2.96
X-5.0675 Y-2.9599
G2 X-5.0703 Y-2.856 I0.0935 J0.0546
X-4.97 Y-2.716 I0.5181 J-0.2651
G3 X-4.9921 Y-2.6753 I-0.0174 J0.0169
G2 X-5.1641 Y-2.6826 I-0.1107 J0.5714
X-5.2496 Y-2.6233 I0.0114 J0.1077
G1 X-5.252 Y-2.6186
G2 X-5.248 Y-2.5147 I0.0969 J0.0483
X-5.1387 Y-2.3815 I0.4995 J-0.2988
G3 X-5.1579 Y-2.3395 I-0.0162 J0.018
G2 X-5.3302 Y-2.3355 I-0.0727 J0.5774
G1 Y-2.3354
G2 X-5.4115 Y-2.2707 I0.0186 J0.1066
G1 X-5.4135 Y-2.2658
G2 X-5.4028 Y-2.1624 I0.0998 J0.0419
X-5.2848 Y-2.0367 I0.4787 J-0.3311
G3 X-5.3013 Y-1.9935 I-0.015 J0.019
G2 X-5.4729 Y-1.9781 I-0.0344 J0.581
X-5.5498 Y-1.908 I0.0255 J0.1052
G1 X-5.5499 Y-1.9077
X-5.5515 Y-1.9028
G2 X-5.5338 Y-1.8005 I0.1024 J0.035
X-5.4079 Y-1.683 I0.4557 J-0.362
G3 X-5.4214 Y-1.6388 I-0.0137 J0.02
G2 X-5.5917 Y-1.612 I0.0041 J0.582
X-5.6637 Y-1.5371 I0.0325 J0.1033
G1 Y-1.537
X-5.6651 Y-1.5319
G2 X-5.6408 Y-1.4309 I0.1045 J0.0283
G1 X-5.6407
G2 X-5.5073 Y-1.3219 I0.4307 J-0.3914
G3 X-5.5179 Y-1.2769 I-0.0124 J0.0208
G2 X-5.686 Y-1.239 I0.0426 J0.5804
X-5.7529 Y-1.1596 I0.0392 J0.1009
G1 X-5.7539 Y-1.1545
X-5.754 Y-1.1542
G2 X-5.723 Y-1.0549 I0.1061 J0.0214
X-5.5826 Y-0.955 I0.404 J-0.419
G3 X-5.5902 Y-0.9094 I-0.011 J0.0216
G2 X-5.7554 Y-0.8605 I0.0808 J0.5764
X-5.817 Y-0.7767 I0.0457 J0.0981
Y-0.7762 I0.0776 J0.0104
G1 X-5.8177 Y-0.7711
G2 X-5.7803 Y-0.6745 I0.1073 J0.014
G1 X-5.7802 Y-0.6744
G2 X-5.6335 Y-0.584 I0.3754 J-0.4448
G3 X-5.6381 Y-0.5379 I-0.0095 J0.0223
G2 X-5.7997 Y-0.4782 I0.1187 J0.5698
X-5.8556 Y-0.3905 I0.0521 J0.0949
G1 X-5.8559 Y-0.3853
G2 X-5.8122 Y-0.2909 I0.108 J0.0072
G1 X-5.8121
G2 X-5.6598 Y-0.2104 I0.3452 J-0.4686
G3 X-5.6613 Y-0.1641 I-0.008 J0.0229
G2 X-5.8186 Y-0.0939 I0.1561 J0.5607
G1 X-5.8187 Y-0.0938
G2 X-5.8686 Y-0.0026 I0.0584 J0.0912
G1 Y0.0026
G2 X-5.8187 Y0.0938 I0.1083 J0.
G1 X-5.8186 Y0.0939
G2 X-5.6613 Y0.1641 I0.3134 J-0.4904
G3 X-5.6598 Y0.2104 I-0.0065 J0.0234
G2 X-5.8121 Y0.2909 I0.1928 J0.5491
G1 X-5.8122
G2 X-5.8559 Y0.3853 I0.0642 J0.0871
G1 X-5.8556 Y0.3905
G2 X-5.7997 Y0.4782 I0.108 J-0.0072
X-5.6381 Y0.5379 I0.2804 J-0.51
G3 X-5.6335 Y0.584 I-0.0049 J0.0237
G2 X-5.7802 Y0.6744 I0.2287 J0.5352
G1 X-5.7803 Y0.6745
G2 X-5.8177 Y0.7711 I0.0699 J0.0826
G1 X-5.817 Y0.7762
G2 Y0.7767 I0.0776 J-0.0099
X-5.7554 Y0.8605 I0.1073 J-0.0144
X-5.5902 Y0.9094 I0.246 J-0.5274
G3 X-5.5826 Y0.955 I-0.0034 J0.024
G2 X-5.723 Y1.0549 I0.2636 J0.5189
X-5.754 Y1.1542 I0.0751 J0.0779
G1 X-5.7539 Y1.1545
X-5.7529 Y1.1596
G2 X-5.686 Y1.239 I0.1061 J-0.0215
X-5.5179 Y1.2769 I0.2107 J-0.5425
G3 X-5.5073 Y1.3219 I-0.0018 J0.0242
G2 X-5.6407 Y1.4309 I0.2973 J0.5004
G1 X-5.6408
G2 X-5.6651 Y1.5319 I0.0802 J0.0727
G1 X-5.6637 Y1.537
Y1.5371
G2 X-5.5917 Y1.612 I0.1045 J-0.0283
X-5.4215 Y1.6388 I0.1743 J-0.5553
G3 X-5.4079 Y1.683 I-0.0002 J0.0242
G2 X-5.4298 Y1.6988 I0.3297 J0.4796
G0 Z0.6
M9
G53 Z0.
M30
%
