%
(_FALCON CONE PLATE_1508)
(T1  D=0.1508 CR=0. - ZMIN=-0.3 - FLAT END MILL)
G90 G94 G17 G91.1
G64 P0.001 Q0.001
G20
G53 G0 Z0.
(SMALL HOLE BORE)
M9
T1 M6
S13000 M3
G4 P10.
G54
M7
G0 X10.9899 Y1.4875
G43 Z0.6 H1
G0 Z0.13
G1 Z0.0651 F35.
G18 G2 X11.005 Z0.05 I0.0151 K0.
G1 X11.0126
G17 G3 X11.0251 Y1.5 I0. J0.0125
X10.9749 Z0. I-0.0251 J0.
X10.9922 Y1.4761 Z-0.02 I0.0251 J0.
X11.0078 Y1.5239 Z-0.07 I0.0078 J0.0239
X10.9797 Y1.5148 Z-0.09 I-0.0078 J-0.0239
X11.0203 Y1.4852 Z-0.14 I0.0203 J-0.0148
X10.9797 Y1.5148 Z-0.19 I-0.0203 J0.0148
X11.0078 Y1.4761 Z-0.23 I0.0203 J-0.0148
X10.9922 Y1.5239 Z-0.28 I-0.0078 J0.0239
X10.9749 Y1.5 Z-0.3 I0.0078 J-0.0239
X11.0251 I0.0251 J0.
X10.9749 I-0.0251 J0.
X10.9875 Y1.4875 I0.0126 J0.
G1 X10.995
G18 G2 X11.0101 Z-0.2849 I0. K0.0151
G0 Z0.4
X10.9899 Y0.4875
Z0.13
G1 Z0.0651 F35.
G2 X11.005 Z0.05 I0.0151 K0.
G1 X11.0126
G17 G3 X11.0251 Y0.5 I0. J0.0125
X10.9749 Z0. I-0.0251 J0.
X10.9922 Y0.4761 Z-0.02 I0.0251 J0.
X11.0078 Y0.5239 Z-0.07 I0.0078 J0.0239
X10.9797 Y0.5148 Z-0.09 I-0.0078 J-0.0239
X11.0203 Y0.4852 Z-0.14 I0.0203 J-0.0148
X10.9797 Y0.5148 Z-0.19 I-0.0203 J0.0148
X11.0078 Y0.4761 Z-0.23 I0.0203 J-0.0148
X10.9922 Y0.5239 Z-0.28 I-0.0078 J0.0239
X10.9749 Y0.5 Z-0.3 I0.0078 J-0.0239
X11.0251 I0.0251 J0.
X10.9749 I-0.0251 J0.
X10.9875 Y0.4875 I0.0126 J0.
G1 X10.995
G18 G2 X11.0101 Z-0.2849 I0. K0.0151
G0 Z0.4
X7.9899
Z0.13
G1 Z0.0651 F35.
G2 X8.005 Z0.05 I0.0151 K0.
G1 X8.0125
G17 G3 X8.0251 Y0.5 I0. J0.0125
X7.9749 Z0. I-0.0251 J0.
X8.0251 Z-0.05 I0.0251 J0.
X7.9749 Z-0.1 I-0.0251 J0.
X8.0251 Z-0.15 I0.0251 J0.
X7.9749 Z-0.2 I-0.0251 J0.
X8.0251 Z-0.25 I0.0251 J0.
X7.9749 Z-0.3 I-0.0251 J0.
X8.0251 I0.0251 J0.
X7.9749 I-0.0251 J0.
X7.9874 Y0.4875 I0.0126 J0.
G1 X7.995
G18 G2 X8.0101 Z-0.2849 I0. K0.0151
G0 Z0.4
X7.9899 Y1.4875
Z0.13
G1 Z0.0651 F35.
G2 X8.005 Z0.05 I0.0151 K0.
G1 X8.0125
G17 G3 X8.0251 Y1.5 I0. J0.0125
X7.9749 Z0. I-0.0251 J0.
X8.0251 Z-0.05 I0.0251 J0.
X7.9749 Z-0.1 I-0.0251 J0.
X8.0251 Z-0.15 I0.0251 J0.
X7.9749 Z-0.2 I-0.0251 J0.
X8.0251 Z-0.25 I0.0251 J0.
X7.9749 Z-0.3 I-0.0251 J0.
X8.0251 I0.0251 J0.
X7.9749 I-0.0251 J0.
X7.9874 Y1.4875 I0.0126 J0.
G1 X7.995
G18 G2 X8.0101 Z-0.2849 I0. K0.0151
G0 Z0.4
X4.9899
Z0.13
G1 Z0.0651 F35.
G2 X5.005 Z0.05 I0.0151 K0.
G1 X5.0126
G17 G3 X5.0251 Y1.5 I0. J0.0125
X4.9749 Z0. I-0.0251 J0.
X5.0251 Z-0.05 I0.0251 J0.
X4.9749 Z-0.1 I-0.0251 J0.
X5.0251 Z-0.15 I0.0251 J0.
X4.9749 Z-0.2 I-0.0251 J0.
X5.0251 Z-0.25 I0.0251 J0.
X4.9749 Z-0.3 I-0.0251 J0.
X5.0251 I0.0251 J0.
X4.9749 I-0.0251 J0.
X4.9874 Y1.4875 I0.0126 J0.
G1 X4.995
G18 G2 X5.0101 Z-0.2849 I0. K0.0151
G0 Z0.4
X4.9899 Y0.4875
Z0.13
G1 Z0.0651 F35.
G2 X5.005 Z0.05 I0.0151 K0.
G1 X5.0126
G17 G3 X5.0251 Y0.5 I0. J0.0125
X4.9749 Z0. I-0.0251 J0.
X5.0251 Z-0.05 I0.0251 J0.
X4.9749 Z-0.1 I-0.0251 J0.
X5.0251 Z-0.15 I0.0251 J0.
X4.9749 Z-0.2 I-0.0251 J0.
X5.0251 Z-0.25 I0.0251 J0.
X4.9749 Z-0.3 I-0.0251 J0.
X5.0251 I0.0251 J0.
X4.9749 I-0.0251 J0.
X4.9874 Y0.4875 I0.0126 J0.
G1 X4.995
G18 G2 X5.0101 Z-0.2849 I0. K0.0151
G0 Z0.4
X1.8206 Y3.147
Z0.13
G1 Z0.0651 F35.
G2 X1.8357 Z0.05 I0.0151 K0.
G1 X1.8433
G17 G3 X1.8558 Y3.1596 I0. J0.0126
X1.8056 Z0. I-0.0251 J0.
X1.8558 Z-0.05 I0.0251 J0.
X1.8056 Z-0.1 I-0.0251 J0.
X1.8558 Z-0.15 I0.0251 J0.
X1.8056 Z-0.2 I-0.0251 J0.
X1.8558 Z-0.25 I0.0251 J0.
X1.8056 Z-0.3 I-0.0251 J0.
X1.8558 I0.0251 J0.
X1.8056 I-0.0251 J0.
X1.8182 Y3.147 I0.0125 J0.
G1 X1.8257
G18 G2 X1.8408 Z-0.2849 I0. K0.0151
G0 Z0.4
X2.6867 Y2.647
Z0.13
G1 Z0.0651 F35.
G2 X2.7017 Z0.05 I0.0151 K0.
G1 X2.7093
G17 G3 X2.7218 Y2.6596 I0. J0.0126
X2.6716 Z0. I-0.0251 J0.
X2.7218 Z-0.05 I0.0251 J0.
X2.6716 Z-0.1 I-0.0251 J0.
X2.7218 Z-0.15 I0.0251 J0.
X2.6716 Z-0.2 I-0.0251 J0.
X2.7218 Z-0.25 I0.0251 J0.
X2.6716 Z-0.3 I-0.0251 J0.
X2.7218 I0.0251 J0.
X2.6716 I-0.0251 J0.
X2.6842 Y2.647 I0.0126 J0.
G1 X2.6917
G18 G2 X2.7068 Z-0.2849 I0. K0.0151
G0 Z0.4
X3.5527 Y3.147
Z0.13
G1 Z0.0651 F35.
G2 X3.5678 Z0.05 I0.0151 K0.
G1 X3.5753
G17 G3 X3.5879 Y3.1596 I0. J0.0126
X3.5377 Z0. I-0.0251 J0.
X3.5879 Z-0.05 I0.0251 J0.
X3.5377 Z-0.1 I-0.0251 J0.
X3.5879 Z-0.15 I0.0251 J0.
X3.5377 Z-0.2 I-0.0251 J0.
X3.5879 Z-0.25 I0.0251 J0.
X3.5377 Z-0.3 I-0.0251 J0.
X3.5879 I0.0251 J0.
X3.5377 I-0.0251 J0.
X3.5502 Y3.147 I0.0126 J0.
G1 X3.5577
G18 G2 X3.5728 Z-0.2849 I0. K0.0151
G0 Z0.4
X3.5527 Y4.147
Z0.13
G1 Z0.0651 F35.
G2 X3.5678 Z0.05 I0.0151 K0.
G1 X3.5753
G17 G3 X3.5879 Y4.1596 I0. J0.0126
X3.5377 Z0. I-0.0251 J0.
X3.5879 Z-0.05 I0.0251 J0.
X3.5377 Z-0.1 I-0.0251 J0.
X3.5879 Z-0.15 I0.0251 J0.
X3.5377 Z-0.2 I-0.0251 J0.
X3.5879 Z-0.25 I0.0251 J0.
X3.5377 Z-0.3 I-0.0251 J0.
X3.5879 I0.0251 J0.
X3.5377 I-0.0251 J0.
X3.5502 Y4.147 I0.0126 J0.
G1 X3.5577
G18 G2 X3.5728 Z-0.2849 I0. K0.0151
G0 Z0.4
X2.6867 Y4.647
Z0.13
G1 Z0.0651 F35.
G2 X2.7017 Z0.05 I0.0151 K0.
G1 X2.7093
G17 G3 X2.7218 Y4.6596 I0. J0.0126
X2.6716 Z0. I-0.0251 J0.
X2.7218 Z-0.05 I0.0251 J0.
X2.6716 Z-0.1 I-0.0251 J0.
X2.7218 Z-0.15 I0.0251 J0.
X2.6716 Z-0.2 I-0.0251 J0.
X2.7218 Z-0.25 I0.0251 J0.
X2.6716 Z-0.3 I-0.0251 J0.
X2.7218 I0.0251 J0.
X2.6716 I-0.0251 J0.
X2.6842 Y4.647 I0.0126 J0.
G1 X2.6917
G18 G2 X2.7068 Z-0.2849 I0. K0.0151
G0 Z0.4
X1.8206 Y4.147
Z0.13
G1 Z0.0651 F35.
G2 X1.8357 Z0.05 I0.0151 K0.
G1 X1.8433
G17 G3 X1.8558 Y4.1596 I0. J0.0126
X1.8056 Z0. I-0.0251 J0.
X1.8558 Z-0.05 I0.0251 J0.
X1.8056 Z-0.1 I-0.0251 J0.
X1.8558 Z-0.15 I0.0251 J0.
X1.8056 Z-0.2 I-0.0251 J0.
X1.8558 Z-0.25 I0.0251 J0.
X1.8056 Z-0.3 I-0.0251 J0.
X1.8558 I0.0251 J0.
X1.8056 I-0.0251 J0.
X1.8182 Y4.147 I0.0125 J0.
G1 X1.8257
G18 G2 X1.8408 Z-0.2849 I0. K0.0151
G0 Z0.4
X-4.9619 Y1.9513
Z0.13
G1 Z0.0651 F35.
G2 X-4.9468 Z0.05 I0.0151 K0.
G1 X-4.9392
G17 G3 X-4.9294 Y1.9611 I0. J0.0098
X-4.9686 Z0. I-0.0196 J0.
X-4.9294 Z-0.05 I0.0196 J0.
X-4.9686 Z-0.1 I-0.0196 J0.
X-4.9294 Z-0.15 I0.0196 J0.
X-4.9686 Z-0.2 I-0.0196 J0.
X-4.9294 Z-0.25 I0.0196 J0.
X-4.9686 Z-0.3 I-0.0196 J0.
X-4.9294 I0.0196 J0.
X-4.9686 I-0.0196 J0.
X-4.9588 Y1.9513 I0.0098 J0.
G1 X-4.9513
G18 G2 X-4.9362 Z-0.2849 I0. K0.0151
G0 Z0.4
X2.6839 Y-3.0098
Z0.13
G1 Z0.0651 F35.
G2 X2.699 Z0.05 I0.0151 K0.
G1 X2.7065
G17 G3 X2.7163 Y-3. I0. J0.0098
X2.6771 Z0. I-0.0196 J0.
X2.6907 Y-3.0186 Z-0.02 I0.0196 J0.
X2.7028 Y-2.9814 Z-0.07 I0.0061 J0.0186
X2.6809 Y-2.9885 Z-0.09 I-0.0061 J-0.0186
X2.7126 Y-3.0115 Z-0.14 I0.0159 J-0.0115
X2.6809 Y-2.9885 Z-0.19 I-0.0159 J0.0115
X2.7126 Y-3.0115 Z-0.24 I0.0159 J-0.0115
X2.6809 Y-2.9885 Z-0.29 I-0.0159 J0.0115
X2.6771 Y-3. Z-0.3 I0.0159 J-0.0115
X2.7163 I0.0196 J0.
X2.6771 I-0.0196 J0.
X2.6869 Y-3.0098 I0.0098 J0.
G1 X2.6945
G18 G2 X2.7095 Z-0.2849 I0. K0.0151
G0 Z0.6
G17
(.3 CIRCULAR THROUGH HOLE)
M7
G0 X2.7402 Y3.703
Z0.6
Z0.2
G1 Z0.1146 F13.333
G3 X2.7389 Y3.7026 Z0.1082 I0.0119 J-0.0434
X2.7351 Y3.7012 Z0.103 I0.0133 J-0.043
X2.7299 Y3.6987 Z0.1 I0.017 J-0.0417
X2.7743 Y3.6204 Z0.0621 I0.0222 J-0.0391
X2.7299 Y3.6987 Z0.0242 I-0.0222 J0.0391
X2.7743 Y3.6204 Z-0.0136 I0.0222 J-0.0391
X2.7299 Y3.6987 Z-0.0515 I-0.0222 J0.0391
X2.7743 Y3.6204 Z-0.0894 I0.0222 J-0.0391
X2.7299 Y3.6987 Z-0.1273 I-0.0222 J0.0391
X2.7071 Y3.6596 Z-0.14 I0.0222 J-0.0391
X2.7863 I0.0396 J0. F80.
X2.6071 I-0.0896 J0.
X2.8863 I0.1396 J0.
X2.5071 I-0.1896 J0.
X2.9863 I0.2396 J0.
X2.4071 I-0.2896 J0.
X2.9863 I0.2896 J0.
X2.979 Y3.6671 I-0.0075 J0.
G1 X2.8408 Y3.6711
G3 X2.8373 Y3.6708 I-0.0012 J-0.0074
G1 X2.7282 Y3.6362
G3 X2.7262 Y3.6228 I0.0023 J-0.0072
X2.7781 Y3.6963 Z-0.1779 I0.026 J0.0367 F13.333
X2.7262 Y3.6228 Z-0.2158 I-0.026 J-0.0367
X2.7781 Y3.6963 Z-0.2536 I0.026 J0.0367
X2.7071 Y3.6596 Z-0.28 I-0.026 J-0.0367
X2.7863 I0.0396 J0. F80.
X2.6071 I-0.0896 J0.
X2.8863 I0.1396 J0.
X2.5071 I-0.1896 J0.
X2.9863 I0.2396 J0.
X2.4071 I-0.2896 J0.
X2.9963 I0.2946 J0.
X2.3971 I-0.2996 J0.
X2.9963 I0.2996 J0.
X2.9952 Y3.6652 Z-0.2789 I-0.0151 J0. F60.
X2.9927 Y3.6694 Z-0.2756 I-0.014 J-0.0056
X2.9903 Y3.6716 Z-0.2707 I-0.0115 J-0.0098
X2.9894 Y3.6723 Z-0.2649 I-0.0091 J-0.012
G0 Z0.4
X1.2187 Y1.0434
Z0.2
G1 Z0.1146 F13.333
G3 X1.2174 Y1.043 Z0.1082 I0.0119 J-0.0434
X1.2136 Y1.0417 Z0.103 I0.0133 J-0.043
X1.2084 Y1.0391 Z0.1 I0.017 J-0.0417
X1.2528 Y0.9609 Z0.0621 I0.0222 J-0.0391
X1.2084 Y1.0391 Z0.0242 I-0.0222 J0.0391
X1.2528 Y0.9609 Z-0.0136 I0.0222 J-0.0391
X1.2084 Y1.0391 Z-0.0515 I-0.0222 J0.0391
X1.2528 Y0.9609 Z-0.0894 I0.0222 J-0.0391
X1.2084 Y1.0391 Z-0.1273 I-0.0222 J0.0391
X1.1856 Y1. Z-0.14 I0.0222 J-0.0391
X1.2368 I0.0256 J0. F80.
X1.0856 I-0.0756 J0.
X1.3368 I0.1256 J0.
X0.9856 I-0.1756 J0.
X1.4368 I0.2256 J0.
X0.8856 I-0.2756 J0.
X1.5368 I0.3256 J0.
X0.7856 I-0.3756 J0.
X1.6368 I0.4256 J0.
X0.6856 I-0.4756 J0.
X1.6368 I0.4756 J0.
X1.628 Y1.0074 I-0.0075 J0.
G1 X1.5728 Y0.9976
X1.2173 Y0.9704
X1.2057 Y0.968
G3 X1.2047 Y0.9633 I0.0005 J-0.0026
X1.2566 Y1.0367 Z-0.1779 I0.026 J0.0367 F13.333
X1.2047 Y0.9633 Z-0.2158 I-0.026 J-0.0367
X1.2566 Y1.0367 Z-0.2536 I0.026 J0.0367
X1.1856 Y1. Z-0.28 I-0.026 J-0.0367
X1.2368 I0.0256 J0. F80.
X1.0856 I-0.0756 J0.
X1.3368 I0.1256 J0.
X0.9856 I-0.1756 J0.
X1.4368 I0.2256 J0.
X0.8856 I-0.2756 J0.
X1.5368 I0.3256 J0.
X0.7856 I-0.3756 J0.
X1.6368 I0.4256 J0.
X0.6856 I-0.4756 J0.
X1.6468 I0.4806 J0.
X0.6756 I-0.4856 J0.
X1.6468 I0.4856 J0.
X1.6457 Y1.0056 Z-0.2789 I-0.0151 J0. F60.
X1.6432 Y1.0098 Z-0.2756 I-0.014 J-0.0056
X1.6408 Y1.012 Z-0.2707 I-0.0115 J-0.0098
X1.6399 Y1.0127 Z-0.2649 I-0.0091 J-0.012
G0 Z0.4
X-2.2813 Y1.0434
Z0.2
G1 Z0.1146 F13.333
G3 X-2.2826 Y1.043 Z0.1082 I0.0119 J-0.0434
X-2.2864 Y1.0417 Z0.103 I0.0133 J-0.043
X-2.2916 Y1.0391 Z0.1 I0.017 J-0.0417
X-2.2472 Y0.9609 Z0.0621 I0.0222 J-0.0391
X-2.2916 Y1.0391 Z0.0242 I-0.0222 J0.0391
X-2.2472 Y0.9609 Z-0.0136 I0.0222 J-0.0391
X-2.2916 Y1.0391 Z-0.0515 I-0.0222 J0.0391
X-2.2472 Y0.9609 Z-0.0894 I0.0222 J-0.0391
X-2.2916 Y1.0391 Z-0.1273 I-0.0222 J0.0391
X-2.3144 Y1. Z-0.14 I0.0222 J-0.0391
X-2.2632 I0.0256 J0. F80.
X-2.4144 I-0.0756 J0.
X-2.1632 I0.1256 J0.
X-2.5144 I-0.1756 J0.
X-2.0632 I0.2256 J0.
X-2.6144 I-0.2756 J0.
X-1.9632 I0.3256 J0.
X-2.7144 I-0.3756 J0.
X-1.8632 I0.4256 J0.
X-2.8144 I-0.4756 J0.
X-1.8632 I0.4756 J0.
X-1.872 Y1.0074 I-0.0075 J0.
G1 X-1.9272 Y0.9976
X-2.2827 Y0.9704
X-2.2943 Y0.968
G3 X-2.2953 Y0.9633 I0.0005 J-0.0026
X-2.2434 Y1.0367 Z-0.1779 I0.026 J0.0367 F13.333
X-2.2953 Y0.9633 Z-0.2158 I-0.026 J-0.0367
X-2.2434 Y1.0367 Z-0.2536 I0.026 J0.0367
X-2.3144 Y1. Z-0.28 I-0.026 J-0.0367
X-2.2632 I0.0256 J0. F80.
X-2.4144 I-0.0756 J0.
X-2.1632 I0.1256 J0.
X-2.5144 I-0.1756 J0.
X-2.0632 I0.2256 J0.
X-2.6144 I-0.2756 J0.
X-1.9632 I0.3256 J0.
X-2.7144 I-0.3756 J0.
X-1.8632 I0.4256 J0.
X-2.8144 I-0.4756 J0.
X-1.8532 I0.4806 J0.
X-2.8244 I-0.4856 J0.
X-1.8532 I0.4856 J0.
X-1.8543 Y1.0056 Z-0.2789 I-0.0151 J0. F60.
X-1.8568 Y1.0098 Z-0.2756 I-0.014 J-0.0056
X-1.8592 Y1.012 Z-0.2707 I-0.0115 J-0.0098
X-1.8601 Y1.0127 Z-0.2649 I-0.0091 J-0.012
G0 Z0.4
X6.496 Y0.9566
Z0.2
G1 Z0.1146 F13.333
G3 X6.4973 Y0.957 Z0.1082 I-0.0119 J0.0434
X6.5011 Y0.9583 Z0.103 I-0.0133 J0.043
X6.5063 Y0.9609 Z0.1 I-0.017 J0.0417
X6.4619 Y1.0391 Z0.0621 I-0.0222 J0.0391
X6.5063 Y0.9609 Z0.0242 I0.0222 J-0.0391
X6.4619 Y1.0391 Z-0.0136 I-0.0222 J0.0391
X6.5063 Y0.9609 Z-0.0515 I0.0222 J-0.0391
X6.4619 Y1.0391 Z-0.0894 I-0.0222 J0.0391
X6.5063 Y0.9609 Z-0.1273 I0.0222 J-0.0391
X6.5291 Y1. Z-0.14 I-0.0222 J0.0391
X6.4709 I-0.0291 J0. F80.
X6.6291 I0.0791 J0.
X6.3709 I-0.1291 J0.
X6.6291 I0.1291 J0.
G2 X6.6663 Y1.0642 I0.074 J0.
G3 X6.6811 Y1.137 I-0.0246 J0.0429
X6.2729 Y1. I-0.1811 J-0.137
X6.7271 I0.2271 J0.
X6.6811 Y1.137 I-0.2271 J0.
X6.6703 Y1.1382 I-0.006 J-0.0045
G1 X6.616 Y1.0936
X6.5128 Y1.0337
X6.51 Y1.0367
G3 X6.4581 Y0.9633 Z-0.1779 I-0.026 J-0.0367 F13.333
X6.51 Y1.0367 Z-0.2158 I0.026 J0.0367
X6.4581 Y0.9633 Z-0.2536 I-0.026 J-0.0367
X6.5291 Y1. Z-0.28 I0.026 J0.0367
X6.4709 I-0.0291 J0. F80.
X6.6291 I0.0791 J0.
X6.3709 I-0.1291 J0.
X6.6291 I0.1291 J0.
G2 X6.6663 Y1.0642 I0.074 J0.
G3 X6.6811 Y1.137 I-0.0246 J0.0429
X6.2729 Y1. I-0.1811 J-0.137
X6.7271 I0.2271 J0.
X6.6811 Y1.137 I-0.2271 J0.
G2 X6.6805 Y1.1458 I0.0064 J0.0049
G3 X6.6797 Y1.1547 I-0.0067 J0.0038
X6.2629 Y1. I-0.1797 J-0.1547
X6.7371 I0.2371 J0.
X6.6797 Y1.1547 I-0.2371 J0.
X6.6752 Y1.1582 Z-0.2789 I-0.0114 J-0.0098 F60.
X6.6705 Y1.1597 Z-0.2756 I-0.0069 J-0.0134
X6.6673 Y1.1599 Z-0.2707 I-0.0023 J-0.0149
X6.6661 Y1.1598 Z-0.2649 I0.001 J-0.015
G0 Z0.4
X9.496 Y0.9566
Z0.2
G1 Z0.1146 F13.333
G3 X9.4973 Y0.957 Z0.1082 I-0.0119 J0.0434
X9.5011 Y0.9583 Z0.103 I-0.0133 J0.043
X9.5063 Y0.9609 Z0.1 I-0.017 J0.0417
X9.4619 Y1.0391 Z0.0621 I-0.0222 J0.0391
X9.5063 Y0.9609 Z0.0242 I0.0222 J-0.0391
X9.4619 Y1.0391 Z-0.0136 I-0.0222 J0.0391
X9.5063 Y0.9609 Z-0.0515 I0.0222 J-0.0391
X9.4619 Y1.0391 Z-0.0894 I-0.0222 J0.0391
X9.5063 Y0.9609 Z-0.1273 I0.0222 J-0.0391
X9.5291 Y1. Z-0.14 I-0.0222 J0.0391
X9.4709 I-0.0291 J0. F80.
X9.6291 I0.0791 J0.
X9.3709 I-0.1291 J0.
X9.6291 I0.1291 J0.
G2 X9.6663 Y1.0642 I0.074 J0.
G3 X9.6811 Y1.137 I-0.0246 J0.0429
X9.2729 Y1. I-0.1811 J-0.137
X9.7271 I0.2271 J0.
X9.6811 Y1.137 I-0.2271 J0.
X9.6703 Y1.1382 I-0.006 J-0.0045
G1 X9.616 Y1.0936
X9.5128 Y1.0337
X9.51 Y1.0367
G3 X9.4581 Y0.9633 Z-0.1779 I-0.026 J-0.0367 F13.333
X9.51 Y1.0367 Z-0.2158 I0.026 J0.0367
X9.4581 Y0.9633 Z-0.2536 I-0.026 J-0.0367
X9.5291 Y1. Z-0.28 I0.026 J0.0367
X9.4709 I-0.0291 J0. F80.
X9.6291 I0.0791 J0.
X9.3709 I-0.1291 J0.
X9.6291 I0.1291 J0.
G2 X9.6663 Y1.0642 I0.074 J0.
G3 X9.6811 Y1.137 I-0.0246 J0.0429
X9.2729 Y1. I-0.1811 J-0.137
X9.7271 I0.2271 J0.
X9.6811 Y1.137 I-0.2271 J0.
G2 X9.6805 Y1.1458 I0.0064 J0.0049
G3 X9.6797 Y1.1547 I-0.0067 J0.0038
X9.2629 Y1. I-0.1797 J-0.1547
X9.7371 I0.2371 J0.
X9.6797 Y1.1547 I-0.2371 J0.
X9.6752 Y1.1582 Z-0.2789 I-0.0114 J-0.0098 F60.
X9.6705 Y1.1597 Z-0.2756 I-0.0069 J-0.0134
X9.6673 Y1.1599 Z-0.2707 I-0.0023 J-0.0149
X9.6661 Y1.1598 Z-0.2649 I0.001 J-0.015
G0 Z0.6
(2D CONTOUR)
M7
G0 X0.562 Y4.234
Z0.6
Z0.2
G1 Z0.1 F13.333
X2.2758 Y4.8434 Z-0.2207
G2 X2.7171 Y4.9158 Z-0.3 I0.4209 J-1.1838
X3.7848 Y4.2878 I-0.0204 J-1.2562 F60.
G1 X5.0117 Y2.1627
G3 X5.1629 Y2.0754 I0.1512 J0.0873
G1 X11.75
G2 X12.0754 Y1.75 I0. J-0.3254
G1 Y0.25
G2 X11.75 Y-0.0754 I-0.3254 J0.
G1 X4.178
G3 X4.013 Y-0.1929 I0. J-0.1746
G1 X3.0042 Y-3.1065
G2 X2.5713 Y-3.3003 I-0.3075 J0.1065
G1 X-3.1387 Y-0.915
G2 X-4.1361 Y-0.0377 I0.8 J1.915
G1 X-5.2049 Y1.8134
G2 X-5.048 Y2.2394 I0.2558 J0.1477
G1 X2.2758 Y4.8434
G2 X2.7171 Y4.9158 I0.4209 J-1.1838
G0 Z0.6
M9
G53 Z0.
M30
%
