%
(971-23-P-0004_BELLYPAN_1532)
(T1  D=0.1532 CR=0. - ZMIN=-0.0925 - FLAT END MILL)
G90 G94 G17 G91.1
G64 P0.001 Q0.001
G20
G53 G0 Z0.
(.3 CIRCLUAR THROUGH HOLE 2)
M9
T1 M6
S22000 M3
G4 P10.
G54
M7
G0 X-4.1373 Y8.9893
G43 Z0.6 H1
G0 Z0.0783
G1 Z0.0136 F40.
G18 G2 X-4.122 Z-0.0017 I0.0153 K0.
G1 X-4.1143
G17 G3 X-4.1036 Y9. I0. J0.0107
X-4.1464 Z-0.019 I-0.0214 J0.
X-4.1036 Z-0.0362 I0.0214 J0.
X-4.1464 Z-0.0535 I-0.0214 J0.
X-4.1036 Z-0.0708 I0.0214 J0.
X-4.1464 Z-0.0881 I-0.0214 J0.
X-4.1398 Y8.9846 Z-0.0925 I0.0214 J0.
X-4.1102 Y9.0154 I0.0148 J0.0154
X-4.1398 Y8.9846 I-0.0148 J-0.0154
X-4.1247 Y8.9849 I0.0074 J0.0077
G1 X-4.1194 Y8.9904
X-4.1173 Y8.9925 Z-0.0922
X-4.1153 Y8.9946 Z-0.0913
X-4.1135 Y8.9965 Z-0.0899
X-4.1119 Y8.9982 Z-0.088
X-4.1106 Y8.9996 Z-0.0857
X-4.1096 Y9.0006 Z-0.083
X-4.109 Y9.0012 Z-0.0802
X-4.1088 Y9.0014 Z-0.0772
G0 Z0.4
X-4.8873 Y8.9893
Z0.0783
G1 Z0.0136 F40.
G18 G2 X-4.872 Z-0.0017 I0.0153 K0.
G1 X-4.8643
G17 G3 X-4.8536 Y9. I0. J0.0107
X-4.8964 Z-0.019 I-0.0214 J0.
X-4.8536 Z-0.0362 I0.0214 J0.
X-4.8964 Z-0.0535 I-0.0214 J0.
X-4.8536 Z-0.0708 I0.0214 J0.
X-4.8964 Z-0.0881 I-0.0214 J0.
X-4.8898 Y8.9846 Z-0.0925 I0.0214 J0.
X-4.8602 Y9.0154 I0.0148 J0.0154
X-4.8898 Y8.9846 I-0.0148 J-0.0154
X-4.8747 Y8.9849 I0.0074 J0.0077
G1 X-4.8694 Y8.9904
X-4.8673 Y8.9925 Z-0.0922
X-4.8653 Y8.9946 Z-0.0913
X-4.8635 Y8.9965 Z-0.0899
X-4.8619 Y8.9982 Z-0.088
X-4.8606 Y8.9996 Z-0.0857
X-4.8596 Y9.0006 Z-0.083
X-4.859 Y9.0012 Z-0.0802
X-4.8588 Y9.0014 Z-0.0772
G0 Z0.4
X-5.6373 Y8.9893
Z0.0783
G1 Z0.0136 F40.
G18 G2 X-5.622 Z-0.0017 I0.0153 K0.
G1 X-5.6143
G17 G3 X-5.6036 Y9. I0. J0.0107
X-5.6464 Z-0.019 I-0.0214 J0.
X-5.6036 Z-0.0362 I0.0214 J0.
X-5.6464 Z-0.0535 I-0.0214 J0.
X-5.6036 Z-0.0708 I0.0214 J0.
X-5.6464 Z-0.0881 I-0.0214 J0.
X-5.6398 Y8.9846 Z-0.0925 I0.0214 J0.
X-5.6102 Y9.0154 I0.0148 J0.0154
X-5.6398 Y8.9846 I-0.0148 J-0.0154
X-5.6247 Y8.9849 I0.0074 J0.0077
G1 X-5.6194 Y8.9904
X-5.6173 Y8.9925 Z-0.0922
X-5.6153 Y8.9946 Z-0.0913
X-5.6135 Y8.9965 Z-0.0899
X-5.6119 Y8.9982 Z-0.088
X-5.6106 Y8.9996 Z-0.0857
X-5.6096 Y9.0006 Z-0.083
X-5.609 Y9.0012 Z-0.0802
X-5.6088 Y9.0014 Z-0.0772
G0 Z0.4
X-6.3873 Y8.9893
Z0.0783
G1 Z0.0136 F40.
G18 G2 X-6.372 Z-0.0017 I0.0153 K0.
G1 X-6.3643
G17 G3 X-6.3536 Y9. I0. J0.0107
X-6.3964 Z-0.019 I-0.0214 J0.
X-6.3536 Z-0.0362 I0.0214 J0.
X-6.3964 Z-0.0535 I-0.0214 J0.
X-6.3536 Z-0.0708 I0.0214 J0.
X-6.3964 Z-0.0881 I-0.0214 J0.
X-6.3898 Y8.9846 Z-0.0925 I0.0214 J0.
X-6.3602 Y9.0154 I0.0148 J0.0154
X-6.3898 Y8.9846 I-0.0148 J-0.0154
X-6.3747 Y8.9849 I0.0074 J0.0077
G1 X-6.3694 Y8.9904
X-6.3673 Y8.9925 Z-0.0922
X-6.3653 Y8.9946 Z-0.0913
X-6.3635 Y8.9965 Z-0.0899
X-6.3619 Y8.9982 Z-0.088
X-6.3606 Y8.9996 Z-0.0857
X-6.3596 Y9.0006 Z-0.083
X-6.359 Y9.0012 Z-0.0802
X-6.3588 Y9.0014 Z-0.0772
G0 Z0.4
X-7.1127 Y9.0107
Z0.0783
G1 Z0.0136 F40.
G18 G3 X-7.128 Z-0.0017 I-0.0153 K0.
G1 X-7.1357
G17 G3 X-7.1464 Y9. I0. J-0.0107
X-7.1036 Z-0.019 I0.0214 J0.
X-7.1464 Z-0.0362 I-0.0214 J0.
X-7.1036 Z-0.0535 I0.0214 J0.
X-7.1464 Z-0.0708 I-0.0214 J0.
X-7.1036 Z-0.0881 I0.0214 J0.
X-7.1102 Y9.0154 Z-0.0925 I-0.0214 J0.
X-7.1398 Y8.9846 I-0.0148 J-0.0154
X-7.1102 Y9.0154 I0.0148 J0.0154
X-7.1253 Y9.0151 I-0.0074 J-0.0077
G1 X-7.1306 Y9.0096
X-7.1327 Y9.0075 Z-0.0922
X-7.1347 Y9.0054 Z-0.0913
X-7.1365 Y9.0035 Z-0.0899
X-7.1381 Y9.0018 Z-0.088
X-7.1394 Y9.0004 Z-0.0857
X-7.1404 Y8.9994 Z-0.083
X-7.141 Y8.9988 Z-0.0802
X-7.1412 Y8.9986 Z-0.0772
G0 Z0.4
X-7.8873 Y8.9893
Z0.0783
G1 Z0.0136 F40.
G18 G2 X-7.872 Z-0.0017 I0.0153 K0.
G1 X-7.8643
G17 G3 X-7.8536 Y9. I0. J0.0107
X-7.8964 Z-0.019 I-0.0214 J0.
X-7.8536 Z-0.0362 I0.0214 J0.
X-7.8964 Z-0.0535 I-0.0214 J0.
X-7.8536 Z-0.0708 I0.0214 J0.
X-7.8964 Z-0.0881 I-0.0214 J0.
X-7.8898 Y8.9846 Z-0.0925 I0.0214 J0.
X-7.8602 Y9.0154 I0.0148 J0.0154
X-7.8898 Y8.9846 I-0.0148 J-0.0154
X-7.8747 Y8.9849 I0.0074 J0.0077
G1 X-7.8694 Y8.9904
X-7.8673 Y8.9925 Z-0.0922
X-7.8653 Y8.9946 Z-0.0913
X-7.8635 Y8.9965 Z-0.0899
X-7.8619 Y8.9982 Z-0.088
X-7.8606 Y8.9996 Z-0.0857
X-7.8596 Y9.0006 Z-0.083
X-7.859 Y9.0012 Z-0.0802
X-7.8588 Y9.0014 Z-0.0772
G0 Z0.4
X-8.6127 Y9.0107
Z0.0783
G1 Z0.0136 F40.
G18 G3 X-8.628 Z-0.0017 I-0.0153 K0.
G1 X-8.6357
G17 G3 X-8.6464 Y9. I0. J-0.0107
X-8.6036 Z-0.019 I0.0214 J0.
X-8.6464 Z-0.0362 I-0.0214 J0.
X-8.6036 Z-0.0535 I0.0214 J0.
X-8.6464 Z-0.0708 I-0.0214 J0.
X-8.6036 Z-0.0881 I0.0214 J0.
X-8.6102 Y9.0154 Z-0.0925 I-0.0214 J0.
X-8.6398 Y8.9846 I-0.0148 J-0.0154
X-8.6102 Y9.0154 I0.0148 J0.0154
X-8.6253 Y9.0151 I-0.0074 J-0.0077
G1 X-8.6306 Y9.0096
X-8.6327 Y9.0075 Z-0.0922
X-8.6347 Y9.0054 Z-0.0913
X-8.6365 Y9.0035 Z-0.0899
X-8.6381 Y9.0018 Z-0.088
X-8.6394 Y9.0004 Z-0.0857
X-8.6404 Y8.9994 Z-0.083
X-8.641 Y8.9988 Z-0.0802
X-8.6412 Y8.9986 Z-0.0772
G0 Z0.4
X-9.3873 Y8.9893
Z0.0783
G1 Z0.0136 F40.
G18 G2 X-9.372 Z-0.0017 I0.0153 K0.
G1 X-9.3643
G17 G3 X-9.3536 Y9. I0. J0.0107
X-9.3964 Z-0.019 I-0.0214 J0.
X-9.3536 Z-0.0362 I0.0214 J0.
X-9.3964 Z-0.0535 I-0.0214 J0.
X-9.3536 Z-0.0708 I0.0214 J0.
X-9.3964 Z-0.0881 I-0.0214 J0.
X-9.3898 Y8.9846 Z-0.0925 I0.0214 J0.
X-9.3602 Y9.0154 I0.0148 J0.0154
X-9.3898 Y8.9846 I-0.0148 J-0.0154
X-9.3747 Y8.9849 I0.0074 J0.0077
G1 X-9.3694 Y8.9904
X-9.3673 Y8.9925 Z-0.0922
X-9.3653 Y8.9946 Z-0.0913
X-9.3635 Y8.9965 Z-0.0899
X-9.3619 Y8.9982 Z-0.088
X-9.3606 Y8.9996 Z-0.0857
X-9.3596 Y9.0006 Z-0.083
X-9.359 Y9.0012 Z-0.0802
X-9.3588 Y9.0014 Z-0.0772
G0 Z0.4
X-10.1127 Y9.0107
Z0.0783
G1 Z0.0136 F40.
G18 G3 X-10.128 Z-0.0017 I-0.0153 K0.
G1 X-10.1357
G17 G3 X-10.1464 Y9. I0. J-0.0107
X-10.1036 Z-0.019 I0.0214 J0.
X-10.1464 Z-0.0362 I-0.0214 J0.
X-10.1166 Y8.9803 Z-0.0471 I0.0214 J0.
X-10.1334 Y9.0197 Z-0.0644 I-0.0084 J0.0197
X-10.1166 Y8.9803 Z-0.0816 I0.0084 J-0.0197
X-10.1102 Y9.0154 Z-0.0925 I-0.0084 J0.0197
X-10.1398 Y8.9846 I-0.0148 J-0.0154
X-10.1102 Y9.0154 I0.0148 J0.0154
X-10.1253 Y9.0151 I-0.0074 J-0.0077
G1 X-10.1306 Y9.0096
X-10.1327 Y9.0075 Z-0.0922
X-10.1347 Y9.0054 Z-0.0913
X-10.1365 Y9.0035 Z-0.0899
X-10.1381 Y9.0018 Z-0.088
X-10.1394 Y9.0004 Z-0.0857
X-10.1404 Y8.9994 Z-0.083
X-10.141 Y8.9988 Z-0.0802
X-10.1412 Y8.9986 Z-0.0772
G0 Z0.4
X-10.8873 Y8.9893
Z0.0783
G1 Z0.0136 F40.
G18 G2 X-10.872 Z-0.0017 I0.0153 K0.
G1 X-10.8643
G17 G3 X-10.8536 Y9. I0. J0.0107
X-10.8964 Z-0.019 I-0.0214 J0.
X-10.8536 Z-0.0362 I0.0214 J0.
X-10.8964 Z-0.0535 I-0.0214 J0.
X-10.8536 Z-0.0708 I0.0214 J0.
X-10.8964 Z-0.0881 I-0.0214 J0.
X-10.8898 Y8.9846 Z-0.0925 I0.0214 J0.
X-10.8602 Y9.0154 I0.0148 J0.0154
X-10.8898 Y8.9846 I-0.0148 J-0.0154
X-10.8747 Y8.9849 I0.0074 J0.0077
G1 X-10.8694 Y8.9904
X-10.8673 Y8.9925 Z-0.0922
X-10.8653 Y8.9946 Z-0.0913
X-10.8635 Y8.9965 Z-0.0899
X-10.8619 Y8.9982 Z-0.088
X-10.8606 Y8.9996 Z-0.0857
X-10.8596 Y9.0006 Z-0.083
X-10.859 Y9.0012 Z-0.0802
X-10.8588 Y9.0014 Z-0.0772
G0 Z0.4
X-14.6127 Y9.0107
Z0.0783
G1 Z0.0136 F40.
G18 G3 X-14.628 Z-0.0017 I-0.0153 K0.
G1 X-14.6357
G17 G3 X-14.6464 Y9. I0. J-0.0107
X-14.6036 Z-0.019 I0.0214 J0.
X-14.6132 Y9.0179 Z-0.0244 I-0.0214 J0.
X-14.6368 Y8.9821 Z-0.0417 I-0.0118 J-0.0179
X-14.6132 Y9.0179 Z-0.0589 I0.0118 J0.0179
X-14.6368 Y8.9821 Z-0.0762 I-0.0118 J-0.0179
X-14.6102 Y9.0154 Z-0.0925 I0.0118 J0.0179
X-14.6398 Y8.9846 I-0.0148 J-0.0154
X-14.6102 Y9.0154 I0.0148 J0.0154
X-14.6253 Y9.0151 I-0.0074 J-0.0077
G1 X-14.6306 Y9.0096
X-14.6327 Y9.0075 Z-0.0922
X-14.6347 Y9.0054 Z-0.0913
X-14.6365 Y9.0035 Z-0.0899
X-14.6381 Y9.0018 Z-0.088
X-14.6394 Y9.0004 Z-0.0857
X-14.6404 Y8.9994 Z-0.083
X-14.641 Y8.9988 Z-0.0802
X-14.6412 Y8.9986 Z-0.0772
G0 Z0.4
X-15.2377 Y8.2607
Z0.0783
G1 Z0.0136 F40.
G18 G3 X-15.253 Z-0.0017 I-0.0153 K0.
G1 X-15.2607
G17 G3 X-15.2714 Y8.25 I0. J-0.0107
X-15.2286 Z-0.019 I0.0214 J0.
X-15.2382 Y8.2679 Z-0.0244 I-0.0214 J0.
X-15.2618 Y8.2321 Z-0.0417 I-0.0118 J-0.0179
X-15.2382 Y8.2679 Z-0.0589 I0.0118 J0.0179
X-15.2618 Y8.2321 Z-0.0762 I-0.0118 J-0.0179
X-15.2352 Y8.2654 Z-0.0925 I0.0118 J0.0179
X-15.2648 Y8.2346 I-0.0148 J-0.0154
X-15.2352 Y8.2654 I0.0148 J0.0154
X-15.2503 Y8.2651 I-0.0074 J-0.0077
G1 X-15.2556 Y8.2596
X-15.2577 Y8.2575 Z-0.0922
X-15.2597 Y8.2554 Z-0.0913
X-15.2615 Y8.2535 Z-0.0899
X-15.2631 Y8.2518 Z-0.088
X-15.2644 Y8.2504 Z-0.0857
X-15.2654 Y8.2494 Z-0.083
X-15.266 Y8.2488 Z-0.0802
X-15.2662 Y8.2486 Z-0.0772
G0 Z0.4
X-15.2377 Y7.5107
Z0.0783
G1 Z0.0136 F40.
G18 G3 X-15.253 Z-0.0017 I-0.0153 K0.
G1 X-15.2607
G17 G3 X-15.2714 Y7.5 I0. J-0.0107
X-15.2286 Z-0.019 I0.0214 J0.
X-15.2382 Y7.5179 Z-0.0244 I-0.0214 J0.
X-15.2618 Y7.4821 Z-0.0417 I-0.0118 J-0.0179
X-15.2382 Y7.5179 Z-0.0589 I0.0118 J0.0179
X-15.2618 Y7.4821 Z-0.0762 I-0.0118 J-0.0179
X-15.2352 Y7.5154 Z-0.0925 I0.0118 J0.0179
X-15.2648 Y7.4846 I-0.0148 J-0.0154
X-15.2352 Y7.5154 I0.0148 J0.0154
X-15.2503 Y7.5151 I-0.0074 J-0.0077
G1 X-15.2556 Y7.5096
X-15.2577 Y7.5075 Z-0.0922
X-15.2597 Y7.5054 Z-0.0913
X-15.2615 Y7.5035 Z-0.0899
X-15.2631 Y7.5018 Z-0.088
X-15.2644 Y7.5004 Z-0.0857
X-15.2654 Y7.4994 Z-0.083
X-15.266 Y7.4988 Z-0.0802
X-15.2662 Y7.4986 Z-0.0772
G0 Z0.4
X-15.2377 Y6.7607
Z0.0783
G1 Z0.0136 F40.
G18 G3 X-15.253 Z-0.0017 I-0.0153 K0.
G1 X-15.2607
G17 G3 X-15.2714 Y6.75 I0. J-0.0107
X-15.2286 Z-0.019 I0.0214 J0.
X-15.2382 Y6.7679 Z-0.0244 I-0.0214 J0.
X-15.2618 Y6.7321 Z-0.0417 I-0.0118 J-0.0179
X-15.2382 Y6.7679 Z-0.0589 I0.0118 J0.0179
X-15.2618 Y6.7321 Z-0.0762 I-0.0118 J-0.0179
X-15.2352 Y6.7654 Z-0.0925 I0.0118 J0.0179
X-15.2648 Y6.7346 I-0.0148 J-0.0154
X-15.2352 Y6.7654 I0.0148 J0.0154
X-15.2503 Y6.7651 I-0.0074 J-0.0077
G1 X-15.2556 Y6.7596
X-15.2577 Y6.7575 Z-0.0922
X-15.2597 Y6.7554 Z-0.0913
X-15.2615 Y6.7535 Z-0.0899
X-15.2631 Y6.7518 Z-0.088
X-15.2644 Y6.7504 Z-0.0857
X-15.2654 Y6.7494 Z-0.083
X-15.266 Y6.7488 Z-0.0802
X-15.2662 Y6.7486 Z-0.0772
G0 Z0.4
X-15.2377 Y6.0107
Z0.0783
G1 Z0.0136 F40.
G18 G3 X-15.253 Z-0.0017 I-0.0153 K0.
G1 X-15.2607
G17 G3 X-15.2714 Y6. I0. J-0.0107
X-15.2286 Z-0.019 I0.0214 J0.
X-15.2382 Y6.0179 Z-0.0244 I-0.0214 J0.
X-15.2618 Y5.9821 Z-0.0417 I-0.0118 J-0.0179
X-15.2382 Y6.0179 Z-0.0589 I0.0118 J0.0179
X-15.2618 Y5.9821 Z-0.0762 I-0.0118 J-0.0179
X-15.2352 Y6.0154 Z-0.0925 I0.0118 J0.0179
X-15.2648 Y5.9846 I-0.0148 J-0.0154
X-15.2352 Y6.0154 I0.0148 J0.0154
X-15.2503 Y6.0151 I-0.0074 J-0.0077
G1 X-15.2556 Y6.0096
X-15.2577 Y6.0075 Z-0.0922
X-15.2597 Y6.0054 Z-0.0913
X-15.2615 Y6.0035 Z-0.0899
X-15.2631 Y6.0018 Z-0.088
X-15.2644 Y6.0004 Z-0.0857
X-15.2654 Y5.9994 Z-0.083
X-15.266 Y5.9988 Z-0.0802
X-15.2662 Y5.9986 Z-0.0772
G0 Z0.4
X-15.2377 Y5.2607
Z0.0783
G1 Z0.0136 F40.
G18 G3 X-15.253 Z-0.0017 I-0.0153 K0.
G1 X-15.2607
G17 G3 X-15.2714 Y5.25 I0. J-0.0107
X-15.2286 Z-0.019 I0.0214 J0.
X-15.2382 Y5.2679 Z-0.0244 I-0.0214 J0.
X-15.2618 Y5.2321 Z-0.0417 I-0.0118 J-0.0179
X-15.2382 Y5.2679 Z-0.0589 I0.0118 J0.0179
X-15.2618 Y5.2321 Z-0.0762 I-0.0118 J-0.0179
X-15.2352 Y5.2654 Z-0.0925 I0.0118 J0.0179
X-15.2648 Y5.2346 I-0.0148 J-0.0154
X-15.2352 Y5.2654 I0.0148 J0.0154
X-15.2503 Y5.2651 I-0.0074 J-0.0077
G1 X-15.2556 Y5.2596
X-15.2577 Y5.2575 Z-0.0922
X-15.2597 Y5.2554 Z-0.0913
X-15.2615 Y5.2535 Z-0.0899
X-15.2631 Y5.2518 Z-0.088
X-15.2644 Y5.2504 Z-0.0857
X-15.2654 Y5.2494 Z-0.083
X-15.266 Y5.2488 Z-0.0802
X-15.2662 Y5.2486 Z-0.0772
G0 Z0.4
X-15.2377 Y4.5107
Z0.0783
G1 Z0.0136 F40.
G18 G3 X-15.253 Z-0.0017 I-0.0153 K0.
G1 X-15.2607
G17 G3 X-15.2714 Y4.5 I0. J-0.0107
X-15.2286 Z-0.019 I0.0214 J0.
X-15.2714 Z-0.0362 I-0.0214 J0.
X-15.2286 Z-0.0535 I0.0214 J0.
X-15.2714 Z-0.0708 I-0.0214 J0.
X-15.2286 Z-0.0881 I0.0214 J0.
X-15.2352 Y4.5154 Z-0.0925 I-0.0214 J0.
X-15.2648 Y4.4846 I-0.0148 J-0.0154
X-15.2352 Y4.5154 I0.0148 J0.0154
X-15.2503 Y4.5151 I-0.0074 J-0.0077
G1 X-15.2556 Y4.5096
X-15.2577 Y4.5075 Z-0.0922
X-15.2597 Y4.5054 Z-0.0913
X-15.2615 Y4.5035 Z-0.0899
X-15.2631 Y4.5018 Z-0.088
X-15.2644 Y4.5004 Z-0.0857
X-15.2654 Y4.4994 Z-0.083
X-15.266 Y4.4988 Z-0.0802
X-15.2662 Y4.4986 Z-0.0772
G0 Z0.4
X-15.2377 Y3.7607
Z0.0783
G1 Z0.0136 F40.
G18 G3 X-15.253 Z-0.0017 I-0.0153 K0.
G1 X-15.2607
G17 G3 X-15.2714 Y3.75 I0. J-0.0107
X-15.2286 Z-0.019 I0.0214 J0.
X-15.2382 Y3.7679 Z-0.0244 I-0.0214 J0.
X-15.2618 Y3.7321 Z-0.0417 I-0.0118 J-0.0179
X-15.2382 Y3.7679 Z-0.0589 I0.0118 J0.0179
X-15.2618 Y3.7321 Z-0.0762 I-0.0118 J-0.0179
X-15.2352 Y3.7654 Z-0.0925 I0.0118 J0.0179
X-15.2648 Y3.7346 I-0.0148 J-0.0154
X-15.2352 Y3.7654 I0.0148 J0.0154
X-15.2503 Y3.7651 I-0.0074 J-0.0077
G1 X-15.2556 Y3.7596
X-15.2577 Y3.7575 Z-0.0922
X-15.2597 Y3.7554 Z-0.0913
X-15.2615 Y3.7535 Z-0.0899
X-15.2631 Y3.7518 Z-0.088
X-15.2644 Y3.7504 Z-0.0857
X-15.2654 Y3.7494 Z-0.083
X-15.266 Y3.7488 Z-0.0802
X-15.2662 Y3.7486 Z-0.0772
G0 Z0.4
X-15.2377 Y3.0107
Z0.0783
G1 Z0.0136 F40.
G18 G3 X-15.253 Z-0.0017 I-0.0153 K0.
G1 X-15.2607
G17 G3 X-15.2714 Y3. I0. J-0.0107
X-15.2286 Z-0.019 I0.0214 J0.
X-15.2714 Z-0.0362 I-0.0214 J0.
X-15.2286 Z-0.0535 I0.0214 J0.
X-15.2714 Z-0.0708 I-0.0214 J0.
X-15.2286 Z-0.0881 I0.0214 J0.
X-15.2352 Y3.0154 Z-0.0925 I-0.0214 J0.
X-15.2648 Y2.9846 I-0.0148 J-0.0154
X-15.2352 Y3.0154 I0.0148 J0.0154
X-15.2503 Y3.0151 I-0.0074 J-0.0077
G1 X-15.2556 Y3.0096
X-15.2577 Y3.0075 Z-0.0922
X-15.2597 Y3.0054 Z-0.0913
X-15.2615 Y3.0035 Z-0.0899
X-15.2631 Y3.0018 Z-0.088
X-15.2644 Y3.0004 Z-0.0857
X-15.2654 Y2.9994 Z-0.083
X-15.266 Y2.9988 Z-0.0802
X-15.2662 Y2.9986 Z-0.0772
G0 Z0.4
X-15.2377 Y2.2607
Z0.0783
G1 Z0.0136 F40.
G18 G3 X-15.253 Z-0.0017 I-0.0153 K0.
G1 X-15.2607
G17 G3 X-15.2714 Y2.25 I0. J-0.0107
X-15.2286 Z-0.019 I0.0214 J0.
X-15.2382 Y2.2679 Z-0.0244 I-0.0214 J0.
X-15.2618 Y2.2321 Z-0.0417 I-0.0118 J-0.0179
X-15.2382 Y2.2679 Z-0.0589 I0.0118 J0.0179
X-15.2618 Y2.2321 Z-0.0762 I-0.0118 J-0.0179
X-15.2352 Y2.2654 Z-0.0925 I0.0118 J0.0179
X-15.2648 Y2.2346 I-0.0148 J-0.0154
X-15.2352 Y2.2654 I0.0148 J0.0154
X-15.2503 Y2.2651 I-0.0074 J-0.0077
G1 X-15.2556 Y2.2596
X-15.2577 Y2.2575 Z-0.0922
X-15.2597 Y2.2554 Z-0.0913
X-15.2615 Y2.2535 Z-0.0899
X-15.2631 Y2.2518 Z-0.088
X-15.2644 Y2.2504 Z-0.0857
X-15.2654 Y2.2494 Z-0.083
X-15.266 Y2.2488 Z-0.0802
X-15.2662 Y2.2486 Z-0.0772
G0 Z0.4
X-15.2377 Y1.5107
Z0.0783
G1 Z0.0136 F40.
G18 G3 X-15.253 Z-0.0017 I-0.0153 K0.
G1 X-15.2607
G17 G3 X-15.2714 Y1.5 I0. J-0.0107
X-15.2286 Z-0.019 I0.0214 J0.
X-15.2714 Z-0.0362 I-0.0214 J0.
X-15.2286 Z-0.0535 I0.0214 J0.
X-15.2714 Z-0.0708 I-0.0214 J0.
X-15.2286 Z-0.0881 I0.0214 J0.
X-15.2352 Y1.5154 Z-0.0925 I-0.0214 J0.
X-15.2648 Y1.4846 I-0.0148 J-0.0154
X-15.2352 Y1.5154 I0.0148 J0.0154
X-15.2503 Y1.5151 I-0.0074 J-0.0077
G1 X-15.2556 Y1.5096
X-15.2577 Y1.5075 Z-0.0922
X-15.2597 Y1.5054 Z-0.0913
X-15.2615 Y1.5035 Z-0.0899
X-15.2631 Y1.5018 Z-0.088
X-15.2644 Y1.5004 Z-0.0857
X-15.2654 Y1.4994 Z-0.083
X-15.266 Y1.4988 Z-0.0802
X-15.2662 Y1.4986 Z-0.0772
G0 Z0.4
X-15.2377 Y0.7607
Z0.0783
G1 Z0.0136 F40.
G18 G3 X-15.253 Z-0.0017 I-0.0153 K0.
G1 X-15.2607
G17 G3 X-15.2714 Y0.75 I0. J-0.0107
X-15.2286 Z-0.019 I0.0214 J0.
X-15.2714 Z-0.0362 I-0.0214 J0.
X-15.2286 Z-0.0535 I0.0214 J0.
X-15.2714 Z-0.0708 I-0.0214 J0.
X-15.2286 Z-0.0881 I0.0214 J0.
X-15.2352 Y0.7654 Z-0.0925 I-0.0214 J0.
X-15.2648 Y0.7346 I-0.0148 J-0.0154
X-15.2352 Y0.7654 I0.0148 J0.0154
X-15.2503 Y0.7651 I-0.0074 J-0.0077
G1 X-15.2556 Y0.7596
X-15.2577 Y0.7575 Z-0.0922
X-15.2597 Y0.7554 Z-0.0913
X-15.2615 Y0.7535 Z-0.0899
X-15.2631 Y0.7518 Z-0.088
X-15.2644 Y0.7504 Z-0.0857
X-15.2654 Y0.7494 Z-0.083
X-15.266 Y0.7488 Z-0.0802
X-15.2662 Y0.7486 Z-0.0772
G0 Z0.4
X-15.2377 Y0.0107
Z0.0783
G1 Z0.0136 F40.
G18 G3 X-15.253 Z-0.0017 I-0.0153 K0.
G1 X-15.2607
G17 G3 X-15.2714 Y0. I0. J-0.0107
X-15.2286 Z-0.019 I0.0214 J0.
X-15.2382 Y0.0179 Z-0.0244 I-0.0214 J0.
X-15.2618 Y-0.0179 Z-0.0417 I-0.0118 J-0.0179
X-15.2382 Y0.0179 Z-0.0589 I0.0118 J0.0179
X-15.2618 Y-0.0179 Z-0.0762 I-0.0118 J-0.0179
X-15.2352 Y0.0154 Z-0.0925 I0.0118 J0.0179
X-15.2648 Y-0.0154 I-0.0148 J-0.0154
X-15.2352 Y0.0154 I0.0148 J0.0154
X-15.2503 Y0.0151 I-0.0074 J-0.0077
G1 X-15.2556 Y0.0096
X-15.2577 Y0.0075 Z-0.0922
X-15.2597 Y0.0054 Z-0.0913
X-15.2615 Y0.0035 Z-0.0899
X-15.2631 Y0.0018 Z-0.088
X-15.2644 Y0.0004 Z-0.0857
X-15.2654 Y-0.0006 Z-0.083
X-15.266 Y-0.0012 Z-0.0802
X-15.2662 Y-0.0014 Z-0.0772
G0 Z0.4
X-15.2377 Y-0.7393
Z0.0783
G1 Z0.0136 F40.
G18 G3 X-15.253 Z-0.0017 I-0.0153 K0.
G1 X-15.2607
G17 G3 X-15.2714 Y-0.75 I0. J-0.0107
X-15.2286 Z-0.019 I0.0214 J0.
X-15.2382 Y-0.7321 Z-0.0244 I-0.0214 J0.
X-15.2618 Y-0.7679 Z-0.0417 I-0.0118 J-0.0179
X-15.2382 Y-0.7321 Z-0.0589 I0.0118 J0.0179
X-15.2618 Y-0.7679 Z-0.0762 I-0.0118 J-0.0179
X-15.2352 Y-0.7346 Z-0.0925 I0.0118 J0.0179
X-15.2648 Y-0.7654 I-0.0148 J-0.0154
X-15.2352 Y-0.7346 I0.0148 J0.0154
X-15.2503 Y-0.7349 I-0.0074 J-0.0077
G1 X-15.2556 Y-0.7404
X-15.2577 Y-0.7425 Z-0.0922
X-15.2597 Y-0.7446 Z-0.0913
X-15.2615 Y-0.7465 Z-0.0899
X-15.2631 Y-0.7482 Z-0.088
X-15.2644 Y-0.7496 Z-0.0857
X-15.2654 Y-0.7506 Z-0.083
X-15.266 Y-0.7512 Z-0.0802
X-15.2662 Y-0.7514 Z-0.0772
G0 Z0.4
X-15.2377 Y-1.4893
Z0.0783
G1 Z0.0136 F40.
G18 G3 X-15.253 Z-0.0017 I-0.0153 K0.
G1 X-15.2607
G17 G3 X-15.2714 Y-1.5 I0. J-0.0107
X-15.2286 Z-0.019 I0.0214 J0.
X-15.2382 Y-1.4821 Z-0.0244 I-0.0214 J0.
X-15.2618 Y-1.5179 Z-0.0417 I-0.0118 J-0.0179
X-15.2382 Y-1.4821 Z-0.0589 I0.0118 J0.0179
X-15.2618 Y-1.5179 Z-0.0762 I-0.0118 J-0.0179
X-15.2352 Y-1.4846 Z-0.0925 I0.0118 J0.0179
X-15.2648 Y-1.5154 I-0.0148 J-0.0154
X-15.2352 Y-1.4846 I0.0148 J0.0154
X-15.2503 Y-1.4849 I-0.0074 J-0.0077
G1 X-15.2556 Y-1.4904
X-15.2577 Y-1.4925 Z-0.0922
X-15.2597 Y-1.4946 Z-0.0913
X-15.2615 Y-1.4965 Z-0.0899
X-15.2631 Y-1.4982 Z-0.088
X-15.2644 Y-1.4996 Z-0.0857
X-15.2654 Y-1.5006 Z-0.083
X-15.266 Y-1.5012 Z-0.0802
X-15.2662 Y-1.5014 Z-0.0772
G0 Z0.4
X-15.2377 Y-2.2393
Z0.0783
G1 Z0.0136 F40.
G18 G3 X-15.253 Z-0.0017 I-0.0153 K0.
G1 X-15.2607
G17 G3 X-15.2714 Y-2.25 I0. J-0.0107
X-15.2286 Z-0.019 I0.0214 J0.
X-15.2714 Z-0.0362 I-0.0214 J0.
X-15.2286 Z-0.0535 I0.0214 J0.
X-15.2714 Z-0.0708 I-0.0214 J0.
X-15.2286 Z-0.0881 I0.0214 J0.
X-15.2352 Y-2.2346 Z-0.0925 I-0.0214 J0.
X-15.2648 Y-2.2654 I-0.0148 J-0.0154
X-15.2352 Y-2.2346 I0.0148 J0.0154
X-15.2503 Y-2.2349 I-0.0074 J-0.0077
G1 X-15.2556 Y-2.2404
X-15.2577 Y-2.2425 Z-0.0922
X-15.2597 Y-2.2446 Z-0.0913
X-15.2615 Y-2.2465 Z-0.0899
X-15.2631 Y-2.2482 Z-0.088
X-15.2644 Y-2.2496 Z-0.0857
X-15.2654 Y-2.2506 Z-0.083
X-15.266 Y-2.2512 Z-0.0802
X-15.2662 Y-2.2514 Z-0.0772
G0 Z0.4
X-15.2377 Y-2.9893
Z0.0783
G1 Z0.0136 F40.
G18 G3 X-15.253 Z-0.0017 I-0.0153 K0.
G1 X-15.2607
G17 G3 X-15.2714 Y-3. I0. J-0.0107
X-15.2286 Z-0.019 I0.0214 J0.
X-15.2714 Z-0.0362 I-0.0214 J0.
X-15.2286 Z-0.0535 I0.0214 J0.
X-15.2714 Z-0.0708 I-0.0214 J0.
X-15.2286 Z-0.0881 I0.0214 J0.
X-15.2352 Y-2.9846 Z-0.0925 I-0.0214 J0.
X-15.2648 Y-3.0154 I-0.0148 J-0.0154
X-15.2352 Y-2.9846 I0.0148 J0.0154
X-15.2503 Y-2.9849 I-0.0074 J-0.0077
G1 X-15.2556 Y-2.9904
X-15.2577 Y-2.9925 Z-0.0922
X-15.2597 Y-2.9946 Z-0.0913
X-15.2615 Y-2.9965 Z-0.0899
X-15.2631 Y-2.9982 Z-0.088
X-15.2644 Y-2.9996 Z-0.0857
X-15.2654 Y-3.0006 Z-0.083
X-15.266 Y-3.0012 Z-0.0802
X-15.2662 Y-3.0014 Z-0.0772
G0 Z0.4
X-15.2377 Y-3.7393
Z0.0783
G1 Z0.0136 F40.
G18 G3 X-15.253 Z-0.0017 I-0.0153 K0.
G1 X-15.2607
G17 G3 X-15.2714 Y-3.75 I0. J-0.0107
X-15.2286 Z-0.019 I0.0214 J0.
X-15.2382 Y-3.7321 Z-0.0244 I-0.0214 J0.
X-15.2618 Y-3.7679 Z-0.0417 I-0.0118 J-0.0179
X-15.2382 Y-3.7321 Z-0.0589 I0.0118 J0.0179
X-15.2618 Y-3.7679 Z-0.0762 I-0.0118 J-0.0179
X-15.2352 Y-3.7346 Z-0.0925 I0.0118 J0.0179
X-15.2648 Y-3.7654 I-0.0148 J-0.0154
X-15.2352 Y-3.7346 I0.0148 J0.0154
X-15.2503 Y-3.7349 I-0.0074 J-0.0077
G1 X-15.2556 Y-3.7404
X-15.2577 Y-3.7425 Z-0.0922
X-15.2597 Y-3.7446 Z-0.0913
X-15.2615 Y-3.7465 Z-0.0899
X-15.2631 Y-3.7482 Z-0.088
X-15.2644 Y-3.7496 Z-0.0857
X-15.2654 Y-3.7506 Z-0.083
X-15.266 Y-3.7512 Z-0.0802
X-15.2662 Y-3.7514 Z-0.0772
G0 Z0.4
X-15.2377 Y-4.4893
Z0.0783
G1 Z0.0136 F40.
G18 G3 X-15.253 Z-0.0017 I-0.0153 K0.
G1 X-15.2607
G17 G3 X-15.2714 Y-4.5 I0. J-0.0107
X-15.2286 Z-0.019 I0.0214 J0.
X-15.2714 Z-0.0362 I-0.0214 J0.
X-15.2286 Z-0.0535 I0.0214 J0.
X-15.2714 Z-0.0708 I-0.0214 J0.
X-15.2286 Z-0.0881 I0.0214 J0.
X-15.2352 Y-4.4846 Z-0.0925 I-0.0214 J0.
X-15.2648 Y-4.5154 I-0.0148 J-0.0154
X-15.2352 Y-4.4846 I0.0148 J0.0154
X-15.2503 Y-4.4849 I-0.0074 J-0.0077
G1 X-15.2556 Y-4.4904
X-15.2577 Y-4.4925 Z-0.0922
X-15.2597 Y-4.4946 Z-0.0913
X-15.2615 Y-4.4965 Z-0.0899
X-15.2631 Y-4.4982 Z-0.088
X-15.2644 Y-4.4996 Z-0.0857
X-15.2654 Y-4.5006 Z-0.083
X-15.266 Y-4.5012 Z-0.0802
X-15.2662 Y-4.5014 Z-0.0772
G0 Z0.4
X-15.2377 Y-5.2393
Z0.0783
G1 Z0.0136 F40.
G18 G3 X-15.253 Z-0.0017 I-0.0153 K0.
G1 X-15.2607
G17 G3 X-15.2714 Y-5.25 I0. J-0.0107
X-15.2286 Z-0.019 I0.0214 J0.
X-15.2382 Y-5.2321 Z-0.0244 I-0.0214 J0.
X-15.2618 Y-5.2679 Z-0.0417 I-0.0118 J-0.0179
X-15.2382 Y-5.2321 Z-0.0589 I0.0118 J0.0179
X-15.2618 Y-5.2679 Z-0.0762 I-0.0118 J-0.0179
X-15.2352 Y-5.2346 Z-0.0925 I0.0118 J0.0179
X-15.2648 Y-5.2654 I-0.0148 J-0.0154
X-15.2352 Y-5.2346 I0.0148 J0.0154
X-15.2503 Y-5.2349 I-0.0074 J-0.0077
G1 X-15.2556 Y-5.2404
X-15.2577 Y-5.2425 Z-0.0922
X-15.2597 Y-5.2446 Z-0.0913
X-15.2615 Y-5.2465 Z-0.0899
X-15.2631 Y-5.2482 Z-0.088
X-15.2644 Y-5.2496 Z-0.0857
X-15.2654 Y-5.2506 Z-0.083
X-15.266 Y-5.2512 Z-0.0802
X-15.2662 Y-5.2514 Z-0.0772
G0 Z0.4
X-15.2377 Y-5.9893
Z0.0783
G1 Z0.0136 F40.
G18 G3 X-15.253 Z-0.0017 I-0.0153 K0.
G1 X-15.2607
G17 G3 X-15.2714 Y-6. I0. J-0.0107
X-15.2286 Z-0.019 I0.0214 J0.
X-15.2382 Y-5.9821 Z-0.0244 I-0.0214 J0.
X-15.2618 Y-6.0179 Z-0.0417 I-0.0118 J-0.0179
X-15.2382 Y-5.9821 Z-0.0589 I0.0118 J0.0179
X-15.2618 Y-6.0179 Z-0.0762 I-0.0118 J-0.0179
X-15.2352 Y-5.9846 Z-0.0925 I0.0118 J0.0179
X-15.2648 Y-6.0154 I-0.0148 J-0.0154
X-15.2352 Y-5.9846 I0.0148 J0.0154
X-15.2503 Y-5.9849 I-0.0074 J-0.0077
G1 X-15.2556 Y-5.9904
X-15.2577 Y-5.9925 Z-0.0922
X-15.2597 Y-5.9946 Z-0.0913
X-15.2615 Y-5.9965 Z-0.0899
X-15.2631 Y-5.9982 Z-0.088
X-15.2644 Y-5.9996 Z-0.0857
X-15.2654 Y-6.0006 Z-0.083
X-15.266 Y-6.0012 Z-0.0802
X-15.2662 Y-6.0014 Z-0.0772
G0 Z0.4
X-15.2377 Y-6.7393
Z0.0783
G1 Z0.0136 F40.
G18 G3 X-15.253 Z-0.0017 I-0.0153 K0.
G1 X-15.2607
G17 G3 X-15.2714 Y-6.75 I0. J-0.0107
X-15.2286 Z-0.019 I0.0214 J0.
X-15.2382 Y-6.7321 Z-0.0244 I-0.0214 J0.
X-15.2618 Y-6.7679 Z-0.0417 I-0.0118 J-0.0179
X-15.2382 Y-6.7321 Z-0.0589 I0.0118 J0.0179
X-15.2618 Y-6.7679 Z-0.0762 I-0.0118 J-0.0179
X-15.2352 Y-6.7346 Z-0.0925 I0.0118 J0.0179
X-15.2648 Y-6.7654 I-0.0148 J-0.0154
X-15.2352 Y-6.7346 I0.0148 J0.0154
X-15.2503 Y-6.7349 I-0.0074 J-0.0077
G1 X-15.2556 Y-6.7404
X-15.2577 Y-6.7425 Z-0.0922
X-15.2597 Y-6.7446 Z-0.0913
X-15.2615 Y-6.7465 Z-0.0899
X-15.2631 Y-6.7482 Z-0.088
X-15.2644 Y-6.7496 Z-0.0857
X-15.2654 Y-6.7506 Z-0.083
X-15.266 Y-6.7512 Z-0.0802
X-15.2662 Y-6.7514 Z-0.0772
G0 Z0.4
X-15.2377 Y-7.4893
Z0.0783
G1 Z0.0136 F40.
G18 G3 X-15.253 Z-0.0017 I-0.0153 K0.
G1 X-15.2607
G17 G3 X-15.2714 Y-7.5 I0. J-0.0107
X-15.2286 Z-0.019 I0.0214 J0.
X-15.2382 Y-7.4821 Z-0.0244 I-0.0214 J0.
X-15.2618 Y-7.5179 Z-0.0417 I-0.0118 J-0.0179
X-15.2382 Y-7.4821 Z-0.0589 I0.0118 J0.0179
X-15.2618 Y-7.5179 Z-0.0762 I-0.0118 J-0.0179
X-15.2352 Y-7.4846 Z-0.0925 I0.0118 J0.0179
X-15.2648 Y-7.5154 I-0.0148 J-0.0154
X-15.2352 Y-7.4846 I0.0148 J0.0154
X-15.2503 Y-7.4849 I-0.0074 J-0.0077
G1 X-15.2556 Y-7.4904
X-15.2577 Y-7.4925 Z-0.0922
X-15.2597 Y-7.4946 Z-0.0913
X-15.2615 Y-7.4965 Z-0.0899
X-15.2631 Y-7.4982 Z-0.088
X-15.2644 Y-7.4996 Z-0.0857
X-15.2654 Y-7.5006 Z-0.083
X-15.266 Y-7.5012 Z-0.0802
X-15.2662 Y-7.5014 Z-0.0772
G0 Z0.4
X-15.2377 Y-8.2393
Z0.0783
G1 Z0.0136 F40.
G18 G3 X-15.253 Z-0.0017 I-0.0153 K0.
G1 X-15.2607
G17 G3 X-15.2714 Y-8.25 I0. J-0.0107
X-15.2286 Z-0.019 I0.0214 J0.
X-15.2382 Y-8.2321 Z-0.0244 I-0.0214 J0.
X-15.2618 Y-8.2679 Z-0.0417 I-0.0118 J-0.0179
X-15.2382 Y-8.2321 Z-0.0589 I0.0118 J0.0179
X-15.2618 Y-8.2679 Z-0.0762 I-0.0118 J-0.0179
X-15.2352 Y-8.2346 Z-0.0925 I0.0118 J0.0179
X-15.2648 Y-8.2654 I-0.0148 J-0.0154
X-15.2352 Y-8.2346 I0.0148 J0.0154
X-15.2503 Y-8.2349 I-0.0074 J-0.0077
G1 X-15.2556 Y-8.2404
X-15.2577 Y-8.2425 Z-0.0922
X-15.2597 Y-8.2446 Z-0.0913
X-15.2615 Y-8.2465 Z-0.0899
X-15.2631 Y-8.2482 Z-0.088
X-15.2644 Y-8.2496 Z-0.0857
X-15.2654 Y-8.2506 Z-0.083
X-15.266 Y-8.2512 Z-0.0802
X-15.2662 Y-8.2514 Z-0.0772
G0 Z0.4
X-14.6127 Y-8.9893
Z0.0783
G1 Z0.0136 F40.
G18 G3 X-14.628 Z-0.0017 I-0.0153 K0.
G1 X-14.6357
G17 G3 X-14.6464 Y-9. I0. J-0.0107
X-14.6036 Z-0.019 I0.0214 J0.
X-14.6132 Y-8.9821 Z-0.0244 I-0.0214 J0.
X-14.6368 Y-9.0179 Z-0.0417 I-0.0118 J-0.0179
X-14.6132 Y-8.9821 Z-0.0589 I0.0118 J0.0179
X-14.6368 Y-9.0179 Z-0.0762 I-0.0118 J-0.0179
X-14.6102 Y-8.9846 Z-0.0925 I0.0118 J0.0179
X-14.6398 Y-9.0154 I-0.0148 J-0.0154
X-14.6102 Y-8.9846 I0.0148 J0.0154
X-14.6253 Y-8.9849 I-0.0074 J-0.0077
G1 X-14.6306 Y-8.9904
X-14.6327 Y-8.9925 Z-0.0922
X-14.6347 Y-8.9946 Z-0.0913
X-14.6365 Y-8.9965 Z-0.0899
X-14.6381 Y-8.9982 Z-0.088
X-14.6394 Y-8.9996 Z-0.0857
X-14.6404 Y-9.0006 Z-0.083
X-14.641 Y-9.0012 Z-0.0802
X-14.6412 Y-9.0014 Z-0.0772
G0 Z0.4
X-10.8873 Y-9.0107
Z0.0783
G1 Z0.0136 F40.
G18 G2 X-10.872 Z-0.0017 I0.0153 K0.
G1 X-10.8643
G17 G3 X-10.8536 Y-9. I0. J0.0107
X-10.8964 Z-0.019 I-0.0214 J0.
X-10.8536 Z-0.0362 I0.0214 J0.
X-10.8964 Z-0.0535 I-0.0214 J0.
X-10.8536 Z-0.0708 I0.0214 J0.
X-10.8964 Z-0.0881 I-0.0214 J0.
X-10.8898 Y-9.0154 Z-0.0925 I0.0214 J0.
X-10.8602 Y-8.9846 I0.0148 J0.0154
X-10.8898 Y-9.0154 I-0.0148 J-0.0154
X-10.8747 Y-9.0151 I0.0074 J0.0077
G1 X-10.8694 Y-9.0096
X-10.8673 Y-9.0075 Z-0.0922
X-10.8653 Y-9.0054 Z-0.0913
X-10.8635 Y-9.0035 Z-0.0899
X-10.8619 Y-9.0018 Z-0.088
X-10.8606 Y-9.0004 Z-0.0857
X-10.8596 Y-8.9994 Z-0.083
X-10.859 Y-8.9988 Z-0.0802
X-10.8588 Y-8.9986 Z-0.0772
G0 Z0.4
X-10.1127 Y-8.9893
Z0.0783
G1 Z0.0136 F40.
G18 G3 X-10.128 Z-0.0017 I-0.0153 K0.
G1 X-10.1357
G17 G3 X-10.1464 Y-9. I0. J-0.0107
X-10.1036 Z-0.019 I0.0214 J0.
X-10.1464 Z-0.0362 I-0.0214 J0.
X-10.1036 Z-0.0535 I0.0214 J0.
X-10.1464 Z-0.0708 I-0.0214 J0.
X-10.1036 Z-0.0881 I0.0214 J0.
X-10.1102 Y-8.9846 Z-0.0925 I-0.0214 J0.
X-10.1398 Y-9.0154 I-0.0148 J-0.0154
X-10.1102 Y-8.9846 I0.0148 J0.0154
X-10.1253 Y-8.9849 I-0.0074 J-0.0077
G1 X-10.1306 Y-8.9904
X-10.1327 Y-8.9925 Z-0.0922
X-10.1347 Y-8.9946 Z-0.0913
X-10.1365 Y-8.9965 Z-0.0899
X-10.1381 Y-8.9982 Z-0.088
X-10.1394 Y-8.9996 Z-0.0857
X-10.1404 Y-9.0006 Z-0.083
X-10.141 Y-9.0012 Z-0.0802
X-10.1412 Y-9.0014 Z-0.0772
G0 Z0.4
X-9.4877 Y-5.9893
Z0.0783
G1 Z0.0136 F40.
G18 G3 X-9.503 Z-0.0017 I-0.0153 K0.
G1 X-9.5107
G17 G3 X-9.5214 Y-6. I0. J-0.0107
X-9.4786 Z-0.019 I0.0214 J0.
X-9.5214 Z-0.0362 I-0.0214 J0.
X-9.4786 Z-0.0535 I0.0214 J0.
X-9.5214 Z-0.0708 I-0.0214 J0.
X-9.4786 Z-0.0881 I0.0214 J0.
X-9.4852 Y-5.9846 Z-0.0925 I-0.0214 J0.
X-9.5148 Y-6.0154 I-0.0148 J-0.0154
X-9.4852 Y-5.9846 I0.0148 J0.0154
X-9.5003 Y-5.9849 I-0.0074 J-0.0077
G1 X-9.5056 Y-5.9904
X-9.5077 Y-5.9925 Z-0.0922
X-9.5097 Y-5.9946 Z-0.0913
X-9.5115 Y-5.9965 Z-0.0899
X-9.5131 Y-5.9982 Z-0.088
X-9.5144 Y-5.9996 Z-0.0857
X-9.5154 Y-6.0006 Z-0.083
X-9.516 Y-6.0012 Z-0.0802
X-9.5162 Y-6.0014 Z-0.0772
G0 Z0.4
X-9.4877 Y-3.9893
Z0.0783
G1 Z0.0136 F40.
G18 G3 X-9.503 Z-0.0017 I-0.0153 K0.
G1 X-9.5107
G17 G3 X-9.5214 Y-4. I0. J-0.0107
X-9.4786 Z-0.019 I0.0214 J0.
X-9.5214 Z-0.0362 I-0.0214 J0.
X-9.4786 Z-0.0535 I0.0214 J0.
X-9.5214 Z-0.0708 I-0.0214 J0.
X-9.4786 Z-0.0881 I0.0214 J0.
X-9.4852 Y-3.9846 Z-0.0925 I-0.0214 J0.
X-9.5148 Y-4.0154 I-0.0148 J-0.0154
X-9.4852 Y-3.9846 I0.0148 J0.0154
X-9.5003 Y-3.9849 I-0.0074 J-0.0077
G1 X-9.5056 Y-3.9904
X-9.5077 Y-3.9925 Z-0.0922
X-9.5097 Y-3.9946 Z-0.0913
X-9.5115 Y-3.9965 Z-0.0899
X-9.5131 Y-3.9982 Z-0.088
X-9.5144 Y-3.9996 Z-0.0857
X-9.5154 Y-4.0006 Z-0.083
X-9.516 Y-4.0012 Z-0.0802
X-9.5162 Y-4.0014 Z-0.0772
G0 Z0.4
X-9.4877 Y-1.9893
Z0.0783
G1 Z0.0136 F40.
G18 G3 X-9.503 Z-0.0017 I-0.0153 K0.
G1 X-9.5107
G17 G3 X-9.5214 Y-2. I0. J-0.0107
X-9.4786 Z-0.019 I0.0214 J0.
X-9.5214 Z-0.0362 I-0.0214 J0.
X-9.4786 Z-0.0535 I0.0214 J0.
X-9.5214 Z-0.0708 I-0.0214 J0.
X-9.4786 Z-0.0881 I0.0214 J0.
X-9.4852 Y-1.9846 Z-0.0925 I-0.0214 J0.
X-9.5148 Y-2.0154 I-0.0148 J-0.0154
X-9.4852 Y-1.9846 I0.0148 J0.0154
X-9.5003 Y-1.9849 I-0.0074 J-0.0077
G1 X-9.5056 Y-1.9904
X-9.5077 Y-1.9925 Z-0.0922
X-9.5097 Y-1.9946 Z-0.0913
X-9.5115 Y-1.9965 Z-0.0899
X-9.5131 Y-1.9982 Z-0.088
X-9.5144 Y-1.9996 Z-0.0857
X-9.5154 Y-2.0006 Z-0.083
X-9.516 Y-2.0012 Z-0.0802
X-9.5162 Y-2.0014 Z-0.0772
G0 Z0.4
X-9.4877 Y0.0107
Z0.0783
G1 Z0.0136 F40.
G18 G3 X-9.503 Z-0.0017 I-0.0153 K0.
G1 X-9.5107
G17 G3 X-9.5214 Y0. I0. J-0.0107
X-9.4786 Z-0.019 I0.0214 J0.
X-9.5214 Z-0.0362 I-0.0214 J0.
X-9.4786 Z-0.0535 I0.0214 J0.
X-9.5214 Z-0.0708 I-0.0214 J0.
X-9.4786 Z-0.0881 I0.0214 J0.
X-9.4852 Y0.0154 Z-0.0925 I-0.0214 J0.
X-9.5148 Y-0.0154 I-0.0148 J-0.0154
X-9.4852 Y0.0154 I0.0148 J0.0154
X-9.5003 Y0.0151 I-0.0074 J-0.0077
G1 X-9.5056 Y0.0096
X-9.5077 Y0.0075 Z-0.0922
X-9.5097 Y0.0054 Z-0.0913
X-9.5115 Y0.0035 Z-0.0899
X-9.5131 Y0.0018 Z-0.088
X-9.5144 Y0.0004 Z-0.0857
X-9.5154 Y-0.0006 Z-0.083
X-9.516 Y-0.0012 Z-0.0802
X-9.5162 Y-0.0014 Z-0.0772
G0 Z0.4
X-9.4877 Y2.0107
Z0.0783
G1 Z0.0136 F40.
G18 G3 X-9.503 Z-0.0017 I-0.0153 K0.
G1 X-9.5107
G17 G3 X-9.5214 Y2. I0. J-0.0107
X-9.4786 Z-0.019 I0.0214 J0.
X-9.5214 Z-0.0362 I-0.0214 J0.
X-9.4786 Z-0.0535 I0.0214 J0.
X-9.5214 Z-0.0708 I-0.0214 J0.
X-9.4786 Z-0.0881 I0.0214 J0.
X-9.4852 Y2.0154 Z-0.0925 I-0.0214 J0.
X-9.5148 Y1.9846 I-0.0148 J-0.0154
X-9.4852 Y2.0154 I0.0148 J0.0154
X-9.5003 Y2.0151 I-0.0074 J-0.0077
G1 X-9.5056 Y2.0096
X-9.5077 Y2.0075 Z-0.0922
X-9.5097 Y2.0054 Z-0.0913
X-9.5115 Y2.0035 Z-0.0899
X-9.5131 Y2.0018 Z-0.088
X-9.5144 Y2.0004 Z-0.0857
X-9.5154 Y1.9994 Z-0.083
X-9.516 Y1.9988 Z-0.0802
X-9.5162 Y1.9986 Z-0.0772
G0 Z0.4
X-9.4877 Y4.0107
Z0.0783
G1 Z0.0136 F40.
G18 G3 X-9.503 Z-0.0017 I-0.0153 K0.
G1 X-9.5107
G17 G3 X-9.5214 Y4. I0. J-0.0107
X-9.4786 Z-0.019 I0.0214 J0.
X-9.5214 Z-0.0362 I-0.0214 J0.
X-9.4786 Z-0.0535 I0.0214 J0.
X-9.5214 Z-0.0708 I-0.0214 J0.
X-9.4786 Z-0.0881 I0.0214 J0.
X-9.4852 Y4.0154 Z-0.0925 I-0.0214 J0.
X-9.5148 Y3.9846 I-0.0148 J-0.0154
X-9.4852 Y4.0154 I0.0148 J0.0154
X-9.5003 Y4.0151 I-0.0074 J-0.0077
G1 X-9.5056 Y4.0096
X-9.5077 Y4.0075 Z-0.0922
X-9.5097 Y4.0054 Z-0.0913
X-9.5115 Y4.0035 Z-0.0899
X-9.5131 Y4.0018 Z-0.088
X-9.5144 Y4.0004 Z-0.0857
X-9.5154 Y3.9994 Z-0.083
X-9.516 Y3.9988 Z-0.0802
X-9.5162 Y3.9986 Z-0.0772
G0 Z0.4
X-9.4877 Y6.0107
Z0.0783
G1 Z0.0136 F40.
G18 G3 X-9.503 Z-0.0017 I-0.0153 K0.
G1 X-9.5107
G17 G3 X-9.5214 Y6. I0. J-0.0107
X-9.4786 Z-0.019 I0.0214 J0.
X-9.5214 Z-0.0362 I-0.0214 J0.
X-9.4786 Z-0.0535 I0.0214 J0.
X-9.5214 Z-0.0708 I-0.0214 J0.
X-9.4786 Z-0.0881 I0.0214 J0.
X-9.4852 Y6.0154 Z-0.0925 I-0.0214 J0.
X-9.5148 Y5.9846 I-0.0148 J-0.0154
X-9.4852 Y6.0154 I0.0148 J0.0154
X-9.5003 Y6.0151 I-0.0074 J-0.0077
G1 X-9.5056 Y6.0096
X-9.5077 Y6.0075 Z-0.0922
X-9.5097 Y6.0054 Z-0.0913
X-9.5115 Y6.0035 Z-0.0899
X-9.5131 Y6.0018 Z-0.088
X-9.5144 Y6.0004 Z-0.0857
X-9.5154 Y5.9994 Z-0.083
X-9.516 Y5.9988 Z-0.0802
X-9.5162 Y5.9986 Z-0.0772
G0 Z0.4
X-9.4877 Y7.0107
Z0.0783
G1 Z0.0136 F40.
G18 G3 X-9.503 Z-0.0017 I-0.0153 K0.
G1 X-9.5107
G17 G3 X-9.5214 Y7. I0. J-0.0107
X-9.4786 Z-0.019 I0.0214 J0.
X-9.5214 Z-0.0362 I-0.0214 J0.
X-9.4786 Z-0.0535 I0.0214 J0.
X-9.5214 Z-0.0708 I-0.0214 J0.
X-9.4786 Z-0.0881 I0.0214 J0.
X-9.4852 Y7.0154 Z-0.0925 I-0.0214 J0.
X-9.5148 Y6.9846 I-0.0148 J-0.0154
X-9.4852 Y7.0154 I0.0148 J0.0154
X-9.5003 Y7.0151 I-0.0074 J-0.0077
G1 X-9.5056 Y7.0096
X-9.5077 Y7.0075 Z-0.0922
X-9.5097 Y7.0054 Z-0.0913
X-9.5115 Y7.0035 Z-0.0899
X-9.5131 Y7.0018 Z-0.088
X-9.5144 Y7.0004 Z-0.0857
X-9.5154 Y6.9994 Z-0.083
X-9.516 Y6.9988 Z-0.0802
X-9.5162 Y6.9986 Z-0.0772
G0 Z0.4
X-9.4877 Y7.5107
Z0.0783
G1 Z0.0136 F40.
G18 G3 X-9.503 Z-0.0017 I-0.0153 K0.
G1 X-9.5107
G17 G3 X-9.5214 Y7.5 I0. J-0.0107
X-9.4786 Z-0.019 I0.0214 J0.
X-9.5214 Z-0.0362 I-0.0214 J0.
X-9.4786 Z-0.0535 I0.0214 J0.
X-9.5214 Z-0.0708 I-0.0214 J0.
X-9.4786 Z-0.0881 I0.0214 J0.
X-9.4852 Y7.5154 Z-0.0925 I-0.0214 J0.
X-9.5148 Y7.4846 I-0.0148 J-0.0154
X-9.4852 Y7.5154 I0.0148 J0.0154
X-9.5003 Y7.5151 I-0.0074 J-0.0077
G1 X-9.5056 Y7.5096
X-9.5077 Y7.5075 Z-0.0922
X-9.5097 Y7.5054 Z-0.0913
X-9.5115 Y7.5035 Z-0.0899
X-9.5131 Y7.5018 Z-0.088
X-9.5144 Y7.5004 Z-0.0857
X-9.5154 Y7.4994 Z-0.083
X-9.516 Y7.4988 Z-0.0802
X-9.5162 Y7.4986 Z-0.0772
G0 Z0.4
X-9.4877 Y8.0107
Z0.0783
G1 Z0.0136 F40.
G18 G3 X-9.503 Z-0.0017 I-0.0153 K0.
G1 X-9.5107
G17 G3 X-9.5214 Y8. I0. J-0.0107
X-9.4786 Z-0.019 I0.0214 J0.
X-9.5214 Z-0.0362 I-0.0214 J0.
X-9.4786 Z-0.0535 I0.0214 J0.
X-9.5214 Z-0.0708 I-0.0214 J0.
X-9.4786 Z-0.0881 I0.0214 J0.
X-9.4852 Y8.0154 Z-0.0925 I-0.0214 J0.
X-9.5148 Y7.9846 I-0.0148 J-0.0154
X-9.4852 Y8.0154 I0.0148 J0.0154
X-9.5003 Y8.0151 I-0.0074 J-0.0077
G1 X-9.5056 Y8.0096
X-9.5077 Y8.0075 Z-0.0922
X-9.5097 Y8.0054 Z-0.0913
X-9.5115 Y8.0035 Z-0.0899
X-9.5131 Y8.0018 Z-0.088
X-9.5144 Y8.0004 Z-0.0857
X-9.5154 Y7.9994 Z-0.083
X-9.516 Y7.9988 Z-0.0802
X-9.5162 Y7.9986 Z-0.0772
G0 Z0.4
X-8.4877 Y8.0107
Z0.0783
G1 Z0.0136 F40.
G18 G3 X-8.503 Z-0.0017 I-0.0153 K0.
G1 X-8.5107
G17 G3 X-8.5214 Y8. I0. J-0.0107
X-8.4786 Z-0.019 I0.0214 J0.
X-8.5214 Z-0.0362 I-0.0214 J0.
X-8.4786 Z-0.0535 I0.0214 J0.
X-8.5214 Z-0.0708 I-0.0214 J0.
X-8.4786 Z-0.0881 I0.0214 J0.
X-8.4852 Y8.0154 Z-0.0925 I-0.0214 J0.
X-8.5148 Y7.9846 I-0.0148 J-0.0154
X-8.4852 Y8.0154 I0.0148 J0.0154
X-8.5003 Y8.0151 I-0.0074 J-0.0077
G1 X-8.5056 Y8.0096
X-8.5077 Y8.0075 Z-0.0922
X-8.5097 Y8.0054 Z-0.0913
X-8.5115 Y8.0035 Z-0.0899
X-8.5131 Y8.0018 Z-0.088
X-8.5144 Y8.0004 Z-0.0857
X-8.5154 Y7.9994 Z-0.083
X-8.516 Y7.9988 Z-0.0802
X-8.5162 Y7.9986 Z-0.0772
G0 Z0.4
X-8.4877 Y7.5107
Z0.0783
G1 Z0.0136 F40.
G18 G3 X-8.503 Z-0.0017 I-0.0153 K0.
G1 X-8.5107
G17 G3 X-8.5214 Y7.5 I0. J-0.0107
X-8.4786 Z-0.019 I0.0214 J0.
X-8.5214 Z-0.0362 I-0.0214 J0.
X-8.4786 Z-0.0535 I0.0214 J0.
X-8.5214 Z-0.0708 I-0.0214 J0.
X-8.4786 Z-0.0881 I0.0214 J0.
X-8.4852 Y7.5154 Z-0.0925 I-0.0214 J0.
X-8.5148 Y7.4846 I-0.0148 J-0.0154
X-8.4852 Y7.5154 I0.0148 J0.0154
X-8.5003 Y7.5151 I-0.0074 J-0.0077
G1 X-8.5056 Y7.5096
X-8.5077 Y7.5075 Z-0.0922
X-8.5097 Y7.5054 Z-0.0913
X-8.5115 Y7.5035 Z-0.0899
X-8.5131 Y7.5018 Z-0.088
X-8.5144 Y7.5004 Z-0.0857
X-8.5154 Y7.4994 Z-0.083
X-8.516 Y7.4988 Z-0.0802
X-8.5162 Y7.4986 Z-0.0772
G0 Z0.4
X-8.4877 Y7.0107
Z0.0783
G1 Z0.0136 F40.
G18 G3 X-8.503 Z-0.0017 I-0.0153 K0.
G1 X-8.5107
G17 G3 X-8.5214 Y7. I0. J-0.0107
X-8.4786 Z-0.019 I0.0214 J0.
X-8.5214 Z-0.0362 I-0.0214 J0.
X-8.4786 Z-0.0535 I0.0214 J0.
X-8.5214 Z-0.0708 I-0.0214 J0.
X-8.4786 Z-0.0881 I0.0214 J0.
X-8.4852 Y7.0154 Z-0.0925 I-0.0214 J0.
X-8.5148 Y6.9846 I-0.0148 J-0.0154
X-8.4852 Y7.0154 I0.0148 J0.0154
X-8.5003 Y7.0151 I-0.0074 J-0.0077
G1 X-8.5056 Y7.0096
X-8.5077 Y7.0075 Z-0.0922
X-8.5097 Y7.0054 Z-0.0913
X-8.5115 Y7.0035 Z-0.0899
X-8.5131 Y7.0018 Z-0.088
X-8.5144 Y7.0004 Z-0.0857
X-8.5154 Y6.9994 Z-0.083
X-8.516 Y6.9988 Z-0.0802
X-8.5162 Y6.9986 Z-0.0772
G0 Z0.4
X-7.5123 Y6.9893
Z0.0783
G1 Z0.0136 F40.
G18 G2 X-7.497 Z-0.0017 I0.0153 K0.
G1 X-7.4893
G17 G3 X-7.4786 Y7. I0. J0.0107
X-7.5214 Z-0.019 I-0.0214 J0.
X-7.4786 Z-0.0362 I0.0214 J0.
X-7.5214 Z-0.0535 I-0.0214 J0.
X-7.4786 Z-0.0708 I0.0214 J0.
X-7.5214 Z-0.0881 I-0.0214 J0.
X-7.5148 Y6.9846 Z-0.0925 I0.0214 J0.
X-7.4852 Y7.0154 I0.0148 J0.0154
X-7.5148 Y6.9846 I-0.0148 J-0.0154
X-7.4997 Y6.9849 I0.0074 J0.0077
G1 X-7.4944 Y6.9904
X-7.4923 Y6.9925 Z-0.0922
X-7.4903 Y6.9946 Z-0.0913
X-7.4885 Y6.9965 Z-0.0899
X-7.4869 Y6.9982 Z-0.088
X-7.4856 Y6.9996 Z-0.0857
X-7.4846 Y7.0006 Z-0.083
X-7.484 Y7.0012 Z-0.0802
X-7.4838 Y7.0014 Z-0.0772
G0 Z0.4
X-7.5123 Y7.4893
Z0.0783
G1 Z0.0136 F40.
G18 G2 X-7.497 Z-0.0017 I0.0153 K0.
G1 X-7.4893
G17 G3 X-7.4786 Y7.5 I0. J0.0107
X-7.5214 Z-0.019 I-0.0214 J0.
X-7.4786 Z-0.0362 I0.0214 J0.
X-7.5214 Z-0.0535 I-0.0214 J0.
X-7.4786 Z-0.0708 I0.0214 J0.
X-7.5214 Z-0.0881 I-0.0214 J0.
X-7.5148 Y7.4846 Z-0.0925 I0.0214 J0.
X-7.4852 Y7.5154 I0.0148 J0.0154
X-7.5148 Y7.4846 I-0.0148 J-0.0154
X-7.4997 Y7.4849 I0.0074 J0.0077
G1 X-7.4944 Y7.4904
X-7.4923 Y7.4925 Z-0.0922
X-7.4903 Y7.4946 Z-0.0913
X-7.4885 Y7.4965 Z-0.0899
X-7.4869 Y7.4982 Z-0.088
X-7.4856 Y7.4996 Z-0.0857
X-7.4846 Y7.5006 Z-0.083
X-7.484 Y7.5012 Z-0.0802
X-7.4838 Y7.5014 Z-0.0772
G0 Z0.4
X-7.5123 Y7.9893
Z0.0783
G1 Z0.0136 F40.
G18 G2 X-7.497 Z-0.0017 I0.0153 K0.
G1 X-7.4893
G17 G3 X-7.4786 Y8. I0. J0.0107
X-7.5214 Z-0.019 I-0.0214 J0.
X-7.4786 Z-0.0362 I0.0214 J0.
X-7.5214 Z-0.0535 I-0.0214 J0.
X-7.4786 Z-0.0708 I0.0214 J0.
X-7.5214 Z-0.0881 I-0.0214 J0.
X-7.5148 Y7.9846 Z-0.0925 I0.0214 J0.
X-7.4852 Y8.0154 I0.0148 J0.0154
X-7.5148 Y7.9846 I-0.0148 J-0.0154
X-7.4997 Y7.9849 I0.0074 J0.0077
G1 X-7.4944 Y7.9904
X-7.4923 Y7.9925 Z-0.0922
X-7.4903 Y7.9946 Z-0.0913
X-7.4885 Y7.9965 Z-0.0899
X-7.4869 Y7.9982 Z-0.088
X-7.4856 Y7.9996 Z-0.0857
X-7.4846 Y8.0006 Z-0.083
X-7.484 Y8.0012 Z-0.0802
X-7.4838 Y8.0014 Z-0.0772
G0 Z0.4
X-6.5123 Y7.9893
Z0.0783
G1 Z0.0136 F40.
G18 G2 X-6.497 Z-0.0017 I0.0153 K0.
G1 X-6.4893
G17 G3 X-6.4786 Y8. I0. J0.0107
X-6.5214 Z-0.019 I-0.0214 J0.
X-6.4786 Z-0.0362 I0.0214 J0.
X-6.5214 Z-0.0535 I-0.0214 J0.
X-6.4786 Z-0.0708 I0.0214 J0.
X-6.5214 Z-0.0881 I-0.0214 J0.
X-6.5148 Y7.9846 Z-0.0925 I0.0214 J0.
X-6.4852 Y8.0154 I0.0148 J0.0154
X-6.5148 Y7.9846 I-0.0148 J-0.0154
X-6.4997 Y7.9849 I0.0074 J0.0077
G1 X-6.4944 Y7.9904
X-6.4923 Y7.9925 Z-0.0922
X-6.4903 Y7.9946 Z-0.0913
X-6.4885 Y7.9965 Z-0.0899
X-6.4869 Y7.9982 Z-0.088
X-6.4856 Y7.9996 Z-0.0857
X-6.4846 Y8.0006 Z-0.083
X-6.484 Y8.0012 Z-0.0802
X-6.4838 Y8.0014 Z-0.0772
G0 Z0.4
X-6.5123 Y7.4893
Z0.0783
G1 Z0.0136 F40.
G18 G2 X-6.497 Z-0.0017 I0.0153 K0.
G1 X-6.4893
G17 G3 X-6.4786 Y7.5 I0. J0.0107
X-6.5214 Z-0.019 I-0.0214 J0.
X-6.4786 Z-0.0362 I0.0214 J0.
X-6.5214 Z-0.0535 I-0.0214 J0.
X-6.4786 Z-0.0708 I0.0214 J0.
X-6.5214 Z-0.0881 I-0.0214 J0.
X-6.5148 Y7.4846 Z-0.0925 I0.0214 J0.
X-6.4852 Y7.5154 I0.0148 J0.0154
X-6.5148 Y7.4846 I-0.0148 J-0.0154
X-6.4997 Y7.4849 I0.0074 J0.0077
G1 X-6.4944 Y7.4904
X-6.4923 Y7.4925 Z-0.0922
X-6.4903 Y7.4946 Z-0.0913
X-6.4885 Y7.4965 Z-0.0899
X-6.4869 Y7.4982 Z-0.088
X-6.4856 Y7.4996 Z-0.0857
X-6.4846 Y7.5006 Z-0.083
X-6.484 Y7.5012 Z-0.0802
X-6.4838 Y7.5014 Z-0.0772
G0 Z0.4
X-6.5123 Y6.9893
Z0.0783
G1 Z0.0136 F40.
G18 G2 X-6.497 Z-0.0017 I0.0153 K0.
G1 X-6.4893
G17 G3 X-6.4786 Y7. I0. J0.0107
X-6.5214 Z-0.019 I-0.0214 J0.
X-6.4786 Z-0.0362 I0.0214 J0.
X-6.5214 Z-0.0535 I-0.0214 J0.
X-6.4786 Z-0.0708 I0.0214 J0.
X-6.5214 Z-0.0881 I-0.0214 J0.
X-6.5148 Y6.9846 Z-0.0925 I0.0214 J0.
X-6.4852 Y7.0154 I0.0148 J0.0154
X-6.5148 Y6.9846 I-0.0148 J-0.0154
X-6.4997 Y6.9849 I0.0074 J0.0077
G1 X-6.4944 Y6.9904
X-6.4923 Y6.9925 Z-0.0922
X-6.4903 Y6.9946 Z-0.0913
X-6.4885 Y6.9965 Z-0.0899
X-6.4869 Y6.9982 Z-0.088
X-6.4856 Y6.9996 Z-0.0857
X-6.4846 Y7.0006 Z-0.083
X-6.484 Y7.0012 Z-0.0802
X-6.4838 Y7.0014 Z-0.0772
G0 Z0.4
X-6.5123 Y5.9893
Z0.0783
G1 Z0.0136 F40.
G18 G2 X-6.497 Z-0.0017 I0.0153 K0.
G1 X-6.4893
G17 G3 X-6.4786 Y6. I0. J0.0107
X-6.5214 Z-0.019 I-0.0214 J0.
X-6.4786 Z-0.0362 I0.0214 J0.
X-6.5214 Z-0.0535 I-0.0214 J0.
X-6.4786 Z-0.0708 I0.0214 J0.
X-6.5214 Z-0.0881 I-0.0214 J0.
X-6.5148 Y5.9846 Z-0.0925 I0.0214 J0.
X-6.4852 Y6.0154 I0.0148 J0.0154
X-6.5148 Y5.9846 I-0.0148 J-0.0154
X-6.4997 Y5.9849 I0.0074 J0.0077
G1 X-6.4944 Y5.9904
X-6.4923 Y5.9925 Z-0.0922
X-6.4903 Y5.9946 Z-0.0913
X-6.4885 Y5.9965 Z-0.0899
X-6.4869 Y5.9982 Z-0.088
X-6.4856 Y5.9996 Z-0.0857
X-6.4846 Y6.0006 Z-0.083
X-6.484 Y6.0012 Z-0.0802
X-6.4838 Y6.0014 Z-0.0772
G0 Z0.4
X-6.5123 Y3.9893
Z0.0783
G1 Z0.0136 F40.
G18 G2 X-6.497 Z-0.0017 I0.0153 K0.
G1 X-6.4893
G17 G3 X-6.4786 Y4. I0. J0.0107
X-6.5214 Z-0.019 I-0.0214 J0.
X-6.4786 Z-0.0362 I0.0214 J0.
X-6.5214 Z-0.0535 I-0.0214 J0.
X-6.4786 Z-0.0708 I0.0214 J0.
X-6.5214 Z-0.0881 I-0.0214 J0.
X-6.5148 Y3.9846 Z-0.0925 I0.0214 J0.
X-6.4852 Y4.0154 I0.0148 J0.0154
X-6.5148 Y3.9846 I-0.0148 J-0.0154
X-6.4997 Y3.9849 I0.0074 J0.0077
G1 X-6.4944 Y3.9904
X-6.4923 Y3.9925 Z-0.0922
X-6.4903 Y3.9946 Z-0.0913
X-6.4885 Y3.9965 Z-0.0899
X-6.4869 Y3.9982 Z-0.088
X-6.4856 Y3.9996 Z-0.0857
X-6.4846 Y4.0006 Z-0.083
X-6.484 Y4.0012 Z-0.0802
X-6.4838 Y4.0014 Z-0.0772
G0 Z0.4
X-6.5123 Y1.9893
Z0.0783
G1 Z0.0136 F40.
G18 G2 X-6.497 Z-0.0017 I0.0153 K0.
G1 X-6.4893
G17 G3 X-6.4786 Y2. I0. J0.0107
X-6.5214 Z-0.019 I-0.0214 J0.
X-6.4786 Z-0.0362 I0.0214 J0.
X-6.5214 Z-0.0535 I-0.0214 J0.
X-6.4786 Z-0.0708 I0.0214 J0.
X-6.5214 Z-0.0881 I-0.0214 J0.
X-6.5148 Y1.9846 Z-0.0925 I0.0214 J0.
X-6.4852 Y2.0154 I0.0148 J0.0154
X-6.5148 Y1.9846 I-0.0148 J-0.0154
X-6.4997 Y1.9849 I0.0074 J0.0077
G1 X-6.4944 Y1.9904
X-6.4923 Y1.9925 Z-0.0922
X-6.4903 Y1.9946 Z-0.0913
X-6.4885 Y1.9965 Z-0.0899
X-6.4869 Y1.9982 Z-0.088
X-6.4856 Y1.9996 Z-0.0857
X-6.4846 Y2.0006 Z-0.083
X-6.484 Y2.0012 Z-0.0802
X-6.4838 Y2.0014 Z-0.0772
G0 Z0.4
X-6.5123 Y-0.0107
Z0.0783
G1 Z0.0136 F40.
G18 G2 X-6.497 Z-0.0017 I0.0153 K0.
G1 X-6.4893
G17 G3 X-6.4786 Y0. I0. J0.0107
X-6.5214 Z-0.019 I-0.0214 J0.
X-6.4786 Z-0.0362 I0.0214 J0.
X-6.5214 Z-0.0535 I-0.0214 J0.
X-6.4786 Z-0.0708 I0.0214 J0.
X-6.5214 Z-0.0881 I-0.0214 J0.
X-6.5148 Y-0.0154 Z-0.0925 I0.0214 J0.
X-6.4852 Y0.0154 I0.0148 J0.0154
X-6.5148 Y-0.0154 I-0.0148 J-0.0154
X-6.4997 Y-0.0151 I0.0074 J0.0077
G1 X-6.4944 Y-0.0096
X-6.4923 Y-0.0075 Z-0.0922
X-6.4903 Y-0.0054 Z-0.0913
X-6.4885 Y-0.0035 Z-0.0899
X-6.4869 Y-0.0018 Z-0.088
X-6.4856 Y-0.0004 Z-0.0857
X-6.4846 Y0.0006 Z-0.083
X-6.484 Y0.0012 Z-0.0802
X-6.4838 Y0.0014 Z-0.0772
G0 Z0.4
X-6.5123 Y-2.0107
Z0.0783
G1 Z0.0136 F40.
G18 G2 X-6.497 Z-0.0017 I0.0153 K0.
G1 X-6.4893
G17 G3 X-6.4786 Y-2. I0. J0.0107
X-6.5214 Z-0.019 I-0.0214 J0.
X-6.4786 Z-0.0362 I0.0214 J0.
X-6.5214 Z-0.0535 I-0.0214 J0.
X-6.4786 Z-0.0708 I0.0214 J0.
X-6.5214 Z-0.0881 I-0.0214 J0.
X-6.5148 Y-2.0154 Z-0.0925 I0.0214 J0.
X-6.4852 Y-1.9846 I0.0148 J0.0154
X-6.5148 Y-2.0154 I-0.0148 J-0.0154
X-6.4997 Y-2.0151 I0.0074 J0.0077
G1 X-6.4944 Y-2.0096
X-6.4923 Y-2.0075 Z-0.0922
X-6.4903 Y-2.0054 Z-0.0913
X-6.4885 Y-2.0035 Z-0.0899
X-6.4869 Y-2.0018 Z-0.088
X-6.4856 Y-2.0004 Z-0.0857
X-6.4846 Y-1.9994 Z-0.083
X-6.484 Y-1.9988 Z-0.0802
X-6.4838 Y-1.9986 Z-0.0772
G0 Z0.4
X-6.5123 Y-4.0107
Z0.0783
G1 Z0.0136 F40.
G18 G2 X-6.497 Z-0.0017 I0.0153 K0.
G1 X-6.4893
G17 G3 X-6.4786 Y-4. I0. J0.0107
X-6.5214 Z-0.019 I-0.0214 J0.
X-6.4786 Z-0.0362 I0.0214 J0.
X-6.5214 Z-0.0535 I-0.0214 J0.
X-6.4786 Z-0.0708 I0.0214 J0.
X-6.5214 Z-0.0881 I-0.0214 J0.
X-6.5148 Y-4.0154 Z-0.0925 I0.0214 J0.
X-6.4852 Y-3.9846 I0.0148 J0.0154
X-6.5148 Y-4.0154 I-0.0148 J-0.0154
X-6.4997 Y-4.0151 I0.0074 J0.0077
G1 X-6.4944 Y-4.0096
X-6.4923 Y-4.0075 Z-0.0922
X-6.4903 Y-4.0054 Z-0.0913
X-6.4885 Y-4.0035 Z-0.0899
X-6.4869 Y-4.0018 Z-0.088
X-6.4856 Y-4.0004 Z-0.0857
X-6.4846 Y-3.9994 Z-0.083
X-6.484 Y-3.9988 Z-0.0802
X-6.4838 Y-3.9986 Z-0.0772
G0 Z0.4
X-6.5123 Y-6.0107
Z0.0783
G1 Z0.0136 F40.
G18 G2 X-6.497 Z-0.0017 I0.0153 K0.
G1 X-6.4893
G17 G3 X-6.4786 Y-6. I0. J0.0107
X-6.5214 Z-0.019 I-0.0214 J0.
X-6.4786 Z-0.0362 I0.0214 J0.
X-6.5214 Z-0.0535 I-0.0214 J0.
X-6.4786 Z-0.0708 I0.0214 J0.
X-6.5214 Z-0.0881 I-0.0214 J0.
X-6.5148 Y-6.0154 Z-0.0925 I0.0214 J0.
X-6.4852 Y-5.9846 I0.0148 J0.0154
X-6.5148 Y-6.0154 I-0.0148 J-0.0154
X-6.4997 Y-6.0151 I0.0074 J0.0077
G1 X-6.4944 Y-6.0096
X-6.4923 Y-6.0075 Z-0.0922
X-6.4903 Y-6.0054 Z-0.0913
X-6.4885 Y-6.0035 Z-0.0899
X-6.4869 Y-6.0018 Z-0.088
X-6.4856 Y-6.0004 Z-0.0857
X-6.4846 Y-5.9994 Z-0.083
X-6.484 Y-5.9988 Z-0.0802
X-6.4838 Y-5.9986 Z-0.0772
G0 Z0.4
X-5.6127 Y-8.9893
Z0.0783
G1 Z0.0136 F40.
G18 G3 X-5.628 Z-0.0017 I-0.0153 K0.
G1 X-5.6357
G17 G3 X-5.6464 Y-9. I0. J-0.0107
X-5.6036 Z-0.019 I0.0214 J0.
X-5.6464 Z-0.0362 I-0.0214 J0.
X-5.6036 Z-0.0535 I0.0214 J0.
X-5.6464 Z-0.0708 I-0.0214 J0.
X-5.6036 Z-0.0881 I0.0214 J0.
X-5.6102 Y-8.9846 Z-0.0925 I-0.0214 J0.
X-5.6398 Y-9.0154 I-0.0148 J-0.0154
X-5.6102 Y-8.9846 I0.0148 J0.0154
X-5.6253 Y-8.9849 I-0.0074 J-0.0077
G1 X-5.6306 Y-8.9904
X-5.6327 Y-8.9925 Z-0.0922
X-5.6347 Y-8.9946 Z-0.0913
X-5.6365 Y-8.9965 Z-0.0899
X-5.6381 Y-8.9982 Z-0.088
X-5.6394 Y-8.9996 Z-0.0857
X-5.6404 Y-9.0006 Z-0.083
X-5.641 Y-9.0012 Z-0.0802
X-5.6412 Y-9.0014 Z-0.0772
G0 Z0.4
X-4.8873 Y-9.0107
Z0.0783
G1 Z0.0136 F40.
G18 G2 X-4.872 Z-0.0017 I0.0153 K0.
G1 X-4.8643
G17 G3 X-4.8536 Y-9. I0. J0.0107
X-4.8964 Z-0.019 I-0.0214 J0.
X-4.8536 Z-0.0362 I0.0214 J0.
X-4.8964 Z-0.0535 I-0.0214 J0.
X-4.8536 Z-0.0708 I0.0214 J0.
X-4.8964 Z-0.0881 I-0.0214 J0.
X-4.8898 Y-9.0154 Z-0.0925 I0.0214 J0.
X-4.8602 Y-8.9846 I0.0148 J0.0154
X-4.8898 Y-9.0154 I-0.0148 J-0.0154
X-4.8747 Y-9.0151 I0.0074 J0.0077
G1 X-4.8694 Y-9.0096
X-4.8673 Y-9.0075 Z-0.0922
X-4.8653 Y-9.0054 Z-0.0913
X-4.8635 Y-9.0035 Z-0.0899
X-4.8619 Y-9.0018 Z-0.088
X-4.8606 Y-9.0004 Z-0.0857
X-4.8596 Y-8.9994 Z-0.083
X-4.859 Y-8.9988 Z-0.0802
X-4.8588 Y-8.9986 Z-0.0772
G0 Z0.4
X-4.1373 Y-9.0107
Z0.0783
G1 Z0.0136 F40.
G18 G2 X-4.122 Z-0.0017 I0.0153 K0.
G1 X-4.1143
G17 G3 X-4.1036 Y-9. I0. J0.0107
X-4.1464 Z-0.019 I-0.0214 J0.
X-4.1036 Z-0.0362 I0.0214 J0.
X-4.1464 Z-0.0535 I-0.0214 J0.
X-4.1036 Z-0.0708 I0.0214 J0.
X-4.1464 Z-0.0881 I-0.0214 J0.
X-4.1398 Y-9.0154 Z-0.0925 I0.0214 J0.
X-4.1102 Y-8.9846 I0.0148 J0.0154
X-4.1398 Y-9.0154 I-0.0148 J-0.0154
X-4.1247 Y-9.0151 I0.0074 J0.0077
G1 X-4.1194 Y-9.0096
X-4.1173 Y-9.0075 Z-0.0922
X-4.1153 Y-9.0054 Z-0.0913
X-4.1135 Y-9.0035 Z-0.0899
X-4.1119 Y-9.0018 Z-0.088
X-4.1106 Y-9.0004 Z-0.0857
X-4.1096 Y-8.9994 Z-0.083
X-4.109 Y-8.9988 Z-0.0802
X-4.1088 Y-8.9986 Z-0.0772
G0 Z0.4
X4.2127 Y-12.1357
Z0.0783
G1 Z0.0136 F40.
G18 G2 X4.228 Z-0.0017 I0.0153 K0.
G1 X4.2357
G17 G3 X4.2464 Y-12.125 I0. J0.0107
X4.2036 Z-0.019 I-0.0214 J0.
X4.2464 Z-0.0362 I0.0214 J0.
X4.2036 Z-0.0535 I-0.0214 J0.
X4.2464 Z-0.0708 I0.0214 J0.
X4.2036 Z-0.0881 I-0.0214 J0.
X4.2102 Y-12.1404 Z-0.0925 I0.0214 J0.
X4.2398 Y-12.1096 I0.0148 J0.0154
X4.2102 Y-12.1404 I-0.0148 J-0.0154
X4.2253 Y-12.1401 I0.0074 J0.0077
G1 X4.2306 Y-12.1346
X4.2327 Y-12.1325 Z-0.0922
X4.2347 Y-12.1304 Z-0.0913
X4.2365 Y-12.1285 Z-0.0899
X4.2381 Y-12.1268 Z-0.088
X4.2394 Y-12.1254 Z-0.0857
X4.2404 Y-12.1244 Z-0.083
X4.241 Y-12.1238 Z-0.0802
X4.2412 Y-12.1236 Z-0.0772
G0 Z0.4
X4.7627 Y-12.1357
Z0.0783
G1 Z0.0136 F40.
G18 G2 X4.778 Z-0.0017 I0.0153 K0.
G1 X4.7857
G17 G3 X4.7964 Y-12.125 I0. J0.0107
X4.7536 Z-0.019 I-0.0214 J0.
X4.7964 Z-0.0362 I0.0214 J0.
X4.7536 Z-0.0535 I-0.0214 J0.
X4.7964 Z-0.0708 I0.0214 J0.
X4.7536 Z-0.0881 I-0.0214 J0.
X4.7602 Y-12.1404 Z-0.0925 I0.0214 J0.
X4.7898 Y-12.1096 I0.0148 J0.0154
X4.7602 Y-12.1404 I-0.0148 J-0.0154
X4.7753 Y-12.1401 I0.0074 J0.0077
G1 X4.7806 Y-12.1346
X4.7827 Y-12.1325 Z-0.0922
X4.7847 Y-12.1304 Z-0.0913
X4.7865 Y-12.1285 Z-0.0899
X4.7881 Y-12.1268 Z-0.088
X4.7894 Y-12.1254 Z-0.0857
X4.7904 Y-12.1244 Z-0.083
X4.791 Y-12.1238 Z-0.0802
X4.7912 Y-12.1236 Z-0.0772
G0 Z0.4
X4.7627 Y-11.3857
Z0.0783
G1 Z0.0136 F40.
G18 G2 X4.778 Z-0.0017 I0.0153 K0.
G1 X4.7857
G17 G3 X4.7964 Y-11.375 I0. J0.0107
X4.7536 Z-0.019 I-0.0214 J0.
X4.7964 Z-0.0362 I0.0214 J0.
X4.7536 Z-0.0535 I-0.0214 J0.
X4.7964 Z-0.0708 I0.0214 J0.
X4.7536 Z-0.0881 I-0.0214 J0.
X4.7602 Y-11.3904 Z-0.0925 I0.0214 J0.
X4.7898 Y-11.3596 I0.0148 J0.0154
X4.7602 Y-11.3904 I-0.0148 J-0.0154
X4.7753 Y-11.3901 I0.0074 J0.0077
G1 X4.7806 Y-11.3846
X4.7827 Y-11.3825 Z-0.0922
X4.7847 Y-11.3804 Z-0.0913
X4.7865 Y-11.3785 Z-0.0899
X4.7881 Y-11.3768 Z-0.088
X4.7894 Y-11.3754 Z-0.0857
X4.7904 Y-11.3744 Z-0.083
X4.791 Y-11.3738 Z-0.0802
X4.7912 Y-11.3736 Z-0.0772
G0 Z0.4
X4.2127 Y-11.3857
Z0.0783
G1 Z0.0136 F40.
G18 G2 X4.228 Z-0.0017 I0.0153 K0.
G1 X4.2357
G17 G3 X4.2464 Y-11.375 I0. J0.0107
X4.2036 Z-0.019 I-0.0214 J0.
X4.2464 Z-0.0362 I0.0214 J0.
X4.2036 Z-0.0535 I-0.0214 J0.
X4.2464 Z-0.0708 I0.0214 J0.
X4.2036 Z-0.0881 I-0.0214 J0.
X4.2102 Y-11.3904 Z-0.0925 I0.0214 J0.
X4.2398 Y-11.3596 I0.0148 J0.0154
X4.2102 Y-11.3904 I-0.0148 J-0.0154
X4.2253 Y-11.3901 I0.0074 J0.0077
G1 X4.2306 Y-11.3846
X4.2327 Y-11.3825 Z-0.0922
X4.2347 Y-11.3804 Z-0.0913
X4.2365 Y-11.3785 Z-0.0899
X4.2381 Y-11.3768 Z-0.088
X4.2394 Y-11.3754 Z-0.0857
X4.2404 Y-11.3744 Z-0.083
X4.241 Y-11.3738 Z-0.0802
X4.2412 Y-11.3736 Z-0.0772
G0 Z0.4
X4.2127 Y-10.6357
Z0.0783
G1 Z0.0136 F40.
G18 G2 X4.228 Z-0.0017 I0.0153 K0.
G1 X4.2357
G17 G3 X4.2464 Y-10.625 I0. J0.0107
X4.2036 Z-0.019 I-0.0214 J0.
X4.2464 Z-0.0362 I0.0214 J0.
X4.2036 Z-0.0535 I-0.0214 J0.
X4.2464 Z-0.0708 I0.0214 J0.
X4.2036 Z-0.0881 I-0.0214 J0.
X4.2102 Y-10.6404 Z-0.0925 I0.0214 J0.
X4.2398 Y-10.6096 I0.0148 J0.0154
X4.2102 Y-10.6404 I-0.0148 J-0.0154
X4.2253 Y-10.6401 I0.0074 J0.0077
G1 X4.2306 Y-10.6346
X4.2327 Y-10.6325 Z-0.0922
X4.2347 Y-10.6304 Z-0.0913
X4.2365 Y-10.6285 Z-0.0899
X4.2381 Y-10.6268 Z-0.088
X4.2394 Y-10.6254 Z-0.0857
X4.2404 Y-10.6244 Z-0.083
X4.241 Y-10.6238 Z-0.0802
X4.2412 Y-10.6236 Z-0.0772
G0 Z0.4
X4.7627 Y-10.6357
Z0.0783
G1 Z0.0136 F40.
G18 G2 X4.778 Z-0.0017 I0.0153 K0.
G1 X4.7857
G17 G3 X4.7964 Y-10.625 I0. J0.0107
X4.7536 Z-0.019 I-0.0214 J0.
X4.7964 Z-0.0362 I0.0214 J0.
X4.7536 Z-0.0535 I-0.0214 J0.
X4.7964 Z-0.0708 I0.0214 J0.
X4.7536 Z-0.0881 I-0.0214 J0.
X4.7602 Y-10.6404 Z-0.0925 I0.0214 J0.
X4.7898 Y-10.6096 I0.0148 J0.0154
X4.7602 Y-10.6404 I-0.0148 J-0.0154
X4.7753 Y-10.6401 I0.0074 J0.0077
G1 X4.7806 Y-10.6346
X4.7827 Y-10.6325 Z-0.0922
X4.7847 Y-10.6304 Z-0.0913
X4.7865 Y-10.6285 Z-0.0899
X4.7881 Y-10.6268 Z-0.088
X4.7894 Y-10.6254 Z-0.0857
X4.7904 Y-10.6244 Z-0.083
X4.791 Y-10.6238 Z-0.0802
X4.7912 Y-10.6236 Z-0.0772
G0 Z0.4
X4.7627 Y-9.8857
Z0.0783
G1 Z0.0136 F40.
G18 G2 X4.778 Z-0.0017 I0.0153 K0.
G1 X4.7857
G17 G3 X4.7964 Y-9.875 I0. J0.0107
X4.7536 Z-0.019 I-0.0214 J0.
X4.7964 Z-0.0362 I0.0214 J0.
X4.7536 Z-0.0535 I-0.0214 J0.
X4.7964 Z-0.0708 I0.0214 J0.
X4.7536 Z-0.0881 I-0.0214 J0.
X4.7602 Y-9.8904 Z-0.0925 I0.0214 J0.
X4.7898 Y-9.8596 I0.0148 J0.0154
X4.7602 Y-9.8904 I-0.0148 J-0.0154
X4.7753 Y-9.8901 I0.0074 J0.0077
G1 X4.7806 Y-9.8846
X4.7827 Y-9.8825 Z-0.0922
X4.7847 Y-9.8804 Z-0.0913
X4.7865 Y-9.8785 Z-0.0899
X4.7881 Y-9.8768 Z-0.088
X4.7894 Y-9.8754 Z-0.0857
X4.7904 Y-9.8744 Z-0.083
X4.791 Y-9.8738 Z-0.0802
X4.7912 Y-9.8736 Z-0.0772
G0 Z0.4
X4.2127 Y-9.8857
Z0.0783
G1 Z0.0136 F40.
G18 G2 X4.228 Z-0.0017 I0.0153 K0.
G1 X4.2357
G17 G3 X4.2464 Y-9.875 I0. J0.0107
X4.2036 Z-0.019 I-0.0214 J0.
X4.2464 Z-0.0362 I0.0214 J0.
X4.2036 Z-0.0535 I-0.0214 J0.
X4.2464 Z-0.0708 I0.0214 J0.
X4.2036 Z-0.0881 I-0.0214 J0.
X4.2102 Y-9.8904 Z-0.0925 I0.0214 J0.
X4.2398 Y-9.8596 I0.0148 J0.0154
X4.2102 Y-9.8904 I-0.0148 J-0.0154
X4.2253 Y-9.8901 I0.0074 J0.0077
G1 X4.2306 Y-9.8846
X4.2327 Y-9.8825 Z-0.0922
X4.2347 Y-9.8804 Z-0.0913
X4.2365 Y-9.8785 Z-0.0899
X4.2381 Y-9.8768 Z-0.088
X4.2394 Y-9.8754 Z-0.0857
X4.2404 Y-9.8744 Z-0.083
X4.241 Y-9.8738 Z-0.0802
X4.2412 Y-9.8736 Z-0.0772
G0 Z0.4
X4.1373 Y-8.9893
Z0.0783
G1 Z0.0136 F40.
G18 G3 X4.122 Z-0.0017 I-0.0153 K0.
G1 X4.1143
G17 G3 X4.1036 Y-9. I0. J-0.0107
X4.1464 Z-0.019 I0.0214 J0.
X4.1036 Z-0.0362 I-0.0214 J0.
X4.1464 Z-0.0535 I0.0214 J0.
X4.1036 Z-0.0708 I-0.0214 J0.
X4.1464 Z-0.0881 I0.0214 J0.
X4.1398 Y-8.9846 Z-0.0925 I-0.0214 J0.
X4.1102 Y-9.0154 I-0.0148 J-0.0154
X4.1398 Y-8.9846 I0.0148 J0.0154
X4.1247 Y-8.9849 I-0.0074 J-0.0077
G1 X4.1194 Y-8.9904
X4.1173 Y-8.9925 Z-0.0922
X4.1153 Y-8.9946 Z-0.0913
X4.1135 Y-8.9965 Z-0.0899
X4.1119 Y-8.9982 Z-0.088
X4.1106 Y-8.9996 Z-0.0857
X4.1096 Y-9.0006 Z-0.083
X4.109 Y-9.0012 Z-0.0802
X4.1088 Y-9.0014 Z-0.0772
G0 Z0.4
X4.8873 Y-8.9893
Z0.0783
G1 Z0.0136 F40.
G18 G3 X4.872 Z-0.0017 I-0.0153 K0.
G1 X4.8643
G17 G3 X4.8536 Y-9. I0. J-0.0107
X4.8964 Z-0.019 I0.0214 J0.
X4.8536 Z-0.0362 I-0.0214 J0.
X4.8964 Z-0.0535 I0.0214 J0.
X4.8536 Z-0.0708 I-0.0214 J0.
X4.8964 Z-0.0881 I0.0214 J0.
X4.8898 Y-8.9846 Z-0.0925 I-0.0214 J0.
X4.8602 Y-9.0154 I-0.0148 J-0.0154
X4.8898 Y-8.9846 I0.0148 J0.0154
X4.8747 Y-8.9849 I-0.0074 J-0.0077
G1 X4.8694 Y-8.9904
X4.8673 Y-8.9925 Z-0.0922
X4.8653 Y-8.9946 Z-0.0913
X4.8635 Y-8.9965 Z-0.0899
X4.8619 Y-8.9982 Z-0.088
X4.8606 Y-8.9996 Z-0.0857
X4.8596 Y-9.0006 Z-0.083
X4.859 Y-9.0012 Z-0.0802
X4.8588 Y-9.0014 Z-0.0772
G0 Z0.4
X5.6127 Y-9.0107
Z0.0783
G1 Z0.0136 F40.
G18 G2 X5.628 Z-0.0017 I0.0153 K0.
G1 X5.6357
G17 G3 X5.6464 Y-9. I0. J0.0107
X5.6036 Z-0.019 I-0.0214 J0.
X5.6464 Z-0.0362 I0.0214 J0.
X5.6036 Z-0.0535 I-0.0214 J0.
X5.6464 Z-0.0708 I0.0214 J0.
X5.6036 Z-0.0881 I-0.0214 J0.
X5.6102 Y-9.0154 Z-0.0925 I0.0214 J0.
X5.6398 Y-8.9846 I0.0148 J0.0154
X5.6102 Y-9.0154 I-0.0148 J-0.0154
X5.6253 Y-9.0151 I0.0074 J0.0077
G1 X5.6306 Y-9.0096
X5.6327 Y-9.0075 Z-0.0922
X5.6347 Y-9.0054 Z-0.0913
X5.6365 Y-9.0035 Z-0.0899
X5.6381 Y-9.0018 Z-0.088
X5.6394 Y-9.0004 Z-0.0857
X5.6404 Y-8.9994 Z-0.083
X5.641 Y-8.9988 Z-0.0802
X5.6412 Y-8.9986 Z-0.0772
G0 Z0.4
X6.3873 Y-8.9893
Z0.0783
G1 Z0.0136 F40.
G18 G3 X6.372 Z-0.0017 I-0.0153 K0.
G1 X6.3643
G17 G3 X6.3536 Y-9. I0. J-0.0107
X6.3964 Z-0.019 I0.0214 J0.
X6.3536 Z-0.0362 I-0.0214 J0.
X6.3964 Z-0.0535 I0.0214 J0.
X6.3536 Z-0.0708 I-0.0214 J0.
X6.3964 Z-0.0881 I0.0214 J0.
X6.3898 Y-8.9846 Z-0.0925 I-0.0214 J0.
X6.3602 Y-9.0154 I-0.0148 J-0.0154
X6.3898 Y-8.9846 I0.0148 J0.0154
X6.3747 Y-8.9849 I-0.0074 J-0.0077
G1 X6.3694 Y-8.9904
X6.3673 Y-8.9925 Z-0.0922
X6.3653 Y-8.9946 Z-0.0913
X6.3635 Y-8.9965 Z-0.0899
X6.3619 Y-8.9982 Z-0.088
X6.3606 Y-8.9996 Z-0.0857
X6.3596 Y-9.0006 Z-0.083
X6.359 Y-9.0012 Z-0.0802
X6.3588 Y-9.0014 Z-0.0772
G0 Z0.4
X7.1127 Y-9.0107
Z0.0783
G1 Z0.0136 F40.
G18 G2 X7.128 Z-0.0017 I0.0153 K0.
G1 X7.1357
G17 G3 X7.1464 Y-9. I0. J0.0107
X7.1036 Z-0.019 I-0.0214 J0.
X7.1464 Z-0.0362 I0.0214 J0.
X7.1036 Z-0.0535 I-0.0214 J0.
X7.1464 Z-0.0708 I0.0214 J0.
X7.1036 Z-0.0881 I-0.0214 J0.
X7.1102 Y-9.0154 Z-0.0925 I0.0214 J0.
X7.1398 Y-8.9846 I0.0148 J0.0154
X7.1102 Y-9.0154 I-0.0148 J-0.0154
X7.1253 Y-9.0151 I0.0074 J0.0077
G1 X7.1306 Y-9.0096
X7.1327 Y-9.0075 Z-0.0922
X7.1347 Y-9.0054 Z-0.0913
X7.1365 Y-9.0035 Z-0.0899
X7.1381 Y-9.0018 Z-0.088
X7.1394 Y-9.0004 Z-0.0857
X7.1404 Y-8.9994 Z-0.083
X7.141 Y-8.9988 Z-0.0802
X7.1412 Y-8.9986 Z-0.0772
G0 Z0.4
X7.8873 Y-8.9893
Z0.0783
G1 Z0.0136 F40.
G18 G3 X7.872 Z-0.0017 I-0.0153 K0.
G1 X7.8643
G17 G3 X7.8536 Y-9. I0. J-0.0107
X7.8964 Z-0.019 I0.0214 J0.
X7.8536 Z-0.0362 I-0.0214 J0.
X7.8964 Z-0.0535 I0.0214 J0.
X7.8536 Z-0.0708 I-0.0214 J0.
X7.8964 Z-0.0881 I0.0214 J0.
X7.8898 Y-8.9846 Z-0.0925 I-0.0214 J0.
X7.8602 Y-9.0154 I-0.0148 J-0.0154
X7.8898 Y-8.9846 I0.0148 J0.0154
X7.8747 Y-8.9849 I-0.0074 J-0.0077
G1 X7.8694 Y-8.9904
X7.8673 Y-8.9925 Z-0.0922
X7.8653 Y-8.9946 Z-0.0913
X7.8635 Y-8.9965 Z-0.0899
X7.8619 Y-8.9982 Z-0.088
X7.8606 Y-8.9996 Z-0.0857
X7.8596 Y-9.0006 Z-0.083
X7.859 Y-9.0012 Z-0.0802
X7.8588 Y-9.0014 Z-0.0772
G0 Z0.4
X8.6127 Y-9.0107
Z0.0783
G1 Z0.0136 F40.
G18 G2 X8.628 Z-0.0017 I0.0153 K0.
G1 X8.6357
G17 G3 X8.6464 Y-9. I0. J0.0107
X8.6036 Z-0.019 I-0.0214 J0.
X8.6464 Z-0.0362 I0.0214 J0.
X8.6036 Z-0.0535 I-0.0214 J0.
X8.6464 Z-0.0708 I0.0214 J0.
X8.6036 Z-0.0881 I-0.0214 J0.
X8.6102 Y-9.0154 Z-0.0925 I0.0214 J0.
X8.6398 Y-8.9846 I0.0148 J0.0154
X8.6102 Y-9.0154 I-0.0148 J-0.0154
X8.6253 Y-9.0151 I0.0074 J0.0077
G1 X8.6306 Y-9.0096
X8.6327 Y-9.0075 Z-0.0922
X8.6347 Y-9.0054 Z-0.0913
X8.6365 Y-9.0035 Z-0.0899
X8.6381 Y-9.0018 Z-0.088
X8.6394 Y-9.0004 Z-0.0857
X8.6404 Y-8.9994 Z-0.083
X8.641 Y-8.9988 Z-0.0802
X8.6412 Y-8.9986 Z-0.0772
G0 Z0.4
X9.3627 Y-9.0107
Z0.0783
G1 Z0.0136 F40.
G18 G2 X9.378 Z-0.0017 I0.0153 K0.
G1 X9.3857
G17 G3 X9.3964 Y-9. I0. J0.0107
X9.3536 Z-0.019 I-0.0214 J0.
X9.3964 Z-0.0362 I0.0214 J0.
X9.3536 Z-0.0535 I-0.0214 J0.
X9.3964 Z-0.0708 I0.0214 J0.
X9.3536 Z-0.0881 I-0.0214 J0.
X9.3602 Y-9.0154 Z-0.0925 I0.0214 J0.
X9.3898 Y-8.9846 I0.0148 J0.0154
X9.3602 Y-9.0154 I-0.0148 J-0.0154
X9.3753 Y-9.0151 I0.0074 J0.0077
G1 X9.3806 Y-9.0096
X9.3827 Y-9.0075 Z-0.0922
X9.3847 Y-9.0054 Z-0.0913
X9.3865 Y-9.0035 Z-0.0899
X9.3881 Y-9.0018 Z-0.088
X9.3894 Y-9.0004 Z-0.0857
X9.3904 Y-8.9994 Z-0.083
X9.391 Y-8.9988 Z-0.0802
X9.3912 Y-8.9986 Z-0.0772
G0 Z0.4
X10.1127 Y-9.0107
Z0.0783
G1 Z0.0136 F40.
G18 G2 X10.128 Z-0.0017 I0.0153 K0.
G1 X10.1357
G17 G3 X10.1464 Y-9. I0. J0.0107
X10.1036 Z-0.019 I-0.0214 J0.
X10.1464 Z-0.0362 I0.0214 J0.
X10.1166 Y-8.9803 Z-0.0471 I-0.0214 J0.
X10.1334 Y-9.0197 Z-0.0644 I0.0084 J-0.0197
X10.1166 Y-8.9803 Z-0.0816 I-0.0084 J0.0197
X10.1102 Y-9.0154 Z-0.0925 I0.0084 J-0.0197
X10.1398 Y-8.9846 I0.0148 J0.0154
X10.1102 Y-9.0154 I-0.0148 J-0.0154
X10.1253 Y-9.0151 I0.0074 J0.0077
G1 X10.1306 Y-9.0096
X10.1327 Y-9.0075 Z-0.0922
X10.1347 Y-9.0054 Z-0.0913
X10.1365 Y-9.0035 Z-0.0899
X10.1381 Y-9.0018 Z-0.088
X10.1394 Y-9.0004 Z-0.0857
X10.1404 Y-8.9994 Z-0.083
X10.141 Y-8.9988 Z-0.0802
X10.1412 Y-8.9986 Z-0.0772
G0 Z0.4
X10.8873 Y-8.9893
Z0.0783
G1 Z0.0136 F40.
G18 G3 X10.872 Z-0.0017 I-0.0153 K0.
G1 X10.8643
G17 G3 X10.8536 Y-9. I0. J-0.0107
X10.8964 Z-0.019 I0.0214 J0.
X10.8536 Z-0.0362 I-0.0214 J0.
X10.8964 Z-0.0535 I0.0214 J0.
X10.8536 Z-0.0708 I-0.0214 J0.
X10.8964 Z-0.0881 I0.0214 J0.
X10.8898 Y-8.9846 Z-0.0925 I-0.0214 J0.
X10.8602 Y-9.0154 I-0.0148 J-0.0154
X10.8898 Y-8.9846 I0.0148 J0.0154
X10.8747 Y-8.9849 I-0.0074 J-0.0077
G1 X10.8694 Y-8.9904
X10.8673 Y-8.9925 Z-0.0922
X10.8653 Y-8.9946 Z-0.0913
X10.8635 Y-8.9965 Z-0.0899
X10.8619 Y-8.9982 Z-0.088
X10.8606 Y-8.9996 Z-0.0857
X10.8596 Y-9.0006 Z-0.083
X10.859 Y-9.0012 Z-0.0802
X10.8588 Y-9.0014 Z-0.0772
G0 Z0.4
X14.6127 Y-9.0107
Z0.0783
G1 Z0.0136 F40.
G18 G2 X14.628 Z-0.0017 I0.0153 K0.
G1 X14.6357
G17 G3 X14.6464 Y-9. I0. J0.0107
X14.6036 Z-0.019 I-0.0214 J0.
X14.6132 Y-9.0179 Z-0.0244 I0.0214 J0.
X14.6368 Y-8.9821 Z-0.0417 I0.0118 J0.0179
X14.6132 Y-9.0179 Z-0.0589 I-0.0118 J-0.0179
X14.6368 Y-8.9821 Z-0.0762 I0.0118 J0.0179
X14.6102 Y-9.0154 Z-0.0925 I-0.0118 J-0.0179
X14.6398 Y-8.9846 I0.0148 J0.0154
X14.6102 Y-9.0154 I-0.0148 J-0.0154
X14.6253 Y-9.0151 I0.0074 J0.0077
G1 X14.6306 Y-9.0096
X14.6327 Y-9.0075 Z-0.0922
X14.6347 Y-9.0054 Z-0.0913
X14.6365 Y-9.0035 Z-0.0899
X14.6381 Y-9.0018 Z-0.088
X14.6394 Y-9.0004 Z-0.0857
X14.6404 Y-8.9994 Z-0.083
X14.641 Y-8.9988 Z-0.0802
X14.6412 Y-8.9986 Z-0.0772
G0 Z0.4
X15.2377 Y-8.2607
Z0.0783
G1 Z0.0136 F40.
G18 G2 X15.253 Z-0.0017 I0.0153 K0.
G1 X15.2607
G17 G3 X15.2714 Y-8.25 I0. J0.0107
X15.2286 Z-0.019 I-0.0214 J0.
X15.2382 Y-8.2679 Z-0.0244 I0.0214 J0.
X15.2618 Y-8.2321 Z-0.0417 I0.0118 J0.0179
X15.2382 Y-8.2679 Z-0.0589 I-0.0118 J-0.0179
X15.2618 Y-8.2321 Z-0.0762 I0.0118 J0.0179
X15.2352 Y-8.2654 Z-0.0925 I-0.0118 J-0.0179
X15.2648 Y-8.2346 I0.0148 J0.0154
X15.2352 Y-8.2654 I-0.0148 J-0.0154
X15.2503 Y-8.2651 I0.0074 J0.0077
G1 X15.2556 Y-8.2596
X15.2577 Y-8.2575 Z-0.0922
X15.2597 Y-8.2554 Z-0.0913
X15.2615 Y-8.2535 Z-0.0899
X15.2631 Y-8.2518 Z-0.088
X15.2644 Y-8.2504 Z-0.0857
X15.2654 Y-8.2494 Z-0.083
X15.266 Y-8.2488 Z-0.0802
X15.2662 Y-8.2486 Z-0.0772
G0 Z0.4
X15.2377 Y-7.5107
Z0.0783
G1 Z0.0136 F40.
G18 G2 X15.253 Z-0.0017 I0.0153 K0.
G1 X15.2607
G17 G3 X15.2714 Y-7.5 I0. J0.0107
X15.2286 Z-0.019 I-0.0214 J0.
X15.2382 Y-7.5179 Z-0.0244 I0.0214 J0.
X15.2618 Y-7.4821 Z-0.0417 I0.0118 J0.0179
X15.2382 Y-7.5179 Z-0.0589 I-0.0118 J-0.0179
X15.2618 Y-7.4821 Z-0.0762 I0.0118 J0.0179
X15.2352 Y-7.5154 Z-0.0925 I-0.0118 J-0.0179
X15.2648 Y-7.4846 I0.0148 J0.0154
X15.2352 Y-7.5154 I-0.0148 J-0.0154
X15.2503 Y-7.5151 I0.0074 J0.0077
G1 X15.2556 Y-7.5096
X15.2577 Y-7.5075 Z-0.0922
X15.2597 Y-7.5054 Z-0.0913
X15.2615 Y-7.5035 Z-0.0899
X15.2631 Y-7.5018 Z-0.088
X15.2644 Y-7.5004 Z-0.0857
X15.2654 Y-7.4994 Z-0.083
X15.266 Y-7.4988 Z-0.0802
X15.2662 Y-7.4986 Z-0.0772
G0 Z0.4
X15.2377 Y-6.7607
Z0.0783
G1 Z0.0136 F40.
G18 G2 X15.253 Z-0.0017 I0.0153 K0.
G1 X15.2607
G17 G3 X15.2714 Y-6.75 I0. J0.0107
X15.2286 Z-0.019 I-0.0214 J0.
X15.2382 Y-6.7679 Z-0.0244 I0.0214 J0.
X15.2618 Y-6.7321 Z-0.0417 I0.0118 J0.0179
X15.2382 Y-6.7679 Z-0.0589 I-0.0118 J-0.0179
X15.2618 Y-6.7321 Z-0.0762 I0.0118 J0.0179
X15.2352 Y-6.7654 Z-0.0925 I-0.0118 J-0.0179
X15.2648 Y-6.7346 I0.0148 J0.0154
X15.2352 Y-6.7654 I-0.0148 J-0.0154
X15.2503 Y-6.7651 I0.0074 J0.0077
G1 X15.2556 Y-6.7596
X15.2577 Y-6.7575 Z-0.0922
X15.2597 Y-6.7554 Z-0.0913
X15.2615 Y-6.7535 Z-0.0899
X15.2631 Y-6.7518 Z-0.088
X15.2644 Y-6.7504 Z-0.0857
X15.2654 Y-6.7494 Z-0.083
X15.266 Y-6.7488 Z-0.0802
X15.2662 Y-6.7486 Z-0.0772
G0 Z0.4
X15.2377 Y-6.0107
Z0.0783
G1 Z0.0136 F40.
G18 G2 X15.253 Z-0.0017 I0.0153 K0.
G1 X15.2607
G17 G3 X15.2714 Y-6. I0. J0.0107
X15.2286 Z-0.019 I-0.0214 J0.
X15.2382 Y-6.0179 Z-0.0244 I0.0214 J0.
X15.2618 Y-5.9821 Z-0.0417 I0.0118 J0.0179
X15.2382 Y-6.0179 Z-0.0589 I-0.0118 J-0.0179
X15.2618 Y-5.9821 Z-0.0762 I0.0118 J0.0179
X15.2352 Y-6.0154 Z-0.0925 I-0.0118 J-0.0179
X15.2648 Y-5.9846 I0.0148 J0.0154
X15.2352 Y-6.0154 I-0.0148 J-0.0154
X15.2503 Y-6.0151 I0.0074 J0.0077
G1 X15.2556 Y-6.0096
X15.2577 Y-6.0075 Z-0.0922
X15.2597 Y-6.0054 Z-0.0913
X15.2615 Y-6.0035 Z-0.0899
X15.2631 Y-6.0018 Z-0.088
X15.2644 Y-6.0004 Z-0.0857
X15.2654 Y-5.9994 Z-0.083
X15.266 Y-5.9988 Z-0.0802
X15.2662 Y-5.9986 Z-0.0772
G0 Z0.4
X15.2377 Y-5.2607
Z0.0783
G1 Z0.0136 F40.
G18 G2 X15.253 Z-0.0017 I0.0153 K0.
G1 X15.2607
G17 G3 X15.2714 Y-5.25 I0. J0.0107
X15.2286 Z-0.019 I-0.0214 J0.
X15.2382 Y-5.2679 Z-0.0244 I0.0214 J0.
X15.2618 Y-5.2321 Z-0.0417 I0.0118 J0.0179
X15.2382 Y-5.2679 Z-0.0589 I-0.0118 J-0.0179
X15.2618 Y-5.2321 Z-0.0762 I0.0118 J0.0179
X15.2352 Y-5.2654 Z-0.0925 I-0.0118 J-0.0179
X15.2648 Y-5.2346 I0.0148 J0.0154
X15.2352 Y-5.2654 I-0.0148 J-0.0154
X15.2503 Y-5.2651 I0.0074 J0.0077
G1 X15.2556 Y-5.2596
X15.2577 Y-5.2575 Z-0.0922
X15.2597 Y-5.2554 Z-0.0913
X15.2615 Y-5.2535 Z-0.0899
X15.2631 Y-5.2518 Z-0.088
X15.2644 Y-5.2504 Z-0.0857
X15.2654 Y-5.2494 Z-0.083
X15.266 Y-5.2488 Z-0.0802
X15.2662 Y-5.2486 Z-0.0772
G0 Z0.4
X15.2377 Y-4.5107
Z0.0783
G1 Z0.0136 F40.
G18 G2 X15.253 Z-0.0017 I0.0153 K0.
G1 X15.2607
G17 G3 X15.2714 Y-4.5 I0. J0.0107
X15.2286 Z-0.019 I-0.0214 J0.
X15.2714 Z-0.0362 I0.0214 J0.
X15.2286 Z-0.0535 I-0.0214 J0.
X15.2714 Z-0.0708 I0.0214 J0.
X15.2286 Z-0.0881 I-0.0214 J0.
X15.2352 Y-4.5154 Z-0.0925 I0.0214 J0.
X15.2648 Y-4.4846 I0.0148 J0.0154
X15.2352 Y-4.5154 I-0.0148 J-0.0154
X15.2503 Y-4.5151 I0.0074 J0.0077
G1 X15.2556 Y-4.5096
X15.2577 Y-4.5075 Z-0.0922
X15.2597 Y-4.5054 Z-0.0913
X15.2615 Y-4.5035 Z-0.0899
X15.2631 Y-4.5018 Z-0.088
X15.2644 Y-4.5004 Z-0.0857
X15.2654 Y-4.4994 Z-0.083
X15.266 Y-4.4988 Z-0.0802
X15.2662 Y-4.4986 Z-0.0772
G0 Z0.4
X15.2377 Y-3.7607
Z0.0783
G1 Z0.0136 F40.
G18 G2 X15.253 Z-0.0017 I0.0153 K0.
G1 X15.2607
G17 G3 X15.2714 Y-3.75 I0. J0.0107
X15.2286 Z-0.019 I-0.0214 J0.
X15.2382 Y-3.7679 Z-0.0244 I0.0214 J0.
X15.2618 Y-3.7321 Z-0.0417 I0.0118 J0.0179
X15.2382 Y-3.7679 Z-0.0589 I-0.0118 J-0.0179
X15.2618 Y-3.7321 Z-0.0762 I0.0118 J0.0179
X15.2352 Y-3.7654 Z-0.0925 I-0.0118 J-0.0179
X15.2648 Y-3.7346 I0.0148 J0.0154
X15.2352 Y-3.7654 I-0.0148 J-0.0154
X15.2503 Y-3.7651 I0.0074 J0.0077
G1 X15.2556 Y-3.7596
X15.2577 Y-3.7575 Z-0.0922
X15.2597 Y-3.7554 Z-0.0913
X15.2615 Y-3.7535 Z-0.0899
X15.2631 Y-3.7518 Z-0.088
X15.2644 Y-3.7504 Z-0.0857
X15.2654 Y-3.7494 Z-0.083
X15.266 Y-3.7488 Z-0.0802
X15.2662 Y-3.7486 Z-0.0772
G0 Z0.4
X15.2377 Y-3.0107
Z0.0783
G1 Z0.0136 F40.
G18 G2 X15.253 Z-0.0017 I0.0153 K0.
G1 X15.2607
G17 G3 X15.2714 Y-3. I0. J0.0107
X15.2286 Z-0.019 I-0.0214 J0.
X15.2714 Z-0.0362 I0.0214 J0.
X15.2286 Z-0.0535 I-0.0214 J0.
X15.2714 Z-0.0708 I0.0214 J0.
X15.2286 Z-0.0881 I-0.0214 J0.
X15.2352 Y-3.0154 Z-0.0925 I0.0214 J0.
X15.2648 Y-2.9846 I0.0148 J0.0154
X15.2352 Y-3.0154 I-0.0148 J-0.0154
X15.2503 Y-3.0151 I0.0074 J0.0077
G1 X15.2556 Y-3.0096
X15.2577 Y-3.0075 Z-0.0922
X15.2597 Y-3.0054 Z-0.0913
X15.2615 Y-3.0035 Z-0.0899
X15.2631 Y-3.0018 Z-0.088
X15.2644 Y-3.0004 Z-0.0857
X15.2654 Y-2.9994 Z-0.083
X15.266 Y-2.9988 Z-0.0802
X15.2662 Y-2.9986 Z-0.0772
G0 Z0.4
X15.2377 Y-2.2607
Z0.0783
G1 Z0.0136 F40.
G18 G2 X15.253 Z-0.0017 I0.0153 K0.
G1 X15.2607
G17 G3 X15.2714 Y-2.25 I0. J0.0107
X15.2286 Z-0.019 I-0.0214 J0.
X15.2382 Y-2.2679 Z-0.0244 I0.0214 J0.
X15.2618 Y-2.2321 Z-0.0417 I0.0118 J0.0179
X15.2382 Y-2.2679 Z-0.0589 I-0.0118 J-0.0179
X15.2618 Y-2.2321 Z-0.0762 I0.0118 J0.0179
X15.2352 Y-2.2654 Z-0.0925 I-0.0118 J-0.0179
X15.2648 Y-2.2346 I0.0148 J0.0154
X15.2352 Y-2.2654 I-0.0148 J-0.0154
X15.2503 Y-2.2651 I0.0074 J0.0077
G1 X15.2556 Y-2.2596
X15.2577 Y-2.2575 Z-0.0922
X15.2597 Y-2.2554 Z-0.0913
X15.2615 Y-2.2535 Z-0.0899
X15.2631 Y-2.2518 Z-0.088
X15.2644 Y-2.2504 Z-0.0857
X15.2654 Y-2.2494 Z-0.083
X15.266 Y-2.2488 Z-0.0802
X15.2662 Y-2.2486 Z-0.0772
G0 Z0.4
X15.2377 Y-1.5107
Z0.0783
G1 Z0.0136 F40.
G18 G2 X15.253 Z-0.0017 I0.0153 K0.
G1 X15.2607
G17 G3 X15.2714 Y-1.5 I0. J0.0107
X15.2286 Z-0.019 I-0.0214 J0.
X15.2714 Z-0.0362 I0.0214 J0.
X15.2286 Z-0.0535 I-0.0214 J0.
X15.2714 Z-0.0708 I0.0214 J0.
X15.2286 Z-0.0881 I-0.0214 J0.
X15.2352 Y-1.5154 Z-0.0925 I0.0214 J0.
X15.2648 Y-1.4846 I0.0148 J0.0154
X15.2352 Y-1.5154 I-0.0148 J-0.0154
X15.2503 Y-1.5151 I0.0074 J0.0077
G1 X15.2556 Y-1.5096
X15.2577 Y-1.5075 Z-0.0922
X15.2597 Y-1.5054 Z-0.0913
X15.2615 Y-1.5035 Z-0.0899
X15.2631 Y-1.5018 Z-0.088
X15.2644 Y-1.5004 Z-0.0857
X15.2654 Y-1.4994 Z-0.083
X15.266 Y-1.4988 Z-0.0802
X15.2662 Y-1.4986 Z-0.0772
G0 Z0.4
X15.2377 Y-0.7607
Z0.0783
G1 Z0.0136 F40.
G18 G2 X15.253 Z-0.0017 I0.0153 K0.
G1 X15.2607
G17 G3 X15.2714 Y-0.75 I0. J0.0107
X15.2286 Z-0.019 I-0.0214 J0.
X15.2714 Z-0.0362 I0.0214 J0.
X15.2286 Z-0.0535 I-0.0214 J0.
X15.2714 Z-0.0708 I0.0214 J0.
X15.2286 Z-0.0881 I-0.0214 J0.
X15.2352 Y-0.7654 Z-0.0925 I0.0214 J0.
X15.2648 Y-0.7346 I0.0148 J0.0154
X15.2352 Y-0.7654 I-0.0148 J-0.0154
X15.2503 Y-0.7651 I0.0074 J0.0077
G1 X15.2556 Y-0.7596
X15.2577 Y-0.7575 Z-0.0922
X15.2597 Y-0.7554 Z-0.0913
X15.2615 Y-0.7535 Z-0.0899
X15.2631 Y-0.7518 Z-0.088
X15.2644 Y-0.7504 Z-0.0857
X15.2654 Y-0.7494 Z-0.083
X15.266 Y-0.7488 Z-0.0802
X15.2662 Y-0.7486 Z-0.0772
G0 Z0.4
X15.2377 Y-0.0107
Z0.0783
G1 Z0.0136 F40.
G18 G2 X15.253 Z-0.0017 I0.0153 K0.
G1 X15.2607
G17 G3 X15.2714 Y0. I0. J0.0107
X15.2286 Z-0.019 I-0.0214 J0.
X15.2382 Y-0.0179 Z-0.0244 I0.0214 J0.
X15.2618 Y0.0179 Z-0.0417 I0.0118 J0.0179
X15.2382 Y-0.0179 Z-0.0589 I-0.0118 J-0.0179
X15.2618 Y0.0179 Z-0.0762 I0.0118 J0.0179
X15.2352 Y-0.0154 Z-0.0925 I-0.0118 J-0.0179
X15.2648 Y0.0154 I0.0148 J0.0154
X15.2352 Y-0.0154 I-0.0148 J-0.0154
X15.2503 Y-0.0151 I0.0074 J0.0077
G1 X15.2556 Y-0.0096
X15.2577 Y-0.0075 Z-0.0922
X15.2597 Y-0.0054 Z-0.0913
X15.2615 Y-0.0035 Z-0.0899
X15.2631 Y-0.0018 Z-0.088
X15.2644 Y-0.0004 Z-0.0857
X15.2654 Y0.0006 Z-0.083
X15.266 Y0.0012 Z-0.0802
X15.2662 Y0.0014 Z-0.0772
G0 Z0.4
X15.2377 Y0.7393
Z0.0783
G1 Z0.0136 F40.
G18 G2 X15.253 Z-0.0017 I0.0153 K0.
G1 X15.2607
G17 G3 X15.2714 Y0.75 I0. J0.0107
X15.2286 Z-0.019 I-0.0214 J0.
X15.2382 Y0.7321 Z-0.0244 I0.0214 J0.
X15.2618 Y0.7679 Z-0.0417 I0.0118 J0.0179
X15.2382 Y0.7321 Z-0.0589 I-0.0118 J-0.0179
X15.2618 Y0.7679 Z-0.0762 I0.0118 J0.0179
X15.2352 Y0.7346 Z-0.0925 I-0.0118 J-0.0179
X15.2648 Y0.7654 I0.0148 J0.0154
X15.2352 Y0.7346 I-0.0148 J-0.0154
X15.2503 Y0.7349 I0.0074 J0.0077
G1 X15.2556 Y0.7404
X15.2577 Y0.7425 Z-0.0922
X15.2597 Y0.7446 Z-0.0913
X15.2615 Y0.7465 Z-0.0899
X15.2631 Y0.7482 Z-0.088
X15.2644 Y0.7496 Z-0.0857
X15.2654 Y0.7506 Z-0.083
X15.266 Y0.7512 Z-0.0802
X15.2662 Y0.7514 Z-0.0772
G0 Z0.4
X15.2377 Y1.4893
Z0.0783
G1 Z0.0136 F40.
G18 G2 X15.253 Z-0.0017 I0.0153 K0.
G1 X15.2607
G17 G3 X15.2714 Y1.5 I0. J0.0107
X15.2286 Z-0.019 I-0.0214 J0.
X15.2382 Y1.4821 Z-0.0244 I0.0214 J0.
X15.2618 Y1.5179 Z-0.0417 I0.0118 J0.0179
X15.2382 Y1.4821 Z-0.0589 I-0.0118 J-0.0179
X15.2618 Y1.5179 Z-0.0762 I0.0118 J0.0179
X15.2352 Y1.4846 Z-0.0925 I-0.0118 J-0.0179
X15.2648 Y1.5154 I0.0148 J0.0154
X15.2352 Y1.4846 I-0.0148 J-0.0154
X15.2503 Y1.4849 I0.0074 J0.0077
G1 X15.2556 Y1.4904
X15.2577 Y1.4925 Z-0.0922
X15.2597 Y1.4946 Z-0.0913
X15.2615 Y1.4965 Z-0.0899
X15.2631 Y1.4982 Z-0.088
X15.2644 Y1.4996 Z-0.0857
X15.2654 Y1.5006 Z-0.083
X15.266 Y1.5012 Z-0.0802
X15.2662 Y1.5014 Z-0.0772
G0 Z0.4
X15.2377 Y2.2393
Z0.0783
G1 Z0.0136 F40.
G18 G2 X15.253 Z-0.0017 I0.0153 K0.
G1 X15.2607
G17 G3 X15.2714 Y2.25 I0. J0.0107
X15.2286 Z-0.019 I-0.0214 J0.
X15.2714 Z-0.0362 I0.0214 J0.
X15.2286 Z-0.0535 I-0.0214 J0.
X15.2714 Z-0.0708 I0.0214 J0.
X15.2286 Z-0.0881 I-0.0214 J0.
X15.2352 Y2.2346 Z-0.0925 I0.0214 J0.
X15.2648 Y2.2654 I0.0148 J0.0154
X15.2352 Y2.2346 I-0.0148 J-0.0154
X15.2503 Y2.2349 I0.0074 J0.0077
G1 X15.2556 Y2.2404
X15.2577 Y2.2425 Z-0.0922
X15.2597 Y2.2446 Z-0.0913
X15.2615 Y2.2465 Z-0.0899
X15.2631 Y2.2482 Z-0.088
X15.2644 Y2.2496 Z-0.0857
X15.2654 Y2.2506 Z-0.083
X15.266 Y2.2512 Z-0.0802
X15.2662 Y2.2514 Z-0.0772
G0 Z0.4
X15.2377 Y2.9893
Z0.0783
G1 Z0.0136 F40.
G18 G2 X15.253 Z-0.0017 I0.0153 K0.
G1 X15.2607
G17 G3 X15.2714 Y3. I0. J0.0107
X15.2286 Z-0.019 I-0.0214 J0.
X15.2714 Z-0.0362 I0.0214 J0.
X15.2286 Z-0.0535 I-0.0214 J0.
X15.2714 Z-0.0708 I0.0214 J0.
X15.2286 Z-0.0881 I-0.0214 J0.
X15.2352 Y2.9846 Z-0.0925 I0.0214 J0.
X15.2648 Y3.0154 I0.0148 J0.0154
X15.2352 Y2.9846 I-0.0148 J-0.0154
X15.2503 Y2.9849 I0.0074 J0.0077
G1 X15.2556 Y2.9904
X15.2577 Y2.9925 Z-0.0922
X15.2597 Y2.9946 Z-0.0913
X15.2615 Y2.9965 Z-0.0899
X15.2631 Y2.9982 Z-0.088
X15.2644 Y2.9996 Z-0.0857
X15.2654 Y3.0006 Z-0.083
X15.266 Y3.0012 Z-0.0802
X15.2662 Y3.0014 Z-0.0772
G0 Z0.4
X15.2377 Y3.7393
Z0.0783
G1 Z0.0136 F40.
G18 G2 X15.253 Z-0.0017 I0.0153 K0.
G1 X15.2607
G17 G3 X15.2714 Y3.75 I0. J0.0107
X15.2286 Z-0.019 I-0.0214 J0.
X15.2382 Y3.7321 Z-0.0244 I0.0214 J0.
X15.2618 Y3.7679 Z-0.0417 I0.0118 J0.0179
X15.2382 Y3.7321 Z-0.0589 I-0.0118 J-0.0179
X15.2618 Y3.7679 Z-0.0762 I0.0118 J0.0179
X15.2352 Y3.7346 Z-0.0925 I-0.0118 J-0.0179
X15.2648 Y3.7654 I0.0148 J0.0154
X15.2352 Y3.7346 I-0.0148 J-0.0154
X15.2503 Y3.7349 I0.0074 J0.0077
G1 X15.2556 Y3.7404
X15.2577 Y3.7425 Z-0.0922
X15.2597 Y3.7446 Z-0.0913
X15.2615 Y3.7465 Z-0.0899
X15.2631 Y3.7482 Z-0.088
X15.2644 Y3.7496 Z-0.0857
X15.2654 Y3.7506 Z-0.083
X15.266 Y3.7512 Z-0.0802
X15.2662 Y3.7514 Z-0.0772
G0 Z0.4
X15.2377 Y4.4893
Z0.0783
G1 Z0.0136 F40.
G18 G2 X15.253 Z-0.0017 I0.0153 K0.
G1 X15.2607
G17 G3 X15.2714 Y4.5 I0. J0.0107
X15.2286 Z-0.019 I-0.0214 J0.
X15.2714 Z-0.0362 I0.0214 J0.
X15.2286 Z-0.0535 I-0.0214 J0.
X15.2714 Z-0.0708 I0.0214 J0.
X15.2286 Z-0.0881 I-0.0214 J0.
X15.2352 Y4.4846 Z-0.0925 I0.0214 J0.
X15.2648 Y4.5154 I0.0148 J0.0154
X15.2352 Y4.4846 I-0.0148 J-0.0154
X15.2503 Y4.4849 I0.0074 J0.0077
G1 X15.2556 Y4.4904
X15.2577 Y4.4925 Z-0.0922
X15.2597 Y4.4946 Z-0.0913
X15.2615 Y4.4965 Z-0.0899
X15.2631 Y4.4982 Z-0.088
X15.2644 Y4.4996 Z-0.0857
X15.2654 Y4.5006 Z-0.083
X15.266 Y4.5012 Z-0.0802
X15.2662 Y4.5014 Z-0.0772
G0 Z0.4
X15.2377 Y5.2393
Z0.0783
G1 Z0.0136 F40.
G18 G2 X15.253 Z-0.0017 I0.0153 K0.
G1 X15.2607
G17 G3 X15.2714 Y5.25 I0. J0.0107
X15.2286 Z-0.019 I-0.0214 J0.
X15.2382 Y5.2321 Z-0.0244 I0.0214 J0.
X15.2618 Y5.2679 Z-0.0417 I0.0118 J0.0179
X15.2382 Y5.2321 Z-0.0589 I-0.0118 J-0.0179
X15.2618 Y5.2679 Z-0.0762 I0.0118 J0.0179
X15.2352 Y5.2346 Z-0.0925 I-0.0118 J-0.0179
X15.2648 Y5.2654 I0.0148 J0.0154
X15.2352 Y5.2346 I-0.0148 J-0.0154
X15.2503 Y5.2349 I0.0074 J0.0077
G1 X15.2556 Y5.2404
X15.2577 Y5.2425 Z-0.0922
X15.2597 Y5.2446 Z-0.0913
X15.2615 Y5.2465 Z-0.0899
X15.2631 Y5.2482 Z-0.088
X15.2644 Y5.2496 Z-0.0857
X15.2654 Y5.2506 Z-0.083
X15.266 Y5.2512 Z-0.0802
X15.2662 Y5.2514 Z-0.0772
G0 Z0.4
X15.2377 Y5.9893
Z0.0783
G1 Z0.0136 F40.
G18 G2 X15.253 Z-0.0017 I0.0153 K0.
G1 X15.2607
G17 G3 X15.2714 Y6. I0. J0.0107
X15.2286 Z-0.019 I-0.0214 J0.
X15.2382 Y5.9821 Z-0.0244 I0.0214 J0.
X15.2618 Y6.0179 Z-0.0417 I0.0118 J0.0179
X15.2382 Y5.9821 Z-0.0589 I-0.0118 J-0.0179
X15.2618 Y6.0179 Z-0.0762 I0.0118 J0.0179
X15.2352 Y5.9846 Z-0.0925 I-0.0118 J-0.0179
X15.2648 Y6.0154 I0.0148 J0.0154
X15.2352 Y5.9846 I-0.0148 J-0.0154
X15.2503 Y5.9849 I0.0074 J0.0077
G1 X15.2556 Y5.9904
X15.2577 Y5.9925 Z-0.0922
X15.2597 Y5.9946 Z-0.0913
X15.2615 Y5.9965 Z-0.0899
X15.2631 Y5.9982 Z-0.088
X15.2644 Y5.9996 Z-0.0857
X15.2654 Y6.0006 Z-0.083
X15.266 Y6.0012 Z-0.0802
X15.2662 Y6.0014 Z-0.0772
G0 Z0.4
X15.2377 Y6.7393
Z0.0783
G1 Z0.0136 F40.
G18 G2 X15.253 Z-0.0017 I0.0153 K0.
G1 X15.2607
G17 G3 X15.2714 Y6.75 I0. J0.0107
X15.2286 Z-0.019 I-0.0214 J0.
X15.2382 Y6.7321 Z-0.0244 I0.0214 J0.
X15.2618 Y6.7679 Z-0.0417 I0.0118 J0.0179
X15.2382 Y6.7321 Z-0.0589 I-0.0118 J-0.0179
X15.2618 Y6.7679 Z-0.0762 I0.0118 J0.0179
X15.2352 Y6.7346 Z-0.0925 I-0.0118 J-0.0179
X15.2648 Y6.7654 I0.0148 J0.0154
X15.2352 Y6.7346 I-0.0148 J-0.0154
X15.2503 Y6.7349 I0.0074 J0.0077
G1 X15.2556 Y6.7404
X15.2577 Y6.7425 Z-0.0922
X15.2597 Y6.7446 Z-0.0913
X15.2615 Y6.7465 Z-0.0899
X15.2631 Y6.7482 Z-0.088
X15.2644 Y6.7496 Z-0.0857
X15.2654 Y6.7506 Z-0.083
X15.266 Y6.7512 Z-0.0802
X15.2662 Y6.7514 Z-0.0772
G0 Z0.4
X15.2377 Y7.4893
Z0.0783
G1 Z0.0136 F40.
G18 G2 X15.253 Z-0.0017 I0.0153 K0.
G1 X15.2607
G17 G3 X15.2714 Y7.5 I0. J0.0107
X15.2286 Z-0.019 I-0.0214 J0.
X15.2382 Y7.4821 Z-0.0244 I0.0214 J0.
X15.2618 Y7.5179 Z-0.0417 I0.0118 J0.0179
X15.2382 Y7.4821 Z-0.0589 I-0.0118 J-0.0179
X15.2618 Y7.5179 Z-0.0762 I0.0118 J0.0179
X15.2352 Y7.4846 Z-0.0925 I-0.0118 J-0.0179
X15.2648 Y7.5154 I0.0148 J0.0154
X15.2352 Y7.4846 I-0.0148 J-0.0154
X15.2503 Y7.4849 I0.0074 J0.0077
G1 X15.2556 Y7.4904
X15.2577 Y7.4925 Z-0.0922
X15.2597 Y7.4946 Z-0.0913
X15.2615 Y7.4965 Z-0.0899
X15.2631 Y7.4982 Z-0.088
X15.2644 Y7.4996 Z-0.0857
X15.2654 Y7.5006 Z-0.083
X15.266 Y7.5012 Z-0.0802
X15.2662 Y7.5014 Z-0.0772
G0 Z0.4
X15.2377 Y8.2393
Z0.0783
G1 Z0.0136 F40.
G18 G2 X15.253 Z-0.0017 I0.0153 K0.
G1 X15.2607
G17 G3 X15.2714 Y8.25 I0. J0.0107
X15.2286 Z-0.019 I-0.0214 J0.
X15.2382 Y8.2321 Z-0.0244 I0.0214 J0.
X15.2618 Y8.2679 Z-0.0417 I0.0118 J0.0179
X15.2382 Y8.2321 Z-0.0589 I-0.0118 J-0.0179
X15.2618 Y8.2679 Z-0.0762 I0.0118 J0.0179
X15.2352 Y8.2346 Z-0.0925 I-0.0118 J-0.0179
X15.2648 Y8.2654 I0.0148 J0.0154
X15.2352 Y8.2346 I-0.0148 J-0.0154
X15.2503 Y8.2349 I0.0074 J0.0077
G1 X15.2556 Y8.2404
X15.2577 Y8.2425 Z-0.0922
X15.2597 Y8.2446 Z-0.0913
X15.2615 Y8.2465 Z-0.0899
X15.2631 Y8.2482 Z-0.088
X15.2644 Y8.2496 Z-0.0857
X15.2654 Y8.2506 Z-0.083
X15.266 Y8.2512 Z-0.0802
X15.2662 Y8.2514 Z-0.0772
G0 Z0.4
X14.6127 Y8.9893
Z0.0783
G1 Z0.0136 F40.
G18 G2 X14.628 Z-0.0017 I0.0153 K0.
G1 X14.6357
G17 G3 X14.6464 Y9. I0. J0.0107
X14.6036 Z-0.019 I-0.0214 J0.
X14.6132 Y8.9821 Z-0.0244 I0.0214 J0.
X14.6368 Y9.0179 Z-0.0417 I0.0118 J0.0179
X14.6132 Y8.9821 Z-0.0589 I-0.0118 J-0.0179
X14.6368 Y9.0179 Z-0.0762 I0.0118 J0.0179
X14.6102 Y8.9846 Z-0.0925 I-0.0118 J-0.0179
X14.6398 Y9.0154 I0.0148 J0.0154
X14.6102 Y8.9846 I-0.0148 J-0.0154
X14.6253 Y8.9849 I0.0074 J0.0077
G1 X14.6306 Y8.9904
X14.6327 Y8.9925 Z-0.0922
X14.6347 Y8.9946 Z-0.0913
X14.6365 Y8.9965 Z-0.0899
X14.6381 Y8.9982 Z-0.088
X14.6394 Y8.9996 Z-0.0857
X14.6404 Y9.0006 Z-0.083
X14.641 Y9.0012 Z-0.0802
X14.6412 Y9.0014 Z-0.0772
G0 Z0.4
X10.8873 Y9.0107
Z0.0783
G1 Z0.0136 F40.
G18 G3 X10.872 Z-0.0017 I-0.0153 K0.
G1 X10.8643
G17 G3 X10.8536 Y9. I0. J-0.0107
X10.8964 Z-0.019 I0.0214 J0.
X10.8536 Z-0.0362 I-0.0214 J0.
X10.8964 Z-0.0535 I0.0214 J0.
X10.8536 Z-0.0708 I-0.0214 J0.
X10.8964 Z-0.0881 I0.0214 J0.
X10.8898 Y9.0154 Z-0.0925 I-0.0214 J0.
X10.8602 Y8.9846 I-0.0148 J-0.0154
X10.8898 Y9.0154 I0.0148 J0.0154
X10.8747 Y9.0151 I-0.0074 J-0.0077
G1 X10.8694 Y9.0096
X10.8673 Y9.0075 Z-0.0922
X10.8653 Y9.0054 Z-0.0913
X10.8635 Y9.0035 Z-0.0899
X10.8619 Y9.0018 Z-0.088
X10.8606 Y9.0004 Z-0.0857
X10.8596 Y8.9994 Z-0.083
X10.859 Y8.9988 Z-0.0802
X10.8588 Y8.9986 Z-0.0772
G0 Z0.4
X10.1127 Y8.9893
Z0.0783
G1 Z0.0136 F40.
G18 G2 X10.128 Z-0.0017 I0.0153 K0.
G1 X10.1357
G17 G3 X10.1464 Y9. I0. J0.0107
X10.1036 Z-0.019 I-0.0214 J0.
X10.1464 Z-0.0362 I0.0214 J0.
X10.1036 Z-0.0535 I-0.0214 J0.
X10.1464 Z-0.0708 I0.0214 J0.
X10.1036 Z-0.0881 I-0.0214 J0.
X10.1102 Y8.9846 Z-0.0925 I0.0214 J0.
X10.1398 Y9.0154 I0.0148 J0.0154
X10.1102 Y8.9846 I-0.0148 J-0.0154
X10.1253 Y8.9849 I0.0074 J0.0077
G1 X10.1306 Y8.9904
X10.1327 Y8.9925 Z-0.0922
X10.1347 Y8.9946 Z-0.0913
X10.1365 Y8.9965 Z-0.0899
X10.1381 Y8.9982 Z-0.088
X10.1394 Y8.9996 Z-0.0857
X10.1404 Y9.0006 Z-0.083
X10.141 Y9.0012 Z-0.0802
X10.1412 Y9.0014 Z-0.0772
G0 Z0.4
X9.3627 Y8.9893
Z0.0783
G1 Z0.0136 F40.
G18 G2 X9.378 Z-0.0017 I0.0153 K0.
G1 X9.3857
G17 G3 X9.3964 Y9. I0. J0.0107
X9.3536 Z-0.019 I-0.0214 J0.
X9.3964 Z-0.0362 I0.0214 J0.
X9.3536 Z-0.0535 I-0.0214 J0.
X9.3964 Z-0.0708 I0.0214 J0.
X9.3536 Z-0.0881 I-0.0214 J0.
X9.3602 Y8.9846 Z-0.0925 I0.0214 J0.
X9.3898 Y9.0154 I0.0148 J0.0154
X9.3602 Y8.9846 I-0.0148 J-0.0154
X9.3753 Y8.9849 I0.0074 J0.0077
G1 X9.3806 Y8.9904
X9.3827 Y8.9925 Z-0.0922
X9.3847 Y8.9946 Z-0.0913
X9.3865 Y8.9965 Z-0.0899
X9.3881 Y8.9982 Z-0.088
X9.3894 Y8.9996 Z-0.0857
X9.3904 Y9.0006 Z-0.083
X9.391 Y9.0012 Z-0.0802
X9.3912 Y9.0014 Z-0.0772
G0 Z0.4
X8.6127 Y8.9893
Z0.0783
G1 Z0.0136 F40.
G18 G2 X8.628 Z-0.0017 I0.0153 K0.
G1 X8.6357
G17 G3 X8.6464 Y9. I0. J0.0107
X8.6036 Z-0.019 I-0.0214 J0.
X8.6464 Z-0.0362 I0.0214 J0.
X8.6036 Z-0.0535 I-0.0214 J0.
X8.6464 Z-0.0708 I0.0214 J0.
X8.6036 Z-0.0881 I-0.0214 J0.
X8.6102 Y8.9846 Z-0.0925 I0.0214 J0.
X8.6398 Y9.0154 I0.0148 J0.0154
X8.6102 Y8.9846 I-0.0148 J-0.0154
X8.6253 Y8.9849 I0.0074 J0.0077
G1 X8.6306 Y8.9904
X8.6327 Y8.9925 Z-0.0922
X8.6347 Y8.9946 Z-0.0913
X8.6365 Y8.9965 Z-0.0899
X8.6381 Y8.9982 Z-0.088
X8.6394 Y8.9996 Z-0.0857
X8.6404 Y9.0006 Z-0.083
X8.641 Y9.0012 Z-0.0802
X8.6412 Y9.0014 Z-0.0772
G0 Z0.4
X7.8873 Y9.0107
Z0.0783
G1 Z0.0136 F40.
G18 G3 X7.872 Z-0.0017 I-0.0153 K0.
G1 X7.8643
G17 G3 X7.8536 Y9. I0. J-0.0107
X7.8964 Z-0.019 I0.0214 J0.
X7.8536 Z-0.0362 I-0.0214 J0.
X7.8964 Z-0.0535 I0.0214 J0.
X7.8536 Z-0.0708 I-0.0214 J0.
X7.8964 Z-0.0881 I0.0214 J0.
X7.8898 Y9.0154 Z-0.0925 I-0.0214 J0.
X7.8602 Y8.9846 I-0.0148 J-0.0154
X7.8898 Y9.0154 I0.0148 J0.0154
X7.8747 Y9.0151 I-0.0074 J-0.0077
G1 X7.8694 Y9.0096
X7.8673 Y9.0075 Z-0.0922
X7.8653 Y9.0054 Z-0.0913
X7.8635 Y9.0035 Z-0.0899
X7.8619 Y9.0018 Z-0.088
X7.8606 Y9.0004 Z-0.0857
X7.8596 Y8.9994 Z-0.083
X7.859 Y8.9988 Z-0.0802
X7.8588 Y8.9986 Z-0.0772
G0 Z0.4
X7.1127 Y8.9893
Z0.0783
G1 Z0.0136 F40.
G18 G2 X7.128 Z-0.0017 I0.0153 K0.
G1 X7.1357
G17 G3 X7.1464 Y9. I0. J0.0107
X7.1036 Z-0.019 I-0.0214 J0.
X7.1464 Z-0.0362 I0.0214 J0.
X7.1036 Z-0.0535 I-0.0214 J0.
X7.1464 Z-0.0708 I0.0214 J0.
X7.1036 Z-0.0881 I-0.0214 J0.
X7.1102 Y8.9846 Z-0.0925 I0.0214 J0.
X7.1398 Y9.0154 I0.0148 J0.0154
X7.1102 Y8.9846 I-0.0148 J-0.0154
X7.1253 Y8.9849 I0.0074 J0.0077
G1 X7.1306 Y8.9904
X7.1327 Y8.9925 Z-0.0922
X7.1347 Y8.9946 Z-0.0913
X7.1365 Y8.9965 Z-0.0899
X7.1381 Y8.9982 Z-0.088
X7.1394 Y8.9996 Z-0.0857
X7.1404 Y9.0006 Z-0.083
X7.141 Y9.0012 Z-0.0802
X7.1412 Y9.0014 Z-0.0772
G0 Z0.4
X6.3873 Y9.0107
Z0.0783
G1 Z0.0136 F40.
G18 G3 X6.372 Z-0.0017 I-0.0153 K0.
G1 X6.3643
G17 G3 X6.3536 Y9. I0. J-0.0107
X6.3964 Z-0.019 I0.0214 J0.
X6.3536 Z-0.0362 I-0.0214 J0.
X6.3964 Z-0.0535 I0.0214 J0.
X6.3536 Z-0.0708 I-0.0214 J0.
X6.3964 Z-0.0881 I0.0214 J0.
X6.3898 Y9.0154 Z-0.0925 I-0.0214 J0.
X6.3602 Y8.9846 I-0.0148 J-0.0154
X6.3898 Y9.0154 I0.0148 J0.0154
X6.3747 Y9.0151 I-0.0074 J-0.0077
G1 X6.3694 Y9.0096
X6.3673 Y9.0075 Z-0.0922
X6.3653 Y9.0054 Z-0.0913
X6.3635 Y9.0035 Z-0.0899
X6.3619 Y9.0018 Z-0.088
X6.3606 Y9.0004 Z-0.0857
X6.3596 Y8.9994 Z-0.083
X6.359 Y8.9988 Z-0.0802
X6.3588 Y8.9986 Z-0.0772
G0 Z0.4
X5.6127 Y8.9893
Z0.0783
G1 Z0.0136 F40.
G18 G2 X5.628 Z-0.0017 I0.0153 K0.
G1 X5.6357
G17 G3 X5.6464 Y9. I0. J0.0107
X5.6036 Z-0.019 I-0.0214 J0.
X5.6464 Z-0.0362 I0.0214 J0.
X5.6036 Z-0.0535 I-0.0214 J0.
X5.6464 Z-0.0708 I0.0214 J0.
X5.6036 Z-0.0881 I-0.0214 J0.
X5.6102 Y8.9846 Z-0.0925 I0.0214 J0.
X5.6398 Y9.0154 I0.0148 J0.0154
X5.6102 Y8.9846 I-0.0148 J-0.0154
X5.6253 Y8.9849 I0.0074 J0.0077
G1 X5.6306 Y8.9904
X5.6327 Y8.9925 Z-0.0922
X5.6347 Y8.9946 Z-0.0913
X5.6365 Y8.9965 Z-0.0899
X5.6381 Y8.9982 Z-0.088
X5.6394 Y8.9996 Z-0.0857
X5.6404 Y9.0006 Z-0.083
X5.641 Y9.0012 Z-0.0802
X5.6412 Y9.0014 Z-0.0772
G0 Z0.4
X4.8873 Y9.0107
Z0.0783
G1 Z0.0136 F40.
G18 G3 X4.872 Z-0.0017 I-0.0153 K0.
G1 X4.8643
G17 G3 X4.8536 Y9. I0. J-0.0107
X4.8964 Z-0.019 I0.0214 J0.
X4.8536 Z-0.0362 I-0.0214 J0.
X4.8964 Z-0.0535 I0.0214 J0.
X4.8536 Z-0.0708 I-0.0214 J0.
X4.8964 Z-0.0881 I0.0214 J0.
X4.8898 Y9.0154 Z-0.0925 I-0.0214 J0.
X4.8602 Y8.9846 I-0.0148 J-0.0154
X4.8898 Y9.0154 I0.0148 J0.0154
X4.8747 Y9.0151 I-0.0074 J-0.0077
G1 X4.8694 Y9.0096
X4.8673 Y9.0075 Z-0.0922
X4.8653 Y9.0054 Z-0.0913
X4.8635 Y9.0035 Z-0.0899
X4.8619 Y9.0018 Z-0.088
X4.8606 Y9.0004 Z-0.0857
X4.8596 Y8.9994 Z-0.083
X4.859 Y8.9988 Z-0.0802
X4.8588 Y8.9986 Z-0.0772
G0 Z0.4
X4.1373 Y9.0107
Z0.0783
G1 Z0.0136 F40.
G18 G3 X4.122 Z-0.0017 I-0.0153 K0.
G1 X4.1143
G17 G3 X4.1036 Y9. I0. J-0.0107
X4.1464 Z-0.019 I0.0214 J0.
X4.1036 Z-0.0362 I-0.0214 J0.
X4.1464 Z-0.0535 I0.0214 J0.
X4.1036 Z-0.0708 I-0.0214 J0.
X4.1464 Z-0.0881 I0.0214 J0.
X4.1398 Y9.0154 Z-0.0925 I-0.0214 J0.
X4.1102 Y8.9846 I-0.0148 J-0.0154
X4.1398 Y9.0154 I0.0148 J0.0154
X4.1247 Y9.0151 I-0.0074 J-0.0077
G1 X4.1194 Y9.0096
X4.1173 Y9.0075 Z-0.0922
X4.1153 Y9.0054 Z-0.0913
X4.1135 Y9.0035 Z-0.0899
X4.1119 Y9.0018 Z-0.088
X4.1106 Y9.0004 Z-0.0857
X4.1096 Y8.9994 Z-0.083
X4.109 Y8.9988 Z-0.0802
X4.1088 Y8.9986 Z-0.0772
G0 Z0.4
X4.7627 Y9.8643
Z0.0783
G1 Z0.0136 F40.
G18 G2 X4.778 Z-0.0017 I0.0153 K0.
G1 X4.7857
G17 G3 X4.7964 Y9.875 I0. J0.0107
X4.7536 Z-0.019 I-0.0214 J0.
X4.7964 Z-0.0362 I0.0214 J0.
X4.7536 Z-0.0535 I-0.0214 J0.
X4.7964 Z-0.0708 I0.0214 J0.
X4.7536 Z-0.0881 I-0.0214 J0.
X4.7602 Y9.8596 Z-0.0925 I0.0214 J0.
X4.7898 Y9.8904 I0.0148 J0.0154
X4.7602 Y9.8596 I-0.0148 J-0.0154
X4.7753 Y9.8599 I0.0074 J0.0077
G1 X4.7806 Y9.8654
X4.7827 Y9.8675 Z-0.0922
X4.7847 Y9.8696 Z-0.0913
X4.7865 Y9.8715 Z-0.0899
X4.7881 Y9.8732 Z-0.088
X4.7894 Y9.8746 Z-0.0857
X4.7904 Y9.8756 Z-0.083
X4.791 Y9.8762 Z-0.0802
X4.7912 Y9.8764 Z-0.0772
G0 Z0.4
X4.2127 Y9.8643
Z0.0783
G1 Z0.0136 F40.
G18 G2 X4.228 Z-0.0017 I0.0153 K0.
G1 X4.2357
G17 G3 X4.2464 Y9.875 I0. J0.0107
X4.2036 Z-0.019 I-0.0214 J0.
X4.2464 Z-0.0362 I0.0214 J0.
X4.2036 Z-0.0535 I-0.0214 J0.
X4.2464 Z-0.0708 I0.0214 J0.
X4.2036 Z-0.0881 I-0.0214 J0.
X4.2102 Y9.8596 Z-0.0925 I0.0214 J0.
X4.2398 Y9.8904 I0.0148 J0.0154
X4.2102 Y9.8596 I-0.0148 J-0.0154
X4.2253 Y9.8599 I0.0074 J0.0077
G1 X4.2306 Y9.8654
X4.2327 Y9.8675 Z-0.0922
X4.2347 Y9.8696 Z-0.0913
X4.2365 Y9.8715 Z-0.0899
X4.2381 Y9.8732 Z-0.088
X4.2394 Y9.8746 Z-0.0857
X4.2404 Y9.8756 Z-0.083
X4.241 Y9.8762 Z-0.0802
X4.2412 Y9.8764 Z-0.0772
G0 Z0.4
X4.2127 Y10.6143
Z0.0783
G1 Z0.0136 F40.
G18 G2 X4.228 Z-0.0017 I0.0153 K0.
G1 X4.2357
G17 G3 X4.2464 Y10.625 I0. J0.0107
X4.2036 Z-0.019 I-0.0214 J0.
X4.2464 Z-0.0362 I0.0214 J0.
X4.2036 Z-0.0535 I-0.0214 J0.
X4.2464 Z-0.0708 I0.0214 J0.
X4.2036 Z-0.0881 I-0.0214 J0.
X4.2102 Y10.6096 Z-0.0925 I0.0214 J0.
X4.2398 Y10.6404 I0.0148 J0.0154
X4.2102 Y10.6096 I-0.0148 J-0.0154
X4.2253 Y10.6099 I0.0074 J0.0077
G1 X4.2306 Y10.6154
X4.2327 Y10.6175 Z-0.0922
X4.2347 Y10.6196 Z-0.0913
X4.2365 Y10.6215 Z-0.0899
X4.2381 Y10.6232 Z-0.088
X4.2394 Y10.6246 Z-0.0857
X4.2404 Y10.6256 Z-0.083
X4.241 Y10.6262 Z-0.0802
X4.2412 Y10.6264 Z-0.0772
G0 Z0.4
X4.7627 Y10.6143
Z0.0783
G1 Z0.0136 F40.
G18 G2 X4.778 Z-0.0017 I0.0153 K0.
G1 X4.7857
G17 G3 X4.7964 Y10.625 I0. J0.0107
X4.7536 Z-0.019 I-0.0214 J0.
X4.7964 Z-0.0362 I0.0214 J0.
X4.7536 Z-0.0535 I-0.0214 J0.
X4.7964 Z-0.0708 I0.0214 J0.
X4.7536 Z-0.0881 I-0.0214 J0.
X4.7602 Y10.6096 Z-0.0925 I0.0214 J0.
X4.7898 Y10.6404 I0.0148 J0.0154
X4.7602 Y10.6096 I-0.0148 J-0.0154
X4.7753 Y10.6099 I0.0074 J0.0077
G1 X4.7806 Y10.6154
X4.7827 Y10.6175 Z-0.0922
X4.7847 Y10.6196 Z-0.0913
X4.7865 Y10.6215 Z-0.0899
X4.7881 Y10.6232 Z-0.088
X4.7894 Y10.6246 Z-0.0857
X4.7904 Y10.6256 Z-0.083
X4.791 Y10.6262 Z-0.0802
X4.7912 Y10.6264 Z-0.0772
G0 Z0.4
X4.7627 Y11.3643
Z0.0783
G1 Z0.0136 F40.
G18 G2 X4.778 Z-0.0017 I0.0153 K0.
G1 X4.7857
G17 G3 X4.7964 Y11.375 I0. J0.0107
X4.7536 Z-0.019 I-0.0214 J0.
X4.7964 Z-0.0362 I0.0214 J0.
X4.7536 Z-0.0535 I-0.0214 J0.
X4.7964 Z-0.0708 I0.0214 J0.
X4.7536 Z-0.0881 I-0.0214 J0.
X4.7602 Y11.3596 Z-0.0925 I0.0214 J0.
X4.7898 Y11.3904 I0.0148 J0.0154
X4.7602 Y11.3596 I-0.0148 J-0.0154
X4.7753 Y11.3599 I0.0074 J0.0077
G1 X4.7806 Y11.3654
X4.7827 Y11.3675 Z-0.0922
X4.7847 Y11.3696 Z-0.0913
X4.7865 Y11.3715 Z-0.0899
X4.7881 Y11.3732 Z-0.088
X4.7894 Y11.3746 Z-0.0857
X4.7904 Y11.3756 Z-0.083
X4.791 Y11.3762 Z-0.0802
X4.7912 Y11.3764 Z-0.0772
G0 Z0.4
X4.2127 Y11.3643
Z0.0783
G1 Z0.0136 F40.
G18 G2 X4.228 Z-0.0017 I0.0153 K0.
G1 X4.2357
G17 G3 X4.2464 Y11.375 I0. J0.0107
X4.2036 Z-0.019 I-0.0214 J0.
X4.2464 Z-0.0362 I0.0214 J0.
X4.2036 Z-0.0535 I-0.0214 J0.
X4.2464 Z-0.0708 I0.0214 J0.
X4.2036 Z-0.0881 I-0.0214 J0.
X4.2102 Y11.3596 Z-0.0925 I0.0214 J0.
X4.2398 Y11.3904 I0.0148 J0.0154
X4.2102 Y11.3596 I-0.0148 J-0.0154
X4.2253 Y11.3599 I0.0074 J0.0077
G1 X4.2306 Y11.3654
X4.2327 Y11.3675 Z-0.0922
X4.2347 Y11.3696 Z-0.0913
X4.2365 Y11.3715 Z-0.0899
X4.2381 Y11.3732 Z-0.088
X4.2394 Y11.3746 Z-0.0857
X4.2404 Y11.3756 Z-0.083
X4.241 Y11.3762 Z-0.0802
X4.2412 Y11.3764 Z-0.0772
G0 Z0.4
X4.2127 Y12.1143
Z0.0783
G1 Z0.0136 F40.
G18 G2 X4.228 Z-0.0017 I0.0153 K0.
G1 X4.2357
G17 G3 X4.2464 Y12.125 I0. J0.0107
X4.2036 Z-0.019 I-0.0214 J0.
X4.2464 Z-0.0362 I0.0214 J0.
X4.2036 Z-0.0535 I-0.0214 J0.
X4.2464 Z-0.0708 I0.0214 J0.
X4.2036 Z-0.0881 I-0.0214 J0.
X4.2102 Y12.1096 Z-0.0925 I0.0214 J0.
X4.2398 Y12.1404 I0.0148 J0.0154
X4.2102 Y12.1096 I-0.0148 J-0.0154
X4.2253 Y12.1099 I0.0074 J0.0077
G1 X4.2306 Y12.1154
X4.2327 Y12.1175 Z-0.0922
X4.2347 Y12.1196 Z-0.0913
X4.2365 Y12.1215 Z-0.0899
X4.2381 Y12.1232 Z-0.088
X4.2394 Y12.1246 Z-0.0857
X4.2404 Y12.1256 Z-0.083
X4.241 Y12.1262 Z-0.0802
X4.2412 Y12.1264 Z-0.0772
G0 Z0.4
X4.7627 Y12.1143
Z0.0783
G1 Z0.0136 F40.
G18 G2 X4.778 Z-0.0017 I0.0153 K0.
G1 X4.7857
G17 G3 X4.7964 Y12.125 I0. J0.0107
X4.7536 Z-0.019 I-0.0214 J0.
X4.7964 Z-0.0362 I0.0214 J0.
X4.7536 Z-0.0535 I-0.0214 J0.
X4.7964 Z-0.0708 I0.0214 J0.
X4.7536 Z-0.0881 I-0.0214 J0.
X4.7602 Y12.1096 Z-0.0925 I0.0214 J0.
X4.7898 Y12.1404 I0.0148 J0.0154
X4.7602 Y12.1096 I-0.0148 J-0.0154
X4.7753 Y12.1099 I0.0074 J0.0077
G1 X4.7806 Y12.1154
X4.7827 Y12.1175 Z-0.0922
X4.7847 Y12.1196 Z-0.0913
X4.7865 Y12.1215 Z-0.0899
X4.7881 Y12.1232 Z-0.088
X4.7894 Y12.1246 Z-0.0857
X4.7904 Y12.1256 Z-0.083
X4.791 Y12.1262 Z-0.0802
X4.7912 Y12.1264 Z-0.0772
G0 Z0.6
(.3 CIRCULAR THROUGH HOLE)
M7
G0 X0.8709 Y-0.0219
Z0.6
Z0.2
G1 Z0.1148 F13.333
G3 X0.8716 Y-0.0207 Z0.1083 I-0.0393 J0.0219 F55.
X0.8733 Y-0.017 Z0.1031 I-0.04 J0.0207
X0.8751 Y-0.0114 Z0.1 I-0.0417 J0.017
X0.7881 Y0.0114 Z0.0621 I-0.0435 J0.0114
X0.8751 Y-0.0114 Z0.0242 I0.0435 J-0.0114
X0.7881 Y0.0114 Z-0.0136 I-0.0435 J0.0114
X0.8751 Y-0.0114 Z-0.0515 I0.0435 J-0.0114
X0.8374 Y0.0446 Z-0.072 I-0.0435 J0.0114
X0.7866 Y0. Z-0.0925 I-0.0058 J-0.0446
X0.8134 I0.0134 J0. F60.
X0.6866 I-0.0634 J0.
X0.9134 I0.1134 J0.
X0.5866 I-0.1634 J0.
X1.0134 I0.2134 J0.
X0.4866 I-0.2634 J0.
X1.1134 I0.3134 J0.
X0.3866 I-0.3634 J0.
X1.2134 I0.4134 J0.
X0.2866 I-0.4634 J0.
X1.3134 I0.5134 J0.
X0.1866 I-0.5634 J0.
X1.4134 I0.6134 J0.
X0.0866 I-0.6634 J0.
X1.4234 I0.6684 J0.
X0.0766 I-0.6734 J0.
X1.4234 I0.6734 J0.
X1.4223 Y0.0057 Z-0.0913 I-0.0153 J0.
X1.4197 Y0.01 Z-0.088 I-0.0142 J-0.0057
X1.4173 Y0.0122 Z-0.083 I-0.0116 J-0.01
X1.4164 Y0.0129 Z-0.0772 I-0.0092 J-0.0122
G0 Z0.4
X2.2459 Y1.4781
Z0.2
G1 Z0.1148 F13.333
G3 X2.2466 Y1.4793 Z0.1083 I-0.0393 J0.0219 F55.
X2.2483 Y1.483 Z0.1031 I-0.04 J0.0207
X2.2501 Y1.4886 Z0.1 I-0.0417 J0.017
X2.1631 Y1.5114 Z0.0621 I-0.0435 J0.0114
X2.2501 Y1.4886 Z0.0242 I0.0435 J-0.0114
X2.1631 Y1.5114 Z-0.0136 I-0.0435 J0.0114
X2.2501 Y1.4886 Z-0.0515 I0.0435 J-0.0114
X2.2124 Y1.5446 Z-0.072 I-0.0435 J0.0114
X2.1616 Y1.5 Z-0.0925 I-0.0058 J-0.0446
X2.1884 I0.0134 J0. F60.
X2.0616 I-0.0634 J0.
X2.2884 I0.1134 J0.
X1.9616 I-0.1634 J0.
X2.3884 I0.2134 J0.
X1.8616 I-0.2634 J0.
X2.4884 I0.3134 J0.
X1.7616 I-0.3634 J0.
X2.5884 I0.4134 J0.
X1.6616 I-0.4634 J0.
X2.6884 I0.5134 J0.
X1.5616 I-0.5634 J0.
X2.7884 I0.6134 J0.
X1.4616 I-0.6634 J0.
X2.7984 I0.6684 J0.
X1.4516 I-0.6734 J0.
X2.7984 I0.6734 J0.
X2.7973 Y1.5057 Z-0.0913 I-0.0153 J0.
X2.7947 Y1.51 Z-0.088 I-0.0142 J-0.0057
X2.7923 Y1.5122 Z-0.083 I-0.0116 J-0.01
X2.7914 Y1.5129 Z-0.0772 I-0.0092 J-0.0122
G0 Z0.4
X1.8634 Y2.8969
Z0.2
G1 Z0.1148 F13.333
G3 X1.8627 Y2.8957 Z0.1083 I0.0393 J-0.0219 F55.
X1.861 Y2.892 Z0.1031 I0.04 J-0.0207
X1.8591 Y2.8864 Z0.1 I0.0417 J-0.017
X1.9462 Y2.8636 Z0.0621 I0.0435 J-0.0114
X1.8591 Y2.8864 Z0.0242 I-0.0435 J0.0114
X1.9462 Y2.8636 Z-0.0136 I0.0435 J-0.0114
X1.8591 Y2.8864 Z-0.0515 I-0.0435 J0.0114
X1.8969 Y2.8304 Z-0.072 I0.0435 J-0.0114
X1.9476 Y2.875 Z-0.0925 I0.0058 J0.0446
X1.9104 I-0.0186 J0.
X1.9396 I0.0146 J0. F60.
X1.8104 I-0.0646 J0.
X1.9496 I0.0696 J0.
X1.8004 I-0.0746 J0.
X1.9496 I0.0746 J0.
X1.9485 Y2.8807 Z-0.0913 I-0.0153 J0.
X1.9459 Y2.885 Z-0.088 I-0.0142 J-0.0057
X1.9435 Y2.8872 Z-0.083 I-0.0116 J-0.01
X1.9425 Y2.8879 Z-0.0772 I-0.0092 J-0.0122
G0 Z0.4
X1.6209 Y4.5281
Z0.2
G1 Z0.1148 F13.333
G3 X1.6216 Y4.5293 Z0.1083 I-0.0393 J0.0219 F55.
X1.6233 Y4.533 Z0.1031 I-0.04 J0.0207
X1.6251 Y4.5386 Z0.1 I-0.0417 J0.017
X1.5381 Y4.5614 Z0.0621 I-0.0435 J0.0114
X1.6251 Y4.5386 Z0.0242 I0.0435 J-0.0114
X1.5381 Y4.5614 Z-0.0136 I-0.0435 J0.0114
X1.6251 Y4.5386 Z-0.0515 I0.0435 J-0.0114
X1.5874 Y4.5946 Z-0.072 I-0.0435 J0.0114
X1.5366 Y4.55 Z-0.0925 I-0.0058 J-0.0446
X1.5634 I0.0134 J0. F60.
X1.4366 I-0.0634 J0.
X1.6634 I0.1134 J0.
X1.3366 I-0.1634 J0.
X1.7634 I0.2134 J0.
X1.2366 I-0.2634 J0.
X1.8634 I0.3134 J0.
X1.1366 I-0.3634 J0.
X1.9634 I0.4134 J0.
X1.0366 I-0.4634 J0.
X2.0634 I0.5134 J0.
X0.9366 I-0.5634 J0.
X2.1634 I0.6134 J0.
X0.8366 I-0.6634 J0.
X2.1734 I0.6684 J0.
X0.8266 I-0.6734 J0.
X2.1734 I0.6734 J0.
X2.1723 Y4.5557 Z-0.0913 I-0.0153 J0.
X2.1697 Y4.56 Z-0.088 I-0.0142 J-0.0057
X2.1673 Y4.5622 Z-0.083 I-0.0116 J-0.01
X2.1664 Y4.5629 Z-0.0772 I-0.0092 J-0.0122
G0 Z0.4
X0.1209 Y3.1531
Z0.2
G1 Z0.1148 F13.333
G3 X0.1216 Y3.1543 Z0.1083 I-0.0393 J0.0219 F55.
X0.1233 Y3.158 Z0.1031 I-0.04 J0.0207
X0.1251 Y3.1636 Z0.1 I-0.0417 J0.017
X0.0381 Y3.1864 Z0.0621 I-0.0435 J0.0114
X0.1251 Y3.1636 Z0.0242 I0.0435 J-0.0114
X0.0381 Y3.1864 Z-0.0136 I-0.0435 J0.0114
X0.1251 Y3.1636 Z-0.0515 I0.0435 J-0.0114
X0.0874 Y3.2196 Z-0.072 I-0.0435 J0.0114
X0.0366 Y3.175 Z-0.0925 I-0.0058 J-0.0446
X0.0634 I0.0134 J0. F60.
X-0.0634 I-0.0634 J0.
X0.1634 I0.1134 J0.
X-0.1634 I-0.1634 J0.
X0.2634 I0.2134 J0.
X-0.2634 I-0.2634 J0.
X0.3634 I0.3134 J0.
X-0.3634 I-0.3634 J0.
X0.4634 I0.4134 J0.
X-0.4634 I-0.4634 J0.
X0.5634 I0.5134 J0.
X-0.5634 I-0.5634 J0.
X0.6634 I0.6134 J0.
X-0.6634 I-0.6634 J0.
X0.6734 I0.6684 J0.
X-0.6734 I-0.6734 J0.
X0.6734 I0.6734 J0.
X0.6723 Y3.1807 Z-0.0913 I-0.0153 J0.
X0.6697 Y3.185 Z-0.088 I-0.0142 J-0.0057
X0.6673 Y3.1872 Z-0.083 I-0.0116 J-0.01
X0.6664 Y3.1879 Z-0.0772 I-0.0092 J-0.0122
G0 Z0.4
X-0.8176 Y2.0769
Z0.2
G1 Z0.1148 F13.333
G3 X-0.8183 Y2.0757 Z0.1083 I0.0393 J-0.0219 F55.
X-0.82 Y2.072 Z0.1031 I0.04 J-0.0207
X-0.8219 Y2.0664 Z0.1 I0.0417 J-0.017
X-0.7348 Y2.0436 Z0.0621 I0.0435 J-0.0114
X-0.8219 Y2.0664 Z0.0242 I-0.0435 J0.0114
X-0.7348 Y2.0436 Z-0.0136 I0.0435 J-0.0114
X-0.8219 Y2.0664 Z-0.0515 I-0.0435 J0.0114
X-0.7841 Y2.0104 Z-0.072 I0.0435 J-0.0114
X-0.7334 Y2.055 Z-0.0925 I0.0058 J0.0446
X-0.7706 I-0.0186 J0.
X-0.7414 I0.0146 J0. F60.
X-0.8706 I-0.0646 J0.
X-0.7314 I0.0696 J0.
X-0.8806 I-0.0746 J0.
X-0.7314 I0.0746 J0.
X-0.7325 Y2.0607 Z-0.0913 I-0.0153 J0.
X-0.7351 Y2.065 Z-0.088 I-0.0142 J-0.0057
X-0.7375 Y2.0672 Z-0.083 I-0.0116 J-0.01
X-0.7385 Y2.0679 Z-0.0772 I-0.0092 J-0.0122
G0 Z0.4
X-1.8616 Y1.2029
Z0.2
G1 Z0.1148 F13.333
G3 X-1.8623 Y1.2017 Z0.1083 I0.0393 J-0.0219 F55.
X-1.864 Y1.198 Z0.1031 I0.04 J-0.0207
X-1.8659 Y1.1924 Z0.1 I0.0417 J-0.017
X-1.7788 Y1.1696 Z0.0621 I0.0435 J-0.0114
X-1.8659 Y1.1924 Z0.0242 I-0.0435 J0.0114
X-1.7788 Y1.1696 Z-0.0136 I0.0435 J-0.0114
X-1.8659 Y1.1924 Z-0.0515 I-0.0435 J0.0114
X-1.8281 Y1.1364 Z-0.072 I0.0435 J-0.0114
X-1.7774 Y1.181 Z-0.0925 I0.0058 J0.0446
X-1.8146 I-0.0186 J0.
X-1.7854 I0.0146 J0. F60.
X-1.9146 I-0.0646 J0.
X-1.7754 I0.0696 J0.
X-1.9246 I-0.0746 J0.
X-1.7754 I0.0746 J0.
X-1.7765 Y1.1867 Z-0.0913 I-0.0153 J0.
X-1.7791 Y1.191 Z-0.088 I-0.0142 J-0.0057
X-1.7815 Y1.1932 Z-0.083 I-0.0116 J-0.01
X-1.7825 Y1.1939 Z-0.0772 I-0.0092 J-0.0122
G0 Z0.4
X-2.8616 Y1.2029
Z0.2
G1 Z0.1148 F13.333
G3 X-2.8623 Y1.2017 Z0.1083 I0.0393 J-0.0219 F55.
X-2.864 Y1.198 Z0.1031 I0.04 J-0.0207
X-2.8659 Y1.1924 Z0.1 I0.0417 J-0.017
X-2.7788 Y1.1696 Z0.0621 I0.0435 J-0.0114
X-2.8659 Y1.1924 Z0.0242 I-0.0435 J0.0114
X-2.7788 Y1.1696 Z-0.0136 I0.0435 J-0.0114
X-2.8659 Y1.1924 Z-0.0515 I-0.0435 J0.0114
X-2.8281 Y1.1364 Z-0.072 I0.0435 J-0.0114
X-2.7774 Y1.181 Z-0.0925 I0.0058 J0.0446
X-2.8146 I-0.0186 J0.
X-2.7854 I0.0146 J0. F60.
X-2.9146 I-0.0646 J0.
X-2.7754 I0.0696 J0.
X-2.9246 I-0.0746 J0.
X-2.7754 I0.0746 J0.
X-2.7765 Y1.1867 Z-0.0913 I-0.0153 J0.
X-2.7791 Y1.191 Z-0.088 I-0.0142 J-0.0057
X-2.7815 Y1.1932 Z-0.083 I-0.0116 J-0.01
X-2.7825 Y1.1939 Z-0.0772 I-0.0092 J-0.0122
G0 Z0.4
X-2.8791 Y3.1531
Z0.2
G1 Z0.1148 F13.333
G3 X-2.8784 Y3.1543 Z0.1083 I-0.0393 J0.0219 F55.
X-2.8767 Y3.158 Z0.1031 I-0.04 J0.0207
X-2.8749 Y3.1636 Z0.1 I-0.0417 J0.017
X-2.9619 Y3.1864 Z0.0621 I-0.0435 J0.0114
X-2.8749 Y3.1636 Z0.0242 I0.0435 J-0.0114
X-2.9619 Y3.1864 Z-0.0136 I-0.0435 J0.0114
X-2.8749 Y3.1636 Z-0.0515 I0.0435 J-0.0114
X-2.9126 Y3.2196 Z-0.072 I-0.0435 J0.0114
X-2.9634 Y3.175 Z-0.0925 I-0.0058 J-0.0446
X-2.9366 I0.0134 J0. F60.
X-3.0634 I-0.0634 J0.
X-2.8366 I0.1134 J0.
X-3.1634 I-0.1634 J0.
X-2.7366 I0.2134 J0.
X-3.2634 I-0.2634 J0.
X-2.6366 I0.3134 J0.
X-3.3634 I-0.3634 J0.
X-2.5366 I0.4134 J0.
X-3.4634 I-0.4634 J0.
X-2.4366 I0.5134 J0.
X-3.5634 I-0.5634 J0.
X-2.3366 I0.6134 J0.
X-3.6634 I-0.6634 J0.
X-2.3266 I0.6684 J0.
X-3.6734 I-0.6734 J0.
X-2.3266 I0.6734 J0.
X-2.3277 Y3.1807 Z-0.0913 I-0.0153 J0.
X-2.3303 Y3.185 Z-0.088 I-0.0142 J-0.0057
X-2.3327 Y3.1872 Z-0.083 I-0.0116 J-0.01
X-2.3336 Y3.1879 Z-0.0772 I-0.0092 J-0.0122
G0 Z0.4
X-1.3791 Y4.5281
Z0.2
G1 Z0.1148 F13.333
G3 X-1.3784 Y4.5293 Z0.1083 I-0.0393 J0.0219 F55.
X-1.3767 Y4.533 Z0.1031 I-0.04 J0.0207
X-1.3749 Y4.5386 Z0.1 I-0.0417 J0.017
X-1.4619 Y4.5614 Z0.0621 I-0.0435 J0.0114
X-1.3749 Y4.5386 Z0.0242 I0.0435 J-0.0114
X-1.4619 Y4.5614 Z-0.0136 I-0.0435 J0.0114
X-1.3749 Y4.5386 Z-0.0515 I0.0435 J-0.0114
X-1.4126 Y4.5946 Z-0.072 I-0.0435 J0.0114
X-1.4634 Y4.55 Z-0.0925 I-0.0058 J-0.0446
X-1.4366 I0.0134 J0. F60.
X-1.5634 I-0.0634 J0.
X-1.3366 I0.1134 J0.
X-1.6634 I-0.1634 J0.
X-1.2366 I0.2134 J0.
X-1.7634 I-0.2634 J0.
X-1.1366 I0.3134 J0.
X-1.8634 I-0.3634 J0.
X-1.0366 I0.4134 J0.
X-1.9634 I-0.4634 J0.
X-0.9366 I0.5134 J0.
X-2.0634 I-0.5634 J0.
X-0.8366 I0.6134 J0.
X-2.1634 I-0.6634 J0.
X-0.8266 I0.6684 J0.
X-2.1734 I-0.6734 J0.
X-0.8266 I0.6734 J0.
X-0.8277 Y4.5557 Z-0.0913 I-0.0153 J0.
X-0.8303 Y4.56 Z-0.088 I-0.0142 J-0.0057
X-0.8327 Y4.5622 Z-0.083 I-0.0116 J-0.01
X-0.8336 Y4.5629 Z-0.0772 I-0.0092 J-0.0122
G0 Z0.4
X-4.6291 Y4.5281
Z0.2
G1 Z0.1148 F13.333
G3 X-4.6284 Y4.5293 Z0.1083 I-0.0393 J0.0219 F55.
X-4.6267 Y4.533 Z0.1031 I-0.04 J0.0207
X-4.6249 Y4.5386 Z0.1 I-0.0417 J0.017
X-4.7119 Y4.5614 Z0.0621 I-0.0435 J0.0114
X-4.6249 Y4.5386 Z0.0242 I0.0435 J-0.0114
X-4.7119 Y4.5614 Z-0.0136 I-0.0435 J0.0114
X-4.6249 Y4.5386 Z-0.0515 I0.0435 J-0.0114
X-4.6626 Y4.5946 Z-0.072 I-0.0435 J0.0114
X-4.7134 Y4.55 Z-0.0925 I-0.0058 J-0.0446
X-4.6866 I0.0134 J0. F60.
X-4.8134 I-0.0634 J0.
X-4.5866 I0.1134 J0.
X-4.9134 I-0.1634 J0.
X-4.4866 I0.2134 J0.
X-5.0134 I-0.2634 J0.
X-4.3866 I0.3134 J0.
X-5.1134 I-0.3634 J0.
X-4.2866 I0.4134 J0.
X-5.2134 I-0.4634 J0.
X-4.1866 I0.5134 J0.
X-5.3134 I-0.5634 J0.
X-4.0866 I0.6134 J0.
X-5.4134 I-0.6634 J0.
X-4.0766 I0.6684 J0.
X-5.4234 I-0.6734 J0.
X-4.0766 I0.6734 J0.
X-4.0777 Y4.5557 Z-0.0913 I-0.0153 J0.
X-4.0803 Y4.56 Z-0.088 I-0.0142 J-0.0057
X-4.0827 Y4.5622 Z-0.083 I-0.0116 J-0.01
X-4.0836 Y4.5629 Z-0.0772 I-0.0092 J-0.0122
G0 Z0.4
X-4.3866 Y2.8969
Z0.2
G1 Z0.1148 F13.333
G3 X-4.3873 Y2.8957 Z0.1083 I0.0393 J-0.0219 F55.
X-4.389 Y2.892 Z0.1031 I0.04 J-0.0207
X-4.3909 Y2.8864 Z0.1 I0.0417 J-0.017
X-4.3038 Y2.8636 Z0.0621 I0.0435 J-0.0114
X-4.3909 Y2.8864 Z0.0242 I-0.0435 J0.0114
X-4.3038 Y2.8636 Z-0.0136 I0.0435 J-0.0114
X-4.3909 Y2.8864 Z-0.0515 I-0.0435 J0.0114
X-4.3531 Y2.8304 Z-0.072 I0.0435 J-0.0114
X-4.3024 Y2.875 Z-0.0925 I0.0058 J0.0446
X-4.3396 I-0.0186 J0.
X-4.3104 I0.0146 J0. F60.
X-4.4396 I-0.0646 J0.
X-4.3004 I0.0696 J0.
X-4.4496 I-0.0746 J0.
X-4.3004 I0.0746 J0.
G1 Z-0.0772
G0 Z0.4
X-4.6291 Y6.7281
Z0.2
G1 Z0.1148 F13.333
G3 X-4.6284 Y6.7293 Z0.1083 I-0.0393 J0.0219 F55.
X-4.6267 Y6.733 Z0.1031 I-0.04 J0.0207
X-4.6249 Y6.7386 Z0.1 I-0.0417 J0.017
X-4.7119 Y6.7614 Z0.0621 I-0.0435 J0.0114
X-4.6249 Y6.7386 Z0.0242 I0.0435 J-0.0114
X-4.7119 Y6.7614 Z-0.0136 I-0.0435 J0.0114
X-4.6249 Y6.7386 Z-0.0515 I0.0435 J-0.0114
X-4.6626 Y6.7946 Z-0.072 I-0.0435 J0.0114
X-4.7134 Y6.75 Z-0.0925 I-0.0058 J-0.0446
X-4.6866 I0.0134 J0. F60.
X-4.8134 I-0.0634 J0.
X-4.5866 I0.1134 J0.
X-4.9134 I-0.1634 J0.
X-4.4866 I0.2134 J0.
X-5.0134 I-0.2634 J0.
X-4.3866 I0.3134 J0.
X-5.1134 I-0.3634 J0.
X-4.2866 I0.4134 J0.
X-5.2134 I-0.4634 J0.
X-4.1866 I0.5134 J0.
X-5.3134 I-0.5634 J0.
X-4.0866 I0.6134 J0.
X-5.4134 I-0.6634 J0.
X-4.0766 I0.6684 J0.
X-5.4234 I-0.6734 J0.
X-4.0766 I0.6734 J0.
X-4.0771 Y6.7523 Z-0.092 I-0.0062 J0.
X-4.0781 Y6.7541 Z-0.0907 I-0.0058 J-0.0023
X-4.0791 Y6.755 Z-0.0886 I-0.0047 J-0.0041
X-4.0795 Y6.7553 Z-0.0863 I-0.0038 J-0.005
G0 Z0.4
X-11.3006 Y5.9781
Z0.2
G1 Z0.1148 F13.333
G3 X-11.3 Y5.9793 Z0.1083 I-0.0393 J0.0219 F55.
X-11.2983 Y5.983 Z0.1031 I-0.04 J0.0207
X-11.2964 Y5.9886 Z0.1 I-0.0417 J0.017
X-11.3835 Y6.0114 Z0.0621 I-0.0435 J0.0114
X-11.2964 Y5.9886 Z0.0242 I0.0435 J-0.0114
X-11.3835 Y6.0114 Z-0.0136 I-0.0435 J0.0114
X-11.2964 Y5.9886 Z-0.0515 I0.0435 J-0.0114
X-11.3342 Y6.0446 Z-0.072 I-0.0435 J0.0114
X-11.3849 Y6. Z-0.0925 I-0.0058 J-0.0446
X-11.3581 I0.0134 J0. F60.
X-11.4849 I-0.0634 J0.
X-11.2581 I0.1134 J0.
X-11.5849 I-0.1634 J0.
X-11.1581 I0.2134 J0.
X-11.6849 I-0.2634 J0.
X-11.0581 I0.3134 J0.
X-11.7849 I-0.3634 J0.
X-10.9581 I0.4134 J0.
X-11.8849 I-0.4634 J0.
X-10.8581 I0.5134 J0.
X-11.9849 I-0.5634 J0.
X-10.7581 I0.6134 J0.
X-12.0849 I-0.6634 J0.
X-10.7481 I0.6684 J0.
X-12.0949 I-0.6734 J0.
X-10.7481 I0.6734 J0.
X-10.7492 Y6.0057 Z-0.0913 I-0.0153 J0.
X-10.7518 Y6.01 Z-0.088 I-0.0142 J-0.0057
X-10.7542 Y6.0122 Z-0.083 I-0.0116 J-0.01
X-10.7552 Y6.0129 Z-0.0772 I-0.0092 J-0.0122
G0 Z0.4
X-11.3006 Y3.5781
Z0.2
G1 Z0.1148 F13.333
G3 X-11.3 Y3.5793 Z0.1083 I-0.0393 J0.0219 F55.
X-11.2983 Y3.583 Z0.1031 I-0.04 J0.0207
X-11.2964 Y3.5886 Z0.1 I-0.0417 J0.017
X-11.3835 Y3.6114 Z0.0621 I-0.0435 J0.0114
X-11.2964 Y3.5886 Z0.0242 I0.0435 J-0.0114
X-11.3835 Y3.6114 Z-0.0136 I-0.0435 J0.0114
X-11.2964 Y3.5886 Z-0.0515 I0.0435 J-0.0114
X-11.3342 Y3.6446 Z-0.072 I-0.0435 J0.0114
X-11.3849 Y3.6 Z-0.0925 I-0.0058 J-0.0446
X-11.3581 I0.0134 J0. F60.
X-11.4849 I-0.0634 J0.
X-11.2581 I0.1134 J0.
X-11.5849 I-0.1634 J0.
X-11.1581 I0.2134 J0.
X-11.6849 I-0.2634 J0.
X-11.0581 I0.3134 J0.
X-11.7849 I-0.3634 J0.
X-10.9581 I0.4134 J0.
X-11.8849 I-0.4634 J0.
X-10.8581 I0.5134 J0.
X-11.9849 I-0.5634 J0.
X-10.7581 I0.6134 J0.
X-12.0849 I-0.6634 J0.
X-10.7481 I0.6684 J0.
X-12.0949 I-0.6734 J0.
X-10.7481 I0.6734 J0.
X-10.7492 Y3.6057 Z-0.0913 I-0.0153 J0.
X-10.7518 Y3.61 Z-0.088 I-0.0142 J-0.0057
X-10.7542 Y3.6122 Z-0.083 I-0.0116 J-0.01
X-10.7552 Y3.6129 Z-0.0772 I-0.0092 J-0.0122
G0 Z0.4
X-11.3006 Y1.1781
Z0.2
G1 Z0.1148 F13.333
G3 X-11.3 Y1.1793 Z0.1083 I-0.0393 J0.0219 F55.
X-11.2983 Y1.183 Z0.1031 I-0.04 J0.0207
X-11.2964 Y1.1886 Z0.1 I-0.0417 J0.017
X-11.3835 Y1.2114 Z0.0621 I-0.0435 J0.0114
X-11.2964 Y1.1886 Z0.0242 I0.0435 J-0.0114
X-11.3835 Y1.2114 Z-0.0136 I-0.0435 J0.0114
X-11.2964 Y1.1886 Z-0.0515 I0.0435 J-0.0114
X-11.3342 Y1.2446 Z-0.072 I-0.0435 J0.0114
X-11.3849 Y1.2 Z-0.0925 I-0.0058 J-0.0446
X-11.3581 I0.0134 J0. F60.
X-11.4849 I-0.0634 J0.
X-11.2581 I0.1134 J0.
X-11.5849 I-0.1634 J0.
X-11.1581 I0.2134 J0.
X-11.6849 I-0.2634 J0.
X-11.0581 I0.3134 J0.
X-11.7849 I-0.3634 J0.
X-10.9581 I0.4134 J0.
X-11.8849 I-0.4634 J0.
X-10.8581 I0.5134 J0.
X-11.9849 I-0.5634 J0.
X-10.7581 I0.6134 J0.
X-12.0849 I-0.6634 J0.
X-10.7481 I0.6684 J0.
X-12.0949 I-0.6734 J0.
X-10.7481 I0.6734 J0.
X-10.7492 Y1.2057 Z-0.0913 I-0.0153 J0.
X-10.7518 Y1.21 Z-0.088 I-0.0142 J-0.0057
X-10.7542 Y1.2122 Z-0.083 I-0.0116 J-0.01
X-10.7552 Y1.2129 Z-0.0772 I-0.0092 J-0.0122
G0 Z0.4
X-11.3006 Y-1.2219
Z0.2
G1 Z0.1148 F13.333
G3 X-11.3 Y-1.2207 Z0.1083 I-0.0393 J0.0219 F55.
X-11.2983 Y-1.217 Z0.1031 I-0.04 J0.0207
X-11.2964 Y-1.2114 Z0.1 I-0.0417 J0.017
X-11.3835 Y-1.1886 Z0.0621 I-0.0435 J0.0114
X-11.2964 Y-1.2114 Z0.0242 I0.0435 J-0.0114
X-11.3835 Y-1.1886 Z-0.0136 I-0.0435 J0.0114
X-11.2964 Y-1.2114 Z-0.0515 I0.0435 J-0.0114
X-11.3342 Y-1.1554 Z-0.072 I-0.0435 J0.0114
X-11.3849 Y-1.2 Z-0.0925 I-0.0058 J-0.0446
X-11.3581 I0.0134 J0. F60.
X-11.4849 I-0.0634 J0.
X-11.2581 I0.1134 J0.
X-11.5849 I-0.1634 J0.
X-11.1581 I0.2134 J0.
