%
(971-23-P-0004_BELLYPAN_1508)
(T1  D=0.1508 CR=0. - ZMIN=-0.0925 - FLAT END MILL)
G90 G94 G17 G91.1
G64 P0.001 Q0.001
G20
G53 G0 Z0.
(.3 CIRCLUAR THROUGH HOLE 2)
M9
T1 M6
S22000 M3
G4 P10.
G54
M7
G0 X4.7637 Y12.1137
G43 Z0.6 H1
G0 Z0.0783
G1 Z0.0134 F40.
G18 G2 X4.7788 Z-0.0017 I0.0151 K0.
G1 X4.7863
G17 G3 X4.7976 Y12.125 I0. J0.0113
X4.7524 Z-0.019 I-0.0226 J0.
X4.7976 Z-0.0362 I0.0226 J0.
X4.7524 Z-0.0535 I-0.0226 J0.
X4.7976 Z-0.0708 I0.0226 J0.
X4.7524 Z-0.0881 I-0.0226 J0.
X4.7593 Y12.1087 Z-0.0925 I0.0226 J0.
X4.7907 Y12.1413 I0.0157 J0.0163
X4.7593 Y12.1087 I-0.0157 J-0.0163
X4.7753 Y12.109 I0.0078 J0.0081
G1 X4.7805 Y12.1145
X4.7826 Y12.1166 Z-0.0922
X4.7845 Y12.1186 Z-0.0914
X4.7863 Y12.1205 Z-0.09
X4.7879 Y12.1221 Z-0.0881
X4.7892 Y12.1235 Z-0.0858
X4.7902 Y12.1245 Z-0.0832
X4.7908 Y12.1251 Z-0.0804
X4.791 Y12.1253 Z-0.0774
G0 Z0.4
X4.2137 Y12.1137
Z0.0783
G1 Z0.0134 F40.
G18 G2 X4.2288 Z-0.0017 I0.0151 K0.
G1 X4.2363
G17 G3 X4.2476 Y12.125 I0. J0.0113
X4.2024 Z-0.019 I-0.0226 J0.
X4.2476 Z-0.0362 I0.0226 J0.
X4.2024 Z-0.0535 I-0.0226 J0.
X4.2476 Z-0.0708 I0.0226 J0.
X4.2024 Z-0.0881 I-0.0226 J0.
X4.2093 Y12.1087 Z-0.0925 I0.0226 J0.
X4.2407 Y12.1413 I0.0157 J0.0163
X4.2093 Y12.1087 I-0.0157 J-0.0163
X4.2253 Y12.109 I0.0078 J0.0081
G1 X4.2305 Y12.1145
X4.2326 Y12.1166 Z-0.0922
X4.2345 Y12.1186 Z-0.0914
X4.2363 Y12.1205 Z-0.09
X4.2379 Y12.1221 Z-0.0881
X4.2392 Y12.1235 Z-0.0858
X4.2402 Y12.1245 Z-0.0832
X4.2408 Y12.1251 Z-0.0804
X4.241 Y12.1253 Z-0.0774
G0 Z0.4
X4.2137 Y11.3637
Z0.0783
G1 Z0.0134 F40.
G18 G2 X4.2288 Z-0.0017 I0.0151 K0.
G1 X4.2363
G17 G3 X4.2476 Y11.375 I0. J0.0113
X4.2024 Z-0.019 I-0.0226 J0.
X4.2476 Z-0.0362 I0.0226 J0.
X4.2024 Z-0.0535 I-0.0226 J0.
X4.2476 Z-0.0708 I0.0226 J0.
X4.2024 Z-0.0881 I-0.0226 J0.
X4.2093 Y11.3587 Z-0.0925 I0.0226 J0.
X4.2407 Y11.3913 I0.0157 J0.0163
X4.2093 Y11.3587 I-0.0157 J-0.0163
X4.2253 Y11.359 I0.0078 J0.0081
G1 X4.2305 Y11.3645
X4.2326 Y11.3666 Z-0.0922
X4.2345 Y11.3686 Z-0.0914
X4.2363 Y11.3705 Z-0.09
X4.2379 Y11.3721 Z-0.0881
X4.2392 Y11.3735 Z-0.0858
X4.2402 Y11.3745 Z-0.0832
X4.2408 Y11.3751 Z-0.0804
X4.241 Y11.3753 Z-0.0774
G0 Z0.4
X4.7637 Y11.3637
Z0.0783
G1 Z0.0134 F40.
G18 G2 X4.7788 Z-0.0017 I0.0151 K0.
G1 X4.7863
G17 G3 X4.7976 Y11.375 I0. J0.0113
X4.7524 Z-0.019 I-0.0226 J0.
X4.7976 Z-0.0362 I0.0226 J0.
X4.7524 Z-0.0535 I-0.0226 J0.
X4.7976 Z-0.0708 I0.0226 J0.
X4.7524 Z-0.0881 I-0.0226 J0.
X4.7593 Y11.3587 Z-0.0925 I0.0226 J0.
X4.7907 Y11.3913 I0.0157 J0.0163
X4.7593 Y11.3587 I-0.0157 J-0.0163
X4.7753 Y11.359 I0.0078 J0.0081
G1 X4.7805 Y11.3645
X4.7826 Y11.3666 Z-0.0922
X4.7845 Y11.3686 Z-0.0914
X4.7863 Y11.3705 Z-0.09
X4.7879 Y11.3721 Z-0.0881
X4.7892 Y11.3735 Z-0.0858
X4.7902 Y11.3745 Z-0.0832
X4.7908 Y11.3751 Z-0.0804
X4.791 Y11.3753 Z-0.0774
G0 Z0.4
X4.7637 Y10.6137
Z0.0783
G1 Z0.0134 F40.
G18 G2 X4.7788 Z-0.0017 I0.0151 K0.
G1 X4.7863
G17 G3 X4.7976 Y10.625 I0. J0.0113
X4.7524 Z-0.019 I-0.0226 J0.
X4.7976 Z-0.0362 I0.0226 J0.
X4.7524 Z-0.0535 I-0.0226 J0.
X4.7976 Z-0.0708 I0.0226 J0.
X4.7524 Z-0.0881 I-0.0226 J0.
X4.7593 Y10.6087 Z-0.0925 I0.0226 J0.
X4.7907 Y10.6413 I0.0157 J0.0163
X4.7593 Y10.6087 I-0.0157 J-0.0163
X4.7753 Y10.609 I0.0078 J0.0081
G1 X4.7805 Y10.6145
X4.7826 Y10.6166 Z-0.0922
X4.7845 Y10.6186 Z-0.0914
X4.7863 Y10.6205 Z-0.09
X4.7879 Y10.6221 Z-0.0881
X4.7892 Y10.6235 Z-0.0858
X4.7902 Y10.6245 Z-0.0832
X4.7908 Y10.6251 Z-0.0804
X4.791 Y10.6253 Z-0.0774
G0 Z0.4
X4.2137 Y10.6137
Z0.0783
G1 Z0.0134 F40.
G18 G2 X4.2288 Z-0.0017 I0.0151 K0.
G1 X4.2363
G17 G3 X4.2476 Y10.625 I0. J0.0113
X4.2024 Z-0.019 I-0.0226 J0.
X4.2476 Z-0.0362 I0.0226 J0.
X4.2024 Z-0.0535 I-0.0226 J0.
X4.2476 Z-0.0708 I0.0226 J0.
X4.2024 Z-0.0881 I-0.0226 J0.
X4.2093 Y10.6087 Z-0.0925 I0.0226 J0.
X4.2407 Y10.6413 I0.0157 J0.0163
X4.2093 Y10.6087 I-0.0157 J-0.0163
X4.2253 Y10.609 I0.0078 J0.0081
G1 X4.2305 Y10.6145
X4.2326 Y10.6166 Z-0.0922
X4.2345 Y10.6186 Z-0.0914
X4.2363 Y10.6205 Z-0.09
X4.2379 Y10.6221 Z-0.0881
X4.2392 Y10.6235 Z-0.0858
X4.2402 Y10.6245 Z-0.0832
X4.2408 Y10.6251 Z-0.0804
X4.241 Y10.6253 Z-0.0774
G0 Z0.4
X4.2137 Y9.8637
Z0.0783
G1 Z0.0134 F40.
G18 G2 X4.2288 Z-0.0017 I0.0151 K0.
G1 X4.2363
G17 G3 X4.2476 Y9.875 I0. J0.0113
X4.2024 Z-0.019 I-0.0226 J0.
X4.2476 Z-0.0362 I0.0226 J0.
X4.2024 Z-0.0535 I-0.0226 J0.
X4.2476 Z-0.0708 I0.0226 J0.
X4.2024 Z-0.0881 I-0.0226 J0.
X4.2093 Y9.8587 Z-0.0925 I0.0226 J0.
X4.2407 Y9.8913 I0.0157 J0.0163
X4.2093 Y9.8587 I-0.0157 J-0.0163
X4.2253 Y9.859 I0.0078 J0.0081
G1 X4.2305 Y9.8645
X4.2326 Y9.8666 Z-0.0922
X4.2345 Y9.8686 Z-0.0914
X4.2363 Y9.8705 Z-0.09
X4.2379 Y9.8721 Z-0.0881
X4.2392 Y9.8735 Z-0.0858
X4.2402 Y9.8745 Z-0.0832
X4.2408 Y9.8751 Z-0.0804
X4.241 Y9.8753 Z-0.0774
G0 Z0.4
X4.7637 Y9.8637
Z0.0783
G1 Z0.0134 F40.
G18 G2 X4.7788 Z-0.0017 I0.0151 K0.
G1 X4.7863
G17 G3 X4.7976 Y9.875 I0. J0.0113
X4.7524 Z-0.019 I-0.0226 J0.
X4.7976 Z-0.0362 I0.0226 J0.
X4.7524 Z-0.0535 I-0.0226 J0.
X4.7976 Z-0.0708 I0.0226 J0.
X4.7524 Z-0.0881 I-0.0226 J0.
X4.7593 Y9.8587 Z-0.0925 I0.0226 J0.
X4.7907 Y9.8913 I0.0157 J0.0163
X4.7593 Y9.8587 I-0.0157 J-0.0163
X4.7753 Y9.859 I0.0078 J0.0081
G1 X4.7805 Y9.8645
X4.7826 Y9.8666 Z-0.0922
X4.7845 Y9.8686 Z-0.0914
X4.7863 Y9.8705 Z-0.09
X4.7879 Y9.8721 Z-0.0881
X4.7892 Y9.8735 Z-0.0858
X4.7902 Y9.8745 Z-0.0832
X4.7908 Y9.8751 Z-0.0804
X4.791 Y9.8753 Z-0.0774
G0 Z0.4
X4.1363 Y9.0113
Z0.0783
G1 Z0.0134 F40.
G18 G3 X4.1212 Z-0.0017 I-0.0151 K0.
G1 X4.1137
G17 G3 X4.1024 Y9. I0. J-0.0113
X4.1476 Z-0.019 I0.0226 J0.
X4.1024 Z-0.0362 I-0.0226 J0.
X4.1476 Z-0.0535 I0.0226 J0.
X4.1024 Z-0.0708 I-0.0226 J0.
X4.1476 Z-0.0881 I0.0226 J0.
X4.1407 Y9.0163 Z-0.0925 I-0.0226 J0.
X4.1093 Y8.9837 I-0.0157 J-0.0163
X4.1407 Y9.0163 I0.0157 J0.0163
X4.1247 Y9.016 I-0.0078 J-0.0081
G1 X4.1195 Y9.0105
X4.1174 Y9.0084 Z-0.0922
X4.1155 Y9.0064 Z-0.0914
X4.1137 Y9.0045 Z-0.09
X4.1121 Y9.0029 Z-0.0881
X4.1108 Y9.0015 Z-0.0858
X4.1098 Y9.0005 Z-0.0832
X4.1092 Y8.9999 Z-0.0804
X4.109 Y8.9997 Z-0.0774
G0 Z0.4
X4.8863 Y9.0113
Z0.0783
G1 Z0.0134 F40.
G18 G3 X4.8712 Z-0.0017 I-0.0151 K0.
G1 X4.8637
G17 G3 X4.8524 Y9. I0. J-0.0113
X4.8976 Z-0.019 I0.0226 J0.
X4.8524 Z-0.0362 I-0.0226 J0.
X4.8976 Z-0.0535 I0.0226 J0.
X4.8524 Z-0.0708 I-0.0226 J0.
X4.8976 Z-0.0881 I0.0226 J0.
X4.8907 Y9.0163 Z-0.0925 I-0.0226 J0.
X4.8593 Y8.9837 I-0.0157 J-0.0163
X4.8907 Y9.0163 I0.0157 J0.0163
X4.8747 Y9.016 I-0.0078 J-0.0081
G1 X4.8695 Y9.0105
X4.8674 Y9.0084 Z-0.0922
X4.8655 Y9.0064 Z-0.0914
X4.8637 Y9.0045 Z-0.09
X4.8621 Y9.0029 Z-0.0881
X4.8608 Y9.0015 Z-0.0858
X4.8598 Y9.0005 Z-0.0832
X4.8592 Y8.9999 Z-0.0804
X4.859 Y8.9997 Z-0.0774
G0 Z0.4
X5.6137 Y8.9887
Z0.0783
G1 Z0.0134 F40.
G18 G2 X5.6288 Z-0.0017 I0.0151 K0.
G1 X5.6363
G17 G3 X5.6476 Y9. I0. J0.0113
X5.6024 Z-0.019 I-0.0226 J0.
X5.6476 Z-0.0362 I0.0226 J0.
X5.6024 Z-0.0535 I-0.0226 J0.
X5.6476 Z-0.0708 I0.0226 J0.
X5.6024 Z-0.0881 I-0.0226 J0.
X5.6093 Y8.9837 Z-0.0925 I0.0226 J0.
X5.6407 Y9.0163 I0.0157 J0.0163
X5.6093 Y8.9837 I-0.0157 J-0.0163
X5.6253 Y8.984 I0.0078 J0.0081
G1 X5.6305 Y8.9895
X5.6326 Y8.9916 Z-0.0922
X5.6345 Y8.9936 Z-0.0914
X5.6363 Y8.9955 Z-0.09
X5.6379 Y8.9971 Z-0.0881
X5.6392 Y8.9985 Z-0.0858
X5.6402 Y8.9995 Z-0.0832
X5.6408 Y9.0001 Z-0.0804
X5.641 Y9.0003 Z-0.0774
G0 Z0.4
X6.3863 Y9.0113
Z0.0783
G1 Z0.0134 F40.
G18 G3 X6.3712 Z-0.0017 I-0.0151 K0.
G1 X6.3637
G17 G3 X6.3524 Y9. I0. J-0.0113
X6.3976 Z-0.019 I0.0226 J0.
X6.3524 Z-0.0362 I-0.0226 J0.
X6.3976 Z-0.0535 I0.0226 J0.
X6.3524 Z-0.0708 I-0.0226 J0.
X6.3976 Z-0.0881 I0.0226 J0.
X6.3907 Y9.0163 Z-0.0925 I-0.0226 J0.
X6.3593 Y8.9837 I-0.0157 J-0.0163
X6.3907 Y9.0163 I0.0157 J0.0163
X6.3747 Y9.016 I-0.0078 J-0.0081
G1 X6.3695 Y9.0105
X6.3674 Y9.0084 Z-0.0922
X6.3655 Y9.0064 Z-0.0914
X6.3637 Y9.0045 Z-0.09
X6.3621 Y9.0029 Z-0.0881
X6.3608 Y9.0015 Z-0.0858
X6.3598 Y9.0005 Z-0.0832
X6.3592 Y8.9999 Z-0.0804
X6.359 Y8.9997 Z-0.0774
G0 Z0.4
X7.1137 Y8.9887
Z0.0783
G1 Z0.0134 F40.
G18 G2 X7.1288 Z-0.0017 I0.0151 K0.
G1 X7.1363
G17 G3 X7.1476 Y9. I0. J0.0113
X7.1024 Z-0.019 I-0.0226 J0.
X7.1476 Z-0.0362 I0.0226 J0.
X7.1024 Z-0.0535 I-0.0226 J0.
X7.1476 Z-0.0708 I0.0226 J0.
X7.1024 Z-0.0881 I-0.0226 J0.
X7.1093 Y8.9837 Z-0.0925 I0.0226 J0.
X7.1407 Y9.0163 I0.0157 J0.0163
X7.1093 Y8.9837 I-0.0157 J-0.0163
X7.1253 Y8.984 I0.0078 J0.0081
G1 X7.1305 Y8.9895
X7.1326 Y8.9916 Z-0.0922
X7.1345 Y8.9936 Z-0.0914
X7.1363 Y8.9955 Z-0.09
X7.1379 Y8.9971 Z-0.0881
X7.1392 Y8.9985 Z-0.0858
X7.1402 Y8.9995 Z-0.0832
X7.1408 Y9.0001 Z-0.0804
X7.141 Y9.0003 Z-0.0774
G0 Z0.4
X7.8863 Y9.0113
Z0.0783
G1 Z0.0134 F40.
G18 G3 X7.8712 Z-0.0017 I-0.0151 K0.
G1 X7.8637
G17 G3 X7.8524 Y9. I0. J-0.0113
X7.8976 Z-0.019 I0.0226 J0.
X7.8524 Z-0.0362 I-0.0226 J0.
X7.8976 Z-0.0535 I0.0226 J0.
X7.8524 Z-0.0708 I-0.0226 J0.
X7.8976 Z-0.0881 I0.0226 J0.
X7.8907 Y9.0163 Z-0.0925 I-0.0226 J0.
X7.8593 Y8.9837 I-0.0157 J-0.0163
X7.8907 Y9.0163 I0.0157 J0.0163
X7.8747 Y9.016 I-0.0078 J-0.0081
G1 X7.8695 Y9.0105
X7.8674 Y9.0084 Z-0.0922
X7.8655 Y9.0064 Z-0.0914
X7.8637 Y9.0045 Z-0.09
X7.8621 Y9.0029 Z-0.0881
X7.8608 Y9.0015 Z-0.0858
X7.8598 Y9.0005 Z-0.0832
X7.8592 Y8.9999 Z-0.0804
X7.859 Y8.9997 Z-0.0774
G0 Z0.4
X8.6137 Y8.9887
Z0.0783
G1 Z0.0134 F40.
G18 G2 X8.6288 Z-0.0017 I0.0151 K0.
G1 X8.6363
G17 G3 X8.6476 Y9. I0. J0.0113
X8.6024 Z-0.019 I-0.0226 J0.
X8.6476 Z-0.0362 I0.0226 J0.
X8.6024 Z-0.0535 I-0.0226 J0.
X8.6476 Z-0.0708 I0.0226 J0.
X8.6024 Z-0.0881 I-0.0226 J0.
X8.6093 Y8.9837 Z-0.0925 I0.0226 J0.
X8.6407 Y9.0163 I0.0157 J0.0163
X8.6093 Y8.9837 I-0.0157 J-0.0163
X8.6253 Y8.984 I0.0078 J0.0081
G1 X8.6305 Y8.9895
X8.6326 Y8.9916 Z-0.0922
X8.6345 Y8.9936 Z-0.0914
X8.6363 Y8.9955 Z-0.09
X8.6379 Y8.9971 Z-0.0881
X8.6392 Y8.9985 Z-0.0858
X8.6402 Y8.9995 Z-0.0832
X8.6408 Y9.0001 Z-0.0804
X8.641 Y9.0003 Z-0.0774
G0 Z0.4
X9.3637 Y8.9887
Z0.0783
G1 Z0.0134 F40.
G18 G2 X9.3788 Z-0.0017 I0.0151 K0.
G1 X9.3863
G17 G3 X9.3976 Y9. I0. J0.0113
X9.3524 Z-0.019 I-0.0226 J0.
X9.3976 Z-0.0362 I0.0226 J0.
X9.3524 Z-0.0535 I-0.0226 J0.
X9.3976 Z-0.0708 I0.0226 J0.
X9.3524 Z-0.0881 I-0.0226 J0.
X9.3593 Y8.9837 Z-0.0925 I0.0226 J0.
X9.3907 Y9.0163 I0.0157 J0.0163
X9.3593 Y8.9837 I-0.0157 J-0.0163
X9.3753 Y8.984 I0.0078 J0.0081
G1 X9.3805 Y8.9895
X9.3826 Y8.9916 Z-0.0922
X9.3845 Y8.9936 Z-0.0914
X9.3863 Y8.9955 Z-0.09
X9.3879 Y8.9971 Z-0.0881
X9.3892 Y8.9985 Z-0.0858
X9.3902 Y8.9995 Z-0.0832
X9.3908 Y9.0001 Z-0.0804
X9.391 Y9.0003 Z-0.0774
G0 Z0.4
X10.1137 Y8.9887
Z0.0783
G1 Z0.0134 F40.
G18 G2 X10.1288 Z-0.0017 I0.0151 K0.
G1 X10.1363
G17 G3 X10.1476 Y9. I0. J0.0113
X10.1024 Z-0.019 I-0.0226 J0.
X10.1125 Y8.9811 Z-0.0244 I0.0226 J0.
X10.1375 Y9.0189 Z-0.0417 I0.0125 J0.0189
X10.1161 Y9.0208 Z-0.0471 I-0.0125 J-0.0189
X10.1338 Y8.9792 Z-0.0644 I0.0089 J-0.0208
X10.1161 Y9.0208 Z-0.0816 I-0.0089 J0.0208
X10.1093 Y8.9837 Z-0.0925 I0.0089 J-0.0208
X10.1407 Y9.0163 I0.0157 J0.0163
X10.1093 Y8.9837 I-0.0157 J-0.0163
X10.1253 Y8.984 I0.0078 J0.0081
G1 X10.1305 Y8.9895
X10.1326 Y8.9916 Z-0.0922
X10.1345 Y8.9936 Z-0.0914
X10.1363 Y8.9955 Z-0.09
X10.1379 Y8.9971 Z-0.0881
X10.1392 Y8.9985 Z-0.0858
X10.1402 Y8.9995 Z-0.0832
X10.1408 Y9.0001 Z-0.0804
X10.141 Y9.0003 Z-0.0774
G0 Z0.4
X10.8863 Y9.0113
Z0.0783
G1 Z0.0134 F40.
G18 G3 X10.8712 Z-0.0017 I-0.0151 K0.
G1 X10.8637
G17 G3 X10.8524 Y9. I0. J-0.0113
X10.8976 Z-0.019 I0.0226 J0.
X10.8524 Z-0.0362 I-0.0226 J0.
X10.8976 Z-0.0535 I0.0226 J0.
X10.8524 Z-0.0708 I-0.0226 J0.
X10.8976 Z-0.0881 I0.0226 J0.
X10.8907 Y9.0163 Z-0.0925 I-0.0226 J0.
X10.8593 Y8.9837 I-0.0157 J-0.0163
X10.8907 Y9.0163 I0.0157 J0.0163
X10.8747 Y9.016 I-0.0078 J-0.0081
G1 X10.8695 Y9.0105
X10.8674 Y9.0084 Z-0.0922
X10.8655 Y9.0064 Z-0.0914
X10.8637 Y9.0045 Z-0.09
X10.8621 Y9.0029 Z-0.0881
X10.8608 Y9.0015 Z-0.0858
X10.8598 Y9.0005 Z-0.0832
X10.8592 Y8.9999 Z-0.0804
X10.859 Y8.9997 Z-0.0774
G0 Z0.4
X14.6137 Y8.9887
Z0.0783
G1 Z0.0134 F40.
G18 G2 X14.6288 Z-0.0017 I0.0151 K0.
G1 X14.6363
G17 G3 X14.6476 Y9. I0. J0.0113
X14.6024 Z-0.019 I-0.0226 J0.
X14.6476 Z-0.0362 I0.0226 J0.
X14.6024 Z-0.0535 I-0.0226 J0.
X14.6476 Z-0.0708 I0.0226 J0.
X14.6024 Z-0.0881 I-0.0226 J0.
X14.6093 Y8.9837 Z-0.0925 I0.0226 J0.
X14.6407 Y9.0163 I0.0157 J0.0163
X14.6093 Y8.9837 I-0.0157 J-0.0163
X14.6253 Y8.984 I0.0078 J0.0081
G1 X14.6305 Y8.9895
X14.6326 Y8.9916 Z-0.0922
X14.6345 Y8.9936 Z-0.0914
X14.6363 Y8.9955 Z-0.09
X14.6379 Y8.9971 Z-0.0881
X14.6392 Y8.9985 Z-0.0858
X14.6402 Y8.9995 Z-0.0832
X14.6408 Y9.0001 Z-0.0804
X14.641 Y9.0003 Z-0.0774
G0 Z0.4
X15.2387 Y8.2387
Z0.0783
G1 Z0.0134 F40.
G18 G2 X15.2538 Z-0.0017 I0.0151 K0.
G1 X15.2613
G17 G3 X15.2726 Y8.25 I0. J0.0113
X15.2274 Z-0.019 I-0.0226 J0.
X15.2726 Z-0.0362 I0.0226 J0.
X15.2274 Z-0.0535 I-0.0226 J0.
X15.2726 Z-0.0708 I0.0226 J0.
X15.2274 Z-0.0881 I-0.0226 J0.
X15.2343 Y8.2337 Z-0.0925 I0.0226 J0.
X15.2657 Y8.2663 I0.0157 J0.0163
X15.2343 Y8.2337 I-0.0157 J-0.0163
X15.2503 Y8.234 I0.0078 J0.0081
G1 X15.2555 Y8.2395
X15.2576 Y8.2416 Z-0.0922
X15.2595 Y8.2436 Z-0.0914
X15.2613 Y8.2455 Z-0.09
X15.2629 Y8.2471 Z-0.0881
X15.2642 Y8.2485 Z-0.0858
X15.2652 Y8.2495 Z-0.0832
X15.2658 Y8.2501 Z-0.0804
X15.266 Y8.2503 Z-0.0774
G0 Z0.4
X15.2387 Y7.4887
Z0.0783
G1 Z0.0134 F40.
G18 G2 X15.2538 Z-0.0017 I0.0151 K0.
G1 X15.2613
G17 G3 X15.2726 Y7.5 I0. J0.0113
X15.2274 Z-0.019 I-0.0226 J0.
X15.2726 Z-0.0362 I0.0226 J0.
X15.2274 Z-0.0535 I-0.0226 J0.
X15.2726 Z-0.0708 I0.0226 J0.
X15.2274 Z-0.0881 I-0.0226 J0.
X15.2343 Y7.4837 Z-0.0925 I0.0226 J0.
X15.2657 Y7.5163 I0.0157 J0.0163
X15.2343 Y7.4837 I-0.0157 J-0.0163
X15.2503 Y7.484 I0.0078 J0.0081
G1 X15.2555 Y7.4895
X15.2576 Y7.4916 Z-0.0922
X15.2595 Y7.4936 Z-0.0914
X15.2613 Y7.4955 Z-0.09
X15.2629 Y7.4971 Z-0.0881
X15.2642 Y7.4985 Z-0.0858
X15.2652 Y7.4995 Z-0.0832
X15.2658 Y7.5001 Z-0.0804
X15.266 Y7.5003 Z-0.0774
G0 Z0.4
X15.2387 Y6.7387
Z0.0783
G1 Z0.0134 F40.
G18 G2 X15.2538 Z-0.0017 I0.0151 K0.
G1 X15.2613
G17 G3 X15.2726 Y6.75 I0. J0.0113
X15.2274 Z-0.019 I-0.0226 J0.
X15.2726 Z-0.0362 I0.0226 J0.
X15.2274 Z-0.0535 I-0.0226 J0.
X15.2726 Z-0.0708 I0.0226 J0.
X15.2274 Z-0.0881 I-0.0226 J0.
X15.2343 Y6.7337 Z-0.0925 I0.0226 J0.
X15.2657 Y6.7663 I0.0157 J0.0163
X15.2343 Y6.7337 I-0.0157 J-0.0163
X15.2503 Y6.734 I0.0078 J0.0081
G1 X15.2555 Y6.7395
X15.2576 Y6.7416 Z-0.0922
X15.2595 Y6.7436 Z-0.0914
X15.2613 Y6.7455 Z-0.09
X15.2629 Y6.7471 Z-0.0881
X15.2642 Y6.7485 Z-0.0858
X15.2652 Y6.7495 Z-0.0832
X15.2658 Y6.7501 Z-0.0804
X15.266 Y6.7503 Z-0.0774
G0 Z0.4
X15.2387 Y5.9887
Z0.0783
G1 Z0.0134 F40.
G18 G2 X15.2538 Z-0.0017 I0.0151 K0.
G1 X15.2613
G17 G3 X15.2726 Y6. I0. J0.0113
X15.2274 Z-0.019 I-0.0226 J0.
X15.2726 Z-0.0362 I0.0226 J0.
X15.2274 Z-0.0535 I-0.0226 J0.
X15.2726 Z-0.0708 I0.0226 J0.
X15.2274 Z-0.0881 I-0.0226 J0.
X15.2343 Y5.9837 Z-0.0925 I0.0226 J0.
X15.2657 Y6.0163 I0.0157 J0.0163
X15.2343 Y5.9837 I-0.0157 J-0.0163
X15.2503 Y5.984 I0.0078 J0.0081
G1 X15.2555 Y5.9895
X15.2576 Y5.9916 Z-0.0922
X15.2595 Y5.9936 Z-0.0914
X15.2613 Y5.9955 Z-0.09
X15.2629 Y5.9971 Z-0.0881
X15.2642 Y5.9985 Z-0.0858
X15.2652 Y5.9995 Z-0.0832
X15.2658 Y6.0001 Z-0.0804
X15.266 Y6.0003 Z-0.0774
G0 Z0.4
X15.2387 Y5.2387
Z0.0783
G1 Z0.0134 F40.
G18 G2 X15.2538 Z-0.0017 I0.0151 K0.
G1 X15.2613
G17 G3 X15.2726 Y5.25 I0. J0.0113
X15.2274 Z-0.019 I-0.0226 J0.
X15.2726 Z-0.0362 I0.0226 J0.
X15.2274 Z-0.0535 I-0.0226 J0.
X15.2726 Z-0.0708 I0.0226 J0.
X15.2274 Z-0.0881 I-0.0226 J0.
X15.2343 Y5.2337 Z-0.0925 I0.0226 J0.
X15.2657 Y5.2663 I0.0157 J0.0163
X15.2343 Y5.2337 I-0.0157 J-0.0163
X15.2503 Y5.234 I0.0078 J0.0081
G1 X15.2555 Y5.2395
X15.2576 Y5.2416 Z-0.0922
X15.2595 Y5.2436 Z-0.0914
X15.2613 Y5.2455 Z-0.09
X15.2629 Y5.2471 Z-0.0881
X15.2642 Y5.2485 Z-0.0858
X15.2652 Y5.2495 Z-0.0832
X15.2658 Y5.2501 Z-0.0804
X15.266 Y5.2503 Z-0.0774
G0 Z0.4
X15.2387 Y4.4887
Z0.0783
G1 Z0.0134 F40.
G18 G2 X15.2538 Z-0.0017 I0.0151 K0.
G1 X15.2613
G17 G3 X15.2726 Y4.5 I0. J0.0113
X15.2274 Z-0.019 I-0.0226 J0.
X15.2726 Z-0.0362 I0.0226 J0.
X15.2274 Z-0.0535 I-0.0226 J0.
X15.2726 Z-0.0708 I0.0226 J0.
X15.2274 Z-0.0881 I-0.0226 J0.
X15.2343 Y4.4837 Z-0.0925 I0.0226 J0.
X15.2657 Y4.5163 I0.0157 J0.0163
X15.2343 Y4.4837 I-0.0157 J-0.0163
X15.2503 Y4.484 I0.0078 J0.0081
G1 X15.2555 Y4.4895
X15.2576 Y4.4916 Z-0.0922
X15.2595 Y4.4936 Z-0.0914
X15.2613 Y4.4955 Z-0.09
X15.2629 Y4.4971 Z-0.0881
X15.2642 Y4.4985 Z-0.0858
X15.2652 Y4.4995 Z-0.0832
X15.2658 Y4.5001 Z-0.0804
X15.266 Y4.5003 Z-0.0774
G0 Z0.4
X15.2387 Y3.7387
Z0.0783
G1 Z0.0134 F40.
G18 G2 X15.2538 Z-0.0017 I0.0151 K0.
G1 X15.2613
G17 G3 X15.2726 Y3.75 I0. J0.0113
X15.2274 Z-0.019 I-0.0226 J0.
X15.2726 Z-0.0362 I0.0226 J0.
X15.2274 Z-0.0535 I-0.0226 J0.
X15.2726 Z-0.0708 I0.0226 J0.
X15.2274 Z-0.0881 I-0.0226 J0.
X15.2343 Y3.7337 Z-0.0925 I0.0226 J0.
X15.2657 Y3.7663 I0.0157 J0.0163
X15.2343 Y3.7337 I-0.0157 J-0.0163
X15.2503 Y3.734 I0.0078 J0.0081
G1 X15.2555 Y3.7395
X15.2576 Y3.7416 Z-0.0922
X15.2595 Y3.7436 Z-0.0914
X15.2613 Y3.7455 Z-0.09
X15.2629 Y3.7471 Z-0.0881
X15.2642 Y3.7485 Z-0.0858
X15.2652 Y3.7495 Z-0.0832
X15.2658 Y3.7501 Z-0.0804
X15.266 Y3.7503 Z-0.0774
G0 Z0.4
X15.2387 Y2.9887
Z0.0783
G1 Z0.0134 F40.
G18 G2 X15.2538 Z-0.0017 I0.0151 K0.
G1 X15.2613
G17 G3 X15.2726 Y3. I0. J0.0113
X15.2274 Z-0.019 I-0.0226 J0.
X15.2726 Z-0.0362 I0.0226 J0.
X15.2274 Z-0.0535 I-0.0226 J0.
X15.2726 Z-0.0708 I0.0226 J0.
X15.2274 Z-0.0881 I-0.0226 J0.
X15.2343 Y2.9837 Z-0.0925 I0.0226 J0.
X15.2657 Y3.0163 I0.0157 J0.0163
X15.2343 Y2.9837 I-0.0157 J-0.0163
X15.2503 Y2.984 I0.0078 J0.0081
G1 X15.2555 Y2.9895
X15.2576 Y2.9916 Z-0.0922
X15.2595 Y2.9936 Z-0.0914
X15.2613 Y2.9955 Z-0.09
X15.2629 Y2.9971 Z-0.0881
X15.2642 Y2.9985 Z-0.0858
X15.2652 Y2.9995 Z-0.0832
X15.2658 Y3.0001 Z-0.0804
X15.266 Y3.0003 Z-0.0774
G0 Z0.4
X15.2387 Y2.2387
Z0.0783
G1 Z0.0134 F40.
G18 G2 X15.2538 Z-0.0017 I0.0151 K0.
G1 X15.2613
G17 G3 X15.2726 Y2.25 I0. J0.0113
X15.2274 Z-0.019 I-0.0226 J0.
X15.2726 Z-0.0362 I0.0226 J0.
X15.2274 Z-0.0535 I-0.0226 J0.
X15.2726 Z-0.0708 I0.0226 J0.
X15.2274 Z-0.0881 I-0.0226 J0.
X15.2343 Y2.2337 Z-0.0925 I0.0226 J0.
X15.2657 Y2.2663 I0.0157 J0.0163
X15.2343 Y2.2337 I-0.0157 J-0.0163
X15.2503 Y2.234 I0.0078 J0.0081
G1 X15.2555 Y2.2395
X15.2576 Y2.2416 Z-0.0922
X15.2595 Y2.2436 Z-0.0914
X15.2613 Y2.2455 Z-0.09
X15.2629 Y2.2471 Z-0.0881
X15.2642 Y2.2485 Z-0.0858
X15.2652 Y2.2495 Z-0.0832
X15.2658 Y2.2501 Z-0.0804
X15.266 Y2.2503 Z-0.0774
G0 Z0.4
X15.2387 Y1.4887
Z0.0783
G1 Z0.0134 F40.
G18 G2 X15.2538 Z-0.0017 I0.0151 K0.
G1 X15.2613
G17 G3 X15.2726 Y1.5 I0. J0.0113
X15.2274 Z-0.019 I-0.0226 J0.
X15.2726 Z-0.0362 I0.0226 J0.
X15.2274 Z-0.0535 I-0.0226 J0.
X15.2726 Z-0.0708 I0.0226 J0.
X15.2274 Z-0.0881 I-0.0226 J0.
X15.2343 Y1.4837 Z-0.0925 I0.0226 J0.
X15.2657 Y1.5163 I0.0157 J0.0163
X15.2343 Y1.4837 I-0.0157 J-0.0163
X15.2503 Y1.484 I0.0078 J0.0081
G1 X15.2555 Y1.4895
X15.2576 Y1.4916 Z-0.0922
X15.2595 Y1.4936 Z-0.0914
X15.2613 Y1.4955 Z-0.09
X15.2629 Y1.4971 Z-0.0881
X15.2642 Y1.4985 Z-0.0858
X15.2652 Y1.4995 Z-0.0832
X15.2658 Y1.5001 Z-0.0804
X15.266 Y1.5003 Z-0.0774
G0 Z0.4
X15.2387 Y0.7387
Z0.0783
G1 Z0.0134 F40.
G18 G2 X15.2538 Z-0.0017 I0.0151 K0.
G1 X15.2613
G17 G3 X15.2726 Y0.75 I0. J0.0113
X15.2274 Z-0.019 I-0.0226 J0.
X15.2726 Z-0.0362 I0.0226 J0.
X15.2274 Z-0.0535 I-0.0226 J0.
X15.2726 Z-0.0708 I0.0226 J0.
X15.2274 Z-0.0881 I-0.0226 J0.
X15.2343 Y0.7337 Z-0.0925 I0.0226 J0.
X15.2657 Y0.7663 I0.0157 J0.0163
X15.2343 Y0.7337 I-0.0157 J-0.0163
X15.2503 Y0.734 I0.0078 J0.0081
G1 X15.2555 Y0.7395
X15.2576 Y0.7416 Z-0.0922
X15.2595 Y0.7436 Z-0.0914
X15.2613 Y0.7455 Z-0.09
X15.2629 Y0.7471 Z-0.0881
X15.2642 Y0.7485 Z-0.0858
X15.2652 Y0.7495 Z-0.0832
X15.2658 Y0.7501 Z-0.0804
X15.266 Y0.7503 Z-0.0774
G0 Z0.4
X15.2387 Y-0.0113
Z0.0783
G1 Z0.0134 F40.
G18 G2 X15.2538 Z-0.0017 I0.0151 K0.
G1 X15.2613
G17 G3 X15.2726 Y0. I0. J0.0113
X15.2274 Z-0.019 I-0.0226 J0.
X15.2726 Z-0.0362 I0.0226 J0.
X15.2274 Z-0.0535 I-0.0226 J0.
X15.2726 Z-0.0708 I0.0226 J0.
X15.2274 Z-0.0881 I-0.0226 J0.
X15.2343 Y-0.0163 Z-0.0925 I0.0226 J0.
X15.2657 Y0.0163 I0.0157 J0.0163
X15.2343 Y-0.0163 I-0.0157 J-0.0163
X15.2503 Y-0.016 I0.0078 J0.0081
G1 X15.2555 Y-0.0105
X15.2576 Y-0.0084 Z-0.0922
X15.2595 Y-0.0064 Z-0.0914
X15.2613 Y-0.0045 Z-0.09
X15.2629 Y-0.0029 Z-0.0881
X15.2642 Y-0.0015 Z-0.0858
X15.2652 Y-0.0005 Z-0.0832
X15.2658 Y0.0001 Z-0.0804
X15.266 Y0.0003 Z-0.0774
G0 Z0.4
X15.2387 Y-0.7613
Z0.0783
G1 Z0.0134 F40.
G18 G2 X15.2538 Z-0.0017 I0.0151 K0.
G1 X15.2613
G17 G3 X15.2726 Y-0.75 I0. J0.0113
X15.2274 Z-0.019 I-0.0226 J0.
X15.2726 Z-0.0362 I0.0226 J0.
X15.2274 Z-0.0535 I-0.0226 J0.
X15.2726 Z-0.0708 I0.0226 J0.
X15.2274 Z-0.0881 I-0.0226 J0.
X15.2343 Y-0.7663 Z-0.0925 I0.0226 J0.
X15.2657 Y-0.7337 I0.0157 J0.0163
X15.2343 Y-0.7663 I-0.0157 J-0.0163
X15.2503 Y-0.766 I0.0078 J0.0081
G1 X15.2555 Y-0.7605
X15.2576 Y-0.7584 Z-0.0922
X15.2595 Y-0.7564 Z-0.0914
X15.2613 Y-0.7545 Z-0.09
X15.2629 Y-0.7529 Z-0.0881
X15.2642 Y-0.7515 Z-0.0858
X15.2652 Y-0.7505 Z-0.0832
X15.2658 Y-0.7499 Z-0.0804
X15.266 Y-0.7497 Z-0.0774
G0 Z0.4
X15.2387 Y-1.5113
Z0.0783
G1 Z0.0134 F40.
G18 G2 X15.2538 Z-0.0017 I0.0151 K0.
G1 X15.2613
G17 G3 X15.2726 Y-1.5 I0. J0.0113
X15.2274 Z-0.019 I-0.0226 J0.
X15.2726 Z-0.0362 I0.0226 J0.
X15.2274 Z-0.0535 I-0.0226 J0.
X15.2726 Z-0.0708 I0.0226 J0.
X15.2274 Z-0.0881 I-0.0226 J0.
X15.2343 Y-1.5163 Z-0.0925 I0.0226 J0.
X15.2657 Y-1.4837 I0.0157 J0.0163
X15.2343 Y-1.5163 I-0.0157 J-0.0163
X15.2503 Y-1.516 I0.0078 J0.0081
G1 X15.2555 Y-1.5105
X15.2576 Y-1.5084 Z-0.0922
X15.2595 Y-1.5064 Z-0.0914
X15.2613 Y-1.5045 Z-0.09
X15.2629 Y-1.5029 Z-0.0881
X15.2642 Y-1.5015 Z-0.0858
X15.2652 Y-1.5005 Z-0.0832
X15.2658 Y-1.4999 Z-0.0804
X15.266 Y-1.4997 Z-0.0774
G0 Z0.4
X15.2387 Y-2.2613
Z0.0783
G1 Z0.0134 F40.
G18 G2 X15.2538 Z-0.0017 I0.0151 K0.
G1 X15.2613
G17 G3 X15.2726 Y-2.25 I0. J0.0113
X15.2274 Z-0.019 I-0.0226 J0.
X15.2726 Z-0.0362 I0.0226 J0.
X15.2274 Z-0.0535 I-0.0226 J0.
X15.2726 Z-0.0708 I0.0226 J0.
X15.2274 Z-0.0881 I-0.0226 J0.
X15.2343 Y-2.2663 Z-0.0925 I0.0226 J0.
X15.2657 Y-2.2337 I0.0157 J0.0163
X15.2343 Y-2.2663 I-0.0157 J-0.0163
X15.2503 Y-2.266 I0.0078 J0.0081
G1 X15.2555 Y-2.2605
X15.2576 Y-2.2584 Z-0.0922
X15.2595 Y-2.2564 Z-0.0914
X15.2613 Y-2.2545 Z-0.09
X15.2629 Y-2.2529 Z-0.0881
X15.2642 Y-2.2515 Z-0.0858
X15.2652 Y-2.2505 Z-0.0832
X15.2658 Y-2.2499 Z-0.0804
X15.266 Y-2.2497 Z-0.0774
G0 Z0.4
X15.2387 Y-3.0113
Z0.0783
G1 Z0.0134 F40.
G18 G2 X15.2538 Z-0.0017 I0.0151 K0.
G1 X15.2613
G17 G3 X15.2726 Y-3. I0. J0.0113
X15.2274 Z-0.019 I-0.0226 J0.
X15.2726 Z-0.0362 I0.0226 J0.
X15.2274 Z-0.0535 I-0.0226 J0.
X15.2726 Z-0.0708 I0.0226 J0.
X15.2274 Z-0.0881 I-0.0226 J0.
X15.2343 Y-3.0163 Z-0.0925 I0.0226 J0.
X15.2657 Y-2.9837 I0.0157 J0.0163
X15.2343 Y-3.0163 I-0.0157 J-0.0163
X15.2503 Y-3.016 I0.0078 J0.0081
G1 X15.2555 Y-3.0105
X15.2576 Y-3.0084 Z-0.0922
X15.2595 Y-3.0064 Z-0.0914
X15.2613 Y-3.0045 Z-0.09
X15.2629 Y-3.0029 Z-0.0881
X15.2642 Y-3.0015 Z-0.0858
X15.2652 Y-3.0005 Z-0.0832
X15.2658 Y-2.9999 Z-0.0804
X15.266 Y-2.9997 Z-0.0774
G0 Z0.4
X15.2387 Y-3.7613
Z0.0783
G1 Z0.0134 F40.
G18 G2 X15.2538 Z-0.0017 I0.0151 K0.
G1 X15.2613
G17 G3 X15.2726 Y-3.75 I0. J0.0113
X15.2274 Z-0.019 I-0.0226 J0.
X15.2726 Z-0.0362 I0.0226 J0.
X15.2274 Z-0.0535 I-0.0226 J0.
X15.2726 Z-0.0708 I0.0226 J0.
X15.2274 Z-0.0881 I-0.0226 J0.
X15.2343 Y-3.7663 Z-0.0925 I0.0226 J0.
X15.2657 Y-3.7337 I0.0157 J0.0163
X15.2343 Y-3.7663 I-0.0157 J-0.0163
X15.2503 Y-3.766 I0.0078 J0.0081
G1 X15.2555 Y-3.7605
X15.2576 Y-3.7584 Z-0.0922
X15.2595 Y-3.7564 Z-0.0914
X15.2613 Y-3.7545 Z-0.09
X15.2629 Y-3.7529 Z-0.0881
X15.2642 Y-3.7515 Z-0.0858
X15.2652 Y-3.7505 Z-0.0832
X15.2658 Y-3.7499 Z-0.0804
X15.266 Y-3.7497 Z-0.0774
G0 Z0.4
X15.2387 Y-4.5113
Z0.0783
G1 Z0.0134 F40.
G18 G2 X15.2538 Z-0.0017 I0.0151 K0.
G1 X15.2613
G17 G3 X15.2726 Y-4.5 I0. J0.0113
X15.2274 Z-0.019 I-0.0226 J0.
X15.2726 Z-0.0362 I0.0226 J0.
X15.2274 Z-0.0535 I-0.0226 J0.
X15.2726 Z-0.0708 I0.0226 J0.
X15.2274 Z-0.0881 I-0.0226 J0.
X15.2343 Y-4.5163 Z-0.0925 I0.0226 J0.
X15.2657 Y-4.4837 I0.0157 J0.0163
X15.2343 Y-4.5163 I-0.0157 J-0.0163
X15.2503 Y-4.516 I0.0078 J0.0081
G1 X15.2555 Y-4.5105
X15.2576 Y-4.5084 Z-0.0922
X15.2595 Y-4.5064 Z-0.0914
X15.2613 Y-4.5045 Z-0.09
X15.2629 Y-4.5029 Z-0.0881
X15.2642 Y-4.5015 Z-0.0858
X15.2652 Y-4.5005 Z-0.0832
X15.2658 Y-4.4999 Z-0.0804
X15.266 Y-4.4997 Z-0.0774
G0 Z0.4
X15.2387 Y-5.2613
Z0.0783
G1 Z0.0134 F40.
G18 G2 X15.2538 Z-0.0017 I0.0151 K0.
G1 X15.2613
G17 G3 X15.2726 Y-5.25 I0. J0.0113
X15.2274 Z-0.019 I-0.0226 J0.
X15.2726 Z-0.0362 I0.0226 J0.
X15.2274 Z-0.0535 I-0.0226 J0.
X15.2726 Z-0.0708 I0.0226 J0.
X15.2274 Z-0.0881 I-0.0226 J0.
X15.2343 Y-5.2663 Z-0.0925 I0.0226 J0.
X15.2657 Y-5.2337 I0.0157 J0.0163
X15.2343 Y-5.2663 I-0.0157 J-0.0163
X15.2503 Y-5.266 I0.0078 J0.0081
G1 X15.2555 Y-5.2605
X15.2576 Y-5.2584 Z-0.0922
X15.2595 Y-5.2564 Z-0.0914
X15.2613 Y-5.2545 Z-0.09
X15.2629 Y-5.2529 Z-0.0881
X15.2642 Y-5.2515 Z-0.0858
X15.2652 Y-5.2505 Z-0.0832
X15.2658 Y-5.2499 Z-0.0804
X15.266 Y-5.2497 Z-0.0774
G0 Z0.4
X15.2387 Y-6.0113
Z0.0783
G1 Z0.0134 F40.
G18 G2 X15.2538 Z-0.0017 I0.0151 K0.
G1 X15.2613
G17 G3 X15.2726 Y-6. I0. J0.0113
X15.2274 Z-0.019 I-0.0226 J0.
X15.2726 Z-0.0362 I0.0226 J0.
X15.2274 Z-0.0535 I-0.0226 J0.
X15.2726 Z-0.0708 I0.0226 J0.
X15.2274 Z-0.0881 I-0.0226 J0.
X15.2343 Y-6.0163 Z-0.0925 I0.0226 J0.
X15.2657 Y-5.9837 I0.0157 J0.0163
X15.2343 Y-6.0163 I-0.0157 J-0.0163
X15.2503 Y-6.016 I0.0078 J0.0081
G1 X15.2555 Y-6.0105
X15.2576 Y-6.0084 Z-0.0922
X15.2595 Y-6.0064 Z-0.0914
X15.2613 Y-6.0045 Z-0.09
X15.2629 Y-6.0029 Z-0.0881
X15.2642 Y-6.0015 Z-0.0858
X15.2652 Y-6.0005 Z-0.0832
X15.2658 Y-5.9999 Z-0.0804
X15.266 Y-5.9997 Z-0.0774
G0 Z0.4
X15.2387 Y-6.7613
Z0.0783
G1 Z0.0134 F40.
G18 G2 X15.2538 Z-0.0017 I0.0151 K0.
G1 X15.2613
G17 G3 X15.2726 Y-6.75 I0. J0.0113
X15.2274 Z-0.019 I-0.0226 J0.
X15.2726 Z-0.0362 I0.0226 J0.
X15.2274 Z-0.0535 I-0.0226 J0.
X15.2726 Z-0.0708 I0.0226 J0.
X15.2274 Z-0.0881 I-0.0226 J0.
X15.2343 Y-6.7663 Z-0.0925 I0.0226 J0.
X15.2657 Y-6.7337 I0.0157 J0.0163
X15.2343 Y-6.7663 I-0.0157 J-0.0163
X15.2503 Y-6.766 I0.0078 J0.0081
G1 X15.2555 Y-6.7605
X15.2576 Y-6.7584 Z-0.0922
X15.2595 Y-6.7564 Z-0.0914
X15.2613 Y-6.7545 Z-0.09
X15.2629 Y-6.7529 Z-0.0881
X15.2642 Y-6.7515 Z-0.0858
X15.2652 Y-6.7505 Z-0.0832
X15.2658 Y-6.7499 Z-0.0804
X15.266 Y-6.7497 Z-0.0774
G0 Z0.4
X15.2387 Y-7.5113
Z0.0783
G1 Z0.0134 F40.
G18 G2 X15.2538 Z-0.0017 I0.0151 K0.
G1 X15.2613
G17 G3 X15.2726 Y-7.5 I0. J0.0113
X15.2274 Z-0.019 I-0.0226 J0.
X15.2726 Z-0.0362 I0.0226 J0.
X15.2274 Z-0.0535 I-0.0226 J0.
X15.2726 Z-0.0708 I0.0226 J0.
X15.2274 Z-0.0881 I-0.0226 J0.
X15.2343 Y-7.5163 Z-0.0925 I0.0226 J0.
X15.2657 Y-7.4837 I0.0157 J0.0163
X15.2343 Y-7.5163 I-0.0157 J-0.0163
X15.2503 Y-7.516 I0.0078 J0.0081
G1 X15.2555 Y-7.5105
X15.2576 Y-7.5084 Z-0.0922
X15.2595 Y-7.5064 Z-0.0914
X15.2613 Y-7.5045 Z-0.09
X15.2629 Y-7.5029 Z-0.0881
X15.2642 Y-7.5015 Z-0.0858
X15.2652 Y-7.5005 Z-0.0832
X15.2658 Y-7.4999 Z-0.0804
X15.266 Y-7.4997 Z-0.0774
G0 Z0.4
X15.2387 Y-8.2613
Z0.0783
G1 Z0.0134 F40.
G18 G2 X15.2538 Z-0.0017 I0.0151 K0.
G1 X15.2613
G17 G3 X15.2726 Y-8.25 I0. J0.0113
X15.2274 Z-0.019 I-0.0226 J0.
X15.2726 Z-0.0362 I0.0226 J0.
X15.2274 Z-0.0535 I-0.0226 J0.
X15.2726 Z-0.0708 I0.0226 J0.
X15.2274 Z-0.0881 I-0.0226 J0.
X15.2343 Y-8.2663 Z-0.0925 I0.0226 J0.
X15.2657 Y-8.2337 I0.0157 J0.0163
X15.2343 Y-8.2663 I-0.0157 J-0.0163
X15.2503 Y-8.266 I0.0078 J0.0081
G1 X15.2555 Y-8.2605
X15.2576 Y-8.2584 Z-0.0922
X15.2595 Y-8.2564 Z-0.0914
X15.2613 Y-8.2545 Z-0.09
X15.2629 Y-8.2529 Z-0.0881
X15.2642 Y-8.2515 Z-0.0858
X15.2652 Y-8.2505 Z-0.0832
X15.2658 Y-8.2499 Z-0.0804
X15.266 Y-8.2497 Z-0.0774
G0 Z0.4
X14.6137 Y-9.0113
Z0.0783
G1 Z0.0134 F40.
G18 G2 X14.6288 Z-0.0017 I0.0151 K0.
G1 X14.6363
G17 G3 X14.6476 Y-9. I0. J0.0113
X14.6024 Z-0.019 I-0.0226 J0.
X14.6476 Z-0.0362 I0.0226 J0.
X14.6024 Z-0.0535 I-0.0226 J0.
X14.6476 Z-0.0708 I0.0226 J0.
X14.6024 Z-0.0881 I-0.0226 J0.
X14.6093 Y-9.0163 Z-0.0925 I0.0226 J0.
X14.6407 Y-8.9837 I0.0157 J0.0163
X14.6093 Y-9.0163 I-0.0157 J-0.0163
X14.6253 Y-9.016 I0.0078 J0.0081
G1 X14.6305 Y-9.0105
X14.6326 Y-9.0084 Z-0.0922
X14.6345 Y-9.0064 Z-0.0914
X14.6363 Y-9.0045 Z-0.09
X14.6379 Y-9.0029 Z-0.0881
X14.6392 Y-9.0015 Z-0.0858
X14.6402 Y-9.0005 Z-0.0832
X14.6408 Y-8.9999 Z-0.0804
X14.641 Y-8.9997 Z-0.0774
G0 Z0.4
X10.8863 Y-8.9887
Z0.0783
G1 Z0.0134 F40.
G18 G3 X10.8712 Z-0.0017 I-0.0151 K0.
G1 X10.8637
G17 G3 X10.8524 Y-9. I0. J-0.0113
X10.8976 Z-0.019 I0.0226 J0.
X10.8524 Z-0.0362 I-0.0226 J0.
X10.8976 Z-0.0535 I0.0226 J0.
X10.8524 Z-0.0708 I-0.0226 J0.
X10.8976 Z-0.0881 I0.0226 J0.
X10.8907 Y-8.9837 Z-0.0925 I-0.0226 J0.
X10.8593 Y-9.0163 I-0.0157 J-0.0163
X10.8907 Y-8.9837 I0.0157 J0.0163
X10.8747 Y-8.984 I-0.0078 J-0.0081
G1 X10.8695 Y-8.9895
X10.8674 Y-8.9916 Z-0.0922
X10.8655 Y-8.9936 Z-0.0914
X10.8637 Y-8.9955 Z-0.09
X10.8621 Y-8.9971 Z-0.0881
X10.8608 Y-8.9985 Z-0.0858
X10.8598 Y-8.9995 Z-0.0832
X10.8592 Y-9.0001 Z-0.0804
X10.859 Y-9.0003 Z-0.0774
G0 Z0.4
X10.1137 Y-9.0113
Z0.0783
G1 Z0.0134 F40.
G18 G2 X10.1288 Z-0.0017 I0.0151 K0.
G1 X10.1363
G17 G3 X10.1476 Y-9. I0. J0.0113
X10.1024 Z-0.019 I-0.0226 J0.
X10.1476 Z-0.0362 I0.0226 J0.
X10.1161 Y-8.9792 Z-0.0471 I-0.0226 J0.
X10.1338 Y-9.0208 Z-0.0644 I0.0089 J-0.0208
X10.1472 Y-9.0041 Z-0.0698 I-0.0089 J0.0208
X10.1028 Y-8.9959 Z-0.0871 I-0.0222 J0.0041
X10.1093 Y-9.0163 Z-0.0925 I0.0222 J-0.0041
X10.1407 Y-8.9837 I0.0157 J0.0163
X10.1093 Y-9.0163 I-0.0157 J-0.0163
X10.1253 Y-9.016 I0.0078 J0.0081
G1 X10.1305 Y-9.0105
X10.1326 Y-9.0084 Z-0.0922
X10.1345 Y-9.0064 Z-0.0914
X10.1363 Y-9.0045 Z-0.09
X10.1379 Y-9.0029 Z-0.0881
X10.1392 Y-9.0015 Z-0.0858
X10.1402 Y-9.0005 Z-0.0832
X10.1408 Y-8.9999 Z-0.0804
X10.141 Y-8.9997 Z-0.0774
G0 Z0.4
X9.3637 Y-9.0113
Z0.0783
G1 Z0.0134 F40.
G18 G2 X9.3788 Z-0.0017 I0.0151 K0.
G1 X9.3863
G17 G3 X9.3976 Y-9. I0. J0.0113
X9.3524 Z-0.019 I-0.0226 J0.
X9.3976 Z-0.0362 I0.0226 J0.
X9.3524 Z-0.0535 I-0.0226 J0.
X9.3976 Z-0.0708 I0.0226 J0.
X9.3524 Z-0.0881 I-0.0226 J0.
X9.3593 Y-9.0163 Z-0.0925 I0.0226 J0.
X9.3907 Y-8.9837 I0.0157 J0.0163
X9.3593 Y-9.0163 I-0.0157 J-0.0163
X9.3753 Y-9.016 I0.0078 J0.0081
G1 X9.3805 Y-9.0105
X9.3826 Y-9.0084 Z-0.0922
X9.3845 Y-9.0064 Z-0.0914
X9.3863 Y-9.0045 Z-0.09
X9.3879 Y-9.0029 Z-0.0881
X9.3892 Y-9.0015 Z-0.0858
X9.3902 Y-9.0005 Z-0.0832
X9.3908 Y-8.9999 Z-0.0804
X9.391 Y-8.9997 Z-0.0774
G0 Z0.4
X8.6137 Y-9.0113
Z0.0783
G1 Z0.0134 F40.
G18 G2 X8.6288 Z-0.0017 I0.0151 K0.
G1 X8.6363
G17 G3 X8.6476 Y-9. I0. J0.0113
X8.6024 Z-0.019 I-0.0226 J0.
X8.6476 Z-0.0362 I0.0226 J0.
X8.6024 Z-0.0535 I-0.0226 J0.
X8.6476 Z-0.0708 I0.0226 J0.
X8.6024 Z-0.0881 I-0.0226 J0.
X8.6093 Y-9.0163 Z-0.0925 I0.0226 J0.
X8.6407 Y-8.9837 I0.0157 J0.0163
X8.6093 Y-9.0163 I-0.0157 J-0.0163
X8.6253 Y-9.016 I0.0078 J0.0081
G1 X8.6305 Y-9.0105
X8.6326 Y-9.0084 Z-0.0922
X8.6345 Y-9.0064 Z-0.0914
X8.6363 Y-9.0045 Z-0.09
X8.6379 Y-9.0029 Z-0.0881
X8.6392 Y-9.0015 Z-0.0858
X8.6402 Y-9.0005 Z-0.0832
X8.6408 Y-8.9999 Z-0.0804
X8.641 Y-8.9997 Z-0.0774
G0 Z0.4
X7.8863 Y-8.9887
Z0.0783
G1 Z0.0134 F40.
G18 G3 X7.8712 Z-0.0017 I-0.0151 K0.
G1 X7.8637
G17 G3 X7.8524 Y-9. I0. J-0.0113
X7.8976 Z-0.019 I0.0226 J0.
X7.8524 Z-0.0362 I-0.0226 J0.
X7.8976 Z-0.0535 I0.0226 J0.
X7.8524 Z-0.0708 I-0.0226 J0.
X7.8976 Z-0.0881 I0.0226 J0.
X7.8907 Y-8.9837 Z-0.0925 I-0.0226 J0.
X7.8593 Y-9.0163 I-0.0157 J-0.0163
X7.8907 Y-8.9837 I0.0157 J0.0163
X7.8747 Y-8.984 I-0.0078 J-0.0081
G1 X7.8695 Y-8.9895
X7.8674 Y-8.9916 Z-0.0922
X7.8655 Y-8.9936 Z-0.0914
X7.8637 Y-8.9955 Z-0.09
X7.8621 Y-8.9971 Z-0.0881
X7.8608 Y-8.9985 Z-0.0858
X7.8598 Y-8.9995 Z-0.0832
X7.8592 Y-9.0001 Z-0.0804
X7.859 Y-9.0003 Z-0.0774
G0 Z0.4
X7.1137 Y-9.0113
Z0.0783
G1 Z0.0134 F40.
G18 G2 X7.1288 Z-0.0017 I0.0151 K0.
G1 X7.1363
G17 G3 X7.1476 Y-9. I0. J0.0113
X7.1024 Z-0.019 I-0.0226 J0.
X7.1476 Z-0.0362 I0.0226 J0.
X7.1024 Z-0.0535 I-0.0226 J0.
X7.1476 Z-0.0708 I0.0226 J0.
X7.1024 Z-0.0881 I-0.0226 J0.
X7.1093 Y-9.0163 Z-0.0925 I0.0226 J0.
X7.1407 Y-8.9837 I0.0157 J0.0163
X7.1093 Y-9.0163 I-0.0157 J-0.0163
X7.1253 Y-9.016 I0.0078 J0.0081
G1 X7.1305 Y-9.0105
X7.1326 Y-9.0084 Z-0.0922
X7.1345 Y-9.0064 Z-0.0914
X7.1363 Y-9.0045 Z-0.09
X7.1379 Y-9.0029 Z-0.0881
X7.1392 Y-9.0015 Z-0.0858
X7.1402 Y-9.0005 Z-0.0832
X7.1408 Y-8.9999 Z-0.0804
X7.141 Y-8.9997 Z-0.0774
G0 Z0.4
X6.3863 Y-8.9887
Z0.0783
G1 Z0.0134 F40.
G18 G3 X6.3712 Z-0.0017 I-0.0151 K0.
G1 X6.3637
G17 G3 X6.3524 Y-9. I0. J-0.0113
X6.3976 Z-0.019 I0.0226 J0.
X6.3524 Z-0.0362 I-0.0226 J0.
X6.3976 Z-0.0535 I0.0226 J0.
X6.3524 Z-0.0708 I-0.0226 J0.
X6.3976 Z-0.0881 I0.0226 J0.
X6.3907 Y-8.9837 Z-0.0925 I-0.0226 J0.
X6.3593 Y-9.0163 I-0.0157 J-0.0163
X6.3907 Y-8.9837 I0.0157 J0.0163
X6.3747 Y-8.984 I-0.0078 J-0.0081
G1 X6.3695 Y-8.9895
X6.3674 Y-8.9916 Z-0.0922
X6.3655 Y-8.9936 Z-0.0914
X6.3637 Y-8.9955 Z-0.09
X6.3621 Y-8.9971 Z-0.0881
X6.3608 Y-8.9985 Z-0.0858
X6.3598 Y-8.9995 Z-0.0832
X6.3592 Y-9.0001 Z-0.0804
X6.359 Y-9.0003 Z-0.0774
G0 Z0.4
X5.6137 Y-9.0113
Z0.0783
G1 Z0.0134 F40.
G18 G2 X5.6288 Z-0.0017 I0.0151 K0.
G1 X5.6363
G17 G3 X5.6476 Y-9. I0. J0.0113
X5.6024 Z-0.019 I-0.0226 J0.
X5.6476 Z-0.0362 I0.0226 J0.
X5.6024 Z-0.0535 I-0.0226 J0.
X5.6476 Z-0.0708 I0.0226 J0.
X5.6024 Z-0.0881 I-0.0226 J0.
X5.6093 Y-9.0163 Z-0.0925 I0.0226 J0.
X5.6407 Y-8.9837 I0.0157 J0.0163
X5.6093 Y-9.0163 I-0.0157 J-0.0163
X5.6253 Y-9.016 I0.0078 J0.0081
G1 X5.6305 Y-9.0105
X5.6326 Y-9.0084 Z-0.0922
X5.6345 Y-9.0064 Z-0.0914
X5.6363 Y-9.0045 Z-0.09
X5.6379 Y-9.0029 Z-0.0881
X5.6392 Y-9.0015 Z-0.0858
X5.6402 Y-9.0005 Z-0.0832
X5.6408 Y-8.9999 Z-0.0804
X5.641 Y-8.9997 Z-0.0774
G0 Z0.4
X4.8863 Y-8.9887
Z0.0783
G1 Z0.0134 F40.
G18 G3 X4.8712 Z-0.0017 I-0.0151 K0.
G1 X4.8637
G17 G3 X4.8524 Y-9. I0. J-0.0113
X4.8976 Z-0.019 I0.0226 J0.
X4.8524 Z-0.0362 I-0.0226 J0.
X4.8976 Z-0.0535 I0.0226 J0.
X4.8524 Z-0.0708 I-0.0226 J0.
X4.8976 Z-0.0881 I0.0226 J0.
X4.8907 Y-8.9837 Z-0.0925 I-0.0226 J0.
X4.8593 Y-9.0163 I-0.0157 J-0.0163
X4.8907 Y-8.9837 I0.0157 J0.0163
X4.8747 Y-8.984 I-0.0078 J-0.0081
G1 X4.8695 Y-8.9895
X4.8674 Y-8.9916 Z-0.0922
X4.8655 Y-8.9936 Z-0.0914
X4.8637 Y-8.9955 Z-0.09
X4.8621 Y-8.9971 Z-0.0881
X4.8608 Y-8.9985 Z-0.0858
X4.8598 Y-8.9995 Z-0.0832
X4.8592 Y-9.0001 Z-0.0804
X4.859 Y-9.0003 Z-0.0774
G0 Z0.4
X4.1363 Y-8.9887
Z0.0783
G1 Z0.0134 F40.
G18 G3 X4.1212 Z-0.0017 I-0.0151 K0.
G1 X4.1137
G17 G3 X4.1024 Y-9. I0. J-0.0113
X4.1476 Z-0.019 I0.0226 J0.
X4.1024 Z-0.0362 I-0.0226 J0.
X4.1476 Z-0.0535 I0.0226 J0.
X4.1024 Z-0.0708 I-0.0226 J0.
X4.1476 Z-0.0881 I0.0226 J0.
X4.1407 Y-8.9837 Z-0.0925 I-0.0226 J0.
X4.1093 Y-9.0163 I-0.0157 J-0.0163
X4.1407 Y-8.9837 I0.0157 J0.0163
X4.1247 Y-8.984 I-0.0078 J-0.0081
G1 X4.1195 Y-8.9895
X4.1174 Y-8.9916 Z-0.0922
X4.1155 Y-8.9936 Z-0.0914
X4.1137 Y-8.9955 Z-0.09
X4.1121 Y-8.9971 Z-0.0881
X4.1108 Y-8.9985 Z-0.0858
X4.1098 Y-8.9995 Z-0.0832
X4.1092 Y-9.0001 Z-0.0804
X4.109 Y-9.0003 Z-0.0774
G0 Z0.4
X4.7637 Y-9.8863
Z0.0783
G1 Z0.0134 F40.
G18 G2 X4.7788 Z-0.0017 I0.0151 K0.
G1 X4.7863
G17 G3 X4.7976 Y-9.875 I0. J0.0113
X4.7524 Z-0.019 I-0.0226 J0.
X4.7976 Z-0.0362 I0.0226 J0.
X4.7524 Z-0.0535 I-0.0226 J0.
X4.7976 Z-0.0708 I0.0226 J0.
X4.7524 Z-0.0881 I-0.0226 J0.
X4.7593 Y-9.8913 Z-0.0925 I0.0226 J0.
X4.7907 Y-9.8587 I0.0157 J0.0163
X4.7593 Y-9.8913 I-0.0157 J-0.0163
X4.7753 Y-9.891 I0.0078 J0.0081
G1 X4.7805 Y-9.8855
X4.7826 Y-9.8834 Z-0.0922
X4.7845 Y-9.8814 Z-0.0914
X4.7863 Y-9.8795 Z-0.09
X4.7879 Y-9.8779 Z-0.0881
X4.7892 Y-9.8765 Z-0.0858
X4.7902 Y-9.8755 Z-0.0832
X4.7908 Y-9.8749 Z-0.0804
X4.791 Y-9.8747 Z-0.0774
G0 Z0.4
X4.2137 Y-9.8863
Z0.0783
G1 Z0.0134 F40.
G18 G2 X4.2288 Z-0.0017 I0.0151 K0.
G1 X4.2363
G17 G3 X4.2476 Y-9.875 I0. J0.0113
X4.2024 Z-0.019 I-0.0226 J0.
X4.2476 Z-0.0362 I0.0226 J0.
X4.2024 Z-0.0535 I-0.0226 J0.
X4.2476 Z-0.0708 I0.0226 J0.
X4.2024 Z-0.0881 I-0.0226 J0.
X4.2093 Y-9.8913 Z-0.0925 I0.0226 J0.
X4.2407 Y-9.8587 I0.0157 J0.0163
X4.2093 Y-9.8913 I-0.0157 J-0.0163
X4.2253 Y-9.891 I0.0078 J0.0081
G1 X4.2305 Y-9.8855
X4.2326 Y-9.8834 Z-0.0922
X4.2345 Y-9.8814 Z-0.0914
X4.2363 Y-9.8795 Z-0.09
X4.2379 Y-9.8779 Z-0.0881
X4.2392 Y-9.8765 Z-0.0858
X4.2402 Y-9.8755 Z-0.0832
X4.2408 Y-9.8749 Z-0.0804
X4.241 Y-9.8747 Z-0.0774
G0 Z0.4
X4.2137 Y-10.6363
Z0.0783
G1 Z0.0134 F40.
G18 G2 X4.2288 Z-0.0017 I0.0151 K0.
G1 X4.2363
G17 G3 X4.2476 Y-10.625 I0. J0.0113
X4.2024 Z-0.019 I-0.0226 J0.
X4.2476 Z-0.0362 I0.0226 J0.
X4.2024 Z-0.0535 I-0.0226 J0.
X4.2476 Z-0.0708 I0.0226 J0.
X4.2024 Z-0.0881 I-0.0226 J0.
X4.2093 Y-10.6413 Z-0.0925 I0.0226 J0.
X4.2407 Y-10.6087 I0.0157 J0.0163
X4.2093 Y-10.6413 I-0.0157 J-0.0163
X4.2253 Y-10.641 I0.0078 J0.0081
G1 X4.2305 Y-10.6355
X4.2326 Y-10.6334 Z-0.0922
X4.2345 Y-10.6314 Z-0.0914
X4.2363 Y-10.6295 Z-0.09
X4.2379 Y-10.6279 Z-0.0881
X4.2392 Y-10.6265 Z-0.0858
X4.2402 Y-10.6255 Z-0.0832
X4.2408 Y-10.6249 Z-0.0804
X4.241 Y-10.6247 Z-0.0774
G0 Z0.4
X4.7637 Y-10.6363
Z0.0783
G1 Z0.0134 F40.
G18 G2 X4.7788 Z-0.0017 I0.0151 K0.
G1 X4.7863
G17 G3 X4.7976 Y-10.625 I0. J0.0113
X4.7524 Z-0.019 I-0.0226 J0.
X4.7976 Z-0.0362 I0.0226 J0.
X4.7524 Z-0.0535 I-0.0226 J0.
X4.7976 Z-0.0708 I0.0226 J0.
X4.7524 Z-0.0881 I-0.0226 J0.
X4.7593 Y-10.6413 Z-0.0925 I0.0226 J0.
X4.7907 Y-10.6087 I0.0157 J0.0163
X4.7593 Y-10.6413 I-0.0157 J-0.0163
X4.7753 Y-10.641 I0.0078 J0.0081
G1 X4.7805 Y-10.6355
X4.7826 Y-10.6334 Z-0.0922
X4.7845 Y-10.6314 Z-0.0914
X4.7863 Y-10.6295 Z-0.09
X4.7879 Y-10.6279 Z-0.0881
X4.7892 Y-10.6265 Z-0.0858
X4.7902 Y-10.6255 Z-0.0832
X4.7908 Y-10.6249 Z-0.0804
X4.791 Y-10.6247 Z-0.0774
G0 Z0.4
X4.7637 Y-11.3863
Z0.0783
G1 Z0.0134 F40.
G18 G2 X4.7788 Z-0.0017 I0.0151 K0.
G1 X4.7863
G17 G3 X4.7976 Y-11.375 I0. J0.0113
X4.7524 Z-0.019 I-0.0226 J0.
X4.7976 Z-0.0362 I0.0226 J0.
X4.7524 Z-0.0535 I-0.0226 J0.
X4.7976 Z-0.0708 I0.0226 J0.
X4.7524 Z-0.0881 I-0.0226 J0.
X4.7593 Y-11.3913 Z-0.0925 I0.0226 J0.
X4.7907 Y-11.3587 I0.0157 J0.0163
X4.7593 Y-11.3913 I-0.0157 J-0.0163
X4.7753 Y-11.391 I0.0078 J0.0081
G1 X4.7805 Y-11.3855
X4.7826 Y-11.3834 Z-0.0922
X4.7845 Y-11.3814 Z-0.0914
X4.7863 Y-11.3795 Z-0.09
X4.7879 Y-11.3779 Z-0.0881
X4.7892 Y-11.3765 Z-0.0858
X4.7902 Y-11.3755 Z-0.0832
X4.7908 Y-11.3749 Z-0.0804
X4.791 Y-11.3747 Z-0.0774
G0 Z0.4
X4.2137 Y-11.3863
Z0.0783
G1 Z0.0134 F40.
G18 G2 X4.2288 Z-0.0017 I0.0151 K0.
G1 X4.2363
G17 G3 X4.2476 Y-11.375 I0. J0.0113
X4.2024 Z-0.019 I-0.0226 J0.
X4.2476 Z-0.0362 I0.0226 J0.
X4.2024 Z-0.0535 I-0.0226 J0.
X4.2476 Z-0.0708 I0.0226 J0.
X4.2024 Z-0.0881 I-0.0226 J0.
X4.2093 Y-11.3913 Z-0.0925 I0.0226 J0.
X4.2407 Y-11.3587 I0.0157 J0.0163
X4.2093 Y-11.3913 I-0.0157 J-0.0163
X4.2253 Y-11.391 I0.0078 J0.0081
G1 X4.2305 Y-11.3855
X4.2326 Y-11.3834 Z-0.0922
X4.2345 Y-11.3814 Z-0.0914
X4.2363 Y-11.3795 Z-0.09
X4.2379 Y-11.3779 Z-0.0881
X4.2392 Y-11.3765 Z-0.0858
X4.2402 Y-11.3755 Z-0.0832
X4.2408 Y-11.3749 Z-0.0804
X4.241 Y-11.3747 Z-0.0774
G0 Z0.4
X4.2137 Y-12.1363
Z0.0783
G1 Z0.0134 F40.
G18 G2 X4.2288 Z-0.0017 I0.0151 K0.
G1 X4.2363
G17 G3 X4.2476 Y-12.125 I0. J0.0113
X4.2024 Z-0.019 I-0.0226 J0.
X4.2476 Z-0.0362 I0.0226 J0.
X4.2024 Z-0.0535 I-0.0226 J0.
X4.2476 Z-0.0708 I0.0226 J0.
X4.2024 Z-0.0881 I-0.0226 J0.
X4.2093 Y-12.1413 Z-0.0925 I0.0226 J0.
X4.2407 Y-12.1087 I0.0157 J0.0163
X4.2093 Y-12.1413 I-0.0157 J-0.0163
X4.2253 Y-12.141 I0.0078 J0.0081
G1 X4.2305 Y-12.1355
X4.2326 Y-12.1334 Z-0.0922
X4.2345 Y-12.1314 Z-0.0914
X4.2363 Y-12.1295 Z-0.09
X4.2379 Y-12.1279 Z-0.0881
X4.2392 Y-12.1265 Z-0.0858
X4.2402 Y-12.1255 Z-0.0832
X4.2408 Y-12.1249 Z-0.0804
X4.241 Y-12.1247 Z-0.0774
G0 Z0.4
X4.7637 Y-12.1363
Z0.0783
G1 Z0.0134 F40.
G18 G2 X4.7788 Z-0.0017 I0.0151 K0.
G1 X4.7863
G17 G3 X4.7976 Y-12.125 I0. J0.0113
X4.7524 Z-0.019 I-0.0226 J0.
X4.7976 Z-0.0362 I0.0226 J0.
X4.7524 Z-0.0535 I-0.0226 J0.
X4.7976 Z-0.0708 I0.0226 J0.
X4.7524 Z-0.0881 I-0.0226 J0.
X4.7593 Y-12.1413 Z-0.0925 I0.0226 J0.
X4.7907 Y-12.1087 I0.0157 J0.0163
X4.7593 Y-12.1413 I-0.0157 J-0.0163
X4.7753 Y-12.141 I0.0078 J0.0081
G1 X4.7805 Y-12.1355
X4.7826 Y-12.1334 Z-0.0922
X4.7845 Y-12.1314 Z-0.0914
X4.7863 Y-12.1295 Z-0.09
X4.7879 Y-12.1279 Z-0.0881
X4.7892 Y-12.1265 Z-0.0858
X4.7902 Y-12.1255 Z-0.0832
X4.7908 Y-12.1249 Z-0.0804
X4.791 Y-12.1247 Z-0.0774
G0 Z0.4
X-4.1363 Y-9.0113
Z0.0783
G1 Z0.0134 F40.
G18 G2 X-4.1212 Z-0.0017 I0.0151 K0.
G1 X-4.1137
G17 G3 X-4.1024 Y-9. I0. J0.0113
X-4.1476 Z-0.019 I-0.0226 J0.
X-4.1024 Z-0.0362 I0.0226 J0.
X-4.1476 Z-0.0535 I-0.0226 J0.
X-4.1024 Z-0.0708 I0.0226 J0.
X-4.1476 Z-0.0881 I-0.0226 J0.
X-4.1407 Y-9.0163 Z-0.0925 I0.0226 J0.
X-4.1093 Y-8.9837 I0.0157 J0.0163
X-4.1407 Y-9.0163 I-0.0157 J-0.0163
X-4.1247 Y-9.016 I0.0078 J0.0081
G1 X-4.1195 Y-9.0105
X-4.1174 Y-9.0084 Z-0.0922
X-4.1155 Y-9.0064 Z-0.0914
X-4.1137 Y-9.0045 Z-0.09
X-4.1121 Y-9.0029 Z-0.0881
X-4.1108 Y-9.0015 Z-0.0858
X-4.1098 Y-9.0005 Z-0.0832
X-4.1092 Y-8.9999 Z-0.0804
X-4.109 Y-8.9997 Z-0.0774
G0 Z0.4
X-4.8863 Y-9.0113
Z0.0783
G1 Z0.0134 F40.
G18 G2 X-4.8712 Z-0.0017 I0.0151 K0.
G1 X-4.8637
G17 G3 X-4.8524 Y-9. I0. J0.0113
X-4.8976 Z-0.019 I-0.0226 J0.
X-4.8524 Z-0.0362 I0.0226 J0.
X-4.8976 Z-0.0535 I-0.0226 J0.
X-4.8524 Z-0.0708 I0.0226 J0.
X-4.8976 Z-0.0881 I-0.0226 J0.
X-4.8907 Y-9.0163 Z-0.0925 I0.0226 J0.
X-4.8593 Y-8.9837 I0.0157 J0.0163
X-4.8907 Y-9.0163 I-0.0157 J-0.0163
X-4.8747 Y-9.016 I0.0078 J0.0081
G1 X-4.8695 Y-9.0105
X-4.8674 Y-9.0084 Z-0.0922
X-4.8655 Y-9.0064 Z-0.0914
X-4.8637 Y-9.0045 Z-0.09
X-4.8621 Y-9.0029 Z-0.0881
X-4.8608 Y-9.0015 Z-0.0858
X-4.8598 Y-9.0005 Z-0.0832
X-4.8592 Y-8.9999 Z-0.0804
X-4.859 Y-8.9997 Z-0.0774
G0 Z0.4
X-5.6137 Y-8.9887
Z0.0783
G1 Z0.0134 F40.
G18 G3 X-5.6288 Z-0.0017 I-0.0151 K0.
G1 X-5.6363
G17 G3 X-5.6476 Y-9. I0. J-0.0113
X-5.6024 Z-0.019 I0.0226 J0.
X-5.6476 Z-0.0362 I-0.0226 J0.
X-5.6024 Z-0.0535 I0.0226 J0.
X-5.6476 Z-0.0708 I-0.0226 J0.
X-5.6024 Z-0.0881 I0.0226 J0.
X-5.6093 Y-8.9837 Z-0.0925 I-0.0226 J0.
X-5.6407 Y-9.0163 I-0.0157 J-0.0163
X-5.6093 Y-8.9837 I0.0157 J0.0163
X-5.6253 Y-8.984 I-0.0078 J-0.0081
G1 X-5.6305 Y-8.9895
X-5.6326 Y-8.9916 Z-0.0922
X-5.6345 Y-8.9936 Z-0.0914
X-5.6363 Y-8.9955 Z-0.09
X-5.6379 Y-8.9971 Z-0.0881
X-5.6392 Y-8.9985 Z-0.0858
X-5.6402 Y-8.9995 Z-0.0832
X-5.6408 Y-9.0001 Z-0.0804
X-5.641 Y-9.0003 Z-0.0774
G0 Z0.4
X-10.1137 Y-8.9887
Z0.0783
G1 Z0.0134 F40.
G18 G3 X-10.1288 Z-0.0017 I-0.0151 K0.
G1 X-10.1363
G17 G3 X-10.1476 Y-9. I0. J-0.0113
X-10.1024 Z-0.019 I0.0226 J0.
X-10.1125 Y-8.9811 Z-0.0244 I-0.0226 J0.
X-10.1375 Y-9.0189 Z-0.0417 I-0.0125 J-0.0189
X-10.1161 Y-9.0208 Z-0.0471 I0.0125 J0.0189
X-10.1338 Y-8.9792 Z-0.0644 I-0.0089 J0.0208
X-10.1161 Y-9.0208 Z-0.0816 I0.0089 J-0.0208
X-10.1093 Y-8.9837 Z-0.0925 I-0.0089 J0.0208
X-10.1407 Y-9.0163 I-0.0157 J-0.0163
X-10.1093 Y-8.9837 I0.0157 J0.0163
X-10.1253 Y-8.984 I-0.0078 J-0.0081
G1 X-10.1305 Y-8.9895
X-10.1326 Y-8.9916 Z-0.0922
X-10.1345 Y-8.9936 Z-0.0914
X-10.1363 Y-8.9955 Z-0.09
X-10.1379 Y-8.9971 Z-0.0881
X-10.1392 Y-8.9985 Z-0.0858
X-10.1402 Y-8.9995 Z-0.0832
X-10.1408 Y-9.0001 Z-0.0804
X-10.141 Y-9.0003 Z-0.0774
G0 Z0.4
X-10.8863 Y-9.0113
Z0.0783
G1 Z0.0134 F40.
G18 G2 X-10.8712 Z-0.0017 I0.0151 K0.
G1 X-10.8637
G17 G3 X-10.8524 Y-9. I0. J0.0113
X-10.8976 Z-0.019 I-0.0226 J0.
X-10.8524 Z-0.0362 I0.0226 J0.
X-10.8976 Z-0.0535 I-0.0226 J0.
X-10.8524 Z-0.0708 I0.0226 J0.
X-10.8976 Z-0.0881 I-0.0226 J0.
X-10.8907 Y-9.0163 Z-0.0925 I0.0226 J0.
X-10.8593 Y-8.9837 I0.0157 J0.0163
X-10.8907 Y-9.0163 I-0.0157 J-0.0163
X-10.8747 Y-9.016 I0.0078 J0.0081
G1 X-10.8695 Y-9.0105
X-10.8674 Y-9.0084 Z-0.0922
X-10.8655 Y-9.0064 Z-0.0914
X-10.8637 Y-9.0045 Z-0.09
X-10.8621 Y-9.0029 Z-0.0881
X-10.8608 Y-9.0015 Z-0.0858
X-10.8598 Y-9.0005 Z-0.0832
X-10.8592 Y-8.9999 Z-0.0804
X-10.859 Y-8.9997 Z-0.0774
G0 Z0.4
X-14.6137 Y-8.9887
Z0.0783
G1 Z0.0134 F40.
G18 G3 X-14.6288 Z-0.0017 I-0.0151 K0.
G1 X-14.6363
G17 G3 X-14.6476 Y-9. I0. J-0.0113
X-14.6024 Z-0.019 I0.0226 J0.
X-14.6476 Z-0.0362 I-0.0226 J0.
X-14.6024 Z-0.0535 I0.0226 J0.
X-14.6476 Z-0.0708 I-0.0226 J0.
X-14.6024 Z-0.0881 I0.0226 J0.
X-14.6093 Y-8.9837 Z-0.0925 I-0.0226 J0.
X-14.6407 Y-9.0163 I-0.0157 J-0.0163
X-14.6093 Y-8.9837 I0.0157 J0.0163
X-14.6253 Y-8.984 I-0.0078 J-0.0081
G1 X-14.6305 Y-8.9895
X-14.6326 Y-8.9916 Z-0.0922
X-14.6345 Y-8.9936 Z-0.0914
X-14.6363 Y-8.9955 Z-0.09
X-14.6379 Y-8.9971 Z-0.0881
X-14.6392 Y-8.9985 Z-0.0858
X-14.6402 Y-8.9995 Z-0.0832
X-14.6408 Y-9.0001 Z-0.0804
X-14.641 Y-9.0003 Z-0.0774
G0 Z0.4
X-15.2387 Y-8.2387
Z0.0783
G1 Z0.0134 F40.
G18 G3 X-15.2538 Z-0.0017 I-0.0151 K0.
G1 X-15.2613
G17 G3 X-15.2726 Y-8.25 I0. J-0.0113
X-15.2274 Z-0.019 I0.0226 J0.
X-15.2726 Z-0.0362 I-0.0226 J0.
X-15.2274 Z-0.0535 I0.0226 J0.
X-15.2726 Z-0.0708 I-0.0226 J0.
X-15.2274 Z-0.0881 I0.0226 J0.
X-15.2343 Y-8.2337 Z-0.0925 I-0.0226 J0.
X-15.2657 Y-8.2663 I-0.0157 J-0.0163
X-15.2343 Y-8.2337 I0.0157 J0.0163
X-15.2503 Y-8.234 I-0.0078 J-0.0081
G1 X-15.2555 Y-8.2395
X-15.2576 Y-8.2416 Z-0.0922
X-15.2595 Y-8.2436 Z-0.0914
X-15.2613 Y-8.2455 Z-0.09
X-15.2629 Y-8.2471 Z-0.0881
X-15.2642 Y-8.2485 Z-0.0858
X-15.2652 Y-8.2495 Z-0.0832
X-15.2658 Y-8.2501 Z-0.0804
X-15.266 Y-8.2503 Z-0.0774
G0 Z0.4
X-15.2387 Y-7.4887
Z0.0783
G1 Z0.0134 F40.
G18 G3 X-15.2538 Z-0.0017 I-0.0151 K0.
G1 X-15.2613
G17 G3 X-15.2726 Y-7.5 I0. J-0.0113
X-15.2274 Z-0.019 I0.0226 J0.
X-15.2726 Z-0.0362 I-0.0226 J0.
X-15.2274 Z-0.0535 I0.0226 J0.
X-15.2726 Z-0.0708 I-0.0226 J0.
X-15.2274 Z-0.0881 I0.0226 J0.
X-15.2343 Y-7.4837 Z-0.0925 I-0.0226 J0.
X-15.2657 Y-7.5163 I-0.0157 J-0.0163
X-15.2343 Y-7.4837 I0.0157 J0.0163
X-15.2503 Y-7.484 I-0.0078 J-0.0081
G1 X-15.2555 Y-7.4895
X-15.2576 Y-7.4916 Z-0.0922
X-15.2595 Y-7.4936 Z-0.0914
X-15.2613 Y-7.4955 Z-0.09
X-15.2629 Y-7.4971 Z-0.0881
X-15.2642 Y-7.4985 Z-0.0858
X-15.2652 Y-7.4995 Z-0.0832
X-15.2658 Y-7.5001 Z-0.0804
X-15.266 Y-7.5003 Z-0.0774
G0 Z0.4
X-15.2387 Y-6.7387
Z0.0783
G1 Z0.0134 F40.
G18 G3 X-15.2538 Z-0.0017 I-0.0151 K0.
G1 X-15.2613
G17 G3 X-15.2726 Y-6.75 I0. J-0.0113
X-15.2274 Z-0.019 I0.0226 J0.
X-15.2726 Z-0.0362 I-0.0226 J0.
X-15.2274 Z-0.0535 I0.0226 J0.
X-15.2726 Z-0.0708 I-0.0226 J0.
X-15.2274 Z-0.0881 I0.0226 J0.
X-15.2343 Y-6.7337 Z-0.0925 I-0.0226 J0.
X-15.2657 Y-6.7663 I-0.0157 J-0.0163
X-15.2343 Y-6.7337 I0.0157 J0.0163
X-15.2503 Y-6.734 I-0.0078 J-0.0081
G1 X-15.2555 Y-6.7395
X-15.2576 Y-6.7416 Z-0.0922
X-15.2595 Y-6.7436 Z-0.0914
X-15.2613 Y-6.7455 Z-0.09
X-15.2629 Y-6.7471 Z-0.0881
X-15.2642 Y-6.7485 Z-0.0858
X-15.2652 Y-6.7495 Z-0.0832
X-15.2658 Y-6.7501 Z-0.0804
X-15.266 Y-6.7503 Z-0.0774
G0 Z0.4
X-15.2387 Y-5.9887
Z0.0783
G1 Z0.0134 F40.
G18 G3 X-15.2538 Z-0.0017 I-0.0151 K0.
G1 X-15.2613
G17 G3 X-15.2726 Y-6. I0. J-0.0113
X-15.2274 Z-0.019 I0.0226 J0.
X-15.2726 Z-0.0362 I-0.0226 J0.
X-15.2274 Z-0.0535 I0.0226 J0.
X-15.2726 Z-0.0708 I-0.0226 J0.
X-15.2274 Z-0.0881 I0.0226 J0.
X-15.2343 Y-5.9837 Z-0.0925 I-0.0226 J0.
X-15.2657 Y-6.0163 I-0.0157 J-0.0163
X-15.2343 Y-5.9837 I0.0157 J0.0163
X-15.2503 Y-5.984 I-0.0078 J-0.0081
G1 X-15.2555 Y-5.9895
X-15.2576 Y-5.9916 Z-0.0922
X-15.2595 Y-5.9936 Z-0.0914
X-15.2613 Y-5.9955 Z-0.09
X-15.2629 Y-5.9971 Z-0.0881
X-15.2642 Y-5.9985 Z-0.0858
X-15.2652 Y-5.9995 Z-0.0832
X-15.2658 Y-6.0001 Z-0.0804
X-15.266 Y-6.0003 Z-0.0774
G0 Z0.4
X-15.2387 Y-5.2387
Z0.0783
G1 Z0.0134 F40.
G18 G3 X-15.2538 Z-0.0017 I-0.0151 K0.
G1 X-15.2613
G17 G3 X-15.2726 Y-5.25 I0. J-0.0113
X-15.2274 Z-0.019 I0.0226 J0.
X-15.2726 Z-0.0362 I-0.0226 J0.
X-15.2274 Z-0.0535 I0.0226 J0.
X-15.2726 Z-0.0708 I-0.0226 J0.
X-15.2274 Z-0.0881 I0.0226 J0.
X-15.2343 Y-5.2337 Z-0.0925 I-0.0226 J0.
X-15.2657 Y-5.2663 I-0.0157 J-0.0163
X-15.2343 Y-5.2337 I0.0157 J0.0163
X-15.2503 Y-5.234 I-0.0078 J-0.0081
G1 X-15.2555 Y-5.2395
X-15.2576 Y-5.2416 Z-0.0922
X-15.2595 Y-5.2436 Z-0.0914
X-15.2613 Y-5.2455 Z-0.09
X-15.2629 Y-5.2471 Z-0.0881
X-15.2642 Y-5.2485 Z-0.0858
X-15.2652 Y-5.2495 Z-0.0832
X-15.2658 Y-5.2501 Z-0.0804
X-15.266 Y-5.2503 Z-0.0774
G0 Z0.4
X-15.2387 Y-4.4887
Z0.0783
G1 Z0.0134 F40.
G18 G3 X-15.2538 Z-0.0017 I-0.0151 K0.
G1 X-15.2613
G17 G3 X-15.2726 Y-4.5 I0. J-0.0113
X-15.2274 Z-0.019 I0.0226 J0.
X-15.2726 Z-0.0362 I-0.0226 J0.
X-15.2274 Z-0.0535 I0.0226 J0.
X-15.2726 Z-0.0708 I-0.0226 J0.
X-15.2274 Z-0.0881 I0.0226 J0.
X-15.2343 Y-4.4837 Z-0.0925 I-0.0226 J0.
X-15.2657 Y-4.5163 I-0.0157 J-0.0163
X-15.2343 Y-4.4837 I0.0157 J0.0163
X-15.2503 Y-4.484 I-0.0078 J-0.0081
G1 X-15.2555 Y-4.4895
X-15.2576 Y-4.4916 Z-0.0922
X-15.2595 Y-4.4936 Z-0.0914
X-15.2613 Y-4.4955 Z-0.09
X-15.2629 Y-4.4971 Z-0.0881
X-15.2642 Y-4.4985 Z-0.0858
X-15.2652 Y-4.4995 Z-0.0832
X-15.2658 Y-4.5001 Z-0.0804
X-15.266 Y-4.5003 Z-0.0774
G0 Z0.4
X-15.2387 Y-3.7387
Z0.0783
G1 Z0.0134 F40.
G18 G3 X-15.2538 Z-0.0017 I-0.0151 K0.
G1 X-15.2613
G17 G3 X-15.2726 Y-3.75 I0. J-0.0113
X-15.2274 Z-0.019 I0.0226 J0.
X-15.2726 Z-0.0362 I-0.0226 J0.
X-15.2274 Z-0.0535 I0.0226 J0.
X-15.2726 Z-0.0708 I-0.0226 J0.
X-15.2274 Z-0.0881 I0.0226 J0.
X-15.2343 Y-3.7337 Z-0.0925 I-0.0226 J0.
X-15.2657 Y-3.7663 I-0.0157 J-0.0163
X-15.2343 Y-3.7337 I0.0157 J0.0163
X-15.2503 Y-3.734 I-0.0078 J-0.0081
G1 X-15.2555 Y-3.7395
X-15.2576 Y-3.7416 Z-0.0922
X-15.2595 Y-3.7436 Z-0.0914
X-15.2613 Y-3.7455 Z-0.09
X-15.2629 Y-3.7471 Z-0.0881
X-15.2642 Y-3.7485 Z-0.0858
X-15.2652 Y-3.7495 Z-0.0832
X-15.2658 Y-3.7501 Z-0.0804
X-15.266 Y-3.7503 Z-0.0774
G0 Z0.4
X-15.2387 Y-2.9887
Z0.0783
G1 Z0.0134 F40.
G18 G3 X-15.2538 Z-0.0017 I-0.0151 K0.
G1 X-15.2613
G17 G3 X-15.2726 Y-3. I0. J-0.0113
X-15.2274 Z-0.019 I0.0226 J0.
X-15.2726 Z-0.0362 I-0.0226 J0.
X-15.2274 Z-0.0535 I0.0226 J0.
X-15.2726 Z-0.0708 I-0.0226 J0.
X-15.2274 Z-0.0881 I0.0226 J0.
X-15.2343 Y-2.9837 Z-0.0925 I-0.0226 J0.
X-15.2657 Y-3.0163 I-0.0157 J-0.0163
X-15.2343 Y-2.9837 I0.0157 J0.0163
X-15.2503 Y-2.984 I-0.0078 J-0.0081
G1 X-15.2555 Y-2.9895
X-15.2576 Y-2.9916 Z-0.0922
X-15.2595 Y-2.9936 Z-0.0914
X-15.2613 Y-2.9955 Z-0.09
X-15.2629 Y-2.9971 Z-0.0881
X-15.2642 Y-2.9985 Z-0.0858
X-15.2652 Y-2.9995 Z-0.0832
X-15.2658 Y-3.0001 Z-0.0804
X-15.266 Y-3.0003 Z-0.0774
G0 Z0.4
X-15.2387 Y-2.2387
Z0.0783
G1 Z0.0134 F40.
G18 G3 X-15.2538 Z-0.0017 I-0.0151 K0.
G1 X-15.2613
G17 G3 X-15.2726 Y-2.25 I0. J-0.0113
X-15.2274 Z-0.019 I0.0226 J0.
X-15.2726 Z-0.0362 I-0.0226 J0.
X-15.2274 Z-0.0535 I0.0226 J0.
X-15.2726 Z-0.0708 I-0.0226 J0.
X-15.2274 Z-0.0881 I0.0226 J0.
X-15.2343 Y-2.2337 Z-0.0925 I-0.0226 J0.
X-15.2657 Y-2.2663 I-0.0157 J-0.0163
X-15.2343 Y-2.2337 I0.0157 J0.0163
X-15.2503 Y-2.234 I-0.0078 J-0.0081
G1 X-15.2555 Y-2.2395
X-15.2576 Y-2.2416 Z-0.0922
X-15.2595 Y-2.2436 Z-0.0914
X-15.2613 Y-2.2455 Z-0.09
X-15.2629 Y-2.2471 Z-0.0881
X-15.2642 Y-2.2485 Z-0.0858
X-15.2652 Y-2.2495 Z-0.0832
X-15.2658 Y-2.2501 Z-0.0804
X-15.266 Y-2.2503 Z-0.0774
G0 Z0.4
X-15.2387 Y-1.4887
Z0.0783
G1 Z0.0134 F40.
G18 G3 X-15.2538 Z-0.0017 I-0.0151 K0.
G1 X-15.2613
G17 G3 X-15.2726 Y-1.5 I0. J-0.0113
X-15.2274 Z-0.019 I0.0226 J0.
X-15.2726 Z-0.0362 I-0.0226 J0.
X-15.2274 Z-0.0535 I0.0226 J0.
X-15.2726 Z-0.0708 I-0.0226 J0.
X-15.2274 Z-0.0881 I0.0226 J0.
X-15.2343 Y-1.4837 Z-0.0925 I-0.0226 J0.
X-15.2657 Y-1.5163 I-0.0157 J-0.0163
X-15.2343 Y-1.4837 I0.0157 J0.0163
X-15.2503 Y-1.484 I-0.0078 J-0.0081
G1 X-15.2555 Y-1.4895
X-15.2576 Y-1.4916 Z-0.0922
X-15.2595 Y-1.4936 Z-0.0914
X-15.2613 Y-1.4955 Z-0.09
X-15.2629 Y-1.4971 Z-0.0881
X-15.2642 Y-1.4985 Z-0.0858
X-15.2652 Y-1.4995 Z-0.0832
X-15.2658 Y-1.5001 Z-0.0804
X-15.266 Y-1.5003 Z-0.0774
G0 Z0.4
X-15.2387 Y-0.7387
Z0.0783
G1 Z0.0134 F40.
G18 G3 X-15.2538 Z-0.0017 I-0.0151 K0.
G1 X-15.2613
G17 G3 X-15.2726 Y-0.75 I0. J-0.0113
X-15.2274 Z-0.019 I0.0226 J0.
X-15.2726 Z-0.0362 I-0.0226 J0.
X-15.2274 Z-0.0535 I0.0226 J0.
X-15.2726 Z-0.0708 I-0.0226 J0.
X-15.2274 Z-0.0881 I0.0226 J0.
X-15.2343 Y-0.7337 Z-0.0925 I-0.0226 J0.
X-15.2657 Y-0.7663 I-0.0157 J-0.0163
X-15.2343 Y-0.7337 I0.0157 J0.0163
X-15.2503 Y-0.734 I-0.0078 J-0.0081
G1 X-15.2555 Y-0.7395
X-15.2576 Y-0.7416 Z-0.0922
X-15.2595 Y-0.7436 Z-0.0914
X-15.2613 Y-0.7455 Z-0.09
X-15.2629 Y-0.7471 Z-0.0881
X-15.2642 Y-0.7485 Z-0.0858
X-15.2652 Y-0.7495 Z-0.0832
X-15.2658 Y-0.7501 Z-0.0804
X-15.266 Y-0.7503 Z-0.0774
G0 Z0.4
X-15.2387 Y0.0113
Z0.0783
G1 Z0.0134 F40.
G18 G3 X-15.2538 Z-0.0017 I-0.0151 K0.
G1 X-15.2613
G17 G3 X-15.2726 Y0. I0. J-0.0113
X-15.2274 Z-0.019 I0.0226 J0.
X-15.2726 Z-0.0362 I-0.0226 J0.
X-15.2274 Z-0.0535 I0.0226 J0.
X-15.2726 Z-0.0708 I-0.0226 J0.
X-15.2274 Z-0.0881 I0.0226 J0.
X-15.2343 Y0.0163 Z-0.0925 I-0.0226 J0.
X-15.2657 Y-0.0163 I-0.0157 J-0.0163
X-15.2343 Y0.0163 I0.0157 J0.0163
X-15.2503 Y0.016 I-0.0078 J-0.0081
G1 X-15.2555 Y0.0105
X-15.2576 Y0.0084 Z-0.0922
X-15.2595 Y0.0064 Z-0.0914
X-15.2613 Y0.0045 Z-0.09
X-15.2629 Y0.0029 Z-0.0881
X-15.2642 Y0.0015 Z-0.0858
X-15.2652 Y0.0005 Z-0.0832
X-15.2658 Y-0.0001 Z-0.0804
X-15.266 Y-0.0003 Z-0.0774
G0 Z0.4
X-15.2387 Y0.7613
Z0.0783
G1 Z0.0134 F40.
G18 G3 X-15.2538 Z-0.0017 I-0.0151 K0.
G1 X-15.2613
G17 G3 X-15.2726 Y0.75 I0. J-0.0113
X-15.2274 Z-0.019 I0.0226 J0.
X-15.2726 Z-0.0362 I-0.0226 J0.
X-15.2274 Z-0.0535 I0.0226 J0.
X-15.2726 Z-0.0708 I-0.0226 J0.
X-15.2274 Z-0.0881 I0.0226 J0.
X-15.2343 Y0.7663 Z-0.0925 I-0.0226 J0.
X-15.2657 Y0.7337 I-0.0157 J-0.0163
X-15.2343 Y0.7663 I0.0157 J0.0163
X-15.2503 Y0.766 I-0.0078 J-0.0081
G1 X-15.2555 Y0.7605
X-15.2576 Y0.7584 Z-0.0922
X-15.2595 Y0.7564 Z-0.0914
X-15.2613 Y0.7545 Z-0.09
X-15.2629 Y0.7529 Z-0.0881
X-15.2642 Y0.7515 Z-0.0858
X-15.2652 Y0.7505 Z-0.0832
X-15.2658 Y0.7499 Z-0.0804
X-15.266 Y0.7497 Z-0.0774
G0 Z0.4
X-15.2387 Y1.5113
Z0.0783
G1 Z0.0134 F40.
G18 G3 X-15.2538 Z-0.0017 I-0.0151 K0.
G1 X-15.2613
G17 G3 X-15.2726 Y1.5 I0. J-0.0113
X-15.2274 Z-0.019 I0.0226 J0.
X-15.2726 Z-0.0362 I-0.0226 J0.
X-15.2274 Z-0.0535 I0.0226 J0.
X-15.2726 Z-0.0708 I-0.0226 J0.
X-15.2274 Z-0.0881 I0.0226 J0.
X-15.2343 Y1.5163 Z-0.0925 I-0.0226 J0.
X-15.2657 Y1.4837 I-0.0157 J-0.0163
X-15.2343 Y1.5163 I0.0157 J0.0163
X-15.2503 Y1.516 I-0.0078 J-0.0081
G1 X-15.2555 Y1.5105
X-15.2576 Y1.5084 Z-0.0922
X-15.2595 Y1.5064 Z-0.0914
X-15.2613 Y1.5045 Z-0.09
X-15.2629 Y1.5029 Z-0.0881
X-15.2642 Y1.5015 Z-0.0858
X-15.2652 Y1.5005 Z-0.0832
X-15.2658 Y1.4999 Z-0.0804
X-15.266 Y1.4997 Z-0.0774
G0 Z0.4
X-15.2387 Y2.2613
Z0.0783
G1 Z0.0134 F40.
G18 G3 X-15.2538 Z-0.0017 I-0.0151 K0.
G1 X-15.2613
G17 G3 X-15.2726 Y2.25 I0. J-0.0113
X-15.2274 Z-0.019 I0.0226 J0.
X-15.2726 Z-0.0362 I-0.0226 J0.
X-15.2274 Z-0.0535 I0.0226 J0.
X-15.2726 Z-0.0708 I-0.0226 J0.
X-15.2274 Z-0.0881 I0.0226 J0.
X-15.2343 Y2.2663 Z-0.0925 I-0.0226 J0.
X-15.2657 Y2.2337 I-0.0157 J-0.0163
X-15.2343 Y2.2663 I0.0157 J0.0163
X-15.2503 Y2.266 I-0.0078 J-0.0081
G1 X-15.2555 Y2.2605
X-15.2576 Y2.2584 Z-0.0922
X-15.2595 Y2.2564 Z-0.0914
X-15.2613 Y2.2545 Z-0.09
X-15.2629 Y2.2529 Z-0.0881
X-15.2642 Y2.2515 Z-0.0858
X-15.2652 Y2.2505 Z-0.0832
X-15.2658 Y2.2499 Z-0.0804
X-15.266 Y2.2497 Z-0.0774
G0 Z0.4
X-15.2387 Y3.0113
Z0.0783
G1 Z0.0134 F40.
G18 G3 X-15.2538 Z-0.0017 I-0.0151 K0.
G1 X-15.2613
G17 G3 X-15.2726 Y3. I0. J-0.0113
X-15.2274 Z-0.019 I0.0226 J0.
X-15.2726 Z-0.0362 I-0.0226 J0.
X-15.2274 Z-0.0535 I0.0226 J0.
X-15.2726 Z-0.0708 I-0.0226 J0.
X-15.2274 Z-0.0881 I0.0226 J0.
X-15.2343 Y3.0163 Z-0.0925 I-0.0226 J0.
X-15.2657 Y2.9837 I-0.0157 J-0.0163
X-15.2343 Y3.0163 I0.0157 J0.0163
X-15.2503 Y3.016 I-0.0078 J-0.0081
G1 X-15.2555 Y3.0105
X-15.2576 Y3.0084 Z-0.0922
X-15.2595 Y3.0064 Z-0.0914
X-15.2613 Y3.0045 Z-0.09
X-15.2629 Y3.0029 Z-0.0881
X-15.2642 Y3.0015 Z-0.0858
X-15.2652 Y3.0005 Z-0.0832
X-15.2658 Y2.9999 Z-0.0804
X-15.266 Y2.9997 Z-0.0774
G0 Z0.4
X-15.2387 Y3.7613
Z0.0783
G1 Z0.0134 F40.
G18 G3 X-15.2538 Z-0.0017 I-0.0151 K0.
G1 X-15.2613
G17 G3 X-15.2726 Y3.75 I0. J-0.0113
X-15.2274 Z-0.019 I0.0226 J0.
X-15.2726 Z-0.0362 I-0.0226 J0.
X-15.2274 Z-0.0535 I0.0226 J0.
X-15.2726 Z-0.0708 I-0.0226 J0.
X-15.2274 Z-0.0881 I0.0226 J0.
X-15.2343 Y3.7663 Z-0.0925 I-0.0226 J0.
X-15.2657 Y3.7337 I-0.0157 J-0.0163
X-15.2343 Y3.7663 I0.0157 J0.0163
X-15.2503 Y3.766 I-0.0078 J-0.0081
G1 X-15.2555 Y3.7605
X-15.2576 Y3.7584 Z-0.0922
X-15.2595 Y3.7564 Z-0.0914
X-15.2613 Y3.7545 Z-0.09
X-15.2629 Y3.7529 Z-0.0881
X-15.2642 Y3.7515 Z-0.0858
X-15.2652 Y3.7505 Z-0.0832
X-15.2658 Y3.7499 Z-0.0804
X-15.266 Y3.7497 Z-0.0774
G0 Z0.4
X-15.2387 Y4.5113
Z0.0783
G1 Z0.0134 F40.
G18 G3 X-15.2538 Z-0.0017 I-0.0151 K0.
G1 X-15.2613
G17 G3 X-15.2726 Y4.5 I0. J-0.0113
X-15.2274 Z-0.019 I0.0226 J0.
X-15.2726 Z-0.0362 I-0.0226 J0.
X-15.2274 Z-0.0535 I0.0226 J0.
X-15.2726 Z-0.0708 I-0.0226 J0.
X-15.2274 Z-0.0881 I0.0226 J0.
X-15.2343 Y4.5163 Z-0.0925 I-0.0226 J0.
X-15.2657 Y4.4837 I-0.0157 J-0.0163
X-15.2343 Y4.5163 I0.0157 J0.0163
X-15.2503 Y4.516 I-0.0078 J-0.0081
G1 X-15.2555 Y4.5105
X-15.2576 Y4.5084 Z-0.0922
X-15.2595 Y4.5064 Z-0.0914
X-15.2613 Y4.5045 Z-0.09
X-15.2629 Y4.5029 Z-0.0881
X-15.2642 Y4.5015 Z-0.0858
X-15.2652 Y4.5005 Z-0.0832
X-15.2658 Y4.4999 Z-0.0804
X-15.266 Y4.4997 Z-0.0774
G0 Z0.4
X-15.2387 Y5.2613
Z0.0783
G1 Z0.0134 F40.
G18 G3 X-15.2538 Z-0.0017 I-0.0151 K0.
G1 X-15.2613
G17 G3 X-15.2726 Y5.25 I0. J-0.0113
X-15.2274 Z-0.019 I0.0226 J0.
X-15.2726 Z-0.0362 I-0.0226 J0.
X-15.2274 Z-0.0535 I0.0226 J0.
X-15.2726 Z-0.0708 I-0.0226 J0.
X-15.2274 Z-0.0881 I0.0226 J0.
X-15.2343 Y5.2663 Z-0.0925 I-0.0226 J0.
X-15.2657 Y5.2337 I-0.0157 J-0.0163
X-15.2343 Y5.2663 I0.0157 J0.0163
X-15.2503 Y5.266 I-0.0078 J-0.0081
G1 X-15.2555 Y5.2605
X-15.2576 Y5.2584 Z-0.0922
X-15.2595 Y5.2564 Z-0.0914
X-15.2613 Y5.2545 Z-0.09
X-15.2629 Y5.2529 Z-0.0881
X-15.2642 Y5.2515 Z-0.0858
X-15.2652 Y5.2505 Z-0.0832
X-15.2658 Y5.2499 Z-0.0804
X-15.266 Y5.2497 Z-0.0774
G0 Z0.4
X-15.2387 Y6.0113
Z0.0783
G1 Z0.0134 F40.
G18 G3 X-15.2538 Z-0.0017 I-0.0151 K0.
G1 X-15.2613
G17 G3 X-15.2726 Y6. I0. J-0.0113
X-15.2274 Z-0.019 I0.0226 J0.
X-15.2726 Z-0.0362 I-0.0226 J0.
X-15.2274 Z-0.0535 I0.0226 J0.
X-15.2726 Z-0.0708 I-0.0226 J0.
X-15.2274 Z-0.0881 I0.0226 J0.
X-15.2343 Y6.0163 Z-0.0925 I-0.0226 J0.
X-15.2657 Y5.9837 I-0.0157 J-0.0163
X-15.2343 Y6.0163 I0.0157 J0.0163
X-15.2503 Y6.016 I-0.0078 J-0.0081
G1 X-15.2555 Y6.0105
X-15.2576 Y6.0084 Z-0.0922
X-15.2595 Y6.0064 Z-0.0914
X-15.2613 Y6.0045 Z-0.09
X-15.2629 Y6.0029 Z-0.0881
X-15.2642 Y6.0015 Z-0.0858
X-15.2652 Y6.0005 Z-0.0832
X-15.2658 Y5.9999 Z-0.0804
X-15.266 Y5.9997 Z-0.0774
G0 Z0.4
X-15.2387 Y6.7613
Z0.0783
G1 Z0.0134 F40.
G18 G3 X-15.2538 Z-0.0017 I-0.0151 K0.
G1 X-15.2613
G17 G3 X-15.2726 Y6.75 I0. J-0.0113
X-15.2274 Z-0.019 I0.0226 J0.
X-15.2726 Z-0.0362 I-0.0226 J0.
X-15.2274 Z-0.0535 I0.0226 J0.
X-15.2726 Z-0.0708 I-0.0226 J0.
X-15.2274 Z-0.0881 I0.0226 J0.
X-15.2343 Y6.7663 Z-0.0925 I-0.0226 J0.
X-15.2657 Y6.7337 I-0.0157 J-0.0163
X-15.2343 Y6.7663 I0.0157 J0.0163
X-15.2503 Y6.766 I-0.0078 J-0.0081
G1 X-15.2555 Y6.7605
X-15.2576 Y6.7584 Z-0.0922
X-15.2595 Y6.7564 Z-0.0914
X-15.2613 Y6.7545 Z-0.09
X-15.2629 Y6.7529 Z-0.0881
X-15.2642 Y6.7515 Z-0.0858
X-15.2652 Y6.7505 Z-0.0832
X-15.2658 Y6.7499 Z-0.0804
X-15.266 Y6.7497 Z-0.0774
G0 Z0.4
X-15.2387 Y7.5113
Z0.0783
G1 Z0.0134 F40.
G18 G3 X-15.2538 Z-0.0017 I-0.0151 K0.
G1 X-15.2613
G17 G3 X-15.2726 Y7.5 I0. J-0.0113
X-15.2274 Z-0.019 I0.0226 J0.
X-15.2726 Z-0.0362 I-0.0226 J0.
X-15.2274 Z-0.0535 I0.0226 J0.
X-15.2726 Z-0.0708 I-0.0226 J0.
X-15.2274 Z-0.0881 I0.0226 J0.
X-15.2343 Y7.5163 Z-0.0925 I-0.0226 J0.
X-15.2657 Y7.4837 I-0.0157 J-0.0163
X-15.2343 Y7.5163 I0.0157 J0.0163
X-15.2503 Y7.516 I-0.0078 J-0.0081
G1 X-15.2555 Y7.5105
X-15.2576 Y7.5084 Z-0.0922
X-15.2595 Y7.5064 Z-0.0914
X-15.2613 Y7.5045 Z-0.09
X-15.2629 Y7.5029 Z-0.0881
X-15.2642 Y7.5015 Z-0.0858
X-15.2652 Y7.5005 Z-0.0832
X-15.2658 Y7.4999 Z-0.0804
X-15.266 Y7.4997 Z-0.0774
G0 Z0.4
X-15.2387 Y8.2613
Z0.0783
G1 Z0.0134 F40.
G18 G3 X-15.2538 Z-0.0017 I-0.0151 K0.
G1 X-15.2613
G17 G3 X-15.2726 Y8.25 I0. J-0.0113
X-15.2274 Z-0.019 I0.0226 J0.
X-15.2726 Z-0.0362 I-0.0226 J0.
X-15.2274 Z-0.0535 I0.0226 J0.
X-15.2726 Z-0.0708 I-0.0226 J0.
X-15.2274 Z-0.0881 I0.0226 J0.
X-15.2343 Y8.2663 Z-0.0925 I-0.0226 J0.
X-15.2657 Y8.2337 I-0.0157 J-0.0163
X-15.2343 Y8.2663 I0.0157 J0.0163
X-15.2503 Y8.266 I-0.0078 J-0.0081
G1 X-15.2555 Y8.2605
X-15.2576 Y8.2584 Z-0.0922
X-15.2595 Y8.2564 Z-0.0914
X-15.2613 Y8.2545 Z-0.09
X-15.2629 Y8.2529 Z-0.0881
X-15.2642 Y8.2515 Z-0.0858
X-15.2652 Y8.2505 Z-0.0832
X-15.2658 Y8.2499 Z-0.0804
X-15.266 Y8.2497 Z-0.0774
G0 Z0.4
X-14.6137 Y9.0113
Z0.0783
G1 Z0.0134 F40.
G18 G3 X-14.6288 Z-0.0017 I-0.0151 K0.
G1 X-14.6363
G17 G3 X-14.6476 Y9. I0. J-0.0113
X-14.6024 Z-0.019 I0.0226 J0.
X-14.6476 Z-0.0362 I-0.0226 J0.
X-14.6024 Z-0.0535 I0.0226 J0.
X-14.6476 Z-0.0708 I-0.0226 J0.
X-14.6024 Z-0.0881 I0.0226 J0.
X-14.6093 Y9.0163 Z-0.0925 I-0.0226 J0.
X-14.6407 Y8.9837 I-0.0157 J-0.0163
X-14.6093 Y9.0163 I0.0157 J0.0163
X-14.6253 Y9.016 I-0.0078 J-0.0081
G1 X-14.6305 Y9.0105
X-14.6326 Y9.0084 Z-0.0922
X-14.6345 Y9.0064 Z-0.0914
X-14.6363 Y9.0045 Z-0.09
X-14.6379 Y9.0029 Z-0.0881
X-14.6392 Y9.0015 Z-0.0858
X-14.6402 Y9.0005 Z-0.0832
X-14.6408 Y8.9999 Z-0.0804
X-14.641 Y8.9997 Z-0.0774
G0 Z0.4
X-9.4887 Y6.0113
Z0.0783
G1 Z0.0134 F40.
G18 G3 X-9.5038 Z-0.0017 I-0.0151 K0.
G1 X-9.5113
G17 G3 X-9.5226 Y6. I0. J-0.0113
X-9.4774 Z-0.019 I0.0226 J0.
X-9.5226 Z-0.0362 I-0.0226 J0.
X-9.4774 Z-0.0535 I0.0226 J0.
X-9.5226 Z-0.0708 I-0.0226 J0.
X-9.4774 Z-0.0881 I0.0226 J0.
X-9.4843 Y6.0163 Z-0.0925 I-0.0226 J0.
X-9.5157 Y5.9837 I-0.0157 J-0.0163
X-9.4843 Y6.0163 I0.0157 J0.0163
X-9.5003 Y6.016 I-0.0078 J-0.0081
G1 X-9.5055 Y6.0105
X-9.5076 Y6.0084 Z-0.0922
X-9.5095 Y6.0064 Z-0.0914
X-9.5113 Y6.0045 Z-0.09
X-9.5129 Y6.0029 Z-0.0881
X-9.5142 Y6.0015 Z-0.0858
X-9.5152 Y6.0005 Z-0.0832
X-9.5158 Y5.9999 Z-0.0804
X-9.516 Y5.9997 Z-0.0774
G0 Z0.4
X-9.4887 Y4.0113
Z0.0783
G1 Z0.0134 F40.
G18 G3 X-9.5038 Z-0.0017 I-0.0151 K0.
G1 X-9.5113
G17 G3 X-9.5226 Y4. I0. J-0.0113
X-9.4774 Z-0.019 I0.0226 J0.
X-9.5226 Z-0.0362 I-0.0226 J0.
X-9.4774 Z-0.0535 I0.0226 J0.
X-9.5226 Z-0.0708 I-0.0226 J0.
X-9.4774 Z-0.0881 I0.0226 J0.
X-9.4843 Y4.0163 Z-0.0925 I-0.0226 J0.
X-9.5157 Y3.9837 I-0.0157 J-0.0163
X-9.4843 Y4.0163 I0.0157 J0.0163
X-9.5003 Y4.016 I-0.0078 J-0.0081
G1 X-9.5055 Y4.0105
X-9.5076 Y4.0084 Z-0.0922
X-9.5095 Y4.0064 Z-0.0914
X-9.5113 Y4.0045 Z-0.09
X-9.5129 Y4.0029 Z-0.0881
X-9.5142 Y4.0015 Z-0.0858
X-9.5152 Y4.0005 Z-0.0832
X-9.5158 Y3.9999 Z-0.0804
X-9.516 Y3.9997 Z-0.0774
G0 Z0.4
X-9.4887 Y2.0113
Z0.0783
G1 Z0.0134 F40.
G18 G3 X-9.5038 Z-0.0017 I-0.0151 K0.
G1 X-9.5113
G17 G3 X-9.5226 Y2. I0. J-0.0113
X-9.4774 Z-0.019 I0.0226 J0.
X-9.5226 Z-0.0362 I-0.0226 J0.
X-9.4774 Z-0.0535 I0.0226 J0.
X-9.5226 Z-0.0708 I-0.0226 J0.
X-9.4774 Z-0.0881 I0.0226 J0.
X-9.4843 Y2.0163 Z-0.0925 I-0.0226 J0.
X-9.5157 Y1.9837 I-0.0157 J-0.0163
X-9.4843 Y2.0163 I0.0157 J0.0163
X-9.5003 Y2.016 I-0.0078 J-0.0081
G1 X-9.5055 Y2.0105
X-9.5076 Y2.0084 Z-0.0922
X-9.5095 Y2.0064 Z-0.0914
X-9.5113 Y2.0045 Z-0.09
X-9.5129 Y2.0029 Z-0.0881
X-9.5142 Y2.0015 Z-0.0858
X-9.5152 Y2.0005 Z-0.0832
X-9.5158 Y1.9999 Z-0.0804
X-9.516 Y1.9997 Z-0.0774
G0 Z0.4
X-9.4887 Y0.0113
Z0.0783
G1 Z0.0134 F40.
G18 G3 X-9.5038 Z-0.0017 I-0.0151 K0.
G1 X-9.5113
G17 G3 X-9.5226 Y0. I0. J-0.0113
X-9.4774 Z-0.019 I0.0226 J0.
X-9.5226 Z-0.0362 I-0.0226 J0.
X-9.4774 Z-0.0535 I0.0226 J0.
X-9.5226 Z-0.0708 I-0.0226 J0.
X-9.4774 Z-0.0881 I0.0226 J0.
X-9.4843 Y0.0163 Z-0.0925 I-0.0226 J0.
X-9.5157 Y-0.0163 I-0.0157 J-0.0163
X-9.4843 Y0.0163 I0.0157 J0.0163
X-9.5003 Y0.016 I-0.0078 J-0.0081
G1 X-9.5055 Y0.0105
X-9.5076 Y0.0084 Z-0.0922
X-9.5095 Y0.0064 Z-0.0914
X-9.5113 Y0.0045 Z-0.09
X-9.5129 Y0.0029 Z-0.0881
X-9.5142 Y0.0015 Z-0.0858
X-9.5152 Y0.0005 Z-0.0832
X-9.5158 Y-0.0001 Z-0.0804
X-9.516 Y-0.0003 Z-0.0774
G0 Z0.4
X-9.4887 Y-1.9887
Z0.0783
G1 Z0.0134 F40.
G18 G3 X-9.5038 Z-0.0017 I-0.0151 K0.
G1 X-9.5113
G17 G3 X-9.5226 Y-2. I0. J-0.0113
X-9.4774 Z-0.019 I0.0226 J0.
X-9.5226 Z-0.0362 I-0.0226 J0.
X-9.4774 Z-0.0535 I0.0226 J0.
X-9.5226 Z-0.0708 I-0.0226 J0.
X-9.4774 Z-0.0881 I0.0226 J0.
X-9.4843 Y-1.9837 Z-0.0925 I-0.0226 J0.
X-9.5157 Y-2.0163 I-0.0157 J-0.0163
X-9.4843 Y-1.9837 I0.0157 J0.0163
X-9.5003 Y-1.984 I-0.0078 J-0.0081
G1 X-9.5055 Y-1.9895
X-9.5076 Y-1.9916 Z-0.0922
X-9.5095 Y-1.9936 Z-0.0914
X-9.5113 Y-1.9955 Z-0.09
X-9.5129 Y-1.9971 Z-0.0881
X-9.5142 Y-1.9985 Z-0.0858
X-9.5152 Y-1.9995 Z-0.0832
X-9.5158 Y-2.0001 Z-0.0804
X-9.516 Y-2.0003 Z-0.0774
G0 Z0.4
X-9.4887 Y-3.9887
Z0.0783
G1 Z0.0134 F40.
G18 G3 X-9.5038 Z-0.0017 I-0.0151 K0.
G1 X-9.5113
G17 G3 X-9.5226 Y-4. I0. J-0.0113
X-9.4774 Z-0.019 I0.0226 J0.
X-9.5226 Z-0.0362 I-0.0226 J0.
X-9.4774 Z-0.0535 I0.0226 J0.
X-9.5226 Z-0.0708 I-0.0226 J0.
X-9.4774 Z-0.0881 I0.0226 J0.
X-9.4843 Y-3.9837 Z-0.0925 I-0.0226 J0.
X-9.5157 Y-4.0163 I-0.0157 J-0.0163
X-9.4843 Y-3.9837 I0.0157 J0.0163
X-9.5003 Y-3.984 I-0.0078 J-0.0081
G1 X-9.5055 Y-3.9895
X-9.5076 Y-3.9916 Z-0.0922
X-9.5095 Y-3.9936 Z-0.0914
X-9.5113 Y-3.9955 Z-0.09
X-9.5129 Y-3.9971 Z-0.0881
X-9.5142 Y-3.9985 Z-0.0858
X-9.5152 Y-3.9995 Z-0.0832
X-9.5158 Y-4.0001 Z-0.0804
X-9.516 Y-4.0003 Z-0.0774
G0 Z0.4
X-9.4887 Y-5.9887
Z0.0783
G1 Z0.0134 F40.
G18 G3 X-9.5038 Z-0.0017 I-0.0151 K0.
G1 X-9.5113
G17 G3 X-9.5226 Y-6. I0. J-0.0113
X-9.4774 Z-0.019 I0.0226 J0.
X-9.5226 Z-0.0362 I-0.0226 J0.
X-9.4774 Z-0.0535 I0.0226 J0.
X-9.5226 Z-0.0708 I-0.0226 J0.
X-9.4774 Z-0.0881 I0.0226 J0.
X-9.4843 Y-5.9837 Z-0.0925 I-0.0226 J0.
X-9.5157 Y-6.0163 I-0.0157 J-0.0163
X-9.4843 Y-5.9837 I0.0157 J0.0163
X-9.5003 Y-5.984 I-0.0078 J-0.0081
G1 X-9.5055 Y-5.9895
X-9.5076 Y-5.9916 Z-0.0922
X-9.5095 Y-5.9936 Z-0.0914
X-9.5113 Y-5.9955 Z-0.09
X-9.5129 Y-5.9971 Z-0.0881
X-9.5142 Y-5.9985 Z-0.0858
X-9.5152 Y-5.9995 Z-0.0832
X-9.5158 Y-6.0001 Z-0.0804
X-9.516 Y-6.0003 Z-0.0774
G0 Z0.4
X-6.5113 Y-6.0113
Z0.0783
G1 Z0.0134 F40.
G18 G2 X-6.4962 Z-0.0017 I0.0151 K0.
G1 X-6.4887
G17 G3 X-6.4774 Y-6. I0. J0.0113
X-6.5226 Z-0.019 I-0.0226 J0.
X-6.4774 Z-0.0362 I0.0226 J0.
X-6.5226 Z-0.0535 I-0.0226 J0.
X-6.4774 Z-0.0708 I0.0226 J0.
X-6.5226 Z-0.0881 I-0.0226 J0.
X-6.5157 Y-6.0163 Z-0.0925 I0.0226 J0.
X-6.4843 Y-5.9837 I0.0157 J0.0163
X-6.5157 Y-6.0163 I-0.0157 J-0.0163
X-6.4997 Y-6.016 I0.0078 J0.0081
G1 X-6.4945 Y-6.0105
X-6.4924 Y-6.0084 Z-0.0922
X-6.4905 Y-6.0064 Z-0.0914
X-6.4887 Y-6.0045 Z-0.09
X-6.4871 Y-6.0029 Z-0.0881
X-6.4858 Y-6.0015 Z-0.0858
X-6.4848 Y-6.0005 Z-0.0832
X-6.4842 Y-5.9999 Z-0.0804
X-6.484 Y-5.9997 Z-0.0774
G0 Z0.4
X-6.5113 Y-4.0113
Z0.0783
G1 Z0.0134 F40.
G18 G2 X-6.4962 Z-0.0017 I0.0151 K0.
G1 X-6.4887
G17 G3 X-6.4774 Y-4. I0. J0.0113
X-6.5226 Z-0.019 I-0.0226 J0.
X-6.4774 Z-0.0362 I0.0226 J0.
X-6.5226 Z-0.0535 I-0.0226 J0.
X-6.4774 Z-0.0708 I0.0226 J0.
X-6.5226 Z-0.0881 I-0.0226 J0.
X-6.5157 Y-4.0163 Z-0.0925 I0.0226 J0.
X-6.4843 Y-3.9837 I0.0157 J0.0163
X-6.5157 Y-4.0163 I-0.0157 J-0.0163
X-6.4997 Y-4.016 I0.0078 J0.0081
G1 X-6.4945 Y-4.0105
X-6.4924 Y-4.0084 Z-0.0922
X-6.4905 Y-4.0064 Z-0.0914
X-6.4887 Y-4.0045 Z-0.09
X-6.4871 Y-4.0029 Z-0.0881
X-6.4858 Y-4.0015 Z-0.0858
X-6.4848 Y-4.0005 Z-0.0832
X-6.4842 Y-3.9999 Z-0.0804
X-6.484 Y-3.9997 Z-0.0774
G0 Z0.4
X-6.5113 Y-2.0113
Z0.0783
G1 Z0.0134 F40.
G18 G2 X-6.4962 Z-0.0017 I0.0151 K0.
G1 X-6.4887
G17 G3 X-6.4774 Y-2. I0. J0.0113
X-6.5226 Z-0.019 I-0.0226 J0.
X-6.4774 Z-0.0362 I0.0226 J0.
X-6.5226 Z-0.0535 I-0.0226 J0.
X-6.4774 Z-0.0708 I0.0226 J0.
X-6.5226 Z-0.0881 I-0.0226 J0.
X-6.5157 Y-2.0163 Z-0.0925 I0.0226 J0.
X-6.4843 Y-1.9837 I0.0157 J0.0163
X-6.5157 Y-2.0163 I-0.0157 J-0.0163
X-6.4997 Y-2.016 I0.0078 J0.0081
G1 X-6.4945 Y-2.0105
X-6.4924 Y-2.0084 Z-0.0922
X-6.4905 Y-2.0064 Z-0.0914
X-6.4887 Y-2.0045 Z-0.09
X-6.4871 Y-2.0029 Z-0.0881
X-6.4858 Y-2.0015 Z-0.0858
X-6.4848 Y-2.0005 Z-0.0832
X-6.4842 Y-1.9999 Z-0.0804
X-6.484 Y-1.9997 Z-0.0774
G0 Z0.4
X-6.5113 Y-0.0113
Z0.0783
G1 Z0.0134 F40.
G18 G2 X-6.4962 Z-0.0017 I0.0151 K0.
G1 X-6.4887
G17 G3 X-6.4774 Y0. I0. J0.0113
X-6.5226 Z-0.019 I-0.0226 J0.
X-6.4774 Z-0.0362 I0.0226 J0.
X-6.5226 Z-0.0535 I-0.0226 J0.
X-6.4774 Z-0.0708 I0.0226 J0.
X-6.5226 Z-0.0881 I-0.0226 J0.
X-6.5157 Y-0.0163 Z-0.0925 I0.0226 J0.
X-6.4843 Y0.0163 I0.0157 J0.0163
X-6.5157 Y-0.0163 I-0.0157 J-0.0163
X-6.4997 Y-0.016 I0.0078 J0.0081
G1 X-6.4945 Y-0.0105
X-6.4924 Y-0.0084 Z-0.0922
X-6.4905 Y-0.0064 Z-0.0914
X-6.4887 Y-0.0045 Z-0.09
X-6.4871 Y-0.0029 Z-0.0881
X-6.4858 Y-0.0015 Z-0.0858
X-6.4848 Y-0.0005 Z-0.0832
X-6.4842 Y0.0001 Z-0.0804
X-6.484 Y0.0003 Z-0.0774
G0 Z0.4
X-6.5113 Y1.9887
Z0.0783
G1 Z0.0134 F40.
G18 G2 X-6.4962 Z-0.0017 I0.0151 K0.
G1 X-6.4887
G17 G3 X-6.4774 Y2. I0. J0.0113
X-6.5226 Z-0.019 I-0.0226 J0.
X-6.4774 Z-0.0362 I0.0226 J0.
X-6.5226 Z-0.0535 I-0.0226 J0.
X-6.4774 Z-0.0708 I0.0226 J0.
X-6.5226 Z-0.0881 I-0.0226 J0.
X-6.5157 Y1.9837 Z-0.0925 I0.0226 J0.
X-6.4843 Y2.0163 I0.0157 J0.0163
X-6.5157 Y1.9837 I-0.0157 J-0.0163
X-6.4997 Y1.984 I0.0078 J0.0081
G1 X-6.4945 Y1.9895
X-6.4924 Y1.9916 Z-0.0922
X-6.4905 Y1.9936 Z-0.0914
X-6.4887 Y1.9955 Z-0.09
X-6.4871 Y1.9971 Z-0.0881
X-6.4858 Y1.9985 Z-0.0858
X-6.4848 Y1.9995 Z-0.0832
X-6.4842 Y2.0001 Z-0.0804
X-6.484 Y2.0003 Z-0.0774
G0 Z0.4
X-6.5113 Y3.9887
Z0.0783
G1 Z0.0134 F40.
G18 G2 X-6.4962 Z-0.0017 I0.0151 K0.
G1 X-6.4887
G17 G3 X-6.4774 Y4. I0. J0.0113
X-6.5226 Z-0.019 I-0.0226 J0.
X-6.4774 Z-0.0362 I0.0226 J0.
X-6.5226 Z-0.0535 I-0.0226 J0.
X-6.4774 Z-0.0708 I0.0226 J0.
X-6.5226 Z-0.0881 I-0.0226 J0.
X-6.5157 Y3.9837 Z-0.0925 I0.0226 J0.
X-6.4843 Y4.0163 I0.0157 J0.0163
X-6.5157 Y3.9837 I-0.0157 J-0.0163
X-6.4997 Y3.984 I0.0078 J0.0081
G1 X-6.4945 Y3.9895
X-6.4924 Y3.9916 Z-0.0922
X-6.4905 Y3.9936 Z-0.0914
X-6.4887 Y3.9955 Z-0.09
X-6.4871 Y3.9971 Z-0.0881
X-6.4858 Y3.9985 Z-0.0858
X-6.4848 Y3.9995 Z-0.0832
X-6.4842 Y4.0001 Z-0.0804
X-6.484 Y4.0003 Z-0.0774
G0 Z0.4
X-6.5113 Y5.9887
Z0.0783
G1 Z0.0134 F40.
G18 G2 X-6.4962 Z-0.0017 I0.0151 K0.
G1 X-6.4887
G17 G3 X-6.4774 Y6. I0. J0.0113
X-6.5226 Z-0.019 I-0.0226 J0.
X-6.4774 Z-0.0362 I0.0226 J0.
X-6.5226 Z-0.0535 I-0.0226 J0.
X-6.4774 Z-0.0708 I0.0226 J0.
X-6.5226 Z-0.0881 I-0.0226 J0.
X-6.5157 Y5.9837 Z-0.0925 I0.0226 J0.
X-6.4843 Y6.0163 I0.0157 J0.0163
X-6.5157 Y5.9837 I-0.0157 J-0.0163
X-6.4997 Y5.984 I0.0078 J0.0081
G1 X-6.4945 Y5.9895
X-6.4924 Y5.9916 Z-0.0922
X-6.4905 Y5.9936 Z-0.0914
X-6.4887 Y5.9955 Z-0.09
X-6.4871 Y5.9971 Z-0.0881
X-6.4858 Y5.9985 Z-0.0858
X-6.4848 Y5.9995 Z-0.0832
X-6.4842 Y6.0001 Z-0.0804
X-6.484 Y6.0003 Z-0.0774
G0 Z0.4
X-6.5113 Y7.9887
Z0.0783
G1 Z0.0134 F40.
G18 G2 X-6.4962 Z-0.0017 I0.0151 K0.
G1 X-6.4887
G17 G3 X-6.4774 Y8. I0. J0.0113
X-6.5226 Z-0.019 I-0.0226 J0.
X-6.4774 Z-0.0362 I0.0226 J0.
X-6.5226 Z-0.0535 I-0.0226 J0.
X-6.4774 Z-0.0708 I0.0226 J0.
X-6.5226 Z-0.0881 I-0.0226 J0.
X-6.5157 Y7.9837 Z-0.0925 I0.0226 J0.
X-6.4843 Y8.0163 I0.0157 J0.0163
X-6.5157 Y7.9837 I-0.0157 J-0.0163
X-6.4997 Y7.984 I0.0078 J0.0081
G1 X-6.4945 Y7.9895
X-6.4924 Y7.9916 Z-0.0922
X-6.4905 Y7.9936 Z-0.0914
X-6.4887 Y7.9955 Z-0.09
X-6.4871 Y7.9971 Z-0.0881
X-6.4858 Y7.9985 Z-0.0858
X-6.4848 Y7.9995 Z-0.0832
X-6.4842 Y8.0001 Z-0.0804
X-6.484 Y8.0003 Z-0.0774
G0 Z0.4
X-6.5113 Y7.4887
Z0.0783
G1 Z0.0134 F40.
G18 G2 X-6.4962 Z-0.0017 I0.0151 K0.
G1 X-6.4887
G17 G3 X-6.4774 Y7.5 I0. J0.0113
X-6.5226 Z-0.019 I-0.0226 J0.
X-6.4774 Z-0.0362 I0.0226 J0.
X-6.5226 Z-0.0535 I-0.0226 J0.
X-6.4774 Z-0.0708 I0.0226 J0.
X-6.5226 Z-0.0881 I-0.0226 J0.
X-6.5157 Y7.4837 Z-0.0925 I0.0226 J0.
X-6.4843 Y7.5163 I0.0157 J0.0163
X-6.5157 Y7.4837 I-0.0157 J-0.0163
X-6.4997 Y7.484 I0.0078 J0.0081
G1 X-6.4945 Y7.4895
X-6.4924 Y7.4916 Z-0.0922
X-6.4905 Y7.4936 Z-0.0914
X-6.4887 Y7.4955 Z-0.09
X-6.4871 Y7.4971 Z-0.0881
X-6.4858 Y7.4985 Z-0.0858
X-6.4848 Y7.4995 Z-0.0832
X-6.4842 Y7.5001 Z-0.0804
X-6.484 Y7.5003 Z-0.0774
G0 Z0.4
X-6.5113 Y6.9887
Z0.0783
G1 Z0.0134 F40.
G18 G2 X-6.4962 Z-0.0017 I0.0151 K0.
G1 X-6.4887
G17 G3 X-6.4774 Y7. I0. J0.0113
X-6.5226 Z-0.019 I-0.0226 J0.
X-6.4774 Z-0.0362 I0.0226 J0.
X-6.5226 Z-0.0535 I-0.0226 J0.
X-6.4774 Z-0.0708 I0.0226 J0.
X-6.5226 Z-0.0881 I-0.0226 J0.
X-6.5157 Y6.9837 Z-0.0925 I0.0226 J0.
X-6.4843 Y7.0163 I0.0157 J0.0163
X-6.5157 Y6.9837 I-0.0157 J-0.0163
X-6.4997 Y6.984 I0.0078 J0.0081
G1 X-6.4945 Y6.9895
X-6.4924 Y6.9916 Z-0.0922
X-6.4905 Y6.9936 Z-0.0914
X-6.4887 Y6.9955 Z-0.09
X-6.4871 Y6.9971 Z-0.0881
X-6.4858 Y6.9985 Z-0.0858
X-6.4848 Y6.9995 Z-0.0832
X-6.4842 Y7.0001 Z-0.0804
X-6.484 Y7.0003 Z-0.0774
G0 Z0.4
X-7.5113 Y6.9887
Z0.0783
G1 Z0.0134 F40.
G18 G2 X-7.4962 Z-0.0017 I0.0151 K0.
G1 X-7.4887
G17 G3 X-7.4774 Y7. I0. J0.0113
X-7.5226 Z-0.019 I-0.0226 J0.
X-7.4774 Z-0.0362 I0.0226 J0.
X-7.5226 Z-0.0535 I-0.0226 J0.
X-7.4774 Z-0.0708 I0.0226 J0.
X-7.5226 Z-0.0881 I-0.0226 J0.
X-7.5157 Y6.9837 Z-0.0925 I0.0226 J0.
X-7.4843 Y7.0163 I0.0157 J0.0163
X-7.5157 Y6.9837 I-0.0157 J-0.0163
X-7.4997 Y6.984 I0.0078 J0.0081
G1 X-7.4945 Y6.9895
X-7.4924 Y6.9916 Z-0.0922
X-7.4905 Y6.9936 Z-0.0914
X-7.4887 Y6.9955 Z-0.09
X-7.4871 Y6.9971 Z-0.0881
X-7.4858 Y6.9985 Z-0.0858
X-7.4848 Y6.9995 Z-0.0832
X-7.4842 Y7.0001 Z-0.0804
X-7.484 Y7.0003 Z-0.0774
G0 Z0.4
X-7.5113 Y7.4887
Z0.0783
G1 Z0.0134 F40.
G18 G2 X-7.4962 Z-0.0017 I0.0151 K0.
G1 X-7.4887
G17 G3 X-7.4774 Y7.5 I0. J0.0113
X-7.5226 Z-0.019 I-0.0226 J0.
X-7.4774 Z-0.0362 I0.0226 J0.
X-7.5226 Z-0.0535 I-0.0226 J0.
X-7.4774 Z-0.0708 I0.0226 J0.
X-7.5226 Z-0.0881 I-0.0226 J0.
X-7.5157 Y7.4837 Z-0.0925 I0.0226 J0.
X-7.4843 Y7.5163 I0.0157 J0.0163
X-7.5157 Y7.4837 I-0.0157 J-0.0163
X-7.4997 Y7.484 I0.0078 J0.0081
G1 X-7.4945 Y7.4895
X-7.4924 Y7.4916 Z-0.0922
X-7.4905 Y7.4936 Z-0.0914
X-7.4887 Y7.4955 Z-0.09
X-7.4871 Y7.4971 Z-0.0881
X-7.4858 Y7.4985 Z-0.0858
X-7.4848 Y7.4995 Z-0.0832
X-7.4842 Y7.5001 Z-0.0804
X-7.484 Y7.5003 Z-0.0774
G0 Z0.4
X-7.5113 Y7.9887
Z0.0783
G1 Z0.0134 F40.
G18 G2 X-7.4962 Z-0.0017 I0.0151 K0.
G1 X-7.4887
G17 G3 X-7.4774 Y8. I0. J0.0113
X-7.5226 Z-0.019 I-0.0226 J0.
X-7.4774 Z-0.0362 I0.0226 J0.
X-7.5226 Z-0.0535 I-0.0226 J0.
X-7.4774 Z-0.0708 I0.0226 J0.
X-7.5226 Z-0.0881 I-0.0226 J0.
X-7.5157 Y7.9837 Z-0.0925 I0.0226 J0.
X-7.4843 Y8.0163 I0.0157 J0.0163
X-7.5157 Y7.9837 I-0.0157 J-0.0163
X-7.4997 Y7.984 I0.0078 J0.0081
G1 X-7.4945 Y7.9895
X-7.4924 Y7.9916 Z-0.0922
X-7.4905 Y7.9936 Z-0.0914
X-7.4887 Y7.9955 Z-0.09
X-7.4871 Y7.9971 Z-0.0881
X-7.4858 Y7.9985 Z-0.0858
X-7.4848 Y7.9995 Z-0.0832
X-7.4842 Y8.0001 Z-0.0804
X-7.484 Y8.0003 Z-0.0774
G0 Z0.4
X-8.4887 Y8.0113
Z0.0783
G1 Z0.0134 F40.
G18 G3 X-8.5038 Z-0.0017 I-0.0151 K0.
G1 X-8.5113
G17 G3 X-8.5226 Y8. I0. J-0.0113
X-8.4774 Z-0.019 I0.0226 J0.
X-8.5226 Z-0.0362 I-0.0226 J0.
X-8.4774 Z-0.0535 I0.0226 J0.
X-8.5226 Z-0.0708 I-0.0226 J0.
X-8.4774 Z-0.0881 I0.0226 J0.
X-8.4843 Y8.0163 Z-0.0925 I-0.0226 J0.
X-8.5157 Y7.9837 I-0.0157 J-0.0163
X-8.4843 Y8.0163 I0.0157 J0.0163
X-8.5003 Y8.016 I-0.0078 J-0.0081
G1 X-8.5055 Y8.0105
X-8.5076 Y8.0084 Z-0.0922
X-8.5095 Y8.0064 Z-0.0914
X-8.5113 Y8.0045 Z-0.09
X-8.5129 Y8.0029 Z-0.0881
X-8.5142 Y8.0015 Z-0.0858
X-8.5152 Y8.0005 Z-0.0832
X-8.5158 Y7.9999 Z-0.0804
X-8.516 Y7.9997 Z-0.0774
G0 Z0.4
X-8.4887 Y7.5113
Z0.0783
G1 Z0.0134 F40.
G18 G3 X-8.5038 Z-0.0017 I-0.0151 K0.
G1 X-8.5113
G17 G3 X-8.5226 Y7.5 I0. J-0.0113
X-8.4774 Z-0.019 I0.0226 J0.
X-8.5226 Z-0.0362 I-0.0226 J0.
X-8.4774 Z-0.0535 I0.0226 J0.
X-8.5226 Z-0.0708 I-0.0226 J0.
X-8.4774 Z-0.0881 I0.0226 J0.
X-8.4843 Y7.5163 Z-0.0925 I-0.0226 J0.
X-8.5157 Y7.4837 I-0.0157 J-0.0163
X-8.4843 Y7.5163 I0.0157 J0.0163
X-8.5003 Y7.516 I-0.0078 J-0.0081
G1 X-8.5055 Y7.5105
X-8.5076 Y7.5084 Z-0.0922
X-8.5095 Y7.5064 Z-0.0914
X-8.5113 Y7.5045 Z-0.09
X-8.5129 Y7.5029 Z-0.0881
X-8.5142 Y7.5015 Z-0.0858
X-8.5152 Y7.5005 Z-0.0832
X-8.5158 Y7.4999 Z-0.0804
X-8.516 Y7.4997 Z-0.0774
G0 Z0.4
X-8.4887 Y7.0113
Z0.0783
G1 Z0.0134 F40.
G18 G3 X-8.5038 Z-0.0017 I-0.0151 K0.
G1 X-8.5113
G17 G3 X-8.5226 Y7. I0. J-0.0113
X-8.4774 Z-0.019 I0.0226 J0.
X-8.5226 Z-0.0362 I-0.0226 J0.
X-8.4774 Z-0.0535 I0.0226 J0.
X-8.5226 Z-0.0708 I-0.0226 J0.
X-8.4774 Z-0.0881 I0.0226 J0.
X-8.4843 Y7.0163 Z-0.0925 I-0.0226 J0.
X-8.5157 Y6.9837 I-0.0157 J-0.0163
X-8.4843 Y7.0163 I0.0157 J0.0163
X-8.5003 Y7.016 I-0.0078 J-0.0081
G1 X-8.5055 Y7.0105
X-8.5076 Y7.0084 Z-0.0922
X-8.5095 Y7.0064 Z-0.0914
X-8.5113 Y7.0045 Z-0.09
X-8.5129 Y7.0029 Z-0.0881
X-8.5142 Y7.0015 Z-0.0858
X-8.5152 Y7.0005 Z-0.0832
X-8.5158 Y6.9999 Z-0.0804
X-8.516 Y6.9997 Z-0.0774
G0 Z0.4
X-9.4887 Y7.0113
Z0.0783
G1 Z0.0134 F40.
G18 G3 X-9.5038 Z-0.0017 I-0.0151 K0.
G1 X-9.5113
G17 G3 X-9.5226 Y7. I0. J-0.0113
X-9.4774 Z-0.019 I0.0226 J0.
X-9.5226 Z-0.0362 I-0.0226 J0.
X-9.4774 Z-0.0535 I0.0226 J0.
X-9.5226 Z-0.0708 I-0.0226 J0.
X-9.4774 Z-0.0881 I0.0226 J0.
X-9.4843 Y7.0163 Z-0.0925 I-0.0226 J0.
X-9.5157 Y6.9837 I-0.0157 J-0.0163
X-9.4843 Y7.0163 I0.0157 J0.0163
X-9.5003 Y7.016 I-0.0078 J-0.0081
G1 X-9.5055 Y7.0105
X-9.5076 Y7.0084 Z-0.0922
X-9.5095 Y7.0064 Z-0.0914
X-9.5113 Y7.0045 Z-0.09
X-9.5129 Y7.0029 Z-0.0881
X-9.5142 Y7.0015 Z-0.0858
X-9.5152 Y7.0005 Z-0.0832
X-9.5158 Y6.9999 Z-0.0804
X-9.516 Y6.9997 Z-0.0774
G0 Z0.4
X-9.4887 Y7.5113
Z0.0783
G1 Z0.0134 F40.
G18 G3 X-9.5038 Z-0.0017 I-0.0151 K0.
G1 X-9.5113
G17 G3 X-9.5226 Y7.5 I0. J-0.0113
X-9.4774 Z-0.019 I0.0226 J0.
X-9.5226 Z-0.0362 I-0.0226 J0.
X-9.4774 Z-0.0535 I0.0226 J0.
X-9.5226 Z-0.0708 I-0.0226 J0.
X-9.4774 Z-0.0881 I0.0226 J0.
X-9.4843 Y7.5163 Z-0.0925 I-0.0226 J0.
X-9.5157 Y7.4837 I-0.0157 J-0.0163
X-9.4843 Y7.5163 I0.0157 J0.0163
X-9.5003 Y7.516 I-0.0078 J-0.0081
G1 X-9.5055 Y7.5105
X-9.5076 Y7.5084 Z-0.0922
X-9.5095 Y7.5064 Z-0.0914
X-9.5113 Y7.5045 Z-0.09
X-9.5129 Y7.5029 Z-0.0881
X-9.5142 Y7.5015 Z-0.0858
X-9.5152 Y7.5005 Z-0.0832
X-9.5158 Y7.4999 Z-0.0804
X-9.516 Y7.4997 Z-0.0774
G0 Z0.4
X-9.4887 Y8.0113
Z0.0783
G1 Z0.0134 F40.
G18 G3 X-9.5038 Z-0.0017 I-0.0151 K0.
G1 X-9.5113
G17 G3 X-9.5226 Y8. I0. J-0.0113
X-9.4774 Z-0.019 I0.0226 J0.
X-9.5226 Z-0.0362 I-0.0226 J0.
X-9.4774 Z-0.0535 I0.0226 J0.
X-9.5226 Z-0.0708 I-0.0226 J0.
X-9.4774 Z-0.0881 I0.0226 J0.
X-9.4843 Y8.0163 Z-0.0925 I-0.0226 J0.
X-9.5157 Y7.9837 I-0.0157 J-0.0163
X-9.4843 Y8.0163 I0.0157 J0.0163
X-9.5003 Y8.016 I-0.0078 J-0.0081
G1 X-9.5055 Y8.0105
X-9.5076 Y8.0084 Z-0.0922
X-9.5095 Y8.0064 Z-0.0914
X-9.5113 Y8.0045 Z-0.09
X-9.5129 Y8.0029 Z-0.0881
X-9.5142 Y8.0015 Z-0.0858
X-9.5152 Y8.0005 Z-0.0832
X-9.5158 Y7.9999 Z-0.0804
X-9.516 Y7.9997 Z-0.0774
G0 Z0.4
X-10.8863 Y8.9887
Z0.0783
G1 Z0.0134 F40.
G18 G2 X-10.8712 Z-0.0017 I0.0151 K0.
G1 X-10.8637
G17 G3 X-10.8524 Y9. I0. J0.0113
X-10.8976 Z-0.019 I-0.0226 J0.
X-10.8524 Z-0.0362 I0.0226 J0.
X-10.8976 Z-0.0535 I-0.0226 J0.
X-10.8524 Z-0.0708 I0.0226 J0.
X-10.8976 Z-0.0881 I-0.0226 J0.
X-10.8907 Y8.9837 Z-0.0925 I0.0226 J0.
X-10.8593 Y9.0163 I0.0157 J0.0163
X-10.8907 Y8.9837 I-0.0157 J-0.0163
X-10.8747 Y8.984 I0.0078 J0.0081
G1 X-10.8695 Y8.9895
X-10.8674 Y8.9916 Z-0.0922
X-10.8655 Y8.9936 Z-0.0914
X-10.8637 Y8.9955 Z-0.09
X-10.8621 Y8.9971 Z-0.0881
X-10.8608 Y8.9985 Z-0.0858
X-10.8598 Y8.9995 Z-0.0832
X-10.8592 Y9.0001 Z-0.0804
X-10.859 Y9.0003 Z-0.0774
G0 Z0.4
X-10.1137 Y9.0113
Z0.0783
G1 Z0.0134 F40.
G18 G3 X-10.1288 Z-0.0017 I-0.0151 K0.
G1 X-10.1363
G17 G3 X-10.1476 Y9. I0. J-0.0113
X-10.1024 Z-0.019 I0.0226 J0.
X-10.1476 Z-0.0362 I-0.0226 J0.
X-10.1161 Y8.9792 Z-0.0471 I0.0226 J0.
X-10.1338 Y9.0208 Z-0.0644 I-0.0089 J0.0208
X-10.1472 Y9.0041 Z-0.0698 I0.0089 J-0.0208
X-10.1028 Y8.9959 Z-0.0871 I0.0222 J-0.0041
X-10.1093 Y9.0163 Z-0.0925 I-0.0222 J0.0041
X-10.1407 Y8.9837 I-0.0157 J-0.0163
X-10.1093 Y9.0163 I0.0157 J0.0163
X-10.1253 Y9.016 I-0.0078 J-0.0081
G1 X-10.1305 Y9.0105
X-10.1326 Y9.0084 Z-0.0922
X-10.1345 Y9.0064 Z-0.0914
X-10.1363 Y9.0045 Z-0.09
X-10.1379 Y9.0029 Z-0.0881
X-10.1392 Y9.0015 Z-0.0858
X-10.1402 Y9.0005 Z-0.0832
X-10.1408 Y8.9999 Z-0.0804
X-10.141 Y8.9997 Z-0.0774
G0 Z0.4
X-9.3863 Y8.9887
Z0.0783
G1 Z0.0134 F40.
G18 G2 X-9.3712 Z-0.0017 I0.0151 K0.
G1 X-9.3637
G17 G3 X-9.3524 Y9. I0. J0.0113
X-9.3976 Z-0.019 I-0.0226 J0.
X-9.3524 Z-0.0362 I0.0226 J0.
X-9.3976 Z-0.0535 I-0.0226 J0.
X-9.3524 Z-0.0708 I0.0226 J0.
X-9.3976 Z-0.0881 I-0.0226 J0.
X-9.3907 Y8.9837 Z-0.0925 I0.0226 J0.
X-9.3593 Y9.0163 I0.0157 J0.0163
X-9.3907 Y8.9837 I-0.0157 J-0.0163
X-9.3747 Y8.984 I0.0078 J0.0081
G1 X-9.3695 Y8.9895
X-9.3674 Y8.9916 Z-0.0922
X-9.3655 Y8.9936 Z-0.0914
X-9.3637 Y8.9955 Z-0.09
X-9.3621 Y8.9971 Z-0.0881
X-9.3608 Y8.9985 Z-0.0858
X-9.3598 Y8.9995 Z-0.0832
X-9.3592 Y9.0001 Z-0.0804
X-9.359 Y9.0003 Z-0.0774
G0 Z0.4
X-8.6137 Y9.0113
Z0.0783
G1 Z0.0134 F40.
G18 G3 X-8.6288 Z-0.0017 I-0.0151 K0.
G1 X-8.6363
G17 G3 X-8.6476 Y9. I0. J-0.0113
X-8.6024 Z-0.019 I0.0226 J0.
X-8.6476 Z-0.0362 I-0.0226 J0.
X-8.6024 Z-0.0535 I0.0226 J0.
X-8.6476 Z-0.0708 I-0.0226 J0.
X-8.6024 Z-0.0881 I0.0226 J0.
X-8.6093 Y9.0163 Z-0.0925 I-0.0226 J0.
X-8.6407 Y8.9837 I-0.0157 J-0.0163
X-8.6093 Y9.0163 I0.0157 J0.0163
X-8.6253 Y9.016 I-0.0078 J-0.0081
G1 X-8.6305 Y9.0105
X-8.6326 Y9.0084 Z-0.0922
X-8.6345 Y9.0064 Z-0.0914
X-8.6363 Y9.0045 Z-0.09
X-8.6379 Y9.0029 Z-0.0881
X-8.6392 Y9.0015 Z-0.0858
X-8.6402 Y9.0005 Z-0.0832
X-8.6408 Y8.9999 Z-0.0804
X-8.641 Y8.9997 Z-0.0774
G0 Z0.4
X-7.8863 Y8.9887
Z0.0783
G1 Z0.0134 F40.
G18 G2 X-7.8712 Z-0.0017 I0.0151 K0.
G1 X-7.8637
G17 G3 X-7.8524 Y9. I0. J0.0113
X-7.8976 Z-0.019 I-0.0226 J0.
X-7.8524 Z-0.0362 I0.0226 J0.
X-7.8976 Z-0.0535 I-0.0226 J0.
X-7.8524 Z-0.0708 I0.0226 J0.
X-7.8976 Z-0.0881 I-0.0226 J0.
X-7.8907 Y8.9837 Z-0.0925 I0.0226 J0.
X-7.8593 Y9.0163 I0.0157 J0.0163
X-7.8907 Y8.9837 I-0.0157 J-0.0163
X-7.8747 Y8.984 I0.0078 J0.0081
G1 X-7.8695 Y8.9895
X-7.8674 Y8.9916 Z-0.0922
X-7.8655 Y8.9936 Z-0.0914
X-7.8637 Y8.9955 Z-0.09
X-7.8621 Y8.9971 Z-0.0881
X-7.8608 Y8.9985 Z-0.0858
X-7.8598 Y8.9995 Z-0.0832
X-7.8592 Y9.0001 Z-0.0804
X-7.859 Y9.0003 Z-0.0774
G0 Z0.4
X-7.1137 Y9.0113
Z0.0783
G1 Z0.0134 F40.
G18 G3 X-7.1288 Z-0.0017 I-0.0151 K0.
G1 X-7.1363
G17 G3 X-7.1476 Y9. I0. J-0.0113
X-7.1024 Z-0.019 I0.0226 J0.
X-7.1476 Z-0.0362 I-0.0226 J0.
X-7.1024 Z-0.0535 I0.0226 J0.
X-7.1476 Z-0.0708 I-0.0226 J0.
X-7.1024 Z-0.0881 I0.0226 J0.
X-7.1093 Y9.0163 Z-0.0925 I-0.0226 J0.
X-7.1407 Y8.9837 I-0.0157 J-0.0163
X-7.1093 Y9.0163 I0.0157 J0.0163
X-7.1253 Y9.016 I-0.0078 J-0.0081
G1 X-7.1305 Y9.0105
X-7.1326 Y9.0084 Z-0.0922
X-7.1345 Y9.0064 Z-0.0914
X-7.1363 Y9.0045 Z-0.09
X-7.1379 Y9.0029 Z-0.0881
X-7.1392 Y9.0015 Z-0.0858
X-7.1402 Y9.0005 Z-0.0832
X-7.1408 Y8.9999 Z-0.0804
X-7.141 Y8.9997 Z-0.0774
G0 Z0.4
X-6.3863 Y8.9887
Z0.0783
G1 Z0.0134 F40.
G18 G2 X-6.3712 Z-0.0017 I0.0151 K0.
G1 X-6.3637
G17 G3 X-6.3524 Y9. I0. J0.0113
X-6.3976 Z-0.019 I-0.0226 J0.
X-6.3524 Z-0.0362 I0.0226 J0.
X-6.3976 Z-0.0535 I-0.0226 J0.
X-6.3524 Z-0.0708 I0.0226 J0.
X-6.3976 Z-0.0881 I-0.0226 J0.
X-6.3907 Y8.9837 Z-0.0925 I0.0226 J0.
X-6.3593 Y9.0163 I0.0157 J0.0163
X-6.3907 Y8.9837 I-0.0157 J-0.0163
X-6.3747 Y8.984 I0.0078 J0.0081
G1 X-6.3695 Y8.9895
X-6.3674 Y8.9916 Z-0.0922
X-6.3655 Y8.9936 Z-0.0914
X-6.3637 Y8.9955 Z-0.09
X-6.3621 Y8.9971 Z-0.0881
X-6.3608 Y8.9985 Z-0.0858
X-6.3598 Y8.9995 Z-0.0832
X-6.3592 Y9.0001 Z-0.0804
X-6.359 Y9.0003 Z-0.0774
G0 Z0.4
X-5.6363 Y8.9887
Z0.0783
G1 Z0.0134 F40.
G18 G2 X-5.6212 Z-0.0017 I0.0151 K0.
G1 X-5.6137
G17 G3 X-5.6024 Y9. I0. J0.0113
X-5.6476 Z-0.019 I-0.0226 J0.
X-5.6024 Z-0.0362 I0.0226 J0.
X-5.6476 Z-0.0535 I-0.0226 J0.
X-5.6024 Z-0.0708 I0.0226 J0.
X-5.6476 Z-0.0881 I-0.0226 J0.
X-5.6407 Y8.9837 Z-0.0925 I0.0226 J0.
X-5.6093 Y9.0163 I0.0157 J0.0163
X-5.6407 Y8.9837 I-0.0157 J-0.0163
X-5.6247 Y8.984 I0.0078 J0.0081
G1 X-5.6195 Y8.9895
X-5.6174 Y8.9916 Z-0.0922
X-5.6155 Y8.9936 Z-0.0914
X-5.6137 Y8.9955 Z-0.09
X-5.6121 Y8.9971 Z-0.0881
X-5.6108 Y8.9985 Z-0.0858
X-5.6098 Y8.9995 Z-0.0832
X-5.6092 Y9.0001 Z-0.0804
X-5.609 Y9.0003 Z-0.0774
G0 Z0.4
X-4.8863 Y8.9887
Z0.0783
G1 Z0.0134 F40.
G18 G2 X-4.8712 Z-0.0017 I0.0151 K0.
G1 X-4.8637
G17 G3 X-4.8524 Y9. I0. J0.0113
X-4.8976 Z-0.019 I-0.0226 J0.
X-4.8524 Z-0.0362 I0.0226 J0.
X-4.8976 Z-0.0535 I-0.0226 J0.
X-4.8524 Z-0.0708 I0.0226 J0.
X-4.8976 Z-0.0881 I-0.0226 J0.
X-4.8907 Y8.9837 Z-0.0925 I0.0226 J0.
X-4.8593 Y9.0163 I0.0157 J0.0163
X-4.8907 Y8.9837 I-0.0157 J-0.0163
X-4.8747 Y8.984 I0.0078 J0.0081
G1 X-4.8695 Y8.9895
X-4.8674 Y8.9916 Z-0.0922
X-4.8655 Y8.9936 Z-0.0914
X-4.8637 Y8.9955 Z-0.09
X-4.8621 Y8.9971 Z-0.0881
X-4.8608 Y8.9985 Z-0.0858
X-4.8598 Y8.9995 Z-0.0832
X-4.8592 Y9.0001 Z-0.0804
X-4.859 Y9.0003 Z-0.0774
G0 Z0.4
X-4.1363 Y8.9887
Z0.0783
G1 Z0.0134 F40.
G18 G2 X-4.1212 Z-0.0017 I0.0151 K0.
G1 X-4.1137
G17 G3 X-4.1024 Y9. I0. J0.0113
X-4.1476 Z-0.019 I-0.0226 J0.
X-4.1024 Z-0.0362 I0.0226 J0.
X-4.1476 Z-0.0535 I-0.0226 J0.
X-4.1024 Z-0.0708 I0.0226 J0.
X-4.1476 Z-0.0881 I-0.0226 J0.
X-4.1407 Y8.9837 Z-0.0925 I0.0226 J0.
X-4.1093 Y9.0163 I0.0157 J0.0163
X-4.1407 Y8.9837 I-0.0157 J-0.0163
X-4.1247 Y8.984 I0.0078 J0.0081
G1 X-4.1195 Y8.9895
X-4.1174 Y8.9916 Z-0.0922
X-4.1155 Y8.9936 Z-0.0914
X-4.1137 Y8.9955 Z-0.09
X-4.1121 Y8.9971 Z-0.0881
X-4.1108 Y8.9985 Z-0.0858
X-4.1098 Y8.9995 Z-0.0832
X-4.1092 Y9.0001 Z-0.0804
X-4.109 Y9.0003 Z-0.0774
G0 Z0.6
(.3 CIRCULAR THROUGH HOLE)
M7
G0 X0.8698 Y-0.0218
Z0.6
Z0.2
G1 Z0.1146 F13.333
G3 X0.8704 Y-0.0205 Z0.1082 I-0.0394 J0.0218 F55.
X0.8721 Y-0.0169 Z0.103 I-0.04 J0.0205
X0.8739 Y-0.0114 Z0.1 I-0.0417 J0.0169
X0.7869 Y0.0114 Z0.0621 I-0.0435 J0.0114
X0.8739 Y-0.0114 Z0.0242 I0.0435 J-0.0114
X0.7869 Y0.0114 Z-0.0136 I-0.0435 J0.0114
X0.8739 Y-0.0114 Z-0.0515 I0.0435 J-0.0114
X0.8362 Y0.0446 Z-0.072 I-0.0435 J0.0114
X0.7854 Y0. Z-0.0925 I-0.0058 J-0.0446
X0.8146 I0.0146 J0. F60.
X0.6854 I-0.0646 J0.
X0.9146 I0.1146 J0.
X0.5854 I-0.1646 J0.
X1.0146 I0.2146 J0.
X0.4854 I-0.2646 J0.
X1.1146 I0.3146 J0.
X0.3854 I-0.3646 J0.
X1.2146 I0.4146 J0.
X0.2854 I-0.4646 J0.
X1.3146 I0.5146 J0.
X0.1854 I-0.5646 J0.
X1.4146 I0.6146 J0.
X0.0854 I-0.6646 J0.
X1.4246 I0.6696 J0.
X0.0754 I-0.6746 J0.
X1.4246 I0.6746 J0.
X1.4235 Y0.0056 Z-0.0914 I-0.0151 J0.
X1.421 Y0.0098 Z-0.0881 I-0.014 J-0.0056
X1.4186 Y0.012 Z-0.0832 I-0.0115 J-0.0098
X1.4177 Y0.0127 Z-0.0774 I-0.0091 J-0.012
G0 Z0.4
X2.2448 Y1.4782
Z0.2
G1 Z0.1146 F13.333
G3 X2.2454 Y1.4795 Z0.1082 I-0.0394 J0.0218 F55.
X2.2471 Y1.4831 Z0.103 I-0.04 J0.0205
X2.2489 Y1.4886 Z0.1 I-0.0417 J0.0169
X2.1619 Y1.5114 Z0.0621 I-0.0435 J0.0114
X2.2489 Y1.4886 Z0.0242 I0.0435 J-0.0114
X2.1619 Y1.5114 Z-0.0136 I-0.0435 J0.0114
X2.2489 Y1.4886 Z-0.0515 I0.0435 J-0.0114
X2.2112 Y1.5446 Z-0.072 I-0.0435 J0.0114
X2.1604 Y1.5 Z-0.0925 I-0.0058 J-0.0446
X2.1896 I0.0146 J0. F60.
X2.0604 I-0.0646 J0.
X2.2896 I0.1146 J0.
X1.9604 I-0.1646 J0.
X2.3896 I0.2146 J0.
X1.8604 I-0.2646 J0.
X2.4896 I0.3146 J0.
X1.7604 I-0.3646 J0.
X2.5896 I0.4146 J0.
X1.6604 I-0.4646 J0.
X2.6896 I0.5146 J0.
X1.5604 I-0.5646 J0.
X2.7896 I0.6146 J0.
X1.4604 I-0.6646 J0.
X2.7996 I0.6696 J0.
X1.4504 I-0.6746 J0.
X2.7996 I0.6746 J0.
X2.7985 Y1.5056 Z-0.0914 I-0.0151 J0.
X2.796 Y1.5098 Z-0.0881 I-0.014 J-0.0056
X2.7936 Y1.512 Z-0.0832 I-0.0115 J-0.0098
X2.7927 Y1.5127 Z-0.0774 I-0.0091 J-0.012
G0 Z0.4
X1.8653 Y2.8968
Z0.2
G1 Z0.1146 F13.333
G3 X1.8647 Y2.8955 Z0.1082 I0.0394 J-0.0218 F55.
X1.863 Y2.8919 Z0.103 I0.04 J-0.0205
X1.8612 Y2.8864 Z0.1 I0.0417 J-0.0169
X1.9482 Y2.8636 Z0.0621 I0.0435 J-0.0114
X1.8612 Y2.8864 Z0.0242 I-0.0435 J0.0114
X1.9482 Y2.8636 Z-0.0136 I0.0435 J-0.0114
X1.8612 Y2.8864 Z-0.0515 I-0.0435 J0.0114
X1.8989 Y2.8304 Z-0.072 I0.0435 J-0.0114
X1.9497 Y2.875 Z-0.0925 I0.0058 J0.0446
X1.9092 I-0.0202 J0.
X1.9408 I0.0158 J0. F60.
X1.8092 I-0.0658 J0.
X1.9508 I0.0708 J0.
X1.7992 I-0.0758 J0.
X1.9508 I0.0758 J0.
X1.9497 Y2.8806 Z-0.0914 I-0.0151 J0.
X1.9472 Y2.8848 Z-0.0881 I-0.014 J-0.0056
X1.9448 Y2.887 Z-0.0832 I-0.0115 J-0.0098
X1.9438 Y2.8877 Z-0.0774 I-0.0091 J-0.012
G0 Z0.4
X1.6198 Y4.5282
Z0.2
G1 Z0.1146 F13.333
G3 X1.6204 Y4.5295 Z0.1082 I-0.0394 J0.0218 F55.
X1.6221 Y4.5331 Z0.103 I-0.04 J0.0205
X1.6239 Y4.5386 Z0.1 I-0.0417 J0.0169
X1.5369 Y4.5614 Z0.0621 I-0.0435 J0.0114
X1.6239 Y4.5386 Z0.0242 I0.0435 J-0.0114
X1.5369 Y4.5614 Z-0.0136 I-0.0435 J0.0114
X1.6239 Y4.5386 Z-0.0515 I0.0435 J-0.0114
X1.5862 Y4.5946 Z-0.072 I-0.0435 J0.0114
X1.5354 Y4.55 Z-0.0925 I-0.0058 J-0.0446
X1.5646 I0.0146 J0. F60.
X1.4354 I-0.0646 J0.
X1.6646 I0.1146 J0.
X1.3354 I-0.1646 J0.
X1.7646 I0.2146 J0.
X1.2354 I-0.2646 J0.
X1.8646 I0.3146 J0.
X1.1354 I-0.3646 J0.
X1.9646 I0.4146 J0.
X1.0354 I-0.4646 J0.
X2.0646 I0.5146 J0.
X0.9354 I-0.5646 J0.
X2.1646 I0.6146 J0.
X0.8354 I-0.6646 J0.
X2.1746 I0.6696 J0.
X0.8254 I-0.6746 J0.
X2.1746 I0.6746 J0.
X2.1735 Y4.5556 Z-0.0914 I-0.0151 J0.
X2.171 Y4.5598 Z-0.0881 I-0.014 J-0.0056
X2.1686 Y4.562 Z-0.0832 I-0.0115 J-0.0098
X2.1677 Y4.5627 Z-0.0774 I-0.0091 J-0.012
G0 Z0.4
X0.1198 Y3.1532
Z0.2
G1 Z0.1146 F13.333
G3 X0.1204 Y3.1545 Z0.1082 I-0.0394 J0.0218 F55.
X0.1221 Y3.1581 Z0.103 I-0.04 J0.0205
X0.1239 Y3.1636 Z0.1 I-0.0417 J0.0169
X0.0369 Y3.1864 Z0.0621 I-0.0435 J0.0114
X0.1239 Y3.1636 Z0.0242 I0.0435 J-0.0114
X0.0369 Y3.1864 Z-0.0136 I-0.0435 J0.0114
X0.1239 Y3.1636 Z-0.0515 I0.0435 J-0.0114
X0.0862 Y3.2196 Z-0.072 I-0.0435 J0.0114
X0.0354 Y3.175 Z-0.0925 I-0.0058 J-0.0446
X0.0646 I0.0146 J0. F60.
X-0.0646 I-0.0646 J0.
X0.1646 I0.1146 J0.
X-0.1646 I-0.1646 J0.
X0.2646 I0.2146 J0.
X-0.2646 I-0.2646 J0.
X0.3646 I0.3146 J0.
X-0.3646 I-0.3646 J0.
X0.4646 I0.4146 J0.
X-0.4646 I-0.4646 J0.
X0.5646 I0.5146 J0.
X-0.5646 I-0.5646 J0.
X0.6646 I0.6146 J0.
X-0.6646 I-0.6646 J0.
X0.6746 I0.6696 J0.
X-0.6746 I-0.6746 J0.
X0.6746 I0.6746 J0.
X0.6735 Y3.1806 Z-0.0914 I-0.0151 J0.
X0.671 Y3.1848 Z-0.0881 I-0.014 J-0.0056
X0.6686 Y3.187 Z-0.0832 I-0.0115 J-0.0098
X0.6677 Y3.1877 Z-0.0774 I-0.0091 J-0.012
G0 Z0.4
X-0.8157 Y2.0768
Z0.2
G1 Z0.1146 F13.333
G3 X-0.8163 Y2.0755 Z0.1082 I0.0394 J-0.0218 F55.
X-0.818 Y2.0719 Z0.103 I0.04 J-0.0205
X-0.8198 Y2.0664 Z0.1 I0.0417 J-0.0169
X-0.7328 Y2.0436 Z0.0621 I0.0435 J-0.0114
X-0.8198 Y2.0664 Z0.0242 I-0.0435 J0.0114
X-0.7328 Y2.0436 Z-0.0136 I0.0435 J-0.0114
X-0.8198 Y2.0664 Z-0.0515 I-0.0435 J0.0114
X-0.7821 Y2.0104 Z-0.072 I0.0435 J-0.0114
X-0.7313 Y2.055 Z-0.0925 I0.0058 J0.0446
X-0.7718 I-0.0202 J0.
X-0.7402 I0.0158 J0. F60.
X-0.8718 I-0.0658 J0.
X-0.7302 I0.0708 J0.
X-0.8818 I-0.0758 J0.
X-0.7302 I0.0758 J0.
X-0.7313 Y2.0606 Z-0.0914 I-0.0151 J0.
X-0.7338 Y2.0648 Z-0.0881 I-0.014 J-0.0056
X-0.7362 Y2.067 Z-0.0832 I-0.0115 J-0.0098
X-0.7372 Y2.0677 Z-0.0774 I-0.0091 J-0.012
G0 Z0.4
X-1.8597 Y1.2028
Z0.2
G1 Z0.1146 F13.333
G3 X-1.8603 Y1.2015 Z0.1082 I0.0394 J-0.0218 F55.
X-1.862 Y1.1979 Z0.103 I0.04 J-0.0205
X-1.8638 Y1.1924 Z0.1 I0.0417 J-0.0169
X-1.7768 Y1.1696 Z0.0621 I0.0435 J-0.0114
X-1.8638 Y1.1924 Z0.0242 I-0.0435 J0.0114
X-1.7768 Y1.1696 Z-0.0136 I0.0435 J-0.0114
X-1.8638 Y1.1924 Z-0.0515 I-0.0435 J0.0114
X-1.8261 Y1.1364 Z-0.072 I0.0435 J-0.0114
X-1.7753 Y1.181 Z-0.0925 I0.0058 J0.0446
X-1.8158 I-0.0202 J0.
X-1.7842 I0.0158 J0. F60.
X-1.9158 I-0.0658 J0.
X-1.7742 I0.0708 J0.
X-1.9258 I-0.0758 J0.
X-1.7742 I0.0758 J0.
X-1.7753 Y1.1866 Z-0.0914 I-0.0151 J0.
X-1.7778 Y1.1908 Z-0.0881 I-0.014 J-0.0056
X-1.7802 Y1.193 Z-0.0832 I-0.0115 J-0.0098
X-1.7812 Y1.1937 Z-0.0774 I-0.0091 J-0.012
G0 Z0.4
X-2.8597 Y1.2028
Z0.2
G1 Z0.1146 F13.333
G3 X-2.8603 Y1.2015 Z0.1082 I0.0394 J-0.0218 F55.
X-2.862 Y1.1979 Z0.103 I0.04 J-0.0205
X-2.8638 Y1.1924 Z0.1 I0.0417 J-0.0169
X-2.7768 Y1.1696 Z0.0621 I0.0435 J-0.0114
X-2.8638 Y1.1924 Z0.0242 I-0.0435 J0.0114
X-2.7768 Y1.1696 Z-0.0136 I0.0435 J-0.0114
X-2.8638 Y1.1924 Z-0.0515 I-0.0435 J0.0114
X-2.8261 Y1.1364 Z-0.072 I0.0435 J-0.0114
X-2.7753 Y1.181 Z-0.0925 I0.0058 J0.0446
X-2.8158 I-0.0202 J0.
X-2.7842 I0.0158 J0. F60.
X-2.9158 I-0.0658 J0.
X-2.7742 I0.0708 J0.
X-2.9258 I-0.0758 J0.
X-2.7742 I0.0758 J0.
X-2.7753 Y1.1866 Z-0.0914 I-0.0151 J0.
X-2.7778 Y1.1908 Z-0.0881 I-0.014 J-0.0056
X-2.7802 Y1.193 Z-0.0832 I-0.0115 J-0.0098
X-2.7812 Y1.1937 Z-0.0774 I-0.0091 J-0.012
G0 Z0.4
X-2.8802 Y3.1532
Z0.2
G1 Z0.1146 F13.333
G3 X-2.8796 Y3.1545 Z0.1082 I-0.0394 J0.0218 F55.
X-2.8779 Y3.1581 Z0.103 I-0.04 J0.0205
X-2.8761 Y3.1636 Z0.1 I-0.0417 J0.0169
X-2.9631 Y3.1864 Z0.0621 I-0.0435 J0.0114
X-2.8761 Y3.1636 Z0.0242 I0.0435 J-0.0114
X-2.9631 Y3.1864 Z-0.0136 I-0.0435 J0.0114
X-2.8761 Y3.1636 Z-0.0515 I0.0435 J-0.0114
X-2.9138 Y3.2196 Z-0.072 I-0.0435 J0.0114
X-2.9646 Y3.175 Z-0.0925 I-0.0058 J-0.0446
X-2.9354 I0.0146 J0. F60.
X-3.0646 I-0.0646 J0.
X-2.8354 I0.1146 J0.
X-3.1646 I-0.1646 J0.
X-2.7354 I0.2146 J0.
X-3.2646 I-0.2646 J0.
X-2.6354 I0.3146 J0.
X-3.3646 I-0.3646 J0.
X-2.5354 I0.4146 J0.
X-3.4646 I-0.4646 J0.
X-2.4354 I0.5146 J0.
X-3.5646 I-0.5646 J0.
X-2.3354 I0.6146 J0.
X-3.6646 I-0.6646 J0.
X-2.3254 I0.6696 J0.
X-3.6746 I-0.6746 J0.
X-2.3254 I0.6746 J0.
X-2.3265 Y3.1806 Z-0.0914 I-0.0151 J0.
X-2.329 Y3.1848 Z-0.0881 I-0.014 J-0.0056
X-2.3314 Y3.187 Z-0.0832 I-0.0115 J-0.0098
X-2.3323 Y3.1877 Z-0.0774 I-0.0091 J-0.012
G0 Z0.4
X-1.3802 Y4.5282
Z0.2
G1 Z0.1146 F13.333
G3 X-1.3796 Y4.5295 Z0.1082 I-0.0394 J0.0218 F55.
X-1.3779 Y4.5331 Z0.103 I-0.04 J0.0205
X-1.3761 Y4.5386 Z0.1 I-0.0417 J0.0169
X-1.4631 Y4.5614 Z0.0621 I-0.0435 J0.0114
X-1.3761 Y4.5386 Z0.0242 I0.0435 J-0.0114
X-1.4631 Y4.5614 Z-0.0136 I-0.0435 J0.0114
X-1.3761 Y4.5386 Z-0.0515 I0.0435 J-0.0114
X-1.4138 Y4.5946 Z-0.072 I-0.0435 J0.0114
X-1.4646 Y4.55 Z-0.0925 I-0.0058 J-0.0446
X-1.4354 I0.0146 J0. F60.
X-1.5646 I-0.0646 J0.
X-1.3354 I0.1146 J0.
X-1.6646 I-0.1646 J0.
X-1.2354 I0.2146 J0.
X-1.7646 I-0.2646 J0.
X-1.1354 I0.3146 J0.
X-1.8646 I-0.3646 J0.
X-1.0354 I0.4146 J0.
X-1.9646 I-0.4646 J0.
X-0.9354 I0.5146 J0.
X-2.0646 I-0.5646 J0.
X-0.8354 I0.6146 J0.
X-2.1646 I-0.6646 J0.
X-0.8254 I0.6696 J0.
X-2.1746 I-0.6746 J0.
X-0.8254 I0.6746 J0.
X-0.8265 Y4.5556 Z-0.0914 I-0.0151 J0.
X-0.829 Y4.5598 Z-0.0881 I-0.014 J-0.0056
X-0.8314 Y4.562 Z-0.0832 I-0.0115 J-0.0098
X-0.8323 Y4.5627 Z-0.0774 I-0.0091 J-0.012
G0 Z0.4
X-4.6302 Y4.5282
Z0.2
G1 Z0.1146 F13.333
G3 X-4.6296 Y4.5295 Z0.1082 I-0.0394 J0.0218 F55.
X-4.6279 Y4.5331 Z0.103 I-0.04 J0.0205
X-4.6261 Y4.5386 Z0.1 I-0.0417 J0.0169
X-4.7131 Y4.5614 Z0.0621 I-0.0435 J0.0114
X-4.6261 Y4.5386 Z0.0242 I0.0435 J-0.0114
X-4.7131 Y4.5614 Z-0.0136 I-0.0435 J0.0114
X-4.6261 Y4.5386 Z-0.0515 I0.0435 J-0.0114
X-4.6638 Y4.5946 Z-0.072 I-0.0435 J0.0114
X-4.7146 Y4.55 Z-0.0925 I-0.0058 J-0.0446
X-4.6854 I0.0146 J0. F60.
X-4.8146 I-0.0646 J0.
X-4.5854 I0.1146 J0.
X-4.9146 I-0.1646 J0.
X-4.4854 I0.2146 J0.
X-5.0146 I-0.2646 J0.
X-4.3854 I0.3146 J0.
X-5.1146 I-0.3646 J0.
X-4.2854 I0.4146 J0.
X-5.2146 I-0.4646 J0.
X-4.1854 I0.5146 J0.
X-5.3146 I-0.5646 J0.
X-4.0854 I0.6146 J0.
X-5.4146 I-0.6646 J0.
X-4.0754 I0.6696 J0.
X-5.4246 I-0.6746 J0.
X-4.0754 I0.6746 J0.
X-4.0765 Y4.5556 Z-0.0914 I-0.0151 J0.
X-4.079 Y4.5598 Z-0.0881 I-0.014 J-0.0056
X-4.0814 Y4.562 Z-0.0832 I-0.0115 J-0.0098
X-4.0823 Y4.5627 Z-0.0774 I-0.0091 J-0.012
G0 Z0.4
X-4.3847 Y2.8968
Z0.2
G1 Z0.1146 F13.333
G3 X-4.3853 Y2.8955 Z0.1082 I0.0394 J-0.0218 F55.
X-4.387 Y2.8919 Z0.103 I0.04 J-0.0205
X-4.3888 Y2.8864 Z0.1 I0.0417 J-0.0169
X-4.3018 Y2.8636 Z0.0621 I0.0435 J-0.0114
X-4.3888 Y2.8864 Z0.0242 I-0.0435 J0.0114
X-4.3018 Y2.8636 Z-0.0136 I0.0435 J-0.0114
X-4.3888 Y2.8864 Z-0.0515 I-0.0435 J0.0114
X-4.3511 Y2.8304 Z-0.072 I0.0435 J-0.0114
X-4.3003 Y2.875 Z-0.0925 I0.0058 J0.0446
X-4.3408 I-0.0202 J0.
X-4.3092 I0.0158 J0. F60.
X-4.4408 I-0.0658 J0.
X-4.2992 I0.0708 J0.
X-4.4508 I-0.0758 J0.
X-4.2992 I0.0758 J0.
X-4.3003 Y2.8806 Z-0.0914 I-0.0151 J0.
X-4.3028 Y2.8848 Z-0.0881 I-0.014 J-0.0056
X-4.3052 Y2.887 Z-0.0832 I-0.0115 J-0.0098
X-4.3062 Y2.8877 Z-0.0774 I-0.0091 J-0.012
G0 Z0.4
X-4.6302 Y6.7282
Z0.2
G1 Z0.1146 F13.333
G3 X-4.6296 Y6.7295 Z0.1082 I-0.0394 J0.0218 F55.
X-4.6279 Y6.7331 Z0.103 I-0.04 J0.0205
X-4.6261 Y6.7386 Z0.1 I-0.0417 J0.0169
X-4.7131 Y6.7614 Z0.0621 I-0.0435 J0.0114
X-4.6261 Y6.7386 Z0.0242 I0.0435 J-0.0114
X-4.7131 Y6.7614 Z-0.0136 I-0.0435 J0.0114
X-4.6261 Y6.7386 Z-0.0515 I0.0435 J-0.0114
X-4.6638 Y6.7946 Z-0.072 I-0.0435 J0.0114
X-4.7146 Y6.75 Z-0.0925 I-0.0058 J-0.0446
X-4.6854 I0.0146 J0. F60.
X-4.8146 I-0.0646 J0.
X-4.5854 I0.1146 J0.
X-4.9146 I-0.1646 J0.
X-4.4854 I0.2146 J0.
X-5.0146 I-0.2646 J0.
X-4.3854 I0.3146 J0.
X-5.1146 I-0.3646 J0.
X-4.2854 I0.4146 J0.
X-5.2146 I-0.4646 J0.
X-4.1854 I0.5146 J0.
X-5.3146 I-0.5646 J0.
X-4.0854 I0.6146 J0.
X-5.4146 I-0.6646 J0.
X-4.0754 I0.6696 J0.
X-5.4246 I-0.6746 J0.
X-4.0754 I0.6746 J0.
X-4.0758 Y6.7523 Z-0.092 I-0.0062 J0.
X-4.0769 Y6.754 Z-0.0907 I-0.0057 J-0.0023
X-4.0778 Y6.7549 Z-0.0887 I-0.0047 J-0.004
X-4.0782 Y6.7552 Z-0.0863 I-0.0037 J-0.0049
G0 Z0.4
X-11.3018 Y5.9782
Z0.2
G1 Z0.1146 F13.333
G3 X-11.3011 Y5.9795 Z0.1082 I-0.0394 J0.0218 F55.
X-11.2994 Y5.9831 Z0.103 I-0.04 J0.0205
X-11.2976 Y5.9886 Z0.1 I-0.0417 J0.0169
X-11.3141 Y6.036 Z0.0857 I-0.0435 J0.0114
X-11.3681 Y5.964 Z0.0478 I-0.027 J-0.036
X-11.3141 Z0.0323 I0.027 J0.036
Y6.036 Z0.01 I-0.027 J0.036
X-11.3681 Y5.964 Z-0.0279 I-0.027 J-0.036
X-11.3141 Z-0.0434 I0.027 J0.036
Y6.036 Z-0.0658 I-0.027 J0.036
X-11.3861 Y6. Z-0.0925 I-0.027 J-0.036
X-11.3569 I0.0146 J0. F60.
X-11.4861 I-0.0646 J0.
X-11.2569 I0.1146 J0.
X-11.5861 I-0.1646 J0.
X-11.1569 I0.2146 J0.
X-11.6861 I-0.2646 J0.
X-11.0569 I0.3146 J0.
X-11.7861 I-0.3646 J0.
X-10.9569 I0.4146 J0.
X-11.8861 I-0.4646 J0.
X-10.8569 I0.5146 J0.
X-11.9861 I-0.5646 J0.
X-10.7569 I0.6146 J0.
X-12.0861 I-0.6646 J0.
X-10.7469 I0.6696 J0.
X-12.0961 I-0.6746 J0.
X-10.7469 I0.6746 J0.
X-10.748 Y6.0056 Z-0.0914 I-0.0151 J0.
X-10.7506 Y6.0098 Z-0.0881 I-0.014 J-0.0056
X-10.7529 Y6.012 Z-0.0832 I-0.0115 J-0.0098
X-10.7539 Y6.0127 Z-0.0774 I-0.0091 J-0.012
G0 Z0.4
X-11.3018 Y3.5782
Z0.2
G1 Z0.1146 F13.333
G3 X-11.3011 Y3.5795 Z0.1082 I-0.0394 J0.0218 F55.
X-11.2994 Y3.5831 Z0.103 I-0.04 J0.0205
X-11.2976 Y3.5886 Z0.1 I-0.0417 J0.0169
X-11.3141 Y3.636 Z0.0857 I-0.0435 J0.0114
X-11.3681 Y3.564 Z0.0478 I-0.027 J-0.036
X-11.3141 Z0.0323 I0.027 J0.036
Y3.636 Z0.01 I-0.027 J0.036
X-11.3681 Y3.564 Z-0.0279 I-0.027 J-0.036
X-11.3141 Z-0.0434 I0.027 J0.036
Y3.636 Z-0.0658 I-0.027 J0.036
X-11.3861 Y3.6 Z-0.0925 I-0.027 J-0.036
X-11.3569 I0.0146 J0. F60.
X-11.4861 I-0.0646 J0.
X-11.2569 I0.1146 J0.
X-11.5861 I-0.1646 J0.
X-11.1569 I0.2146 J0.
X-11.6861 I-0.2646 J0.
X-11.0569 I0.3146 J0.
X-11.7861 I-0.3646 J0.
X-10.9569 I0.4146 J0.
X-11.8861 I-0.4646 J0.
X-10.8569 I0.5146 J0.
X-11.9861 I-0.5646 J0.
X-10.7569 I0.6146 J0.
X-12.0861 I-0.6646 J0.
X-10.7469 I0.6696 J0.
X-12.0961 I-0.6746 J0.
X-10.7469 I0.6746 J0.
X-10.748 Y3.6056 Z-0.0914 I-0.0151 J0.
X-10.7506 Y3.6098 Z-0.0881 I-0.014 J-0.0056
X-10.7529 Y3.612 Z-0.0832 I-0.0115 J-0.0098
X-10.7539 Y3.6127 Z-0.0774 I-0.0091 J-0.012
G0 Z0.4
X-11.3018 Y1.1782
Z0.2
G1 Z0.1146 F13.333
G3 X-11.3011 Y1.1795 Z0.1082 I-0.0394 J0.0218 F55.
X-11.2994 Y1.1831 Z0.103 I-0.04 J0.0205
X-11.2976 Y1.1886 Z0.1 I-0.0417 J0.0169
X-11.3141 Y1.236 Z0.0857 I-0.0435 J0.0114
X-11.3681 Y1.164 Z0.0478 I-0.027 J-0.036
X-11.3141 Z0.0323 I0.027 J0.036
Y1.236 Z0.01 I-0.027 J0.036
X-11.3681 Y1.164 Z-0.0279 I-0.027 J-0.036
X-11.3141 Z-0.0434 I0.027 J0.036
Y1.236 Z-0.0658 I-0.027 J0.036
X-11.3861 Y1.2 Z-0.0925 I-0.027 J-0.036
X-11.3569 I0.0146 J0. F60.
X-11.4861 I-0.0646 J0.
X-11.2569 I0.1146 J0.
X-11.5861 I-0.1646 J0.
X-11.1569 I0.2146 J0.
X-11.6861 I-0.2646 J0.
X-11.0569 I0.3146 J0.
X-11.7861 I-0.3646 J0.
X-10.9569 I0.4146 J0.
X-11.8861 I-0.4646 J0.
X-10.8569 I0.5146 J0.
X-11.9861 I-0.5646 J0.
X-10.7569 I0.6146 J0.
X-12.0861 I-0.6646 J0.
X-10.7469 I0.6696 J0.
X-12.0961 I-0.6746 J0.
X-10.7469 I0.6746 J0.
X-10.748 Y1.2056 Z-0.0914 I-0.0151 J0.
X-10.7506 Y1.2098 Z-0.0881 I-0.014 J-0.0056
X-10.7529 Y1.212 Z-0.0832 I-0.0115 J-0.0098
X-10.7539 Y1.2127 Z-0.0774 I-0.0091 J-0.012
G0 Z0.4
X-11.3018 Y-1.2218
Z0.2
G1 Z0.1146 F13.333
G3 X-11.3011 Y-1.2205 Z0.1082 I-0.0394 J0.0218 F55.
X-11.2994 Y-1.2169 Z0.103 I-0.04 J0.0205
X-11.2976 Y-1.2114 Z0.1 I-0.0417 J0.0169
X-11.3141 Y-1.164 Z0.0857 I-0.0435 J0.0114
X-11.3681 Y-1.236 Z0.0478 I-0.027 J-0.036
X-11.3141 Z0.0323 I0.027 J0.036
Y-1.164 Z0.01 I-0.027 J0.036
X-11.3681 Y-1.236 Z-0.0279 I-0.027 J-0.036
X-11.3141 Z-0.0434 I0.027 J0.036
Y-1.164 Z-0.0658 I-0.027 J0.036
X-11.3861 Y-1.2 Z-0.0925 I-0.027 J-0.036
X-11.3569 I0.0146 J0. F60.
X-11.4861 I-0.0646 J0.
X-11.2569 I0.1146 J0.
X-11.5861 I-0.1646 J0.
X-11.1569 I0.2146 J0.
X-11.6861 I-0.2646 J0.
X-11.0569 I0.3146 J0.
X-11.7861 I-0.3646 J0.
X-10.9569 I0.4146 J0.
X-11.8861 I-0.4646 J0.
X-10.8569 I0.5146 J0.
X-11.9861 I-0.5646 J0.
X-10.7569 I0.6146 J0.
X-12.0861 I-0.6646 J0.
X-10.7469 I0.6696 J0.
X-12.0961 I-0.6746 J0.
X-10.7469 I0.6746 J0.
X-10.748 Y-1.1944 Z-0.0914 I-0.0151 J0.
X-10.7506 Y-1.1902 Z-0.0881 I-0.014 J-0.0056
X-10.7529 Y-1.188 Z-0.0832 I-0.0115 J-0.0098
X-10.7539 Y-1.1873 Z-0.0774 I-0.0091 J-0.012
G0 Z0.4
X-11.3018 Y-3.6218
Z0.2
G1 Z0.1146 F13.333
G3 X-11.3011 Y-3.6205 Z0.1082 I-0.0394 J0.0218 F55.
X-11.2994 Y-3.6169 Z0.103 I-0.04 J0.0205
X-11.2976 Y-3.6114 Z0.1 I-0.0417 J0.0169
X-11.3141 Y-3.564 Z0.0857 I-0.0435 J0.0114
X-11.3681 Y-3.636 Z0.0478 I-0.027 J-0.036
X-11.3141 Z0.0323 I0.027 J0.036
Y-3.564 Z0.01 I-0.027 J0.036
X-11.3681 Y-3.636 Z-0.0279 I-0.027 J-0.036
X-11.3141 Z-0.0434 I0.027 J0.036
Y-3.564 Z-0.0658 I-0.027 J0.036
X-11.3861 Y-3.6 Z-0.0925 I-0.027 J-0.036
X-11.3569 I0.0146 J0. F60.
X-11.4861 I-0.0646 J0.
X-11.2569 I0.1146 J0.
X-11.5861 I-0.1646 J0.
X-11.1569 I0.2146 J0.
X-11.6861 I-0.2646 J0.
X-11.0569 I0.3146 J0.
X-11.7861 I-0.3646 J0.
X-10.9569 I0.4146 J0.
X-11.8861 I-0.4646 J0.
X-10.8569 I0.5146 J0.
X-11.9861 I-0.5646 J0.
X-10.7569 I0.6146 J0.
X-12.0861 I-0.6646 J0.
X-10.7469 I0.6696 J0.
