%
(971-23-P-0004_BELLYPAN_1494)
(T1  D=0.1494 CR=0. - ZMIN=-0.0925 - FLAT END MILL)
G90 G94 G17 G91.1
G64 P0.001 Q0.001
G20
G53 G0 Z0.
(.3 CIRCLUAR THROUGH HOLE 2)
M9
T1 M6
S22000 M3
G4 P10.
G54
M7
G0 X4.7642 Y-12.1366
G43 Z0.6 H1
G0 Z0.0783
G1 Z0.0133 F40.
G18 G2 X4.7792 Z-0.0017 I0.0149 K0.
G1 X4.7866
G17 G3 X4.7983 Y-12.125 I0. J0.0116
X4.7517 Z-0.019 I-0.0233 J0.
X4.7983 Z-0.0362 I0.0233 J0.
X4.7517 Z-0.0535 I-0.0233 J0.
X4.7979 Y-12.1292 Z-0.0698 I0.0233 J0.
X4.7521 Y-12.1208 Z-0.0871 I-0.0229 J0.0042
X4.7588 Y-12.1418 Z-0.0925 I0.0229 J-0.0042
X4.7912 Y-12.1082 I0.0162 J0.0168
X4.7588 Y-12.1418 I-0.0162 J-0.0168
X4.7753 Y-12.1415 I0.0081 J0.0084
G1 X4.7805 Y-12.1361
X4.7825 Y-12.134 Z-0.0922
X4.7845 Y-12.132 Z-0.0914
X4.7863 Y-12.1301 Z-0.09
X4.7878 Y-12.1285 Z-0.0881
X4.7891 Y-12.1271 Z-0.0859
X4.7901 Y-12.1261 Z-0.0833
X4.7907 Y-12.1255 Z-0.0805
X4.7909 Y-12.1253 Z-0.0776
G0 Z0.4
X4.2142 Y-12.1366
Z0.0783
G1 Z0.0133 F40.
G18 G2 X4.2292 Z-0.0017 I0.0149 K0.
G1 X4.2366
G17 G3 X4.2483 Y-12.125 I0. J0.0116
X4.2017 Z-0.019 I-0.0233 J0.
X4.2483 Z-0.0362 I0.0233 J0.
X4.2017 Z-0.0535 I-0.0233 J0.
X4.2479 Y-12.1292 Z-0.0698 I0.0233 J0.
X4.2021 Y-12.1208 Z-0.0871 I-0.0229 J0.0042
X4.2088 Y-12.1418 Z-0.0925 I0.0229 J-0.0042
X4.2412 Y-12.1082 I0.0162 J0.0168
X4.2088 Y-12.1418 I-0.0162 J-0.0168
X4.2253 Y-12.1415 I0.0081 J0.0084
G1 X4.2305 Y-12.1361
X4.2325 Y-12.134 Z-0.0922
X4.2345 Y-12.132 Z-0.0914
X4.2363 Y-12.1301 Z-0.09
X4.2378 Y-12.1285 Z-0.0881
X4.2391 Y-12.1271 Z-0.0859
X4.2401 Y-12.1261 Z-0.0833
X4.2407 Y-12.1255 Z-0.0805
X4.2409 Y-12.1253 Z-0.0776
G0 Z0.4
X4.2142 Y-11.3867
Z0.0783
G1 Z0.0133 F40.
G18 G2 X4.2292 Z-0.0017 I0.0149 K0.
G1 X4.2366
G17 G3 X4.2483 Y-11.375 I0. J0.0117
X4.2017 Z-0.019 I-0.0233 J0.
X4.2483 Z-0.0362 I0.0233 J0.
X4.2017 Z-0.0535 I-0.0233 J0.
X4.2483 Z-0.0708 I0.0233 J0.
X4.2017 Z-0.0881 I-0.0233 J0.
X4.2088 Y-11.3918 Z-0.0925 I0.0233 J0.
X4.2412 Y-11.3582 I0.0162 J0.0168
X4.2088 Y-11.3918 I-0.0162 J-0.0168
X4.2253 Y-11.3915 I0.0081 J0.0084
G1 X4.2305 Y-11.3861
X4.2325 Y-11.384 Z-0.0922
X4.2345 Y-11.382 Z-0.0914
X4.2363 Y-11.3801 Z-0.09
X4.2378 Y-11.3785 Z-0.0881
X4.2391 Y-11.3771 Z-0.0859
X4.2401 Y-11.3761 Z-0.0833
X4.2407 Y-11.3755 Z-0.0805
X4.2409 Y-11.3753 Z-0.0776
G0 Z0.4
X4.7642 Y-11.3867
Z0.0783
G1 Z0.0133 F40.
G18 G2 X4.7792 Z-0.0017 I0.0149 K0.
G1 X4.7866
G17 G3 X4.7983 Y-11.375 I0. J0.0117
X4.7517 Z-0.019 I-0.0233 J0.
X4.7983 Z-0.0362 I0.0233 J0.
X4.7517 Z-0.0535 I-0.0233 J0.
X4.7983 Z-0.0708 I0.0233 J0.
X4.7517 Z-0.0881 I-0.0233 J0.
X4.7588 Y-11.3918 Z-0.0925 I0.0233 J0.
X4.7912 Y-11.3582 I0.0162 J0.0168
X4.7588 Y-11.3918 I-0.0162 J-0.0168
X4.7753 Y-11.3915 I0.0081 J0.0084
G1 X4.7805 Y-11.3861
X4.7825 Y-11.384 Z-0.0922
X4.7845 Y-11.382 Z-0.0914
X4.7863 Y-11.3801 Z-0.09
X4.7878 Y-11.3785 Z-0.0881
X4.7891 Y-11.3771 Z-0.0859
X4.7901 Y-11.3761 Z-0.0833
X4.7907 Y-11.3755 Z-0.0805
X4.7909 Y-11.3753 Z-0.0776
G0 Z0.4
X4.7642 Y-10.6366
Z0.0783
G1 Z0.0133 F40.
G18 G2 X4.7792 Z-0.0017 I0.0149 K0.
G1 X4.7866
G17 G3 X4.7983 Y-10.625 I0. J0.0116
X4.7517 Z-0.019 I-0.0233 J0.
X4.7983 Z-0.0362 I0.0233 J0.
X4.7517 Z-0.0535 I-0.0233 J0.
X4.7983 Z-0.0708 I0.0233 J0.
X4.7517 Z-0.0881 I-0.0233 J0.
X4.7588 Y-10.6418 Z-0.0925 I0.0233 J0.
X4.7912 Y-10.6082 I0.0162 J0.0168
X4.7588 Y-10.6418 I-0.0162 J-0.0168
X4.7753 Y-10.6415 I0.0081 J0.0084
G1 X4.7805 Y-10.6361
X4.7825 Y-10.634 Z-0.0922
X4.7845 Y-10.632 Z-0.0914
X4.7863 Y-10.6301 Z-0.09
X4.7878 Y-10.6285 Z-0.0881
X4.7891 Y-10.6271 Z-0.0859
X4.7901 Y-10.6261 Z-0.0833
X4.7907 Y-10.6255 Z-0.0805
X4.7909 Y-10.6253 Z-0.0776
G0 Z0.4
X4.2142 Y-10.6366
Z0.0783
G1 Z0.0133 F40.
G18 G2 X4.2292 Z-0.0017 I0.0149 K0.
G1 X4.2366
G17 G3 X4.2483 Y-10.625 I0. J0.0116
X4.2017 Z-0.019 I-0.0233 J0.
X4.2483 Z-0.0362 I0.0233 J0.
X4.2017 Z-0.0535 I-0.0233 J0.
X4.2483 Z-0.0708 I0.0233 J0.
X4.2017 Z-0.0881 I-0.0233 J0.
X4.2088 Y-10.6418 Z-0.0925 I0.0233 J0.
X4.2412 Y-10.6082 I0.0162 J0.0168
X4.2088 Y-10.6418 I-0.0162 J-0.0168
X4.2253 Y-10.6415 I0.0081 J0.0084
G1 X4.2305 Y-10.6361
X4.2325 Y-10.634 Z-0.0922
X4.2345 Y-10.632 Z-0.0914
X4.2363 Y-10.6301 Z-0.09
X4.2378 Y-10.6285 Z-0.0881
X4.2391 Y-10.6271 Z-0.0859
X4.2401 Y-10.6261 Z-0.0833
X4.2407 Y-10.6255 Z-0.0805
X4.2409 Y-10.6253 Z-0.0776
G0 Z0.4
X4.2142 Y-9.8867
Z0.0783
G1 Z0.0133 F40.
G18 G2 X4.2292 Z-0.0017 I0.0149 K0.
G1 X4.2366
G17 G3 X4.2483 Y-9.875 I0. J0.0117
X4.2017 Z-0.019 I-0.0233 J0.
X4.2483 Z-0.0362 I0.0233 J0.
X4.2017 Z-0.0535 I-0.0233 J0.
X4.2483 Z-0.0708 I0.0233 J0.
X4.2017 Z-0.0881 I-0.0233 J0.
X4.2088 Y-9.8918 Z-0.0925 I0.0233 J0.
X4.2412 Y-9.8582 I0.0162 J0.0168
X4.2088 Y-9.8918 I-0.0162 J-0.0168
X4.2253 Y-9.8915 I0.0081 J0.0084
G1 X4.2305 Y-9.8861
X4.2325 Y-9.884 Z-0.0922
X4.2345 Y-9.882 Z-0.0914
X4.2363 Y-9.8801 Z-0.09
X4.2378 Y-9.8785 Z-0.0881
X4.2391 Y-9.8771 Z-0.0859
X4.2401 Y-9.8761 Z-0.0833
X4.2407 Y-9.8755 Z-0.0805
X4.2409 Y-9.8753 Z-0.0776
G0 Z0.4
X4.7642 Y-9.8867
Z0.0783
G1 Z0.0133 F40.
G18 G2 X4.7792 Z-0.0017 I0.0149 K0.
G1 X4.7866
G17 G3 X4.7983 Y-9.875 I0. J0.0117
X4.7517 Z-0.019 I-0.0233 J0.
X4.7983 Z-0.0362 I0.0233 J0.
X4.7517 Z-0.0535 I-0.0233 J0.
X4.7983 Z-0.0708 I0.0233 J0.
X4.7517 Z-0.0881 I-0.0233 J0.
X4.7588 Y-9.8918 Z-0.0925 I0.0233 J0.
X4.7912 Y-9.8582 I0.0162 J0.0168
X4.7588 Y-9.8918 I-0.0162 J-0.0168
X4.7753 Y-9.8915 I0.0081 J0.0084
G1 X4.7805 Y-9.8861
X4.7825 Y-9.884 Z-0.0922
X4.7845 Y-9.882 Z-0.0914
X4.7863 Y-9.8801 Z-0.09
X4.7878 Y-9.8785 Z-0.0881
X4.7891 Y-9.8771 Z-0.0859
X4.7901 Y-9.8761 Z-0.0833
X4.7907 Y-9.8755 Z-0.0805
X4.7909 Y-9.8753 Z-0.0776
G0 Z0.4
X4.1358 Y-8.9884
Z0.0783
G1 Z0.0133 F40.
G18 G3 X4.1208 Z-0.0017 I-0.0149 K0.
G1 X4.1133
G17 G3 X4.1017 Y-9. I0. J-0.0117
X4.1483 Z-0.019 I0.0233 J0.
X4.1017 Z-0.0362 I-0.0233 J0.
X4.1483 Z-0.0535 I0.0233 J0.
X4.1017 Z-0.0708 I-0.0233 J0.
X4.1483 Z-0.0881 I0.0233 J0.
X4.1412 Y-8.9832 Z-0.0925 I-0.0233 J0.
X4.1088 Y-9.0168 I-0.0162 J-0.0168
X4.1412 Y-8.9832 I0.0162 J0.0168
X4.1247 Y-8.9835 I-0.0081 J-0.0084
G1 X4.1195 Y-8.9889
X4.1175 Y-8.991 Z-0.0922
X4.1155 Y-8.993 Z-0.0914
X4.1137 Y-8.9949 Z-0.09
X4.1122 Y-8.9965 Z-0.0881
X4.1109 Y-8.9979 Z-0.0859
X4.1099 Y-8.9989 Z-0.0833
X4.1093 Y-8.9995 Z-0.0805
X4.1091 Y-8.9997 Z-0.0776
G0 Z0.4
X4.8858 Y-8.9884
Z0.0783
G1 Z0.0133 F40.
G18 G3 X4.8708 Z-0.0017 I-0.0149 K0.
G1 X4.8634
G17 G3 X4.8517 Y-9. I0. J-0.0117
X4.8983 Z-0.019 I0.0233 J0.
X4.8517 Z-0.0362 I-0.0233 J0.
X4.8983 Z-0.0535 I0.0233 J0.
X4.8517 Z-0.0708 I-0.0233 J0.
X4.8983 Z-0.0881 I0.0233 J0.
X4.8912 Y-8.9832 Z-0.0925 I-0.0233 J0.
X4.8588 Y-9.0168 I-0.0162 J-0.0168
X4.8912 Y-8.9832 I0.0162 J0.0168
X4.8747 Y-8.9835 I-0.0081 J-0.0084
G1 X4.8695 Y-8.9889
X4.8675 Y-8.991 Z-0.0922
X4.8655 Y-8.993 Z-0.0914
X4.8637 Y-8.9949 Z-0.09
X4.8622 Y-8.9965 Z-0.0881
X4.8609 Y-8.9979 Z-0.0859
X4.8599 Y-8.9989 Z-0.0833
X4.8593 Y-8.9995 Z-0.0805
X4.8591 Y-8.9997 Z-0.0776
G0 Z0.4
X5.6142 Y-9.0116
Z0.0783
G1 Z0.0133 F40.
G18 G2 X5.6292 Z-0.0017 I0.0149 K0.
G1 X5.6367
G17 G3 X5.6483 Y-9. I0. J0.0116
X5.6017 Z-0.019 I-0.0233 J0.
X5.6483 Z-0.0362 I0.0233 J0.
X5.6017 Z-0.0535 I-0.0233 J0.
X5.6483 Z-0.0708 I0.0233 J0.
X5.6017 Z-0.0881 I-0.0233 J0.
X5.6088 Y-9.0168 Z-0.0925 I0.0233 J0.
X5.6412 Y-8.9832 I0.0162 J0.0168
X5.6088 Y-9.0168 I-0.0162 J-0.0168
X5.6253 Y-9.0165 I0.0081 J0.0084
G1 X5.6305 Y-9.0111
X5.6325 Y-9.009 Z-0.0922
X5.6345 Y-9.007 Z-0.0914
X5.6363 Y-9.0051 Z-0.09
X5.6378 Y-9.0035 Z-0.0881
X5.6391 Y-9.0021 Z-0.0859
X5.6401 Y-9.0011 Z-0.0833
X5.6407 Y-9.0005 Z-0.0805
X5.6409 Y-9.0003 Z-0.0776
G0 Z0.4
X6.3858 Y-8.9884
Z0.0783
G1 Z0.0133 F40.
G18 G3 X6.3708 Z-0.0017 I-0.0149 K0.
G1 X6.3633
G17 G3 X6.3517 Y-9. I0. J-0.0117
X6.3983 Z-0.019 I0.0233 J0.
X6.3517 Z-0.0362 I-0.0233 J0.
X6.3983 Z-0.0535 I0.0233 J0.
X6.3517 Z-0.0708 I-0.0233 J0.
X6.3983 Z-0.0881 I0.0233 J0.
X6.3912 Y-8.9832 Z-0.0925 I-0.0233 J0.
X6.3588 Y-9.0168 I-0.0162 J-0.0168
X6.3912 Y-8.9832 I0.0162 J0.0168
X6.3747 Y-8.9835 I-0.0081 J-0.0084
G1 X6.3695 Y-8.9889
X6.3675 Y-8.991 Z-0.0922
X6.3655 Y-8.993 Z-0.0914
X6.3637 Y-8.9949 Z-0.09
X6.3622 Y-8.9965 Z-0.0881
X6.3609 Y-8.9979 Z-0.0859
X6.3599 Y-8.9989 Z-0.0833
X6.3593 Y-8.9995 Z-0.0805
X6.3591 Y-8.9997 Z-0.0776
G0 Z0.4
X7.1142 Y-9.0116
Z0.0783
G1 Z0.0133 F40.
G18 G2 X7.1292 Z-0.0017 I0.0149 K0.
G1 X7.1366
G17 G3 X7.1483 Y-9. I0. J0.0116
X7.1017 Z-0.019 I-0.0233 J0.
X7.1483 Z-0.0362 I0.0233 J0.
X7.1017 Z-0.0535 I-0.0233 J0.
X7.1483 Z-0.0708 I0.0233 J0.
X7.1017 Z-0.0881 I-0.0233 J0.
X7.1088 Y-9.0168 Z-0.0925 I0.0233 J0.
X7.1412 Y-8.9832 I0.0162 J0.0168
X7.1088 Y-9.0168 I-0.0162 J-0.0168
X7.1253 Y-9.0165 I0.0081 J0.0084
G1 X7.1305 Y-9.0111
X7.1325 Y-9.009 Z-0.0922
X7.1345 Y-9.007 Z-0.0914
X7.1363 Y-9.0051 Z-0.09
X7.1378 Y-9.0035 Z-0.0881
X7.1391 Y-9.0021 Z-0.0859
X7.1401 Y-9.0011 Z-0.0833
X7.1407 Y-9.0005 Z-0.0805
X7.1409 Y-9.0003 Z-0.0776
G0 Z0.4
X7.8858 Y-8.9884
Z0.0783
G1 Z0.0133 F40.
G18 G3 X7.8708 Z-0.0017 I-0.0149 K0.
G1 X7.8634
G17 G3 X7.8517 Y-9. I0. J-0.0117
X7.8983 Z-0.019 I0.0233 J0.
X7.8517 Z-0.0362 I-0.0233 J0.
X7.8983 Z-0.0535 I0.0233 J0.
X7.8517 Z-0.0708 I-0.0233 J0.
X7.8983 Z-0.0881 I0.0233 J0.
X7.8912 Y-8.9832 Z-0.0925 I-0.0233 J0.
X7.8588 Y-9.0168 I-0.0162 J-0.0168
X7.8912 Y-8.9832 I0.0162 J0.0168
X7.8747 Y-8.9835 I-0.0081 J-0.0084
G1 X7.8695 Y-8.9889
X7.8675 Y-8.991 Z-0.0922
X7.8655 Y-8.993 Z-0.0914
X7.8637 Y-8.9949 Z-0.09
X7.8622 Y-8.9965 Z-0.0881
X7.8609 Y-8.9979 Z-0.0859
X7.8599 Y-8.9989 Z-0.0833
X7.8593 Y-8.9995 Z-0.0805
X7.8591 Y-8.9997 Z-0.0776
G0 Z0.4
X8.6142 Y-9.0116
Z0.0783
G1 Z0.0133 F40.
G18 G2 X8.6292 Z-0.0017 I0.0149 K0.
G1 X8.6367
G17 G3 X8.6483 Y-9. I0. J0.0116
X8.6017 Z-0.019 I-0.0233 J0.
X8.6483 Z-0.0362 I0.0233 J0.
X8.6017 Z-0.0535 I-0.0233 J0.
X8.6483 Z-0.0708 I0.0233 J0.
X8.6017 Z-0.0881 I-0.0233 J0.
X8.6088 Y-9.0168 Z-0.0925 I0.0233 J0.
X8.6412 Y-8.9832 I0.0162 J0.0168
X8.6088 Y-9.0168 I-0.0162 J-0.0168
X8.6253 Y-9.0165 I0.0081 J0.0084
G1 X8.6305 Y-9.0111
X8.6325 Y-9.009 Z-0.0922
X8.6345 Y-9.007 Z-0.0914
X8.6363 Y-9.0051 Z-0.09
X8.6378 Y-9.0035 Z-0.0881
X8.6391 Y-9.0021 Z-0.0859
X8.6401 Y-9.0011 Z-0.0833
X8.6407 Y-9.0005 Z-0.0805
X8.6409 Y-9.0003 Z-0.0776
G0 Z0.4
X9.3642 Y-9.0116
Z0.0783
G1 Z0.0133 F40.
G18 G2 X9.3792 Z-0.0017 I0.0149 K0.
G1 X9.3867
G17 G3 X9.3983 Y-9. I0. J0.0116
X9.3517 Z-0.019 I-0.0233 J0.
X9.3983 Z-0.0362 I0.0233 J0.
X9.3517 Z-0.0535 I-0.0233 J0.
X9.3983 Z-0.0708 I0.0233 J0.
X9.3517 Z-0.0881 I-0.0233 J0.
X9.3588 Y-9.0168 Z-0.0925 I0.0233 J0.
X9.3912 Y-8.9832 I0.0162 J0.0168
X9.3588 Y-9.0168 I-0.0162 J-0.0168
X9.3753 Y-9.0165 I0.0081 J0.0084
G1 X9.3805 Y-9.0111
X9.3825 Y-9.009 Z-0.0922
X9.3845 Y-9.007 Z-0.0914
X9.3863 Y-9.0051 Z-0.09
X9.3878 Y-9.0035 Z-0.0881
X9.3891 Y-9.0021 Z-0.0859
X9.3901 Y-9.0011 Z-0.0833
X9.3907 Y-9.0005 Z-0.0805
X9.3909 Y-9.0003 Z-0.0776
G0 Z0.4
X10.1142 Y-9.0116
Z0.0783
G1 Z0.0133 F40.
G18 G2 X10.1292 Z-0.0017 I0.0149 K0.
G1 X10.1367
G17 G3 X10.1483 Y-9. I0. J0.0116
X10.1017 Z-0.019 I-0.0233 J0.
X10.1483 Z-0.0362 I0.0233 J0.
X10.1017 Z-0.0535 I-0.0233 J0.
X10.1483 Z-0.0708 I0.0233 J0.
X10.1017 Z-0.0881 I-0.0233 J0.
X10.1088 Y-9.0168 Z-0.0925 I0.0233 J0.
X10.1412 Y-8.9832 I0.0162 J0.0168
X10.1088 Y-9.0168 I-0.0162 J-0.0168
X10.1253 Y-9.0165 I0.0081 J0.0084
G1 X10.1305 Y-9.0111
X10.1325 Y-9.009 Z-0.0922
X10.1345 Y-9.007 Z-0.0914
X10.1363 Y-9.0051 Z-0.09
X10.1378 Y-9.0035 Z-0.0881
X10.1391 Y-9.0021 Z-0.0859
X10.1401 Y-9.0011 Z-0.0833
X10.1407 Y-9.0005 Z-0.0805
X10.1409 Y-9.0003 Z-0.0776
G0 Z0.4
X10.8858 Y-8.9884
Z0.0783
G1 Z0.0133 F40.
G18 G3 X10.8708 Z-0.0017 I-0.0149 K0.
G1 X10.8633
G17 G3 X10.8517 Y-9. I0. J-0.0117
X10.8983 Z-0.019 I0.0233 J0.
X10.8517 Z-0.0362 I-0.0233 J0.
X10.8983 Z-0.0535 I0.0233 J0.
X10.8517 Z-0.0708 I-0.0233 J0.
X10.8983 Z-0.0881 I0.0233 J0.
X10.8912 Y-8.9832 Z-0.0925 I-0.0233 J0.
X10.8588 Y-9.0168 I-0.0162 J-0.0168
X10.8912 Y-8.9832 I0.0162 J0.0168
X10.8747 Y-8.9835 I-0.0081 J-0.0084
G1 X10.8695 Y-8.9889
X10.8675 Y-8.991 Z-0.0922
X10.8655 Y-8.993 Z-0.0914
X10.8637 Y-8.9949 Z-0.09
X10.8622 Y-8.9965 Z-0.0881
X10.8609 Y-8.9979 Z-0.0859
X10.8599 Y-8.9989 Z-0.0833
X10.8593 Y-8.9995 Z-0.0805
X10.8591 Y-8.9997 Z-0.0776
G0 Z0.4
X14.6142 Y-9.0116
Z0.0783
G1 Z0.0133 F40.
G18 G2 X14.6292 Z-0.0017 I0.0149 K0.
G1 X14.6366
G17 G3 X14.6483 Y-9. I0. J0.0116
X14.6017 Z-0.019 I-0.0233 J0.
X14.6483 Z-0.0362 I0.0233 J0.
X14.6017 Z-0.0535 I-0.0233 J0.
X14.6483 Z-0.0708 I0.0233 J0.
X14.6017 Z-0.0881 I-0.0233 J0.
X14.6088 Y-9.0168 Z-0.0925 I0.0233 J0.
X14.6412 Y-8.9832 I0.0162 J0.0168
X14.6088 Y-9.0168 I-0.0162 J-0.0168
X14.6253 Y-9.0165 I0.0081 J0.0084
G1 X14.6305 Y-9.0111
X14.6325 Y-9.009 Z-0.0922
X14.6345 Y-9.007 Z-0.0914
X14.6363 Y-9.0051 Z-0.09
X14.6378 Y-9.0035 Z-0.0881
X14.6391 Y-9.0021 Z-0.0859
X14.6401 Y-9.0011 Z-0.0833
X14.6407 Y-9.0005 Z-0.0805
X14.6409 Y-9.0003 Z-0.0776
G0 Z0.4
X15.2392 Y-8.2617
Z0.0783
G1 Z0.0133 F40.
G18 G2 X15.2542 Z-0.0017 I0.0149 K0.
G1 X15.2616
G17 G3 X15.2733 Y-8.25 I0. J0.0117
X15.2267 Z-0.019 I-0.0233 J0.
X15.2733 Z-0.0362 I0.0233 J0.
X15.2267 Z-0.0535 I-0.0233 J0.
X15.2733 Z-0.0708 I0.0233 J0.
X15.2267 Z-0.0881 I-0.0233 J0.
X15.2338 Y-8.2668 Z-0.0925 I0.0233 J0.
X15.2662 Y-8.2332 I0.0162 J0.0168
X15.2338 Y-8.2668 I-0.0162 J-0.0168
X15.2503 Y-8.2665 I0.0081 J0.0084
G1 X15.2555 Y-8.2611
X15.2575 Y-8.259 Z-0.0922
X15.2595 Y-8.257 Z-0.0914
X15.2613 Y-8.2551 Z-0.09
X15.2628 Y-8.2535 Z-0.0881
X15.2641 Y-8.2521 Z-0.0859
X15.2651 Y-8.2511 Z-0.0833
X15.2657 Y-8.2505 Z-0.0805
X15.2659 Y-8.2503 Z-0.0776
G0 Z0.4
X15.2392 Y-7.5117
Z0.0783
G1 Z0.0133 F40.
G18 G2 X15.2542 Z-0.0017 I0.0149 K0.
G1 X15.2616
G17 G3 X15.2733 Y-7.5 I0. J0.0117
X15.2267 Z-0.019 I-0.0233 J0.
X15.2733 Z-0.0362 I0.0233 J0.
X15.2267 Z-0.0535 I-0.0233 J0.
X15.2733 Z-0.0708 I0.0233 J0.
X15.2267 Z-0.0881 I-0.0233 J0.
X15.2338 Y-7.5168 Z-0.0925 I0.0233 J0.
X15.2662 Y-7.4832 I0.0162 J0.0168
X15.2338 Y-7.5168 I-0.0162 J-0.0168
X15.2503 Y-7.5165 I0.0081 J0.0084
G1 X15.2555 Y-7.5111
X15.2575 Y-7.509 Z-0.0922
X15.2595 Y-7.507 Z-0.0914
X15.2613 Y-7.5051 Z-0.09
X15.2628 Y-7.5035 Z-0.0881
X15.2641 Y-7.5021 Z-0.0859
X15.2651 Y-7.5011 Z-0.0833
X15.2657 Y-7.5005 Z-0.0805
X15.2659 Y-7.5003 Z-0.0776
G0 Z0.4
X15.2392 Y-6.7617
Z0.0783
G1 Z0.0133 F40.
G18 G2 X15.2542 Z-0.0017 I0.0149 K0.
G1 X15.2616
G17 G3 X15.2733 Y-6.75 I0. J0.0117
X15.2267 Z-0.019 I-0.0233 J0.
X15.2733 Z-0.0362 I0.0233 J0.
X15.2267 Z-0.0535 I-0.0233 J0.
X15.2733 Z-0.0708 I0.0233 J0.
X15.2267 Z-0.0881 I-0.0233 J0.
X15.2338 Y-6.7668 Z-0.0925 I0.0233 J0.
X15.2662 Y-6.7332 I0.0162 J0.0168
X15.2338 Y-6.7668 I-0.0162 J-0.0168
X15.2503 Y-6.7665 I0.0081 J0.0084
G1 X15.2555 Y-6.7611
X15.2575 Y-6.759 Z-0.0922
X15.2595 Y-6.757 Z-0.0914
X15.2613 Y-6.7551 Z-0.09
X15.2628 Y-6.7535 Z-0.0881
X15.2641 Y-6.7521 Z-0.0859
X15.2651 Y-6.7511 Z-0.0833
X15.2657 Y-6.7505 Z-0.0805
X15.2659 Y-6.7503 Z-0.0776
G0 Z0.4
X15.2392 Y-6.0116
Z0.0783
G1 Z0.0133 F40.
G18 G2 X15.2542 Z-0.0017 I0.0149 K0.
G1 X15.2616
G17 G3 X15.2733 Y-6. I0. J0.0117
X15.2267 Z-0.019 I-0.0233 J0.
X15.2733 Z-0.0362 I0.0233 J0.
X15.2267 Z-0.0535 I-0.0233 J0.
X15.2733 Z-0.0708 I0.0233 J0.
X15.2267 Z-0.0881 I-0.0233 J0.
X15.2338 Y-6.0168 Z-0.0925 I0.0233 J0.
X15.2662 Y-5.9832 I0.0162 J0.0168
X15.2338 Y-6.0168 I-0.0162 J-0.0168
X15.2503 Y-6.0165 I0.0081 J0.0084
G1 X15.2555 Y-6.0111
X15.2575 Y-6.009 Z-0.0922
X15.2595 Y-6.007 Z-0.0914
X15.2613 Y-6.0051 Z-0.09
X15.2628 Y-6.0035 Z-0.0881
X15.2641 Y-6.0021 Z-0.0859
X15.2651 Y-6.0011 Z-0.0833
X15.2657 Y-6.0005 Z-0.0805
X15.2659 Y-6.0003 Z-0.0776
G0 Z0.4
X15.2392 Y-5.2616
Z0.0783
G1 Z0.0133 F40.
G18 G2 X15.2542 Z-0.0017 I0.0149 K0.
G1 X15.2616
G17 G3 X15.2733 Y-5.25 I0. J0.0116
X15.2267 Z-0.019 I-0.0233 J0.
X15.2733 Z-0.0362 I0.0233 J0.
X15.2267 Z-0.0535 I-0.0233 J0.
X15.2733 Z-0.0708 I0.0233 J0.
X15.2267 Z-0.0881 I-0.0233 J0.
X15.2338 Y-5.2668 Z-0.0925 I0.0233 J0.
X15.2662 Y-5.2332 I0.0162 J0.0168
X15.2338 Y-5.2668 I-0.0162 J-0.0168
X15.2503 Y-5.2665 I0.0081 J0.0084
G1 X15.2555 Y-5.2611
X15.2575 Y-5.259 Z-0.0922
X15.2595 Y-5.257 Z-0.0914
X15.2613 Y-5.2551 Z-0.09
X15.2628 Y-5.2535 Z-0.0881
X15.2641 Y-5.2521 Z-0.0859
X15.2651 Y-5.2511 Z-0.0833
X15.2657 Y-5.2505 Z-0.0805
X15.2659 Y-5.2503 Z-0.0776
G0 Z0.4
X15.2392 Y-4.5116
Z0.0783
G1 Z0.0133 F40.
G18 G2 X15.2542 Z-0.0017 I0.0149 K0.
G1 X15.2616
G17 G3 X15.2733 Y-4.5 I0. J0.0116
X15.2267 Z-0.019 I-0.0233 J0.
X15.2733 Z-0.0362 I0.0233 J0.
X15.2267 Z-0.0535 I-0.0233 J0.
X15.2733 Z-0.0708 I0.0233 J0.
X15.2267 Z-0.0881 I-0.0233 J0.
X15.2338 Y-4.5168 Z-0.0925 I0.0233 J0.
X15.2662 Y-4.4832 I0.0162 J0.0168
X15.2338 Y-4.5168 I-0.0162 J-0.0168
X15.2503 Y-4.5165 I0.0081 J0.0084
G1 X15.2555 Y-4.5111
X15.2575 Y-4.509 Z-0.0922
X15.2595 Y-4.507 Z-0.0914
X15.2613 Y-4.5051 Z-0.09
X15.2628 Y-4.5035 Z-0.0881
X15.2641 Y-4.5021 Z-0.0859
X15.2651 Y-4.5011 Z-0.0833
X15.2657 Y-4.5005 Z-0.0805
X15.2659 Y-4.5003 Z-0.0776
G0 Z0.4
X15.2392 Y-3.7617
Z0.0783
G1 Z0.0133 F40.
G18 G2 X15.2542 Z-0.0017 I0.0149 K0.
G1 X15.2616
G17 G3 X15.2733 Y-3.75 I0. J0.0117
X15.2267 Z-0.019 I-0.0233 J0.
X15.2733 Z-0.0362 I0.0233 J0.
X15.2267 Z-0.0535 I-0.0233 J0.
X15.2733 Z-0.0708 I0.0233 J0.
X15.2267 Z-0.0881 I-0.0233 J0.
X15.2338 Y-3.7668 Z-0.0925 I0.0233 J0.
X15.2662 Y-3.7332 I0.0162 J0.0168
X15.2338 Y-3.7668 I-0.0162 J-0.0168
X15.2503 Y-3.7665 I0.0081 J0.0084
G1 X15.2555 Y-3.7611
X15.2575 Y-3.759 Z-0.0922
X15.2595 Y-3.757 Z-0.0914
X15.2613 Y-3.7551 Z-0.09
X15.2628 Y-3.7535 Z-0.0881
X15.2641 Y-3.7521 Z-0.0859
X15.2651 Y-3.7511 Z-0.0833
X15.2657 Y-3.7505 Z-0.0805
X15.2659 Y-3.7503 Z-0.0776
G0 Z0.4
X15.2392 Y-3.0117
Z0.0783
G1 Z0.0133 F40.
G18 G2 X15.2542 Z-0.0017 I0.0149 K0.
G1 X15.2616
G17 G3 X15.2733 Y-3. I0. J0.0117
X15.2267 Z-0.019 I-0.0233 J0.
X15.2733 Z-0.0362 I0.0233 J0.
X15.2267 Z-0.0535 I-0.0233 J0.
X15.2733 Z-0.0708 I0.0233 J0.
X15.2267 Z-0.0881 I-0.0233 J0.
X15.2338 Y-3.0168 Z-0.0925 I0.0233 J0.
X15.2662 Y-2.9832 I0.0162 J0.0168
X15.2338 Y-3.0168 I-0.0162 J-0.0168
X15.2503 Y-3.0165 I0.0081 J0.0084
G1 X15.2555 Y-3.0111
X15.2575 Y-3.009 Z-0.0922
X15.2595 Y-3.007 Z-0.0914
X15.2613 Y-3.0051 Z-0.09
X15.2628 Y-3.0035 Z-0.0881
X15.2641 Y-3.0021 Z-0.0859
X15.2651 Y-3.0011 Z-0.0833
X15.2657 Y-3.0005 Z-0.0805
X15.2659 Y-3.0003 Z-0.0776
G0 Z0.4
X15.2392 Y-2.2617
Z0.0783
G1 Z0.0133 F40.
G18 G2 X15.2542 Z-0.0017 I0.0149 K0.
G1 X15.2616
G17 G3 X15.2733 Y-2.25 I0. J0.0116
X15.2267 Z-0.019 I-0.0233 J0.
X15.2733 Z-0.0362 I0.0233 J0.
X15.2267 Z-0.0535 I-0.0233 J0.
X15.2733 Z-0.0708 I0.0233 J0.
X15.2267 Z-0.0881 I-0.0233 J0.
X15.2338 Y-2.2668 Z-0.0925 I0.0233 J0.
X15.2662 Y-2.2332 I0.0162 J0.0168
X15.2338 Y-2.2668 I-0.0162 J-0.0168
X15.2503 Y-2.2665 I0.0081 J0.0084
G1 X15.2555 Y-2.2611
X15.2575 Y-2.259 Z-0.0922
X15.2595 Y-2.257 Z-0.0914
X15.2613 Y-2.2551 Z-0.09
X15.2628 Y-2.2535 Z-0.0881
X15.2641 Y-2.2521 Z-0.0859
X15.2651 Y-2.2511 Z-0.0833
X15.2657 Y-2.2505 Z-0.0805
X15.2659 Y-2.2503 Z-0.0776
G0 Z0.4
X15.2392 Y-1.5116
Z0.0783
G1 Z0.0133 F40.
G18 G2 X15.2542 Z-0.0017 I0.0149 K0.
G1 X15.2616
G17 G3 X15.2733 Y-1.5 I0. J0.0116
X15.2267 Z-0.019 I-0.0233 J0.
X15.2733 Z-0.0362 I0.0233 J0.
X15.2267 Z-0.0535 I-0.0233 J0.
X15.2733 Z-0.0708 I0.0233 J0.
X15.2267 Z-0.0881 I-0.0233 J0.
X15.2338 Y-1.5168 Z-0.0925 I0.0233 J0.
X15.2662 Y-1.4832 I0.0162 J0.0168
X15.2338 Y-1.5168 I-0.0162 J-0.0168
X15.2503 Y-1.5165 I0.0081 J0.0084
G1 X15.2555 Y-1.5111
X15.2575 Y-1.509 Z-0.0922
X15.2595 Y-1.507 Z-0.0914
X15.2613 Y-1.5051 Z-0.09
X15.2628 Y-1.5035 Z-0.0881
X15.2641 Y-1.5021 Z-0.0859
X15.2651 Y-1.5011 Z-0.0833
X15.2657 Y-1.5005 Z-0.0805
X15.2659 Y-1.5003 Z-0.0776
G0 Z0.4
X15.2392 Y-0.7616
Z0.0783
G1 Z0.0133 F40.
G18 G2 X15.2542 Z-0.0017 I0.0149 K0.
G1 X15.2616
G17 G3 X15.2733 Y-0.75 I0. J0.0116
X15.2267 Z-0.019 I-0.0233 J0.
X15.2733 Z-0.0362 I0.0233 J0.
X15.2267 Z-0.0535 I-0.0233 J0.
X15.2733 Z-0.0708 I0.0233 J0.
X15.2267 Z-0.0881 I-0.0233 J0.
X15.2338 Y-0.7668 Z-0.0925 I0.0233 J0.
X15.2662 Y-0.7332 I0.0162 J0.0168
X15.2338 Y-0.7668 I-0.0162 J-0.0168
X15.2503 Y-0.7665 I0.0081 J0.0084
G1 X15.2555 Y-0.7611
X15.2575 Y-0.759 Z-0.0922
X15.2595 Y-0.757 Z-0.0914
X15.2613 Y-0.7551 Z-0.09
X15.2628 Y-0.7535 Z-0.0881
X15.2641 Y-0.7521 Z-0.0859
X15.2651 Y-0.7511 Z-0.0833
X15.2657 Y-0.7505 Z-0.0805
X15.2659 Y-0.7503 Z-0.0776
G0 Z0.4
X15.2392 Y-0.0117
Z0.0783
G1 Z0.0133 F40.
G18 G2 X15.2542 Z-0.0017 I0.0149 K0.
G1 X15.2616
G17 G3 X15.2733 Y0. I0. J0.0117
X15.2267 Z-0.019 I-0.0233 J0.
X15.2733 Z-0.0362 I0.0233 J0.
X15.2267 Z-0.0535 I-0.0233 J0.
X15.2733 Z-0.0708 I0.0233 J0.
X15.2267 Z-0.0881 I-0.0233 J0.
X15.2338 Y-0.0168 Z-0.0925 I0.0233 J0.
X15.2662 Y0.0168 I0.0162 J0.0168
X15.2338 Y-0.0168 I-0.0162 J-0.0168
X15.2503 Y-0.0165 I0.0081 J0.0084
G1 X15.2555 Y-0.0111
X15.2575 Y-0.009 Z-0.0922
X15.2595 Y-0.007 Z-0.0914
X15.2613 Y-0.0051 Z-0.09
X15.2628 Y-0.0035 Z-0.0881
X15.2641 Y-0.0021 Z-0.0859
X15.2651 Y-0.0011 Z-0.0833
X15.2657 Y-0.0005 Z-0.0805
X15.2659 Y-0.0003 Z-0.0776
G0 Z0.4
X15.2392 Y0.7383
Z0.0783
G1 Z0.0133 F40.
G18 G2 X15.2542 Z-0.0017 I0.0149 K0.
G1 X15.2616
G17 G3 X15.2733 Y0.75 I0. J0.0116
X15.2267 Z-0.019 I-0.0233 J0.
X15.2733 Z-0.0362 I0.0233 J0.
X15.2267 Z-0.0535 I-0.0233 J0.
X15.2733 Z-0.0708 I0.0233 J0.
X15.2267 Z-0.0881 I-0.0233 J0.
X15.2338 Y0.7332 Z-0.0925 I0.0233 J0.
X15.2662 Y0.7668 I0.0162 J0.0168
X15.2338 Y0.7332 I-0.0162 J-0.0168
X15.2503 Y0.7335 I0.0081 J0.0084
G1 X15.2555 Y0.7389
X15.2575 Y0.741 Z-0.0922
X15.2595 Y0.743 Z-0.0914
X15.2613 Y0.7449 Z-0.09
X15.2628 Y0.7465 Z-0.0881
X15.2641 Y0.7479 Z-0.0859
X15.2651 Y0.7489 Z-0.0833
X15.2657 Y0.7495 Z-0.0805
X15.2659 Y0.7497 Z-0.0776
G0 Z0.4
X15.2392 Y1.4883
Z0.0783
G1 Z0.0133 F40.
G18 G2 X15.2542 Z-0.0017 I0.0149 K0.
G1 X15.2616
G17 G3 X15.2733 Y1.5 I0. J0.0116
X15.2267 Z-0.019 I-0.0233 J0.
X15.2733 Z-0.0362 I0.0233 J0.
X15.2267 Z-0.0535 I-0.0233 J0.
X15.2733 Z-0.0708 I0.0233 J0.
X15.2267 Z-0.0881 I-0.0233 J0.
X15.2338 Y1.4832 Z-0.0925 I0.0233 J0.
X15.2662 Y1.5168 I0.0162 J0.0168
X15.2338 Y1.4832 I-0.0162 J-0.0168
X15.2503 Y1.4835 I0.0081 J0.0084
G1 X15.2555 Y1.4889
X15.2575 Y1.491 Z-0.0922
X15.2595 Y1.493 Z-0.0914
X15.2613 Y1.4949 Z-0.09
X15.2628 Y1.4965 Z-0.0881
X15.2641 Y1.4979 Z-0.0859
X15.2651 Y1.4989 Z-0.0833
X15.2657 Y1.4995 Z-0.0805
X15.2659 Y1.4997 Z-0.0776
G0 Z0.4
X15.2392 Y2.2384
Z0.0783
G1 Z0.0133 F40.
G18 G2 X15.2542 Z-0.0017 I0.0149 K0.
G1 X15.2616
G17 G3 X15.2733 Y2.25 I0. J0.0116
X15.2267 Z-0.019 I-0.0233 J0.
X15.2733 Z-0.0362 I0.0233 J0.
X15.2267 Z-0.0535 I-0.0233 J0.
X15.2733 Z-0.0708 I0.0233 J0.
X15.2267 Z-0.0881 I-0.0233 J0.
X15.2338 Y2.2332 Z-0.0925 I0.0233 J0.
X15.2662 Y2.2668 I0.0162 J0.0168
X15.2338 Y2.2332 I-0.0162 J-0.0168
X15.2503 Y2.2335 I0.0081 J0.0084
G1 X15.2555 Y2.2389
X15.2575 Y2.241 Z-0.0922
X15.2595 Y2.243 Z-0.0914
X15.2613 Y2.2449 Z-0.09
X15.2628 Y2.2465 Z-0.0881
X15.2641 Y2.2479 Z-0.0859
X15.2651 Y2.2489 Z-0.0833
X15.2657 Y2.2495 Z-0.0805
X15.2659 Y2.2497 Z-0.0776
G0 Z0.4
X15.2392 Y2.9884
Z0.0783
G1 Z0.0133 F40.
G18 G2 X15.2542 Z-0.0017 I0.0149 K0.
G1 X15.2616
G17 G3 X15.2733 Y3. I0. J0.0116
X15.2267 Z-0.019 I-0.0233 J0.
X15.2733 Z-0.0362 I0.0233 J0.
X15.2267 Z-0.0535 I-0.0233 J0.
X15.2733 Z-0.0708 I0.0233 J0.
X15.2267 Z-0.0881 I-0.0233 J0.
X15.2338 Y2.9832 Z-0.0925 I0.0233 J0.
X15.2662 Y3.0168 I0.0162 J0.0168
X15.2338 Y2.9832 I-0.0162 J-0.0168
X15.2503 Y2.9835 I0.0081 J0.0084
G1 X15.2555 Y2.9889
X15.2575 Y2.991 Z-0.0922
X15.2595 Y2.993 Z-0.0914
X15.2613 Y2.9949 Z-0.09
X15.2628 Y2.9965 Z-0.0881
X15.2641 Y2.9979 Z-0.0859
X15.2651 Y2.9989 Z-0.0833
X15.2657 Y2.9995 Z-0.0805
X15.2659 Y2.9997 Z-0.0776
G0 Z0.4
X15.2392 Y3.7383
Z0.0783
G1 Z0.0133 F40.
G18 G2 X15.2542 Z-0.0017 I0.0149 K0.
G1 X15.2616
G17 G3 X15.2733 Y3.75 I0. J0.0117
X15.2267 Z-0.019 I-0.0233 J0.
X15.2733 Z-0.0362 I0.0233 J0.
X15.2267 Z-0.0535 I-0.0233 J0.
X15.2733 Z-0.0708 I0.0233 J0.
X15.2267 Z-0.0881 I-0.0233 J0.
X15.2338 Y3.7332 Z-0.0925 I0.0233 J0.
X15.2662 Y3.7668 I0.0162 J0.0168
X15.2338 Y3.7332 I-0.0162 J-0.0168
X15.2503 Y3.7335 I0.0081 J0.0084
G1 X15.2555 Y3.7389
X15.2575 Y3.741 Z-0.0922
X15.2595 Y3.743 Z-0.0914
X15.2613 Y3.7449 Z-0.09
X15.2628 Y3.7465 Z-0.0881
X15.2641 Y3.7479 Z-0.0859
X15.2651 Y3.7489 Z-0.0833
X15.2657 Y3.7495 Z-0.0805
X15.2659 Y3.7497 Z-0.0776
G0 Z0.4
X15.2392 Y4.4883
Z0.0783
G1 Z0.0133 F40.
G18 G2 X15.2542 Z-0.0017 I0.0149 K0.
G1 X15.2616
G17 G3 X15.2733 Y4.5 I0. J0.0117
X15.2267 Z-0.019 I-0.0233 J0.
X15.2733 Z-0.0362 I0.0233 J0.
X15.2267 Z-0.0535 I-0.0233 J0.
X15.2733 Z-0.0708 I0.0233 J0.
X15.2267 Z-0.0881 I-0.0233 J0.
X15.2338 Y4.4832 Z-0.0925 I0.0233 J0.
X15.2662 Y4.5168 I0.0162 J0.0168
X15.2338 Y4.4832 I-0.0162 J-0.0168
X15.2503 Y4.4835 I0.0081 J0.0084
G1 X15.2555 Y4.4889
X15.2575 Y4.491 Z-0.0922
X15.2595 Y4.493 Z-0.0914
X15.2613 Y4.4949 Z-0.09
X15.2628 Y4.4965 Z-0.0881
X15.2641 Y4.4979 Z-0.0859
X15.2651 Y4.4989 Z-0.0833
X15.2657 Y4.4995 Z-0.0805
X15.2659 Y4.4997 Z-0.0776
G0 Z0.4
X15.2392 Y5.2384
Z0.0783
G1 Z0.0133 F40.
G18 G2 X15.2542 Z-0.0017 I0.0149 K0.
G1 X15.2616
G17 G3 X15.2733 Y5.25 I0. J0.0117
X15.2267 Z-0.019 I-0.0233 J0.
X15.2733 Z-0.0362 I0.0233 J0.
X15.2267 Z-0.0535 I-0.0233 J0.
X15.2733 Z-0.0708 I0.0233 J0.
X15.2267 Z-0.0881 I-0.0233 J0.
X15.2338 Y5.2332 Z-0.0925 I0.0233 J0.
X15.2662 Y5.2668 I0.0162 J0.0168
X15.2338 Y5.2332 I-0.0162 J-0.0168
X15.2503 Y5.2335 I0.0081 J0.0084
G1 X15.2555 Y5.2389
X15.2575 Y5.241 Z-0.0922
X15.2595 Y5.243 Z-0.0914
X15.2613 Y5.2449 Z-0.09
X15.2628 Y5.2465 Z-0.0881
X15.2641 Y5.2479 Z-0.0859
X15.2651 Y5.2489 Z-0.0833
X15.2657 Y5.2495 Z-0.0805
X15.2659 Y5.2497 Z-0.0776
G0 Z0.4
X15.2392 Y5.9884
Z0.0783
G1 Z0.0133 F40.
G18 G2 X15.2542 Z-0.0017 I0.0149 K0.
G1 X15.2616
G17 G3 X15.2733 Y6. I0. J0.0116
X15.2267 Z-0.019 I-0.0233 J0.
X15.2733 Z-0.0362 I0.0233 J0.
X15.2267 Z-0.0535 I-0.0233 J0.
X15.2733 Z-0.0708 I0.0233 J0.
X15.2267 Z-0.0881 I-0.0233 J0.
X15.2338 Y5.9832 Z-0.0925 I0.0233 J0.
X15.2662 Y6.0168 I0.0162 J0.0168
X15.2338 Y5.9832 I-0.0162 J-0.0168
X15.2503 Y5.9835 I0.0081 J0.0084
G1 X15.2555 Y5.9889
X15.2575 Y5.991 Z-0.0922
X15.2595 Y5.993 Z-0.0914
X15.2613 Y5.9949 Z-0.09
X15.2628 Y5.9965 Z-0.0881
X15.2641 Y5.9979 Z-0.0859
X15.2651 Y5.9989 Z-0.0833
X15.2657 Y5.9995 Z-0.0805
X15.2659 Y5.9997 Z-0.0776
G0 Z0.4
X15.2392 Y6.7383
Z0.0783
G1 Z0.0133 F40.
G18 G2 X15.2542 Z-0.0017 I0.0149 K0.
G1 X15.2616
G17 G3 X15.2733 Y6.75 I0. J0.0117
X15.2267 Z-0.019 I-0.0233 J0.
X15.2733 Z-0.0362 I0.0233 J0.
X15.2267 Z-0.0535 I-0.0233 J0.
X15.2733 Z-0.0708 I0.0233 J0.
X15.2267 Z-0.0881 I-0.0233 J0.
X15.2338 Y6.7332 Z-0.0925 I0.0233 J0.
X15.2662 Y6.7668 I0.0162 J0.0168
X15.2338 Y6.7332 I-0.0162 J-0.0168
X15.2503 Y6.7335 I0.0081 J0.0084
G1 X15.2555 Y6.7389
X15.2575 Y6.741 Z-0.0922
X15.2595 Y6.743 Z-0.0914
X15.2613 Y6.7449 Z-0.09
X15.2628 Y6.7465 Z-0.0881
X15.2641 Y6.7479 Z-0.0859
X15.2651 Y6.7489 Z-0.0833
X15.2657 Y6.7495 Z-0.0805
X15.2659 Y6.7497 Z-0.0776
G0 Z0.4
X15.2392 Y7.4883
Z0.0783
G1 Z0.0133 F40.
G18 G2 X15.2542 Z-0.0017 I0.0149 K0.
G1 X15.2616
G17 G3 X15.2733 Y7.5 I0. J0.0117
X15.2267 Z-0.019 I-0.0233 J0.
X15.2733 Z-0.0362 I0.0233 J0.
X15.2267 Z-0.0535 I-0.0233 J0.
X15.2733 Z-0.0708 I0.0233 J0.
X15.2267 Z-0.0881 I-0.0233 J0.
X15.2338 Y7.4832 Z-0.0925 I0.0233 J0.
X15.2662 Y7.5168 I0.0162 J0.0168
X15.2338 Y7.4832 I-0.0162 J-0.0168
X15.2503 Y7.4835 I0.0081 J0.0084
G1 X15.2555 Y7.4889
X15.2575 Y7.491 Z-0.0922
X15.2595 Y7.493 Z-0.0914
X15.2613 Y7.4949 Z-0.09
X15.2628 Y7.4965 Z-0.0881
X15.2641 Y7.4979 Z-0.0859
X15.2651 Y7.4989 Z-0.0833
X15.2657 Y7.4995 Z-0.0805
X15.2659 Y7.4997 Z-0.0776
G0 Z0.4
X15.2392 Y8.2383
Z0.0783
G1 Z0.0133 F40.
G18 G2 X15.2542 Z-0.0017 I0.0149 K0.
G1 X15.2616
G17 G3 X15.2733 Y8.25 I0. J0.0117
X15.2267 Z-0.019 I-0.0233 J0.
X15.2733 Z-0.0362 I0.0233 J0.
X15.2267 Z-0.0535 I-0.0233 J0.
X15.2733 Z-0.0708 I0.0233 J0.
X15.2267 Z-0.0881 I-0.0233 J0.
X15.2338 Y8.2332 Z-0.0925 I0.0233 J0.
X15.2662 Y8.2668 I0.0162 J0.0168
X15.2338 Y8.2332 I-0.0162 J-0.0168
X15.2503 Y8.2335 I0.0081 J0.0084
G1 X15.2555 Y8.2389
X15.2575 Y8.241 Z-0.0922
X15.2595 Y8.243 Z-0.0914
X15.2613 Y8.2449 Z-0.09
X15.2628 Y8.2465 Z-0.0881
X15.2641 Y8.2479 Z-0.0859
X15.2651 Y8.2489 Z-0.0833
X15.2657 Y8.2495 Z-0.0805
X15.2659 Y8.2497 Z-0.0776
G0 Z0.4
X14.6142 Y8.9884
Z0.0783
G1 Z0.0133 F40.
G18 G2 X14.6292 Z-0.0017 I0.0149 K0.
G1 X14.6366
G17 G3 X14.6483 Y9. I0. J0.0117
X14.6017 Z-0.019 I-0.0233 J0.
X14.6483 Z-0.0362 I0.0233 J0.
X14.6017 Z-0.0535 I-0.0233 J0.
X14.6483 Z-0.0708 I0.0233 J0.
X14.6017 Z-0.0881 I-0.0233 J0.
X14.6088 Y8.9832 Z-0.0925 I0.0233 J0.
X14.6412 Y9.0168 I0.0162 J0.0168
X14.6088 Y8.9832 I-0.0162 J-0.0168
X14.6253 Y8.9835 I0.0081 J0.0084
G1 X14.6305 Y8.9889
X14.6325 Y8.991 Z-0.0922
X14.6345 Y8.993 Z-0.0914
X14.6363 Y8.9949 Z-0.09
X14.6378 Y8.9965 Z-0.0881
X14.6391 Y8.9979 Z-0.0859
X14.6401 Y8.9989 Z-0.0833
X14.6407 Y8.9995 Z-0.0805
X14.6409 Y8.9997 Z-0.0776
G0 Z0.4
X10.8858 Y9.0116
Z0.0783
G1 Z0.0133 F40.
G18 G3 X10.8708 Z-0.0017 I-0.0149 K0.
G1 X10.8633
G17 G3 X10.8517 Y9. I0. J-0.0116
X10.8983 Z-0.019 I0.0233 J0.
X10.8517 Z-0.0362 I-0.0233 J0.
X10.8983 Z-0.0535 I0.0233 J0.
X10.8517 Z-0.0708 I-0.0233 J0.
X10.8983 Z-0.0881 I0.0233 J0.
X10.8912 Y9.0168 Z-0.0925 I-0.0233 J0.
X10.8588 Y8.9832 I-0.0162 J-0.0168
X10.8912 Y9.0168 I0.0162 J0.0168
X10.8747 Y9.0165 I-0.0081 J-0.0084
G1 X10.8695 Y9.0111
X10.8675 Y9.009 Z-0.0922
X10.8655 Y9.007 Z-0.0914
X10.8637 Y9.0051 Z-0.09
X10.8622 Y9.0035 Z-0.0881
X10.8609 Y9.0021 Z-0.0859
X10.8599 Y9.0011 Z-0.0833
X10.8593 Y9.0005 Z-0.0805
X10.8591 Y9.0003 Z-0.0776
G0 Z0.4
X10.1142 Y8.9884
Z0.0783
G1 Z0.0133 F40.
G18 G2 X10.1292 Z-0.0017 I0.0149 K0.
G1 X10.1367
G17 G3 X10.1483 Y9. I0. J0.0117
X10.1017 Z-0.019 I-0.0233 J0.
X10.1483 Z-0.0362 I0.0233 J0.
X10.1017 Z-0.0535 I-0.0233 J0.
X10.1483 Z-0.0708 I0.0233 J0.
X10.1017 Z-0.0881 I-0.0233 J0.
X10.1088 Y8.9832 Z-0.0925 I0.0233 J0.
X10.1412 Y9.0168 I0.0162 J0.0168
X10.1088 Y8.9832 I-0.0162 J-0.0168
X10.1253 Y8.9835 I0.0081 J0.0084
G1 X10.1305 Y8.9889
X10.1325 Y8.991 Z-0.0922
X10.1345 Y8.993 Z-0.0914
X10.1363 Y8.9949 Z-0.09
X10.1378 Y8.9965 Z-0.0881
X10.1391 Y8.9979 Z-0.0859
X10.1401 Y8.9989 Z-0.0833
X10.1407 Y8.9995 Z-0.0805
X10.1409 Y8.9997 Z-0.0776
G0 Z0.4
X9.3642 Y8.9884
Z0.0783
G1 Z0.0133 F40.
G18 G2 X9.3792 Z-0.0017 I0.0149 K0.
G1 X9.3867
G17 G3 X9.3983 Y9. I0. J0.0117
X9.3517 Z-0.019 I-0.0233 J0.
X9.3983 Z-0.0362 I0.0233 J0.
X9.3517 Z-0.0535 I-0.0233 J0.
X9.3983 Z-0.0708 I0.0233 J0.
X9.3517 Z-0.0881 I-0.0233 J0.
X9.3588 Y8.9832 Z-0.0925 I0.0233 J0.
X9.3912 Y9.0168 I0.0162 J0.0168
X9.3588 Y8.9832 I-0.0162 J-0.0168
X9.3753 Y8.9835 I0.0081 J0.0084
G1 X9.3805 Y8.9889
X9.3825 Y8.991 Z-0.0922
X9.3845 Y8.993 Z-0.0914
X9.3863 Y8.9949 Z-0.09
X9.3878 Y8.9965 Z-0.0881
X9.3891 Y8.9979 Z-0.0859
X9.3901 Y8.9989 Z-0.0833
X9.3907 Y8.9995 Z-0.0805
X9.3909 Y8.9997 Z-0.0776
G0 Z0.4
X8.6142 Y8.9884
Z0.0783
G1 Z0.0133 F40.
G18 G2 X8.6292 Z-0.0017 I0.0149 K0.
G1 X8.6367
G17 G3 X8.6483 Y9. I0. J0.0117
X8.6017 Z-0.019 I-0.0233 J0.
X8.6483 Z-0.0362 I0.0233 J0.
X8.6017 Z-0.0535 I-0.0233 J0.
X8.6483 Z-0.0708 I0.0233 J0.
X8.6017 Z-0.0881 I-0.0233 J0.
X8.6088 Y8.9832 Z-0.0925 I0.0233 J0.
X8.6412 Y9.0168 I0.0162 J0.0168
X8.6088 Y8.9832 I-0.0162 J-0.0168
X8.6253 Y8.9835 I0.0081 J0.0084
G1 X8.6305 Y8.9889
X8.6325 Y8.991 Z-0.0922
X8.6345 Y8.993 Z-0.0914
X8.6363 Y8.9949 Z-0.09
X8.6378 Y8.9965 Z-0.0881
X8.6391 Y8.9979 Z-0.0859
X8.6401 Y8.9989 Z-0.0833
X8.6407 Y8.9995 Z-0.0805
X8.6409 Y8.9997 Z-0.0776
G0 Z0.4
X7.8858 Y9.0116
Z0.0783
G1 Z0.0133 F40.
G18 G3 X7.8708 Z-0.0017 I-0.0149 K0.
G1 X7.8634
G17 G3 X7.8517 Y9. I0. J-0.0116
X7.8983 Z-0.019 I0.0233 J0.
X7.8517 Z-0.0362 I-0.0233 J0.
X7.8983 Z-0.0535 I0.0233 J0.
X7.8517 Z-0.0708 I-0.0233 J0.
X7.8983 Z-0.0881 I0.0233 J0.
X7.8912 Y9.0168 Z-0.0925 I-0.0233 J0.
X7.8588 Y8.9832 I-0.0162 J-0.0168
X7.8912 Y9.0168 I0.0162 J0.0168
X7.8747 Y9.0165 I-0.0081 J-0.0084
G1 X7.8695 Y9.0111
X7.8675 Y9.009 Z-0.0922
X7.8655 Y9.007 Z-0.0914
X7.8637 Y9.0051 Z-0.09
X7.8622 Y9.0035 Z-0.0881
X7.8609 Y9.0021 Z-0.0859
X7.8599 Y9.0011 Z-0.0833
X7.8593 Y9.0005 Z-0.0805
X7.8591 Y9.0003 Z-0.0776
G0 Z0.4
X7.1142 Y8.9884
Z0.0783
G1 Z0.0133 F40.
G18 G2 X7.1292 Z-0.0017 I0.0149 K0.
G1 X7.1366
G17 G3 X7.1483 Y9. I0. J0.0117
X7.1017 Z-0.019 I-0.0233 J0.
X7.1483 Z-0.0362 I0.0233 J0.
X7.1017 Z-0.0535 I-0.0233 J0.
X7.1483 Z-0.0708 I0.0233 J0.
X7.1017 Z-0.0881 I-0.0233 J0.
X7.1088 Y8.9832 Z-0.0925 I0.0233 J0.
X7.1412 Y9.0168 I0.0162 J0.0168
X7.1088 Y8.9832 I-0.0162 J-0.0168
X7.1253 Y8.9835 I0.0081 J0.0084
G1 X7.1305 Y8.9889
X7.1325 Y8.991 Z-0.0922
X7.1345 Y8.993 Z-0.0914
X7.1363 Y8.9949 Z-0.09
X7.1378 Y8.9965 Z-0.0881
X7.1391 Y8.9979 Z-0.0859
X7.1401 Y8.9989 Z-0.0833
X7.1407 Y8.9995 Z-0.0805
X7.1409 Y8.9997 Z-0.0776
G0 Z0.4
X6.3858 Y9.0116
Z0.0783
G1 Z0.0133 F40.
G18 G3 X6.3708 Z-0.0017 I-0.0149 K0.
G1 X6.3633
G17 G3 X6.3517 Y9. I0. J-0.0116
X6.3983 Z-0.019 I0.0233 J0.
X6.3517 Z-0.0362 I-0.0233 J0.
X6.3983 Z-0.0535 I0.0233 J0.
X6.3517 Z-0.0708 I-0.0233 J0.
X6.3983 Z-0.0881 I0.0233 J0.
X6.3912 Y9.0168 Z-0.0925 I-0.0233 J0.
X6.3588 Y8.9832 I-0.0162 J-0.0168
X6.3912 Y9.0168 I0.0162 J0.0168
X6.3747 Y9.0165 I-0.0081 J-0.0084
G1 X6.3695 Y9.0111
X6.3675 Y9.009 Z-0.0922
X6.3655 Y9.007 Z-0.0914
X6.3637 Y9.0051 Z-0.09
X6.3622 Y9.0035 Z-0.0881
X6.3609 Y9.0021 Z-0.0859
X6.3599 Y9.0011 Z-0.0833
X6.3593 Y9.0005 Z-0.0805
X6.3591 Y9.0003 Z-0.0776
G0 Z0.4
X5.6142 Y8.9884
Z0.0783
G1 Z0.0133 F40.
G18 G2 X5.6292 Z-0.0017 I0.0149 K0.
G1 X5.6367
G17 G3 X5.6483 Y9. I0. J0.0117
X5.6017 Z-0.019 I-0.0233 J0.
X5.6483 Z-0.0362 I0.0233 J0.
X5.6017 Z-0.0535 I-0.0233 J0.
X5.6483 Z-0.0708 I0.0233 J0.
X5.6017 Z-0.0881 I-0.0233 J0.
X5.6088 Y8.9832 Z-0.0925 I0.0233 J0.
X5.6412 Y9.0168 I0.0162 J0.0168
X5.6088 Y8.9832 I-0.0162 J-0.0168
X5.6253 Y8.9835 I0.0081 J0.0084
G1 X5.6305 Y8.9889
X5.6325 Y8.991 Z-0.0922
X5.6345 Y8.993 Z-0.0914
X5.6363 Y8.9949 Z-0.09
X5.6378 Y8.9965 Z-0.0881
X5.6391 Y8.9979 Z-0.0859
X5.6401 Y8.9989 Z-0.0833
X5.6407 Y8.9995 Z-0.0805
X5.6409 Y8.9997 Z-0.0776
G0 Z0.4
X4.8858 Y9.0116
Z0.0783
G1 Z0.0133 F40.
G18 G3 X4.8708 Z-0.0017 I-0.0149 K0.
G1 X4.8634
G17 G3 X4.8517 Y9. I0. J-0.0116
X4.8983 Z-0.019 I0.0233 J0.
X4.8517 Z-0.0362 I-0.0233 J0.
X4.8983 Z-0.0535 I0.0233 J0.
X4.8517 Z-0.0708 I-0.0233 J0.
X4.8983 Z-0.0881 I0.0233 J0.
X4.8912 Y9.0168 Z-0.0925 I-0.0233 J0.
X4.8588 Y8.9832 I-0.0162 J-0.0168
X4.8912 Y9.0168 I0.0162 J0.0168
X4.8747 Y9.0165 I-0.0081 J-0.0084
G1 X4.8695 Y9.0111
X4.8675 Y9.009 Z-0.0922
X4.8655 Y9.007 Z-0.0914
X4.8637 Y9.0051 Z-0.09
X4.8622 Y9.0035 Z-0.0881
X4.8609 Y9.0021 Z-0.0859
X4.8599 Y9.0011 Z-0.0833
X4.8593 Y9.0005 Z-0.0805
X4.8591 Y9.0003 Z-0.0776
G0 Z0.4
X4.1358 Y9.0116
Z0.0783
G1 Z0.0133 F40.
G18 G3 X4.1208 Z-0.0017 I-0.0149 K0.
G1 X4.1133
G17 G3 X4.1017 Y9. I0. J-0.0116
X4.1483 Z-0.019 I0.0233 J0.
X4.1017 Z-0.0362 I-0.0233 J0.
X4.1483 Z-0.0535 I0.0233 J0.
X4.1017 Z-0.0708 I-0.0233 J0.
X4.1483 Z-0.0881 I0.0233 J0.
X4.1412 Y9.0168 Z-0.0925 I-0.0233 J0.
X4.1088 Y8.9832 I-0.0162 J-0.0168
X4.1412 Y9.0168 I0.0162 J0.0168
X4.1247 Y9.0165 I-0.0081 J-0.0084
G1 X4.1195 Y9.0111
X4.1175 Y9.009 Z-0.0922
X4.1155 Y9.007 Z-0.0914
X4.1137 Y9.0051 Z-0.09
X4.1122 Y9.0035 Z-0.0881
X4.1109 Y9.0021 Z-0.0859
X4.1099 Y9.0011 Z-0.0833
X4.1093 Y9.0005 Z-0.0805
X4.1091 Y9.0003 Z-0.0776
G0 Z0.4
X4.2142 Y9.8633
Z0.0783
G1 Z0.0133 F40.
G18 G2 X4.2292 Z-0.0017 I0.0149 K0.
G1 X4.2366
G17 G3 X4.2483 Y9.875 I0. J0.0117
X4.2017 Z-0.019 I-0.0233 J0.
X4.2483 Z-0.0362 I0.0233 J0.
X4.2017 Z-0.0535 I-0.0233 J0.
X4.2483 Z-0.0708 I0.0233 J0.
X4.2017 Z-0.0881 I-0.0233 J0.
X4.2088 Y9.8582 Z-0.0925 I0.0233 J0.
X4.2412 Y9.8918 I0.0162 J0.0168
X4.2088 Y9.8582 I-0.0162 J-0.0168
X4.2253 Y9.8585 I0.0081 J0.0084
G1 X4.2305 Y9.8639
X4.2325 Y9.866 Z-0.0922
X4.2345 Y9.868 Z-0.0914
X4.2363 Y9.8699 Z-0.09
X4.2378 Y9.8715 Z-0.0881
X4.2391 Y9.8729 Z-0.0859
X4.2401 Y9.8739 Z-0.0833
X4.2407 Y9.8745 Z-0.0805
X4.2409 Y9.8747 Z-0.0776
G0 Z0.4
X4.7642 Y9.8633
Z0.0783
G1 Z0.0133 F40.
G18 G2 X4.7792 Z-0.0017 I0.0149 K0.
G1 X4.7866
G17 G3 X4.7983 Y9.875 I0. J0.0117
X4.7517 Z-0.019 I-0.0233 J0.
X4.7983 Z-0.0362 I0.0233 J0.
X4.7517 Z-0.0535 I-0.0233 J0.
X4.7983 Z-0.0708 I0.0233 J0.
X4.7517 Z-0.0881 I-0.0233 J0.
X4.7588 Y9.8582 Z-0.0925 I0.0233 J0.
X4.7912 Y9.8918 I0.0162 J0.0168
X4.7588 Y9.8582 I-0.0162 J-0.0168
X4.7753 Y9.8585 I0.0081 J0.0084
G1 X4.7805 Y9.8639
X4.7825 Y9.866 Z-0.0922
X4.7845 Y9.868 Z-0.0914
X4.7863 Y9.8699 Z-0.09
X4.7878 Y9.8715 Z-0.0881
X4.7891 Y9.8729 Z-0.0859
X4.7901 Y9.8739 Z-0.0833
X4.7907 Y9.8745 Z-0.0805
X4.7909 Y9.8747 Z-0.0776
G0 Z0.4
X4.7642 Y10.6134
Z0.0783
G1 Z0.0133 F40.
G18 G2 X4.7792 Z-0.0017 I0.0149 K0.
G1 X4.7866
G17 G3 X4.7983 Y10.625 I0. J0.0116
X4.7517 Z-0.019 I-0.0233 J0.
X4.7983 Z-0.0362 I0.0233 J0.
X4.7517 Z-0.0535 I-0.0233 J0.
X4.7983 Z-0.0708 I0.0233 J0.
X4.7517 Z-0.0881 I-0.0233 J0.
X4.7588 Y10.6082 Z-0.0925 I0.0233 J0.
X4.7912 Y10.6418 I0.0162 J0.0168
X4.7588 Y10.6082 I-0.0162 J-0.0168
X4.7753 Y10.6085 I0.0081 J0.0084
G1 X4.7805 Y10.6139
X4.7825 Y10.616 Z-0.0922
X4.7845 Y10.618 Z-0.0914
X4.7863 Y10.6199 Z-0.09
X4.7878 Y10.6215 Z-0.0881
X4.7891 Y10.6229 Z-0.0859
X4.7901 Y10.6239 Z-0.0833
X4.7907 Y10.6245 Z-0.0805
X4.7909 Y10.6247 Z-0.0776
G0 Z0.4
X4.2142 Y10.6134
Z0.0783
G1 Z0.0133 F40.
G18 G2 X4.2292 Z-0.0017 I0.0149 K0.
G1 X4.2366
G17 G3 X4.2483 Y10.625 I0. J0.0116
X4.2017 Z-0.019 I-0.0233 J0.
X4.2483 Z-0.0362 I0.0233 J0.
X4.2017 Z-0.0535 I-0.0233 J0.
X4.2483 Z-0.0708 I0.0233 J0.
X4.2017 Z-0.0881 I-0.0233 J0.
X4.2088 Y10.6082 Z-0.0925 I0.0233 J0.
X4.2412 Y10.6418 I0.0162 J0.0168
X4.2088 Y10.6082 I-0.0162 J-0.0168
X4.2253 Y10.6085 I0.0081 J0.0084
G1 X4.2305 Y10.6139
X4.2325 Y10.616 Z-0.0922
X4.2345 Y10.618 Z-0.0914
X4.2363 Y10.6199 Z-0.09
X4.2378 Y10.6215 Z-0.0881
X4.2391 Y10.6229 Z-0.0859
X4.2401 Y10.6239 Z-0.0833
X4.2407 Y10.6245 Z-0.0805
X4.2409 Y10.6247 Z-0.0776
G0 Z0.4
X4.2142 Y11.3633
Z0.0783
G1 Z0.0133 F40.
G18 G2 X4.2292 Z-0.0017 I0.0149 K0.
G1 X4.2366
G17 G3 X4.2483 Y11.375 I0. J0.0116
X4.2017 Z-0.019 I-0.0233 J0.
X4.2483 Z-0.0362 I0.0233 J0.
X4.2017 Z-0.0535 I-0.0233 J0.
X4.2479 Y11.3708 Z-0.0698 I0.0233 J0.
X4.2021 Y11.3792 Z-0.0871 I-0.0229 J0.0042
X4.2088 Y11.3582 Z-0.0925 I0.0229 J-0.0042
X4.2412 Y11.3918 I0.0162 J0.0168
X4.2088 Y11.3582 I-0.0162 J-0.0168
X4.2253 Y11.3585 I0.0081 J0.0084
G1 X4.2305 Y11.3639
X4.2325 Y11.366 Z-0.0922
X4.2345 Y11.368 Z-0.0914
X4.2363 Y11.3699 Z-0.09
X4.2378 Y11.3715 Z-0.0881
X4.2391 Y11.3729 Z-0.0859
X4.2401 Y11.3739 Z-0.0833
X4.2407 Y11.3745 Z-0.0805
X4.2409 Y11.3747 Z-0.0776
G0 Z0.4
X4.7642 Y11.3633
Z0.0783
G1 Z0.0133 F40.
G18 G2 X4.7792 Z-0.0017 I0.0149 K0.
G1 X4.7866
G17 G3 X4.7983 Y11.375 I0. J0.0116
X4.7517 Z-0.019 I-0.0233 J0.
X4.7983 Z-0.0362 I0.0233 J0.
X4.7517 Z-0.0535 I-0.0233 J0.
X4.7979 Y11.3708 Z-0.0698 I0.0233 J0.
X4.7521 Y11.3792 Z-0.0871 I-0.0229 J0.0042
X4.7588 Y11.3582 Z-0.0925 I0.0229 J-0.0042
X4.7912 Y11.3918 I0.0162 J0.0168
X4.7588 Y11.3582 I-0.0162 J-0.0168
X4.7753 Y11.3585 I0.0081 J0.0084
G1 X4.7805 Y11.3639
X4.7825 Y11.366 Z-0.0922
X4.7845 Y11.368 Z-0.0914
X4.7863 Y11.3699 Z-0.09
X4.7878 Y11.3715 Z-0.0881
X4.7891 Y11.3729 Z-0.0859
X4.7901 Y11.3739 Z-0.0833
X4.7907 Y11.3745 Z-0.0805
X4.7909 Y11.3747 Z-0.0776
G0 Z0.4
X4.7642 Y12.1133
Z0.0783
G1 Z0.0133 F40.
G18 G2 X4.7792 Z-0.0017 I0.0149 K0.
G1 X4.7866
G17 G3 X4.7983 Y12.125 I0. J0.0117
X4.7517 Z-0.019 I-0.0233 J0.
X4.7983 Z-0.0362 I0.0233 J0.
X4.7517 Z-0.0535 I-0.0233 J0.
X4.7983 Z-0.0708 I0.0233 J0.
X4.7517 Z-0.0881 I-0.0233 J0.
X4.7588 Y12.1082 Z-0.0925 I0.0233 J0.
X4.7912 Y12.1418 I0.0162 J0.0168
X4.7588 Y12.1082 I-0.0162 J-0.0168
X4.7753 Y12.1085 I0.0081 J0.0084
G1 X4.7805 Y12.1139
X4.7825 Y12.116 Z-0.0922
X4.7845 Y12.118 Z-0.0914
X4.7863 Y12.1199 Z-0.09
X4.7878 Y12.1215 Z-0.0881
X4.7891 Y12.1229 Z-0.0859
X4.7901 Y12.1239 Z-0.0833
X4.7907 Y12.1245 Z-0.0805
X4.7909 Y12.1247 Z-0.0776
G0 Z0.4
X4.2142 Y12.1133
Z0.0783
G1 Z0.0133 F40.
G18 G2 X4.2292 Z-0.0017 I0.0149 K0.
G1 X4.2366
G17 G3 X4.2483 Y12.125 I0. J0.0117
X4.2017 Z-0.019 I-0.0233 J0.
X4.2483 Z-0.0362 I0.0233 J0.
X4.2017 Z-0.0535 I-0.0233 J0.
X4.2483 Z-0.0708 I0.0233 J0.
X4.2017 Z-0.0881 I-0.0233 J0.
X4.2088 Y12.1082 Z-0.0925 I0.0233 J0.
X4.2412 Y12.1418 I0.0162 J0.0168
X4.2088 Y12.1082 I-0.0162 J-0.0168
X4.2253 Y12.1085 I0.0081 J0.0084
G1 X4.2305 Y12.1139
X4.2325 Y12.116 Z-0.0922
X4.2345 Y12.118 Z-0.0914
X4.2363 Y12.1199 Z-0.09
X4.2378 Y12.1215 Z-0.0881
X4.2391 Y12.1229 Z-0.0859
X4.2401 Y12.1239 Z-0.0833
X4.2407 Y12.1245 Z-0.0805
X4.2409 Y12.1247 Z-0.0776
G0 Z0.4
X-4.1358 Y8.9884
Z0.0783
G1 Z0.0133 F40.
G18 G2 X-4.1208 Z-0.0017 I0.0149 K0.
G1 X-4.1133
G17 G3 X-4.1017 Y9. I0. J0.0117
X-4.1483 Z-0.019 I-0.0233 J0.
X-4.1017 Z-0.0362 I0.0233 J0.
X-4.1483 Z-0.0535 I-0.0233 J0.
X-4.1017 Z-0.0708 I0.0233 J0.
X-4.1483 Z-0.0881 I-0.0233 J0.
X-4.1412 Y8.9832 Z-0.0925 I0.0233 J0.
X-4.1088 Y9.0168 I0.0162 J0.0168
X-4.1412 Y8.9832 I-0.0162 J-0.0168
X-4.1247 Y8.9835 I0.0081 J0.0084
G1 X-4.1195 Y8.9889
X-4.1175 Y8.991 Z-0.0922
X-4.1155 Y8.993 Z-0.0914
X-4.1137 Y8.9949 Z-0.09
X-4.1122 Y8.9965 Z-0.0881
X-4.1109 Y8.9979 Z-0.0859
X-4.1099 Y8.9989 Z-0.0833
X-4.1093 Y8.9995 Z-0.0805
X-4.1091 Y8.9997 Z-0.0776
G0 Z0.4
X-4.8858 Y8.9884
Z0.0783
G1 Z0.0133 F40.
G18 G2 X-4.8708 Z-0.0017 I0.0149 K0.
G1 X-4.8634
G17 G3 X-4.8517 Y9. I0. J0.0117
X-4.8983 Z-0.019 I-0.0233 J0.
X-4.8517 Z-0.0362 I0.0233 J0.
X-4.8983 Z-0.0535 I-0.0233 J0.
X-4.8517 Z-0.0708 I0.0233 J0.
X-4.8983 Z-0.0881 I-0.0233 J0.
X-4.8912 Y8.9832 Z-0.0925 I0.0233 J0.
X-4.8588 Y9.0168 I0.0162 J0.0168
X-4.8912 Y8.9832 I-0.0162 J-0.0168
X-4.8747 Y8.9835 I0.0081 J0.0084
G1 X-4.8695 Y8.9889
X-4.8675 Y8.991 Z-0.0922
X-4.8655 Y8.993 Z-0.0914
X-4.8637 Y8.9949 Z-0.09
X-4.8622 Y8.9965 Z-0.0881
X-4.8609 Y8.9979 Z-0.0859
X-4.8599 Y8.9989 Z-0.0833
X-4.8593 Y8.9995 Z-0.0805
X-4.8591 Y8.9997 Z-0.0776
G0 Z0.4
X-5.6358 Y8.9884
Z0.0783
G1 Z0.0133 F40.
G18 G2 X-5.6208 Z-0.0017 I0.0149 K0.
G1 X-5.6133
G17 G3 X-5.6017 Y9. I0. J0.0117
X-5.6483 Z-0.019 I-0.0233 J0.
X-5.6017 Z-0.0362 I0.0233 J0.
X-5.6483 Z-0.0535 I-0.0233 J0.
X-5.6017 Z-0.0708 I0.0233 J0.
X-5.6483 Z-0.0881 I-0.0233 J0.
X-5.6412 Y8.9832 Z-0.0925 I0.0233 J0.
X-5.6088 Y9.0168 I0.0162 J0.0168
X-5.6412 Y8.9832 I-0.0162 J-0.0168
X-5.6247 Y8.9835 I0.0081 J0.0084
G1 X-5.6195 Y8.9889
X-5.6175 Y8.991 Z-0.0922
X-5.6155 Y8.993 Z-0.0914
X-5.6137 Y8.9949 Z-0.09
X-5.6122 Y8.9965 Z-0.0881
X-5.6109 Y8.9979 Z-0.0859
X-5.6099 Y8.9989 Z-0.0833
X-5.6093 Y8.9995 Z-0.0805
X-5.6091 Y8.9997 Z-0.0776
G0 Z0.4
X-6.3858 Y8.9884
Z0.0783
G1 Z0.0133 F40.
G18 G2 X-6.3708 Z-0.0017 I0.0149 K0.
G1 X-6.3633
G17 G3 X-6.3517 Y9. I0. J0.0117
X-6.3983 Z-0.019 I-0.0233 J0.
X-6.3517 Z-0.0362 I0.0233 J0.
X-6.3983 Z-0.0535 I-0.0233 J0.
X-6.3517 Z-0.0708 I0.0233 J0.
X-6.3983 Z-0.0881 I-0.0233 J0.
X-6.3912 Y8.9832 Z-0.0925 I0.0233 J0.
X-6.3588 Y9.0168 I0.0162 J0.0168
X-6.3912 Y8.9832 I-0.0162 J-0.0168
X-6.3747 Y8.9835 I0.0081 J0.0084
G1 X-6.3695 Y8.9889
X-6.3675 Y8.991 Z-0.0922
X-6.3655 Y8.993 Z-0.0914
X-6.3637 Y8.9949 Z-0.09
X-6.3622 Y8.9965 Z-0.0881
X-6.3609 Y8.9979 Z-0.0859
X-6.3599 Y8.9989 Z-0.0833
X-6.3593 Y8.9995 Z-0.0805
X-6.3591 Y8.9997 Z-0.0776
G0 Z0.4
X-7.1142 Y9.0116
Z0.0783
G1 Z0.0133 F40.
G18 G3 X-7.1292 Z-0.0017 I-0.0149 K0.
G1 X-7.1366
G17 G3 X-7.1483 Y9. I0. J-0.0116
X-7.1017 Z-0.019 I0.0233 J0.
X-7.1483 Z-0.0362 I-0.0233 J0.
X-7.1017 Z-0.0535 I0.0233 J0.
X-7.1483 Z-0.0708 I-0.0233 J0.
X-7.1017 Z-0.0881 I0.0233 J0.
X-7.1088 Y9.0168 Z-0.0925 I-0.0233 J0.
X-7.1412 Y8.9832 I-0.0162 J-0.0168
X-7.1088 Y9.0168 I0.0162 J0.0168
X-7.1253 Y9.0165 I-0.0081 J-0.0084
G1 X-7.1305 Y9.0111
X-7.1325 Y9.009 Z-0.0922
X-7.1345 Y9.007 Z-0.0914
X-7.1363 Y9.0051 Z-0.09
X-7.1378 Y9.0035 Z-0.0881
X-7.1391 Y9.0021 Z-0.0859
X-7.1401 Y9.0011 Z-0.0833
X-7.1407 Y9.0005 Z-0.0805
X-7.1409 Y9.0003 Z-0.0776
G0 Z0.4
X-7.8858 Y8.9884
Z0.0783
G1 Z0.0133 F40.
G18 G2 X-7.8708 Z-0.0017 I0.0149 K0.
G1 X-7.8634
G17 G3 X-7.8517 Y9. I0. J0.0117
X-7.8983 Z-0.019 I-0.0233 J0.
X-7.8517 Z-0.0362 I0.0233 J0.
X-7.8983 Z-0.0535 I-0.0233 J0.
X-7.8517 Z-0.0708 I0.0233 J0.
X-7.8983 Z-0.0881 I-0.0233 J0.
X-7.8912 Y8.9832 Z-0.0925 I0.0233 J0.
X-7.8588 Y9.0168 I0.0162 J0.0168
X-7.8912 Y8.9832 I-0.0162 J-0.0168
X-7.8747 Y8.9835 I0.0081 J0.0084
G1 X-7.8695 Y8.9889
X-7.8675 Y8.991 Z-0.0922
X-7.8655 Y8.993 Z-0.0914
X-7.8637 Y8.9949 Z-0.09
X-7.8622 Y8.9965 Z-0.0881
X-7.8609 Y8.9979 Z-0.0859
X-7.8599 Y8.9989 Z-0.0833
X-7.8593 Y8.9995 Z-0.0805
X-7.8591 Y8.9997 Z-0.0776
G0 Z0.4
X-8.6142 Y9.0116
Z0.0783
G1 Z0.0133 F40.
G18 G3 X-8.6292 Z-0.0017 I-0.0149 K0.
G1 X-8.6367
G17 G3 X-8.6483 Y9. I0. J-0.0116
X-8.6017 Z-0.019 I0.0233 J0.
X-8.6483 Z-0.0362 I-0.0233 J0.
X-8.6017 Z-0.0535 I0.0233 J0.
X-8.6483 Z-0.0708 I-0.0233 J0.
X-8.6017 Z-0.0881 I0.0233 J0.
X-8.6088 Y9.0168 Z-0.0925 I-0.0233 J0.
X-8.6412 Y8.9832 I-0.0162 J-0.0168
X-8.6088 Y9.0168 I0.0162 J0.0168
X-8.6253 Y9.0165 I-0.0081 J-0.0084
G1 X-8.6305 Y9.0111
X-8.6325 Y9.009 Z-0.0922
X-8.6345 Y9.007 Z-0.0914
X-8.6363 Y9.0051 Z-0.09
X-8.6378 Y9.0035 Z-0.0881
X-8.6391 Y9.0021 Z-0.0859
X-8.6401 Y9.0011 Z-0.0833
X-8.6407 Y9.0005 Z-0.0805
X-8.6409 Y9.0003 Z-0.0776
G0 Z0.4
X-9.3858 Y8.9884
Z0.0783
G1 Z0.0133 F40.
G18 G2 X-9.3708 Z-0.0017 I0.0149 K0.
G1 X-9.3633
G17 G3 X-9.3517 Y9. I0. J0.0117
X-9.3983 Z-0.019 I-0.0233 J0.
X-9.3517 Z-0.0362 I0.0233 J0.
X-9.3983 Z-0.0535 I-0.0233 J0.
X-9.3517 Z-0.0708 I0.0233 J0.
X-9.3983 Z-0.0881 I-0.0233 J0.
X-9.3912 Y8.9832 Z-0.0925 I0.0233 J0.
X-9.3588 Y9.0168 I0.0162 J0.0168
X-9.3912 Y8.9832 I-0.0162 J-0.0168
X-9.3747 Y8.9835 I0.0081 J0.0084
G1 X-9.3695 Y8.9889
X-9.3675 Y8.991 Z-0.0922
X-9.3655 Y8.993 Z-0.0914
X-9.3637 Y8.9949 Z-0.09
X-9.3622 Y8.9965 Z-0.0881
X-9.3609 Y8.9979 Z-0.0859
X-9.3599 Y8.9989 Z-0.0833
X-9.3593 Y8.9995 Z-0.0805
X-9.3591 Y8.9997 Z-0.0776
G0 Z0.4
X-10.1142 Y9.0116
Z0.0783
G1 Z0.0133 F40.
G18 G3 X-10.1292 Z-0.0017 I-0.0149 K0.
G1 X-10.1367
G17 G3 X-10.1483 Y9. I0. J-0.0116
X-10.1017 Z-0.019 I0.0233 J0.
X-10.1483 Z-0.0362 I-0.0233 J0.
X-10.1017 Z-0.0535 I0.0233 J0.
X-10.1483 Z-0.0708 I-0.0233 J0.
X-10.1017 Z-0.0881 I0.0233 J0.
X-10.1088 Y9.0168 Z-0.0925 I-0.0233 J0.
X-10.1412 Y8.9832 I-0.0162 J-0.0168
X-10.1088 Y9.0168 I0.0162 J0.0168
X-10.1253 Y9.0165 I-0.0081 J-0.0084
G1 X-10.1305 Y9.0111
X-10.1325 Y9.009 Z-0.0922
X-10.1345 Y9.007 Z-0.0914
X-10.1363 Y9.0051 Z-0.09
X-10.1378 Y9.0035 Z-0.0881
X-10.1391 Y9.0021 Z-0.0859
X-10.1401 Y9.0011 Z-0.0833
X-10.1407 Y9.0005 Z-0.0805
X-10.1409 Y9.0003 Z-0.0776
G0 Z0.4
X-10.8858 Y8.9884
Z0.0783
G1 Z0.0133 F40.
G18 G2 X-10.8708 Z-0.0017 I0.0149 K0.
G1 X-10.8633
G17 G3 X-10.8517 Y9. I0. J0.0117
X-10.8983 Z-0.019 I-0.0233 J0.
X-10.8517 Z-0.0362 I0.0233 J0.
X-10.8983 Z-0.0535 I-0.0233 J0.
X-10.8517 Z-0.0708 I0.0233 J0.
X-10.8983 Z-0.0881 I-0.0233 J0.
X-10.8912 Y8.9832 Z-0.0925 I0.0233 J0.
X-10.8588 Y9.0168 I0.0162 J0.0168
X-10.8912 Y8.9832 I-0.0162 J-0.0168
X-10.8747 Y8.9835 I0.0081 J0.0084
G1 X-10.8695 Y8.9889
X-10.8675 Y8.991 Z-0.0922
X-10.8655 Y8.993 Z-0.0914
X-10.8637 Y8.9949 Z-0.09
X-10.8622 Y8.9965 Z-0.0881
X-10.8609 Y8.9979 Z-0.0859
X-10.8599 Y8.9989 Z-0.0833
X-10.8593 Y8.9995 Z-0.0805
X-10.8591 Y8.9997 Z-0.0776
G0 Z0.4
X-9.4892 Y8.0117
Z0.0783
G1 Z0.0133 F40.
G18 G3 X-9.5042 Z-0.0017 I-0.0149 K0.
G1 X-9.5117
G17 G3 X-9.5233 Y8. I0. J-0.0117
X-9.4767 Z-0.019 I0.0233 J0.
X-9.5233 Z-0.0362 I-0.0233 J0.
X-9.4767 Z-0.0535 I0.0233 J0.
X-9.5233 Z-0.0708 I-0.0233 J0.
X-9.4767 Z-0.0881 I0.0233 J0.
X-9.4838 Y8.0168 Z-0.0925 I-0.0233 J0.
X-9.5162 Y7.9832 I-0.0162 J-0.0168
X-9.4838 Y8.0168 I0.0162 J0.0168
X-9.5003 Y8.0165 I-0.0081 J-0.0084
G1 X-9.5055 Y8.0111
X-9.5075 Y8.009 Z-0.0922
X-9.5095 Y8.007 Z-0.0914
X-9.5113 Y8.0051 Z-0.09
X-9.5128 Y8.0035 Z-0.0881
X-9.5141 Y8.0021 Z-0.0859
X-9.5151 Y8.0011 Z-0.0833
X-9.5157 Y8.0005 Z-0.0805
X-9.5159 Y8.0003 Z-0.0776
G0 Z0.4
X-9.4892 Y7.5117
Z0.0783
G1 Z0.0133 F40.
G18 G3 X-9.5042 Z-0.0017 I-0.0149 K0.
G1 X-9.5117
G17 G3 X-9.5233 Y7.5 I0. J-0.0117
X-9.4767 Z-0.019 I0.0233 J0.
X-9.5233 Z-0.0362 I-0.0233 J0.
X-9.4767 Z-0.0535 I0.0233 J0.
X-9.5233 Z-0.0708 I-0.0233 J0.
X-9.4767 Z-0.0881 I0.0233 J0.
X-9.4838 Y7.5168 Z-0.0925 I-0.0233 J0.
X-9.5162 Y7.4832 I-0.0162 J-0.0168
X-9.4838 Y7.5168 I0.0162 J0.0168
X-9.5003 Y7.5165 I-0.0081 J-0.0084
G1 X-9.5055 Y7.5111
X-9.5075 Y7.509 Z-0.0922
X-9.5095 Y7.507 Z-0.0914
X-9.5113 Y7.5051 Z-0.09
X-9.5128 Y7.5035 Z-0.0881
X-9.5141 Y7.5021 Z-0.0859
X-9.5151 Y7.5011 Z-0.0833
X-9.5157 Y7.5005 Z-0.0805
X-9.5159 Y7.5003 Z-0.0776
G0 Z0.4
X-9.4892 Y7.0117
Z0.0783
G1 Z0.0133 F40.
G18 G3 X-9.5042 Z-0.0017 I-0.0149 K0.
G1 X-9.5117
G17 G3 X-9.5233 Y7. I0. J-0.0117
X-9.4767 Z-0.019 I0.0233 J0.
X-9.5233 Z-0.0362 I-0.0233 J0.
X-9.4767 Z-0.0535 I0.0233 J0.
X-9.5233 Z-0.0708 I-0.0233 J0.
X-9.4767 Z-0.0881 I0.0233 J0.
X-9.4838 Y7.0168 Z-0.0925 I-0.0233 J0.
X-9.5162 Y6.9832 I-0.0162 J-0.0168
X-9.4838 Y7.0168 I0.0162 J0.0168
X-9.5003 Y7.0165 I-0.0081 J-0.0084
G1 X-9.5055 Y7.0111
X-9.5075 Y7.009 Z-0.0922
X-9.5095 Y7.007 Z-0.0914
X-9.5113 Y7.0051 Z-0.09
X-9.5128 Y7.0035 Z-0.0881
X-9.5141 Y7.0021 Z-0.0859
X-9.5151 Y7.0011 Z-0.0833
X-9.5157 Y7.0005 Z-0.0805
X-9.5159 Y7.0003 Z-0.0776
G0 Z0.4
X-8.4892 Y7.0117
Z0.0783
G1 Z0.0133 F40.
G18 G3 X-8.5042 Z-0.0017 I-0.0149 K0.
G1 X-8.5116
G17 G3 X-8.5233 Y7. I0. J-0.0117
X-8.4767 Z-0.019 I0.0233 J0.
X-8.5233 Z-0.0362 I-0.0233 J0.
X-8.4767 Z-0.0535 I0.0233 J0.
X-8.5233 Z-0.0708 I-0.0233 J0.
X-8.4767 Z-0.0881 I0.0233 J0.
X-8.4838 Y7.0168 Z-0.0925 I-0.0233 J0.
X-8.5162 Y6.9832 I-0.0162 J-0.0168
X-8.4838 Y7.0168 I0.0162 J0.0168
X-8.5003 Y7.0165 I-0.0081 J-0.0084
G1 X-8.5055 Y7.0111
X-8.5075 Y7.009 Z-0.0922
X-8.5095 Y7.007 Z-0.0914
X-8.5113 Y7.0051 Z-0.09
X-8.5128 Y7.0035 Z-0.0881
X-8.5141 Y7.0021 Z-0.0859
X-8.5151 Y7.0011 Z-0.0833
X-8.5157 Y7.0005 Z-0.0805
X-8.5159 Y7.0003 Z-0.0776
G0 Z0.4
X-8.4892 Y7.5117
Z0.0783
G1 Z0.0133 F40.
G18 G3 X-8.5042 Z-0.0017 I-0.0149 K0.
G1 X-8.5116
G17 G3 X-8.5233 Y7.5 I0. J-0.0117
X-8.4767 Z-0.019 I0.0233 J0.
X-8.5233 Z-0.0362 I-0.0233 J0.
X-8.4767 Z-0.0535 I0.0233 J0.
X-8.5233 Z-0.0708 I-0.0233 J0.
X-8.4767 Z-0.0881 I0.0233 J0.
X-8.4838 Y7.5168 Z-0.0925 I-0.0233 J0.
X-8.5162 Y7.4832 I-0.0162 J-0.0168
X-8.4838 Y7.5168 I0.0162 J0.0168
X-8.5003 Y7.5165 I-0.0081 J-0.0084
G1 X-8.5055 Y7.5111
X-8.5075 Y7.509 Z-0.0922
X-8.5095 Y7.507 Z-0.0914
X-8.5113 Y7.5051 Z-0.09
X-8.5128 Y7.5035 Z-0.0881
X-8.5141 Y7.5021 Z-0.0859
X-8.5151 Y7.5011 Z-0.0833
X-8.5157 Y7.5005 Z-0.0805
X-8.5159 Y7.5003 Z-0.0776
G0 Z0.4
X-8.4892 Y8.0117
Z0.0783
G1 Z0.0133 F40.
G18 G3 X-8.5042 Z-0.0017 I-0.0149 K0.
G1 X-8.5116
G17 G3 X-8.5233 Y8. I0. J-0.0117
X-8.4767 Z-0.019 I0.0233 J0.
X-8.5233 Z-0.0362 I-0.0233 J0.
X-8.4767 Z-0.0535 I0.0233 J0.
X-8.5233 Z-0.0708 I-0.0233 J0.
X-8.4767 Z-0.0881 I0.0233 J0.
X-8.4838 Y8.0168 Z-0.0925 I-0.0233 J0.
X-8.5162 Y7.9832 I-0.0162 J-0.0168
X-8.4838 Y8.0168 I0.0162 J0.0168
X-8.5003 Y8.0165 I-0.0081 J-0.0084
G1 X-8.5055 Y8.0111
X-8.5075 Y8.009 Z-0.0922
X-8.5095 Y8.007 Z-0.0914
X-8.5113 Y8.0051 Z-0.09
X-8.5128 Y8.0035 Z-0.0881
X-8.5141 Y8.0021 Z-0.0859
X-8.5151 Y8.0011 Z-0.0833
X-8.5157 Y8.0005 Z-0.0805
X-8.5159 Y8.0003 Z-0.0776
G0 Z0.4
X-7.5108 Y7.9883
Z0.0783
G1 Z0.0133 F40.
G18 G2 X-7.4958 Z-0.0017 I0.0149 K0.
G1 X-7.4883
G17 G3 X-7.4767 Y8. I0. J0.0117
X-7.5233 Z-0.019 I-0.0233 J0.
X-7.4767 Z-0.0362 I0.0233 J0.
X-7.5233 Z-0.0535 I-0.0233 J0.
X-7.4767 Z-0.0708 I0.0233 J0.
X-7.5233 Z-0.0881 I-0.0233 J0.
X-7.5162 Y7.9832 Z-0.0925 I0.0233 J0.
X-7.4838 Y8.0168 I0.0162 J0.0168
X-7.5162 Y7.9832 I-0.0162 J-0.0168
X-7.4997 Y7.9835 I0.0081 J0.0084
G1 X-7.4945 Y7.9889
X-7.4925 Y7.991 Z-0.0922
X-7.4905 Y7.993 Z-0.0914
X-7.4887 Y7.9949 Z-0.09
X-7.4872 Y7.9965 Z-0.0881
X-7.4859 Y7.9979 Z-0.0859
X-7.4849 Y7.9989 Z-0.0833
X-7.4843 Y7.9995 Z-0.0805
X-7.4841 Y7.9997 Z-0.0776
G0 Z0.4
X-7.5108 Y7.4883
Z0.0783
G1 Z0.0133 F40.
G18 G2 X-7.4958 Z-0.0017 I0.0149 K0.
G1 X-7.4883
G17 G3 X-7.4767 Y7.5 I0. J0.0117
X-7.5233 Z-0.019 I-0.0233 J0.
X-7.4767 Z-0.0362 I0.0233 J0.
X-7.5233 Z-0.0535 I-0.0233 J0.
X-7.4767 Z-0.0708 I0.0233 J0.
X-7.5233 Z-0.0881 I-0.0233 J0.
X-7.5162 Y7.4832 Z-0.0925 I0.0233 J0.
X-7.4838 Y7.5168 I0.0162 J0.0168
X-7.5162 Y7.4832 I-0.0162 J-0.0168
X-7.4997 Y7.4835 I0.0081 J0.0084
G1 X-7.4945 Y7.4889
X-7.4925 Y7.491 Z-0.0922
X-7.4905 Y7.493 Z-0.0914
X-7.4887 Y7.4949 Z-0.09
X-7.4872 Y7.4965 Z-0.0881
X-7.4859 Y7.4979 Z-0.0859
X-7.4849 Y7.4989 Z-0.0833
X-7.4843 Y7.4995 Z-0.0805
X-7.4841 Y7.4997 Z-0.0776
G0 Z0.4
X-7.5108 Y6.9883
Z0.0783
G1 Z0.0133 F40.
G18 G2 X-7.4958 Z-0.0017 I0.0149 K0.
G1 X-7.4883
G17 G3 X-7.4767 Y7. I0. J0.0117
X-7.5233 Z-0.019 I-0.0233 J0.
X-7.4767 Z-0.0362 I0.0233 J0.
X-7.5233 Z-0.0535 I-0.0233 J0.
X-7.4767 Z-0.0708 I0.0233 J0.
X-7.5233 Z-0.0881 I-0.0233 J0.
X-7.5162 Y6.9832 Z-0.0925 I0.0233 J0.
X-7.4838 Y7.0168 I0.0162 J0.0168
X-7.5162 Y6.9832 I-0.0162 J-0.0168
X-7.4997 Y6.9835 I0.0081 J0.0084
G1 X-7.4945 Y6.9889
X-7.4925 Y6.991 Z-0.0922
X-7.4905 Y6.993 Z-0.0914
X-7.4887 Y6.9949 Z-0.09
X-7.4872 Y6.9965 Z-0.0881
X-7.4859 Y6.9979 Z-0.0859
X-7.4849 Y6.9989 Z-0.0833
X-7.4843 Y6.9995 Z-0.0805
X-7.4841 Y6.9997 Z-0.0776
G0 Z0.4
X-6.5108 Y6.9883
Z0.0783
G1 Z0.0133 F40.
G18 G2 X-6.4958 Z-0.0017 I0.0149 K0.
G1 X-6.4884
G17 G3 X-6.4767 Y7. I0. J0.0117
X-6.5233 Z-0.019 I-0.0233 J0.
X-6.4767 Z-0.0362 I0.0233 J0.
X-6.5233 Z-0.0535 I-0.0233 J0.
X-6.4767 Z-0.0708 I0.0233 J0.
X-6.5233 Z-0.0881 I-0.0233 J0.
X-6.5162 Y6.9832 Z-0.0925 I0.0233 J0.
X-6.4838 Y7.0168 I0.0162 J0.0168
X-6.5162 Y6.9832 I-0.0162 J-0.0168
X-6.4997 Y6.9835 I0.0081 J0.0084
G1 X-6.4945 Y6.9889
X-6.4925 Y6.991 Z-0.0922
X-6.4905 Y6.993 Z-0.0914
X-6.4887 Y6.9949 Z-0.09
X-6.4872 Y6.9965 Z-0.0881
X-6.4859 Y6.9979 Z-0.0859
X-6.4849 Y6.9989 Z-0.0833
X-6.4843 Y6.9995 Z-0.0805
X-6.4841 Y6.9997 Z-0.0776
G0 Z0.4
X-6.5108 Y7.4883
Z0.0783
G1 Z0.0133 F40.
G18 G2 X-6.4958 Z-0.0017 I0.0149 K0.
G1 X-6.4884
G17 G3 X-6.4767 Y7.5 I0. J0.0117
X-6.5233 Z-0.019 I-0.0233 J0.
X-6.4767 Z-0.0362 I0.0233 J0.
X-6.5233 Z-0.0535 I-0.0233 J0.
X-6.4767 Z-0.0708 I0.0233 J0.
X-6.5233 Z-0.0881 I-0.0233 J0.
X-6.5162 Y7.4832 Z-0.0925 I0.0233 J0.
X-6.4838 Y7.5168 I0.0162 J0.0168
X-6.5162 Y7.4832 I-0.0162 J-0.0168
X-6.4997 Y7.4835 I0.0081 J0.0084
G1 X-6.4945 Y7.4889
X-6.4925 Y7.491 Z-0.0922
X-6.4905 Y7.493 Z-0.0914
X-6.4887 Y7.4949 Z-0.09
X-6.4872 Y7.4965 Z-0.0881
X-6.4859 Y7.4979 Z-0.0859
X-6.4849 Y7.4989 Z-0.0833
X-6.4843 Y7.4995 Z-0.0805
X-6.4841 Y7.4997 Z-0.0776
G0 Z0.4
X-6.5108 Y7.9883
Z0.0783
G1 Z0.0133 F40.
G18 G2 X-6.4958 Z-0.0017 I0.0149 K0.
G1 X-6.4884
G17 G3 X-6.4767 Y8. I0. J0.0117
X-6.5233 Z-0.019 I-0.0233 J0.
X-6.4767 Z-0.0362 I0.0233 J0.
X-6.5233 Z-0.0535 I-0.0233 J0.
X-6.4767 Z-0.0708 I0.0233 J0.
X-6.5233 Z-0.0881 I-0.0233 J0.
X-6.5162 Y7.9832 Z-0.0925 I0.0233 J0.
X-6.4838 Y8.0168 I0.0162 J0.0168
X-6.5162 Y7.9832 I-0.0162 J-0.0168
X-6.4997 Y7.9835 I0.0081 J0.0084
G1 X-6.4945 Y7.9889
X-6.4925 Y7.991 Z-0.0922
X-6.4905 Y7.993 Z-0.0914
X-6.4887 Y7.9949 Z-0.09
X-6.4872 Y7.9965 Z-0.0881
X-6.4859 Y7.9979 Z-0.0859
X-6.4849 Y7.9989 Z-0.0833
X-6.4843 Y7.9995 Z-0.0805
X-6.4841 Y7.9997 Z-0.0776
G0 Z0.4
X-6.5108 Y5.9884
Z0.0783
G1 Z0.0133 F40.
G18 G2 X-6.4958 Z-0.0017 I0.0149 K0.
G1 X-6.4884
G17 G3 X-6.4767 Y6. I0. J0.0116
X-6.5233 Z-0.019 I-0.0233 J0.
X-6.4767 Z-0.0362 I0.0233 J0.
X-6.5233 Z-0.0535 I-0.0233 J0.
X-6.4767 Z-0.0708 I0.0233 J0.
X-6.5233 Z-0.0881 I-0.0233 J0.
X-6.5162 Y5.9832 Z-0.0925 I0.0233 J0.
X-6.4838 Y6.0168 I0.0162 J0.0168
X-6.5162 Y5.9832 I-0.0162 J-0.0168
X-6.4997 Y5.9835 I0.0081 J0.0084
G1 X-6.4945 Y5.9889
X-6.4925 Y5.991 Z-0.0922
X-6.4905 Y5.993 Z-0.0914
X-6.4887 Y5.9949 Z-0.09
X-6.4872 Y5.9965 Z-0.0881
X-6.4859 Y5.9979 Z-0.0859
X-6.4849 Y5.9989 Z-0.0833
X-6.4843 Y5.9995 Z-0.0805
X-6.4841 Y5.9997 Z-0.0776
G0 Z0.4
X-6.5108 Y3.9884
Z0.0783
G1 Z0.0133 F40.
G18 G2 X-6.4958 Z-0.0017 I0.0149 K0.
G1 X-6.4884
G17 G3 X-6.4767 Y4. I0. J0.0116
X-6.5233 Z-0.019 I-0.0233 J0.
X-6.4767 Z-0.0362 I0.0233 J0.
X-6.5233 Z-0.0535 I-0.0233 J0.
X-6.4767 Z-0.0708 I0.0233 J0.
X-6.5233 Z-0.0881 I-0.0233 J0.
X-6.5162 Y3.9832 Z-0.0925 I0.0233 J0.
X-6.4838 Y4.0168 I0.0162 J0.0168
X-6.5162 Y3.9832 I-0.0162 J-0.0168
X-6.4997 Y3.9835 I0.0081 J0.0084
G1 X-6.4945 Y3.9889
X-6.4925 Y3.991 Z-0.0922
X-6.4905 Y3.993 Z-0.0914
X-6.4887 Y3.9949 Z-0.09
X-6.4872 Y3.9965 Z-0.0881
X-6.4859 Y3.9979 Z-0.0859
X-6.4849 Y3.9989 Z-0.0833
X-6.4843 Y3.9995 Z-0.0805
X-6.4841 Y3.9997 Z-0.0776
G0 Z0.4
X-6.5108 Y1.9883
Z0.0783
G1 Z0.0133 F40.
G18 G2 X-6.4958 Z-0.0017 I0.0149 K0.
G1 X-6.4884
G17 G3 X-6.4767 Y2. I0. J0.0116
X-6.5233 Z-0.019 I-0.0233 J0.
X-6.4767 Z-0.0362 I0.0233 J0.
X-6.5233 Z-0.0535 I-0.0233 J0.
X-6.4767 Z-0.0708 I0.0233 J0.
X-6.5233 Z-0.0881 I-0.0233 J0.
X-6.5162 Y1.9832 Z-0.0925 I0.0233 J0.
X-6.4838 Y2.0168 I0.0162 J0.0168
X-6.5162 Y1.9832 I-0.0162 J-0.0168
X-6.4997 Y1.9835 I0.0081 J0.0084
G1 X-6.4945 Y1.9889
X-6.4925 Y1.991 Z-0.0922
X-6.4905 Y1.993 Z-0.0914
X-6.4887 Y1.9949 Z-0.09
X-6.4872 Y1.9965 Z-0.0881
X-6.4859 Y1.9979 Z-0.0859
X-6.4849 Y1.9989 Z-0.0833
X-6.4843 Y1.9995 Z-0.0805
X-6.4841 Y1.9997 Z-0.0776
G0 Z0.4
X-6.5108 Y-0.0117
Z0.0783
G1 Z0.0133 F40.
G18 G2 X-6.4958 Z-0.0017 I0.0149 K0.
G1 X-6.4884
G17 G3 X-6.4767 Y0. I0. J0.0117
X-6.5233 Z-0.019 I-0.0233 J0.
X-6.4767 Z-0.0362 I0.0233 J0.
X-6.5233 Z-0.0535 I-0.0233 J0.
X-6.4767 Z-0.0708 I0.0233 J0.
X-6.5233 Z-0.0881 I-0.0233 J0.
X-6.5162 Y-0.0168 Z-0.0925 I0.0233 J0.
X-6.4838 Y0.0168 I0.0162 J0.0168
X-6.5162 Y-0.0168 I-0.0162 J-0.0168
X-6.4997 Y-0.0165 I0.0081 J0.0084
G1 X-6.4945 Y-0.0111
X-6.4925 Y-0.009 Z-0.0922
X-6.4905 Y-0.007 Z-0.0914
X-6.4887 Y-0.0051 Z-0.09
X-6.4872 Y-0.0035 Z-0.0881
X-6.4859 Y-0.0021 Z-0.0859
X-6.4849 Y-0.0011 Z-0.0833
X-6.4843 Y-0.0005 Z-0.0805
X-6.4841 Y-0.0003 Z-0.0776
G0 Z0.4
X-6.5108 Y-2.0116
Z0.0783
G1 Z0.0133 F40.
G18 G2 X-6.4958 Z-0.0017 I0.0149 K0.
G1 X-6.4884
G17 G3 X-6.4767 Y-2. I0. J0.0116
X-6.5233 Z-0.019 I-0.0233 J0.
X-6.4767 Z-0.0362 I0.0233 J0.
X-6.5233 Z-0.0535 I-0.0233 J0.
X-6.4767 Z-0.0708 I0.0233 J0.
X-6.5233 Z-0.0881 I-0.0233 J0.
X-6.5162 Y-2.0168 Z-0.0925 I0.0233 J0.
X-6.4838 Y-1.9832 I0.0162 J0.0168
X-6.5162 Y-2.0168 I-0.0162 J-0.0168
X-6.4997 Y-2.0165 I0.0081 J0.0084
G1 X-6.4945 Y-2.0111
X-6.4925 Y-2.009 Z-0.0922
X-6.4905 Y-2.007 Z-0.0914
X-6.4887 Y-2.0051 Z-0.09
X-6.4872 Y-2.0035 Z-0.0881
X-6.4859 Y-2.0021 Z-0.0859
X-6.4849 Y-2.0011 Z-0.0833
X-6.4843 Y-2.0005 Z-0.0805
X-6.4841 Y-2.0003 Z-0.0776
G0 Z0.4
X-6.5108 Y-4.0117
Z0.0783
G1 Z0.0133 F40.
G18 G2 X-6.4958 Z-0.0017 I0.0149 K0.
G1 X-6.4884
G17 G3 X-6.4767 Y-4. I0. J0.0117
X-6.5233 Z-0.019 I-0.0233 J0.
X-6.4767 Z-0.0362 I0.0233 J0.
X-6.5233 Z-0.0535 I-0.0233 J0.
X-6.4767 Z-0.0708 I0.0233 J0.
X-6.5233 Z-0.0881 I-0.0233 J0.
X-6.5162 Y-4.0168 Z-0.0925 I0.0233 J0.
X-6.4838 Y-3.9832 I0.0162 J0.0168
X-6.5162 Y-4.0168 I-0.0162 J-0.0168
X-6.4997 Y-4.0165 I0.0081 J0.0084
G1 X-6.4945 Y-4.0111
X-6.4925 Y-4.009 Z-0.0922
X-6.4905 Y-4.007 Z-0.0914
X-6.4887 Y-4.0051 Z-0.09
X-6.4872 Y-4.0035 Z-0.0881
X-6.4859 Y-4.0021 Z-0.0859
X-6.4849 Y-4.0011 Z-0.0833
X-6.4843 Y-4.0005 Z-0.0805
X-6.4841 Y-4.0003 Z-0.0776
G0 Z0.4
X-6.5108 Y-6.0116
Z0.0783
G1 Z0.0133 F40.
G18 G2 X-6.4958 Z-0.0017 I0.0149 K0.
G1 X-6.4884
G17 G3 X-6.4767 Y-6. I0. J0.0117
X-6.5233 Z-0.019 I-0.0233 J0.
X-6.4767 Z-0.0362 I0.0233 J0.
X-6.5233 Z-0.0535 I-0.0233 J0.
X-6.4767 Z-0.0708 I0.0233 J0.
X-6.5233 Z-0.0881 I-0.0233 J0.
X-6.5162 Y-6.0168 Z-0.0925 I0.0233 J0.
X-6.4838 Y-5.9832 I0.0162 J0.0168
X-6.5162 Y-6.0168 I-0.0162 J-0.0168
X-6.4997 Y-6.0165 I0.0081 J0.0084
G1 X-6.4945 Y-6.0111
X-6.4925 Y-6.009 Z-0.0922
X-6.4905 Y-6.007 Z-0.0914
X-6.4887 Y-6.0051 Z-0.09
X-6.4872 Y-6.0035 Z-0.0881
X-6.4859 Y-6.0021 Z-0.0859
X-6.4849 Y-6.0011 Z-0.0833
X-6.4843 Y-6.0005 Z-0.0805
X-6.4841 Y-6.0003 Z-0.0776
G0 Z0.4
X-9.4892 Y-5.9884
Z0.0783
G1 Z0.0133 F40.
G18 G3 X-9.5042 Z-0.0017 I-0.0149 K0.
G1 X-9.5117
G17 G3 X-9.5233 Y-6. I0. J-0.0116
X-9.4767 Z-0.019 I0.0233 J0.
X-9.5233 Z-0.0362 I-0.0233 J0.
X-9.4767 Z-0.0535 I0.0233 J0.
X-9.5233 Z-0.0708 I-0.0233 J0.
X-9.4767 Z-0.0881 I0.0233 J0.
X-9.4838 Y-5.9832 Z-0.0925 I-0.0233 J0.
X-9.5162 Y-6.0168 I-0.0162 J-0.0168
X-9.4838 Y-5.9832 I0.0162 J0.0168
X-9.5003 Y-5.9835 I-0.0081 J-0.0084
G1 X-9.5055 Y-5.9889
X-9.5075 Y-5.991 Z-0.0922
X-9.5095 Y-5.993 Z-0.0914
X-9.5113 Y-5.9949 Z-0.09
X-9.5128 Y-5.9965 Z-0.0881
X-9.5141 Y-5.9979 Z-0.0859
X-9.5151 Y-5.9989 Z-0.0833
X-9.5157 Y-5.9995 Z-0.0805
X-9.5159 Y-5.9997 Z-0.0776
G0 Z0.4
X-9.4892 Y-3.9884
Z0.0783
G1 Z0.0133 F40.
G18 G3 X-9.5042 Z-0.0017 I-0.0149 K0.
G1 X-9.5117
G17 G3 X-9.5233 Y-4. I0. J-0.0116
X-9.4767 Z-0.019 I0.0233 J0.
X-9.5233 Z-0.0362 I-0.0233 J0.
X-9.4767 Z-0.0535 I0.0233 J0.
X-9.5233 Z-0.0708 I-0.0233 J0.
X-9.4767 Z-0.0881 I0.0233 J0.
X-9.4838 Y-3.9832 Z-0.0925 I-0.0233 J0.
X-9.5162 Y-4.0168 I-0.0162 J-0.0168
X-9.4838 Y-3.9832 I0.0162 J0.0168
X-9.5003 Y-3.9835 I-0.0081 J-0.0084
G1 X-9.5055 Y-3.9889
X-9.5075 Y-3.991 Z-0.0922
X-9.5095 Y-3.993 Z-0.0914
X-9.5113 Y-3.9949 Z-0.09
X-9.5128 Y-3.9965 Z-0.0881
X-9.5141 Y-3.9979 Z-0.0859
X-9.5151 Y-3.9989 Z-0.0833
X-9.5157 Y-3.9995 Z-0.0805
X-9.5159 Y-3.9997 Z-0.0776
G0 Z0.4
X-9.4892 Y-1.9883
Z0.0783
G1 Z0.0133 F40.
G18 G3 X-9.5042 Z-0.0017 I-0.0149 K0.
G1 X-9.5117
G17 G3 X-9.5233 Y-2. I0. J-0.0116
X-9.4767 Z-0.019 I0.0233 J0.
X-9.5233 Z-0.0362 I-0.0233 J0.
X-9.4767 Z-0.0535 I0.0233 J0.
X-9.5233 Z-0.0708 I-0.0233 J0.
X-9.4767 Z-0.0881 I0.0233 J0.
X-9.4838 Y-1.9832 Z-0.0925 I-0.0233 J0.
X-9.5162 Y-2.0168 I-0.0162 J-0.0168
X-9.4838 Y-1.9832 I0.0162 J0.0168
X-9.5003 Y-1.9835 I-0.0081 J-0.0084
G1 X-9.5055 Y-1.9889
X-9.5075 Y-1.991 Z-0.0922
X-9.5095 Y-1.993 Z-0.0914
X-9.5113 Y-1.9949 Z-0.09
X-9.5128 Y-1.9965 Z-0.0881
X-9.5141 Y-1.9979 Z-0.0859
X-9.5151 Y-1.9989 Z-0.0833
X-9.5157 Y-1.9995 Z-0.0805
X-9.5159 Y-1.9997 Z-0.0776
G0 Z0.4
X-9.4892 Y0.0117
Z0.0783
G1 Z0.0133 F40.
G18 G3 X-9.5042 Z-0.0017 I-0.0149 K0.
G1 X-9.5117
G17 G3 X-9.5233 Y0. I0. J-0.0117
X-9.4767 Z-0.019 I0.0233 J0.
X-9.5233 Z-0.0362 I-0.0233 J0.
X-9.4767 Z-0.0535 I0.0233 J0.
X-9.5233 Z-0.0708 I-0.0233 J0.
X-9.4767 Z-0.0881 I0.0233 J0.
X-9.4838 Y0.0168 Z-0.0925 I-0.0233 J0.
X-9.5162 Y-0.0168 I-0.0162 J-0.0168
X-9.4838 Y0.0168 I0.0162 J0.0168
X-9.5003 Y0.0165 I-0.0081 J-0.0084
G1 X-9.5055 Y0.0111
X-9.5075 Y0.009 Z-0.0922
X-9.5095 Y0.007 Z-0.0914
X-9.5113 Y0.0051 Z-0.09
X-9.5128 Y0.0035 Z-0.0881
X-9.5141 Y0.0021 Z-0.0859
X-9.5151 Y0.0011 Z-0.0833
X-9.5157 Y0.0005 Z-0.0805
X-9.5159 Y0.0003 Z-0.0776
G0 Z0.4
X-9.4892 Y2.0116
Z0.0783
G1 Z0.0133 F40.
G18 G3 X-9.5042 Z-0.0017 I-0.0149 K0.
G1 X-9.5117
G17 G3 X-9.5233 Y2. I0. J-0.0116
X-9.4767 Z-0.019 I0.0233 J0.
X-9.5233 Z-0.0362 I-0.0233 J0.
X-9.4767 Z-0.0535 I0.0233 J0.
X-9.5233 Z-0.0708 I-0.0233 J0.
X-9.4767 Z-0.0881 I0.0233 J0.
X-9.4838 Y2.0168 Z-0.0925 I-0.0233 J0.
X-9.5162 Y1.9832 I-0.0162 J-0.0168
X-9.4838 Y2.0168 I0.0162 J0.0168
X-9.5003 Y2.0165 I-0.0081 J-0.0084
G1 X-9.5055 Y2.0111
X-9.5075 Y2.009 Z-0.0922
X-9.5095 Y2.007 Z-0.0914
X-9.5113 Y2.0051 Z-0.09
X-9.5128 Y2.0035 Z-0.0881
X-9.5141 Y2.0021 Z-0.0859
X-9.5151 Y2.0011 Z-0.0833
X-9.5157 Y2.0005 Z-0.0805
X-9.5159 Y2.0003 Z-0.0776
G0 Z0.4
X-9.4892 Y4.0117
Z0.0783
G1 Z0.0133 F40.
G18 G3 X-9.5042 Z-0.0017 I-0.0149 K0.
G1 X-9.5117
G17 G3 X-9.5233 Y4. I0. J-0.0117
X-9.4767 Z-0.019 I0.0233 J0.
X-9.5233 Z-0.0362 I-0.0233 J0.
X-9.4767 Z-0.0535 I0.0233 J0.
X-9.5233 Z-0.0708 I-0.0233 J0.
X-9.4767 Z-0.0881 I0.0233 J0.
X-9.4838 Y4.0168 Z-0.0925 I-0.0233 J0.
X-9.5162 Y3.9832 I-0.0162 J-0.0168
X-9.4838 Y4.0168 I0.0162 J0.0168
X-9.5003 Y4.0165 I-0.0081 J-0.0084
G1 X-9.5055 Y4.0111
X-9.5075 Y4.009 Z-0.0922
X-9.5095 Y4.007 Z-0.0914
X-9.5113 Y4.0051 Z-0.09
X-9.5128 Y4.0035 Z-0.0881
X-9.5141 Y4.0021 Z-0.0859
X-9.5151 Y4.0011 Z-0.0833
X-9.5157 Y4.0005 Z-0.0805
X-9.5159 Y4.0003 Z-0.0776
G0 Z0.4
X-9.4892 Y6.0116
Z0.0783
G1 Z0.0133 F40.
G18 G3 X-9.5042 Z-0.0017 I-0.0149 K0.
G1 X-9.5117
G17 G3 X-9.5233 Y6. I0. J-0.0117
X-9.4767 Z-0.019 I0.0233 J0.
X-9.5233 Z-0.0362 I-0.0233 J0.
X-9.4767 Z-0.0535 I0.0233 J0.
X-9.5233 Z-0.0708 I-0.0233 J0.
X-9.4767 Z-0.0881 I0.0233 J0.
X-9.4838 Y6.0168 Z-0.0925 I-0.0233 J0.
X-9.5162 Y5.9832 I-0.0162 J-0.0168
X-9.4838 Y6.0168 I0.0162 J0.0168
X-9.5003 Y6.0165 I-0.0081 J-0.0084
G1 X-9.5055 Y6.0111
X-9.5075 Y6.009 Z-0.0922
X-9.5095 Y6.007 Z-0.0914
X-9.5113 Y6.0051 Z-0.09
X-9.5128 Y6.0035 Z-0.0881
X-9.5141 Y6.0021 Z-0.0859
X-9.5151 Y6.0011 Z-0.0833
X-9.5157 Y6.0005 Z-0.0805
X-9.5159 Y6.0003 Z-0.0776
G0 Z0.4
X-14.6142 Y9.0116
Z0.0783
G1 Z0.0133 F40.
G18 G3 X-14.6292 Z-0.0017 I-0.0149 K0.
G1 X-14.6366
G17 G3 X-14.6483 Y9. I0. J-0.0116
X-14.6017 Z-0.019 I0.0233 J0.
X-14.6483 Z-0.0362 I-0.0233 J0.
X-14.6017 Z-0.0535 I0.0233 J0.
X-14.6483 Z-0.0708 I-0.0233 J0.
X-14.6017 Z-0.0881 I0.0233 J0.
X-14.6088 Y9.0168 Z-0.0925 I-0.0233 J0.
X-14.6412 Y8.9832 I-0.0162 J-0.0168
X-14.6088 Y9.0168 I0.0162 J0.0168
X-14.6253 Y9.0165 I-0.0081 J-0.0084
G1 X-14.6305 Y9.0111
X-14.6325 Y9.009 Z-0.0922
X-14.6345 Y9.007 Z-0.0914
X-14.6363 Y9.0051 Z-0.09
X-14.6378 Y9.0035 Z-0.0881
X-14.6391 Y9.0021 Z-0.0859
X-14.6401 Y9.0011 Z-0.0833
X-14.6407 Y9.0005 Z-0.0805
X-14.6409 Y9.0003 Z-0.0776
G0 Z0.4
X-15.2392 Y8.2617
Z0.0783
G1 Z0.0133 F40.
G18 G3 X-15.2542 Z-0.0017 I-0.0149 K0.
G1 X-15.2616
G17 G3 X-15.2733 Y8.25 I0. J-0.0117
X-15.2267 Z-0.019 I0.0233 J0.
X-15.2733 Z-0.0362 I-0.0233 J0.
X-15.2267 Z-0.0535 I0.0233 J0.
X-15.2733 Z-0.0708 I-0.0233 J0.
X-15.2267 Z-0.0881 I0.0233 J0.
X-15.2338 Y8.2668 Z-0.0925 I-0.0233 J0.
X-15.2662 Y8.2332 I-0.0162 J-0.0168
X-15.2338 Y8.2668 I0.0162 J0.0168
X-15.2503 Y8.2665 I-0.0081 J-0.0084
G1 X-15.2555 Y8.2611
X-15.2575 Y8.259 Z-0.0922
X-15.2595 Y8.257 Z-0.0914
X-15.2613 Y8.2551 Z-0.09
X-15.2628 Y8.2535 Z-0.0881
X-15.2641 Y8.2521 Z-0.0859
X-15.2651 Y8.2511 Z-0.0833
X-15.2657 Y8.2505 Z-0.0805
X-15.2659 Y8.2503 Z-0.0776
G0 Z0.4
X-15.2392 Y7.5117
Z0.0783
G1 Z0.0133 F40.
G18 G3 X-15.2542 Z-0.0017 I-0.0149 K0.
G1 X-15.2616
G17 G3 X-15.2733 Y7.5 I0. J-0.0117
X-15.2267 Z-0.019 I0.0233 J0.
X-15.2733 Z-0.0362 I-0.0233 J0.
X-15.2267 Z-0.0535 I0.0233 J0.
X-15.2733 Z-0.0708 I-0.0233 J0.
X-15.2267 Z-0.0881 I0.0233 J0.
X-15.2338 Y7.5168 Z-0.0925 I-0.0233 J0.
X-15.2662 Y7.4832 I-0.0162 J-0.0168
X-15.2338 Y7.5168 I0.0162 J0.0168
X-15.2503 Y7.5165 I-0.0081 J-0.0084
G1 X-15.2555 Y7.5111
X-15.2575 Y7.509 Z-0.0922
X-15.2595 Y7.507 Z-0.0914
X-15.2613 Y7.5051 Z-0.09
X-15.2628 Y7.5035 Z-0.0881
X-15.2641 Y7.5021 Z-0.0859
X-15.2651 Y7.5011 Z-0.0833
X-15.2657 Y7.5005 Z-0.0805
X-15.2659 Y7.5003 Z-0.0776
G0 Z0.4
X-15.2392 Y6.7617
Z0.0783
G1 Z0.0133 F40.
G18 G3 X-15.2542 Z-0.0017 I-0.0149 K0.
G1 X-15.2616
G17 G3 X-15.2733 Y6.75 I0. J-0.0117
X-15.2267 Z-0.019 I0.0233 J0.
X-15.2733 Z-0.0362 I-0.0233 J0.
X-15.2267 Z-0.0535 I0.0233 J0.
X-15.2733 Z-0.0708 I-0.0233 J0.
X-15.2267 Z-0.0881 I0.0233 J0.
X-15.2338 Y6.7668 Z-0.0925 I-0.0233 J0.
X-15.2662 Y6.7332 I-0.0162 J-0.0168
X-15.2338 Y6.7668 I0.0162 J0.0168
X-15.2503 Y6.7665 I-0.0081 J-0.0084
G1 X-15.2555 Y6.7611
X-15.2575 Y6.759 Z-0.0922
X-15.2595 Y6.757 Z-0.0914
X-15.2613 Y6.7551 Z-0.09
X-15.2628 Y6.7535 Z-0.0881
X-15.2641 Y6.7521 Z-0.0859
X-15.2651 Y6.7511 Z-0.0833
X-15.2657 Y6.7505 Z-0.0805
X-15.2659 Y6.7503 Z-0.0776
G0 Z0.4
X-15.2392 Y6.0116
Z0.0783
G1 Z0.0133 F40.
G18 G3 X-15.2542 Z-0.0017 I-0.0149 K0.
G1 X-15.2616
G17 G3 X-15.2733 Y6. I0. J-0.0117
X-15.2267 Z-0.019 I0.0233 J0.
X-15.2733 Z-0.0362 I-0.0233 J0.
X-15.2267 Z-0.0535 I0.0233 J0.
X-15.2733 Z-0.0708 I-0.0233 J0.
X-15.2267 Z-0.0881 I0.0233 J0.
X-15.2338 Y6.0168 Z-0.0925 I-0.0233 J0.
X-15.2662 Y5.9832 I-0.0162 J-0.0168
X-15.2338 Y6.0168 I0.0162 J0.0168
X-15.2503 Y6.0165 I-0.0081 J-0.0084
G1 X-15.2555 Y6.0111
X-15.2575 Y6.009 Z-0.0922
X-15.2595 Y6.007 Z-0.0914
X-15.2613 Y6.0051 Z-0.09
X-15.2628 Y6.0035 Z-0.0881
X-15.2641 Y6.0021 Z-0.0859
X-15.2651 Y6.0011 Z-0.0833
X-15.2657 Y6.0005 Z-0.0805
X-15.2659 Y6.0003 Z-0.0776
G0 Z0.4
X-15.2392 Y5.2616
Z0.0783
G1 Z0.0133 F40.
G18 G3 X-15.2542 Z-0.0017 I-0.0149 K0.
G1 X-15.2616
G17 G3 X-15.2733 Y5.25 I0. J-0.0116
X-15.2267 Z-0.019 I0.0233 J0.
X-15.2733 Z-0.0362 I-0.0233 J0.
X-15.2267 Z-0.0535 I0.0233 J0.
X-15.2733 Z-0.0708 I-0.0233 J0.
X-15.2267 Z-0.0881 I0.0233 J0.
X-15.2338 Y5.2668 Z-0.0925 I-0.0233 J0.
X-15.2662 Y5.2332 I-0.0162 J-0.0168
X-15.2338 Y5.2668 I0.0162 J0.0168
X-15.2503 Y5.2665 I-0.0081 J-0.0084
G1 X-15.2555 Y5.2611
X-15.2575 Y5.259 Z-0.0922
X-15.2595 Y5.257 Z-0.0914
X-15.2613 Y5.2551 Z-0.09
X-15.2628 Y5.2535 Z-0.0881
X-15.2641 Y5.2521 Z-0.0859
X-15.2651 Y5.2511 Z-0.0833
X-15.2657 Y5.2505 Z-0.0805
X-15.2659 Y5.2503 Z-0.0776
G0 Z0.4
X-15.2392 Y4.5116
Z0.0783
G1 Z0.0133 F40.
G18 G3 X-15.2542 Z-0.0017 I-0.0149 K0.
G1 X-15.2616
G17 G3 X-15.2733 Y4.5 I0. J-0.0116
X-15.2267 Z-0.019 I0.0233 J0.
X-15.2733 Z-0.0362 I-0.0233 J0.
X-15.2267 Z-0.0535 I0.0233 J0.
X-15.2733 Z-0.0708 I-0.0233 J0.
X-15.2267 Z-0.0881 I0.0233 J0.
X-15.2338 Y4.5168 Z-0.0925 I-0.0233 J0.
X-15.2662 Y4.4832 I-0.0162 J-0.0168
X-15.2338 Y4.5168 I0.0162 J0.0168
X-15.2503 Y4.5165 I-0.0081 J-0.0084
G1 X-15.2555 Y4.5111
X-15.2575 Y4.509 Z-0.0922
X-15.2595 Y4.507 Z-0.0914
X-15.2613 Y4.5051 Z-0.09
X-15.2628 Y4.5035 Z-0.0881
X-15.2641 Y4.5021 Z-0.0859
X-15.2651 Y4.5011 Z-0.0833
X-15.2657 Y4.5005 Z-0.0805
X-15.2659 Y4.5003 Z-0.0776
G0 Z0.4
X-15.2392 Y3.7617
Z0.0783
G1 Z0.0133 F40.
G18 G3 X-15.2542 Z-0.0017 I-0.0149 K0.
G1 X-15.2616
G17 G3 X-15.2733 Y3.75 I0. J-0.0117
X-15.2267 Z-0.019 I0.0233 J0.
X-15.2733 Z-0.0362 I-0.0233 J0.
X-15.2267 Z-0.0535 I0.0233 J0.
X-15.2733 Z-0.0708 I-0.0233 J0.
X-15.2267 Z-0.0881 I0.0233 J0.
X-15.2338 Y3.7668 Z-0.0925 I-0.0233 J0.
X-15.2662 Y3.7332 I-0.0162 J-0.0168
X-15.2338 Y3.7668 I0.0162 J0.0168
X-15.2503 Y3.7665 I-0.0081 J-0.0084
G1 X-15.2555 Y3.7611
X-15.2575 Y3.759 Z-0.0922
X-15.2595 Y3.757 Z-0.0914
X-15.2613 Y3.7551 Z-0.09
X-15.2628 Y3.7535 Z-0.0881
X-15.2641 Y3.7521 Z-0.0859
X-15.2651 Y3.7511 Z-0.0833
X-15.2657 Y3.7505 Z-0.0805
X-15.2659 Y3.7503 Z-0.0776
G0 Z0.4
X-15.2392 Y3.0117
Z0.0783
G1 Z0.0133 F40.
G18 G3 X-15.2542 Z-0.0017 I-0.0149 K0.
G1 X-15.2616
G17 G3 X-15.2733 Y3. I0. J-0.0117
X-15.2267 Z-0.019 I0.0233 J0.
X-15.2733 Z-0.0362 I-0.0233 J0.
X-15.2267 Z-0.0535 I0.0233 J0.
X-15.2733 Z-0.0708 I-0.0233 J0.
X-15.2267 Z-0.0881 I0.0233 J0.
X-15.2338 Y3.0168 Z-0.0925 I-0.0233 J0.
X-15.2662 Y2.9832 I-0.0162 J-0.0168
X-15.2338 Y3.0168 I0.0162 J0.0168
X-15.2503 Y3.0165 I-0.0081 J-0.0084
G1 X-15.2555 Y3.0111
X-15.2575 Y3.009 Z-0.0922
X-15.2595 Y3.007 Z-0.0914
X-15.2613 Y3.0051 Z-0.09
X-15.2628 Y3.0035 Z-0.0881
X-15.2641 Y3.0021 Z-0.0859
X-15.2651 Y3.0011 Z-0.0833
X-15.2657 Y3.0005 Z-0.0805
X-15.2659 Y3.0003 Z-0.0776
G0 Z0.4
X-15.2392 Y2.2617
Z0.0783
G1 Z0.0133 F40.
G18 G3 X-15.2542 Z-0.0017 I-0.0149 K0.
G1 X-15.2616
G17 G3 X-15.2733 Y2.25 I0. J-0.0116
X-15.2267 Z-0.019 I0.0233 J0.
X-15.2733 Z-0.0362 I-0.0233 J0.
X-15.2267 Z-0.0535 I0.0233 J0.
X-15.2733 Z-0.0708 I-0.0233 J0.
X-15.2267 Z-0.0881 I0.0233 J0.
X-15.2338 Y2.2668 Z-0.0925 I-0.0233 J0.
X-15.2662 Y2.2332 I-0.0162 J-0.0168
X-15.2338 Y2.2668 I0.0162 J0.0168
X-15.2503 Y2.2665 I-0.0081 J-0.0084
G1 X-15.2555 Y2.2611
X-15.2575 Y2.259 Z-0.0922
X-15.2595 Y2.257 Z-0.0914
X-15.2613 Y2.2551 Z-0.09
X-15.2628 Y2.2535 Z-0.0881
X-15.2641 Y2.2521 Z-0.0859
X-15.2651 Y2.2511 Z-0.0833
X-15.2657 Y2.2505 Z-0.0805
X-15.2659 Y2.2503 Z-0.0776
G0 Z0.4
X-15.2392 Y1.5116
Z0.0783
G1 Z0.0133 F40.
G18 G3 X-15.2542 Z-0.0017 I-0.0149 K0.
G1 X-15.2616
G17 G3 X-15.2733 Y1.5 I0. J-0.0116
X-15.2267 Z-0.019 I0.0233 J0.
X-15.2733 Z-0.0362 I-0.0233 J0.
X-15.2267 Z-0.0535 I0.0233 J0.
X-15.2733 Z-0.0708 I-0.0233 J0.
X-15.2267 Z-0.0881 I0.0233 J0.
X-15.2338 Y1.5168 Z-0.0925 I-0.0233 J0.
X-15.2662 Y1.4832 I-0.0162 J-0.0168
X-15.2338 Y1.5168 I0.0162 J0.0168
X-15.2503 Y1.5165 I-0.0081 J-0.0084
G1 X-15.2555 Y1.5111
X-15.2575 Y1.509 Z-0.0922
X-15.2595 Y1.507 Z-0.0914
X-15.2613 Y1.5051 Z-0.09
X-15.2628 Y1.5035 Z-0.0881
X-15.2641 Y1.5021 Z-0.0859
X-15.2651 Y1.5011 Z-0.0833
X-15.2657 Y1.5005 Z-0.0805
X-15.2659 Y1.5003 Z-0.0776
G0 Z0.4
X-15.2392 Y0.7616
Z0.0783
G1 Z0.0133 F40.
G18 G3 X-15.2542 Z-0.0017 I-0.0149 K0.
G1 X-15.2616
G17 G3 X-15.2733 Y0.75 I0. J-0.0116
X-15.2267 Z-0.019 I0.0233 J0.
X-15.2733 Z-0.0362 I-0.0233 J0.
X-15.2267 Z-0.0535 I0.0233 J0.
X-15.2733 Z-0.0708 I-0.0233 J0.
X-15.2267 Z-0.0881 I0.0233 J0.
X-15.2338 Y0.7668 Z-0.0925 I-0.0233 J0.
X-15.2662 Y0.7332 I-0.0162 J-0.0168
X-15.2338 Y0.7668 I0.0162 J0.0168
X-15.2503 Y0.7665 I-0.0081 J-0.0084
G1 X-15.2555 Y0.7611
X-15.2575 Y0.759 Z-0.0922
X-15.2595 Y0.757 Z-0.0914
X-15.2613 Y0.7551 Z-0.09
X-15.2628 Y0.7535 Z-0.0881
X-15.2641 Y0.7521 Z-0.0859
X-15.2651 Y0.7511 Z-0.0833
X-15.2657 Y0.7505 Z-0.0805
X-15.2659 Y0.7503 Z-0.0776
G0 Z0.4
X-15.2392 Y0.0117
Z0.0783
G1 Z0.0133 F40.
G18 G3 X-15.2542 Z-0.0017 I-0.0149 K0.
G1 X-15.2616
G17 G3 X-15.2733 Y0. I0. J-0.0117
X-15.2267 Z-0.019 I0.0233 J0.
X-15.2733 Z-0.0362 I-0.0233 J0.
X-15.2267 Z-0.0535 I0.0233 J0.
X-15.2733 Z-0.0708 I-0.0233 J0.
X-15.2267 Z-0.0881 I0.0233 J0.
X-15.2338 Y0.0168 Z-0.0925 I-0.0233 J0.
X-15.2662 Y-0.0168 I-0.0162 J-0.0168
X-15.2338 Y0.0168 I0.0162 J0.0168
X-15.2503 Y0.0165 I-0.0081 J-0.0084
G1 X-15.2555 Y0.0111
X-15.2575 Y0.009 Z-0.0922
X-15.2595 Y0.007 Z-0.0914
X-15.2613 Y0.0051 Z-0.09
X-15.2628 Y0.0035 Z-0.0881
X-15.2641 Y0.0021 Z-0.0859
X-15.2651 Y0.0011 Z-0.0833
X-15.2657 Y0.0005 Z-0.0805
X-15.2659 Y0.0003 Z-0.0776
G0 Z0.4
X-15.2392 Y-0.7383
Z0.0783
G1 Z0.0133 F40.
G18 G3 X-15.2542 Z-0.0017 I-0.0149 K0.
G1 X-15.2616
G17 G3 X-15.2733 Y-0.75 I0. J-0.0116
X-15.2267 Z-0.019 I0.0233 J0.
X-15.2733 Z-0.0362 I-0.0233 J0.
X-15.2267 Z-0.0535 I0.0233 J0.
X-15.2733 Z-0.0708 I-0.0233 J0.
X-15.2267 Z-0.0881 I0.0233 J0.
X-15.2338 Y-0.7332 Z-0.0925 I-0.0233 J0.
X-15.2662 Y-0.7668 I-0.0162 J-0.0168
X-15.2338 Y-0.7332 I0.0162 J0.0168
X-15.2503 Y-0.7335 I-0.0081 J-0.0084
G1 X-15.2555 Y-0.7389
X-15.2575 Y-0.741 Z-0.0922
X-15.2595 Y-0.743 Z-0.0914
X-15.2613 Y-0.7449 Z-0.09
X-15.2628 Y-0.7465 Z-0.0881
X-15.2641 Y-0.7479 Z-0.0859
X-15.2651 Y-0.7489 Z-0.0833
X-15.2657 Y-0.7495 Z-0.0805
X-15.2659 Y-0.7497 Z-0.0776
G0 Z0.4
X-15.2392 Y-1.4883
Z0.0783
G1 Z0.0133 F40.
G18 G3 X-15.2542 Z-0.0017 I-0.0149 K0.
G1 X-15.2616
G17 G3 X-15.2733 Y-1.5 I0. J-0.0116
X-15.2267 Z-0.019 I0.0233 J0.
X-15.2733 Z-0.0362 I-0.0233 J0.
X-15.2267 Z-0.0535 I0.0233 J0.
X-15.2733 Z-0.0708 I-0.0233 J0.
X-15.2267 Z-0.0881 I0.0233 J0.
X-15.2338 Y-1.4832 Z-0.0925 I-0.0233 J0.
X-15.2662 Y-1.5168 I-0.0162 J-0.0168
X-15.2338 Y-1.4832 I0.0162 J0.0168
X-15.2503 Y-1.4835 I-0.0081 J-0.0084
G1 X-15.2555 Y-1.4889
X-15.2575 Y-1.491 Z-0.0922
X-15.2595 Y-1.493 Z-0.0914
X-15.2613 Y-1.4949 Z-0.09
X-15.2628 Y-1.4965 Z-0.0881
X-15.2641 Y-1.4979 Z-0.0859
X-15.2651 Y-1.4989 Z-0.0833
X-15.2657 Y-1.4995 Z-0.0805
X-15.2659 Y-1.4997 Z-0.0776
G0 Z0.4
X-15.2392 Y-2.2384
Z0.0783
G1 Z0.0133 F40.
G18 G3 X-15.2542 Z-0.0017 I-0.0149 K0.
G1 X-15.2616
G17 G3 X-15.2733 Y-2.25 I0. J-0.0116
X-15.2267 Z-0.019 I0.0233 J0.
X-15.2733 Z-0.0362 I-0.0233 J0.
X-15.2267 Z-0.0535 I0.0233 J0.
X-15.2733 Z-0.0708 I-0.0233 J0.
X-15.2267 Z-0.0881 I0.0233 J0.
X-15.2338 Y-2.2332 Z-0.0925 I-0.0233 J0.
X-15.2662 Y-2.2668 I-0.0162 J-0.0168
X-15.2338 Y-2.2332 I0.0162 J0.0168
X-15.2503 Y-2.2335 I-0.0081 J-0.0084
G1 X-15.2555 Y-2.2389
X-15.2575 Y-2.241 Z-0.0922
X-15.2595 Y-2.243 Z-0.0914
X-15.2613 Y-2.2449 Z-0.09
X-15.2628 Y-2.2465 Z-0.0881
X-15.2641 Y-2.2479 Z-0.0859
X-15.2651 Y-2.2489 Z-0.0833
X-15.2657 Y-2.2495 Z-0.0805
X-15.2659 Y-2.2497 Z-0.0776
G0 Z0.4
X-15.2392 Y-2.9884
Z0.0783
G1 Z0.0133 F40.
G18 G3 X-15.2542 Z-0.0017 I-0.0149 K0.
G1 X-15.2616
G17 G3 X-15.2733 Y-3. I0. J-0.0116
X-15.2267 Z-0.019 I0.0233 J0.
X-15.2733 Z-0.0362 I-0.0233 J0.
X-15.2267 Z-0.0535 I0.0233 J0.
X-15.2733 Z-0.0708 I-0.0233 J0.
X-15.2267 Z-0.0881 I0.0233 J0.
X-15.2338 Y-2.9832 Z-0.0925 I-0.0233 J0.
X-15.2662 Y-3.0168 I-0.0162 J-0.0168
X-15.2338 Y-2.9832 I0.0162 J0.0168
X-15.2503 Y-2.9835 I-0.0081 J-0.0084
G1 X-15.2555 Y-2.9889
X-15.2575 Y-2.991 Z-0.0922
X-15.2595 Y-2.993 Z-0.0914
X-15.2613 Y-2.9949 Z-0.09
X-15.2628 Y-2.9965 Z-0.0881
X-15.2641 Y-2.9979 Z-0.0859
X-15.2651 Y-2.9989 Z-0.0833
X-15.2657 Y-2.9995 Z-0.0805
X-15.2659 Y-2.9997 Z-0.0776
G0 Z0.4
X-15.2392 Y-3.7383
Z0.0783
G1 Z0.0133 F40.
G18 G3 X-15.2542 Z-0.0017 I-0.0149 K0.
G1 X-15.2616
G17 G3 X-15.2733 Y-3.75 I0. J-0.0117
X-15.2267 Z-0.019 I0.0233 J0.
X-15.2733 Z-0.0362 I-0.0233 J0.
X-15.2267 Z-0.0535 I0.0233 J0.
X-15.2733 Z-0.0708 I-0.0233 J0.
X-15.2267 Z-0.0881 I0.0233 J0.
X-15.2338 Y-3.7332 Z-0.0925 I-0.0233 J0.
X-15.2662 Y-3.7668 I-0.0162 J-0.0168
X-15.2338 Y-3.7332 I0.0162 J0.0168
X-15.2503 Y-3.7335 I-0.0081 J-0.0084
G1 X-15.2555 Y-3.7389
X-15.2575 Y-3.741 Z-0.0922
X-15.2595 Y-3.743 Z-0.0914
X-15.2613 Y-3.7449 Z-0.09
X-15.2628 Y-3.7465 Z-0.0881
X-15.2641 Y-3.7479 Z-0.0859
X-15.2651 Y-3.7489 Z-0.0833
X-15.2657 Y-3.7495 Z-0.0805
X-15.2659 Y-3.7497 Z-0.0776
G0 Z0.4
X-15.2392 Y-4.4883
Z0.0783
G1 Z0.0133 F40.
G18 G3 X-15.2542 Z-0.0017 I-0.0149 K0.
G1 X-15.2616
G17 G3 X-15.2733 Y-4.5 I0. J-0.0117
X-15.2267 Z-0.019 I0.0233 J0.
X-15.2733 Z-0.0362 I-0.0233 J0.
X-15.2267 Z-0.0535 I0.0233 J0.
X-15.2733 Z-0.0708 I-0.0233 J0.
X-15.2267 Z-0.0881 I0.0233 J0.
X-15.2338 Y-4.4832 Z-0.0925 I-0.0233 J0.
X-15.2662 Y-4.5168 I-0.0162 J-0.0168
X-15.2338 Y-4.4832 I0.0162 J0.0168
X-15.2503 Y-4.4835 I-0.0081 J-0.0084
G1 X-15.2555 Y-4.4889
X-15.2575 Y-4.491 Z-0.0922
X-15.2595 Y-4.493 Z-0.0914
X-15.2613 Y-4.4949 Z-0.09
X-15.2628 Y-4.4965 Z-0.0881
X-15.2641 Y-4.4979 Z-0.0859
X-15.2651 Y-4.4989 Z-0.0833
X-15.2657 Y-4.4995 Z-0.0805
X-15.2659 Y-4.4997 Z-0.0776
G0 Z0.4
X-15.2392 Y-5.2384
Z0.0783
G1 Z0.0133 F40.
G18 G3 X-15.2542 Z-0.0017 I-0.0149 K0.
G1 X-15.2616
G17 G3 X-15.2733 Y-5.25 I0. J-0.0117
X-15.2267 Z-0.019 I0.0233 J0.
X-15.2733 Z-0.0362 I-0.0233 J0.
X-15.2267 Z-0.0535 I0.0233 J0.
X-15.2733 Z-0.0708 I-0.0233 J0.
X-15.2267 Z-0.0881 I0.0233 J0.
X-15.2338 Y-5.2332 Z-0.0925 I-0.0233 J0.
X-15.2662 Y-5.2668 I-0.0162 J-0.0168
X-15.2338 Y-5.2332 I0.0162 J0.0168
X-15.2503 Y-5.2335 I-0.0081 J-0.0084
G1 X-15.2555 Y-5.2389
X-15.2575 Y-5.241 Z-0.0922
X-15.2595 Y-5.243 Z-0.0914
X-15.2613 Y-5.2449 Z-0.09
X-15.2628 Y-5.2465 Z-0.0881
X-15.2641 Y-5.2479 Z-0.0859
X-15.2651 Y-5.2489 Z-0.0833
X-15.2657 Y-5.2495 Z-0.0805
X-15.2659 Y-5.2497 Z-0.0776
G0 Z0.4
X-15.2392 Y-5.9884
Z0.0783
G1 Z0.0133 F40.
G18 G3 X-15.2542 Z-0.0017 I-0.0149 K0.
G1 X-15.2616
G17 G3 X-15.2733 Y-6. I0. J-0.0116
X-15.2267 Z-0.019 I0.0233 J0.
X-15.2733 Z-0.0362 I-0.0233 J0.
X-15.2267 Z-0.0535 I0.0233 J0.
X-15.2733 Z-0.0708 I-0.0233 J0.
X-15.2267 Z-0.0881 I0.0233 J0.
X-15.2338 Y-5.9832 Z-0.0925 I-0.0233 J0.
X-15.2662 Y-6.0168 I-0.0162 J-0.0168
X-15.2338 Y-5.9832 I0.0162 J0.0168
X-15.2503 Y-5.9835 I-0.0081 J-0.0084
G1 X-15.2555 Y-5.9889
X-15.2575 Y-5.991 Z-0.0922
X-15.2595 Y-5.993 Z-0.0914
X-15.2613 Y-5.9949 Z-0.09
X-15.2628 Y-5.9965 Z-0.0881
X-15.2641 Y-5.9979 Z-0.0859
X-15.2651 Y-5.9989 Z-0.0833
X-15.2657 Y-5.9995 Z-0.0805
X-15.2659 Y-5.9997 Z-0.0776
G0 Z0.4
X-15.2392 Y-6.7383
Z0.0783
G1 Z0.0133 F40.
G18 G3 X-15.2542 Z-0.0017 I-0.0149 K0.
G1 X-15.2616
G17 G3 X-15.2733 Y-6.75 I0. J-0.0117
X-15.2267 Z-0.019 I0.0233 J0.
X-15.2733 Z-0.0362 I-0.0233 J0.
X-15.2267 Z-0.0535 I0.0233 J0.
X-15.2733 Z-0.0708 I-0.0233 J0.
X-15.2267 Z-0.0881 I0.0233 J0.
X-15.2338 Y-6.7332 Z-0.0925 I-0.0233 J0.
X-15.2662 Y-6.7668 I-0.0162 J-0.0168
X-15.2338 Y-6.7332 I0.0162 J0.0168
X-15.2503 Y-6.7335 I-0.0081 J-0.0084
G1 X-15.2555 Y-6.7389
X-15.2575 Y-6.741 Z-0.0922
X-15.2595 Y-6.743 Z-0.0914
X-15.2613 Y-6.7449 Z-0.09
X-15.2628 Y-6.7465 Z-0.0881
X-15.2641 Y-6.7479 Z-0.0859
X-15.2651 Y-6.7489 Z-0.0833
X-15.2657 Y-6.7495 Z-0.0805
X-15.2659 Y-6.7497 Z-0.0776
G0 Z0.4
X-15.2392 Y-7.4883
Z0.0783
G1 Z0.0133 F40.
G18 G3 X-15.2542 Z-0.0017 I-0.0149 K0.
G1 X-15.2616
G17 G3 X-15.2733 Y-7.5 I0. J-0.0117
X-15.2267 Z-0.019 I0.0233 J0.
X-15.2733 Z-0.0362 I-0.0233 J0.
X-15.2267 Z-0.0535 I0.0233 J0.
X-15.2733 Z-0.0708 I-0.0233 J0.
X-15.2267 Z-0.0881 I0.0233 J0.
X-15.2338 Y-7.4832 Z-0.0925 I-0.0233 J0.
X-15.2662 Y-7.5168 I-0.0162 J-0.0168
X-15.2338 Y-7.4832 I0.0162 J0.0168
X-15.2503 Y-7.4835 I-0.0081 J-0.0084
G1 X-15.2555 Y-7.4889
X-15.2575 Y-7.491 Z-0.0922
X-15.2595 Y-7.493 Z-0.0914
X-15.2613 Y-7.4949 Z-0.09
X-15.2628 Y-7.4965 Z-0.0881
X-15.2641 Y-7.4979 Z-0.0859
X-15.2651 Y-7.4989 Z-0.0833
X-15.2657 Y-7.4995 Z-0.0805
X-15.2659 Y-7.4997 Z-0.0776
G0 Z0.4
X-15.2392 Y-8.2383
Z0.0783
G1 Z0.0133 F40.
G18 G3 X-15.2542 Z-0.0017 I-0.0149 K0.
G1 X-15.2616
G17 G3 X-15.2733 Y-8.25 I0. J-0.0117
X-15.2267 Z-0.019 I0.0233 J0.
X-15.2733 Z-0.0362 I-0.0233 J0.
X-15.2267 Z-0.0535 I0.0233 J0.
X-15.2733 Z-0.0708 I-0.0233 J0.
X-15.2267 Z-0.0881 I0.0233 J0.
X-15.2338 Y-8.2332 Z-0.0925 I-0.0233 J0.
X-15.2662 Y-8.2668 I-0.0162 J-0.0168
X-15.2338 Y-8.2332 I0.0162 J0.0168
X-15.2503 Y-8.2335 I-0.0081 J-0.0084
G1 X-15.2555 Y-8.2389
X-15.2575 Y-8.241 Z-0.0922
X-15.2595 Y-8.243 Z-0.0914
X-15.2613 Y-8.2449 Z-0.09
X-15.2628 Y-8.2465 Z-0.0881
X-15.2641 Y-8.2479 Z-0.0859
X-15.2651 Y-8.2489 Z-0.0833
X-15.2657 Y-8.2495 Z-0.0805
X-15.2659 Y-8.2497 Z-0.0776
G0 Z0.4
X-14.6142 Y-8.9884
Z0.0783
G1 Z0.0133 F40.
G18 G3 X-14.6292 Z-0.0017 I-0.0149 K0.
G1 X-14.6366
G17 G3 X-14.6483 Y-9. I0. J-0.0117
X-14.6017 Z-0.019 I0.0233 J0.
X-14.6483 Z-0.0362 I-0.0233 J0.
X-14.6017 Z-0.0535 I0.0233 J0.
X-14.6483 Z-0.0708 I-0.0233 J0.
X-14.6017 Z-0.0881 I0.0233 J0.
X-14.6088 Y-8.9832 Z-0.0925 I-0.0233 J0.
X-14.6412 Y-9.0168 I-0.0162 J-0.0168
X-14.6088 Y-8.9832 I0.0162 J0.0168
X-14.6253 Y-8.9835 I-0.0081 J-0.0084
G1 X-14.6305 Y-8.9889
X-14.6325 Y-8.991 Z-0.0922
X-14.6345 Y-8.993 Z-0.0914
X-14.6363 Y-8.9949 Z-0.09
X-14.6378 Y-8.9965 Z-0.0881
X-14.6391 Y-8.9979 Z-0.0859
X-14.6401 Y-8.9989 Z-0.0833
X-14.6407 Y-8.9995 Z-0.0805
X-14.6409 Y-8.9997 Z-0.0776
G0 Z0.4
X-10.8858 Y-9.0116
Z0.0783
G1 Z0.0133 F40.
G18 G2 X-10.8708 Z-0.0017 I0.0149 K0.
G1 X-10.8633
G17 G3 X-10.8517 Y-9. I0. J0.0116
X-10.8983 Z-0.019 I-0.0233 J0.
X-10.8517 Z-0.0362 I0.0233 J0.
X-10.8983 Z-0.0535 I-0.0233 J0.
X-10.8517 Z-0.0708 I0.0233 J0.
X-10.8983 Z-0.0881 I-0.0233 J0.
X-10.8912 Y-9.0168 Z-0.0925 I0.0233 J0.
X-10.8588 Y-8.9832 I0.0162 J0.0168
X-10.8912 Y-9.0168 I-0.0162 J-0.0168
X-10.8747 Y-9.0165 I0.0081 J0.0084
G1 X-10.8695 Y-9.0111
X-10.8675 Y-9.009 Z-0.0922
X-10.8655 Y-9.007 Z-0.0914
X-10.8637 Y-9.0051 Z-0.09
X-10.8622 Y-9.0035 Z-0.0881
X-10.8609 Y-9.0021 Z-0.0859
X-10.8599 Y-9.0011 Z-0.0833
X-10.8593 Y-9.0005 Z-0.0805
X-10.8591 Y-9.0003 Z-0.0776
G0 Z0.4
X-10.1142 Y-8.9884
Z0.0783
G1 Z0.0133 F40.
G18 G3 X-10.1292 Z-0.0017 I-0.0149 K0.
G1 X-10.1367
G17 G3 X-10.1483 Y-9. I0. J-0.0117
X-10.1017 Z-0.019 I0.0233 J0.
X-10.1483 Z-0.0362 I-0.0233 J0.
X-10.1017 Z-0.0535 I0.0233 J0.
X-10.1483 Z-0.0708 I-0.0233 J0.
X-10.1017 Z-0.0881 I0.0233 J0.
X-10.1088 Y-8.9832 Z-0.0925 I-0.0233 J0.
X-10.1412 Y-9.0168 I-0.0162 J-0.0168
X-10.1088 Y-8.9832 I0.0162 J0.0168
X-10.1253 Y-8.9835 I-0.0081 J-0.0084
G1 X-10.1305 Y-8.9889
X-10.1325 Y-8.991 Z-0.0922
X-10.1345 Y-8.993 Z-0.0914
X-10.1363 Y-8.9949 Z-0.09
X-10.1378 Y-8.9965 Z-0.0881
X-10.1391 Y-8.9979 Z-0.0859
X-10.1401 Y-8.9989 Z-0.0833
X-10.1407 Y-8.9995 Z-0.0805
X-10.1409 Y-8.9997 Z-0.0776
G0 Z0.4
X-5.6142 Y-8.9884
Z0.0783
G1 Z0.0133 F40.
G18 G3 X-5.6292 Z-0.0017 I-0.0149 K0.
G1 X-5.6367
G17 G3 X-5.6483 Y-9. I0. J-0.0117
X-5.6017 Z-0.019 I0.0233 J0.
X-5.6483 Z-0.0362 I-0.0233 J0.
X-5.6017 Z-0.0535 I0.0233 J0.
X-5.6483 Z-0.0708 I-0.0233 J0.
X-5.6017 Z-0.0881 I0.0233 J0.
X-5.6088 Y-8.9832 Z-0.0925 I-0.0233 J0.
X-5.6412 Y-9.0168 I-0.0162 J-0.0168
X-5.6088 Y-8.9832 I0.0162 J0.0168
X-5.6253 Y-8.9835 I-0.0081 J-0.0084
G1 X-5.6305 Y-8.9889
X-5.6325 Y-8.991 Z-0.0922
X-5.6345 Y-8.993 Z-0.0914
X-5.6363 Y-8.9949 Z-0.09
X-5.6378 Y-8.9965 Z-0.0881
X-5.6391 Y-8.9979 Z-0.0859
X-5.6401 Y-8.9989 Z-0.0833
X-5.6407 Y-8.9995 Z-0.0805
X-5.6409 Y-8.9997 Z-0.0776
G0 Z0.4
X-4.8858 Y-9.0116
Z0.0783
G1 Z0.0133 F40.
G18 G2 X-4.8708 Z-0.0017 I0.0149 K0.
G1 X-4.8634
G17 G3 X-4.8517 Y-9. I0. J0.0116
X-4.8983 Z-0.019 I-0.0233 J0.
X-4.8517 Z-0.0362 I0.0233 J0.
X-4.8983 Z-0.0535 I-0.0233 J0.
X-4.8517 Z-0.0708 I0.0233 J0.
X-4.8983 Z-0.0881 I-0.0233 J0.
X-4.8912 Y-9.0168 Z-0.0925 I0.0233 J0.
X-4.8588 Y-8.9832 I0.0162 J0.0168
X-4.8912 Y-9.0168 I-0.0162 J-0.0168
X-4.8747 Y-9.0165 I0.0081 J0.0084
G1 X-4.8695 Y-9.0111
X-4.8675 Y-9.009 Z-0.0922
X-4.8655 Y-9.007 Z-0.0914
X-4.8637 Y-9.0051 Z-0.09
X-4.8622 Y-9.0035 Z-0.0881
X-4.8609 Y-9.0021 Z-0.0859
X-4.8599 Y-9.0011 Z-0.0833
X-4.8593 Y-9.0005 Z-0.0805
X-4.8591 Y-9.0003 Z-0.0776
G0 Z0.4
X-4.1358 Y-9.0116
Z0.0783
G1 Z0.0133 F40.
G18 G2 X-4.1208 Z-0.0017 I0.0149 K0.
G1 X-4.1133
G17 G3 X-4.1017 Y-9. I0. J0.0116
X-4.1483 Z-0.019 I-0.0233 J0.
X-4.1017 Z-0.0362 I0.0233 J0.
X-4.1483 Z-0.0535 I-0.0233 J0.
X-4.1017 Z-0.0708 I0.0233 J0.
X-4.1483 Z-0.0881 I-0.0233 J0.
X-4.1412 Y-9.0168 Z-0.0925 I0.0233 J0.
X-4.1088 Y-8.9832 I0.0162 J0.0168
X-4.1412 Y-9.0168 I-0.0162 J-0.0168
X-4.1247 Y-9.0165 I0.0081 J0.0084
G1 X-4.1195 Y-9.0111
X-4.1175 Y-9.009 Z-0.0922
X-4.1155 Y-9.007 Z-0.0914
X-4.1137 Y-9.0051 Z-0.09
X-4.1122 Y-9.0035 Z-0.0881
X-4.1109 Y-9.0021 Z-0.0859
X-4.1099 Y-9.0011 Z-0.0833
X-4.1093 Y-9.0005 Z-0.0805
X-4.1091 Y-9.0003 Z-0.0776
G0 Z0.6
(.3 CIRCULAR THROUGH HOLE)
M7
G0 X0.8691 Y-0.0217
Z0.6
Z0.2
G1 Z0.1144 F13.333
G3 X0.8698 Y-0.0205 Z0.1081 I-0.0394 J0.0217 F55.
X0.8714 Y-0.0169 Z0.103 I-0.0401 J0.0205
X0.8732 Y-0.0114 Z0.1 I-0.0417 J0.0169
X0.7862 Y0.0114 Z0.0621 I-0.0435 J0.0114
X0.8732 Y-0.0114 Z0.0242 I0.0435 J-0.0114
X0.7862 Y0.0114 Z-0.0136 I-0.0435 J0.0114
X0.8732 Y-0.0114 Z-0.0515 I0.0435 J-0.0114
X0.8355 Y0.0446 Z-0.072 I-0.0435 J0.0114
X0.7847 Y0. Z-0.0925 I-0.0058 J-0.0446
X0.8153 I0.0153 J0. F60.
X0.6847 I-0.0653 J0.
X0.9153 I0.1153 J0.
X0.5847 I-0.1653 J0.
X1.0153 I0.2153 J0.
X0.4847 I-0.2653 J0.
X1.1153 I0.3153 J0.
X0.3847 I-0.3653 J0.
X1.2153 I0.4153 J0.
X0.2847 I-0.4653 J0.
X1.3153 I0.5153 J0.
X0.1847 I-0.5653 J0.
X1.4153 I0.6153 J0.
X0.0847 I-0.6653 J0.
X1.4253 I0.6703 J0.
X0.0747 I-0.6753 J0.
X1.4253 I0.6753 J0.
X1.4242 Y0.0056 Z-0.0914 I-0.0149 J0.
X1.4217 Y0.0097 Z-0.0881 I-0.0139 J-0.0056
X1.4194 Y0.0119 Z-0.0833 I-0.0114 J-0.0097
X1.4184 Y0.0126 Z-0.0776 I-0.009 J-0.0119
G0 Z0.4
X2.2441 Y1.4783
Z0.2
G1 Z0.1144 F13.333
G3 X2.2448 Y1.4795 Z0.1081 I-0.0394 J0.0217 F55.
X2.2464 Y1.4831 Z0.103 I-0.0401 J0.0205
X2.2482 Y1.4886 Z0.1 I-0.0417 J0.0169
X2.1612 Y1.5114 Z0.0621 I-0.0435 J0.0114
X2.2482 Y1.4886 Z0.0242 I0.0435 J-0.0114
X2.1612 Y1.5114 Z-0.0136 I-0.0435 J0.0114
X2.2482 Y1.4886 Z-0.0515 I0.0435 J-0.0114
X2.2105 Y1.5446 Z-0.072 I-0.0435 J0.0114
X2.1597 Y1.5 Z-0.0925 I-0.0058 J-0.0446
X2.1903 I0.0153 J0. F60.
X2.0597 I-0.0653 J0.
X2.2903 I0.1153 J0.
X1.9597 I-0.1653 J0.
X2.3903 I0.2153 J0.
X1.8597 I-0.2653 J0.
X2.4903 I0.3153 J0.
X1.7597 I-0.3653 J0.
X2.5903 I0.4153 J0.
X1.6597 I-0.4653 J0.
X2.6903 I0.5153 J0.
X1.5597 I-0.5653 J0.
X2.7903 I0.6153 J0.
X1.4597 I-0.6653 J0.
X2.8003 I0.6703 J0.
X1.4497 I-0.6753 J0.
X2.8003 I0.6753 J0.
X2.7992 Y1.5056 Z-0.0914 I-0.0149 J0.
X2.7967 Y1.5097 Z-0.0881 I-0.0139 J-0.0056
X2.7944 Y1.5119 Z-0.0833 I-0.0114 J-0.0097
X2.7934 Y1.5126 Z-0.0776 I-0.009 J-0.0119
G0 Z0.4
X1.865 Y2.8967
Z0.2
G1 Z0.1144 F13.333
G3 X1.8644 Y2.8955 Z0.1081 I0.0394 J-0.0217 F55.
X1.8627 Y2.8919 Z0.103 I0.0401 J-0.0205
X1.8609 Y2.8864 Z0.1 I0.0417 J-0.0169
X1.948 Y2.8636 Z0.0621 I0.0435 J-0.0114
X1.8609 Y2.8864 Z0.0242 I-0.0435 J0.0114
X1.948 Y2.8636 Z-0.0136 I0.0435 J-0.0114
X1.8609 Y2.8864 Z-0.0515 I-0.0435 J0.0114
X1.8987 Y2.8304 Z-0.072 I0.0435 J-0.0114
X1.9494 Y2.875 Z-0.0925 I0.0058 J0.0446
X1.9085 I-0.0205 J0.
X1.9415 I0.0165 J0. F60.
X1.8085 I-0.0665 J0.
X1.9515 I0.0715 J0.
X1.7985 I-0.0765 J0.
X1.9515 I0.0765 J0.
X1.9504 Y2.8806 Z-0.0914 I-0.0149 J0.
X1.9479 Y2.8847 Z-0.0881 I-0.0139 J-0.0056
X1.9455 Y2.8869 Z-0.0833 I-0.0114 J-0.0097
X1.9446 Y2.8876 Z-0.0776 I-0.009 J-0.0119
G0 Z0.4
X1.6191 Y4.5283
Z0.2
G1 Z0.1144 F13.333
G3 X1.6198 Y4.5295 Z0.1081 I-0.0394 J0.0217 F55.
X1.6214 Y4.5331 Z0.103 I-0.0401 J0.0205
X1.6232 Y4.5386 Z0.1 I-0.0417 J0.0169
X1.5362 Y4.5614 Z0.0621 I-0.0435 J0.0114
X1.6232 Y4.5386 Z0.0242 I0.0435 J-0.0114
X1.5362 Y4.5614 Z-0.0136 I-0.0435 J0.0114
X1.6232 Y4.5386 Z-0.0515 I0.0435 J-0.0114
X1.5855 Y4.5946 Z-0.072 I-0.0435 J0.0114
X1.5347 Y4.55 Z-0.0925 I-0.0058 J-0.0446
X1.5653 I0.0153 J0. F60.
X1.4347 I-0.0653 J0.
X1.6653 I0.1153 J0.
X1.3347 I-0.1653 J0.
X1.7653 I0.2153 J0.
X1.2347 I-0.2653 J0.
X1.8653 I0.3153 J0.
X1.1347 I-0.3653 J0.
X1.9653 I0.4153 J0.
X1.0347 I-0.4653 J0.
X2.0653 I0.5153 J0.
X0.9347 I-0.5653 J0.
X2.1653 I0.6153 J0.
X0.8347 I-0.6653 J0.
X2.1753 I0.6703 J0.
X0.8247 I-0.6753 J0.
X2.1753 I0.6753 J0.
X2.1742 Y4.5556 Z-0.0914 I-0.0149 J0.
X2.1717 Y4.5597 Z-0.0881 I-0.0139 J-0.0056
X2.1694 Y4.5619 Z-0.0833 I-0.0114 J-0.0097
X2.1684 Y4.5626 Z-0.0776 I-0.009 J-0.0119
G0 Z0.4
X0.1191 Y3.1533
Z0.2
G1 Z0.1144 F13.333
G3 X0.1198 Y3.1545 Z0.1081 I-0.0394 J0.0217 F55.
X0.1214 Y3.1581 Z0.103 I-0.0401 J0.0205
X0.1232 Y3.1636 Z0.1 I-0.0417 J0.0169
X0.0362 Y3.1864 Z0.0621 I-0.0435 J0.0114
X0.1232 Y3.1636 Z0.0242 I0.0435 J-0.0114
X0.0362 Y3.1864 Z-0.0136 I-0.0435 J0.0114
X0.1232 Y3.1636 Z-0.0515 I0.0435 J-0.0114
X0.0855 Y3.2196 Z-0.072 I-0.0435 J0.0114
X0.0347 Y3.175 Z-0.0925 I-0.0058 J-0.0446
X0.0653 I0.0153 J0. F60.
X-0.0653 I-0.0653 J0.
X0.1653 I0.1153 J0.
X-0.1653 I-0.1653 J0.
X0.2653 I0.2153 J0.
X-0.2653 I-0.2653 J0.
X0.3653 I0.3153 J0.
X-0.3653 I-0.3653 J0.
X0.4653 I0.4153 J0.
X-0.4653 I-0.4653 J0.
X0.5653 I0.5153 J0.
X-0.5653 I-0.5653 J0.
X0.6653 I0.6153 J0.
X-0.6653 I-0.6653 J0.
X0.6753 I0.6703 J0.
X-0.6753 I-0.6753 J0.
X0.6753 I0.6753 J0.
X0.6742 Y3.1806 Z-0.0914 I-0.0149 J0.
X0.6717 Y3.1847 Z-0.0881 I-0.0139 J-0.0056
X0.6694 Y3.1869 Z-0.0833 I-0.0114 J-0.0097
X0.6684 Y3.1876 Z-0.0776 I-0.009 J-0.0119
G0 Z0.4
X-0.816 Y2.0767
Z0.2
G1 Z0.1144 F13.333
G3 X-0.8166 Y2.0755 Z0.1081 I0.0394 J-0.0217 F55.
X-0.8183 Y2.0719 Z0.103 I0.0401 J-0.0205
X-0.8201 Y2.0664 Z0.1 I0.0417 J-0.0169
X-0.733 Y2.0436 Z0.0621 I0.0435 J-0.0114
X-0.8201 Y2.0664 Z0.0242 I-0.0435 J0.0114
X-0.733 Y2.0436 Z-0.0136 I0.0435 J-0.0114
X-0.8201 Y2.0664 Z-0.0515 I-0.0435 J0.0114
X-0.7823 Y2.0104 Z-0.072 I0.0435 J-0.0114
X-0.7316 Y2.055 Z-0.0925 I0.0058 J0.0446
X-0.7725 I-0.0205 J0.
X-0.7395 I0.0165 J0. F60.
X-0.8725 I-0.0665 J0.
X-0.7295 I0.0715 J0.
X-0.8825 I-0.0765 J0.
X-0.7295 I0.0765 J0.
X-0.7306 Y2.0606 Z-0.0914 I-0.0149 J0.
X-0.7331 Y2.0647 Z-0.0881 I-0.0139 J-0.0056
X-0.7355 Y2.0669 Z-0.0833 I-0.0114 J-0.0097
X-0.7364 Y2.0676 Z-0.0776 I-0.009 J-0.0119
G0 Z0.4
X-1.86 Y1.2027
Z0.2
G1 Z0.1144 F13.333
G3 X-1.8606 Y1.2015 Z0.1081 I0.0394 J-0.0217 F55.
X-1.8623 Y1.1979 Z0.103 I0.0401 J-0.0205
X-1.8641 Y1.1924 Z0.1 I0.0417 J-0.0169
X-1.777 Y1.1696 Z0.0621 I0.0435 J-0.0114
X-1.8641 Y1.1924 Z0.0242 I-0.0435 J0.0114
X-1.777 Y1.1696 Z-0.0136 I0.0435 J-0.0114
X-1.8641 Y1.1924 Z-0.0515 I-0.0435 J0.0114
X-1.8263 Y1.1364 Z-0.072 I0.0435 J-0.0114
X-1.7756 Y1.181 Z-0.0925 I0.0058 J0.0446
X-1.8165 I-0.0205 J0.
X-1.7835 I0.0165 J0. F60.
X-1.9165 I-0.0665 J0.
X-1.7735 I0.0715 J0.
X-1.9265 I-0.0765 J0.
X-1.7735 I0.0765 J0.
X-1.7746 Y1.1866 Z-0.0914 I-0.0149 J0.
X-1.7771 Y1.1907 Z-0.0881 I-0.0139 J-0.0056
X-1.7795 Y1.1929 Z-0.0833 I-0.0114 J-0.0097
X-1.7804 Y1.1936 Z-0.0776 I-0.009 J-0.0119
G0 Z0.4
X-2.86 Y1.2027
Z0.2
G1 Z0.1144 F13.333
G3 X-2.8606 Y1.2015 Z0.1081 I0.0394 J-0.0217 F55.
X-2.8623 Y1.1979 Z0.103 I0.0401 J-0.0205
X-2.8641 Y1.1924 Z0.1 I0.0417 J-0.0169
X-2.777 Y1.1696 Z0.0621 I0.0435 J-0.0114
X-2.8641 Y1.1924 Z0.0242 I-0.0435 J0.0114
X-2.777 Y1.1696 Z-0.0136 I0.0435 J-0.0114
X-2.8641 Y1.1924 Z-0.0515 I-0.0435 J0.0114
X-2.8263 Y1.1364 Z-0.072 I0.0435 J-0.0114
X-2.7756 Y1.181 Z-0.0925 I0.0058 J0.0446
X-2.8165 I-0.0205 J0.
X-2.7835 I0.0165 J0. F60.
X-2.9165 I-0.0665 J0.
X-2.7735 I0.0715 J0.
X-2.9265 I-0.0765 J0.
X-2.7735 I0.0765 J0.
X-2.7746 Y1.1866 Z-0.0914 I-0.0149 J0.
X-2.7771 Y1.1907 Z-0.0881 I-0.0139 J-0.0056
X-2.7795 Y1.1929 Z-0.0833 I-0.0114 J-0.0097
X-2.7804 Y1.1936 Z-0.0776 I-0.009 J-0.0119
G0 Z0.4
X-2.8809 Y3.1533
Z0.2
G1 Z0.1144 F13.333
G3 X-2.8802 Y3.1545 Z0.1081 I-0.0394 J0.0217 F55.
X-2.8786 Y3.1581 Z0.103 I-0.0401 J0.0205
X-2.8768 Y3.1636 Z0.1 I-0.0417 J0.0169
X-2.9638 Y3.1864 Z0.0621 I-0.0435 J0.0114
X-2.8768 Y3.1636 Z0.0242 I0.0435 J-0.0114
X-2.9638 Y3.1864 Z-0.0136 I-0.0435 J0.0114
X-2.8768 Y3.1636 Z-0.0515 I0.0435 J-0.0114
X-2.9145 Y3.2196 Z-0.072 I-0.0435 J0.0114
X-2.9653 Y3.175 Z-0.0925 I-0.0058 J-0.0446
X-2.9347 I0.0153 J0. F60.
X-3.0653 I-0.0653 J0.
X-2.8347 I0.1153 J0.
X-3.1653 I-0.1653 J0.
X-2.7347 I0.2153 J0.
X-3.2653 I-0.2653 J0.
X-2.6347 I0.3153 J0.
X-3.3653 I-0.3653 J0.
X-2.5347 I0.4153 J0.
X-3.4653 I-0.4653 J0.
X-2.4347 I0.5153 J0.
X-3.5653 I-0.5653 J0.
X-2.3347 I0.6153 J0.
X-3.6653 I-0.6653 J0.
X-2.3247 I0.6703 J0.
X-3.6753 I-0.6753 J0.
X-2.3247 I0.6753 J0.
X-2.3258 Y3.1806 Z-0.0914 I-0.0149 J0.
X-2.3283 Y3.1847 Z-0.0881 I-0.0139 J-0.0056
X-2.3306 Y3.1869 Z-0.0833 I-0.0114 J-0.0097
X-2.3316 Y3.1876 Z-0.0776 I-0.009 J-0.0119
G0 Z0.4
X-1.3809 Y4.5283
Z0.2
G1 Z0.1144 F13.333
G3 X-1.3802 Y4.5295 Z0.1081 I-0.0394 J0.0217 F55.
X-1.3786 Y4.5331 Z0.103 I-0.0401 J0.0205
X-1.3768 Y4.5386 Z0.1 I-0.0417 J0.0169
X-1.4638 Y4.5614 Z0.0621 I-0.0435 J0.0114
X-1.3768 Y4.5386 Z0.0242 I0.0435 J-0.0114
X-1.4638 Y4.5614 Z-0.0136 I-0.0435 J0.0114
X-1.3768 Y4.5386 Z-0.0515 I0.0435 J-0.0114
X-1.4145 Y4.5946 Z-0.072 I-0.0435 J0.0114
X-1.4653 Y4.55 Z-0.0925 I-0.0058 J-0.0446
X-1.4347 I0.0153 J0. F60.
X-1.5653 I-0.0653 J0.
X-1.3347 I0.1153 J0.
X-1.6653 I-0.1653 J0.
X-1.2347 I0.2153 J0.
X-1.7653 I-0.2653 J0.
X-1.1347 I0.3153 J0.
X-1.8653 I-0.3653 J0.
X-1.0347 I0.4153 J0.
X-1.9653 I-0.4653 J0.
X-0.9347 I0.5153 J0.
X-2.0653 I-0.5653 J0.
X-0.8347 I0.6153 J0.
X-2.1653 I-0.6653 J0.
X-0.8247 I0.6703 J0.
X-2.1753 I-0.6753 J0.
X-0.8247 I0.6753 J0.
X-0.8258 Y4.5556 Z-0.0914 I-0.0149 J0.
X-0.8283 Y4.5597 Z-0.0881 I-0.0139 J-0.0056
X-0.8306 Y4.5619 Z-0.0833 I-0.0114 J-0.0097
X-0.8316 Y4.5626 Z-0.0776 I-0.009 J-0.0119
G0 Z0.4
X-4.6309 Y4.5283
Z0.2
G1 Z0.1144 F13.333
G3 X-4.6302 Y4.5295 Z0.1081 I-0.0394 J0.0217 F55.
X-4.6286 Y4.5331 Z0.103 I-0.0401 J0.0205
X-4.6268 Y4.5386 Z0.1 I-0.0417 J0.0169
X-4.7138 Y4.5614 Z0.0621 I-0.0435 J0.0114
X-4.6268 Y4.5386 Z0.0242 I0.0435 J-0.0114
X-4.7138 Y4.5614 Z-0.0136 I-0.0435 J0.0114
X-4.6268 Y4.5386 Z-0.0515 I0.0435 J-0.0114
X-4.6645 Y4.5946 Z-0.072 I-0.0435 J0.0114
X-4.7153 Y4.55 Z-0.0925 I-0.0058 J-0.0446
X-4.6847 I0.0153 J0. F60.
X-4.8153 I-0.0653 J0.
X-4.5847 I0.1153 J0.
X-4.9153 I-0.1653 J0.
X-4.4847 I0.2153 J0.
X-5.0153 I-0.2653 J0.
X-4.3847 I0.3153 J0.
X-5.1153 I-0.3653 J0.
X-4.2847 I0.4153 J0.
X-5.2153 I-0.4653 J0.
X-4.1847 I0.5153 J0.
X-5.3153 I-0.5653 J0.
X-4.0847 I0.6153 J0.
X-5.4153 I-0.6653 J0.
X-4.0747 I0.6703 J0.
X-5.4253 I-0.6753 J0.
X-4.0747 I0.6753 J0.
X-4.0758 Y4.5556 Z-0.0914 I-0.0149 J0.
X-4.0783 Y4.5597 Z-0.0881 I-0.0139 J-0.0056
X-4.0806 Y4.5619 Z-0.0833 I-0.0114 J-0.0097
X-4.0816 Y4.5626 Z-0.0776 I-0.009 J-0.0119
G0 Z0.4
X-4.385 Y2.8967
Z0.2
G1 Z0.1144 F13.333
G3 X-4.3856 Y2.8955 Z0.1081 I0.0394 J-0.0217 F55.
X-4.3873 Y2.8919 Z0.103 I0.0401 J-0.0205
X-4.3891 Y2.8864 Z0.1 I0.0417 J-0.0169
X-4.302 Y2.8636 Z0.0621 I0.0435 J-0.0114
X-4.3891 Y2.8864 Z0.0242 I-0.0435 J0.0114
X-4.302 Y2.8636 Z-0.0136 I0.0435 J-0.0114
X-4.3891 Y2.8864 Z-0.0515 I-0.0435 J0.0114
X-4.3513 Y2.8304 Z-0.072 I0.0435 J-0.0114
X-4.3006 Y2.875 Z-0.0925 I0.0058 J0.0446
X-4.3415 I-0.0205 J0.
X-4.3085 I0.0165 J0. F60.
X-4.4415 I-0.0665 J0.
X-4.2985 I0.0715 J0.
X-4.4515 I-0.0765 J0.
X-4.2985 I0.0765 J0.
G1 X-4.2986 Y2.8752
Y2.8753 Z-0.0924
X-4.2987 Y2.8754 Z-0.0922
Z-0.0921
G0 Z0.4
X-4.6309 Y6.7283
Z0.2
G1 Z0.1144 F13.333
G3 X-4.6302 Y6.7295 Z0.1081 I-0.0394 J0.0217 F55.
X-4.6286 Y6.7331 Z0.103 I-0.0401 J0.0205
X-4.6268 Y6.7386 Z0.1 I-0.0417 J0.0169
X-4.7138 Y6.7614 Z0.0621 I-0.0435 J0.0114
X-4.6268 Y6.7386 Z0.0242 I0.0435 J-0.0114
X-4.7138 Y6.7614 Z-0.0136 I-0.0435 J0.0114
X-4.6268 Y6.7386 Z-0.0515 I0.0435 J-0.0114
X-4.6645 Y6.7946 Z-0.072 I-0.0435 J0.0114
X-4.7153 Y6.75 Z-0.0925 I-0.0058 J-0.0446
X-4.6847 I0.0153 J0. F60.
X-4.8153 I-0.0653 J0.
X-4.5847 I0.1153 J0.
X-4.9153 I-0.1653 J0.
X-4.4847 I0.2153 J0.
X-5.0153 I-0.2653 J0.
X-4.3847 I0.3153 J0.
X-5.1153 I-0.3653 J0.
X-4.2847 I0.4153 J0.
X-5.2153 I-0.4653 J0.
X-4.1847 I0.5153 J0.
X-5.3153 I-0.5653 J0.
X-4.0847 I0.6153 J0.
X-5.4153 I-0.6653 J0.
X-4.0747 I0.6703 J0.
X-5.4253 I-0.6753 J0.
X-4.0747 I0.6753 J0.
X-4.0751 Y6.7523 Z-0.092 I-0.0061 J0.
X-4.0762 Y6.754 Z-0.0907 I-0.0057 J-0.0023
X-4.0771 Y6.7549 Z-0.0887 I-0.0046 J-0.004
X-4.0775 Y6.7551 Z-0.0864 I-0.0037 J-0.0049
G0 Z0.4
X-11.3024 Y5.9783
Z0.2
G1 Z0.1144 F13.333
G3 X-11.3018 Y5.9795 Z0.1081 I-0.0394 J0.0217 F55.
X-11.3001 Y5.9831 Z0.103 I-0.0401 J0.0205
X-11.2983 Y5.9886 Z0.1 I-0.0417 J0.0169
X-11.3148 Y6.036 Z0.0857 I-0.0435 J0.0114
X-11.3688 Y5.964 Z0.0478 I-0.027 J-0.036
X-11.3148 Y6.036 Z0.01 I0.027 J0.036
X-11.3688 Y5.964 Z-0.0279 I-0.027 J-0.036
X-11.3148 Y6.036 Z-0.0658 I0.027 J0.036
X-11.3868 Y6. Z-0.0925 I-0.027 J-0.036
X-11.3562 I0.0153 J0. F60.
X-11.4868 I-0.0653 J0.
X-11.2562 I0.1153 J0.
X-11.5868 I-0.1653 J0.
X-11.1562 I0.2153 J0.
X-11.6868 I-0.2653 J0.
X-11.0562 I0.3153 J0.
X-11.7868 I-0.3653 J0.
X-10.9562 I0.4153 J0.
X-11.8868 I-0.4653 J0.
X-10.8562 I0.5153 J0.
X-11.9868 I-0.5653 J0.
X-10.7562 I0.6153 J0.
X-12.0868 I-0.6653 J0.
X-10.7462 I0.6703 J0.
X-12.0968 I-0.6753 J0.
X-10.7462 I0.6753 J0.
X-10.7473 Y6.0056 Z-0.0914 I-0.0149 J0.
X-10.7498 Y6.0097 Z-0.0881 I-0.0139 J-0.0056
X-10.7522 Y6.0119 Z-0.0833 I-0.0114 J-0.0097
X-10.7531 Y6.0126 Z-0.0776 I-0.009 J-0.0119
G0 Z0.4
X-11.3024 Y3.5783
Z0.2
G1 Z0.1144 F13.333
G3 X-11.3018 Y3.5795 Z0.1081 I-0.0394 J0.0217 F55.
X-11.3001 Y3.5831 Z0.103 I-0.0401 J0.0205
X-11.2983 Y3.5886 Z0.1 I-0.0417 J0.0169
X-11.3854 Y3.6114 Z0.0621 I-0.0435 J0.0114
X-11.2983 Y3.5886 Z0.0242 I0.0435 J-0.0114
X-11.3854 Y3.6114 Z-0.0136 I-0.0435 J0.0114
X-11.2983 Y3.5886 Z-0.0515 I0.0435 J-0.0114
X-11.3361 Y3.6446 Z-0.072 I-0.0435 J0.0114
X-11.3868 Y3.6 Z-0.0925 I-0.0058 J-0.0446
X-11.3562 I0.0153 J0. F60.
X-11.4868 I-0.0653 J0.
X-11.2562 I0.1153 J0.
X-11.5868 I-0.1653 J0.
X-11.1562 I0.2153 J0.
X-11.6868 I-0.2653 J0.
X-11.0562 I0.3153 J0.
X-11.7868 I-0.3653 J0.
X-10.9562 I0.4153 J0.
X-11.8868 I-0.4653 J0.
X-10.8562 I0.5153 J0.
X-11.9868 I-0.5653 J0.
X-10.7562 I0.6153 J0.
X-12.0868 I-0.6653 J0.
X-10.7462 I0.6703 J0.
X-12.0968 I-0.6753 J0.
X-10.7462 I0.6753 J0.
X-10.7473 Y3.6056 Z-0.0914 I-0.0149 J0.
X-10.7498 Y3.6097 Z-0.0881 I-0.0139 J-0.0056
X-10.7522 Y3.6119 Z-0.0833 I-0.0114 J-0.0097
X-10.7531 Y3.6126 Z-0.0776 I-0.009 J-0.0119
G0 Z0.4
X-11.3024 Y1.1783
Z0.2
G1 Z0.1144 F13.333
G3 X-11.3018 Y1.1795 Z0.1081 I-0.0394 J0.0217 F55.
X-11.3001 Y1.1831 Z0.103 I-0.0401 J0.0205
X-11.2983 Y1.1886 Z0.1 I-0.0417 J0.0169
X-11.3854 Y1.2114 Z0.0621 I-0.0435 J0.0114
X-11.2983 Y1.1886 Z0.0242 I0.0435 J-0.0114
X-11.3854 Y1.2114 Z-0.0136 I-0.0435 J0.0114
X-11.2983 Y1.1886 Z-0.0515 I0.0435 J-0.0114
X-11.3361 Y1.2446 Z-0.072 I-0.0435 J0.0114
X-11.3868 Y1.2 Z-0.0925 I-0.0058 J-0.0446
X-11.3562 I0.0153 J0. F60.
X-11.4868 I-0.0653 J0.
X-11.2562 I0.1153 J0.
X-11.5868 I-0.1653 J0.
X-11.1562 I0.2153 J0.
X-11.6868 I-0.2653 J0.
X-11.0562 I0.3153 J0.
X-11.7868 I-0.3653 J0.
X-10.9562 I0.4153 J0.
X-11.8868 I-0.4653 J0.
X-10.8562 I0.5153 J0.
X-11.9868 I-0.5653 J0.
X-10.7562 I0.6153 J0.
X-12.0868 I-0.6653 J0.
X-10.7462 I0.6703 J0.
X-12.0968 I-0.6753 J0.
X-10.7462 I0.6753 J0.
X-10.7473 Y1.2056 Z-0.0914 I-0.0149 J0.
X-10.7498 Y1.2097 Z-0.0881 I-0.0139 J-0.0056
X-10.7522 Y1.2119 Z-0.0833 I-0.0114 J-0.0097
X-10.7531 Y1.2126 Z-0.0776 I-0.009 J-0.0119
G0 Z0.4
X-11.3024 Y-1.2217
Z0.2
G1 Z0.1144 F13.333
G3 X-11.3018 Y-1.2205 Z0.1081 I-0.0394 J0.0217 F55.
X-11.3001 Y-1.2169 Z0.103 I-0.0401 J0.0205
X-11.2983 Y-1.2114 Z0.1 I-0.0417 J0.0169
X-11.3854 Y-1.1886 Z0.0621 I-0.0435 J0.0114
X-11.2983 Y-1.2114 Z0.0242 I0.0435 J-0.0114
X-11.3854 Y-1.1886 Z-0.0136 I-0.0435 J0.0114
X-11.2983 Y-1.2114 Z-0.0515 I0.0435 J-0.0114
X-11.3361 Y-1.1554 Z-0.072 I-0.0435 J0.0114
X-11.3868 Y-1.2 Z-0.0925 I-0.0058 J-0.0446
X-11.3562 I0.0153 J0. F60.
X-11.4868 I-0.0653 J0.
X-11.2562 I0.1153 J0.
X-11.5868 I-0.1653 J0.
X-11.1562 I0.2153 J0.
X-11.6868 I-0.2653 J0.
X-11.0562 I0.3153 J0.
X-11.7868 I-0.3653 J0.
X-10.9562 I0.4153 J0.
X-11.8868 I-0.4653 J0.
X-10.8562 I0.5153 J0.
X-11.9868 I-0.5653 J0.
X-10.7562 I0.6153 J0.
X-12.0868 I-0.6653 J0.
X-10.7462 I0.6703 J0.
X-12.0968 I-0.6753 J0.
X-10.7462 I0.6753 J0.
X-10.7473 Y-1.1944 Z-0.0914 I-0.0149 J0.
X-10.7498 Y-1.1903 Z-0.0881 I-0.0139 J-0.0056
X-10.7522 Y-1.1881 Z-0.0833 I-0.0114 J-0.0097
X-10.7531 Y-1.1874 Z-0.0776 I-0.009 J-0.0119
G0 Z0.4
X-11.3024 Y-3.6217
Z0.2
G1 Z0.1144 F13.333
G3 X-11.3018 Y-3.6205 Z0.1081 I-0.0394 J0.0217 F55.
X-11.3001 Y-3.6169 Z0.103 I-0.0401 J0.0205
X-11.2983 Y-3.6114 Z0.1 I-0.0417 J0.0169
X-11.3854 Y-3.5886 Z0.0621 I-0.0435 J0.0114
X-11.2983 Y-3.6114 Z0.0242 I0.0435 J-0.0114
X-11.3854 Y-3.5886 Z-0.0136 I-0.0435 J0.0114
X-11.2983 Y-3.6114 Z-0.0515 I0.0435 J-0.0114
X-11.3361 Y-3.5554 Z-0.072 I-0.0435 J0.0114
X-11.3868 Y-3.6 Z-0.0925 I-0.0058 J-0.0446
X-11.3562 I0.0153 J0. F60.
X-11.4868 I-0.0653 J0.
X-11.2562 I0.1153 J0.
X-11.5868 I-0.1653 J0.
X-11.1562 I0.2153 J0.
X-11.6868 I-0.2653 J0.
X-11.0562 I0.3153 J0.
X-11.7868 I-0.3653 J0.
X-10.9562 I0.4153 J0.
X-11.8868 I-0.4653 J0.
X-10.8562 I0.5153 J0.
X-11.9868 I-0.5653 J0.
X-10.7562 I0.6153 J0.
X-12.0868 I-0.6653 J0.
X-10.7462 I0.6703 J0.
X-12.0968 I-0.6753 J0.
X-10.7462 I0.6753 J0.
X-10.7473 Y-3.5944 Z-0.0914 I-0.0149 J0.
X-10.7498 Y-3.5903 Z-0.0881 I-0.0139 J-0.0056
X-10.7522 Y-3.5881 Z-0.0833 I-0.0114 J-0.0097
X-10.7531 Y-3.5874 Z-0.0776 I-0.009 J-0.0119
G0 Z0.4
X-11.3024 Y-6.0217
Z0.2
G1 Z0.1144 F13.333
G3 X-11.3018 Y-6.0205 Z0.1081 I-0.0394 J0.0217 F55.
X-11.3001 Y-6.0169 Z0.103 I-0.0401 J0.0205
X-11.2983 Y-6.0114 Z0.1 I-0.0417 J0.0169
