%
(971-23-P-0173_BACK PLATE_1540)
(T1  D=0.154 CR=0. - ZMIN=-0.145 - FLAT END MILL)
G90 G94 G17 G91.1
G64 P0.001 Q0.001
G20
G53 G0 Z0.
(.3 CIRCLUAR THROUGH HOLE)
M9
T1 M6
S22000 M3
G4 P10.
G54
M7
G0 X11.3376 Y21.0105
G43 Z0.6 H1
G0 Z0.0861
G1 Z0.0215 F40.
G18 G3 X11.3222 Z0.0061 I-0.0154 K0.
G1 X11.3145
G17 G3 X11.304 Y21. I0. J-0.0105
X11.3252 Y20.979 Z-0.0191 I0.021 J0.
X11.346 Y21.0005 Z-0.0443 I-0.0002 J0.021
X11.3243 Y21.021 Z-0.0694 I-0.021 J-0.0005
X11.304 Y20.999 Z-0.0946 I0.0007 J-0.021
X11.3262 Y20.979 Z-0.1198 I0.021 J0.001
X11.3459 Y21.0015 Z-0.145 I-0.0012 J0.021
X11.3041 Y20.9985 I-0.0209 J-0.0015
X11.3459 Y21.0015 I0.0209 J0.0015
X11.3347 Y21.0112 I-0.0105 J-0.0007
G1 X11.3271 Y21.0107
X11.3241 Y21.0105 Z-0.1447
X11.3212 Y21.0103 Z-0.1438
X11.3185 Y21.0101 Z-0.1424
X11.3162 Y21.0099 Z-0.1405
X11.3143 Y21.0098 Z-0.1382
X11.3129 Y21.0097 Z-0.1355
X11.312 Y21.0096 Z-0.1326
X11.3117 Z-0.1296
G0 Z0.4
X11.325 Y19.5
Z0.1146
G1 Z0.05 F40.
X11.3238 Y19.5013
G3 X11.3225 Y19.5 I0. J-0.0013
X11.3275 Z0. I0.0025 J0.
X11.3265 Y19.502 Z-0.015 I-0.0025 J0.
X11.3235 Y19.498 Z-0.065 I-0.0015 J-0.002
X11.3258 Y19.4976 Z-0.08 I0.0015 J0.002
X11.3242 Y19.5024 Z-0.13 I-0.0008 J0.0024
X11.3226 Y19.5008 Z-0.145 I0.0008 J-0.0024
X11.3274 Y19.4992 I0.0024 J-0.0008
X11.3226 Y19.5008 I-0.0024 J0.0008
X11.3234 Y19.4992 I0.0012 J-0.0004
G1 X11.325 Y19.5
G0 Z0.4
Y18.
Z0.1146
G1 Z0.05 F40.
X11.3238 Y18.0013
G3 X11.3225 Y18. I0. J-0.0012
X11.3275 Z0. I0.0025 J0.
X11.3265 Y18.002 Z-0.015 I-0.0025 J0.
X11.3235 Y17.998 Z-0.065 I-0.0015 J-0.002
X11.3258 Y17.9976 Z-0.08 I0.0015 J0.002
X11.3242 Y18.0024 Z-0.13 I-0.0008 J0.0024
X11.3226 Y18.0008 Z-0.145 I0.0008 J-0.0024
X11.3274 Y17.9992 I0.0024 J-0.0008
X11.3226 Y18.0008 I-0.0024 J0.0008
X11.3234 Y17.9992 I0.0012 J-0.0004
G1 X11.325 Y18.
G0 Z0.4
X11.3376 Y17.0105
Z0.0861
G1 Z0.0215 F40.
G18 G3 X11.3222 Z0.0061 I-0.0154 K0.
G1 X11.3145
G17 G3 X11.304 Y17. I0. J-0.0105
X11.3252 Y16.979 Z-0.0191 I0.021 J0.
X11.346 Y17.0005 Z-0.0443 I-0.0002 J0.021
X11.3243 Y17.021 Z-0.0694 I-0.021 J-0.0005
X11.304 Y16.999 Z-0.0946 I0.0007 J-0.021
X11.3262 Y16.979 Z-0.1198 I0.021 J0.001
X11.3459 Y17.0015 Z-0.145 I-0.0012 J0.021
X11.3041 Y16.9985 I-0.0209 J-0.0015
X11.3459 Y17.0015 I0.0209 J0.0015
X11.3347 Y17.0112 I-0.0105 J-0.0007
G1 X11.3271 Y17.0107
X11.3241 Y17.0105 Z-0.1447
X11.3212 Y17.0103 Z-0.1438
X11.3185 Y17.0101 Z-0.1424
X11.3162 Y17.0099 Z-0.1405
X11.3143 Y17.0098 Z-0.1382
X11.3129 Y17.0097 Z-0.1355
X11.312 Y17.0096 Z-0.1326
X11.3117 Z-0.1296
G0 Z0.4
X11.325 Y16.5
Z0.1146
G1 Z0.05 F40.
X11.3238 Y16.5012
G3 X11.3225 Y16.5 I0. J-0.0012
X11.3275 Z0. I0.0025 J0.
X11.3265 Y16.502 Z-0.015 I-0.0025 J0.
X11.3235 Y16.498 Z-0.065 I-0.0015 J-0.002
X11.3258 Y16.4976 Z-0.08 I0.0015 J0.002
X11.3242 Y16.5024 Z-0.13 I-0.0008 J0.0024
X11.3226 Y16.5008 Z-0.145 I0.0008 J-0.0024
X11.3274 Y16.4992 I0.0024 J-0.0008
X11.3226 Y16.5008 I-0.0024 J0.0008
X11.3234 Y16.4992 I0.0012 J-0.0004
G1 X11.325 Y16.5
G0 Z0.6
(2D SLOT CUT)
M7
G0 X10.873 Y17.1958
Z0.6
Z0.2
G1 Z0.1 F13.333
Y18.5853 Z-0.145 F40.
Y19.7687 F55.
Z-0.045
Y20.5227
Z-0.145 F13.333
Y21.15 F55.
G2 X11.05 Y21.327 I0.177 J0.
G1 X11.6
G2 X11.777 Y21.15 I0. J-0.177
G1 Y17.9798
Z-0.045
Y17.2258
Z-0.145 F13.333
Y16.0205 F55.
G2 X11.6 Y15.8435 I-0.177 J0.
G1 X11.05
G2 X10.873 Y16.0205 I0. J0.177
G1 Y18.5853
G0 Z0.6
M9
G53 Z0.
M30
%
