%
(971-23-P-0173_BACK PLATE_1523)
(T1  D=0.1523 CR=0. - ZMIN=-0.145 - FLAT END MILL)
G90 G94 G17 G91.1
G64 P0.001 Q0.001
G20
G53 G0 Z0.
(.3 CIRCLUAR THROUGH HOLE)
M9
T1 M6
S22000 M3
G4 P10.
G54
M7
G0 X-11.3131 Y25.0109
G43 Z0.6 H1
G0 Z0.13
G1 Z0.0652 F40.
G18 G3 X-11.3283 Z0.05 I-0.0152 K0.
G1 X-11.3359
G17 G3 X-11.3469 Y25. I0. J-0.0109
X-11.3031 Z0. I0.0219 J0.
X-11.3469 Z-0.05 I-0.0219 J0.
X-11.3031 Z-0.1 I0.0219 J0.
X-11.3458 Y25.0068 Z-0.145 I-0.0219 J0.
X-11.3042 Y24.9932 I0.0208 J-0.0068
X-11.3458 Y25.0068 I-0.0208 J0.0068
X-11.3388 Y24.993 I0.0104 J-0.0034
G1 X-11.3315 Y24.9906
X-11.3287 Y24.9897 Z-0.1447
X-11.326 Y24.9888 Z-0.1438
X-11.3235 Y24.988 Z-0.1424
X-11.3213 Y24.9873 Z-0.1405
X-11.3195 Y24.9867 Z-0.1382
X-11.3181 Y24.9863 Z-0.1356
X-11.3173 Y24.986 Z-0.1327
X-11.317 Y24.9859 Z-0.1298
G0 Z0.4
X-11.325 Y22.7225
Z0.1148
G1 Z0.05 F40.
X-11.3267 Y22.7242
G3 X-11.3283 Y22.7225 I0. J-0.0017
X-11.3216 Z0. I0.0033 J0.
X-11.323 Y22.7252 Z-0.015 I-0.0034 J0.
X-11.327 Y22.7198 Z-0.065 I-0.002 J-0.0027
X-11.324 Y22.7193 Z-0.08 I0.002 J0.0027
X-11.326 Y22.7257 Z-0.13 I-0.001 J0.0032
X-11.3282 Y22.7235 Z-0.145 I0.001 J-0.0032
X-11.3218 Y22.7215 I0.0032 J-0.001
X-11.3282 Y22.7235 I-0.0032 J0.001
X-11.3271 Y22.7214 I0.0016 J-0.0005
G1 X-11.325 Y22.7225
G0 Z0.4
X-11.3131 Y21.0109
Z0.13
G1 Z0.0652 F40.
G18 G3 X-11.3283 Z0.05 I-0.0152 K0.
G1 X-11.3359
G17 G3 X-11.3469 Y21. I0. J-0.0109
X-11.3031 Z0. I0.0219 J0.
X-11.3469 Z-0.05 I-0.0219 J0.
X-11.3182 Y20.9792 Z-0.08 I0.0219 J0.
X-11.3318 Y21.0208 Z-0.13 I-0.0068 J0.0208
X-11.3458 Y21.0068 Z-0.145 I0.0068 J-0.0208
X-11.3042 Y20.9933 I0.0208 J-0.0067
X-11.3458 Y21.0068 I-0.0208 J0.0067
X-11.3388 Y20.993 I0.0104 J-0.0034
G1 X-11.3315 Y20.9906
X-11.3287 Y20.9897 Z-0.1447
X-11.326 Y20.9888 Z-0.1438
X-11.3235 Y20.988 Z-0.1424
X-11.3213 Y20.9873 Z-0.1405
X-11.3195 Y20.9867 Z-0.1382
X-11.3181 Y20.9863 Z-0.1356
X-11.3173 Y20.986 Z-0.1327
X-11.317 Y20.9859 Z-0.1298
G0 Z0.4
X-11.325 Y19.7225
Z0.1148
G1 Z0.05 F40.
X-11.3267 Y19.7242
G3 X-11.3283 Y19.7225 I0. J-0.0017
X-11.3217 Z0. I0.0033 J0.
X-11.323 Y19.7252 Z-0.015 I-0.0033 J0.
X-11.327 Y19.7198 Z-0.065 I-0.002 J-0.0027
X-11.324 Y19.7193 Z-0.08 I0.002 J0.0027
X-11.326 Y19.7257 Z-0.13 I-0.001 J0.0032
X-11.3282 Y19.7235 Z-0.145 I0.001 J-0.0032
X-11.3218 Y19.7215 I0.0032 J-0.001
X-11.3282 Y19.7235 I-0.0032 J0.001
X-11.3271 Y19.7214 I0.0016 J-0.0005
G1 X-11.325 Y19.7225
G0 Z0.6
(2D SLOT CUT)
M7
G0 X-10.8739 Y23.6747
Z0.6
Z0.2
G1 Z0.1 F13.333
Y22.2853 Z-0.145 F40.
Y20.6473 F55.
Z-0.045
Y19.895
Z-0.145 F13.333
Y19.3225 F55.
G2 X-11.05 Y19.1464 I-0.1761 J0.
G1 X-11.6
G2 X-11.7761 Y19.3225 I0. J0.1761
G1 Y23.7259
Z-0.045
Y24.4782
Z-0.145 F13.333
Y25.248 F55.
G2 X-11.6 Y25.4241 I0.1761 J0.
G1 X-11.05
G2 X-10.8739 Y25.248 I0. J-0.1761
G1 Y22.2853
G0 Z0.6
M9
G53 Z0.
M30
%
