%
(971-23-P-0173_BACK PLATE_1565)
(T1  D=0.1565 CR=0. - ZMIN=-0.145 - FLAT END MILL)
G90 G94 G17 G91.1
G64 P0.001 Q0.001
G20
G53 G0 Z0.
(.3 CIRCLUAR THROUGH HOLE)
M9
T1 M6
S22000 M3
G4 P10.
G54
M7
G0 X11.325 Y16.5
G43 Z0.6 H1
G0 Z0.1143
G1 Z0.05 F40.
X11.3244 Y16.5006
G3 X11.3238 Y16.5 I0. J-0.0006
X11.3262 Z0. I0.0012 J0.
X11.3257 Y16.501 Z-0.015 I-0.0012 J0.
X11.3243 Y16.499 Z-0.065 I-0.0007 J-0.001
X11.3254 Y16.4988 Z-0.08 I0.0007 J0.001
X11.3246 Y16.5012 Z-0.13 I-0.0004 J0.0012
X11.3238 Y16.5004 Z-0.145 I0.0004 J-0.0012
X11.3262 Y16.4996 I0.0012 J-0.0004
X11.3238 Y16.5004 I-0.0012 J0.0004
X11.3242 Y16.4996 I0.0006 J-0.0002
G1 X11.325 Y16.5
G0 Z0.4
X11.3386 Y17.0099
Z0.0861
G1 Z0.0218 F40.
G18 G3 X11.323 Z0.0061 I-0.0156 K0.
G1 X11.3151
G17 G3 X11.3053 Y17. I0. J-0.0099
X11.3252 Y16.9803 Z-0.0191 I0.0197 J0.
X11.3447 Y17.0005 Z-0.0443 I-0.0002 J0.0197
X11.3243 Y17.0197 Z-0.0694 I-0.0197 J-0.0005
X11.3053 Y16.9991 Z-0.0946 I0.0007 J-0.0197
X11.3262 Y16.9803 Z-0.1198 I0.0197 J0.0009
X11.3447 Y17.0014 Z-0.145 I-0.0012 J0.0197
X11.3053 Y16.9986 I-0.0197 J-0.0014
X11.3447 Y17.0014 I0.0197 J0.0014
X11.3342 Y17.0105 I-0.0098 J-0.0007
G1 X11.3263 Y17.01
X11.3233 Y17.0098 Z-0.1447
X11.3204 Y17.0096 Z-0.1438
X11.3177 Y17.0094 Z-0.1424
X11.3153 Y17.0092 Z-0.1404
X11.3134 Y17.0091 Z-0.138
X11.3119 Y17.009 Z-0.1353
X11.311 Y17.0089 Z-0.1324
X11.3107 Z-0.1294
G0 Z0.4
X11.325 Y18.
Z0.1143
G1 Z0.05 F40.
X11.3244 Y18.0006
G3 X11.3238 Y18. I0. J-0.0006
X11.3262 Z0. I0.0012 J0.
X11.3257 Y18.001 Z-0.015 I-0.0012 J0.
X11.3243 Y17.999 Z-0.065 I-0.0007 J-0.001
X11.3254 Y17.9988 Z-0.08 I0.0007 J0.001
X11.3246 Y18.0012 Z-0.13 I-0.0004 J0.0012
X11.3238 Y18.0004 Z-0.145 I0.0004 J-0.0012
X11.3262 Y17.9996 I0.0012 J-0.0004
X11.3238 Y18.0004 I-0.0012 J0.0004
X11.3242 Y17.9996 I0.0006 J-0.0002
G1 X11.325 Y18.
G0 Z0.4
Y19.5
Z0.1143
G1 Z0.05 F40.
X11.3244 Y19.5006
G3 X11.3238 Y19.5 I0. J-0.0006
X11.3263 Z0. I0.0012 J0.
X11.3257 Y19.501 Z-0.015 I-0.0013 J0.
X11.3243 Y19.499 Z-0.065 I-0.0007 J-0.001
X11.3254 Y19.4988 Z-0.08 I0.0007 J0.001
X11.3246 Y19.5012 Z-0.13 I-0.0004 J0.0012
X11.3238 Y19.5004 Z-0.145 I0.0004 J-0.0012
X11.3262 Y19.4996 I0.0012 J-0.0004
X11.3238 Y19.5004 I-0.0012 J0.0004
X11.3242 Y19.4996 I0.0006 J-0.0002
G1 X11.325 Y19.5
G0 Z0.4
X11.3386 Y21.0099
Z0.0861
G1 Z0.0218 F40.
G18 G3 X11.323 Z0.0061 I-0.0156 K0.
G1 X11.3151
G17 G3 X11.3053 Y21. I0. J-0.0099
X11.3447 Z-0.0439 I0.0197 J0.
X11.3245 Y21.0197 Z-0.0693 I-0.0198 J0.
X11.3053 Y20.9991 Z-0.0946 I0.0005 J-0.0197
X11.3262 Y20.9803 Z-0.1198 I0.0197 J0.0009
X11.3447 Y21.0014 Z-0.145 I-0.0012 J0.0197
X11.3053 Y20.9986 I-0.0197 J-0.0014
X11.3447 Y21.0014 I0.0197 J0.0014
X11.3342 Y21.0105 I-0.0098 J-0.0007
G1 X11.3263 Y21.01
X11.3233 Y21.0098 Z-0.1447
X11.3204 Y21.0096 Z-0.1438
X11.3177 Y21.0094 Z-0.1424
X11.3153 Y21.0092 Z-0.1404
X11.3134 Y21.0091 Z-0.138
X11.3119 Y21.009 Z-0.1353
X11.311 Y21.0089 Z-0.1324
X11.3107 Z-0.1294
G0 Z0.6
(2D SLOT CUT)
M7
G0 X10.8718 Y17.1958
Z0.6
Z0.2
G1 Z0.1 F13.333
Y18.5853 Z-0.145 F40.
Y19.7675 F55.
Z-0.045
Y20.524
Z-0.145 F13.333
Y21.15 F55.
G2 X11.05 Y21.3282 I0.1783 J0.
G1 X11.6
G2 X11.7782 Y21.15 I0. J-0.1782
G1 Y17.9811
Z-0.045
Y17.2246
Z-0.145 F13.333
Y16.0205 F55.
G2 X11.6 Y15.8423 I-0.1782 J0.
G1 X11.05
G2 X10.8718 Y16.0205 I0. J0.1782
G1 Y18.5853
G0 Z0.6
M9
G53 Z0.
M30
%
