%
(BACK_1554)
(T1  D=0.1554 CR=0. - ZMIN=-0.3 - FLAT END MILL)
G90 G94 G17 G91.1
G64 P0.001 Q0.001
G20
G53 G0 Z0.
(SMALL HOLE BORE)
M9
T1 M6
S13000 M3
G4 P10.
G54
M7
G0 X0.8864 Y8.4881
G43 Z0.6 H1
G0 Z0.13
G1 Z0.0655 F35.
G19 G3 Y8.5036 Z0.05 J0.0155 K0.
G1 Y8.5114
G17 G3 X0.875 Y8.5228 I-0.0114 J0.
Y8.4772 Z0. I0. J-0.0228
Y8.5228 Z-0.05 I0. J0.0228
Y8.4772 Z-0.1 I0. J-0.0228
Y8.5228 Z-0.15 I0. J0.0228
Y8.4772 Z-0.2 I0. J-0.0228
X0.8967 Y8.507 Z-0.23 I0. J0.0228
X0.8533 Y8.493 Z-0.28 I-0.0217 J-0.007
X0.875 Y8.4772 Z-0.3 I0.0217 J0.007
Y8.5228 I0. J0.0228
Y8.4772 I0. J-0.0228
X0.8864 Y8.4886 I0. J0.0114
G1 Y8.4964
G19 G3 Y8.5119 Z-0.2845 J0. K0.0155
G0 Z0.4
X0.0114 Y8.4881
Z0.13
G1 Z0.0655 F35.
G3 Y8.5036 Z0.05 J0.0155 K0.
G1 Y8.5114
G17 G3 X0. Y8.5228 I-0.0114 J0.
Y8.4772 Z0. I0. J-0.0228
Y8.5228 Z-0.05 I0. J0.0228
Y8.4772 Z-0.1 I0. J-0.0228
Y8.5228 Z-0.15 I0. J0.0228
X-0.0134 Y8.5184 Z-0.16 I0. J-0.0228
X0.0134 Y8.4816 Z-0.21 I0.0134 J-0.0184
X0.0217 Y8.507 Z-0.23 I-0.0134 J0.0184
X-0.0217 Y8.493 Z-0.28 I-0.0217 J-0.007
X0. Y8.4772 Z-0.3 I0.0217 J0.007
Y8.5228 I0. J0.0228
Y8.4772 I0. J-0.0228
X0.0114 Y8.4886 I0. J0.0114
G1 Y8.4964
G19 G3 Y8.5119 Z-0.2845 J0. K0.0155
G0 Z0.4
X-0.0114 Y7.5119
Z0.13
G1 Z0.0655 F35.
G2 Y7.4964 Z0.05 J-0.0155 K0.
G1 Y7.4886
G17 G3 X0. Y7.4772 I0.0114 J0.
Y7.5228 Z0. I0. J0.0228
Y7.4772 Z-0.05 I0. J-0.0228
Y7.5228 Z-0.1 I0. J0.0228
Y7.4772 Z-0.15 I0. J-0.0228
Y7.5228 Z-0.2 I0. J0.0228
Y7.4772 Z-0.25 I0. J-0.0228
Y7.5228 Z-0.3 I0. J0.0228
Y7.4772 I0. J-0.0228
Y7.5228 I0. J0.0228
X-0.0114 Y7.5114 I0. J-0.0114
G1 Y7.5036
G19 G2 Y7.4881 Z-0.2845 J0. K0.0155
G0 Z0.4
X0.8636 Y7.5119
Z0.13
G1 Z0.0655 F35.
G2 Y7.4964 Z0.05 J-0.0155 K0.
G1 Y7.4886
G17 G3 X0.875 Y7.4772 I0.0114 J0.
Y7.5228 Z0. I0. J0.0228
Y7.4772 Z-0.05 I0. J-0.0228
Y7.5228 Z-0.1 I0. J0.0228
Y7.4772 Z-0.15 I0. J-0.0228
Y7.5228 Z-0.2 I0. J0.0228
Y7.4772 Z-0.25 I0. J-0.0228
Y7.5228 Z-0.3 I0. J0.0228
Y7.4772 I0. J-0.0228
Y7.5228 I0. J0.0228
X0.8636 Y7.5114 I0. J-0.0114
G1 Y7.5036
G19 G2 Y7.4881 Z-0.2845 J0. K0.0155
G0 Z0.4
Y6.5119
Z0.13
G1 Z0.0655 F35.
G2 Y6.4964 Z0.05 J-0.0155 K0.
G1 Y6.4886
G17 G3 X0.875 Y6.4772 I0.0114 J0.
Y6.5228 Z0. I0. J0.0228
Y6.4772 Z-0.05 I0. J-0.0228
Y6.5228 Z-0.1 I0. J0.0228
Y6.4772 Z-0.15 I0. J-0.0228
X0.8884 Y6.4816 Z-0.16 I0. J0.0228
X0.8616 Y6.5184 Z-0.21 I-0.0134 J0.0184
X0.8533 Y6.493 Z-0.23 I0.0134 J-0.0184
X0.8967 Y6.507 Z-0.28 I0.0217 J0.007
X0.875 Y6.5228 Z-0.3 I-0.0217 J-0.007
Y6.4772 I0. J-0.0228
Y6.5228 I0. J0.0228
X0.8636 Y6.5114 I0. J-0.0114
G1 Y6.5036
G19 G2 Y6.4881 Z-0.2845 J0. K0.0155
G0 Z0.4
X-0.0114 Y6.5119
Z0.13
G1 Z0.0655 F35.
G2 Y6.4964 Z0.05 J-0.0155 K0.
G1 Y6.4886
G17 G3 X0. Y6.4772 I0.0114 J0.
Y6.5228 Z0. I0. J0.0228
Y6.4772 Z-0.05 I0. J-0.0228
Y6.5228 Z-0.1 I0. J0.0228
Y6.4772 Z-0.15 I0. J-0.0228
X0.0134 Y6.4816 Z-0.16 I0. J0.0228
X-0.0134 Y6.5184 Z-0.21 I-0.0134 J0.0184
X-0.0217 Y6.493 Z-0.23 I0.0134 J-0.0184
X0.0217 Y6.507 Z-0.28 I0.0217 J0.007
X0. Y6.5228 Z-0.3 I-0.0217 J-0.007
Y6.4772 I0. J-0.0228
Y6.5228 I0. J0.0228
X-0.0114 Y6.5114 I0. J-0.0114
G1 Y6.5036
G19 G2 Y6.4881 Z-0.2845 J0. K0.0155
G0 Z0.4
Y5.5119
Z0.13
G1 Z0.0655 F35.
G2 Y5.4964 Z0.05 J-0.0155 K0.
G1 Y5.4886
G17 G3 X0. Y5.4772 I0.0114 J0.
Y5.5228 Z0. I0. J0.0228
Y5.4772 Z-0.05 I0. J-0.0228
Y5.5228 Z-0.1 I0. J0.0228
Y5.4772 Z-0.15 I0. J-0.0228
Y5.5228 Z-0.2 I0. J0.0228
Y5.4772 Z-0.25 I0. J-0.0228
Y5.5228 Z-0.3 I0. J0.0228
Y5.4772 I0. J-0.0228
Y5.5228 I0. J0.0228
X-0.0114 Y5.5114 I0. J-0.0114
G1 Y5.5036
G19 G2 Y5.4881 Z-0.2845 J0. K0.0155
G0 Z0.4
X0.8636 Y5.5119
Z0.13
G1 Z0.0655 F35.
G2 Y5.4964 Z0.05 J-0.0155 K0.
G1 Y5.4886
G17 G3 X0.875 Y5.4772 I0.0114 J0.
Y5.5228 Z0. I0. J0.0228
Y5.4772 Z-0.05 I0. J-0.0228
Y5.5228 Z-0.1 I0. J0.0228
Y5.4772 Z-0.15 I0. J-0.0228
Y5.5228 Z-0.2 I0. J0.0228
Y5.4772 Z-0.25 I0. J-0.0228
Y5.5228 Z-0.3 I0. J0.0228
Y5.4772 I0. J-0.0228
Y5.5228 I0. J0.0228
X0.8636 Y5.5114 I0. J-0.0114
G1 Y5.5036
G19 G2 Y5.4881 Z-0.2845 J0. K0.0155
G0 Z0.4
Y4.5119
Z0.13
G1 Z0.0655 F35.
G2 Y4.4964 Z0.05 J-0.0155 K0.
G1 Y4.4886
G17 G3 X0.875 Y4.4772 I0.0114 J0.
Y4.5228 Z0. I0. J0.0228
Y4.4772 Z-0.05 I0. J-0.0228
Y4.5228 Z-0.1 I0. J0.0228
Y4.4772 Z-0.15 I0. J-0.0228
Y4.5228 Z-0.2 I0. J0.0228
Y4.4772 Z-0.25 I0. J-0.0228
Y4.5228 Z-0.3 I0. J0.0228
Y4.4772 I0. J-0.0228
Y4.5228 I0. J0.0228
X0.8636 Y4.5114 I0. J-0.0114
G1 Y4.5036
G19 G2 Y4.4881 Z-0.2845 J0. K0.0155
G0 Z0.4
X-0.0114 Y4.5119
Z0.13
G1 Z0.0655 F35.
G2 Y4.4964 Z0.05 J-0.0155 K0.
G1 Y4.4886
G17 G3 X0. Y4.4772 I0.0114 J0.
Y4.5228 Z0. I0. J0.0228
Y4.4772 Z-0.05 I0. J-0.0228
Y4.5228 Z-0.1 I0. J0.0228
Y4.4772 Z-0.15 I0. J-0.0228
Y4.5228 Z-0.2 I0. J0.0228
Y4.4772 Z-0.25 I0. J-0.0228
Y4.5228 Z-0.3 I0. J0.0228
Y4.4772 I0. J-0.0228
Y4.5228 I0. J0.0228
X-0.0114 Y4.5114 I0. J-0.0114
G1 Y4.5036
G19 G2 Y4.4881 Z-0.2845 J0. K0.0155
G0 Z0.4
X-0.4261 Y-2.0119
Z0.13
G1 Z0.0655 F35.
G3 Y-1.9964 Z0.05 J0.0155 K0.
G1 Y-1.9886
G17 G3 X-0.4375 Y-1.9772 I-0.0114 J0.
Y-2.0228 Z0. I0. J-0.0228
Y-1.9772 Z-0.05 I0. J0.0228
Y-2.0228 Z-0.1 I0. J-0.0228
Y-1.9772 Z-0.15 I0. J0.0228
Y-2.0228 Z-0.2 I0. J-0.0228
Y-1.9772 Z-0.25 I0. J0.0228
Y-2.0228 Z-0.3 I0. J-0.0228
Y-1.9772 I0. J0.0228
Y-2.0228 I0. J-0.0228
X-0.4261 Y-2.0114 I0. J0.0114
G1 Y-2.0036
G19 G3 Y-1.9881 Z-0.2845 J0. K0.0155
G0 Z0.4
Y-1.0119
Z0.13
G1 Z0.0655 F35.
G3 Y-0.9964 Z0.05 J0.0155 K0.
G1 Y-0.9886
G17 G3 X-0.4375 Y-0.9772 I-0.0114 J0.
Y-1.0228 Z0. I0. J-0.0228
Y-0.9772 Z-0.05 I0. J0.0228
Y-1.0228 Z-0.1 I0. J-0.0228
Y-0.9772 Z-0.15 I0. J0.0228
Y-1.0228 Z-0.2 I0. J-0.0228
Y-0.9772 Z-0.25 I0. J0.0228
Y-1.0228 Z-0.3 I0. J-0.0228
Y-0.9772 I0. J0.0228
Y-1.0228 I0. J-0.0228
X-0.4261 Y-1.0114 I0. J0.0114
G1 Y-1.0036
G19 G3 Y-0.9881 Z-0.2845 J0. K0.0155
G0 Z0.4
X-0.4489 Y0.0119
Z0.13
G1 Z0.0655 F35.
G2 Y-0.0036 Z0.05 J-0.0155 K0.
G1 Y-0.0114
G17 G3 X-0.4375 Y-0.0228 I0.0114 J0.
Y0.0228 Z0. I0. J0.0228
Y-0.0228 Z-0.05 I0. J-0.0228
Y0.0228 Z-0.1 I0. J0.0228
Y-0.0228 Z-0.15 I0. J-0.0228
Y0.0228 Z-0.2 I0. J0.0228
Y-0.0228 Z-0.25 I0. J-0.0228
Y0.0228 Z-0.3 I0. J0.0228
Y-0.0228 I0. J-0.0228
Y0.0228 I0. J0.0228
X-0.4489 Y0.0114 I0. J-0.0114
G1 Y0.0036
G19 G2 Y-0.0119 Z-0.2845 J0. K0.0155
G0 Z0.4
Y1.0119
Z0.13
G1 Z0.0655 F35.
G2 Y0.9964 Z0.05 J-0.0155 K0.
G1 Y0.9886
G17 G3 X-0.4375 Y0.9772 I0.0114 J0.
Y1.0228 Z0. I0. J0.0228
Y0.9772 Z-0.05 I0. J-0.0228
Y1.0228 Z-0.1 I0. J0.0228
Y0.9772 Z-0.15 I0. J-0.0228
Y1.0228 Z-0.2 I0. J0.0228
Y0.9772 Z-0.25 I0. J-0.0228
Y1.0228 Z-0.3 I0. J0.0228
Y0.9772 I0. J-0.0228
Y1.0228 I0. J0.0228
X-0.4489 Y1.0114 I0. J-0.0114
G1 Y1.0036
G19 G2 Y0.9881 Z-0.2845 J0. K0.0155
G0 Z0.4
Y2.0119
Z0.13
G1 Z0.0655 F35.
G2 Y1.9964 Z0.05 J-0.0155 K0.
G1 Y1.9886
G17 G3 X-0.4375 Y1.9772 I0.0114 J0.
Y2.0228 Z0. I0. J0.0228
Y1.9772 Z-0.05 I0. J-0.0228
Y2.0228 Z-0.1 I0. J0.0228
Y1.9772 Z-0.15 I0. J-0.0228
Y2.0228 Z-0.2 I0. J0.0228
Y1.9772 Z-0.25 I0. J-0.0228
Y2.0228 Z-0.3 I0. J0.0228
Y1.9772 I0. J-0.0228
Y2.0228 I0. J0.0228
X-0.4489 Y2.0114 I0. J-0.0114
G1 Y2.0036
G19 G2 Y1.9881 Z-0.2845 J0. K0.0155
G0 Z0.4
X0.8011 Y2.0119
Z0.13
G1 Z0.0655 F35.
G2 Y1.9964 Z0.05 J-0.0155 K0.
G1 Y1.9886
G17 G3 X0.8125 Y1.9772 I0.0114 J0.
Y2.0228 Z0. I0. J0.0228
Y1.9772 Z-0.05 I0. J-0.0228
Y2.0228 Z-0.1 I0. J0.0228
Y1.9772 Z-0.15 I0. J-0.0228
Y2.0228 Z-0.2 I0. J0.0228
Y1.9772 Z-0.25 I0. J-0.0228
Y2.0228 Z-0.3 I0. J0.0228
Y1.9772 I0. J-0.0228
Y2.0228 I0. J0.0228
X0.8011 Y2.0114 I0. J-0.0114
G1 Y2.0036
G19 G2 Y1.9881 Z-0.2845 J0. K0.0155
G0 Z0.4
Y1.0119
Z0.13
G1 Z0.0655 F35.
G2 Y0.9964 Z0.05 J-0.0155 K0.
G1 Y0.9886
G17 G3 X0.8125 Y0.9772 I0.0114 J0.
Y1.0228 Z0. I0. J0.0228
Y0.9772 Z-0.05 I0. J-0.0228
Y1.0228 Z-0.1 I0. J0.0228
Y0.9772 Z-0.15 I0. J-0.0228
Y1.0228 Z-0.2 I0. J0.0228
Y0.9772 Z-0.25 I0. J-0.0228
Y1.0228 Z-0.3 I0. J0.0228
Y0.9772 I0. J-0.0228
Y1.0228 I0. J0.0228
X0.8011 Y1.0114 I0. J-0.0114
G1 Y1.0036
G19 G2 Y0.9881 Z-0.2845 J0. K0.0155
G0 Z0.4
Y0.0119
Z0.13
G1 Z0.0655 F35.
G2 Y-0.0036 Z0.05 J-0.0155 K0.
G1 Y-0.0114
G17 G3 X0.8125 Y-0.0228 I0.0114 J0.
Y0.0228 Z0. I0. J0.0228
Y-0.0228 Z-0.05 I0. J-0.0228
Y0.0228 Z-0.1 I0. J0.0228
Y-0.0228 Z-0.15 I0. J-0.0228
Y0.0228 Z-0.2 I0. J0.0228
Y-0.0228 Z-0.25 I0. J-0.0228
Y0.0228 Z-0.3 I0. J0.0228
Y-0.0228 I0. J-0.0228
Y0.0228 I0. J0.0228
X0.8011 Y0.0114 I0. J-0.0114
G1 Y0.0036
G19 G2 Y-0.0119 Z-0.2845 J0. K0.0155
G0 Z0.4
X0.8239 Y-1.0119
Z0.13
G1 Z0.0655 F35.
G3 Y-0.9964 Z0.05 J0.0155 K0.
G1 Y-0.9886
G17 G3 X0.8125 Y-0.9772 I-0.0114 J0.
Y-1.0228 Z0. I0. J-0.0228
Y-0.9772 Z-0.05 I0. J0.0228
Y-1.0228 Z-0.1 I0. J-0.0228
Y-0.9772 Z-0.15 I0. J0.0228
Y-1.0228 Z-0.2 I0. J-0.0228
Y-0.9772 Z-0.25 I0. J0.0228
Y-1.0228 Z-0.3 I0. J-0.0228
Y-0.9772 I0. J0.0228
Y-1.0228 I0. J-0.0228
X0.8239 Y-1.0114 I0. J0.0114
G1 Y-1.0036
G19 G3 Y-0.9881 Z-0.2845 J0. K0.0155
G0 Z0.4
Y-2.0119
Z0.13
G1 Z0.0655 F35.
G3 Y-1.9964 Z0.05 J0.0155 K0.
G1 Y-1.9886
G17 G3 X0.8125 Y-1.9772 I-0.0114 J0.
Y-2.0228 Z0. I0. J-0.0228
Y-1.9772 Z-0.05 I0. J0.0228
Y-2.0228 Z-0.1 I0. J-0.0228
Y-1.9772 Z-0.15 I0. J0.0228
Y-2.0228 Z-0.2 I0. J-0.0228
Y-1.9772 Z-0.25 I0. J0.0228
Y-2.0228 Z-0.3 I0. J-0.0228
Y-1.9772 I0. J0.0228
Y-2.0228 I0. J-0.0228
X0.8239 Y-2.0114 I0. J0.0114
G1 Y-2.0036
G19 G3 Y-1.9881 Z-0.2845 J0. K0.0155
G0 Z0.4
X0.8864 Y-4.5119
Z0.13
G1 Z0.0655 F35.
G3 Y-4.4964 Z0.05 J0.0155 K0.
G1 Y-4.4886
G17 G3 X0.875 Y-4.4772 I-0.0114 J0.
Y-4.5228 Z0. I0. J-0.0228
Y-4.4772 Z-0.05 I0. J0.0228
Y-4.5228 Z-0.1 I0. J-0.0228
Y-4.4772 Z-0.15 I0. J0.0228
Y-4.5228 Z-0.2 I0. J-0.0228
Y-4.4772 Z-0.25 I0. J0.0228
Y-4.5228 Z-0.3 I0. J-0.0228
Y-4.4772 I0. J0.0228
Y-4.5228 I0. J-0.0228
X0.8864 Y-4.5114 I0. J0.0114
G1 Y-4.5036
G19 G3 Y-4.4881 Z-0.2845 J0. K0.0155
G0 Z0.4
X0.0114 Y-4.5119
Z0.13
G1 Z0.0655 F35.
G3 Y-4.4964 Z0.05 J0.0155 K0.
G1 Y-4.4886
G17 G3 X0. Y-4.4772 I-0.0114 J0.
Y-4.5228 Z0. I0. J-0.0228
Y-4.4772 Z-0.05 I0. J0.0228
Y-4.5228 Z-0.1 I0. J-0.0228
Y-4.4772 Z-0.15 I0. J0.0228
Y-4.5228 Z-0.2 I0. J-0.0228
Y-4.4772 Z-0.25 I0. J0.0228
Y-4.5228 Z-0.3 I0. J-0.0228
Y-4.4772 I0. J0.0228
Y-4.5228 I0. J-0.0228
X0.0114 Y-4.5114 I0. J0.0114
G1 Y-4.5036
G19 G3 Y-4.4881 Z-0.2845 J0. K0.0155
G0 Z0.4
Y-5.5119
Z0.13
G1 Z0.0655 F35.
G3 Y-5.4964 Z0.05 J0.0155 K0.
G1 Y-5.4886
G17 G3 X0. Y-5.4772 I-0.0114 J0.
Y-5.5228 Z0. I0. J-0.0228
Y-5.4772 Z-0.05 I0. J0.0228
Y-5.5228 Z-0.1 I0. J-0.0228
Y-5.4772 Z-0.15 I0. J0.0228
Y-5.5228 Z-0.2 I0. J-0.0228
Y-5.4772 Z-0.25 I0. J0.0228
Y-5.5228 Z-0.3 I0. J-0.0228
Y-5.4772 I0. J0.0228
Y-5.5228 I0. J-0.0228
X0.0114 Y-5.5114 I0. J0.0114
G1 Y-5.5036
G19 G3 Y-5.4881 Z-0.2845 J0. K0.0155
G0 Z0.4
X0.8864 Y-5.5119
Z0.13
G1 Z0.0655 F35.
G3 Y-5.4964 Z0.05 J0.0155 K0.
G1 Y-5.4886
G17 G3 X0.875 Y-5.4772 I-0.0114 J0.
Y-5.5228 Z0. I0. J-0.0228
Y-5.4772 Z-0.05 I0. J0.0228
Y-5.5228 Z-0.1 I0. J-0.0228
Y-5.4772 Z-0.15 I0. J0.0228
Y-5.5228 Z-0.2 I0. J-0.0228
Y-5.4772 Z-0.25 I0. J0.0228
Y-5.5228 Z-0.3 I0. J-0.0228
Y-5.4772 I0. J0.0228
Y-5.5228 I0. J-0.0228
X0.8864 Y-5.5114 I0. J0.0114
G1 Y-5.5036
G19 G3 Y-5.4881 Z-0.2845 J0. K0.0155
G0 Z0.4
Y-6.5119
Z0.13
G1 Z0.0655 F35.
G3 Y-6.4964 Z0.05 J0.0155 K0.
G1 Y-6.4886
G17 G3 X0.875 Y-6.4772 I-0.0114 J0.
Y-6.5228 Z0. I0. J-0.0228
Y-6.4772 Z-0.05 I0. J0.0228
Y-6.5228 Z-0.1 I0. J-0.0228
Y-6.4772 Z-0.15 I0. J0.0228
Y-6.5228 Z-0.2 I0. J-0.0228
X0.8967 Y-6.493 Z-0.23 I0. J0.0228
X0.8533 Y-6.507 Z-0.28 I-0.0217 J-0.007
X0.875 Y-6.5228 Z-0.3 I0.0217 J0.007
Y-6.4772 I0. J0.0228
Y-6.5228 I0. J-0.0228
X0.8864 Y-6.5114 I0. J0.0114
G1 Y-6.5036
G19 G3 Y-6.4881 Z-0.2845 J0. K0.0155
G0 Z0.4
X0.0114 Y-6.5119
Z0.13
G1 Z0.0655 F35.
G3 Y-6.4964 Z0.05 J0.0155 K0.
G1 Y-6.4886
G17 G3 X0. Y-6.4772 I-0.0114 J0.
Y-6.5228 Z0. I0. J-0.0228
Y-6.4772 Z-0.05 I0. J0.0228
Y-6.5228 Z-0.1 I0. J-0.0228
Y-6.4772 Z-0.15 I0. J0.0228
X-0.0134 Y-6.4816 Z-0.16 I0. J-0.0228
X0.0134 Y-6.5184 Z-0.21 I0.0134 J-0.0184
X0.0217 Y-6.493 Z-0.23 I-0.0134 J0.0184
X-0.0217 Y-6.507 Z-0.28 I-0.0217 J-0.007
X0. Y-6.5228 Z-0.3 I0.0217 J0.007
Y-6.4772 I0. J0.0228
Y-6.5228 I0. J-0.0228
X0.0114 Y-6.5114 I0. J0.0114
G1 Y-6.5036
G19 G3 Y-6.4881 Z-0.2845 J0. K0.0155
G0 Z0.4
Y-7.5119
Z0.13
G1 Z0.0655 F35.
G3 Y-7.4964 Z0.05 J0.0155 K0.
G1 Y-7.4886
G17 G3 X0. Y-7.4772 I-0.0114 J0.
Y-7.5228 Z0. I0. J-0.0228
Y-7.4772 Z-0.05 I0. J0.0228
Y-7.5228 Z-0.1 I0. J-0.0228
Y-7.4772 Z-0.15 I0. J0.0228
Y-7.5228 Z-0.2 I0. J-0.0228
Y-7.4772 Z-0.25 I0. J0.0228
Y-7.5228 Z-0.3 I0. J-0.0228
Y-7.4772 I0. J0.0228
Y-7.5228 I0. J-0.0228
X0.0114 Y-7.5114 I0. J0.0114
G1 Y-7.5036
G19 G3 Y-7.4881 Z-0.2845 J0. K0.0155
G0 Z0.4
X0.8864 Y-7.5119
Z0.13
G1 Z0.0655 F35.
G3 Y-7.4964 Z0.05 J0.0155 K0.
G1 Y-7.4886
G17 G3 X0.875 Y-7.4772 I-0.0114 J0.
Y-7.5228 Z0. I0. J-0.0228
Y-7.4772 Z-0.05 I0. J0.0228
Y-7.5228 Z-0.1 I0. J-0.0228
Y-7.4772 Z-0.15 I0. J0.0228
Y-7.5228 Z-0.2 I0. J-0.0228
Y-7.4772 Z-0.25 I0. J0.0228
Y-7.5228 Z-0.3 I0. J-0.0228
Y-7.4772 I0. J0.0228
Y-7.5228 I0. J-0.0228
X0.8864 Y-7.5114 I0. J0.0114
G1 Y-7.5036
G19 G3 Y-7.4881 Z-0.2845 J0. K0.0155
G0 Z0.4
Y-8.5119
Z0.13
G1 Z0.0655 F35.
G3 Y-8.4964 Z0.05 J0.0155 K0.
G1 Y-8.4886
G17 G3 X0.875 Y-8.4772 I-0.0114 J0.
Y-8.5228 Z0. I0. J-0.0228
X0.8967 Y-8.507 Z-0.02 I0. J0.0228
X0.8533 Y-8.493 Z-0.07 I-0.0217 J0.007
X0.8967 Y-8.507 Z-0.12 I0.0217 J-0.007
X0.8616 Y-8.4816 Z-0.16 I-0.0217 J0.007
X0.8884 Y-8.5184 Z-0.21 I0.0134 J-0.0184
X0.8616 Y-8.4816 Z-0.26 I-0.0134 J0.0184
X0.875 Y-8.5228 Z-0.3 I0.0134 J-0.0184
Y-8.4772 I0. J0.0228
Y-8.5228 I0. J-0.0228
X0.8864 Y-8.5114 I0. J0.0114
G1 Y-8.5036
G19 G3 Y-8.4881 Z-0.2845 J0. K0.0155
G0 Z0.4
X0.0114 Y-8.5119
Z0.13
G1 Z0.0655 F35.
G3 Y-8.4964 Z0.05 J0.0155 K0.
G1 Y-8.4886
G17 G3 X0. Y-8.4772 I-0.0114 J0.
Y-8.5228 Z0. I0. J-0.0228
X0.0217 Y-8.507 Z-0.02 I0. J0.0228
X-0.0217 Y-8.493 Z-0.07 I-0.0217 J0.007
X0.0217 Y-8.507 Z-0.12 I0.0217 J-0.007
X-0.0134 Y-8.4816 Z-0.16 I-0.0217 J0.007
X0.0134 Y-8.5184 Z-0.21 I0.0134 J-0.0184
X-0.0134 Y-8.4816 Z-0.26 I-0.0134 J0.0184
X0. Y-8.5228 Z-0.3 I0.0134 J-0.0184
Y-8.4772 I0. J0.0228
Y-8.5228 I0. J-0.0228
X0.0114 Y-8.5114 I0. J0.0114
G1 Y-8.5036
G19 G3 Y-8.4881 Z-0.2845 J0. K0.0155
G0 Z0.6
G17
(2D POCKET)
M7
G0 X0.8898 Y-4.9826
Z0.6
Z0.2
G1 Z0.1 F13.333
G3 X0.875 Y-4.9772 Z0.0972 I-0.0148 J-0.0174
G2 X0.4617 Y-4.2614 Z-0.0791 I0. J0.4772
G3 X0.4222 Y-4.2386 Z-0.0917 I-0.0197 J0.0114
X0.875 Y-5.0228 Z-0.2848 I0.4528 J-0.2614
Y-4.9772 Z-0.2974 I0. J0.0228
G2 X0.8602 Y-4.977 Z-0.3 I0. J0.4772
X0.4617 Y-4.2614 I0.0148 J0.477 F35.
G3 X0.4222 Y-4.2386 I-0.0197 J0.0114
X0.875 Y-5.0228 I0.4528 J-0.2614
Y-4.9772 I0. J0.0228
G2 X0.8602 Y-4.977 I0. J0.4772
G0 Z0.4
X0.0148 Y-4.9826
Z0.2
G1 Z0.1 F13.333
G3 X0. Y-4.9772 Z0.0972 I-0.0148 J-0.0174
G2 X-0.4133 Y-4.2614 Z-0.0791 I0. J0.4772
G3 X-0.4528 Y-4.2386 Z-0.0917 I-0.0197 J0.0114
X0. Y-5.0228 Z-0.2848 I0.4528 J-0.2614
Y-4.9772 Z-0.2974 I0. J0.0228
G2 X-0.0148 Y-4.977 Z-0.3 I0. J0.4772
X-0.4133 Y-4.2614 I0.0148 J0.477 F35.
G3 X-0.4528 Y-4.2386 I-0.0197 J0.0114
X0. Y-5.0228 I0.4528 J-0.2614
Y-4.9772 I0. J0.0228
G2 X-0.0148 Y-4.977 I0. J0.4772
G0 Z0.4
X0.0148 Y-5.9826
Z0.2
G1 Z0.1 F13.333
G3 X0. Y-5.9772 Z0.0972 I-0.0148 J-0.0174
G2 X-0.4133 Y-5.2614 Z-0.0791 I0. J0.4772
G3 X-0.4528 Y-5.2386 Z-0.0917 I-0.0197 J0.0114
X0. Y-6.0228 Z-0.2848 I0.4528 J-0.2614
Y-5.9772 Z-0.2974 I0. J0.0228
G2 X-0.0148 Y-5.977 Z-0.3 I0. J0.4772
X-0.4133 Y-5.2614 I0.0148 J0.477 F35.
G3 X-0.4528 Y-5.2386 I-0.0197 J0.0114
X0. Y-6.0228 I0.4528 J-0.2614
Y-5.9772 I0. J0.0228
G2 X-0.0148 Y-5.977 I0. J0.4772
G0 Z0.4
X0.8898 Y-5.9826
Z0.2
G1 Z0.1 F13.333
G3 X0.875 Y-5.9772 Z0.0972 I-0.0148 J-0.0174
G2 X0.4617 Y-5.2614 Z-0.0791 I0. J0.4772
G3 X0.4222 Y-5.2386 Z-0.0917 I-0.0197 J0.0114
X0.875 Y-6.0228 Z-0.2848 I0.4528 J-0.2614
Y-5.9772 Z-0.2974 I0. J0.0228
G2 X0.8602 Y-5.977 Z-0.3 I0. J0.4772
X0.4617 Y-5.2614 I0.0148 J0.477 F35.
G3 X0.4222 Y-5.2386 I-0.0197 J0.0114
X0.875 Y-6.0228 I0.4528 J-0.2614
Y-5.9772 I0. J0.0228
G2 X0.8602 Y-5.977 I0. J0.4772
G0 Z0.4
X0.8898 Y-6.9826
Z0.2
G1 Z0.1 F13.333
G3 X0.875 Y-6.9772 Z0.0972 I-0.0148 J-0.0174
G2 X0.4617 Y-6.2614 Z-0.0791 I0. J0.4772
G3 X0.4222 Y-6.2386 Z-0.0917 I-0.0197 J0.0114
X0.875 Y-7.0228 Z-0.2848 I0.4528 J-0.2614
Y-6.9772 Z-0.2974 I0. J0.0228
G2 X0.8602 Y-6.977 Z-0.3 I0. J0.4772
X0.4617 Y-6.2614 I0.0148 J0.477 F35.
G3 X0.4222 Y-6.2386 I-0.0197 J0.0114
X0.875 Y-7.0228 I0.4528 J-0.2614
Y-6.9772 I0. J0.0228
G2 X0.8602 Y-6.977 I0. J0.4772
G0 Z0.4
X0.0148 Y-6.9826
Z0.2
G1 Z0.1 F13.333
G3 X0. Y-6.9772 Z0.0972 I-0.0148 J-0.0174
G2 X-0.4133 Y-6.2614 Z-0.0791 I0. J0.4772
G3 X-0.4528 Y-6.2386 Z-0.0917 I-0.0197 J0.0114
X0. Y-7.0228 Z-0.2848 I0.4528 J-0.2614
Y-6.9772 Z-0.2974 I0. J0.0228
G2 X-0.0148 Y-6.977 Z-0.3 I0. J0.4772
X-0.4133 Y-6.2614 I0.0148 J0.477 F35.
G3 X-0.4528 Y-6.2386 I-0.0197 J0.0114
X0. Y-7.0228 I0.4528 J-0.2614
Y-6.9772 I0. J0.0228
G2 X-0.0148 Y-6.977 I0. J0.4772
G0 Z0.4
X0.0148 Y-7.9826
Z0.2
G1 Z0.1 F13.333
G3 X0. Y-7.9772 Z0.0972 I-0.0148 J-0.0174
G2 X-0.0148 Y-7.977 Z0.0946 I0. J0.4772
X-0.4133 Y-7.2614 Z-0.0791 I0.0148 J0.477
G3 X-0.4528 Y-7.2386 Z-0.0917 I-0.0197 J0.0114
X0. Y-8.0228 Z-0.2848 I0.4528 J-0.2614
Y-7.9772 Z-0.2974 I0. J0.0228
G2 X-0.0148 Y-7.977 Z-0.3 I0. J0.4772
X-0.4133 Y-7.2614 I0.0148 J0.477 F35.
G3 X-0.4528 Y-7.2386 I-0.0197 J0.0114
X0. Y-8.0228 I0.4528 J-0.2614
Y-7.9772 I0. J0.0228
G2 X-0.0148 Y-7.977 I0. J0.4772
G0 Z0.4
X0.8898 Y-7.9826
Z0.2
G1 Z0.1 F13.333
G3 X0.875 Y-7.9772 Z0.0972 I-0.0148 J-0.0174
G2 X0.4617 Y-7.2614 Z-0.0791 I0. J0.4772
G3 X0.4222 Y-7.2386 Z-0.0917 I-0.0197 J0.0114
X0.875 Y-8.0228 Z-0.2848 I0.4528 J-0.2614
Y-7.9772 Z-0.2974 I0. J0.0228
G2 X0.8602 Y-7.977 Z-0.3 I0. J0.4772
X0.4617 Y-7.2614 I0.0148 J0.477 F35.
G3 X0.4222 Y-7.2386 I-0.0197 J0.0114
X0.875 Y-8.0228 I0.4528 J-0.2614
Y-7.9772 I0. J0.0228
G2 X0.8602 Y-7.977 I0. J0.4772
G0 Z0.4
X0.8898 Y-8.9826
Z0.2
G1 Z0.1 F13.333
G3 X0.875 Y-8.9772 Z0.0972 I-0.0148 J-0.0174
G2 X0.4617 Y-8.2614 Z-0.0791 I0. J0.4772
G3 X0.4222 Y-8.2386 Z-0.0917 I-0.0197 J0.0114
X0.875 Y-9.0228 Z-0.2848 I0.4528 J-0.2614
Y-8.9772 Z-0.2974 I0. J0.0228
G2 X0.8602 Y-8.977 Z-0.3 I0. J0.4772
X0.4617 Y-8.2614 I0.0148 J0.477 F35.
G3 X0.4222 Y-8.2386 I-0.0197 J0.0114
X0.875 Y-9.0228 I0.4528 J-0.2614
Y-8.9772 I0. J0.0228
G2 X0.8602 Y-8.977 I0. J0.4772
G0 Z0.4
X0.0148 Y-8.9826
Z0.2
G1 Z0.1 F13.333
G3 X0. Y-8.9772 Z0.0972 I-0.0148 J-0.0174
G2 X-0.4133 Y-8.2614 Z-0.0791 I0. J0.4772
G3 X-0.4528 Y-8.2386 Z-0.0917 I-0.0197 J0.0114
X0. Y-9.0228 Z-0.2848 I0.4528 J-0.2614
Y-8.9772 Z-0.2974 I0. J0.0228
G2 X-0.0148 Y-8.977 Z-0.3 I0. J0.4772
X-0.4133 Y-8.2614 I0.0148 J0.477 F35.
G3 X-0.4528 Y-8.2386 I-0.0197 J0.0114
X0. Y-9.0228 I0.4528 J-0.2614
Y-8.9772 I0. J0.0228
G2 X-0.0148 Y-8.977 I0. J0.4772
G0 Z0.4
X0.0148 Y5.0174
Z0.2
G1 Z0.1 F13.333
G3 X0. Y5.0228 Z0.0972 I-0.0148 J-0.0174
X-0.4528 Y4.2386 Z-0.0959 I0. J-0.5228
X-0.4216 Y4.2303 Z-0.1022 I0.0197 J0.0114
X-0.4133 Y4.2614 Z-0.1085 I-0.0114 J0.0197
G2 X0. Y4.9772 Z-0.2848 I0.4133 J0.2386
G3 Y5.0228 Z-0.2974 I0. J0.0228
X-0.0148 Y5.0226 Z-0.3 I0. J-0.5228
X-0.4528 Y4.2386 I0.0148 J-0.5226 F35.
X-0.4216 Y4.2303 I0.0197 J0.0114
X-0.4133 Y4.2614 I-0.0114 J0.0197
G2 X0. Y4.9772 I0.4133 J0.2386
G3 Y5.0228 I0. J0.0228
X-0.0148 Y5.0226 I0. J-0.5228
G0 Z0.4
X0.8898 Y5.0174
Z0.2
G1 Z0.1 F13.333
G3 X0.875 Y5.0228 Z0.0972 I-0.0148 J-0.0174
X0.4222 Y4.2386 Z-0.0959 I0. J-0.5228
X0.4534 Y4.2303 Z-0.1022 I0.0197 J0.0114
X0.4617 Y4.2614 Z-0.1085 I-0.0114 J0.0197
G2 X0.875 Y4.9772 Z-0.2848 I0.4133 J0.2386
G3 Y5.0228 Z-0.2974 I0. J0.0228
X0.8602 Y5.0226 Z-0.3 I0. J-0.5228
X0.4222 Y4.2386 I0.0148 J-0.5226 F35.
X0.4534 Y4.2303 I0.0197 J0.0114
X0.4617 Y4.2614 I-0.0114 J0.0197
G2 X0.875 Y4.9772 I0.4133 J0.2386
G3 Y5.0228 I0. J0.0228
X0.8602 Y5.0226 I0. J-0.5228
G0 Z0.4
X0.8898 Y6.0174
Z0.2
G1 Z0.1 F13.333
G3 X0.875 Y6.0228 Z0.0972 I-0.0148 J-0.0174
X0.4222 Y5.2386 Z-0.0959 I0. J-0.5228
X0.4534 Y5.2303 Z-0.1022 I0.0197 J0.0114
X0.4617 Y5.2614 Z-0.1085 I-0.0114 J0.0197
G2 X0.875 Y5.9772 Z-0.2848 I0.4133 J0.2386
G3 Y6.0228 Z-0.2974 I0. J0.0228
X0.8602 Y6.0226 Z-0.3 I0. J-0.5228
X0.4222 Y5.2386 I0.0148 J-0.5226 F35.
X0.4534 Y5.2303 I0.0197 J0.0114
X0.4617 Y5.2614 I-0.0114 J0.0197
G2 X0.875 Y5.9772 I0.4133 J0.2386
G3 Y6.0228 I0. J0.0228
X0.8602 Y6.0226 I0. J-0.5228
G0 Z0.4
X0.0148 Y6.0174
Z0.2
G1 Z0.1 F13.333
G3 X0. Y6.0228 Z0.0972 I-0.0148 J-0.0174
X-0.4528 Y5.2386 Z-0.0959 I0. J-0.5228
X-0.4216 Y5.2303 Z-0.1022 I0.0197 J0.0114
X-0.4133 Y5.2614 Z-0.1085 I-0.0114 J0.0197
G2 X0. Y5.9772 Z-0.2848 I0.4133 J0.2386
G3 Y6.0228 Z-0.2974 I0. J0.0228
X-0.0148 Y6.0226 Z-0.3 I0. J-0.5228
X-0.4528 Y5.2386 I0.0148 J-0.5226 F35.
X-0.4216 Y5.2303 I0.0197 J0.0114
X-0.4133 Y5.2614 I-0.0114 J0.0197
G2 X0. Y5.9772 I0.4133 J0.2386
G3 Y6.0228 I0. J0.0228
X-0.0148 Y6.0226 I0. J-0.5228
G0 Z0.4
X0.0148 Y7.0174
Z0.2
G1 Z0.1 F13.333
G3 X0. Y7.0228 Z0.0972 I-0.0148 J-0.0174
X-0.4528 Y6.2386 Z-0.0959 I0. J-0.5228
X-0.4216 Y6.2303 Z-0.1022 I0.0197 J0.0114
X-0.4133 Y6.2614 Z-0.1085 I-0.0114 J0.0197
G2 X0. Y6.9772 Z-0.2848 I0.4133 J0.2386
G3 Y7.0228 Z-0.2974 I0. J0.0228
X-0.0148 Y7.0226 Z-0.3 I0. J-0.5228
X-0.4528 Y6.2386 I0.0148 J-0.5226 F35.
X-0.4216 Y6.2303 I0.0197 J0.0114
X-0.4133 Y6.2614 I-0.0114 J0.0197
G2 X0. Y6.9772 I0.4133 J0.2386
G3 Y7.0228 I0. J0.0228
X-0.0148 Y7.0226 I0. J-0.5228
G0 Z0.4
X0.8898 Y7.0174
Z0.2
G1 Z0.1 F13.333
G3 X0.875 Y7.0228 Z0.0972 I-0.0148 J-0.0174
X0.4222 Y6.2386 Z-0.0959 I0. J-0.5228
X0.4534 Y6.2303 Z-0.1022 I0.0197 J0.0114
X0.4617 Y6.2614 Z-0.1085 I-0.0114 J0.0197
G2 X0.875 Y6.9772 Z-0.2848 I0.4133 J0.2386
G3 Y7.0228 Z-0.2974 I0. J0.0228
X0.8602 Y7.0226 Z-0.3 I0. J-0.5228
X0.4222 Y6.2386 I0.0148 J-0.5226 F35.
X0.4534 Y6.2303 I0.0197 J0.0114
X0.4617 Y6.2614 I-0.0114 J0.0197
G2 X0.875 Y6.9772 I0.4133 J0.2386
G3 Y7.0228 I0. J0.0228
X0.8602 Y7.0226 I0. J-0.5228
G0 Z0.4
X0.8898 Y8.0174
Z0.2
G1 Z0.1 F13.333
G3 X0.875 Y8.0228 Z0.0972 I-0.0148 J-0.0174
X0.4222 Y7.2386 Z-0.0959 I0. J-0.5228
X0.4534 Y7.2303 Z-0.1022 I0.0197 J0.0114
X0.4617 Y7.2614 Z-0.1085 I-0.0114 J0.0197
G2 X0.875 Y7.9772 Z-0.2848 I0.4133 J0.2386
G3 Y8.0228 Z-0.2974 I0. J0.0228
X0.8602 Y8.0226 Z-0.3 I0. J-0.5228
X0.4222 Y7.2386 I0.0148 J-0.5226 F35.
X0.4534 Y7.2303 I0.0197 J0.0114
X0.4617 Y7.2614 I-0.0114 J0.0197
G2 X0.875 Y7.9772 I0.4133 J0.2386
G3 Y8.0228 I0. J0.0228
X0.8602 Y8.0226 I0. J-0.5228
G0 Z0.4
X0.0148 Y8.0174
Z0.2
G1 Z0.1 F13.333
G3 X0. Y8.0228 Z0.0972 I-0.0148 J-0.0174
X-0.4528 Y7.2386 Z-0.0959 I0. J-0.5228
X-0.4216 Y7.2303 Z-0.1022 I0.0197 J0.0114
X-0.4133 Y7.2614 Z-0.1085 I-0.0114 J0.0197
G2 X0. Y7.9772 Z-0.2848 I0.4133 J0.2386
G3 Y8.0228 Z-0.2974 I0. J0.0228
X-0.0148 Y8.0226 Z-0.3 I0. J-0.5228
X-0.4528 Y7.2386 I0.0148 J-0.5226 F35.
X-0.4216 Y7.2303 I0.0197 J0.0114
X-0.4133 Y7.2614 I-0.0114 J0.0197
G2 X0. Y7.9772 I0.4133 J0.2386
G3 Y8.0228 I0. J0.0228
X-0.0148 Y8.0226 I0. J-0.5228
G0 Z0.4
X0.0148 Y9.0174
Z0.2
G1 Z0.1 F13.333
G3 X0. Y9.0228 Z0.0972 I-0.0148 J-0.0174
X-0.4528 Y8.2386 Z-0.0959 I0. J-0.5228
X-0.4216 Y8.2303 Z-0.1022 I0.0197 J0.0114
X-0.4133 Y8.2614 Z-0.1085 I-0.0114 J0.0197
G2 X0. Y8.9772 Z-0.2848 I0.4133 J0.2386
G3 Y9.0228 Z-0.2974 I0. J0.0228
X-0.0148 Y9.0226 Z-0.3 I0. J-0.5228
X-0.4528 Y8.2386 I0.0148 J-0.5226 F35.
X-0.4216 Y8.2303 I0.0197 J0.0114
X-0.4133 Y8.2614 I-0.0114 J0.0197
G2 X0. Y8.9772 I0.4133 J0.2386
G3 Y9.0228 I0. J0.0228
X-0.0148 Y9.0226 I0. J-0.5228
G0 Z0.4
X0.8898 Y9.0174
Z0.2
G1 Z0.1 F13.333
G3 X0.875 Y9.0228 Z0.0972 I-0.0148 J-0.0174
X0.4222 Y8.2386 Z-0.0959 I0. J-0.5228
X0.4534 Y8.2303 Z-0.1022 I0.0197 J0.0114
X0.4617 Y8.2614 Z-0.1085 I-0.0114 J0.0197
G2 X0.875 Y8.9772 Z-0.2848 I0.4133 J0.2386
G3 Y9.0228 Z-0.2974 I0. J0.0228
X0.8602 Y9.0226 Z-0.3 I0. J-0.5228
X0.4222 Y8.2386 I0.0148 J-0.5226 F35.
X0.4534 Y8.2303 I0.0197 J0.0114
X0.4617 Y8.2614 I-0.0114 J0.0197
G2 X0.875 Y8.9772 I0.4133 J0.2386
G3 Y9.0228 I0. J0.0228
X0.8602 Y9.0226 I0. J-0.5228
G0 Z0.6
(2D CONTOUR)
M7
G0 X-0.8902 Y-2.2685
Z0.6
Z0.2
G1 Z0.1 F13.333
Y0. Z-0.3
Y3.1632 F60.
Z-0.175
Y4.3186
Z-0.3 F13.333
Y8.3595 F60.
Z-0.175
Y9.25
G2 X-0.7554 Y9.5149 I0.3277 J0.
G1 Z-0.3 F13.333
G2 X-0.5625 Y9.5777 I0.1929 J-0.2649 F60.
G1 X0.9375
G2 X1.2652 Y9.25 I0. J-0.3277
G1 Y7.2295
Z-0.175
Y6.0741
Z-0.3 F13.333
Y2.0332 F60.
Z-0.175
Y0.8778
Z-0.3 F13.333
Y-3.1632 F60.
Z-0.175
Y-4.3186
Z-0.3 F13.333
Y-8.3595 F60.
Z-0.175
Y-9.25
G2 X1.1304 Y-9.5149 I-0.3277 J0.
G1 Z-0.3 F13.333
G2 X0.9375 Y-9.5777 I-0.1929 J0.2649 F60.
G1 X-0.5625
G2 X-0.8902 Y-9.25 I0. J0.3277
G1 Y-7.2295
Z-0.175
Y-6.0741
Z-0.3 F13.333
Y-2.0332 F60.
Z-0.175
Y-0.8778
Z-0.3 F13.333
Y0. F60.
G0 Z0.6
M9
G53 Z0.
M30
%
