%
(971-23-P-0129_PI SLIDE PLATE_1565)
(T1  D=0.1565 CR=0. - ZMIN=-0.145 - FLAT END MILL)
G90 G94 G17 G91.1
G64 P0.001 Q0.001
G20
G53 G0 Z0.
(SHAPE THROUGH HOLE)
M9
T1 M6
S22000 M3
G4 P10.
G54
M7
G0 X-10.3103 Y16.7751
G43 Z0.6 H1
G0 Z0.1
G3 X-10.4571 Y16.7516 Z0.0588 I-0.0734 J-0.0117 F50.
X-10.3103 Y16.7751 Z0.0176 I0.0734 J0.0117
X-10.4571 Y16.7516 Z-0.0235 I-0.0734 J-0.0117
X-10.3103 Y16.7751 Z-0.0647 I0.0734 J0.0117
X-10.4571 Y16.7516 Z-0.1059 I-0.0734 J-0.0117
X-10.3094 Y16.7634 Z-0.145 I0.0734 J0.0117
X-10.458 I-0.0743 J0.
X-10.3096 Y16.7571 I0.0743 J0.
G1 X-10.3094 Y16.7634
G3 X-10.4745 Y16.8807 I-0.0848 J0.0556 F60.
G2 X-10.4914 Y16.7326 I-0.2347 J-0.0482
G3 X-10.3229 Y16.6222 I0.1103 J-0.0155
X-10.2754 Y16.905 I-0.3421 J0.2028
G1 X-10.2824 Y16.9247
G3 X-10.5085 Y16.9671 I-0.1302 J-0.07
G1 X-10.5008 Y16.9522
X-10.4835 Y16.905
X-10.4745 Y16.8807
G3 X-10.4621 Y16.8712 I0.0145 J0.0059
X-10.433 Y16.9134 I0.0039 J0.0285
X-10.4784 Y16.9507 I-0.0691 J-0.0378
X-10.4926 Y16.9538 I-0.0237 J-0.0751 F50.
G2 X-10.5051 Y16.9632 I0.0019 J0.0155
G1 X-10.5124 Y16.9821 F60.
G2 X-10.3404 Y17.0739 I0.1172 J-0.0124
X-10.2824 Y16.9247 I-1.9256 J-0.8339
X-10.2857 Y16.9094 I-0.0149 J-0.0047
X-10.3345 Y16.9096 I-0.0243 J0.0222
X-10.3499 Y17.0461 I0.0878 J0.0791
X-10.3421 Y17.0584 I0.1032 J-0.0575 F50.
G3 X-10.3404 Y17.0739 I-0.0126 J0.0092
G1 X-10.3433 Y17.081 F60.
X-10.3469 Y17.0878
X-10.3509 Y17.0943
X-10.3555 Y17.1005
X-10.3605 Y17.1063
X-10.3659 Y17.1116
X-10.3718 Y17.1166
X-10.3781 Y17.121
X-10.3846 Y17.1249
X-10.3915 Y17.1283
X-10.3986 Y17.1312
X-10.4059 Y17.1335
X-10.4134 Y17.1352
X-10.421 Y17.1363
X-10.4286 Y17.1368
X-10.4363 Y17.1367
X-10.4439 Y17.136
X-10.4515 Y17.1347
X-10.4589 Y17.1327
X-10.4662 Y17.1303
X-10.4732 Y17.1272
X-10.48 Y17.1236
X-10.4864 Y17.1195
X-10.4925 Y17.1149
X-10.4983 Y17.1098
X-10.5036 Y17.1043
X-10.5085 Y17.0983
X-10.5128 Y17.092
X-10.5167 Y17.0854
X-10.52 Y17.0785
X-10.5228 Y17.0714
X-10.525 Y17.064
X-10.5266 Y17.0566
X-10.5276 Y17.049
X-10.5281 Y17.0413
X-10.5279 Y17.0336
X-10.5271 Y17.026
X-10.5257 Y17.0185
X-10.5237 Y17.0111
X-10.5211 Y17.0039
X-10.518 Y16.9969
X-10.5143 Y16.9901
X-10.5101 Y16.9837
X-10.5093 Y16.9815
X-10.5081 Y16.9793
X-10.5064 Y16.9775
X-10.5044 Y16.9759
X-10.5021 Y16.9747
X-10.4996 Y16.9739
X-10.4969 Y16.9736
X-10.4942 Y16.9738
X-10.4915 Y16.9745
X-10.489 Y16.9758
X-10.4867 Y16.9774
X-10.4846 Y16.9796 Z-0.1447
X-10.4826 Y16.9818 Z-0.1438
X-10.4807 Y16.9837 Z-0.1424
X-10.4791 Y16.9854 Z-0.1404
X-10.4777 Y16.9868 Z-0.138
X-10.4767 Y16.9879 Z-0.1353
X-10.4761 Y16.9885 Z-0.1324
X-10.4759 Y16.9888 Z-0.1294
G0 Z0.4
X-10.461 Y16.7675
Z-0.1137
G1 Z-0.1294 F50.
X-10.4613 Y16.7673 Z-0.1324
X-10.462 Y16.7667 Z-0.1353
X-10.4631 Y16.7658 Z-0.138
X-10.4646 Y16.7646 Z-0.1404
X-10.4664 Y16.7631 Z-0.1424
X-10.4685 Y16.7614 Z-0.1438
X-10.4708 Y16.7595 Z-0.1447
X-10.4731 Y16.7576 Z-0.145
G3 X-10.4914 Y16.7326 I0.0395 J-0.0482
G1 X-10.4974 Y16.7162 F60.
X-10.5141 Y16.669
X-10.5171 Y16.659
G3 X-10.3948 Y16.5238 I0.1244 J-0.0104
X-10.3875 Y16.5489 I-0.0046 J0.015
G1 X-10.4907 Y16.6643
X-10.4918 Y16.6655
G3 X-10.5171 Y16.659 I-0.0105 J-0.0116 F50.
X-10.3395 Y16.57 I0.0888 J-0.0445 F60.
X-10.3293 Y16.6221 I-0.0888 J0.0445
G1 X-10.3279 Y16.6238
X-10.3269 Y16.6258
X-10.3263 Y16.628
X-10.3262 Y16.6305
X-10.3267 Y16.633
X-10.3276 Y16.6354
X-10.3291 Y16.6377
X-10.3311 Y16.6397
X-10.3336 Y16.6413
X-10.3364 Y16.6424
X-10.3395 Y16.6429
X-10.3425 Y16.6426 Z-0.1447
X-10.3454 Y16.6423 Z-0.1438
X-10.3481 Y16.6421 Z-0.1424
X-10.3505 Y16.6419 Z-0.1404
X-10.3524 Y16.6417 Z-0.138
X-10.3539 Y16.6415 Z-0.1353
X-10.3548 Y16.6414 Z-0.1324
X-10.3551 Z-0.1294
G0 Z0.4
X-9.603 Y16.0199
Z0.1
G3 X-9.7498 Y15.9964 Z0.0588 I-0.0734 J-0.0117 F50.
X-9.603 Y16.0199 Z0.0176 I0.0734 J0.0117
X-9.7498 Y15.9964 Z-0.0235 I-0.0734 J-0.0117
X-9.603 Y16.0199 Z-0.0647 I0.0734 J0.0117
X-9.7498 Y15.9964 Z-0.1059 I-0.0734 J-0.0117
X-9.6021 Y16.0081 Z-0.145 I0.0734 J0.0117
X-9.7508 I-0.0743 J0.
X-9.6023 Y16.0019 I0.0743 J0.
G1 X-9.6021 Y16.0081
G3 X-9.5837 Y16.0739 I-0.0723 J0.0556 F60.
G1 X-9.6006 Y16.1025
X-9.6007 Y16.1037
X-9.6054 Y16.1108
X-9.6106 Y16.1175
X-9.6163 Y16.1238
X-9.6224 Y16.1297
X-9.6289 Y16.1351
X-9.6359 Y16.14
X-9.6431 Y16.1445
X-9.6507 Y16.1483
X-9.6585 Y16.1516
X-9.6666 Y16.1543
X-9.6748 Y16.1565
X-9.6831 Y16.158
X-9.6916 Y16.1589
X-9.7001 Y16.1592
X-9.7086 Y16.1588
X-9.717 Y16.1579
X-9.7254 Y16.1563
X-9.7336 Y16.1542
X-9.7416 Y16.1514
X-9.7494 Y16.1481
X-9.757 Y16.1442
X-9.7642 Y16.1397
X-9.7711 Y16.1348
X-9.7776 Y16.1293
X-9.7837 Y16.1234
X-9.7894 Y16.1171
X-9.7945 Y16.1103
X-9.7992 Y16.1032
X-9.7994 Y16.1025
X-9.8179 Y16.0712
X-9.8219 Y16.0629
X-9.8255 Y16.0544
X-9.8285 Y16.0456
X-9.8309 Y16.0367
X-9.8327 Y16.0277
X-9.834 Y16.0185
X-9.8347 Y16.0093
X-9.8349 Y16.0001
X-9.8344 Y15.9908
X-9.8334 Y15.9816
X-9.8318 Y15.9725
X-9.8296 Y15.9636
X-9.8269 Y15.9547
X-9.8236 Y15.9461
X-9.8197 Y15.9377
X-9.8154 Y15.9295
X-9.8105 Y15.9217
X-9.8052 Y15.9141
X-9.7994 Y15.907
X-9.7931 Y15.9001
X-9.7865 Y15.8937
X-9.7794 Y15.8878
X-9.772 Y15.8823
X-9.7643 Y15.8772
X-9.7562 Y15.8727
X-9.7236 Y15.8936
X-9.6764
X-9.6717 Y15.8909
G3 X-9.5056 Y16.0214 I0.0357 J0.1256
G1 X-9.535 Y16.0383
X-9.5579 Y16.0515
G3 X-9.5735 Y16.051 I-0.0074 J-0.0138
X-9.5788 Y16.0415 I0.0059 J-0.0095
G1 X-9.5786 Y16.0399
X-9.5783 Y16.0383
G3 X-9.5774 Y16.0361 I0.0107 J0.0032
X-9.5367 Y16.0163 I0.0344 J0.0191
X-9.5231 Y16.0212 I-0.0062 J0.0389 F50.
G2 X-9.5075 Y16.0213 I0.0079 J-0.0135
G1 X-9.4916 Y16.0115 F60.
X-9.4863 Y16.0046
X-9.4816 Y15.9973
X-9.4774 Y15.9897
X-9.4737 Y15.9819
X-9.4707 Y15.9738
X-9.4682 Y15.9654
X-9.4663 Y15.957
X-9.465 Y15.9484
X-9.4644 Y15.9397
Y15.9311
X-9.465 Y15.9224
X-9.4662 Y15.9138
X-9.468 Y15.9053
X-9.4705 Y15.897
X-9.4735 Y15.8889
X-9.4771 Y15.881
X-9.4813 Y15.8734
X-9.486 Y15.8661
X-9.4912 Y15.8591
X-9.4969 Y15.8526
X-9.5031 Y15.8465
X-9.5097 Y15.8408
X-9.5166 Y15.8357
X-9.524 Y15.831
X-9.5316 Y15.8269
X-9.5395 Y15.8234
X-9.5477 Y15.8204
X-9.556 Y15.818
X-9.5821 Y15.837
X-9.6293 Y15.8667
X-9.6717 Y15.8909
G2 X-9.6619 Y15.92 I0.0078 J0.0136
G3 X-9.6578 Y15.9511 I0.002 J0.0155
X-9.6693 Y15.948 I-0.002 J-0.0155
G1 X-9.7289 Y15.903
X-9.7312 Y15.9008
X-9.7331 Y15.8982
G2 X-9.7545 Y15.876 I-0.0542 J0.0307 F50.
G1 X-9.771 Y15.8665 F60.
X-9.7757 Y15.8636
G2 X-9.9175 Y16.0059 I-0.0257 J0.1161
G3 X-9.8179 Y16.0712 I-0.5194 J0.901
G2 X-9.7977 Y16.0473 I0.0101 J-0.012
X-9.8201 Y16.0496 I-0.0101 J0.012
X-9.817 Y16.0719 I0.0123 J0.0096
G1 X-9.7871 Y16.0936
G2 X-9.7687 Y16.0682 I0.0092 J-0.0127
X-9.7916 Y16.0734 I-0.0092 J0.0127
X-9.7994 Y16.1033 I0.0546 J0.03 F50.
G1 X-9.7978 Y16.1497 F60.
G2 X-9.6086 Y16.2227 I0.1207 J-0.0313
G1 X-9.6022 Y16.1969
Y16.1497
X-9.6007 Y16.1037
G2 X-9.6163 Y16.0881 I-0.0156 J0.
X-9.6314 Y16.1008 I0. J0.0154
X-9.6197 Y16.1935 I0.1551 J0.0275
X-9.611 Y16.21 I0.1433 J-0.0652 F50.
G3 X-9.6092 Y16.2218 I-0.0134 J0.0081
X-9.7382 Y16.2864 I-0.0942 J-0.0271 F60.
X-9.7919 Y16.1525 I0.0347 J-0.0917
G0 X-9.7978 Y16.1497 Z0.4
X-9.8722 Y16.0162
Z-0.1137
G1 Z-0.1294 F50.
X-9.8725 Z-0.1324
X-9.8734 Z-0.1353
X-9.8748 Y16.0161 Z-0.138
X-9.8768 Y16.016 Z-0.1404
X-9.8792 Y16.0158 Z-0.1424
X-9.8819 Y16.0157 Z-0.1438
X-9.8848 Y16.0155 Z-0.1447
X-9.8878 Y16.0153 Z-0.145
G3 X-9.9173 Y16.0058 I0.0038 J-0.0622
G1 X-9.9388 Y15.9912 F60.
X-9.9443 Y15.9845
X-9.9494 Y15.9775
X-9.9539 Y15.9702
X-9.9579 Y15.9625
X-9.9613 Y15.9546
X-9.9642 Y15.9465
X-9.9665 Y15.9382
X-9.9682 Y15.9297
X-9.9693 Y15.9212
X-9.9698 Y15.9126
X-9.9697 Y15.9039
X-9.969 Y15.8954
X-9.9677 Y15.8868
X-9.9657 Y15.8784
X-9.9632 Y15.8702
X-9.9602 Y15.8621
X-9.9565 Y15.8543
X-9.9523 Y15.8468
X-9.9476 Y15.8395
X-9.9424 Y15.8327
X-9.9368 Y15.8262
X-9.9307 Y15.8201
X-9.9241 Y15.8145
X-9.9172 Y15.8093
X-9.91 Y15.8046
X-9.9024 Y15.8005
X-9.8946 Y15.7969
X-9.8865 Y15.7939
X-9.8782 Y15.7914
G2 X-9.7757 Y15.8636 I0.403 J-0.4636
G3 X-9.7689 Y15.8776 I-0.0088 J0.0129
X-9.7946 Y15.9017 I-0.0259 J-0.0019
X-9.874 Y15.8227 I-0.0006 J-0.0787
X-9.8726 Y15.8082 I0.0787 J0.0003 F50.
G2 X-9.8777 Y15.7934 I-0.0154 J-0.0029
G1 X-9.8953 Y15.7792 F60.
X-9.9034 Y15.7766
X-9.9117 Y15.7746
X-9.9201 Y15.7731
X-9.9286 Y15.7723
X-9.9371 Y15.7721
X-9.9456 Y15.7725
X-9.9541 Y15.7735
X-9.9625 Y15.7752
X-9.9707 Y15.7774
X-9.9787 Y15.7803
X-9.9865 Y15.7837
X-9.9941 Y15.7876
X-10.0013 Y15.7922
X-10.0082 Y15.7972
X-10.0147 Y15.8027
X-10.0208 Y15.8086
X-10.0264 Y15.815
X-10.0316 Y15.8218
X-10.0363 Y15.829
X-10.0404 Y15.8364
X-10.044 Y15.8442
X-10.047 Y15.8521
X-10.0494 Y15.8603
X-10.0512 Y15.8686
X-10.0524 Y15.8771
X-10.053 Y15.8856
Y15.8941
X-10.0523 Y15.9026
G2 X-9.9388 Y15.9912 I0.65 J-0.7159
X-9.9232 Y15.9918 I0.0083 J-0.0132
X-9.9147 Y15.9308 I-0.0176 J-0.0335
X-9.9961 Y15.8982 I-0.0815 J0.0855
G1 X-9.9962
G2 X-10.0225 Y15.9012 I0. J0.1181
X-10.0365 Y15.9053 I0.0263 J0.1151 F50.
G3 X-10.0518 Y15.9025 I-0.0053 J-0.0147
G1 X-10.0729 Y15.8837 F60.
X-10.0774 Y15.8764
X-10.0814 Y15.8688
X-10.0849 Y15.8609
X-10.0878 Y15.8527
X-10.0902 Y15.8444
X-10.0919 Y15.836
X-10.0931 Y15.8274
X-10.0936 Y15.8188
X-10.0935 Y15.8102
X-10.0928 Y15.8016
X-10.0915 Y15.793
X-10.0897 Y15.7846
X-10.0872 Y15.7763
X-10.0841 Y15.7683
X-10.0805 Y15.7604
X-10.0764 Y15.7528
X-10.0717 Y15.7456
X-10.0665 Y15.7387
X-10.0608 Y15.7322
X-10.0547 Y15.7261
X-10.0482 Y15.7204
X-10.0413 Y15.7152
X-10.0341 Y15.7105
X-10.0265 Y15.7064
X-10.0187 Y15.7027
X-10.0106 Y15.6997
X-10.0023 Y15.6972
X-9.9939 Y15.6953
X-9.9854 Y15.694
G2 X-9.8953 Y15.7792 I0.6447 J-0.5911
G3 X-9.8902 Y15.794 I-0.0102 J0.0118
X-9.9176 Y15.8137 I-0.0241 J-0.0046
X-9.9851 Y15.7255 I0.0105 J-0.078
X-9.9819 Y15.7113 I0.0781 J0.0102 F50.
G2 X-9.9852 Y15.696 I-0.0149 J-0.0049
G1 X-10.0027 Y15.6777 F60.
G2 X-10.1727 Y15.7777 I-0.0523 J0.1056
X-10.0729 Y15.8837 I0.5502 J-0.4179
X-10.0575 Y15.8864 I0.01 J-0.012
X-10.0402 Y15.8317 I-0.0125 J-0.034
X-10.1432 Y15.7814 I-0.0968 J0.0677
X-10.1576 Y15.783 I0.0061 J0.118 F50.
G3 X-10.1723 Y15.7777 I-0.0027 J-0.0154
X-10.1396 Y15.6412 I0.0824 J-0.0524 F60.
X-10.0043 Y15.6786 I0.0496 J0.0841
G1 X-10.0025 Y15.6807
X-10.0011 Y15.6832
X-10.0003 Y15.686
X-10. Y15.6889
X-10.0003 Y15.6918
X-10.0012 Y15.6946
X-10.0027 Y15.6973
X-10.0047 Y15.6996
X-10.0071 Y15.7015
X-10.0099 Y15.7029
X-10.0128 Y15.7038 Z-0.1447
X-10.0156 Y15.7047 Z-0.1438
X-10.0182 Y15.7055 Z-0.1424
X-10.0205 Y15.7062 Z-0.1404
X-10.0223 Y15.7068 Z-0.138
X-10.0237 Y15.7072 Z-0.1353
X-10.0246 Y15.7075 Z-0.1324
X-10.0249 Z-0.1294
G0 Z0.4
X-9.5812 Y15.8583
Z-0.1137
G1 Z-0.1294 F50.
X-9.5811 Y15.858 Z-0.1324
X-9.5808 Y15.8572 Z-0.1353
X-9.5802 Y15.8559 Z-0.138
X-9.5794 Y15.8541 Z-0.1404
X-9.5785 Y15.8519 Z-0.1424
X-9.5774 Y15.8494 Z-0.1438
X-9.5763 Y15.8467 Z-0.1447
X-9.5751 Y15.8439 Z-0.145
G3 X-9.5563 Y15.8193 I0.0574 J0.0243
G1 X-9.535 Y15.8037 F60.
G3 X-9.3812 Y15.9318 I0.0351 J0.1143
X-9.4916 Y16.0115 I-0.7202 J-0.8811
X-9.5072 Y16.0114 I-0.0077 J-0.0136
X-9.5105 Y15.9485 I0.019 J-0.0325
X-9.411 Y15.9295 I0.0698 J0.0953
X-9.3972 Y15.934 I-0.0297 J0.1143 F50.
G2 X-9.3818 Y15.9317 I0.0058 J-0.0146
G1 X-9.3606 Y15.9137 F60.
G2 X-9.4421 Y15.7228 I-0.0996 J-0.0703
G1 X-9.4878 Y15.7651
X-9.4959 Y15.7721
X-9.535 Y15.8037
G2 X-9.5401 Y15.8184 I0.0102 J0.0118
X-9.513 Y15.8383 I0.0242 J-0.0046
X-9.4438 Y15.7538 I-0.0094 J-0.0782
X-9.4463 Y15.7395 I-0.0785 J0.0063 F50.
G3 X-9.4423 Y15.7244 I0.0151 J-0.0041
G1 X-9.4407 Y15.7229 F60.
X-9.4262 Y15.7078
X-9.4184 Y15.7044
X-9.4103 Y15.7016
X-9.4021 Y15.6994
X-9.3937 Y15.6977
X-9.3853 Y15.6967
X-9.3767 Y15.6963
X-9.3682 Y15.6965
X-9.3597 Y15.6973
X-9.3513 Y15.6988
X-9.343 Y15.7008
X-9.3349 Y15.7034
X-9.327 Y15.7066
X-9.3194 Y15.7104
X-9.312 Y15.7147
X-9.305 Y15.7196
X-9.2983 Y15.7249
X-9.2921 Y15.7307
X-9.2862 Y15.737
X-9.2809 Y15.7436
X-9.276 Y15.7506
X-9.2717 Y15.758
X-9.2679 Y15.7656
X-9.2647 Y15.7735
X-9.262 Y15.7816
X-9.26 Y15.7899
X-9.2585 Y15.7983
X-9.2577 Y15.8068
X-9.2574 Y15.8153
G3 X-9.3607 Y15.9136 I-0.8149 J-0.753
G1 X-9.363 Y15.9151
X-9.3654 Y15.9162
X-9.368 Y15.9168
X-9.3707 Y15.917
X-9.3734 Y15.9168
X-9.3761 Y15.916
G3 X-9.3904 Y15.8546 I0.0141 J-0.0357
X-9.2873 Y15.8167 I0.0876 J0.0792
X-9.2731 Y15.8194 I-0.0154 J0.1171 F50.
G2 X-9.258 Y15.8153 I0.0039 J-0.0151
G1 X-9.2521 Y15.8088 F60.
X-9.2377 Y15.7905
G2 X-9.2973 Y15.6282 I-0.1064 J-0.053
X-9.4262 Y15.7078 I-0.0033 J0.1388
X-9.4273 Y15.7131 I0.0041 J0.0036
G1 X-9.4272 Y15.7132
G2 X-9.3213 Y15.6464 I-0.1758 J-0.3958
X-9.3026 Y15.6295 I-0.2816 J-0.329 F50.
G3 X-9.2973 Y15.6282 I0.0038 J0.0039
X-9.2373 Y15.7909 I-0.0106 J0.0963 F60.
G1 X-9.2394 Y15.7929
X-9.2418 Y15.7945
X-9.2444 Y15.7956
X-9.2472 Y15.7962
X-9.2501 Y15.7964
X-9.2529 Y15.796
X-9.2556 Y15.7951
X-9.2581 Y15.7937
X-9.2603 Y15.792
X-9.2622 Y15.7898
X-9.2636 Y15.7874
X-9.265 Y15.7847 Z-0.1447
X-9.2663 Y15.7821 Z-0.1438
X-9.2675 Y15.7797 Z-0.1424
X-9.2686 Y15.7775 Z-0.1404
X-9.2695 Y15.7758 Z-0.138
X-9.2701 Y15.7745 Z-0.1353
X-9.2705 Y15.7737 Z-0.1324
X-9.2707 Y15.7735 Z-0.1294
G0 Z0.4
X-9.2258 Y18.3799
Z0.1
G3 X-9.3726 Y18.3565 Z0.0588 I-0.0734 J-0.0117 F50.
X-9.2258 Y18.3799 Z0.0176 I0.0734 J0.0117
X-9.3726 Y18.3565 Z-0.0235 I-0.0734 J-0.0117
X-9.2258 Y18.3799 Z-0.0647 I0.0734 J0.0117
X-9.3726 Y18.3565 Z-0.1059 I-0.0734 J-0.0117
X-9.2249 Y18.3682 Z-0.145 I0.0734 J0.0117
X-9.3736 I-0.0743 J0.
X-9.2251 Y18.362 I0.0743 J0.
G1 X-9.2249 Y18.3682
G3 X-9.2182 Y18.3899 I-0.1001 J0.0428 F60.
X-9.2992 Y18.4823 I-0.1526 J-0.0522
X-9.4519 Y18.3493 I-0.0438 J-0.1039
X-9.2992 Y18.271 I0.1591 J0.1222
X-9.2168 Y18.3903 I-0.0112 J0.0958
G1 X-9.2181 Y18.3923
X-9.2197 Y18.3941
X-9.2214 Y18.3956
X-9.2376 Y18.4138
X-9.2784 Y18.4594
X-9.2973 Y18.4805 F50.
X-9.2992 Y18.4823
X-9.338 Y18.5098 F60.
X-9.3464 Y18.5155
X-9.3621 Y18.5258
G3 X-9.5373 Y18.3868 I-0.0443 J-0.1241
G1 X-9.4878 Y18.3738
X-9.4789 Y18.3682
X-9.4511 Y18.3496
G3 X-9.4295 Y18.3546 I0.0083 J0.0133
X-9.4355 Y18.385 I-0.0193 J0.012
X-9.505 Y18.3964 I-0.0462 J-0.0638
X-9.522 Y18.3889 I0.0233 J-0.0752 F50.
G2 X-9.5338 Y18.3872 I-0.008 J0.0134
G1 X-9.535 Y18.3875 F60.
X-9.5454 Y18.3876
G2 X-9.5212 Y18.5811 I0.0622 J0.0905
X-9.3621 Y18.5258 I-0.0032 J-0.2658
X-9.3555 Y18.5116 I-0.009 J-0.0128
X-9.3781 Y18.492 I-0.0215 J0.0019
X-9.5014 Y18.5627 I0.0083 J0.1573
X-9.5088 Y18.5752 I0.1315 J0.0866 F50.
G3 X-9.5221 Y18.5834 I-0.0138 J-0.0074
G1 X-9.5715 F60.
G3 X-9.6578 Y18.3862 I0.0229 J-0.1276
G1 X-9.5821 Y18.3878
X-9.5454 Y18.3876
G3 X-9.5321 Y18.3957 I-0.0004 J0.0156
X-9.5468 Y18.4335 I-0.0233 J0.0126
X-9.634 Y18.4082 I-0.0257 J-0.0744
X-9.642 Y18.3961 I0.0615 J-0.0492 F50.
G2 X-9.6552 Y18.3878 I-0.0138 J0.0074
G1 X-9.6764 F60.
X-9.6842 Y18.3908
X-9.6917 Y18.3943
X-9.699 Y18.3983
X-9.706 Y18.4028
X-9.7126 Y18.4078
X-9.7188 Y18.4133
X-9.7247 Y18.4192
X-9.7301 Y18.4256
X-9.735 Y18.4322
X-9.7395 Y18.4393
X-9.7434 Y18.4466
X-9.7468 Y18.4542
X-9.7496 Y18.462
X-9.7519 Y18.47
X-9.7536 Y18.4781
X-9.7547 Y18.4864
X-9.7552 Y18.4946
Y18.503
X-9.7545 Y18.5112
X-9.7532 Y18.5195
X-9.7514 Y18.5276
X-9.749 Y18.5355
X-9.746 Y18.5433
X-9.7425 Y18.5508
X-9.7384 Y18.558
X-9.7338 Y18.565
X-9.7288 Y18.5716
X-9.7233 Y18.5778
X-9.7173 Y18.5836
X-9.5715 Y18.5834
G2 X-9.5582 Y18.5752 I-0.0005 J-0.0156
X-9.5935 Y18.5128 I-0.0375 J-0.02
X-9.6963 Y18.5628 I-0.0062 J0.1179
X-9.7039 Y18.5752 I0.0966 J0.0679 F50.
G3 X-9.7172 Y18.5834 I-0.0138 J-0.0074
G1 X-9.7472 F60.
G3 X-9.8055 Y18.3865 I0.0346 J-0.1174
G1 X-9.7707 Y18.3878
X-9.6764
G3 X-9.6632 Y18.3961 I-0.0005 J0.0156
X-9.6662 Y18.4159 I-0.0147 J0.0078
X-9.7833 Y18.4081 I-0.0551 J-0.0563
X-9.7912 Y18.3959 I0.062 J-0.0485 F50.
G2 X-9.8044 Y18.3874 I-0.0139 J0.0072
G1 X-9.8179 Y18.3873 F60.
X-9.82 Y18.3865
G2 X-9.8852 Y18.5767 I0.0179 J0.1123
G1 X-9.865 Y18.5834
X-9.7472
G2 X-9.7339 Y18.5752 I-0.0005 J-0.0156
X-9.7461 Y18.5437 I-0.0197 J-0.0105
X-9.8604 Y18.5633 I-0.0397 J0.1112
X-9.871 Y18.5731 I0.0746 J0.0916 F50.
G3 X-9.8861 Y18.5775 I-0.0113 J-0.0108
G1 X-9.9122 Y18.5702 F60.
X-9.9356 Y18.557
G3 X-9.9184 Y18.3351 I0.0839 J-0.1051
G2 X-9.82 Y18.3865 I0.1587 J-0.1836
G3 X-9.8103 Y18.3988 I-0.0058 J0.0146
X-9.8517 Y18.4359 I-0.033 J0.0049
X-9.9101 Y18.3669 I0.02 J-0.0762
Y18.3524 I0.0784 J-0.0071 F50.
G2 X-9.9166 Y18.3382 I-0.0156 J-0.0015
G1 X-9.934 Y18.3267 F60.
X-9.9423 Y18.3254
X-9.9508 Y18.3247
X-9.9592 Y18.3246
X-9.9677 Y18.3251
X-9.9761 Y18.3263
X-9.9843 Y18.3281
X-9.9925 Y18.3304
X-10.0004 Y18.3334
X-10.0081 Y18.3369
X-10.0155 Y18.341
X-10.0226 Y18.3456
X-10.0293 Y18.3507
X-10.0357 Y18.3563
X-10.0416 Y18.3623
X-10.0471 Y18.3687
X-10.0521 Y18.3756
X-10.0566 Y18.3828
X-10.0605 Y18.3902
X-10.0639 Y18.398
X-10.0667 Y18.406
X-10.0689 Y18.4141
X-10.0705 Y18.4224
X-10.0715 Y18.4308
X-10.0719 Y18.4393
X-10.0717 Y18.4478
X-10.0708 Y18.4562
X-10.0693 Y18.4645
X-10.0673 Y18.4727
G2 X-9.9356 Y18.557 I1.1893 J-1.7134
X-9.9199 Y18.5563 I0.0072 J-0.0139
X-9.9129 Y18.4967 I-0.0209 J-0.0327
X-10.0384 Y18.4677 I-0.085 J0.082
X-10.0517 Y18.4735 I0.0404 J0.111 F50.
G3 X-10.0673 Y18.4727 I-0.0071 J-0.0139
G1 X-10.0818 Y18.4626 F60.
X-10.0923 Y18.4551
G3 X-10.0721 Y18.2774 I0.0922 J-0.0796
X-10.0512 Y18.293 I0.0053 J0.0147
G1 X-10.0681 Y18.4438
X-10.0682 Y18.4449
G3 X-10.0923 Y18.4551 I-0.0154 J-0.0028 F50.
X-9.9933 Y18.2839 I0.0495 J-0.0856 F60.
X-9.9623 Y18.312 I-0.0495 J0.0856
G1 X-9.9426 Y18.321
X-9.934 Y18.3267
G3 X-9.9349 Y18.3528 I-0.0091 J0.0128
G1 X-9.9375 Y18.3544 Z-0.1447
X-9.94 Y18.3559 Z-0.1438
X-9.9423 Y18.3573 Z-0.1424
X-9.9444 Y18.3586 Z-0.1404
X-9.946 Y18.3596 Z-0.138
X-9.9472 Y18.3603 Z-0.1353
X-9.948 Y18.3608 Z-0.1324
X-9.9483 Y18.361 Z-0.1294
G0 Z0.4
X-9.603 Y17.5303
Z0.1
G3 X-9.7498 Y17.5069 Z0.0588 I-0.0734 J-0.0117 F50.
X-9.603 Y17.5303 Z0.0176 I0.0734 J0.0117
X-9.7498 Y17.5069 Z-0.0235 I-0.0734 J-0.0117
X-9.603 Y17.5303 Z-0.0647 I0.0734 J0.0117
X-9.7498 Y17.5069 Z-0.1059 I-0.0734 J-0.0117
X-9.6021 Y17.5186 Z-0.145 I0.0734 J0.0117
X-9.7508 I-0.0743 J0.
X-9.6023 Y17.5124 I0.0743 J0.
G1 X-9.6021 Y17.5186
G3 X-9.6421 Y17.6563 I-0.063 J0.0564 F60.
G1 X-9.6764 Y17.6405
X-9.7236
G3 X-9.825 Y17.4675 I0.0146 J-0.1248
G1 X-9.8228 Y17.4656
X-9.8203 Y17.4642
X-9.8176 Y17.4632
X-9.8147 Y17.4628
X-9.8118 Y17.4629
X-9.809 Y17.4636
X-9.8064 Y17.4647
X-9.804 Y17.4663
X-9.8019 Y17.4683
X-9.8003 Y17.4707
X-9.7993 Y17.4724
X-9.7197 Y17.614
X-9.717 Y17.6189 F50.
G3 X-9.7236 Y17.6405 I-0.0136 J0.0077
G1 X-9.7663 Y17.6602 F60.
X-9.7707 Y17.6612
X-9.8087 Y17.6597
G3 X-9.8164 Y17.4643 I0.0235 J-0.0988
X-9.5775 Y17.4729 I0.1182 J0.0384
X-9.6424 Y17.6573 I-0.0328 J0.0921
G1 X-9.6449 Y17.6557
X-9.6471 Y17.6536
X-9.6488 Y17.6512
X-9.6501 Y17.6486
X-9.6509 Y17.6457
X-9.6511 Y17.6428
X-9.6509 Y17.64
X-9.6501 Y17.6372
X-9.6488 Y17.6346
X-9.6472 Y17.6323
X-9.6451 Y17.6304
X-9.6428 Y17.6284 Z-0.1447
X-9.6405 Y17.6265 Z-0.1438
X-9.6384 Y17.6248 Z-0.1424
X-9.6366 Y17.6233 Z-0.1404
X-9.6351 Y17.622 Z-0.138
X-9.634 Y17.6211 Z-0.1353
X-9.6334 Y17.6205 Z-0.1324
X-9.6331 Y17.6203 Z-0.1294
G0 Z0.4
X-8.9429 Y16.7751
Z0.1
G3 X-9.0897 Y16.7516 Z0.0588 I-0.0734 J-0.0117 F50.
X-8.9429 Y16.7751 Z0.0176 I0.0734 J0.0117
X-9.0897 Y16.7516 Z-0.0235 I-0.0734 J-0.0117
X-8.9429 Y16.7751 Z-0.0647 I0.0734 J0.0117
X-9.0897 Y16.7516 Z-0.1059 I-0.0734 J-0.0117
X-8.942 Y16.7634 Z-0.145 I0.0734 J0.0117
X-9.0906 I-0.0743 J0.
X-8.9422 Y16.7571 I0.0743 J0.
G1 X-8.942 Y16.7634
G3 X-8.933 Y16.799 I-0.0347 J0.0277 F60.
G1 X-8.9373 Y16.8106
X-8.9361 Y16.8287
X-8.9379 Y16.8365
X-8.9403 Y16.8442
X-8.9433 Y16.8516
X-8.9469 Y16.8588
X-8.951 Y16.8657
X-8.9555 Y16.8723
X-8.9606 Y16.8786
X-8.9661 Y16.8844
X-8.972 Y16.8898
X-8.9783 Y16.8948
X-8.985 Y16.8992
X-8.992 Y16.9032
X-8.9992 Y16.9066
X-9.0067 Y16.9095
X-9.0144 Y16.9118
X-9.0223 Y16.9135
X-9.0302 Y16.9147
X-9.0382 Y16.9152
X-9.0462 Y16.9151
X-9.0542 Y16.9145
X-9.0622 Y16.9132
X-9.07 Y16.9114
X-9.0776 Y16.909
X-9.0851 Y16.906
X-9.0923 Y16.9025
X-9.0992 Y16.8984
X-9.1058 Y16.8938
X-9.112 Y16.8888
X-9.1179 Y16.8833
X-9.1233 Y16.8774
X-9.1283 Y16.8711
X-9.1328 Y16.8644
G3 X-9.0936 Y16.669 I0.3339 J-0.0347
X-8.8878 Y16.6777 I0.1005 J0.0622
G1 X-8.933 Y16.799
G3 X-8.9454 Y16.8086 I-0.0145 J-0.006
X-8.9607 Y16.8003 I-0.0019 J-0.0147
X-8.9156 Y16.6917 I0.0709 J-0.0342
X-8.9015 Y16.6882 I0.0258 J0.0744 F50.
G2 X-8.8893 Y16.6785 I-0.0023 J-0.0155
G1 X-8.8859 Y16.669 F60.
X-8.8804 Y16.6509
X-8.88 Y16.6426
X-8.8803 Y16.6343
X-8.8811 Y16.626
X-8.8826 Y16.6178
X-8.8847 Y16.6097
X-8.8873 Y16.6018
X-8.8905 Y16.5942
X-8.8943 Y16.5867
X-8.8987 Y16.5796
X-8.9035 Y16.5729
X-8.9088 Y16.5665
X-8.9146 Y16.5605
X-8.9208 Y16.5549
X-8.9274 Y16.5498
X-8.9344 Y16.5453
X-8.9416 Y16.5412
X-8.9492 Y16.5377
X-8.957 Y16.5348
X-8.965 Y16.5324
X-8.9731 Y16.5307
X-8.9814 Y16.5295
X-8.9897 Y16.529
X-8.998
X-9.0063 Y16.5297
X-9.0145 Y16.531
X-9.0226 Y16.5329
G2 X-9.0936 Y16.669 I0.1765 J0.1786
X-9.0903 Y16.6842 I0.0149 J0.0048
X-9.0686 Y16.6867 I0.0122 J-0.0111
X-9.021 Y16.5625 I-0.0673 J-0.0971
X-9.0252 Y16.5486 I-0.1149 J0.0272 F50.
G3 X-9.0226 Y16.5331 I0.0147 J-0.0054
X-8.8812 Y16.6505 I0.0554 J0.0771 F60.
G1 X-8.8819 Y16.6529
X-8.883 Y16.6552
X-8.8845 Y16.6573
X-8.8863 Y16.6591
G2 X-8.8914 Y16.6652 I0.009 J0.0128
G1 X-8.8969 Y16.6765
X-8.9481 Y16.7841
G2 X-8.9468 Y16.7997 I0.0141 J0.0067
G3 X-8.9361 Y16.8287 I-0.0512 J0.0355 F50.
G1 X-8.934 Y16.8578 F60.
X-8.9262 Y16.8789
X-8.9261 Y16.8873
X-8.9266 Y16.8956
X-8.9278 Y16.9039
X-8.9295 Y16.9121
X-8.9318 Y16.9201
X-8.9347 Y16.928
X-8.9382 Y16.9356
X-8.9422 Y16.943
X-8.9468 Y16.95
X-8.9518 Y16.9567
X-8.9573 Y16.963
X-8.9633 Y16.9688
X-8.9697 Y16.9743
X-8.9765 Y16.9792
X-8.9836 Y16.9836
X-8.991 Y16.9875
X-8.9986 Y16.9909
X-9.0065 Y16.9937
X-9.0146 Y16.9958
X-9.0228 Y16.9974
X-9.0312 Y16.9984
X-9.0395 Y16.9988
X-9.0479 Y16.9986
X-9.0562 Y16.9978
X-9.0645 Y16.9963
X-9.0726 Y16.9943
X-9.0805 Y16.9916
X-9.0883 Y16.9884
X-9.0957 Y16.9847
G3 X-9.1342 Y16.8653 I0.9127 J-0.3596
X-9.1292 Y16.8505 I0.0153 J-0.0031
X-9.1123 Y16.8487 I0.0097 J0.0109
X-9.084 Y16.9576 I-0.0392 J0.0683
X-9.0926 Y16.9693 I-0.0675 J-0.0406 F50.
G2 X-9.0957 Y16.9846 I0.0117 J0.0104
G1 X-9.0902 Y16.9994 F60.
X-9.0854 Y17.0123
X-9.0801 Y17.0193
X-9.0742 Y17.0258
X-9.068 Y17.0319
X-9.0613 Y17.0375
X-9.0542 Y17.0427
X-9.0468 Y17.0473
X-9.0391 Y17.0514
X-9.0311 Y17.0549
X-9.0229 Y17.0579
X-9.0145 Y17.0602
X-9.0059 Y17.062
X-8.9972 Y17.0631
X-8.9885 Y17.0636
X-8.9798 Y17.0635
X-8.9711 Y17.0627
X-8.9624 Y17.0614
X-8.9539 Y17.0594
X-8.9456 Y17.0568
X-8.9374 Y17.0536
X-8.9295 Y17.0499
X-8.9219 Y17.0456
X-8.9146 Y17.0407
X-8.9077 Y17.0354
X-8.9012 Y17.0296
X-8.8951 Y17.0233
X-8.8895 Y17.0166
X-8.8844 Y17.0095
X-8.8798 Y17.0021
G3 X-8.9262 Y16.8789 I3.682 J-1.4573
G2 X-8.9386 Y16.8693 I-0.0145 J0.0059
X-8.9718 Y16.9067 I-0.004 J0.0299
X-8.9048 Y16.9854 I0.1144 J-0.0296
X-8.8912 Y16.9904 I0.0474 J-0.1082 F50.
G3 X-8.8804 Y17.0017 I-0.0045 J0.015
G1 X-8.8749 Y17.0293 F60.
X-8.8739 Y17.0345
X-8.8735 Y17.0365
X-8.8732 Y17.0382
G3 Y17.0517 I-0.0255 J0.0067
X-8.9035 Y17.0481 I-0.0148 J-0.0052
G1 X-8.904 Y17.0433
G3 X-8.8976 Y17.029 I0.0156 J-0.0016
X-8.8732 Y17.0382 I0.0092 J0.0127 F50.
G1 X-8.8716 Y17.0466 F60.
X-8.8749 Y17.0571
X-8.8817 Y17.0754
G3 X-8.9347 Y17.1286 I-0.0932 J-0.0399
X-8.9496 Y17.1024 I-0.0037 J-0.0152
G1 X-8.9078 Y17.0595
G3 X-8.8978 Y17.0548 I0.0112 J0.0109
X-8.8817 Y17.0754 I0.0013 J0.0156 F50.
G1 X-8.8855 Y17.0824 F60.
X-8.8897 Y17.0891
X-8.8945 Y17.0954
X-8.8997 Y17.1014
X-8.9054 Y17.1069
X-8.9115 Y17.112
X-8.918 Y17.1166
X-8.9248 Y17.1206
X-8.9318 Y17.1242
X-8.9392 Y17.1272
X-8.9467 Y17.1296
X-8.9544 Y17.1314
X-8.9623 Y17.1326
X-8.9701 Y17.1333
X-8.9781
X-8.986 Y17.1327
X-8.9938 Y17.1314
X-9.0015 Y17.1296
X-9.0091 Y17.1272
X-9.0164 Y17.1243
X-9.0235 Y17.1207
X-9.0303 Y17.1167
X-9.0367 Y17.1121
X-9.0428 Y17.107
X-9.0485 Y17.1015
X-9.0538 Y17.0956
X-9.0585 Y17.0893
X-9.0628 Y17.0826
X-9.0665 Y17.0756
X-9.0697 Y17.0684
X-9.0724 Y17.0609
X-9.0744 Y17.0533
X-9.0759 Y17.0455
X-9.0767 Y17.0376
X-9.0769 Y17.0297
X-9.0766 Y17.0218
X-9.0756 Y17.014
X-9.0854 Y17.0134
X-9.0952 Y17.0122
X-9.1049 Y17.0104
X-9.1145 Y17.0081
X-9.124 Y17.0051
X-9.1332 Y17.0016
X-9.1422 Y16.9976
X-9.151 Y16.993
X-9.1594 Y16.988
X-9.1676 Y16.9824
X-9.1753 Y16.9763
X-9.1827 Y16.9698
X-9.1898 Y16.9628
X-9.1963 Y16.9555
X-9.2024 Y16.9477
X-9.2081 Y16.9396
X-9.2132 Y16.9312
X-9.2178 Y16.9225
X-9.2219 Y16.9135
X-9.2255 Y16.9043
X-9.2285 Y16.8949
X-9.2309 Y16.8853
X-9.2327 Y16.8756
X-9.234 Y16.8658
X-9.2346 Y16.856
X-9.2347 Y16.8461
X-9.2342 Y16.8363
X-9.233 Y16.8265
X-9.2313 Y16.8167
X-9.2291 Y16.8072
X-9.2262 Y16.7977
X-9.2228 Y16.7885
X-9.2188 Y16.7794
G3 X-9.0282 Y16.4357 I0.3862 J-0.0106
X-8.813 Y16.7308 I0.0529 J0.1874
G2 X-8.78 Y17.0298 I0.7201 J0.0718
G3 X-9.1138 Y17.157 I-0.1892 J0.0052
X-9.3237 Y16.8622 I0.1975 J-0.3626
X-9.2381 Y16.5047 I0.7777 J-0.0028
G1 X-9.1697 Y16.4238
G3 X-8.6942 Y16.5786 I0.2028 J0.1848
G1 X-8.6932 Y16.6241
G2 X-8.7073 Y16.871 I0.8197 J0.1705
G3 X-8.6932 Y16.9367 I-0.3984 J0.1196
G0 Z0.4
X-8.71 Y16.581
Z-0.1137
G1 Z-0.1294 F50.
X-8.7098 Y16.5813 Z-0.1324
X-8.7094 Y16.582 Z-0.1353
X-8.7086 Y16.5833 Z-0.138
X-8.7076 Y16.585 Z-0.1404
X-8.7064 Y16.587 Z-0.1424
X-8.705 Y16.5893 Z-0.1438
X-8.7035 Y16.5918 Z-0.1447
X-8.702 Y16.5945 Z-0.145
G3 X-8.6932 Y16.6241 I-0.0536 J0.0318
G1 Y17.0485 F60.
G3 X-9.1684 Y17.235 I-0.2766 J-0.0061
G1 X-9.3575 Y17.0129
G3 X-9.4086 Y16.7065 I0.3106 J-0.2092
X-9.3816 Y16.7143 I0.0116 J0.0105
G1 X-9.3305 Y16.9997
X-9.3303 Y17.0028
X-9.3307 Y17.006
X-9.3317 Y17.0089
G3 X-9.3575 Y17.0129 I-0.0142 J-0.0065 F50.
G1 X-9.4769 Y16.8717 F60.
G3 X-9.4978 Y16.8122 I0.027 J-0.0429
X-9.4725 Y16.8152 I0.0116 J0.0105
G1 X-9.472 Y16.8162
X-9.4516 Y16.8537
G3 X-9.4511 Y16.8677 I-0.0137 J0.0075
X-9.4769 Y16.8717 I-0.0142 J-0.0065 F50.
X-9.5085 Y16.8275 I0.0099 J-0.0405 F60.
G1 X-9.5038 Y16.8194
X-9.5033 Y16.8186
X-9.2381 Y16.5047
G3 X-9.223 Y16.5 I0.0116 J0.0105
G1 X-9.209 Y16.5032
X-8.7189 Y16.6155
G2 X-8.702 Y16.6082 I0.0035 J-0.0153
X-8.6932 Y16.5785 I-0.0536 J-0.0318 F50.
G1 Y16.4356 F60.
G2 X-9.0167 Y16.2433 I-0.2631 J0.0744
G1 X-9.0188 Y16.2452
X-9.1697 Y16.4238
G2 X-9.172 Y16.4393 I0.0123 J0.0097
X-9.1109 Y16.466 I0.0441 J-0.0176
X-9.0163 Y16.2744 I-0.0565 J-0.147
X-9.021 Y16.2607 I-0.151 J0.0446 F50.
G3 X-9.0188 Y16.2452 I0.0145 J-0.0058
G1 X-8.9805 Y16.1998 F60.
G3 X-8.6932 Y16.2494 I0.1133 J0.2004
G1 Y16.4356
G3 X-8.7015 Y16.4488 I-0.0156 J-0.0005
X-8.7375 Y16.4416 I-0.0136 J-0.0255
X-8.7139 Y16.2703 I0.0915 J-0.0747
X-8.7015 Y16.2627 I0.0679 J0.0966 F50.
G2 X-8.6932 Y16.2494 I-0.0074 J-0.0138
G1 Y16.2046 F60.
G2 X-8.8771 Y16.0774 I-0.1644 J0.0412
G1 X-8.9805 Y16.1998
G2 X-8.9827 Y16.2153 I0.0123 J0.0097
X-8.9217 Y16.2337 I0.0378 J-0.0151
X-8.8748 Y16.1067 I-0.0673 J-0.097
X-8.8793 Y16.0929 I-0.1142 J0.03 F50.
G3 X-8.8771 Y16.0774 I0.0145 J-0.0058
G1 X-8.8545 Y16.0507 F60.
G3 X-8.6919 Y16.0535 I0.0798 J0.0875
G1 X-8.6921 Y16.0565
X-8.6929 Y16.0593
X-8.6941 Y16.062
X-8.6958 Y16.0643
X-8.6979 Y16.0664
X-8.7002 Y16.068
X-8.7027 Y16.0691
X-8.7054 Y16.0698
X-8.7082 Y16.07
X-8.7158 Y16.0704
X-8.8415 Y16.076
X-8.8439 Y16.0759
X-8.8463 Y16.0755
G3 X-8.8545 Y16.0507 I0.004 J-0.0151 F50.
G1 X-8.8013 Y15.9877 F60.
G3 X-8.6932 Y15.9698 I0.0637 J0.0498
X-8.7037 Y15.984 I-0.0156 J-0.0005
G1 X-8.7152 Y15.988
G3 X-8.793 Y16.0125 I-0.0682 J-0.081
X-8.8013 Y15.9877 I0.004 J-0.0151 F50.
X-8.7437 Y15.9226 I0.1766 J0.0983 F60.
X-8.6949 Y15.924 I0.0239 J0.0185
G1 X-8.6938 Y15.9302
X-8.6932 Y15.9405
Y16.2046
G0 Z0.4
X-8.71 Y17.0053
Z-0.1137
G1 Z-0.1294 F50.
X-8.7098 Y17.0056 Z-0.1324
X-8.7094 Y17.0064 Z-0.1353
X-8.7086 Y17.0076 Z-0.138
X-8.7076 Y17.0093 Z-0.1404
X-8.7064 Y17.0113 Z-0.1424
X-8.705 Y17.0136 Z-0.1438
X-8.7035 Y17.0162 Z-0.1447
X-8.702 Y17.0188 Z-0.145
G3 X-8.6932 Y17.0485 I-0.0536 J0.0318
G1 Y17.2264 F60.
G3 X-9.0258 Y17.4056 I-0.2638 J-0.0915
G1 X-9.1692 Y17.2358
G3 X-9.1715 Y17.2204 I0.0123 J-0.0097
X-9.0977 Y17.1941 I0.0484 J0.0193
X-9.0233 Y17.3764 I-0.0766 J0.1376
X-9.028 Y17.3901 I-0.151 J-0.0446 F50.
G2 X-9.0258 Y17.4056 I0.0145 J0.0058
G1 X-8.989 Y17.4492 F60.
G2 X-8.6932 Y17.4042 I0.1214 J-0.1963
G1 Y17.2264
G2 X-8.7015 Y17.2132 I-0.0156 J0.0005
X-8.7472 Y17.2258 I-0.0162 J0.0303
X-8.7139 Y17.3833 I0.1012 J0.0609
X-8.7015 Y17.3909 I0.0679 J-0.0966 F50.
G3 X-8.6932 Y17.4042 I-0.0074 J0.0138
G1 Y17.4492 F60.
G3 X-8.8813 Y17.5766 I-0.1666 J-0.0434
G1 X-8.989 Y17.4492
G3 X-8.9912 Y17.4337 I0.0123 J-0.0097
X-8.936 Y17.414 I0.0363 J0.0145
X-8.879 Y17.5473 I-0.0573 J0.1033
X-8.8836 Y17.5611 I-0.1142 J-0.03 F50.
G2 X-8.8813 Y17.5766 I0.0145 J0.0058
G1 X-8.8545 Y17.6083 F60.
G2 X-8.6918 Y17.6009 I0.0771 J-0.0967
G1 X-8.6932 Y17.4492
G2 X-8.7015 Y17.4359 I-0.0156 J0.0005
X-8.7633 Y17.4684 I-0.0199 J0.0372
X-8.7139 Y17.5785 I0.1173 J0.0135
X-8.7015 Y17.5861 I0.0679 J-0.0966 F50.
G3 X-8.6932 Y17.5993 I-0.0074 J0.0138
G1 Y17.6272 F60.
G3 X-8.7744 Y17.706 I-0.0832 J-0.0045
G1 X-8.7763 Y17.7034
X-8.7777 Y17.7005
X-8.7785 Y17.6975
X-8.7787 Y17.6944
X-8.7784 Y17.6913
X-8.7775 Y17.6885
X-8.7761 Y17.6858
X-8.7743 Y17.6835
X-8.7681 Y17.6759
X-8.721 Y17.6179
X-8.7185 Y17.6154
X-8.7156 Y17.6136
G3 X-8.6932 Y17.6272 I0.0067 J0.0142 F50.
G1 Y17.6979 F60.
G3 X-8.7117 Y17.7391 I-0.0306 J0.011
X-8.7271 Y17.7218 I0.0002 J-0.0156
G1 X-8.7265 Y17.7168
X-8.7245 Y17.6968
G3 X-8.7156 Y17.6843 I0.0156 J0.0016
X-8.6932 Y17.6979 I0.0067 J0.0142 F50.
X-8.7505 Y17.7293 I-0.0286 J0.0157 F60.
X-8.7541 Y17.7186 I0.0286 J-0.0157
G1 X-8.8545 Y17.6083
G3 X-8.8463 Y17.5836 I0.0123 J-0.0097
G1 X-8.8433 Y17.5828 Z-0.1447
X-8.8405 Y17.582 Z-0.1438
X-8.8379 Y17.5813 Z-0.1424
X-8.8356 Y17.5807 Z-0.1404
X-8.8337 Y17.5802 Z-0.138
X-8.8323 Y17.5798 Z-0.1353
X-8.8314 Y17.5796 Z-0.1324
X-8.8311 Y17.5795 Z-0.1294
G0 Z0.4
X-10.3634 Y16.8134
Z-0.1137
G1 Z-0.1294 F50.
X-10.3636 Y16.8135 Z-0.1324
X-10.3645 Y16.8137 Z-0.1353
X-10.3659 Y16.814 Z-0.138
X-10.3678 Y16.8145 Z-0.1404
X-10.3701 Y16.8151 Z-0.1424
X-10.3727 Y16.8158 Z-0.1438
X-10.3756 Y16.8165 Z-0.1447
X-10.3785 Y16.8173 Z-0.145
G3 X-10.4637 Y16.8295 I-0.0991 J-0.387
G1 X-10.4746 Y16.827 F60.
X-10.4854 Y16.8239
X-10.496 Y16.8202
X-10.5063 Y16.8158
X-10.5164 Y16.811
X-10.5262 Y16.8055
X-10.5357 Y16.7996
X-10.5449 Y16.7931
X-10.5536 Y16.7861
X-10.562 Y16.7786
X-10.5699 Y16.7706
X-10.5774 Y16.7623
X-10.5844 Y16.7535
X-10.5909 Y16.7444
X-10.5968 Y16.7349
X-10.6022 Y16.725
X-10.6071 Y16.7149
X-10.6114 Y16.7046
X-10.6151 Y16.694
X-10.6182 Y16.6832
X-10.6207 Y16.6723
X-10.6226 Y16.6612
X-10.6239 Y16.6501
X-10.6245 Y16.6389
Y16.6277
X-10.6239 Y16.6165
X-10.6227 Y16.6053
X-10.6208 Y16.5943
X-10.6183 Y16.5833
X-10.6152 Y16.5726
X-10.6116 Y16.562
X-10.6073 Y16.5516
X-10.6025 Y16.5415
X-10.597 Y16.5317
X-10.5911 Y16.5222
X-10.5846 Y16.513
X-10.5777 Y16.5042
X-10.5702 Y16.4958
X-10.5623 Y16.4879
X-10.554 Y16.4804
X-10.5452 Y16.4734
X-10.5361 Y16.4668
X-10.5266 Y16.4608
X-10.5168 Y16.4554
X-10.5068 Y16.4505
X-10.4964 Y16.4461
X-10.4858 Y16.4424
X-10.4751 Y16.4392
X-10.4642 Y16.4367
X-10.4531 Y16.4348
X-10.442 Y16.4335
X-10.4308 Y16.4328
X-10.4196 Y16.4327
X-10.4084 Y16.4333
X-10.3972 Y16.4345
X-10.3862 Y16.4363
X-10.3752 Y16.4388
X-10.3644 Y16.4418
X-10.3538 Y16.4455
X-10.3434 Y16.4497
X-10.3333 Y16.4545
X-10.3235 Y16.4599
X-10.3139 Y16.4658
X-10.3047 Y16.4722
X-10.2959 Y16.4791
X-10.2875 Y16.4866
X-10.2795 Y16.4944
X-10.272 Y16.5027
X-10.265 Y16.5115
X-10.2584 Y16.5206
X-10.2524 Y16.53
X-10.2469 Y16.5398
X-10.2419 Y16.5499
X-10.2376 Y16.5602
X-10.2338 Y16.5707
X-10.2306 Y16.5815
X-10.228 Y16.5924
X-10.2261 Y16.6034
X-10.2247 Y16.6146
X-10.224 Y16.6258
X-10.2163 Y16.641
X-10.2092 Y16.6566
X-10.2027 Y16.6724
X-10.1968 Y16.6884
X-10.1914 Y16.7046
X-10.1867 Y16.721
X-10.1825 Y16.7376
X-10.179 Y16.7543
X-10.176 Y16.7711
X-10.1737 Y16.788
X-10.172 Y16.805
X-10.1709 Y16.8221
X-10.1705 Y16.8391
X-10.1706 Y16.8562
X-10.1714 Y16.8733
X-10.1728 Y16.8903
X-10.1748 Y16.9072
X-10.1775 Y16.9241
X-10.1807 Y16.9409
X-10.1846 Y16.9575
X-10.1891 Y16.974
X-10.1942 Y16.9903
X-10.1998 Y17.0064
X-10.2061 Y17.0223
X-10.2129 Y17.038
X-10.2203 Y17.0534
X-10.2282 Y17.0685
X-10.2367 Y17.0833
X-10.2457 Y17.0978
X-10.2553 Y17.1119
X-10.2653 Y17.1257
X-10.2759 Y17.1392
X-10.2869 Y17.1522
X-10.2984 Y17.1648
X-10.3104 Y17.177
X-10.3228 Y17.1888
X-10.3356 Y17.2
X-10.3488 Y17.2109
X-10.3624 Y17.2212
X-10.3731 Y17.224
X-10.3839 Y17.2262
X-10.3948 Y17.2278
X-10.4057 Y17.2289
X-10.4168 Y17.2293
X-10.4278 Y17.229
X-10.4388 Y17.2282
X-10.4497 Y17.2268
X-10.4605 Y17.2248
X-10.4712 Y17.2221
X-10.4818 Y17.2189
X-10.4921 Y17.2151
X-10.5022 Y17.2107
X-10.5121 Y17.2058
X-10.5217 Y17.2003
X-10.5309 Y17.1943
X-10.5398 Y17.1878
X-10.5483 Y17.1808
X-10.5565 Y17.1734
X-10.5641 Y17.1655
X-10.5714 Y17.1572
X-10.5782 Y17.1485
X-10.5845 Y17.1394
X-10.5902 Y17.13
X-10.5955 Y17.1203
X-10.6001 Y17.1104
X-10.6043 Y17.1002
X-10.6078 Y17.0897
X-10.6108 Y17.0791
X-10.6132 Y17.0684
X-10.615 Y17.0575
X-10.6161 Y17.0465
X-10.6167 Y17.0355
X-10.6166 Y17.0245
X-10.6159 Y17.0135
X-10.6147 Y17.0025
X-10.6128 Y16.9917
X-10.6103 Y16.9809
G2 X-10.674 Y16.7939 I-0.1862 J-0.041
G3 X-10.7067 Y16.6811 I0.2801 J-0.1426
G1 Y16.6006
G3 X-10.2446 Y16.4071 I0.2752 J0.0088
G1 X-10.2004 Y16.4591
G3 X-10.17 Y17.1614 I-0.4881 J0.3729
G1 X-10.2119 Y17.2135
G3 X-10.7068 Y17.0725 I-0.2181 J-0.1735
G1 X-10.7067 Y16.6811
G3 X-10.6985 Y16.6678 I0.0156 J0.0005
X-10.6542 Y16.6729 I0.0185 J0.0346
X-10.6859 Y17.052 I-0.1554 J0.1779
G1 X-10.6985 Y17.0593 F50.
G2 X-10.7067 Y17.0725 I0.0074 J0.0138
G1 Y17.2264 F60.
G2 X-10.375 Y17.4065 I0.2657 J-0.0938
G1 X-10.2119 Y17.2135
G2 X-10.2365 Y17.1941 I-0.0123 J-0.0097
X-10.2332 Y17.2166 I0.0123 J0.0097
X-10.2109 Y17.2121 I0.009 J-0.0128
G1 X-10.1863 Y17.1728
G2 X-10.2128 Y17.1562 I-0.0133 J-0.0083
X-10.2152 Y17.1645 I0.0133 J0.0083
X-10.1944 Y17.1793 I0.0156 J0.
X-10.1686 Y17.1623 I-0.0204 J-0.0589 F50.
G1 X-10.0326 Y17.0013 F60.
G2 X-9.987 Y16.7118 I-0.3154 J-0.1981
G1 X-10.2004 Y16.4591
G2 X-10.2236 Y16.4802 I-0.0116 J0.0105
X-10.2009 Y16.4807 I0.0116 J-0.0105
X-10.2016 Y16.458 I-0.0111 J-0.011
G1 X-10.237 Y16.4262
G2 X-10.2579 Y16.4495 I-0.0105 J0.0116
X-10.232 Y16.4353 I0.0105 J-0.0116
X-10.2445 Y16.407 I-0.0615 J0.0102 F50.
G1 X-10.3341 Y16.3009 F60.
G2 X-10.7064 Y16.3637 I-0.1544 J0.2195
G1 X-10.7067 Y16.3665
Y16.6006
G2 X-10.6985 Y16.6138 I0.0156 J-0.0005
X-10.6347 Y16.595 I0.0223 J-0.0418
X-10.686 Y16.3872 I-0.1378 J-0.0762
X-10.6985 Y16.3798 I-0.0866 J0.1315 F50.
G3 X-10.7067 Y16.3665 I0.0074 J-0.0138
G1 Y16.3106 F60.
G3 X-10.4561 Y16.1566 I0.2157 J0.07
G1 X-10.3341 Y16.3009
G3 X-10.3319 Y16.3164 I-0.0123 J0.0097
X-10.3601 Y16.3328 I-0.0246 J-0.0098
X-10.4584 Y16.1859 I0.016 J-0.117
X-10.4538 Y16.172 I0.1142 J0.03 F50.
G2 X-10.4561 Y16.1566 I-0.0145 J-0.0058
G1 X-10.4846 Y16.1228 F60.
G2 X-10.7067 Y16.1448 I-0.0987 J0.1366
G1 Y16.3106
G2 X-10.6985 Y16.3238 I0.0156 J-0.0005
X-10.643 Y16.3025 I0.0185 J-0.0347
X-10.6861 Y16.1657 I-0.1111 J-0.0402
X-10.6985 Y16.1581 I-0.0679 J0.0966 F50.
G3 X-10.7067 Y16.1448 I0.0074 J-0.0138
G1 Y16.1055 F60.
G3 X-10.581 Y16.0064 I0.1183 J0.0207
G1 X-10.5792 Y16.0089
X-10.578 Y16.0116
X-10.5772 Y16.0145
X-10.577 Y16.0174
X-10.5773 Y16.0203
X-10.578 Y16.0231
X-10.5793 Y16.0257
X-10.581 Y16.028
X-10.583 Y16.0299
X-10.5885 Y16.0347
X-10.6807 Y16.1167
X-10.6825 Y16.1181
X-10.6844 Y16.1191
G3 X-10.7067 Y16.1055 I-0.0067 J-0.0142 F50.
G1 Y16.0218 F60.
G3 X-10.636 Y15.9435 I0.0782 J-0.0005
X-10.6351 Y15.9615 I-0.0123 J0.0097
G1 X-10.6413 Y15.9715
G3 X-10.6844 Y16.0355 I-0.1027 J-0.0226
X-10.7067 Y16.0218 I-0.0067 J-0.0142 F50.
G1 Y15.9405 F60.
G3 X-10.6541 Y15.9277 I0.0274 J-0.0021
G1 X-10.6394 Y15.9395
X-10.4846 Y16.1228
G3 X-10.4928 Y16.1476 I-0.0123 J0.0097
G1 X-10.4958 Y16.1484 Z-0.1447
X-10.4986 Y16.1492 Z-0.1438
X-10.5012 Y16.1499 Z-0.1424
X-10.5035 Y16.1505 Z-0.1404
X-10.5054 Y16.151 Z-0.138
X-10.5068 Y16.1514 Z-0.1353
X-10.5076 Y16.1516 Z-0.1324
X-10.5079 Y16.1517 Z-0.1294
G0 Z-0.1137
X-10.0732 Y17.0235
G1 Z-0.1294 F50.
X-10.073 Y17.0234 Z-0.1324
X-10.0721 Y17.0231 Z-0.1353
X-10.0707 Y17.0226 Z-0.138
X-10.0689 Y17.022 Z-0.1404
X-10.0667 Y17.0212 Z-0.1424
X-10.0641 Y17.0203 Z-0.1438
X-10.0613 Y17.0193 Z-0.1447
X-10.0585 Y17.0184 Z-0.145
G2 X-10.0326 Y17.0013 I-0.0204 J-0.0589
G1 X-9.9231 Y16.8717 F60.
G2 X-9.9006 Y16.8141 I-0.0221 J-0.0418
G1 X-9.987 Y16.7118
G2 X-10.0128 Y16.7288 I-0.0116 J0.0105
G1 X-9.9489 Y16.8677
G2 X-9.9231 Y16.8717 I0.0142 J-0.0065 F50.
X-9.8915 Y16.8275 I-0.0099 J-0.0405 F60.
G1 X-9.8962 Y16.8194
X-9.8967 Y16.8186
X-9.9006 Y16.8141
G2 X-9.9173 Y16.8098 I-0.0116 J0.0105
G1 X-9.9201 Y16.8108 Z-0.1447
X-9.9229 Y16.8117 Z-0.1438
X-9.9255 Y16.8126 Z-0.1424
X-9.9277 Y16.8134 Z-0.1404
X-9.9296 Y16.814 Z-0.138
X-9.9309 Y16.8145 Z-0.1353
X-9.9318 Y16.8148 Z-0.1324
X-9.9321 Y16.8149 Z-0.1294
G0 Z-0.1137
X-10.3599 Y17.3628
G1 Z-0.1294 F50.
Y17.3631 Z-0.1324
X-10.3601 Y17.3639 Z-0.1353
X-10.3603 Y17.3654 Z-0.138
X-10.3606 Y17.3673 Z-0.1404
X-10.361 Y17.3696 Z-0.1424
X-10.3615 Y17.3723 Z-0.1438
X-10.362 Y17.3752 Z-0.1447
X-10.3625 Y17.3782 Z-0.145
G3 X-10.375 Y17.4065 I-0.0615 J-0.0102
G1 X-10.411 Y17.4492 F60.
G3 X-10.7067 Y17.4037 I-0.1211 J-0.1964
G1 Y17.2264
G3 X-10.6985 Y17.2132 I0.0156 J0.0005
X-10.6523 Y17.2261 I0.0163 J0.0306
X-10.6861 Y17.3828 I-0.1017 J0.0601
X-10.6985 Y17.3904 I-0.0679 J-0.0966 F50.
G2 X-10.7067 Y17.4037 I0.0074 J0.0138
G1 Y17.4492 F60.
G2 X-10.5186 Y17.5766 I0.167 J-0.0441
G1 X-10.411 Y17.4492
G2 X-10.4088 Y17.4337 I-0.0123 J-0.0097
X-10.464 Y17.4141 I-0.0363 J0.0145
X-10.5209 Y17.5473 I0.0573 J0.1033
X-10.5164 Y17.5611 I0.1142 J-0.03 F50.
G3 X-10.5186 Y17.5766 I-0.0145 J0.0058
G1 X-10.5455 Y17.6083 F60.
G3 X-10.7082 Y17.6007 I-0.077 J-0.0971
G1 X-10.7067 Y17.4492
G3 X-10.6985 Y17.4359 I0.0156 J0.0005
X-10.6366 Y17.4685 I0.0199 J0.0373
X-10.6861 Y17.5782 I-0.1174 J0.0131
X-10.6985 Y17.5858 I-0.0679 J-0.0966 F50.
G2 X-10.7067 Y17.5991 I0.0074 J0.0138
G1 Y17.6272 F60.
G2 X-10.6255 Y17.7059 I0.0833 J-0.0047
G1 X-10.5455 Y17.6083
G2 X-10.5433 Y17.5929 I-0.0123 J-0.0097
X-10.565 Y17.581 I-0.018 J0.0072
X-10.6273 Y17.6736 I0.0149 J0.0773
X-10.6232 Y17.6875 I0.0773 J-0.0152 F50.
G3 X-10.6254 Y17.703 I-0.0145 J0.0058
G1 X-10.6394 Y17.7195 F60.
G3 X-10.7059 Y17.7263 I-0.0361 J-0.0252
X-10.6963 Y17.7116 I0.0156 J-0.0002
G1 X-10.6849 Y17.7068
X-10.6578 Y17.6954
G3 X-10.6477 Y17.6948 I0.0061 J0.0144
X-10.6394 Y17.7195 I-0.004 J0.0151 F50.
X-10.7052 Y17.7346 I-0.037 J-0.0105 F60.
G1 X-10.7056 Y17.7321
X-10.7067 Y17.7085
Y17.6272
G3 X-10.6994 Y17.6145 I0.0156 J0.0005
G1 X-10.6972 Y17.6137 Z-0.1448
X-10.695 Y17.6129 Z-0.1443
X-10.6929 Y17.6122 Z-0.1434
X-10.6911 Y17.6121 Z-0.1423
X-10.6888 Y17.6126 Z-0.1404
X-10.687 Y17.613 Z-0.138
X-10.6856 Y17.6133 Z-0.1353
X-10.6847 Y17.6135 Z-0.1324
X-10.6844 Y17.6136 Z-0.1294
G0 Z0.4
X-10.5302 Y18.7153
Z0.1
G3 X-10.677 Y18.6919 Z0.0588 I-0.0734 J-0.0117 F50.
X-10.5302 Y18.7153 Z0.0176 I0.0734 J0.0117
X-10.677 Y18.6919 Z-0.0235 I-0.0734 J-0.0117
X-10.5302 Y18.7153 Z-0.0647 I0.0734 J0.0117
X-10.677 Y18.6919 Z-0.1059 I-0.0734 J-0.0117
X-10.5293 Y18.7036 Z-0.145 I0.0734 J0.0117
X-10.678 I-0.0743 J0.
X-10.5295 Y18.6974 I0.0743 J0.
G1 X-10.5293 Y18.7036
G3 X-10.5281 Y18.8067 I-0.0527 J0.0522 F60.
G1 X-10.6629
G3 X-10.7067 Y18.7862 I-0.0109 J-0.0339
X-10.6887 Y18.7713 I0.0156 J0.0005
G1 X-10.6843 Y18.772
X-10.661 Y18.7756
G3 X-10.6493 Y18.7844 I-0.0024 J0.0155
X-10.6629 Y18.8067 I-0.0142 J0.0067 F50.
X-10.7067 Y18.7907 I-0.0192 J-0.0155 F60.
G1 Y18.6443
G3 X-10.5548 Y18.5581 I0.1082 J0.0137
G1 X-10.4607 Y18.7693
G3 X-10.4661 Y18.8067 I-0.0108 J0.0176
X-10.4789 Y18.7993 I0.0005 J-0.0156
G1 X-10.487 Y18.7861
X-10.488 Y18.7844
G3 X-10.4866 Y18.7661 I0.0133 J-0.0082
X-10.4607 Y18.7693 I0.0119 J0.0102 F50.
G1 X-10.4518 Y18.7888 F60.
X-10.4493 Y18.7998
X-10.4495 Y18.8012
X-10.4497 Y18.8019
X-10.4506 Y18.8033
G3 X-10.5281 Y18.8067 I-0.0452 J-0.1424
X-10.538 Y18.8027 I0.0005 J-0.0156
G1 X-10.5529 Y18.7894
X-10.6879 Y18.6677
X-10.7016 Y18.6554 F50.
G3 X-10.7067 Y18.6443 I0.0105 J-0.0116
G1 Y18.5677 F60.
G3 X-10.5932 Y18.4719 I0.103 J0.0069
G1 X-10.5555 Y18.5597
G3 X-10.5576 Y18.5752 I-0.0145 J0.006
X-10.6063 Y18.5685 I-0.0224 J-0.0173
X-10.6034 Y18.5034 I0.0731 J-0.0294
X-10.5957 Y18.4911 I0.0702 J0.0358 F50.
G2 X-10.5936 Y18.4756 I-0.0124 J-0.0095
G1 X-10.6026 Y18.4557 F60.
G2 X-10.7085 Y18.4406 I-0.0599 J0.0412
G1 X-10.7067 Y18.5677
G2 X-10.6783 Y18.5762 I0.0156 J-0.0005
G1 X-10.613 Y18.4831
X-10.6042 Y18.4707 F50.
G2 X-10.6026 Y18.4557 I-0.0128 J-0.009
G1 X-10.6265 Y18.4027 F60.
G2 X-10.7067 Y18.3751 I-0.0495 J0.0135
G1 Y18.4428
G2 X-10.6906 Y18.4579 I0.0156 J-0.0005
X-10.6767 Y18.4436 I-0.0005 J-0.0143
X-10.6898 Y18.4002 I-0.0787 J0.
X-10.7018 Y18.386 I-0.0657 J0.0434 F50.
G3 X-10.7067 Y18.3751 I0.0107 J-0.0114
G1 Y18.3587 F60.
X-10.7064 Y18.3542
X-10.7056 Y18.3498
X-10.7042 Y18.3455
X-10.7022 Y18.3414
X-10.6998 Y18.3376
X-10.6969 Y18.3342
X-10.6937 Y18.3311
X-10.69 Y18.3284
X-10.6861 Y18.3263
X-10.6819 Y18.3246
X-10.6775 Y18.3235
X-10.673 Y18.3229
X-10.6685
X-10.6641 Y18.3235
X-10.6597 Y18.3246
X-10.6581 Y18.3293
X-10.6571 Y18.3341
X-10.6567 Y18.339
X-10.6568 Y18.3438
X-10.6576 Y18.3486
X-10.6589 Y18.3532
X-10.6607 Y18.3576
G3 X-10.6747 Y18.3748 I-0.0363 J-0.0152
X-10.6868 Y18.3784 I-0.0116 J-0.0168
X-10.7067 Y18.3587 I0.0005 J-0.0205 F50.
G1 Y18.3143 F60.
X-10.7064 Y18.3083
X-10.7047 Y18.3025
X-10.7021 Y18.2972
X-10.6987 Y18.2922
X-10.6946 Y18.2878
X-10.6899 Y18.2854
X-10.6846
X-10.6799 Y18.2877
X-10.6767 Y18.2919
G3 X-10.6754 Y18.3184 I-0.0364 J0.015
X-10.6846 Y18.3285 I-0.0153 J-0.0047
X-10.7067 Y18.3143 I-0.0062 J-0.0148 F50.
G1 Y18.2817 F60.
X-10.7064 Y18.2757
Y18.2755
X-10.7036 Y18.2707
X-10.6988 Y18.2678
X-10.6933 Y18.2675
X-10.6882 Y18.2697
X-10.6848 Y18.2741
X-10.6835 Y18.2774
G3 X-10.6844 Y18.2871 I-0.0113 J0.0039
X-10.7067 Y18.2817 I-0.0104 J-0.0059 F50.
G1 Y18.2664 F60.
Y18.2657
X-10.7058 Y18.2608
X-10.7055 Y18.2595
X-10.7053 Y18.2584
X-10.7046 Y18.2556
X-10.7044 Y18.2549
X-10.704 Y18.2541
X-10.7036 Y18.2534
X-10.7022 Y18.2536
G3 X-10.6865 Y18.2766 I-0.0226 J0.0322
X-10.6981 Y18.2867 I-0.0085 J0.002
X-10.7032 Y18.2815 I0.0031 J-0.0081 F50.
X-10.7053 Y18.2584 I0.044 J-0.0157
G1 X-10.7047 Y18.2552 F60.
X-10.7044 Y18.2546
X-10.7036 Y18.2534
X-10.7032 Y18.2531
X-10.7023 Y18.2525
X-10.7019 Y18.2522
X-10.7004 Y18.2519
X-10.6998
X-10.6982 Y18.2522
G3 X-10.6265 Y18.4027 I-0.2554 J0.2139
X-10.628 Y18.4173 I-0.0145 J0.006
G1 X-10.6297 Y18.419 Z-0.1448
X-10.6314 Y18.4206 Z-0.1443
X-10.633 Y18.4221 Z-0.1434
X-10.635 Y18.4228 Z-0.1421
X-10.6368 Y18.4234 Z-0.1405
X-10.6383 Y18.4239 Z-0.1386
X-10.6396 Y18.4243 Z-0.1364
X-10.6405 Z-0.1343
X-10.641 Z-0.132
X-10.6413 Z-0.1294
G0 Z0.4
X-9.686 Y16.0468
Z-0.1137
G1 Z-0.1294 F50.
X-9.6858 Y16.047 Z-0.1324
X-9.685 Y16.0474 Z-0.1353
X-9.6837 Y16.048 Z-0.138
X-9.6819 Y16.0488 Z-0.1404
X-9.6798 Y16.0499 Z-0.1424
X-9.6773 Y16.051 Z-0.1438
X-9.6747 Y16.0523 Z-0.1447
X-9.672 Y16.0537 Z-0.145
G3 X-9.599 Y16.0993 I-0.174 J0.3596
X-9.7389 Y16.3666 I-0.0793 J0.1288 F60.
X-9.8917 Y16.1833 I0.0271 J-0.1779
G2 X-10.0963 Y15.9953 I-0.6501 J0.5022
G3 X-10.277 Y15.7069 I0.1766 J-0.3114
X-9.9213 Y15.6335 I0.1908 J0.0259
X-9.7947 Y15.7292 I-1.9318 J2.6858
G1 X-9.7873 Y15.7351
X-9.7796 Y15.7404
X-9.7716 Y15.7453
X-9.7632 Y15.7496
X-9.7547 Y15.7534
X-9.7459 Y15.7567
X-9.7369 Y15.7594
X-9.7277 Y15.7615
X-9.7185 Y15.7631
X-9.7091 Y15.7641
X-9.6997 Y15.7645
X-9.6904 Y15.7643
X-9.681 Y15.7635
X-9.6717 Y15.7622
X-9.6625 Y15.7602
X-9.6535 Y15.7577
X-9.6446 Y15.7546
X-9.636 Y15.751
X-9.6275 Y15.7469
X-9.6194 Y15.7422
X-9.6116 Y15.737
X-9.6041 Y15.7314
X-9.5969 Y15.7253
X-9.5902 Y15.7187
X-9.5839 Y15.7118
X-9.578 Y15.7044
X-9.5727 Y15.6967
X-9.5678 Y15.6887
G3 X-9.3674 Y15.5471 I0.6405 J0.6934
G1 X-9.3569 Y15.5444
X-9.3462 Y15.5423
X-9.3354 Y15.5408
X-9.3246 Y15.54
X-9.3137 Y15.5397
X-9.3028 Y15.5401
X-9.292 Y15.5411
X-9.2812 Y15.5427
X-9.2706 Y15.5448
X-9.26 Y15.5476
X-9.2497 Y15.551
X-9.2396 Y15.555
X-9.2297 Y15.5595
X-9.22 Y15.5646
X-9.2107 Y15.5702
X-9.2017 Y15.5763
X-9.1931 Y15.5829
X-9.1848 Y15.59
X-9.177 Y15.5976
X-9.1696 Y15.6056
X-9.1627 Y15.614
X-9.1563 Y15.6228
X-9.1503 Y15.6319
X-9.1449 Y15.6413
X-9.14 Y15.651
X-9.1357 Y15.661
X-9.132 Y15.6712
X-9.1288 Y15.6817
X-9.1262 Y15.6922
X-9.1243 Y15.7029
X-9.1229 Y15.7137
X-9.1222 Y15.7246
X-9.122 Y15.7355
X-9.1225 Y15.7463
X-9.1236 Y15.7572
X-9.1253 Y15.7679
X-9.1276 Y15.7786
X-9.1305 Y15.789
X-9.134 Y15.7993
X-9.1381 Y15.8094
X-9.1427 Y15.8193
X-9.1479 Y15.8289
X-9.1536 Y15.8381
X-9.1598 Y15.847
X-9.1665 Y15.8556
X-9.1737 Y15.8638
X-9.1814 Y15.8715
X-9.1894 Y15.8788
X-9.1979 Y15.8857
X-9.2067 Y15.892
X-9.2159 Y15.8978
G3 X-9.4109 Y16.0794 I-0.6909 J-0.5464
X-9.4528 Y16.3142 I-0.933 J-0.0456
G1 X-9.4533 Y16.3152
X-9.4539 Y16.3162
X-9.4546 Y16.317
X-9.5121 Y16.3851
X-9.5204 Y16.3945
X-9.5292 Y16.4034
X-9.5384 Y16.4118
X-9.548 Y16.4198
X-9.558 Y16.4274
X-9.5684 Y16.4344
X-9.579 Y16.4409
X-9.59 Y16.4468
X-9.6013 Y16.4522
X-9.6128 Y16.4571
X-9.6246 Y16.4613
X-9.6365 Y16.465
X-9.6486 Y16.4681
X-9.6609 Y16.4706
X-9.6733 Y16.4725
X-9.6857 Y16.4738
X-9.6982 Y16.4744
X-9.7107
X-9.7232 Y16.4739
X-9.7356 Y16.4727
X-9.748 Y16.4708
X-9.7603 Y16.4684
X-9.7724 Y16.4654
X-9.7844 Y16.4618
X-9.7961 Y16.4576
X-9.8077 Y16.4528
X-9.819 Y16.4475
X-9.83 Y16.4416
X-9.8407 Y16.4351
X-9.8511 Y16.4282
X-9.8527 Y16.4256
X-9.8539 Y16.4228
X-9.8544 Y16.4198
X-9.8543 Y16.4168
X-9.8537 Y16.4138
X-9.8525 Y16.411
X-9.8507 Y16.4085
X-9.8485 Y16.4064
X-9.8459 Y16.4048
X-9.843 Y16.4036
G3 X-9.8411 Y16.4033 I0.004 J0.0151
G1 X-9.5265 Y16.3599
X-9.5234 Y16.3598
X-9.5204 Y16.3603
G3 X-9.5121 Y16.3851 I-0.004 J0.0151 F50.
G1 X-9.6228 Y16.5161 F60.
G3 X-9.7449 Y16.5565 I-0.1012 J-0.1009
G1 X-9.7466 Y16.5541
X-9.7479 Y16.5514
X-9.7486 Y16.5485
X-9.7489 Y16.5456
X-9.7486 Y16.5427
X-9.7478 Y16.54
X-9.7466 Y16.5374
X-9.745 Y16.5351
X-9.7429 Y16.5331
X-9.7406 Y16.5316
X-9.7381 Y16.5305
X-9.7364 Y16.5298
X-9.6408 Y16.4919
X-9.6376 Y16.491
X-9.6343 Y16.4908
X-9.631 Y16.4913
G3 X-9.6228 Y16.5161 I-0.004 J0.0151 F50.
G1 X-9.6765 Y16.5797 F60.
X-9.6916 Y16.5959
X-9.696 Y16.6006
X-9.697 Y16.6014
G3 X-9.7235 Y16.5797 I-0.0064 J-0.0192
G1 X-9.9249 Y16.3413
G2 X-10.1343 Y16.0934 I-0.5169 J0.2243
G3 X-10.1261 Y16.0686 I0.0123 J-0.0097
G1 X-10.1231 Y16.0678 Z-0.1447
X-10.1203 Y16.0671 Z-0.1438
X-10.1177 Y16.0664 Z-0.1424
X-10.1154 Y16.0658 Z-0.1404
X-10.1135 Y16.0653 Z-0.138
X-10.1121 Y16.0649 Z-0.1353
X-10.1113 Y16.0646 Z-0.1324
X-10.111 Z-0.1294
G0 Z0.4
X-9.8844 Y16.3634
Z-0.1137
G1 Z-0.1294 F50.
X-9.8846 Y16.3633 Z-0.1324
X-9.8855 Y16.363 Z-0.1353
X-9.8868 Y16.3626 Z-0.138
X-9.8887 Y16.3619 Z-0.1404
X-9.8909 Y16.3611 Z-0.1424
X-9.8935 Y16.3603 Z-0.1438
X-9.8963 Y16.3593 Z-0.1447
X-9.8991 Y16.3583 Z-0.145
G3 X-9.9249 Y16.3413 I0.0204 J-0.0589
G1 X-10.3232 Y15.8698 F60.
G3 X-9.9224 Y15.505 I0.2302 J-0.1497
G2 X-9.804 Y15.6105 I0.2269 J-0.1353
X-9.6605 Y15.6293 I0.0845 J-0.088
G3 X-9.6424 Y15.6445 I0.0024 J0.0155
X-9.6601 Y15.6602 I-0.0156 J0.0002
G1 X-9.8107 Y15.641
G3 X-9.8243 Y15.627 I0.002 J-0.0155
X-9.804 Y15.6105 I0.0156 J-0.0016 F50.
G2 X-9.6765 Y15.6308 I0.1034 J-0.2382 F60.
X-9.4891 Y15.5212 I-0.024 J-0.2559
G3 X-9.0583 Y15.8458 I0.1862 J0.2012
G1 X-9.2162 Y16.0348
G2 X-9.3069 Y16.1417 I0.1788 J0.2438
G1 X-9.3076 Y16.1429
X-9.3085 Y16.1441
G3 X-9.332 Y16.1235 I-0.0116 J-0.0105
G1 X-9.2404 Y16.015
G3 X-9.2244 Y16.01 I0.012 J0.0101
X-9.2162 Y16.0348 I-0.004 J0.0151 F50.
G1 X-9.4546 Y16.317 F60.
G3 X-9.4818 Y16.3073 I-0.0116 J-0.0105
X-9.0864 Y15.8529 I0.4343 J-0.0213
G1 X-9.0792 Y15.8523 F50.
X-9.0679 Y15.8516
G2 X-9.057 Y15.8465 I-0.0008 J-0.0156
G1 X-8.9772 Y15.7519 F60.
G2 X-8.9658 Y15.7297 I-0.0206 J-0.0246
G3 X-8.9666 Y15.6576 I0.2611 J-0.039
G1 X-8.9661 Y15.6458
X-8.9662 Y15.634
X-8.9669 Y15.6222
X-8.9681 Y15.6104
X-8.9699 Y15.5987
X-8.9722 Y15.5871
X-8.9752 Y15.5756
X-8.9786 Y15.5643
X-8.9826 Y15.5531
X-8.9872 Y15.5422
X-8.9922 Y15.5315
X-8.9978 Y15.5211
X-9.0039 Y15.5109
X-9.0104 Y15.501
X-9.0175 Y15.4915
X-9.0249 Y15.4823
X-9.0328 Y15.4735
X-9.0412 Y15.4651
X-9.0499 Y15.4571
X-9.059 Y15.4495
X-9.0684 Y15.4424
X-9.4182 Y15.4432
G2 X-9.4725 Y15.4926 I-0.0129 J0.0404
G1 X-9.4847 Y15.5162
X-9.4886 Y15.5216
G2 X-9.4888 Y15.5388 I0.013 J0.0088
G1 X-9.4872 Y15.5414 Z-0.1447
X-9.4856 Y15.5439 Z-0.1438
X-9.4841 Y15.5461 Z-0.1424
X-9.4829 Y15.5481 Z-0.1404
X-9.4818 Y15.5498 Z-0.138
X-9.481 Y15.551 Z-0.1353
X-9.4805 Y15.5517 Z-0.1324
X-9.4804 Y15.552 Z-0.1294
G0 Z0.4
X-9.9167 Y15.55
Z-0.1137
G1 Z-0.1294 F50.
X-9.9166 Y15.5497 Z-0.1324
Y15.5488 Z-0.1353
X-9.9165 Y15.5473 Z-0.138
X-9.9164 Y15.5454 Z-0.1404
X-9.9162 Y15.543 Z-0.1424
X-9.9161 Y15.5403 Z-0.1438
X-9.9159 Y15.5374 Z-0.1447
X-9.9157 Y15.5344 Z-0.145
G2 X-9.9216 Y15.504 I-0.0622 J-0.0037
X-9.9518 Y15.4447 I-0.0713 J-0.001 F60.
G1 X-9.9583 Y15.4437
X-9.9818 Y15.4432
X-10.2637
G2 X-10.4442 Y15.6105 I0.0353 J0.2191
G3 X-10.4338 Y15.737 I-0.4214 J0.0982
G1 X-10.4281 Y15.7457
X-10.3232 Y15.8698
G2 X-10.2961 Y15.8611 I0.0116 J-0.0105
G1 X-10.2493 Y15.4657
X-10.2487 Y15.4607 F50.
G2 X-10.2637 Y15.4432 I-0.0155 J-0.0018
G1 X-10.3811 F60.
G2 X-10.4972 Y15.5267 I-0.0056 J0.1148
G3 X-10.4442 Y15.6105 I-0.1631 J0.162
G2 X-10.4233 Y15.6178 I0.0141 J-0.0068
X-10.4099 Y15.5876 I-0.0111 J-0.023
X-10.4676 Y15.5332 I-0.0755 J0.0223
X-10.4861 Y15.5311 I-0.0177 J0.0767 F50.
G3 X-10.4972 Y15.5267 I-0.0001 J-0.0156
G1 X-10.5072 Y15.5162 F60.
X-10.5105 Y15.5126
X-10.5117 Y15.5113
X-10.5128 Y15.5101
G3 X-10.5213 Y15.4929 I0.0254 J-0.0232
X-10.511 Y15.4899 I0.0054 J-0.0006
G1 X-10.5041 Y15.5039 F50.
G3 X-10.5128 Y15.5101 I-0.0049 J0.0024
X-10.5213 Y15.4797 I0.0158 J-0.0208 F60.
X-10.5053 Y15.4432 I0.015 J-0.0151
G1 X-10.3811
G0 Z0.4
X-8.9893 Y15.6979
Z-0.1137
G1 Z-0.1294 F50.
X-8.9891 Y15.6977 Z-0.1324
X-8.9886 Y15.697 Z-0.1353
X-8.9877 Y15.6959 Z-0.138
X-8.9864 Y15.6944 Z-0.1404
X-8.9849 Y15.6925 Z-0.1424
X-8.9832 Y15.6904 Z-0.1438
X-8.9814 Y15.6881 Z-0.1447
X-8.9795 Y15.6858 Z-0.145
G2 X-8.9666 Y15.6576 I-0.0484 J-0.0392
G3 X-8.9352 Y15.5687 I0.2023 J0.0213 F60.
G1 X-8.9321 Y15.5608
X-8.9296 Y15.5528
X-8.9277 Y15.5446
X-8.9262 Y15.5362
X-8.9254 Y15.5278
X-8.9251 Y15.5194
X-8.9255 Y15.511
X-8.9264 Y15.5026
X-8.9278 Y15.4943
X-8.9298 Y15.4861
X-8.9324 Y15.4781
X-8.9355 Y15.4702
X-8.9391 Y15.4626
X-8.9433 Y15.4553
X-8.9479 Y15.4483
X-8.953 Y15.4415
X-9.069 Y15.4432
G2 X-9.0823 Y15.4515 I0.0005 J0.0156
X-9.0706 Y15.4861 I0.0221 J0.0118
X-8.9764 Y15.4637 I0.0327 J-0.0716
X-8.9684 Y15.4515 I-0.0615 J-0.0492 F50.
G3 X-8.9551 Y15.4432 I0.0138 J0.0074
G1 X-8.925 F60.
G3 X-8.8787 Y15.472 I0.0035 J0.046
X-8.9003 Y15.4859 I-0.0156 J-0.0005
G1 X-8.901 Y15.4856
X-8.9304 Y15.4733
G3 X-8.9386 Y15.4656 I0.006 J-0.0145
X-8.925 Y15.4432 I0.0142 J-0.0067 F50.
X-8.8736 Y15.4618 I0.0168 J0.0339 F60.
X-8.8944 Y15.5123 I-0.0346 J0.0153
G1 X-8.9152 Y15.5398
X-8.9206 Y15.5461
G3 X-8.9293 Y15.5513 I-0.0119 J-0.0101
G2 X-8.9404 Y15.5603 I0.0032 J0.0153
G1 X-8.9427 Y15.5656
X-9.0224 Y15.7479
G2 X-9.003 Y15.769 I0.0143 J0.0063
X-8.9772 Y15.7519 I-0.0204 J-0.0589 F50.
X-8.9658 Y15.7297 I-0.0102 J-0.0193 F60.
X-8.9662 Y15.7271 I-0.0156 J0.0013
G1 X-8.9673 Y15.725 Z-0.1448
X-8.9683 Y15.7229 Z-0.1443
X-8.9693 Y15.7209 Z-0.1434
X-8.971 Y15.7196 Z-0.1421
X-8.9725 Y15.7185 Z-0.1405
X-8.9738 Y15.7175 Z-0.1386
X-8.9748 Y15.7167 Z-0.1364
X-8.9757 Y15.7164 Z-0.1342
X-8.9762 Y15.7162 Z-0.1318
X-8.9764 Y15.7161 Z-0.1294
G0 Z0.4
X-9.8483 Y18.4747
Z-0.1137
G1 Z-0.1294 F50.
Y18.4744 Z-0.1324
X-9.8486 Y18.4735 Z-0.1353
X-9.8489 Y18.4721 Z-0.138
X-9.8494 Y18.4702 Z-0.1404
X-9.85 Y18.4679 Z-0.1424
X-9.8507 Y18.4653 Z-0.1438
X-9.8514 Y18.4624 Z-0.1447
X-9.8521 Y18.4595 Z-0.145
G3 X-9.8644 Y18.3743 I0.387 J-0.0991
X-9.6902 Y18.2916 I0.1393 J0.0686 F60.
G1 X-9.6747 Y18.2923
X-9.6591 Y18.2925
X-9.6436 Y18.292
X-9.6281 Y18.2909
X-9.6127 Y18.2891
X-9.5973 Y18.2868
X-9.5821 Y18.2839
X-9.5669 Y18.2804
X-9.5519 Y18.2763
X-9.5371 Y18.2717
X-9.5225 Y18.2664
X-9.5081 Y18.2606
X-9.4939 Y18.2542
X-9.48 Y18.2473
X-9.4664 Y18.2398
X-9.4531 Y18.2318
X-9.4401 Y18.2233
X-9.4274 Y18.2143
X-9.4151 Y18.2048
X-9.4032 Y18.1949
G3 X-9.1431 Y18.2948 I0.0804 J0.1792
X-9.2447 Y18.5542 I-0.1797 J0.0793
G1 X-9.257 Y18.5656
X-9.2696 Y18.5765
X-9.2827 Y18.587
X-9.2961 Y18.597
X-9.3098 Y18.6066
X-9.3239 Y18.6156
X-9.3383 Y18.6242
X-9.3529 Y18.6322
X-9.3679 Y18.6397
X-9.3831 Y18.6467
X-9.3985 Y18.6532
X-9.4142 Y18.6591
X-9.43 Y18.6644
X-9.446 Y18.6692
X-9.4622 Y18.6735
X-9.4785 Y18.6771
X-9.495 Y18.6802
X-9.5115 Y18.6827
X-9.5281 Y18.6846
X-9.5448 Y18.6859
X-9.5615 Y18.6867
X-9.5783 Y18.6868
X-9.595 Y18.6864
X-9.6117 Y18.6854
X-9.6283 Y18.6838
X-9.6449 Y18.6816
X-9.6614 Y18.6789
X-9.6778 Y18.6755
G3 X-10.0386 Y18.6089 I-0.1062 J-0.4349
X-10.23 Y18.348 I0.0853 J-0.2632
X-9.9189 Y18.225 I0.1905 J0.0268
G2 X-9.4899 Y18.1415 I-0.1305 J-1.8151
G3 X-9.4484 Y18.1145 I0.0469 J0.0267
G1 X-9.2538
X-9.2417 Y18.1158
X-9.2297 Y18.1176
X-9.2178 Y18.1201
X-9.206 Y18.1232
X-9.1944 Y18.1269
X-9.1831 Y18.1311
X-9.1719 Y18.136
X-9.161 Y18.1414
X-9.1504 Y18.1473
X-9.1401 Y18.1538
X-9.1302 Y18.1608
X-9.1206 Y18.1682
X-9.1114 Y18.1762
X-9.1027 Y18.1846
X-9.0944 Y18.1935
X-9.0865 Y18.2027
X-9.0791 Y18.2124
X-9.0722 Y18.2224
X-9.0659 Y18.2328
X-9.06 Y18.2434
X-9.0548 Y18.2544
X-9.0501 Y18.2656
X-9.0459 Y18.277
X-9.0424 Y18.2886
X-9.0394 Y18.3004
X-9.0371 Y18.3123
X-9.0353 Y18.3243
X-9.0342 Y18.3364
X-9.0337 Y18.3486
X-9.0338 Y18.3607
X-9.0892 Y18.51
X-9.0984 Y18.5256
X-9.1081 Y18.541
X-9.1183 Y18.556
X-9.129 Y18.5706
X-9.1402 Y18.5849
X-9.1519 Y18.5988
X-9.1641 Y18.6123
X-9.1767 Y18.6253
X-9.1897 Y18.6379
X-9.2032 Y18.6501
X-9.2171 Y18.6618
X-9.2313 Y18.673
X-9.246 Y18.6838
X-9.261 Y18.694
X-9.2763 Y18.7037
X-9.2919 Y18.7129
X-9.3079 Y18.7216
X-9.3241 Y18.7297
X-9.3406 Y18.7373
X-9.3574 Y18.7443
X-9.3743 Y18.7507
X-9.3915 Y18.7565
X-9.4089 Y18.7618
X-9.4264 Y18.7664
X-9.4441 Y18.7705
X-9.462 Y18.774
X-9.4799 Y18.7768
X-9.4979 Y18.7791
X-9.516 Y18.7807
X-9.5341 Y18.7817
X-9.5522 Y18.7821
X-9.5704 Y18.7819
X-9.5885 Y18.7811
X-9.6066 Y18.7796
X-9.6246 Y18.7776
X-9.6426 Y18.7749
G3 X-10.2258 Y18.5934 I-0.1129 J-0.665
G1 X-10.3062 Y18.4157
G3 X-10.156 Y18.1147 I0.2383 J-0.0691
G1 X-9.4484 Y18.1145
G3 X-9.4388 Y18.1178 I0. J0.0157
G1 X-9.4221 Y18.1299
X-9.0711 Y18.3859
G2 X-9.0521 Y18.3855 I0.0092 J-0.0126
X-9.0335 Y18.3607 I-0.0391 J-0.0485 F50.
G1 X-9.0013 Y18.2743 F60.
G2 X-9.0498 Y18.1133 I-0.15 J-0.0426
G1 X-9.2538 Y18.1145
G2 X-9.2611 Y18.1437 I0.0005 J0.0156
G1 X-9.0273 Y18.2797
X-9.0236 Y18.2818 F50.
G2 X-9.0013 Y18.2743 I0.0079 J-0.0135
G1 X-8.9635 Y18.1728 F60.
G2 X-8.9703 Y18.1145 I-0.0251 J-0.0266
G1 X-9.0508
G2 X-9.0574 Y18.1441 I0.0005 J0.0156
G1 X-8.9896 Y18.1785
X-8.985 Y18.1808 F50.
G2 X-8.9635 Y18.1728 I0.0071 J-0.014
X-8.9479 Y18.1178 I-0.0236 J-0.0364 F60.
X-8.9703 Y18.1145 I-0.0146 J0.0212
X-8.9805 Y18.1416 I0.0005 J0.0156
G1 X-8.9745 Y18.1364
X-8.9797 Y18.1353
G2 X-9.0978 Y18.4811 I0.1362 J0.2396
G1 X-9.09 Y18.498 F50.
G3 X-9.0892 Y18.51 I-0.014 J0.007
G1 X-9.1595 Y18.6986 F60.
G3 X-9.3978 Y18.8568 I-0.3058 J-0.202
X-9.4058 Y18.8281 I0.0005 J-0.0156
G1 X-9.183 Y18.6806
X-9.1807 Y18.6793
X-9.1782 Y18.6785
X-9.1757 Y18.678
G3 X-9.1595 Y18.6986 I0.0013 J0.0156 F50.
G1 X-9.204 Y18.818 F60.
G3 X-9.2596 Y18.8567 I-0.0874 J-0.0662
G1 X-9.9114 Y18.8568
G3 X-10.1452 Y18.7714 I0.0568 J-0.5187
X-10.1305 Y18.7498 I0.0145 J-0.006
G1 X-10.1274 Y18.7499 Z-0.1447
X-10.1245 Z-0.1438
X-10.1218 Y18.75 Z-0.1424
X-10.1194 Z-0.1404
X-10.1175 Z-0.138
X-10.116 Y18.7501 Z-0.1353
X-10.1151 Z-0.1324
X-10.1148 Z-0.1294
G0 Z0.4
X-10.2283 Y18.5472
Z-0.1137
G1 Z-0.1294 F50.
X-10.2284 Y18.5475 Z-0.1324
X-10.2285 Y18.5484 Z-0.1353
X-10.2286 Y18.5498 Z-0.138
X-10.2289 Y18.5518 Z-0.1404
X-10.2291 Y18.5541 Z-0.1424
X-10.2294 Y18.5568 Z-0.1438
X-10.2297 Y18.5597 Z-0.1447
X-10.2301 Y18.5628 Z-0.145
G2 X-10.2258 Y18.5934 I0.0619 J0.0069
G1 X-10.1265 Y18.8128 F60.
G2 X-10.0582 Y18.8568 I0.1304 J-0.1274
G1 X-9.9114
G2 X-9.8981 Y18.8485 I-0.0005 J-0.0156
X-9.8907 Y18.8099 I-0.0589 J-0.0314
X-10.2787 Y18.4256 I-0.4306 J0.0466
G1 X-10.2932 Y18.4244 F50.
G3 X-10.3062 Y18.4157 I0.001 J-0.0156
G1 X-10.3595 Y18.2978 F60.
X-10.3626 Y18.2882
X-10.3651 Y18.2783
X-10.367 Y18.2683
X-10.3683 Y18.2583
X-10.369 Y18.2481
X-10.3691 Y18.238
X-10.3686 Y18.2278
X-10.3674 Y18.2177
X-10.3657 Y18.2077
X-10.3633 Y18.1978
X-10.3604 Y18.1881
X-10.3569 Y18.1786
X-10.3528 Y18.1693
X-10.3481 Y18.1603
X-10.343 Y18.1515
X-10.3373 Y18.1431
X-10.3311 Y18.1351
X-10.3244 Y18.1274
X-10.3173 Y18.1202
X-10.3097 Y18.1133
X-10.3067 Y18.1137
X-10.3038 Y18.1145
X-10.3011 Y18.1159
X-10.2988 Y18.1177
X-10.2968 Y18.1198
X-10.2952 Y18.1223
X-10.2941 Y18.1251
X-10.2936 Y18.1279
Y18.1308
X-10.294 Y18.1336
X-10.2948 Y18.1369
X-10.3302 Y18.2943
X-10.331 Y18.2967
X-10.3321 Y18.299
X-10.3336 Y18.301
G3 X-10.3595 Y18.2978 I-0.0119 J-0.0102 F50.
G1 X-10.4046 Y18.1983 F60.
G3 X-10.404 Y18.1155 I0.0743 J-0.0408
G1 X-10.3992 Y18.1145
G3 X-10.3843 Y18.1278 I-0.0005 J0.0156
G1 X-10.3829 Y18.1369
X-10.3751 Y18.189
G3 X-10.3786 Y18.2015 I-0.0155 J0.0023
X-10.4046 Y18.1983 I-0.0119 J-0.0102 F50.
X-10.4368 Y18.121 I0.1627 J-0.1133 F60.
G1 X-10.4366 Y18.1199
X-10.4364 Y18.1192
X-10.4357 Y18.1181
X-10.4352 Y18.1177
X-10.434 Y18.1168
X-10.4229 Y18.1146
X-10.4222 Y18.1145
X-10.156
G3 X-10.1433 Y18.1218 I-0.0005 J0.0156
G1 X-10.1425 Y18.1241 Z-0.1448
X-10.1418 Y18.1263 Z-0.1443
X-10.141 Y18.1284 Z-0.1434
X-10.1409 Y18.1301 Z-0.1423
X-10.1414 Y18.1324 Z-0.1404
X-10.1418 Y18.1343 Z-0.138
X-10.1422 Y18.1357 Z-0.1353
X-10.1423 Y18.1365 Z-0.1324
X-10.1424 Y18.1368 Z-0.1294
G0 Z0.4
X-9.7161 Y17.5395
Z-0.1137
G1 Z-0.1294 F50.
Y17.5398 Z-0.1324
X-9.7158 Y17.5407 Z-0.1353
X-9.7155 Y17.5421 Z-0.138
X-9.715 Y17.544 Z-0.1404
X-9.7144 Y17.5463 Z-0.1424
X-9.7137 Y17.5489 Z-0.1438
X-9.713 Y17.5517 Z-0.1447
X-9.7123 Y17.5547 Z-0.145
G3 X-9.7 Y17.6399 I-0.387 J0.0991
X-9.9167 Y17.6854 I-0.1155 J-0.0112 F60.
X-9.8837 Y17.3846 I0.1399 J-0.1369
X-9.5119 Y17.3976 I0.1819 J0.1234
X-9.6069 Y17.7535 I-0.1055 J0.1625
X-9.7618 Y17.828 I-0.2134 J-0.2451
G1 X-9.8174
G3 X-10.0473 Y17.4629 I0.0098 J-0.2611
G1 X-9.8879 Y17.2739
G3 X-9.5357 Y17.246 I0.1923 J0.1908
G1 X-9.3839 Y17.4256
X-9.3767 Y17.4361
X-9.3699 Y17.4468
X-9.3638 Y17.4579
X-9.3581 Y17.4693
X-9.353 Y17.481
X-9.3485 Y17.4929
X-9.3446 Y17.505
X-9.3413 Y17.5172
X-9.3386 Y17.5297
X-9.3365 Y17.5422
X-9.335 Y17.5548
X-9.3342 Y17.5675
X-9.3339 Y17.5802
X-9.3343 Y17.5929
X-9.3353 Y17.6056
X-9.337 Y17.6182
X-9.3392 Y17.6307
X-9.3421 Y17.6431
X-9.3455 Y17.6553
X-9.3496 Y17.6674
X-9.3542 Y17.6792
X-9.3595 Y17.6908
X-9.3652 Y17.7021
X-9.3716 Y17.7131
X-9.3784 Y17.7238
X-9.3858 Y17.7342
X-9.3937 Y17.7441
X-9.4021 Y17.7537
X-9.4109 Y17.7628
X-9.4201 Y17.7716
X-9.4298 Y17.7798
X-9.4399 Y17.7876
X-9.4503 Y17.7948
X-9.4611 Y17.8015
X-9.4722 Y17.8077
X-9.4836 Y17.8134
X-9.4952 Y17.8185
X-9.5071 Y17.823
X-9.5192 Y17.8269
X-9.7618 Y17.828
G3 X-9.7751 Y17.8197 I0.0005 J-0.0156
X-9.7622 Y17.7654 I0.0373 J-0.0199
X-9.5395 Y17.8072 I0.0911 J0.1284
X-9.5321 Y17.8197 I-0.1315 J0.0866 F50.
G2 X-9.5189 Y17.828 I0.0138 J-0.0074
G1 X-9.4182 F60.
G2 X-9.2417 Y17.594 I-0.0536 J-0.224
G1 X-9.3839 Y17.4256
G2 X-9.3988 Y17.4208 I-0.0116 J0.0105
X-9.437 Y17.4909 I0.0111 J0.0514
X-9.2709 Y17.5916 I0.1473 J-0.0556
X-9.2566 Y17.5892 I-0.0188 J-0.1564 F50.
G3 X-9.2417 Y17.594 I0.0033 J0.0153
G1 X-9.2068 Y17.6353 F60.
X-9.2025 Y17.6439
X-9.1987 Y17.6528
X-9.1955 Y17.6619
X-9.1928 Y17.6712
X-9.1907 Y17.6807
X-9.1892 Y17.6902
X-9.1883 Y17.6998
X-9.1879 Y17.7095
X-9.1882 Y17.7191
X-9.189 Y17.7288
X-9.1904 Y17.7383
X-9.1924 Y17.7478
X-9.195 Y17.7571
X-9.1981 Y17.7662
X-9.2018 Y17.7752
X-9.206 Y17.7838
X-9.2108 Y17.7923
X-9.216 Y17.8004
X-9.2217 Y17.8082
X-9.2279 Y17.8156
X-9.2346 Y17.8226
X-9.2416 Y17.8292
X-9.4182 Y17.828
G3 X-9.4314 Y17.8197 I0.0005 J-0.0156
X-9.4172 Y17.7719 I0.0314 J-0.0167
X-9.2636 Y17.8073 I0.0571 J0.1034
X-9.2559 Y17.8197 I-0.0966 J0.0679 F50.
G2 X-9.2427 Y17.828 I0.0138 J-0.0074
G1 X-9.2068 F60.
G2 X-9.1138 Y17.7428 I-0.006 J-0.0999
G1 X-9.2068 Y17.6353
G2 X-9.234 Y17.6469 I-0.0116 J0.0105
G1 X-9.2224 Y17.8055
X-9.2219 Y17.8135 F50.
G2 X-9.2068 Y17.828 I0.0156 J-0.0011
G1 X-9.1234 F60.
G2 X-9.0733 Y17.7933 I0.0144 J-0.0326
G1 X-9.1163 Y17.7424
G2 X-9.1384 Y17.7413 I-0.0116 J0.0105
X-9.1395 Y17.7614 I0.0096 J0.0106
X-9.1025 Y17.785 I0.0592 J-0.0519
X-9.0842 Y17.7881 I0.0222 J-0.0756 F50.
G3 X-9.0733 Y17.7933 I-0.0008 J0.0156
G1 X-9.0625 Y17.806 F60.
X-9.0613 Y17.8075
X-9.0603 Y17.8087
X-9.0589 Y17.8105
X-9.0583 Y17.8114
G3 X-9.0579 Y17.8152 I-0.0048 J0.0025
X-9.0676 Y17.8171 I-0.0053 J-0.0013 F50.
G1 X-9.0688 Y17.8155
G3 X-9.0603 Y17.8087 I0.0044 J-0.0032
G1 X-9.0591 Y17.8102 F60.
X-9.0582 Y17.8116
X-9.0573 Y17.8133
X-9.0566 Y17.8146
X-9.0539 Y17.82
X-9.0544 Y17.8228
X-9.0562 Y17.8252
X-9.0588 Y17.8264
G3 X-9.0647 Y17.8263 I-0.0026 J-0.0169
X-9.0618 Y17.811 I0.0015 J-0.0076 F50.
X-9.0566 Y17.8146 I-0.0015 J0.0076
G1 X-9.0541 Y17.819 F60.
X-9.0537 Y17.8197
X-9.0535 Y17.8212
X-9.0536 Y17.8219
X-9.054 Y17.8234
X-9.0548 Y17.8246
G3 X-9.1234 Y17.828 I-0.0371 J-0.0551
G0 Z-0.1137
X-9.5207 Y17.2897
G1 Z-0.1294 F50.
Y17.2894 Z-0.1324
X-9.5208 Y17.2885 Z-0.1353
X-9.5211 Y17.2871 Z-0.138
X-9.5214 Y17.2852 Z-0.1404
X-9.5218 Y17.2828 Z-0.1424
X-9.5222 Y17.2802 Z-0.1438
X-9.5227 Y17.2773 Z-0.1447
X-9.5232 Y17.2743 Z-0.145
G2 X-9.5357 Y17.246 I-0.0615 J0.0102
G1 X-9.6145 Y17.1527 F60.
G2 X-9.7502 Y17.1089 I-0.1096 J0.1075
G1 X-9.8879 Y17.2739
G2 X-9.8679 Y17.2972 I0.0123 J0.0097
G3 X-9.851 Y17.3235 I0.0077 J0.0136
G1 X-10.0176 Y17.4437
X-10.0196 Y17.4449
X-10.0217 Y17.4458
G2 X-10.0475 Y17.4628 I0.0204 J0.0589 F50.
G1 X-10.1156 Y17.5435 F60.
G2 X-10.0449 Y17.828 I0.2051 J0.1
G1 X-9.8174
G2 X-9.8042 Y17.8197 I-0.0005 J-0.0156
X-9.8279 Y17.7503 I-0.0444 J-0.0236
X-10.0242 Y17.8072 I-0.0648 J0.1435
X-10.0316 Y17.8197 I0.1315 J0.0866 F50.
G3 X-10.0449 Y17.828 I-0.0138 J-0.0074
G1 X-10.0993 F60.
X-10.1089 Y17.8259
X-10.1183 Y17.8232
X-10.1276 Y17.8199
X-10.1366 Y17.816
X-10.1454 Y17.8116
X-10.1539 Y17.8067
X-10.1621 Y17.8012
X-10.1699 Y17.7953
X-10.1773 Y17.7888
X-10.1844 Y17.782
X-10.191 Y17.7747
X-10.1971 Y17.767
X-10.2027 Y17.759
X-10.2079 Y17.7506
X-10.2125 Y17.7419
X-10.2166 Y17.7329
X-10.2201 Y17.7237
X-10.223 Y17.7144
X-10.2253 Y17.7048
X-10.2271 Y17.6951
X-10.2282 Y17.6854
X-10.2288 Y17.6756
X-10.1156 Y17.5435
G3 X-10.1008 Y17.5387 I0.0116 J0.0105
X-10.0728 Y17.5834 I-0.0077 J0.0359
X-10.1979 Y17.6729 I-0.1147 J-0.0281
X-10.2123 Y17.6707 I0.0104 J-0.1176 F50.
G2 X-10.2272 Y17.6755 I-0.0033 J0.0153
G1 X-10.252 Y17.7049 F60.
G2 X-10.2446 Y17.8296 I0.083 J0.0576
G1 X-10.0993 Y17.828
G2 X-10.0909 Y17.7995 I-0.0005 J-0.0156
G1 X-10.2246 Y17.7073
X-10.2316 Y17.7026 F50.
G2 X-10.252 Y17.7049 I-0.0089 J0.0129
G1 X-10.3035 Y17.7659 F60.
G2 X-10.3099 Y17.828 I0.0162 J0.033
G1 X-10.2428
G2 X-10.2277 Y17.8118 I-0.0005 J-0.0156
X-10.2421 Y17.798 I-0.0143 J0.0005
X-10.2848 Y17.811 I0.0008 J0.0787
X-10.299 Y17.823 I0.0434 J0.0657 F50.
G3 X-10.3099 Y17.828 I-0.0114 J-0.0107
G1 X-10.3256 F60.
X-10.3316 Y17.8277
X-10.3341 Y17.8269
X-10.3389 Y17.8239
X-10.3417 Y17.8191
X-10.3419 Y17.8134
X-10.3394 Y17.8084
G3 X-10.3339 Y17.8035 I0.0251 J0.0228
X-10.3162 Y17.8053 I0.0078 J0.011
X-10.3256 Y17.828 I-0.0099 J0.0092 F50.
G1 X-10.3327 F60.
X-10.343 Y17.826
X-10.3436 Y17.8258
X-10.3448 Y17.825
X-10.3452 Y17.8246
X-10.346 Y17.8234
X-10.3464 Y17.8219
G3 X-10.3035 Y17.7659 I0.0915 J0.0256
X-10.2777 Y17.7699 I0.0116 J0.0105
G1 X-10.2765 Y17.7727 Z-0.1447
X-10.2752 Y17.7753 Z-0.1438
X-10.2741 Y17.7778 Z-0.1424
X-10.2731 Y17.78 Z-0.1404
X-10.2723 Y17.7817 Z-0.138
X-10.2717 Y17.783 Z-0.1353
X-10.2713 Y17.7839 Z-0.1324
X-10.2712 Y17.7841 Z-0.1294
G0 Z-0.1137
X-9.5994 Y17.1965
G1 Z-0.1294 F50.
X-9.5995 Y17.1962 Z-0.1324
X-9.5996 Y17.1953 Z-0.1353
X-9.5999 Y17.1939 Z-0.138
X-9.6002 Y17.1919 Z-0.1404
X-9.6006 Y17.1896 Z-0.1424
X-9.601 Y17.1869 Z-0.1438
X-9.6015 Y17.184 Z-0.1447
X-9.602 Y17.181 Z-0.145
G2 X-9.6145 Y17.1527 I-0.0615 J0.0102
G1 X-9.6827 Y17.072 F60.
X-9.6874 Y17.0667
X-9.6937 Y17.0604
X-9.6979 Y17.0585
X-9.7025 Y17.0586
X-9.7067 Y17.0607
X-9.7087 Y17.0624
X-9.7173 Y17.072
X-9.7499 Y17.1106
G2 X-9.7258 Y17.1306 I0.0123 J0.0097
G1 X-9.6935 Y17.0937
X-9.6877 Y17.0871 F50.
G2 X-9.6838 Y17.0768 I-0.0118 J-0.0103
X-9.6874 Y17.0667 I-0.0157 J0.
G1 X-9.6913 Y17.0624 F60.
X-9.6973 Y17.0574
X-9.6989 Y17.0568
X-9.6995 Y17.0567
X-9.7005
X-9.7011 Y17.0568
X-9.7027 Y17.0574
X-9.7067 Y17.0607
G2 X-9.7084 Y17.0626 I0.0104 J0.0117
G1 X-9.7095 Y17.0647 Z-0.1448
X-9.7105 Y17.0668 Z-0.1443
X-9.7115 Y17.0688 Z-0.1434
X-9.7117 Y17.0707 Z-0.1423
X-9.7119 Y17.0724 Z-0.1409
X-9.7116 Y17.0741 Z-0.139
X-9.7114 Y17.0755 Z-0.1368
X-9.7112 Y17.0765 Z-0.1345
X-9.7111 Y17.0772 Z-0.1319
X-9.711 Y17.0774 Z-0.1294
G0 Z0.4
X-9.8306 Y20.3133
Z0.1
G3 X-9.9774 Y20.2898 Z0.0588 I-0.0734 J-0.0117 F50.
X-9.8306 Y20.3133 Z0.0176 I0.0734 J0.0117
X-9.9774 Y20.2898 Z-0.0235 I-0.0734 J-0.0117
X-9.8306 Y20.3133 Z-0.0647 I0.0734 J0.0117
X-9.9774 Y20.2898 Z-0.1059 I-0.0734 J-0.0117
X-9.8297 Y20.3015 Z-0.145 I0.0734 J0.0117
X-9.9784 I-0.0743 J0.
X-9.8299 Y20.2953 I0.0743 J0.
G1 X-9.8297 Y20.3015
G3 Y20.4067 I-0.054 J0.0526 F60.
G1 X-9.9583
G3 X-10.0058 Y20.3863 I-0.0132 J-0.0345
X-9.988 Y20.3714 I0.0156 J0.0005
G1 X-9.9833 Y20.372
X-9.9568 Y20.3756
G3 X-9.9447 Y20.3844 I-0.0021 J0.0155
X-9.9583 Y20.4067 I-0.0142 J0.0067 F50.
X-10.0036 Y20.4018 I-0.0199 J-0.0273 F60.
G1 X-10.0057 Y20.3911
X-10.0058 Y20.3904
Y20.2414
G3 X-9.8016 Y20.1858 I0.1155 J0.0215
G1 X-9.8023 Y20.3907
X-9.8027 Y20.3929
X-9.8044 Y20.4015
X-9.8046 Y20.402
X-9.8053 Y20.4032
G3 X-9.8297 Y20.4067 I-0.0152 J-0.0192
X-9.8445 Y20.388 I0.0005 J-0.0156
G1 X-9.8437 Y20.3843
X-9.8091 Y20.2111
G2 X-9.8398 Y20.205 I-0.0153 J-0.0031
X-9.811 Y20.216 I0.0153 J0.0031
X-9.8023 Y20.1864 I-0.0536 J-0.0318 F50.
G1 Y20.153 F60.
X-9.805 Y20.1447
X-9.8083 Y20.1366
X-9.8122 Y20.1287
X-9.8166 Y20.1212
X-9.8216 Y20.114
X-9.827 Y20.1071
X-9.833 Y20.1007
X-9.8393 Y20.0947
X-9.8461 Y20.0892
X-9.8533 Y20.0841
X-9.8607 Y20.0796
X-9.8685 Y20.0756
X-9.8766 Y20.0722
X-9.8849 Y20.0694
X-9.8933 Y20.0672
X-9.9019 Y20.0655
X-9.9106 Y20.0645
X-9.9193 Y20.0641
X-9.9281 Y20.0643
X-9.9368 Y20.0652
X-9.9454 Y20.0666
X-9.9539 Y20.0687
X-9.9622 Y20.0714
X-9.9704 Y20.0746
X-9.9782 Y20.0784
X-9.9858 Y20.0828
X-9.9931 Y20.0877
X-9.9999 Y20.0931
X-10.0064 Y20.0989
X-10.0058 Y20.2414
G2 X-9.9896 Y20.2565 I0.0156 J-0.0005
X-9.974 Y20.2461 I-0.0006 J-0.0178
X-9.9882 Y20.1242 I-0.1073 J-0.0493
X-10.0008 Y20.1105 I-0.0931 J0.0727 F50.
G3 X-10.0058 Y20.0996 I0.0107 J-0.0114
G1 Y20.0706 F60.
X-10.0028 Y20.0624
X-9.9993 Y20.0545
X-9.9953 Y20.0469
X-9.9907 Y20.0395
X-9.9857 Y20.0325
X-9.9801 Y20.0258
X-9.9741 Y20.0195
X-9.9677 Y20.0137
X-9.961 Y20.0083
X-9.9538 Y20.0034
X-9.9464 Y19.999
X-9.9386 Y19.9951
X-9.9306 Y19.9918
X-9.9224 Y19.989
X-9.914 Y19.9868
X-9.9055 Y19.9852
X-9.8969 Y19.9842
X-9.8883 Y19.9838
X-9.8796 Y19.9839
X-9.871 Y19.9847
X-9.8624 Y19.9861
X-9.854 Y19.988
X-9.8457 Y19.9906
X-9.8376 Y19.9937
X-9.8298 Y19.9973
X-9.8222 Y20.0015
X-9.8149 Y20.0062
X-9.808 Y20.0114
X-9.8014 Y20.017
X-9.8023 Y20.153
G3 X-9.8185 Y20.1681 I-0.0156 J-0.0005
X-9.8386 Y20.1531 I0.0008 J-0.022
X-9.8198 Y20.0426 I0.1119 J-0.0379
X-9.8072 Y20.0289 I0.0931 J0.0727 F50.
G2 X-9.8023 Y20.018 I-0.0107 J-0.0114
G1 Y19.988 F60.
G2 X-10.0065 Y19.937 I-0.1189 J0.0419
G1 X-10.0058 Y20.0706
G2 X-9.9896 Y20.0857 I0.0156 J-0.0005
X-9.9683 Y20.0693 I-0.0008 J-0.023
X-9.9882 Y19.9624 I-0.113 J-0.0343
X-10.0008 Y19.9487 I-0.0931 J0.0727 F50.
G3 X-10.0058 Y19.9378 I0.0107 J-0.0114
G1 Y19.9114 F60.
X-10.0029 Y19.9032
X-9.9995 Y19.8952
X-9.9956 Y19.8874
X-9.9911 Y19.88
X-9.9861 Y19.8728
X-9.9806 Y19.8661
X-9.9747 Y19.8597
X-9.9683 Y19.8538
X-9.9616 Y19.8483
X-9.9544 Y19.8433
X-9.947 Y19.8388
X-9.9392 Y19.8348
X-9.9312 Y19.8314
X-9.923 Y19.8286
X-9.9146 Y19.8263
X-9.9061 Y19.8247
X-9.8974 Y19.8236
X-9.8887 Y19.8232
X-9.88 Y19.8233
X-9.8714 Y19.8241
X-9.8628 Y19.8254
X-9.8543 Y19.8274
X-9.846 Y19.8299
X-9.8378 Y19.833
X-9.8299 Y19.8367
X-9.8223 Y19.8409
X-9.815 Y19.8456
X-9.8081 Y19.8508
X-9.8015 Y19.8565
X-9.8023 Y19.988
G3 X-9.8105 Y20.0012 I-0.0156 J-0.0005
X-9.8243 Y20.0002 I-0.0061 J-0.0114
G1 X-9.8251 Y19.9996
G3 X-9.8227 Y19.8786 I0.0516 J-0.0595
X-9.8105 Y19.8706 I0.0492 J0.0615 F50.
G2 X-9.8023 Y19.8574 I-0.0074 J-0.0138
G1 Y19.8301 F60.
X-9.8052 Y19.8219
X-9.8087 Y19.814
X-9.8127 Y19.8063
X-9.8173 Y19.7989
X-9.8223 Y19.7919
X-9.8278 Y19.7852
X-9.8338 Y19.7789
X-9.8402 Y19.7731
X-9.847 Y19.7677
X-9.8541 Y19.7628
X-9.8616 Y19.7583
X-9.8693 Y19.7545
X-9.8773 Y19.7511
X-9.8855 Y19.7484
X-9.8939 Y19.7462
X-9.9024 Y19.7445
X-9.911 Y19.7435
X-9.9197 Y19.7431
X-9.9284 Y19.7433
X-9.937 Y19.744
X-9.9456 Y19.7454
X-9.954 Y19.7474
X-9.9623 Y19.7499
X-9.9704 Y19.753
X-9.9782 Y19.7567
X-9.9858 Y19.7608
X-9.9931 Y19.7656
X-10. Y19.7707
X-10.0066 Y19.7764
X-10.0058 Y19.9114
G2 X-9.9896 Y19.9265 I0.0156 J-0.0005
X-9.969 Y19.911 I-0.0008 J-0.0225
X-9.9882 Y19.8019 I-0.1124 J-0.0364
X-10.0008 Y19.7882 I-0.0931 J0.0727 F50.
G3 X-10.0058 Y19.7773 I0.0107 J-0.0114
G1 Y19.7522 F60.
X-10.003 Y19.7439
X-9.9997 Y19.7358
X-9.9959 Y19.728
X-9.9915 Y19.7204
X-9.9865 Y19.7132
X-9.9811 Y19.7064
X-9.9752 Y19.6999
X-9.9689 Y19.6939
X-9.9621 Y19.6883
X-9.955 Y19.6832
X-9.9475 Y19.6787
X-9.9398 Y19.6747
X-9.9318 Y19.6712
X-9.9235 Y19.6683
X-9.9151 Y19.666
X-9.9065 Y19.6643
X-9.8978 Y19.6632
X-9.8891 Y19.6627
X-9.8804 Y19.6628
X-9.8716 Y19.6636
X-9.863 Y19.6649
X-9.8545 Y19.6669
X-9.8461 Y19.6695
X-9.838 Y19.6726
X-9.8301 Y19.6763
X-9.8224 Y19.6806
X-9.8151 Y19.6854
X-9.8081 Y19.6906
X-9.8016 Y19.6964
X-9.8023 Y19.8301
G3 X-9.8185 Y19.8452 I-0.0156 J-0.0005
X-9.8396 Y19.8289 I0.0008 J-0.023
X-9.8198 Y19.7218 I0.113 J-0.0345
X-9.8072 Y19.708 I0.0931 J0.0727 F50.
G2 X-9.8023 Y19.6971 I-0.0107 J-0.0114
G1 Y19.6698 F60.
X-9.8052 Y19.6617
X-9.8087 Y19.6537
X-9.8127 Y19.6461
X-9.8172 Y19.6387
X-9.8223 Y19.6316
X-9.8278 Y19.6249
X-9.8338 Y19.6186
X-9.8402 Y19.6128
X-9.8469 Y19.6074
X-9.8541 Y19.6025
X-9.8615 Y19.598
X-9.8693 Y19.5942
X-9.8773 Y19.5908
X-9.8855 Y19.588
X-9.8939 Y19.5858
X-9.9024 Y19.5842
X-9.911 Y19.5832
X-9.9197 Y19.5828
X-9.9283 Y19.5829
X-9.937 Y19.5837
X-9.9455 Y19.5851
X-9.954 Y19.587
X-9.9623 Y19.5896
X-9.9704 Y19.5927
X-9.9782 Y19.5963
X-9.9858 Y19.6005
X-9.9931 Y19.6053
X-10. Y19.6105
X-10.0066 Y19.6161
X-10.0058 Y19.7522
G2 X-9.9787 Y19.7624 I0.0156 J-0.0005
X-9.9651 Y19.7353 I-0.0392 J-0.0366
X-9.9882 Y19.6416 I-0.1162 J-0.0211
X-10.0008 Y19.6279 I-0.0931 J0.0727 F50.
G3 X-10.0058 Y19.617 I0.0107 J-0.0114
G1 Y19.5872 F60.
G3 X-9.8016 Y19.536 I0.119 J0.0417
G1 X-9.8023 Y19.6698
G3 X-9.8294 Y19.68 I-0.0156 J-0.0005
X-9.8438 Y19.6493 I0.0406 J-0.0379
X-9.8198 Y19.5614 I0.1171 J-0.0153
X-9.8072 Y19.5476 I0.0931 J0.0727 F50.
G2 X-9.8023 Y19.5367 I-0.0107 J-0.0114
G1 Y19.5107 F60.
X-9.8051 Y19.5024
X-9.8085 Y19.4944
X-9.8124 Y19.4866
X-9.8169 Y19.4792
X-9.8219 Y19.472
X-9.8273 Y19.4652
X-9.8333 Y19.4589
X-9.8396 Y19.4529
X-9.8464 Y19.4474
X-9.8535 Y19.4424
X-9.861 Y19.4379
X-9.8687 Y19.434
X-9.8767 Y19.4305
X-9.885 Y19.4277
X-9.8934 Y19.4254
X-9.9019 Y19.4238
X-9.9106 Y19.4227
X-9.9193 Y19.4222
X-9.928 Y19.4224
X-9.9366 Y19.4231
X-9.9452 Y19.4245
X-9.9537 Y19.4264
X-9.962 Y19.429
X-9.9702 Y19.4321
X-9.9781 Y19.4358
X-9.9857 Y19.44
X-9.993 Y19.4447
X-10. Y19.4499
X-10.0065 Y19.4557
X-10.0058 Y19.5872
G2 X-9.9975 Y19.6005 I0.0156 J-0.0005
X-9.9838 Y19.5994 I0.006 J-0.0113
X-9.9854 Y19.4777 I-0.0508 J-0.0602
X-9.9975 Y19.4697 I-0.0492 J0.0615 F50.
G3 X-10.0058 Y19.4565 I0.0074 J-0.0138
G1 Y19.4293 F60.
X-10.0028 Y19.4212
X-9.9994 Y19.4132
X-9.9954 Y19.4055
X-9.9908 Y19.3981
X-9.9858 Y19.3911
X-9.9803 Y19.3844
X-9.9743 Y19.3781
X-9.9679 Y19.3722
X-9.9611 Y19.3668
X-9.954 Y19.3619
X-9.9465 Y19.3575
X-9.9388 Y19.3536
X-9.9308 Y19.3502
X-9.9226 Y19.3475
X-9.9142 Y19.3453
X-9.9056 Y19.3436
X-9.897 Y19.3426
X-9.8884 Y19.3422
X-9.8797 Y19.3424
X-9.8711 Y19.3431
X-9.8625 Y19.3445
X-9.8541 Y19.3465
X-9.8458 Y19.349
X-9.8377 Y19.3521
X-9.8298 Y19.3558
X-9.8222 Y19.36
X-9.8149 Y19.3647
X-9.808 Y19.3699
X-9.8015 Y19.3756
X-9.8023 Y19.5107
G3 X-9.8185 Y19.5258 I-0.0156 J-0.0005
X-9.839 Y19.5103 I0.0008 J-0.0224
X-9.8198 Y19.4011 I0.1123 J-0.0366
X-9.8072 Y19.3873 I0.0931 J0.0727 F50.
G2 X-9.8023 Y19.3764 I-0.0107 J-0.0114
G1 Y19.3515 F60.
X-9.805 Y19.3432
X-9.8083 Y19.3351
X-9.8121 Y19.3272
X-9.8165 Y19.3197
X-9.8215 Y19.3124
X-9.8269 Y19.3056
X-9.8328 Y19.2991
X-9.8391 Y19.293
X-9.8458 Y19.2875
X-9.853 Y19.2824
X-9.8604 Y19.2778
X-9.8682 Y19.2738
X-9.8762 Y19.2703
X-9.8845 Y19.2674
X-9.8929 Y19.2651
X-9.9015 Y19.2634
X-9.9102 Y19.2623
X-9.9189 Y19.2618
X-9.9276 Y19.2619
X-9.9364 Y19.2627
X-9.945 Y19.264
X-9.9535 Y19.266
X-9.9619 Y19.2686
X-9.97 Y19.2717
X-9.978 Y19.2754
X-9.9856 Y19.2797
X-9.9929 Y19.2845
X-9.9999 Y19.2898
X-10.0065 Y19.2955
X-10.0058 Y19.4293
G2 X-9.9787 Y19.4395 I0.0156 J-0.0005
X-9.9642 Y19.4087 I-0.0406 J-0.0379
X-9.9882 Y19.3209 I-0.1171 J-0.0152
X-10.0008 Y19.3072 I-0.0931 J0.0727 F50.
G3 X-10.0058 Y19.2963 I0.0107 J-0.0114
G1 Y19.2691 F60.
X-10.0029 Y19.2609
X-9.9994 Y19.253
X-9.9954 Y19.2453
X-9.9908 Y19.2379
X-9.9858 Y19.2308
X-9.9803 Y19.2241
X-9.9743 Y19.2178
X-9.9679 Y19.212
X-9.9612 Y19.2065
X-9.954 Y19.2016
X-9.9466 Y19.1972
X-9.9388 Y19.1933
X-9.9308 Y19.1899
X-9.9226 Y19.1872
X-9.9142 Y19.1849
X-9.9057 Y19.1833
X-9.8971 Y19.1823
X-9.8884 Y19.1819
X-9.8797 Y19.182
X-9.8711 Y19.1828
X-9.8625 Y19.1842
X-9.8541 Y19.1862
X-9.8458 Y19.1887
X-9.8377 Y19.1918
X-9.8298 Y19.1955
X-9.8222 Y19.1997
X-9.815 Y19.2044
X-9.808 Y19.2096
X-9.8015 Y19.2153
X-9.8023 Y19.3515
G3 X-9.8294 Y19.3616 I-0.0156 J-0.0005
X-9.8428 Y19.3348 I0.0391 J-0.0365
X-9.8198 Y19.2408 I0.1162 J-0.0214
X-9.8072 Y19.227 I0.0931 J0.0727 F50.
G2 X-9.8023 Y19.2161 I-0.0107 J-0.0114
G1 Y19.1865 F60.
G2 X-9.8271 Y19.1423 I-0.0515 J-0.0002
G1 X-9.9713 Y19.1433
G2 X-10.0051 Y19.1561 I-0.0092 J0.0269
G1 X-10.0057 Y19.159
X-10.0058 Y19.1594
Y19.2691
G2 X-9.9747 Y19.2711 I0.0156 J-0.0005
G1 X-9.9571 Y19.1657
X-9.9564 Y19.1615 F50.
G2 X-9.9713 Y19.1433 I-0.0154 J-0.0026
X-10.0051 Y19.1561 I-0.0139 J0.0145 F60.
X-9.9922 Y19.1741 I0.0154 J0.0025
G1 X-9.986 Y19.175
X-9.8247 Y19.2007
X-9.8204 Y19.2014 F50.
G2 X-9.8023 Y19.1865 I0.0025 J-0.0155
X-9.8277 Y19.1433 I-0.0185 J-0.0182 F60.
X-9.8302 Y19.1436 I0.0005 J0.0156
G1 X-9.8324 Y19.1445 Z-0.1448
X-9.8345 Y19.1455 Z-0.1443
X-9.8365 Y19.1464 Z-0.1434
X-9.8379 Y19.148 Z-0.1421
X-9.8391 Y19.1495 Z-0.1405
X-9.8402 Y19.1507 Z-0.1386
X-9.841 Y19.1517 Z-0.1364
X-9.8414 Y19.1525 Z-0.1342
X-9.8416 Y19.1531 Z-0.1318
X-9.8417 Y19.1532 Z-0.1294
G0 Z0.4
X-9.8306 Y21.7984
Z0.1
G3 X-9.925 Y21.858 Z0.0777 I-0.0734 J-0.0117 F50.
X-9.883 Y21.7153 Z0.0365 I0.021 J-0.0713
X-9.8458 Y21.8329 Z0.0109 I-0.021 J0.0713
X-9.9574 Y21.8384 Z-0.0114 I-0.0582 J-0.0463
X-9.9485 Y21.7271 Z-0.0336 I0.0533 J-0.0518
X-9.8393 Y21.7501 Z-0.0559 I0.0445 J0.0595
X-9.9688 Y21.8232 Z-0.0971 I-0.0647 J0.0365
X-9.8393 Y21.7501 Z-0.1383 I0.0647 J-0.0365
X-9.8297 Y21.7866 Z-0.145 I-0.0647 J0.0365
X-9.9784 I-0.0743 J0.
X-9.8299 Y21.7804 I0.0743 J0.
G1 X-9.8297 Y21.7866
G3 X-9.8404 Y21.9068 I-0.0597 J0.0552 F60.
G1 X-9.9478
G3 X-10.0058 Y21.8826 I-0.0159 J-0.0435
X-9.9872 Y21.8678 I0.0156 J0.0005
G1 X-9.9833 Y21.8685
X-9.9454 Y21.8757
G3 X-9.9342 Y21.8844 I-0.0029 J0.0154
X-9.9478 Y21.9068 I-0.0142 J0.0067 F50.
X-10.0036 Y21.9016 I-0.0254 J-0.0304 F60.
G1 X-10.0058 Y21.8908
Y21.7265
G3 X-9.8016 Y21.6709 I0.1155 J0.0215
G1 X-9.8023 Y21.8905
G3 X-9.8404 Y21.9068 I-0.022 J0.0012
X-9.8514 Y21.9016 I0.0005 J-0.0156
G1 X-9.8638 Y21.888
X-9.9883 Y21.7513
X-10.0017 Y21.7365 F50.
G3 X-10.0058 Y21.7265 I0.0116 J-0.0105
G1 Y21.6452 F60.
G3 X-9.8009 Y21.5687 I0.1293 J0.0337
G1 X-9.8023 Y21.6715
G3 X-9.8105 Y21.6847 I-0.0156 J-0.0005
X-9.8516 Y21.6635 I-0.0132 J-0.0248
X-9.8227 Y21.592 I0.0781 J-0.01
X-9.8105 Y21.584 I0.0492 J0.0615 F50.
G2 X-9.8023 Y21.5708 I-0.0074 J-0.0138
G1 Y21.547 F60.
X-9.8056 Y21.5391
X-9.8094 Y21.5315
X-9.8138 Y21.5241
X-9.8186 Y21.5171
X-9.8239 Y21.5104
X-9.8297 Y21.5041
X-9.8359 Y21.4982
X-9.8425 Y21.4927
X-9.8495 Y21.4878
X-9.8567 Y21.4833
X-9.8643 Y21.4793
X-9.8721 Y21.4758
X-9.8802 Y21.4729
X-9.8884 Y21.4706
X-9.8968 Y21.4688
X-9.9052 Y21.4677
X-9.9138 Y21.4671
X-9.9223
X-9.9308 Y21.4676
X-9.9393 Y21.4688
X-9.9477 Y21.4706
X-9.9559 Y21.4729
X-9.9639 Y21.4758
X-9.9718 Y21.4792
X-9.9793 Y21.4832
X-9.9866 Y21.4877
X-9.9936 Y21.4926
X-10.0002 Y21.4981
X-10.0064 Y21.504
X-10.0058 Y21.6452
G2 X-9.9975 Y21.6585 I0.0156 J-0.0005
X-9.9349 Y21.6203 I0.02 J-0.0375
X-9.9851 Y21.5254 I-0.1181 J0.0017
X-9.9975 Y21.5178 I-0.0679 J0.0966 F50.
G3 X-10.0058 Y21.5046 I0.0074 J-0.0138
G1 Y21.4731 F60.
G3 X-9.8014 Y21.4178 I0.1207 J0.0406
G1 X-9.8023 Y21.547
G3 X-9.8105 Y21.5603 I-0.0156 J-0.0005
X-9.8288 Y21.5576 I-0.0073 J-0.0137
X-9.8227 Y21.44 I0.0553 J-0.0561
X-9.8105 Y21.432 I0.0492 J0.0615 F50.
G2 X-9.8023 Y21.4188 I-0.0074 J-0.0138
G1 Y21.3907 F60.
X-9.8054 Y21.3826
X-9.809 Y21.3748
X-9.8132 Y21.3673
X-9.8178 Y21.3601
X-9.823 Y21.3532
X-9.8286 Y21.3466
X-9.8347 Y21.3405
X-9.8411 Y21.3348
X-9.8479 Y21.3296
X-9.8551 Y21.3248
X-9.8626 Y21.3206
X-9.8703 Y21.3168
X-9.8783 Y21.3136
X-9.8865 Y21.311
X-9.8949 Y21.3089
X-9.9033 Y21.3074
X-9.9119 Y21.3065
X-9.9205 Y21.3061
X-9.9291 Y21.3064
X-9.9377 Y21.3072
X-9.9462 Y21.3087
X-9.9545 Y21.3107
X-9.9627 Y21.3132
X-9.9708 Y21.3164
X-9.9786 Y21.32
X-9.9861 Y21.3242
X-9.9933 Y21.3289
X-10.0001 Y21.3341
X-10.0066 Y21.3398
X-10.0058 Y21.4731
G2 X-9.9975 Y21.4863 I0.0156 J-0.0005
X-9.9858 Y21.4853 I0.0051 J-0.0095
G1 X-9.9841 Y21.484
G2 X-9.9854 Y21.362 I-0.0504 J-0.0605
X-9.9975 Y21.354 I-0.0492 J0.0615 F50.
G3 X-10.0058 Y21.3407 I0.0074 J-0.0138
G1 Y21.3152 F60.
X-10.003 Y21.3069
X-9.9997 Y21.2988
X-9.9958 Y21.291
X-9.9914 Y21.2834
X-9.9865 Y21.2762
X-9.9811 Y21.2694
X-9.9752 Y21.2629
X-9.9688 Y21.2569
X-9.9621 Y21.2513
X-9.955 Y21.2463
X-9.9475 Y21.2417
X-9.9398 Y21.2377
X-9.9318 Y21.2342
X-9.9235 Y21.2313
X-9.9151 Y21.2289
X-9.9066 Y21.2272
X-9.8979 Y21.2261
X-9.8892 Y21.2256
X-9.8804 Y21.2257
X-9.8717 Y21.2264
X-9.8631 Y21.2277
X-9.8546 Y21.2296
X-9.8462 Y21.2321
X-9.838 Y21.2352
X-9.8301 Y21.2389
X-9.8225 Y21.2431
X-9.8151 Y21.2478
X-9.8081 Y21.253
X-9.8015 Y21.2588
X-9.8023 Y21.3907
G3 X-9.8105 Y21.4039 I-0.0156 J-0.0005
X-9.8242 Y21.4026 I-0.0058 J-0.0109
X-9.8227 Y21.2808 I0.0507 J-0.0603
X-9.8105 Y21.2728 I0.0492 J0.0615 F50.
G2 X-9.8023 Y21.2596 I-0.0074 J-0.0138
G1 Y21.2315 F60.
X-9.8053 Y21.2234
X-9.8089 Y21.2156
X-9.813 Y21.208
X-9.8176 Y21.2007
X-9.8227 Y21.1937
X-9.8282 Y21.1871
X-9.8343 Y21.1809
X-9.8407 Y21.1751
X-9.8475 Y21.1698
X-9.8546 Y21.165
X-9.8621 Y21.1606
X-9.8698 Y21.1568
X-9.8778 Y21.1535
X-9.886 Y21.1508
X-9.8944 Y21.1486
X-9.9029 Y21.1471
X-9.9114 Y21.1461
X-9.9201 Y21.1457
X-9.9287 Y21.1459
X-9.9373 Y21.1467
X-9.9458 Y21.148
X-9.9542 Y21.15
X-9.9625 Y21.1525
X-9.9705 Y21.1556
X-9.9784 Y21.1592
X-9.9859 Y21.1634
X-9.9932 Y21.1681
X-10.0001 Y21.1732
X-10.0067 Y21.1788
X-10.0058 Y21.3152
G2 X-9.9787 Y21.3253 I0.0156 J-0.0005
X-9.9652 Y21.2986 I-0.0391 J-0.0365
X-9.9882 Y21.2044 I-0.1161 J-0.0215
X-10.0008 Y21.1907 I-0.0931 J0.0727 F50.
G3 X-10.0058 Y21.1798 I0.0107 J-0.0114
G1 Y21.1502 F60.
G3 X-9.8016 Y21.0987 I0.1191 J0.0416
G1 X-9.8023 Y21.2315
G3 X-9.8105 Y21.2448 I-0.0156 J-0.0005
X-9.8229 Y21.2436 I-0.0053 J-0.0099
G1 X-9.824 Y21.2427
G3 X-9.8227 Y21.1208 I0.0505 J-0.0604
X-9.8105 Y21.1128 I0.0492 J0.0615 F50.
G2 X-9.8023 Y21.0995 I-0.0074 J-0.0138
G1 Y21.0723 F60.
X-9.8052 Y21.0642
X-9.8087 Y21.0562
X-9.8127 Y21.0485
X-9.8172 Y21.0411
X-9.8223 Y21.0341
X-9.8278 Y21.0274
X-9.8338 Y21.0211
X-9.8401 Y21.0152
X-9.8469 Y21.0098
X-9.8541 Y21.0049
X-9.8615 Y21.0005
X-9.8693 Y20.9966
X-9.8773 Y20.9933
X-9.8855 Y20.9905
X-9.8939 Y20.9883
X-9.9024 Y20.9866
X-9.911 Y20.9856
X-9.9196 Y20.9852
X-9.9283 Y20.9853
X-9.9369 Y20.9861
X-9.9455 Y20.9875
X-9.954 Y20.9894
X-9.9622 Y20.9919
X-9.9703 Y20.995
X-9.9782 Y20.9987
X-9.9858 Y21.0029
X-9.9931 Y21.0076
X-10. Y21.0128
X-10.0066 Y21.0184
X-10.0058 Y21.1502
G2 X-9.9975 Y21.1634 I0.0156 J-0.0005
X-9.9838 Y21.1623 I0.0059 J-0.0112
X-9.9854 Y21.0406 I-0.0507 J-0.0602
X-9.9975 Y21.0326 I-0.0492 J0.0615 F50.
G3 X-10.0058 Y21.0193 I0.0074 J-0.0138
G1 Y20.9899 F60.
G3 X-9.8016 Y20.9384 I0.119 J0.0413
G1 X-9.8023 Y21.0723
G3 X-9.8294 Y21.0825 I-0.0156 J-0.0005
X-9.8438 Y21.0519 I0.0405 J-0.0378
X-9.8198 Y20.9637 I0.1171 J-0.0156
X-9.8072 Y20.95 I0.0931 J0.0727 F50.
G2 X-9.8023 Y20.9391 I-0.0107 J-0.0114
G1 Y20.9144 F60.
X-9.805 Y20.9061
X-9.8082 Y20.898
X-9.8121 Y20.8901
X-9.8165 Y20.8826
X-9.8214 Y20.8753
X-9.8268 Y20.8684
X-9.8327 Y20.862
X-9.839 Y20.8559
X-9.8458 Y20.8503
X-9.8529 Y20.8452
X-9.8603 Y20.8406
X-9.8681 Y20.8366
X-9.8761 Y20.8331
X-9.8844 Y20.8302
X-9.8928 Y20.8279
X-9.9014 Y20.8261
X-9.9101 Y20.825
X-9.9188 Y20.8245
X-9.9276 Y20.8247
X-9.9363 Y20.8254
X-9.9449 Y20.8267
X-9.9535 Y20.8287
X-9.9618 Y20.8312
X-9.97 Y20.8344
X-9.9779 Y20.8381
X-9.9856 Y20.8423
X-9.9929 Y20.8471
X-9.9999 Y20.8524
X-10.0065 Y20.8582
X-10.0058 Y20.9899
G2 X-9.9975 Y21.0032 I0.0156 J-0.0005
X-9.9838 Y21.0019 I0.0058 J-0.011
X-9.9854 Y20.8802 I-0.0507 J-0.0602
X-9.9975 Y20.8722 I-0.0492 J0.0615 F50.
G3 X-10.0058 Y20.8589 I0.0074 J-0.0138
G1 Y20.8308 F60.
X-10.0028 Y20.8227
X-9.9992 Y20.8148
X-9.9951 Y20.8072
X-9.9905 Y20.7999
X-9.9854 Y20.7929
X-9.9799 Y20.7863
X-9.9739 Y20.7801
X-9.9674 Y20.7743
X-9.9607 Y20.7689
X-9.9535 Y20.7641
X-9.946 Y20.7597
X-9.9383 Y20.7559
X-9.9303 Y20.7526
X-9.9221 Y20.7498
X-9.9138 Y20.7477
X-9.9053 Y20.7461
X-9.8967 Y20.7451
X-9.8881 Y20.7447
X-9.8794 Y20.7448
X-9.8708 Y20.7456
X-9.8623 Y20.747
X-9.8539 Y20.7489
X-9.8456 Y20.7514
X-9.8375 Y20.7545
X-9.8297 Y20.7581
X-9.8221 Y20.7623
X-9.8149 Y20.7669
X-9.8079 Y20.7721
X-9.8014 Y20.7777
X-9.8023 Y20.9144
G3 X-9.8294 Y20.9246 I-0.0156 J-0.0005
X-9.8426 Y20.8986 I0.0388 J-0.0361
X-9.8198 Y20.8033 I0.1159 J-0.0226
X-9.8072 Y20.7896 I0.0931 J0.0727 F50.
G2 X-9.8023 Y20.7787 I-0.0107 J-0.0114
G1 Y20.7494 F60.
G2 X-9.8409 Y20.6925 I-0.0686 J0.005
G1 X-9.9583 Y20.6932
G2 X-10.0058 Y20.7119 I-0.0137 J0.0347
G1 Y20.8308
G2 X-9.975 Y20.8341 I0.0156 J-0.0005
G1 X-9.9445 Y20.7156
X-9.9437 Y20.7128 F50.
G2 X-9.9583 Y20.6932 I-0.0152 J-0.0039
X-10.0037 Y20.6987 I-0.0202 J0.0234 F60.
G1 X-10.0057 Y20.7087
X-10.0058 Y20.7093
Y20.7119
G2 X-9.9935 Y20.7267 I0.0156 J-0.0005
G1 X-9.9834 Y20.7289
X-9.8247 Y20.7634
X-9.8212 Y20.7642 F50.
G2 X-9.8023 Y20.7494 I0.0033 J-0.0153
X-9.8075 Y20.6954 I-0.0282 J-0.0246 F60.
G1 X-9.8182 Y20.6933
X-9.8413 Y20.6932
G2 X-9.8438 Y20.6936 I0.0005 J0.0156
G1 X-9.846 Y20.6945 Z-0.1448
X-9.8481 Y20.6955 Z-0.1443
X-9.8501 Y20.6964 Z-0.1434
X-9.8515 Y20.698 Z-0.1421
X-9.8527 Y20.6995 Z-0.1405
X-9.8538 Y20.7007 Z-0.1386
X-9.8546 Y20.7017 Z-0.1364
X-9.855 Y20.7025 Z-0.1342
X-9.8552 Y20.7031 Z-0.1318
X-9.8553 Y20.7032 Z-0.1294
G0 Z0.4
X-9.3406 Y20.3133
Z0.1
G3 X-9.4874 Y20.2898 Z0.0588 I-0.0734 J-0.0117 F50.
X-9.3406 Y20.3133 Z0.0176 I0.0734 J0.0117
X-9.4874 Y20.2898 Z-0.0235 I-0.0734 J-0.0117
X-9.3406 Y20.3133 Z-0.0647 I0.0734 J0.0117
X-9.4874 Y20.2898 Z-0.1059 I-0.0734 J-0.0117
X-9.3397 Y20.3015 Z-0.145 I0.0734 J0.0117
X-9.4884 I-0.0743 J0.
X-9.3399 Y20.2953 I0.0743 J0.
G1 X-9.3397 Y20.3015
G3 Y20.4067 I-0.054 J0.0526 F60.
G1 X-9.4722
G3 X-9.5158 Y20.3865 I-0.0109 J-0.0334
X-9.4978 Y20.3716 I0.0156 J0.0005
G1 X-9.4933 Y20.3722
X-9.4705 Y20.3756
G3 X-9.4586 Y20.3844 I-0.0023 J0.0155
X-9.4722 Y20.4067 I-0.0142 J0.0067 F50.
X-9.5158 Y20.3907 I-0.0188 J-0.0159 F60.
G1 Y20.2414
G3 X-9.3116 Y20.1858 I0.1155 J0.0215
G1 X-9.3123 Y20.3907
X-9.3127 Y20.3929
X-9.3144 Y20.4018
X-9.3147 Y20.4022
G3 X-9.3397 Y20.4067 I-0.0158 J-0.016
X-9.3545 Y20.388 I0.0005 J-0.0156
G1 X-9.3537 Y20.3843
X-9.3191 Y20.2111
G2 X-9.3498 Y20.205 I-0.0153 J-0.0031
X-9.321 Y20.216 I0.0153 J0.0031
X-9.3123 Y20.1864 I-0.0536 J-0.0318 F50.
G1 Y20.153 F60.
X-9.315 Y20.1447
X-9.3183 Y20.1366
X-9.3222 Y20.1287
X-9.3266 Y20.1212
X-9.3316 Y20.114
X-9.337 Y20.1071
X-9.343 Y20.1007
X-9.3493 Y20.0947
X-9.3561 Y20.0892
X-9.3633 Y20.0841
X-9.3707 Y20.0796
X-9.3785 Y20.0756
X-9.3866 Y20.0722
X-9.3949 Y20.0694
X-9.4033 Y20.0672
X-9.4119 Y20.0655
X-9.4206 Y20.0645
X-9.4293 Y20.0641
X-9.4381 Y20.0643
X-9.4468 Y20.0652
X-9.4554 Y20.0666
X-9.4639 Y20.0687
X-9.4722 Y20.0714
X-9.4804 Y20.0746
X-9.4882 Y20.0784
X-9.4958 Y20.0828
X-9.5031 Y20.0877
X-9.5099 Y20.0931
X-9.5164 Y20.0989
X-9.5158 Y20.2414
G2 X-9.4996 Y20.2565 I0.0156 J-0.0005
X-9.484 Y20.2461 I-0.0006 J-0.0178
X-9.4982 Y20.1242 I-0.1073 J-0.0493
X-9.5108 Y20.1105 I-0.0931 J0.0727 F50.
G3 X-9.5158 Y20.0996 I0.0107 J-0.0114
G1 Y20.0706 F60.
X-9.5128 Y20.0624
X-9.5093 Y20.0545
X-9.5053 Y20.0469
X-9.5007 Y20.0395
X-9.4957 Y20.0325
X-9.4901 Y20.0258
X-9.4841 Y20.0195
X-9.4777 Y20.0137
X-9.471 Y20.0083
X-9.4638 Y20.0034
X-9.4564 Y19.999
X-9.4486 Y19.9951
X-9.4406 Y19.9918
X-9.4324 Y19.989
X-9.424 Y19.9868
X-9.4155 Y19.9852
X-9.4069 Y19.9842
X-9.3983 Y19.9838
X-9.3896 Y19.9839
X-9.381 Y19.9847
X-9.3724 Y19.9861
X-9.364 Y19.988
X-9.3557 Y19.9906
X-9.3476 Y19.9937
X-9.3398 Y19.9973
X-9.3322 Y20.0015
X-9.3249 Y20.0062
X-9.318 Y20.0114
X-9.3114 Y20.017
X-9.3123 Y20.153
G3 X-9.3285 Y20.1681 I-0.0156 J-0.0005
X-9.3486 Y20.1531 I0.0008 J-0.022
X-9.3298 Y20.0426 I0.1119 J-0.0379
X-9.3172 Y20.0289 I0.0931 J0.0727 F50.
G2 X-9.3123 Y20.018 I-0.0107 J-0.0114
G1 Y19.988 F60.
G2 X-9.5165 Y19.937 I-0.1189 J0.0419
G1 X-9.5158 Y20.0706
G2 X-9.4887 Y20.0807 I0.0156 J-0.0005
X-9.4741 Y20.0496 I-0.0407 J-0.038
X-9.4982 Y19.9624 I-0.1172 J-0.0145
X-9.5108 Y19.9487 I-0.0931 J0.0727 F50.
G3 X-9.5158 Y19.9378 I0.0107 J-0.0114
G1 Y19.9114 F60.
X-9.5129 Y19.9032
X-9.5095 Y19.8952
X-9.5056 Y19.8874
X-9.5011 Y19.88
X-9.4961 Y19.8728
X-9.4906 Y19.8661
X-9.4847 Y19.8597
X-9.4783 Y19.8538
X-9.4716 Y19.8483
X-9.4644 Y19.8433
X-9.457 Y19.8388
X-9.4492 Y19.8348
X-9.4412 Y19.8314
X-9.433 Y19.8286
X-9.4246 Y19.8263
X-9.4161 Y19.8247
X-9.4074 Y19.8236
X-9.3987 Y19.8232
X-9.39 Y19.8233
X-9.3814 Y19.8241
X-9.3728 Y19.8254
X-9.3643 Y19.8274
X-9.356 Y19.8299
X-9.3478 Y19.833
X-9.3399 Y19.8367
X-9.3323 Y19.8409
X-9.325 Y19.8456
X-9.3181 Y19.8508
X-9.3115 Y19.8565
X-9.3123 Y19.988
G3 X-9.3205 Y20.0012 I-0.0156 J-0.0005
X-9.3343 Y20.0002 I-0.0061 J-0.0114
G1 X-9.3351 Y19.9996
G3 X-9.3327 Y19.8786 I0.0516 J-0.0595
X-9.3205 Y19.8706 I0.0492 J0.0615 F50.
G2 X-9.3123 Y19.8574 I-0.0074 J-0.0138
G1 Y19.8301 F60.
X-9.3152 Y19.8219
X-9.3187 Y19.814
X-9.3227 Y19.8063
X-9.3273 Y19.7989
X-9.3323 Y19.7919
X-9.3378 Y19.7852
X-9.3438 Y19.7789
X-9.3502 Y19.7731
X-9.357 Y19.7677
X-9.3641 Y19.7628
X-9.3716 Y19.7583
X-9.3793 Y19.7545
X-9.3873 Y19.7511
X-9.3955 Y19.7484
X-9.4039 Y19.7462
X-9.4124 Y19.7445
X-9.421 Y19.7435
X-9.4297 Y19.7431
X-9.4384 Y19.7433
X-9.447 Y19.744
X-9.4556 Y19.7454
X-9.464 Y19.7474
X-9.4723 Y19.7499
X-9.4804 Y19.753
X-9.4882 Y19.7567
X-9.4958 Y19.7608
X-9.5031 Y19.7656
X-9.51 Y19.7707
X-9.5166 Y19.7764
X-9.5158 Y19.9114
G2 X-9.4996 Y19.9265 I0.0156 J-0.0005
X-9.479 Y19.911 I-0.0008 J-0.0225
X-9.4982 Y19.8019 I-0.1124 J-0.0364
X-9.5108 Y19.7882 I-0.0931 J0.0727 F50.
G3 X-9.5158 Y19.7773 I0.0107 J-0.0114
G1 Y19.7522 F60.
X-9.513 Y19.7439
X-9.5097 Y19.7358
X-9.5059 Y19.728
X-9.5015 Y19.7204
X-9.4965 Y19.7132
X-9.4911 Y19.7064
X-9.4852 Y19.6999
X-9.4789 Y19.6939
X-9.4721 Y19.6883
X-9.465 Y19.6832
X-9.4575 Y19.6787
X-9.4498 Y19.6747
X-9.4418 Y19.6712
X-9.4335 Y19.6683
X-9.4251 Y19.666
X-9.4165 Y19.6643
X-9.4078 Y19.6632
X-9.3991 Y19.6627
X-9.3904 Y19.6628
X-9.3816 Y19.6636
X-9.373 Y19.6649
X-9.3645 Y19.6669
X-9.3561 Y19.6695
X-9.348 Y19.6726
X-9.3401 Y19.6763
X-9.3324 Y19.6806
X-9.3251 Y19.6854
X-9.3181 Y19.6906
X-9.3116 Y19.6964
X-9.3123 Y19.8301
G3 X-9.3285 Y19.8452 I-0.0156 J-0.0005
X-9.3496 Y19.8289 I0.0008 J-0.023
X-9.3298 Y19.7218 I0.113 J-0.0345
X-9.3172 Y19.708 I0.0931 J0.0727 F50.
G2 X-9.3123 Y19.6971 I-0.0107 J-0.0114
G1 Y19.6698 F60.
X-9.3152 Y19.6617
X-9.3187 Y19.6537
X-9.3227 Y19.6461
X-9.3272 Y19.6387
X-9.3323 Y19.6316
X-9.3378 Y19.6249
X-9.3438 Y19.6186
X-9.3502 Y19.6128
X-9.3569 Y19.6074
X-9.3641 Y19.6025
X-9.3715 Y19.598
X-9.3793 Y19.5942
X-9.3873 Y19.5908
X-9.3955 Y19.588
X-9.4039 Y19.5858
X-9.4124 Y19.5842
X-9.421 Y19.5832
X-9.4297 Y19.5828
X-9.4383 Y19.5829
X-9.447 Y19.5837
X-9.4555 Y19.5851
X-9.464 Y19.587
X-9.4723 Y19.5896
X-9.4804 Y19.5927
X-9.4882 Y19.5963
X-9.4958 Y19.6005
X-9.5031 Y19.6053
X-9.51 Y19.6105
X-9.5166 Y19.6161
X-9.5158 Y19.7522
G2 X-9.4887 Y19.7624 I0.0156 J-0.0005
X-9.4751 Y19.7353 I-0.0392 J-0.0366
X-9.4982 Y19.6416 I-0.1162 J-0.0211
X-9.5108 Y19.6279 I-0.0931 J0.0727 F50.
G3 X-9.5158 Y19.617 I0.0107 J-0.0114
G1 Y19.5872 F60.
G3 X-9.3116 Y19.536 I0.119 J0.0417
G1 X-9.3123 Y19.6698
G3 X-9.3394 Y19.68 I-0.0156 J-0.0005
X-9.3538 Y19.6493 I0.0406 J-0.0379
X-9.3298 Y19.5614 I0.1171 J-0.0153
X-9.3172 Y19.5476 I0.0931 J0.0727 F50.
G2 X-9.3123 Y19.5367 I-0.0107 J-0.0114
G1 Y19.5107 F60.
X-9.3151 Y19.5024
X-9.3185 Y19.4944
X-9.3224 Y19.4866
X-9.3269 Y19.4792
X-9.3319 Y19.472
X-9.3373 Y19.4652
X-9.3433 Y19.4589
X-9.3496 Y19.4529
X-9.3564 Y19.4474
X-9.3635 Y19.4424
X-9.371 Y19.4379
X-9.3787 Y19.434
X-9.3867 Y19.4305
X-9.395 Y19.4277
X-9.4034 Y19.4254
X-9.4119 Y19.4238
X-9.4206 Y19.4227
X-9.4293 Y19.4222
X-9.438 Y19.4224
X-9.4466 Y19.4231
X-9.4552 Y19.4245
X-9.4637 Y19.4264
X-9.472 Y19.429
X-9.4802 Y19.4321
X-9.4881 Y19.4358
X-9.4957 Y19.44
X-9.503 Y19.4447
X-9.51 Y19.4499
X-9.5165 Y19.4557
X-9.5158 Y19.5872
G2 X-9.5075 Y19.6005 I0.0156 J-0.0005
X-9.4938 Y19.5994 I0.006 J-0.0113
X-9.4954 Y19.4777 I-0.0508 J-0.0602
X-9.5075 Y19.4697 I-0.0492 J0.0615 F50.
G3 X-9.5158 Y19.4565 I0.0074 J-0.0138
G1 Y19.4293 F60.
X-9.5128 Y19.4212
X-9.5094 Y19.4132
X-9.5054 Y19.4055
X-9.5008 Y19.3981
X-9.4958 Y19.3911
X-9.4903 Y19.3844
X-9.4843 Y19.3781
X-9.4779 Y19.3722
X-9.4711 Y19.3668
X-9.464 Y19.3619
X-9.4565 Y19.3575
X-9.4488 Y19.3536
X-9.4408 Y19.3502
X-9.4326 Y19.3475
X-9.4242 Y19.3453
X-9.4156 Y19.3436
X-9.407 Y19.3426
X-9.3984 Y19.3422
X-9.3897 Y19.3424
X-9.3811 Y19.3431
X-9.3725 Y19.3445
X-9.3641 Y19.3465
X-9.3558 Y19.349
X-9.3477 Y19.3521
X-9.3398 Y19.3558
X-9.3322 Y19.36
X-9.3249 Y19.3647
X-9.318 Y19.3699
X-9.3115 Y19.3756
X-9.3123 Y19.5107
G3 X-9.3285 Y19.5258 I-0.0156 J-0.0005
X-9.349 Y19.5103 I0.0008 J-0.0224
X-9.3298 Y19.4011 I0.1123 J-0.0366
X-9.3172 Y19.3873 I0.0931 J0.0727 F50.
G2 X-9.3123 Y19.3764 I-0.0107 J-0.0114
G1 Y19.3515 F60.
X-9.315 Y19.3432
X-9.3183 Y19.3351
X-9.3221 Y19.3272
X-9.3265 Y19.3197
X-9.3315 Y19.3124
X-9.3369 Y19.3056
X-9.3428 Y19.2991
X-9.3491 Y19.293
X-9.3558 Y19.2875
X-9.363 Y19.2824
X-9.3704 Y19.2778
X-9.3782 Y19.2738
X-9.3862 Y19.2703
X-9.3945 Y19.2674
X-9.4029 Y19.2651
X-9.4115 Y19.2634
X-9.4202 Y19.2623
X-9.4289 Y19.2618
X-9.4376 Y19.2619
X-9.4464 Y19.2627
X-9.455 Y19.264
X-9.4635 Y19.266
X-9.4719 Y19.2686
X-9.48 Y19.2717
X-9.488 Y19.2754
X-9.4956 Y19.2797
X-9.5029 Y19.2845
X-9.5099 Y19.2898
X-9.5165 Y19.2955
X-9.5158 Y19.4293
G2 X-9.4996 Y19.4444 I0.0156 J-0.0005
X-9.4785 Y19.4282 I-0.0008 J-0.0229
X-9.4982 Y19.3209 I-0.1129 J-0.0347
X-9.5108 Y19.3072 I-0.0931 J0.0727 F50.
G3 X-9.5158 Y19.2963 I0.0107 J-0.0114
G1 Y19.2691 F60.
X-9.5129 Y19.2609
X-9.5094 Y19.253
X-9.5054 Y19.2453
X-9.5008 Y19.2379
X-9.4958 Y19.2308
X-9.4903 Y19.2241
X-9.4843 Y19.2178
X-9.4779 Y19.212
X-9.4712 Y19.2065
X-9.464 Y19.2016
X-9.4566 Y19.1972
X-9.4488 Y19.1933
X-9.4408 Y19.1899
X-9.4326 Y19.1872
X-9.4242 Y19.1849
X-9.4157 Y19.1833
X-9.4071 Y19.1823
X-9.3984 Y19.1819
X-9.3897 Y19.182
X-9.3811 Y19.1828
X-9.3725 Y19.1842
X-9.3641 Y19.1862
X-9.3558 Y19.1887
X-9.3477 Y19.1918
X-9.3398 Y19.1955
X-9.3322 Y19.1997
X-9.325 Y19.2044
X-9.318 Y19.2096
X-9.3115 Y19.2153
X-9.3123 Y19.3515
G3 X-9.3394 Y19.3616 I-0.0156 J-0.0005
X-9.3528 Y19.3348 I0.0391 J-0.0365
X-9.3298 Y19.2408 I0.1162 J-0.0214
X-9.3172 Y19.227 I0.0931 J0.0727 F50.
G2 X-9.3123 Y19.2161 I-0.0107 J-0.0114
G1 Y19.1865 F60.
G2 X-9.3371 Y19.1423 I-0.0515 J-0.0002
G1 X-9.4781 Y19.1433
G2 X-9.5152 Y19.1562 I-0.0109 J0.0283
G1 X-9.5157 Y19.159
X-9.5158 Y19.1597
Y19.2691
G2 X-9.4848 Y19.2716 I0.0156 J-0.0005
G1 X-9.464 Y19.1657
X-9.4632 Y19.1619 F50.
G2 X-9.4781 Y19.1433 I-0.0154 J-0.003
X-9.5152 Y19.1562 I-0.0156 J0.0148 F60.
X-9.5022 Y19.1742 I0.0154 J0.0025
G1 X-9.496 Y19.1752
X-9.3347 Y19.2007
X-9.3304 Y19.2014 F50.
G2 X-9.3123 Y19.1865 I0.0024 J-0.0155
X-9.3377 Y19.1433 I-0.0177 J-0.0187 F60.
X-9.3402 Y19.1436 I0.0005 J0.0156
G1 X-9.3424 Y19.1445 Z-0.1448
X-9.3445 Y19.1455 Z-0.1443
X-9.3465 Y19.1464 Z-0.1434
X-9.3479 Y19.148 Z-0.1421
X-9.3491 Y19.1495 Z-0.1405
X-9.3502 Y19.1507 Z-0.1386
X-9.351 Y19.1517 Z-0.1364
X-9.3514 Y19.1525 Z-0.1342
X-9.3516 Y19.1531 Z-0.1318
X-9.3517 Y19.1532 Z-0.1294
G0 Z0.4
X-9.3406 Y21.7984
Z0.1
G3 X-9.435 Y21.858 Z0.0777 I-0.0734 J-0.0117 F50.
X-9.393 Y21.7153 Z0.0365 I0.021 J-0.0713
X-9.3558 Y21.8329 Z0.0109 I-0.021 J0.0713
X-9.4674 Y21.8384 Z-0.0114 I-0.0582 J-0.0463
X-9.4585 Y21.7271 Z-0.0336 I0.0533 J-0.0518
X-9.3695 Y21.8462 Z-0.0748 I0.0445 J0.0595
X-9.4585 Y21.7271 Z-0.116 I-0.0445 J-0.0595
X-9.3397 Y21.7866 Z-0.145 I0.0445 J0.0595
X-9.4884 I-0.0743 J0.
X-9.3399 Y21.7804 I0.0743 J0.
G1 X-9.3397 Y21.7866
G3 X-9.3504 Y21.9068 I-0.0597 J0.0552 F60.
G1 X-9.4651
G3 X-9.5158 Y21.8829 I-0.0114 J-0.0415
X-9.4967 Y21.8681 I0.0156 J0.0005
G1 X-9.4934 Y21.8689
X-9.4623 Y21.8758
G3 X-9.4515 Y21.8844 I-0.0034 J0.0153
X-9.4651 Y21.9068 I-0.0142 J0.0067 F50.
X-9.5136 Y21.9016 I-0.0222 J-0.0219 F60.
G1 X-9.5157 Y21.8909
X-9.5158 Y21.8895
Y21.7265
G3 X-9.3116 Y21.6709 I0.1155 J0.0215
G1 X-9.3123 Y21.8905
G3 X-9.3504 Y21.9068 I-0.022 J0.0012
X-9.3614 Y21.9016 I0.0005 J-0.0156
G1 X-9.3738 Y21.888
X-9.4983 Y21.7513
X-9.5117 Y21.7365 F50.
G3 X-9.5158 Y21.7265 I0.0116 J-0.0105
G1 Y21.6452 F60.
G3 X-9.3109 Y21.5687 I0.1293 J0.0337
G1 X-9.3123 Y21.6715
G3 X-9.3205 Y21.6847 I-0.0156 J-0.0005
X-9.3616 Y21.6635 I-0.0132 J-0.0248
X-9.3327 Y21.592 I0.0781 J-0.01
X-9.3205 Y21.584 I0.0492 J0.0615 F50.
G2 X-9.3123 Y21.5708 I-0.0074 J-0.0138
G1 Y21.547 F60.
X-9.3156 Y21.5391
X-9.3194 Y21.5315
X-9.3238 Y21.5241
X-9.3286 Y21.5171
X-9.3339 Y21.5104
X-9.3397 Y21.5041
X-9.3459 Y21.4982
X-9.3525 Y21.4927
X-9.3595 Y21.4878
X-9.3667 Y21.4833
X-9.3743 Y21.4793
X-9.3821 Y21.4758
X-9.3902 Y21.4729
X-9.3984 Y21.4706
X-9.4068 Y21.4688
X-9.4152 Y21.4677
X-9.4238 Y21.4671
X-9.4323
X-9.4408 Y21.4676
X-9.4493 Y21.4688
X-9.4577 Y21.4706
X-9.4659 Y21.4729
X-9.4739 Y21.4758
X-9.4818 Y21.4792
X-9.4893 Y21.4832
X-9.4966 Y21.4877
X-9.5036 Y21.4926
X-9.5102 Y21.4981
X-9.5164 Y21.504
X-9.5158 Y21.6452
G2 X-9.5075 Y21.6585 I0.0156 J-0.0005
X-9.4449 Y21.6203 I0.02 J-0.0375
X-9.4951 Y21.5254 I-0.1181 J0.0017
X-9.5075 Y21.5178 I-0.0679 J0.0966 F50.
G3 X-9.5158 Y21.5046 I0.0074 J-0.0138
G1 Y21.4731 F60.
G3 X-9.3114 Y21.4178 I0.1207 J0.0406
G1 X-9.3123 Y21.547
G3 X-9.3205 Y21.5603 I-0.0156 J-0.0005
X-9.3388 Y21.5576 I-0.0073 J-0.0137
X-9.3327 Y21.44 I0.0553 J-0.0561
X-9.3205 Y21.432 I0.0492 J0.0615 F50.
G2 X-9.3123 Y21.4188 I-0.0074 J-0.0138
G1 Y21.3907 F60.
X-9.3154 Y21.3826
X-9.319 Y21.3748
X-9.3232 Y21.3673
X-9.3278 Y21.3601
X-9.333 Y21.3532
X-9.3386 Y21.3466
X-9.3447 Y21.3405
X-9.3511 Y21.3348
X-9.3579 Y21.3296
X-9.3651 Y21.3248
X-9.3726 Y21.3206
X-9.3803 Y21.3168
X-9.3883 Y21.3136
X-9.3965 Y21.311
X-9.4049 Y21.3089
X-9.4133 Y21.3074
X-9.4219 Y21.3065
X-9.4305 Y21.3061
X-9.4391 Y21.3064
X-9.4477 Y21.3072
X-9.4562 Y21.3087
X-9.4645 Y21.3107
X-9.4727 Y21.3132
X-9.4808 Y21.3164
X-9.4886 Y21.32
X-9.4961 Y21.3242
X-9.5033 Y21.3289
X-9.5101 Y21.3341
X-9.5166 Y21.3398
X-9.5158 Y21.4731
G2 X-9.5075 Y21.4863 I0.0156 J-0.0005
X-9.4958 Y21.4853 I0.0051 J-0.0095
G1 X-9.4941 Y21.484
G2 X-9.4954 Y21.362 I-0.0504 J-0.0605
X-9.5075 Y21.354 I-0.0492 J0.0615 F50.
G3 X-9.5158 Y21.3407 I0.0074 J-0.0138
G1 Y21.3152 F60.
X-9.513 Y21.3069
X-9.5097 Y21.2988
X-9.5058 Y21.291
X-9.5014 Y21.2834
X-9.4965 Y21.2762
X-9.4911 Y21.2694
X-9.4852 Y21.2629
X-9.4788 Y21.2569
X-9.4721 Y21.2513
X-9.465 Y21.2463
X-9.4575 Y21.2417
X-9.4498 Y21.2377
X-9.4418 Y21.2342
X-9.4335 Y21.2313
X-9.4251 Y21.2289
X-9.4166 Y21.2272
X-9.4079 Y21.2261
X-9.3992 Y21.2256
X-9.3904 Y21.2257
X-9.3817 Y21.2264
X-9.3731 Y21.2277
X-9.3646 Y21.2296
X-9.3562 Y21.2321
X-9.348 Y21.2352
X-9.3401 Y21.2389
X-9.3325 Y21.2431
X-9.3251 Y21.2478
X-9.3181 Y21.253
X-9.3115 Y21.2588
X-9.3123 Y21.3907
G3 X-9.3205 Y21.4039 I-0.0156 J-0.0005
X-9.3342 Y21.4026 I-0.0058 J-0.0109
X-9.3327 Y21.2808 I0.0507 J-0.0603
X-9.3205 Y21.2728 I0.0492 J0.0615 F50.
G2 X-9.3123 Y21.2596 I-0.0074 J-0.0138
G1 Y21.2315 F60.
X-9.3153 Y21.2234
X-9.3189 Y21.2156
X-9.323 Y21.208
X-9.3276 Y21.2007
X-9.3327 Y21.1937
X-9.3382 Y21.1871
X-9.3443 Y21.1809
X-9.3507 Y21.1751
X-9.3575 Y21.1698
X-9.3646 Y21.165
X-9.3721 Y21.1606
X-9.3798 Y21.1568
X-9.3878 Y21.1535
X-9.396 Y21.1508
X-9.4044 Y21.1486
X-9.4129 Y21.1471
X-9.4214 Y21.1461
X-9.4301 Y21.1457
X-9.4387 Y21.1459
X-9.4473 Y21.1467
X-9.4558 Y21.148
X-9.4642 Y21.15
X-9.4725 Y21.1525
X-9.4805 Y21.1556
X-9.4884 Y21.1592
X-9.4959 Y21.1634
X-9.5032 Y21.1681
X-9.5101 Y21.1732
X-9.5167 Y21.1788
X-9.5158 Y21.3152
G2 X-9.4996 Y21.3303 I0.0156 J-0.0005
X-9.4797 Y21.3156 I-0.0008 J-0.0218
X-9.4982 Y21.2044 I-0.1117 J-0.0385
X-9.5108 Y21.1907 I-0.0931 J0.0727 F50.
G3 X-9.5158 Y21.1798 I0.0107 J-0.0114
G1 Y21.1502 F60.
G3 X-9.3116 Y21.0987 I0.1191 J0.0416
G1 X-9.3123 Y21.2315
G3 X-9.3205 Y21.2448 I-0.0156 J-0.0005
X-9.3329 Y21.2436 I-0.0053 J-0.0099
G1 X-9.334 Y21.2427
G3 X-9.3327 Y21.1208 I0.0505 J-0.0604
X-9.3205 Y21.1128 I0.0492 J0.0615 F50.
G2 X-9.3123 Y21.0995 I-0.0074 J-0.0138
G1 Y21.0723 F60.
X-9.3152 Y21.0642
X-9.3187 Y21.0562
X-9.3227 Y21.0485
X-9.3272 Y21.0411
X-9.3323 Y21.0341
X-9.3378 Y21.0274
X-9.3438 Y21.0211
X-9.3501 Y21.0152
X-9.3569 Y21.0098
X-9.3641 Y21.0049
X-9.3715 Y21.0005
X-9.3793 Y20.9966
X-9.3873 Y20.9933
X-9.3955 Y20.9905
X-9.4039 Y20.9883
X-9.4124 Y20.9866
X-9.421 Y20.9856
X-9.4296 Y20.9852
X-9.4383 Y20.9853
X-9.4469 Y20.9861
X-9.4555 Y20.9875
X-9.464 Y20.9894
X-9.4722 Y20.9919
X-9.4803 Y20.995
X-9.4882 Y20.9987
X-9.4958 Y21.0029
X-9.5031 Y21.0076
X-9.51 Y21.0128
X-9.5166 Y21.0184
X-9.5158 Y21.1502
G2 X-9.5075 Y21.1634 I0.0156 J-0.0005
X-9.4938 Y21.1623 I0.0059 J-0.0112
X-9.4954 Y21.0406 I-0.0507 J-0.0602
X-9.5075 Y21.0326 I-0.0492 J0.0615 F50.
G3 X-9.5158 Y21.0193 I0.0074 J-0.0138
G1 Y20.9899 F60.
G3 X-9.3116 Y20.9384 I0.119 J0.0413
G1 X-9.3123 Y21.0723
G3 X-9.3394 Y21.0825 I-0.0156 J-0.0005
X-9.3538 Y21.0519 I0.0405 J-0.0378
X-9.3298 Y20.9637 I0.1171 J-0.0156
X-9.3172 Y20.95 I0.0931 J0.0727 F50.
G2 X-9.3123 Y20.9391 I-0.0107 J-0.0114
G1 Y20.9144 F60.
X-9.315 Y20.9061
X-9.3182 Y20.898
X-9.3221 Y20.8901
X-9.3265 Y20.8826
X-9.3314 Y20.8753
X-9.3368 Y20.8684
X-9.3427 Y20.862
X-9.349 Y20.8559
X-9.3558 Y20.8503
X-9.3629 Y20.8452
X-9.3703 Y20.8406
X-9.3781 Y20.8366
X-9.3861 Y20.8331
X-9.3944 Y20.8302
X-9.4028 Y20.8279
X-9.4114 Y20.8261
X-9.4201 Y20.825
X-9.4288 Y20.8245
X-9.4376 Y20.8247
X-9.4463 Y20.8254
X-9.4549 Y20.8267
X-9.4635 Y20.8287
X-9.4718 Y20.8312
X-9.48 Y20.8344
X-9.4879 Y20.8381
X-9.4956 Y20.8423
X-9.5029 Y20.8471
X-9.5099 Y20.8524
X-9.5165 Y20.8582
X-9.5158 Y20.9899
G2 X-9.5075 Y21.0032 I0.0156 J-0.0005
X-9.4938 Y21.0019 I0.0058 J-0.011
X-9.4954 Y20.8802 I-0.0507 J-0.0602
X-9.5075 Y20.8722 I-0.0492 J0.0615 F50.
G3 X-9.5158 Y20.8589 I0.0074 J-0.0138
G1 Y20.8308 F60.
X-9.5128 Y20.8227
X-9.5092 Y20.8148
X-9.5051 Y20.8072
X-9.5005 Y20.7999
X-9.4954 Y20.7929
X-9.4899 Y20.7863
X-9.4839 Y20.7801
X-9.4774 Y20.7743
X-9.4707 Y20.7689
X-9.4635 Y20.7641
X-9.456 Y20.7597
X-9.4483 Y20.7559
X-9.4403 Y20.7526
X-9.4321 Y20.7498
X-9.4238 Y20.7477
X-9.4153 Y20.7461
X-9.4067 Y20.7451
X-9.3981 Y20.7447
X-9.3894 Y20.7448
X-9.3808 Y20.7456
X-9.3723 Y20.747
X-9.3639 Y20.7489
X-9.3556 Y20.7514
X-9.3475 Y20.7545
X-9.3397 Y20.7581
X-9.3321 Y20.7623
X-9.3249 Y20.7669
X-9.3179 Y20.7721
X-9.3114 Y20.7777
X-9.3123 Y20.9144
G3 X-9.3285 Y20.9295 I-0.0156 J-0.0005
X-9.3481 Y20.9151 I0.0008 J-0.0216
X-9.3298 Y20.8033 I0.1115 J-0.0391
X-9.3172 Y20.7896 I0.0931 J0.0727 F50.
G2 X-9.3123 Y20.7787 I-0.0107 J-0.0114
G1 Y20.7494 F60.
G2 X-9.3509 Y20.6925 I-0.0686 J0.005
G1 X-9.4651 Y20.6932
G2 X-9.5158 Y20.7121 I-0.0155 J0.0358
G1 Y20.8308
G2 X-9.4851 Y20.8345 I0.0156 J-0.0005
G1 X-9.4513 Y20.7156
X-9.4506 Y20.7132 F50.
G2 X-9.4651 Y20.6932 I-0.0151 J-0.0043
X-9.5136 Y20.6985 I-0.0218 J0.0248 F60.
G1 X-9.5157 Y20.7089
X-9.5158 Y20.7097
Y20.7121
G2 X-9.5034 Y20.7268 I0.0156 J-0.0005
G1 X-9.4934 Y20.729
X-9.3347 Y20.7634
X-9.3312 Y20.7642 F50.
G2 X-9.3123 Y20.7494 I0.0033 J-0.0153
X-9.3172 Y20.6954 I-0.0307 J-0.0244 F60.
G1 X-9.3279 Y20.6933
X-9.3286 Y20.6932
X-9.3513
G2 X-9.3538 Y20.6936 I0.0005 J0.0156
G1 X-9.356 Y20.6945 Z-0.1448
X-9.3581 Y20.6955 Z-0.1443
X-9.3601 Y20.6964 Z-0.1434
X-9.3615 Y20.698 Z-0.1421
X-9.3627 Y20.6995 Z-0.1405
X-9.3638 Y20.7007 Z-0.1386
X-9.3646 Y20.7017 Z-0.1364
X-9.365 Y20.7025 Z-0.1342
X-9.3652 Y20.7031 Z-0.1318
X-9.3653 Y20.7032 Z-0.1294
G0 Z0.4
X-8.7021 Y18.7361
Z0.1
G3 X-8.8489 Y18.7127 Z0.0588 I-0.0734 J-0.0117 F50.
X-8.7021 Y18.7361 Z0.0176 I0.0734 J0.0117
X-8.8489 Y18.7127 Z-0.0235 I-0.0734 J-0.0117
X-8.7021 Y18.7361 Z-0.0647 I0.0734 J0.0117
X-8.8489 Y18.7127 Z-0.1059 I-0.0734 J-0.0117
X-8.7012 Y18.7244 Z-0.145 I0.0734 J0.0117
