%
(971-23-P-0129_PI SLIDE PLATE_1540)
(T1  D=0.154 CR=0. - ZMIN=-0.145 - FLAT END MILL)
G90 G94 G17 G91.1
G64 P0.001 Q0.001
G20
G53 G0 Z0.
(SHAPE THROUGH HOLE)
M9
T1 M6
S22000 M3
G4 P10.
G54
M7
G0 X-10.3533 Y16.6052
G43 Z0.6 H1
G0 Z0.1
G3 X-10.498 Y16.6264 Z0.0595 I-0.0724 J0.0106 F50.
X-10.3533 Y16.6052 Z0.019 I0.0724 J-0.0106
X-10.498 Y16.6264 Z-0.0216 I-0.0724 J0.0106
X-10.3533 Y16.6052 Z-0.0621 I0.0724 J-0.0106
X-10.498 Y16.6264 Z-0.1026 I-0.0724 J0.0106
X-10.431 Y16.5428 Z-0.1238 I0.0724 J-0.0106
X-10.3525 Y16.6158 Z-0.145 I0.0053 J0.073
X-10.4988 I-0.0732 J0.
X-10.3527 Y16.6099 I0.0732 J0.
G1 X-10.3525 Y16.6158
G3 X-10.4808 Y16.7564 I-0.078 J0.0577 F60.
X-10.5408 Y16.5795 I1.1533 J-0.4897
X-10.45 Y16.4742 I0.0961 J-0.009
X-10.3483 Y16.5691 I0.0052 J0.0963
G1 X-10.332 Y16.6043
X-10.3103 Y16.6626
X-10.2927 Y16.7094
G3 X-10.4627 Y16.8496 I-0.1313 J0.0139
G1 X-10.4636 Y16.803
X-10.4771 Y16.7666
X-10.4808 Y16.7564
G3 X-10.4778 Y16.7413 I0.0146 J-0.0049
X-10.4156 Y16.765 I0.0266 J0.0236
X-10.4421 Y16.8237 I-0.0787 J-0.0002
X-10.454 Y16.8325 I-0.0522 J-0.0589 F50.
G2 X-10.4615 Y16.8459 I0.0079 J0.0132
G1 X-10.4614 Y16.8498 F60.
X-10.4635 Y16.8555
G2 X-10.2715 Y16.8736 I0.1003 J-0.0369
X-10.2927 Y16.7094 I-0.2685 J-0.0488
X-10.3049 Y16.7 I-0.0142 J0.0059
X-10.3247 Y16.7145 I-0.0023 J0.0176
X-10.2844 Y16.8503 I0.155 J0.0279
X-10.2738 Y16.8606 I0.1147 J-0.1079 F50.
G3 X-10.2689 Y16.8752 I-0.0102 J0.0116
G1 X-10.274 Y16.8966 F60.
X-10.2852 Y16.9286
X-10.2882 Y16.9367
G3 X-10.5027 Y16.9568 I-0.1144 J-0.0658
G2 X-10.4635 Y16.8555 I-2.0212 J-0.8418
G3 X-10.4513 Y16.8461 I0.0142 J0.0058
X-10.4193 Y16.8782 I0.0038 J0.0282
X-10.4736 Y16.9425 I-0.078 J-0.0108
X-10.4881 Y16.9456 I-0.0237 J-0.0751 F50.
G2 X-10.5004 Y16.9548 I0.0018 J0.0153
G1 X-10.5076 Y16.9733 F60.
X-10.5075 Y16.9815
X-10.5068 Y16.9897
X-10.5055 Y16.9977
X-10.5036 Y17.0057
X-10.5012 Y17.0135
X-10.4982 Y17.0212
X-10.4947 Y17.0286
X-10.4906 Y17.0357
X-10.4861 Y17.0425
X-10.481 Y17.0489
X-10.4756 Y17.055
X-10.4697 Y17.0607
X-10.4634 Y17.066
X-10.4567 Y17.0707
X-10.4497 Y17.075
X-10.4425 Y17.0788
X-10.4349 Y17.0821
X-10.4272 Y17.0848
X-10.4193 Y17.0869
X-10.4113 Y17.0885
X-10.4031 Y17.0894
X-10.395 Y17.0898
X-10.3868 Y17.0897
X-10.3786 Y17.0889
X-10.3705 Y17.0875
X-10.3626 Y17.0856
X-10.3548 Y17.0831
X-10.3472 Y17.08
X-10.3398 Y17.0765
X-10.2882 Y16.9367
G2 X-10.2914 Y16.9217 I-0.0146 J-0.0047
X-10.3629 Y16.9325 I-0.0322 J0.029
X-10.3524 Y17.0498 I0.1072 J0.0495
X-10.3431 Y17.0614 I0.0967 J-0.0679 F50.
G3 X-10.3398 Y17.0764 I-0.0114 J0.0104
G1 X-10.3425 Y17.0838 F60.
X-10.352 Y17.1072
G3 X-10.5321 Y17.1175 I-0.0946 J-0.0756
X-10.5183 Y17.0987 I0.015 J-0.0035
G1 X-10.5138 Y17.0983
X-10.3678 Y17.0865
X-10.3677 F50.
G3 X-10.352 Y17.1072 I0.0012 J0.0154
X-10.5398 Y17.0523 I-0.0939 J-0.0275 F60.
X-10.5145 Y17.0099 I0.0939 J0.0275
G1 X-10.5142 Y16.9902
X-10.5076 Y16.9733
G3 X-10.482 Y16.9692 I0.0141 J0.0061
G1 X-10.48 Y16.9714 Z-0.1447
X-10.4781 Y16.9736 Z-0.1438
X-10.4763 Y16.9756 Z-0.1424
X-10.4747 Y16.9773 Z-0.1405
X-10.4735 Y16.9788 Z-0.1382
X-10.4725 Y16.9798 Z-0.1355
X-10.4719 Y16.9805 Z-0.1326
X-10.4717 Y16.9807 Z-0.1296
G0 Z0.4
X-9.6042 Y15.9968
Z0.1
G3 X-9.749 Y16.018 Z0.0595 I-0.0724 J0.0106 F50.
X-9.6042 Y15.9968 Z0.019 I0.0724 J-0.0106
X-9.749 Y16.018 Z-0.0216 I-0.0724 J0.0106
X-9.6042 Y15.9968 Z-0.0621 I0.0724 J-0.0106
X-9.749 Y16.018 Z-0.1026 I-0.0724 J0.0106
X-9.6819 Y15.9344 Z-0.1238 I0.0724 J-0.0106
X-9.6034 Y16.0074 Z-0.145 I0.0053 J0.073
X-9.7497 I-0.0731 J0.
X-9.6037 Y16.0015 I0.0731 J0.
G1 X-9.6034 Y16.0074
G3 X-9.5834 Y16.0704 I-0.0582 J0.0532 F60.
G1 X-9.6021 Y16.101
Y16.1022
X-9.6067 Y16.1092
X-9.6118 Y16.1158
X-9.6173 Y16.1221
X-9.6233 Y16.1279
X-9.6297 Y16.1333
X-9.6365 Y16.1383
X-9.6436 Y16.1427
X-9.651 Y16.1465
X-9.6587 Y16.1499
X-9.6666 Y16.1526
X-9.6746 Y16.1548
X-9.6828 Y16.1564
X-9.6912 Y16.1573
X-9.6995 Y16.1577
X-9.7079 Y16.1575
X-9.7162 Y16.1566
X-9.7244 Y16.1552
X-9.7325 Y16.1531
X-9.7405 Y16.1505
X-9.7482 Y16.1473
X-9.7557 Y16.1435
X-9.7628 Y16.1392
X-9.7697 Y16.1344
X-9.7761 Y16.1291
X-9.7822 Y16.1233
X-9.7878 Y16.1171
X-9.793 Y16.1106
X-9.7977 Y16.1036
X-9.7979 Y16.101
X-9.817 Y16.0696
X-9.8212 Y16.0612
X-9.8248 Y16.0524
X-9.8278 Y16.0435
X-9.8303 Y16.0343
X-9.8321 Y16.0251
X-9.8334 Y16.0157
X-9.834 Y16.0063
Y15.9968
X-9.8335 Y15.9874
X-9.8323 Y15.978
X-9.8304 Y15.9687
X-9.828 Y15.9596
X-9.8251 Y15.9506
X-9.8215 Y15.9419
X-9.8174 Y15.9334
X-9.8127 Y15.9251
X-9.8075 Y15.9172
X-9.8018 Y15.9097
X-9.7957 Y15.9025
X-9.7891 Y15.8958
X-9.782 Y15.8895
X-9.7746 Y15.8836
X-9.7668 Y15.8783
X-9.7587 Y15.8735
X-9.7234 Y15.8956
X-9.6766
X-9.668 Y15.8907
X-9.6593 Y15.8888
X-9.6506 Y15.8876
X-9.6417 Y15.8869
X-9.6329
X-9.624 Y15.8874
X-9.6152 Y15.8885
X-9.6066 Y15.8903
X-9.598 Y15.8926
X-9.5896 Y15.8954
X-9.5814 Y15.8989
X-9.5735 Y15.9028
X-9.5659 Y15.9073
X-9.5586 Y15.9123
X-9.5516 Y15.9178
X-9.545 Y15.9237
X-9.5389 Y15.9301
X-9.5332 Y15.9369
X-9.5279 Y15.944
X-9.5232 Y15.9515
X-9.5189 Y15.9593
X-9.5152 Y15.9673
X-9.512 Y15.9756
X-9.5094 Y15.984
X-9.5074 Y15.9927
X-9.506 Y16.0014
X-9.5052 Y16.0102
X-9.5049 Y16.0191
X-9.5361 Y16.0372
X-9.5589 Y16.0504
G3 X-9.5743 Y16.0499 I-0.0072 J-0.0136
X-9.5782 Y16.0375 I0.0052 J-0.0084
X-9.5361 Y16.0141 I0.0362 J0.0155
X-9.5222 Y16.019 I-0.0059 J0.0389 F50.
G2 X-9.5068 Y16.0191 I0.0077 J-0.0133
G1 X-9.4893 Y16.0083 F60.
G2 X-9.554 Y15.8185 I-0.0961 J-0.0731
G3 X-9.668 Y15.8907 I-0.579 J-0.7882
G2 X-9.6583 Y15.9193 I0.0076 J0.0134
G3 X-9.654 Y15.9498 I0.0021 J0.0153
X-9.6646 Y15.9474 I-0.0021 J-0.0153
X-9.7356 Y15.8987 I0.0403 J-0.1346
G2 X-9.757 Y15.8764 I-0.0541 J0.0308 F50.
G1 X-9.7702 Y15.8689 F60.
X-9.777 Y15.8647
G2 X-9.9174 Y16.0039 I-0.0264 J0.1138
G3 X-9.817 Y16.0696 I-0.6275 J1.0673
G2 X-9.7974 Y16.0459 I0.0098 J-0.0119
X-9.8196 Y16.0486 I-0.0098 J0.0119
X-9.8158 Y16.0706 I0.0124 J0.0092
G1 X-9.788 Y16.0891
G2 X-9.7709 Y16.0634 I0.0085 J-0.0128
X-9.7945 Y16.073 I-0.0085 J0.0128
X-9.7978 Y16.1037 I0.1402 J0.0307 F50.
G1 X-9.7963 Y16.1478 F60.
X-9.794 Y16.1561
X-9.7911 Y16.1643
X-9.7877 Y16.1723
X-9.7837 Y16.1799
X-9.7792 Y16.1873
X-9.7741 Y16.1944
X-9.7686 Y16.201
X-9.7627 Y16.2073
X-9.7563 Y16.2131
X-9.7495 Y16.2185
X-9.7423 Y16.2233
X-9.7348 Y16.2277
X-9.7271 Y16.2315
X-9.7191 Y16.2348
X-9.7108 Y16.2374
X-9.7024 Y16.2395
X-9.6939 Y16.241
X-9.6853 Y16.2419
X-9.6766 Y16.2422
X-9.668 Y16.2418
X-9.6594 Y16.2409
X-9.6509 Y16.2393
X-9.6425 Y16.2372
X-9.6343 Y16.2344
X-9.6263 Y16.2311
X-9.6186 Y16.2272
X-9.6111 Y16.2228
X-9.6038 Y16.1946
Y16.1478
X-9.6021 Y16.1022
G2 X-9.6175 Y16.0868 I-0.0154 J0.
G1 X-9.6209 Y16.0871
X-9.6241 Y16.0882
G2 X-9.6332 Y16.0998 I0.0065 J0.0146
X-9.6221 Y16.1938 I0.1547 J0.0293
X-9.6133 Y16.2105 I0.1436 J-0.0647 F50.
G3 X-9.6116 Y16.2221 I-0.0132 J0.008
X-9.7392 Y16.2807 I-0.0916 J-0.0313 F60.
X-9.7911 Y16.1502 I0.036 J-0.0899
G0 X-9.7963 Y16.1478 Z0.4
X-9.8725 Y16.0142
Z-0.1142
G1 Z-0.1296 F50.
X-9.8727 Z-0.1326
X-9.8736 Y16.0141 Z-0.1355
X-9.875 Z-0.1382
X-9.877 Y16.014 Z-0.1405
X-9.8793 Y16.0138 Z-0.1424
X-9.8819 Y16.0137 Z-0.1438
X-9.8848 Y16.0135 Z-0.1447
X-9.8878 Y16.0133 Z-0.145
G3 X-9.9173 Y16.0039 I0.0037 J-0.0622
G1 X-9.9438 Y15.9859 F60.
G3 X-9.8805 Y15.7917 I0.0969 J-0.0758
G2 X-9.777 Y15.8647 I0.4236 J-0.4908
G3 X-9.7703 Y15.8786 I-0.0087 J0.0127
X-9.7936 Y15.9013 I-0.0245 J-0.0018
X-9.8762 Y15.8228 I-0.0039 J-0.0786
X-9.8749 Y15.8081 I0.0787 J-0.0002 F50.
G2 X-9.8799 Y15.7936 I-0.0151 J-0.0028
G1 X-9.8997 Y15.7777 F60.
G2 X-10.0533 Y15.8995 I-0.0369 J0.1113
X-9.9438 Y15.9859 I0.644 J-0.7038
X-9.9284 Y15.9865 I0.0082 J-0.013
X-9.9219 Y15.9216 I-0.0183 J-0.0346
X-10.0235 Y15.8978 I-0.075 J0.0912
X-10.0377 Y15.9021 I0.0267 J0.1151 F50.
G3 X-10.0529 Y15.8995 I-0.0053 J-0.0144
G1 X-10.0769 Y15.878 F60.
G3 X-9.9884 Y15.6935 I0.1047 J-0.0633
G2 X-9.8997 Y15.7777 I0.6303 J-0.5744
G3 X-9.8947 Y15.7923 I-0.01 J0.0117
X-9.9227 Y15.8119 I-0.024 J-0.0045
X-9.9881 Y15.7247 I0.0128 J-0.0777
X-9.9849 Y15.7102 I0.0782 J0.0095 F50.
G2 X-9.9882 Y15.6952 I-0.0147 J-0.0047
G1 X-10.0031 Y15.6798 F60.
G2 X-10.1739 Y15.7707 I-0.0561 J0.1004
X-10.0769 Y15.878 I0.4324 J-0.2935
X-10.0617 Y15.8806 I0.0098 J-0.0118
X-10.0561 Y15.8703 I-0.0031 J-0.0084
G1 X-10.0566 Y15.8684
G2 X-10.1476 Y15.7814 I-0.1146 J0.0287
X-10.1623 Y15.7793 I-0.0236 J0.1157 F50.
G3 X-10.175 Y15.7707 I0.0012 J-0.0154
X-10.1407 Y15.6299 I0.0796 J-0.0552 F60.
X-10.005 Y15.6805 I0.0454 J0.0856
G1 X-10.0033 Y15.6824
X-10.002 Y15.6847
X-10.0011 Y15.6871
X-10.0007 Y15.6897
X-10.0008 Y15.6924
X-10.0015 Y15.695
X-10.0025 Y15.6976
X-10.0041 Y15.6998
X-10.0061 Y15.7018
X-10.0084 Y15.7034
X-10.0111 Y15.7045
X-10.014 Y15.7053 Z-0.1447
X-10.0168 Y15.706 Z-0.1438
X-10.0193 Y15.7067 Z-0.1424
X-10.0216 Y15.7073 Z-0.1405
X-10.0235 Y15.7078 Z-0.1382
X-10.0248 Y15.7081 Z-0.1355
X-10.0257 Y15.7084 Z-0.1326
X-10.026 Z-0.1296
G0 Z0.4
X-9.5793 Y15.8584
Z-0.1142
G1 Z-0.1296 F50.
X-9.5792 Y15.8582 Z-0.1326
X-9.5788 Y15.8574 Z-0.1355
X-9.5783 Y15.8561 Z-0.1382
X-9.5775 Y15.8543 Z-0.1405
X-9.5766 Y15.8522 Z-0.1424
X-9.5756 Y15.8497 Z-0.1438
X-9.5744 Y15.8471 Z-0.1447
X-9.5732 Y15.8443 Z-0.145
G3 X-9.5544 Y15.8198 I0.0573 J0.0245
G1 X-9.5361 Y15.8065 F60.
G3 X-9.3809 Y15.9289 I0.0366 J0.1132
X-9.4893 Y16.0083 I-0.6693 J-0.8008
X-9.5047 Y16.0082 I-0.0076 J-0.0134
X-9.5074 Y15.9442 I0.0191 J-0.0329
X-9.4102 Y15.9266 I0.0677 J0.0968
X-9.3962 Y15.9312 I-0.0294 J0.1144 F50.
G2 X-9.3809 Y15.9289 I0.0057 J-0.0143
G1 X-9.3631 Y15.9138 F60.
X-9.3553 Y15.9068
G2 X-9.44 Y15.7223 I-0.1062 J-0.0629
G3 X-9.5361 Y15.8065 I-0.655 J-0.651
G2 X-9.5412 Y15.821 I0.01 J0.0117
X-9.5143 Y15.8421 I0.0255 J-0.0048
X-9.4405 Y15.754 I-0.0044 J-0.0786
X-9.4437 Y15.7396 I-0.0782 J0.0095 F50.
G3 X-9.4404 Y15.7245 I0.0147 J-0.0047
G1 X-9.425 Y15.7087 F60.
G3 X-9.2567 Y15.8118 I0.0497 J0.1078
X-9.3489 Y15.901 I-0.6664 J-0.5966
X-9.3706 Y15.899 I-0.0098 J-0.0118
X-9.3723 Y15.8858 I0.0096 J-0.008
X-9.2862 Y15.8185 I0.1075 J0.0489
X-9.2675 Y15.8166 I0.0214 J0.1162 F50.
G2 X-9.2567 Y15.8118 I-0.0003 J-0.0154
G1 X-9.2552 Y15.8102 F60.
X-9.2364 Y15.7862
G2 X-9.3118 Y15.6218 I-0.1043 J-0.0517
X-9.425 Y15.7087 I0.1503 J0.313
X-9.4239 Y15.7305 I0.0114 J0.0103
X-9.4138 Y15.7313 I0.0056 J-0.0061
X-9.3302 Y15.6455 I-0.1507 J-0.2307
G1 X-9.3208 Y15.6291 F50.
G3 X-9.3117 Y15.6216 I0.0136 J0.0072
X-9.2364 Y15.7862 I0.0067 J0.0965 F60.
X-9.2621 Y15.7827 I-0.0118 J-0.0099
G1 X-9.2634 Y15.78 Z-0.1447
X-9.2646 Y15.7774 Z-0.1438
X-9.2657 Y15.775 Z-0.1424
X-9.2667 Y15.7728 Z-0.1405
X-9.2675 Y15.7711 Z-0.1382
X-9.2681 Y15.7698 Z-0.1355
X-9.2684 Y15.769 Z-0.1326
X-9.2685 Y15.7687 Z-0.1296
G0 Z0.4
X-9.2297 Y18.3368
Z0.1
G3 X-9.3744 Y18.358 Z0.0595 I-0.0724 J0.0106 F50.
X-9.2297 Y18.3368 Z0.019 I0.0724 J-0.0106
X-9.3744 Y18.358 Z-0.0216 I-0.0724 J0.0106
X-9.2297 Y18.3368 Z-0.0621 I0.0724 J-0.0106
X-9.3744 Y18.358 Z-0.1026 I-0.0724 J0.0106
X-9.3074 Y18.2744 Z-0.1238 I0.0724 J-0.0106
X-9.2289 Y18.3474 Z-0.145 I0.0053 J0.073
X-9.3752 I-0.0732 J0.
X-9.2292 Y18.3415 I0.0732 J0.
G1 X-9.2289 Y18.3474
G3 X-9.2105 Y18.393 I-0.09 J0.0628 F60.
X-9.2794 Y18.4676 I-0.1568 J-0.0758
X-9.4566 Y18.3535 I-0.0575 J-0.1053
X-9.3021 Y18.2695 I0.3489 J0.4576
X-9.2105 Y18.393 I0.0008 J0.095
G1 X-9.2108 Y18.3935
X-9.2323 Y18.415
X-9.2606 Y18.4434
X-9.2619 Y18.4447 F50.
X-9.2637 Y18.4469
X-9.2651 Y18.4493
G3 X-9.2794 Y18.4676 I-0.0427 J-0.0189
X-9.3567 Y18.52 I-1.3552 J-1.9114 F60.
X-9.5388 Y18.3887 I-0.0458 J-0.1284
G1 X-9.4893 Y18.3776
X-9.4546 Y18.3537
G3 X-9.4333 Y18.3584 I0.0083 J0.013
X-9.4427 Y18.3943 I-0.0213 J0.0136
X-9.5059 Y18.3992 I-0.0372 J-0.0694
X-9.5227 Y18.391 I0.026 J-0.0743 F50.
G2 X-9.5343 Y18.3888 I-0.0084 J0.0129
G1 X-9.5361 Y18.3893 F60.
X-9.5465
G2 X-9.5146 Y18.5794 I0.0653 J0.0868
X-9.3567 Y18.52 I0.0043 J-0.2282
X-9.3507 Y18.5059 I-0.0093 J-0.0123
X-9.3689 Y18.4904 I-0.0175 J0.0022
X-9.4948 Y18.561 I0.0055 J0.1574
X-9.5024 Y18.5737 I0.1314 J0.0868 F50.
G3 X-9.5154 Y18.5819 I-0.0136 J-0.0072
G1 X-9.5724 F60.
G3 X-9.6579 Y18.388 I0.0266 J-0.1275
G1 X-9.583 Y18.3894
X-9.5465 Y18.3893
G3 X-9.5335 Y18.3974 I-0.0005 J0.0154
X-9.5487 Y18.4354 I-0.0235 J0.0126
X-9.6344 Y18.4099 I-0.0243 J-0.0749
X-9.6425 Y18.3975 I0.0613 J-0.0494 F50.
G2 X-9.6556 Y18.3894 I-0.0136 J0.0072
G1 X-9.6766 F60.
X-9.6844 Y18.3925
X-9.692 Y18.3961
X-9.6994 Y18.4003
X-9.7064 Y18.405
X-9.713 Y18.4103
X-9.7192 Y18.416
X-9.725 Y18.4221
X-9.7303 Y18.4286
X-9.7351 Y18.4356
X-9.7395 Y18.4428
X-9.7432 Y18.4504
X-9.7464 Y18.4582
X-9.7491 Y18.4662
X-9.7511 Y18.4744
X-9.7525 Y18.4827
X-9.7534 Y18.4911
X-9.7536 Y18.4995
X-9.7531 Y18.5079
X-9.7521 Y18.5163
X-9.7505 Y18.5246
X-9.7482 Y18.5327
X-9.7454 Y18.5406
X-9.742 Y18.5484
X-9.738 Y18.5558
X-9.7335 Y18.5629
X-9.7285 Y18.5697
X-9.723 Y18.5761
X-9.7171 Y18.5821
X-9.5724 Y18.5819
G2 X-9.5594 Y18.5737 I-0.0005 J-0.0154
X-9.5954 Y18.5113 I-0.0375 J-0.02
X-9.696 Y18.5611 I-0.0042 J0.118
X-9.7038 Y18.5737 I0.0965 J0.0682 F50.
G3 X-9.7169 Y18.5819 I-0.0136 J-0.0072
G1 X-9.7468 F60.
G3 X-9.8056 Y18.3884 I0.034 J-0.116
G1 X-9.7702 Y18.3894
X-9.6766
G3 X-9.6635 Y18.3975 I-0.0005 J0.0154
X-9.6664 Y18.4163 I-0.0141 J0.0075
X-9.7834 Y18.4098 I-0.0556 J-0.0557
X-9.7915 Y18.3975 I0.0614 J-0.0492 F50.
G2 X-9.8046 Y18.3893 I-0.0136 J0.0072
G1 X-9.817 F60.
X-9.8192 Y18.3886
G2 X-9.8857 Y18.5748 I0.0158 J0.1107
G1 X-9.8669 Y18.5814
X-9.8639 Y18.5819
X-9.7468
G2 X-9.7338 Y18.5737 I-0.0005 J-0.0154
X-9.745 Y18.5437 I-0.0189 J-0.0101
X-9.8608 Y18.5616 I-0.0423 J0.1103
X-9.8718 Y18.5715 I0.0735 J0.0924 F50.
G3 X-9.8866 Y18.5757 I-0.011 J-0.0108
G1 X-9.9107 Y18.5686 F60.
X-9.9349 Y18.5551
G3 X-9.919 Y18.3365 I0.0817 J-0.104
G2 X-9.8192 Y18.3886 I0.1894 J-0.2412
G3 X-9.8093 Y18.4004 I-0.0053 J0.0144
X-9.8455 Y18.4367 I-0.031 J0.0054
X-9.9107 Y18.3677 I0.0131 J-0.0776
X-9.9109 Y18.3529 I0.0783 J-0.0086 F50.
G2 X-9.9175 Y18.339 I-0.0154 J-0.0012
G1 X-9.9335 Y18.3288 F60.
X-9.9418 Y18.3273
X-9.9502 Y18.3264
X-9.9586 Y18.3262
X-9.9671 Y18.3266
X-9.9754 Y18.3276
X-9.9837 Y18.3292
X-9.9918 Y18.3314
X-9.9998 Y18.3343
X-10.0075 Y18.3377
X-10.0149 Y18.3416
X-10.0221 Y18.3461
X-10.0289 Y18.3511
X-10.0352 Y18.3566
X-10.0412 Y18.3626
X-10.0467 Y18.369
X-10.0517 Y18.3757
X-10.0563 Y18.3829
X-10.0602 Y18.3903
X-10.0636 Y18.398
X-10.0665 Y18.406
X-10.0687 Y18.4141
X-10.0704 Y18.4223
X-10.0714 Y18.4307
X-10.0718 Y18.4391
X-10.0716 Y18.4476
X-10.0707 Y18.456
X-10.0693 Y18.4643
X-10.0672 Y18.4724
G2 X-9.9349 Y18.5551 I7.1743 J-11.3366
X-9.9195 Y18.5544 I0.007 J-0.0137
X-9.9132 Y18.4921 I-0.0216 J-0.0336
X-10.0385 Y18.4666 I-0.0824 J0.0846
X-10.0519 Y18.4729 I0.0429 J0.11 F50.
G3 X-10.0673 Y18.4725 I-0.0073 J-0.0135
G1 X-10.0914 Y18.4566 F60.
G3 X-10.0716 Y18.2774 I0.0889 J-0.0809
X-10.0526 Y18.2939 I0.0037 J0.0149
G1 X-10.0527 Y18.2953
X-10.068 Y18.445
G3 X-10.0914 Y18.4566 I-0.0153 J-0.0016 F50.
G1 X-10.0981 Y18.4528 F60.
X-10.1045 Y18.4485
X-10.1106 Y18.4437
X-10.1163 Y18.4385
X-10.1215 Y18.4328
X-10.1263 Y18.4268
X-10.1306 Y18.4203
X-10.1344 Y18.4136
X-10.1377 Y18.4066
X-10.1403 Y18.3993
X-10.1425 Y18.3919
X-10.144 Y18.3843
X-10.1449 Y18.3766
X-10.1452 Y18.3689
X-10.1449 Y18.3612
X-10.144 Y18.3535
X-10.1425 Y18.3459
X-10.1405 Y18.3385
X-10.1378 Y18.3312
X-10.1346 Y18.3242
X-10.1308 Y18.3175
X-10.1265 Y18.311
X-10.1218 Y18.3049
X-10.1165 Y18.2993
X-10.1109 Y18.294
X-10.1048 Y18.2892
X-10.0984 Y18.2849
X-10.0917 Y18.2811
X-10.0847 Y18.2778
X-10.0774 Y18.2751
X-10.07 Y18.273
X-10.0624 Y18.2715
X-10.0548 Y18.2705
X-10.047 Y18.2702
X-10.0393 Y18.2705
X-10.0317 Y18.2714
X-10.0241 Y18.2728
X-10.0166 Y18.2749
X-10.0094 Y18.2776
X-10.0023 Y18.2808
X-9.9956 Y18.2845
X-9.9891 Y18.2888
X-9.9831 Y18.2935
X-9.9774 Y18.2987
X-9.9721 Y18.3044
X-9.9673 Y18.3104
X-9.963 Y18.3168
X-9.9335 Y18.3288
G3 X-9.9345 Y18.3547 I-0.0087 J0.0127
G1 X-9.9371 Y18.3563 Z-0.1447
X-9.9396 Y18.3577 Z-0.1438
X-9.9418 Y18.3591 Z-0.1424
X-9.9439 Y18.3602 Z-0.1405
X-9.9455 Y18.3612 Z-0.1382
X-9.9467 Y18.3619 Z-0.1355
X-9.9475 Y18.3624 Z-0.1326
X-9.9478 Y18.3625 Z-0.1296
G0 Z0.4
X-9.651 Y17.5412
Z0.1
G3 X-9.7958 Y17.5624 Z0.0595 I-0.0724 J0.0106 F50.
X-9.651 Y17.5412 Z0.019 I0.0724 J-0.0106
X-9.7958 Y17.5624 Z-0.0216 I-0.0724 J0.0106
X-9.651 Y17.5412 Z-0.0621 I0.0724 J-0.0106
X-9.7958 Y17.5624 Z-0.1026 I-0.0724 J0.0106
X-9.7287 Y17.4788 Z-0.1238 I0.0724 J-0.0106
X-9.6503 Y17.5518 Z-0.145 I0.0053 J0.073
X-9.7966 I-0.0732 J0.
X-9.6505 Y17.5459 I0.0732 J0.
G1 X-9.6503 Y17.5518
G3 X-9.6439 Y17.6453 I-0.0388 J0.0496 F60.
G1 X-9.7763 Y17.6454
G3 X-9.7702 Y17.4423 I0.0332 J-0.1006
G1 X-9.746 Y17.4267
G3 X-9.6708 Y17.4157 I0.0489 J0.0723
X-9.6767 Y17.4435 I-0.0088 J0.0126
G1 X-9.7343 Y17.4544
G3 X-9.7449 Y17.4526 I-0.0029 J-0.0151
X-9.746 Y17.4267 I0.0077 J-0.0133 F50.
G1 X-9.7234 Y17.412 F60.
X-9.6766
X-9.6298 Y17.4423
G3 X-9.5481 Y17.5611 I-0.0995 J0.156
X-9.5751 Y17.5655 I-0.0147 J-0.0047
G1 X-9.6501 Y17.4647
G3 X-9.653 Y17.454 I0.0124 J-0.0092
X-9.6298 Y17.4423 I0.0153 J0.0016 F50.
X-9.583 Y17.6261 I-0.0299 J0.1055 F60.
G1 X-9.6237 Y17.6454
X-9.6298 Y17.6472
X-9.6439 Y17.6453
G3 X-9.6539 Y17.6213 I0.0027 J-0.0152
G1 X-9.6522 Y17.6189 Z-0.1447
X-9.6505 Y17.6165 Z-0.1438
X-9.649 Y17.6143 Z-0.1424
X-9.6476 Y17.6124 Z-0.1405
X-9.6465 Y17.6109 Z-0.1382
X-9.6457 Y17.6097 Z-0.1355
X-9.6452 Y17.609 Z-0.1326
X-9.6451 Y17.6087 Z-0.1296
G0 Z0.4
X-8.902 Y16.6052
Z0.1
G3 X-9.0467 Y16.6264 Z0.0595 I-0.0724 J0.0106 F50.
X-8.902 Y16.6052 Z0.019 I0.0724 J-0.0106
X-9.0467 Y16.6264 Z-0.0216 I-0.0724 J0.0106
X-8.902 Y16.6052 Z-0.0621 I0.0724 J-0.0106
X-9.0467 Y16.6264 Z-0.1026 I-0.0724 J0.0106
X-8.9797 Y16.5428 Z-0.1238 I0.0724 J-0.0106
X-8.9012 Y16.6158 Z-0.145 I0.0053 J0.073
X-9.0475 I-0.0732 J0.
X-8.9014 Y16.6099 I0.0732 J0.
G1 X-8.9012 Y16.6158
G3 X-8.884 Y16.6634 I-0.0509 J0.0453 F60.
G1 X-8.9018 Y16.7094
G3 X-9.1042 Y16.6985 I-0.0982 J-0.0605
X-8.997 Y16.4893 I0.4306 J0.0885
X-8.9527 Y16.476 I0.0462 J0.0729
X-8.949 Y16.506 I-0.0009 J0.0154
G1 X-8.9839 Y16.5169
G3 X-8.9965 Y16.5153 I-0.0046 J-0.0147
X-8.997 Y16.4893 I0.008 J-0.0131 F50.
G1 X-8.9744 Y16.4754 F60.
X-8.9381 Y16.4763
G3 X-8.884 Y16.6634 I-0.0327 J0.1108
X-8.9127 Y16.6523 I-0.0144 J-0.0056
X-8.8911 Y16.6443 I0.0144 J0.0056
X-8.8858 Y16.6667 I-0.0073 J0.0136
G1 X-8.9023 Y16.6902
G3 X-8.9275 Y16.6725 I-0.0126 J-0.0089
X-8.8998 Y16.6785 I0.0126 J0.0089
X-8.9018 Y16.7094 I-0.0613 J0.0114 F50.
G1 X-8.9191 Y16.7562 F60.
X-8.9275 Y16.779
X-8.9322 Y16.7863
X-8.9373 Y16.7933
X-8.943 Y16.7999
X-8.949 Y16.8061
X-8.9555 Y16.8119
X-8.9623 Y16.8172
X-8.9695 Y16.8221
X-8.977 Y16.8264
X-8.9848 Y16.8302
X-8.9929 Y16.8335
X-9.0011 Y16.8362
X-9.0095 Y16.8384
X-9.018 Y16.8399
X-9.0266 Y16.8409
X-9.0353 Y16.8413
X-9.044 Y16.8411
X-9.0526 Y16.8403
X-9.0612 Y16.8389
X-9.0696 Y16.8369
X-9.0779 Y16.8344
X-9.086 Y16.8313
X-9.0939 Y16.8276
X-9.1015 Y16.8234
X-9.1088 Y16.8187
X-9.1157 Y16.8135
X-9.1223 Y16.8079
X-9.1285 Y16.8018
X-9.1342 Y16.7953
G3 X-9.103 Y16.698 I0.8243 J0.211
X-9.0908 Y16.6886 I0.0142 J0.0059
X-9.064 Y16.7143 I0.0031 J0.0236
X-9.1082 Y16.7782 I-0.0784 J-0.007
X-9.1221 Y16.7834 I-0.0342 J-0.0709 F50.
G2 X-9.1329 Y16.7942 I0.004 J0.0149
G1 X-9.135 Y16.803 F60.
X-9.136 Y16.8264
X-9.1337 Y16.8351
X-9.1308 Y16.8437
X-9.1272 Y16.852
X-9.1231 Y16.8601
X-9.1185 Y16.8678
X-9.1133 Y16.8752
X-9.1076 Y16.8823
X-9.1015 Y16.8889
X-9.0949 Y16.8951
X-9.0879 Y16.9008
X-9.0805 Y16.906
X-9.0727 Y16.9107
X-9.0647 Y16.9148
X-9.0564 Y16.9183
X-9.0478 Y16.9213
X-9.0391 Y16.9237
X-9.0302 Y16.9254
X-9.0213 Y16.9266
X-9.0122 Y16.9271
X-9.0032 Y16.927
X-8.9942 Y16.9262
X-8.9852 Y16.9249
X-8.9764 Y16.9229
X-8.9678 Y16.9203
X-8.9593 Y16.9171
X-8.9511 Y16.9133
X-8.9432 Y16.909
X-8.9356 Y16.9041
X-8.9283 Y16.8987
X-8.9214 Y16.8928
X-8.9386 Y16.8498
X-8.9364 Y16.803
X-8.9275 Y16.779
G2 X-8.9373 Y16.7595 I-0.0146 J-0.0048
X-8.9718 Y16.7737 I-0.009 J0.0272
X-8.9482 Y16.8729 I0.0702 J0.0357
X-8.9319 Y16.8821 I0.0466 J-0.0635 F50.
G3 X-8.9236 Y16.8905 I-0.0059 J0.0142
G1 X-8.9175 Y16.907 F60.
G3 X-9.0909 Y16.9931 I-0.1143 J-0.0126
X-9.136 Y16.8264 I0.3722 J-0.1903
X-9.1273 Y16.8137 I0.0154 J0.0012
X-9.0876 Y16.8219 I0.0144 J0.0304
X-9.0788 Y16.9663 I-0.0888 J0.0779
X-9.0878 Y16.978 I-0.0976 J-0.0665 F50.
G2 X-9.0909 Y16.9931 I0.0115 J0.0102
G1 X-9.0781 Y17.0274 F60.
G2 X-8.874 Y17.0217 I0.1001 J-0.0741
X-8.9175 Y16.907 I-12.2717 J4.589
X-8.9296 Y16.8975 I-0.0143 J0.0058
X-8.9496 Y16.9103 I-0.0025 J0.0181
X-8.9017 Y17.007 I0.0754 J0.0228
X-8.8874 Y17.0108 I0.0274 J-0.0738 F50.
G3 X-8.8755 Y17.0206 I-0.0026 J0.0152
G1 X-8.8701 Y17.037 F60.
X-8.867 Y17.0499
G3 X-9.0054 Y17.1606 I-0.1198 J-0.0079
X-9.0067 Y17.1358 I0.0084 J-0.0129
G1 X-9.0052 Y17.1346
X-8.8919 Y17.0422
X-8.8916 Y17.042 F50.
G3 X-8.867 Y17.0499 I0.0097 J0.0119
G1 X-8.8647 Y17.0571 F60.
X-8.8629 Y17.0645
X-8.8617 Y17.0721
X-8.8611 Y17.0797
Y17.0873
X-8.8618 Y17.0949
X-8.863 Y17.1024
X-8.8648 Y17.1098
X-8.8672 Y17.1171
X-8.8702 Y17.1241
X-8.8737 Y17.1309
X-8.8778 Y17.1373
X-8.8823 Y17.1435
X-8.8873 Y17.1492
X-8.8928 Y17.1546
X-8.8986 Y17.1594
X-8.9048 Y17.1638
X-8.9114 Y17.1677
X-8.9182 Y17.1711
X-8.9253 Y17.1739
X-8.9326 Y17.1762
X-8.9401 Y17.1778
X-8.9476 Y17.1789
X-8.9552 Y17.1794
X-8.9628 Y17.1792
X-8.9704 Y17.1785
X-8.9779 Y17.1771
X-8.9853 Y17.1752
X-8.9925 Y17.1727
X-8.9995 Y17.1696
X-9.0062 Y17.166
X-9.0126 Y17.1619
X-9.0187 Y17.1572
X-9.0243 Y17.1521
X-9.0296 Y17.1466
X-9.0344 Y17.1407
X-9.0387 Y17.1344
X-9.0425 Y17.1278
X-9.0458 Y17.1209
X-9.0485 Y17.1137
X-9.0506 Y17.1064
X-9.0521 Y17.099
X-9.0531 Y17.0914
X-9.0534 Y17.0838
X-9.068 Y17.0546
X-9.0745 Y17.037
X-9.0781 Y17.0274
X-9.0881 Y17.0262
X-9.0981 Y17.0244
X-9.1079 Y17.022
X-9.1176 Y17.019
X-9.1271 Y17.0155
X-9.1364 Y17.0114
X-9.1454 Y17.0068
X-9.1541 Y17.0016
X-9.1625 Y16.996
X-9.1705 Y16.9898
X-9.1782 Y16.9832
X-9.1854 Y16.9761
X-9.1923 Y16.9686
X-9.1986 Y16.9608
X-9.2045 Y16.9525
X-9.2099 Y16.944
X-9.2148 Y16.9351
X-9.2191 Y16.9259
X-9.2229 Y16.9166
X-9.2261 Y16.907
X-9.2288 Y16.8972
X-9.2308 Y16.8873
X-9.2323 Y16.8773
X-9.2332 Y16.8672
X-9.2334 Y16.8571
X-9.2331 Y16.8469
X-9.2322 Y16.8369
X-9.2306 Y16.8269
X-9.2285 Y16.817
X-9.2258 Y16.8072
X-9.2226 Y16.7977
X-9.2187 Y16.7883
X-9.2178 Y16.7698
X-9.2163 Y16.7514
X-9.2142 Y16.733
X-9.2114 Y16.7147
X-9.2081 Y16.6965
X-9.2041 Y16.6785
X-9.1995 Y16.6606
X-9.1944 Y16.6428
X-9.1886 Y16.6252
X-9.1822 Y16.6079
X-9.1753 Y16.5907
X-9.1678 Y16.5738
X-9.1597 Y16.5572
X-9.1511 Y16.5408
X-9.1419 Y16.5248
X-9.1322 Y16.509
X-9.122 Y16.4936
X-9.1113 Y16.4786
X-9.1 Y16.4639
X-9.0883 Y16.4496
X-9.0761 Y16.4357
X-9.0634 Y16.4222
X-9.0503 Y16.4092
X-9.0368 Y16.3966
G3 X-8.8049 Y16.7063 I0.07 J0.1892
G2 X-8.7697 Y17.0361 I0.5055 J0.1128
G3 X-8.9786 Y17.2669 I-0.1912 J0.0369
G1 X-8.9936 Y17.2611
X-9.0084 Y17.2547
X-9.0228 Y17.2478
X-9.037 Y17.2403
X-9.0509 Y17.2322
X-9.0645 Y17.2236
X-9.0777 Y17.2145
X-9.0905 Y17.2049
X-9.103 Y17.1948
X-9.1151 Y17.1842
X-9.1267 Y17.1731
X-9.1379 Y17.1616
X-9.1487 Y17.1497
X-9.1589 Y17.1374
X-9.1687 Y17.1246
X-9.178 Y17.1115
X-9.1867 Y17.0981
G3 X-9.2848 Y16.6209 I0.2411 J-0.2982
X-9.2441 Y16.5099 I0.3004 J0.0471
G1 X-9.1236 Y16.3673
X-9.1143 Y16.3587
X-9.1046 Y16.3505
X-9.0944 Y16.3428
X-9.084 Y16.3357
X-9.0731 Y16.329
X-9.062 Y16.3229
X-9.0506 Y16.3173
X-9.0389 Y16.3123
X-9.027 Y16.3079
X-9.0149 Y16.304
X-9.0026 Y16.3008
X-8.9902 Y16.2981
X-8.9776 Y16.2961
X-8.965 Y16.2947
X-8.9523 Y16.2939
X-8.9396 Y16.2937
X-8.9269 Y16.2942
X-8.9142 Y16.2952
X-8.9016 Y16.2969
X-8.8891 Y16.2992
X-8.8768 Y16.3021
X-8.8645 Y16.3056
X-8.8525 Y16.3097
X-8.8407 Y16.3143
X-8.8291 Y16.3196
X-8.8178 Y16.3254
X-8.8068 Y16.3317
X-8.7961 Y16.3386
X-8.7858 Y16.346
X-8.7758 Y16.3539
X-8.7663 Y16.3623
X-8.7571 Y16.3711
X-8.7484 Y16.3803
X-8.7402 Y16.39
X-8.7324 Y16.4001
X-8.7252 Y16.4105
X-8.7184 Y16.4213
X-8.7122 Y16.4324
X-8.7066 Y16.4437
X-8.7015 Y16.4554
X-8.6969 Y16.4672
X-8.693 Y16.4793
X-8.692 Y16.6367
G2 X-8.7064 Y16.8811 I0.5812 J0.1569
G3 X-8.692 Y16.937 I-0.1557 J0.07
G0 Z0.4
X-8.7086 Y16.5938
Z-0.1142
G1 Z-0.1296 F50.
X-8.7084 Y16.5941 Z-0.1326
X-8.708 Y16.5948 Z-0.1355
X-8.7073 Y16.5961 Z-0.1382
X-8.7063 Y16.5977 Z-0.1405
X-8.7051 Y16.5997 Z-0.1424
X-8.7037 Y16.602 Z-0.1438
X-8.7022 Y16.6045 Z-0.1447
X-8.7007 Y16.6071 Z-0.145
G3 X-8.692 Y16.6367 I-0.0536 J0.0318
G1 Y17.1287 F60.
G3 X-9.1012 Y17.3171 I-0.2619 J-0.0302
G1 X-9.3603 Y17.0116
G3 X-9.4074 Y16.7032 I0.32 J-0.2066
X-9.3808 Y16.711 I0.0114 J0.0103
G1 X-9.3337 Y16.9988
X-9.3335 Y17.0016
X-9.3338 Y17.0045
X-9.3347 Y17.0072
G3 X-9.3603 Y17.0116 I-0.0142 J-0.006 F50.
G1 X-9.4728 Y16.8784 F60.
G3 X-9.4991 Y16.8118 I0.027 J-0.0492
X-9.4744 Y16.8145 I0.0114 J0.0103
G1 X-9.4734 Y16.8161
X-9.448 Y16.8604
G3 X-9.4472 Y16.874 I-0.0134 J0.0077
X-9.4728 Y16.8784 I-0.0142 J-0.006 F50.
X-9.5097 Y16.8271 I0.012 J-0.0476 F60.
G1 X-9.5046 Y16.8183
X-9.4997 Y16.8125
X-9.2441 Y16.5099
G3 X-9.2323 Y16.5049 I0.0114 J0.0103
G1 X-9.2146 Y16.5052
X-8.7143 Y16.5162
G2 X-8.7007 Y16.5087 I0.0003 J-0.0154
X-8.692 Y16.479 I-0.0536 J-0.0318 F50.
G1 Y16.379 F60.
G2 X-8.9839 Y16.202 I-0.2426 J0.0708
G1 X-9.1236 Y16.3673
G2 X-9.1258 Y16.3825 I0.0121 J0.0095
X-9.0467 Y16.4077 I0.0499 J-0.0199
X-8.9813 Y16.2312 I-0.0857 J-0.1321
X-8.9861 Y16.2172 I-0.1511 J0.0444 F50.
G3 X-8.9839 Y16.202 I0.0143 J-0.0057
G1 X-8.9486 Y16.1601 F60.
G3 X-8.692 Y16.1981 I0.1056 J0.1725
G1 Y16.379
G3 X-8.7001 Y16.3921 I-0.0154 J-0.0005
X-8.7424 Y16.3816 I-0.0153 J-0.0287
X-8.7127 Y16.219 I0.0978 J-0.0662
X-8.7001 Y16.2112 I0.0682 J0.0965 F50.
G2 X-8.692 Y16.1981 I-0.0072 J-0.0136
G1 Y16.1553 F60.
G2 X-8.8482 Y16.0399 I-0.1414 J0.028
G1 X-8.9486 Y16.1601
G2 X-8.9508 Y16.1754 I0.0121 J0.0095
X-8.8863 Y16.1924 I0.0386 J-0.0154
X-8.8456 Y16.0704 I-0.0737 J-0.0923
X-8.8503 Y16.0564 I-0.1143 J0.0297 F50.
G3 X-8.8481 Y16.0411 I0.0143 J-0.0057
G1 X-8.8268 Y16.016 F60.
G3 X-8.6906 Y16.0126 I0.07 J0.0738
G1 X-8.6909 Y16.0158
X-8.6917 Y16.0189
X-8.6931 Y16.0217
X-8.695 Y16.0241
X-8.6973 Y16.0261
X-8.7 Y16.0276
X-8.7028 Y16.0286
X-8.7057 Y16.029
X-8.7146 Y16.03
X-8.8131 Y16.0409
X-8.8157
X-8.8182 Y16.0405
G3 X-8.8268 Y16.016 I0.0035 J-0.015 F50.
G1 X-8.7772 Y15.9573 F60.
G3 X-8.692 Y15.9382 I0.0506 J0.026
X-8.7004 Y15.9514 I-0.0154 J-0.0005
G1 X-8.7134 Y15.9579
X-8.7582 Y15.9806
G3 X-8.7686 Y15.9818 I-0.0069 J-0.0137
X-8.7772 Y15.9573 I0.0035 J-0.015 F50.
X-8.692 Y15.9339 I0.0478 J0.0071 F60.
G1 Y16.1553
G0 Z0.4
X-8.7086 Y17.0858
Z-0.1142
G1 Z-0.1296 F50.
X-8.7084 Y17.0861 Z-0.1326
X-8.708 Y17.0868 Z-0.1355
X-8.7073 Y17.0881 Z-0.1382
X-8.7063 Y17.0897 Z-0.1405
X-8.7051 Y17.0917 Z-0.1424
X-8.7037 Y17.094 Z-0.1438
X-8.7022 Y17.0965 Z-0.1447
X-8.7007 Y17.0991 Z-0.145
G3 X-8.692 Y17.1287 I-0.0536 J0.0318
G1 Y17.2693 F60.
G3 X-8.9893 Y17.4508 I-0.2438 J-0.0652
G1 X-9.1016 Y17.3178
G3 X-9.1038 Y17.3026 I0.0121 J-0.0095
X-9.0565 Y17.2824 I0.0336 J0.0134
X-8.9869 Y17.4215 I-0.0447 J0.1093
X-8.9915 Y17.4355 I-0.1143 J-0.0297 F50.
G2 X-8.9893 Y17.4508 I0.0143 J0.0057
G1 X-8.9557 Y17.4905 F60.
G2 X-8.692 Y17.4538 I0.111 J-0.168
G1 Y17.2693
G2 X-8.7001 Y17.2563 I-0.0154 J0.0005
X-8.7382 Y17.2645 I-0.0142 J0.0266
X-8.7127 Y17.4329 I0.0936 J0.072
X-8.7001 Y17.4407 I0.0682 J-0.0965 F50.
G3 X-8.692 Y17.4538 I-0.0072 J0.0136
G1 Y17.493 F60.
X-8.6937 Y17.5021
X-8.696 Y17.5111
X-8.6989 Y17.5199
X-8.7023 Y17.5285
X-8.7062 Y17.5369
X-8.7107 Y17.5449
X-8.7157 Y17.5527
X-8.7212 Y17.5602
X-8.7271 Y17.5673
X-8.7335 Y17.574
X-8.7403 Y17.5802
X-8.7475 Y17.5861
X-8.755 Y17.5914
X-8.7629 Y17.5963
X-8.7711 Y17.6006
X-8.7795 Y17.6044
X-8.7881 Y17.6077
X-8.797 Y17.6104
X-8.806 Y17.6125
X-8.8151 Y17.6141
X-8.8243 Y17.6151
X-8.8335 Y17.6155
X-8.8428 Y17.6152
X-8.852 Y17.6144
X-8.9557 Y17.4905
G3 X-8.9579 Y17.4752 I0.0121 J-0.0095
X-8.8974 Y17.4567 I0.0377 J0.015
X-8.8495 Y17.5841 I-0.0663 J0.0977
X-8.8541 Y17.5982 I-0.1143 J-0.0297 F50.
G2 X-8.8519 Y17.6134 I0.0143 J0.0057
G1 X-8.8312 Y17.6379 F60.
G2 X-8.6906 Y17.6416 I0.0723 J-0.0744
G1 X-8.692 Y17.493
G2 X-8.7001 Y17.48 I-0.0154 J0.0005
X-8.7624 Y17.5144 I-0.02 J0.0374
X-8.7127 Y17.6192 I0.1178 J0.0083
X-8.7001 Y17.627 I0.0682 J-0.0965 F50.
G3 X-8.692 Y17.64 I-0.0072 J0.0136
G1 Y17.6676 F60.
G3 X-8.7542 Y17.7314 I-0.0682 J-0.0043
G1 X-8.7561 Y17.7289
X-8.7575 Y17.7263
X-8.7584 Y17.7234
X-8.7587 Y17.7205
X-8.7586 Y17.7176
X-8.7579 Y17.7149
X-8.7567 Y17.7123
X-8.7552 Y17.71
X-8.7489 Y17.7009
G3 X-8.7144 Y17.6544 I0.0863 J0.028
X-8.692 Y17.6676 I0.007 J0.0137 F50.
X-8.6962 Y17.7389 I-0.0515 J0.0327 F60.
X-8.7618 Y17.7221 I-0.0211 J-0.0539
G1 X-8.8312 Y17.6379
G0 Z0.4
X-10.3424 Y16.8422
Z-0.1142
G1 Z-0.1296 F50.
X-10.3422 Y16.8419 Z-0.1326
X-10.3417 Y16.8412 Z-0.1355
X-10.3409 Y16.8401 Z-0.1382
X-10.3398 Y16.8385 Z-0.1405
X-10.3384 Y16.8366 Z-0.1424
X-10.3369 Y16.8344 Z-0.1438
X-10.3352 Y16.8321 Z-0.1447
X-10.3334 Y16.8296 Z-0.145
G3 X-10.2772 Y16.7663 I0.3203 J0.228
G1 X-10.2698 Y16.766 F60.
X-10.2624 Y16.7663
X-10.2551 Y16.7672
X-10.2479 Y16.7687
X-10.2408 Y16.7708
X-10.2339 Y16.7735
X-10.2272 Y16.7767
X-10.2209 Y16.7805
X-10.2149 Y16.7848
X-10.2092 Y16.7895
X-10.204 Y16.7947
X-10.1992 Y16.8004
X-10.195 Y16.8064
X-10.1912 Y16.8127
X-10.1879 Y16.8194
X-10.1852 Y16.8262
X-10.1831 Y16.8333
X-10.1816 Y16.8406
X-10.1807 Y16.8479
X-10.1804 Y16.8553
X-10.1807 Y16.8626
X-10.1816 Y16.87
X-10.1832 Y16.8772
X-10.1853 Y16.8843
X-10.188 Y16.8911
X-10.1912 Y16.8978
X-10.1918 Y16.915
X-10.1931 Y16.9321
X-10.1949 Y16.9492
X-10.1974 Y16.9663
X-10.2005 Y16.9832
X-10.2042 Y17.
X-10.2085 Y17.0167
X-10.2134 Y17.0332
X-10.2189 Y17.0495
X-10.2249 Y17.0656
X-10.2316 Y17.0815
X-10.2388 Y17.0971
X-10.2466 Y17.1125
X-10.2549 Y17.1275
X-10.2637 Y17.1423
X-10.2731 Y17.1567
X-10.283 Y17.1708
X-10.2934 Y17.1845
X-10.3043 Y17.1979
X-10.3156 Y17.2108
X-10.3274 Y17.2233
X-10.3397 Y17.2354
X-10.3523 Y17.247
X-10.3654 Y17.2582
G3 X-10.5904 Y16.9416 I-0.0651 J-0.192
G1 X-10.587 Y16.9264
X-10.5842 Y16.9111
X-10.582 Y16.8956
X-10.5804 Y16.8801
X-10.5794 Y16.8646
X-10.579 Y16.849
X-10.5791 Y16.8334
X-10.5798 Y16.8178
X-10.5812 Y16.8023
X-10.5831 Y16.7868
X-10.5855 Y16.7714
X-10.5886 Y16.7561
X-10.5922 Y16.741
X-10.5965 Y16.726
X-10.6012 Y16.7111
X-10.6066 Y16.6965
X-10.6124 Y16.682
X-10.6188 Y16.6678
X-10.6258 Y16.6539
X-10.6333 Y16.6402
X-10.636 Y16.6296
X-10.6383 Y16.619
X-10.6399 Y16.6082
X-10.6409 Y16.5973
X-10.6413 Y16.5865
X-10.6411 Y16.5756
X-10.6403 Y16.5647
X-10.6388 Y16.5539
X-10.6368 Y16.5432
X-10.6342 Y16.5326
X-10.631 Y16.5222
X-10.6273 Y16.512
X-10.6229 Y16.502
X-10.6181 Y16.4922
X-10.6127 Y16.4828
X-10.6067 Y16.4736
X-10.6003 Y16.4648
X-10.5934 Y16.4564
X-10.586 Y16.4484
X-10.5782 Y16.4408
X-10.57 Y16.4336
X-10.5614 Y16.4269
X-10.5525 Y16.4207
X-10.5432 Y16.415
X-10.5336 Y16.4098
X-10.5237 Y16.4052
X-10.5136 Y16.4011
X-10.5033 Y16.3976
X-10.4928 Y16.3947
X-10.4822 Y16.3923
X-10.4714 Y16.3906
X-10.4606 Y16.3895
X-10.4497 Y16.3889
X-10.4388 Y16.389
X-10.4279 Y16.3897
X-10.4171 Y16.3909
X-10.4064 Y16.3928
X-10.3958 Y16.3953
X-10.3853 Y16.3983
X-10.375 Y16.402
X-10.365 Y16.4062
X-10.3552 Y16.4109
X-10.3457 Y16.4162
X-10.3365 Y16.422
X-10.3276 Y16.4284
X-10.3191 Y16.4352
X-10.311 Y16.4424
X-10.3032 Y16.4501
X-10.296 Y16.4582
X-10.2892 Y16.4667
G2 X-10.1181 Y16.7585 I0.6571 J-0.1894
G3 X-10.1572 Y17.1506 I-0.5221 J0.146
G1 X-10.2772 Y17.2927
X-10.2869 Y17.3009
X-10.297 Y17.3087
X-10.3074 Y17.3159
X-10.3182 Y17.3226
X-10.3293 Y17.3288
X-10.3407 Y17.3345
X-10.3523 Y17.3396
X-10.3642 Y17.3441
X-10.3762 Y17.3481
X-10.3885 Y17.3515
X-10.4009 Y17.3543
X-10.4134 Y17.3565
X-10.426 Y17.3581
X-10.4386 Y17.3591
X-10.4513 Y17.3595
X-10.464 Y17.3592
X-10.4767 Y17.3584
X-10.4893 Y17.357
X-10.5019 Y17.3549
X-10.5143 Y17.3523
X-10.5266 Y17.349
X-10.5387 Y17.3452
X-10.5506 Y17.3408
X-10.5623 Y17.3358
X-10.5737 Y17.3303
X-10.5849 Y17.3242
X-10.5958 Y17.3176
X-10.6063 Y17.3105
X-10.6165 Y17.3029
X-10.6263 Y17.2948
X-10.6357 Y17.2863
X-10.6446 Y17.2773
X-10.6532 Y17.2679
X-10.6612 Y17.2581
X-10.6688 Y17.2479
X-10.6759 Y17.2374
X-10.6825 Y17.2265
X-10.6886 Y17.2153
X-10.6941 Y17.2039
X-10.699 Y17.1922
X-10.7034 Y17.1803
X-10.7072 Y17.1682
X-10.708 Y17.0116
G2 Y16.7227 I-0.4115 J-0.1444
G3 X-10.6772 Y16.7233 I0.0154 J0.0005
G1 Y17.0111
G3 X-10.6856 Y17.0248 I-0.0154 J0.
X-10.708 Y17.0116 I-0.007 J-0.0137 F50.
G1 Y16.5196 F60.
G3 X-10.3057 Y16.3337 I0.259 J0.0322
G1 X-10.2071 Y16.4493
G3 X-9.9984 Y16.8247 I-0.9896 J0.796
X-10.0022 Y16.9671 I-0.2995 J0.0633
G1 X-10.1572 Y17.1506
G3 X-10.1718 Y17.1553 I-0.0114 J-0.0103
X-10.2063 Y17.1071 I0.0092 J-0.043
X-10.0314 Y16.9694 I0.1564 J0.0187
X-10.0168 Y16.9719 I-0.0185 J0.1564 F50.
G2 X-10.0022 Y16.9671 I0.0032 J-0.0151
G1 X-9.9495 Y16.9048 F60.
G2 X-9.918 Y16.7915 I-0.0855 J-0.0848
G1 X-10.2071 Y16.4493
G2 X-10.2339 Y16.4596 I-0.0114 J0.0103
G1 X-10.2337 Y16.4624
X-10.2329 Y16.4651
G2 X-10.2041 Y16.4543 I0.0144 J-0.0054
X-10.2073 Y16.4491 I-0.0144 J0.0054
G1 X-10.2968 Y16.3534
G2 X-10.3193 Y16.3744 I-0.0113 J0.0105
X-10.2928 Y16.3613 I0.0113 J-0.0105
X-10.3053 Y16.3331 I-0.0615 J0.0102 F50.
G1 X-10.374 Y16.2518 F60.
G2 X-10.708 Y16.3103 I-0.135 J0.212
G1 Y16.5196
G2 X-10.6999 Y16.5327 I0.0154 J-0.0005
X-10.62 Y16.4956 I0.0259 J-0.0487
X-10.6871 Y16.331 I-0.1539 J-0.0333
X-10.6999 Y16.3234 I-0.0868 J0.1314 F50.
G3 X-10.708 Y16.3103 I0.0072 J-0.0136
G1 Y16.2619 F60.
G3 X-10.4879 Y16.1169 I0.1906 J0.0497
G1 X-10.374 Y16.2518
G3 X-10.3718 Y16.267 I-0.0121 J0.0095
X-10.4162 Y16.287 I-0.0325 J-0.013
X-10.4904 Y16.1462 I0.0401 J-0.1111
X-10.4857 Y16.1321 I0.1143 J0.0297 F50.
G2 X-10.4879 Y16.1169 I-0.0143 J-0.0057
G1 X-10.5129 Y16.0873 F60.
X-10.5202 Y16.0814
X-10.5279 Y16.076
X-10.536 Y16.071
X-10.5443 Y16.0667
X-10.5529 Y16.0629
X-10.5618 Y16.0597
X-10.5708 Y16.057
X-10.58 Y16.055
X-10.5894 Y16.0536
X-10.5988 Y16.0529
X-10.6082 Y16.0527
X-10.6176 Y16.0532
X-10.6269 Y16.0543
X-10.6362 Y16.056
X-10.6453 Y16.0584
X-10.6543 Y16.0613
X-10.663 Y16.0648
X-10.6715 Y16.0689
X-10.6797 Y16.0736
X-10.6875 Y16.0788
X-10.695 Y16.0845
X-10.7021 Y16.0907
X-10.7088 Y16.0973
X-10.708 Y16.2619
G2 X-10.6999 Y16.2749 I0.0154 J-0.0005
X-10.6811 Y16.2796 I0.0188 J-0.0352
X-10.6432 Y16.2522 I0. J-0.0399
X-10.6873 Y16.1189 I-0.1122 J-0.0368
X-10.6999 Y16.1111 I-0.0682 J0.0965 F50.
G3 X-10.708 Y16.0981 I0.0072 J-0.0136
G1 Y16.0616 F60.
G3 X-10.6063 Y15.9746 I0.1011 J0.0152
G1 X-10.6046 Y15.9769
X-10.6033 Y15.9795
X-10.6025 Y15.9822
X-10.6022 Y15.985
X-10.6024 Y15.9878
X-10.6031 Y15.9905
X-10.6042 Y15.993
X-10.6056 Y15.9952
X-10.6075 Y15.9972
X-10.6136 Y16.0033
X-10.6817 Y16.0719
X-10.6835 Y16.0735
X-10.6856 Y16.0748
G3 X-10.708 Y16.0616 I-0.007 J-0.0137 F50.
G1 Y15.9855 F60.
G3 X-10.6688 Y15.9201 I0.0721 J-0.0013
X-10.6564 Y15.9417 I-0.0017 J0.0153
G1 X-10.6573 Y15.9435
X-10.6785 Y15.9912
G3 X-10.6856 Y15.9987 I-0.0141 J-0.0063
X-10.708 Y15.9855 I-0.007 J-0.0137 F50.
X-10.7035 Y15.9199 I0.0451 J-0.0298 F60.
X-10.6425 Y15.9339 I0.0222 J0.0428
G1 X-10.5129 Y16.0873
G0 Z0.4
X-9.9899 Y16.9269
Z-0.1142
G1 Z-0.1296 F50.
X-9.9896 Y16.9268 Z-0.1326
X-9.9888 Y16.9265 Z-0.1355
X-9.9874 Y16.9261 Z-0.1382
X-9.9856 Y16.9254 Z-0.1405
X-9.9834 Y16.9247 Z-0.1424
X-9.9809 Y16.9238 Z-0.1438
X-9.9782 Y16.9229 Z-0.1447
X-9.9753 Y16.9219 Z-0.145
G2 X-9.9495 Y16.9048 I-0.0204 J-0.0589
X-9.8899 Y16.83 I-0.0502 J-0.1012 F60.
X-9.918 Y16.7915 I-0.0472 J0.0049
X-9.934 Y16.7871 I-0.0114 J0.0103
G1 X-9.9368 Y16.788 Z-0.1447
X-9.9396 Y16.7888 Z-0.1438
X-9.9422 Y16.7896 Z-0.1424
X-9.9444 Y16.7903 Z-0.1405
X-9.9462 Y16.7909 Z-0.1382
X-9.9476 Y16.7913 Z-0.1355
X-9.9484 Y16.7916 Z-0.1326
X-9.9487 Z-0.1296
G0 Z-0.1142
X-10.2622 Y17.2493
G1 Z-0.1296 F50.
Y17.2495 Z-0.1326
X-10.2624 Y17.2504 Z-0.1355
X-10.2626 Y17.2518 Z-0.1382
X-10.2629 Y17.2537 Z-0.1405
X-10.2633 Y17.256 Z-0.1424
X-10.2638 Y17.2586 Z-0.1438
X-10.2642 Y17.2615 Z-0.1447
X-10.2647 Y17.2644 Z-0.145
G3 X-10.2772 Y17.2927 I-0.0615 J-0.0102
G1 X-10.3668 Y17.3988 F60.
G3 X-10.708 Y17.3417 I-0.1395 J-0.2144
G1 Y17.1684
G3 X-10.6999 Y17.1553 I0.0154 J0.0005
X-10.65 Y17.1711 I0.0172 J0.0323
X-10.6873 Y17.3209 I-0.1054 J0.0533
X-10.6999 Y17.3286 I-0.0682 J-0.0965 F50.
G2 X-10.708 Y17.3417 I0.0072 J0.0136
G1 Y17.3935 F60.
G2 X-10.4828 Y17.536 I0.1943 J-0.0578
G1 X-10.3668 Y17.3988
G2 X-10.3646 Y17.3836 I-0.0121 J-0.0095
X-10.4053 Y17.3641 I-0.0309 J0.0123
X-10.4852 Y17.5067 I0.0344 J0.113
X-10.4806 Y17.5208 I0.1143 J-0.0297 F50.
G3 X-10.4828 Y17.536 I-0.0143 J0.0057
G1 X-10.5114 Y17.57 F60.
G3 X-10.7089 Y17.5552 I-0.0906 J-0.1165
G1 X-10.708 Y17.3935
G3 X-10.6999 Y17.3805 I0.0154 J0.0005
X-10.6416 Y17.4055 I0.0191 J0.0358
X-10.6873 Y17.5335 I-0.1138 J0.0316
X-10.6999 Y17.5413 I-0.0682 J-0.0965 F50.
G2 X-10.708 Y17.5543 I0.0072 J0.0136
G1 Y17.5868 F60.
G2 X-10.6028 Y17.6802 I0.1036 J-0.0106
G1 X-10.5114 Y17.57
G2 X-10.5253 Y17.5451 I-0.0121 J-0.0095
X-10.5411 Y17.5503 I0.0049 J0.0413
X-10.6004 Y17.648 I0.0587 J0.1025
X-10.5997 Y17.6668 I0.118 J0.0048 F50.
G3 X-10.6029 Y17.6782 I-0.0153 J0.0018
G1 X-10.6206 Y17.6992 F60.
G3 X-10.7097 Y17.7076 I-0.0494 J-0.0474
G1 X-10.7095 Y17.7046
X-10.7089 Y17.7016
X-10.7077 Y17.6989
X-10.7061 Y17.6965
X-10.7041 Y17.6944
X-10.7018 Y17.6928
X-10.6992 Y17.6916
X-10.6966 Y17.6908
X-10.6857 Y17.6879
G3 X-10.6292 Y17.6747 I0.0479 J0.0776
X-10.6206 Y17.6992 I-0.0035 J0.015 F50.
X-10.7062 Y17.7357 I-0.0573 J-0.0158 F60.
G1 X-10.7079 Y17.7262
X-10.708 Y17.7144
Y17.5868
G3 X-10.7004 Y17.574 I0.0154 J0.0005
G1 X-10.6981 Y17.5733 Z-0.1448
X-10.6959 Y17.5726 Z-0.1443
X-10.6938 Y17.5719 Z-0.1434
X-10.6926 Z-0.1427
X-10.6903 Y17.5724 Z-0.1408
X-10.6883 Y17.5729 Z-0.1385
X-10.6868 Y17.5732 Z-0.1358
X-10.6859 Y17.5734 Z-0.1329
X-10.6857 Y17.5735 Z-0.1312
X-10.6856 Y17.5736 Z-0.1296
G0 Z0.4
X-10.5312 Y18.693
Z0.1
G3 X-10.676 Y18.7142 Z0.0595 I-0.0724 J0.0106 F50.
X-10.5312 Y18.693 Z0.019 I0.0724 J-0.0106
X-10.676 Y18.7142 Z-0.0216 I-0.0724 J0.0106
X-10.5312 Y18.693 Z-0.0621 I0.0724 J-0.0106
X-10.676 Y18.7142 Z-0.1026 I-0.0724 J0.0106
X-10.6089 Y18.6306 Z-0.1238 I0.0724 J-0.0106
X-10.5305 Y18.7036 Z-0.145 I0.0053 J0.073
X-10.6768 I-0.0732 J0.
X-10.5307 Y18.6977 I0.0732 J0.
G1 X-10.5305 Y18.7036
G3 X-10.5277 Y18.808 I-0.0509 J0.0536 F60.
G1 X-10.6627
G3 X-10.708 Y18.7872 I-0.0118 J-0.0341
X-10.6901 Y18.7725 I0.0154 J0.0005
G1 X-10.6854 Y18.7733
X-10.6608 Y18.7774
G3 X-10.6496 Y18.7856 I-0.0025 J0.0152
X-10.6627 Y18.808 I-0.0137 J0.007 F50.
X-10.708 Y18.7907 I-0.0196 J-0.0167 F60.
G1 Y18.6445
G3 X-10.5536 Y18.5582 I0.1098 J0.0152
G1 X-10.4596 Y18.7687
G3 X-10.4611 Y18.8075 I-0.0151 J0.0189
X-10.4769 Y18.8001 I-0.0025 J-0.0152
G1 X-10.4831 Y18.7894
X-10.4867 Y18.7833
G3 X-10.4854 Y18.7659 I0.0133 J-0.0077
X-10.4596 Y18.7687 I0.012 J0.0096 F50.
G1 X-10.4508 Y18.7881 F60.
X-10.4506 Y18.7888
X-10.4481 Y18.7996
Y18.8
X-10.4484 Y18.8021
X-10.4486 Y18.8025
X-10.4494 Y18.8037
X-10.4499 Y18.8044
G3 X-10.5277 Y18.808 I-0.0456 J-0.1433
X-10.5375 Y18.8041 I0.0005 J-0.0154
G1 X-10.5525 Y18.7906
X-10.6891 Y18.6678
X-10.7029 Y18.6554 F50.
G3 X-10.708 Y18.6445 I0.0103 J-0.0115
G1 Y18.5626 F60.
G3 X-10.5929 Y18.4701 I0.1053 J0.0132
G1 X-10.5542 Y18.5596
G3 X-10.5562 Y18.5748 I-0.0142 J0.0059
X-10.6045 Y18.5692 I-0.0225 J-0.0173
X-10.6116 Y18.5368 I0.0717 J-0.0325
G1 Y18.5367
G3 X-10.6031 Y18.5012 I0.0787 J0.
X-10.5952 Y18.4887 I0.0703 J0.0355 F50.
G2 X-10.5932 Y18.4734 I-0.0122 J-0.0094
G1 X-10.6006 Y18.4571 F60.
G2 X-10.7095 Y18.4374 I-0.0632 J0.0387
G1 X-10.708 Y18.5626
G2 X-10.6999 Y18.5757 I0.0154 J-0.0005
X-10.6749 Y18.5704 I0.0093 J-0.0175
X-10.6875 Y18.4605 I-0.062 J-0.0485
X-10.6999 Y18.4524 I-0.0494 J0.0613 F50.
G3 X-10.708 Y18.4393 I0.0072 J-0.0136
G1 Y18.4173 F60.
X-10.7072 Y18.4113
X-10.7058 Y18.4055
X-10.7037 Y18.3999
X-10.7012 Y18.3944
X-10.6981 Y18.3893
X-10.6945 Y18.3845
X-10.6904 Y18.3801
X-10.6859 Y18.3761
X-10.681 Y18.3727
X-10.6758 Y18.3697
X-10.6703 Y18.3673
X-10.6646 Y18.3654
X-10.6587 Y18.3642
X-10.6527 Y18.3635
X-10.6467
X-10.6407 Y18.364
X-10.6006 Y18.4571
G3 X-10.6227 Y18.4762 I-0.0142 J0.0059
G1 X-10.6871 Y18.4379
X-10.7005 Y18.43 F50.
G3 X-10.708 Y18.4173 I0.0079 J-0.0132
G1 Y18.3575 F60.
G3 X-10.6645 Y18.3158 I0.0338 J-0.0083
X-10.6843 Y18.3665 I-0.0364 J0.015
X-10.693 Y18.3693 I-0.0166 J-0.0357 F50.
X-10.708 Y18.3575 I-0.0025 J-0.0122
G1 Y18.3049 F60.
X-10.7077 Y18.2989
X-10.7063 Y18.2931
X-10.7039 Y18.2876
X-10.7007 Y18.2825
X-10.6968 Y18.2779
X-10.6964 Y18.2776
X-10.6922 Y18.2754
X-10.6874 Y18.2753
X-10.6831 Y18.2774
X-10.6802 Y18.2811
G3 X-10.6795 Y18.3093 I-0.0364 J0.015
X-10.6854 Y18.3167 I-0.0138 J-0.0049
X-10.708 Y18.3049 I-0.0079 J-0.0123 F50.
G1 Y18.2706 F60.
X-10.7077 Y18.2646
X-10.7075 Y18.2639
X-10.7051 Y18.2601
X-10.7014 Y18.2576
X-10.6969 Y18.257
X-10.6926 Y18.2583
X-10.6893 Y18.2613
G3 X-10.6907 Y18.2686 I-0.0044 J0.0029 F50.
G1 X-10.6997 Y18.2748
G3 X-10.708 Y18.2706 I-0.003 J-0.0044
G1 Y18.2658 F60.
X-10.7058 Y18.2546
X-10.7055 Y18.2539
X-10.7046 Y18.2526
X-10.7042 Y18.2522
X-10.7025 Y18.2511
X-10.7006 Y18.2507
X-10.7 Y18.2506
X-10.6981 Y18.2509
X-10.6975 Y18.2511
X-10.6962 Y18.2519
X-10.6954 Y18.2526
X-10.6891 Y18.2616
X-10.6412 Y18.3673
G3 X-10.6429 Y18.3821 I-0.0142 J0.0059
G1 X-10.6447 Y18.3836 Z-0.1448
X-10.6464 Y18.3852 Z-0.1443
X-10.648 Y18.3866 Z-0.1434
X-10.6501 Y18.3872 Z-0.142
X-10.6519 Y18.3877 Z-0.1404
X-10.6534 Y18.3882 Z-0.1385
X-10.6546 Y18.3885 Z-0.1364
X-10.6555 Z-0.1343
X-10.656 Z-0.132
X-10.6562 Z-0.1296
G0 Z0.4
X-9.6841 Y15.9983
Z-0.1142
G1 Z-0.1296 F50.
X-9.6842 Y15.998 Z-0.1326
X-9.6844 Y15.9972 Z-0.1355
X-9.6848 Y15.9958 Z-0.1382
X-9.6853 Y15.9939 Z-0.1405
X-9.6858 Y15.9917 Z-0.1424
X-9.6865 Y15.9891 Z-0.1438
X-9.6872 Y15.9863 Z-0.1447
X-9.688 Y15.9834 Z-0.145
G3 X-9.7 Y15.8995 I0.3809 J-0.0976
X-9.6212 Y15.7504 I0.1452 J-0.0187 F60.
X-9.3646 Y15.5394 I0.998 J0.9522
X-9.1927 Y15.8735 I0.0565 J0.1822
X-9.471 Y16.1185 I-0.9023 J-0.7442
X-9.5769 Y16.3314 I-0.4506 J-0.0915
X-9.8594 Y16.2838 I-0.1222 J-0.1371
G2 X-9.9114 Y16.1447 I-0.9187 J0.2646
G3 X-10.2709 Y15.7879 I0.6935 J-1.0583
X-9.9344 Y15.6193 I0.1769 J-0.0671
G2 X-9.7963 Y15.7278 I1.0368 J-1.1773
X-9.6209 Y15.6171 I-0.2594 J-0.6052
X-9.4887 Y15.5196 I-0.0826 J-0.2505
G3 X-9.352 Y15.442 I0.1652 J0.1317
X-9.3449 Y15.4708 I-0.0005 J0.0154
G1 X-9.468 Y15.5412
X-9.4711 Y15.5426
X-9.4743 Y15.5432
X-9.4776 Y15.5431
G3 X-9.4887 Y15.5196 I0.002 J-0.0153 F50.
X-9.4488 Y15.4436 I0.2828 J0.0998 F60.
G1 X-9.4417 Y15.4424
X-9.4182 Y15.442
X-9.3008
G3 X-9.0564 Y15.8468 I0.0018 J0.2751
G1 X-9.2069 Y16.0258
G3 X-9.3851 Y16.1959 I-7.8323 J-8.0294
X-9.4243 Y16.2831 I-0.2973 J-0.0811
X-9.4499 Y16.2787 I-0.0114 J-0.0103
G1 X-9.4511 Y16.276 Z-0.1447
X-9.4522 Y16.2733 Z-0.1438
X-9.4532 Y16.2709 Z-0.1424
X-9.4541 Y16.2687 Z-0.1405
X-9.4549 Y16.2669 Z-0.1382
X-9.4554 Y16.2656 Z-0.1355
X-9.4558 Y16.2648 Z-0.1326
X-9.4559 Y16.2645 Z-0.1296
G0 Z0.4
X-9.1919 Y15.9823
Z-0.1142
G1 Z-0.1296 F50.
Y15.9826 Z-0.1326
X-9.1921 Y15.9835 Z-0.1355
X-9.1923 Y15.9849 Z-0.1382
X-9.1926 Y15.9868 Z-0.1405
X-9.193 Y15.9891 Z-0.1424
X-9.1934 Y15.9917 Z-0.1438
X-9.1939 Y15.9945 Z-0.1447
X-9.1944 Y15.9975 Z-0.145
G3 X-9.2069 Y16.0258 I-0.0615 J-0.0102
G1 X-9.5121 Y16.3871 F60.
X-9.5207 Y16.3961
X-9.5297 Y16.4048
X-9.5391 Y16.4129
X-9.5489 Y16.4206
X-9.5591 Y16.4279
X-9.5696 Y16.4346
X-9.5804 Y16.4408
X-9.5915 Y16.4465
X-9.6028 Y16.4516
X-9.6144 Y16.4562
X-9.6262 Y16.4602
X-9.6382 Y16.4636
X-9.6503 Y16.4665
X-9.6626 Y16.4688
X-9.6749 Y16.4704
X-9.6873 Y16.4715
X-9.6998 Y16.472
X-9.7122 Y16.4718
X-9.7247 Y16.4711
X-9.737 Y16.4698
X-9.7494 Y16.4678
X-9.7616 Y16.4653
X-9.7736 Y16.4622
X-9.7855 Y16.4585
X-9.7972 Y16.4542
X-9.8087 Y16.4494
X-9.8199 Y16.444
X-9.8309 Y16.4381
X-9.8416 Y16.4317
X-9.8519 Y16.4247
X-9.8619 Y16.4173
X-9.9244 Y16.3439
G2 X-10.146 Y16.0816 I-0.5125 J0.2082
G0 Z0.4
X-9.884 Y16.366
Z-0.1142
G1 Z-0.1296 F50.
X-9.8843 Y16.3659 Z-0.1326
X-9.8851 Y16.3656 Z-0.1355
X-9.8865 Y16.3651 Z-0.1382
X-9.8883 Y16.3645 Z-0.1405
X-9.8905 Y16.3637 Z-0.1424
X-9.893 Y16.3629 Z-0.1438
X-9.8957 Y16.3619 Z-0.1447
X-9.8986 Y16.3609 Z-0.145
G3 X-9.9244 Y16.3439 I0.0204 J-0.0589
G1 X-10.3203 Y15.8752 F60.
G3 X-10.1416 Y15.4427 I0.2172 J-0.1635
G1 X-10.0757 Y15.442
G3 X-9.9224 Y15.5 I-0.0067 J0.2494
X-9.9415 Y15.5209 I-0.0141 J0.0063
G1 X-10.0803 Y15.4719
G3 X-10.0889 Y15.4644 I0.0051 J-0.0145
X-10.0757 Y15.442 I0.0137 J-0.007 F50.
X-9.9495 Y15.4445 I0.0578 J0.2752 F60.
G2 X-9.6203 Y15.6191 I0.2521 J-0.0777
G1 X-9.6177 Y15.6184
X-9.615 Y15.6182
X-9.6122 Y15.6186
X-9.6095 Y15.6196
X-9.6071 Y15.6211
X-9.605 Y15.623
X-9.6033 Y15.6254
X-9.602 Y15.6282
X-9.6014 Y15.6311
X-9.6013 Y15.6342
G3 X-9.6023 Y15.6377 I-0.0152 J-0.0023
X-9.7126 Y15.7238 I-0.1296 J-0.0523
X-10.105 Y15.4602 I-0.049 J-0.3509
G2 X-10.1121 Y15.4507 I-0.0149 J0.0038
X-10.1417 Y15.442 I-0.0318 J0.0536 F50.
G1 X-10.287 F60.
G2 X-10.4486 Y15.6027 I0.0466 J0.2085
G3 X-10.4331 Y15.7406 I-0.5083 J0.1271
G1 X-10.4291 Y15.7465
X-10.3203 Y15.8752
G2 X-10.2935 Y15.8657 I0.0114 J-0.0103
G1 X-10.2725 Y15.4646
X-10.2722 Y15.4582 F50.
G2 X-10.287 Y15.442 I-0.0154 J-0.0008
G1 X-10.3939 F60.
G2 X-10.5075 Y15.5197 I0.0038 J0.1275
G3 X-10.449 Y15.6028 I-0.1238 J0.1493
G1 X-10.4475 Y15.6053
X-10.4455 Y15.6074
X-10.4432 Y15.6091
X-10.4406 Y15.6104
X-10.4379 Y15.6111
X-10.435 Y15.6114
X-10.4322 Y15.6111
X-10.4295 Y15.6103
X-10.4269 Y15.6091
X-10.4247 Y15.6074
X-10.4228 Y15.6053
G2 X-10.4202 Y15.6006 I-0.0121 J-0.0095
X-10.4229 Y15.5678 I-0.04 J-0.0133
X-10.4745 Y15.5277 I-0.0698 J0.0365
X-10.4932 Y15.5256 I-0.0181 J0.0766 F50.
G3 X-10.5041 Y15.5212 I-0.0001 J-0.0154
G1 X-10.5126 Y15.5122 F60.
X-10.5163 Y15.5082
G3 X-10.5061 Y15.4387 I0.0325 J-0.0308
G1 X-10.3939 Y15.442
G0 Z-0.1142
X-9.8772 Y16.3741
G1 Z-0.1296 F50.
X-9.8771 Y16.3744 Z-0.1326
X-9.877 Y16.3752 Z-0.1355
X-9.8767 Y16.3766 Z-0.1382
X-9.8764 Y16.3785 Z-0.1405
X-9.876 Y16.3808 Z-0.1424
X-9.8756 Y16.3835 Z-0.1438
X-9.8751 Y16.3863 Z-0.1447
X-9.8746 Y16.3893 Z-0.145
G2 X-9.8621 Y16.4176 I0.0615 J-0.0102
G1 X-9.7849 Y16.5089 F60.
G2 X-9.6528 Y16.5554 I0.1087 J-0.0979
G1 X-9.5121 Y16.3871
G2 X-9.531 Y16.3638 I-0.0121 J-0.0095
G1 X-9.7765 Y16.4841
X-9.7796 Y16.4856 F50.
G2 X-9.7849 Y16.5089 I0.0068 J0.0138
X-9.7031 Y16.6029 I0.3034 J-0.1817 F60.
G1 X-9.7016 Y16.6034
X-9.701 Y16.6036
G2 X-9.653 Y16.5539 I-0.0111 J-0.0587
G0 Z0.4
X-9.0963 Y15.8692
Z-0.1142
G1 Z-0.1296 F50.
X-9.096 Y15.8691 Z-0.1326
X-9.0952 Y15.8688 Z-0.1355
X-9.0938 Y15.8683 Z-0.1382
X-9.092 Y15.8677 Z-0.1405
X-9.0898 Y15.8669 Z-0.1424
X-9.0873 Y15.8661 Z-0.1438
X-9.0846 Y15.8651 Z-0.1447
X-9.0817 Y15.8641 Z-0.145
G2 X-9.0559 Y15.8471 I-0.0204 J-0.0589
X-8.9647 Y15.7369 I-0.3048 J-0.3452 F60.
G3 X-8.9643 Y15.6528 I0.5296 J-0.039
G2 X-9.0558 Y15.442 I-0.2347 J-0.0233
G1 X-9.3008
G2 X-9.3082 Y15.4706 I0.0005 J0.0154
G1 X-8.9888 Y15.6616
X-8.9872 Y15.6625 F50.
G2 X-8.9643 Y15.6528 I0.0079 J-0.0132
G3 X-8.9284 Y15.5592 I0.2301 J0.0345 F60.
G2 X-8.9427 Y15.4405 I-0.1093 J-0.047
G1 X-9.0558 Y15.442
G2 X-9.0688 Y15.4501 I0.0005 J0.0154
X-9.055 Y15.4868 I0.023 J0.0123
X-8.966 Y15.4625 I0.0277 J-0.0737
X-8.9578 Y15.4501 I-0.0613 J-0.0494 F50.
G3 X-8.9448 Y15.442 I0.0136 J0.0072
G1 X-8.918 F60.
G3 X-8.8774 Y15.4645 I0.0031 J0.0423
X-8.8968 Y15.4788 I-0.0154 J-0.0005
G1 X-8.8999 Y15.478
X-8.9214 Y15.4723
G3 X-8.9312 Y15.4644 I0.004 J-0.0149
X-8.918 Y15.442 I0.0137 J-0.007 F50.
X-8.8874 Y15.5122 I0.0077 J0.0384 F60.
G1 X-8.9096 Y15.5356
X-8.9251 Y15.5536
X-8.9286 Y15.559
G3 X-8.9419 Y15.5657 I-0.0127 J-0.0087
G1 X-8.9442 Y15.5651 Z-0.1448
X-8.9464 Y15.5645 Z-0.1443
X-8.9485 Y15.5639 Z-0.1434
X-8.9501 Y15.5625 Z-0.142
X-8.9515 Y15.5613 Z-0.1404
X-8.9527 Y15.5602 Z-0.1385
X-8.9537 Y15.5594 Z-0.1364
X-8.9542 Y15.5587 Z-0.1342
X-8.9545 Y15.5582 Z-0.1319
X-8.9546 Y15.5581 Z-0.1296
G0 Z0.4
X-9.8485 Y18.4736
Z-0.1142
G1 Z-0.1296 F50.
X-9.8486 Y18.4733 Z-0.1326
X-9.8488 Y18.4724 Z-0.1355
X-9.8491 Y18.471 Z-0.1382
X-9.8496 Y18.4692 Z-0.1405
X-9.8502 Y18.4669 Z-0.1424
X-9.8509 Y18.4644 Z-0.1438
X-9.8516 Y18.4616 Z-0.1447
X-9.8523 Y18.4586 Z-0.145
G3 X-9.8644 Y18.3748 I0.3809 J-0.0976
G1 X-9.8575 Y18.3658 F60.
X-9.8501 Y18.3572
X-9.8424 Y18.349
X-9.8341 Y18.3413
X-9.8255 Y18.3339
X-9.8165 Y18.3271
X-9.8072 Y18.3207
X-9.7975 Y18.3148
X-9.7876 Y18.3095
X-9.7773 Y18.3047
X-9.7669 Y18.3004
X-9.7562 Y18.2967
X-9.7453 Y18.2936
X-9.7343 Y18.291
X-9.7232 Y18.289
X-9.712 Y18.2876
X-9.7007 Y18.2869
X-9.6894 Y18.2867
X-9.6781 Y18.2871
X-9.6668 Y18.2881
X-9.6556 Y18.2897
X-9.6445 Y18.2919
X-9.6336 Y18.2947
X-9.6228 Y18.2981
G2 X-9.3432 Y18.1826 I-0.6566 J-1.9867
G1 X-9.3323 Y18.181
X-9.3214 Y18.1801
X-9.3105 Y18.1797
X-9.2995 Y18.18
X-9.2886 Y18.181
X-9.2778 Y18.1825
X-9.2671 Y18.1847
X-9.2565 Y18.1875
X-9.246 Y18.1908
X-9.2358 Y18.1948
X-9.2259 Y18.1993
X-9.2162 Y18.2045
X-9.2068 Y18.2101
X-9.1978 Y18.2163
X-9.1891 Y18.223
X-9.1808 Y18.2301
X-9.173 Y18.2378
X-9.1656 Y18.2459
X-9.1586 Y18.2543
X-9.1522 Y18.2632
X-9.1463 Y18.2724
X-9.1409 Y18.282
X-9.1361 Y18.2918
X-9.1319 Y18.3019
X-9.1282 Y18.3122
X-9.1251 Y18.3227
X-9.1227 Y18.3334
X-9.1208 Y18.3442
X-9.1196 Y18.3551
X-9.119 Y18.366
Y18.377
X-9.1197 Y18.3879
X-9.1209 Y18.3988
X-9.1228 Y18.4095
X-9.1254 Y18.4202
X-9.1285 Y18.4307
X-9.1322 Y18.441
X-9.1365 Y18.4511
X-9.1413 Y18.4609
X-9.1468 Y18.4704
X-9.1527 Y18.4796
X-9.1592 Y18.4884
X-9.1662 Y18.4969
X-9.1736 Y18.5049
X-9.1815 Y18.5125
X-9.1898 Y18.5196
X-9.1985 Y18.5263
X-9.2076 Y18.5324
X-9.217 Y18.538
X-9.2267 Y18.5431
X-9.2367 Y18.5476
X-9.2469 Y18.5515
G3 X-9.6788 Y18.6817 I-0.3438 J-0.3592
X-10.0357 Y18.6088 I-0.0883 J-0.4779
X-10.2352 Y18.3604 I0.0894 J-0.2762
X-9.9211 Y18.227 I0.1916 J0.0146
G2 X-9.5229 Y18.1607 I-0.3391 J-3.2679
G3 X-9.4418 Y18.1133 I0.1085 J0.0923
G1 X-9.2409
G3 X-9.0268 Y18.3463 I-0.0288 J0.2413
G1 X-9.0882 Y18.511
X-9.0978 Y18.5267
X-9.1079 Y18.542
X-9.1185 Y18.557
X-9.1296 Y18.5717
X-9.1411 Y18.5859
X-9.1532 Y18.5998
X-9.1657 Y18.6132
X-9.1786 Y18.6263
X-9.1919 Y18.6389
X-9.2057 Y18.651
X-9.2199 Y18.6627
X-9.2344 Y18.6739
X-9.2494 Y18.6846
X-9.2646 Y18.6948
X-9.2802 Y18.7045
X-9.2961 Y18.7136
X-9.3124 Y18.7222
X-9.3288 Y18.7303
X-9.3456 Y18.7378
X-9.3626 Y18.7448
X-9.3798 Y18.7512
X-9.3972 Y18.757
X-9.4148 Y18.7622
X-9.4326 Y18.7668
X-9.4505 Y18.7709
X-9.4685 Y18.7743
X-9.4867 Y18.7771
X-9.5049 Y18.7794
X-9.5232 Y18.781
X-9.5415 Y18.782
X-9.5599 Y18.7824
X-9.5782 Y18.7822
X-9.5966 Y18.7813
X-9.6149 Y18.7799
X-9.6331 Y18.7779
X-9.6513 Y18.7752
X-9.6693 Y18.7719
G3 X-10.228 Y18.5915 I-0.0941 J-0.6638
G1 X-10.3068 Y18.4173
X-10.3103 Y18.4057
X-10.3132 Y18.394
X-10.3154 Y18.3821
X-10.3171 Y18.3702
X-10.3182 Y18.3581
X-10.3187 Y18.346
X-10.3186 Y18.334
X-10.3179 Y18.3219
X-10.3165 Y18.3099
X-10.3146 Y18.298
X-10.3121 Y18.2862
X-10.3091 Y18.2745
X-10.3054 Y18.263
X-10.3012 Y18.2517
X-10.2964 Y18.2406
X-10.291 Y18.2297
X-10.2852 Y18.2192
X-10.2788 Y18.2089
X-10.2719 Y18.199
X-10.2645 Y18.1894
X-10.2567 Y18.1802
X-10.2484 Y18.1715
X-10.2397 Y18.1631
X-10.2306 Y18.1552
X-10.2211 Y18.1477
X-10.2112 Y18.1407
X-10.201 Y18.1343
X-10.1905 Y18.1283
X-10.1797 Y18.1229
X-10.1687 Y18.118
X-10.1574 Y18.1137
X-9.9818 Y18.1133
G2 X-9.8528 I0.0645 J-0.4315
G3 X-9.8533 Y18.1441 I-0.0005 J0.0154
G1 X-9.9812
G3 X-9.995 Y18.1357 I0. J-0.0154
X-9.9818 Y18.1133 I0.0137 J-0.007 F50.
G1 X-9.4418 F60.
G3 X-9.4323 Y18.1166 I0. J0.0154
G1 X-9.4153 Y18.1283
X-9.0638 Y18.3717
G2 X-9.0454 Y18.371 I0.0088 J-0.0127
X-9.0268 Y18.3463 I-0.0391 J-0.0485 F50.
G1 X-8.9956 Y18.2624 F60.
G2 X-9.0422 Y18.1121 I-0.1448 J-0.0374
G1 X-9.2409 Y18.1133
G2 X-9.2479 Y18.1421 I0.0005 J0.0154
G1 X-9.0216 Y18.2676
X-9.0173 Y18.27 F50.
G2 X-8.9956 Y18.2624 I0.0075 J-0.0135
G1 X-8.959 Y18.1643 F60.
G2 X-8.9648 Y18.1133 I-0.0214 J-0.0234
G1 X-9.0432
G2 X-9.0488 Y18.1428 I0.0005 J0.0154
G1 X-8.9853 Y18.17
X-8.9793 Y18.1726 F50.
G2 X-8.959 Y18.1643 I0.0061 J-0.0142
X-8.9473 Y18.1166 I-0.0134 J-0.0286 F60.
X-8.9648 Y18.1133 I-0.0127 J0.0189
X-8.9748 Y18.1399 I0.0005 J0.0154
G1 X-8.9692 Y18.1349
X-8.974 Y18.1338
G2 X-9.0969 Y18.4821 I0.1315 J0.2422
G1 X-9.0891 Y18.4992 F50.
G3 X-9.0882 Y18.511 I-0.0138 J0.0069
G1 X-9.1581 Y18.6984 F60.
G3 X-9.4068 Y18.858 I-0.3115 J-0.2119
X-9.4146 Y18.8296 I0.0005 J-0.0154
G1 X-9.181 Y18.6806
X-9.1779 Y18.679
X-9.1745 Y18.6783
G3 X-9.1581 Y18.6984 I0.0018 J0.0153 F50.
G1 X-9.2029 Y18.8186 F60.
G3 X-9.2597 Y18.858 I-0.0879 J-0.066
G1 X-9.8879
G3 X-10.1475 Y18.7694 I0.0375 J-0.5345
X-10.1325 Y18.7481 I0.0142 J-0.0059
G1 X-10.1295 Y18.7483 Z-0.1447
X-10.1267 Y18.7484 Z-0.1438
X-10.124 Y18.7485 Z-0.1424
X-10.1217 Y18.7486 Z-0.1405
X-10.1198 Y18.7487 Z-0.1382
X-10.1183 Y18.7488 Z-0.1355
X-10.1175 Z-0.1326
X-10.1172 Z-0.1296
G0 Z0.4
X-10.2306 Y18.5455
Z-0.1142
G1 Z-0.1296 F50.
Y18.5458 Z-0.1326
X-10.2307 Y18.5467 Z-0.1355
X-10.2309 Y18.5481 Z-0.1382
X-10.2311 Y18.55 Z-0.1405
X-10.2314 Y18.5523 Z-0.1424
X-10.2317 Y18.555 Z-0.1438
X-10.232 Y18.5579 Z-0.1447
X-10.2323 Y18.5608 Z-0.145
G2 X-10.228 Y18.5915 I0.0619 J0.0069
G1 X-10.1276 Y18.8134 F60.
G2 X-10.0581 Y18.858 I0.1303 J-0.1265
G1 X-9.8879
G2 X-9.8748 Y18.8499 I-0.0005 J-0.0154
X-9.8665 Y18.7818 I-0.084 J-0.0448
X-10.2793 Y18.427 I-0.4581 J0.1154
G1 X-10.294 Y18.4258 F50.
G3 X-10.3068 Y18.4173 I0.001 J-0.0154
G1 X-10.3657 Y18.2873 F60.
X-10.3682 Y18.2774
X-10.3702 Y18.2675
X-10.3715 Y18.2574
X-10.3722 Y18.2473
X-10.3724 Y18.2371
X-10.3719 Y18.227
X-10.3708 Y18.2169
X-10.3691 Y18.2069
X-10.3668 Y18.197
X-10.3639 Y18.1873
X-10.3605 Y18.1778
X-10.3565 Y18.1684
X-10.3519 Y18.1594
X-10.3468 Y18.1506
X-10.3412 Y18.1422
X-10.3351 Y18.1341
X-10.3285 Y18.1263
X-10.3214 Y18.119
X-10.314 Y18.1122
G0 X-10.313 Y18.1133 Z0.4
X-10.1146 Y18.1298
Z-0.1142
G1 Z-0.1296 F50.
X-10.1149 Y18.1297 Z-0.1326
X-10.1156 Y18.1292 Z-0.1355
X-10.1168 Y18.1285 Z-0.1382
X-10.1185 Y18.1275 Z-0.1405
X-10.1205 Y18.1263 Z-0.1424
X-10.1228 Y18.125 Z-0.1438
X-10.1253 Y18.1235 Z-0.1447
X-10.1279 Y18.122 Z-0.145
G2 X-10.1575 Y18.1133 I-0.0318 J0.0536
G1 X-10.3575 F60.
G2 X-10.4238 Y18.1588 I-0.001 J0.0697
G1 X-10.3657 Y18.2873
G2 X-10.3365 Y18.2798 I0.0138 J-0.0068
G1 X-10.3423 Y18.1359
X-10.3426 Y18.128 F50.
G2 X-10.3575 Y18.1133 I-0.0154 J0.0006
X-10.436 Y18.1167 I-0.0362 J0.0711 F60.
X-10.4238 Y18.1588 I0.026 J0.0153
X-10.4228 Y18.1606 I0.0138 J-0.0068
G1 X-10.4211 Y18.1622 Z-0.1448
X-10.4194 Y18.1638 Z-0.1443
X-10.4178 Y18.1653 Z-0.1434
X-10.4158 Y18.1659 Z-0.142
X-10.414 Y18.1664 Z-0.1404
X-10.4125 Y18.1669 Z-0.1385
X-10.4112 Y18.1673 Z-0.1364
X-10.4105 Z-0.1346
X-10.41 Z-0.1329
X-10.4098 Z-0.1312
X-10.4097 Z-0.1296
G0 Z0.4
X-9.6968 Y17.5054
Z-0.1142
G1 Z-0.1296 F50.
X-9.697 Y17.5053 Z-0.1326
X-9.6978 Y17.5049 Z-0.1355
X-9.6991 Y17.5043 Z-0.1382
X-9.7008 Y17.5034 Z-0.1405
X-9.7029 Y17.5024 Z-0.1424
X-9.7053 Y17.5013 Z-0.1438
X-9.7079 Y17.5 Z-0.1447
X-9.7106 Y17.4987 Z-0.145
G3 X-9.7824 Y17.4538 I0.1713 J-0.3539
X-9.6618 Y17.3403 I0.0792 J-0.0367 F60.
X-9.4624 Y17.5715 I-0.0005 J0.202
X-9.7196 Y17.7361 I-0.1999 J-0.0292
X-9.9048 Y17.4366 I-0.0335 J-0.1863
G1 X-9.9023 Y17.4247
X-9.8992 Y17.4129
X-9.8955 Y17.4013
X-9.8912 Y17.3898
X-9.8864 Y17.3786
X-9.881 Y17.3677
X-9.8751 Y17.357
X-9.8687 Y17.3467
X-9.8617 Y17.3366
X-9.8543 Y17.327
X-9.8464 Y17.3177
X-9.838 Y17.3088
X-9.8292 Y17.3004
X-9.82 Y17.2924
X-9.8104 Y17.2849
X-9.8004 Y17.2778
X-9.7902 Y17.2713
X-9.7795 Y17.2653
X-9.7687 Y17.2598
X-9.7575 Y17.2549
X-9.7461 Y17.2505
X-9.7345 Y17.2467
X-9.7228 Y17.2435
X-9.7108 Y17.2409
X-9.6988 Y17.2389
X-9.6867 Y17.2375
X-9.6745 Y17.2366
X-9.6624 Y17.2364
X-9.6502 Y17.2368
X-9.638 Y17.2379
X-9.6259 Y17.2395
X-9.6139 Y17.2417
X-9.6021 Y17.2445
X-9.5904 Y17.2479
X-9.5788 Y17.2519
X-9.5675 Y17.2564
X-9.5565 Y17.2615
X-9.5457 Y17.2672
X-9.5351 Y17.2734
X-9.525 Y17.2801
X-9.5151 Y17.2873
X-9.5056 Y17.295
X-9.4966 Y17.3031
X-9.4879 Y17.3117
X-9.4797 Y17.3207
X-9.4719 Y17.3301
X-9.4647 Y17.3399
X-9.4352 Y17.363
G3 X-9.6176 Y17.8288 I-0.2092 J0.1867
G1 X-9.7704 Y17.8293
G3 X-10.002 Y17.4102 I0.0157 J-0.2822
G1 X-9.8409 Y17.2164
G3 X-9.6112 Y17.1547 I0.1667 J0.1623
X-9.6189 Y17.1789 I-0.0121 J0.0095
G1 X-9.6198 Y17.1792
X-9.8244 Y17.2406
X-9.827 Y17.2412
X-9.8296
X-9.8323 Y17.2409
G3 X-9.8409 Y17.2164 I0.0035 J-0.015 F50.
G1 X-9.7471 Y17.1053 F60.
G3 X-9.6808 Y17.0728 I0.0503 J0.0187
X-9.6832 Y17.0952 I-0.0116 J0.0101
G1 X-9.6877 Y17.0986
X-9.7257 Y17.1271
G3 X-9.7385 Y17.1298 I-0.0093 J-0.0123
X-9.7471 Y17.1053 I0.0035 J-0.015 F50.
X-9.6993 Y17.0555 I0.056 J0.0058 F60.
X-9.6765 Y17.0774 I-0.0117 J0.0349
G1 X-9.4585 Y17.3355
G3 X-9.482 Y17.3554 I-0.0118 J0.0099
X-9.4585 Y17.3355 I0.0118 J-0.0099
X-9.4554 Y17.3413 I-0.0118 J0.0099
G1 X-9.4512 Y17.3564
G3 X-9.4809 Y17.3646 I-0.0148 J0.0041
X-9.461 Y17.346 I0.0148 J-0.0041
X-9.4352 Y17.363 I-0.0204 J0.0589 F50.
G1 X-9.3164 Y17.5036 F60.
G3 X-9.3981 Y17.8293 I-0.2336 J0.1145
G1 X-9.6175
G3 X-9.6306 Y17.8211 I0.0005 J-0.0154
X-9.601 Y17.7462 I0.0467 J-0.0249
X-9.4187 Y17.8084 I0.0509 J0.149
X-9.4112 Y17.8211 I-0.1314 J0.0868 F50.
G2 X-9.3981 Y17.8293 I0.0136 J-0.0072
G1 X-9.3407 F60.
G2 X-9.1952 Y17.6471 I-0.0412 J-0.1821
G1 X-9.3164 Y17.5036
G2 X-9.3311 Y17.4989 I-0.0114 J0.0103
X-9.3528 Y17.5254 I0.0058 J0.0269
X-9.2245 Y17.6445 I0.1181 J0.0014
X-9.2099 Y17.6423 I-0.0102 J-0.1177 F50.
G3 X-9.1952 Y17.6471 I0.0032 J0.0151
G1 X-9.1689 Y17.6782 F60.
G3 X-9.1817 Y17.8306 I-0.0997 J0.0684
G1 X-9.1847 Y17.8303
X-9.1876 Y17.8295
X-9.1903 Y17.8282
X-9.1927 Y17.8265
X-9.1947 Y17.8243
X-9.1963 Y17.8219
X-9.1973 Y17.8192
X-9.1979 Y17.8164
X-9.198 Y17.8136
X-9.1978 Y17.8066
X-9.1957 Y17.6883
X-9.1954 Y17.6854
X-9.1945 Y17.6826
G3 X-9.1689 Y17.6782 I0.0142 J0.006 F50.
G1 X-9.113 Y17.7444 F60.
G3 X-9.1024 Y17.8293 I-0.0389 J0.0479
X-9.1163 Y17.8193 I0.0005 J-0.0154
G1 X-9.1209 Y17.8073
G3 X-9.1386 Y17.7488 I0.0395 J-0.0439
X-9.113 Y17.7444 I0.0142 J0.006 F50.
G1 X-9.0622 Y17.8045 F60.
X-9.0613 Y17.8056
X-9.0601 Y17.807
X-9.0576 Y17.8102
X-9.0571 Y17.811
G3 X-9.057 Y17.8156 I-0.0047 J0.0024
X-9.0661 Y17.8166 I-0.0049 J-0.0021 F50.
G1 X-9.0683 Y17.8137
G3 X-9.0601 Y17.807 I0.0043 J-0.0032
G1 X-9.058 Y17.8095 F60.
X-9.0565 Y17.8122
X-9.0558 Y17.8134
X-9.0549 Y17.8149
X-9.0524 Y17.82
G3 X-9.0586 Y17.8273 I-0.0066 J0.0007
X-9.0645 Y17.8245 I-0.0005 J-0.0066 F50.
G1 X-9.0661 Y17.8222
G3 X-9.0643 Y17.8128 I0.0055 J-0.0038
X-9.0549 Y17.8149 I0.0036 J0.0056
G1 X-9.0526 Y17.8192 F60.
X-9.0525 Y17.8197
X-9.0522 Y17.8215
X-9.0523 Y17.822
X-9.0527 Y17.8237
X-9.0529 Y17.8241
X-9.0542 Y17.8259
G3 X-9.0675 Y17.8293 I-0.0114 J-0.0171
G1 X-9.3407
G0 Z0.4
X-9.7275 Y17.8127
Z-0.1142
G1 Z-0.1296 F50.
X-9.7278 Y17.8128 Z-0.1326
X-9.7285 Y17.8133 Z-0.1355
X-9.7298 Y17.814 Z-0.1382
X-9.7314 Y17.815 Z-0.1405
X-9.7334 Y17.8162 Z-0.1424
X-9.7357 Y17.8175 Z-0.1438
X-9.7382 Y17.819 Z-0.1447
X-9.7408 Y17.8205 Z-0.145
G3 X-9.7704 Y17.8293 I-0.0318 J-0.0536
G1 X-9.9348 F60.
G3 X-10.1278 Y17.5559 I0.0658 J-0.2512
G1 X-10.0038 Y17.4092
G3 X-9.9892 Y17.4045 I0.0114 J0.0103
X-9.9706 Y17.4256 I-0.005 J0.0231
X-10.0985 Y17.5534 I-0.1177 J0.0101
X-10.1131 Y17.5512 I0.0102 J-0.1177 F50.
G2 X-10.1278 Y17.5559 I-0.0032 J0.0151
G1 X-10.1627 Y17.5973 F60.
G2 X-10.1207 Y17.8293 I0.1616 J0.0905
G1 X-9.9348
G2 X-9.9218 Y17.8211 I-0.0005 J-0.0154
X-9.9291 Y17.7849 I-0.0256 J-0.0137
X-10.0999 Y17.8085 I-0.0743 J0.0918
X-10.1077 Y17.8211 I0.0965 J0.0682 F50.
G3 X-10.1207 Y17.8293 I-0.0136 J-0.0072
G1 X-10.1649 F60.
G3 X-10.2692 Y17.7212 I0.0166 J-0.1205
G1 X-10.267 Y17.719
X-10.2645 Y17.7173
X-10.2617 Y17.7161
X-10.2588 Y17.7154
X-10.2558 Y17.7153
X-10.2529 Y17.7157
X-10.2501 Y17.7167
X-10.2476 Y17.7181
X-10.2454 Y17.72
X-10.2405 Y17.7245
X-10.155 Y17.8025
X-10.1532 Y17.8045
X-10.1517 Y17.8069
G3 X-10.1649 Y17.8293 I-0.0137 J0.007 F50.
G1 X-10.253 F60.
G3 X-10.3194 Y17.7827 I-0.0075 J-0.0599
X-10.3025 Y17.7787 I0.0114 J0.0103
G1 X-10.2908 Y17.7831
X-10.248 Y17.7995
G3 X-10.2398 Y17.8069 I-0.0055 J0.0144
X-10.253 Y17.8293 I-0.0137 J0.007 F50.
G1 X-10.3281 F60.
X-10.3297
X-10.3311
X-10.3331 Y17.8291
X-10.3341 Y17.829
G3 X-10.3432 Y17.8165 I0.0026 J-0.0115
X-10.3261 Y17.8071 I0.0117 J0.001
X-10.3311 Y17.8293 I-0.0054 J0.0104 F50.
G1 X-10.3325 F60.
X-10.3333 Y17.8292
X-10.336 Y17.8286
X-10.3374 Y17.8284
X-10.3391 Y17.828
X-10.343 Y17.8271
X-10.344 Y17.8268
X-10.3449 Y17.8264
X-10.3458 Y17.8259
X-10.3445 Y17.8228
G3 X-10.319 Y17.8219 I0.0154 J0.0772
G1 X-10.3164 Y17.8223 F50.
X-10.316 Y17.8258
G3 X-10.3391 Y17.828 I-0.0159 J-0.0439
G1 X-10.3435 Y17.8272 F60.
X-10.344 Y17.8271
X-10.3458 Y17.8259
X-10.3471 Y17.8241
X-10.3473 Y17.8237
X-10.3477 Y17.822
X-10.3478 Y17.8215
X-10.3475 Y17.8197
X-10.3474 Y17.8192
X-10.342 Y17.8095
X-10.1627 Y17.5973
G3 X-10.1487 Y17.5925 I0.0114 J0.0103
G1 X-10.1465 Y17.5934 Z-0.1448
X-10.1444 Y17.5943 Z-0.1443
X-10.1423 Y17.5951 Z-0.1434
X-10.1409 Y17.5967 Z-0.142
X-10.1397 Y17.5981 Z-0.1404
X-10.1386 Y17.5993 Z-0.1385
X-10.1378 Y17.6003 Z-0.1364
X-10.1374 Y17.6011 Z-0.1342
X-10.1372 Y17.6015 Z-0.1319
X-10.1371 Y17.6017 Z-0.1296
G0 Z0.4
X-9.8316 Y20.281
Z0.1
G3 X-9.8943 Y20.3641 Z0.0796 I-0.0724 J0.0106 F50.
X-9.9766 Y20.3004 Z0.0592 I-0.0097 J-0.0725
X-9.912 Y20.2188 Z0.0388 I0.0726 J-0.0088
X-9.8312 Y20.2845 Z0.0183 I0.0079 J0.0727
X-9.8978 Y20.3644 Z-0.0021 I-0.0728 J0.0071
X-9.977 Y20.2969 Z-0.0225 I-0.0062 J-0.0729
X-9.9084 Y20.2185 Z-0.0429 I0.073 J-0.0053
X-9.831 Y20.288 Z-0.0633 I0.0044 J0.073
X-9.9014 Y20.3647 Z-0.0837 I-0.0731 J0.0035
X-9.9771 Y20.2933 Z-0.1042 I-0.0027 J-0.0731
X-9.9049 Y20.2184 Z-0.1246 I0.0731 J-0.0018
X-9.8309 Y20.2916 Z-0.145 I0.0009 J0.0731
X-9.9772 I-0.0731 J0.
X-9.8311 Y20.2856 I0.0731 J0.
G1 X-9.8309 Y20.2916
G3 X-9.8366 Y20.408 I-0.055 J0.0557 F60.
G1 X-9.9583
G3 X-10.007 Y20.3851 I-0.0116 J-0.0387
X-9.9884 Y20.3706 I0.0154 J0.0005
G1 X-9.9845 Y20.3714
X-9.9556 Y20.3775
G3 X-9.9451 Y20.3856 I-0.0032 J0.0151
X-9.9583 Y20.408 I-0.0137 J0.007 F50.
X-10.007 Y20.3907 I-0.0212 J-0.0176 F60.
G1 Y20.2318
G3 X-9.8005 Y20.1766 I0.1167 J0.0226
G1 X-9.801 Y20.3909
G3 X-9.8366 Y20.408 I-0.0214 J0.0011
X-9.851 Y20.3891 I0.0005 J-0.0154
G1 X-9.8502 Y20.3855
X-9.808 Y20.2023
G2 X-9.838 Y20.1954 I-0.015 J-0.0035
X-9.8097 Y20.2067 I0.015 J0.0035
X-9.801 Y20.177 I-0.0536 J-0.0318 F50.
G1 Y20.1439 F60.
X-9.8036 Y20.1357
X-9.8068 Y20.1277
X-9.8104 Y20.12
X-9.8147 Y20.1125
X-9.8194 Y20.1054
X-9.8246 Y20.0985
X-9.8302 Y20.0921
X-9.8363 Y20.086
X-9.8428 Y20.0804
X-9.8496 Y20.0752
X-9.8568 Y20.0706
X-9.8643 Y20.0664
X-9.8721 Y20.0628
X-9.8801 Y20.0597
X-9.8883 Y20.0571
X-9.8966 Y20.0551
X-9.9051 Y20.0537
X-9.9136 Y20.0529
X-9.9222 Y20.0527
X-9.9308 Y20.0531
X-9.9393 Y20.054
X-9.9477 Y20.0556
X-9.956 Y20.0577
X-9.9642 Y20.0603
X-9.9721 Y20.0636
X-9.9798 Y20.0673
X-9.9872 Y20.0716
X-9.9944 Y20.0764
X-10.0011 Y20.0817
X-10.0075 Y20.0874
X-10.007 Y20.2318
G2 X-9.9989 Y20.2449 I0.0154 J-0.0005
X-9.9364 Y20.2085 I0.02 J-0.0375
X-9.9863 Y20.1087 I-0.1181 J-0.0033
X-9.9989 Y20.101 I-0.0682 J0.0965 F50.
G3 X-10.007 Y20.0879 I0.0072 J-0.0136
G1 Y20.0573 F60.
G3 X-9.8005 Y20.0052 I0.1203 J0.0416
G1 X-9.801 Y20.1439
G3 X-9.8169 Y20.1587 I-0.0154 J-0.0005
X-9.8355 Y20.1456 I0.0007 J-0.0206
X-9.8186 Y20.0304 I0.1101 J-0.0427
X-9.8059 Y20.0165 I0.0932 J0.0725 F50.
G2 X-9.801 Y20.0058 I-0.0105 J-0.0113
G1 Y19.9799 F60.
G2 X-10.0073 Y19.9234 I-0.1206 J0.0354
G1 X-10.007 Y20.0573
G2 X-9.9804 Y20.0672 I0.0154 J-0.0005
X-9.9655 Y20.0353 I-0.0417 J-0.0389
X-9.9894 Y19.9483 I-0.1172 J-0.0145
X-10.0021 Y19.9344 I-0.0932 J0.0725 F50.
G3 X-10.007 Y19.9237 I0.0105 J-0.0113
G1 Y19.8933 F60.
G3 X-9.8004 Y19.8421 I0.1204 J0.0434
G1 X-9.801 Y19.9799
G3 X-9.8277 Y19.9899 I-0.0154 J-0.0005
X-9.8408 Y19.9646 I0.0391 J-0.0365
X-9.8186 Y19.8674 I0.1155 J-0.0247
X-9.8059 Y19.8535 I0.0932 J0.0725 F50.
G2 X-9.801 Y19.8428 I-0.0105 J-0.0113
G1 Y19.8159 F60.
G2 X-10.0073 Y19.7604 I-0.1207 J0.0373
G1 X-10.007 Y19.8933
G2 X-9.9989 Y19.9063 I0.0154 J-0.0005
X-9.9875 Y19.9053 I0.0049 J-0.0093
G1 X-9.9854 Y19.9036
G2 X-9.9865 Y19.7819 I-0.0505 J-0.0604
X-9.9989 Y19.7738 I-0.0494 J0.0613 F50.
G3 X-10.007 Y19.7607 I0.0072 J-0.0136
G1 Y19.734 F60.
G3 X-9.8007 Y19.6791 I0.1206 J0.0379
G1 X-9.801 Y19.8159
G3 X-9.8277 Y19.8259 I-0.0154 J-0.0005
X-9.8413 Y19.7991 I0.0398 J-0.0371
X-9.8186 Y19.7041 I0.1159 J-0.0226
X-9.8059 Y19.6902 I0.0932 J0.0725 F50.
G2 X-9.801 Y19.6795 I-0.0105 J-0.0113
G1 Y19.6519 F60.
G2 X-10.0074 Y19.5977 I-0.1206 J0.0393
G1 X-10.007 Y19.734
G2 X-9.9911 Y19.7489 I0.0154 J-0.0005
X-9.9712 Y19.7342 I-0.0008 J-0.0219
X-9.9894 Y19.6227 I-0.1115 J-0.039
X-10.0021 Y19.6088 I-0.0932 J0.0725 F50.
G3 X-10.007 Y19.5981 I0.0105 J-0.0113
G1 Y19.57 F60.
G3 X-9.8006 Y19.5164 I0.1205 J0.0399
G1 X-9.801 Y19.6519
G3 X-9.8169 Y19.6668 I-0.0154 J-0.0005
X-9.8373 Y19.6515 I0.0008 J-0.0223
X-9.8186 Y19.5415 I0.112 J-0.0375
X-9.8059 Y19.5276 I0.0932 J0.0725 F50.
G2 X-9.801 Y19.5169 I-0.0105 J-0.0113
G1 Y19.4879 F60.
G2 X-10.0075 Y19.4351 I-0.1205 J0.041
G1 X-10.007 Y19.57
G2 X-9.9804 Y19.58 I0.0154 J-0.0005
X-9.9658 Y19.5495 I-0.0413 J-0.0385
X-9.9894 Y19.4602 I-0.1169 J-0.0168
X-10.0021 Y19.4463 I-0.0932 J0.0725 F50.
G3 X-10.007 Y19.4356 I0.0105 J-0.0113
G1 Y19.406 F60.
G3 X-9.8005 Y19.3536 I0.1205 J0.0417
G1 X-9.801 Y19.4879
G3 X-9.8169 Y19.5028 I-0.0154 J-0.0005
X-9.838 Y19.4867 I0.0008 J-0.0229
X-9.8186 Y19.3788 I0.1127 J-0.0355
X-9.8059 Y19.3649 I0.0932 J0.0725 F50.
G2 X-9.801 Y19.3541 I-0.0105 J-0.0113
G1 Y19.3239 F60.
G2 X-10.0076 Y19.2719 I-0.1206 J0.0428
G1 X-10.007 Y19.406
G2 X-9.9804 Y19.416 I0.0154 J-0.0005
X-9.9654 Y19.3839 I-0.0418 J-0.039
X-9.9894 Y19.2972 I-0.1173 J-0.0142
X-10.0021 Y19.2833 I-0.0932 J0.0725 F50.
G3 X-10.007 Y19.2726 I0.0105 J-0.0113
G1 Y19.242 F60.
G3 X-9.8004 Y19.1903 I0.1206 J0.0434
G1 X-9.801 Y19.3239
G3 X-9.8169 Y19.3388 I-0.0154 J-0.0005
X-9.8385 Y19.3222 I0.0008 J-0.0233
X-9.8186 Y19.2156 I0.1131 J-0.034
X-9.8059 Y19.2018 I0.0932 J0.0725 F50.
G2 X-9.801 Y19.191 I-0.0105 J-0.0113
G1 Y19.1611 F60.
X-9.8012 Y19.1586
X-9.8013 Y19.1576
X-9.8018 Y19.1553
X-9.8028 Y19.1511
X-9.8045 Y19.1475
X-9.8073 Y19.1449
X-9.8108 Y19.1434
G2 X-10.0016 Y19.1444 I-0.0931 J0.4472
G1 X-10.003 Y19.1454
X-10.0035 Y19.1459
X-10.0045 Y19.1473
X-10.0048 Y19.1481
X-10.007 Y19.1592
Y19.242
G2 X-9.9852 Y19.2555 I0.0154 J-0.0005
G1 X-9.9846 Y19.2552
X-9.8226 Y19.1804
X-9.81 Y19.1746 F50.
G2 X-9.801 Y19.1611 I-0.0065 J-0.014
G1 Y19.1589 F60.
X-9.8013 Y19.1576
X-9.8018 Y19.1553 F50.
X-9.8032 Y19.1481 F60.
X-9.8034 Y19.1475
X-9.8043 Y19.1461
X-9.8047 Y19.1455
X-9.8066 Y19.1443
X-9.807 Y19.1442
X-9.8108 Y19.1434
G2 X-9.8129 Y19.1432 I-0.0025 J0.0152
G1 X-9.8153 Y19.1438 Z-0.1448
X-9.8177 Y19.1443 Z-0.1442
X-9.82 Y19.1448 Z-0.1431
X-9.8217 Y19.1461 Z-0.1417
X-9.8232 Y19.1473 Z-0.1399
X-9.8244 Y19.1483 Z-0.1378
X-9.8254 Y19.149 Z-0.1354
X-9.8259 Y19.1497 Z-0.1326
X-9.826 Y19.15 Z-0.1296
G0 Z0.4
X-9.8316 Y21.7804
Z0.1
G3 X-9.9764 Y21.8015 Z0.0595 I-0.0724 J0.0106 F50.
X-9.8316 Y21.7804 Z0.019 I0.0724 J-0.0106
X-9.9764 Y21.8015 Z-0.0216 I-0.0724 J0.0106
X-9.8316 Y21.7804 Z-0.0621 I0.0724 J-0.0106
X-9.9764 Y21.8015 Z-0.1026 I-0.0724 J0.0106
X-9.9093 Y21.718 Z-0.1238 I0.0724 J-0.0106
X-9.8309 Y21.791 Z-0.145 I0.0053 J0.073
X-9.9772 I-0.0731 J0.
X-9.8311 Y21.785 I0.0731 J0.
G1 X-9.8309 Y21.791
G3 X-9.8371 Y21.908 I-0.0553 J0.0558 F60.
G1 X-9.9583
G3 X-10.007 Y21.885 I-0.0117 J-0.0383
X-9.9884 Y21.8705 I0.0154 J0.0005
G1 X-9.9845 Y21.8713
X-9.9556 Y21.8776
G3 X-9.9451 Y21.8856 I-0.0032 J0.0151
X-9.9583 Y21.908 I-0.0137 J0.007 F50.
X-10.007 Y21.8908 I-0.0212 J-0.0175 F60.
G1 Y21.7312
G3 X-9.8005 Y21.676 I0.1167 J0.0226
G1 X-9.801 Y21.8905
G3 X-9.8371 Y21.908 I-0.0216 J0.0014
X-9.8515 Y21.8891 I0.0005 J-0.0154
G1 X-9.8507 Y21.8855
X-9.808 Y21.7017
G2 X-9.838 Y21.6948 I-0.015 J-0.0035
X-9.8097 Y21.7061 I0.015 J0.0035
X-9.801 Y21.6765 I-0.0536 J-0.0318 F50.
G1 Y21.6433 F60.
X-9.8036 Y21.6351
X-9.8068 Y21.6271
X-9.8104 Y21.6194
X-9.8147 Y21.6119
X-9.8194 Y21.6048
X-9.8246 Y21.5979
X-9.8302 Y21.5915
X-9.8363 Y21.5854
X-9.8428 Y21.5798
X-9.8496 Y21.5747
X-9.8568 Y21.57
X-9.8643 Y21.5658
X-9.8721 Y21.5622
X-9.8801 Y21.5591
X-9.8883 Y21.5565
X-9.8966 Y21.5545
X-9.9051 Y21.5531
X-9.9136 Y21.5523
X-9.9222 Y21.5521
X-9.9308 Y21.5525
X-9.9393 Y21.5534
X-9.9477 Y21.555
X-9.956 Y21.5571
X-9.9642 Y21.5597
X-9.9721 Y21.563
X-9.9798 Y21.5667
X-9.9873 Y21.571
X-9.9944 Y21.5758
X-10.0011 Y21.5811
X-10.0075 Y21.5868
X-10.007 Y21.7312
G2 X-9.9989 Y21.7443 I0.0154 J-0.0005
X-9.9364 Y21.7079 I0.02 J-0.0375
X-9.9863 Y21.6082 I-0.1181 J-0.0033
X-9.9989 Y21.6004 I-0.0682 J0.0965 F50.
G3 X-10.007 Y21.5873 I0.0072 J-0.0136
G1 Y21.5567 F60.
G3 X-9.8005 Y21.5046 I0.1203 J0.0416
G1 X-9.801 Y21.6433
G3 X-9.8169 Y21.6582 I-0.0154 J-0.0005
X-9.8355 Y21.645 I0.0007 J-0.0206
X-9.8186 Y21.5298 I0.1101 J-0.0427
X-9.8059 Y21.5159 I0.0932 J0.0725 F50.
G2 X-9.801 Y21.5052 I-0.0105 J-0.0113
G1 Y21.4793 F60.
G2 X-10.0073 Y21.4228 I-0.1206 J0.0354
G1 X-10.007 Y21.5567
G2 X-9.9804 Y21.5666 I0.0154 J-0.0005
X-9.9655 Y21.5347 I-0.0417 J-0.0389
X-9.9894 Y21.4477 I-0.1172 J-0.0145
X-10.0021 Y21.4338 I-0.0932 J0.0725 F50.
G3 X-10.007 Y21.4231 I0.0105 J-0.0113
G1 Y21.3927 F60.
G3 X-9.8004 Y21.3415 I0.1204 J0.0434
G1 X-9.801 Y21.4793
G3 X-9.8277 Y21.4893 I-0.0154 J-0.0005
X-9.8408 Y21.464 I0.0391 J-0.0365
X-9.8186 Y21.3668 I0.1155 J-0.0247
X-9.8059 Y21.3529 I0.0932 J0.0725 F50.
G2 X-9.801 Y21.3422 I-0.0105 J-0.0113
G1 Y21.3153 F60.
G2 X-10.0073 Y21.2598 I-0.1207 J0.0373
G1 X-10.007 Y21.3927
G2 X-9.9989 Y21.4057 I0.0154 J-0.0005
X-9.9875 Y21.4047 I0.0049 J-0.0093
G1 X-9.9854 Y21.403
G2 X-9.9865 Y21.2813 I-0.0505 J-0.0604
X-9.9989 Y21.2732 I-0.0494 J0.0613 F50.
G3 X-10.007 Y21.2601 I0.0072 J-0.0136
G1 Y21.2334 F60.
G3 X-9.8007 Y21.1785 I0.1206 J0.0379
G1 X-9.801 Y21.3153
G3 X-9.8277 Y21.3253 I-0.0154 J-0.0005
X-9.8413 Y21.2986 I0.0398 J-0.0371
X-9.8186 Y21.2035 I0.1159 J-0.0226
X-9.8059 Y21.1896 I0.0932 J0.0725 F50.
G2 X-9.801 Y21.1789 I-0.0105 J-0.0113
G1 Y21.1513 F60.
G2 X-10.0074 Y21.0971 I-0.1206 J0.0393
G1 X-10.007 Y21.2334
G2 X-9.9911 Y21.2483 I0.0154 J-0.0005
X-9.9712 Y21.2336 I-0.0008 J-0.0219
X-9.9894 Y21.1221 I-0.1115 J-0.039
X-10.0021 Y21.1082 I-0.0932 J0.0725 F50.
G3 X-10.007 Y21.0975 I0.0105 J-0.0113
G1 Y21.0694 F60.
G3 X-9.8006 Y21.0159 I0.1205 J0.0399
G1 X-9.801 Y21.1513
G3 X-9.8277 Y21.1613 I-0.0154 J-0.0005
X-9.842 Y21.1318 I0.0409 J-0.0382
X-9.8186 Y21.0409 I0.1167 J-0.0184
X-9.8059 Y21.027 I0.0932 J0.0725 F50.
G2 X-9.801 Y21.0163 I-0.0105 J-0.0113
G1 Y20.9873 F60.
G2 X-10.0075 Y20.9345 I-0.1205 J0.041
G1 X-10.007 Y21.0694
G2 X-9.9911 Y21.0843 I0.0154 J-0.0005
X-9.9704 Y21.0687 I-0.0008 J-0.0226
X-9.9894 Y20.9596 I-0.1123 J-0.0365
X-10.0021 Y20.9457 I-0.0932 J0.0725 F50.
G3 X-10.007 Y20.935 I0.0105 J-0.0113
G1 Y20.9054 F60.
G3 X-9.8005 Y20.853 I0.1205 J0.0417
G1 X-9.801 Y20.9873
G3 X-9.8169 Y21.0022 I-0.0154 J-0.0005
X-9.838 Y20.9861 I0.0008 J-0.0229
X-9.8186 Y20.8782 I0.1127 J-0.0355
X-9.8059 Y20.8643 I0.0932 J0.0725 F50.
G2 X-9.801 Y20.8536 I-0.0105 J-0.0113
G1 Y20.8233 F60.
G2 X-10.0076 Y20.7713 I-0.1206 J0.0428
G1 X-10.007 Y20.9054
G2 X-9.9911 Y20.9203 I0.0154 J-0.0005
X-9.9699 Y20.9041 I-0.0008 J-0.0231
X-9.9894 Y20.7966 I-0.1128 J-0.035
X-10.0021 Y20.7827 I-0.0932 J0.0725 F50.
G3 X-10.007 Y20.772 I0.0105 J-0.0113
G1 Y20.7414 F60.
G3 X-9.9759 Y20.692 I0.0531 J-0.0011
X-9.9624 Y20.7138 I-0.0005 J0.0154
G1 X-9.9627 Y20.7144
X-9.9776 Y20.7473
G3 X-9.9846 Y20.7546 I-0.014 J-0.0064
X-10.007 Y20.7414 I-0.007 J-0.0137 F50.
X-10.0013 Y20.6942 I0.0281 J-0.0205 F60.
G1 X-9.9906 Y20.6921
X-9.9898 Y20.692
X-9.8409
G3 X-9.8017 Y20.7058 I0.0109 J0.0317
X-9.8174 Y20.7236 I-0.0152 J0.0025
G1 X-9.8211 Y20.7235
X-9.8409 Y20.7228
G3 X-9.8541 Y20.7144 I0.0005 J-0.0154
X-9.8409 Y20.692 I0.0137 J-0.007 F50.
X-9.801 Y20.7093 I0.0166 J0.0162 F60.
G1 Y20.8233
G3 X-9.8086 Y20.8361 I-0.0154 J-0.0005
G1 X-9.8109 Y20.8368 Z-0.1448
X-9.8131 Y20.8375 Z-0.1443
X-9.8152 Y20.8381 Z-0.1434
X-9.8164 Y20.8382 Z-0.1427
X-9.8187 Y20.8376 Z-0.1408
X-9.8207 Y20.8372 Z-0.1385
X-9.8222 Y20.8369 Z-0.1358
X-9.8231 Y20.8366 Z-0.1329
X-9.8233 Y20.8365 Z-0.1312
X-9.8234 Z-0.1296
G0 Z0.4
X-9.3416 Y20.281
Z0.1
G3 X-9.4043 Y20.3641 Z0.0796 I-0.0724 J0.0106 F50.
X-9.4866 Y20.3004 Z0.0592 I-0.0097 J-0.0725
X-9.422 Y20.2188 Z0.0388 I0.0726 J-0.0088
X-9.3412 Y20.2845 Z0.0183 I0.0079 J0.0727
X-9.4078 Y20.3644 Z-0.0021 I-0.0728 J0.0071
X-9.487 Y20.2969 Z-0.0225 I-0.0062 J-0.0729
X-9.4184 Y20.2185 Z-0.0429 I0.073 J-0.0053
X-9.341 Y20.288 Z-0.0633 I0.0044 J0.073
X-9.4114 Y20.3647 Z-0.0837 I-0.0731 J0.0035
X-9.4871 Y20.2933 Z-0.1042 I-0.0027 J-0.0731
X-9.4149 Y20.2184 Z-0.1246 I0.0731 J-0.0018
X-9.3409 Y20.2916 Z-0.145 I0.0009 J0.0731
X-9.4872 I-0.0731 J0.
X-9.3411 Y20.2856 I0.0731 J0.
G1 X-9.3409 Y20.2916
G3 X-9.3466 Y20.408 I-0.055 J0.0557 F60.
G1 X-9.4652
G3 X-9.517 Y20.3849 I-0.0124 J-0.0419
X-9.4986 Y20.3703 I0.0154 J0.0005
G1 X-9.4945 Y20.3711
X-9.4627 Y20.3775
G3 X-9.452 Y20.3856 I-0.003 J0.0151
X-9.4652 Y20.408 I-0.0137 J0.007 F50.
X-9.5148 Y20.4021 I-0.0224 J-0.0235 F60.
G1 X-9.517 Y20.3909
Y20.2318
G3 X-9.3105 Y20.1766 I0.1167 J0.0226
G1 X-9.311 Y20.3908
G3 X-9.3466 Y20.408 I-0.0213 J0.0014
X-9.361 Y20.3891 I0.0005 J-0.0154
G1 X-9.3602 Y20.3855
X-9.318 Y20.2023
G2 X-9.348 Y20.1954 I-0.015 J-0.0035
X-9.3197 Y20.2067 I0.015 J0.0035
X-9.311 Y20.177 I-0.0536 J-0.0318 F50.
G1 Y20.1439 F60.
X-9.3136 Y20.1357
X-9.3168 Y20.1277
X-9.3204 Y20.12
X-9.3247 Y20.1125
X-9.3294 Y20.1054
X-9.3346 Y20.0985
X-9.3402 Y20.0921
X-9.3463 Y20.086
X-9.3528 Y20.0804
X-9.3596 Y20.0752
X-9.3668 Y20.0706
X-9.3743 Y20.0664
X-9.3821 Y20.0628
X-9.3901 Y20.0597
X-9.3983 Y20.0571
X-9.4066 Y20.0551
X-9.4151 Y20.0537
X-9.4236 Y20.0529
X-9.4322 Y20.0527
X-9.4408 Y20.0531
X-9.4493 Y20.054
X-9.4577 Y20.0555
X-9.466 Y20.0577
X-9.4742 Y20.0603
X-9.4821 Y20.0636
X-9.4898 Y20.0673
X-9.4972 Y20.0716
X-9.5044 Y20.0764
X-9.5111 Y20.0817
X-9.5175 Y20.0874
X-9.517 Y20.2318
G2 X-9.5089 Y20.2449 I0.0154 J-0.0005
X-9.4464 Y20.2085 I0.02 J-0.0375
X-9.4963 Y20.1087 I-0.1181 J-0.0033
X-9.5089 Y20.101 I-0.0682 J0.0965 F50.
G3 X-9.517 Y20.0879 I0.0072 J-0.0136
G1 Y20.0573 F60.
G3 X-9.3105 Y20.0052 I0.1203 J0.0416
G1 X-9.311 Y20.1439
G3 X-9.3269 Y20.1587 I-0.0154 J-0.0005
X-9.3455 Y20.1456 I0.0007 J-0.0206
X-9.3286 Y20.0304 I0.1101 J-0.0427
X-9.3159 Y20.0165 I0.0932 J0.0725 F50.
G2 X-9.311 Y20.0058 I-0.0105 J-0.0113
G1 Y19.9799 F60.
G2 X-9.5173 Y19.9234 I-0.1206 J0.0354
G1 X-9.517 Y20.0573
G2 X-9.4904 Y20.0672 I0.0154 J-0.0005
X-9.4755 Y20.0353 I-0.0417 J-0.0389
X-9.4994 Y19.9483 I-0.1172 J-0.0145
X-9.5121 Y19.9344 I-0.0932 J0.0725 F50.
G3 X-9.517 Y19.9237 I0.0105 J-0.0113
G1 Y19.8933 F60.
G3 X-9.3104 Y19.8421 I0.1204 J0.0434
G1 X-9.311 Y19.9799
G3 X-9.3377 Y19.9899 I-0.0154 J-0.0005
X-9.3508 Y19.9646 I0.0391 J-0.0365
X-9.3286 Y19.8674 I0.1155 J-0.0247
X-9.3159 Y19.8535 I0.0932 J0.0725 F50.
G2 X-9.311 Y19.8428 I-0.0105 J-0.0113
G1 Y19.8159 F60.
G2 X-9.5173 Y19.7604 I-0.1207 J0.0373
G1 X-9.517 Y19.8933
G2 X-9.5089 Y19.9063 I0.0154 J-0.0005
X-9.4975 Y19.9053 I0.0049 J-0.0093
G1 X-9.4954 Y19.9036
G2 X-9.4965 Y19.7819 I-0.0505 J-0.0604
X-9.5089 Y19.7738 I-0.0494 J0.0613 F50.
G3 X-9.517 Y19.7607 I0.0072 J-0.0136
G1 Y19.734 F60.
G3 X-9.3107 Y19.6791 I0.1206 J0.0379
G1 X-9.311 Y19.8159
G3 X-9.3269 Y19.8308 I-0.0154 J-0.0005
X-9.3465 Y19.8165 I0.0008 J-0.0216
X-9.3286 Y19.7041 I0.1112 J-0.0399
X-9.3159 Y19.6902 I0.0932 J0.0725 F50.
G2 X-9.311 Y19.6795 I-0.0105 J-0.0113
G1 Y19.6519 F60.
G2 X-9.5174 Y19.5977 I-0.1206 J0.0393
G1 X-9.517 Y19.734
G2 X-9.5011 Y19.7489 I0.0154 J-0.0005
X-9.4812 Y19.7342 I-0.0008 J-0.0219
X-9.4994 Y19.6227 I-0.1115 J-0.039
X-9.5121 Y19.6088 I-0.0932 J0.0725 F50.
G3 X-9.517 Y19.5981 I0.0105 J-0.0113
G1 Y19.57 F60.
G3 X-9.3106 Y19.5164 I0.1205 J0.0399
G1 X-9.311 Y19.6519
G3 X-9.3269 Y19.6668 I-0.0154 J-0.0005
X-9.3473 Y19.6515 I0.0008 J-0.0223
X-9.3286 Y19.5415 I0.112 J-0.0375
X-9.3159 Y19.5276 I0.0932 J0.0725 F50.
G2 X-9.311 Y19.5169 I-0.0105 J-0.0113
G1 Y19.4879 F60.
G2 X-9.5175 Y19.4351 I-0.1205 J0.041
G1 X-9.517 Y19.57
G2 X-9.5011 Y19.5849 I0.0154 J-0.0005
X-9.4804 Y19.5693 I-0.0008 J-0.0226
X-9.4994 Y19.4602 I-0.1123 J-0.0365
X-9.5121 Y19.4463 I-0.0932 J0.0725 F50.
G3 X-9.517 Y19.4356 I0.0105 J-0.0113
G1 Y19.406 F60.
G3 X-9.3105 Y19.3536 I0.1205 J0.0417
G1 X-9.311 Y19.4879
G3 X-9.3269 Y19.5028 I-0.0154 J-0.0005
X-9.348 Y19.4867 I0.0008 J-0.0229
X-9.3286 Y19.3788 I0.1127 J-0.0355
X-9.3159 Y19.3649 I0.0932 J0.0725 F50.
G2 X-9.311 Y19.3541 I-0.0105 J-0.0113
G1 Y19.3239 F60.
G2 X-9.5176 Y19.2719 I-0.1206 J0.0428
G1 X-9.517 Y19.406
G2 X-9.5011 Y19.4209 I0.0154 J-0.0005
X-9.4799 Y19.4046 I-0.0008 J-0.0231
X-9.4994 Y19.2972 I-0.1128 J-0.035
X-9.5121 Y19.2833 I-0.0932 J0.0725 F50.
G3 X-9.517 Y19.2726 I0.0105 J-0.0113
G1 Y19.242 F60.
G3 X-9.3104 Y19.1903 I0.1206 J0.0434
G1 X-9.311 Y19.3239
G3 X-9.3269 Y19.3388 I-0.0154 J-0.0005
X-9.3485 Y19.3222 I0.0008 J-0.0233
X-9.3286 Y19.2156 I0.1131 J-0.034
X-9.3159 Y19.2018 I0.0932 J0.0725 F50.
G2 X-9.311 Y19.191 I-0.0105 J-0.0113
G1 Y19.1611 F60.
X-9.3112 Y19.1586
X-9.3113 Y19.1576
X-9.3118 Y19.1553
X-9.3128 Y19.1511
X-9.3145 Y19.1475
X-9.3173 Y19.1449
X-9.3208 Y19.1434
G2 X-9.5116 Y19.1444 I-0.0931 J0.442
G1 X-9.5129 Y19.1453
G2 X-9.517 Y19.1594 I0.0191 J0.0132
G1 Y19.242
G2 X-9.4952 Y19.2555 I0.0154 J-0.0005
G1 X-9.4946 Y19.2552
X-9.3326 Y19.1804
X-9.32 Y19.1746 F50.
G2 X-9.311 Y19.1611 I-0.0065 J-0.014
G1 Y19.1589 F60.
X-9.3113 Y19.1576
X-9.3118 Y19.1553 F50.
X-9.3132 Y19.1481 F60.
X-9.3134 Y19.1475
X-9.3143 Y19.1461
X-9.3147 Y19.1455
X-9.3166 Y19.1443
X-9.317 Y19.1442
X-9.3208 Y19.1434
G2 X-9.3229 Y19.1432 I-0.0025 J0.0152
G1 X-9.3253 Y19.1438 Z-0.1448
X-9.3277 Y19.1443 Z-0.1442
X-9.33 Y19.1448 Z-0.1431
X-9.3317 Y19.1461 Z-0.1417
X-9.3332 Y19.1473 Z-0.1399
X-9.3344 Y19.1483 Z-0.1378
X-9.3354 Y19.149 Z-0.1354
X-9.3359 Y19.1497 Z-0.1326
X-9.336 Y19.15 Z-0.1296
G0 Z0.4
X-9.3416 Y21.7804
Z0.1
G3 X-9.4864 Y21.8015 Z0.0595 I-0.0724 J0.0106 F50.
X-9.3416 Y21.7804 Z0.019 I0.0724 J-0.0106
X-9.4864 Y21.8015 Z-0.0216 I-0.0724 J0.0106
X-9.3416 Y21.7804 Z-0.0621 I0.0724 J-0.0106
X-9.4864 Y21.8015 Z-0.1026 I-0.0724 J0.0106
X-9.4193 Y21.718 Z-0.1238 I0.0724 J-0.0106
X-9.3409 Y21.791 Z-0.145 I0.0053 J0.073
X-9.4872 I-0.0731 J0.
X-9.3411 Y21.785 I0.0731 J0.
G1 X-9.3409 Y21.791
G3 X-9.3471 Y21.908 I-0.0553 J0.0558 F60.
G1 X-9.4652
G3 X-9.517 Y21.8847 I-0.012 J-0.0425
X-9.4985 Y21.8701 I0.0154 J0.0005
G1 X-9.4945 Y21.871
X-9.4626 Y21.8775
G3 X-9.452 Y21.8856 I-0.0031 J0.0151
X-9.4652 Y21.908 I-0.0137 J0.007 F50.
X-9.5148 Y21.902 I-0.0224 J-0.023 F60.
G1 X-9.517 Y21.8911
Y21.8898
Y21.7312
G3 X-9.3105 Y21.676 I0.1167 J0.0226
G1 X-9.311 Y21.891
G3 X-9.3471 Y21.908 I-0.0215 J0.0011
X-9.3615 Y21.8891 I0.0005 J-0.0154
G1 X-9.3607 Y21.8855
X-9.318 Y21.7017
G2 X-9.348 Y21.6948 I-0.015 J-0.0035
X-9.3197 Y21.7061 I0.015 J0.0035
X-9.311 Y21.6765 I-0.0536 J-0.0318 F50.
G1 Y21.6433 F60.
X-9.3136 Y21.6351
X-9.3168 Y21.6271
X-9.3204 Y21.6194
X-9.3247 Y21.6119
X-9.3294 Y21.6048
X-9.3346 Y21.5979
X-9.3402 Y21.5915
X-9.3463 Y21.5854
X-9.3528 Y21.5798
X-9.3596 Y21.5747
X-9.3668 Y21.57
X-9.3743 Y21.5658
X-9.3821 Y21.5622
X-9.3901 Y21.5591
X-9.3983 Y21.5565
X-9.4066 Y21.5545
X-9.4151 Y21.5531
X-9.4236 Y21.5523
X-9.4322 Y21.5521
X-9.4408 Y21.5525
X-9.4493 Y21.5534
X-9.4577 Y21.555
X-9.466 Y21.5571
X-9.4742 Y21.5597
X-9.4821 Y21.563
X-9.4898 Y21.5667
X-9.4973 Y21.571
X-9.5044 Y21.5758
X-9.5111 Y21.5811
X-9.5175 Y21.5868
X-9.517 Y21.7312
G2 X-9.5089 Y21.7443 I0.0154 J-0.0005
X-9.4464 Y21.7079 I0.02 J-0.0375
X-9.4963 Y21.6082 I-0.1181 J-0.0033
X-9.5089 Y21.6004 I-0.0682 J0.0965 F50.
G3 X-9.517 Y21.5873 I0.0072 J-0.0136
G1 Y21.5567 F60.
G3 X-9.3105 Y21.5046 I0.1203 J0.0416
G1 X-9.311 Y21.6433
G3 X-9.3377 Y21.6533 I-0.0154 J-0.0005
X-9.3501 Y21.6302 I0.0379 J-0.0353
X-9.3286 Y21.5298 I0.1148 J-0.0279
X-9.3159 Y21.5159 I0.0932 J0.0725 F50.
G2 X-9.311 Y21.5052 I-0.0105 J-0.0113
G1 Y21.4793 F60.
G2 X-9.5173 Y21.4228 I-0.1206 J0.0354
G1 X-9.517 Y21.5567
G2 X-9.5011 Y21.5715 I0.0154 J-0.0005
X-9.4799 Y21.5554 I-0.0008 J-0.023
X-9.4994 Y21.4477 I-0.1128 J-0.0352
X-9.5121 Y21.4338 I-0.0932 J0.0725 F50.
G3 X-9.517 Y21.4231 I0.0105 J-0.0113
G1 Y21.3927 F60.
G3 X-9.3104 Y21.3415 I0.1204 J0.0434
G1 X-9.311 Y21.4793
G3 X-9.3269 Y21.4942 I-0.0154 J-0.0005
X-9.3461 Y21.4803 I0.0007 J-0.0212
X-9.3286 Y21.3668 I0.1107 J-0.0411
X-9.3159 Y21.3529 I0.0932 J0.0725 F50.
G2 X-9.311 Y21.3422 I-0.0105 J-0.0113
G1 Y21.3153 F60.
G2 X-9.5173 Y21.2598 I-0.1207 J0.0373
G1 X-9.517 Y21.3927
G2 X-9.5089 Y21.4057 I0.0154 J-0.0005
X-9.4975 Y21.4047 I0.0049 J-0.0093
G1 X-9.4954 Y21.403
G2 X-9.4965 Y21.2813 I-0.0505 J-0.0604
X-9.5089 Y21.2732 I-0.0494 J0.0613 F50.
G3 X-9.517 Y21.2601 I0.0072 J-0.0136
G1 Y21.2334 F60.
G3 X-9.3107 Y21.1785 I0.1205 J0.0379
G1 X-9.311 Y21.3153
G3 X-9.3377 Y21.3253 I-0.0154 J-0.0005
X-9.3513 Y21.2986 I0.0398 J-0.0371
X-9.3286 Y21.2035 I0.1159 J-0.0226
X-9.3159 Y21.1896 I0.0932 J0.0725 F50.
G2 X-9.311 Y21.1789 I-0.0105 J-0.0113
G1 Y21.1513 F60.
G2 X-9.5174 Y21.0971 I-0.1206 J0.0393
G1 X-9.517 Y21.2334
G2 X-9.5011 Y21.2483 I0.0154 J-0.0005
X-9.4812 Y21.2336 I-0.0008 J-0.0219
X-9.4994 Y21.1221 I-0.1115 J-0.039
X-9.5121 Y21.1082 I-0.0932 J0.0725 F50.
G3 X-9.517 Y21.0975 I0.0105 J-0.0113
G1 Y21.0694 F60.
G3 X-9.3106 Y21.0159 I0.1205 J0.0399
G1 X-9.311 Y21.1513
G3 X-9.3269 Y21.1662 I-0.0154 J-0.0005
X-9.3473 Y21.1509 I0.0008 J-0.0223
X-9.3286 Y21.0409 I0.112 J-0.0375
X-9.3159 Y21.027 I0.0932 J0.0725 F50.
G2 X-9.311 Y21.0163 I-0.0105 J-0.0113
G1 Y20.9873 F60.
G2 X-9.5175 Y20.9345 I-0.1205 J0.041
G1 X-9.517 Y21.0694
G2 X-9.5011 Y21.0843 I0.0154 J-0.0005
X-9.4804 Y21.0687 I-0.0008 J-0.0226
X-9.4994 Y20.9596 I-0.1123 J-0.0365
X-9.5121 Y20.9457 I-0.0932 J0.0725 F50.
G3 X-9.517 Y20.935 I0.0105 J-0.0113
G1 Y20.9054 F60.
G3 X-9.3105 Y20.853 I0.1205 J0.0417
G1 X-9.311 Y20.9873
G3 X-9.3269 Y21.0022 I-0.0154 J-0.0005
X-9.348 Y20.9861 I0.0008 J-0.0229
X-9.3286 Y20.8782 I0.1127 J-0.0355
X-9.3159 Y20.8643 I0.0932 J0.0725 F50.
G2 X-9.311 Y20.8536 I-0.0105 J-0.0113
G1 Y20.8233 F60.
G2 X-9.5176 Y20.7713 I-0.1206 J0.0428
G1 X-9.517 Y20.9054
G2 X-9.5011 Y20.9203 I0.0154 J-0.0005
X-9.4799 Y20.9041 I-0.0008 J-0.0231
X-9.4994 Y20.7966 I-0.1128 J-0.035
X-9.5121 Y20.7827 I-0.0932 J0.0725 F50.
G3 X-9.517 Y20.772 I0.0105 J-0.0113
G1 Y20.7414 F60.
G3 X-9.4859 Y20.692 I0.0531 J-0.0011
X-9.4724 Y20.7138 I-0.0005 J0.0154
G1 X-9.4727 Y20.7144
X-9.4876 Y20.7473
G3 X-9.4946 Y20.7546 I-0.014 J-0.0064
X-9.517 Y20.7414 I-0.007 J-0.0137 F50.
X-9.5114 Y20.6943 I0.0294 J-0.0204 F60.
G1 X-9.5004 Y20.6921
X-9.4997 Y20.692
X-9.3478
G3 X-9.3117 Y20.7056 I0.0091 J0.0304
X-9.3274 Y20.7235 I-0.0152 J0.0025
G1 X-9.3311 Y20.7234
X-9.3478 Y20.7228
G3 X-9.361 Y20.7144 I0.0005 J-0.0154
X-9.3478 Y20.692 I0.0137 J-0.007 F50.
X-9.311 Y20.7094 I0.0151 J0.0157 F60.
G1 Y20.8233
G3 X-9.3186 Y20.8361 I-0.0154 J-0.0005
G1 X-9.3209 Y20.8368 Z-0.1448
X-9.3231 Y20.8375 Z-0.1443
X-9.3252 Y20.8381 Z-0.1434
X-9.3264 Y20.8382 Z-0.1427
X-9.3287 Y20.8376 Z-0.1408
X-9.3307 Y20.8372 Z-0.1385
X-9.3322 Y20.8369 Z-0.1358
X-9.3331 Y20.8366 Z-0.1329
X-9.3333 Y20.8365 Z-0.1312
X-9.3334 Z-0.1296
G0 Z0.4
X-8.7032 Y18.7139
Z0.1
G3 X-8.8479 Y18.735 Z0.0595 I-0.0724 J0.0106 F50.
X-8.7032 Y18.7139 Z0.019 I0.0724 J-0.0106
X-8.8479 Y18.735 Z-0.0216 I-0.0724 J0.0106
X-8.7032 Y18.7139 Z-0.0621 I0.0724 J-0.0106
X-8.8479 Y18.735 Z-0.1026 I-0.0724 J0.0106
X-8.7808 Y18.6515 Z-0.1238 I0.0724 J-0.0106
X-8.7024 Y18.7244 Z-0.145 I0.0053 J0.073
X-8.8487 I-0.0732 J0.
X-8.7026 Y18.7185 I0.0732 J0.
G1 X-8.7024 Y18.7244
G3 X-8.692 Y18.7535 I-0.0586 J0.0373 F60.
X-8.6979 Y18.8058 I-0.0294 J0.0232
G1 X-8.7091 Y18.808
X-8.8441
G3 X-8.8864 Y18.7827 I-0.0081 J-0.0344
X-8.8699 Y18.7733 I0.0142 J0.0059
G1 X-8.8595 Y18.7748
X-8.8424 Y18.7774
G3 X-8.8309 Y18.7856 I-0.0023 J0.0152
X-8.8441 Y18.808 I-0.0137 J0.007 F50.
X-8.8906 Y18.8002 I-0.021 J-0.0176 F60.
G1 X-8.8888 Y18.7892
X-8.8886 Y18.7885
X-8.8312 Y18.6346
G3 X-8.6904 Y18.6022 I0.083 J0.0387
G1 X-8.692 Y18.7535
G3 X-8.7001 Y18.7666 I-0.0154 J-0.0005
X-8.7621 Y18.7337 I-0.0199 J-0.0373
X-8.7127 Y18.6249 I0.1175 J-0.0123
X-8.7001 Y18.6172 I0.0682 J0.0965 F50.
G2 X-8.692 Y18.6041 I-0.0072 J-0.0136
G1 Y18.5813 F60.
G2 X-8.7891 Y18.517 I-0.0761 J0.0096
G1 X-8.8312 Y18.6346
G2 X-8.8281 Y18.6496 I0.0146 J0.0049
X-8.8019 Y18.6533 I0.0153 J-0.0135
X-8.7766 Y18.5468 I-0.0424 J-0.0663
X-8.7853 Y18.5348 I-0.0677 J0.0402 F50.
G3 X-8.7884 Y18.5197 I0.0115 J-0.0102
G1 X-8.7819 Y18.5022 F60.
G3 X-8.6902 Y18.4759 I0.0571 J0.0262
G1 X-8.692 Y18.5813
G3 X-8.7001 Y18.5943 I-0.0154 J-0.0005
X-8.7407 Y18.5745 I-0.0131 J-0.0246
X-8.7125 Y18.4998 I0.0776 J-0.0134
X-8.7001 Y18.4916 I0.0494 J0.0613 F50.
G2 X-8.692 Y18.4786 I-0.0072 J-0.0136
G1 Y18.4602 F60.
G2 X-8.7514 Y18.4155 I-0.049 J0.0033
G1 X-8.7819 Y18.5022
G2 X-8.7577 Y18.5192 I0.0146 J0.0049
G1 X-8.7116 Y18.4827
X-8.6978 Y18.4718 F50.
G2 X-8.692 Y18.4602 I-0.0096 J-0.0121
G1 Y18.4102 F60.
G2 X-8.7329 Y18.371 I-0.031 J-0.0086
G1 X-8.7507 Y18.4187
G2 X-8.7476 Y18.4338 I0.0146 J0.0049
X-8.7249 Y18.4313 I0.0105 J-0.0093
X-8.7223 Y18.3988 I-0.0344 J-0.0191
X-8.7299 Y18.3861 I-0.037 J0.0134 F50.
G3 X-8.7329 Y18.371 I0.0115 J-0.0102
G1 X-8.7279 Y18.3575 F60.
X-8.7255 Y18.352
X-8.7214 Y18.3477
X-8.7165 Y18.3442
X-8.7111 Y18.3417
X-8.7052 Y18.34
X-8.7039 Y18.3398
X-8.6995 Y18.3401
X-8.6956 Y18.3422
X-8.6929 Y18.3457
X-8.692 Y18.35
G3 X-8.6998 Y18.3722 I-0.0393 J-0.0014
X-8.7121 Y18.3787 I-0.0128 J-0.0096
X-8.7279 Y18.3575 I-0.0005 J-0.016 F50.
G1 X-8.717 Y18.3283 F60.
X-8.7146 Y18.3228
X-8.7109 Y18.3181
X-8.7089 Y18.3164
X-8.7047 Y18.3144
X-8.7001 Y18.3143
X-8.6959 Y18.3163
X-8.693 Y18.3199
X-8.692 Y18.3244
G3 X-8.6942 Y18.3361 I-0.0393 J-0.0014
X-8.6981 Y18.3416 I-0.0114 J-0.004
X-8.717 Y18.3283 I-0.0075 J-0.0094 F50.
G1 X-8.7109 Y18.3119 F60.
X-8.7105 Y18.3111
X-8.7064 Y18.3045
X-8.7046 Y18.3016
X-8.7041 Y18.3011
X-8.7027 Y18.3001
X-8.7021 Y18.2999
X-8.7007 Y18.2996
X-8.7 Y18.2995
X-8.698 Y18.2998
X-8.6973 Y18.3001
X-8.6959 Y18.3011
G3 X-8.692 Y18.3159 I-0.017 J0.0124
G1 Y18.4102
G3 X-8.7074 Y18.4251 I-0.0154 J-0.0005
G1 X-8.7098 Y18.4249
X-8.7122 Y18.4243
X-8.7144 Y18.4234
X-8.7171 Y18.422 Z-0.1447
X-8.7196 Y18.4207 Z-0.1438
X-8.722 Y18.4195 Z-0.1424
X-8.7241 Y18.4184 Z-0.1405
X-8.7258 Y18.4176 Z-0.1382
X-8.7271 Y18.4169 Z-0.1355
X-8.7278 Y18.4165 Z-0.1326
X-8.7281 Y18.4164 Z-0.1296
G0 Z0.6
(SHAPE THROUGH FINISHING PASS)
M7
G0 X-9.8518 Y18.1483
Z0.6
Z0.2
G1 Z0.1 F13.333
Z-0.095
G18 G3 X-9.9018 Z-0.145 I-0.05 K0. F40.
G1 X-9.9172
G17 G3 X-9.8672 Y18.0983 I0.05 J0.
G1 X-8.9515 F50.
G3 X-8.9299 Y18.1293 I0. J0.023
G1 X-9.1918 Y18.8317
G3 X-9.2025 Y18.8439 I-0.0215 J-0.008
G2 X-9.2361 Y18.8673 I0.0835 J0.156
G3 X-9.2513 Y18.873 I-0.0152 J-0.0173
G1 X-10.0667
G3 X-10.0819 Y18.8672 I0. J-0.023
G2 X-10.1263 Y18.8386 I-0.1171 J0.1327
G3 X-10.1378 Y18.8271 I0.0094 J-0.021
G1 X-10.453 Y18.1307
G3 X-10.432 Y18.0983 I0.021 J-0.0095
G1 X-9.8672
G3 X-9.8172 Y18.1483 I0. J0.05
G1 X-9.8326
G18 G3 X-9.8826 Z-0.095 I0. K0.05
G0 Z0.4
X-9.4832 Y17.3604
Z0.2
G1 Z0.1 F13.333
Z-0.095
X-9.4834 Y17.3602 Z-0.1006 F40.
X-9.484 Y17.3595 Z-0.1061
X-9.485 Y17.3583 Z-0.1115
X-9.4864 Y17.3567 Z-0.1167
X-9.4881 Y17.3546 Z-0.1216
X-9.4902 Y17.3521 Z-0.1262
X-9.4926 Y17.3493 Z-0.1304
X-9.4953 Y17.3461 Z-0.1341
X-9.4983 Y17.3426 Z-0.1373
X-9.5015 Y17.3388 Z-0.14
X-9.5048 Y17.3349 Z-0.1422
X-9.5083 Y17.3307 Z-0.1437
X-9.5119 Y17.3265 Z-0.1447
X-9.5155 Y17.3222 Z-0.145
X-9.5254 Y17.3105
G17 G3 X-9.4549 Y17.3164 I0.0323 J0.0382
G1 X-9.0409 Y17.8064 F50.
G3 X-9.0585 Y17.8443 I-0.0176 J0.0148
G1 X-10.3415
G3 X-10.3591 Y17.8064 I0. J-0.023
G1 X-9.7176 Y17.0471
G3 X-9.6824 I0.0176 J0.0148
G1 X-9.4549 Y17.3164
G3 X-9.4609 Y17.3869 I-0.0382 J0.0323
G1 X-9.4708 Y17.3751
X-9.4744 Y17.3708 Z-0.1447
X-9.478 Y17.3666 Z-0.1437
X-9.4815 Y17.3625 Z-0.1422
X-9.4848 Y17.3585 Z-0.14
X-9.488 Y17.3548 Z-0.1373
X-9.4909 Y17.3513 Z-0.1341
X-9.4936 Y17.3481 Z-0.1304
X-9.496 Y17.3452 Z-0.1262
X-9.4981 Y17.3428 Z-0.1216
X-9.4999 Y17.3407 Z-0.1167
X-9.5013 Y17.3391 Z-0.1115
X-9.5023 Y17.3379 Z-0.1061
X-9.5029 Y17.3372 Z-0.1006
X-9.5031 Y17.3369 Z-0.095
G0 Z0.4
X-8.727 Y16.8449
Z0.2
G1 Z0.1 F13.333
Z-0.095
G19 G2 Y16.7949 Z-0.145 J-0.05 K0. F40.
G1 Y16.7795
G17 G3 X-8.677 Y16.8295 I0. J0.05
G1 Y17.7335 F50.
G3 X-8.7034 Y17.7563 I-0.023 J0.
G2 X-8.7414 Y17.754 I-0.0321 J0.215
G3 X-8.7596 Y17.7458 I-0.0006 J-0.023
G1 X-9.5212 Y16.8444
G3 Y16.8147 I0.0176 J-0.0148
G1 X-8.7596 Y15.9132
G3 X-8.7414 Y15.9051 I0.0176 J0.0149
G2 X-8.7034 Y15.9028 I0.0059 J-0.2173
G3 X-8.677 Y15.9255 I0.0034 J0.0227
G1 Y16.8295
G3 X-8.727 Y16.8795 I-0.05 J0.
G1 Y16.8641
G19 G2 Y16.8141 Z-0.095 J0. K0.05
G0 Z0.4
X-9.4436 Y16.2517
Z0.2
G1 Z0.1 F13.333
Z-0.095
X-9.4434 Y16.2515 Z-0.1006 F40.
X-9.4428 Y16.2508 Z-0.1061
X-9.4418 Y16.2496 Z-0.1115
X-9.4404 Y16.2479 Z-0.1167
X-9.4386 Y16.2459 Z-0.1216
X-9.4365 Y16.2434 Z-0.1262
X-9.4341 Y16.2405 Z-0.1304
X-9.4314 Y16.2373 Z-0.1341
X-9.4285 Y16.2338 Z-0.1373
X-9.4253 Y16.2301 Z-0.14
X-9.422 Y16.2261 Z-0.1422
X-9.4185 Y16.222 Z-0.1437
X-9.4149 Y16.2178 Z-0.1447
X-9.4113 Y16.2135 Z-0.145
X-9.4014 Y16.2018
G17 G3 X-9.3954 Y16.2722 I-0.0323 J0.0382
G1 X-9.6824 Y16.6119 F50.
G3 X-9.7176 I-0.0176 J-0.0148
G1 X-10.4463 Y15.7493
G3 X-10.4514 Y15.73 I0.0176 J-0.0149
G2 X-10.5289 Y15.518 I-0.2132 J-0.0422
G3 X-10.5376 Y15.5 I0.0143 J-0.018
G1 Y15.45
G3 X-10.5146 Y15.427 I0.023 J0.
G1 X-9.9534
G3 X-9.9313 Y15.4435 I0. J0.023
G2 X-9.4687 I0.2313 J-0.0685
G3 X-9.4466 Y15.427 I0.0221 J0.0065
G1 X-8.8854
G3 X-8.8624 Y15.45 I0. J0.023
G1 Y15.5
G3 X-8.8711 Y15.5179 I-0.023 J0.
G2 X-8.9486 Y15.73 I0.1357 J0.1698
G3 X-8.9536 Y15.7493 I-0.0226 J0.0044
G1 X-9.3954 Y16.2722
G3 X-9.4659 Y16.2781 I-0.0382 J-0.0323
G1 X-9.456 Y16.2664
X-9.4524 Y16.2621 Z-0.1447
X-9.4488 Y16.2579 Z-0.1437
X-9.4453 Y16.2538 Z-0.1422
X-9.442 Y16.2498 Z-0.14
X-9.4388 Y16.2461 Z-0.1373
X-9.4359 Y16.2426 Z-0.1341
X-9.4332 Y16.2394 Z-0.1304
X-9.4307 Y16.2365 Z-0.1262
X-9.4286 Y16.234 Z-0.1216
X-9.4269 Y16.232 Z-0.1167
X-9.4255 Y16.2303 Z-0.1115
X-9.4245 Y16.2291 Z-0.1061
X-9.4239 Y16.2284 Z-0.1006
X-9.4237 Y16.2282 Z-0.095
G0 Z0.4
X-10.1167 Y17.0485
Z0.2
G1 Z0.1 F13.333
Z-0.095
X-10.1165 Y17.0482 Z-0.1006 F40.
X-10.1159 Y17.0475 Z-0.1061
X-10.1149 Y17.0463 Z-0.1115
X-10.1135 Y17.0447 Z-0.1167
X-10.1117 Y17.0426 Z-0.1216
X-10.1096 Y17.0401 Z-0.1262
X-10.1072 Y17.0373 Z-0.1304
X-10.1045 Y17.0341 Z-0.1341
X-10.1016 Y17.0306 Z-0.1373
X-10.0984 Y17.0268 Z-0.14
X-10.0951 Y17.0229 Z-0.1422
X-10.0916 Y17.0188 Z-0.1437
X-10.088 Y17.0146 Z-0.1447
X-10.0844 Y17.0103 Z-0.145
X-10.0745 Y16.9985
G3 X-10.0685 Y17.069 I-0.0323 J0.0382
G1 X-10.6404 Y17.7458 F50.
G3 X-10.6586 Y17.754 I-0.0176 J-0.0149
G2 X-10.6966 Y17.7563 I-0.0059 J0.2173
G3 X-10.723 Y17.7335 I-0.0034 J-0.0227
G1 Y15.9255
G3 X-10.6966 Y15.9028 I0.023 J0.
G2 X-10.6586 Y15.9051 I0.0321 J-0.215
G3 X-10.6404 Y15.9132 I0.0006 J0.023
G1 X-9.8788 Y16.8147
G3 Y16.8444 I-0.0176 J0.0148
G1 X-10.0685 Y17.069
G3 X-10.139 Y17.0749 I-0.0382 J-0.0323
G1 X-10.1291 Y17.0631
X-10.1255 Y17.0589 Z-0.1447
X-10.1219 Y17.0546 Z-0.1437
X-10.1184 Y17.0505 Z-0.1422
X-10.1151 Y17.0466 Z-0.14
X-10.1119 Y17.0428 Z-0.1373
X-10.1089 Y17.0393 Z-0.1341
X-10.1062 Y17.0361 Z-0.1304
X-10.1038 Y17.0333 Z-0.1262
X-10.1017 Y17.0308 Z-0.1216
X-10.1 Y17.0287 Z-0.1167
X-10.0986 Y17.0271 Z-0.1115
X-10.0976 Y17.0259 Z-0.1061
X-10.097 Y17.0252 Z-0.1006
X-10.0968 Y17.0249 Z-0.095
G0 Z0.4
X-10.534 Y18.689
Z0.2
G1 Z0.1 F13.333
Z-0.095
X-10.5342 Y18.6887 Z-0.1006 F40.
X-10.5346 Y18.6879 Z-0.1061
X-10.5352 Y18.6865 Z-0.1115
X-10.5361 Y18.6845 Z-0.1167
X-10.5372 Y18.682 Z-0.1216
X-10.5385 Y18.6791 Z-0.1262
X-10.5401 Y18.6757 Z-0.1304
X-10.5418 Y18.6719 Z-0.1341
X-10.5437 Y18.6677 Z-0.1373
X-10.5457 Y18.6632 Z-0.14
X-10.5478 Y18.6585 Z-0.1422
X-10.5501 Y18.6536 Z-0.1437
X-10.5523 Y18.6486 Z-0.1447
X-10.5546 Y18.6435 Z-0.145
X-10.561 Y18.6294
G3 X-10.4948 Y18.6544 I0.0206 J0.0456
G1 X-10.4332 Y18.7905 F50.
G3 X-10.4542 Y18.823 I-0.021 J0.0095
G1 X-10.7
G3 X-10.723 Y18.8 I0. J-0.023
G1 Y18.2568
G3 X-10.6791 Y18.2473 I0.023 J0.
G1 X-10.4948 Y18.6544
G3 X-10.5198 Y18.7205 I-0.0456 J0.0206
G1 X-10.5261 Y18.7065
X-10.5284 Y18.7014 Z-0.1447
X-10.5307 Y18.6964 Z-0.1437
X-10.5329 Y18.6915 Z-0.1422
X-10.5351 Y18.6868 Z-0.14
X-10.5371 Y18.6823 Z-0.1373
X-10.539 Y18.6781 Z-0.1341
X-10.5407 Y18.6743 Z-0.1304
X-10.5422 Y18.6709 Z-0.1262
X-10.5436 Y18.6679 Z-0.1216
X-10.5447 Y18.6655 Z-0.1167
X-10.5456 Y18.6635 Z-0.1115
X-10.5462 Y18.6621 Z-0.1061
X-10.5466 Y18.6613 Z-0.1006
X-10.5467 Y18.661 Z-0.095
G0 Z0.4
X-9.836 Y19.2604
Z0.2
G1 Z0.1 F13.333
Z-0.095
G19 G2 Y19.2104 Z-0.145 J-0.05 K0. F40.
G1 Y19.195
G17 G3 X-9.786 Y19.245 I0. J0.05
G1 Y20.4 F50.
G3 X-9.809 Y20.423 I-0.023 J0.
G1 X-9.999
G3 X-10.022 Y20.4 I0. J-0.023
G1 Y19.15
G3 X-9.999 Y19.127 I0.023 J0.
G1 X-9.809
G3 X-9.786 Y19.15 I0. J0.023
G1 Y19.245
G3 X-9.836 Y19.295 I-0.05 J0.
G1 Y19.2796
G19 G2 Y19.2296 Z-0.095 J0. K0.05
G0 Z0.4
X-9.346 Y20.3204
Z0.2
G1 Z0.1 F13.333
Z-0.095
G2 Y20.2704 Z-0.145 J-0.05 K0. F40.
G1 Y20.255
G17 G3 X-9.296 Y20.305 I0. J0.05
G1 Y20.4 F50.
G3 X-9.319 Y20.423 I-0.023 J0.
G1 X-9.509
G3 X-9.532 Y20.4 I0. J-0.023
G1 Y19.15
G3 X-9.509 Y19.127 I0.023 J0.
G1 X-9.319
G3 X-9.296 Y19.15 I0. J0.023
G1 Y20.305
G3 X-9.346 Y20.355 I-0.05 J0.
G1 Y20.3396
G19 G2 Y20.2896 Z-0.095 J0. K0.05
G0 Z0.4
Y21.8204
Z0.2
G1 Z0.1 F13.333
Z-0.095
G2 Y21.7704 Z-0.145 J-0.05 K0. F40.
G1 Y21.755
G17 G3 X-9.296 Y21.805 I0. J0.05
G1 Y21.9 F50.
G3 X-9.319 Y21.923 I-0.023 J0.
G1 X-9.509
G3 X-9.532 Y21.9 I0. J-0.023
G1 Y20.7
G3 X-9.509 Y20.677 I0.023 J0.
G1 X-9.319
G3 X-9.296 Y20.7 I0. J0.023
G1 Y21.805
G3 X-9.346 Y21.855 I-0.05 J0.
G1 Y21.8396
G19 G2 Y21.7896 Z-0.095 J0. K0.05
G0 Z0.4
X-9.836 Y21.8204
Z0.2
G1 Z0.1 F13.333
Z-0.095
G2 Y21.7704 Z-0.145 J-0.05 K0. F40.
G1 Y21.755
G17 G3 X-9.786 Y21.805 I0. J0.05
G1 Y21.9 F50.
G3 X-9.809 Y21.923 I-0.023 J0.
G1 X-9.999
G3 X-10.022 Y21.9 I0. J-0.023
G1 Y20.7
G3 X-9.999 Y20.677 I0.023 J0.
G1 X-9.809
G3 X-9.786 Y20.7 I0. J0.023
G1 Y21.805
G3 X-9.836 Y21.855 I-0.05 J0.
G1 Y21.8396
G19 G2 Y21.7896 Z-0.095 J0. K0.05
G0 Z0.4
X-8.727 Y18.7399
Z0.2
G1 Z0.1 F13.333
Z-0.095
G2 Y18.6899 Z-0.145 J-0.05 K0. F40.
G1 Y18.6745
G17 G3 X-8.677 Y18.7245 I0. J0.05
G1 Y18.8 F50.
G3 X-8.7 Y18.823 I-0.023 J0.
G1 X-8.8843
G3 X-8.9059 Y18.792 I0. J-0.023
G1 X-8.7216 Y18.2976
G3 X-8.677 Y18.3056 I0.0216 J0.008
G1 Y18.7245
G3 X-8.727 Y18.7745 I-0.05 J0.
G1 Y18.7591
G19 G2 Y18.7091 Z-0.095 J0. K0.05
G0 Z0.6
G17
(2D SLOT CUT)
M7
G0 X-11.027 Y17.2855
Z0.6
Z0.2
G1 Z0.1 F13.333
Y18.675 Z-0.145 F40.
Y18.85 F55.
G2 X-10.8 Y19.077 I0.227 J0.
G1 X-10.349
G3 X-10.276 Y19.15 I0. J0.073
G1 Y20.5794
Z-0.045
Y21.3334
Z-0.145 F13.333
Y21.95 F55.
G2 X-10.049 Y22.177 I0.227 J0.
G1 X-9.269
G2 X-9.042 Y21.95 I0. J-0.227
G1 Y20.8775
Z-0.045
Y20.1235
Z-0.145 F13.333
Y19.15 F55.
G3 X-8.969 Y19.077 I0.073 J0.
G1 X-8.6
G2 X-8.373 Y18.85 I0. J-0.227
G1 Y16.9355
Z-0.045
Y16.1815
Z-0.145 F13.333
Y15.4 F55.
G2 X-8.6 Y15.173 I-0.227 J0.
G1 X-10.8
G2 X-11.027 Y15.4 I0. J0.227
G1 Y16.6155
Z-0.045
Y17.3695
Z-0.145 F13.333
Y18.675 F55.
G0 Z0.6
M9
G53 Z0.
M30
%
