%
(971-23-P-0129_PI SLIDE PLATE_1523)
(T1  D=0.1523 CR=0. - ZMIN=-0.145 - FLAT END MILL)
G90 G94 G17 G91.1
G64 P0.001 Q0.001
G20
G53 G0 Z0.
(SHAPE THROUGH HOLE)
M9
T1 M6
S22000 M3
G4 P10.
G54
M7
G0 X-10.3543 Y17.0166
G43 Z0.6 H1
G0 Z0.1
G3 X-10.4899 Y17.0672 Z0.0599 I-0.0678 J0.0253 F50.
X-10.3543 Y17.0166 Z0.0199 I0.0678 J-0.0253
X-10.4899 Y17.0672 Z-0.0202 I-0.0678 J0.0253
X-10.3543 Y17.0166 Z-0.0603 I0.0678 J-0.0253
X-10.4899 Y17.0672 Z-0.1004 I-0.0678 J0.0253
X-10.3543 Y17.0166 Z-0.1404 I0.0678 J-0.0253
X-10.3498 Y17.0419 Z-0.145 I-0.0678 J0.0253
X-10.4945 I-0.0723 J0.
X-10.35 Y17.0362 I0.0723 J0.
G1 X-10.3498 Y17.0419
G3 X-10.3396 Y17.0731 I-0.0259 J0.0256 F60.
X-10.3996 Y17.1649 I-0.1151 J-0.0097
X-10.4747 Y17.177 I-0.0501 J-0.071
X-10.4691 Y17.1496 I0.0086 J-0.0125
G1 X-10.4117 Y17.1377
G3 X-10.4016 Y17.1391 I0.0031 J0.0149
X-10.3996 Y17.1649 I-0.007 J0.0135 F50.
G1 X-10.4065 Y17.1683 F60.
X-10.4136 Y17.1712
X-10.421 Y17.1735
X-10.4285 Y17.1752
X-10.4361 Y17.1764
X-10.4437 Y17.1769
X-10.4514
X-10.4591 Y17.1763
X-10.4667 Y17.175
X-10.4742 Y17.1732
X-10.4815 Y17.1708
X-10.4886 Y17.1678
X-10.4954 Y17.1643
X-10.502 Y17.1603
X-10.5082 Y17.1558
X-10.5141 Y17.1508
X-10.5195 Y17.1453
X-10.5245 Y17.1395
X-10.529 Y17.1333
X-10.5331 Y17.1267
X-10.5366 Y17.1199
X-10.5395 Y17.1128
X-10.542 Y17.1055
X-10.5438 Y17.098
X-10.545 Y17.0904
X-10.5457 Y17.0827
Y17.075
X-10.5452 Y17.0674
X-10.544 Y17.0597
X-10.5423 Y17.0523
X-10.54 Y17.0449
X-10.5371 Y17.0378
X-10.5336 Y17.0309
X-10.5297 Y17.0243
X-10.5252 Y17.018
X-10.5203 Y17.0121
X-10.5149 Y17.0066
X-10.5091 Y17.0015
X-10.4966 Y16.9486
G3 X-10.2951 Y16.9542 I0.0991 J0.0605
G2 X-10.3397 Y17.0731 I5.0489 J1.9595
G1 X-10.3409 Y17.0754
X-10.3425 Y17.0775
X-10.3444 Y17.0794
X-10.3466 Y17.0808
X-10.349 Y17.0818
X-10.3516 Y17.0824
G3 X-10.3701 Y17.0718 I-0.0024 J-0.0171
X-10.3229 Y16.9679 I0.073 J-0.0296
X-10.3084 Y16.9643 I0.0258 J0.0744 F50.
G2 X-10.2964 Y16.9549 I-0.0022 J-0.0151
G1 X-10.2865 Y16.9272 F60.
X-10.2866 Y16.9186
X-10.2873 Y16.91
X-10.2886 Y16.9015
X-10.2906 Y16.893
X-10.2931 Y16.8848
X-10.2962 Y16.8768
X-10.3 Y16.869
X-10.3042 Y16.8615
X-10.309 Y16.8543
X-10.3143 Y16.8475
X-10.3201 Y16.8411
X-10.3264 Y16.8351
X-10.333 Y16.8296
X-10.34 Y16.8246
X-10.3474 Y16.8201
X-10.3551 Y16.8161
X-10.363 Y16.8128
X-10.3712 Y16.81
X-10.3796 Y16.8078
X-10.388 Y16.8062
X-10.3966 Y16.8052
X-10.4052 Y16.8049
X-10.4139 Y16.8052
X-10.4225 Y16.8061
X-10.431 Y16.8076
X-10.4393 Y16.8097
X-10.4475 Y16.8125
X-10.4555 Y16.8158
X-10.4632 Y16.8197
G3 X-10.4972 Y16.9483 I-0.2826 J-0.006
G1 X-10.4977 Y16.951
X-10.4978 Y16.9538
X-10.4973 Y16.9565
X-10.4964 Y16.9591
X-10.4951 Y16.9614
X-10.4934 Y16.9635
G2 X-10.4522 Y16.9692 I0.0239 J-0.0216
X-10.4425 Y16.8431 I-0.042 J-0.0666
X-10.4547 Y16.8344 I-0.0517 J0.0594 F50.
G3 X-10.4623 Y16.8213 I0.0076 J-0.0132
G1 X-10.4618 Y16.8086 F60.
X-10.4625 Y16.8068
X-10.4598 Y16.7992
X-10.4566 Y16.7919
X-10.4528 Y16.7848
X-10.4485 Y16.778
X-10.4438 Y16.7715
X-10.4385 Y16.7654
X-10.4329 Y16.7597
X-10.4268 Y16.7544
X-10.4203 Y16.7497
X-10.4136 Y16.7454
X-10.4065 Y16.7416
X-10.3991 Y16.7383
X-10.3916 Y16.7356
X-10.3838 Y16.7335
X-10.3759 Y16.7319
X-10.3679 Y16.731
X-10.3599 Y16.7306
X-10.3519 Y16.7308
X-10.3439 Y16.7316
X-10.336 Y16.7331
X-10.3282 Y16.735
X-10.3206 Y16.7376
X-10.3132 Y16.7407
X-10.306 Y16.7444
X-10.2992 Y16.7486
X-10.2926 Y16.7532
X-10.2865 Y16.7584
X-10.2807 Y16.764
X-10.2754 Y16.77
G3 X-10.2865 Y16.9272 I-0.2308 J0.0627
X-10.2984 Y16.9366 I-0.0141 J-0.0056
X-10.3308 Y16.9103 I-0.0041 J-0.0281
X-10.2893 Y16.7937 I0.1572 J-0.0097
X-10.2786 Y16.7832 I0.1156 J0.1069 F50.
G2 X-10.2739 Y16.7688 I-0.0102 J-0.0114
G1 X-10.2755 Y16.762 F60.
X-10.2823 Y16.7434
X-10.2924 Y16.7153
G2 X-10.5011 Y16.7026 I-0.1089 J0.0684
G3 X-10.4625 Y16.8068 I-1.3124 J0.5453
G2 X-10.4507 Y16.8164 I0.0142 J-0.0054
X-10.418 Y16.7869 I0.0045 J-0.0279
X-10.4723 Y16.7166 I-0.0786 J0.0046
X-10.487 Y16.7134 I-0.0243 J0.0749 F50.
G3 X-10.4991 Y16.7042 I0.0019 J-0.0151
G1 X-10.5063 Y16.6856 F60.
G3 X-10.342 Y16.5797 I0.1161 J-0.0003
G2 X-10.2924 Y16.7153 I27.472 J-9.967
G3 X-10.3139 Y16.7335 I-0.0145 J0.0046
X-10.3247 Y16.7253 I0.0179 J-0.0347
X-10.3502 Y16.6088 I0.0868 J-0.0801
X-10.3429 Y16.5913 I0.1124 J0.0364 F50.
G2 X-10.342 Y16.5797 I-0.0136 J-0.007
G1 X-10.3435 Y16.5754 F60.
X-10.3531 Y16.552
G2 X-10.5291 Y16.5391 I-0.0933 J0.0648
X-10.5063 Y16.6856 I0.2215 J0.0405
X-10.4941 Y16.6948 I0.014 J-0.006
X-10.4781 Y16.682 I0.0018 J-0.0142
X-10.515 Y16.5644 I-0.1567 J-0.0154
X-10.5252 Y16.5535 I-0.1198 J0.1022 F50.
G3 X-10.5294 Y16.5388 I0.0106 J-0.0109
X-10.3539 Y16.5522 I0.0857 J0.0342 F60.
G1 X-10.3531 Y16.5548
X-10.3528 Y16.5574
X-10.353 Y16.5601
X-10.3537 Y16.5627
X-10.3549 Y16.5652
X-10.3565 Y16.5674
X-10.3585 Y16.5693
X-10.3608 Y16.5708
X-10.3634 Y16.5718
X-10.3662 Y16.5724
X-10.369
X-10.3719 Y16.5721 Z-0.1447
X-10.3748 Y16.5718 Z-0.1438
X-10.3774 Y16.5715 Z-0.1424
X-10.3797 Y16.5713 Z-0.1405
X-10.3816 Y16.5711 Z-0.1382
X-10.383 Y16.5709 Z-0.1356
X-10.3838 Y16.5708 Z-0.1327
X-10.3841 Z-0.1298
G0 Z0.4
X-9.6089 Y15.9902
Z0.1
G3 X-9.7445 Y16.0407 Z0.0599 I-0.0678 J0.0253 F50.
X-9.6089 Y15.9902 Z0.0199 I0.0678 J-0.0253
X-9.7445 Y16.0407 Z-0.0202 I-0.0678 J0.0253
X-9.6089 Y15.9902 Z-0.0603 I0.0678 J-0.0253
X-9.7445 Y16.0407 Z-0.1004 I-0.0678 J0.0253
X-9.6089 Y15.9902 Z-0.1404 I0.0678 J-0.0253
X-9.6044 Y16.0154 Z-0.145 I-0.0678 J0.0253
X-9.749 I-0.0723 J0.
X-9.6046 Y16.0097 I0.0723 J0.
G1 X-9.6044 Y16.0154
G3 X-9.5849 Y16.0664 I-0.0453 J0.0465 F60.
G1 X-9.6045 Y16.1088
G3 X-9.7957 Y16.1136 I-0.0972 J-0.0582
G1 X-9.7955 Y16.1088
X-9.8165 Y16.0634
G3 X-9.7524 Y15.8788 I0.1249 J-0.0601
G1 X-9.7233 Y15.897
X-9.6767
X-9.6709 Y15.8938
G3 X-9.507 Y16.0193 I0.0308 J0.1295
G1 X-9.559 Y16.0494
G3 X-9.5742 Y16.0488 I-0.0072 J-0.0134
X-9.578 Y16.0335 I0.006 J-0.0097
X-9.5381 Y16.0143 I0.0341 J0.0197
X-9.524 Y16.0192 I-0.0059 J0.0389 F50.
G2 X-9.5088 Y16.0194 I0.0077 J-0.0131
G1 X-9.4928 Y16.0095 F60.
G2 X-9.5565 Y15.822 I-0.093 J-0.073
G3 X-9.6709 Y15.8938 I-0.5992 J-0.828
G2 X-9.6613 Y15.9221 I0.0075 J0.0133
G3 X-9.657 Y15.9523 I0.0022 J0.0151
X-9.668 Y15.9495 I-0.0022 J-0.0151
G1 X-9.7254 Y15.9082
X-9.7278 Y15.906
X-9.7297 Y15.9034
G2 X-9.7512 Y15.8813 I-0.054 J0.031 F50.
G1 X-9.7616 Y15.8755 F60.
X-9.7699 Y15.8705
X-9.7746 Y15.8676
G2 X-9.9146 Y16.0051 I-0.0247 J0.1149
X-9.841 Y16.0494 I3.2279 J-5.2836
X-9.8182 Y16.0372 I0.0076 J-0.0132
G1 X-9.8181 Y16.0362
G2 X-9.8215 Y16.0266 I-0.0152 J0.
G3 X-9.7977 Y16.0076 I0.0119 J-0.0095
X-9.7946 Y16.0147 I-0.0119 J0.0095
G1 X-9.7851 Y16.0736
G3 X-9.787 Y16.0837 I-0.015 J0.0024
G2 X-9.7955 Y16.1134 I0.0538 J0.0315 F50.
G1 X-9.7952 Y16.1554 F60.
X-9.793 Y16.1637
X-9.7902 Y16.1718
X-9.7868 Y16.1797
X-9.7829 Y16.1873
X-9.7784 Y16.1946
X-9.7734 Y16.2016
X-9.768 Y16.2082
X-9.762 Y16.2144
X-9.7557 Y16.2202
X-9.7489 Y16.2254
X-9.7418 Y16.2302
X-9.7344 Y16.2345
X-9.7267 Y16.2382
X-9.7187 Y16.2414
X-9.7105 Y16.2439
X-9.7022 Y16.2459
X-9.6937 Y16.2473
X-9.6852 Y16.2481
X-9.6766 Y16.2482
X-9.6681 Y16.2478
X-9.6595 Y16.2467
X-9.6511 Y16.2451
X-9.6429 Y16.2428
X-9.6348 Y16.2399
X-9.6269 Y16.2365
X-9.6194 Y16.2325
X-9.6121 Y16.228
X-9.6048 Y16.2021
Y16.1554
X-9.6045 Y16.1088
G2 X-9.6124 Y16.0958 I-0.0152 J0.0004
X-9.6517 Y16.1166 I-0.0127 J0.0235
X-9.6265 Y16.2021 I0.1175 J0.0117
X-9.6164 Y16.2132 I0.0923 J-0.0737 F50.
G3 X-9.6122 Y16.2278 I-0.0106 J0.0109
X-9.7383 Y16.2874 I-0.0911 J-0.0294 F60.
X-9.79 Y16.1579 I0.035 J-0.0891
G1 X-9.7906 Y16.156
X-9.7908 Y16.1539
X-9.7906 Y16.1518
X-9.79 Y16.1496
X-9.789 Y16.1476
X-9.7875 Y16.1457
X-9.7856 Y16.1441
X-9.7834 Y16.1429
X-9.7809 Y16.142
X-9.7783 Y16.1417
X-9.7755 Y16.1418
X-9.7727 Y16.1425
X-9.7701 Y16.144 Z-0.1447
X-9.7676 Y16.1453 Z-0.1438
X-9.7653 Y16.1466 Z-0.1424
X-9.7633 Y16.1477 Z-0.1405
X-9.7616 Y16.1486 Z-0.1382
X-9.7604 Y16.1492 Z-0.1356
X-9.7596 Y16.1496 Z-0.1327
X-9.7593 Y16.1498 Z-0.1298
G0 Z0.4
X-9.8694 Y16.0153
Z-0.1145
G1 Z-0.1298 F50.
X-9.8697 Z-0.1327
X-9.8706 Y16.0152 Z-0.1356
X-9.872 Y16.0151 Z-0.1382
X-9.8739 Y16.015 Z-0.1405
X-9.8762 Y16.0149 Z-0.1424
X-9.8788 Y16.0147 Z-0.1438
X-9.8817 Y16.0146 Z-0.1447
X-9.8846 Y16.0144 Z-0.145
G3 X-9.9141 Y16.005 I0.0036 J-0.0622
G1 X-9.9357 Y15.9904 F60.
G3 X-9.8781 Y15.7958 I0.0885 J-0.0796
G2 X-9.7746 Y15.8676 I0.505 J-0.6175
G3 X-9.7679 Y15.8813 I-0.0086 J0.0126
X-9.7916 Y15.9044 I-0.0248 J-0.0018
X-9.874 Y15.8263 I-0.0037 J-0.0787
X-9.8727 Y15.8114 I0.0787 J-0.0006 F50.
G2 X-9.8724 Y15.8086 I-0.015 J-0.0028
X-9.8778 Y15.797 I-0.0152 J0.
G1 X-9.8964 Y15.7822 F60.
G2 X-10.0498 Y15.9016 I-0.0385 J0.1088
X-9.9357 Y15.9904 I0.6347 J-0.6981
X-9.9205 Y15.9909 I0.0081 J-0.0129
X-9.9119 Y15.9296 I-0.0178 J-0.0337
X-10.0202 Y15.8998 I-0.0817 J0.0853
X-10.0346 Y15.9041 I0.0266 J0.1151 F50.
G3 X-10.0496 Y15.9016 I-0.0053 J-0.0143
G1 X-10.0726 Y15.8811 F60.
G3 X-9.9875 Y15.697 I0.1021 J-0.0645
G2 X-9.8964 Y15.7822 I0.5842 J-0.5336
G3 X-9.8917 Y15.7966 I-0.0102 J0.0113
X-9.9166 Y15.8148 I-0.0225 J-0.0047
X-9.9869 Y15.7279 I0.0079 J-0.0783
X-9.9839 Y15.7133 I0.0783 J0.0085 F50.
G2 X-9.9873 Y15.6984 I-0.0146 J-0.0045
G1 X-9.9968 Y15.6888 F60.
X-10.0028 Y15.6824
G2 X-10.1704 Y15.7719 I-0.0544 J0.0998
X-10.0726 Y15.8811 I0.417 J-0.2752
X-10.0576 Y15.8836 I0.0097 J-0.0117
X-10.0482 Y15.865 I-0.0053 J-0.0143
X-10.1432 Y15.7813 I-0.1134 J0.0329
X-10.1581 Y15.7799 I-0.0185 J0.1167 F50.
G3 X-10.171 Y15.7719 I0.0005 J-0.0152
X-10.1391 Y15.6323 I0.0766 J-0.0559 F60.
X-10.0054 Y15.6833 I0.0447 J0.0836
G1 X-10.0037 Y15.6851
X-10.0023 Y15.6872
X-10.0014 Y15.6895
X-10.0009 Y15.6921
Y15.6947
X-10.0015 Y15.6973
X-10.0025 Y15.6999
X-10.004 Y15.7022
X-10.006 Y15.7042
X-10.0084 Y15.7058
X-10.011 Y15.7069
X-10.0139 Y15.7076 Z-0.1447
X-10.0167 Y15.7083 Z-0.1438
X-10.0192 Y15.7089 Z-0.1424
X-10.0215 Y15.7094 Z-0.1405
X-10.0233 Y15.7098 Z-0.1382
X-10.0247 Y15.7102 Z-0.1356
X-10.0255 Y15.7104 Z-0.1327
X-10.0258 Z-0.1298
G0 Z0.4
X-9.582 Y15.861
Z-0.1145
G1 Z-0.1298 F50.
X-9.5819 Y15.8607 Z-0.1327
X-9.5815 Y15.8599 Z-0.1356
X-9.581 Y15.8586 Z-0.1382
X-9.5802 Y15.8569 Z-0.1405
X-9.5793 Y15.8548 Z-0.1424
X-9.5782 Y15.8524 Z-0.1438
X-9.577 Y15.8497 Z-0.1447
X-9.5758 Y15.847 Z-0.145
G3 X-9.5567 Y15.8228 I0.057 J0.0253
G1 X-9.5369 Y15.8088 F60.
G3 X-9.3833 Y15.9303 I0.0381 J0.1097
X-9.4928 Y16.0095 I-0.7222 J-0.8835
X-9.508 Y16.0094 I-0.0076 J-0.0132
X-9.5103 Y15.9437 I0.0196 J-0.0336
X-9.413 Y15.9274 I0.0663 J0.0977
X-9.3988 Y15.9323 I-0.031 J0.114 F50.
G2 X-9.3837 Y15.9303 I0.0058 J-0.0141
G1 X-9.3738 Y15.9221 F60.
X-9.3622 Y15.9119
X-9.3575 Y15.9047
X-9.3534 Y15.8971
X-9.3498 Y15.8893
X-9.3468 Y15.8812
X-9.3444 Y15.873
X-9.3426 Y15.8645
X-9.3414 Y15.856
X-9.3408 Y15.8474
Y15.8388
X-9.3414 Y15.8302
X-9.3427 Y15.8217
X-9.3446 Y15.8133
X-9.3471 Y15.8051
X-9.3501 Y15.797
X-9.3538 Y15.7892
X-9.358 Y15.7817
X-9.3627 Y15.7745
X-9.3679 Y15.7676
X-9.3736 Y15.7612
X-9.3798 Y15.7552
X-9.3864 Y15.7496
X-9.3933 Y15.7445
X-9.4006 Y15.74
X-9.4082 Y15.736
X-9.4161 Y15.7325
X-9.4242 Y15.7296
X-9.4325 Y15.7273
X-9.441 Y15.7256
G3 X-9.5369 Y15.8088 I-0.6953 J-0.7058
G2 X-9.542 Y15.8231 I0.0099 J0.0116
X-9.5158 Y15.8438 I0.0249 J-0.0046
X-9.4416 Y15.7566 I-0.004 J-0.0786
X-9.4446 Y15.742 I-0.0783 J0.0085 F50.
G3 X-9.4412 Y15.7271 I0.0146 J-0.0045
G1 X-9.424 Y15.7098 F60.
G3 X-9.2589 Y15.8136 I0.0492 J0.105
X-9.3622 Y15.9119 I-0.9059 J-0.8479
X-9.3772 Y15.9144 I-0.0097 J-0.0118
X-9.3923 Y15.8535 I0.0134 J-0.0357
X-9.2886 Y15.8147 I0.0884 J0.0783
X-9.2739 Y15.8176 I-0.0153 J0.1171 F50.
G2 X-9.2592 Y15.8136 I0.0039 J-0.0147
G1 X-9.2574 Y15.8116 F60.
X-9.2393 Y15.7888
G2 X-9.3134 Y15.6236 I-0.1052 J-0.052
X-9.4032 Y15.6888 I0.0193 J0.1209
G1 X-9.424 Y15.7098
G2 X-9.4123 Y15.7354 I0.0112 J0.0104
X-9.4036 Y15.732 I-0.0005 J-0.0141
X-9.3318 Y15.6474 I-0.2309 J-0.2688
G1 X-9.3224 Y15.631 F50.
G3 X-9.3134 Y15.6236 I0.0134 J0.0072
X-9.2399 Y15.7882 I0.0101 J0.0942 F60.
G1 X-9.2417 Y15.7901
X-9.2439 Y15.7917
X-9.2463 Y15.7928
X-9.249 Y15.7935
X-9.2517 Y15.7937
X-9.2544 Y15.7934
X-9.2571 Y15.7925
X-9.2595 Y15.7912
X-9.2617 Y15.7895
X-9.2635 Y15.7874
X-9.2649 Y15.7849
X-9.2661 Y15.7822 Z-0.1447
X-9.2672 Y15.7796 Z-0.1438
X-9.2683 Y15.7772 Z-0.1424
X-9.2692 Y15.775 Z-0.1405
X-9.2699 Y15.7733 Z-0.1382
X-9.2705 Y15.772 Z-0.1356
X-9.2708 Y15.7712 Z-0.1327
X-9.2709 Y15.7709 Z-0.1298
G0 Z0.4
X-9.2362 Y18.3231
Z0.1
G3 X-9.3718 Y18.3737 Z0.0599 I-0.0678 J0.0253 F50.
X-9.2362 Y18.3231 Z0.0199 I0.0678 J-0.0253
X-9.3718 Y18.3737 Z-0.0202 I-0.0678 J0.0253
X-9.2362 Y18.3231 Z-0.0603 I0.0678 J-0.0253
X-9.3718 Y18.3737 Z-0.1004 I-0.0678 J0.0253
X-9.2362 Y18.3231 Z-0.1404 I0.0678 J-0.0253
X-9.2317 Y18.3484 Z-0.145 I-0.0678 J0.0253
X-9.3763 I-0.0723 J0.
X-9.2319 Y18.3426 I0.0723 J0.
G1 X-9.2317 Y18.3484
G3 X-9.2133 Y18.3913 I-0.0765 J0.0581 F60.
X-9.2815 Y18.4676 I-0.1477 J-0.0633
X-9.4578 Y18.356 I-0.0579 J-0.1036
X-9.304 Y18.2719 I0.346 J0.4501
X-9.2128 Y18.3914 I-0.0022 J0.0962
G1 X-9.2134 Y18.3939
X-9.2144 Y18.3963
X-9.2157 Y18.3985
X-9.2174 Y18.4004
X-9.2317 Y18.4154
X-9.2601 Y18.4453
X-9.2797 Y18.466 F50.
X-9.2815 Y18.4676
G3 X-9.3586 Y18.5201 I-1.4186 J-2.0033 F60.
X-9.5409 Y18.3902 I-0.0468 J-0.1271
G1 X-9.4904 Y18.3794
X-9.4562 Y18.3561
G3 X-9.4352 Y18.3608 I0.0081 J0.0129
X-9.4448 Y18.3967 I-0.0214 J0.0135
X-9.5084 Y18.4011 I-0.0368 J-0.0696
X-9.5253 Y18.3926 I0.0269 J-0.074 F50.
G2 X-9.5367 Y18.3903 I-0.0085 J0.0127
G1 X-9.5369 Y18.3904 F60.
X-9.5473
G2 X-9.5202 Y18.5784 I0.061 J0.0872
X-9.3586 Y18.5201 I-0.0021 J-0.2586
X-9.3527 Y18.5061 I-0.0092 J-0.0121
X-9.372 Y18.4894 I-0.0189 J0.0024
X-9.5004 Y18.5599 I0.0028 J0.1575
X-9.5081 Y18.5728 I0.1313 J0.0869 F50.
G3 X-9.521 Y18.5808 I-0.0134 J-0.0072
G1 X-9.573 F60.
G3 X-9.6606 Y18.3892 I0.0217 J-0.1257
G1 X-9.5835 Y18.3904
X-9.5473
G3 X-9.5344 Y18.3984 I-0.0005 J0.0152
X-9.548 Y18.435 I-0.0229 J0.0123
X-9.6374 Y18.411 I-0.0282 J-0.0735
X-9.6457 Y18.3985 I0.0612 J-0.0495 F50.
G2 X-9.6586 Y18.3904 I-0.0134 J0.0072
G1 X-9.6806 F60.
G2 X-9.7209 Y18.5808 I0.0385 J0.1076
G1 X-9.573
G2 X-9.5601 Y18.5728 I-0.0005 J-0.0152
X-9.594 Y18.5106 I-0.0374 J-0.0199
X-9.7002 Y18.56 I-0.0098 J0.1177
X-9.708 Y18.5728 I0.0964 J0.0683 F50.
G3 X-9.721 Y18.5808 I-0.0134 J-0.0072
G1 X-9.7505 F60.
G3 X-9.8099 Y18.3896 I0.0334 J-0.1152
G1 X-9.7699 Y18.3904
X-9.6806
G3 X-9.6677 Y18.3985 I-0.0005 J0.0152
X-9.6703 Y18.4168 I-0.0138 J0.0074
X-9.7878 Y18.4109 I-0.0561 J-0.0553
X-9.796 Y18.3984 I0.0613 J-0.0494 F50.
G2 X-9.8089 Y18.3904 I-0.0135 J0.0071
G1 X-9.8165 Y18.3903 F60.
X-9.8235 Y18.3881
X-9.8316 Y18.3896
X-9.8396 Y18.3917
X-9.8474 Y18.3943
X-9.855 Y18.3976
X-9.8623 Y18.4014
X-9.8693 Y18.4057
X-9.876 Y18.4105
X-9.8823 Y18.4158
X-9.8882 Y18.4216
X-9.8936 Y18.4277
X-9.8986 Y18.4343
X-9.9031 Y18.4412
X-9.907 Y18.4485
X-9.9104 Y18.456
X-9.9133 Y18.4637
X-9.9155 Y18.4716
X-9.9172 Y18.4797
X-9.9183 Y18.4879
X-9.9187 Y18.4961
X-9.9186 Y18.5043
X-9.9178 Y18.5125
X-9.9165 Y18.5207
X-9.9145 Y18.5287
X-9.9119 Y18.5365
X-9.9088 Y18.5441
X-9.9051 Y18.5515
X-9.9009 Y18.5586
X-9.8962 Y18.5653
X-9.891 Y18.5717
X-9.8631 Y18.5808
X-9.7505
G2 X-9.7376 Y18.5728 I-0.0005 J-0.0152
X-9.7497 Y18.5401 I-0.0205 J-0.0109
X-9.8663 Y18.5583 I-0.0426 J0.1102
X-9.8774 Y18.5684 I0.074 J0.092 F50.
G3 X-9.892 Y18.5726 I-0.011 J-0.0106
G1 X-9.9096 Y18.5676 F60.
X-9.9407 Y18.5505
G3 X-9.923 Y18.3353 I0.0829 J-0.1015
G2 X-9.8235 Y18.3881 I0.2124 J-0.2801
G3 X-9.8136 Y18.3997 I-0.0051 J0.0143
X-9.8131 Y18.4052 I-0.03 J0.0055
G1 X-9.8135 Y18.4099
X-9.8146 Y18.4145
G3 X-9.8481 Y18.4354 I-0.029 J-0.0093
X-9.9149 Y18.3663 I0.0114 J-0.0779
X-9.9151 Y18.3513 I0.0782 J-0.0088 F50.
G2 X-9.9217 Y18.3376 I-0.0152 J-0.0012
G1 X-9.9397 Y18.3261 F60.
G2 X-10.0714 Y18.4683 I-0.0213 J0.1123
X-9.9407 Y18.5505 I7.3395 J-11.5231
X-9.9255 Y18.5497 I0.0069 J-0.0136
X-9.9202 Y18.4855 I-0.0222 J-0.0341
X-10.0427 Y18.4625 I-0.0798 J0.0871
X-10.0563 Y18.4687 I0.0427 J0.1101 F50.
G3 X-10.0715 Y18.4683 I-0.0073 J-0.0134
G1 X-10.096 Y18.4522 F60.
G3 X-10.0837 Y18.2835 I0.0882 J-0.0783
X-10.0648 Y18.2992 I0.0037 J0.0148
G1 X-10.0649 Y18.3016
X-10.0728 Y18.44
G3 X-10.096 Y18.4522 I-0.0152 J-0.0009 F50.
G1 X-10.1024 Y18.4478 F60.
X-10.1085 Y18.4429
X-10.1141 Y18.4376
X-10.1193 Y18.4318
X-10.1241 Y18.4256
X-10.1283 Y18.419
X-10.132 Y18.4122
X-10.1351 Y18.405
X-10.1376 Y18.3977
X-10.1396 Y18.3902
X-10.1409 Y18.3825
X-10.1416 Y18.3747
X-10.1417 Y18.367
X-10.1412 Y18.3592
X-10.14 Y18.3515
X-10.1382 Y18.3439
X-10.1359 Y18.3365
X-10.1329 Y18.3293
X-10.1294 Y18.3224
X-10.1254 Y18.3157
X-10.1208 Y18.3094
X-10.1157 Y18.3035
X-10.1102 Y18.2981
X-10.1042 Y18.293
X-10.0979 Y18.2885
X-10.0912 Y18.2845
X-10.0843 Y18.281
X-10.077 Y18.2781
X-10.0696 Y18.2758
X-10.062 Y18.2741
X-10.0543 Y18.2731
X-10.0466 Y18.2726
X-10.0388 Y18.2727
X-10.031 Y18.2735
X-10.0234 Y18.2749
X-10.0159 Y18.2769
X-10.0085 Y18.2795
X-10.0014 Y18.2827
X-9.9946 Y18.2864
X-9.9881 Y18.2907
X-9.982 Y18.2954
X-9.9762 Y18.3007
X-9.9709 Y18.3064
X-9.9661 Y18.3125
X-9.9618 Y18.319
X-9.9397 Y18.3261
G3 X-9.941 Y18.3519 I-0.0086 J0.0125
G1 X-9.9436 Y18.3534 Z-0.1447
X-9.9461 Y18.3548 Z-0.1438
X-9.9484 Y18.356 Z-0.1424
X-9.9504 Y18.3572 Z-0.1405
X-9.952 Y18.3581 Z-0.1382
X-9.9533 Y18.3588 Z-0.1356
X-9.954 Y18.3592 Z-0.1327
X-9.9543 Y18.3593 Z-0.1298
G0 Z0.4
X-9.7021 Y17.5299
Z0.1
G3 X-9.8377 Y17.5805 Z0.0599 I-0.0678 J0.0253 F50.
X-9.7021 Y17.5299 Z0.0199 I0.0678 J-0.0253
X-9.8377 Y17.5805 Z-0.0202 I-0.0678 J0.0253
X-9.7021 Y17.5299 Z-0.0603 I0.0678 J-0.0253
X-9.8377 Y17.5805 Z-0.1004 I-0.0678 J0.0253
X-9.7021 Y17.5299 Z-0.1404 I0.0678 J-0.0253
X-9.6975 Y17.5552 Z-0.145 I-0.0678 J0.0253
X-9.8422 I-0.0723 J0.
X-9.6978 Y17.5494 I0.0723 J0.
G1 X-9.6975 Y17.5552
G3 X-9.6857 Y17.6401 I-0.0391 J0.0487 F60.
X-9.7761 Y17.6485 I-0.0829 J-0.4029
X-9.7699 Y17.4464 I0.0256 J-0.1003
G1 X-9.7608 Y17.4442
X-9.7516 Y17.4425
X-9.7423 Y17.4414
X-9.733 Y17.4409
X-9.7236 Y17.441
X-9.7143 Y17.4417
X-9.705 Y17.443
X-9.6959 Y17.4449
X-9.6868 Y17.4474
X-9.678 Y17.4505
X-9.6694 Y17.4541
X-9.661 Y17.4583
X-9.6529 Y17.463
X-9.6452 Y17.4683
X-9.6378 Y17.474
X-9.6307 Y17.4802
X-9.6241 Y17.4868
X-9.6179 Y17.4938
X-9.6122 Y17.5012
X-9.607 Y17.509
X-9.6023 Y17.5171
X-9.5981 Y17.5255
X-9.5945 Y17.5341
X-9.5915 Y17.5429
X-9.589 Y17.5519
X-9.5871 Y17.5611
X-9.5858 Y17.5704
X-9.5851 Y17.5797
X-9.585 Y17.589
X-9.5855 Y17.5984
X-9.5866 Y17.6077
X-9.5883 Y17.6169
X-9.5906 Y17.6259
X-9.5934 Y17.6349
X-9.5938 Y17.6372
G3 X-9.6095 Y17.6335 I-0.0048 J-0.0144
G1 X-9.6193 Y17.6236
X-9.7682 Y17.4728
X-9.7716 Y17.4694 F50.
G3 X-9.7699 Y17.4464 I0.0108 J-0.0107
X-9.6078 Y17.4619 I0.0748 J0.0732 F60.
X-9.5496 Y17.5921 I-0.0304 J0.0916
X-9.6846 Y17.6381 I-0.0885 J-0.0386
G1 X-9.6871
X-9.6897 Y17.6377
X-9.6921 Y17.6368
X-9.6944 Y17.6354
X-9.6964 Y17.6335
X-9.698 Y17.6313
X-9.6991 Y17.6288
X-9.6998 Y17.6261
X-9.7 Y17.6233
X-9.6996 Y17.6204
X-9.6986 Y17.6177
X-9.6972 Y17.6151 Z-0.1447
X-9.6958 Y17.6125 Z-0.1438
X-9.6946 Y17.6102 Z-0.1424
X-9.6935 Y17.6082 Z-0.1405
X-9.6926 Y17.6065 Z-0.1382
X-9.6919 Y17.6053 Z-0.1356
X-9.6915 Y17.6045 Z-0.1327
X-9.6914 Y17.6043 Z-0.1298
G0 Z0.4
X-8.9567 Y16.8767
Z0.1
G3 X-9.0923 Y16.9273 Z0.0599 I-0.0678 J0.0253 F50.
X-8.9567 Y16.8767 Z0.0199 I0.0678 J-0.0253
X-9.0923 Y16.9273 Z-0.0202 I-0.0678 J0.0253
X-8.9567 Y16.8767 Z-0.0603 I0.0678 J-0.0253
X-9.0923 Y16.9273 Z-0.1004 I-0.0678 J0.0253
X-8.9567 Y16.8767 Z-0.1404 I0.0678 J-0.0253
X-8.9521 Y16.902 Z-0.145 I-0.0678 J0.0253
X-9.0968 I-0.0723 J0.
X-8.9524 Y16.8962 I0.0723 J0.
G1 X-8.9521 Y16.902
G3 X-9.0706 Y17.045 I-0.0754 J0.0581 F60.
X-9.1316 Y16.8658 I1.1372 J-0.4875
G1 X-9.1317 Y16.8574
X-9.1312 Y16.849
X-9.1301 Y16.8406
X-9.1283 Y16.8324
X-9.126 Y16.8243
X-9.1231 Y16.8164
X-9.1196 Y16.8087
X-9.1156 Y16.8013
X-9.1111 Y16.7942
X-9.106 Y16.7875
X-9.1005 Y16.7811
X-9.0946 Y16.7751
X-9.0882 Y16.7696
X-9.0814 Y16.7646
X-9.0743 Y16.7601
X-9.0669 Y16.7561
X-9.0592 Y16.7526
X-9.0513 Y16.7497
X-9.0432 Y16.7474
X-9.035 Y16.7457
X-9.0266 Y16.7446
X-9.0182 Y16.7441
X-9.0098 Y16.7442
X-9.0014 Y16.7449
X-8.9931 Y16.7462
X-8.9849 Y16.7481
X-8.9768 Y16.7506
X-8.969 Y16.7537
X-8.9614 Y16.7573
X-8.9541 Y16.7615
X-8.9471 Y16.7662
X-8.9404 Y16.7714
X-8.9342 Y16.777
X-8.9284 Y16.7831
G2 X-8.887 Y16.9829 I0.2546 J0.0514
G1 X-8.8858 Y16.992
X-8.8852 Y17.0011
Y17.0103
X-8.8858 Y17.0194
X-8.887 Y17.0285
X-8.8889 Y17.0375
X-8.8914 Y17.0463
X-8.8944 Y17.055
X-8.8981 Y17.0634
X-8.9023 Y17.0715
X-8.9071 Y17.0794
X-8.9124 Y17.0869
X-8.9181 Y17.094
X-8.9244 Y17.1007
X-8.9311 Y17.107
X-8.9382 Y17.1128
X-8.9457 Y17.1181
X-8.9535 Y17.1229
X-8.9616 Y17.1271
X-8.97 Y17.1308
X-8.9787 Y17.1339
X-8.9875 Y17.1364
X-8.9965 Y17.1383
X-9.0055 Y17.1395
X-9.0147 Y17.1402
X-9.0238
X-9.033 Y17.1396
X-9.0346 Y17.1373
X-9.0357 Y17.1347
X-9.0364 Y17.132
X-9.0366 Y17.1292
X-9.0363 Y17.1264
X-9.0355 Y17.1238
X-9.0342 Y17.1214
X-9.0326 Y17.1192
X-9.0261 Y17.1116
X-8.9154 Y16.9808
G3 X-8.8898 Y16.9848 I0.0116 J0.0098 F50.
G1 X-8.8858 Y16.9953 F60.
X-8.8695 Y17.0419
X-8.8608 Y17.0781
G3 X-8.9505 Y17.1823 I-0.0949 J0.0091
X-9.051 Y17.0885 I-0.0052 J-0.0952
G1 X-9.0706 Y17.045
G3 X-9.0707 Y17.0349 I0.0143 J-0.0052
G2 X-9.0706 Y17.0252 I-0.0144 J-0.0049
G1 X-9.074 Y17.015
X-9.1125 Y16.8984
X-9.114 Y16.8953
X-9.1161 Y16.8925
G3 X-9.1316 Y16.8658 I0.0444 J-0.0437 F50.
X-9.1126 Y16.7293 I0.2474 J-0.0351 F60.
X-8.8966 Y16.6966 I0.1219 J0.0751
G1 X-8.9052 Y16.7153
X-8.9221 Y16.762
X-8.9298 Y16.7844
G3 X-8.9416 Y16.7939 I-0.0142 J-0.0055
X-8.9724 Y16.7524 I-0.0046 J-0.0288
X-8.9258 Y16.7118 I0.0709 J0.0343
X-8.9112 Y16.7086 I0.0243 J0.0749 F50.
G2 X-8.8991 Y16.6995 I-0.0019 J-0.0151
G1 X-8.8929 Y16.6834 F60.
G2 X-9.0608 Y16.5887 I-0.1129 J0.0039
X-9.1126 Y16.7293 I5.6581 J2.1637
X-9.1094 Y16.7442 I0.0145 J0.0046
X-9.0395 Y16.7343 I0.0316 J-0.0287
X-9.0486 Y16.6148 I-0.106 J-0.0521
X-9.0579 Y16.6031 I-0.097 J0.0675 F50.
G3 X-9.0611 Y16.5882 I0.0113 J-0.0102
G1 X-9.0565 Y16.5754 F60.
X-9.0491 Y16.5574
G3 X-8.8693 Y16.5443 I0.0954 J0.068
G1 X-8.8688 Y16.5471
X-8.8689 Y16.55
X-8.8696 Y16.5528
X-8.8708 Y16.5554
X-8.8724 Y16.5577
X-8.8744 Y16.5597
X-8.8769 Y16.5613
X-8.8795 Y16.5624
X-8.8823 Y16.563
X-8.8871 Y16.5635
X-9.0332 Y16.5778
X-9.0334 F50.
G3 X-9.0491 Y16.5574 I-0.0015 J-0.0152
X-8.9231 Y16.4873 I0.0934 J0.0197 F60.
X-8.8714 Y16.6219 I-0.0326 J0.0898
G1 X-8.8872 Y16.6687
X-8.8929 Y16.6834
X-8.8861 Y16.6877
X-8.8796 Y16.6926
X-8.8736 Y16.698
X-8.8679 Y16.7038
X-8.8627 Y16.71
X-8.858 Y16.7165
X-8.8538 Y16.7234
X-8.8501 Y16.7306
X-8.8469 Y16.7381
X-8.8443 Y16.7458
X-8.8423 Y16.7536
X-8.8409 Y16.7616
X-8.8401 Y16.7696
X-8.8399 Y16.7777
X-8.8402 Y16.7858
X-8.8412 Y16.7938
X-8.8428 Y16.8017
G3 X-8.7714 Y17.1225 I-0.709 J0.3261
X-9.1466 Y17.0944 I-0.1854 J-0.0434
G1 X-9.1558 Y17.0788
X-9.1645 Y17.0629
X-9.1726 Y17.0467
X-9.1802 Y17.0302
X-9.1872 Y17.0135
X-9.1936 Y16.9966
X-9.1995 Y16.9794
X-9.2047 Y16.9621
X-9.2094 Y16.9446
X-9.2135 Y16.9269
X-9.217 Y16.9091
X-9.2199 Y16.8912
X-9.2221 Y16.8732
X-9.2238 Y16.8552
X-9.2248 Y16.8371
X-9.2253 Y16.819
X-9.2251 Y16.8008
X-9.2243 Y16.7827
X-9.2228 Y16.7647
X-9.2208 Y16.7467
X-9.2182 Y16.7287
X-9.2149 Y16.7109
X-9.2111 Y16.6932
X-9.2066 Y16.6756
X-9.2016 Y16.6582
X-9.1959 Y16.641
X-9.1897 Y16.6239
X-9.1829 Y16.6071
X-9.1756 Y16.5906
X-9.1677 Y16.5743
X-9.1592 Y16.5582
X-9.1502 Y16.5425
X-9.1407 Y16.5271
X-9.1306 Y16.512
X-9.1201 Y16.4973
X-9.109 Y16.4829
X-9.0975 Y16.4689
X-9.0855 Y16.4553
X-9.073 Y16.4422
X-9.0601 Y16.4294
X-9.0468 Y16.4171
X-9.0331 Y16.4053
X-9.019 Y16.3939
G3 X-8.8414 Y16.4332 I0.0433 J0.2255
G1 X-8.8328 Y16.4428
X-8.8247 Y16.4528
X-8.8171 Y16.4631
X-8.8099 Y16.4737
X-8.8032 Y16.4846
X-8.797 Y16.4959
X-8.7913 Y16.5074
X-8.7861 Y16.5191
X-8.7814 Y16.5311
X-8.7773 Y16.5433
X-8.7738 Y16.5556
X-8.7708 Y16.5681
X-8.7683 Y16.5807
X-8.7665 Y16.5934
X-8.7651 Y16.6062
X-8.7644 Y16.619
X-8.7643 Y16.6318
X-8.7647 Y16.6446
X-8.7657 Y16.6574
X-8.7672 Y16.6702
X-8.7694 Y16.6828
G2 X-8.6911 Y16.9503 I5.3254 J-1.412
G1 Y17.1218
X-8.6923 Y17.1345
X-8.694 Y17.1472
X-8.6963 Y17.1598
X-8.6993 Y17.1722
X-8.7029 Y17.1845
X-8.707 Y17.1965
X-8.7118 Y17.2084
X-8.7171 Y17.22
X-8.723 Y17.2314
X-8.7294 Y17.2424
X-8.7364 Y17.2531
X-8.7438 Y17.2635
X-8.7518 Y17.2734
X-8.7603 Y17.283
X-8.7692 Y17.2922
X-8.7785 Y17.3009
X-8.7883 Y17.3091
X-8.7984 Y17.3169
X-8.809 Y17.3241
X-8.8198 Y17.3308
X-8.831 Y17.337
X-8.8425 Y17.3426
X-8.8542 Y17.3477
X-8.8662 Y17.3522
X-8.8784 Y17.356
X-8.8907 Y17.3593
X-8.9032 Y17.362
X-8.9158 Y17.3641
X-8.9285 Y17.3655
X-8.9413 Y17.3663
X-8.954 Y17.3665
X-8.9668 Y17.3661
X-8.9795 Y17.365
X-8.9922 Y17.3633
X-9.0048 Y17.3611
X-9.0172 Y17.3581
X-9.0295 Y17.3546
X-9.0416 Y17.3505
X-9.0535 Y17.3458
X-9.0651 Y17.3405
X-9.0765 Y17.3347
X-9.0875 Y17.3283
X-9.0983 Y17.3214
X-9.1894 Y17.2152
X-9.2013 Y17.1994
X-9.2127 Y17.1831
X-9.2237 Y17.1665
X-9.2341 Y17.1496
X-9.2439 Y17.1323
X-9.2533 Y17.1148
X-9.262 Y17.0969
X-9.2702 Y17.0788
X-9.2779 Y17.0605
X-9.285 Y17.0419
X-9.2915 Y17.0231
X-9.2974 Y17.0042
X-9.3027 Y16.985
X-9.3074 Y16.9657
X-9.3115 Y16.9463
X-9.315 Y16.9267
X-9.3178 Y16.907
X-9.3201 Y16.8873
X-9.3218 Y16.8675
X-9.3228 Y16.8476
X-9.3232 Y16.8278
X-9.323 Y16.8079
X-9.3222 Y16.788
X-9.3207 Y16.7682
X-9.3187 Y16.7484
X-9.316 Y16.7288
X-9.3127 Y16.7092
X-9.3088 Y16.6897
X-9.3043 Y16.6703
X-9.2992 Y16.6511
X-9.2935 Y16.6321
X-9.2872 Y16.6132
X-9.2803 Y16.5946
X-9.2729 Y16.5762
X-9.2648 Y16.558
X-9.2562 Y16.5401
X-9.2471 Y16.5224
X-9.2374 Y16.5051
X-9.1307 Y16.3744
X-9.1213 Y16.3658
X-9.1116 Y16.3576
X-9.1014 Y16.3499
X-9.0908 Y16.3427
X-9.08 Y16.336
X-9.0688 Y16.3299
X-9.0573 Y16.3243
X-9.0456 Y16.3192
X-9.0336 Y16.3148
X-9.0215 Y16.3109
X-9.0092 Y16.3076
X-8.9967 Y16.3049
X-8.9841 Y16.3028
X-8.9714 Y16.3013
X-8.9587 Y16.3005
X-8.9459 Y16.3002
X-8.9332 Y16.3006
X-8.9205 Y16.3016
X-8.9078 Y16.3032
X-8.8952 Y16.3054
X-8.8828 Y16.3082
X-8.8705 Y16.3116
X-8.8584 Y16.3156
X-8.8465 Y16.3202
X-8.8348 Y16.3253
X-8.8234 Y16.331
X-8.8122 Y16.3373
X-8.8014 Y16.3441
X-8.791 Y16.3514
X-8.7809 Y16.3591
X-8.7711 Y16.3674
X-8.7618 Y16.3761
X-8.753 Y16.3853
X-8.7445 Y16.3949
X-8.7366 Y16.4049
X-8.7291 Y16.4152
X-8.7222 Y16.4259
X-8.7157 Y16.437
X-8.7099 Y16.4483
X-8.7045 Y16.4599
X-8.6998 Y16.4717
X-8.6956 Y16.4838
X-8.692 Y16.496
X-8.6911 Y16.9503
G3 X-8.6992 Y16.9632 I-0.0152 J-0.0005
X-8.7542 Y16.9565 I-0.0227 J-0.0426
X-8.7122 Y16.5161 I0.1846 J-0.2046
G1 X-8.6992 Y16.5087 F50.
G2 X-8.6911 Y16.4958 I-0.0072 J-0.0134
G1 Y16.3849 F60.
G2 X-8.9906 Y16.2086 I-0.2472 J0.0774
G1 X-9.1307 Y16.3744
G2 X-9.1068 Y16.3933 I0.012 J0.0094
X-9.1094 Y16.3718 I-0.012 J-0.0094
X-9.1308 Y16.3745 I-0.0094 J0.012
G1 X-9.2212 Y16.4917
G2 X-9.1971 Y16.5103 I0.0121 J0.0093
X-9.2141 Y16.4866 I-0.0121 J-0.0093
X-9.2399 Y16.5036 I0.0204 J0.0589 F50.
G1 X-9.3619 Y16.648 F60.
G2 X-9.4097 Y16.9544 I0.3174 J0.2065
G1 X-9.1894 Y17.2152
G2 X-9.1629 Y17.205 I0.0113 J-0.0102
G1 X-9.1631 Y17.2022
X-9.1639 Y17.1996
G2 X-9.1923 Y17.2105 I-0.0142 J0.0054
X-9.1892 Y17.2155 I0.0142 J-0.0054
G1 X-9.1074 Y17.302
G2 X-9.0853 Y17.2811 I0.0111 J-0.0105
X-9.1114 Y17.294 I-0.0111 J0.0105
X-9.0989 Y17.3223 I0.0615 J-0.0102 F50.
G1 X-9.0315 Y17.4021 F60.
G2 X-8.6911 Y17.346 I0.1404 J-0.2089
G1 Y17.1218
G2 X-8.6992 Y17.1089 I-0.0152 J0.0005
X-8.7711 Y17.135 I-0.0242 J0.0454
X-8.7121 Y17.3254 I0.1459 J0.0592
X-8.6992 Y17.3331 I0.0869 J-0.1313 F50.
G3 X-8.6911 Y17.346 I-0.0072 J0.0134
G1 Y17.4021 F60.
G3 X-8.9137 Y17.5416 I-0.1939 J-0.0621
G1 X-9.0315 Y17.4021
G3 X-9.0337 Y17.387 I0.012 J-0.0094
X-8.9969 Y17.3682 I0.0292 J0.0116
X-8.9112 Y17.5123 I-0.0287 J0.1146
X-8.9158 Y17.5265 I-0.1144 J-0.0295 F50.
G2 X-8.9137 Y17.5416 I0.0141 J0.0056
G1 X-8.8835 Y17.5773 F60.
X-8.8756 Y17.5827
X-8.8674 Y17.5877
X-8.8588 Y17.5921
X-8.85 Y17.5959
X-8.8409 Y17.5991
X-8.8317 Y17.6018
X-8.8223 Y17.6038
X-8.8128 Y17.6053
X-8.8032 Y17.6061
X-8.7936 Y17.6062
X-8.784 Y17.6058
X-8.7744 Y17.6047
X-8.765 Y17.603
X-8.7556 Y17.6007
X-8.7465 Y17.5978
X-8.7375 Y17.5943
X-8.7288 Y17.5902
X-8.7204 Y17.5856
X-8.7123 Y17.5804
X-8.7045 Y17.5747
X-8.6972 Y17.5685
X-8.6902 Y17.5618
X-8.6911 Y17.4021
G2 X-8.6992 Y17.3892 I-0.0152 J0.0005
X-8.7583 Y17.4156 I-0.0193 J0.0362
X-8.712 Y17.5402 I0.1147 J0.0283
X-8.6992 Y17.548 I0.0683 J-0.0964 F50.
G3 X-8.6911 Y17.561 I-0.0072 J0.0134
G1 Y17.596 F60.
G3 X-8.7935 Y17.6858 I-0.1023 J-0.0134
G1 X-8.7954 Y17.6832
X-8.7966 Y17.6804
X-8.7973 Y17.6773
X-8.7975 Y17.6743
X-8.797 Y17.6713
X-8.796 Y17.6685
X-8.7945 Y17.6659
X-8.7925 Y17.6638
X-8.7862 Y17.6572
X-8.7173 Y17.586
X-8.7156 Y17.5844
X-8.7136 Y17.5831
G3 X-8.6911 Y17.596 I0.0072 J0.0134 F50.
G1 Y17.6719 F60.
G3 X-8.7292 Y17.7401 I-0.0734 J0.0039
X-8.742 Y17.7192 I0.0013 J-0.0152
G1 X-8.7411 Y17.717
X-8.7205 Y17.6666
G3 X-8.7136 Y17.659 I0.0141 J0.0058
X-8.6911 Y17.6719 I0.0072 J0.0134 F50.
X-8.6959 Y17.7397 I-0.0515 J0.0305 F60.
X-8.7553 Y17.7291 I-0.0229 J-0.043
G1 X-8.8835 Y17.5773
G3 X-8.8747 Y17.5529 I0.012 J-0.0094
G1 X-8.8718 Y17.5523 Z-0.1447
X-8.869 Y17.5517 Z-0.1438
X-8.8664 Y17.5512 Z-0.1424
X-8.8641 Y17.5507 Z-0.1405
X-8.8623 Y17.5503 Z-0.1382
X-8.8609 Y17.55 Z-0.1356
X-8.8601 Y17.5499 Z-0.1327
X-8.8598 Y17.5498 Z-0.1298
G0 Z-0.1145
X-9.3217 Y16.626
G1 Z-0.1298 F50.
X-9.322 Y16.6261 Z-0.1327
X-9.3228 Y16.6264 Z-0.1356
X-9.3241 Y16.6269 Z-0.1382
X-9.3259 Y16.6275 Z-0.1405
X-9.3281 Y16.6282 Z-0.1424
X-9.3306 Y16.6291 Z-0.1438
X-9.3333 Y16.63 Z-0.1447
X-9.3361 Y16.631 Z-0.145
G2 X-9.3619 Y16.648 I0.0204 J0.0589
G1 X-9.4785 Y16.786 F60.
G2 X-9.5014 Y16.8459 I0.0251 J0.0439
G1 X-9.4097 Y16.9544
G2 X-9.3846 Y16.9378 I0.0113 J-0.0102
G1 X-9.453 Y16.7907
X-9.4534 Y16.7899 F50.
G2 X-9.4785 Y16.786 I-0.0138 J0.0064
X-9.5106 Y16.8321 I0.0075 J0.0394 F60.
G1 X-9.5056 Y16.8408
X-9.5051 Y16.8415
X-9.5014 Y16.8459
G2 X-9.486 Y16.8503 I0.0113 J-0.0102
G1 X-9.4831 Y16.8495 Z-0.1447
X-9.4804 Y16.8487 Z-0.1438
X-9.4778 Y16.848 Z-0.1424
X-9.4756 Y16.8474 Z-0.1405
X-9.4738 Y16.8468 Z-0.1382
X-9.4724 Y16.8465 Z-0.1356
X-9.4716 Y16.8462 Z-0.1327
X-9.4713 Y16.8461 Z-0.1298
G0 Z-0.1145
X-9.0056 Y16.2519
G1 Z-0.1298 F50.
Y16.2516 Z-0.1327
X-9.0054 Y16.2508 Z-0.1356
X-9.0052 Y16.2494 Z-0.1382
X-9.0049 Y16.2475 Z-0.1405
X-9.0045 Y16.2452 Z-0.1424
X-9.0041 Y16.2426 Z-0.1438
X-9.0036 Y16.2398 Z-0.1447
X-9.0031 Y16.2369 Z-0.145
G3 X-8.9906 Y16.2086 I0.0615 J0.0102
G1 X-8.9587 Y16.1708 F60.
G3 X-8.6911 Y16.2056 I0.1141 J0.1688
G1 Y16.3849
G3 X-8.6992 Y16.3978 I-0.0152 J-0.0005
X-8.7431 Y16.3863 I-0.0157 J-0.0295
X-8.712 Y16.2263 I0.0995 J-0.0636
X-8.6992 Y16.2185 I0.0683 J0.0964 F50.
G2 X-8.6911 Y16.2056 I-0.0072 J-0.0134
G1 Y16.1642 F60.
X-8.693 Y16.1552
X-8.6955 Y16.1463
X-8.6985 Y16.1375
X-8.7021 Y16.129
X-8.7062 Y16.1207
X-8.7108 Y16.1127
X-8.7159 Y16.105
X-8.7214 Y16.0977
X-8.7275 Y16.0907
X-8.7339 Y16.0841
X-8.7408 Y16.0779
X-8.748 Y16.0721
X-8.7556 Y16.0668
X-8.7635 Y16.062
X-8.7716 Y16.0578
X-8.7801 Y16.054
X-8.7887 Y16.0508
X-8.7976 Y16.0481
X-8.8065 Y16.046
X-8.8156 Y16.0444
X-8.8248 Y16.0434
X-8.834 Y16.043
X-8.8433 Y16.0432
X-8.8525 Y16.044
X-8.9587 Y16.1708
G2 X-8.9609 Y16.1859 I0.012 J0.0094
X-8.9038 Y16.2052 I0.0368 J-0.0147
X-8.8499 Y16.0742 I-0.0604 J-0.1015
X-8.8545 Y16.06 I-0.1144 J0.0295 F50.
G3 X-8.8524 Y16.0449 I0.0141 J-0.0056
G1 X-8.8297 Y16.0181 F60.
G3 X-8.6899 Y16.0162 I0.071 J0.078
G1 X-8.6902 Y16.0193
X-8.691 Y16.0223
X-8.6925 Y16.0251
X-8.6943 Y16.0275
X-8.6966 Y16.0294
X-8.6992 Y16.0309
X-8.702 Y16.0319
X-8.7049 Y16.0323
X-8.7139 Y16.0331
X-8.8163 Y16.0427
X-8.8186 Y16.0428
X-8.8209 Y16.0425
G3 X-8.8297 Y16.0181 I0.0031 J-0.0149 F50.
G1 X-8.779 Y15.9581 F60.
G3 X-8.6915 Y15.9385 I0.0528 J0.0306
X-8.7001 Y15.952 I-0.0152 J-0.0002
G1 X-8.7127 Y15.9582
G3 X-8.7702 Y15.9824 I-0.055 J-0.0502
X-8.779 Y15.9581 I0.0031 J-0.0149 F50.
X-8.6916 Y15.9307 I0.0498 J0.0057 F60.
G1 X-8.6911 Y15.954
Y16.1642
G3 X-8.7136 Y16.1771 I-0.0152 J-0.0005
G1 X-8.7162 Y16.1757 Z-0.1447
X-8.7187 Y16.1743 Z-0.1438
X-8.721 Y16.1731 Z-0.1424
X-8.7231 Y16.172 Z-0.1405
X-8.7247 Y16.1711 Z-0.1382
X-8.726 Y16.1704 Z-0.1356
X-8.7267 Y16.17 Z-0.1327
X-8.727 Y16.1699 Z-0.1298
G0 Z0.4
X-10.3415 Y16.8412
Z-0.1145
G1 Z-0.1298 F50.
X-10.3413 Y16.841 Z-0.1327
X-10.3408 Y16.8403 Z-0.1356
X-10.34 Y16.8391 Z-0.1382
X-10.3389 Y16.8376 Z-0.1405
X-10.3375 Y16.8357 Z-0.1424
X-10.336 Y16.8336 Z-0.1438
X-10.3344 Y16.8312 Z-0.1447
X-10.3326 Y16.8288 Z-0.145
G3 X-10.277 Y16.7662 I0.3168 J0.2255
G1 X-10.2695 Y16.766 F60.
X-10.262 Y16.7664
X-10.2545 Y16.7674
X-10.2472 Y16.7691
X-10.24 Y16.7713
X-10.2331 Y16.7742
X-10.2264 Y16.7776
X-10.22 Y16.7815
X-10.214 Y16.786
X-10.2083 Y16.791
X-10.2031 Y16.7964
X-10.1984 Y16.8023
X-10.1942 Y16.8085
X-10.1905 Y16.815
X-10.1873 Y16.8219
X-10.1848 Y16.8289
X-10.1828 Y16.8362
X-10.1815 Y16.8436
X-10.1808 Y16.8511
X-10.1807 Y16.8586
X-10.1812 Y16.8661
X-10.1824 Y16.8735
X-10.1842 Y16.8808
X-10.1865 Y16.8879
X-10.1895 Y16.8948
X-10.193 Y16.9014
X-10.1937 Y16.9181
X-10.1949 Y16.9348
X-10.1967 Y16.9514
X-10.199 Y16.9679
X-10.202 Y16.9843
X-10.2055 Y17.0007
X-10.2096 Y17.0168
X-10.2143 Y17.0329
X-10.2195 Y17.0487
X-10.2253 Y17.0644
X-10.2316 Y17.0799
X-10.2384 Y17.0951
X-10.2458 Y17.1101
X-10.2537 Y17.1248
X-10.2621 Y17.1392
X-10.271 Y17.1533
X-10.2804 Y17.1671
X-10.2902 Y17.1806
X-10.3006 Y17.1937
X-10.3114 Y17.2065
X-10.3226 Y17.2188
X-10.3342 Y17.2308
X-10.3463 Y17.2423
X-10.3588 Y17.2535
X-10.3716 Y17.2641
G3 X-10.6009 Y16.9663 I-0.0615 J-0.1898
G1 X-10.5963 Y16.9512
X-10.5923 Y16.936
X-10.5889 Y16.9205
X-10.586 Y16.905
X-10.5837 Y16.8894
X-10.5819 Y16.8737
X-10.5807 Y16.858
X-10.5801 Y16.8422
Y16.8264
X-10.5807 Y16.8106
X-10.5818 Y16.7949
X-10.5836 Y16.7792
X-10.5859 Y16.7636
X-10.5887 Y16.7481
X-10.5922 Y16.7326
X-10.5961 Y16.7174
X-10.6007 Y16.7023
X-10.6058 Y16.6873
X-10.6114 Y16.6726
X-10.6176 Y16.658
X-10.6243 Y16.6438
X-10.6316 Y16.6297
X-10.6393 Y16.616
X-10.6403 Y16.6049
X-10.6406 Y16.5937
X-10.6404 Y16.5826
X-10.6394 Y16.5715
X-10.6379 Y16.5605
X-10.6358 Y16.5495
X-10.633 Y16.5388
X-10.6296 Y16.5281
X-10.6256 Y16.5177
X-10.6211 Y16.5076
X-10.616 Y16.4977
X-10.6103 Y16.4881
X-10.6041 Y16.4788
X-10.5974 Y16.47
X-10.5902 Y16.4615
X-10.5825 Y16.4534
X-10.5744 Y16.4458
X-10.5658 Y16.4386
X-10.5569 Y16.432
X-10.5476 Y16.4258
X-10.538 Y16.4202
X-10.5281 Y16.4152
X-10.5179 Y16.4107
X-10.5075 Y16.4068
X-10.4968 Y16.4035
X-10.486 Y16.4007
X-10.4751 Y16.3987
X-10.4641 Y16.3972
X-10.4529 Y16.3964
X-10.4418 Y16.3961
X-10.4307 Y16.3966
X-10.4196 Y16.3976
X-10.4086 Y16.3993
X-10.3977 Y16.4016
X-10.3869 Y16.4045
X-10.3764 Y16.408
X-10.366 Y16.4121
X-10.3559 Y16.4167
X-10.3461 Y16.422
X-10.3366 Y16.4278
X-10.3274 Y16.4341
X-10.3186 Y16.4409
X-10.3102 Y16.4482
X-10.3022 Y16.456
X-10.2947 Y16.4642
X-10.2877 Y16.4728
G2 X-10.1235 Y16.7492 I0.6288 J-0.1864
G3 X-10.1591 Y17.1542 I-0.5026 J0.1599
G1 X-10.1597 Y17.1549
X-10.2698 Y17.2853
X-10.2789 Y17.2942
X-10.2885 Y17.3025
X-10.2984 Y17.3105
X-10.3087 Y17.3179
X-10.3193 Y17.3248
X-10.3303 Y17.3312
X-10.3416 Y17.3371
X-10.3531 Y17.3424
X-10.3649 Y17.3471
X-10.3769 Y17.3513
X-10.3891 Y17.3548
X-10.4014 Y17.3578
X-10.4139 Y17.3602
X-10.4265 Y17.3619
X-10.4391 Y17.3631
X-10.4518 Y17.3636
X-10.4645 Y17.3635
X-10.4772 Y17.3628
X-10.4898 Y17.3615
X-10.5023 Y17.3595
X-10.5148 Y17.357
X-10.5271 Y17.3539
X-10.5392 Y17.3501
X-10.5512 Y17.3458
X-10.5629 Y17.3409
X-10.5743 Y17.3355
X-10.5855 Y17.3294
X-10.5964 Y17.3229
X-10.607 Y17.3158
X-10.6171 Y17.3083
X-10.627 Y17.3002
X-10.6364 Y17.2917
X-10.6454 Y17.2827
X-10.6539 Y17.2733
X-10.662 Y17.2635
X-10.6695 Y17.2533
X-10.6766 Y17.2428
X-10.6832 Y17.2319
X-10.6892 Y17.2208
X-10.6947 Y17.2093
X-10.6996 Y17.1976
X-10.7039 Y17.1857
X-10.7077 Y17.1735
X-10.7089 Y17.0284
G2 X-10.6903 Y16.7853 I-0.7171 J-0.1769
G3 X-10.7089 Y16.7139 I0.2692 J-0.1079
X-10.6864 Y16.701 I0.0152 J0.0005
G1 X-10.6838 Y16.7024 Z-0.1447
X-10.6813 Y16.7038 Z-0.1438
X-10.679 Y16.705 Z-0.1424
X-10.6769 Y16.7061 Z-0.1405
X-10.6753 Y16.707 Z-0.1382
X-10.674 Y16.7077 Z-0.1356
X-10.6733 Y16.7081 Z-0.1327
X-10.673 Y16.7083 Z-0.1298
G0 Z0.4
X-10.6924 Y17.0711
Z-0.1145
G1 Z-0.1298 F50.
X-10.6925 Y17.0709 Z-0.1327
X-10.6929 Y17.0702 Z-0.1356
X-10.6937 Y17.0689 Z-0.1382
X-10.6946 Y17.0673 Z-0.1405
X-10.6958 Y17.0653 Z-0.1424
X-10.6972 Y17.0631 Z-0.1438
X-10.6986 Y17.0606 Z-0.1447
X-10.7001 Y17.0581 Z-0.145
G3 X-10.7089 Y17.0284 I0.0536 J-0.0318
G1 Y16.5379 F60.
G3 X-10.2946 Y16.3455 I0.2628 J0.0237
G1 X-10.2101 Y16.4445
G3 X-10.0002 Y16.8174 I-1.1308 J0.8821
X-10.0033 Y16.9698 I-0.3667 J0.0688
G1 X-10.1597 Y17.1549
G3 X-10.1742 Y17.1596 I-0.0113 J-0.0102
X-10.2077 Y17.114 I0.009 J-0.0417
X-10.0325 Y16.972 I0.1568 J0.0144
X-10.0177 Y16.9744 I-0.0183 J0.1564 F50.
G2 X-10.0033 Y16.9698 I0.0032 J-0.0149
G1 X-9.9448 Y16.9006 F60.
G2 X-9.9176 Y16.7906 I-0.0924 J-0.0812
G1 X-10.2101 Y16.4445
G2 X-10.2366 Y16.4547 I-0.0113 J0.0102
G1 X-10.2363 Y16.4575
X-10.2356 Y16.4602
G2 X-10.2071 Y16.4493 I0.0142 J-0.0054
X-10.2103 Y16.4442 I-0.0142 J0.0055
G1 X-10.2857 Y16.3652
G2 X-10.3078 Y16.3862 I-0.011 J0.0105
X-10.2817 Y16.3732 I0.011 J-0.0105
X-10.2942 Y16.3449 I-0.0615 J0.0102 F50.
G1 X-10.3645 Y16.2617 F60.
G2 X-10.7089 Y16.3196 I-0.1415 J0.2111
G1 Y16.5379
G2 X-10.7008 Y16.5508 I0.0152 J-0.0005
X-10.6252 Y16.5204 I0.025 J-0.047
X-10.6879 Y16.3402 I-0.1497 J-0.0488
X-10.7008 Y16.3326 I-0.0869 J0.1313 F50.
G3 X-10.7089 Y16.3196 I0.0072 J-0.0134
G1 Y16.2681 F60.
G3 X-10.4825 Y16.122 I0.196 J0.0552
G1 X-10.3645 Y16.2617
G3 X-10.3623 Y16.2767 I-0.012 J0.0094
X-10.3988 Y16.2955 I-0.029 J-0.0116
X-10.485 Y16.1513 I0.0282 J-0.1147
X-10.4804 Y16.137 I0.1144 J0.0295 F50.
G2 X-10.4825 Y16.122 I-0.0141 J-0.0056
G1 X-10.5115 Y16.0877 F60.
X-10.5191 Y16.0822
X-10.5272 Y16.0771
X-10.5355 Y16.0726
X-10.5441 Y16.0686
X-10.5529 Y16.0652
X-10.5619 Y16.0623
X-10.5711 Y16.0601
X-10.5804 Y16.0584
X-10.5898 Y16.0573
X-10.5992 Y16.0568
X-10.6087 Y16.0569
X-10.6181 Y16.0576
X-10.6275 Y16.0589
X-10.6368 Y16.0608
X-10.6459 Y16.0633
X-10.6549 Y16.0664
X-10.6636 Y16.07
X-10.6721 Y16.0742
X-10.6803 Y16.0789
X-10.6882 Y16.0842
X-10.6957 Y16.0899
X-10.7029 Y16.0961
X-10.7096 Y16.1027
X-10.7089 Y16.2681
G2 X-10.7008 Y16.2811 I0.0152 J-0.0005
X-10.6446 Y16.2589 I0.0187 J-0.035
X-10.688 Y16.1242 I-0.1117 J-0.0383
X-10.7008 Y16.1164 I-0.0683 J0.0964 F50.
G3 X-10.7089 Y16.1035 I0.0072 J-0.0134
G1 Y16.0708 F60.
G3 X-10.6036 Y15.9767 I0.1041 J0.0105
G1 X-10.6018 Y15.9793
X-10.6006 Y15.9821
X-10.5999 Y15.985
X-10.5998 Y15.9881
X-10.6002 Y15.991
X-10.6012 Y15.9938
X-10.6027 Y15.9963
X-10.6046 Y15.9985
X-10.6109 Y16.0052
X-10.6826 Y16.0807
X-10.6844 Y16.0824
X-10.6864 Y16.0837
G3 X-10.7089 Y16.0708 I-0.0072 J-0.0134 F50.
G1 Y15.9879 F60.
X-10.7083 Y15.9808
X-10.7072 Y15.9738
X-10.7054 Y15.9669
X-10.7031 Y15.9602
X-10.7002 Y15.9537
X-10.6968 Y15.9475
X-10.6929 Y15.9416
X-10.6884 Y15.9361
X-10.6835 Y15.9309
X-10.6782 Y15.9262
X-10.6725 Y15.922
X-10.6665 Y15.9183
X-10.6635 Y15.919
X-10.6607 Y15.9202
X-10.6583 Y15.922
X-10.6562 Y15.9242
X-10.6546 Y15.9267
X-10.6535 Y15.9295
X-10.6529 Y15.9324
Y15.9353
X-10.6535 Y15.9382
X-10.6546 Y15.9409
X-10.6557 Y15.9433
G3 X-10.6864 Y16.0007 I-0.0807 J-0.0061
X-10.7089 Y15.9879 I-0.0072 J-0.0134 F50.
X-10.7042 Y15.9194 I0.0486 J-0.0311 F60.
X-10.6442 Y15.9307 I0.0231 J0.0423
G1 X-10.5115 Y16.0877
G3 X-10.5203 Y16.112 I-0.012 J0.0094
G1 X-10.5232 Y16.1127 Z-0.1447
X-10.526 Y16.1132 Z-0.1438
X-10.5286 Y16.1138 Z-0.1424
X-10.5309 Y16.1143 Z-0.1405
X-10.5327 Y16.1146 Z-0.1382
X-10.5341 Y16.1149 Z-0.1356
X-10.5349 Y16.1151 Z-0.1327
X-10.5352 Y16.1152 Z-0.1298
G0 Z-0.1145
X-9.985 Y16.9226
G1 Z-0.1298 F50.
X-9.9847 Y16.9225 Z-0.1327
X-9.9839 Y16.9222 Z-0.1356
X-9.9826 Y16.9218 Z-0.1382
X-9.9808 Y16.9212 Z-0.1405
X-9.9786 Y16.9204 Z-0.1424
X-9.9761 Y16.9196 Z-0.1438
X-9.9734 Y16.9186 Z-0.1447
X-9.9706 Y16.9177 Z-0.145
G2 X-9.9448 Y16.9006 I-0.0204 J-0.0589
X-9.889 Y16.8299 I-0.1178 J-0.1503 F60.
X-9.9176 Y16.7906 I-0.0481 J0.005
X-9.9331 Y16.7862 I-0.0113 J0.0102
G1 X-9.9359 Y16.787 Z-0.1447
X-9.9387 Y16.7878 Z-0.1438
X-9.9412 Y16.7885 Z-0.1424
X-9.9434 Y16.7891 Z-0.1405
X-9.9453 Y16.7897 Z-0.1382
X-9.9466 Y16.79 Z-0.1356
X-9.9475 Y16.7903 Z-0.1327
X-9.9477 Y16.7904 Z-0.1298
G0 Z-0.1145
X-10.2548 Y17.242
G1 Z-0.1298 F50.
X-10.2549 Y17.2423 Z-0.1327
X-10.255 Y17.2431 Z-0.1356
X-10.2553 Y17.2445 Z-0.1382
X-10.2556 Y17.2464 Z-0.1405
X-10.2559 Y17.2487 Z-0.1424
X-10.2564 Y17.2513 Z-0.1438
X-10.2569 Y17.2541 Z-0.1447
X-10.2573 Y17.257 Z-0.145
G3 X-10.2698 Y17.2853 I-0.0615 J-0.0102
G1 X-10.3685 Y17.4021 F60.
G3 X-10.7089 Y17.347 I-0.1403 J-0.2122
G1 Y17.1739
G3 X-10.7008 Y17.161 I0.0152 J0.0005
X-10.6508 Y17.1769 I0.0172 J0.0323
X-10.688 Y17.3262 I-0.1056 J0.053
X-10.7008 Y17.3341 I-0.0683 J-0.0964 F50.
G2 X-10.7089 Y17.347 I0.0072 J0.0134
G1 Y17.4021 F60.
G2 X-10.4858 Y17.541 I0.194 J-0.063
G1 X-10.3685 Y17.4021
G2 X-10.3663 Y17.387 I-0.012 J-0.0094
X-10.4041 Y17.368 I-0.0297 J0.0118
X-10.4883 Y17.5117 I0.0302 J0.1142
X-10.4837 Y17.5259 I0.1144 J-0.0295 F50.
G3 X-10.4858 Y17.541 I-0.0141 J0.0056
G1 X-10.5165 Y17.5773 F60.
X-10.5244 Y17.5827
X-10.5327 Y17.5876
X-10.5413 Y17.5919
X-10.5501 Y17.5957
X-10.5591 Y17.5989
X-10.5684 Y17.6015
X-10.5778 Y17.6035
X-10.5873 Y17.6049
X-10.5969 Y17.6057
X-10.6065 Y17.6059
X-10.6161 Y17.6054
X-10.6256 Y17.6043
X-10.6351 Y17.6026
X-10.6444 Y17.6003
X-10.6536 Y17.5973
X-10.6625 Y17.5938
X-10.6712 Y17.5897
X-10.6796 Y17.5851
X-10.6877 Y17.5799
X-10.6955 Y17.5742
X-10.7028 Y17.5681
X-10.7098 Y17.5614
X-10.7089 Y17.4021
G3 X-10.7008 Y17.3892 I0.0152 J0.0005
X-10.6415 Y17.4159 I0.0193 J0.0363
X-10.688 Y17.5397 I-0.1149 J0.0275
X-10.7008 Y17.5476 I-0.0683 J-0.0964 F50.
G2 X-10.7089 Y17.5605 I0.0072 J0.0134
G1 Y17.596 F60.
G2 X-10.6062 Y17.6855 I0.1025 J-0.014
G1 X-10.5165 Y17.5773
G2 X-10.5303 Y17.5527 I-0.012 J-0.0094
X-10.5541 Y17.5619 I0.0061 J0.0515
X-10.6038 Y17.6533 I0.0683 J0.0963
X-10.6031 Y17.6723 I0.118 J0.0049 F50.
G3 X-10.6062 Y17.6835 I-0.0151 J0.0018
G1 X-10.625 Y17.7057 F60.
X-10.6296 Y17.7099
X-10.6345 Y17.7136
X-10.6397 Y17.7169
X-10.6453 Y17.7196
X-10.651 Y17.7219
X-10.657 Y17.7236
X-10.663 Y17.7247
X-10.6692 Y17.7253
X-10.6753
X-10.6815 Y17.7248
X-10.6876 Y17.7237
X-10.6935 Y17.722
X-10.6993 Y17.7198
X-10.7048 Y17.7171
X-10.7101 Y17.7139
X-10.71 Y17.711
X-10.7094 Y17.7081
X-10.7083 Y17.7055
X-10.7067 Y17.7031
X-10.7048 Y17.701
X-10.7026 Y17.6993
X-10.7001 Y17.6981
X-10.6975 Y17.6973
X-10.6867 Y17.6943
G3 X-10.6338 Y17.6814 I0.0462 J0.0747
X-10.625 Y17.7057 I-0.0031 J0.0149 F50.
X-10.7083 Y17.7291 I-0.0476 J-0.0095 F60.
G1 X-10.7089 Y17.7057
Y17.596
G3 X-10.701 Y17.5832 I0.0152 J0.0005
G1 X-10.6987 Y17.5826 Z-0.1448
X-10.6965 Y17.5819 Z-0.1443
X-10.6944 Y17.5813 Z-0.1434
X-10.6919 Y17.5819 Z-0.1417
X-10.6898 Y17.5823 Z-0.1395
X-10.6881 Y17.5826 Z-0.137
X-10.687 Y17.5828 Z-0.1342
X-10.6865 Y17.5831 Z-0.132
X-10.6864 Z-0.1298
G0 Z0.4
X-10.5358 Y18.6783
Z0.1
G3 X-10.6714 Y18.7289 Z0.0599 I-0.0678 J0.0253 F50.
X-10.5358 Y18.6783 Z0.0199 I0.0678 J-0.0253
X-10.6714 Y18.7289 Z-0.0202 I-0.0678 J0.0253
X-10.5358 Y18.6783 Z-0.0603 I0.0678 J-0.0253
X-10.6714 Y18.7289 Z-0.1004 I-0.0678 J0.0253
X-10.5358 Y18.6783 Z-0.1404 I0.0678 J-0.0253
X-10.5312 Y18.7036 Z-0.145 I-0.0678 J0.0253
X-10.6759 I-0.0723 J0.
X-10.5315 Y18.6979 I0.0723 J0.
G1 X-10.5312 Y18.7036
G3 X-10.5277 Y18.8088 I-0.0502 J0.0544 F60.
G1 X-10.6571
G3 X-10.7089 Y18.7874 I-0.0142 J-0.0389
X-10.6913 Y18.7729 I0.0152 J0.0005
G1 X-10.6862 Y18.7737
X-10.6553 Y18.7786
G3 X-10.6443 Y18.7864 I-0.0024 J0.015
X-10.6571 Y18.8088 I-0.0134 J0.0072 F50.
X-10.7065 Y18.8027 I-0.0221 J-0.0241 F60.
G1 X-10.7088 Y18.7911
X-10.7089 Y18.6505
G3 X-10.5528 Y18.5584 I0.1106 J0.0092
G1 X-10.4578 Y18.7706
G3 X-10.4592 Y18.808 I-0.0149 J0.0182
X-10.4746 Y18.801 I-0.0025 J-0.015
G1 X-10.4815 Y18.79
X-10.4844 Y18.7854
G3 X-10.4835 Y18.7681 I0.0129 J-0.008
X-10.4578 Y18.7706 I0.0121 J0.0092 F50.
G1 X-10.4498 Y18.7881 F60.
X-10.4472 Y18.7998
X-10.4475 Y18.802
X-10.4478 Y18.8027
X-10.449 Y18.8047
G3 X-10.5277 Y18.8088 I-0.0427 J-0.0616
X-10.5371 Y18.8052 I0.0005 J-0.0152
G1 X-10.5527 Y18.7917
X-10.6897 Y18.6735
X-10.7036 Y18.6615 F50.
G3 X-10.7089 Y18.6505 I0.01 J-0.0115
G1 Y18.5628 F60.
G3 X-10.5926 Y18.469 I0.1067 J0.0133
G1 X-10.5533 Y18.5595
G3 X-10.5553 Y18.5746 I-0.0141 J0.0058
X-10.6033 Y18.5697 I-0.0225 J-0.0173
X-10.6028 Y18.4998 I0.0708 J-0.0345
X-10.5949 Y18.4871 I0.0704 J0.0354 F50.
G2 X-10.5929 Y18.4721 I-0.0121 J-0.0093
G1 X-10.6014 Y18.4531 F60.
G2 X-10.7103 Y18.4352 I-0.0629 J0.0423
G1 X-10.7089 Y18.5628
G2 X-10.6815 Y18.5715 I0.0152 J-0.0005
G1 X-10.6125 Y18.4802
X-10.6034 Y18.4681 F50.
G2 X-10.6014 Y18.4531 I-0.0122 J-0.0092
G1 X-10.6258 Y18.3993 F60.
G2 X-10.7089 Y18.3661 I-0.0561 J0.0197
G1 Y18.4371
G2 X-10.7008 Y18.45 I0.0152 J-0.0005
X-10.6654 Y18.4175 I0.012 J-0.0225
X-10.6883 Y18.3873 I-0.0724 J0.031
X-10.7008 Y18.379 I-0.0495 J0.0612 F50.
G3 X-10.7089 Y18.3661 I0.0072 J-0.0134
G1 Y18.3526 F60.
X-10.7085 Y18.3478
X-10.7075 Y18.343
X-10.706 Y18.3383
X-10.7039 Y18.3339
X-10.7013 Y18.3298
X-10.6981 Y18.326
X-10.6946 Y18.3227
X-10.6906 Y18.3199
X-10.6863 Y18.3175
X-10.6818 Y18.3157
X-10.677 Y18.3145
X-10.6722 Y18.3139
X-10.6673
X-10.6624 Y18.3145
X-10.6608 Y18.3191
X-10.6597 Y18.3239
X-10.6592 Y18.3287
X-10.6593 Y18.3335
X-10.66 Y18.3383
X-10.6613 Y18.3429
X-10.663 Y18.3473
G3 X-10.6841 Y18.3684 I-0.0363 J-0.0152
X-10.6875 Y18.3695 I-0.0069 J-0.0164
X-10.7089 Y18.3526 I-0.0035 J-0.0175 F50.
G1 Y18.3059 F60.
G3 X-10.6801 Y18.2794 I0.0191 J-0.0082
Y18.3095 I-0.0364 J0.015
G1 X-10.6812 Y18.3119
G3 X-10.6862 Y18.3176 I-0.013 J-0.0065
X-10.7089 Y18.3059 I-0.0081 J-0.0122 F50.
G1 Y18.2684 F60.
Y18.2672
Y18.2663
X-10.7088 Y18.2652
X-10.7087 Y18.2648
G3 X-10.7051 Y18.2606 I0.0059 J0.0014
X-10.7004 Y18.2717 I0.0024 J0.0056 F50.
X-10.7084 Y18.2684 I-0.0024 J-0.0056
X-10.7089 Y18.2663 I0.0059 J-0.0023
G1 Y18.2658 F60.
X-10.7086 Y18.2642
X-10.7083 Y18.2631
X-10.7082 Y18.2621
X-10.7067 Y18.2563
X-10.7036 Y18.2534
X-10.6995 Y18.2522
X-10.6953 Y18.2532
X-10.692 Y18.256
G3 X-10.6898 Y18.2602 I-0.0184 J0.0121
X-10.6892 Y18.2642 I-0.0089 J0.0034
X-10.6998 Y18.2731 I-0.0095 J-0.0006 F50.
X-10.7082 Y18.2621 I0.001 J-0.0095
G1 X-10.7066 Y18.2544 F60.
X-10.7064 Y18.2539
X-10.7053 Y18.2522
X-10.7048 Y18.2516
X-10.7028 Y18.2502
X-10.7003 Y18.2497
X-10.6999
X-10.6977 Y18.2501
G3 X-10.6882 Y18.2613 I-0.0107 J0.0186
G1 X-10.6258 Y18.3993
G3 X-10.6246 Y18.4051 I-0.0141 J0.0058
G1 X-10.625 Y18.4084
X-10.626 Y18.4114
X-10.6276 Y18.4142
X-10.6294 Y18.4158 Z-0.1448
X-10.6312 Y18.4172 Z-0.1443
X-10.6328 Y18.4186 Z-0.1434
X-10.6355 Y18.4193 Z-0.1415
X-10.6378 Y18.4199 Z-0.1391
X-10.6395 Y18.4204 Z-0.1363
X-10.6399 Z-0.1353
X-10.6407 Y18.4203 Z-0.1326
X-10.6409 Z-0.1298
G0 Z0.4
X-9.6843 Y15.997
Z-0.1145
G1 Z-0.1298 F50.
X-9.6844 Y15.9967 Z-0.1327
X-9.6846 Y15.9958 Z-0.1356
X-9.6849 Y15.9945 Z-0.1382
X-9.6854 Y15.9926 Z-0.1405
X-9.686 Y15.9904 Z-0.1424
X-9.6866 Y15.9878 Z-0.1438
X-9.6873 Y15.9851 Z-0.1447
X-9.6881 Y15.9822 Z-0.145
G3 X-9.7 Y15.8993 I0.3767 J-0.0965
G1 X-9.701 Y15.8898 F60.
X-9.7013 Y15.8803
X-9.7011 Y15.8708
X-9.7002 Y15.8613
X-9.6987 Y15.8519
X-9.6966 Y15.8426
X-9.6939 Y15.8334
X-9.6906 Y15.8245
X-9.6868 Y15.8158
X-9.6824 Y15.8073
X-9.6775 Y15.7992
X-9.672 Y15.7914
X-9.6661 Y15.7839
X-9.6597 Y15.7769
X-9.6528 Y15.7703
X-9.6455 Y15.7641
X-9.6379 Y15.7584
X-9.6299 Y15.7533
X-9.6216 Y15.7486
X-9.613 Y15.7445
G3 X-9.397 Y15.5466 I0.5559 J0.3899
G1 X-9.387 Y15.542
X-9.3767 Y15.538
X-9.3662 Y15.5346
X-9.3556 Y15.5317
X-9.3448 Y15.5295
X-9.3339 Y15.5278
X-9.3229 Y15.5268
X-9.3119 Y15.5264
X-9.3009 Y15.5266
X-9.2899 Y15.5274
X-9.279 Y15.5289
X-9.2681 Y15.5309
X-9.2575 Y15.5336
X-9.2469 Y15.5369
X-9.2366 Y15.5407
X-9.2265 Y15.5451
X-9.2167 Y15.5501
X-9.2071 Y15.5556
X-9.1979 Y15.5617
X-9.1891 Y15.5682
X-9.1806 Y15.5752
X-9.1725 Y15.5827
X-9.1649 Y15.5907
X-9.1577 Y15.5991
X-9.151 Y15.6078
X-9.1448 Y15.6169
X-9.1391 Y15.6264
X-9.134 Y15.6361
X-9.1294 Y15.6461
X-9.1254 Y15.6564
X-9.122 Y15.6669
X-9.1191 Y15.6775
X-9.1169 Y15.6883
X-9.1153 Y15.6992
X-9.1143 Y15.7102
X-9.1139 Y15.7212
X-9.1141 Y15.7322
X-9.1149 Y15.7432
X-9.1164 Y15.7541
X-9.1185 Y15.7649
X-9.1211 Y15.7756
X-9.1244 Y15.7862
X-9.1282 Y15.7965
X-9.1327 Y15.8066
X-9.1377 Y15.8164
X-9.1432 Y15.8259
X-9.1492 Y15.8351
X-9.1558 Y15.844
X-9.1629 Y15.8525
X-9.1704 Y15.8605
X-9.1783 Y15.8681
X-9.1867 Y15.8753
X-9.1955 Y15.882
G3 X-9.4697 Y16.128 I-0.7388 J-0.5477
X-9.579 Y16.3482 I-0.334 J-0.0285
X-9.835 Y16.3328 I-0.1196 J-0.1462
G1 X-9.8437 Y16.3183
X-9.8519 Y16.3035
X-9.8596 Y16.2884
X-9.8667 Y16.273
X-9.8733 Y16.2574
X-9.8793 Y16.2416
X-9.8847 Y16.2256
X-9.8896 Y16.2094
X-9.8939 Y16.193
X-9.8977 Y16.1765
X-9.9008 Y16.1599
X-9.9033 Y16.1432
G3 X-10.2706 Y15.7824 I0.5746 J-0.9523
X-9.9251 Y15.6324 I0.1792 J-0.0601
G2 X-9.7966 Y15.729 I0.8318 J-0.9726
X-9.6349 Y15.6203 I-0.2719 J-0.5795
X-9.4834 Y15.5102 I-0.0658 J-0.2498
G3 X-9.3721 Y15.4411 I0.1455 J0.1102
X-9.3646 Y15.4693 I-0.0005 J0.0152
X-9.4693 Y15.5319 I-0.1368 J-0.1099
X-9.4834 Y15.5102 I-0.0003 J-0.0152 F50.
X-9.4486 Y15.4427 I0.0735 J-0.0049 F60.
G1 X-9.4435 Y15.4418
X-9.4319 Y15.4411
X-9.2686
G3 X-9.0468 Y15.8367 I-0.0283 J0.2758
G1 X-9.2339 Y16.0591
G2 X-9.3956 Y16.2401 I0.3789 J0.501
G3 X-9.4048 Y16.2613 I-0.0557 J-0.0115
X-9.4277 Y16.2413 I-0.0113 J-0.0102
G1 X-9.2575 Y16.0399
G3 X-9.2428 Y16.0348 I0.0116 J0.0098
X-9.2339 Y16.0591 I-0.0031 J0.0149 F50.
G1 X-9.5398 Y16.4211 F60.
G3 X-9.8382 Y16.4472 I-0.1672 J-0.1928
G1 X-9.9215 Y16.3486
G2 X-10.0158 Y16.1917 I-4.7286 J2.7339
X-10.1527 Y16.0749 I-7.1246 J8.2158
G3 X-10.1439 Y16.0506 I0.012 J-0.0094
G1 X-10.141 Y16.0499 Z-0.1447
X-10.1382 Y16.0494 Z-0.1438
X-10.1356 Y16.0488 Z-0.1424
X-10.1334 Y16.0483 Z-0.1405
X-10.1315 Y16.0479 Z-0.1382
X-10.1301 Y16.0477 Z-0.1356
X-10.1293 Y16.0475 Z-0.1327
X-10.129 Y16.0474 Z-0.1298
G0 Z0.4
X-9.8813 Y16.3706
Z-0.1145
G1 Z-0.1298 F50.
X-9.8816 Y16.3705 Z-0.1327
X-9.8824 Y16.3702 Z-0.1356
X-9.8837 Y16.3698 Z-0.1382
X-9.8855 Y16.3691 Z-0.1405
X-9.8877 Y16.3684 Z-0.1424
X-9.8902 Y16.3675 Z-0.1438
X-9.8929 Y16.3666 Z-0.1447
X-9.8957 Y16.3656 Z-0.145
G3 X-9.9215 Y16.3486 I0.0204 J-0.0589
G1 X-10.3141 Y15.8839 F60.
G3 X-10.1258 Y15.4419 I0.2149 J-0.1696
G1 X-10.0847 Y15.4411
G3 X-9.921 Y15.5008 I-0.006 J0.2712
G1 X-9.92 Y15.5035
X-9.9196 Y15.5063
Y15.5091
X-9.9202 Y15.5119
X-9.9213 Y15.5146
X-9.9228 Y15.5169
X-9.9247 Y15.519
X-9.927 Y15.5207
X-9.9295 Y15.5219
X-9.9322 Y15.5226
X-9.935 Y15.5228
X-9.9351
G3 X-9.94 Y15.522 I0. J-0.0152
G1 X-10.0891 Y15.4708
G3 X-10.0976 Y15.4636 I0.0049 J-0.0144
X-10.0847 Y15.4411 I0.0134 J-0.0072 F50.
X-9.9507 Y15.4429 I0.0621 J0.3817 F60.
G2 X-9.6345 Y15.6221 I0.2545 J-0.0806
G1 X-9.6327 Y15.6208
X-9.6306 Y15.6197
G3 X-9.6155 Y15.6329 I0. J0.0152
X-9.6301 Y15.6724 I-0.0444 J0.006
X-10.0888 Y15.4631 I-0.1831 J-0.206
G2 X-10.0962 Y15.4499 I-0.0152 J-0.0002
X-10.1259 Y15.4411 I-0.0318 J0.0536 F50.
G1 X-10.2713 F60.
G2 X-10.4481 Y15.606 I0.0326 J0.2123
G3 X-10.4321 Y15.7438 I-0.7045 J0.1519
G1 X-10.4112 Y15.769
X-10.3141 Y15.8839
G2 X-10.2876 Y15.8748 I0.0113 J-0.0102
G1 X-10.2571 Y15.4639
X-10.2566 Y15.4575 F50.
G2 X-10.2713 Y15.4411 I-0.0152 J-0.0011
G1 X-10.3949 F60.
G2 X-10.5073 Y15.5211 I0.0085 J0.131
G3 X-10.4481 Y15.606 I-0.1799 J0.1883
G2 X-10.4284 Y15.6147 I0.0142 J-0.0055
X-10.4152 Y15.5909 I-0.0077 J-0.0198
X-10.4746 Y15.5289 I-0.0774 J0.0146
X-10.4933 Y15.5268 I-0.0181 J0.0766 F50.
G3 X-10.5042 Y15.5224 I-0.0001 J-0.0152
G1 X-10.5156 Y15.5102 F60.
G3 X-10.5055 Y15.4411 I0.03 J-0.0309
G1 X-10.3949
G3 X-10.382 Y15.4636 I-0.0005 J0.0152
G1 X-10.3834 Y15.4662 Z-0.1447
X-10.3848 Y15.4687 Z-0.1438
X-10.386 Y15.471 Z-0.1424
X-10.3871 Y15.4731 Z-0.1405
X-10.388 Y15.4747 Z-0.1382
X-10.3887 Y15.476 Z-0.1356
X-10.3891 Y15.4767 Z-0.1327
X-10.3892 Y15.477 Z-0.1298
G0 Z-0.1145
X-9.8532 Y16.4039
G1 Z-0.1298 F50.
Y16.4042 Z-0.1327
X-9.853 Y16.405 Z-0.1356
X-9.8528 Y16.4064 Z-0.1382
X-9.8525 Y16.4083 Z-0.1405
X-9.8521 Y16.4106 Z-0.1424
X-9.8517 Y16.4132 Z-0.1438
X-9.8512 Y16.416 Z-0.1447
X-9.8507 Y16.4189 Z-0.145
G2 X-9.8382 Y16.4472 I0.0615 J-0.0102
G1 X-9.7714 Y16.5262 F60.
G2 X-9.662 Y16.5658 I0.0913 J-0.0813
G1 X-9.5398 Y16.4211
G2 X-9.5586 Y16.3981 I-0.012 J-0.0094
G1 X-9.7628 Y16.5014
X-9.7663 Y16.5032 F50.
G2 X-9.7714 Y16.5262 I0.0069 J0.0136
X-9.7015 Y16.6044 I0.1964 J-0.1055 F60.
X-9.662 Y16.5658 I-0.0042 J-0.0437
X-9.6602 Y16.5498 I-0.012 J-0.0094
G1 X-9.6615 Y16.5472 Z-0.1447
X-9.6627 Y16.5446 Z-0.1438
X-9.6639 Y16.5422 Z-0.1424
X-9.6649 Y16.5401 Z-0.1405
X-9.6657 Y16.5384 Z-0.1382
X-9.6663 Y16.5371 Z-0.1356
X-9.6667 Y16.5364 Z-0.1327
X-9.6668 Y16.5361 Z-0.1298
G0 Z-0.1145
X-9.0865 Y15.859
G1 Z-0.1298 F50.
X-9.0862 Y15.8589 Z-0.1327
X-9.0854 Y15.8586 Z-0.1356
X-9.084 Y15.8581 Z-0.1382
X-9.0822 Y15.8575 Z-0.1405
X-9.0801 Y15.8568 Z-0.1424
X-9.0776 Y15.8559 Z-0.1438
X-9.0749 Y15.855 Z-0.1447
X-9.0721 Y15.854 Z-0.145
G2 X-9.0463 Y15.837 I-0.0204 J-0.0589
X-8.9635 Y15.7357 I-0.2018 J-0.2493 F60.
G3 X-8.9629 Y15.6504 I0.3918 J-0.0396
G2 X-9.0506 Y15.4411 I-0.2284 J-0.0272
G1 X-9.2686
G2 X-9.2816 Y15.4492 I0.0005 J0.0152
X-9.2509 Y15.525 I0.047 J0.0251
X-9.0712 Y15.4621 I0.0485 J-0.1498
X-9.0635 Y15.4492 I-0.1313 J-0.0869 F50.
G3 X-9.0506 Y15.4411 I0.0134 J0.0072
G1 X-8.9993 F60.
X-8.991 Y15.4418
X-8.9828 Y15.4431
X-8.9746 Y15.4449
X-8.9666 Y15.4474
X-8.9589 Y15.4504
X-8.9513 Y15.454
X-8.9441 Y15.4581
X-8.9371 Y15.4627
X-8.9305 Y15.4678
X-8.9243 Y15.4734
X-8.9185 Y15.4794
X-8.9132 Y15.4859
X-8.9083 Y15.4927
X-8.904 Y15.4998
X-8.9002 Y15.5072
X-8.8969 Y15.5149
X-8.8942 Y15.5228
X-8.8964 Y15.5249
X-8.899 Y15.5266
X-8.9017 Y15.5278
X-8.9047 Y15.5285
X-8.9076 Y15.5286
X-8.9105 Y15.5281
X-8.9132 Y15.5271
X-8.9157 Y15.5257
X-8.9247 Y15.5201
G3 X-9.0122 Y15.4636 I0.0346 J-0.1496
X-8.9993 Y15.4411 I0.0134 J-0.0072 F50.
G1 X-8.9061 F60.
X-8.9011 Y15.4421
X-8.8963 Y15.4437
X-8.8917 Y15.4458
X-8.8873 Y15.4485
X-8.8834 Y15.4516
X-8.8798 Y15.4553
X-8.8768 Y15.4593
X-8.8742 Y15.4637
X-8.8722 Y15.4683
X-8.8707 Y15.4732
X-8.8699 Y15.4782
X-8.8697 Y15.4833
X-8.8701 Y15.4883
X-8.8711 Y15.4933
X-8.8727 Y15.4981
X-8.8748 Y15.5027
X-8.8775 Y15.507
X-8.8807 Y15.5109
X-8.8844 Y15.5144
X-8.8885 Y15.5174
X-8.8928 Y15.52
X-8.8975 Y15.522
X-8.9024 Y15.5233
X-8.9074 Y15.5241
G2 X-8.951 Y15.6037 I1.0467 J0.626
G1 X-8.9551 Y15.6153
X-8.9578 Y15.627
X-8.9629 Y15.6504
G3 X-8.9733 Y15.6612 I-0.0148 J-0.0038
G1 X-8.9755 Y15.6615 Z-0.1448
X-8.9776 Y15.6619 Z-0.1443
X-8.9801 Y15.6613 Z-0.1433
X-8.9823 Y15.6608 Z-0.1418
X-8.9843 Y15.6603 Z-0.14
X-8.9857 Y15.6594 Z-0.1377
X-8.9867 Y15.6587 Z-0.1352
X-8.9873 Y15.6583 Z-0.1325
X-8.9875 Y15.6582 Z-0.1298
G0 Z0.4
X-9.8359 Y18.4769
Z-0.1145
G1 Z-0.1298 F50.
Y18.4766 Z-0.1327
X-9.8361 Y18.4758 Z-0.1356
X-9.8365 Y18.4744 Z-0.1382
X-9.837 Y18.4726 Z-0.1405
X-9.8375 Y18.4703 Z-0.1424
X-9.8382 Y18.4678 Z-0.1438
X-9.8389 Y18.465 Z-0.1447
X-9.8396 Y18.4621 Z-0.145
G3 X-9.8516 Y18.3792 I0.3767 J-0.0965
G1 X-9.8452 Y18.37 F60.
X-9.8383 Y18.3612
X-9.8309 Y18.3527
X-9.8231 Y18.3447
X-9.8148 Y18.3371
X-9.8062 Y18.33
X-9.7971 Y18.3234
X-9.7877 Y18.3173
X-9.778 Y18.3117
X-9.768 Y18.3067
X-9.7577 Y18.3022
X-9.7472 Y18.2983
X-9.7365 Y18.295
X-9.7256 Y18.2924
X-9.7146 Y18.2903
X-9.7035 Y18.2888
X-9.6923 Y18.288
X-9.6811 Y18.2877
X-9.6699 Y18.2881
X-9.6588 Y18.2892
X-9.6477 Y18.2908
X-9.6367 Y18.293
X-9.6259 Y18.2959
X-9.6152 Y18.2994
G2 X-9.3393 Y18.184 I-1.8349 J-4.7785
G3 X-9.2336 Y18.5435 I0.0284 J0.1869
X-9.6895 Y18.6728 I-0.3471 J-0.3556
X-10.0449 Y18.6021 I-0.1001 J-0.4255
X-10.2314 Y18.3518 I0.0811 J-0.2551
G1 X-10.2297 Y18.3412
X-10.2274 Y18.3306
X-10.2245 Y18.3203
X-10.221 Y18.3101
X-10.2169 Y18.3001
X-10.2123 Y18.2903
X-10.2072 Y18.2808
X-10.2016 Y18.2717
X-10.1954 Y18.2628
X-10.1888 Y18.2543
X-10.1816 Y18.2462
X-10.1741 Y18.2385
X-10.1661 Y18.2312
X-10.1578 Y18.2244
X-10.149 Y18.2181
X-10.14 Y18.2123
X-10.1306 Y18.207
X-10.1209 Y18.2022
X-10.111 Y18.1979
X-10.1009 Y18.1943
X-10.0906 Y18.1912
X-10.0801 Y18.1886
X-10.0695 Y18.1867
X-10.0588 Y18.1854
X-10.048 Y18.1846
X-10.0373 Y18.1845
X-10.0265 Y18.1849
X-10.0158 Y18.186
X-10.0051 Y18.1876
X-9.9946 Y18.1899
X-9.9842 Y18.1927
X-9.974 Y18.1961
X-9.9639 Y18.2001
X-9.9542 Y18.2046
X-9.9446 Y18.2097
X-9.9354 Y18.2153
X-9.9265 Y18.2214
X-9.918 Y18.228
X-9.9099 Y18.235
G2 X-9.5128 Y18.1579 I-0.8499 J-5.4339
G3 X-9.4358 Y18.1124 I0.1009 J0.083
G1 X-9.2453
X-9.2332 Y18.1141
X-9.2212 Y18.1163
X-9.2092 Y18.1192
X-9.1975 Y18.1226
X-9.1859 Y18.1267
X-9.1746 Y18.1313
X-9.1635 Y18.1365
X-9.1527 Y18.1422
X-9.1422 Y18.1485
X-9.132 Y18.1553
X-9.1222 Y18.1626
X-9.1127 Y18.1704
X-9.1037 Y18.1786
X-9.095 Y18.1873
X-9.0869 Y18.1964
X-9.0792 Y18.206
X-9.072 Y18.2159
X-9.0653 Y18.2261
X-9.0591 Y18.2367
X-9.0535 Y18.2475
X-9.0484 Y18.2587
X-9.0439 Y18.2701
X-9.0399 Y18.2817
X-9.0366 Y18.2934
X-9.0338 Y18.3054
X-9.0317 Y18.3174
X-9.0302 Y18.3296
X-9.0292 Y18.3418
X-9.0289 Y18.354
X-9.0919 Y18.5232
X-9.1021 Y18.5384
X-9.1128 Y18.5533
X-9.1241 Y18.5679
X-9.1357 Y18.5821
X-9.1479 Y18.5958
X-9.1604 Y18.6092
X-9.1734 Y18.6222
X-9.1869 Y18.6348
X-9.2007 Y18.6469
X-9.2149 Y18.6585
X-9.2294 Y18.6697
X-9.2444 Y18.6804
X-9.2596 Y18.6906
X-9.2752 Y18.7003
X-9.2911 Y18.7095
X-9.3073 Y18.7182
X-9.3238 Y18.7263
X-9.3405 Y18.7339
X-9.3574 Y18.741
X-9.3746 Y18.7475
X-9.392 Y18.7535
X-9.4095 Y18.7589
X-9.4273 Y18.7637
X-9.4451 Y18.7679
X-9.4631 Y18.7715
X-9.4812 Y18.7746
X-9.4994 Y18.7771
X-9.5177 Y18.779
X-9.536 Y18.7803
X-9.5544 Y18.7809
X-9.5728 Y18.781
X-9.5911 Y18.7805
X-9.6094 Y18.7794
X-9.6277 Y18.7778
X-9.646 Y18.7755
X-9.6641 Y18.7726
G3 X-10.2306 Y18.5878 I-0.0951 J-0.6693
G1 X-10.3021 Y18.4298
G3 X-10.1508 Y18.1124 I0.2385 J-0.081
G1 X-9.9915
G2 X-9.8183 I0.0866 J-0.4304
G3 X-9.8188 Y18.1429 I-0.0005 J0.0152
G1 X-9.9909
G3 X-10.0043 Y18.1349 I0. J-0.0152
X-9.9915 Y18.1124 I0.0134 J-0.0072 F50.
G1 X-9.4358 F60.
X-9.4092 Y18.1282
X-9.0554 Y18.3382
X-9.0288 Y18.354 F50.
X-8.9961 Y18.2663 F60.
G2 X-9.0451 Y18.1114 I-0.1489 J-0.038
G1 X-9.2453 Y18.1124
G2 X-9.2523 Y18.1409 I0.0005 J0.0152
G1 X-9.0221 Y18.2712
X-9.0177 Y18.2737 F50.
G2 X-8.9961 Y18.2663 I0.0075 J-0.0133
G1 X-8.9586 Y18.1658 F60.
G2 X-8.9641 Y18.1124 I-0.0227 J-0.0246
G1 X-9.046
G2 X-9.0516 Y18.1415 I0.0005 J0.0152
G1 X-8.9849 Y18.1712
X-8.9789 Y18.1739 F50.
G2 X-8.9586 Y18.1658 I0.0062 J-0.0139
X-8.9467 Y18.116 I-0.0206 J-0.0312 F60.
X-8.9641 Y18.1124 I-0.016 J0.0338
X-8.9775 Y18.1214 I0.0005 J0.0152
G1 X-8.9787 Y18.1241 Z-0.1447
X-8.9799 Y18.1267 Z-0.1438
X-8.981 Y18.1291 Z-0.1424
X-8.9819 Y18.1312 Z-0.1405
X-8.9827 Y18.1329 Z-0.1382
X-8.9833 Y18.1342 Z-0.1356
X-8.9836 Y18.135 Z-0.1327
X-8.9838 Y18.1352 Z-0.1298
G0 Z-0.1145
X-9.0924 Y18.4774
G1 Z-0.1298 F50.
X-9.0923 Y18.4776 Z-0.1327
X-9.0922 Y18.4785 Z-0.1356
X-9.0919 Y18.4799 Z-0.1382
X-9.0916 Y18.4817 Z-0.1405
X-9.0912 Y18.484 Z-0.1424
X-9.0907 Y18.4866 Z-0.1438
X-9.0902 Y18.4894 Z-0.1447
X-9.0897 Y18.4923 Z-0.145
G3 X-9.0919 Y18.5232 I-0.0613 J0.0111
G1 X-9.1521 Y18.6846 F60.
G3 X-9.4139 Y18.8589 I-0.3183 J-0.1945
X-9.4218 Y18.8309 I0.0005 J-0.0152
G1 X-9.1749 Y18.6671
X-9.1719 Y18.6656
X-9.1686 Y18.6647
G3 X-9.1521 Y18.6846 I0.0021 J0.0151 F50.
X-9.2082 Y18.8288 I-0.3927 J-0.0699 F60.
X-9.2599 Y18.8589 I-0.06 J-0.0436
G1 X-9.8982
G3 X-10.1493 Y18.7675 I0.0648 J-0.569
G0 Z0.4
X-10.2332 Y18.5421
Z-0.1145
G1 Z-0.1298 F50.
Y18.5424 Z-0.1327
X-10.2333 Y18.5432 Z-0.1356
X-10.2335 Y18.5446 Z-0.1382
X-10.2337 Y18.5465 Z-0.1405
X-10.234 Y18.5488 Z-0.1424
X-10.2342 Y18.5514 Z-0.1438
X-10.2346 Y18.5543 Z-0.1447
X-10.2349 Y18.5572 Z-0.145
G2 X-10.2306 Y18.5878 I0.0619 J0.0069
G1 X-10.1286 Y18.8133 F60.
G2 X-10.0585 Y18.8588 I0.1191 J-0.1066
G1 X-9.8982 Y18.8589
G2 X-9.8835 Y18.8431 I-0.0005 J-0.0152
G1 X-9.884 Y18.8361
G2 X-9.8901 Y18.8128 I-0.0855 J0.01
X-10.2755 Y18.4437 I-0.6172 J0.2588
G1 X-10.2934 Y18.4374 F50.
G3 X-10.3021 Y18.4298 I0.0049 J-0.0144
G1 X-10.3645 Y18.2919 F60.
X-10.3671 Y18.2823
X-10.3691 Y18.2725
X-10.3706 Y18.2627
X-10.3714 Y18.2528
X-10.3717 Y18.2428
X-10.3715 Y18.2328
X-10.3706 Y18.2229
X-10.3692 Y18.2131
X-10.3671 Y18.2033
X-10.3646 Y18.1937
X-10.3614 Y18.1842
X-10.3578 Y18.1749
X-10.3536 Y18.1659
X-10.3489 Y18.1571
X-10.3436 Y18.1487
X-10.3379 Y18.1405
X-10.3318 Y18.1327
X-10.3251 Y18.1252
X-10.3181 Y18.1182
X-10.3107 Y18.1115
X-10.3077 Y18.1119
X-10.3048 Y18.1127
X-10.3021 Y18.1141
X-10.2998 Y18.116
X-10.2979 Y18.1183
X-10.2964 Y18.1208
X-10.2954 Y18.1236
X-10.295 Y18.1265
X-10.2952 Y18.1294
X-10.2959 Y18.1322
X-10.2971 Y18.1349
X-10.2985 Y18.1375 Z-0.1447
X-10.2998 Y18.14 Z-0.1438
X-10.3011 Y18.1423 Z-0.1424
X-10.3022 Y18.1443 Z-0.1405
X-10.3031 Y18.146 Z-0.1382
X-10.3037 Y18.1472 Z-0.1356
X-10.3041 Y18.148 Z-0.1327
X-10.3043 Y18.1483 Z-0.1298
G0 Z0.4
X-10.108 Y18.1289
Z-0.1145
G1 Z-0.1298 F50.
X-10.1083 Y18.1288 Z-0.1327
X-10.109 Y18.1283 Z-0.1356
X-10.1102 Y18.1276 Z-0.1382
X-10.1119 Y18.1266 Z-0.1405
X-10.1138 Y18.1254 Z-0.1424
X-10.1161 Y18.1241 Z-0.1438
X-10.1186 Y18.1226 Z-0.1447
X-10.1211 Y18.1211 Z-0.145
G2 X-10.1508 Y18.1124 I-0.0318 J0.0536
G1 X-10.354 F60.
G2 X-10.4246 Y18.1591 I-0.0017 J0.0741
G1 X-10.3645 Y18.2919
G2 X-10.3356 Y18.2848 I0.0136 J-0.0068
G1 X-10.3391 Y18.1352
X-10.3393 Y18.1273 F50.
G2 X-10.354 Y18.1124 I-0.0152 J0.0004
X-10.4367 Y18.1161 I-0.0381 J0.0735 F60.
X-10.4246 Y18.1591 I0.0274 J0.0155
X-10.4238 Y18.1606 I0.0136 J-0.0068
G1 X-10.4221 Y18.1622 Z-0.1448
X-10.4205 Y18.1638 Z-0.1443
X-10.4189 Y18.1654 Z-0.1434
X-10.4169 Y18.166 Z-0.142
X-10.4151 Y18.1666 Z-0.1404
X-10.4136 Y18.1671 Z-0.1385
X-10.4124 Y18.1675 Z-0.1363
X-10.4117 Y18.1676 Z-0.1343
X-10.4112 Z-0.1323
X-10.411 Z-0.1302
G0 Z0.4
X-9.6945 Y17.5075
Z-0.1145
G1 Z-0.1298 F50.
X-9.6948 Y17.5074 Z-0.1327
X-9.6955 Y17.507 Z-0.1356
X-9.6968 Y17.5064 Z-0.1382
X-9.6985 Y17.5056 Z-0.1405
X-9.7006 Y17.5046 Z-0.1424
X-9.703 Y17.5034 Z-0.1438
X-9.7055 Y17.5022 Z-0.1447
X-9.7082 Y17.5009 Z-0.145
G3 X-9.7792 Y17.4565 I0.1694 J-0.35
X-9.6576 Y17.3459 I0.0776 J-0.0369 F60.
X-9.4569 Y17.5725 I0.0024 J0.2
X-9.7101 Y17.7383 I-0.1983 J-0.0265
G1 X-9.7209 Y17.7406
X-9.7317 Y17.7422
X-9.7426 Y17.7432
X-9.7536 Y17.7436
X-9.7646 Y17.7434
X-9.7755 Y17.7425
X-9.7864 Y17.741
X-9.7972 Y17.7389
X-9.8078 Y17.7362
X-9.8183 Y17.7329
X-9.8285 Y17.729
X-9.8385 Y17.7245
X-9.8483 Y17.7195
X-9.8577 Y17.7139
X-9.8668 Y17.7077
X-9.8756 Y17.7011
X-9.8839 Y17.694
X-9.8919 Y17.6864
X-9.8994 Y17.6784
X-9.9064 Y17.6699
X-9.9129 Y17.6611
X-9.9189 Y17.6519
X-9.9244 Y17.6424
X-9.9293 Y17.6326
X-9.9337 Y17.6225
X-9.9375 Y17.6122
X-9.9406 Y17.6017
X-9.9432 Y17.591
X-9.9452 Y17.5803
X-9.9465 Y17.5694
X-9.9473 Y17.5584
X-9.9474 Y17.5474
X-9.9468 Y17.5365
X-9.9457 Y17.5256
X-9.9439 Y17.5147
X-9.9416 Y17.504
X-9.9386 Y17.4934
X-9.935 Y17.4831
X-9.9308 Y17.4729
X-9.9261 Y17.463
X-9.9208 Y17.4534
X-9.9149 Y17.4441
X-9.9086 Y17.4352
X-9.9017 Y17.4266
X-9.8944 Y17.4184
X-9.8914 Y17.4068
X-9.8878 Y17.3954
X-9.8836 Y17.3842
X-9.8789 Y17.3732
X-9.8735 Y17.3624
X-9.8677 Y17.352
X-9.8612 Y17.3418
X-9.8543 Y17.3321
X-9.8469 Y17.3226
X-9.839 Y17.3136
X-9.8306 Y17.3051
X-9.8218 Y17.2969
X-9.8125 Y17.2893
X-9.8029 Y17.2821
X-9.793 Y17.2755
X-9.7827 Y17.2693
X-9.7721 Y17.2637
X-9.7612 Y17.2587
X-9.75 Y17.2543
X-9.7387 Y17.2504
X-9.7272 Y17.2471
X-9.7155 Y17.2445
X-9.7036 Y17.2424
X-9.6917 Y17.241
X-9.6798 Y17.2402
X-9.6678 Y17.24
X-9.6558 Y17.2405
X-9.6439 Y17.2416
X-9.632 Y17.2432
X-9.6202 Y17.2456
X-9.6086 Y17.2485
X-9.5972 Y17.252
X-9.5859 Y17.2561
X-9.5749 Y17.2608
X-9.5641 Y17.2661
X-9.5536 Y17.2719
X-9.5435 Y17.2782
X-9.5336 Y17.2851
X-9.5242 Y17.2925
X-9.5151 Y17.3004
X-9.5065 Y17.3087
X-9.4753 Y17.3206
X-9.4555 Y17.3378
X-9.4548 Y17.3385
X-9.4319 Y17.3657
G3 X-9.6031 Y17.8303 I-0.2054 J0.1881
G1 X-9.7816 Y17.8301
G3 X-10.0023 Y17.4089 I0.0169 J-0.2773
G1 X-9.8411 Y17.2152
G3 X-9.6067 Y17.1587 I0.1674 J0.1802
X-9.6147 Y17.1829 I-0.012 J0.0094
G1 X-9.6155 Y17.1831
X-9.8251 Y17.2394
X-9.8275 Y17.2398
X-9.8299 Y17.2399
X-9.8322 Y17.2396
G3 X-9.8411 Y17.2152 I0.0031 J-0.0149 F50.
G1 X-9.7496 Y17.1069 F60.
G3 X-9.6784 Y17.0738 I0.0582 J0.0321
X-9.6816 Y17.0958 I-0.0119 J0.0094
G1 X-9.6866 Y17.0993
X-9.7288 Y17.1288
G3 X-9.7407 Y17.1312 I-0.0087 J-0.0125
X-9.7496 Y17.1069 I0.0031 J-0.0149 F50.
X-9.6993 Y17.0546 I0.0598 J0.0071 F60.
X-9.6773 Y17.0751 I-0.0072 J0.0297
G1 X-9.4548 Y17.3385
G3 X-9.4705 Y17.363 I-0.0116 J0.0098
X-9.4733 Y17.3522 I0.0017 J-0.0062
X-9.4577 Y17.3486 I0.0107 J0.0108
X-9.4319 Y17.3657 I-0.0204 J0.0589 F50.
G1 X-9.3082 Y17.512 F60.
G3 X-9.3894 Y17.8301 I-0.2368 J0.109
G1 X-9.6031
G3 X-9.6161 Y17.8221 I0.0005 J-0.0152
X-9.5823 Y17.7441 I0.0479 J-0.0255
X-9.4099 Y17.8092 I0.0411 J0.152
X-9.4023 Y17.8221 I-0.1313 J0.0869 F50.
G2 X-9.3894 Y17.8301 I0.0134 J-0.0072
G1 X-9.3315 F60.
G2 X-9.1897 Y17.6522 I-0.0427 J-0.1795
G1 X-9.3082 Y17.512
G2 X-9.3227 Y17.5074 I-0.0113 J0.0102
X-9.3469 Y17.5393 I0.0065 J0.0301
X-9.219 Y17.6498 I0.1179 J-0.0073
X-9.2042 Y17.6476 I-0.01 J-0.1177 F50.
G3 X-9.1897 Y17.6522 I0.0032 J0.0149
G1 X-9.1643 Y17.6824 F60.
G3 X-9.174 Y17.8314 I-0.0966 J0.0686
G1 X-9.1769 Y17.8311
X-9.1797 Y17.8304
X-9.1824 Y17.8291
X-9.1847 Y17.8274
X-9.1867 Y17.8254
X-9.1882 Y17.823
X-9.1893 Y17.8204
X-9.1899 Y17.8177
X-9.1901 Y17.815
Y17.8074
X-9.1908 Y17.6927
X-9.1905 Y17.6898
X-9.1897 Y17.687
G3 X-9.1643 Y17.6824 I0.0142 J0.0056 F50.
G1 X-9.1054 Y17.752 F60.
G3 X-9.0959 Y17.8301 I-0.0352 J0.0439
X-9.1095 Y17.8206 I0.0005 J-0.0152
G1 X-9.1145 Y17.8082
X-9.1308 Y17.768
G3 X-9.1309 Y17.7567 I0.0141 J-0.0057
X-9.1054 Y17.752 I0.0142 J0.0056 F50.
G1 X-9.0576 Y17.8087 F60.
X-9.0572 Y17.8091
X-9.054 Y17.8149
X-9.0519 Y17.8187
X-9.0517 Y17.8192
X-9.0514 Y17.8215
Y17.822
X-9.0519 Y17.8238
X-9.0521 Y17.8244
X-9.0534 Y17.8263
X-9.0538 Y17.8267
G3 X-9.0675 Y17.8301 I-0.0116 J-0.0171
G1 X-9.3315
G3 X-9.3444 Y17.8077 I0.0005 J-0.0152
G1 X-9.343 Y17.805 Z-0.1447
X-9.3417 Y17.8025 Z-0.1438
X-9.3404 Y17.8002 Z-0.1424
X-9.3393 Y17.7982 Z-0.1405
X-9.3384 Y17.7965 Z-0.1382
X-9.3377 Y17.7953 Z-0.1356
X-9.3373 Y17.7945 Z-0.1327
X-9.3372 Y17.7943 Z-0.1298
G0 Z-0.1145
X-9.7388 Y17.8136
G1 Z-0.1298 F50.
X-9.7391 Y17.8138 Z-0.1327
X-9.7398 Y17.8142 Z-0.1356
X-9.7411 Y17.8149 Z-0.1382
X-9.7427 Y17.8159 Z-0.1405
X-9.7447 Y17.8171 Z-0.1424
X-9.7469 Y17.8184 Z-0.1438
X-9.7494 Y17.8199 Z-0.1447
X-9.7519 Y17.8214 Z-0.145
G3 X-9.7816 Y17.8301 I-0.0318 J-0.0536
G1 X-9.9448 F60.
G3 X-10.1337 Y17.5616 I0.0684 J-0.2488
G1 X-10.0039 Y17.408
G3 X-9.9894 Y17.4033 I0.0113 J0.0102
X-9.9799 Y17.4125 I-0.0026 J0.0123
G1 X-9.9796 Y17.4135
G3 X-10.1044 Y17.5591 I-0.1148 J0.028
X-10.1192 Y17.5569 I0.01 J-0.1177 F50.
G2 X-10.1337 Y17.5616 I-0.0032 J0.0149
G1 X-10.1721 Y17.607 F60.
G2 X-10.1286 Y17.8301 I0.1648 J0.0837
G1 X-9.9448
G2 X-9.9319 Y17.8221 I-0.0005 J-0.0152
X-9.9405 Y17.7832 I-0.027 J-0.0144
X-10.1078 Y17.8093 I-0.0709 J0.0944
X-10.1157 Y17.8221 I0.0964 J0.0683 F50.
G3 X-10.1286 Y17.8301 I-0.0134 J-0.0072
G1 X-10.1675 F60.
X-10.1759 Y17.8291
X-10.1843 Y17.8275
X-10.1925 Y17.8253
X-10.2005 Y17.8226
X-10.2083 Y17.8192
X-10.2159 Y17.8153
X-10.2231 Y17.8109
X-10.23 Y17.8059
X-10.2365 Y17.8005
X-10.2426 Y17.7946
X-10.2483 Y17.7882
X-10.2535 Y17.7815
X-10.2582 Y17.7745
X-10.2624 Y17.7671
X-10.2661 Y17.7594
X-10.2691 Y17.7515
X-10.2716 Y17.7434
X-10.2735 Y17.7351
X-10.2748 Y17.7267
X-10.2728 Y17.7246
X-10.2703 Y17.723
X-10.2677 Y17.7218
X-10.2649 Y17.7211
X-10.2621 Y17.7209
X-10.2592 Y17.7212
X-10.2566 Y17.7221
X-10.2541 Y17.7233
X-10.2519 Y17.725
X-10.2461 Y17.7299
X-10.1583 Y17.8032
X-10.1562 Y17.8053
X-10.1546 Y17.8077
G3 X-10.1675 Y17.8301 I-0.0134 J0.0072 F50.
G1 X-10.2608 F60.
G3 X-10.3242 Y17.7871 I-0.0092 J-0.0547
X-10.3081 Y17.7829 I0.0113 J0.0102
G1 X-10.2955 Y17.7872
X-10.2564 Y17.8005
G3 X-10.2479 Y17.8077 I-0.0049 J0.0144
X-10.2608 Y17.8301 I-0.0134 J0.0072 F50.
G1 X-10.3325 F60.
X-10.3332 Y17.83
X-10.3412 Y17.8285
X-10.3439 Y17.828
X-10.3444 Y17.8278
X-10.3462 Y17.8267
X-10.3466 Y17.8263
X-10.3479 Y17.8244
X-10.3481 Y17.8238
X-10.3486 Y17.822
Y17.8215
G3 X-10.3424 Y17.8087 I0.0214 J0.0024
G1 X-10.1721 Y17.607
G3 X-10.1578 Y17.6023 I0.0113 J0.0102
G1 X-10.1557 Y17.6033 Z-0.1448
X-10.1536 Y17.6042 Z-0.1443
X-10.1516 Y17.6051 Z-0.1434
X-10.1502 Y17.6067 Z-0.142
X-10.149 Y17.6082 Z-0.1404
X-10.148 Y17.6094 Z-0.1385
X-10.1472 Y17.6104 Z-0.1363
X-10.1469 Y17.6111 Z-0.1342
X-10.1467 Y17.6115 Z-0.132
X-10.1466 Y17.6117 Z-0.1298
G0 Z0.4
X-9.8362 Y20.273
Z0.1
G3 X-9.9718 Y20.3235 Z0.0599 I-0.0678 J0.0253 F50.
X-9.8362 Y20.273 Z0.0199 I0.0678 J-0.0253
X-9.9718 Y20.3235 Z-0.0202 I-0.0678 J0.0253
X-9.8362 Y20.273 Z-0.0603 I0.0678 J-0.0253
X-9.9718 Y20.3235 Z-0.1004 I-0.0678 J0.0253
X-9.8362 Y20.273 Z-0.1404 I0.0678 J-0.0253
X-9.8317 Y20.2983 Z-0.145 I-0.0678 J0.0253
X-9.9764 I-0.0723 J0.
X-9.8319 Y20.2925 I0.0723 J0.
G1 X-9.8317 Y20.2983
G3 X-9.8315 Y20.4088 I-0.0532 J0.0554 F60.
G1 X-9.9576
G3 X-10.0079 Y20.3872 I-0.0132 J-0.0385
X-9.9901 Y20.3727 I0.0152 J0.0005
G1 X-9.9852 Y20.3735
X-9.9556 Y20.3786
G3 X-9.9448 Y20.3864 I-0.0026 J0.015
X-9.9576 Y20.4088 I-0.0134 J0.0072 F50.
X-10.0056 Y20.4024 I-0.0215 J-0.0216 F60.
G1 X-10.0079 Y20.3909
Y20.2387
G3 X-9.7998 Y20.1837 I0.1175 J0.0234
G1 X-9.8002 Y20.3909
X-9.8025 Y20.4026
G3 X-9.8315 Y20.4088 I-0.0175 J-0.0105
X-9.8459 Y20.3904 I0.0005 J-0.0152
G1 X-9.845 Y20.3862
X-9.8071 Y20.2091
G2 X-9.8369 Y20.2028 I-0.0149 J-0.0032
X-9.8089 Y20.2137 I0.0149 J0.0032
X-9.8002 Y20.1841 I-0.0536 J-0.0318 F50.
G1 Y20.1511 F60.
G2 X-10.0079 Y20.0937 I-0.1208 J0.0327
G1 Y20.2387
G2 X-9.9815 Y20.2486 I0.0152 J-0.0005
X-9.9776 Y20.2429 I-0.0172 J-0.016
X-9.9903 Y20.1184 I-0.106 J-0.0522
X-10.003 Y20.1044 I-0.0933 J0.0724 F50.
G3 X-10.0079 Y20.0938 I0.0104 J-0.0111
G1 Y20.0647 F60.
G3 X-9.7999 Y20.0104 I0.1213 J0.0392
G1 X-9.8002 Y20.1511
G3 X-9.8159 Y20.1657 I-0.0152 J-0.0005
X-9.8331 Y20.1539 I0.0007 J-0.0194
X-9.8178 Y20.0353 I0.1087 J-0.0463
X-9.805 Y20.0213 I0.0933 J0.0724 F50.
G2 X-9.8002 Y20.0107 I-0.0104 J-0.0111
G1 Y19.9818 F60.
G2 X-10.0082 Y19.9278 I-0.1215 J0.0404
G1 X-10.0079 Y20.0647
G2 X-9.9815 Y20.0745 I0.0152 J-0.0005
X-9.9674 Y20.0465 I-0.0409 J-0.0381
X-9.9903 Y19.9528 I-0.1162 J-0.0213
X-10.003 Y19.9388 I-0.0933 J0.0724 F50.
G3 X-10.0079 Y19.9282 I0.0104 J-0.0111
G1 Y19.9012 F60.
G3 X-9.7999 Y19.8456 I0.1215 J0.0378
G1 X-9.8002 Y19.9818
G3 X-9.8159 Y19.9965 I-0.0152 J-0.0005
X-9.836 Y19.9817 I0.0008 J-0.0221
X-9.8178 Y19.8705 I0.1116 J-0.0388
X-9.805 Y19.8565 I0.0933 J0.0724 F50.
G2 X-9.8002 Y19.8459 I-0.0104 J-0.0111
G1 Y19.8183 F60.
G2 X-10.0081 Y19.7634 I-0.1215 J0.0389
G1 X-10.0079 Y19.9012
G2 X-9.9921 Y19.9159 I0.0152 J-0.0005
X-9.973 Y19.9021 I-0.0007 J-0.0212
X-9.9903 Y19.7883 I-0.1106 J-0.0414
X-10.003 Y19.7743 I-0.0933 J0.0724 F50.
G3 X-10.0079 Y19.7637 I0.0104 J-0.0111
G1 Y19.7377 F60.
G3 X-9.8 Y19.6813 I0.1215 J0.0363
G1 X-9.8002 Y19.8183
G3 X-9.8159 Y19.833 I-0.0152 J-0.0005
X-9.8355 Y19.8187 I0.0008 J-0.0216
X-9.8178 Y19.7061 I0.111 J-0.0403
X-9.805 Y19.6921 I0.0933 J0.0724 F50.
G2 X-9.8002 Y19.6815 I-0.0104 J-0.0111
G1 Y19.6548 F60.
G2 X-10.0081 Y19.5991 I-0.1214 J0.0375
G1 X-10.0079 Y19.7377
G2 X-9.9921 Y19.7524 I0.0152 J-0.0005
X-9.9735 Y19.7392 I-0.0007 J-0.0207
X-9.9903 Y19.6239 I-0.11 J-0.0429
X-10.003 Y19.6099 I-0.0933 J0.0724 F50.
G3 X-10.0079 Y19.5993 I0.0104 J-0.0111
G1 Y19.5742 F60.
G3 X-9.8 Y19.517 I0.1214 J0.0349
G1 X-9.8002 Y19.6548
G3 X-9.8265 Y19.6646 I-0.0152 J-0.0005
X-9.8399 Y19.6391 I0.0397 J-0.037
X-9.8178 Y19.5417 I0.1154 J-0.025
X-9.805 Y19.5277 I0.0933 J0.0724 F50.
G2 X-9.8002 Y19.5171 I-0.0104 J-0.0111
G1 Y19.4913 F60.
G2 X-10.008 Y19.4348 I-0.1214 J0.0361
G1 X-10.0079 Y19.5742
G2 X-9.9998 Y19.5871 I0.0152 J-0.0005
X-9.9373 Y19.5482 I0.02 J-0.0375
X-9.9871 Y19.4558 I-0.118 J0.0039
X-9.9998 Y19.4479 I-0.0683 J0.0964 F50.
G3 X-10.0079 Y19.435 I0.0072 J-0.0134
G1 Y19.4037 F60.
X-10.0044 Y19.3953
X-10.0005 Y19.3872
X-9.9959 Y19.3794
X-9.9908 Y19.372
X-9.9853 Y19.3649
X-9.9792 Y19.3582
X-9.9727 Y19.3519
X-9.9658 Y19.3462
X-9.9585 Y19.3409
X-9.9508 Y19.3361
X-9.9428 Y19.3319
X-9.9346 Y19.3282
X-9.9261 Y19.3252
X-9.9174 Y19.3227
X-9.9086 Y19.3208
X-9.8997 Y19.3196
X-9.8907 Y19.3189
X-9.8816
X-9.8726 Y19.3195
X-9.8637 Y19.3208
X-9.8549 Y19.3227
X-9.8462 Y19.3251
X-9.8377 Y19.3282
X-9.8295 Y19.3318
X-9.8215 Y19.3361
X-9.8138 Y19.3408
X-9.8065 Y19.3461
X-9.7996 Y19.3519
X-9.8002 Y19.4913
G3 X-9.8265 Y19.5012 I-0.0152 J-0.0005
X-9.839 Y19.4781 I0.0383 J-0.0357
X-9.8178 Y19.3771 I0.1146 J-0.0287
X-9.805 Y19.3631 I0.0933 J0.0724 F50.
G2 X-9.8002 Y19.3525 I-0.0104 J-0.0111
G1 Y19.3278 F60.
G2 X-10.008 Y19.2699 I-0.1216 J0.0346
G1 X-10.0079 Y19.4037
G2 X-9.9921 Y19.4183 I0.0152 J-0.0005
X-9.9708 Y19.402 I-0.0008 J-0.0232
X-9.9903 Y19.2947 I-0.1128 J-0.0349
X-10.003 Y19.2807 I-0.0933 J0.0724 F50.
G3 X-10.0079 Y19.2701 I0.0104 J-0.0111
G1 Y19.2402 F60.
G3 X-9.7997 Y19.1877 I0.1216 J0.0431
G1 X-9.8002 Y19.3278
G3 X-9.8082 Y19.3407 I-0.0152 J-0.0005
X-9.8707 Y19.302 I-0.02 J-0.0375
X-9.821 Y19.209 I0.1181 J0.0034
X-9.8082 Y19.2012 I0.0683 J0.0964 F50.
G2 X-9.8002 Y19.1882 I-0.0072 J-0.0134
X-9.818 Y19.1412 I-0.0183 J-0.02 F60.
G1 X-9.99
X-10.0016 Y19.1434
X-10.0024 Y19.144
X-10.0036 Y19.1447
X-10.0043 Y19.1454
X-10.0055 Y19.1473
X-10.0078 Y19.1589
X-10.0079 Y19.2402
G2 X-10.0077 Y19.2418 I0.0152 J-0.0005
G1 X-10.0069 Y19.244 Z-0.1448
X-10.006 Y19.2462 Z-0.1443
X-10.0052 Y19.2482 Z-0.1434
X-10.0037 Y19.2496 Z-0.142
X-10.0023 Y19.2509 Z-0.1404
X-10.0011 Y19.252 Z-0.1385
X-10.0002 Y19.2528 Z-0.1363
X-9.9995 Y19.2532 Z-0.1342
X-9.9991 Y19.2534 Z-0.132
X-9.9989 Y19.2535 Z-0.1298
G0 Z0.4
X-9.8362 Y21.7678
Z0.1
G3 X-9.9718 Y21.8183 Z0.0599 I-0.0678 J0.0253 F50.
X-9.8362 Y21.7678 Z0.0199 I0.0678 J-0.0253
X-9.9718 Y21.8183 Z-0.0202 I-0.0678 J0.0253
X-9.8362 Y21.7678 Z-0.0603 I0.0678 J-0.0253
X-9.9718 Y21.8183 Z-0.1004 I-0.0678 J0.0253
X-9.8362 Y21.7678 Z-0.1404 I0.0678 J-0.0253
X-9.8317 Y21.793 Z-0.145 I-0.0678 J0.0253
X-9.9764 I-0.0723 J0.
X-9.8319 Y21.7873 I0.0723 J0.
G1 X-9.8317 Y21.793
G3 X-9.8356 Y21.9089 I-0.0533 J0.0561 F60.
G1 X-9.9576
G3 X-10.0079 Y21.8858 I-0.0104 J-0.0435
X-9.9895 Y21.8714 I0.0152 J0.0005
G1 X-9.9852 Y21.8723
X-9.955 Y21.8787
G3 X-9.9448 Y21.8864 I-0.0032 J0.0149
X-9.9576 Y21.9089 I-0.0134 J0.0072 F50.
X-10.0078 Y21.8913 I-0.0216 J-0.0187 F60.
G1 X-10.0079 Y21.8906
Y21.7335
G3 X-9.7998 Y21.6785 I0.1175 J0.0234
G1 X-9.8002 Y21.8907
G3 X-9.8356 Y21.9089 I-0.0214 J0.0019
X-9.85 Y21.8902 I0.0005 J-0.0152
G1 X-9.849 Y21.8862
X-9.8071 Y21.7042
G2 X-9.8368 Y21.6973 I-0.0148 J-0.0034
X-9.8089 Y21.7085 I0.0148 J0.0034
X-9.8002 Y21.6789 I-0.0536 J-0.0318 F50.
G1 Y21.6458 F60.
G2 X-10.0079 Y21.5885 I-0.1208 J0.0327
G1 Y21.7335
G2 X-9.9921 Y21.7482 I0.0152 J-0.0005
X-9.9786 Y21.7396 I-0.0006 J-0.0159
X-9.9903 Y21.6131 I-0.105 J-0.054
X-10.003 Y21.5992 I-0.0933 J0.0724 F50.
G3 X-10.0079 Y21.5886 I0.0104 J-0.0111
G1 Y21.5595 F60.
G3 X-9.7999 Y21.5052 I0.1213 J0.0392
G1 X-9.8002 Y21.6458
G3 X-9.8159 Y21.6605 I-0.0152 J-0.0005
X-9.8331 Y21.6487 I0.0007 J-0.0194
X-9.8178 Y21.5301 I0.1087 J-0.0463
X-9.805 Y21.5161 I0.0933 J0.0724 F50.
G2 X-9.8002 Y21.5055 I-0.0104 J-0.0111
G1 Y21.4766 F60.
G2 X-10.0082 Y21.4226 I-0.1215 J0.0404
G1 X-10.0079 Y21.5595
G2 X-9.9921 Y21.5742 I0.0152 J-0.0005
X-9.9724 Y21.5597 I-0.0008 J-0.0218
X-9.9903 Y21.4476 I-0.1112 J-0.0397
X-10.003 Y21.4336 I-0.0933 J0.0724 F50.
G3 X-10.0079 Y21.423 I0.0104 J-0.0111
G1 Y21.396 F60.
G3 X-9.7999 Y21.3404 I0.1215 J0.0378
G1 X-9.8002 Y21.4766
G3 X-9.8265 Y21.4864 I-0.0152 J-0.0005
X-9.8409 Y21.4573 I0.0413 J-0.0385
X-9.8178 Y21.3652 I0.1165 J-0.0197
X-9.805 Y21.3513 I0.0933 J0.0724 F50.
G2 X-9.8002 Y21.3407 I-0.0104 J-0.0111
G1 Y21.3131 F60.
G2 X-10.0081 Y21.2582 I-0.1215 J0.0389
G1 X-10.0079 Y21.396
G2 X-9.9815 Y21.4058 I0.0152 J-0.0005
X-9.968 Y21.3799 I-0.0399 J-0.0372
X-9.9903 Y21.2831 I-0.1155 J-0.0245
X-10.003 Y21.2691 I-0.0933 J0.0724 F50.
G3 X-10.0079 Y21.2585 I0.0104 J-0.0111
G1 Y21.2325 F60.
G3 X-9.8 Y21.1761 I0.1215 J0.0363
G1 X-9.8002 Y21.3131
G3 X-9.8159 Y21.3278 I-0.0152 J-0.0005
X-9.8355 Y21.3135 I0.0008 J-0.0216
X-9.8178 Y21.2009 I0.111 J-0.0403
X-9.805 Y21.1869 I0.0933 J0.0724 F50.
G2 X-9.8002 Y21.1763 I-0.0104 J-0.0111
G1 Y21.1496 F60.
G2 X-10.0081 Y21.0939 I-0.1214 J0.0375
G1 X-10.0079 Y21.2325
G2 X-9.9921 Y21.2472 I0.0152 J-0.0005
X-9.9735 Y21.234 I-0.0007 J-0.0207
X-9.9903 Y21.1187 I-0.11 J-0.0429
X-10.003 Y21.1047 I-0.0933 J0.0724 F50.
G3 X-10.0079 Y21.0941 I0.0104 J-0.0111
G1 Y21.069 F60.
G3 X-9.8 Y21.0118 I0.1214 J0.0349
G1 X-9.8002 Y21.1496
G3 X-9.8159 Y21.1643 I-0.0152 J-0.0005
X-9.8349 Y21.1506 I0.0007 J-0.0211
X-9.8178 Y21.0365 I0.1105 J-0.0417
X-9.805 Y21.0225 I0.0933 J0.0724 F50.
G2 X-9.8002 Y21.0119 I-0.0104 J-0.0111
G1 Y20.9861 F60.
G2 X-10.008 Y20.9296 I-0.1214 J0.0361
G1 X-10.0079 Y21.069
G2 X-9.9921 Y21.0837 I0.0152 J-0.0005
X-9.9741 Y21.0711 I-0.0007 J-0.0202
X-9.9903 Y20.9544 I-0.1095 J-0.0443
X-10.003 Y20.9404 I-0.0933 J0.0724 F50.
G3 X-10.0079 Y20.9298 I0.0104 J-0.0111
G1 Y20.8984 F60.
X-10.0044 Y20.8901
X-10.0005 Y20.882
X-9.9959 Y20.8742
X-9.9908 Y20.8668
X-9.9853 Y20.8597
X-9.9792 Y20.853
X-9.9727 Y20.8467
X-9.9658 Y20.841
X-9.9585 Y20.8357
X-9.9508 Y20.8309
X-9.9428 Y20.8267
X-9.9346 Y20.823
X-9.9261 Y20.82
X-9.9174 Y20.8175
X-9.9086 Y20.8156
X-9.8997 Y20.8144
X-9.8907 Y20.8137
X-9.8816
X-9.8726 Y20.8143
X-9.8637 Y20.8156
X-9.8549 Y20.8175
X-9.8462 Y20.8199
X-9.8377 Y20.823
X-9.8295 Y20.8266
X-9.8215 Y20.8309
X-9.8138 Y20.8356
X-9.8065 Y20.8409
X-9.7996 Y20.8467
X-9.8002 Y20.9861
G3 X-9.8265 Y20.9959 I-0.0152 J-0.0005
X-9.839 Y20.9729 I0.0383 J-0.0357
X-9.8178 Y20.8719 I0.1146 J-0.0287
X-9.805 Y20.8579 I0.0933 J0.0724 F50.
G2 X-9.8002 Y20.8473 I-0.0104 J-0.0111
G1 Y20.8226 F60.
G2 X-10.008 Y20.7647 I-0.1216 J0.0346
G1 X-10.0079 Y20.8984
G2 X-9.9921 Y20.9131 I0.0152 J-0.0005
X-9.9708 Y20.8968 I-0.0008 J-0.0232
X-9.9903 Y20.7895 I-0.1128 J-0.0349
X-10.003 Y20.7755 I-0.0933 J0.0724 F50.
G3 X-10.0079 Y20.7649 I0.0104 J-0.0111
G1 Y20.735 F60.
G3 X-9.9832 Y20.6912 I0.049 J-0.0012
X-9.9692 Y20.711 I-0.0005 J0.0152
G1 X-9.97 Y20.7137
X-9.9781 Y20.739
G3 X-9.9854 Y20.7478 I-0.0145 J-0.0046
X-10.0079 Y20.735 I-0.0072 J-0.0134 F50.
X-9.99 Y20.6912 I0.0176 J-0.0184 F60.
G1 X-9.8387
G3 X-9.8002 Y20.7092 I0.0157 J0.0166
G1 Y20.8226
G3 X-9.808 Y20.8354 I-0.0152 J-0.0005
G1 X-9.8103 Y20.836 Z-0.1448
X-9.8125 Y20.8367 Z-0.1443
X-9.8146 Y20.8373 Z-0.1434
X-9.8171 Y20.8368 Z-0.1417
X-9.8192 Y20.8363 Z-0.1395
X-9.8209 Y20.836 Z-0.137
X-9.822 Y20.8358 Z-0.1342
X-9.8225 Y20.8355 Z-0.132
X-9.8226 Z-0.1298
G0 Z0.4
X-9.3462 Y21.7678
Z0.1
G3 X-9.4818 Y21.8183 Z0.0599 I-0.0678 J0.0253 F50.
X-9.3462 Y21.7678 Z0.0199 I0.0678 J-0.0253
X-9.4818 Y21.8183 Z-0.0202 I-0.0678 J0.0253
X-9.3462 Y21.7678 Z-0.0603 I0.0678 J-0.0253
X-9.4818 Y21.8183 Z-0.1004 I-0.0678 J0.0253
X-9.3462 Y21.7678 Z-0.1404 I0.0678 J-0.0253
X-9.3417 Y21.793 Z-0.145 I-0.0678 J0.0253
X-9.4864 I-0.0723 J0.
X-9.3419 Y21.7873 I0.0723 J0.
G1 X-9.3417 Y21.793
G3 X-9.3456 Y21.9089 I-0.0533 J0.0561 F60.
G1 X-9.468
G3 X-9.5179 Y21.8858 I-0.0106 J-0.0425
X-9.4995 Y21.8715 I0.0152 J0.0005
G1 X-9.4952 Y21.8724
X-9.4654 Y21.8787
G3 X-9.4551 Y21.8864 I-0.0032 J0.0149
X-9.468 Y21.9089 I-0.0134 J0.0072 F50.
X-9.5179 Y21.8906 I-0.0214 J-0.0187 F60.
G1 Y21.7335
G3 X-9.3098 Y21.6785 I0.1175 J0.0234
G1 X-9.3102 Y21.8907
G3 X-9.3456 Y21.9089 I-0.0216 J0.0015
X-9.36 Y21.8902 I0.0005 J-0.0152
G1 X-9.359 Y21.8862
X-9.3171 Y21.7042
G2 X-9.3468 Y21.6973 I-0.0148 J-0.0034
X-9.3189 Y21.7085 I0.0148 J0.0034
X-9.3102 Y21.6789 I-0.0536 J-0.0318 F50.
G1 Y21.6458 F60.
G2 X-9.5179 Y21.5885 I-0.1208 J0.0327
G1 Y21.7335
G2 X-9.5021 Y21.7482 I0.0152 J-0.0005
X-9.4886 Y21.7396 I-0.0006 J-0.0159
X-9.5003 Y21.6131 I-0.105 J-0.054
X-9.513 Y21.5992 I-0.0933 J0.0724 F50.
G3 X-9.5179 Y21.5886 I0.0104 J-0.0111
G1 Y21.5595 F60.
G3 X-9.3099 Y21.5052 I0.1213 J0.0392
G1 X-9.3102 Y21.6458
G3 X-9.3259 Y21.6605 I-0.0152 J-0.0005
X-9.3431 Y21.6487 I0.0007 J-0.0194
X-9.3278 Y21.5301 I0.1087 J-0.0463
X-9.315 Y21.5161 I0.0933 J0.0724 F50.
G2 X-9.3102 Y21.5055 I-0.0104 J-0.0111
G1 Y21.4766 F60.
G2 X-9.5182 Y21.4226 I-0.1215 J0.0404
G1 X-9.5179 Y21.5595
G2 X-9.4915 Y21.5693 I0.0152 J-0.0005
X-9.4774 Y21.5413 I-0.0409 J-0.0381
X-9.5003 Y21.4476 I-0.1162 J-0.0213
X-9.513 Y21.4336 I-0.0933 J0.0724 F50.
G3 X-9.5179 Y21.423 I0.0104 J-0.0111
G1 Y21.396 F60.
G3 X-9.3099 Y21.3404 I0.1215 J0.0378
G1 X-9.3102 Y21.4766
G3 X-9.3365 Y21.4864 I-0.0152 J-0.0005
X-9.3509 Y21.4573 I0.0413 J-0.0385
X-9.3278 Y21.3652 I0.1165 J-0.0197
X-9.315 Y21.3513 I0.0933 J0.0724 F50.
G2 X-9.3102 Y21.3407 I-0.0104 J-0.0111
G1 Y21.3131 F60.
G2 X-9.5181 Y21.2582 I-0.1215 J0.0389
G1 X-9.5179 Y21.396
G2 X-9.4915 Y21.4058 I0.0152 J-0.0005
X-9.478 Y21.3799 I-0.0399 J-0.0372
X-9.5003 Y21.2831 I-0.1155 J-0.0245
X-9.513 Y21.2691 I-0.0933 J0.0724 F50.
G3 X-9.5179 Y21.2585 I0.0104 J-0.0111
G1 Y21.2325 F60.
G3 X-9.31 Y21.1761 I0.1215 J0.0363
G1 X-9.3102 Y21.3131
G3 X-9.3259 Y21.3278 I-0.0152 J-0.0005
X-9.3455 Y21.3135 I0.0008 J-0.0216
X-9.3278 Y21.2009 I0.111 J-0.0403
X-9.315 Y21.1869 I0.0933 J0.0724 F50.
G2 X-9.3102 Y21.1763 I-0.0104 J-0.0111
G1 Y21.1496 F60.
G2 X-9.5181 Y21.0939 I-0.1214 J0.0375
G1 X-9.5179 Y21.2325
G2 X-9.4915 Y21.2424 I0.0152 J-0.0005
X-9.4787 Y21.2184 I-0.0389 J-0.0363
X-9.5003 Y21.1187 I-0.1149 J-0.0272
X-9.513 Y21.1047 I-0.0933 J0.0724 F50.
G3 X-9.5179 Y21.0941 I0.0104 J-0.0111
G1 Y21.069 F60.
G3 X-9.31 Y21.0118 I0.1214 J0.0349
G1 X-9.3102 Y21.1496
G3 X-9.3259 Y21.1643 I-0.0152 J-0.0005
X-9.3449 Y21.1506 I0.0007 J-0.0211
X-9.3278 Y21.0365 I0.1105 J-0.0417
X-9.315 Y21.0225 I0.0933 J0.0724 F50.
G2 X-9.3102 Y21.0119 I-0.0104 J-0.0111
G1 Y20.9861 F60.
G2 X-9.518 Y20.9296 I-0.1214 J0.0361
G1 X-9.5179 Y21.069
G2 X-9.5021 Y21.0837 I0.0152 J-0.0005
X-9.4841 Y21.0711 I-0.0007 J-0.0202
X-9.5003 Y20.9544 I-0.1095 J-0.0443
X-9.513 Y20.9404 I-0.0933 J0.0724 F50.
G3 X-9.5179 Y20.9298 I0.0104 J-0.0111
G1 Y20.8984 F60.
X-9.5144 Y20.8901
X-9.5105 Y20.882
X-9.5059 Y20.8742
X-9.5008 Y20.8668
X-9.4953 Y20.8597
X-9.4892 Y20.853
X-9.4827 Y20.8467
X-9.4758 Y20.841
X-9.4685 Y20.8357
X-9.4608 Y20.8309
X-9.4528 Y20.8267
X-9.4446 Y20.823
X-9.4361 Y20.82
X-9.4274 Y20.8175
X-9.4186 Y20.8156
X-9.4097 Y20.8144
X-9.4007 Y20.8137
X-9.3916
X-9.3826 Y20.8143
X-9.3737 Y20.8156
X-9.3649 Y20.8175
X-9.3562 Y20.8199
X-9.3477 Y20.823
X-9.3395 Y20.8266
X-9.3315 Y20.8309
X-9.3238 Y20.8356
X-9.3165 Y20.8409
X-9.3096 Y20.8467
X-9.3102 Y20.9861
G3 X-9.3365 Y20.9959 I-0.0152 J-0.0005
X-9.349 Y20.9729 I0.0383 J-0.0357
X-9.3278 Y20.8719 I0.1146 J-0.0287
X-9.315 Y20.8579 I0.0933 J0.0724 F50.
G2 X-9.3102 Y20.8473 I-0.0104 J-0.0111
G1 Y20.8226 F60.
G2 X-9.518 Y20.7647 I-0.1216 J0.0346
G1 X-9.5179 Y20.8984
G2 X-9.5021 Y20.9131 I0.0152 J-0.0005
X-9.4808 Y20.8968 I-0.0008 J-0.0232
X-9.5003 Y20.7895 I-0.1128 J-0.0349
X-9.513 Y20.7755 I-0.0933 J0.0724 F50.
G3 X-9.5179 Y20.7649 I0.0104 J-0.0111
G1 Y20.735 F60.
G3 X-9.4932 Y20.6912 I0.049 J-0.0012
X-9.4792 Y20.711 I-0.0005 J0.0152
G1 X-9.48 Y20.7137
X-9.4881 Y20.739
G3 X-9.4954 Y20.7478 I-0.0145 J-0.0046
X-9.5179 Y20.735 I-0.0072 J-0.0134 F50.
X-9.4996 Y20.6912 I0.0176 J-0.0184 F60.
G1 X-9.3491
G3 X-9.3102 Y20.7092 I0.0157 J0.0171
G1 Y20.8226
G3 X-9.318 Y20.8354 I-0.0152 J-0.0005
G1 X-9.3203 Y20.836 Z-0.1448
X-9.3225 Y20.8367 Z-0.1443
X-9.3246 Y20.8373 Z-0.1434
X-9.3271 Y20.8368 Z-0.1417
X-9.3292 Y20.8363 Z-0.1395
X-9.3309 Y20.836 Z-0.137
X-9.332 Y20.8358 Z-0.1342
X-9.3325 Y20.8355 Z-0.132
X-9.3326 Z-0.1298
G0 Z0.4
X-9.3462 Y20.273
Z0.1
G3 X-9.4818 Y20.3235 Z0.0599 I-0.0678 J0.0253 F50.
X-9.3462 Y20.273 Z0.0199 I0.0678 J-0.0253
X-9.4818 Y20.3235 Z-0.0202 I-0.0678 J0.0253
X-9.3462 Y20.273 Z-0.0603 I0.0678 J-0.0253
X-9.4818 Y20.3235 Z-0.1004 I-0.0678 J0.0253
X-9.3462 Y20.273 Z-0.1404 I0.0678 J-0.0253
X-9.3417 Y20.2983 Z-0.145 I-0.0678 J0.0253
X-9.4864 I-0.0723 J0.
X-9.3419 Y20.2925 I0.0723 J0.
G1 X-9.3417 Y20.2983
G3 X-9.3415 Y20.4088 I-0.0532 J0.0554 F60.
G1 X-9.468
G3 X-9.5179 Y20.3872 I-0.013 J-0.0384
X-9.5 Y20.3727 I0.0152 J0.0005
G1 X-9.4952 Y20.3735
X-9.4659 Y20.3786
G3 X-9.4551 Y20.3864 I-0.0026 J0.015
X-9.468 Y20.4088 I-0.0134 J0.0072 F50.
X-9.5156 Y20.4023 I-0.0205 J-0.027 F60.
G1 X-9.5179 Y20.3909
Y20.2387
G3 X-9.3098 Y20.1837 I0.1175 J0.0234
G1 X-9.3102 Y20.3909
X-9.3125 Y20.4027
G3 X-9.3415 Y20.4088 I-0.0185 J-0.0159
X-9.3559 Y20.3904 I0.0005 J-0.0152
G1 X-9.355 Y20.3862
X-9.3171 Y20.2091
G2 X-9.3469 Y20.2028 I-0.0149 J-0.0032
X-9.3189 Y20.2137 I0.0149 J0.0032
X-9.3102 Y20.1841 I-0.0536 J-0.0318 F50.
G1 Y20.1511 F60.
G2 X-9.5179 Y20.0937 I-0.1208 J0.0327
G1 Y20.2387
G2 X-9.5021 Y20.2534 I0.0152 J-0.0005
X-9.4886 Y20.2448 I-0.0006 J-0.0159
X-9.5003 Y20.1184 I-0.105 J-0.054
X-9.513 Y20.1044 I-0.0933 J0.0724 F50.
G3 X-9.5179 Y20.0938 I0.0104 J-0.0111
G1 Y20.0647 F60.
G3 X-9.3099 Y20.0104 I0.1213 J0.0392
G1 X-9.3102 Y20.1511
G3 X-9.3259 Y20.1657 I-0.0152 J-0.0005
X-9.3431 Y20.1539 I0.0007 J-0.0194
X-9.3278 Y20.0353 I0.1087 J-0.0463
X-9.315 Y20.0213 I0.0933 J0.0724 F50.
G2 X-9.3102 Y20.0107 I-0.0104 J-0.0111
G1 Y19.9818 F60.
G2 X-9.5182 Y19.9278 I-0.1215 J0.0404
G1 X-9.5179 Y20.0647
G2 X-9.5021 Y20.0794 I0.0152 J-0.0005
X-9.4824 Y20.0649 I-0.0008 J-0.0218
X-9.5003 Y19.9528 I-0.1112 J-0.0397
X-9.513 Y19.9388 I-0.0933 J0.0724 F50.
G3 X-9.5179 Y19.9282 I0.0104 J-0.0111
G1 Y19.9012 F60.
G3 X-9.3099 Y19.8456 I0.1215 J0.0378
G1 X-9.3102 Y19.9818
G3 X-9.3365 Y19.9916 I-0.0152 J-0.0005
X-9.3509 Y19.9625 I0.0413 J-0.0385
X-9.3278 Y19.8705 I0.1165 J-0.0197
X-9.315 Y19.8565 I0.0933 J0.0724 F50.
G2 X-9.3102 Y19.8459 I-0.0104 J-0.0111
G1 Y19.8183 F60.
G2 X-9.5181 Y19.7634 I-0.1215 J0.0389
G1 X-9.5179 Y19.9012
G2 X-9.5021 Y19.9159 I0.0152 J-0.0005
X-9.483 Y19.9021 I-0.0007 J-0.0212
X-9.5003 Y19.7883 I-0.1106 J-0.0414
X-9.513 Y19.7743 I-0.0933 J0.0724 F50.
G3 X-9.5179 Y19.7637 I0.0104 J-0.0111
G1 Y19.7377 F60.
G3 X-9.31 Y19.6813 I0.1215 J0.0363
G1 X-9.3102 Y19.8183
G3 X-9.3259 Y19.833 I-0.0152 J-0.0005
X-9.3455 Y19.8187 I0.0008 J-0.0216
X-9.3278 Y19.7061 I0.111 J-0.0403
X-9.315 Y19.6921 I0.0933 J0.0724 F50.
G2 X-9.3102 Y19.6815 I-0.0104 J-0.0111
G1 Y19.6548 F60.
G2 X-9.5181 Y19.5991 I-0.1214 J0.0375
G1 X-9.5179 Y19.7377
G2 X-9.4915 Y19.7476 I0.0152 J-0.0005
X-9.4787 Y19.7236 I-0.0389 J-0.0363
X-9.5003 Y19.6239 I-0.1149 J-0.0272
X-9.513 Y19.6099 I-0.0933 J0.0724 F50.
G3 X-9.5179 Y19.5993 I0.0104 J-0.0111
G1 Y19.5742 F60.
G3 X-9.31 Y19.517 I0.1214 J0.0349
G1 X-9.3102 Y19.6548
G3 X-9.3365 Y19.6646 I-0.0152 J-0.0005
X-9.3499 Y19.6391 I0.0397 J-0.037
X-9.3278 Y19.5417 I0.1154 J-0.025
X-9.315 Y19.5277 I0.0933 J0.0724 F50.
G2 X-9.3102 Y19.5171 I-0.0104 J-0.0111
G1 Y19.4913 F60.
G2 X-9.518 Y19.4348 I-0.1214 J0.0361
G1 X-9.5179 Y19.5742
G2 X-9.4915 Y19.5841 I0.0152 J-0.0005
X-9.4794 Y19.5621 I-0.0377 J-0.0351
X-9.5003 Y19.4596 I-0.1142 J-0.0301
X-9.513 Y19.4456 I-0.0933 J0.0724 F50.
G3 X-9.5179 Y19.435 I0.0104 J-0.0111
G1 Y19.4037 F60.
X-9.5144 Y19.3953
X-9.5105 Y19.3872
X-9.5059 Y19.3794
X-9.5008 Y19.372
X-9.4953 Y19.3649
X-9.4892 Y19.3582
X-9.4827 Y19.3519
X-9.4758 Y19.3462
X-9.4685 Y19.3409
X-9.4608 Y19.3361
X-9.4528 Y19.3319
X-9.4446 Y19.3282
X-9.4361 Y19.3252
X-9.4274 Y19.3227
X-9.4186 Y19.3208
X-9.4097 Y19.3196
X-9.4007 Y19.3189
X-9.3916
X-9.3826 Y19.3195
X-9.3737 Y19.3208
X-9.3649 Y19.3227
X-9.3562 Y19.3251
X-9.3477 Y19.3282
X-9.3395 Y19.3318
X-9.3315 Y19.3361
X-9.3238 Y19.3408
X-9.3165 Y19.3461
X-9.3096 Y19.3519
X-9.3102 Y19.4913
G3 X-9.3259 Y19.506 I-0.0152 J-0.0005
X-9.3442 Y19.4931 I0.0007 J-0.0204
X-9.3278 Y19.3771 I0.1098 J-0.0436
X-9.315 Y19.3631 I0.0933 J0.0724 F50.
G2 X-9.3102 Y19.3525 I-0.0104 J-0.0111
G1 Y19.3278 F60.
G2 X-9.518 Y19.2699 I-0.1216 J0.0346
G1 X-9.5179 Y19.4037
G2 X-9.4915 Y19.4135 I0.0152 J-0.0005
X-9.4762 Y19.3803 I-0.0426 J-0.0398
X-9.5003 Y19.2947 I-0.1174 J-0.0132
X-9.513 Y19.2807 I-0.0933 J0.0724 F50.
G3 X-9.5179 Y19.2701 I0.0104 J-0.0111
G1 Y19.2402 F60.
G3 X-9.3097 Y19.1877 I0.1216 J0.0431
G1 X-9.3102 Y19.3278
G3 X-9.3365 Y19.3377 I-0.0152 J-0.0005
X-9.3484 Y19.3165 I0.0371 J-0.0346
X-9.3278 Y19.2128 I0.1139 J-0.0312
X-9.315 Y19.1989 I0.0933 J0.0724 F50.
G2 X-9.3102 Y19.1882 I-0.0104 J-0.0111
X-9.3284 Y19.1412 I-0.0177 J-0.0202 F60.
G1 X-9.4996
X-9.5004
X-9.5117 Y19.1435
X-9.5137 Y19.1448
X-9.5143 Y19.1455
X-9.5155 Y19.1473
X-9.5178 Y19.1589
X-9.5179 Y19.2402
G2 X-9.5177 Y19.2418 I0.0152 J-0.0005
G1 X-9.5169 Y19.244 Z-0.1448
X-9.516 Y19.2462 Z-0.1443
X-9.5152 Y19.2482 Z-0.1434
X-9.5137 Y19.2496 Z-0.142
X-9.5123 Y19.2509 Z-0.1404
X-9.5111 Y19.252 Z-0.1385
X-9.5102 Y19.2528 Z-0.1363
X-9.5095 Y19.2532 Z-0.1342
X-9.5091 Y19.2534 Z-0.132
X-9.5089 Y19.2535 Z-0.1298
G0 Z0.4
X-8.7078 Y18.6991
Z0.1
G3 X-8.8433 Y18.7497 Z0.0599 I-0.0678 J0.0253 F50.
X-8.7078 Y18.6991 Z0.0199 I0.0678 J-0.0253
X-8.8433 Y18.7497 Z-0.0202 I-0.0678 J0.0253
X-8.7078 Y18.6991 Z-0.0603 I0.0678 J-0.0253
X-8.8433 Y18.7497 Z-0.1004 I-0.0678 J0.0253
X-8.7078 Y18.6991 Z-0.1404 I0.0678 J-0.0253
X-8.7032 Y18.7244 Z-0.145 I-0.0678 J0.0253
X-8.8479 I-0.0723 J0.
X-8.7034 Y18.7187 I0.0723 J0.
G1 X-8.7032 Y18.7244
G3 X-8.6911 Y18.7551 I-0.0553 J0.0394 F60.
X-8.6973 Y18.8065 I-0.026 J0.023
G1 X-8.709 Y18.8088
X-8.8442
G3 X-8.8875 Y18.7833 I-0.0074 J-0.0369
X-8.8711 Y18.7741 I0.0141 J0.0058
G1 X-8.8606 Y18.7757
X-8.8424 Y18.7786
G3 X-8.8314 Y18.7864 I-0.0024 J0.015
X-8.8442 Y18.8088 I-0.0134 J0.0072 F50.
X-8.8914 Y18.8005 I-0.021 J-0.0187 F60.
X-8.8315 Y18.6331 I0.4385 J0.0623
X-8.6897 Y18.6021 I0.0833 J0.0415
G1 X-8.6911 Y18.7551
G3 X-8.6992 Y18.768 I-0.0152 J-0.0005
X-8.7608 Y18.7363 I-0.0198 J-0.0372
X-8.712 Y18.6247 I0.1171 J-0.0153
X-8.6992 Y18.6168 I0.0683 J0.0964 F50.
G2 X-8.6911 Y18.6039 I-0.0072 J-0.0134
G1 Y18.5804 F60.
G2 X-8.7892 Y18.5151 I-0.0778 J0.0105
G1 X-8.8315 Y18.6331
G2 X-8.8285 Y18.648 I0.0144 J0.0048
X-8.8031 Y18.6518 I0.0149 J-0.0132
X-8.7767 Y18.5447 I-0.0413 J-0.067
X-8.7855 Y18.5326 I-0.0678 J0.0401 F50.
G3 X-8.7885 Y18.5176 I0.0114 J-0.0101
G1 X-8.7819 Y18.4998 F60.
G3 X-8.6895 Y18.473 I0.0581 J0.0276
G1 X-8.6911 Y18.5804
G3 X-8.6992 Y18.5933 I-0.0152 J-0.0005
X-8.7391 Y18.5749 I-0.013 J-0.0243
X-8.7117 Y18.4968 I0.0769 J-0.017
X-8.6992 Y18.4885 I0.0495 J0.0612 F50.
G2 X-8.6911 Y18.4756 I-0.0072 J-0.0134
G1 Y18.4574 F60.
G2 X-8.7506 Y18.4116 I-0.0503 J0.0038
G1 X-8.7819 Y18.4998
G2 X-8.758 Y18.5166 I0.0144 J0.0048
G1 X-8.7109 Y18.4798
X-8.697 Y18.4689 F50.
G2 X-8.6911 Y18.4574 I-0.0094 J-0.012
G1 Y18.4064 F60.
G2 X-8.7318 Y18.3656 I-0.032 J-0.0088
G1 X-8.7501 Y18.4146
G2 X-8.747 Y18.4295 I0.0144 J0.0048
X-8.7251 Y18.4278 I0.0103 J-0.0091
X-8.7212 Y18.3934 I-0.0332 J-0.0211
X-8.7288 Y18.3805 I-0.0371 J0.0133 F50.
G3 X-8.7318 Y18.3656 I0.0114 J-0.0101
G1 X-8.727 Y18.3526 F60.
X-8.7246 Y18.3471
X-8.7205 Y18.3428
X-8.7155 Y18.3394
X-8.7101 Y18.3368
X-8.7041 Y18.3351
X-8.702 Y18.3348
X-8.698 Y18.335
X-8.6944 Y18.337
X-8.692 Y18.3402
X-8.6911 Y18.3442
G3 X-8.6998 Y18.3675 I-0.0393 J-0.0014
X-8.7109 Y18.3733 I-0.0123 J-0.0099
X-8.727 Y18.3526 I-0.0012 J-0.0157 F50.
G1 X-8.7161 Y18.3235 F60.
X-8.7137 Y18.318
X-8.7102 Y18.3132
X-8.7056 Y18.3092
X-8.7053 Y18.309
X-8.7005 Y18.3078
X-8.6958 Y18.3091
X-8.6924 Y18.3126
X-8.6911 Y18.3173
G3 X-8.6945 Y18.3319 I-0.0393 J-0.0014
X-8.697 Y18.3355 I-0.0106 J-0.0047
X-8.7161 Y18.3235 I-0.0081 J-0.0083 F50.
G1 X-8.7117 Y18.3115 F60.
X-8.7113 Y18.3108
X-8.7052 Y18.3009
X-8.7047 Y18.3005
X-8.703 Y18.2993
X-8.7025 Y18.2991
X-8.7003 Y18.2986
X-8.6998
X-8.6975 Y18.299
X-8.6966 Y18.2996
X-8.6952 Y18.3005
G3 X-8.6911 Y18.3152 I-0.0179 J0.0128
G1 Y18.4064
G3 X-8.7136 Y18.4193 I-0.0152 J-0.0005
G1 X-8.7162 Y18.4179 Z-0.1447
X-8.7187 Y18.4165 Z-0.1438
X-8.721 Y18.4153 Z-0.1424
X-8.7231 Y18.4142 Z-0.1405
X-8.7247 Y18.4133 Z-0.1382
X-8.726 Y18.4126 Z-0.1356
X-8.7267 Y18.4122 Z-0.1327
X-8.727 Y18.4121 Z-0.1298
G0 Z0.6
(SHAPE THROUGH FINISHING PASS)
M7
G0 X-9.852 Y18.1474
Z0.6
Z0.2
G1 Z0.1 F13.333
Z-0.095
G18 G3 X-9.902 Z-0.145 I-0.05 K0. F40.
G1 X-9.9172
G17 G3 X-9.8672 Y18.0974 I0.05 J0.
G1 X-8.9515 F50.
G3 X-8.9291 Y18.1296 I0. J0.0238
G1 X-9.191 Y18.832
G3 X-9.2021 Y18.8447 I-0.0223 J-0.0083
G2 X-9.2355 Y18.8679 I0.0831 J0.1553
G3 X-9.2513 Y18.8738 I-0.0158 J-0.0179
G1 X-10.0667
G3 X-10.0825 Y18.8679 I0. J-0.0239
G2 X-10.1267 Y18.8394 I-0.1165 J0.1321
G3 X-10.1386 Y18.8275 I0.0098 J-0.0217
G1 X-10.4538 Y18.1311
G3 X-10.432 Y18.0974 I0.0217 J-0.0098
G1 X-9.8672
G3 X-9.8172 Y18.1474 I0. J0.05
G1 X-9.8324
G18 G3 X-9.8824 Z-0.095 I0. K0.05
G0 Z0.4
X-9.4827 Y17.3598
Z0.2
G1 Z0.1 F13.333
Z-0.095
X-9.4829 Y17.3595 Z-0.1006 F40.
X-9.4835 Y17.3588 Z-0.1061
X-9.4845 Y17.3576 Z-0.1115
X-9.4859 Y17.356 Z-0.1167
X-9.4876 Y17.3539 Z-0.1216
X-9.4897 Y17.3514 Z-0.1262
X-9.4921 Y17.3486 Z-0.1304
X-9.4948 Y17.3454 Z-0.1341
X-9.4978 Y17.3419 Z-0.1373
X-9.5009 Y17.3381 Z-0.14
X-9.5043 Y17.3342 Z-0.1422
X-9.5077 Y17.3301 Z-0.1437
X-9.5113 Y17.3258 Z-0.1447
X-9.5149 Y17.3216 Z-0.145
X-9.5248 Y17.3099
G17 G3 X-9.4543 Y17.3159 I0.0323 J0.0382
G1 X-9.0403 Y17.8059 F50.
G3 X-9.0585 Y17.8451 I-0.0182 J0.0154
G1 X-10.3415
G3 X-10.3597 Y17.8059 I0. J-0.0238
G1 X-9.7182 Y17.0466
G3 X-9.6818 I0.0182 J0.0154
G1 X-9.4543 Y17.3159
G3 X-9.4602 Y17.3863 I-0.0382 J0.0323
G1 X-9.47 Y17.3747
X-9.4737 Y17.3704 Z-0.1447
X-9.4772 Y17.3662 Z-0.1437
X-9.4807 Y17.3621 Z-0.1422
X-9.484 Y17.3581 Z-0.14
X-9.4872 Y17.3544 Z-0.1373
X-9.4902 Y17.3509 Z-0.1341
X-9.4929 Y17.3477 Z-0.1304
X-9.4953 Y17.3448 Z-0.1262
X-9.4974 Y17.3423 Z-0.1216
X-9.4991 Y17.3403 Z-0.1167
X-9.5005 Y17.3386 Z-0.1115
X-9.5015 Y17.3375 Z-0.1061
X-9.5021 Y17.3367 Z-0.1006
X-9.5023 Y17.3365 Z-0.095
G0 Z0.4
X-8.7262 Y16.8448
Z0.2
G1 Z0.1 F13.333
Z-0.095
G19 G2 Y16.7948 Z-0.145 J-0.05 K0. F40.
G1 Y16.7795
G17 G3 X-8.6761 Y16.8295 I0. J0.05
G1 Y17.7335 F50.
G3 X-8.7035 Y17.7571 I-0.0238 J0.
G2 X-8.7413 Y17.7548 I-0.032 J0.2141
G1 X-8.7414
G3 X-8.7603 Y17.7464 I-0.0007 J-0.0238
G1 X-9.5219 Y16.8449
G3 Y16.8141 I0.0182 J-0.0154
G1 X-8.7603 Y15.9127
G3 X-8.7414 Y15.9042 I0.0182 J0.0154
G1 X-8.7413
G2 X-8.7035 Y15.9019 I0.0058 J-0.2164
G3 X-8.6761 Y15.9255 I0.0035 J0.0236
G1 Y16.8295
G3 X-8.7262 Y16.8795 I-0.05 J0.
G1 Y16.8643
G19 G2 Y16.8143 Z-0.095 J0. K0.05
G0 Z0.4
X-9.4428 Y16.2521
Z0.2
G1 Z0.1 F13.333
Z-0.095
X-9.4426 Y16.2519 Z-0.1006 F40.
X-9.442 Y16.2512 Z-0.1061
X-9.441 Y16.25 Z-0.1115
X-9.4396 Y16.2483 Z-0.1167
X-9.4379 Y16.2463 Z-0.1216
X-9.4358 Y16.2438 Z-0.1262
X-9.4334 Y16.2409 Z-0.1304
X-9.4307 Y16.2377 Z-0.1341
X-9.4277 Y16.2343 Z-0.1373
X-9.4246 Y16.2305 Z-0.14
X-9.4212 Y16.2266 Z-0.1422
X-9.4177 Y16.2224 Z-0.1437
X-9.4142 Y16.2182 Z-0.1447
X-9.4106 Y16.2139 Z-0.145
X-9.4007 Y16.2023
G17 G3 X-9.3948 Y16.2728 I-0.0323 J0.0382
G1 X-9.6818 Y16.6125 F50.
G3 X-9.7182 I-0.0182 J-0.0154
G1 X-10.447 Y15.7498
G3 X-10.4522 Y15.7298 I0.0182 J-0.0154
G2 X-10.5294 Y15.5186 I-0.2124 J-0.042
G3 X-10.5384 Y15.5 I0.0149 J-0.0186
G1 Y15.45
G3 X-10.5146 Y15.4262 I0.0238 J0.
G1 X-9.9534
G3 X-9.9305 Y15.4432 I0. J0.0239
G2 X-9.4695 I0.2305 J-0.0682
G3 X-9.4466 Y15.4262 I0.0229 J0.0068
G1 X-8.8854
G3 X-8.8616 Y15.45 I0. J0.0238
G1 Y15.5
G3 X-8.8705 Y15.5186 I-0.0238 J0.
G2 X-8.9478 Y15.7298 I0.1351 J0.1692
G3 X-8.953 Y15.7498 I-0.0234 J0.0046
G1 X-9.3948 Y16.2728
G3 X-9.4653 Y16.2787 I-0.0382 J-0.0323
G1 X-9.4554 Y16.2671
X-9.4518 Y16.2628 Z-0.1447
X-9.4483 Y16.2586 Z-0.1437
X-9.4448 Y16.2544 Z-0.1422
X-9.4414 Y16.2505 Z-0.14
X-9.4383 Y16.2467 Z-0.1373
X-9.4353 Y16.2432 Z-0.1341
X-9.4326 Y16.24 Z-0.1304
X-9.4302 Y16.2372 Z-0.1262
X-9.4281 Y16.2347 Z-0.1216
X-9.4264 Y16.2326 Z-0.1167
X-9.425 Y16.231 Z-0.1115
X-9.424 Y16.2298 Z-0.1061
X-9.4234 Y16.2291 Z-0.1006
X-9.4232 Y16.2289 Z-0.095
G0 Z0.4
X-10.1159 Y17.0489
Z0.2
G1 Z0.1 F13.333
Z-0.095
X-10.1157 Y17.0486 Z-0.1006 F40.
X-10.1151 Y17.0479 Z-0.1061
X-10.1141 Y17.0467 Z-0.1115
X-10.1127 Y17.0451 Z-0.1167
X-10.111 Y17.043 Z-0.1216
X-10.1089 Y17.0406 Z-0.1262
X-10.1065 Y17.0377 Z-0.1304
X-10.1038 Y17.0345 Z-0.1341
X-10.1008 Y17.031 Z-0.1373
X-10.0976 Y17.0273 Z-0.14
X-10.0943 Y17.0233 Z-0.1422
X-10.0908 Y17.0192 Z-0.1437
X-10.0873 Y17.015 Z-0.1447
X-10.0836 Y17.0107 Z-0.145
X-10.0738 Y16.9991
G3 X-10.0679 Y17.0695 I-0.0323 J0.0382
G1 X-10.6397 Y17.7464 F50.
G3 X-10.6586 Y17.7548 I-0.0182 J-0.0154
G1 X-10.6587
G2 X-10.6965 Y17.7571 I-0.0058 J0.2164
G3 X-10.7239 Y17.7335 I-0.0035 J-0.0236
G1 Y15.9255
G3 X-10.6965 Y15.9019 I0.0238 J0.
G2 X-10.6587 Y15.9042 I0.032 J-0.2141
G1 X-10.6586
G3 X-10.6397 Y15.9127 I0.0007 J0.0238
G1 X-9.8781 Y16.8141
G3 Y16.8449 I-0.0182 J0.0154
G1 X-10.0679 Y17.0695
G3 X-10.1384 Y17.0755 I-0.0382 J-0.0323
G1 X-10.1285 Y17.0638
X-10.1249 Y17.0595 Z-0.1447
X-10.1213 Y17.0553 Z-0.1437
X-10.1179 Y17.0512 Z-0.1422
X-10.1145 Y17.0472 Z-0.14
X-10.1114 Y17.0435 Z-0.1373
X-10.1084 Y17.04 Z-0.1341
X-10.1057 Y17.0368 Z-0.1304
X-10.1033 Y17.034 Z-0.1262
X-10.1012 Y17.0315 Z-0.1216
X-10.0995 Y17.0294 Z-0.1167
X-10.0981 Y17.0278 Z-0.1115
X-10.0971 Y17.0266 Z-0.1061
X-10.0965 Y17.0259 Z-0.1006
X-10.0963 Y17.0256 Z-0.095
G0 Z0.4
X-10.5333 Y18.6885
Z0.2
G1 Z0.1 F13.333
Z-0.095
X-10.5335 Y18.6882 Z-0.1006 F40.
X-10.5338 Y18.6874 Z-0.1061
X-10.5345 Y18.686 Z-0.1115
X-10.5354 Y18.684 Z-0.1167
X-10.5365 Y18.6815 Z-0.1216
X-10.5378 Y18.6786 Z-0.1262
X-10.5394 Y18.6752 Z-0.1304
X-10.5411 Y18.6714 Z-0.1341
X-10.543 Y18.6672 Z-0.1373
X-10.545 Y18.6627 Z-0.14
X-10.5471 Y18.658 Z-0.1422
X-10.5494 Y18.6531 Z-0.1437
X-10.5516 Y18.6481 Z-0.1447
X-10.5539 Y18.643 Z-0.145
X-10.5602 Y18.6291
G3 X-10.4941 Y18.654 I0.0206 J0.0456
G1 X-10.4324 Y18.7902 F50.
G3 X-10.4542 Y18.8239 I-0.0217 J0.0098
G1 X-10.7
G3 X-10.7239 Y18.8 I0. J-0.0239
G1 Y18.2568
G3 X-10.6783 Y18.2469 I0.0238 J0.
G1 X-10.4941 Y18.654
G3 X-10.519 Y18.7202 I-0.0456 J0.0206
G1 X-10.5253 Y18.7063
X-10.5276 Y18.7012 Z-0.1447
X-10.5299 Y18.6962 Z-0.1437
X-10.5321 Y18.6913 Z-0.1422
X-10.5342 Y18.6866 Z-0.14
X-10.5362 Y18.6821 Z-0.1373
X-10.5381 Y18.6779 Z-0.1341
X-10.5399 Y18.6741 Z-0.1304
X-10.5414 Y18.6707 Z-0.1262
X-10.5427 Y18.6678 Z-0.1216
X-10.5438 Y18.6653 Z-0.1167
X-10.5447 Y18.6633 Z-0.1115
X-10.5454 Y18.6619 Z-0.1061
X-10.5458 Y18.6611 Z-0.1006
X-10.5459 Y18.6608 Z-0.095
G0 Z0.4
X-9.8352 Y19.2602
Z0.2
G1 Z0.1 F13.333
Z-0.095
G19 G2 Y19.2102 Z-0.145 J-0.05 K0. F40.
G1 Y19.195
G17 G3 X-9.7852 Y19.245 I0. J0.05
G1 Y20.4 F50.
G3 X-9.809 Y20.4239 I-0.0238 J0.
G1 X-9.999
G3 X-10.0229 Y20.4 I0. J-0.0239
G1 Y19.15
G3 X-9.999 Y19.1261 I0.0238 J0.
G1 X-9.809
G3 X-9.7852 Y19.15 I0. J0.0239
G1 Y19.245
G3 X-9.8352 Y19.295 I-0.05 J0.
G1 Y19.2798
G19 G2 Y19.2298 Z-0.095 J0. K0.05
G0 Z0.4
X-9.3452 Y20.3202
Z0.2
G1 Z0.1 F13.333
Z-0.095
G2 Y20.2702 Z-0.145 J-0.05 K0. F40.
G1 Y20.255
G17 G3 X-9.2952 Y20.305 I0. J0.05
G1 Y20.4 F50.
G3 X-9.319 Y20.4239 I-0.0238 J0.
G1 X-9.509
G3 X-9.5329 Y20.4 I0. J-0.0239
G1 Y19.15
G3 X-9.509 Y19.1261 I0.0238 J0.
G1 X-9.319
G3 X-9.2952 Y19.15 I0. J0.0239
G1 Y20.305
G3 X-9.3452 Y20.355 I-0.05 J0.
G1 Y20.3398
G19 G2 Y20.2898 Z-0.095 J0. K0.05
G0 Z0.4
Y21.8202
Z0.2
G1 Z0.1 F13.333
Z-0.095
G2 Y21.7702 Z-0.145 J-0.05 K0. F40.
G1 Y21.755
G17 G3 X-9.2952 Y21.805 I0. J0.05
G1 Y21.9 F50.
G3 X-9.319 Y21.9238 I-0.0238 J0.
G1 X-9.509
G3 X-9.5329 Y21.9 I0. J-0.0238
G1 Y20.7
G3 X-9.509 Y20.6761 I0.0238 J0.
G1 X-9.319
G3 X-9.2952 Y20.7 I0. J0.0239
G1 Y21.805
G3 X-9.3452 Y21.855 I-0.05 J0.
G1 Y21.8398
G19 G2 Y21.7898 Z-0.095 J0. K0.05
G0 Z0.4
X-9.8352 Y21.8202
Z0.2
G1 Z0.1 F13.333
Z-0.095
G2 Y21.7702 Z-0.145 J-0.05 K0. F40.
G1 Y21.755
G17 G3 X-9.7852 Y21.805 I0. J0.05
G1 Y21.9 F50.
G3 X-9.809 Y21.9238 I-0.0238 J0.
G1 X-9.999
G3 X-10.0229 Y21.9 I0. J-0.0238
G1 Y20.7
G3 X-9.999 Y20.6761 I0.0238 J0.
G1 X-9.809
G3 X-9.7852 Y20.7 I0. J0.0239
G1 Y21.805
G3 X-9.8352 Y21.855 I-0.05 J0.
G1 Y21.8398
G19 G2 Y21.7898 Z-0.095 J0. K0.05
G0 Z0.4
X-8.7262 Y18.7397
Z0.2
G1 Z0.1 F13.333
Z-0.095
G2 Y18.6897 Z-0.145 J-0.05 K0. F40.
G1 Y18.6745
G17 G3 X-8.6761 Y18.7245 I0. J0.05
G1 Y18.8 F50.
G3 X-8.7 Y18.8239 I-0.0238 J0.
G1 X-8.8843
G3 X-8.9067 Y18.7917 I0. J-0.0238
G1 X-8.7223 Y18.2973
G3 X-8.6761 Y18.3056 I0.0223 J0.0083
G1 Y18.7245
G3 X-8.7262 Y18.7745 I-0.05 J0.
G1 Y18.7592
G19 G2 Y18.7092 Z-0.095 J0. K0.05
G0 Z0.6
G17
(2D SLOT CUT)
M7
G0 X-11.0261 Y17.2855
Z0.6
Z0.2
G1 Z0.1 F13.333
Y18.675 Z-0.145 F40.
Y18.85 F55.
G2 X-10.8 Y19.0762 I0.2261 J0.
G1 X-10.349
G3 X-10.2752 Y19.15 I0. J0.0739
G1 Y20.5803
Z-0.045
Y21.3326
Z-0.145 F13.333
Y21.95 F55.
G2 X-10.049 Y22.1762 I0.2261 J0.
G1 X-9.269
G2 X-9.0429 Y21.95 I0. J-0.2261
G1 Y20.8767
Z-0.045
Y20.1244
Z-0.145 F13.333
Y19.15 F55.
G3 X-8.969 Y19.0762 I0.0739 J0.
G1 X-8.6
G2 X-8.3738 Y18.85 I0. J-0.2261
G1 Y16.9347
Z-0.045
Y16.1824
Z-0.145 F13.333
Y15.4 F55.
G2 X-8.6 Y15.1739 I-0.2262 J0.
G1 X-10.8
G2 X-11.0261 Y15.4 I0. J0.2261
G1 Y16.6164
Z-0.045
Y17.3687
Z-0.145 F13.333
Y18.675 F55.
G0 Z0.6
M9
G53 Z0.
M30
%
