%
(971-22-P-)
(T1  D=0.1537 CR=0. - ZMIN=-0.27 - FLAT END MILL)
G90 G94 G17 G91.1
G64 P0.001 Q0.001
G20
G53 G0 Z0.
(.3 CIRCLUAR THROUGH HOLE)
M9
T1 M6
S22000 M3
G4 P10.
G54
M7
G0 X3.631 Y-50.0292
G43 Z0.6 H1
G0 Z0.13
G1 Z0.0654 F40.
G19 G3 Y-50.0138 Z0.05 J0.0154 K0.
G1 Y-50.0061
G17 G3 X3.6191 Y-49.9943 I-0.0118 J0.
Y-50.0416 Z0. I0. J-0.0236
X3.6374 Y-50.033 Z-0.014 I0. J0.0237
X3.6009 Y-50.0029 Z-0.064 I-0.0182 J0.0151
X3.6374 Y-50.033 Z-0.114 I0.0182 J-0.0151
X3.6305 Y-49.9972 Z-0.142 I-0.0182 J0.0151
X3.6077 Y-50.0387 Z-0.192 I-0.0114 J-0.0207
X3.6278 Y-50.04 Z-0.206 I0.0114 J0.0207
X3.6104 Y-49.996 Z-0.256 I-0.0087 J0.022
X3.5966 Y-50.0107 Z-0.27 I0.0087 J-0.022
X3.6416 Y-50.0253 I0.0225 J-0.0073
X3.5966 Y-50.0107 I-0.0225 J0.0073
X3.6042 Y-50.0256 I0.0112 J-0.0037
G1 X3.6115 Y-50.0279
X3.6144 Y-50.0289 Z-0.2697
X3.6171 Y-50.0298 Z-0.2688
X3.6197 Y-50.0306 Z-0.2674
X3.6219 Y-50.0313 Z-0.2655
X3.6237 Y-50.0319 Z-0.2632
X3.625 Y-50.0323 Z-0.2605
X3.6259 Y-50.0326 Z-0.2576
X3.6262 Y-50.0327 Z-0.2546
G0 Z0.4
X3.6367 Y-50.6938
Z0.13
G1 Z0.0654 F40.
G19 G2 Y-50.7092 Z0.05 J-0.0154 K0.
G1 Y-50.7169
G17 G3 X3.6451 Y-50.7253 I0.0085 J0.
Y-50.6915 Z0. I0. J0.0169
X3.6321 Y-50.6977 Z-0.014 I0. J-0.0169
X3.6582 Y-50.7192 Z-0.064 I0.013 J-0.0108
X3.6618 Y-50.7053 Z-0.078 I-0.013 J0.0108
X3.6285 Y-50.7116 Z-0.128 I-0.0166 J-0.0032
X3.637 Y-50.7232 Z-0.142 I0.0166 J0.0032
X3.6533 Y-50.6936 Z-0.192 I0.0081 J0.0148
X3.6389 Y-50.6927 Z-0.206 I-0.0081 J-0.0148
X3.6514 Y-50.7241 Z-0.256 I0.0062 J-0.0157
X3.6612 Y-50.7136 Z-0.27 I-0.0062 J0.0157
X3.6291 Y-50.7032 I-0.0161 J0.0052
X3.6612 Y-50.7136 I0.0161 J-0.0052
X3.6558 Y-50.703 I-0.008 J0.0026
G1 X3.6485 Y-50.7006
X3.6456 Y-50.6997 Z-0.2697
X3.6429 Y-50.6988 Z-0.2688
X3.6404 Y-50.698 Z-0.2674
X3.6382 Y-50.6973 Z-0.2655
X3.6363 Y-50.6967 Z-0.2632
X3.635 Y-50.6962 Z-0.2605
X3.6342 Y-50.696 Z-0.2576
X3.6339 Y-50.6959 Z-0.2546
G0 Z0.4
X3.7725 Y-51.3659
Z0.13
G1 Z0.0654 F40.
G19 G2 Y-51.3812 Z0.05 J-0.0154 K0.
G1 Y-51.3889
G17 G3 X3.7809 Y-51.3974 I0.0085 J0.
Y-51.3636 Z0. I0. J0.0169
X3.7679 Y-51.3697 Z-0.014 I0. J-0.0169
X3.7939 Y-51.3912 Z-0.064 I0.013 J-0.0108
X3.7975 Y-51.3773 Z-0.078 I-0.013 J0.0108
X3.7643 Y-51.3836 Z-0.128 I-0.0166 J-0.0032
X3.7728 Y-51.3953 Z-0.142 I0.0166 J0.0032
X3.789 Y-51.3657 Z-0.192 I0.0081 J0.0148
X3.7747 Y-51.3648 Z-0.206 I-0.0081 J-0.0148
X3.7871 Y-51.3962 Z-0.256 I0.0062 J-0.0157
X3.797 Y-51.3857 Z-0.27 I-0.0062 J0.0157
X3.7648 Y-51.3753 I-0.0161 J0.0052
X3.797 Y-51.3857 I0.0161 J-0.0052
X3.7916 Y-51.375 I-0.008 J0.0026
G1 X3.7842 Y-51.3727
X3.7814 Y-51.3717 Z-0.2697
X3.7786 Y-51.3709 Z-0.2688
X3.7761 Y-51.37 Z-0.2674
X3.7739 Y-51.3693 Z-0.2655
X3.7721 Y-51.3687 Z-0.2632
X3.7707 Y-51.3683 Z-0.2605
X3.7699 Y-51.368 Z-0.2576
X3.7696 Y-51.3679 Z-0.2546
G0 Z0.4
X3.5206 Y-52.2474
Z0.13
G1 Z0.0654 F40.
G19 G2 Y-52.2628 Z0.05 J-0.0154 K0.
G1 Y-52.2705
G17 G3 X3.5325 Y-52.2823 I0.0118 J0.
Y-52.235 Z0. I0. J0.0236
X3.5142 Y-52.2436 Z-0.014 I0. J-0.0237
X3.5507 Y-52.2737 Z-0.064 I0.0182 J-0.0151
X3.5142 Y-52.2436 Z-0.114 I-0.0182 J0.0151
X3.5211 Y-52.2794 Z-0.142 I0.0182 J-0.0151
X3.5439 Y-52.2379 Z-0.192 I0.0114 J0.0207
X3.5238 Y-52.2367 Z-0.206 I-0.0114 J-0.0207
X3.5412 Y-52.2807 Z-0.256 I0.0087 J-0.022
X3.555 Y-52.266 Z-0.27 I-0.0087 J0.022
X3.51 Y-52.2514 I-0.0225 J0.0073
X3.555 Y-52.266 I0.0225 J-0.0073
X3.5474 Y-52.2511 I-0.0112 J0.0037
G1 X3.5401 Y-52.2487
X3.5372 Y-52.2478 Z-0.2697
X3.5345 Y-52.2469 Z-0.2688
X3.5319 Y-52.2461 Z-0.2674
X3.5297 Y-52.2453 Z-0.2655
X3.5279 Y-52.2447 Z-0.2632
X3.5265 Y-52.2443 Z-0.2605
X3.5257 Y-52.244 Z-0.2576
X3.5254 Y-52.2439 Z-0.2546
G0 Z0.4
X2.7485 Y-53.7546
Z0.13
G1 Z0.0654 F40.
G19 G3 Y-53.7393 Z0.05 J0.0154 K0.
G1 Y-53.7316
G17 G3 X2.74 Y-53.7231 I-0.0085 J0.
Y-53.7569 Z0. I0. J-0.0169
X2.7531 Y-53.7508 Z-0.014 I0. J0.0169
X2.727 Y-53.7293 Z-0.064 I-0.013 J0.0108
X2.7234 Y-53.7432 Z-0.078 I0.013 J-0.0108
X2.7566 Y-53.7369 Z-0.128 I0.0166 J0.0032
X2.7482 Y-53.7252 Z-0.142 I-0.0166 J-0.0032
X2.7319 Y-53.7548 Z-0.192 I-0.0081 J-0.0148
X2.7463 Y-53.7558 Z-0.206 I0.0081 J0.0148
X2.7338 Y-53.7243 Z-0.256 I-0.0062 J0.0157
X2.724 Y-53.7348 Z-0.27 I0.0062 J-0.0157
X2.7561 Y-53.7453 I0.0161 J-0.0052
X2.724 Y-53.7348 I-0.0161 J0.0052
X2.7294 Y-53.7455 I0.008 J-0.0026
G1 X2.7367 Y-53.7478
X2.7396 Y-53.7488 Z-0.2697
X2.7423 Y-53.7497 Z-0.2688
X2.7448 Y-53.7505 Z-0.2674
X2.747 Y-53.7512 Z-0.2655
X2.7489 Y-53.7518 Z-0.2632
X2.7502 Y-53.7522 Z-0.2605
X2.751 Y-53.7525 Z-0.2576
X2.7513 Y-53.7526 Z-0.2546
G0 Z0.4
X1.4846 Y-54.4599
Z0.13
G1 Z0.0654 F40.
G19 G3 Y-54.4446 Z0.05 J0.0154 K0.
G1 Y-54.4369
G17 G3 X1.4727 Y-54.4251 I-0.0118 J0.
Y-54.4724 Z0. I0. J-0.0236
X1.4909 Y-54.4638 Z-0.014 I0. J0.0236
X1.4545 Y-54.4336 Z-0.064 I-0.0182 J0.0151
X1.4495 Y-54.4531 Z-0.078 I0.0182 J-0.0151
X1.496 Y-54.4443 Z-0.128 I0.0232 J0.0044
X1.4841 Y-54.428 Z-0.142 I-0.0232 J-0.0044
X1.4613 Y-54.4694 Z-0.192 I-0.0114 J-0.0207
X1.4814 Y-54.4707 Z-0.206 I0.0114 J0.0207
X1.464 Y-54.4267 Z-0.256 I-0.0087 J0.022
X1.4502 Y-54.4414 Z-0.27 I0.0087 J-0.022
X1.4952 Y-54.456 I0.0225 J-0.0073
X1.4502 Y-54.4414 I-0.0225 J0.0073
X1.4578 Y-54.4563 I0.0112 J-0.0037
G1 X1.4651 Y-54.4587
X1.468 Y-54.4596 Z-0.2697
X1.4707 Y-54.4605 Z-0.2688
X1.4733 Y-54.4613 Z-0.2674
X1.4755 Y-54.462 Z-0.2655
X1.4773 Y-54.4626 Z-0.2632
X1.4786 Y-54.4631 Z-0.2605
X1.4795 Y-54.4633 Z-0.2576
X1.4798 Y-54.4634 Z-0.2546
G0 Z0.4
X-0.0084 Y-54.8604
Z0.13
G1 Z0.0654 F40.
G19 G2 Y-54.8758 Z0.05 J-0.0154 K0.
G1 Y-54.8835
G17 G3 X0. Y-54.8919 I0.0084 J0.
Y-54.8581 Z0. I0. J0.0169
X-0.013 Y-54.8642 Z-0.014 I0. J-0.0169
X0.013 Y-54.8858 Z-0.064 I0.013 J-0.0108
X0.0166 Y-54.8718 Z-0.078 I-0.013 J0.0108
X-0.0166 Y-54.8782 Z-0.128 I-0.0166 J-0.0032
X-0.0081 Y-54.8898 Z-0.142 I0.0166 J0.0032
X0.0081 Y-54.8602 Z-0.192 I0.0081 J0.0148
X-0.0062 Y-54.8593 Z-0.206 I-0.0081 J-0.0148
X0.0062 Y-54.8907 Z-0.256 I0.0062 J-0.0157
X0.0161 Y-54.8802 Z-0.27 I-0.0062 J0.0157
X-0.0161 Y-54.8698 I-0.0161 J0.0052
X0.0161 Y-54.8802 I0.0161 J-0.0052
X0.0106 Y-54.8696 I-0.008 J0.0026
G1 X0.0033 Y-54.8672
X0.0005 Y-54.8663 Z-0.2697
X-0.0023 Y-54.8654 Z-0.2688
X-0.0048 Y-54.8646 Z-0.2674
X-0.007 Y-54.8638 Z-0.2655
X-0.0088 Y-54.8632 Z-0.2632
X-0.0102 Y-54.8628 Z-0.2605
X-0.011 Y-54.8625 Z-0.2576
X-0.0113 Y-54.8624 Z-0.2546
G0 Z0.4
X-1.4609 Y-54.4599
Z0.13
G1 Z0.0654 F40.
G19 G3 Y-54.4446 Z0.05 J0.0154 K0.
G1 Y-54.4369
G17 G3 X-1.4727 Y-54.4251 I-0.0118 J0.
Y-54.4724 Z0. I0. J-0.0236
X-1.4545 Y-54.4638 Z-0.014 I0. J0.0236
X-1.491 Y-54.4336 Z-0.064 I-0.0182 J0.0151
X-1.496 Y-54.4531 Z-0.078 I0.0182 J-0.0151
X-1.4495 Y-54.4443 Z-0.128 I0.0232 J0.0044
X-1.4613 Y-54.428 Z-0.142 I-0.0232 J-0.0044
X-1.4841 Y-54.4694 Z-0.192 I-0.0114 J-0.0207
X-1.464 Y-54.4707 Z-0.206 I0.0114 J0.0207
X-1.4814 Y-54.4267 Z-0.256 I-0.0087 J0.022
X-1.4952 Y-54.4414 Z-0.27 I0.0087 J-0.022
X-1.4502 Y-54.456 I0.0225 J-0.0073
X-1.4952 Y-54.4414 I-0.0225 J0.0073
X-1.4876 Y-54.4563 I0.0112 J-0.0037
G1 X-1.4803 Y-54.4587
X-1.4775 Y-54.4596 Z-0.2697
X-1.4747 Y-54.4605 Z-0.2688
X-1.4722 Y-54.4613 Z-0.2674
X-1.47 Y-54.462 Z-0.2655
X-1.4682 Y-54.4626 Z-0.2632
X-1.4668 Y-54.4631 Z-0.2605
X-1.466 Y-54.4633 Z-0.2576
X-1.4657 Y-54.4634 Z-0.2546
G0 Z0.4
X-2.7316 Y-53.7546
Z0.13
G1 Z0.0654 F40.
G19 G3 Y-53.7393 Z0.05 J0.0154 K0.
G1 Y-53.7316
G17 G3 X-2.74 Y-53.7231 I-0.0085 J0.
Y-53.7569 Z0. I0. J-0.0169
X-2.727 Y-53.7508 Z-0.014 I0. J0.0169
X-2.7531 Y-53.7293 Z-0.064 I-0.013 J0.0108
X-2.7566 Y-53.7432 Z-0.078 I0.013 J-0.0108
X-2.7234 Y-53.7369 Z-0.128 I0.0166 J0.0032
X-2.7319 Y-53.7252 Z-0.142 I-0.0166 J-0.0032
X-2.7482 Y-53.7548 Z-0.192 I-0.0081 J-0.0148
X-2.7338 Y-53.7558 Z-0.206 I0.0081 J0.0148
X-2.7463 Y-53.7243 Z-0.256 I-0.0062 J0.0157
X-2.7561 Y-53.7348 Z-0.27 I0.0062 J-0.0157
X-2.724 Y-53.7453 I0.0161 J-0.0052
X-2.7561 Y-53.7348 I-0.0161 J0.0052
X-2.7507 Y-53.7455 I0.008 J-0.0026
G1 X-2.7434 Y-53.7478
X-2.7405 Y-53.7488 Z-0.2697
X-2.7378 Y-53.7497 Z-0.2688
X-2.7353 Y-53.7505 Z-0.2674
X-2.733 Y-53.7512 Z-0.2655
X-2.7312 Y-53.7518 Z-0.2632
X-2.7299 Y-53.7522 Z-0.2605
X-2.729 Y-53.7525 Z-0.2576
X-2.7288 Y-53.7526 Z-0.2546
G0 Z0.4
X-3.5443 Y-52.2474
Z0.13
G1 Z0.0654 F40.
G19 G2 Y-52.2628 Z0.05 J-0.0154 K0.
G1 Y-52.2705
G17 G3 X-3.5325 Y-52.2823 I0.0118 J0.
Y-52.235 Z0. I0. J0.0236
X-3.5507 Y-52.2436 Z-0.014 I0. J-0.0237
X-3.5142 Y-52.2737 Z-0.064 I0.0182 J-0.0151
X-3.5092 Y-52.2542 Z-0.078 I-0.0182 J0.0151
X-3.5557 Y-52.2631 Z-0.128 I-0.0232 J-0.0044
X-3.5439 Y-52.2794 Z-0.142 I0.0232 J0.0044
X-3.5211 Y-52.2379 Z-0.192 I0.0114 J0.0207
X-3.5412 Y-52.2367 Z-0.206 I-0.0114 J-0.0207
X-3.5238 Y-52.2806 Z-0.256 I0.0087 J-0.022
X-3.51 Y-52.266 Z-0.27 I-0.0087 J0.022
X-3.555 Y-52.2514 I-0.0225 J0.0073
X-3.51 Y-52.266 I0.0225 J-0.0073
X-3.5176 Y-52.2511 I-0.0112 J0.0037
G1 X-3.5249 Y-52.2487
X-3.5277 Y-52.2478 Z-0.2697
X-3.5305 Y-52.2469 Z-0.2688
X-3.533 Y-52.2461 Z-0.2674
X-3.5352 Y-52.2453 Z-0.2655
X-3.537 Y-52.2447 Z-0.2632
X-3.5384 Y-52.2443 Z-0.2605
X-3.5392 Y-52.244 Z-0.2576
X-3.5395 Y-52.2439 Z-0.2546
G0 Z0.4
X-3.7894 Y-51.3659
Z0.13
G1 Z0.0654 F40.
G19 G2 Y-51.3812 Z0.05 J-0.0154 K0.
G1 Y-51.3889
G17 G3 X-3.7809 Y-51.3974 I0.0085 J0.
Y-51.3636 Z0. I0. J0.0169
X-3.7939 Y-51.3697 Z-0.014 I0. J-0.0169
X-3.7679 Y-51.3912 Z-0.064 I0.013 J-0.0108
X-3.7643 Y-51.3773 Z-0.078 I-0.013 J0.0108
X-3.7975 Y-51.3836 Z-0.128 I-0.0166 J-0.0032
X-3.789 Y-51.3953 Z-0.142 I0.0166 J0.0032
X-3.7728 Y-51.3657 Z-0.192 I0.0081 J0.0148
X-3.7871 Y-51.3648 Z-0.206 I-0.0081 J-0.0148
X-3.7747 Y-51.3962 Z-0.256 I0.0062 J-0.0157
X-3.7648 Y-51.3857 Z-0.27 I-0.0062 J0.0157
X-3.797 Y-51.3753 I-0.0161 J0.0052
X-3.7648 Y-51.3857 I0.0161 J-0.0052
X-3.7703 Y-51.375 I-0.008 J0.0026
G1 X-3.7776 Y-51.3727
X-3.7804 Y-51.3717 Z-0.2697
X-3.7832 Y-51.3709 Z-0.2688
X-3.7857 Y-51.37 Z-0.2674
X-3.7879 Y-51.3693 Z-0.2655
X-3.7897 Y-51.3687 Z-0.2632
X-3.7911 Y-51.3683 Z-0.2605
X-3.7919 Y-51.368 Z-0.2576
X-3.7922 Y-51.3679 Z-0.2546
G0 Z0.4
X-3.6536 Y-50.6938
Z0.13
G1 Z0.0654 F40.
G19 G2 Y-50.7092 Z0.05 J-0.0154 K0.
G1 Y-50.7169
G17 G3 X-3.6451 Y-50.7253 I0.0085 J0.
Y-50.6915 Z0. I0. J0.0169
X-3.6582 Y-50.6977 Z-0.014 I0. J-0.0169
X-3.6321 Y-50.7192 Z-0.064 I0.013 J-0.0108
X-3.6285 Y-50.7053 Z-0.078 I-0.013 J0.0108
X-3.6618 Y-50.7116 Z-0.128 I-0.0166 J-0.0032
X-3.6533 Y-50.7232 Z-0.142 I0.0166 J0.0032
X-3.637 Y-50.6936 Z-0.192 I0.0081 J0.0148
X-3.6514 Y-50.6927 Z-0.206 I-0.0081 J-0.0148
X-3.6389 Y-50.7241 Z-0.256 I0.0062 J-0.0157
X-3.6291 Y-50.7136 Z-0.27 I-0.0062 J0.0157
X-3.6612 Y-50.7032 I-0.0161 J0.0052
X-3.6291 Y-50.7136 I0.0161 J-0.0052
X-3.6345 Y-50.703 I-0.008 J0.0026
G1 X-3.6418 Y-50.7006
X-3.6447 Y-50.6997 Z-0.2697
X-3.6474 Y-50.6988 Z-0.2688
X-3.6499 Y-50.698 Z-0.2674
X-3.6521 Y-50.6973 Z-0.2655
X-3.654 Y-50.6967 Z-0.2632
X-3.6553 Y-50.6962 Z-0.2605
X-3.6561 Y-50.696 Z-0.2576
X-3.6564 Y-50.6959 Z-0.2546
G0 Z0.4
X-3.6073 Y-50.0292
Z0.13
G1 Z0.0654 F40.
G19 G3 Y-50.0138 Z0.05 J0.0154 K0.
G1 Y-50.0061
G17 G3 X-3.6191 Y-49.9943 I-0.0118 J0.
Y-50.0416 Z0. I0. J-0.0236
X-3.6009 Y-50.033 Z-0.014 I0. J0.0237
X-3.6374 Y-50.0029 Z-0.064 I-0.0182 J0.0151
X-3.6424 Y-50.0224 Z-0.078 I0.0182 J-0.0151
X-3.5959 Y-50.0135 Z-0.128 I0.0232 J0.0044
X-3.6077 Y-49.9972 Z-0.142 I-0.0232 J-0.0044
X-3.6305 Y-50.0387 Z-0.192 I-0.0114 J-0.0207
X-3.6104 Y-50.04 Z-0.206 I0.0114 J0.0207
X-3.6278 Y-49.996 Z-0.256 I-0.0087 J0.022
X-3.6416 Y-50.0107 Z-0.27 I0.0087 J-0.022
X-3.5966 Y-50.0253 I0.0225 J-0.0073
X-3.6416 Y-50.0107 I-0.0225 J0.0073
X-3.634 Y-50.0256 I0.0112 J-0.0037
G1 X-3.6267 Y-50.0279
X-3.6239 Y-50.0289 Z-0.2697
X-3.6211 Y-50.0298 Z-0.2688
X-3.6186 Y-50.0306 Z-0.2674
X-3.6164 Y-50.0313 Z-0.2655
X-3.6146 Y-50.0319 Z-0.2632
X-3.6132 Y-50.0323 Z-0.2605
X-3.6124 Y-50.0326 Z-0.2576
X-3.6121 Y-50.0327 Z-0.2546
G0 Z0.4
X-2.7316 Y-48.2746
Z0.13
G1 Z0.0654 F40.
G19 G3 Y-48.2592 Z0.05 J0.0154 K0.
G1 Y-48.2515
G17 G3 X-2.74 Y-48.2431 I-0.0085 J0.
Y-48.2769 Z0. I0. J-0.0169
X-2.727 Y-48.2707 Z-0.014 I0. J0.0169
X-2.7531 Y-48.2492 Z-0.064 I-0.013 J0.0108
X-2.7566 Y-48.2631 Z-0.078 I0.013 J-0.0108
X-2.7234 Y-48.2568 Z-0.128 I0.0166 J0.0032
X-2.7319 Y-48.2452 Z-0.142 I-0.0166 J-0.0032
X-2.7482 Y-48.2748 Z-0.192 I-0.0081 J-0.0148
X-2.7338 Y-48.2757 Z-0.206 I0.0081 J0.0148
X-2.7463 Y-48.2442 Z-0.256 I-0.0062 J0.0157
X-2.7561 Y-48.2547 Z-0.27 I0.0062 J-0.0157
X-2.724 Y-48.2652 I0.0161 J-0.0052
X-2.7561 Y-48.2547 I-0.0161 J0.0052
X-2.7507 Y-48.2654 I0.008 J-0.0026
G1 X-2.7434 Y-48.2678
X-2.7405 Y-48.2687 Z-0.2697
X-2.7378 Y-48.2696 Z-0.2688
X-2.7353 Y-48.2704 Z-0.2674
X-2.733 Y-48.2711 Z-0.2655
X-2.7312 Y-48.2717 Z-0.2632
X-2.7299 Y-48.2722 Z-0.2605
X-2.729 Y-48.2724 Z-0.2576
X-2.7288 Y-48.2725 Z-0.2546
G0 Z0.4
X-1.5451 Y-47.5997
Z0.13
G1 Z0.0654 F40.
G19 G3 Y-47.5844 Z0.05 J0.0154 K0.
G1 Y-47.5767
G17 G3 X-1.557 Y-47.5648 I-0.0118 J0.
Y-47.6121 Z0. I0. J-0.0236
X-1.5387 Y-47.6036 Z-0.014 I0. J0.0237
X-1.5752 Y-47.5734 Z-0.064 I-0.0182 J0.0151
X-1.5387 Y-47.6036 Z-0.114 I0.0182 J-0.0151
X-1.5456 Y-47.5678 Z-0.142 I-0.0182 J0.0151
X-1.5684 Y-47.6092 Z-0.192 I-0.0114 J-0.0207
X-1.5483 Y-47.6105 Z-0.206 I0.0114 J0.0207
X-1.5657 Y-47.5665 Z-0.256 I-0.0087 J0.022
X-1.5795 Y-47.5812 Z-0.27 I0.0087 J-0.022
X-1.5345 Y-47.5958 I0.0225 J-0.0073
X-1.5795 Y-47.5812 I-0.0225 J0.0073
X-1.5719 Y-47.5961 I0.0112 J-0.0037
G1 X-1.5646 Y-47.5985
X-1.5617 Y-47.5994 Z-0.2697
X-1.559 Y-47.6003 Z-0.2688
X-1.5564 Y-47.6011 Z-0.2674
X-1.5542 Y-47.6018 Z-0.2655
X-1.5524 Y-47.6024 Z-0.2632
X-1.5511 Y-47.6029 Z-0.2605
X-1.5502 Y-47.6031 Z-0.2576
X-1.5499 Y-47.6032 Z-0.2546
G0 Z0.4
X-0.0084 Y-47.1104
Z0.13
G1 Z0.0654 F40.
G19 G2 Y-47.1258 Z0.05 J-0.0154 K0.
G1 Y-47.1334
G17 G3 X0. Y-47.1419 I0.0084 J0.
Y-47.1081 Z0. I0. J0.0169
X-0.013 Y-47.1142 Z-0.014 I0. J-0.0169
X0.013 Y-47.1358 Z-0.064 I0.013 J-0.0108
X0.0166 Y-47.1218 Z-0.078 I-0.013 J0.0108
X-0.0166 Y-47.1282 Z-0.128 I-0.0166 J-0.0032
X-0.0081 Y-47.1398 Z-0.142 I0.0166 J0.0032
X0.0081 Y-47.1102 Z-0.192 I0.0081 J0.0148
X-0.0062 Y-47.1093 Z-0.206 I-0.0081 J-0.0148
X0.0062 Y-47.1407 Z-0.256 I0.0062 J-0.0157
X0.0161 Y-47.1302 Z-0.27 I-0.0062 J0.0157
X-0.0161 Y-47.1198 I-0.0161 J0.0052
X0.0161 Y-47.1302 I0.0161 J-0.0052
X0.0106 Y-47.1196 I-0.008 J0.0026
G1 X0.0033 Y-47.1172
X0.0005 Y-47.1163 Z-0.2697
X-0.0023 Y-47.1154 Z-0.2688
X-0.0048 Y-47.1146 Z-0.2674
X-0.007 Y-47.1138 Z-0.2655
X-0.0088 Y-47.1133 Z-0.2632
X-0.0102 Y-47.1128 Z-0.2605
X-0.011 Y-47.1125 Z-0.2576
X-0.0113 Z-0.2546
G0 Z0.4
X1.5688 Y-47.5997
Z0.13
G1 Z0.0654 F40.
G19 G3 Y-47.5844 Z0.05 J0.0154 K0.
G1 Y-47.5767
G17 G3 X1.557 Y-47.5648 I-0.0118 J0.
Y-47.6121 Z0. I0. J-0.0236
X1.5752 Y-47.6036 Z-0.014 I0. J0.0237
X1.5387 Y-47.5734 Z-0.064 I-0.0182 J0.0151
X1.5752 Y-47.6036 Z-0.114 I0.0182 J-0.0151
X1.5684 Y-47.5678 Z-0.142 I-0.0182 J0.0151
X1.5456 Y-47.6092 Z-0.192 I-0.0114 J-0.0207
X1.5657 Y-47.6105 Z-0.206 I0.0114 J0.0207
X1.5483 Y-47.5665 Z-0.256 I-0.0087 J0.022
X1.5345 Y-47.5812 Z-0.27 I0.0087 J-0.022
X1.5795 Y-47.5958 I0.0225 J-0.0073
X1.5345 Y-47.5812 I-0.0225 J0.0073
X1.5421 Y-47.5961 I0.0112 J-0.0037
G1 X1.5494 Y-47.5985
X1.5522 Y-47.5994 Z-0.2697
X1.555 Y-47.6003 Z-0.2688
X1.5575 Y-47.6011 Z-0.2674
X1.5597 Y-47.6018 Z-0.2655
X1.5615 Y-47.6024 Z-0.2632
X1.5629 Y-47.6029 Z-0.2605
X1.5637 Y-47.6031 Z-0.2576
X1.564 Y-47.6032 Z-0.2546
G0 Z0.4
X2.7485 Y-48.2746
Z0.13
G1 Z0.0654 F40.
G19 G3 Y-48.2592 Z0.05 J0.0154 K0.
G1 Y-48.2515
G17 G3 X2.74 Y-48.2431 I-0.0085 J0.
Y-48.2769 Z0. I0. J-0.0169
X2.7531 Y-48.2707 Z-0.014 I0. J0.0169
X2.727 Y-48.2492 Z-0.064 I-0.013 J0.0108
X2.7234 Y-48.2631 Z-0.078 I0.013 J-0.0108
X2.7566 Y-48.2568 Z-0.128 I0.0166 J0.0032
X2.7482 Y-48.2452 Z-0.142 I-0.0166 J-0.0032
X2.7319 Y-48.2748 Z-0.192 I-0.0081 J-0.0148
X2.7463 Y-48.2757 Z-0.206 I0.0081 J0.0148
X2.7338 Y-48.2442 Z-0.256 I-0.0062 J0.0157
X2.724 Y-48.2547 Z-0.27 I0.0062 J-0.0157
X2.7561 Y-48.2652 I0.0161 J-0.0052
X2.724 Y-48.2547 I-0.0161 J0.0052
X2.7294 Y-48.2654 I0.008 J-0.0026
G1 X2.7367 Y-48.2678
X2.7396 Y-48.2687 Z-0.2697
X2.7423 Y-48.2696 Z-0.2688
X2.7448 Y-48.2704 Z-0.2674
X2.747 Y-48.2711 Z-0.2655
X2.7489 Y-48.2717 Z-0.2632
X2.7502 Y-48.2722 Z-0.2605
X2.751 Y-48.2724 Z-0.2576
X2.7513 Y-48.2725 Z-0.2546
G0 Z0.6
(2D SLOT CUT)
M7
G0 X-3.8609 Y-52.3092
Z0.6
Z0.2
G1 Z0.1 F13.333
G2 X-4.0768 Y-51.0001 Z-0.135 I3.8609 J1.3091 F40.
X4.0202 Y-50.3231 I4.0768 J0. F55.
X3.3623 Y-51.1123 I-0.6675 J-0.1124
X3.254 Y-51.0014 I-0.0016 J0.1068
G1 X3.2581 Y-50.8959
G2 X3.2828 Y-50.8423 I0.0768 J-0.003
G1 X3.3087 Y-50.8184
G3 X3.3113 Y-50.8127 I-0.0056 J0.006
G1 X3.3196 Y-50.5982
G3 X3.3175 Y-50.5924 I-0.0082 J0.0003
G1 X3.2934 Y-50.5664
G2 X3.273 Y-50.5112 I0.0563 J0.0523
G1 X3.3151 Y-49.4207
X3.3152 Y-49.4205
G3 X3.3144 Y-49.4166 I-0.0081 J0.0003
X2.7682 Y-48.5856 I-3.3144 J-1.5834
G2 X2.4144 Y-48.2317 I-0.0281 J0.3257
G3 X1.8054 Y-47.801 I-2.4146 J-2.7681
G2 X1.2337 Y-47.5401 I-0.2484 J0.2124
G3 X0.2501 Y-47.3352 I-1.2338 J-3.4599
G2 X-0.2501 I-0.2501 J0.2104
G3 X-1.2337 Y-47.5401 I0.2503 J-3.6647
G2 X-1.8054 Y-47.801 I-0.3232 J-0.0485
G3 X-2.4144 Y-48.2317 I1.8056 J-3.1989
G2 X-2.7682 Y-48.5856 I-0.3257 J-0.0282
G3 X-3.3144 Y-49.4166 I2.7681 J-2.4144
X-3.3152 Y-49.4205 I0.0074 J-0.0035
G1 X-3.3151 Y-49.4207
X-3.273 Y-50.5112
G2 X-3.2934 Y-50.5664 I-0.0768 J-0.003
G1 X-3.3175 Y-50.5924
G3 X-3.3196 Y-50.5982 I0.006 J-0.0055
G1 X-3.3113 Y-50.8127
G3 X-3.3087 Y-50.8184 I0.0082 J0.0003
G1 X-3.2828 Y-50.8423
G2 X-3.2581 Y-50.8958 I-0.0521 J-0.0565
G1 X-3.2403 Y-51.3553
G2 X-3.2604 Y-51.4101 I-0.0768 J-0.003
G1 X-3.2845 Y-51.4365
G2 X-3.2848 Y-51.4369 I-0.0567 J0.0519
G3 X-3.287 Y-51.4427 I0.0059 J-0.0055
G1 X-3.2787 Y-51.6569
G3 X-3.2761 Y-51.6625 I0.0081 J0.0003
G2 X-3.2757 Y-51.6628 I-0.0522 J-0.0564
G1 X-3.2497 Y-51.6872
G2 X-3.2254 Y-51.7403 I-0.0525 J-0.0561
G1 X-3.1832 Y-52.8309
Y-52.8311
G3 X-3.1821 Y-52.8349 I0.0082 J0.0003
X-2.7682 Y-53.4144 I3.1819 J1.8352
G2 X-2.4144 Y-53.7683 I0.0281 J-0.3257
G3 X-1.7262 Y-54.2424 I2.4144 J2.7683
G2 X-1.1484 Y-54.489 I0.2534 J-0.2064
G3 X-0.2501 Y-54.6648 I1.1489 J3.4889
G2 X0.2501 I0.2501 J-0.2104
G3 X1.1484 Y-54.489 I-0.2507 J3.6647
G2 X1.7262 Y-54.2424 I0.3243 J0.0402
G3 X2.4144 Y-53.7683 I-1.7261 J3.2424
G2 X2.7682 Y-53.4144 I0.3257 J0.0282
G3 X3.1821 Y-52.8349 I-2.7679 J2.4147
X3.1832 Y-52.8311 I-0.0071 J0.0041
G1 Y-52.8309
X3.2254 Y-51.7403
G2 X3.2497 Y-51.6872 I0.0768 J-0.003
G1 X3.2757 Y-51.6628
G2 X3.2761 Y-51.6625 I0.0525 J-0.0561
G3 X3.2787 Y-51.6569 I-0.0055 J0.0059
G1 X3.287 Y-51.4427
G3 X3.2848 Y-51.4369 I-0.0081 J0.0003
G2 X3.2845 Y-51.4365 I0.0564 J0.0522
G1 X3.2604 Y-51.4101
G2 X3.2403 Y-51.3553 I0.0567 J0.0519
G1 X3.2425 Y-51.2986
Y-51.2984
G2 X3.3497 Y-51.196 I0.1067 J-0.0043
G3 X3.8938 Y-50.97 I0.003 J0.7605
G2 X3.8941 Y-50.9697 I0.0547 J-0.054
X4.0766 Y-51.0466 I0.0756 J-0.0756
X-4.0768 Y-51.0001 I-4.0766 J0.0466
X-3.4437 Y-48.8179 Z-0.27 I4.0768 J0. F40.
X-0.4572 Y-46.9489 I3.4437 J-2.1821 F55.
G1 Z-0.17
G2 X0.2963 Y-46.934 I0.4572 J-4.0511
G1 Z-0.27 F13.333
G2 X3.6414 Y-49.1669 I-0.2963 J-4.066 F55.
G1 Z-0.17
G2 X3.9167 Y-49.8685 I-3.6414 J-1.8332
G1 Z-0.27 F13.333
G2 X4.0202 Y-50.3231 I-3.9167 J-1.1315 F55.
X3.3623 Y-51.1123 I-0.6675 J-0.1124
X3.254 Y-51.0014 I-0.0016 J0.1068
G1 X3.2581 Y-50.8959
G2 X3.2828 Y-50.8423 I0.0768 J-0.003
G1 X3.3087 Y-50.8184
G3 X3.3113 Y-50.8127 I-0.0056 J0.006
G1 X3.3196 Y-50.5982
G3 X3.3175 Y-50.5924 I-0.0082 J0.0003
G1 X3.2934 Y-50.5664
G2 X3.273 Y-50.5112 I0.0563 J0.0523
G1 X3.3151 Y-49.4207
X3.3152 Y-49.4205
G3 X3.3144 Y-49.4166 I-0.0081 J0.0003
X2.7682 Y-48.5856 I-3.3144 J-1.5834
G2 X2.4144 Y-48.2317 I-0.0281 J0.3257
G3 X1.8054 Y-47.801 I-2.4146 J-2.7681
G2 X1.2337 Y-47.5401 I-0.2484 J0.2124
G3 X0.2501 Y-47.3352 I-1.2338 J-3.4599
G2 X-0.2501 I-0.2501 J0.2104
G3 X-1.2337 Y-47.5401 I0.2503 J-3.6647
G2 X-1.8054 Y-47.801 I-0.3232 J-0.0485
G3 X-2.4144 Y-48.2317 I1.8056 J-3.1989
G2 X-2.7682 Y-48.5856 I-0.3257 J-0.0282
G3 X-3.3144 Y-49.4166 I2.7681 J-2.4144
X-3.3152 Y-49.4205 I0.0074 J-0.0035
G1 X-3.3151 Y-49.4207
X-3.273 Y-50.5112
G2 X-3.2934 Y-50.5664 I-0.0768 J-0.003
G1 X-3.3175 Y-50.5924
G3 X-3.3196 Y-50.5982 I0.006 J-0.0055
G1 X-3.3113 Y-50.8127
G3 X-3.3087 Y-50.8184 I0.0082 J0.0003
G1 X-3.2828 Y-50.8423
G2 X-3.2581 Y-50.8958 I-0.0521 J-0.0565
G1 X-3.2403 Y-51.3553
G2 X-3.2604 Y-51.4101 I-0.0768 J-0.003
G1 X-3.2845 Y-51.4365
G2 X-3.2848 Y-51.4369 I-0.0567 J0.0519
G3 X-3.287 Y-51.4427 I0.0059 J-0.0055
G1 X-3.2787 Y-51.6569
G3 X-3.2761 Y-51.6625 I0.0081 J0.0003
G2 X-3.2757 Y-51.6628 I-0.0522 J-0.0564
G1 X-3.2497 Y-51.6872
G2 X-3.2254 Y-51.7403 I-0.0525 J-0.0561
G1 X-3.1832 Y-52.8309
Y-52.8311
G3 X-3.1821 Y-52.8349 I0.0082 J0.0003
X-2.7682 Y-53.4144 I3.1819 J1.8352
G2 X-2.4144 Y-53.7683 I0.0281 J-0.3257
G3 X-1.7262 Y-54.2424 I2.4144 J2.7683
G2 X-1.1484 Y-54.489 I0.2534 J-0.2064
G3 X-0.2501 Y-54.6648 I1.1489 J3.4889
G2 X0.2476 Y-54.6618 I0.2501 J-0.2104
G1 Z-0.17
G2 X0.2501 Y-54.6648 I-0.2476 J-0.2134
G3 X0.9909 Y-54.537 I-0.2507 J3.6647
G1 Z-0.27 F13.333
G3 X1.1484 Y-54.489 I-0.9914 J3.5369 F55.
G2 X1.7262 Y-54.2424 I0.3243 J0.0402
G3 X2.4144 Y-53.7683 I-1.7261 J3.2424
G2 X2.7682 Y-53.4144 I0.3257 J0.0282
G3 X3.1821 Y-52.8349 I-2.7679 J2.4147
X3.1832 Y-52.8311 I-0.0071 J0.0041
G1 Y-52.8309
X3.1964 Y-52.4897
Z-0.17
X3.2254 Y-51.7403
G2 X3.2257 Y-51.7366 I0.0768 J-0.003
G1 Z-0.27 F13.333
G2 X3.2497 Y-51.6872 I0.0766 J-0.0067 F55.
G1 X3.2757 Y-51.6628
G2 X3.2761 Y-51.6625 I0.0525 J-0.0561
G3 X3.2787 Y-51.6569 I-0.0055 J0.0059
G1 X3.287 Y-51.4427
G3 X3.2848 Y-51.4369 I-0.0081 J0.0003
G2 X3.2845 Y-51.4365 I0.0564 J0.0522
G1 X3.2604 Y-51.4101
G2 X3.2403 Y-51.3553 I0.0567 J0.0519
G1 X3.2425 Y-51.2986
Y-51.2984
G2 X3.3497 Y-51.196 I0.1067 J-0.0043
G3 X3.8938 Y-50.97 I0.003 J0.7605
G2 X3.8941 Y-50.9697 I0.0547 J-0.054
X4.0766 Y-51.0466 I0.0756 J-0.0756
X-4.0682 Y-51.2644 I-4.0766 J0.0466
G1 Z-0.17
G2 X-4.0474 Y-50.511 I4.0682 J0.2644
G1 Z-0.27 F13.333
G2 X-3.4437 Y-48.8179 I4.0474 J-0.489 F55.
G0 Z0.6
M9
G53 Z0.
M30
%
