%
(971-23-P-0034_CAPSTAN COVER PLATE_1492)
(T1  D=0.1492 CR=0. - ZMIN=-0.2175 - FLAT END MILL)
G90 G94 G17 G91.1
G64 P0.001 Q0.001
G20
G53 G0 Z0.
(.3 CIRCLUAR THROUGH HOLE 2)
M9
T1 M6
S22000 M3
G4 P10.
G54
M7
G0 X2.7497 Y48.2472
G43 Z0.6 H1
G0 Z0.13
G1 Z0.0649 F40.
G19 G3 Y48.2621 Z0.05 J0.0149 K0.
G1 Y48.2696
G17 G3 X2.74 Y48.2792 I-0.0096 J0.
Y48.2407 Z0.0335 I0. J-0.0193
Y48.2792 Z0.0169 I0. J0.0193
X2.7364 Y48.2411 Z0.0014 I0. J-0.0192
X2.7437 Y48.2789 Z-0.0152 I0.0037 J0.0189
X2.7216 Y48.2654 Z-0.023 I-0.0037 J-0.0189
X2.7585 Y48.2545 Z-0.0395 I0.0185 J-0.0055
X2.7472 Y48.2778 Z-0.0473 I-0.0185 J0.0055
X2.7328 Y48.2421 Z-0.0638 I-0.0072 J-0.0179
X2.7472 Y48.2778 Z-0.0804 I0.0072 J0.0179
X2.7296 Y48.2438 Z-0.0959 I-0.0072 J-0.0179
X2.7505 Y48.2761 Z-0.1125 I0.0105 J0.0162
X2.7296 Y48.2438 Z-0.129 I-0.0105 J-0.0162
X2.7534 Y48.2738 Z-0.1445 I0.0105 J0.0162
X2.7267 Y48.2461 Z-0.1611 I-0.0133 J-0.0139
X2.7526 Y48.2454 Z-0.1689 I0.0133 J0.0139
X2.7275 Y48.2746 Z-0.1854 I-0.0125 J0.0146
X2.7526 Y48.2454 Z-0.202 I0.0125 J-0.0146
X2.7305 Y48.2767 Z-0.2175 I-0.0125 J0.0146
X2.7496 Y48.2432 I0.0095 J-0.0167
X2.7305 Y48.2767 I-0.0095 J0.0167
X2.7269 Y48.2636 I0.0048 J-0.0084
G1 X2.7306 Y48.2571
X2.732 Y48.2545 Z-0.2172
X2.7334 Y48.2521 Z-0.2164
X2.7347 Y48.2499 Z-0.215
X2.7358 Y48.2479 Z-0.2131
X2.7367 Y48.2463 Z-0.2109
X2.7374 Y48.2451 Z-0.2083
X2.7378 Y48.2444 Z-0.2055
X2.738 Y48.2441 Z-0.2026
G0 Z0.4
X1.557 Y47.5885
Z0.1151
G1 Z0.05 F40.
X1.5594 Y47.5909
G3 X1.557 Y47.5934 I-0.0024 J0.
Y47.5836 Z0.036 I0. J-0.0049
X1.5618 Y47.588 Z0.0294 I0. J0.0049
X1.5521 Y47.589 Z0.0154 I-0.0049 J0.0005
X1.556 Y47.5837 Z0.0088 I0.0049 J-0.0005
X1.5579 Y47.5933 Z-0.0052 I0.001 J0.0048
X1.5523 Y47.59 Z-0.0117 I-0.001 J-0.0048
X1.5616 Y47.587 Z-0.0257 I0.0047 J-0.0015
X1.5589 Y47.593 Z-0.0323 I-0.0047 J0.0015
X1.555 Y47.584 Z-0.0463 I-0.0019 J-0.0045
X1.5613 Y47.5861 Z-0.0529 I0.0019 J0.0045
X1.5527 Y47.5909 Z-0.0669 I-0.0043 J0.0024
X1.5542 Y47.5845 Z-0.0735 I0.0043 J-0.0024
X1.5598 Y47.5925 Z-0.0875 I0.0028 J0.004
X1.5532 Y47.5917 Z-0.094 I-0.0028 J-0.004
X1.5607 Y47.5853 Z-0.1081 I0.0037 J-0.0032
X1.5605 Y47.5919 Z-0.1146 I-0.0037 J0.0032
X1.5534 Y47.5851 Z-0.1286 I-0.0035 J-0.0034
X1.56 Y47.5846 Z-0.1352 I0.0035 J0.0034
X1.5539 Y47.5924 Z-0.1492 I-0.003 J0.0039
X1.5528 Y47.5859 Z-0.1558 I0.003 J-0.0039
X1.5611 Y47.5911 Z-0.1698 I0.0041 J0.0026
X1.5528 Y47.5859 Z-0.1838 I-0.0041 J-0.0026
X1.5615 Y47.5902 Z-0.1969 I0.0041 J0.0026
X1.5524 Y47.5868 Z-0.2109 I-0.0046 J-0.0017
X1.5582 Y47.5838 Z-0.2175 I0.0046 J0.0017
X1.5557 Y47.5932 I-0.0013 J0.0047
X1.5582 Y47.5838 I0.0013 J-0.0047
X1.56 Y47.5868 I-0.0006 J0.0024
G1 X1.557 Y47.5885
G0 Z0.4
X0.0096 Y47.1122
Z0.13
G1 Z0.0649 F40.
G19 G3 Y47.1272 Z0.05 J0.0149 K0.
G1 Y47.1346
G17 G3 X0. Y47.1443 I-0.0096 J0.
Y47.1057 Z0.0335 I0. J-0.0193
Y47.1442 Z0.0169 I0. J0.0193
X-0.0037 Y47.1061 Z0.0014 I0. J-0.0192
X0.0037 Y47.1439 Z-0.0152 I0.0037 J0.0189
X-0.0185 Y47.1305 Z-0.023 I-0.0037 J-0.0189
X0.0185 Y47.1195 Z-0.0395 I0.0185 J-0.0055
X0.0072 Y47.1429 Z-0.0473 I-0.0185 J0.0055
X-0.0072 Y47.1071 Z-0.0638 I-0.0072 J-0.0179
X0.0171 Y47.1161 Z-0.0716 I0.0072 J0.0179
X-0.0171 Y47.1339 Z-0.0881 I-0.0171 J0.0089
X-0.0105 Y47.1088 Z-0.0959 I0.0171 J-0.0089
X0.0105 Y47.1412 Z-0.1125 I0.0105 J0.0162
X-0.0151 Y47.137 Z-0.1202 I-0.0105 J-0.0162
X0.0151 Y47.113 Z-0.1368 I0.0151 J-0.012
X0.0133 Y47.1389 Z-0.1445 I-0.0151 J0.012
X-0.0133 Y47.1111 Z-0.1611 I-0.0133 J-0.0139
X0.0125 Y47.1104 Z-0.1689 I0.0133 J0.0139
X-0.0125 Y47.1396 Z-0.1854 I-0.0125 J0.0146
X-0.0157 Y47.1139 Z-0.1932 I0.0125 J-0.0146
X0.0157 Y47.1361 Z-0.2097 I0.0157 J0.0111
X-0.0095 Y47.1417 Z-0.2175 I-0.0157 J-0.0111
X0.0095 Y47.1083 I0.0095 J-0.0167
X-0.0095 Y47.1417 I-0.0095 J0.0167
X-0.0131 Y47.1286 I0.0048 J-0.0084
G1 X-0.0094 Y47.1221
X-0.008 Y47.1196 Z-0.2172
X-0.0066 Y47.1172 Z-0.2164
X-0.0053 Y47.1149 Z-0.215
X-0.0042 Y47.1129 Z-0.2131
X-0.0033 Y47.1113 Z-0.2109
X-0.0026 Y47.1101 Z-0.2083
X-0.0022 Y47.1094 Z-0.2055
X-0.0021 Y47.1092 Z-0.2026
G0 Z0.4
X-1.557 Y47.5885
Z0.1151
G1 Z0.05 F40.
X-1.5545 Y47.5909
G3 X-1.557 Y47.5934 I-0.0025 J0.
Y47.5836 Z0.036 I0. J-0.0049
X-1.5521 Y47.588 Z0.0294 I0. J0.0049
X-1.5618 Y47.589 Z0.0154 I-0.0049 J0.0005
X-1.5579 Y47.5837 Z0.0088 I0.0049 J-0.0005
X-1.556 Y47.5933 Z-0.0052 I0.001 J0.0048
X-1.5616 Y47.59 Z-0.0117 I-0.001 J-0.0048
X-1.5523 Y47.587 Z-0.0257 I0.0047 J-0.0015
X-1.555 Y47.593 Z-0.0323 I-0.0047 J0.0015
X-1.5589 Y47.584 Z-0.0463 I-0.0019 J-0.0045
X-1.5527 Y47.5861 Z-0.0529 I0.0019 J0.0045
X-1.5613 Y47.5909 Z-0.0669 I-0.0043 J0.0024
X-1.5598 Y47.5845 Z-0.0735 I0.0043 J-0.0024
X-1.5542 Y47.5925 Z-0.0875 I0.0028 J0.004
X-1.5607 Y47.5917 Z-0.094 I-0.0028 J-0.004
X-1.5532 Y47.5853 Z-0.1081 I0.0037 J-0.0032
X-1.5534 Y47.5919 Z-0.1146 I-0.0037 J0.0032
X-1.5605 Y47.5851 Z-0.1286 I-0.0035 J-0.0034
X-1.5539 Y47.5846 Z-0.1352 I0.0035 J0.0034
X-1.56 Y47.5924 Z-0.1492 I-0.003 J0.0039
X-1.5611 Y47.5859 Z-0.1558 I0.003 J-0.0039
X-1.5528 Y47.5911 Z-0.1698 I0.0041 J0.0026
X-1.5611 Y47.5859 Z-0.1838 I-0.0041 J-0.0026
X-1.5524 Y47.5902 Z-0.1969 I0.0041 J0.0026
X-1.5616 Y47.5868 Z-0.2109 I-0.0046 J-0.0017
X-1.5557 Y47.5838 Z-0.2175 I0.0046 J0.0017
X-1.5582 Y47.5932 I-0.0013 J0.0047
X-1.5557 Y47.5838 I0.0013 J-0.0047
X-1.554 Y47.5868 I-0.0006 J0.0024
G1 X-1.557 Y47.5885
G0 Z0.4
X-2.7304 Y48.2472
Z0.13
G1 Z0.0649 F40.
G19 G3 Y48.2621 Z0.05 J0.0149 K0.
G1 Y48.2696
G17 G3 X-2.74 Y48.2792 I-0.0096 J0.
Y48.2407 Z0.0335 I0. J-0.0193
Y48.2792 Z0.0169 I0. J0.0193
X-2.7437 Y48.2411 Z0.0014 I0. J-0.0192
X-2.7364 Y48.2789 Z-0.0152 I0.0037 J0.0189
X-2.7585 Y48.2654 Z-0.023 I-0.0037 J-0.0189
X-2.7216 Y48.2545 Z-0.0395 I0.0185 J-0.0055
X-2.7328 Y48.2778 Z-0.0473 I-0.0185 J0.0055
X-2.7472 Y48.2421 Z-0.0638 I-0.0072 J-0.0179
X-2.7328 Y48.2778 Z-0.0804 I0.0072 J0.0179
X-2.7505 Y48.2438 Z-0.0959 I-0.0072 J-0.0179
X-2.7296 Y48.2761 Z-0.1125 I0.0105 J0.0162
X-2.7505 Y48.2438 Z-0.129 I-0.0105 J-0.0162
X-2.7267 Y48.2738 Z-0.1445 I0.0105 J0.0162
X-2.7534 Y48.2461 Z-0.1611 I-0.0133 J-0.0139
X-2.7275 Y48.2454 Z-0.1689 I0.0133 J0.0139
X-2.7526 Y48.2746 Z-0.1854 I-0.0125 J0.0146
X-2.7275 Y48.2454 Z-0.202 I0.0125 J-0.0146
X-2.7496 Y48.2767 Z-0.2175 I-0.0125 J0.0146
X-2.7305 Y48.2432 I0.0095 J-0.0167
X-2.7496 Y48.2767 I-0.0095 J0.0167
X-2.7532 Y48.2636 I0.0048 J-0.0084
G1 X-2.7495 Y48.2571
X-2.748 Y48.2545 Z-0.2172
X-2.7466 Y48.2521 Z-0.2164
X-2.7454 Y48.2499 Z-0.215
X-2.7443 Y48.2479 Z-0.2131
X-2.7433 Y48.2463 Z-0.2109
X-2.7427 Y48.2451 Z-0.2083
X-2.7422 Y48.2444 Z-0.2055
X-2.7421 Y48.2441 Z-0.2026
G0 Z0.4
X-3.6191 Y50.018
Z0.1151
G1 Z0.05 F40.
X-3.6167 Y50.0204
G3 X-3.6191 Y50.0229 I-0.0025 J0.
Y50.0131 Z0.036 I0. J-0.0049
X-3.6143 Y50.0175 Z0.0294 I0. J0.0049
X-3.624 Y50.0185 Z0.0154 I-0.0049 J0.0005
X-3.6201 Y50.0132 Z0.0088 I0.0049 J-0.0005
X-3.6182 Y50.0228 Z-0.0052 I0.001 J0.0048
X-3.6238 Y50.0194 Z-0.0117 I-0.001 J-0.0048
X-3.6145 Y50.0165 Z-0.0257 I0.0047 J-0.0015
X-3.6172 Y50.0225 Z-0.0323 I-0.0047 J0.0015
X-3.6211 Y50.0135 Z-0.0463 I-0.0019 J-0.0045
X-3.6148 Y50.0156 Z-0.0529 I0.0019 J0.0045
X-3.6234 Y50.0203 Z-0.0669 I-0.0043 J0.0024
X-3.6219 Y50.0139 Z-0.0735 I0.0043 J-0.0024
X-3.6163 Y50.022 Z-0.0875 I0.0028 J0.004
X-3.6229 Y50.0211 Z-0.094 I-0.0028 J-0.004
X-3.6154 Y50.0148 Z-0.1081 I0.0037 J-0.0032
X-3.6156 Y50.0214 Z-0.1146 I-0.0037 J0.0032
X-3.6227 Y50.0146 Z-0.1286 I-0.0035 J-0.0034
X-3.6161 Y50.0141 Z-0.1352 I0.0035 J0.0034
X-3.6221 Y50.0218 Z-0.1492 I-0.003 J0.0039
X-3.6233 Y50.0154 Z-0.1558 I0.003 J-0.0039
X-3.615 Y50.0206 Z-0.1698 I0.0041 J0.0026
X-3.6233 Y50.0154 Z-0.1838 I-0.0041 J-0.0026
X-3.6145 Y50.0197 Z-0.1969 I0.0041 J0.0026
X-3.6237 Y50.0162 Z-0.2109 I-0.0046 J-0.0017
X-3.6179 Y50.0132 Z-0.2175 I0.0046 J0.0017
X-3.6204 Y50.0227 I-0.0013 J0.0047
X-3.6179 Y50.0132 I0.0013 J-0.0047
X-3.6161 Y50.0162 I-0.0006 J0.0024
G1 X-3.6191 Y50.018
G0 Z0.4
X-3.6752 Y50.6457
Z0.13
G1 Z0.0649 F40.
G19 G3 Y50.6606 Z0.05 J0.0149 K0.
G1 Y50.6681
G17 G3 X-3.6848 Y50.6777 I-0.0096 J0.
Y50.6392 Z0.0335 I0. J-0.0193
Y50.6777 Z0.0169 I0. J0.0193
X-3.6885 Y50.6396 Z0.0014 I0. J-0.0192
X-3.6812 Y50.6774 Z-0.0152 I0.0037 J0.0189
X-3.7033 Y50.6639 Z-0.023 I-0.0037 J-0.0189
X-3.6664 Y50.653 Z-0.0395 I0.0185 J-0.0055
X-3.6776 Y50.6763 Z-0.0473 I-0.0185 J0.0055
X-3.692 Y50.6406 Z-0.0638 I-0.0072 J-0.0179
X-3.6777 Y50.6763 Z-0.0804 I0.0072 J0.0179
X-3.6953 Y50.6423 Z-0.0959 I-0.0072 J-0.0179
X-3.6744 Y50.6746 Z-0.1125 I0.0105 J0.0162
X-3.6953 Y50.6423 Z-0.129 I-0.0105 J-0.0162
X-3.6715 Y50.6723 Z-0.1445 I0.0105 J0.0162
X-3.6982 Y50.6446 Z-0.1611 I-0.0133 J-0.0139
X-3.6723 Y50.6439 Z-0.1689 I0.0133 J0.0139
X-3.6974 Y50.6731 Z-0.1854 I-0.0125 J0.0146
X-3.7006 Y50.6474 Z-0.1932 I0.0125 J-0.0146
X-3.6691 Y50.6695 Z-0.2097 I0.0157 J0.0111
X-3.6944 Y50.6752 Z-0.2175 I-0.0157 J-0.0111
X-3.6753 Y50.6417 I0.0095 J-0.0167
X-3.6944 Y50.6752 I-0.0095 J0.0167
X-3.698 Y50.6621 I0.0048 J-0.0084
G1 X-3.6943 Y50.6556
X-3.6928 Y50.653 Z-0.2172
X-3.6915 Y50.6506 Z-0.2164
X-3.6902 Y50.6484 Z-0.215
X-3.6891 Y50.6464 Z-0.2131
X-3.6881 Y50.6448 Z-0.2109
X-3.6875 Y50.6436 Z-0.2083
X-3.687 Y50.6429 Z-0.2055
X-3.6869 Y50.6426 Z-0.2026
G0 Z0.4
X-3.7713 Y51.3677
Z0.13
G1 Z0.0649 F40.
G19 G3 Y51.3826 Z0.05 J0.0149 K0.
G1 Y51.3901
G17 G3 X-3.7809 Y51.3997 I-0.0096 J0.
Y51.3612 Z0.0335 I0. J-0.0193
Y51.3997 Z0.0169 I0. J0.0193
X-3.7846 Y51.3616 Z0.0014 I0. J-0.0192
X-3.7772 Y51.3994 Z-0.0152 I0.0037 J0.0189
X-3.7994 Y51.3859 Z-0.023 I-0.0037 J-0.0189
X-3.7624 Y51.375 Z-0.0395 I0.0185 J-0.0055
X-3.7737 Y51.3983 Z-0.0473 I-0.0185 J0.0055
X-3.7881 Y51.3626 Z-0.0638 I-0.0072 J-0.0179
X-3.7638 Y51.3716 Z-0.0716 I0.0072 J0.0179
X-3.798 Y51.3893 Z-0.0881 I-0.0171 J0.0089
X-3.7914 Y51.3643 Z-0.0959 I0.0171 J-0.0089
X-3.7704 Y51.3966 Z-0.1125 I0.0105 J0.0162
X-3.796 Y51.3924 Z-0.1202 I-0.0105 J-0.0162
X-3.7658 Y51.3685 Z-0.1368 I0.0151 J-0.012
X-3.7676 Y51.3944 Z-0.1445 I-0.0151 J0.012
X-3.7942 Y51.3666 Z-0.1611 I-0.0133 J-0.0139
X-3.7684 Y51.3659 Z-0.1689 I0.0133 J0.0139
X-3.7934 Y51.3951 Z-0.1854 I-0.0125 J0.0146
X-3.7966 Y51.3694 Z-0.1932 I0.0125 J-0.0146
X-3.7652 Y51.3916 Z-0.2097 I0.0157 J0.0111
X-3.7904 Y51.3972 Z-0.2175 I-0.0157 J-0.0111
X-3.7714 Y51.3637 I0.0095 J-0.0167
X-3.7904 Y51.3972 I-0.0095 J0.0167
X-3.794 Y51.3841 I0.0048 J-0.0084
G1 X-3.7903 Y51.3776
X-3.7889 Y51.3751 Z-0.2172
X-3.7875 Y51.3726 Z-0.2164
X-3.7862 Y51.3704 Z-0.215
X-3.7851 Y51.3684 Z-0.2131
X-3.7842 Y51.3668 Z-0.2109
X-3.7835 Y51.3656 Z-0.2083
X-3.7831 Y51.3649 Z-0.2055
X-3.783 Y51.3646 Z-0.2026
G0 Z0.4
X-3.5325 Y52.2587
Z0.1151
G1 Z0.05 F40.
X-3.53 Y52.2611
G3 X-3.5325 Y52.2636 I-0.0024 J0.
Y52.2538 Z0.036 I0. J-0.0049
X-3.5276 Y52.2582 Z0.0294 I0. J0.0049
X-3.5373 Y52.2592 Z0.0154 I-0.0049 J0.0005
X-3.5334 Y52.2539 Z0.0088 I0.0049 J-0.0005
X-3.5315 Y52.2635 Z-0.0052 I0.001 J0.0048
X-3.5371 Y52.2601 Z-0.0117 I-0.001 J-0.0048
X-3.5278 Y52.2572 Z-0.0257 I0.0047 J-0.0015
X-3.5305 Y52.2632 Z-0.0323 I-0.0047 J0.0015
X-3.5344 Y52.2542 Z-0.0463 I-0.0019 J-0.0045
X-3.5282 Y52.2563 Z-0.0529 I0.0019 J0.0045
X-3.5367 Y52.261 Z-0.0669 I-0.0043 J0.0024
X-3.5282 Y52.2563 Z-0.0809 I0.0043 J-0.0024
X-3.5362 Y52.2618 Z-0.094 I-0.0043 J0.0024
X-3.5287 Y52.2555 Z-0.1081 I0.0037 J-0.0032
X-3.5289 Y52.262 Z-0.1146 I-0.0037 J0.0032
X-3.536 Y52.2553 Z-0.1286 I-0.0035 J-0.0034
X-3.5289 Y52.262 Z-0.1427 I0.0035 J0.0034
X-3.5366 Y52.2561 Z-0.1558 I-0.0035 J-0.0034
X-3.5283 Y52.2613 Z-0.1698 I0.0041 J0.0026
X-3.5366 Y52.2561 Z-0.1838 I-0.0041 J-0.0026
X-3.5279 Y52.2604 Z-0.1969 I0.0041 J0.0026
X-3.537 Y52.2569 Z-0.2109 I-0.0046 J-0.0017
X-3.5312 Y52.2539 Z-0.2175 I0.0046 J0.0017
X-3.5337 Y52.2634 I-0.0013 J0.0047
X-3.5312 Y52.2539 I0.0013 J-0.0047
X-3.5295 Y52.2569 I-0.0006 J0.0024
G1 X-3.5325 Y52.2587
G0 Z0.4
X-2.7304 Y53.7273
Z0.13
G1 Z0.0649 F40.
G19 G3 Y53.7422 Z0.05 J0.0149 K0.
G1 Y53.7497
G17 G3 X-2.74 Y53.7593 I-0.0096 J0.
Y53.7208 Z0.0335 I0. J-0.0193
Y53.7593 Z0.0169 I0. J0.0193
X-2.7437 Y53.7211 Z0.0014 I0. J-0.0192
X-2.7364 Y53.7589 Z-0.0152 I0.0037 J0.0189
X-2.7585 Y53.7455 Z-0.023 I-0.0037 J-0.0189
X-2.7216 Y53.7346 Z-0.0395 I0.0185 J-0.0055
X-2.7328 Y53.7579 Z-0.0473 I-0.0185 J0.0055
X-2.7472 Y53.7222 Z-0.0638 I-0.0072 J-0.0179
X-2.7328 Y53.7579 Z-0.0804 I0.0072 J0.0179
X-2.7505 Y53.7239 Z-0.0959 I-0.0072 J-0.0179
X-2.7296 Y53.7562 Z-0.1125 I0.0105 J0.0162
X-2.7505 Y53.7239 Z-0.129 I-0.0105 J-0.0162
X-2.7267 Y53.7539 Z-0.1445 I0.0105 J0.0162
X-2.7534 Y53.7262 Z-0.1611 I-0.0133 J-0.0139
X-2.7275 Y53.7254 Z-0.1689 I0.0133 J0.0139
X-2.7526 Y53.7546 Z-0.1854 I-0.0125 J0.0146
X-2.7275 Y53.7254 Z-0.202 I0.0125 J-0.0146
X-2.7496 Y53.7568 Z-0.2175 I-0.0125 J0.0146
X-2.7305 Y53.7233 I0.0095 J-0.0167
X-2.7496 Y53.7568 I-0.0095 J0.0167
X-2.7532 Y53.7436 I0.0048 J-0.0084
G1 X-2.7495 Y53.7372
X-2.748 Y53.7346 Z-0.2172
X-2.7466 Y53.7322 Z-0.2164
X-2.7454 Y53.73 Z-0.215
X-2.7443 Y53.728 Z-0.2131
X-2.7433 Y53.7264 Z-0.2109
X-2.7427 Y53.7252 Z-0.2083
X-2.7422 Y53.7244 Z-0.2055
X-2.7421 Y53.7242 Z-0.2026
G0 Z0.4
X-1.4727 Y54.4487
Z0.1151
G1 Z0.05 F40.
X-1.4703 Y54.4512
G3 X-1.4727 Y54.4536 I-0.0025 J0.
Y54.4438 Z0.036 I0. J-0.0049
X-1.4679 Y54.4482 Z0.0294 I0. J0.0049
X-1.4776 Y54.4492 Z0.0154 I-0.0049 J0.0005
X-1.4737 Y54.4439 Z0.0088 I0.0049 J-0.0005
X-1.4717 Y54.4535 Z-0.0052 I0.001 J0.0048
X-1.4774 Y54.4502 Z-0.0117 I-0.001 J-0.0048
X-1.4681 Y54.4473 Z-0.0258 I0.0047 J-0.0015
X-1.4708 Y54.4532 Z-0.0323 I-0.0047 J0.0015
X-1.4747 Y54.4442 Z-0.0463 I-0.0019 J-0.0045
X-1.4684 Y54.4463 Z-0.0529 I0.0019 J0.0045
X-1.477 Y54.4511 Z-0.0669 I-0.0043 J0.0024
X-1.4755 Y54.4447 Z-0.0735 I0.0043 J-0.0024
X-1.4699 Y54.4527 Z-0.0875 I0.0028 J0.004
X-1.4765 Y54.4519 Z-0.094 I-0.0028 J-0.004
X-1.469 Y54.4455 Z-0.1081 I0.0037 J-0.0032
X-1.4692 Y54.4521 Z-0.1146 I-0.0037 J0.0032
X-1.4763 Y54.4453 Z-0.1286 I-0.0035 J-0.0034
X-1.4697 Y54.4448 Z-0.1352 I0.0035 J0.0034
X-1.4757 Y54.4526 Z-0.1492 I-0.003 J0.0039
X-1.4769 Y54.4461 Z-0.1558 I0.003 J-0.0039
X-1.4686 Y54.4513 Z-0.1698 I0.0041 J0.0026
X-1.4769 Y54.4461 Z-0.1838 I-0.0041 J-0.0026
X-1.4681 Y54.4504 Z-0.1969 I0.0041 J0.0026
X-1.4773 Y54.447 Z-0.2109 I-0.0046 J-0.0017
X-1.4715 Y54.444 Z-0.2175 I0.0046 J0.0017
X-1.474 Y54.4534 I-0.0013 J0.0047
X-1.4715 Y54.444 I0.0013 J-0.0047
X-1.4697 Y54.447 I-0.0006 J0.0024
G1 X-1.4727 Y54.4487
G0 Z0.4
X0.0096 Y54.8622
Z0.13
G1 Z0.0649 F40.
G19 G3 Y54.8772 Z0.05 J0.0149 K0.
G1 Y54.8846
G17 G3 X0. Y54.8943 I-0.0096 J0.
Y54.8557 Z0.0335 I0. J-0.0193
X0.0192 Y54.8732 Z0.0257 I0. J0.0193
X-0.0192 Y54.8768 Z0.0091 I-0.0192 J0.0018
X-0.0037 Y54.8561 Z0.0014 I0.0192 J-0.0018
X0.0037 Y54.8939 Z-0.0152 I0.0037 J0.0189
X-0.0185 Y54.8805 Z-0.023 I-0.0037 J-0.0189
X0.0185 Y54.8695 Z-0.0395 I0.0185 J-0.0055
X-0.0185 Y54.8805 Z-0.0561 I-0.0185 J0.0055
X0.0171 Y54.8661 Z-0.0716 I0.0185 J-0.0055
X-0.0171 Y54.8839 Z-0.0881 I-0.0171 J0.0089
X-0.0105 Y54.8588 Z-0.0959 I0.0171 J-0.0089
X0.0105 Y54.8912 Z-0.1125 I0.0105 J0.0162
X-0.0151 Y54.887 Z-0.1202 I-0.0105 J-0.0162
X0.0151 Y54.863 Z-0.1368 I0.0151 J-0.012
X0.0133 Y54.8889 Z-0.1445 I-0.0151 J0.012
X-0.0133 Y54.8611 Z-0.1611 I-0.0133 J-0.0139
X0.0133 Y54.8889 Z-0.1776 I0.0133 J0.0139
X-0.0133 Y54.8611 Z-0.1942 I-0.0133 J-0.0139
X0.0133 Y54.8889 Z-0.2107 I0.0133 J0.0139
X-0.0095 Y54.8917 Z-0.2175 I-0.0133 J-0.0139
X0.0095 Y54.8583 I0.0095 J-0.0167
X-0.0095 Y54.8917 I-0.0095 J0.0167
X-0.0131 Y54.8786 I0.0048 J-0.0084
G1 X-0.0094 Y54.8721
X-0.008 Y54.8696 Z-0.2172
X-0.0066 Y54.8672 Z-0.2164
X-0.0053 Y54.8649 Z-0.215
X-0.0042 Y54.863 Z-0.2131
X-0.0033 Y54.8613 Z-0.2109
X-0.0026 Y54.8601 Z-0.2083
X-0.0022 Y54.8594 Z-0.2055
X-0.0021 Y54.8592 Z-0.2026
G0 Z0.4
X1.4727 Y54.4487
Z0.1151
G1 Z0.05 F40.
X1.4752 Y54.4512
G3 X1.4727 Y54.4536 I-0.0024 J0.
Y54.4438 Z0.036 I0. J-0.0049
X1.4776 Y54.4482 Z0.0294 I0. J0.0049
X1.4679 Y54.4492 Z0.0154 I-0.0049 J0.0005
X1.4717 Y54.4439 Z0.0088 I0.0049 J-0.0005
X1.4737 Y54.4535 Z-0.0052 I0.001 J0.0048
X1.468 Y54.4502 Z-0.0117 I-0.001 J-0.0048
X1.4774 Y54.4473 Z-0.0258 I0.0047 J-0.0015
X1.4746 Y54.4532 Z-0.0323 I-0.0047 J0.0015
X1.4708 Y54.4442 Z-0.0463 I-0.0019 J-0.0045
X1.477 Y54.4463 Z-0.0529 I0.0019 J0.0045
X1.4684 Y54.4511 Z-0.0669 I-0.0043 J0.0024
X1.4699 Y54.4447 Z-0.0735 I0.0043 J-0.0024
X1.4755 Y54.4527 Z-0.0875 I0.0028 J0.004
X1.469 Y54.4519 Z-0.094 I-0.0028 J-0.004
X1.4765 Y54.4455 Z-0.1081 I0.0037 J-0.0032
X1.4763 Y54.4521 Z-0.1146 I-0.0037 J0.0032
X1.4692 Y54.4453 Z-0.1286 I-0.0035 J-0.0034
X1.4757 Y54.4448 Z-0.1352 I0.0035 J0.0034
X1.4697 Y54.4526 Z-0.1492 I-0.003 J0.0039
X1.4686 Y54.4461 Z-0.1558 I0.003 J-0.0039
X1.4769 Y54.4513 Z-0.1698 I0.0041 J0.0026
X1.4686 Y54.4461 Z-0.1838 I-0.0041 J-0.0026
X1.4773 Y54.4504 Z-0.1969 I0.0041 J0.0026
X1.4681 Y54.447 Z-0.2109 I-0.0046 J-0.0017
X1.474 Y54.444 Z-0.2175 I0.0046 J0.0017
X1.4715 Y54.4534 I-0.0013 J0.0047
X1.474 Y54.444 I0.0013 J-0.0047
X1.4757 Y54.447 I-0.0006 J0.0024
G1 X1.4727 Y54.4487
G0 Z0.4
X2.7497 Y53.7273
Z0.13
G1 Z0.0649 F40.
G19 G3 Y53.7422 Z0.05 J0.0149 K0.
G1 Y53.7497
G17 G3 X2.74 Y53.7593 I-0.0096 J0.
Y53.7208 Z0.0335 I0. J-0.0193
Y53.7593 Z0.0169 I0. J0.0193
X2.7364 Y53.7211 Z0.0014 I0. J-0.0192
X2.7437 Y53.7589 Z-0.0152 I0.0037 J0.0189
X2.7216 Y53.7455 Z-0.023 I-0.0037 J-0.0189
X2.7585 Y53.7346 Z-0.0395 I0.0185 J-0.0055
X2.7472 Y53.7579 Z-0.0473 I-0.0185 J0.0055
X2.7328 Y53.7222 Z-0.0638 I-0.0072 J-0.0179
X2.7472 Y53.7579 Z-0.0804 I0.0072 J0.0179
X2.7296 Y53.7239 Z-0.0959 I-0.0072 J-0.0179
X2.7505 Y53.7562 Z-0.1125 I0.0105 J0.0162
X2.7296 Y53.7239 Z-0.129 I-0.0105 J-0.0162
X2.7534 Y53.7539 Z-0.1445 I0.0105 J0.0162
X2.7267 Y53.7262 Z-0.1611 I-0.0133 J-0.0139
X2.7526 Y53.7254 Z-0.1689 I0.0133 J0.0139
X2.7275 Y53.7546 Z-0.1854 I-0.0125 J0.0146
X2.7526 Y53.7254 Z-0.202 I0.0125 J-0.0146
X2.7305 Y53.7568 Z-0.2175 I-0.0125 J0.0146
X2.7496 Y53.7233 I0.0095 J-0.0167
X2.7305 Y53.7568 I-0.0095 J0.0167
X2.7269 Y53.7436 I0.0048 J-0.0084
G1 X2.7306 Y53.7372
X2.732 Y53.7346 Z-0.2172
X2.7334 Y53.7322 Z-0.2164
X2.7347 Y53.73 Z-0.215
X2.7358 Y53.728 Z-0.2131
X2.7367 Y53.7264 Z-0.2109
X2.7374 Y53.7252 Z-0.2083
X2.7378 Y53.7244 Z-0.2055
X2.738 Y53.7242 Z-0.2026
G0 Z0.4
X3.5325 Y52.2587
Z0.1151
G1 Z0.05 F40.
X3.5349 Y52.2611
G3 X3.5325 Y52.2636 I-0.0025 J0.
Y52.2538 Z0.036 I0. J-0.0049
X3.5373 Y52.2582 Z0.0294 I0. J0.0049
X3.5276 Y52.2592 Z0.0154 I-0.0049 J0.0005
X3.5315 Y52.2539 Z0.0088 I0.0049 J-0.0005
X3.5334 Y52.2635 Z-0.0052 I0.001 J0.0048
X3.5278 Y52.2601 Z-0.0117 I-0.001 J-0.0048
X3.5371 Y52.2572 Z-0.0257 I0.0047 J-0.0015
X3.5344 Y52.2632 Z-0.0323 I-0.0047 J0.0015
X3.5305 Y52.2542 Z-0.0463 I-0.0019 J-0.0045
X3.5367 Y52.2563 Z-0.0529 I0.0019 J0.0045
X3.5282 Y52.261 Z-0.0669 I-0.0043 J0.0024
X3.5367 Y52.2563 Z-0.0809 I0.0043 J-0.0024
X3.5287 Y52.2618 Z-0.094 I-0.0043 J0.0024
X3.5362 Y52.2555 Z-0.1081 I0.0037 J-0.0032
X3.536 Y52.262 Z-0.1146 I-0.0037 J0.0032
X3.5289 Y52.2553 Z-0.1286 I-0.0035 J-0.0034
X3.536 Y52.262 Z-0.1427 I0.0035 J0.0034
X3.5283 Y52.2561 Z-0.1558 I-0.0035 J-0.0034
X3.5366 Y52.2613 Z-0.1698 I0.0041 J0.0026
X3.5303 Y52.263 Z-0.1763 I-0.0041 J-0.0026
X3.5346 Y52.2543 Z-0.1904 I0.0022 J-0.0044
X3.537 Y52.2604 Z-0.1969 I-0.0022 J0.0044
X3.5279 Y52.2569 Z-0.2109 I-0.0046 J-0.0017
X3.5337 Y52.2539 Z-0.2175 I0.0046 J0.0017
X3.5312 Y52.2634 I-0.0013 J0.0047
X3.5337 Y52.2539 I0.0013 J-0.0047
X3.5355 Y52.2569 I-0.0006 J0.0024
G1 X3.5325 Y52.2587
G0 Z0.4
X3.7905 Y51.3677
Z0.13
G1 Z0.0649 F40.
G19 G3 Y51.3826 Z0.05 J0.0149 K0.
G1 Y51.3901
G17 G3 X3.7809 Y51.3997 I-0.0096 J0.
Y51.3612 Z0.0335 I0. J-0.0193
Y51.3997 Z0.0169 I0. J0.0193
Y51.3612 Z0.0004 I0. J-0.0193
Y51.3997 Z-0.0162 I0. J0.0193
X3.7624 Y51.3859 Z-0.023 I0. J-0.0193
X3.7994 Y51.375 Z-0.0395 I0.0185 J-0.0055
X3.7881 Y51.3983 Z-0.0473 I-0.0185 J0.0055
X3.7737 Y51.3626 Z-0.0638 I-0.0072 J-0.0179
X3.798 Y51.3716 Z-0.0716 I0.0072 J0.0179
X3.7638 Y51.3893 Z-0.0881 I-0.0171 J0.0089
X3.7704 Y51.3643 Z-0.0959 I0.0171 J-0.0089
X3.7914 Y51.3966 Z-0.1125 I0.0105 J0.0162
X3.7658 Y51.3924 Z-0.1202 I-0.0105 J-0.0162
X3.796 Y51.3685 Z-0.1368 I0.0151 J-0.012
X3.7942 Y51.3944 Z-0.1445 I-0.0151 J0.012
X3.7676 Y51.3666 Z-0.1611 I-0.0133 J-0.0139
X3.7934 Y51.3659 Z-0.1689 I0.0133 J0.0139
X3.7684 Y51.3951 Z-0.1854 I-0.0125 J0.0146
X3.7652 Y51.3694 Z-0.1932 I0.0125 J-0.0146
X3.7966 Y51.3916 Z-0.2097 I0.0157 J0.0111
X3.7714 Y51.3972 Z-0.2175 I-0.0157 J-0.0111
X3.7904 Y51.3637 I0.0095 J-0.0167
X3.7714 Y51.3972 I-0.0095 J0.0167
X3.7678 Y51.3841 I0.0048 J-0.0084
G1 X3.7715 Y51.3776
X3.7729 Y51.3751 Z-0.2172
X3.7743 Y51.3726 Z-0.2164
X3.7756 Y51.3704 Z-0.215
X3.7767 Y51.3684 Z-0.2131
X3.7776 Y51.3668 Z-0.2109
X3.7783 Y51.3656 Z-0.2083
X3.7787 Y51.3649 Z-0.2055
X3.7789 Y51.3646 Z-0.2026
G0 Z0.4
X3.6945 Y50.6457
Z0.13
G1 Z0.0649 F40.
G19 G3 Y50.6606 Z0.05 J0.0149 K0.
G1 Y50.6681
G17 G3 X3.6848 Y50.6777 I-0.0096 J0.
Y50.6392 Z0.0335 I0. J-0.0193
Y50.6777 Z0.0169 I0. J0.0193
Y50.6392 Z0.0004 I0. J-0.0193
Y50.6777 Z-0.0162 I0. J0.0193
X3.6664 Y50.6639 Z-0.023 I0. J-0.0193
X3.7033 Y50.653 Z-0.0395 I0.0185 J-0.0055
X3.692 Y50.6763 Z-0.0473 I-0.0185 J0.0055
X3.6777 Y50.6406 Z-0.0638 I-0.0072 J-0.0179
X3.692 Y50.6763 Z-0.0804 I0.0072 J0.0179
X3.6744 Y50.6423 Z-0.0959 I-0.0072 J-0.0179
X3.6953 Y50.6746 Z-0.1125 I0.0105 J0.0162
X3.6744 Y50.6423 Z-0.129 I-0.0105 J-0.0162
X3.6953 Y50.6746 Z-0.1456 I0.0105 J0.0162
X3.6744 Y50.6423 Z-0.1621 I-0.0105 J-0.0162
X3.6974 Y50.6439 Z-0.1689 I0.0105 J0.0162
X3.6723 Y50.6731 Z-0.1854 I-0.0125 J0.0146
X3.6691 Y50.6474 Z-0.1932 I0.0125 J-0.0146
X3.7006 Y50.6695 Z-0.2097 I0.0157 J0.0111
X3.6753 Y50.6752 Z-0.2175 I-0.0157 J-0.0111
X3.6944 Y50.6417 I0.0095 J-0.0167
X3.6753 Y50.6752 I-0.0095 J0.0167
X3.6717 Y50.6621 I0.0048 J-0.0084
G1 X3.6754 Y50.6556
X3.6768 Y50.653 Z-0.2172
X3.6782 Y50.6506 Z-0.2164
X3.6795 Y50.6484 Z-0.215
X3.6806 Y50.6464 Z-0.2131
X3.6815 Y50.6448 Z-0.2109
X3.6822 Y50.6436 Z-0.2083
X3.6826 Y50.6429 Z-0.2055
X3.6828 Y50.6426 Z-0.2026
G0 Z0.4
X3.6191 Y50.018
Z0.1151
G1 Z0.05 F40.
X3.6216 Y50.0204
G3 X3.6191 Y50.0229 I-0.0024 J0.
Y50.0131 Z0.036 I0. J-0.0049
X3.624 Y50.0175 Z0.0294 I0. J0.0049
X3.6143 Y50.0185 Z0.0154 I-0.0049 J0.0005
X3.6181 Y50.0132 Z0.0088 I0.0049 J-0.0005
X3.6201 Y50.0228 Z-0.0052 I0.001 J0.0048
X3.6145 Y50.0194 Z-0.0117 I-0.001 J-0.0048
X3.6238 Y50.0165 Z-0.0257 I0.0047 J-0.0015
X3.6211 Y50.0225 Z-0.0323 I-0.0047 J0.0015
X3.6172 Y50.0135 Z-0.0463 I-0.0019 J-0.0045
X3.6234 Y50.0156 Z-0.0529 I0.0019 J0.0045
X3.6148 Y50.0203 Z-0.0669 I-0.0043 J0.0024
X3.6163 Y50.0139 Z-0.0735 I0.0043 J-0.0024
X3.6219 Y50.022 Z-0.0875 I0.0028 J0.004
X3.6154 Y50.0211 Z-0.094 I-0.0028 J-0.004
X3.6229 Y50.0148 Z-0.1081 I0.0037 J-0.0032
X3.6227 Y50.0214 Z-0.1146 I-0.0037 J0.0032
X3.6156 Y50.0146 Z-0.1286 I-0.0035 J-0.0034
X3.6221 Y50.0141 Z-0.1352 I0.0035 J0.0034
X3.6161 Y50.0218 Z-0.1492 I-0.003 J0.0039
X3.615 Y50.0154 Z-0.1558 I0.003 J-0.0039
X3.6233 Y50.0206 Z-0.1698 I0.0041 J0.0026
X3.615 Y50.0154 Z-0.1838 I-0.0041 J-0.0026
X3.6237 Y50.0197 Z-0.1969 I0.0041 J0.0026
X3.6145 Y50.0162 Z-0.2109 I-0.0046 J-0.0017
X3.6204 Y50.0132 Z-0.2175 I0.0046 J0.0017
X3.6179 Y50.0227 I-0.0013 J0.0047
X3.6204 Y50.0132 I0.0013 J-0.0047
X3.6221 Y50.0162 I-0.0006 J0.0024
G1 X3.6191 Y50.018
G0 Z0.4
X-0.8857 Y50.8102
Z0.13
G1 Z0.0649 F40.
G19 G2 Y50.7953 Z0.05 J-0.0149 K0.
G1 Y50.7879
G17 G3 X-0.8727 Y50.7749 I0.0129 J0.
Y50.8267 Z0.0323 I0. J0.0259
X-0.8966 Y50.8109 Z0.0257 I0. J-0.0259
X-0.8489 Y50.7907 Z0.008 I0.0238 J-0.0101
X-0.8541 Y50.8188 Z0.0014 I-0.0238 J0.0101
X-0.8914 Y50.7828 Z-0.0164 I-0.0186 J-0.018
X-0.8541 Y50.8188 Z-0.0341 I0.0186 J0.018
X-0.8986 Y50.8017 Z-0.0473 I-0.0186 J-0.018
X-0.8468 Y50.7999 Z-0.065 I0.0259 J-0.0009
X-0.8986 Y50.8017 Z-0.0827 I-0.0259 J0.0009
X-0.8468 Y50.7999 Z-0.1004 I0.0259 J-0.0009
X-0.8986 Y50.8017 Z-0.1182 I-0.0259 J0.0009
X-0.8972 Y50.7923 Z-0.1202 I0.0259 J-0.0009
X-0.8483 Y50.8093 Z-0.1379 I0.0245 J0.0085
X-0.8972 Y50.7923 Z-0.1557 I-0.0245 J-0.0085
X-0.8496 Y50.7891 Z-0.1689 I0.0245 J0.0085
X-0.8958 Y50.8125 Z-0.1866 I-0.0231 J0.0117
X-0.8496 Y50.7891 Z-0.2043 I0.0231 J-0.0117
X-0.8804 Y50.8256 Z-0.2175 I-0.0231 J0.0117
X-0.8651 Y50.7761 I0.0076 J-0.0248
X-0.8804 Y50.8256 I-0.0076 J0.0248
X-0.8889 Y50.8094 I0.0038 J-0.0124
G1 X-0.8867 Y50.8022
X-0.8859 Y50.7995 Z-0.2172
X-0.885 Y50.7968 Z-0.2164
X-0.8843 Y50.7943 Z-0.215
X-0.8836 Y50.7922 Z-0.2131
X-0.8831 Y50.7904 Z-0.2109
X-0.8827 Y50.7891 Z-0.2083
X-0.8824 Y50.7883 Z-0.2055
X-0.8823 Y50.788 Z-0.2026
G0 Z0.4
X-0.7133 Y50.4516
Z0.13
G1 Z0.0649 F40.
G19 G2 Y50.4367 Z0.05 J-0.0149 K0.
G1 Y50.4292
G17 G3 X-0.7036 Y50.4196 I0.0096 J0.
Y50.4581 Z0.0335 I0. J0.0192
X-0.7228 Y50.4407 Z0.0257 I0. J-0.0192
X-0.6845 Y50.437 Z0.0091 I0.0192 J-0.0018
X-0.7228 Y50.4407 Z-0.0074 I-0.0192 J0.0018
X-0.6852 Y50.4334 Z-0.023 I0.0192 J-0.0018
X-0.7221 Y50.4443 Z-0.0395 I-0.0185 J0.0054
X-0.7108 Y50.421 Z-0.0473 I0.0185 J-0.0054
X-0.6965 Y50.4567 Z-0.0638 I0.0072 J0.0179
X-0.7207 Y50.4477 Z-0.0716 I-0.0072 J-0.0179
X-0.6866 Y50.43 Z-0.0881 I0.0171 J-0.0089
X-0.7207 Y50.4477 Z-0.1047 I-0.0171 J0.0089
X-0.6886 Y50.4269 Z-0.1202 I0.0171 J-0.0089
X-0.7187 Y50.4508 Z-0.1368 I-0.0151 J0.012
X-0.717 Y50.425 Z-0.1445 I0.0151 J-0.012
X-0.6903 Y50.4527 Z-0.1611 I0.0133 J0.0139
X-0.7162 Y50.4535 Z-0.1689 I-0.0133 J-0.0139
X-0.6911 Y50.4242 Z-0.1854 I0.0125 J-0.0146
X-0.6879 Y50.4499 Z-0.1932 I-0.0125 J0.0146
X-0.7194 Y50.4278 Z-0.2097 I-0.0157 J-0.0111
X-0.6941 Y50.4221 Z-0.2175 I0.0157 J0.0111
X-0.7132 Y50.4556 I-0.0095 J0.0167
X-0.6941 Y50.4221 I0.0095 J-0.0167
X-0.6905 Y50.4353 I-0.0048 J0.0084
G1 X-0.6942 Y50.4417
X-0.6957 Y50.4443 Z-0.2172
X-0.697 Y50.4467 Z-0.2164
X-0.6983 Y50.4489 Z-0.215
X-0.6994 Y50.4509 Z-0.2131
X-0.7004 Y50.4525 Z-0.2109
X-0.701 Y50.4537 Z-0.2083
X-0.7015 Y50.4545 Z-0.2055
X-0.7016 Y50.4547 Z-0.2026
G0 Z0.4
X-0.3755 Y50.184
Z0.13
G1 Z0.0649 F40.
G19 G3 Y50.199 Z0.05 J0.0149 K0.
G1 Y50.2064
G17 G3 X-0.3884 Y50.2194 I-0.0129 J0.
Y50.1676 Z0.0323 I0. J-0.0259
X-0.3646 Y50.1834 Z0.0257 I0. J0.0259
X-0.4122 Y50.2036 Z0.008 I-0.0238 J0.0101
X-0.407 Y50.1755 Z0.0014 I0.0238 J-0.0101
X-0.3698 Y50.2115 Z-0.0164 I0.0186 J0.018
X-0.407 Y50.1755 Z-0.0341 I-0.0186 J-0.018
X-0.3625 Y50.1926 Z-0.0473 I0.0186 J0.018
X-0.4143 Y50.1944 Z-0.065 I-0.0259 J0.0009
X-0.3993 Y50.17 Z-0.0716 I0.0259 J-0.0009
X-0.3775 Y50.217 Z-0.0893 I0.0109 J0.0235
X-0.4058 Y50.2127 Z-0.0959 I-0.0109 J-0.0235
X-0.371 Y50.1742 Z-0.1136 I0.0174 J-0.0192
X-0.3639 Y50.2019 Z-0.1202 I-0.0174 J0.0192
X-0.4129 Y50.185 Z-0.1379 I-0.0245 J-0.0085
X-0.3639 Y50.2019 Z-0.1557 I0.0245 J0.0085
X-0.4115 Y50.2052 Z-0.1689 I-0.0245 J-0.0085
X-0.3653 Y50.1818 Z-0.1866 I0.0231 J-0.0117
X-0.3686 Y50.2102 Z-0.1932 I-0.0231 J0.0117
X-0.4082 Y50.1768 Z-0.2109 I-0.0198 J-0.0167
X-0.3808 Y50.1687 Z-0.2175 I0.0198 J0.0167
X-0.396 Y50.2182 I-0.0076 J0.0248
X-0.3808 Y50.1687 I0.0076 J-0.0248
X-0.3722 Y50.1849 I-0.0038 J0.0124
G1 X-0.3744 Y50.192
X-0.3753 Y50.1948 Z-0.2172
X-0.3761 Y50.1975 Z-0.2164
X-0.3769 Y50.2 Z-0.215
X-0.3775 Y50.2021 Z-0.2131
X-0.3781 Y50.2039 Z-0.2109
X-0.3785 Y50.2052 Z-0.2083
X-0.3787 Y50.206 Z-0.2055
X-0.3788 Y50.2063 Z-0.2026
G0 Z0.4
X0.0096 Y50.0872
Z0.13
G1 Z0.0649 F40.
G19 G3 Y50.1022 Z0.05 J0.0149 K0.
G1 Y50.1096
G17 G3 X0. Y50.1192 I-0.0096 J0.
Y50.0808 Z0.0335 I0. J-0.0192
X0.0192 Y50.0982 Z0.0257 I0. J0.0192
X-0.0192 Y50.1018 Z0.0091 I-0.0192 J0.0018
X0.0192 Y50.0982 Z-0.0074 I0.0192 J-0.0018
X-0.0185 Y50.1055 Z-0.023 I-0.0192 J0.0018
X0.0185 Y50.0946 Z-0.0395 I0.0185 J-0.0054
X0.0072 Y50.1179 Z-0.0473 I-0.0185 J0.0054
X-0.0072 Y50.0821 Z-0.0638 I-0.0072 J-0.0179
X0.0171 Y50.0911 Z-0.0716 I0.0072 J0.0179
X-0.0171 Y50.1089 Z-0.0881 I-0.0171 J0.0089
X0.0171 Y50.0911 Z-0.1047 I0.0171 J-0.0089
X-0.0151 Y50.112 Z-0.1202 I-0.0171 J0.0089
X0.0151 Y50.088 Z-0.1368 I0.0151 J-0.012
X0.0133 Y50.1139 Z-0.1445 I-0.0151 J0.012
X-0.0133 Y50.0861 Z-0.1611 I-0.0133 J-0.0139
X0.0125 Y50.0854 Z-0.1689 I0.0133 J0.0139
X-0.0125 Y50.1146 Z-0.1854 I-0.0125 J0.0146
X0.0125 Y50.0854 Z-0.202 I0.0125 J-0.0146
X-0.0095 Y50.1167 Z-0.2175 I-0.0125 J0.0146
X0.0095 Y50.0833 I0.0095 J-0.0167
X-0.0095 Y50.1167 I-0.0095 J0.0167
X-0.0131 Y50.1036 I0.0048 J-0.0084
G1 X-0.0094 Y50.0971
X-0.008 Y50.0946 Z-0.2172
X-0.0066 Y50.0922 Z-0.2164
X-0.0053 Y50.0899 Z-0.215
X-0.0042 Y50.088 Z-0.2131
X-0.0033 Y50.0863 Z-0.2109
X-0.0026 Y50.0851 Z-0.2083
X-0.0022 Y50.0844 Z-0.2055
X-0.0021 Y50.0842 Z-0.2026
G0 Z0.4
X0.4014 Y50.184
Z0.13
G1 Z0.0649 F40.
G19 G3 Y50.199 Z0.05 J0.0149 K0.
G1 Y50.2064
G17 G3 X0.3884 Y50.2194 I-0.0129 J0.
Y50.1676 Z0.0323 I0. J-0.0259
X0.4122 Y50.1834 Z0.0257 I0. J0.0259
X0.3646 Y50.2036 Z0.008 I-0.0238 J0.0101
X0.3698 Y50.1755 Z0.0014 I0.0238 J-0.0101
X0.407 Y50.2115 Z-0.0164 I0.0186 J0.018
X0.3698 Y50.1755 Z-0.0341 I-0.0186 J-0.018
X0.4143 Y50.1926 Z-0.0473 I0.0186 J0.018
X0.3625 Y50.1944 Z-0.065 I-0.0259 J0.0009
X0.3775 Y50.17 Z-0.0716 I0.0259 J-0.0009
X0.3993 Y50.217 Z-0.0893 I0.0109 J0.0235
X0.371 Y50.2127 Z-0.0959 I-0.0109 J-0.0235
X0.4058 Y50.1742 Z-0.1136 I0.0174 J-0.0192
X0.4129 Y50.2019 Z-0.1202 I-0.0174 J0.0192
X0.3639 Y50.185 Z-0.1379 I-0.0245 J-0.0085
X0.4129 Y50.2019 Z-0.1557 I0.0245 J0.0085
X0.3653 Y50.2052 Z-0.1689 I-0.0245 J-0.0085
X0.4115 Y50.1818 Z-0.1866 I0.0231 J-0.0117
X0.4082 Y50.2102 Z-0.1932 I-0.0231 J0.0117
X0.3686 Y50.1768 Z-0.2109 I-0.0198 J-0.0167
X0.396 Y50.1687 Z-0.2175 I0.0198 J0.0167
X0.3808 Y50.2182 I-0.0076 J0.0248
X0.396 Y50.1687 I0.0076 J-0.0248
X0.4046 Y50.1849 I-0.0038 J0.0124
G1 X0.4024 Y50.192
X0.4015 Y50.1948 Z-0.2172
X0.4007 Y50.1975 Z-0.2164
X0.4 Y50.2 Z-0.215
X0.3993 Y50.2021 Z-0.2131
X0.3987 Y50.2039 Z-0.2109
X0.3983 Y50.2052 Z-0.2083
X0.3981 Y50.206 Z-0.2055
X0.398 Y50.2063 Z-0.2026
G0 Z0.4
X0.694 Y50.4516
Z0.13
G1 Z0.0649 F40.
G19 G2 Y50.4367 Z0.05 J-0.0149 K0.
G1 Y50.4292
G17 G3 X0.7036 Y50.4196 I0.0096 J0.
Y50.4581 Z0.0335 I0. J0.0192
X0.6845 Y50.4407 Z0.0257 I0. J-0.0192
X0.7228 Y50.437 Z0.0091 I0.0192 J-0.0018
X0.6845 Y50.4407 Z-0.0074 I-0.0192 J0.0018
X0.7221 Y50.4334 Z-0.023 I0.0192 J-0.0018
X0.6852 Y50.4443 Z-0.0395 I-0.0185 J0.0054
X0.6965 Y50.421 Z-0.0473 I0.0185 J-0.0054
X0.7108 Y50.4567 Z-0.0638 I0.0072 J0.0179
X0.6866 Y50.4477 Z-0.0716 I-0.0072 J-0.0179
X0.7207 Y50.43 Z-0.0881 I0.0171 J-0.0089
X0.6866 Y50.4477 Z-0.1047 I-0.0171 J0.0089
X0.7187 Y50.4269 Z-0.1202 I0.0171 J-0.0089
X0.6886 Y50.4508 Z-0.1368 I-0.0151 J0.012
X0.6903 Y50.425 Z-0.1445 I0.0151 J-0.012
X0.717 Y50.4527 Z-0.1611 I0.0133 J0.0139
X0.6911 Y50.4535 Z-0.1689 I-0.0133 J-0.0139
X0.7162 Y50.4242 Z-0.1854 I0.0125 J-0.0146
X0.7194 Y50.4499 Z-0.1932 I-0.0125 J0.0146
X0.6879 Y50.4278 Z-0.2097 I-0.0157 J-0.0111
X0.7132 Y50.4221 Z-0.2175 I0.0157 J0.0111
X0.6941 Y50.4556 I-0.0095 J0.0167
X0.7132 Y50.4221 I0.0095 J-0.0167
X0.7168 Y50.4353 I-0.0048 J0.0084
G1 X0.7131 Y50.4417
X0.7116 Y50.4443 Z-0.2172
X0.7103 Y50.4467 Z-0.2164
X0.709 Y50.4489 Z-0.215
X0.7079 Y50.4509 Z-0.2131
X0.7069 Y50.4525 Z-0.2109
X0.7063 Y50.4537 Z-0.2083
X0.7058 Y50.4545 Z-0.2055
X0.7057 Y50.4547 Z-0.2026
G0 Z0.4
X0.8598 Y50.8102
Z0.13
G1 Z0.0649 F40.
G19 G2 Y50.7953 Z0.05 J-0.0149 K0.
G1 Y50.7879
G17 G3 X0.8727 Y50.7749 I0.0129 J0.
Y50.8267 Z0.0323 I0. J0.0259
X0.8489 Y50.8109 Z0.0257 I0. J-0.0259
X0.8966 Y50.7907 Z0.008 I0.0238 J-0.0101
X0.8914 Y50.8188 Z0.0014 I-0.0238 J0.0101
X0.8541 Y50.7828 Z-0.0164 I-0.0186 J-0.018
X0.8914 Y50.8188 Z-0.0341 I0.0186 J0.018
X0.8468 Y50.8017 Z-0.0473 I-0.0186 J-0.018
X0.8986 Y50.7999 Z-0.065 I0.0259 J-0.0009
X0.8468 Y50.8017 Z-0.0827 I-0.0259 J0.0009
X0.8986 Y50.7999 Z-0.1004 I0.0259 J-0.0009
X0.8468 Y50.8017 Z-0.1182 I-0.0259 J0.0009
X0.8483 Y50.7923 Z-0.1202 I0.0259 J-0.0009
X0.8972 Y50.8093 Z-0.1379 I0.0245 J0.0085
X0.8483 Y50.7923 Z-0.1557 I-0.0245 J-0.0085
X0.8958 Y50.7891 Z-0.1689 I0.0245 J0.0085
X0.8496 Y50.8125 Z-0.1866 I-0.0231 J0.0117
X0.8958 Y50.7891 Z-0.2043 I0.0231 J-0.0117
X0.8651 Y50.8256 Z-0.2175 I-0.0231 J0.0117
X0.8804 Y50.7761 I0.0076 J-0.0248
X0.8651 Y50.8256 I-0.0076 J0.0248
X0.8565 Y50.8094 I0.0038 J-0.0124
G1 X0.8587 Y50.8022
X0.8596 Y50.7995 Z-0.2172
X0.8604 Y50.7968 Z-0.2164
X0.8612 Y50.7943 Z-0.215
X0.8618 Y50.7922 Z-0.2131
X0.8624 Y50.7904 Z-0.2109
X0.8628 Y50.7891 Z-0.2083
X0.8631 Y50.7883 Z-0.2055
Y50.788 Z-0.2026
G0 Z0.4
X0.8678 Y51.213
Z0.13
G1 Z0.0649 F40.
G19 G2 Y51.1981 Z0.05 J-0.0149 K0.
G1 Y51.1906
G17 G3 X0.8774 Y51.181 I0.0096 J0.
Y51.2195 Z0.0335 I0. J0.0192
Y51.181 Z0.0169 I0. J-0.0192
X0.8811 Y51.2192 Z0.0014 I0. J0.0192
X0.8738 Y51.1814 Z-0.0152 I-0.0037 J-0.0189
X0.8959 Y51.1948 Z-0.023 I0.0037 J0.0189
X0.859 Y51.2057 Z-0.0395 I-0.0185 J0.0054
X0.8702 Y51.1824 Z-0.0473 I0.0185 J-0.0054
X0.8846 Y51.2181 Z-0.0638 I0.0072 J0.0179
X0.8603 Y51.2091 Z-0.0716 I-0.0072 J-0.0179
X0.8945 Y51.1914 Z-0.0881 I0.0171 J-0.0089
X0.8879 Y51.2164 Z-0.0959 I-0.0171 J0.0089
X0.867 Y51.1841 Z-0.1125 I-0.0105 J-0.0162
X0.8925 Y51.1883 Z-0.1202 I0.0105 J0.0162
X0.8623 Y51.2122 Z-0.1368 I-0.0151 J0.012
X0.8641 Y51.1864 Z-0.1445 I0.0151 J-0.012
X0.8908 Y51.2141 Z-0.1611 I0.0133 J0.0139
X0.8649 Y51.2149 Z-0.1689 I-0.0133 J-0.0139
X0.89 Y51.1857 Z-0.1854 I0.0125 J-0.0146
X0.8649 Y51.2149 Z-0.202 I-0.0125 J0.0146
X0.887 Y51.1835 Z-0.2175 I0.0125 J-0.0146
X0.8679 Y51.217 I-0.0095 J0.0167
X0.887 Y51.1835 I0.0095 J-0.0167
X0.8906 Y51.1967 I-0.0048 J0.0084
G1 X0.8869 Y51.2032
X0.8854 Y51.2057 Z-0.2172
X0.884 Y51.2081 Z-0.2164
X0.8828 Y51.2104 Z-0.215
X0.8816 Y51.2123 Z-0.2131
X0.8807 Y51.2139 Z-0.2109
X0.88 Y51.2151 Z-0.2083
X0.8796 Y51.2159 Z-0.2055
X0.8795 Y51.2161 Z-0.2026
G0 Z0.4
X0.6869 Y51.5676
Z0.13
G1 Z0.0649 F40.
G19 G2 Y51.5526 Z0.05 J-0.0149 K0.
G1 Y51.5452
G17 G3 X0.6999 Y51.5322 I0.0129 J0.
Y51.584 Z0.0323 I0. J0.0259
X0.676 Y51.5682 Z0.0257 I0. J-0.0259
X0.7237 Y51.548 Z0.008 I0.0238 J-0.0101
X0.7185 Y51.5761 Z0.0014 I-0.0238 J0.0101
X0.6813 Y51.5401 Z-0.0164 I-0.0186 J-0.018
X0.7185 Y51.5761 Z-0.0341 I0.0186 J0.018
X0.674 Y51.559 Z-0.0473 I-0.0186 J-0.018
X0.7258 Y51.5573 Z-0.065 I0.0259 J-0.0009
X0.7108 Y51.5816 Z-0.0716 I-0.0259 J0.0009
X0.689 Y51.5347 Z-0.0893 I-0.0109 J-0.0235
X0.7172 Y51.5389 Z-0.0959 I0.0109 J0.0235
X0.6825 Y51.5774 Z-0.1136 I-0.0174 J0.0192
X0.6754 Y51.5497 Z-0.1202 I0.0174 J-0.0192
X0.7244 Y51.5666 Z-0.1379 I0.0245 J0.0085
X0.6754 Y51.5497 Z-0.1557 I-0.0245 J-0.0085
X0.723 Y51.5464 Z-0.1689 I0.0245 J0.0085
X0.6768 Y51.5699 Z-0.1866 I-0.0231 J0.0117
X0.6801 Y51.5414 Z-0.1932 I0.0231 J-0.0117
X0.7197 Y51.5748 Z-0.2109 I0.0198 J0.0167
X0.6922 Y51.5829 Z-0.2175 I-0.0198 J-0.0167
X0.7075 Y51.5334 I0.0076 J-0.0247
X0.6922 Y51.5829 I-0.0076 J0.0247
X0.6837 Y51.5667 I0.0038 J-0.0124
G1 X0.6859 Y51.5596
X0.6867 Y51.5568 Z-0.2172
X0.6876 Y51.5541 Z-0.2164
X0.6883 Y51.5516 Z-0.215
X0.689 Y51.5495 Z-0.2131
X0.6895 Y51.5477 Z-0.2109
X0.6899 Y51.5464 Z-0.2083
X0.6902 Y51.5456 Z-0.2055
X0.6903 Y51.5453 Z-0.2026
G0 Z0.4
X0.4001 Y51.7981
Z0.13
G1 Z0.0649 F40.
G19 G3 Y51.813 Z0.05 J0.0149 K0.
G1 Y51.8205
G17 G3 X0.3905 Y51.8301 I-0.0096 J0.
Y51.7916 Z0.0335 I0. J-0.0193
X0.4097 Y51.809 Z0.0257 I0. J0.0193
X0.3713 Y51.8127 Z0.0091 I-0.0192 J0.0018
X0.3868 Y51.792 Z0.0014 I0.0192 J-0.0018
X0.3942 Y51.8298 Z-0.0152 I0.0037 J0.0189
X0.372 Y51.8163 Z-0.023 I-0.0037 J-0.0189
X0.409 Y51.8054 Z-0.0395 I0.0185 J-0.0055
X0.372 Y51.8163 Z-0.0561 I-0.0185 J0.0055
X0.4076 Y51.802 Z-0.0716 I0.0185 J-0.0055
X0.3734 Y51.8197 Z-0.0881 I-0.0171 J0.0089
X0.38 Y51.7947 Z-0.0959 I0.0171 J-0.0089
X0.401 Y51.827 Z-0.1125 I0.0105 J0.0162
X0.3754 Y51.8228 Z-0.1202 I-0.0105 J-0.0162
X0.4056 Y51.7989 Z-0.1368 I0.0151 J-0.012
X0.4038 Y51.8247 Z-0.1445 I-0.0151 J0.012
X0.3772 Y51.797 Z-0.1611 I-0.0133 J-0.0139
X0.4038 Y51.8247 Z-0.1776 I0.0133 J0.0139
X0.3772 Y51.797 Z-0.1942 I-0.0133 J-0.0139
X0.4038 Y51.8247 Z-0.2107 I0.0133 J0.0139
X0.381 Y51.8276 Z-0.2175 I-0.0133 J-0.0139
X0.4 Y51.7941 I0.0095 J-0.0167
X0.381 Y51.8276 I-0.0095 J0.0167
X0.3774 Y51.8145 I0.0048 J-0.0084
G1 X0.3811 Y51.808
X0.3825 Y51.8055 Z-0.2172
X0.3839 Y51.803 Z-0.2164
X0.3852 Y51.8008 Z-0.215
X0.3863 Y51.7988 Z-0.2131
X0.3872 Y51.7972 Z-0.2109
X0.3879 Y51.796 Z-0.2083
X0.3883 Y51.7953 Z-0.2055
X0.3884 Y51.795 Z-0.2026
G0 Z0.4
X0.0129 Y51.8857
Z0.13
G1 Z0.0649 F40.
G19 G3 Y51.9007 Z0.05 J0.0149 K0.
G1 Y51.9081
G17 G3 X0. Y51.9211 I-0.0129 J0.
Y51.8693 Z0.0323 I0. J-0.0259
X0.0238 Y51.8851 Z0.0257 I0. J0.0259
X-0.0238 Y51.9053 Z0.008 I-0.0238 J0.0101
X-0.0186 Y51.8772 Z0.0014 I0.0238 J-0.0101
X0.0186 Y51.9132 Z-0.0164 I0.0186 J0.018
X-0.0186 Y51.8772 Z-0.0341 I-0.0186 J-0.018
X0.0259 Y51.8943 Z-0.0473 I0.0186 J0.018
X-0.0259 Y51.8961 Z-0.065 I-0.0259 J0.0009
X-0.0109 Y51.8717 Z-0.0716 I0.0259 J-0.0009
X0.0109 Y51.9187 Z-0.0893 I0.0109 J0.0235
X-0.0174 Y51.9144 Z-0.0959 I-0.0109 J-0.0235
X0.0174 Y51.8759 Z-0.1136 I0.0174 J-0.0192
X0.0245 Y51.9036 Z-0.1202 I-0.0174 J0.0192
X-0.0245 Y51.8867 Z-0.1379 I-0.0245 J-0.0085
X0.0245 Y51.9036 Z-0.1557 I0.0245 J0.0085
X-0.0231 Y51.9069 Z-0.1689 I-0.0245 J-0.0085
X0.0231 Y51.8835 Z-0.1866 I0.0231 J-0.0117
X0.0198 Y51.9119 Z-0.1932 I-0.0231 J0.0117
X-0.0198 Y51.8785 Z-0.2109 I-0.0198 J-0.0167
X0.0076 Y51.8704 Z-0.2175 I0.0198 J0.0167
X-0.0076 Y51.9199 I-0.0076 J0.0248
X0.0076 Y51.8704 I0.0076 J-0.0248
X0.0162 Y51.8866 I-0.0038 J0.0124
G1 X0.014 Y51.8937
X0.0131 Y51.8965 Z-0.2172
X0.0123 Y51.8992 Z-0.2164
X0.0116 Y51.9017 Z-0.215
X0.0109 Y51.9038 Z-0.2131
X0.0103 Y51.9056 Z-0.2109
X0.0099 Y51.9069 Z-0.2083
X0.0097 Y51.9077 Z-0.2055
X0.0096 Y51.908 Z-0.2026
G0 Z0.4
X-0.3809 Y51.7981
Z0.13
G1 Z0.0649 F40.
G19 G3 Y51.813 Z0.05 J0.0149 K0.
G1 Y51.8205
G17 G3 X-0.3905 Y51.8301 I-0.0096 J0.
Y51.7916 Z0.0335 I0. J-0.0193
X-0.3713 Y51.809 Z0.0257 I0. J0.0193
X-0.4097 Y51.8127 Z0.0091 I-0.0192 J0.0018
X-0.3942 Y51.792 Z0.0014 I0.0192 J-0.0018
X-0.3868 Y51.8298 Z-0.0152 I0.0037 J0.0189
X-0.409 Y51.8163 Z-0.023 I-0.0037 J-0.0189
X-0.372 Y51.8054 Z-0.0395 I0.0185 J-0.0055
X-0.409 Y51.8163 Z-0.0561 I-0.0185 J0.0055
X-0.3734 Y51.802 Z-0.0716 I0.0185 J-0.0055
X-0.4076 Y51.8197 Z-0.0881 I-0.0171 J0.0089
X-0.401 Y51.7947 Z-0.0959 I0.0171 J-0.0089
X-0.38 Y51.827 Z-0.1125 I0.0105 J0.0162
X-0.4056 Y51.8228 Z-0.1202 I-0.0105 J-0.0162
X-0.3754 Y51.7989 Z-0.1368 I0.0151 J-0.012
X-0.3772 Y51.8247 Z-0.1445 I-0.0151 J0.012
X-0.4038 Y51.797 Z-0.1611 I-0.0133 J-0.0139
X-0.3772 Y51.8247 Z-0.1776 I0.0133 J0.0139
X-0.4038 Y51.797 Z-0.1942 I-0.0133 J-0.0139
X-0.3772 Y51.8247 Z-0.2107 I0.0133 J0.0139
X-0.4 Y51.8276 Z-0.2175 I-0.0133 J-0.0139
X-0.381 Y51.7941 I0.0095 J-0.0167
X-0.4 Y51.8276 I-0.0095 J0.0167
X-0.4036 Y51.8145 I0.0048 J-0.0084
G1 X-0.3999 Y51.808
X-0.3985 Y51.8055 Z-0.2172
X-0.3971 Y51.803 Z-0.2164
X-0.3958 Y51.8008 Z-0.215
X-0.3947 Y51.7988 Z-0.2131
X-0.3938 Y51.7972 Z-0.2109
X-0.3931 Y51.796 Z-0.2083
X-0.3927 Y51.7953 Z-0.2055
X-0.3925 Y51.795 Z-0.2026
G0 Z0.4
X-0.7128 Y51.5676
Z0.13
G1 Z0.0649 F40.
G19 G2 Y51.5526 Z0.05 J-0.0149 K0.
G1 Y51.5452
G17 G3 X-0.6999 Y51.5322 I0.0129 J0.
Y51.584 Z0.0323 I0. J0.0259
X-0.7237 Y51.5682 Z0.0257 I0. J-0.0259
X-0.676 Y51.548 Z0.008 I0.0238 J-0.0101
X-0.6813 Y51.5761 Z0.0014 I-0.0238 J0.0101
X-0.7185 Y51.5401 Z-0.0164 I-0.0186 J-0.018
X-0.6813 Y51.5761 Z-0.0341 I0.0186 J0.018
X-0.7258 Y51.559 Z-0.0473 I-0.0186 J-0.018
X-0.674 Y51.5573 Z-0.065 I0.0259 J-0.0009
X-0.689 Y51.5816 Z-0.0716 I-0.0259 J0.0009
X-0.7108 Y51.5347 Z-0.0893 I-0.0109 J-0.0235
X-0.6825 Y51.5389 Z-0.0959 I0.0109 J0.0235
X-0.7172 Y51.5774 Z-0.1136 I-0.0174 J0.0192
X-0.7244 Y51.5497 Z-0.1202 I0.0174 J-0.0192
X-0.6754 Y51.5666 Z-0.1379 I0.0245 J0.0085
X-0.7244 Y51.5497 Z-0.1557 I-0.0245 J-0.0085
X-0.6768 Y51.5464 Z-0.1689 I0.0245 J0.0085
X-0.723 Y51.5699 Z-0.1866 I-0.0231 J0.0117
X-0.7197 Y51.5414 Z-0.1932 I0.0231 J-0.0117
X-0.6801 Y51.5748 Z-0.2109 I0.0198 J0.0167
X-0.7075 Y51.5829 Z-0.2175 I-0.0198 J-0.0167
X-0.6922 Y51.5334 I0.0076 J-0.0247
X-0.7075 Y51.5829 I-0.0076 J0.0247
X-0.7161 Y51.5667 I0.0038 J-0.0124
G1 X-0.7139 Y51.5596
X-0.713 Y51.5568 Z-0.2172
X-0.7122 Y51.5541 Z-0.2164
X-0.7114 Y51.5516 Z-0.215
X-0.7108 Y51.5495 Z-0.2131
X-0.7102 Y51.5477 Z-0.2109
X-0.7098 Y51.5464 Z-0.2083
X-0.7096 Y51.5456 Z-0.2055
X-0.7095 Y51.5453 Z-0.2026
G0 Z0.4
X-0.8871 Y51.213
Z0.13
G1 Z0.0649 F40.
G19 G2 Y51.1981 Z0.05 J-0.0149 K0.
G1 Y51.1906
G17 G3 X-0.8774 Y51.181 I0.0096 J0.
Y51.2195 Z0.0335 I0. J0.0192
Y51.181 Z0.0169 I0. J-0.0192
X-0.8738 Y51.2192 Z0.0014 I0. J0.0192
X-0.8811 Y51.1814 Z-0.0152 I-0.0037 J-0.0189
X-0.859 Y51.1948 Z-0.023 I0.0037 J0.0189
X-0.8959 Y51.2057 Z-0.0395 I-0.0185 J0.0054
X-0.8846 Y51.1824 Z-0.0473 I0.0185 J-0.0054
X-0.8702 Y51.2181 Z-0.0638 I0.0072 J0.0179
X-0.8945 Y51.2091 Z-0.0716 I-0.0072 J-0.0179
X-0.8603 Y51.1914 Z-0.0881 I0.0171 J-0.0089
X-0.867 Y51.2164 Z-0.0959 I-0.0171 J0.0089
X-0.8879 Y51.1841 Z-0.1125 I-0.0105 J-0.0162
X-0.8623 Y51.1883 Z-0.1202 I0.0105 J0.0162
X-0.8925 Y51.2122 Z-0.1368 I-0.0151 J0.012
X-0.8623 Y51.1883 Z-0.1533 I0.0151 J-0.012
X-0.8925 Y51.2122 Z-0.1699 I-0.0151 J0.012
X-0.8623 Y51.1883 Z-0.1864 I0.0151 J-0.012
X-0.8925 Y51.2122 Z-0.203 I-0.0151 J0.012
X-0.8679 Y51.1835 Z-0.2175 I0.0151 J-0.012
X-0.887 Y51.217 I-0.0095 J0.0167
X-0.8679 Y51.1835 I0.0095 J-0.0167
X-0.8643 Y51.1967 I-0.0048 J0.0084
G1 X-0.868 Y51.2032
X-0.8694 Y51.2057 Z-0.2172
X-0.8708 Y51.2081 Z-0.2164
X-0.8721 Y51.2104 Z-0.215
X-0.8732 Y51.2123 Z-0.2131
X-0.8741 Y51.2139 Z-0.2109
X-0.8748 Y51.2151 Z-0.2083
X-0.8752 Y51.2159 Z-0.2055
X-0.8754 Y51.2161 Z-0.2026
G0 Z0.6
(.3 CIRCULAR THROUGH HOLE)
M7
G0 X-0.0145 Y50.9556
Z0.6
Z0.2
G1 Z0.1144 F13.333
G3 X-0.0131 Y50.9558 Z0.1081 I-0.0057 J0.0446 F55.
X-0.0092 Y50.9565 Z0.103 I-0.007 J0.0444
X-0.0038 Y50.9583 Z0.1 I-0.0109 J0.0437
X0.0249 Y51.0002 Z0.0855 I-0.0164 J0.0419
X-0.0471 Y51.0362 Z0.0588 I-0.045 J0.
Y50.9642 Z0.0365 I0.027 J-0.036
X0.0069 Y51.0362 Z-0.0014 I0.027 J0.036
X-0.0471 Z-0.0169 I-0.027 J-0.036
Y50.9642 Z-0.0393 I0.027 J-0.036
X0.0069 Y51.0362 Z-0.0772 I0.027 J0.036
X-0.0471 Z-0.0927 I-0.027 J-0.036
Y50.9642 Z-0.115 I0.027 J-0.036
X0.0069 Y51.0362 Z-0.1529 I0.027 J0.036
X-0.0471 Z-0.1684 I-0.027 J-0.036
Y50.9642 Z-0.1908 I0.027 J-0.036
X0.0249 Y51.0002 Z-0.2175 I0.027 J0.036
X-0.0249 I-0.0249 J0. F60.
X0.1249 I0.0749 J0.
X-0.1249 I-0.1249 J0.
X0.2249 I0.1749 J0.
X-0.2249 I-0.2249 J0.
X0.3249 I0.2749 J0.
X-0.3249 I-0.3249 J0.
X0.4249 I0.3749 J0.
X-0.4249 I-0.4249 J0.
X0.5249 I0.4749 J0.
X-0.5249 I-0.5249 J0.
X0.5249 I0.5249 J0.
G2 X0.5696 Y51.0706 I0.0779 J0.
G3 X0.6056 Y51.1458 I-0.0282 J0.0598
X0. Y51.6233 I-0.6058 J-0.1456
Y50.3771 I0.0002 J-0.6231
X0.6056 Y51.1458 I-0.0002 J0.6231
G2 X0.6087 Y51.1543 I0.0079 J0.0019
G3 X0.6117 Y51.1627 I-0.0047 J0.0064
X0. Y51.6333 I-0.6119 J-0.1625
Y50.3671 I0.0002 J-0.6331
X0.6117 Y51.1627 I-0.0002 J0.6331
X0.6092 Y51.1678 Z-0.2164 I-0.0144 J-0.0038
X0.6057 Y51.1712 Z-0.2131 I-0.0119 J-0.0089
X0.6029 Y51.1727 Z-0.2083 I-0.0085 J-0.0123
X0.6018 Y51.1731 Z-0.2026 I-0.0056 J-0.0138
G0 Z0.6
(SHAPE POCKET)
M7
G0 X1.4193 Y51.4224
Z0.6
Z-0.0002
G1 Z-0.0151 F50.
X1.4192 Y51.4221 Z-0.018
X1.419 Y51.4213 Z-0.0208
X1.4186 Y51.4199 Z-0.0234
X1.4182 Y51.4181 Z-0.0256
X1.4176 Y51.416 Z-0.0275
X1.417 Y51.4135 Z-0.0289
X1.4163 Y51.4107 Z-0.0297
X1.4156 Y51.4079 Z-0.03
G3 X1.4039 Y51.3267 I0.369 J-0.0945
X1.6011 Y51.2348 I0.141 J0.0449 F60.
G1 X1.6001 Y51.2409
G3 X1.576 Y51.2498 I-0.0147 J-0.0027
G1 X1.5737 Y51.2479 Z-0.0297
X1.5715 Y51.2462 Z-0.0289
X1.5695 Y51.2445 Z-0.0275
X1.5678 Y51.2431 Z-0.0256
X1.5663 Y51.2419 Z-0.0234
X1.5653 Y51.2411 Z-0.0208
X1.5646 Y51.2405 Z-0.018
X1.5644 Y51.2403 Z-0.0151
G0 Z0.4
X1.2595 Y51.4342
Z-0.0002
G1 Z-0.0151 F50.
X1.2594 Y51.4339 Z-0.018
X1.2592 Y51.4331 Z-0.0208
X1.2588 Y51.4318 Z-0.0234
X1.2583 Y51.43 Z-0.0256
X1.2577 Y51.4278 Z-0.0275
X1.2569 Y51.4254 Z-0.0289
X1.2561 Y51.4227 Z-0.0297
X1.2553 Y51.4199 Z-0.03
G3 X1.2526 Y51.3379 I0.1587 J-0.0464
G1 X1.2538 Y51.3332 F60.
X1.2591 Y51.3101
G3 X1.6105 Y51.1469 I0.2843 J0.1523
G1 X1.6027 Y51.2178
X1.6006 Y51.2359
G3 X1.5913 Y51.2476 I-0.0148 J-0.0022
X1.5534 Y51.2156 I-0.0103 J-0.0262
X1.5877 Y51.1656 I0.0771 J0.0161
X1.6013 Y51.1586 I0.0428 J0.0661 F50.
G2 X1.6105 Y51.1469 I-0.0055 J-0.0139
G1 X1.6122 Y51.1313 F60.
X1.6087 Y51.1231
X1.6047 Y51.115
X1.6001 Y51.1073
X1.5949 Y51.0999
X1.5894 Y51.0929
X1.5833 Y51.0862
X1.5768 Y51.08
X1.5699 Y51.0742
X1.5626 Y51.0689
X1.555 Y51.0641
X1.5471 Y51.0599
X1.5389 Y51.0561
X1.5305 Y51.053
X1.5219 Y51.0504
X1.5132 Y51.0484
X1.5043 Y51.0469
X1.4953 Y51.0461
X1.4864 Y51.0459
X1.4774 Y51.0463
X1.4684 Y51.0473
X1.4596 Y51.0489
X1.4509 Y51.0511
X1.4423 Y51.0539
X1.434 Y51.0572
X1.4259 Y51.0611
X1.4181 Y51.0655
X1.4106 Y51.0705
X1.4034 Y51.0759
X1.3967 Y51.0818
G2 X1.2881 Y51.1403 I-0.0112 J0.1091
G3 X1.2591 Y51.3101 I-0.8761 J-0.0624
G2 X1.2643 Y51.3241 I0.0147 J0.0025
X1.3301 Y51.3129 I0.0281 J-0.0339
X1.3069 Y51.163 I-0.1011 J-0.0611
X1.2947 Y51.1537 I-0.0779 J0.0888 F50.
G3 X1.2881 Y51.1403 I0.0083 J-0.0124
G1 X1.2932 Y51.0898 F60.
G3 X1.6176 Y50.9949 I0.2024 J0.09
X1.6122 Y51.1313 I-1.7873 J-0.0014
X1.603 Y51.143 I-0.0148 J-0.0022
X1.548 Y51.1026 I-0.0149 J-0.0374
X1.5968 Y51.0157 I0.1178 J0.0089
X1.6097 Y51.0075 I0.069 J0.0959 F50.
G2 X1.6176 Y50.9949 I-0.0071 J-0.0131
G1 X1.6175 Y50.9871 F60.
X1.6167 Y50.964
X1.6118 Y50.9546
X1.6064 Y50.9455
X1.6005 Y50.9367
X1.594 Y50.9283
X1.5871 Y50.9203
X1.5797 Y50.9127
X1.5719 Y50.9056
X1.5637 Y50.8989
X1.5551 Y50.8927
X1.5461 Y50.887
X1.5369 Y50.8819
X1.5273 Y50.8773
X1.5175 Y50.8733
X1.5075 Y50.8699
X1.4973 Y50.867
X1.4869 Y50.8648
X1.4765 Y50.8631
X1.4659 Y50.8621
X1.4553 Y50.8617
X1.4448 Y50.862
X1.4342 Y50.8628
X1.4237 Y50.8643
X1.4133 Y50.8663
X1.4031 Y50.869
X1.393 Y50.8723
X1.3832 Y50.8761
X1.3735 Y50.8806
X1.3642 Y50.8856
X1.3552 Y50.8911
X1.3465 Y50.8971
X1.3381 Y50.9037
X1.3302 Y50.9107
X1.3227 Y50.9181
X1.2984 Y50.923
X1.2964 Y50.9249
X1.2952 Y50.9274
X1.2949 Y50.9301
X1.2957 Y50.9409
X1.2958 Y51.0563
X1.2943 Y51.0794
X1.2932 Y51.0898
G2 X1.2998 Y51.1031 I0.0149 J0.001
X1.3707 Y51.0743 I0.0257 J-0.0384
X1.3172 Y50.9494 I-0.1156 J-0.0244
X1.3036 Y50.9422 I-0.062 J0.1005 F50.
G3 X1.2949 Y50.9301 I0.0061 J-0.0136
G1 X1.2941 Y50.9179 F60.
X1.2917 Y50.8948
G3 X1.5332 Y50.7739 I0.179 J0.056
X1.605 Y50.8034 I-0.0188 J0.1477
G1 X1.6126 Y50.8717
X1.6141 Y50.8948
X1.6167 Y50.964
G3 X1.6093 Y50.9769 I-0.0149 J0.
X1.5557 Y50.9586 I-0.0188 J-0.0324
X1.5865 Y50.8263 I0.1095 J-0.0442
X1.5986 Y50.8169 I0.0787 J0.0881 F50.
G2 X1.605 Y50.8034 I-0.0084 J-0.0123
G1 X1.6024 Y50.7794 F60.
X1.6002 Y50.761
X1.5718 Y50.7733
X1.3201 Y50.8825
X1.2917 Y50.8948 F50.
G2 X1.2606 Y50.6975 I-1.0021 J0.0573 F60.
G3 X1.2801 Y50.6809 I0.0147 J-0.0025
G1 X1.2829 Y50.6818 Z-0.0297
X1.2855 Y50.6828 Z-0.0289
X1.288 Y50.6836 Z-0.0275
X1.2901 Y50.6843 Z-0.0256
X1.2919 Y50.6849 Z-0.0234
X1.2932 Y50.6854 Z-0.0208
X1.294 Y50.6857 Z-0.018
X1.2942 Y50.6858 Z-0.0151
G0 Z0.6
X-0.4216 Y49.6109
Z-0.0002
G1 Z-0.0151 F50.
X-0.4213 Y49.6108 Z-0.018
X-0.4205 Y49.6106 Z-0.0208
X-0.4192 Y49.6102 Z-0.0234
X-0.4174 Y49.6098 Z-0.0256
X-0.4152 Y49.6092 Z-0.0275
X-0.4127 Y49.6086 Z-0.0289
X-0.41 Y49.6079 Z-0.0297
X-0.4072 Y49.6072 Z-0.03
G3 X-0.3259 Y49.5955 I0.0945 J0.369
X-0.2451 Y49.7286 I-0.0147 J0.1 F60.
G1 X-0.3006 Y49.7388
G3 X-0.3055 Y49.7093 I-0.0024 J-0.0147
X-0.3006 Y49.7388 I0.0024 J0.0147
X-0.3172 Y49.7287 I-0.0024 J-0.0147
G1 X-0.4043 Y49.4629
G3 X-0.3995 Y49.4467 I0.0142 J-0.0046
X-0.3548 Y49.4207 I0.1044 J0.1283
X-0.325 Y49.4123 I0.0596 J0.1542 F50.
G1 X-0.304 Y49.4092 F60.
X-0.2918 Y49.4204
X-0.2799 Y49.4321
X-0.2685 Y49.4442
X-0.2576 Y49.4567
X-0.2471 Y49.4696
X-0.237 Y49.4828
X-0.2275 Y49.4964
X-0.2184 Y49.5103
X-0.2098 Y49.5245
X-0.2017 Y49.539
X-0.1942 Y49.5538
X-0.1872 Y49.5689
X-0.1807 Y49.5842
X-0.1748 Y49.5997
X-0.1694 Y49.6154
X-0.1646 Y49.6313
X-0.1603 Y49.6474
X-0.1566 Y49.6636
X-0.1535 Y49.6799
X-0.151 Y49.6963
X-0.1491 Y49.7128
G2 X-0.2469 Y49.728 I0.0337 J0.5413
G3 X-0.2609 Y49.7227 I-0.0024 J-0.0147
X-0.2389 Y49.6723 I0.0238 J-0.0196
X-0.1786 Y49.6951 I0.0048 J0.0786
X-0.1688 Y49.7069 I-0.0555 J0.0558 F50.
G2 X-0.1554 Y49.7135 I0.0124 J-0.0083
G1 X-0.1405 Y49.7119 F60.
X-0.133 Y49.707
X-0.1259 Y49.7016
X-0.1192 Y49.6957
X-0.1129 Y49.6894
X-0.1071 Y49.6826
X-0.1017 Y49.6755
X-0.0968 Y49.668
X-0.0924 Y49.6602
X-0.0886 Y49.6522
X-0.0853 Y49.6439
X-0.0827 Y49.6354
X-0.0805 Y49.6267
X-0.079 Y49.6179
X-0.0781 Y49.609
X-0.0778 Y49.6001
X-0.0781 Y49.5912
X-0.079 Y49.5823
X-0.0805 Y49.5735
X-0.0826 Y49.5648
X-0.0853 Y49.5563
X-0.0886 Y49.548
X-0.0924 Y49.54
X-0.0967 Y49.5322
X-0.1016 Y49.5247
X-0.107 Y49.5176
X-0.1128 Y49.5108
X-0.1191 Y49.5045
X-0.1258 Y49.4986
X-0.1329 Y49.4932
G2 X-0.1823 Y49.3938 I-0.1642 J0.0196
G1 X-0.185 Y49.3936
X-0.2188 Y49.3973
X-0.2398 Y49.3998
G2 X-0.2514 Y49.409 I0.0022 J0.0148
X-0.2422 Y49.4266 I0.0122 J0.0048
X-0.205 Y49.4156 I0.0089 J-0.0383
X-0.1967 Y49.4028 I-0.0283 J-0.0274 F50.
G3 X-0.185 Y49.3936 I0.0139 J0.0055
G1 X-0.1497 Y49.3897 F60.
X-0.1386 Y49.393
X-0.1277 Y49.3969
X-0.117 Y49.4014
X-0.1065 Y49.4065
X-0.0963 Y49.412
X-0.0864 Y49.4181
X-0.0769 Y49.4247
X-0.0677 Y49.4318
X-0.0589 Y49.4394
X-0.0505 Y49.4474
X-0.0425 Y49.4558
X-0.035 Y49.4647
X-0.028 Y49.4739
X-0.0214 Y49.4835
X-0.0154 Y49.4934
X-0.0099 Y49.5036
X-0.0049 Y49.5141
X-0.0005 Y49.5248
X0.0034 Y49.5358
X0.0066 Y49.5469
X0.0093 Y49.5582
X0.0114 Y49.5696
X0.0129 Y49.5811
X0.0138 Y49.5927
X0.0141 Y49.6043
X0.0138 Y49.6159
X0.0128 Y49.6275
X0.0113 Y49.639
X0.0092 Y49.6504
X0.0065 Y49.6617
X0.0032 Y49.6728
X-0.0007 Y49.6837
X-0.0052 Y49.6945
X-0.0102 Y49.7049
X-0.0576 Y49.7041
X-0.0806 Y49.7057
X-0.1405 Y49.7119
G3 X-0.1539 Y49.7054 I-0.001 J-0.0149
X-0.152 Y49.6801 I0.017 J-0.0115
X-0.0329 Y49.6835 I0.0581 J0.0532
X-0.0244 Y49.6962 I-0.061 J0.0498 F50.
G2 X-0.0118 Y49.7041 I0.0132 J-0.007
G1 X0.0115 F60.
X0.0201 Y49.7002
X0.0285 Y49.6957
X0.0365 Y49.6908
X0.0443 Y49.6853
X0.0516 Y49.6794
X0.0586 Y49.673
X0.0652 Y49.6662
X0.0713 Y49.659
X0.077 Y49.6514
X0.0822 Y49.6435
X0.0869 Y49.6353
X0.091 Y49.6268
X0.0947 Y49.618
X0.0977 Y49.6091
X0.1002 Y49.6
X0.1021 Y49.5907
X0.1035 Y49.5813
X0.1042 Y49.5719
X0.1043 Y49.5624
X0.1039 Y49.553
X0.1029 Y49.5436
X0.1012 Y49.5343
X0.099 Y49.5251
X0.0963 Y49.516
X0.0929 Y49.5072
X0.0891 Y49.4985
X0.0846 Y49.4902
X0.0797 Y49.4821
X0.0743 Y49.4743
X0.0684 Y49.4669
X0.062 Y49.4599
G2 X0.0184 Y49.3828 I-0.0735 J-0.0093
X-0.1497 Y49.3896 I-0.0295 J1.3618
G1 X-0.1523 Y49.3902
X-0.1547 Y49.3912
X-0.1568 Y49.3927
X-0.1587 Y49.3945
X-0.1603 Y49.3966
X-0.1614 Y49.3989
G2 X-0.1454 Y49.4388 I0.0289 J0.0115
X-0.003 Y49.403 I0.0486 J-0.1076
X0.0055 Y49.3903 I-0.0937 J-0.0718 F50.
G3 X0.0184 Y49.3828 I0.0129 J0.0075
G1 X0.0703 Y49.3846 F60.
X0.0807 Y49.3895
X0.0908 Y49.3949
X0.1007 Y49.4009
X0.1102 Y49.4074
X0.1193 Y49.4144
X0.128 Y49.4219
X0.1363 Y49.4299
X0.1442 Y49.4383
X0.1516 Y49.4471
X0.1585 Y49.4563
X0.1648 Y49.4659
X0.1707 Y49.4758
X0.176 Y49.486
X0.1807 Y49.4965
X0.1849 Y49.5072
X0.1884 Y49.5182
X0.1914 Y49.5293
X0.1937 Y49.5406
X0.1954 Y49.5519
X0.1965 Y49.5634
X0.197 Y49.5749
X0.1969 Y49.5864
X0.1961 Y49.5979
X0.1947 Y49.6093
X0.1926 Y49.6206
X0.19 Y49.6318
X0.1867 Y49.6428
X0.1829 Y49.6537
X0.1784 Y49.6643
X0.1734 Y49.6747
X0.1678 Y49.6847
X0.1617 Y49.6945
X0.1551 Y49.7039
X0.1479 Y49.7129
X0.0806 Y49.7057
X0.0576 Y49.7041
X0.0115
G3 X0.0019 Y49.6783 I0.0005 J-0.0149
X0.0538 Y49.6604 I0.0461 J0.0494
X0.125 Y49.6925 I-0.0103 J0.1177
X0.1378 Y49.7069 I-0.0815 J0.0855 F50.
G2 X0.1477 Y49.7126 I0.0119 J-0.009
G3 X0.3006 Y49.7388 I-0.0655 J0.8439 F60.
G2 X0.3185 Y49.7242 I0.0029 J-0.0146
G1 X0.3183 Y49.7219
X0.3178 Y49.7197
G2 X0.3035 Y49.7092 I-0.0142 J0.0045
Y49.7391 I0. J0.0149
X0.3183 Y49.7261 I0. J-0.0149
G1 X0.3563 Y49.4346
G2 X0.3533 Y49.4235 I-0.0148 J-0.0019
X0.3473 Y49.4189 I-0.0118 J0.0091 F50.
X0.325 Y49.4123 I-0.0417 J0.0993
X0.0703 Y49.3846 I-0.2978 J1.554 F60.
X0.0572 Y49.3923 I0. J0.0149
G1 X0.0558 Y49.3949 Z-0.0297
X0.0544 Y49.3974 Z-0.0289
X0.0532 Y49.3996 Z-0.0275
X0.0521 Y49.4016 Z-0.0256
X0.0512 Y49.4032 Z-0.0234
X0.0505 Y49.4044 Z-0.0208
X0.0501 Y49.4052 Z-0.018
X0.05 Y49.4054 Z-0.0151
G0 Z0.6
X-1.3885 Y51.4224
Z-0.0002
G1 Z-0.0151 F50.
X-1.3886 Y51.4221 Z-0.018
X-1.3888 Y51.4213 Z-0.0208
X-1.3891 Y51.4199 Z-0.0234
X-1.3896 Y51.4181 Z-0.0256
X-1.3902 Y51.416 Z-0.0275
X-1.3908 Y51.4135 Z-0.0289
X-1.3915 Y51.4107 Z-0.0297
X-1.3922 Y51.4079 Z-0.03
G3 X-1.4039 Y51.3267 I0.369 J-0.0945
X-1.2714 Y51.2455 I0.0992 J0.0132 F60.
G1 X-1.2606 Y51.3029
G3 X-1.29 Y51.3078 I-0.0147 J0.0025
X-1.2606 Y51.3029 I0.0147 J-0.0025
X-1.2708 Y51.3196 I-0.0147 J0.0025
G1 X-1.537 Y51.4049
G3 X-1.5531 Y51.4001 I-0.0046 J-0.0142
X-1.5791 Y51.3553 I0.1282 J-0.1044
X-1.5875 Y51.3256 I0.1542 J-0.0596 F50.
G1 X-1.5908 Y51.3031 F60.
X-1.5795 Y51.291
X-1.5678 Y51.2793
X-1.5556 Y51.2681
X-1.5431 Y51.2572
X-1.5302 Y51.2468
X-1.5169 Y51.2369
X-1.5033 Y51.2274
X-1.4894 Y51.2184
X-1.4752 Y51.2099
X-1.4606 Y51.2019
X-1.4459 Y51.1944
X-1.4308 Y51.1875
X-1.4156 Y51.181
X-1.4001 Y51.1751
X-1.3844 Y51.1697
X-1.3685 Y51.1649
X-1.3525 Y51.1607
X-1.3364 Y51.157
X-1.3201 Y51.1538
X-1.3037 Y51.1513
X-1.2873 Y51.1493
G2 X-1.272 Y51.2471 I0.515 J-0.0303
G3 X-1.2842 Y51.2643 I-0.0147 J0.0025
X-1.2997 Y51.2569 I-0.0025 J-0.0147
X-1.3011 Y51.1822 I0.0686 J-0.0386
X-1.2903 Y51.1664 I0.07 J0.0361 F50.
G2 X-1.2866 Y51.1556 I-0.0112 J-0.0098
G1 X-1.2881 Y51.1404 F60.
X-1.2931 Y51.133
X-1.2985 Y51.1259
X-1.3044 Y51.1192
X-1.3108 Y51.1129
X-1.3176 Y51.1071
X-1.3247 Y51.1017
X-1.3322 Y51.0969
X-1.34 Y51.0925
X-1.3481 Y51.0887
X-1.3564 Y51.0855
X-1.3649 Y51.0828
X-1.3736 Y51.0807
X-1.3824 Y51.0792
X-1.3913 Y51.0783
X-1.4002 Y51.0781
X-1.4091 Y51.0784
X-1.418 Y51.0793
X-1.4268 Y51.0809
X-1.4355 Y51.083
X-1.444 Y51.0857
X-1.4523 Y51.089
X-1.4604 Y51.0928
X-1.4681 Y51.0972
X-1.4756 Y51.1021
X-1.4827 Y51.1075
X-1.4894 Y51.1133
X-1.4958 Y51.1196
X-1.5016 Y51.1263
X-1.507 Y51.1335
G2 X-1.6062 Y51.1819 I0.016 J0.1584
G1 X-1.6064 Y51.1847
X-1.6027 Y51.2178
X-1.6001 Y51.2409
G2 X-1.5904 Y51.2522 I0.0147 J-0.0027
X-1.5739 Y51.2437 I0.0043 J-0.012
X-1.5843 Y51.2046 I-0.0379 J-0.0108
X-1.5971 Y51.1964 I-0.0274 J0.0283 F50.
G3 X-1.6064 Y51.1847 I0.0055 J-0.0139
G1 X-1.6103 Y51.1486 F60.
X-1.6069 Y51.1375
X-1.6029 Y51.1267
X-1.5983 Y51.1161
X-1.5932 Y51.1057
X-1.5876 Y51.0956
X-1.5814 Y51.0858
X-1.5747 Y51.0763
X-1.5676 Y51.0672
X-1.56 Y51.0585
X-1.552 Y51.0501
X-1.5435 Y51.0423
X-1.5346 Y51.0348
X-1.5254 Y51.0278
X-1.5158 Y51.0214
X-1.5059 Y51.0154
X-1.4957 Y51.0099
X-1.4852 Y51.005
X-1.4745 Y51.0006
X-1.4636 Y50.9968
X-1.4524 Y50.9936
X-1.4412 Y50.991
X-1.4298 Y50.9889
X-1.4183 Y50.9874
X-1.4068 Y50.9865
X-1.3952 Y50.9863
X-1.3836 Y50.9866
X-1.3721 Y50.9875
X-1.3606 Y50.989
X-1.3493 Y50.9912
X-1.338 Y50.9939
X-1.3269 Y50.9971
X-1.316 Y51.001
X-1.3053 Y51.0054
X-1.2948 Y51.0104
X-1.2958 Y51.0563
X-1.2943 Y51.0794
X-1.2881 Y51.1404
G3 X-1.2947 Y51.1538 I-0.0149 J0.001
X-1.3207 Y51.1516 I-0.0116 J-0.0174
X-1.3164 Y51.0332 I0.054 J-0.0573
X-1.3036 Y51.0248 I0.0497 J0.0611 F50.
G2 X-1.2957 Y51.0121 I-0.007 J-0.0132
G1 Y50.9871 F60.
X-1.3 Y50.9783
X-1.3048 Y50.9698
X-1.3101 Y50.9616
X-1.316 Y50.9537
X-1.3223 Y50.9463
X-1.3291 Y50.9392
X-1.3363 Y50.9327
X-1.344 Y50.9265
X-1.352 Y50.9209
X-1.3604 Y50.9159
X-1.369 Y50.9113
X-1.378 Y50.9074
X-1.3871 Y50.904
X-1.3965 Y50.9012
X-1.406 Y50.899
X-1.4157 Y50.8974
X-1.4254 Y50.8964
X-1.4352 Y50.8961
X-1.445 Y50.8964
X-1.4547 Y50.8973
X-1.4644 Y50.8988
X-1.4739 Y50.901
X-1.4833 Y50.9037
X-1.4925 Y50.9071
X-1.5015 Y50.911
X-1.5101 Y50.9155
X-1.5185 Y50.9205
X-1.5266 Y50.9261
X-1.5342 Y50.9322
X-1.5415 Y50.9387
G2 X-1.6174 Y50.9819 I-0.0088 J0.0726
X-1.6103 Y51.1486 I1.4209 J0.0237
X-1.6011 Y51.1603 I0.0148 J-0.0022
X-1.5608 Y51.1436 I0.0116 J-0.0291
X-1.5972 Y51.0034 I-0.1085 J-0.0466
X-1.6099 Y50.9948 I-0.0721 J0.0936 F50.
G3 X-1.6174 Y50.9819 I0.0075 J-0.0129
G1 X-1.6156 Y50.934 F60.
X-1.6111 Y50.9236
X-1.6061 Y50.9135
X-1.6006 Y50.9037
X-1.5945 Y50.8942
X-1.5879 Y50.885
X-1.5809 Y50.8762
X-1.5733 Y50.8678
X-1.5653 Y50.8598
X-1.557 Y50.8523
X-1.5482 Y50.8452
X-1.539 Y50.8386
X-1.5295 Y50.8325
X-1.5197 Y50.827
X-1.5096 Y50.822
X-1.4992 Y50.8175
X-1.4886 Y50.8136
X-1.4778 Y50.8103
X-1.4669 Y50.8076
X-1.4558 Y50.8055
X-1.4446 Y50.8039
X-1.4334 Y50.803
X-1.4221 Y50.8027
X-1.4108 Y50.803
X-1.3996 Y50.8039
X-1.3884 Y50.8055
X-1.3773 Y50.8076
X-1.3664 Y50.8103
X-1.3556 Y50.8136
X-1.345 Y50.8175
X-1.3347 Y50.822
X-1.3246 Y50.827
X-1.3148 Y50.8325
X-1.3053 Y50.8386
X-1.2961 Y50.8452
X-1.2873 Y50.8523
X-1.2941 Y50.9179
X-1.2957 Y50.9409
Y50.9871
G3 X-1.3036 Y50.9997 I-0.0149 J-0.0005
X-1.3159 Y50.9986 I-0.0053 J-0.0099
G1 X-1.3176 Y50.9971
G3 X-1.31 Y50.8712 I0.0509 J-0.0601
X-1.2965 Y50.8641 I0.0433 J0.0658 F50.
G2 X-1.2874 Y50.8523 I-0.0056 J-0.0138
G3 X-1.2606 Y50.6975 I0.7932 J0.0576 F60.
X-1.2786 Y50.7095 I-0.0147 J-0.0025
G1 X-1.2851 Y50.708
X-1.5639 Y50.6439
G2 X-1.5763 Y50.6466 I-0.0033 J0.0145
X-1.581 Y50.6526 I0.0091 J0.0118 F50.
X-1.5876 Y50.6748 I0.0992 J0.0417
X-1.6156 Y50.934 I1.6413 J0.3084 F60.
X-1.6079 Y50.9471 I0.0149 J0.
G1 X-1.6053 Y50.9485 Z-0.0297
X-1.6029 Y50.9498 Z-0.0289
X-1.6006 Y50.9511 Z-0.0275
X-1.5986 Y50.9521 Z-0.0256
X-1.597 Y50.953 Z-0.0234
X-1.5958 Y50.9537 Z-0.0208
X-1.595 Y50.9541 Z-0.018
X-1.5948 Y50.9543 Z-0.0151
G0 Z0.6
X0.4231 Y52.3899
Z-0.0002
G1 Z-0.0151 F50.
X0.4228 Y52.39 Z-0.018
X0.422 Y52.3902 Z-0.0208
X0.4206 Y52.3906 Z-0.0234
X0.4188 Y52.391 Z-0.0256
X0.4166 Y52.3916 Z-0.0275
X0.4141 Y52.3922 Z-0.0289
X0.4114 Y52.3929 Z-0.0297
X0.4086 Y52.3936 Z-0.03
G3 X0.3274 Y52.4053 I-0.0945 J-0.369
X0.2447 Y52.2716 I0.0127 J-0.1003 F60.
G1 X0.2999 Y52.2613
G3 X0.3048 Y52.2907 I0.0025 J0.0147
X0.2999 Y52.2613 I-0.0025 J-0.0147
X0.3166 Y52.2713 I0.0025 J0.0147
G1 X0.404 Y52.5369
G3 X0.3993 Y52.5532 I-0.0142 J0.0047
X0.3545 Y52.5792 I-0.1045 J-0.1281
X0.3248 Y52.5876 I-0.0597 J-0.1542 F50.
G1 X0.3013 Y52.5911 F60.
X0.2888 Y52.5791
X0.2767 Y52.5666
X0.2652 Y52.5537
X0.254 Y52.5403
X0.2434 Y52.5266
X0.2332 Y52.5126
X0.2236 Y52.4981
X0.2144 Y52.4834
X0.2058 Y52.4683
X0.1977 Y52.453
X0.1902 Y52.4373
X0.1832 Y52.4214
X0.1768 Y52.4053
X0.171 Y52.3889
X0.1658 Y52.3724
X0.1611 Y52.3557
X0.1571 Y52.3388
X0.1536 Y52.3218
X0.1507 Y52.3047
X0.1485 Y52.2875
G2 X0.2463 Y52.2722 I-0.0337 J-0.5352
G3 X0.2603 Y52.2774 I0.0025 J0.0147
X0.2382 Y52.3281 I-0.0239 J0.0197
X0.1779 Y52.3052 I-0.0046 J-0.0786
X0.1682 Y52.2933 I0.0557 J-0.0557 F50.
G2 X0.1548 Y52.2868 I-0.0124 J0.0083
G1 X0.1367 Y52.2886 F60.
X0.1295 Y52.293
X0.1226 Y52.2979
X0.1161 Y52.3033
X0.11 Y52.3092
X0.1043 Y52.3155
X0.0992 Y52.3222
X0.0945 Y52.3293
X0.0903 Y52.3366
X0.0867 Y52.3443
X0.0836 Y52.3522
X0.0811 Y52.3603
X0.0793 Y52.3685
X0.078 Y52.3769
X0.0773 Y52.3853
Y52.3938
X0.0778 Y52.4023
X0.079 Y52.4106
X0.0808 Y52.4189
X0.0832 Y52.427
X0.0862 Y52.435
X0.0897 Y52.4427
X0.0938 Y52.4501
X0.0984 Y52.4572
X0.1035 Y52.4639
X0.1091 Y52.4703
G2 X0.1845 Y52.6065 I0.2892 J-0.0712
G1 X0.2183 Y52.6027
X0.2413 Y52.6001
G2 X0.2527 Y52.5904 I-0.0027 J-0.0147
X0.2446 Y52.5743 I-0.0118 J-0.0042
X0.2045 Y52.5844 I-0.0118 J0.0375
X0.1962 Y52.5972 I0.0283 J0.0274 F50.
G3 X0.1845 Y52.6065 I-0.0139 J-0.0055
G1 X0.1494 Y52.6103 F60.
X0.1383 Y52.607
X0.1273 Y52.6031
X0.1166 Y52.5986
X0.1062 Y52.5936
X0.096 Y52.588
X0.0861 Y52.5819
X0.0765 Y52.5753
X0.0674 Y52.5682
X0.0585 Y52.5606
X0.0501 Y52.5526
X0.0422 Y52.5442
X0.0346 Y52.5353
X0.0276 Y52.5261
X0.021 Y52.5165
X0.015 Y52.5066
X0.0094 Y52.4964
X0.0044 Y52.4859
X0. Y52.4752
X-0.0039 Y52.4643
X-0.0072 Y52.4531
X-0.0099 Y52.4419
X-0.012 Y52.4304
X-0.0135 Y52.4189
X-0.0144 Y52.4074
X-0.0147 Y52.3958
X-0.0145 Y52.3842
X-0.0136 Y52.3726
X-0.0121 Y52.3611
X-0.01 Y52.3497
X-0.0073 Y52.3384
X-0.004 Y52.3272
X-0.0002 Y52.3163
X0.0043 Y52.3055
X0.0092 Y52.295
X0.0575 Y52.2959
X0.0804 Y52.2943
X0.1367 Y52.2886
G3 X0.1501 Y52.2952 I0.001 J0.0149
X0.1468 Y52.3243 I-0.0188 J0.0126
X0.032 Y52.3165 I-0.0537 J-0.0575
X0.0236 Y52.3038 I0.061 J-0.0498 F50.
G2 X0.0109 Y52.2959 I-0.0132 J0.007
G1 X-0.0115 F60.
X-0.0202 Y52.2997
X-0.0286 Y52.3041
X-0.0367 Y52.309
X-0.0444 Y52.3144
X-0.0519 Y52.3203
X-0.0589 Y52.3266
X-0.0655 Y52.3334
X-0.0717 Y52.3406
X-0.0774 Y52.3481
X-0.0827 Y52.356
X-0.0874 Y52.3642
X-0.0916 Y52.3727
X-0.0953 Y52.3814
X-0.0984 Y52.3904
X-0.1009 Y52.3995
X-0.1028 Y52.4088
X-0.1042 Y52.4182
X-0.1049 Y52.4276
X-0.1051 Y52.4371
X-0.1047 Y52.4465
X-0.1036 Y52.456
X-0.102 Y52.4653
X-0.0998 Y52.4745
X-0.097 Y52.4835
X-0.0937 Y52.4924
X-0.0898 Y52.501
X-0.0853 Y52.5094
X-0.0804 Y52.5175
X-0.0749 Y52.5252
X-0.069 Y52.5326
X-0.0626 Y52.5396
G2 X-0.0186 Y52.6175 I0.0743 J0.0094
X0.1494 Y52.6103 I0.0243 J-1.4028
X0.1611 Y52.6011 I-0.0022 J-0.0148
X0.1455 Y52.5621 I-0.0283 J-0.0113
X0.0029 Y52.5974 I-0.0491 J0.1074
X-0.0057 Y52.6101 I0.0935 J0.0721 F50.
G3 X-0.0186 Y52.6175 I-0.0129 J-0.0075
G1 X-0.0701 Y52.6156 F60.
X-0.0803 Y52.6109
X-0.0902 Y52.6057
X-0.0998 Y52.5999
X-0.1091 Y52.5937
X-0.1181 Y52.587
X-0.1266 Y52.5798
X-0.1348 Y52.5722
X-0.1426 Y52.5641
X-0.1499 Y52.5556
X-0.1568 Y52.5468
X-0.1632 Y52.5376
X-0.1691 Y52.5281
X-0.1745 Y52.5183
X-0.1793 Y52.5082
X-0.1836 Y52.4978
X-0.1874 Y52.4873
X-0.1905 Y52.4766
X-0.1932 Y52.4657
X-0.1952 Y52.4547
X-0.1966 Y52.4435
X-0.1974 Y52.4324
X-0.1977 Y52.4212
X-0.1973 Y52.41
X-0.1964 Y52.3988
X-0.1949 Y52.3878
X-0.1927 Y52.3768
X-0.19 Y52.3659
X-0.1867 Y52.3552
X-0.1829 Y52.3447
X-0.1785 Y52.3344
X-0.1736 Y52.3243
X-0.1681 Y52.3146
X-0.1621 Y52.3051
X-0.1556 Y52.296
X-0.1487 Y52.2872
X-0.0804 Y52.2943
X-0.0575 Y52.2959
X-0.0115
G3 X-0.0018 Y52.3217 I-0.0005 J0.0149
X-0.0519 Y52.3396 I-0.0458 J-0.0492
X-0.1258 Y52.3075 I0.0074 J-0.1179
X-0.1386 Y52.2932 I0.0813 J-0.0857 F50.
G2 X-0.1484 Y52.2874 I-0.0119 J0.009
G3 X-0.2999 Y52.2613 I0.0622 J-0.813 F60.
G2 X-0.3177 Y52.2744 I-0.003 J0.0146
X-0.3029 Y52.2908 I0.0148 J0.0015
Y52.261 I0. J-0.0149
X-0.3177 Y52.274 I0. J0.0149
G1 X-0.3561 Y52.5653
G2 X-0.3531 Y52.5764 I0.0148 J0.0019
X-0.3471 Y52.581 I0.0118 J-0.0091 F50.
X-0.3248 Y52.5876 I0.0418 J-0.0992
X-0.0701 Y52.6156 I0.2935 J-1.501 F60.
X-0.057 Y52.6079 I0. J-0.0149
G1 X-0.0556 Y52.6053 Z-0.0297
X-0.0542 Y52.6029 Z-0.0289
X-0.053 Y52.6006 Z-0.0275
X-0.0519 Y52.5986 Z-0.0256
X-0.051 Y52.597 Z-0.0234
X-0.0503 Y52.5958 Z-0.0208
X-0.0499 Y52.595 Z-0.018
X-0.0498 Y52.5948 Z-0.0151
G0 Z0.6
X3.0431 Y51.6554
Z0.1
G3 X3.1457 Y51.6386 Z0.0794 I0.0591 J0.0391 F50.
X3.1547 Y51.7421 Z0.0588 I-0.0435 J0.056
X3.0508 Y51.7433 Z0.0383 I-0.0525 J-0.0476
X3.0575 Y51.6395 Z0.0177 I0.0514 J-0.0487
X3.1605 Y51.6541 Z-0.0029 I0.0447 J0.055
X3.1381 Y51.7556 Z-0.0235 I-0.0582 J0.0404
X3.0386 Y51.7257 Z-0.044 I-0.0359 J-0.0611
X3.076 Y51.6287 Z-0.0646 I0.0637 J-0.0312
X3.1699 Y51.6734 Z-0.0852 I0.0262 J0.0658
X3.1182 Y51.7636 Z-0.1058 I-0.0676 J0.0212
X3.0322 Y51.7052 Z-0.1263 I-0.016 J-0.069
X3.0969 Y51.6239 Z-0.1469 I0.0701 J-0.0107
X3.1731 Y51.6945 Z-0.1675 I0.0054 J0.0707
X3.0314 I-0.0709 J0.
X3.1731 I0.0709 J0.
X3.1839 Y51.723 I-0.0189 J0.0235 F60.
X3.0709 Y51.7978 I-0.1231 J-0.0633
G1 X3.063 Y51.7988
X3.0551 Y51.7993
X3.0471 Y51.7991
X3.0392 Y51.7983
X3.0313 Y51.797
X3.0236 Y51.7951
X3.016 Y51.7926
X3.0087 Y51.7895
X3.0016 Y51.7859
X2.9948 Y51.7818
X2.9883 Y51.7772
X2.9821 Y51.7722
X2.9764 Y51.7667
X2.971 Y51.7607
X2.9662 Y51.7544
X2.9618 Y51.7478
X2.9579 Y51.7408
X2.9546 Y51.7336
X2.9518 Y51.7262
X2.9495 Y51.7185
X2.9478 Y51.7107
X2.9467 Y51.7029
X2.9462 Y51.6949
X2.9463 Y51.687
X2.947 Y51.679
X2.9483 Y51.6712
X2.9501 Y51.6634
X2.9526 Y51.6558
X2.9555 Y51.6485
X2.9591 Y51.6413
G3 X3.1485 Y51.607 I0.1338 J0.1984
X3.1839 Y51.723 I-0.0319 J0.0731
X3.1784 Y51.7294 I-0.0136 J-0.0062
G1 X3.1595 Y51.7414
X3.0971 Y51.7813
X3.0732 Y51.7966 F50.
X3.0709 Y51.7978
X3.0559 Y51.8035 F60.
X3.0096 Y51.8226
X3.0031 Y51.8256
X2.9945 Y51.8267
X2.9859 Y51.8272
X2.9773
X2.9687 Y51.8265
X2.9602 Y51.8252
X2.9517 Y51.8233
X2.9435 Y51.8208
X2.9354 Y51.8177
X2.9276 Y51.8141
X2.9201 Y51.8099
X2.9128 Y51.8052
X2.906 Y51.8
X2.8995 Y51.7944
X2.8934 Y51.7882
X2.8878 Y51.7817
X2.8826 Y51.7748
X2.878 Y51.7675
X2.8738 Y51.76
X2.8703 Y51.7521
X2.8673 Y51.744
X2.8648 Y51.7358
X2.863 Y51.7274
X2.8618 Y51.7188
X2.8611 Y51.7102
Y51.7016
X2.8617 Y51.693
X2.8629 Y51.6845
X2.8707 Y51.6815
X2.917 Y51.6586
X2.959 Y51.6413
G3 X2.9737 Y51.6437 I0.0052 J0.014
X2.9726 Y51.6865 I-0.0173 J0.0209
X2.892 Y51.6943 I-0.0468 J-0.0633
X2.8789 Y51.6864 I0.0338 J-0.0711 F50.
G2 X2.8641 Y51.6847 I-0.0089 J0.012
G1 X2.8433 Y51.6945 F60.
X2.8375 Y51.7004
X2.8321 Y51.7067
X2.8272 Y51.7134
X2.8228 Y51.7204
X2.8189 Y51.7277
X2.8156 Y51.7353
X2.8127 Y51.7431
X2.8105 Y51.751
X2.8088 Y51.7591
X2.8077 Y51.7673
X2.8072 Y51.7756
X2.8073 Y51.7838
X2.808 Y51.7921
X2.8093 Y51.8003
X2.8111 Y51.8083
X2.8135 Y51.8162
X2.8165 Y51.824
X2.82 Y51.8314
X2.8241 Y51.8387
X2.8286 Y51.8456
X2.8337 Y51.8521
X2.8392 Y51.8583
X2.8451 Y51.8641
X2.8514 Y51.8694
X2.8581 Y51.8743
X2.8651 Y51.8787
X2.8724 Y51.8826
X2.88 Y51.8859
G3 X3.0031 Y51.8256 I0.8465 J1.5702
G2 X3.0113 Y51.8122 I-0.0066 J-0.0134
X3.0012 Y51.798 I-0.0149 J0.
X2.9499 Y51.8012 I-0.0217 J0.0647
X2.8937 Y51.8584 I0.0512 J0.1064
X2.8872 Y51.8764 I0.1073 J0.0493 F50.
G3 X2.8802 Y51.8854 I-0.0144 J-0.004
G1 X2.8707 Y51.8903 F60.
X2.8622 Y51.8953
X2.8541 Y51.8971
X2.8459 Y51.8984
X2.8376 Y51.899
X2.8293 Y51.8991
X2.8211 Y51.8985
X2.8128 Y51.8973
X2.8047 Y51.8955
X2.7968 Y51.8931
X2.789 Y51.8902
X2.7815 Y51.8867
X2.7742 Y51.8826
X2.7673 Y51.8781
X2.7607 Y51.873
X2.7545 Y51.8675
X2.7488 Y51.8615
X2.7435 Y51.8551
X2.7386 Y51.8484
X2.7343 Y51.8413
X2.7305 Y51.8339
X2.7273 Y51.8262
X2.7246 Y51.8184
X2.7225 Y51.8104
X2.721 Y51.8022
X2.7201 Y51.7939
X2.7198 Y51.7856
X2.7201 Y51.7773
X2.721 Y51.7691
X2.7226 Y51.7609
G3 X2.8433 Y51.6945 I0.7156 J1.1577
X2.858 Y51.6964 I0.0058 J0.0137
X2.8524 Y51.7641 I-0.0242 J0.0321
X2.7513 Y51.7681 I-0.0547 J-0.1047
X2.7376 Y51.7611 I0.0465 J-0.1086 F50.
G2 X2.7227 Y51.761 I-0.0076 J0.0128
G1 X2.6979 Y51.7761 F60.
X2.6924 Y51.7827
X2.6874 Y51.7897
X2.683 Y51.797
X2.6791 Y51.8046
X2.6757 Y51.8125
X2.673 Y51.8206
X2.6708 Y51.8289
X2.6692 Y51.8374
X2.6683 Y51.8459
X2.668 Y51.8545
X2.6683 Y51.863
X2.6693 Y51.8715
X2.6708 Y51.88
X2.673 Y51.8883
X2.6757 Y51.8964
X2.6791 Y51.9043
X2.683 Y51.9119
X2.6875 Y51.9192
X2.6924 Y51.9262
X2.6979 Y51.9328
X2.7039 Y51.939
X2.7102 Y51.9447
X2.717 Y51.95
X2.7241 Y51.9547
X2.7316 Y51.9589
X2.7394 Y51.9626
X2.7474 Y51.9657
G3 X2.8622 Y51.8953 I1.315 J2.018
G2 X2.8692 Y51.8821 I-0.008 J-0.0126
X2.8629 Y51.873 I-0.0103 J0.0004
G1 X2.8595 Y51.8717
G2 X2.7543 Y51.9364 I-0.027 J0.074
X2.754 Y51.9517 I0.0782 J0.0093 F50.
G3 X2.7476 Y51.9651 I-0.0149 J0.0011
G1 X2.7362 Y51.9723 F60.
X2.7271 Y51.9783
X2.7189 Y51.9803
X2.7105 Y51.9816
X2.702 Y51.9823
X2.6935 Y51.9825
X2.685 Y51.9819
X2.6766 Y51.9808
X2.6683 Y51.979
X2.6601 Y51.9767
X2.6521 Y51.9737
X2.6444 Y51.9702
X2.6369 Y51.9661
X2.6298 Y51.9614
X2.6231 Y51.9563
X2.6167 Y51.9506
X2.6107 Y51.9445
X2.6053 Y51.938
X2.6003 Y51.9311
X2.5958 Y51.9239
X2.5919 Y51.9164
X2.5886 Y51.9085
X2.5858 Y51.9005
X2.5837 Y51.8923
X2.5821 Y51.8839
X2.5812 Y51.8755
X2.5809 Y51.867
X2.5812 Y51.8585
X2.5821 Y51.85
G3 X2.6979 Y51.7761 I2.7082 J4.1131
X2.7128 Y51.7762 I0.0073 J0.013
X2.7143 Y51.8421 I-0.0197 J0.0334
X2.6115 Y51.855 I-0.0646 J-0.0989
X2.5973 Y51.8491 I0.0382 J-0.1118 F50.
G2 X2.5825 Y51.8501 I-0.0066 J0.0134
G1 X2.5588 Y51.867 F60.
X2.5539 Y51.8738
X2.5495 Y51.8808
X2.5456 Y51.8882
X2.5422 Y51.8958
X2.5393 Y51.9036
X2.5371 Y51.9116
X2.5353 Y51.9197
X2.5342 Y51.928
X2.5337 Y51.9363
Y51.9446
X2.5343 Y51.9529
X2.5355 Y51.9611
X2.5373 Y51.9693
X2.5396 Y51.9773
X2.5425 Y51.9851
X2.5459 Y51.9926
X2.5499 Y52.
X2.5544 Y52.007
X2.5593 Y52.0137
X2.5647 Y52.02
X2.5706 Y52.0259
X2.5768 Y52.0314
X2.5834 Y52.0365
X2.5904 Y52.0411
X2.5976 Y52.0451
X2.6052 Y52.0487
X2.6129 Y52.0517
X2.6209 Y52.0542
G3 X2.7271 Y51.9783 I0.7305 J0.9108
G2 X2.7333 Y51.9647 I-0.0087 J-0.0121
X2.7192 Y51.9491 I-0.0175 J0.0017
X2.6251 Y52.0243 I-0.0154 J0.0772
X2.6262 Y52.0395 I0.0787 J0.0021 F50.
G3 X2.621 Y52.0535 I-0.0147 J0.0025
G1 X2.6022 Y52.0681 F60.
X2.5941 Y52.0707
X2.5859 Y52.0727
X2.5775 Y52.074
X2.5691 Y52.0748
X2.5606 Y52.0749
X2.5521 Y52.0744
X2.5437 Y52.0733
X2.5354 Y52.0716
X2.5272 Y52.0693
X2.5193 Y52.0663
X2.5116 Y52.0628
X2.5041 Y52.0588
X2.497 Y52.0542
X2.4902 Y52.049
X2.4838 Y52.0434
X2.4779 Y52.0374
X2.4724 Y52.0309
X2.4674 Y52.024
X2.463 Y52.0168
X2.459 Y52.0093
X2.4557 Y52.0015
X2.4529 Y51.9935
X2.4507 Y51.9853
X2.4491 Y51.977
X2.4482 Y51.9686
X2.4479 Y51.9601
X2.4481 Y51.9516
G3 X2.5588 Y51.867 I2.6529 J3.3562
X2.5817 Y51.8824 I0.0083 J0.0124
X2.5774 Y51.8934 I-0.0333 J-0.0067
X2.4788 Y51.95 I-0.1009 J-0.0614
X2.4596 Y51.9488 I-0.0023 J-0.1181 F50.
G2 X2.4486 Y51.9516 I-0.0021 J0.0148
G1 X2.4283 Y51.9679 F60.
X2.4237 Y51.9748
X2.4195 Y51.982
X2.4159 Y51.9895
X2.4128 Y51.9973
X2.4103 Y52.0052
X2.4083 Y52.0133
X2.407 Y52.0215
X2.4062 Y52.0298
X2.406 Y52.0382
X2.4064 Y52.0465
X2.4074 Y52.0548
X2.409 Y52.063
X2.4112 Y52.071
X2.414 Y52.0789
X2.4173 Y52.0865
X2.4211 Y52.0939
X2.4255 Y52.101
X2.4303 Y52.1078
X2.4357 Y52.1142
X2.4414 Y52.1202
X2.4476 Y52.1258
X2.4542 Y52.1309
X2.4611 Y52.1356
X2.4683 Y52.1397
X2.4758 Y52.1433
X2.4836 Y52.1464
X2.4915 Y52.1489
X2.4997 Y52.1508
X2.5477 Y52.1112
X2.5929 Y52.0753
X2.6022 Y52.0681
G2 X2.6073 Y52.0541 I-0.0096 J-0.0114
X2.595 Y52.0417 I-0.015 J0.0026
X2.5024 Y52.1192 I-0.0139 J0.0775
G1 Y52.121
G2 X2.5042 Y52.1361 I0.0787 J-0.0017 F50.
G3 X2.4997 Y52.1504 I-0.0146 J0.0032
G1 X2.4811 Y52.1663 F60.
X2.4731 Y52.1692
X2.465 Y52.1716
X2.4567 Y52.1734
X2.4483 Y52.1745
X2.4399 Y52.1751
X2.4314 Y52.175
X2.423 Y52.1743
X2.4146 Y52.1729
X2.4063 Y52.171
X2.3983 Y52.1685
X2.3904 Y52.1654
X2.3828 Y52.1617
X2.3754 Y52.1575
X2.3684 Y52.1527
X2.3618 Y52.1475
X2.3555 Y52.1417
X2.3497 Y52.1356
X2.3444 Y52.129
X2.3396 Y52.122
X2.3352 Y52.1147
X2.3315 Y52.1072
X2.3283 Y52.0993
X2.3256 Y52.0913
X2.3236 Y52.0831
X2.3222 Y52.0747
X2.3214 Y52.0663
X2.3212 Y52.0578
G3 X2.4283 Y51.9678 I2.2635 J2.5849
G1 X2.4307 Y51.9664
X2.4333 Y51.9654
X2.4361 Y51.9649
X2.4389 Y51.965
X2.4417 Y51.9656
X2.4443 Y51.9666
X2.4466 Y51.9682
X2.4486 Y51.9702
X2.4502 Y51.9725
X2.4514 Y51.975
X2.452 Y51.9778
G3 Y51.982 I-0.0148 J0.0021
X2.4472 Y51.996 I-0.0391 J-0.0056
X2.3519 Y52.055 I-0.1023 J-0.059
X2.3327 Y52.0546 I-0.0071 J-0.1179 F50.
G2 X2.3218 Y52.0578 I-0.0015 J0.0148
G1 X2.3151 Y52.0636 F60.
X2.2987 Y52.0787
X2.2948 Y52.0862
X2.2914 Y52.094
X2.2886 Y52.1021
X2.2864 Y52.1103
X2.2848 Y52.1187
X2.2838 Y52.1271
X2.2834 Y52.1356
X2.2835 Y52.1441
X2.2844 Y52.1526
X2.2858 Y52.161
X2.2878 Y52.1692
X2.2904 Y52.1773
X2.2935 Y52.1852
X2.2973 Y52.1929
X2.3015 Y52.2003
X2.3063 Y52.2073
X2.3116 Y52.214
X2.3173 Y52.2203
X2.3235 Y52.2261
X2.33 Y52.2315
X2.337 Y52.2364
X2.3443 Y52.2408
X2.3518 Y52.2447
X2.3597 Y52.248
X2.3677 Y52.2508
X2.376 Y52.2529
X2.3843 Y52.2545
G3 X2.4811 Y52.1663 I1.2901 J1.3174
G2 X2.4856 Y52.1521 I-0.0101 J-0.011
X2.4719 Y52.1398 I-0.0153 J0.0033
X2.3855 Y52.2242 I-0.0078 J0.0784
X2.3882 Y52.2392 I0.0785 J-0.006 F50.
G3 X2.3844 Y52.2536 I-0.0144 J0.004
G1 X2.3663 Y52.2708 F60.
X2.3586 Y52.2743
X2.3507 Y52.2771
X2.3426 Y52.2794
X2.3343 Y52.281
X2.3259 Y52.2821
X2.3175 Y52.2825
X2.3091 Y52.2823
X2.3007 Y52.2815
X2.2923 Y52.2801
X2.2841 Y52.2781
X2.2761 Y52.2754
X2.2683 Y52.2722
X2.2608 Y52.2685
X2.2535 Y52.2642
X2.2466 Y52.2593
X2.24 Y52.254
X2.2339 Y52.2482
X2.2282 Y52.242
X2.223 Y52.2354
X2.2182 Y52.2284
X2.214 Y52.2211
X2.2104 Y52.2135
X2.2073 Y52.2057
X2.2048 Y52.1976
X2.2029 Y52.1894
X2.2015 Y52.181
X2.2009 Y52.1726
G3 X2.2987 Y52.0787 I1.2352 J1.1887
X2.3198 Y52.0803 I0.0097 J0.0113
X2.3222 Y52.0963 I-0.0117 J0.01
X2.2307 Y52.1672 I-0.1088 J-0.046
X2.2116 Y52.1684 I-0.0173 J-0.1168 F50.
G2 X2.2009 Y52.1726 I-0.0002 J0.0149
G1 X2.1815 Y52.1928 F60.
G2 X2.1727 Y52.2054 I0.0178 J0.0218
G1 X2.1693 Y52.2177
G2 X2.2214 Y52.3392 I0.1105 J0.0246
X2.3663 Y52.2708 I-0.0019 J-0.1918
X2.3606 Y52.2463 I-0.0106 J-0.0105
G1 X2.3598 Y52.246
X2.2104 Y52.1942
X2.1968 Y52.1894 F50.
G2 X2.1815 Y52.1928 I-0.0049 J0.0141
G1 X2.1762 Y52.1983 F60.
X2.1732 Y52.2038
X2.1727 Y52.2054
X2.1693 Y52.2177 F50.
X2.1605 Y52.2502 F60.
X2.1452 Y52.2623
G2 X2.2055 Y52.4144 I0.0749 J0.0583
G1 X2.2204 Y52.3891
Y52.3879
G2 X2.2122 Y52.3754 I-0.0149 J0.0009
X2.2012 Y52.3821 I-0.0034 J0.0067
X2.2013 Y52.3833 I0.0075 J0.0001 F50.
X2.206 Y52.397 I0.039 J-0.0056
G3 X2.2059 Y52.4119 I-0.013 J0.0073
G1 X2.198 Y52.4242 F60.
X2.1914 Y52.4283
X2.1844 Y52.4319
X2.1772 Y52.4349
X2.1697 Y52.4374
X2.1621 Y52.4393
X2.1544 Y52.4406
X2.1466 Y52.4413
X2.1388 Y52.4414
X2.1309 Y52.441
X2.1232 Y52.4399
X2.1155 Y52.4382
X2.108 Y52.436
X2.1007 Y52.4331
X2.0936 Y52.4298
X2.0868 Y52.4259
X2.0804 Y52.4215
X2.0742 Y52.4166
X2.0685 Y52.4112
X2.0632 Y52.4054
X2.0584 Y52.3993
X2.054 Y52.3928
X2.0502 Y52.3859
X2.0468 Y52.3788
X2.0441 Y52.3715
X2.0419 Y52.364
X2.0403 Y52.3563
X2.0393 Y52.3485
X2.0389 Y52.3407
X2.0391 Y52.3329
X2.0399 Y52.3251
X2.0412 Y52.3173
X2.0432 Y52.3098
X2.0658 Y52.2965
X2.0836 Y52.2873
X2.1137 Y52.279
G3 X2.128 Y52.2832 I0.0035 J0.0145
X2.1159 Y52.3217 I-0.0168 J0.0159
X2.0704 Y52.3174 I-0.0156 J-0.0772
X2.0569 Y52.3103 I0.0298 J-0.0729 F50.
G2 X2.042 Y52.3094 I-0.0082 J0.0125
G1 X2.0373 Y52.312 F60.
X2.0219 Y52.3202
X2.0161 Y52.3262
X2.0107 Y52.3325
X2.0059 Y52.3392
X2.0015 Y52.3463
X1.9977 Y52.3536
X1.9945 Y52.3612
X1.9918 Y52.3691
X1.9897 Y52.3771
X1.9882 Y52.3852
X1.9873 Y52.3935
X1.987 Y52.4018
X1.9873 Y52.41
X1.9882 Y52.4183
X1.9898 Y52.4264
X1.9919 Y52.4344
X1.9946 Y52.4423
X1.9979 Y52.4499
X2.0017 Y52.4572
X2.0061 Y52.4642
X2.011 Y52.4709
X2.0163 Y52.4773
X2.0221 Y52.4832
X2.0284 Y52.4886
X2.035 Y52.4936
X2.0419 Y52.4981
X2.0492 Y52.5021
X2.0568 Y52.5055
X2.0645 Y52.5084
G2 X2.1997 Y52.4262 I-0.2409 J-0.5491
G1 X2.2009 Y52.4233
X2.2014 Y52.4202
Y52.4172
X2.2008 Y52.4143
X2.1997 Y52.4116
X2.1982 Y52.4092
G2 X2.1406 Y52.3907 I-0.0388 J0.0219
X2.0735 Y52.4803 I0.0497 J0.1071
X2.0723 Y52.4955 I0.1168 J0.0176 F50.
G3 X2.0646 Y52.5083 I-0.0149 J-0.0003
G1 X2.0373 Y52.5222 F60.
X2.0287 Y52.5233
X2.0201 Y52.5238
X2.0115 Y52.5237
X2.0029 Y52.5229
X1.9944 Y52.5216
X1.986 Y52.5196
X1.9778 Y52.517
X1.9698 Y52.5138
X1.9621 Y52.5101
X1.9546 Y52.5058
X1.9475 Y52.5009
X1.9407 Y52.4956
X1.9344 Y52.4898
X1.9284 Y52.4835
X1.923 Y52.4768
X1.9181 Y52.4697
X1.9137 Y52.4623
X1.9098 Y52.4546
X1.9065 Y52.4467
X1.9038 Y52.4385
X1.9017 Y52.4301
X1.9002 Y52.4216
X1.8994 Y52.4131
X1.8991 Y52.4045
X1.8995 Y52.3958
X1.9005 Y52.3873
X1.9022 Y52.3788
G2 X2.0219 Y52.3202 I-0.6275 J-1.4326
G3 X2.0367 Y52.3212 I0.0065 J0.0134
X2.0423 Y52.3346 I-0.0073 J0.0109
X1.9307 Y52.3889 I-0.077 J-0.0164
X1.9177 Y52.3809 I0.0346 J-0.0707 F50.
G2 X1.9029 Y52.379 I-0.009 J0.0119
G1 X1.8984 Y52.3811 F60.
X1.883 Y52.3891
X1.8783 Y52.3916
G2 X1.9271 Y52.5889 I0.0854 J0.0836
G3 X2.0373 Y52.5222 I0.2502 J0.2891
G2 X2.045 Y52.5094 I-0.0072 J-0.0131
X2.0134 Y52.4748 I-0.0341 J-0.0007
X1.929 Y52.5581 I-0.0058 J0.0785
X1.9314 Y52.5732 I0.0786 J-0.0048 F50.
G3 X1.9275 Y52.5875 I-0.0144 J0.0038
G1 X1.9123 Y52.6016 F60.
G3 X1.7601 Y52.4883 I-0.04 J-0.1052
X1.8783 Y52.3916 I0.4536 J0.434
X1.8932 Y52.3926 I0.0066 J0.0134
X1.9004 Y52.4541 I-0.0227 J0.0339
X1.7894 Y52.4896 I-0.0867 J-0.0802
X1.7747 Y52.4855 I0.0242 J-0.1156 F50.
G2 X1.7601 Y52.4883 I-0.0049 J0.0141
G1 X1.7375 Y52.509 F60.
X1.7333 Y52.5165
X1.7296 Y52.5243
X1.7264 Y52.5323
X1.7239 Y52.5406
X1.722 Y52.549
X1.7207 Y52.5575
X1.72 Y52.5661
X1.7199 Y52.5747
X1.7205 Y52.5833
X1.7216 Y52.5918
X1.7234 Y52.6002
X1.7258 Y52.6085
X1.7288 Y52.6166
X1.7324 Y52.6244
X1.7365 Y52.632
X1.7412 Y52.6392
X1.7464 Y52.6461
X1.7521 Y52.6526
X1.7582 Y52.6587
X1.7647 Y52.6643
X1.7717 Y52.6694
X1.779 Y52.674
X1.7866 Y52.678
X1.7944 Y52.6815
X1.8026 Y52.6844
X1.8108 Y52.6867
X1.8193 Y52.6884
X1.8415 Y52.6669
X1.9123 Y52.6016
G2 X1.9162 Y52.5872 I-0.0105 J-0.0106
X1.8987 Y52.5738 I-0.0174 J0.0045
X1.8206 Y52.6581 I0.0004 J0.0787
X1.8232 Y52.6732 I0.0785 J-0.0056 F50.
G3 X1.8194 Y52.6876 I-0.0144 J0.0039
G1 X1.8058 Y52.7005 F60.
X1.8018 Y52.7043
X1.794 Y52.7077
X1.786 Y52.7105
X1.7778 Y52.7127
X1.7694 Y52.7143
X1.761 Y52.7153
X1.7525 Y52.7157
X1.744 Y52.7154
X1.7355 Y52.7145
X1.7272 Y52.713
X1.719 Y52.7109
X1.7109 Y52.7082
X1.7031 Y52.7048
X1.6955 Y52.701
X1.6883 Y52.6965
X1.6814 Y52.6916
X1.6749 Y52.6862
X1.6687 Y52.6803
X1.6631 Y52.6739
X1.6579 Y52.6672
X1.6533 Y52.6601
X1.6491 Y52.6527
X1.6456 Y52.6449
X1.6426 Y52.637
X1.6402 Y52.6288
X1.6384 Y52.6205
X1.6372 Y52.6121
X1.6367 Y52.6037
X1.6679 Y52.5743
X1.7132 Y52.5315
X1.7375 Y52.509
G3 X1.7621 Y52.5215 I0.0097 J0.0113
X1.7533 Y52.5473 I-0.0539 J-0.0041
X1.6671 Y52.5995 I-0.0984 J-0.0653
X1.6479 Y52.5999 I-0.0123 J-0.1175 F50.
G2 X1.6372 Y52.6036 I-0.0009 J0.0149
G1 X1.6194 Y52.6206 F60.
X1.6153 Y52.6278
X1.6117 Y52.6353
X1.6087 Y52.643
X1.6063 Y52.651
X1.6044 Y52.6591
X1.6031 Y52.6673
X1.6024 Y52.6755
X1.6023 Y52.6838
X1.6028 Y52.6921
X1.6038 Y52.7004
X1.6055 Y52.7085
X1.6077 Y52.7165
X1.6105 Y52.7243
X1.6139 Y52.7319
X1.6178 Y52.7392
X1.6222 Y52.7463
X1.6271 Y52.753
X1.6325 Y52.7593
X1.6383 Y52.7652
X1.6445 Y52.7707
X1.6511 Y52.7758
X1.658 Y52.7803
X1.6653 Y52.7844
X1.6728 Y52.7879
X1.6806 Y52.7909
X1.6885 Y52.7933
X1.6966 Y52.7951
X1.7048 Y52.7964
G2 X1.8018 Y52.7043 I-8.2973 J-8.8396
X1.8015 Y52.6832 I-0.0107 J-0.0104
X1.7771 Y52.6791 I-0.0151 J0.0155
X1.711 Y52.7661 I0.0503 J0.1069
X1.7093 Y52.7852 I0.1164 J0.0199 F50.
G3 X1.7049 Y52.7957 I-0.0149 J-0.0001
G1 X1.6865 Y52.8126 F60.
X1.679 Y52.8161
X1.6712 Y52.819
X1.6633 Y52.8213
X1.6552 Y52.823
X1.647 Y52.8242
X1.6388 Y52.8248
X1.6305
X1.6222 Y52.8242
X1.614 Y52.823
X1.6059 Y52.8212
X1.598 Y52.8189
X1.5903 Y52.816
X1.5827 Y52.8126
X1.5755 Y52.8086
X1.5685 Y52.8041
X1.5619 Y52.7992
X1.5556 Y52.7938
X1.5498 Y52.7879
X1.5443 Y52.7817
X1.5394 Y52.7751
X1.5349 Y52.7681
X1.5309 Y52.7608
X1.5275 Y52.7533
X1.5246 Y52.7456
X1.5222 Y52.7376
X1.5205 Y52.7296
X1.5193 Y52.7214
X1.5187 Y52.7131
X1.5743 Y52.6625
X1.6194 Y52.6206
G3 X1.6404 Y52.6221 I0.0098 J0.0113
X1.6433 Y52.6475 I-0.017 J0.0148
X1.5493 Y52.7094 I-0.1041 J-0.0557
X1.5302 Y52.7095 I-0.0102 J-0.1177 F50.
G2 X1.5193 Y52.7131 I-0.0011 J0.0149
G1 X1.4998 Y52.7311 F60.
X1.496 Y52.7384
X1.4926 Y52.746
X1.4898 Y52.7538
X1.4876 Y52.7618
X1.4859 Y52.7699
X1.4848 Y52.7781
X1.4843 Y52.7864
X1.4844 Y52.7947
X1.4851 Y52.803
X1.4864 Y52.8112
X1.4882 Y52.8192
X1.4906 Y52.8272
X1.4935 Y52.8349
X1.497 Y52.8424
X1.5011 Y52.8497
X1.5056 Y52.8566
X1.5106 Y52.8632
X1.5161 Y52.8695
X1.5219 Y52.8753
X1.5282 Y52.8807
X1.5349 Y52.8857
X1.5419 Y52.8901
X1.5492 Y52.8941
X1.5567 Y52.8975
X1.5645 Y52.9004
X1.5724 Y52.9027
X1.5805 Y52.9045
X1.5887 Y52.9057
X1.5938 Y52.8984
X1.6206 Y52.8734
X1.6865 Y52.8126
G2 X1.6905 Y52.7983 I-0.0105 J-0.0106
X1.6698 Y52.7809 I-0.0225 J0.0059
X1.5864 Y52.8749 I-0.0062 J0.0785
X1.5908 Y52.8896 I0.0772 J-0.0155 F50.
G3 X1.5889 Y52.9043 I-0.0138 J0.0057
G1 X1.5743 Y52.9221 F60.
X1.5668 Y52.926
X1.5591 Y52.9294
X1.5512 Y52.9322
X1.543 Y52.9344
X1.5347 Y52.936
X1.5264 Y52.937
X1.518 Y52.9374
X1.5095 Y52.9371
X1.5011 Y52.9363
X1.4929 Y52.9348
X1.4847 Y52.9327
X1.4767 Y52.93
X1.4689 Y52.9267
X1.4614 Y52.9229
X1.4542 Y52.9185
X1.4474 Y52.9136
X1.4409 Y52.9082
X1.4349 Y52.9023
X1.4293 Y52.896
X1.4241 Y52.8893
X1.4195 Y52.8823
X1.4154 Y52.8749
X1.4119 Y52.8673
X1.4089 Y52.8594
X1.4066 Y52.8513
X1.4048 Y52.8431
X1.4037 Y52.8347
G3 X1.4998 Y52.7311 I0.5416 J0.4062
X1.5145 Y52.7283 I0.0097 J0.0113
X1.5303 Y52.7721 I-0.0099 J0.0283
X1.4324 Y52.8292 I-0.1012 J-0.0609
X1.4171 Y52.8286 I-0.0033 J-0.1181 F50.
G2 X1.4035 Y52.8347 I-0.0015 J0.0148
G1 X1.3918 Y52.8521 F60.
X1.3891 Y52.8619
X1.3832 Y52.8801
X1.3821 Y52.889
X1.3816 Y52.8978
X1.3817 Y52.9067
X1.3825 Y52.9156
X1.3839 Y52.9244
X1.3859 Y52.933
X1.3885 Y52.9415
X1.3917 Y52.9498
X1.3954 Y52.9579
X1.3998 Y52.9656
X1.4046 Y52.9731
X1.41 Y52.9802
X1.4159 Y52.9869
X1.4222 Y52.9931
X1.4289 Y52.9989
X1.436 Y53.0042
X1.4435 Y53.009
X1.4513 Y53.0133
X1.4594 Y53.017
X1.4677 Y53.0201
X1.4762 Y53.0226
X1.4849 Y53.0246
X1.4937 Y53.0259
X1.5026 Y53.0266
X1.5114
X1.5203 Y53.0261
G2 X1.5743 Y52.9221 I-0.3892 J-0.268
X1.574 Y52.9072 I-0.0131 J-0.0072
X1.5583 Y52.9023 I-0.0106 J0.0064
X1.5153 Y52.9959 I0.0326 J0.0717
X1.5209 Y53.0101 I0.0757 J-0.0218 F50.
G3 X1.5202 Y53.025 I-0.0133 J0.0068
G1 X1.5117 Y53.0373 F60.
X1.4967 Y53.0542
X1.4892 Y53.0586
X1.4815 Y53.0624
X1.4735 Y53.0657
X1.4653 Y53.0684
X1.4569 Y53.0705
X1.4484 Y53.0721
X1.4398 Y53.073
X1.4312 Y53.0734
X1.4226 Y53.0732
X1.414 Y53.0723
X1.4055 Y53.0709
X1.3971 Y53.0689
X1.3888 Y53.0663
X1.3808 Y53.0631
X1.373 Y53.0594
X1.3655 Y53.0552
X1.3583 Y53.0504
X1.3514 Y53.0452
X1.345 Y53.0395
X1.3389 Y53.0333
X1.3333 Y53.0268
X1.3281 Y53.0199
X1.3234 Y53.0126
X1.3193 Y53.005
X1.3157 Y52.9972
X1.3126 Y52.9891
X1.3101 Y52.9809
G2 X1.3841 Y52.8806 I-0.1888 J-0.2167
G1 X1.385 Y52.8783
X1.3862 Y52.8761
X1.3879 Y52.8742
X1.3899 Y52.8726
X1.3921 Y52.8714
X1.3946 Y52.8705
G3 X1.4241 Y52.893 I0.0045 J0.0248
X1.3411 Y52.9789 I-0.0784 J0.0073
X1.326 Y52.9765 I0.0046 J-0.0786 F50.
G2 X1.3116 Y52.9805 I-0.0037 J0.0144
G1 X1.302 Y52.991 F60.
X1.2965 Y52.9971
X1.2934 Y53.005
X1.291 Y53.013
X1.2891 Y53.0213
X1.2879 Y53.0296
X1.2873 Y53.038
X1.2872 Y53.0465
X1.2879 Y53.0549
X1.2891 Y53.0632
X1.2909 Y53.0715
X1.2934 Y53.0795
X1.2964 Y53.0874
X1.3 Y53.0951
X1.3041 Y53.1024
X1.3088 Y53.1094
X1.314 Y53.1161
X1.3196 Y53.1223
X1.3257 Y53.1282
X1.3323 Y53.1335
X1.3391 Y53.1384
X1.3464 Y53.1428
X1.3539 Y53.1466
X1.3617 Y53.1498
X1.3697 Y53.1525
X1.3779 Y53.1546
X1.3862 Y53.1561
X1.3946 Y53.1569
X1.403 Y53.1571
G3 X1.4967 Y53.0542 I8.576 J7.7117
G2 X1.4837 Y53.0299 I-0.0115 J-0.0095
X1.4566 Y53.0399 I0.0054 J0.0566
X1.4065 Y53.1271 I0.0676 J0.0969
Y53.1463 I0.1177 J0.0096 F50.
G3 X1.403 Y53.1571 I-0.0149 J0.0012
G1 X1.3891 Y53.1724 F60.
X1.3857 Y53.1762
X1.3785 Y53.1804
X1.3711 Y53.184
X1.3634 Y53.1872
X1.3555 Y53.1897
X1.3475 Y53.1917
X1.3393 Y53.1932
X1.3311 Y53.194
X1.3228 Y53.1943
X1.3145 Y53.194
X1.3063 Y53.1931
X1.2982 Y53.1916
X1.2901 Y53.1895
X1.2823 Y53.1869
X1.2746 Y53.1837
X1.2672 Y53.18
X1.2601 Y53.1758
X1.2533 Y53.1711
X1.2468 Y53.1659
X1.2407 Y53.1603
X1.2351 Y53.1542
X1.2299 Y53.1478
X1.2251 Y53.141
X1.2209 Y53.1339
X1.2171 Y53.1265
X1.2139 Y53.1188
X1.2112 Y53.111
X1.2091 Y53.103
X1.2076 Y53.0948
G3 X1.2965 Y52.9971 I28.1685 J25.5115
X1.3176 Y52.9969 I0.0106 J0.0105
X1.3221 Y53.0216 I-0.0153 J0.0155
X1.2378 Y53.0878 I-0.1072 J-0.0496
X1.2187 Y53.09 I-0.0229 J-0.1159 F50.
G2 X1.2083 Y53.0947 I0.0005 J0.0149
G1 X1.2039 Y53.0999 F60.
X1.1909 Y53.1149
X1.1877 Y53.1228
X1.1852 Y53.131
X1.1832 Y53.1393
X1.1819 Y53.1478
X1.1812 Y53.1563
X1.1811 Y53.1649
X1.1816 Y53.1734
X1.1828 Y53.1819
X1.1846 Y53.1903
X1.187 Y53.1985
X1.19 Y53.2065
X1.1935 Y53.2143
X1.1977 Y53.2218
X1.2023 Y53.229
X1.2075 Y53.2358
X1.2132 Y53.2422
X1.2193 Y53.2482
X1.2258 Y53.2537
X1.2327 Y53.2587
X1.24 Y53.2632
X1.2476 Y53.2672
X1.2554 Y53.2706
X1.2635 Y53.2734
X1.2718 Y53.2756
X1.2802 Y53.2772
X1.2887 Y53.2782
X1.2972 Y53.2786
G3 X1.3857 Y53.1762 I1.759 J1.4301
G2 X1.3882 Y53.1615 I-0.0115 J-0.0095
X1.3794 Y53.1547 I-0.0098 J0.0036
G1 X1.3758 Y53.1545
G2 X1.2947 Y53.2488 I-0.004 J0.0786
X1.2992 Y53.2634 I0.0772 J-0.0157 F50.
G3 X1.2972 Y53.2782 I-0.0138 J0.0057
G1 X1.2821 Y53.2971 F60.
X1.2748 Y53.3016
X1.2673 Y53.3055
X1.2595 Y53.3088
X1.2514 Y53.3116
X1.2432 Y53.3138
X1.2349 Y53.3153
X1.2264 Y53.3163
X1.2179 Y53.3166
X1.2094 Y53.3163
X1.201 Y53.3154
X1.1926 Y53.3138
X1.1844 Y53.3117
X1.1764 Y53.3089
X1.1686 Y53.3056
X1.161 Y53.3017
X1.1538 Y53.2972
X1.1469 Y53.2923
X1.1403 Y53.2868
X1.1342 Y53.2809
X1.1286 Y53.2746
X1.1234 Y53.2678
X1.1188 Y53.2607
X1.1147 Y53.2533
X1.1111 Y53.2455
X1.1081 Y53.2376
X1.1057 Y53.2294
X1.1039 Y53.2211
G3 X1.1909 Y53.1149 I2.1709 J1.6879
X1.2167 Y53.1245 I0.0109 J0.0101
X1.2133 Y53.1434 I-0.045 J0.0017
X1.1335 Y53.2125 I-0.1091 J-0.0453
X1.1146 Y53.2158 I-0.0292 J-0.1144 F50.
G2 X1.1045 Y53.221 I0.0013 J0.0149
G1 X1.1033 Y53.2225 F60.
X1.0855 Y53.2464
X1.0831 Y53.2546
X1.0814 Y53.2629
X1.0802 Y53.2713
X1.0796 Y53.2797
Y53.2882
X1.0803 Y53.2967
X1.0815 Y53.3051
X1.0833 Y53.3134
X1.0858 Y53.3215
X1.0888 Y53.3294
X1.0923 Y53.3372
X1.0964 Y53.3446
X1.101 Y53.3517
X1.1061 Y53.3585
X1.1117 Y53.3649
X1.1177 Y53.3709
X1.1241 Y53.3764
X1.1309 Y53.3815
X1.1381 Y53.386
X1.1455 Y53.3901
X1.1533 Y53.3936
X1.1612 Y53.3965
X1.1694 Y53.3989
X1.1777 Y53.4007
X1.1861 Y53.4019
X1.1945 Y53.4024
X1.203
G3 X1.2821 Y53.2971 I1.4641 J1.0165
G2 X1.2838 Y53.2823 I-0.012 J-0.0089
X1.2693 Y53.2734 I-0.0135 J0.0058
X1.1986 Y53.3723 I0.0054 J0.0786
X1.204 Y53.3866 I0.0761 J-0.0203 F50.
G3 X1.203 Y53.4015 I-0.0134 J0.0066
G1 X1.1985 Y53.4077 F60.
X1.1871 Y53.4231
X1.18 Y53.4278
X1.1727 Y53.4319
X1.165 Y53.4355
X1.1571 Y53.4385
X1.149 Y53.4409
X1.1407 Y53.4427
X1.1323 Y53.444
X1.1239 Y53.4446
X1.1154
X1.107 Y53.4439
X1.0986 Y53.4427
X1.0903 Y53.4409
X1.0822 Y53.4384
X1.0743 Y53.4354
X1.0667 Y53.4318
X1.0593 Y53.4277
X1.0522 Y53.423
X1.0455 Y53.4179
X1.0392 Y53.4122
X1.0333 Y53.4062
X1.0279 Y53.3997
X1.0229 Y53.3928
X1.0185 Y53.3856
X1.0146 Y53.3781
X1.0113 Y53.3703
X1.0085 Y53.3623
X1.0063 Y53.3541
G3 X1.0855 Y53.2464 I9.5063 J6.9005
G1 X1.0875 Y53.2443
X1.0899 Y53.2427
X1.0926 Y53.2415
X1.0955 Y53.2409
X1.0984
X1.1013 Y53.2414
X1.104 Y53.2425
X1.1065 Y53.2441
G3 X1.1135 Y53.2678 I-0.0136 J0.017
X1.0353 Y53.3443 I-0.1123 J-0.0366
X1.0165 Y53.3484 I-0.0341 J-0.1131 F50.
G2 X1.0066 Y53.3541 I0.0019 J0.0148
G1 X1.0014 Y53.3614 F60.
X0.9917 Y53.3756
X0.9892 Y53.3836
X0.9873 Y53.3917
X0.986 Y53.4
X0.9853 Y53.4083
X0.9852 Y53.4167
X0.9857 Y53.425
X0.9867 Y53.4333
X0.9884 Y53.4415
X0.9906 Y53.4496
X0.9934 Y53.4575
X0.9968 Y53.4651
X1.0007 Y53.4725
X1.0051 Y53.4796
X1.01 Y53.4864
X1.0154 Y53.4928
X1.0213 Y53.4987
X1.0275 Y53.5043
X1.0341 Y53.5094
X1.0411 Y53.514
X1.0484 Y53.5181
X1.056 Y53.5217
X1.0637 Y53.5247
X1.0717 Y53.5272
X1.0799 Y53.529
X1.0881 Y53.5303
X1.0965 Y53.531
X1.1048 Y53.5311
X1.1132 Y53.5306
G3 X1.1871 Y53.4231 I1.1909 J0.7399
G2 X1.1883 Y53.4083 I-0.0123 J-0.0084
X1.1709 Y53.399 I-0.015 J0.0072
X1.1072 Y53.5013 I0.0112 J0.0779
X1.1133 Y53.5153 I0.0749 J-0.0243 F50.
G3 X1.1131 Y53.5302 I-0.013 J0.0073
G1 X1.1026 Y53.5466 F60.
X1.0998 Y53.5513
X1.0931 Y53.5564
X1.086 Y53.561
X1.0786 Y53.565
X1.071 Y53.5685
X1.0631 Y53.5715
X1.055 Y53.5738
X1.0467 Y53.5756
X1.0384 Y53.5768
X1.03 Y53.5773
X1.0216 Y53.5772
X1.0132 Y53.5765
X1.0048 Y53.5752
X0.9966 Y53.5733
X0.9886 Y53.5708
X0.9807 Y53.5677
X0.9731 Y53.5641
X0.9658 Y53.5599
X0.9589 Y53.5551
X0.9522 Y53.5499
X0.946 Y53.5442
X0.9402 Y53.5381
X0.9349 Y53.5316
X0.9301 Y53.5247
X0.9258 Y53.5174
X0.922 Y53.5099
X0.9188 Y53.5021
X0.9162 Y53.4941
G3 X0.9917 Y53.3756 I2.0816 J1.2437
X1.0126 Y53.3724 I0.012 J0.0088
X1.0187 Y53.3867 I-0.0091 J0.0124
X0.9441 Y53.4822 I-0.1172 J-0.0147
X0.9257 Y53.4876 I-0.0426 J-0.1101 F50.
G2 X0.9163 Y53.494 I0.0031 J0.0146
G1 X0.9125 Y53.5003 F60.
X0.9034 Y53.5157
X0.9014 Y53.5239
X0.8999 Y53.5321
X0.899 Y53.5405
X0.8987 Y53.5489
X0.8991 Y53.5573
X0.9 Y53.5656
X0.9015 Y53.5739
X0.9037 Y53.582
X0.9064 Y53.59
X0.9096 Y53.5977
X0.9135 Y53.6052
X0.9178 Y53.6124
X0.9227 Y53.6192
X0.928 Y53.6257
X0.9338 Y53.6318
X0.94 Y53.6374
X0.9466 Y53.6426
X0.9536 Y53.6473
X0.9609 Y53.6515
X0.9684 Y53.6551
X0.9763 Y53.6582
X0.9843 Y53.6607
X0.9924 Y53.6627
X1.0007 Y53.664
X1.0091 Y53.6647
X1.0175 Y53.6649
X1.0259 Y53.6644
X1.0342 Y53.6633
G3 X1.0998 Y53.5513 I2.0752 J1.1401
G2 X1.0996 Y53.5364 I-0.013 J-0.0073
X1.0818 Y53.5288 I-0.0141 J0.0083
X1.0264 Y53.6344 I0.0178 J0.0767
X1.0334 Y53.648 I0.0732 J-0.029 F50.
G3 X1.0341 Y53.6629 I-0.0126 J0.0081
G1 X1.0215 Y53.6855 F60.
X1.0151 Y53.691
X1.0083 Y53.6959
X1.0011 Y53.7004
X0.9936 Y53.7043
X0.9859 Y53.7077
X0.978 Y53.7105
X0.9698 Y53.7127
X0.9616 Y53.7143
X0.9532 Y53.7153
X0.9448 Y53.7157
X0.9363 Y53.7155
X0.928 Y53.7146
X0.9197 Y53.7132
X0.9115 Y53.7111
X0.9035 Y53.7085
X0.8957 Y53.7053
X0.8882 Y53.7015
X0.8809 Y53.6972
X0.874 Y53.6924
X0.8675 Y53.687
X0.8613 Y53.6813
X0.8557 Y53.675
X0.8504 Y53.6684
X0.8457 Y53.6615
X0.8415 Y53.6542
X0.8378 Y53.6466
X0.8347 Y53.6387
X0.8597 Y53.5929
X0.8852 Y53.5466
X0.9034 Y53.5157
G3 X0.924 Y53.5112 I0.0126 J0.008
X0.932 Y53.5273 I-0.0093 J0.0146
X0.8622 Y53.6254 I-0.1177 J-0.0098
X0.8441 Y53.6318 I-0.0479 J-0.108 F50.
G2 X0.835 Y53.6387 I0.0038 J0.0144
G1 X0.8347 Y53.6392 F60.
X0.8229 Y53.6636
X0.8216 Y53.6719
X0.8208 Y53.6802
X0.8207 Y53.6886
X0.8211 Y53.697
X0.8221 Y53.7053
X0.8238 Y53.7135
X0.826 Y53.7216
X0.8288 Y53.7295
X0.8321 Y53.7371
X0.836 Y53.7446
X0.8404 Y53.7517
X0.8453 Y53.7585
X0.8506 Y53.7649
X0.8564 Y53.7709
X0.8626 Y53.7765
X0.8692 Y53.7817
X0.8762 Y53.7863
X0.8835 Y53.7905
X0.891 Y53.7941
X0.8988 Y53.7972
X0.9068 Y53.7997
X0.9149 Y53.8016
X0.9232 Y53.803
X0.9315 Y53.8037
X0.9399 Y53.8039
X0.9483 Y53.8035
X0.9566 Y53.8024
X0.9648 Y53.8008
G3 X1.0215 Y53.6855 I1.2752 J0.5556
G2 X1.0207 Y53.6706 I-0.0133 J-0.0068
X0.9989 Y53.6632 I-0.0156 J0.0101
X0.9546 Y53.7725 I0.0261 J0.0743
X0.9627 Y53.7855 I0.0705 J-0.035 F50.
G3 X0.9646 Y53.8002 I-0.0118 J0.0091
G1 X0.9537 Y53.8244 F60.
G3 X0.7646 Y53.791 I-0.0826 J-0.0841
X0.8229 Y53.6636 I2.1748 J0.9172
X0.8355 Y53.6556 I0.0132 J0.0069
X0.8782 Y53.6966 I0.0017 J0.041
X0.8745 Y53.7135 I-0.041 J0.
X0.792 Y53.7803 I-0.1076 J-0.0487
X0.7769 Y53.7825 I-0.0251 J-0.1154 F50.
G2 X0.7646 Y53.791 I0.0013 J0.0149
G1 X0.7534 Y53.8173 F60.
X0.7528 Y53.8256
Y53.834
X0.7534 Y53.8424
X0.7546 Y53.8507
X0.7563 Y53.859
X0.7587 Y53.867
X0.7616 Y53.8749
X0.765 Y53.8826
X0.769 Y53.89
X0.7735 Y53.8971
X0.7785 Y53.9038
X0.7839 Y53.9102
X0.7898 Y53.9162
X0.7961 Y53.9218
X0.8028 Y53.9269
X0.8098 Y53.9315
X0.8171 Y53.9357
X0.8247 Y53.9393
X0.8325 Y53.9423
X0.8406 Y53.9448
X0.8487 Y53.9467
X0.857 Y53.948
X0.8654 Y53.9488
X0.8738 Y53.9489
X0.8822 Y53.9485
X0.8905 Y53.9475
X0.8988 Y53.9459
X0.9069 Y53.9437
G3 X0.9537 Y53.8244 I0.9269 J0.2951
G2 X0.9516 Y53.8097 I-0.0138 J-0.0056
X0.9265 Y53.8039 I-0.0161 J0.0126
X0.894 Y53.9159 I0.0346 J0.0707
X0.9033 Y53.9281 I0.0671 J-0.0413 F50.
G3 X0.9066 Y53.9426 I-0.011 J0.0101
G1 X0.8994 Y53.9633 F60.
G3 X0.7061 Y53.9496 I-0.0924 J-0.0674
X0.7534 Y53.8173 I7.0005 J2.4282
X0.7733 Y53.8101 I0.0135 J0.0064
X0.7862 Y53.83 I-0.0096 J0.0204
X0.7313 Y53.9324 I-0.1181 J0.0027
X0.7144 Y53.9413 I-0.0633 J-0.0997 F50.
G2 X0.7064 Y53.9495 I0.0058 J0.0137
G1 X0.7014 Y53.9633 F60.
X0.6993 Y53.9669
G2 X0.8414 Y54.092 I0.1087 J0.0197
X0.8994 Y53.9633 I-0.3798 J-0.2484
X0.896 Y53.9488 I-0.0143 J-0.0043
X0.8513 Y53.9514 I-0.0213 J0.0199
X0.8357 Y54.0637 I0.0948 J0.0704
X0.842 Y54.0776 I0.1104 J-0.0419 F50.
G3 X0.8416 Y54.0925 I-0.0131 J0.0071
G1 X0.8351 Y54.1022 F60.
X0.8334 Y54.1046
X0.8152 Y54.1273
X0.808 Y54.132
X0.8004 Y54.1363
X0.7926 Y54.14
X0.7846 Y54.1431
X0.7764 Y54.1457
X0.768 Y54.1477
X0.7595 Y54.1491
X0.7509 Y54.1499
X0.7423 Y54.1501
X0.7337 Y54.1497
X0.7251 Y54.1488
X0.7166 Y54.1472
X0.7082 Y54.1451
X0.7001 Y54.1423
X0.6921 Y54.139
X0.6844 Y54.1352
X0.6769 Y54.1309
X0.6698 Y54.126
X0.663 Y54.1206
X0.6566 Y54.1148
X0.6507 Y54.1086
X0.6452 Y54.102
X0.6401 Y54.095
X0.6356 Y54.0877
X0.6316 Y54.08
X0.6281 Y54.0722
X0.6251 Y54.064
G2 X0.6993 Y53.9669 I-0.4462 J-0.4176
G3 X0.7124 Y53.9599 I0.0127 J0.0078
X0.7347 Y53.9833 I-0.0007 J0.0229
X0.6561 Y54.0602 I-0.0787 J-0.0019
X0.6408 Y54.0587 I-0.0001 J-0.0787 F50.
G2 X0.6267 Y54.0635 I-0.0029 J0.0146
G1 X0.6138 Y54.0795 F60.
X0.6109 Y54.0872
X0.6087 Y54.0952
X0.607 Y54.1032
X0.606 Y54.1114
X0.6055 Y54.1196
X0.6056 Y54.1279
X0.6063 Y54.1361
X0.6077 Y54.1442
X0.6096 Y54.1522
X0.612 Y54.1601
X0.6151 Y54.1677
X0.6187 Y54.1751
X0.6228 Y54.1823
X0.6275 Y54.1891
X0.6326 Y54.1955
X0.6382 Y54.2016
X0.6442 Y54.2072
X0.6506 Y54.2124
X0.6573 Y54.2171
X0.6644 Y54.2213
X0.6718 Y54.225
X0.6794 Y54.2282
X0.6872 Y54.2307
X0.6952 Y54.2327
X0.7033 Y54.2341
X0.7115 Y54.2349
X0.7198 Y54.2352
X0.728 Y54.2348
G2 X0.8152 Y54.1273 I-15.1195 J-12.3541
X0.8011 Y54.1036 I-0.0119 J-0.0089
X0.7772 Y54.1135 I0.0074 J0.0518
X0.73 Y54.2045 I0.0708 J0.0945
X0.7309 Y54.2236 I0.1181 J0.0036 F50.
G3 X0.728 Y54.2347 I-0.0148 J0.002
G1 X0.7227 Y54.2411 F60.
X0.7119 Y54.2555
X0.7048 Y54.2602
X0.6975 Y54.2644
X0.6899 Y54.268
X0.682 Y54.2711
X0.6739 Y54.2736
X0.6656 Y54.2755
X0.6573 Y54.2768
X0.6488 Y54.2775
X0.6404 Y54.2776
X0.6319 Y54.277
X0.6236 Y54.2758
X0.6153 Y54.2741
X0.6072 Y54.2717
X0.5992 Y54.2687
X0.5915 Y54.2652
X0.5841 Y54.2611
X0.577 Y54.2565
X0.5703 Y54.2514
X0.564 Y54.2458
X0.5581 Y54.2397
X0.5526 Y54.2332
X0.5476 Y54.2264
X0.5432 Y54.2192
X0.5392 Y54.2117
X0.5359 Y54.2039
X0.5331 Y54.1959
X0.5309 Y54.1878
G3 X0.6138 Y54.0795 I1.1883 J0.8234
X0.6279 Y54.0746 I0.0112 J0.0098
X0.6512 Y54.1385 I-0.0076 J0.039
X0.5602 Y54.1827 I-0.0921 J-0.0739
X0.5449 Y54.1819 I-0.001 J-0.1181 F50.
G2 X0.5312 Y54.1877 I-0.0018 J0.0148
G1 X0.5262 Y54.1948 F60.
X0.5157 Y54.2307
G2 X0.5137 Y54.2447 I0.0181 J0.0097
G1 X0.5234 Y54.2778
G2 X0.5282 Y54.2896 I0.023 J-0.0026
X0.7063 Y54.2543 I0.0815 J-0.0555
G1 X0.7079 Y54.2531
X0.7093 Y54.2516
X0.7105 Y54.2498
X0.7112 Y54.2477
X0.7116 Y54.2455
X0.7115 Y54.2431
X0.7109 Y54.2407
X0.7098 Y54.2384
X0.7083 Y54.2363
X0.7063 Y54.2345
X0.704 Y54.233
X0.7013 Y54.2321
G2 X0.6972 Y54.2322 I-0.0016 J0.0148
G1 X0.5415 Y54.2584
X0.5354 Y54.2594 F50.
G2 X0.5234 Y54.2778 I0.0025 J0.0147
G1 X0.5262 Y54.2874 F60.
X0.5282 Y54.2896
G2 X0.5532 Y54.2759 I0.0104 J-0.0107
X0.5408 Y54.2252 I-0.0731 J-0.0089
X0.5157 Y54.2307 I-0.0109 J0.0102 F50.
G1 X0.5127 Y54.2411 F60.
X0.5137 Y54.2447
G2 X0.5252 Y54.2547 I0.0142 J-0.0047
G1 X0.528 Y54.2552 Z-0.1672
X0.5308 Y54.2557 Z-0.1664
X0.5333 Y54.2562 Z-0.165
X0.5355 Y54.2566 Z-0.1631
X0.5373 Y54.2569 Z-0.1609
X0.5387 Y54.2572 Z-0.1583
X0.5395 Y54.2573 Z-0.1555
X0.5398 Y54.2574 Z-0.1526
G0 Z-0.1377
X1.4834 Y52.8601
G1 Z-0.1526 F50.
X1.4831 Y52.8602 Z-0.1555
X1.4823 Y52.8604 Z-0.1583
X1.4809 Y52.8607 Z-0.1609
X1.4791 Y52.8612 Z-0.1631
X1.4769 Y52.8618 Z-0.165
X1.4744 Y52.8624 Z-0.1664
X1.4717 Y52.8631 Z-0.1672
X1.4689 Y52.8638 Z-0.1675
G3 X1.3877 Y52.8755 I-0.0945 J-0.369
G1 X1.3815 Y52.8709 F60.
X1.3756 Y52.8659
X1.3702 Y52.8604
X1.3652 Y52.8546
X1.3607 Y52.8483
X1.3567 Y52.8418
X1.3532 Y52.8349
X1.3502 Y52.8278
X1.3479 Y52.8205
X1.346 Y52.813
X1.3448 Y52.8054
X1.3442 Y52.7977
X1.3441 Y52.79
X1.3447 Y52.7823
X1.3458 Y52.7747
X1.3476 Y52.7672
X1.3499 Y52.7599
X1.3527 Y52.7527
X1.3562 Y52.7458
X1.3601 Y52.7392
X1.3645 Y52.7329
X1.3695 Y52.727
X1.3748 Y52.7215
X1.3806 Y52.7164
X1.3867 Y52.7118
X1.3932 Y52.7077
X1.4 Y52.704
X1.4071 Y52.701
G3 X2.0384 Y52.1991 I1.2809 J0.9635
X2.7786 Y51.614 I2.0937 J1.8879
X3.1435 Y51.5081 I0.3595 J0.5568
G1 X3.1539 Y51.5112
X3.164 Y51.5149
X3.1739 Y51.5192
X3.1836 Y51.5241
X3.1929 Y51.5295
X3.202 Y51.5354
X3.2107 Y51.5418
X3.219 Y51.5487
X3.2268 Y51.5561
X3.2343 Y51.564
X3.2413 Y51.5722
X3.2478 Y51.5808
X3.2538 Y51.5898
X3.2592 Y51.5991
X3.2642 Y51.6087
X3.2685 Y51.6186
X3.2723 Y51.6288
X3.2755 Y51.6391
X3.2781 Y51.6496
X3.2801 Y51.6602
X3.2815 Y51.6709
X3.2823 Y51.6817
X3.2824 Y51.6925
X3.282 Y51.7033
X3.2809 Y51.714
X3.2792 Y51.7247
X3.2769 Y51.7352
X3.274 Y51.7456
X3.2704 Y51.7559
X3.2664 Y51.7659
X3.2617 Y51.7756
X3.2565 Y51.7851
X3.2508 Y51.7942
X3.2445 Y51.803
X3.2377 Y51.8115
X3.2305 Y51.8195
X3.2228 Y51.8271
X3.2147 Y51.8343
X3.2063 Y51.8409
X3.1974 Y51.8471
X3.1882 Y51.8528
X3.1787 Y51.8579
X3.1689 Y51.8625
X3.1588 Y51.8665
X3.1486 Y51.8699
X3.1382 Y51.8727
X3.1276 Y51.8749
X3.1169 Y51.8765
G2 X2.2585 Y52.5073 I1.2815 J2.6434
X1.5197 Y53.1767 I1.0139 J1.8614
X0.995 Y53.9945 I1.6709 J1.6493
G1 X0.9864 Y54.0165
X0.9772 Y54.0383
X0.9675 Y54.0599
X0.9573 Y54.0812
X0.9465 Y54.1022
X0.9351 Y54.123
X0.9233 Y54.1435
X0.9109 Y54.1636
X0.898 Y54.1835
X0.8846 Y54.203
X0.8708 Y54.2221
X0.8564 Y54.2409
X0.8416 Y54.2593
X0.8263 Y54.2774
X0.8105 Y54.295
X0.7943 Y54.3122
X0.7777 Y54.3291
X0.7607 Y54.3455
X0.7432 Y54.3614
X0.7253 Y54.3769
X0.7071 Y54.392
X0.6885 Y54.4065
X0.6695 Y54.4206
G3 X0.5086 Y54.0684 I-0.0492 J-0.1904
G2 X0.7564 Y53.5753 I-2.929 J-1.7801
G3 X0.9313 Y53.2882 I2.3308 J1.2236
X1.2417 Y52.8924 I8.0113 J5.9623
X1.4782 Y52.4905 I0.474 J0.0084
X1.9901 Y52.1112 I1.0467 J0.8774
X2.2316 Y51.8725 I1.5687 J1.3456
G1 X2.2588 Y51.8483
X2.2865 Y51.8245
X2.3145 Y51.8012
X2.3428 Y51.7783
X2.3716 Y51.7559
X2.4007 Y51.734
X2.4301 Y51.7125
X2.4599 Y51.6915
X2.4901 Y51.671
X2.5205 Y51.651
X2.5513 Y51.6315
X2.5824 Y51.6125
X2.6138 Y51.594
X2.6455 Y51.576
X2.6774 Y51.5585
X2.7097 Y51.5415
X2.7422 Y51.5251
X2.775 Y51.5091
X2.808 Y51.4938
X2.8413 Y51.4789
X2.8748 Y51.4646
X2.9086 Y51.4508
X2.9425 Y51.4376
X2.9767 Y51.4249
X3.011 Y51.4128
X3.0456 Y51.4012
G3 X3.1438 Y51.9732 I0.0388 J0.2878
X3.0074 Y52.0464 I-0.7681 J-1.2686
G2 X2.2846 Y52.6064 I1.9315 J3.2392
X1.5948 Y53.242 I0.993 J1.77
G1 X1.5745 Y53.2649
X1.5339 Y53.3106
X1.5138 Y53.3336
G2 X1.0432 Y54.1483 I1.7107 J1.5313
G3 X0.7538 Y54.4782 I-0.9652 J-0.555
G1 X0.6827 Y54.4937
X0.6596 Y54.4986
X0.6133 Y54.506
G3 X0.3396 Y54.3102 I-0.0237 J-0.2561
X0.3621 Y54.2979 I0.0149 J0.0005
G1 X0.3631 Y54.2985
X0.619 Y54.4792
X0.6205 Y54.4804
X0.6218 Y54.4818
G3 X0.6133 Y54.506 I-0.0114 J0.0096 F50.
X0.4377 Y54.5295 I-0.1713 J-0.6112 F60.
X0.3396 Y54.4135 I0.0131 J-0.1105
G1 Y54.2052
G3 X0.5166 Y53.8646 I0.8716 J0.2366
X1.1284 Y52.8852 I2.8116 J1.0755
X1.3102 Y52.5047 I0.599 J0.0526
G1 X1.3346 Y52.478
X1.3593 Y52.4518
X1.3845 Y52.4259
X1.4101 Y52.4005
X1.4361 Y52.3754
X1.4625 Y52.3508
X1.4893 Y52.3267
X1.5164 Y52.3029
X1.544 Y52.2796
X1.5719 Y52.2568
X1.6002 Y52.2344
X1.6289 Y52.2124
X1.6579 Y52.191
X1.6873 Y52.17
X1.7169 Y52.1494
X1.747 Y52.1294
X1.7773 Y52.1098
X1.8079 Y52.0908
X1.8389 Y52.0722
X1.8701 Y52.0542
X1.9017 Y52.0366
X1.9335 Y52.0196
X1.9616 Y51.9895
X1.9902 Y51.9599
X2.0192 Y51.9306
X2.0487 Y51.9018
X2.0786 Y51.8735
X2.1088 Y51.8456
X2.1395 Y51.8181
X2.1706 Y51.7911
X2.2021 Y51.7646
X2.234 Y51.7385
X2.2663 Y51.7129
X2.299 Y51.6878
X2.332 Y51.6632
X2.3654 Y51.6391
X2.3991 Y51.6154
X2.4332 Y51.5923
X2.4676 Y51.5697
X2.5023 Y51.5476
X2.5374 Y51.526
X2.5728 Y51.5049
X2.6085 Y51.4844
X2.6445 Y51.4643
X2.6808 Y51.4449
X2.7174 Y51.4259
X2.7542 Y51.4075
X2.7913 Y51.3897
X2.8287 Y51.3724
X2.8663 Y51.3557
X2.9042 Y51.3395
X2.9088 Y51.3399
X2.9135 Y51.34
X2.9181 Y51.3397
X3.1821 Y51.3396
G3 X3.4123 Y51.4843 I-0.0303 J0.3037
X3.3899 Y51.4998 I-0.0147 J0.0028
G1 X3.1748 Y51.3672
X3.1728 Y51.3658
X3.1712 Y51.3641
X3.1698 Y51.3621
G3 X3.1821 Y51.3396 I0.0128 J-0.0076 F50.
X3.3643 Y51.3675 I0.0625 J0.201 F60.
X3.4466 Y51.567 I-0.9157 J0.4942
X3.3938 Y51.9159 I-0.3168 J0.1305
X3.3866 Y51.9178 I-0.0072 J-0.0131
X3.3717 Y51.9016 I0. J-0.0149
G1 X3.4018 Y51.5582
G3 X3.4236 Y51.5463 I0.0149 J0.0013
X3.4466 Y51.567 I-0.0289 J0.0552 F50.
X3.4895 Y51.7058 I-0.113 J0.111 F60.
X3.4355 Y51.886 I-0.3767 J-0.0148
G2 X3.2611 Y52.0091 I0.4104 J0.7668
G3 X2.8603 Y52.2531 I-11.2334 J-18.0015
X2.1942 Y52.7883 I-8.9306 J-10.4319
G2 X1.7351 Y53.2299 I0.8231 J1.3151
X1.1102 Y54.2337 I1.9751 J1.926
G3 X0.9542 Y54.4286 I-3.0577 J-2.2878
G1 X0.8678 Y54.4527
X0.8447 Y54.4584
X0.7538 Y54.4782
G3 X0.7397 Y54.4732 I-0.0027 J-0.0147
X0.7568 Y54.3916 I0.0402 J-0.0342
X0.9288 Y54.4139 I0.0691 J0.1415
X0.9399 Y54.4244 I-0.1029 J0.1192 F50.
G2 X0.9542 Y54.4286 I0.0108 J-0.0103
X1.1568 Y54.2508 I-0.0046 J-0.2095 F60.
G1 X1.1957 Y54.2052
X1.2041 Y54.1955
X1.215 Y54.1858
G2 X1.4203 Y53.798 I-14.5966 J-7.9776
G3 X2.033 Y53.0373 I6.8217 J4.8674
X2.4726 Y52.7082 I2.3467 J2.6763
X3.1724 Y52.1839 I2.0171 J1.9632
X3.2611 Y52.0091 I0.3569 J0.0711
G2 X3.2627 Y51.9943 I-0.012 J-0.0088
X3.2069 Y51.9702 I-0.0409 J0.018
X3.157 Y52.1589 I0.0393 J0.1114
X3.1677 Y52.1698 I0.0893 J-0.0774 F50.
G3 X3.1724 Y52.1839 I-0.0099 J0.0111
G1 X3.1705 Y52.1918 F60.
X3.166 Y52.215
X3.1656 Y52.2277
G3 X2.9318 Y52.4496 I-0.4432 J-0.2329
X2.1639 Y53.0541 I-4.3379 J-4.7202
G2 X1.7188 Y53.557 I4.0484 J4.0318
X1.3842 Y54.0928 I1.5795 J1.3587
X1.215 Y54.1858 I0.0829 J0.3513
G3 X1.2003 Y54.1882 I-0.0094 J-0.0116
X1.1742 Y54.1302 I0.016 J-0.0421
X1.3564 Y54.0781 I0.1105 J0.0417
X1.3679 Y54.0882 I-0.0717 J0.0938 F50.
G2 X1.3823 Y54.092 I0.0105 J-0.0106
G1 X1.3905 Y54.0895 F60.
X1.4001 Y54.0869
X1.4233 Y54.0841
G2 X1.6097 Y53.8617 I-0.1613 J-0.3246
G3 X2.2625 Y53.0908 I6.2284 J4.6124
G2 X2.799 Y52.6846 I-1.3576 J-2.3509
X3.1837 Y52.3773 I-18.9664 J-24.1367
G3 X3.1656 Y52.2277 I0.3598 J-0.1194
G2 X3.1507 Y52.2128 I-0.0149 J0.0001
X3.0988 Y52.2702 I0.0002 J0.0523
X3.158 Y52.3614 I0.1176 J-0.0114
X3.1754 Y52.3695 I0.0584 J-0.1027 F50.
G3 X3.1837 Y52.3773 I-0.0052 J0.014
G1 X3.1933 Y52.4001 F60.
X3.1931 Y52.4115
X3.1923 Y52.4228
X3.1909 Y52.4341
X3.1889 Y52.4453
X3.1864 Y52.4563
X3.1832 Y52.4673
X3.1795 Y52.478
X3.1753 Y52.4885
X3.1705 Y52.4988
X3.1652 Y52.5089
X3.1594 Y52.5186
X3.1531 Y52.5281
X3.1462 Y52.5372
X3.139 Y52.5459
X3.1313 Y52.5542
X3.1231 Y52.5622
X3.1146 Y52.5696
X3.1057 Y52.5767
X3.0964 Y52.5833
X3.0868 Y52.5893
X3.0769 Y52.5949
X3.0667 Y52.5999
X3.0563 Y52.6045
X3.0457 Y52.6084
X3.0348 Y52.6118
G3 X2.2434 Y53.2409 I-4.1977 J-4.4686
G1 X2.0282 Y53.5009
X1.8128 Y53.7608
G3 X1.5741 Y54.0947 I-2.7096 J-1.6842
G2 X1.4233 Y54.0841 I-0.0996 J0.3384
G3 X1.41 Y54.0774 I-0.0008 J-0.0149
X1.4724 Y53.9862 I0.0501 J-0.0326
X1.5613 Y54.0682 I-0.0242 J0.1156
X1.5647 Y54.0831 I-0.1132 J0.0336 F50.
G2 X1.5741 Y54.0947 I0.0147 J-0.0024
