%
(971-23-P-0034_CAPSTAN COVER PLATE_1523)
(T1  D=0.1523 CR=0. - ZMIN=-0.2175 - FLAT END MILL)
G90 G94 G17 G91.1
G64 P0.001 Q0.001
G20
G53 G0 Z0.
(.3 CIRCLUAR THROUGH HOLE 2)
M9
T1 M6
S22000 M3
G4 P10.
G54
M7
G0 X0.8686 Y51.2143
G43 Z0.6 H1
G0 Z0.13
G1 Z0.0652 F40.
G19 G2 Y51.199 Z0.05 J-0.0152 K0.
G1 Y51.1914
G17 G3 X0.8774 Y51.1826 I0.0089 J0.
Y51.218 Z0.0335 I0. J0.0177
Y51.1826 Z0.0169 I0. J-0.0177
Y51.218 Z0.0004 I0. J0.0177
Y51.1826 Z-0.0162 I0. J-0.0177
X0.8944 Y51.1953 Z-0.023 I0. J0.0177
X0.8605 Y51.2053 Z-0.0395 I-0.017 J0.005
X0.8708 Y51.1839 Z-0.0473 I0.017 J-0.005
X0.884 Y51.2167 Z-0.0638 I0.0066 J0.0164
X0.8617 Y51.2084 Z-0.0716 I-0.0066 J-0.0164
X0.8931 Y51.1921 Z-0.0881 I0.0157 J-0.0082
X0.8871 Y51.2151 Z-0.0959 I-0.0157 J0.0082
X0.8678 Y51.1854 Z-0.1125 I-0.0096 J-0.0149
X0.8913 Y51.1893 Z-0.1202 I0.0096 J0.0149
X0.8636 Y51.2113 Z-0.1368 I-0.0139 J0.011
X0.8913 Y51.1893 Z-0.1533 I0.0139 J-0.011
X0.8659 Y51.2137 Z-0.1689 I-0.0139 J0.011
X0.889 Y51.1868 Z-0.1854 I0.0115 J-0.0134
X0.8919 Y51.2105 Z-0.1932 I-0.0115 J0.0134
X0.863 Y51.1901 Z-0.2097 I-0.0145 J-0.0102
X0.8862 Y51.1849 Z-0.2175 I0.0145 J0.0102
X0.8687 Y51.2156 I-0.0088 J0.0154
X0.8862 Y51.1849 I0.0088 J-0.0154
X0.8895 Y51.197 I-0.0044 J0.0077
G1 X0.8857 Y51.2036
X0.8843 Y51.2062 Z-0.2172
X0.8829 Y51.2086 Z-0.2163
X0.8815 Y51.2109 Z-0.2149
X0.8804 Y51.2129 Z-0.213
X0.8795 Y51.2146 Z-0.2107
X0.8788 Y51.2158 Z-0.2081
X0.8783 Y51.2166 Z-0.2052
X0.8782 Y51.2168 Z-0.2023
G0 Z0.4
X0.6877 Y51.5688
Z0.13
G1 Z0.0652 F40.
G19 G2 Y51.5536 Z0.05 J-0.0152 K0.
G1 Y51.546
G17 G3 X0.6999 Y51.5338 I0.0122 J0.
Y51.5825 Z0.0323 I0. J0.0244
X0.6775 Y51.5676 Z0.0257 I0. J-0.0243
X0.7223 Y51.5486 Z0.008 I0.0224 J-0.0095
X0.7174 Y51.5751 Z0.0014 I-0.0224 J0.0095
X0.6824 Y51.5412 Z-0.0164 I-0.0175 J-0.0169
X0.7086 Y51.5354 Z-0.023 I0.0175 J0.0169
X0.6911 Y51.5809 Z-0.0407 I-0.0087 J0.0227
X0.6755 Y51.559 Z-0.0473 I0.0087 J-0.0227
X0.7242 Y51.5573 Z-0.065 I0.0243 J-0.0008
X0.7101 Y51.5802 Z-0.0716 I-0.0243 J0.0008
X0.6896 Y51.5361 Z-0.0893 I-0.0103 J-0.0221
X0.7101 Y51.5802 Z-0.107 I0.0103 J0.0221
X0.6769 Y51.5502 Z-0.1202 I-0.0103 J-0.0221
X0.7229 Y51.5661 Z-0.1379 I0.023 J0.008
X0.6769 Y51.5502 Z-0.1557 I-0.023 J-0.008
X0.7216 Y51.5471 Z-0.1689 I0.023 J0.008
X0.6782 Y51.5692 Z-0.1866 I-0.0217 J0.011
X0.6813 Y51.5424 Z-0.1932 I0.0217 J-0.011
X0.7185 Y51.5738 Z-0.2109 I0.0186 J0.0157
X0.6927 Y51.5814 Z-0.2175 I-0.0186 J-0.0157
X0.7071 Y51.5349 I0.0072 J-0.0233
X0.6927 Y51.5814 I-0.0072 J0.0233
X0.6847 Y51.5662 I0.0036 J-0.0116
G1 X0.6869 Y51.5589
X0.6878 Y51.5561 Z-0.2172
X0.6886 Y51.5533 Z-0.2163
X0.6894 Y51.5508 Z-0.2149
X0.6901 Y51.5486 Z-0.213
X0.6906 Y51.5468 Z-0.2107
X0.691 Y51.5455 Z-0.2081
X0.6913 Y51.5446 Z-0.2052
X0.6914 Y51.5443 Z-0.2023
G0 Z0.4
X0.3993 Y51.7969
Z0.13
G1 Z0.0652 F40.
G19 G3 Y51.8121 Z0.05 J0.0152 K0.
G1 Y51.8197
G17 G3 X0.3905 Y51.8286 I-0.0089 J0.
Y51.7932 Z0.0335 I0. J-0.0177
Y51.8286 Z0.0169 I0. J0.0177
X0.3871 Y51.7935 Z0.0014 I0. J-0.0177
X0.3939 Y51.8282 Z-0.0152 I0.0034 J0.0174
X0.3735 Y51.8159 Z-0.023 I-0.0034 J-0.0174
X0.4075 Y51.8059 Z-0.0395 I0.017 J-0.005
X0.3971 Y51.8273 Z-0.0473 I-0.017 J0.005
X0.3839 Y51.7944 Z-0.0638 I-0.0066 J-0.0164
X0.3971 Y51.8273 Z-0.0804 I0.0066 J0.0164
X0.3809 Y51.796 Z-0.0959 I-0.0066 J-0.0164
X0.4001 Y51.8257 Z-0.1125 I0.0096 J0.0149
X0.3766 Y51.8219 Z-0.1202 I-0.0096 J-0.0149
X0.4044 Y51.7999 Z-0.1368 I0.0139 J-0.011
X0.4028 Y51.8236 Z-0.1445 I-0.0139 J0.011
X0.3782 Y51.7981 Z-0.1611 I-0.0123 J-0.0128
X0.402 Y51.7974 Z-0.1689 I0.0123 J0.0128
X0.379 Y51.8243 Z-0.1854 I-0.0115 J0.0134
X0.376 Y51.8007 Z-0.1932 I0.0115 J-0.0134
X0.405 Y51.8211 Z-0.2097 I0.0145 J0.0102
X0.3817 Y51.8263 Z-0.2175 I-0.0145 J-0.0102
X0.3993 Y51.7955 I0.0088 J-0.0154
X0.3817 Y51.8263 I-0.0088 J0.0154
X0.3784 Y51.8142 I0.0044 J-0.0077
G1 X0.3822 Y51.8076
X0.3837 Y51.805 Z-0.2172
X0.3851 Y51.8025 Z-0.2163
X0.3864 Y51.8002 Z-0.2149
X0.3875 Y51.7982 Z-0.213
X0.3885 Y51.7966 Z-0.2107
X0.3892 Y51.7953 Z-0.2081
X0.3896 Y51.7946 Z-0.2052
X0.3897 Y51.7943 Z-0.2023
G0 Z0.4
X0.0122 Y51.8845
Z0.13
G1 Z0.0652 F40.
G19 G3 Y51.8997 Z0.05 J0.0152 K0.
G1 Y51.9074
G17 G3 X0. Y51.9195 I-0.0122 J0.
Y51.8708 Z0.0323 I0. J-0.0244
X0.0224 Y51.8857 Z0.0257 I0. J0.0243
X-0.0224 Y51.9047 Z0.008 I-0.0224 J0.0095
X-0.0175 Y51.8783 Z0.0014 I0.0224 J-0.0095
X0.0175 Y51.9121 Z-0.0164 I0.0175 J0.0169
X-0.0175 Y51.8783 Z-0.0341 I-0.0175 J-0.0169
X0.0243 Y51.8943 Z-0.0473 I0.0175 J0.0169
X-0.0243 Y51.896 Z-0.065 I-0.0243 J0.0008
X-0.0103 Y51.8731 Z-0.0716 I0.0243 J-0.0008
X0.0103 Y51.9173 Z-0.0893 I0.0103 J0.0221
X-0.0103 Y51.8731 Z-0.107 I-0.0103 J-0.0221
X0.0103 Y51.9173 Z-0.1248 I0.0103 J0.0221
X-0.0103 Y51.8731 Z-0.1425 I-0.0103 J-0.0221
X-0.0017 Y51.8709 Z-0.1445 I0.0103 J0.0221
X0.0017 Y51.9195 Z-0.1623 I0.0017 J0.0243
X-0.0217 Y51.9062 Z-0.1689 I-0.0017 J-0.0243
X0.0217 Y51.8842 Z-0.1866 I0.0217 J-0.011
X0.0186 Y51.9109 Z-0.1932 I-0.0217 J0.011
X-0.0186 Y51.8795 Z-0.2109 I-0.0186 J-0.0157
X0.0072 Y51.8719 Z-0.2175 I0.0186 J0.0157
X-0.0072 Y51.9184 I-0.0072 J0.0233
X0.0072 Y51.8719 I0.0072 J-0.0233
X0.0152 Y51.8871 I-0.0036 J0.0116
G1 X0.013 Y51.8944
X0.0121 Y51.8972 Z-0.2172
X0.0113 Y51.9 Z-0.2163
X0.0105 Y51.9025 Z-0.2149
X0.0098 Y51.9047 Z-0.213
X0.0092 Y51.9065 Z-0.2107
X0.0088 Y51.9079 Z-0.2081
X0.0086 Y51.9087 Z-0.2052
X0.0085 Y51.909 Z-0.2023
G0 Z0.4
X-0.3816 Y51.7969
Z0.13
G1 Z0.0652 F40.
G19 G3 Y51.8121 Z0.05 J0.0152 K0.
G1 Y51.8197
G17 G3 X-0.3905 Y51.8286 I-0.0088 J0.
Y51.7932 Z0.0335 I0. J-0.0177
Y51.8286 Z0.0169 I0. J0.0177
X-0.3939 Y51.7935 Z0.0014 I0. J-0.0177
X-0.3871 Y51.8282 Z-0.0152 I0.0034 J0.0174
X-0.4075 Y51.8159 Z-0.023 I-0.0034 J-0.0174
X-0.3735 Y51.8059 Z-0.0395 I0.017 J-0.005
X-0.3839 Y51.8273 Z-0.0473 I-0.017 J0.005
X-0.3971 Y51.7944 Z-0.0638 I-0.0066 J-0.0164
X-0.3839 Y51.8273 Z-0.0804 I0.0066 J0.0164
X-0.4001 Y51.796 Z-0.0959 I-0.0066 J-0.0164
X-0.3809 Y51.8257 Z-0.1125 I0.0096 J0.0149
X-0.4044 Y51.8219 Z-0.1202 I-0.0096 J-0.0149
X-0.3766 Y51.7999 Z-0.1368 I0.0139 J-0.011
X-0.3782 Y51.8236 Z-0.1445 I-0.0139 J0.011
X-0.4028 Y51.7981 Z-0.1611 I-0.0123 J-0.0128
X-0.379 Y51.7974 Z-0.1689 I0.0123 J0.0128
X-0.402 Y51.8243 Z-0.1854 I-0.0115 J0.0134
X-0.405 Y51.8007 Z-0.1932 I0.0115 J-0.0134
X-0.376 Y51.8211 Z-0.2097 I0.0145 J0.0102
X-0.3993 Y51.8263 Z-0.2175 I-0.0145 J-0.0102
X-0.3817 Y51.7955 I0.0088 J-0.0154
X-0.3993 Y51.8263 I-0.0088 J0.0154
X-0.4026 Y51.8142 I0.0044 J-0.0077
G1 X-0.3988 Y51.8076
X-0.3973 Y51.805 Z-0.2172
X-0.3959 Y51.8025 Z-0.2163
X-0.3946 Y51.8002 Z-0.2149
X-0.3935 Y51.7982 Z-0.213
X-0.3925 Y51.7966 Z-0.2107
X-0.3918 Y51.7953 Z-0.2081
X-0.3914 Y51.7946 Z-0.2052
X-0.3913 Y51.7943 Z-0.2023
G0 Z0.4
X-0.7121 Y51.5688
Z0.13
G1 Z0.0652 F40.
G19 G2 Y51.5536 Z0.05 J-0.0152 K0.
G1 Y51.546
G17 G3 X-0.6999 Y51.5338 I0.0122 J0.
Y51.5825 Z0.0323 I0. J0.0244
X-0.7223 Y51.5676 Z0.0257 I0. J-0.0243
X-0.6775 Y51.5486 Z0.008 I0.0224 J-0.0095
X-0.6824 Y51.5751 Z0.0014 I-0.0224 J0.0095
X-0.7174 Y51.5412 Z-0.0164 I-0.0175 J-0.0169
X-0.6824 Y51.5751 Z-0.0341 I0.0175 J0.0169
X-0.7242 Y51.559 Z-0.0473 I-0.0175 J-0.0169
X-0.6755 Y51.5573 Z-0.065 I0.0243 J-0.0008
X-0.6896 Y51.5802 Z-0.0716 I-0.0243 J0.0008
X-0.7101 Y51.5361 Z-0.0893 I-0.0103 J-0.0221
X-0.6896 Y51.5802 Z-0.107 I0.0103 J0.0221
X-0.7229 Y51.5502 Z-0.1202 I-0.0103 J-0.0221
X-0.6769 Y51.5661 Z-0.1379 I0.023 J0.008
X-0.7229 Y51.5502 Z-0.1557 I-0.023 J-0.008
X-0.6782 Y51.5471 Z-0.1689 I0.023 J0.008
X-0.7216 Y51.5692 Z-0.1866 I-0.0217 J0.011
X-0.7185 Y51.5424 Z-0.1932 I0.0217 J-0.011
X-0.6813 Y51.5738 Z-0.2109 I0.0186 J0.0157
X-0.7071 Y51.5814 Z-0.2175 I-0.0186 J-0.0157
X-0.6927 Y51.5349 I0.0072 J-0.0233
X-0.7071 Y51.5814 I-0.0072 J0.0233
X-0.7151 Y51.5662 I0.0036 J-0.0116
G1 X-0.7129 Y51.5589
X-0.712 Y51.5561 Z-0.2172
X-0.7111 Y51.5533 Z-0.2163
X-0.7104 Y51.5508 Z-0.2149
X-0.7097 Y51.5486 Z-0.213
X-0.7091 Y51.5468 Z-0.2107
X-0.7087 Y51.5455 Z-0.2081
X-0.7085 Y51.5446 Z-0.2052
X-0.7084 Y51.5443 Z-0.2023
G0 Z0.4
X-0.8863 Y51.2143
Z0.13
G1 Z0.0652 F40.
G19 G2 Y51.199 Z0.05 J-0.0152 K0.
G1 Y51.1914
G17 G3 X-0.8774 Y51.1826 I0.0089 J0.
Y51.218 Z0.0335 I0. J0.0177
Y51.1826 Z0.0169 I0. J-0.0177
Y51.218 Z0.0004 I0. J0.0177
Y51.1826 Z-0.0162 I0. J-0.0177
X-0.8605 Y51.1953 Z-0.023 I0. J0.0177
X-0.8944 Y51.2053 Z-0.0395 I-0.017 J0.005
X-0.884 Y51.1839 Z-0.0473 I0.017 J-0.005
X-0.8708 Y51.2167 Z-0.0638 I0.0066 J0.0164
X-0.8931 Y51.2084 Z-0.0716 I-0.0066 J-0.0164
X-0.8617 Y51.1921 Z-0.0881 I0.0157 J-0.0082
X-0.8678 Y51.2151 Z-0.0959 I-0.0157 J0.0082
X-0.8871 Y51.1854 Z-0.1125 I-0.0096 J-0.0149
X-0.8636 Y51.1893 Z-0.1202 I0.0096 J0.0149
X-0.8913 Y51.2113 Z-0.1368 I-0.0139 J0.011
X-0.8636 Y51.1893 Z-0.1533 I0.0139 J-0.011
X-0.889 Y51.2137 Z-0.1689 I-0.0139 J0.011
X-0.8659 Y51.1868 Z-0.1854 I0.0115 J-0.0134
X-0.863 Y51.2105 Z-0.1932 I-0.0115 J0.0134
X-0.8919 Y51.1901 Z-0.2097 I-0.0145 J-0.0102
X-0.8687 Y51.1849 Z-0.2175 I0.0145 J0.0102
X-0.8862 Y51.2156 I-0.0088 J0.0154
X-0.8687 Y51.1849 I0.0088 J-0.0154
X-0.8654 Y51.197 I-0.0044 J0.0077
G1 X-0.8691 Y51.2036
X-0.8706 Y51.2062 Z-0.2172
X-0.872 Y51.2086 Z-0.2163
X-0.8733 Y51.2109 Z-0.2149
X-0.8745 Y51.2129 Z-0.213
X-0.8754 Y51.2146 Z-0.2107
X-0.8761 Y51.2158 Z-0.2081
X-0.8765 Y51.2166 Z-0.2052
X-0.8767 Y51.2168 Z-0.2023
G0 Z0.4
X-0.8849 Y50.8115
Z0.13
G1 Z0.0652 F40.
G19 G2 Y50.7962 Z0.05 J-0.0152 K0.
G1 Y50.7886
G17 G3 X-0.8727 Y50.7765 I0.0122 J0.
Y50.8252 Z0.0323 I0. J0.0244
X-0.8951 Y50.8103 Z0.0257 I0. J-0.0244
X-0.8503 Y50.7913 Z0.008 I0.0224 J-0.0095
X-0.8951 Y50.8103 Z-0.0098 I-0.0224 J0.0095
X-0.8503 Y50.7913 Z-0.0275 I0.0224 J-0.0095
X-0.8951 Y50.8103 Z-0.0452 I-0.0224 J0.0095
X-0.8971 Y50.8016 Z-0.0473 I0.0224 J-0.0095
X-0.8484 Y50.8 Z-0.065 I0.0243 J-0.0008
X-0.8625 Y50.8229 Z-0.0716 I-0.0243 J0.0008
X-0.883 Y50.7787 Z-0.0893 I-0.0103 J-0.0221
X-0.8625 Y50.8229 Z-0.107 I0.0103 J0.0221
X-0.883 Y50.7787 Z-0.1248 I-0.0103 J-0.0221
X-0.8625 Y50.8229 Z-0.1425 I0.0103 J0.0221
X-0.8711 Y50.8251 Z-0.1445 I-0.0103 J-0.0221
X-0.8744 Y50.7765 Z-0.1623 I-0.0017 J-0.0243
X-0.851 Y50.7898 Z-0.1689 I0.0017 J0.0243
X-0.8945 Y50.8118 Z-0.1866 I-0.0217 J0.011
X-0.851 Y50.7898 Z-0.2043 I0.0217 J-0.011
X-0.8799 Y50.8241 Z-0.2175 I-0.0217 J0.011
X-0.8656 Y50.7775 I0.0072 J-0.0233
X-0.8799 Y50.8241 I-0.0072 J0.0233
X-0.888 Y50.8089 I0.0036 J-0.0116
G1 X-0.8857 Y50.8016
X-0.8848 Y50.7987 Z-0.2172
X-0.884 Y50.796 Z-0.2163
X-0.8832 Y50.7935 Z-0.2149
X-0.8825 Y50.7913 Z-0.213
X-0.882 Y50.7895 Z-0.2107
X-0.8816 Y50.7881 Z-0.2081
X-0.8813 Y50.7873 Z-0.2052
X-0.8812 Y50.787 Z-0.2023
G0 Z0.4
X-0.7125 Y50.4529
Z0.13
G1 Z0.0652 F40.
G19 G2 Y50.4376 Z0.05 J-0.0152 K0.
G1 Y50.43
G17 G3 X-0.7036 Y50.4212 I0.0089 J0.
Y50.4566 Z0.0335 I0. J0.0177
Y50.4212 Z0.0169 I0. J-0.0177
Y50.4566 Z0.0004 I0. J0.0177
Y50.4212 Z-0.0162 I0. J-0.0177
X-0.6867 Y50.4338 Z-0.023 I0. J0.0177
X-0.7206 Y50.4439 Z-0.0395 I-0.017 J0.005
X-0.6867 Y50.4338 Z-0.0561 I0.017 J-0.005
X-0.7194 Y50.447 Z-0.0716 I-0.017 J0.005
X-0.6879 Y50.4307 Z-0.0881 I0.0157 J-0.0082
X-0.694 Y50.4537 Z-0.0959 I-0.0157 J0.0082
X-0.7133 Y50.424 Z-0.1125 I-0.0096 J-0.0149
X-0.6898 Y50.4279 Z-0.1202 I0.0096 J0.0149
X-0.7175 Y50.4498 Z-0.1368 I-0.0139 J0.011
X-0.7159 Y50.4261 Z-0.1445 I0.0139 J-0.011
X-0.6914 Y50.4516 Z-0.1611 I0.0123 J0.0128
X-0.7159 Y50.4261 Z-0.1776 I-0.0123 J-0.0128
X-0.6892 Y50.4491 Z-0.1932 I0.0123 J0.0128
X-0.7181 Y50.4287 Z-0.2097 I-0.0145 J-0.0102
X-0.6949 Y50.4235 Z-0.2175 I0.0145 J0.0102
X-0.7124 Y50.4542 I-0.0088 J0.0154
X-0.6949 Y50.4235 I0.0088 J-0.0154
X-0.6916 Y50.4356 I-0.0044 J0.0077
G1 X-0.6953 Y50.4422
X-0.6968 Y50.4448 Z-0.2172
X-0.6982 Y50.4472 Z-0.2163
X-0.6995 Y50.4495 Z-0.2149
X-0.7007 Y50.4515 Z-0.213
X-0.7016 Y50.4532 Z-0.2107
X-0.7023 Y50.4544 Z-0.2081
X-0.7027 Y50.4551 Z-0.2052
X-0.7029 Y50.4554 Z-0.2023
G0 Z0.4
X-0.3762 Y50.1828
Z0.13
G1 Z0.0652 F40.
G19 G3 Y50.198 Z0.05 J0.0152 K0.
G1 Y50.2057
G17 G3 X-0.3884 Y50.2178 I-0.0122 J0.
Y50.1691 Z0.0323 I0. J-0.0244
X-0.366 Y50.184 Z0.0257 I0. J0.0243
X-0.4108 Y50.203 Z0.008 I-0.0224 J0.0095
X-0.4059 Y50.1766 Z0.0014 I0.0224 J-0.0095
X-0.3709 Y50.2104 Z-0.0164 I0.0175 J0.0169
X-0.4059 Y50.1765 Z-0.0341 I-0.0175 J-0.0169
X-0.3641 Y50.1926 Z-0.0473 I0.0175 J0.0169
X-0.4127 Y50.1943 Z-0.065 I-0.0243 J0.0008
X-0.3987 Y50.1714 Z-0.0716 I0.0243 J-0.0008
X-0.3781 Y50.2156 Z-0.0893 I0.0103 J0.0221
X-0.3987 Y50.1714 Z-0.107 I-0.0103 J-0.0221
X-0.3781 Y50.2156 Z-0.1248 I0.0103 J0.0221
X-0.3987 Y50.1714 Z-0.1425 I-0.0103 J-0.0221
X-0.3901 Y50.1692 Z-0.1445 I0.0103 J0.0221
X-0.3867 Y50.2178 Z-0.1623 I0.0017 J0.0243
X-0.4101 Y50.2045 Z-0.1689 I-0.0017 J-0.0243
X-0.3667 Y50.1825 Z-0.1866 I0.0217 J-0.011
X-0.4101 Y50.2045 Z-0.2043 I-0.0217 J0.011
X-0.3812 Y50.1702 Z-0.2175 I0.0217 J-0.011
X-0.3956 Y50.2167 I-0.0072 J0.0233
X-0.3812 Y50.1702 I0.0072 J-0.0233
X-0.3732 Y50.1854 I-0.0036 J0.0116
G1 X-0.3754 Y50.1927
X-0.3763 Y50.1955 Z-0.2172
X-0.3771 Y50.1983 Z-0.2163
X-0.3779 Y50.2008 Z-0.2149
X-0.3786 Y50.203 Z-0.213
X-0.3792 Y50.2048 Z-0.2107
X-0.3796 Y50.2061 Z-0.2081
X-0.3798 Y50.207 Z-0.2052
X-0.3799 Y50.2073 Z-0.2023
G0 Z0.4
X0.0089 Y50.086
Z0.13
G1 Z0.0652 F40.
G19 G3 Y50.1012 Z0.05 J0.0152 K0.
G1 Y50.1088
G17 G3 X0. Y50.1177 I-0.0089 J0.
Y50.0823 Z0.0335 I0. J-0.0177
Y50.1177 Z0.0169 I0. J0.0177
Y50.0823 Z0.0004 I0. J-0.0177
Y50.1177 Z-0.0162 I0. J0.0177
X-0.017 Y50.105 Z-0.023 I0. J-0.0177
X0.017 Y50.095 Z-0.0395 I0.017 J-0.005
X-0.017 Y50.105 Z-0.0561 I-0.017 J0.005
X0.0157 Y50.0918 Z-0.0716 I0.017 J-0.005
X-0.0157 Y50.1082 Z-0.0881 I-0.0157 J0.0082
X-0.0096 Y50.0851 Z-0.0959 I0.0157 J-0.0082
X0.0096 Y50.1149 Z-0.1125 I0.0096 J0.0149
X-0.0139 Y50.111 Z-0.1202 I-0.0096 J-0.0149
X0.0139 Y50.089 Z-0.1368 I0.0139 J-0.011
X0.0123 Y50.1128 Z-0.1445 I-0.0139 J0.011
X-0.0123 Y50.0872 Z-0.1611 I-0.0123 J-0.0128
X0.0123 Y50.1128 Z-0.1776 I0.0123 J0.0128
X-0.0145 Y50.0898 Z-0.1932 I-0.0123 J-0.0128
X0.0145 Y50.1102 Z-0.2097 I0.0145 J0.0102
X-0.0088 Y50.1154 Z-0.2175 I-0.0145 J-0.0102
X0.0088 Y50.0846 I0.0088 J-0.0154
X-0.0088 Y50.1154 I-0.0088 J0.0154
X-0.0121 Y50.1033 I0.0044 J-0.0077
G1 X-0.0083 Y50.0967
X-0.0068 Y50.0941 Z-0.2172
X-0.0054 Y50.0916 Z-0.2163
X-0.0041 Y50.0893 Z-0.2149
X-0.003 Y50.0873 Z-0.213
X-0.002 Y50.0857 Z-0.2107
X-0.0013 Y50.0845 Z-0.2081
X-0.0009 Y50.0837 Z-0.2052
X-0.0008 Y50.0835 Z-0.2023
G0 Z0.4
X0.4006 Y50.1828
Z0.13
G1 Z0.0652 F40.
G19 G3 Y50.198 Z0.05 J0.0152 K0.
G1 Y50.2057
G17 G3 X0.3884 Y50.2178 I-0.0122 J0.
Y50.1691 Z0.0323 I0. J-0.0244
X0.4108 Y50.184 Z0.0257 I0. J0.0243
X0.366 Y50.203 Z0.008 I-0.0224 J0.0095
X0.3709 Y50.1766 Z0.0014 I0.0224 J-0.0095
X0.4059 Y50.2104 Z-0.0164 I0.0175 J0.0169
X0.3709 Y50.1765 Z-0.0341 I-0.0175 J-0.0169
X0.4127 Y50.1926 Z-0.0473 I0.0175 J0.0169
X0.3641 Y50.1943 Z-0.065 I-0.0243 J0.0008
X0.3781 Y50.1714 Z-0.0716 I0.0243 J-0.0008
X0.3987 Y50.2156 Z-0.0893 I0.0103 J0.0221
X0.3781 Y50.1714 Z-0.107 I-0.0103 J-0.0221
X0.3987 Y50.2156 Z-0.1248 I0.0103 J0.0221
X0.3781 Y50.1714 Z-0.1425 I-0.0103 J-0.0221
X0.3867 Y50.1692 Z-0.1445 I0.0103 J0.0221
X0.3901 Y50.2178 Z-0.1623 I0.0017 J0.0243
X0.3667 Y50.2045 Z-0.1689 I-0.0017 J-0.0243
X0.4101 Y50.1825 Z-0.1866 I0.0217 J-0.011
X0.3667 Y50.2045 Z-0.2043 I-0.0217 J0.011
X0.3956 Y50.1702 Z-0.2175 I0.0217 J-0.011
X0.3812 Y50.2167 I-0.0072 J0.0233
X0.3956 Y50.1702 I0.0072 J-0.0233
X0.4036 Y50.1854 I-0.0036 J0.0116
G1 X0.4014 Y50.1927
X0.4005 Y50.1955 Z-0.2172
X0.3997 Y50.1983 Z-0.2163
X0.3989 Y50.2008 Z-0.2149
X0.3982 Y50.203 Z-0.213
X0.3976 Y50.2048 Z-0.2107
X0.3972 Y50.2061 Z-0.2081
X0.397 Y50.207 Z-0.2052
X0.3969 Y50.2073 Z-0.2023
G0 Z0.4
X0.6948 Y50.4529
Z0.13
G1 Z0.0652 F40.
G19 G2 Y50.4376 Z0.05 J-0.0152 K0.
G1 Y50.43
G17 G3 X0.7036 Y50.4212 I0.0089 J0.
Y50.4566 Z0.0335 I0. J0.0177
Y50.4212 Z0.0169 I0. J-0.0177
Y50.4566 Z0.0004 I0. J0.0177
Y50.4212 Z-0.0162 I0. J-0.0177
X0.7206 Y50.4338 Z-0.023 I0. J0.0177
X0.6867 Y50.4439 Z-0.0395 I-0.017 J0.005
X0.7206 Y50.4338 Z-0.0561 I0.017 J-0.005
X0.6879 Y50.447 Z-0.0716 I-0.017 J0.005
X0.7194 Y50.4307 Z-0.0881 I0.0157 J-0.0082
X0.7133 Y50.4537 Z-0.0959 I-0.0157 J0.0082
X0.694 Y50.424 Z-0.1125 I-0.0096 J-0.0149
X0.7175 Y50.4279 Z-0.1202 I0.0096 J0.0149
X0.6898 Y50.4498 Z-0.1368 I-0.0139 J0.011
X0.6914 Y50.4261 Z-0.1445 I0.0139 J-0.011
X0.7159 Y50.4516 Z-0.1611 I0.0123 J0.0128
X0.6914 Y50.4261 Z-0.1776 I-0.0123 J-0.0128
X0.7181 Y50.4491 Z-0.1932 I0.0123 J0.0128
X0.6892 Y50.4287 Z-0.2097 I-0.0145 J-0.0102
X0.7124 Y50.4235 Z-0.2175 I0.0145 J0.0102
X0.6949 Y50.4542 I-0.0088 J0.0154
X0.7124 Y50.4235 I0.0088 J-0.0154
X0.7157 Y50.4356 I-0.0044 J0.0077
G1 X0.7119 Y50.4422
X0.7105 Y50.4448 Z-0.2172
X0.7091 Y50.4472 Z-0.2163
X0.7078 Y50.4495 Z-0.2149
X0.7066 Y50.4515 Z-0.213
X0.7057 Y50.4532 Z-0.2107
X0.705 Y50.4544 Z-0.2081
X0.7046 Y50.4551 Z-0.2052
X0.7044 Y50.4554 Z-0.2023
G0 Z0.4
X0.8606 Y50.8115
Z0.13
G1 Z0.0652 F40.
G19 G2 Y50.7962 Z0.05 J-0.0152 K0.
G1 Y50.7886
G17 G3 X0.8727 Y50.7765 I0.0122 J0.
Y50.8252 Z0.0323 I0. J0.0244
X0.8503 Y50.8103 Z0.0257 I0. J-0.0244
X0.8951 Y50.7913 Z0.008 I0.0224 J-0.0095
X0.8503 Y50.8103 Z-0.0098 I-0.0224 J0.0095
X0.8951 Y50.7913 Z-0.0275 I0.0224 J-0.0095
X0.8503 Y50.8103 Z-0.0452 I-0.0224 J0.0095
X0.8484 Y50.8016 Z-0.0473 I0.0224 J-0.0095
X0.8971 Y50.8 Z-0.065 I0.0243 J-0.0008
X0.883 Y50.8229 Z-0.0716 I-0.0243 J0.0008
X0.8625 Y50.7787 Z-0.0893 I-0.0103 J-0.0221
X0.883 Y50.8229 Z-0.107 I0.0103 J0.0221
X0.8625 Y50.7787 Z-0.1248 I-0.0103 J-0.0221
X0.883 Y50.8229 Z-0.1425 I0.0103 J0.0221
X0.8744 Y50.8251 Z-0.1445 I-0.0103 J-0.0221
X0.8711 Y50.7765 Z-0.1623 I-0.0017 J-0.0243
X0.8945 Y50.7898 Z-0.1689 I0.0017 J0.0243
X0.851 Y50.8118 Z-0.1866 I-0.0217 J0.011
X0.8945 Y50.7898 Z-0.2043 I0.0217 J-0.011
X0.8656 Y50.8241 Z-0.2175 I-0.0217 J0.011
X0.8799 Y50.7775 I0.0072 J-0.0233
X0.8656 Y50.8241 I-0.0072 J0.0233
X0.8575 Y50.8089 I0.0036 J-0.0116
G1 X0.8598 Y50.8016
X0.8606 Y50.7987 Z-0.2172
X0.8615 Y50.796 Z-0.2163
X0.8622 Y50.7935 Z-0.2149
X0.8629 Y50.7913 Z-0.213
X0.8635 Y50.7895 Z-0.2107
X0.8639 Y50.7881 Z-0.2081
X0.8642 Y50.7873 Z-0.2052
Y50.787 Z-0.2023
G0 Z0.4
X-3.6191 Y50.018
Z0.1148
G1 Z0.05 F40.
X-3.6175 Y50.0196
G3 X-3.6191 Y50.0213 I-0.0017 J0.
Y50.0146 Z0.036 I0. J-0.0033
X-3.6158 Y50.0176 Z0.0294 I0. J0.0034
X-3.6225 Y50.0183 Z0.0154 I-0.0033 J0.0003
X-3.6198 Y50.0147 Z0.0088 I0.0033 J-0.0003
X-3.6185 Y50.0213 Z-0.0052 I0.0007 J0.0033
X-3.6223 Y50.019 Z-0.0117 I-0.0007 J-0.0033
X-3.6159 Y50.017 Z-0.0257 I0.0032 J-0.001
X-3.6178 Y50.021 Z-0.0323 I-0.0032 J0.001
X-3.6204 Y50.0149 Z-0.0463 I-0.0013 J-0.0031
X-3.6162 Y50.0163 Z-0.0529 I0.0013 J0.0031
X-3.6221 Y50.0196 Z-0.0669 I-0.0029 J0.0016
X-3.621 Y50.0152 Z-0.0735 I0.0029 J-0.0016
X-3.6172 Y50.0207 Z-0.0875 I0.0019 J0.0028
X-3.6217 Y50.0201 Z-0.094 I-0.0019 J-0.0028
X-3.6166 Y50.0158 Z-0.1081 I0.0025 J-0.0022
X-3.6167 Y50.0203 Z-0.1146 I-0.0025 J0.0022
X-3.6216 Y50.0157 Z-0.1286 I-0.0024 J-0.0023
X-3.6171 Y50.0153 Z-0.1352 I0.0024 J0.0023
X-3.6212 Y50.0206 Z-0.1492 I-0.0021 J0.0026
X-3.622 Y50.0162 Z-0.1558 I0.0021 J-0.0026
X-3.6163 Y50.0198 Z-0.1698 I0.0028 J0.0018
X-3.6206 Y50.021 Z-0.1763 I-0.0028 J-0.0018
X-3.6176 Y50.015 Z-0.1904 I0.0015 J-0.003
X-3.616 Y50.0192 Z-0.1969 I-0.0015 J0.003
X-3.6223 Y50.0168 Z-0.2109 I-0.0031 J-0.0012
X-3.6183 Y50.0147 Z-0.2175 I0.0031 J0.0012
X-3.62 Y50.0212 I-0.0009 J0.0032
X-3.6183 Y50.0147 I0.0009 J-0.0032
X-3.6171 Y50.0168 I-0.0004 J0.0016
G1 X-3.6191 Y50.018
G0 Z0.4
X-3.676 Y50.6445
Z0.13
G1 Z0.0652 F40.
G19 G3 Y50.6597 Z0.05 J0.0152 K0.
G1 Y50.6673
G17 G3 X-3.6848 Y50.6762 I-0.0089 J0.
Y50.6408 Z0.0335 I0. J-0.0177
Y50.6762 Z0.0169 I0. J0.0177
X-3.6882 Y50.6411 Z0.0014 I0. J-0.0177
X-3.6815 Y50.6758 Z-0.0152 I0.0034 J0.0174
X-3.7018 Y50.6635 Z-0.023 I-0.0034 J-0.0174
X-3.6679 Y50.6534 Z-0.0395 I0.017 J-0.005
X-3.6782 Y50.6749 Z-0.0473 I-0.017 J0.005
X-3.6915 Y50.642 Z-0.0638 I-0.0066 J-0.0164
X-3.6691 Y50.6503 Z-0.0716 I0.0066 J0.0164
X-3.7006 Y50.6666 Z-0.0881 I-0.0157 J0.0082
X-3.6945 Y50.6436 Z-0.0959 I0.0157 J-0.0082
X-3.6752 Y50.6733 Z-0.1125 I0.0096 J0.0149
X-3.6987 Y50.6695 Z-0.1202 I-0.0096 J-0.0149
X-3.671 Y50.6475 Z-0.1368 I0.0139 J-0.011
X-3.6726 Y50.6712 Z-0.1445 I-0.0139 J0.011
X-3.6971 Y50.6457 Z-0.1611 I-0.0123 J-0.0128
X-3.6726 Y50.6712 Z-0.1776 I0.0123 J0.0128
X-3.6993 Y50.6483 Z-0.1932 I-0.0123 J-0.0128
X-3.6704 Y50.6686 Z-0.2097 I0.0145 J0.0102
X-3.6936 Y50.6738 Z-0.2175 I-0.0145 J-0.0102
X-3.6761 Y50.6431 I0.0088 J-0.0154
X-3.6936 Y50.6738 I-0.0088 J0.0154
X-3.6969 Y50.6618 I0.0044 J-0.0077
G1 X-3.6931 Y50.6552
X-3.6917 Y50.6526 Z-0.2172
X-3.6903 Y50.6501 Z-0.2163
X-3.689 Y50.6478 Z-0.2149
X-3.6878 Y50.6458 Z-0.213
X-3.6869 Y50.6441 Z-0.2107
X-3.6862 Y50.6429 Z-0.2081
X-3.6857 Y50.6422 Z-0.2052
X-3.6856 Y50.6419 Z-0.2023
G0 Z0.4
X-3.7721 Y51.3665
Z0.13
G1 Z0.0652 F40.
G19 G3 Y51.3817 Z0.05 J0.0152 K0.
G1 Y51.3893
G17 G3 X-3.7809 Y51.3982 I-0.0089 J0.
Y51.3628 Z0.0335 I0. J-0.0177
Y51.3982 Z0.0169 I0. J0.0177
Y51.3628 Z0.0004 I0. J-0.0177
Y51.3982 Z-0.0162 I0. J0.0177
X-3.7979 Y51.3855 Z-0.023 I0. J-0.0177
X-3.7639 Y51.3755 Z-0.0395 I0.017 J-0.005
X-3.7743 Y51.3969 Z-0.0473 I-0.017 J0.005
X-3.7875 Y51.3641 Z-0.0638 I-0.0066 J-0.0164
X-3.7652 Y51.3723 Z-0.0716 I0.0066 J0.0164
X-3.7966 Y51.3886 Z-0.0881 I-0.0157 J0.0082
X-3.7905 Y51.3656 Z-0.0959 I0.0157 J-0.0082
X-3.7713 Y51.3953 Z-0.1125 I0.0096 J0.0149
X-3.7948 Y51.3915 Z-0.1202 I-0.0096 J-0.0149
X-3.767 Y51.3695 Z-0.1368 I0.0139 J-0.011
X-3.7948 Y51.3915 Z-0.1533 I-0.0139 J0.011
X-3.767 Y51.3695 Z-0.1699 I0.0139 J-0.011
X-3.7948 Y51.3915 Z-0.1864 I-0.0139 J0.011
X-3.7954 Y51.3703 Z-0.1932 I0.0139 J-0.011
X-3.7664 Y51.3907 Z-0.2097 I0.0145 J0.0102
X-3.7897 Y51.3959 Z-0.2175 I-0.0145 J-0.0102
X-3.7721 Y51.3651 I0.0088 J-0.0154
X-3.7897 Y51.3959 I-0.0088 J0.0154
X-3.793 Y51.3838 I0.0044 J-0.0077
G1 X-3.7892 Y51.3772
X-3.7877 Y51.3746 Z-0.2172
X-3.7863 Y51.3721 Z-0.2163
X-3.785 Y51.3698 Z-0.2149
X-3.7839 Y51.3678 Z-0.213
X-3.7829 Y51.3662 Z-0.2107
X-3.7822 Y51.3649 Z-0.2081
X-3.7818 Y51.3642 Z-0.2052
X-3.7817 Y51.3639 Z-0.2023
G0 Z0.4
X-3.5325 Y52.2587
Z0.1148
G1 Z0.05 F40.
X-3.5308 Y52.2603
G3 X-3.5325 Y52.262 I-0.0017 J0.
Y52.2553 Z0.036 I0. J-0.0033
X-3.5291 Y52.2583 Z0.0294 I0. J0.0033
X-3.5358 Y52.259 Z0.0154 I-0.0033 J0.0003
X-3.5291 Y52.2583 Z0.0014 I0.0033 J-0.0003
X-3.5357 Y52.2597 Z-0.0117 I-0.0033 J0.0003
X-3.5293 Y52.2577 Z-0.0257 I0.0032 J-0.001
X-3.5311 Y52.2617 Z-0.0323 I-0.0032 J0.001
X-3.5338 Y52.2556 Z-0.0463 I-0.0013 J-0.0031
X-3.5295 Y52.257 Z-0.0529 I0.0013 J0.0031
X-3.5354 Y52.2603 Z-0.0669 I-0.0029 J0.0016
X-3.5344 Y52.2559 Z-0.0735 I0.0029 J-0.0016
X-3.5306 Y52.2614 Z-0.0875 I0.0019 J0.0028
X-3.535 Y52.2608 Z-0.094 I-0.0019 J-0.0028
X-3.5299 Y52.2565 Z-0.1081 I0.0025 J-0.0022
X-3.53 Y52.261 Z-0.1146 I-0.0025 J0.0022
X-3.5349 Y52.2563 Z-0.1286 I-0.0024 J-0.0023
X-3.5304 Y52.256 Z-0.1352 I0.0024 J0.0023
X-3.5345 Y52.2613 Z-0.1492 I-0.0021 J0.0026
X-3.5353 Y52.2569 Z-0.1558 I0.0021 J-0.0026
X-3.5296 Y52.2604 Z-0.1698 I0.0028 J0.0018
X-3.534 Y52.2617 Z-0.1763 I-0.0028 J-0.0018
X-3.531 Y52.2557 Z-0.1904 I0.0015 J-0.003
X-3.5293 Y52.2598 Z-0.1969 I-0.0015 J0.003
X-3.5356 Y52.2575 Z-0.2109 I-0.0031 J-0.0012
X-3.5316 Y52.2554 Z-0.2175 I0.0031 J0.0012
X-3.5333 Y52.2619 I-0.0009 J0.0032
X-3.5316 Y52.2554 I0.0009 J-0.0032
X-3.5304 Y52.2575 I-0.0004 J0.0016
G1 X-3.5325 Y52.2587
G0 Z0.4
X-2.7312 Y53.726
Z0.13
G1 Z0.0652 F40.
G19 G3 Y53.7413 Z0.05 J0.0152 K0.
G1 Y53.7489
G17 G3 X-2.74 Y53.7577 I-0.0089 J0.
Y53.7223 Z0.0335 I0. J-0.0177
Y53.7577 Z0.0169 I0. J0.0177
X-2.7434 Y53.7227 Z0.0014 I0. J-0.0177
X-2.7367 Y53.7574 Z-0.0152 I0.0034 J0.0174
X-2.757 Y53.7451 Z-0.023 I-0.0034 J-0.0174
X-2.7231 Y53.735 Z-0.0395 I0.017 J-0.005
X-2.7334 Y53.7565 Z-0.0473 I-0.017 J0.005
X-2.7467 Y53.7236 Z-0.0638 I-0.0066 J-0.0164
X-2.7334 Y53.7565 Z-0.0804 I0.0066 J0.0164
X-2.7497 Y53.7252 Z-0.0959 I-0.0066 J-0.0164
X-2.7304 Y53.7549 Z-0.1125 I0.0096 J0.0149
X-2.7539 Y53.751 Z-0.1202 I-0.0096 J-0.0149
X-2.7262 Y53.729 Z-0.1368 I0.0139 J-0.011
X-2.7278 Y53.7528 Z-0.1445 I-0.0139 J0.011
X-2.7523 Y53.7273 Z-0.1611 I-0.0123 J-0.0128
X-2.7278 Y53.7528 Z-0.1776 I0.0123 J0.0128
X-2.7545 Y53.7298 Z-0.1932 I-0.0123 J-0.0128
X-2.7256 Y53.7502 Z-0.2097 I0.0145 J0.0102
X-2.7488 Y53.7554 Z-0.2175 I-0.0145 J-0.0102
X-2.7313 Y53.7247 I0.0088 J-0.0154
X-2.7488 Y53.7554 I-0.0088 J0.0154
X-2.7521 Y53.7433 I0.0044 J-0.0077
G1 X-2.7483 Y53.7367
X-2.7469 Y53.7341 Z-0.2172
X-2.7455 Y53.7317 Z-0.2163
X-2.7442 Y53.7294 Z-0.2149
X-2.743 Y53.7274 Z-0.213
X-2.7421 Y53.7257 Z-0.2107
X-2.7414 Y53.7245 Z-0.2081
X-2.7409 Y53.7238 Z-0.2052
X-2.7408 Y53.7235 Z-0.2023
G0 Z0.4
X-1.4727 Y54.4487
Z0.1148
G1 Z0.05 F40.
X-1.4711 Y54.4504
G3 X-1.4727 Y54.4521 I-0.0017 J0.
Y54.4454 Z0.036 I0. J-0.0033
X-1.4694 Y54.4484 Z0.0294 I0. J0.0034
X-1.4761 Y54.449 Z0.0154 I-0.0033 J0.0003
X-1.4734 Y54.4454 Z0.0088 I0.0033 J-0.0003
X-1.4721 Y54.452 Z-0.0052 I0.0007 J0.0033
X-1.4759 Y54.4497 Z-0.0117 I-0.0007 J-0.0033
X-1.4695 Y54.4477 Z-0.0258 I0.0032 J-0.001
X-1.4714 Y54.4518 Z-0.0323 I-0.0032 J0.001
X-1.474 Y54.4456 Z-0.0463 I-0.0013 J-0.0031
X-1.4698 Y54.4471 Z-0.0529 I0.0013 J0.0031
X-1.4757 Y54.4503 Z-0.0669 I-0.0029 J0.0016
X-1.4746 Y54.4459 Z-0.0735 I0.0029 J-0.0016
X-1.4708 Y54.4515 Z-0.0875 I0.0019 J0.0028
X-1.4753 Y54.4509 Z-0.094 I-0.0019 J-0.0028
X-1.4702 Y54.4465 Z-0.1081 I0.0025 J-0.0022
X-1.4703 Y54.451 Z-0.1146 I-0.0025 J0.0022
X-1.4751 Y54.4464 Z-0.1286 I-0.0024 J-0.0023
X-1.4707 Y54.4461 Z-0.1352 I0.0024 J0.0023
X-1.4748 Y54.4514 Z-0.1492 I-0.0021 J0.0026
X-1.4756 Y54.4469 Z-0.1558 I0.0021 J-0.0026
X-1.4699 Y54.4505 Z-0.1698 I0.0028 J0.0018
X-1.4742 Y54.4517 Z-0.1763 I-0.0028 J-0.0018
X-1.4712 Y54.4457 Z-0.1904 I0.0015 J-0.003
X-1.4696 Y54.4499 Z-0.1969 I-0.0015 J0.003
X-1.4759 Y54.4475 Z-0.2109 I-0.0031 J-0.0012
X-1.4719 Y54.4455 Z-0.2175 I0.0031 J0.0012
X-1.4736 Y54.4519 I-0.0009 J0.0032
X-1.4719 Y54.4455 I0.0009 J-0.0032
X-1.4707 Y54.4475 I-0.0004 J0.0016
G1 X-1.4727 Y54.4487
G0 Z0.4
X0.0089 Y54.861
Z0.13
G1 Z0.0652 F40.
G19 G3 Y54.8762 Z0.05 J0.0152 K0.
G1 Y54.8839
G17 G3 X0. Y54.8927 I-0.0089 J0.
Y54.8573 Z0.0335 I0. J-0.0177
Y54.8927 Z0.0169 I0. J0.0177
X-0.0034 Y54.8576 Z0.0014 I0. J-0.0177
X0.0034 Y54.8924 Z-0.0152 I0.0034 J0.0174
X-0.017 Y54.88 Z-0.023 I-0.0034 J-0.0174
X0.017 Y54.87 Z-0.0395 I0.017 J-0.005
X0.0066 Y54.8914 Z-0.0473 I-0.017 J0.005
X-0.0066 Y54.8586 Z-0.0638 I-0.0066 J-0.0164
X0.0066 Y54.8914 Z-0.0804 I0.0066 J0.0164
X-0.0096 Y54.8601 Z-0.0959 I-0.0066 J-0.0164
X0.0096 Y54.8899 Z-0.1125 I0.0096 J0.0149
X-0.0139 Y54.886 Z-0.1202 I-0.0096 J-0.0149
X0.0139 Y54.864 Z-0.1368 I0.0139 J-0.011
X0.0123 Y54.8878 Z-0.1445 I-0.0139 J0.011
X-0.0123 Y54.8622 Z-0.1611 I-0.0123 J-0.0128
X0.0115 Y54.8616 Z-0.1689 I0.0123 J0.0128
X-0.0115 Y54.8884 Z-0.1854 I-0.0115 J0.0134
X-0.0145 Y54.8648 Z-0.1932 I0.0115 J-0.0134
X0.0145 Y54.8852 Z-0.2097 I0.0145 J0.0102
X-0.0088 Y54.8904 Z-0.2175 I-0.0145 J-0.0102
X0.0088 Y54.8596 I0.0088 J-0.0154
X-0.0088 Y54.8904 I-0.0088 J0.0154
X-0.0121 Y54.8783 I0.0044 J-0.0077
G1 X-0.0083 Y54.8717
X-0.0068 Y54.8691 Z-0.2172
X-0.0054 Y54.8666 Z-0.2163
X-0.0041 Y54.8643 Z-0.2149
X-0.003 Y54.8623 Z-0.213
X-0.002 Y54.8607 Z-0.2107
X-0.0013 Y54.8595 Z-0.2081
X-0.0009 Y54.8587 Z-0.2052
X-0.0008 Y54.8585 Z-0.2023
G0 Z0.4
X1.4727 Y54.4487
Z0.1148
G1 Z0.05 F40.
X1.4744 Y54.4504
G3 X1.4727 Y54.4521 I-0.0017 J0.
Y54.4454 Z0.036 I0. J-0.0033
X1.4761 Y54.4484 Z0.0294 I0. J0.0034
X1.4694 Y54.449 Z0.0154 I-0.0033 J0.0003
X1.4721 Y54.4454 Z0.0088 I0.0033 J-0.0003
X1.4734 Y54.452 Z-0.0052 I0.0007 J0.0033
X1.4695 Y54.4497 Z-0.0117 I-0.0007 J-0.0033
X1.4759 Y54.4477 Z-0.0258 I0.0032 J-0.001
X1.474 Y54.4518 Z-0.0323 I-0.0032 J0.001
X1.4714 Y54.4456 Z-0.0463 I-0.0013 J-0.0031
X1.4757 Y54.4471 Z-0.0529 I0.0013 J0.0031
X1.4698 Y54.4503 Z-0.0669 I-0.0029 J0.0016
X1.4708 Y54.4459 Z-0.0735 I0.0029 J-0.0016
X1.4746 Y54.4515 Z-0.0875 I0.0019 J0.0028
X1.4702 Y54.4509 Z-0.094 I-0.0019 J-0.0028
X1.4753 Y54.4465 Z-0.1081 I0.0025 J-0.0022
X1.4751 Y54.451 Z-0.1146 I-0.0025 J0.0022
X1.4703 Y54.4464 Z-0.1286 I-0.0024 J-0.0023
X1.4748 Y54.4461 Z-0.1352 I0.0024 J0.0023
X1.4707 Y54.4514 Z-0.1492 I-0.0021 J0.0026
X1.4699 Y54.4469 Z-0.1558 I0.0021 J-0.0026
X1.4756 Y54.4505 Z-0.1698 I0.0028 J0.0018
X1.4712 Y54.4517 Z-0.1763 I-0.0028 J-0.0018
X1.4742 Y54.4457 Z-0.1904 I0.0015 J-0.003
X1.4759 Y54.4499 Z-0.1969 I-0.0015 J0.003
X1.4696 Y54.4475 Z-0.2109 I-0.0031 J-0.0012
X1.4736 Y54.4455 Z-0.2175 I0.0031 J0.0012
X1.4719 Y54.4519 I-0.0009 J0.0032
X1.4736 Y54.4455 I0.0009 J-0.0032
X1.4748 Y54.4475 I-0.0004 J0.0016
G1 X1.4727 Y54.4487
G0 Z0.4
X2.7489 Y53.726
Z0.13
G1 Z0.0652 F40.
G19 G3 Y53.7413 Z0.05 J0.0152 K0.
G1 Y53.7489
G17 G3 X2.74 Y53.7577 I-0.0089 J0.
Y53.7223 Z0.0335 I0. J-0.0177
Y53.7577 Z0.0169 I0. J0.0177
X2.7367 Y53.7227 Z0.0014 I0. J-0.0177
X2.7434 Y53.7574 Z-0.0152 I0.0034 J0.0174
X2.7231 Y53.7451 Z-0.023 I-0.0034 J-0.0174
X2.757 Y53.735 Z-0.0395 I0.017 J-0.005
X2.7467 Y53.7565 Z-0.0473 I-0.017 J0.005
X2.7334 Y53.7236 Z-0.0638 I-0.0066 J-0.0164
X2.7467 Y53.7565 Z-0.0804 I0.0066 J0.0164
X2.7304 Y53.7252 Z-0.0959 I-0.0066 J-0.0164
X2.7497 Y53.7549 Z-0.1125 I0.0096 J0.0149
X2.7262 Y53.751 Z-0.1202 I-0.0096 J-0.0149
X2.7539 Y53.729 Z-0.1368 I0.0139 J-0.011
X2.7523 Y53.7528 Z-0.1445 I-0.0139 J0.011
X2.7278 Y53.7273 Z-0.1611 I-0.0123 J-0.0128
X2.7523 Y53.7528 Z-0.1776 I0.0123 J0.0128
X2.7256 Y53.7298 Z-0.1932 I-0.0123 J-0.0128
X2.7545 Y53.7502 Z-0.2097 I0.0145 J0.0102
X2.7313 Y53.7554 Z-0.2175 I-0.0145 J-0.0102
X2.7488 Y53.7247 I0.0088 J-0.0154
X2.7313 Y53.7554 I-0.0088 J0.0154
X2.728 Y53.7433 I0.0044 J-0.0077
G1 X2.7317 Y53.7367
X2.7332 Y53.7341 Z-0.2172
X2.7346 Y53.7317 Z-0.2163
X2.7359 Y53.7294 Z-0.2149
X2.7371 Y53.7274 Z-0.213
X2.738 Y53.7257 Z-0.2107
X2.7387 Y53.7245 Z-0.2081
X2.7391 Y53.7238 Z-0.2052
X2.7393 Y53.7235 Z-0.2023
G0 Z0.4
X3.5325 Y52.2587
Z0.1148
G1 Z0.05 F40.
X3.5341 Y52.2603
G3 X3.5325 Y52.262 I-0.0017 J0.
Y52.2553 Z0.036 I0. J-0.0033
X3.5358 Y52.2583 Z0.0294 I0. J0.0034
X3.5291 Y52.259 Z0.0154 I-0.0033 J0.0003
X3.5318 Y52.2554 Z0.0088 I0.0033 J-0.0003
X3.5331 Y52.2619 Z-0.0052 I0.0007 J0.0033
X3.5293 Y52.2597 Z-0.0117 I-0.0007 J-0.0033
X3.5357 Y52.2577 Z-0.0257 I0.0032 J-0.001
X3.5338 Y52.2617 Z-0.0323 I-0.0032 J0.001
X3.5311 Y52.2556 Z-0.0463 I-0.0013 J-0.0031
X3.5354 Y52.257 Z-0.0529 I0.0013 J0.0031
X3.5295 Y52.2603 Z-0.0669 I-0.0029 J0.0016
X3.5306 Y52.2559 Z-0.0735 I0.0029 J-0.0016
X3.5344 Y52.2614 Z-0.0875 I0.0019 J0.0028
X3.5299 Y52.2608 Z-0.094 I-0.0019 J-0.0028
X3.535 Y52.2565 Z-0.1081 I0.0025 J-0.0022
X3.5349 Y52.261 Z-0.1146 I-0.0025 J0.0022
X3.53 Y52.2563 Z-0.1286 I-0.0024 J-0.0023
X3.5345 Y52.256 Z-0.1352 I0.0024 J0.0023
X3.5304 Y52.2613 Z-0.1492 I-0.0021 J0.0026
X3.5296 Y52.2569 Z-0.1558 I0.0021 J-0.0026
X3.5353 Y52.2604 Z-0.1698 I0.0028 J0.0018
X3.531 Y52.2617 Z-0.1763 I-0.0028 J-0.0018
X3.534 Y52.2557 Z-0.1904 I0.0015 J-0.003
X3.5356 Y52.2598 Z-0.1969 I-0.0015 J0.003
X3.5293 Y52.2575 Z-0.2109 I-0.0031 J-0.0012
X3.5333 Y52.2554 Z-0.2175 I0.0031 J0.0012
X3.5316 Y52.2619 I-0.0009 J0.0032
X3.5333 Y52.2554 I0.0009 J-0.0032
X3.5345 Y52.2575 I-0.0004 J0.0016
G1 X3.5325 Y52.2587
G0 Z0.4
X3.7898 Y51.3665
Z0.13
G1 Z0.0652 F40.
G19 G3 Y51.3817 Z0.05 J0.0152 K0.
G1 Y51.3893
G17 G3 X3.7809 Y51.3982 I-0.0088 J0.
Y51.3628 Z0.0335 I0. J-0.0177
Y51.3982 Z0.0169 I0. J0.0177
Y51.3628 Z0.0004 I0. J-0.0177
Y51.3982 Z-0.0162 I0. J0.0177
X3.7639 Y51.3855 Z-0.023 I0. J-0.0177
X3.7979 Y51.3755 Z-0.0395 I0.017 J-0.005
X3.7875 Y51.3969 Z-0.0473 I-0.017 J0.005
X3.7743 Y51.3641 Z-0.0638 I-0.0066 J-0.0164
X3.7966 Y51.3723 Z-0.0716 I0.0066 J0.0164
X3.7652 Y51.3886 Z-0.0881 I-0.0157 J0.0082
X3.7713 Y51.3656 Z-0.0959 I0.0157 J-0.0082
X3.7905 Y51.3953 Z-0.1125 I0.0096 J0.0149
X3.767 Y51.3915 Z-0.1202 I-0.0096 J-0.0149
X3.7948 Y51.3695 Z-0.1368 I0.0139 J-0.011
X3.7932 Y51.3932 Z-0.1445 I-0.0139 J0.011
X3.7686 Y51.3677 Z-0.1611 I-0.0123 J-0.0128
X3.7932 Y51.3932 Z-0.1776 I0.0123 J0.0128
X3.7664 Y51.3703 Z-0.1932 I-0.0123 J-0.0128
X3.7954 Y51.3907 Z-0.2097 I0.0145 J0.0102
X3.7721 Y51.3959 Z-0.2175 I-0.0145 J-0.0102
X3.7897 Y51.3651 I0.0088 J-0.0154
X3.7721 Y51.3959 I-0.0088 J0.0154
X3.7688 Y51.3838 I0.0044 J-0.0077
G1 X3.7726 Y51.3772
X3.7741 Y51.3746 Z-0.2172
X3.7755 Y51.3721 Z-0.2163
X3.7768 Y51.3698 Z-0.2149
X3.7779 Y51.3678 Z-0.213
X3.7789 Y51.3662 Z-0.2107
X3.7796 Y51.3649 Z-0.2081
X3.78 Y51.3642 Z-0.2052
X3.7801 Y51.3639 Z-0.2023
G0 Z0.4
X3.6937 Y50.6445
Z0.13
G1 Z0.0652 F40.
G19 G3 Y50.6597 Z0.05 J0.0152 K0.
G1 Y50.6673
G17 G3 X3.6848 Y50.6762 I-0.0088 J0.
Y50.6408 Z0.0335 I0. J-0.0177
Y50.6762 Z0.0169 I0. J0.0177
X3.6815 Y50.6411 Z0.0014 I0. J-0.0177
X3.6882 Y50.6758 Z-0.0152 I0.0034 J0.0174
X3.6679 Y50.6635 Z-0.023 I-0.0034 J-0.0174
X3.7018 Y50.6534 Z-0.0395 I0.017 J-0.005
X3.6915 Y50.6749 Z-0.0473 I-0.017 J0.005
X3.6782 Y50.642 Z-0.0638 I-0.0066 J-0.0164
X3.7006 Y50.6503 Z-0.0716 I0.0066 J0.0164
X3.6691 Y50.6666 Z-0.0881 I-0.0157 J0.0082
X3.7006 Y50.6503 Z-0.1047 I0.0157 J-0.0082
X3.671 Y50.6695 Z-0.1202 I-0.0157 J0.0082
X3.6987 Y50.6475 Z-0.1368 I0.0139 J-0.011
X3.6971 Y50.6712 Z-0.1445 I-0.0139 J0.011
X3.6726 Y50.6457 Z-0.1611 I-0.0123 J-0.0128
X3.6971 Y50.6712 Z-0.1776 I0.0123 J0.0128
X3.6704 Y50.6483 Z-0.1932 I-0.0123 J-0.0128
X3.6993 Y50.6686 Z-0.2097 I0.0145 J0.0102
X3.6761 Y50.6738 Z-0.2175 I-0.0145 J-0.0102
X3.6936 Y50.6431 I0.0088 J-0.0154
X3.6761 Y50.6738 I-0.0088 J0.0154
X3.6728 Y50.6618 I0.0044 J-0.0077
G1 X3.6765 Y50.6552
X3.678 Y50.6526 Z-0.2172
X3.6794 Y50.6501 Z-0.2163
X3.6807 Y50.6478 Z-0.2149
X3.6819 Y50.6458 Z-0.213
X3.6828 Y50.6441 Z-0.2107
X3.6835 Y50.6429 Z-0.2081
X3.6839 Y50.6422 Z-0.2052
X3.6841 Y50.6419 Z-0.2023
G0 Z0.4
X3.6191 Y50.018
Z0.1148
G1 Z0.05 F40.
X3.6208 Y50.0196
G3 X3.6191 Y50.0213 I-0.0017 J0.
Y50.0146 Z0.036 I0. J-0.0033
X3.6225 Y50.0176 Z0.0294 I0. J0.0033
X3.6158 Y50.0183 Z0.0154 I-0.0033 J0.0003
X3.6225 Y50.0176 Z0.0014 I0.0033 J-0.0003
X3.6159 Y50.019 Z-0.0117 I-0.0033 J0.0003
X3.6223 Y50.017 Z-0.0257 I0.0032 J-0.001
X3.6204 Y50.021 Z-0.0323 I-0.0032 J0.001
X3.6178 Y50.0149 Z-0.0463 I-0.0013 J-0.0031
X3.6221 Y50.0163 Z-0.0529 I0.0013 J0.0031
X3.6162 Y50.0196 Z-0.0669 I-0.0029 J0.0016
X3.6172 Y50.0152 Z-0.0735 I0.0029 J-0.0016
X3.621 Y50.0207 Z-0.0875 I0.0019 J0.0028
X3.6166 Y50.0201 Z-0.094 I-0.0019 J-0.0028
X3.6217 Y50.0158 Z-0.1081 I0.0025 J-0.0022
X3.6166 Y50.0201 Z-0.1221 I-0.0026 J0.0022
X3.6212 Y50.0153 Z-0.1352 I0.0026 J-0.0022
X3.6171 Y50.0206 Z-0.1492 I-0.0021 J0.0026
X3.6163 Y50.0162 Z-0.1558 I0.0021 J-0.0026
X3.622 Y50.0198 Z-0.1698 I0.0028 J0.0018
X3.6176 Y50.021 Z-0.1763 I-0.0028 J-0.0018
X3.6206 Y50.015 Z-0.1904 I0.0015 J-0.003
X3.6223 Y50.0192 Z-0.1969 I-0.0015 J0.003
X3.616 Y50.0168 Z-0.2109 I-0.0031 J-0.0012
X3.62 Y50.0147 Z-0.2175 I0.0031 J0.0012
X3.6183 Y50.0212 I-0.0009 J0.0032
X3.62 Y50.0147 I0.0009 J-0.0032
X3.6212 Y50.0168 I-0.0004 J0.0016
G1 X3.6191 Y50.018
G0 Z0.4
X2.7489 Y48.246
Z0.13
G1 Z0.0652 F40.
G19 G3 Y48.2612 Z0.05 J0.0152 K0.
G1 Y48.2688
G17 G3 X2.74 Y48.2777 I-0.0089 J0.
Y48.2423 Z0.0335 I0. J-0.0177
Y48.2777 Z0.0169 I0. J0.0177
X2.7367 Y48.2426 Z0.0014 I0. J-0.0177
X2.7434 Y48.2773 Z-0.0152 I0.0034 J0.0174
X2.7231 Y48.265 Z-0.023 I-0.0034 J-0.0174
X2.757 Y48.2549 Z-0.0395 I0.017 J-0.005
X2.7467 Y48.2764 Z-0.0473 I-0.017 J0.005
X2.7334 Y48.2435 Z-0.0638 I-0.0066 J-0.0164
X2.7467 Y48.2764 Z-0.0804 I0.0066 J0.0164
X2.7304 Y48.2451 Z-0.0959 I-0.0066 J-0.0164
X2.7497 Y48.2748 Z-0.1125 I0.0096 J0.0149
X2.7262 Y48.271 Z-0.1202 I-0.0096 J-0.0149
X2.7539 Y48.249 Z-0.1368 I0.0139 J-0.011
X2.7523 Y48.2727 Z-0.1445 I-0.0139 J0.011
X2.7278 Y48.2472 Z-0.1611 I-0.0123 J-0.0128
X2.7523 Y48.2727 Z-0.1776 I0.0123 J0.0128
X2.7256 Y48.2498 Z-0.1932 I-0.0123 J-0.0128
X2.7545 Y48.2701 Z-0.2097 I0.0145 J0.0102
X2.7313 Y48.2753 Z-0.2175 I-0.0145 J-0.0102
X2.7488 Y48.2446 I0.0088 J-0.0154
X2.7313 Y48.2753 I-0.0088 J0.0154
X2.728 Y48.2633 I0.0044 J-0.0077
G1 X2.7317 Y48.2567
X2.7332 Y48.2541 Z-0.2172
X2.7346 Y48.2516 Z-0.2163
X2.7359 Y48.2493 Z-0.2149
X2.7371 Y48.2473 Z-0.213
X2.738 Y48.2457 Z-0.2107
X2.7387 Y48.2444 Z-0.2081
X2.7391 Y48.2437 Z-0.2052
X2.7393 Y48.2434 Z-0.2023
G0 Z0.4
X1.557 Y47.5885
Z0.1148
G1 Z0.05 F40.
X1.5586 Y47.5902
G3 X1.557 Y47.5918 I-0.0017 J0.
Y47.5851 Z0.036 I0. J-0.0033
X1.5603 Y47.5882 Z0.0294 I0. J0.0033
X1.5536 Y47.5888 Z0.0154 I-0.0033 J0.0003
X1.5603 Y47.5882 Z0.0014 I0.0033 J-0.0003
X1.5538 Y47.5895 Z-0.0117 I-0.0033 J0.0003
X1.5602 Y47.5875 Z-0.0257 I0.0032 J-0.001
X1.5583 Y47.5916 Z-0.0323 I-0.0032 J0.001
X1.5556 Y47.5854 Z-0.0463 I-0.0013 J-0.0031
X1.5599 Y47.5869 Z-0.0529 I0.0013 J0.0031
X1.554 Y47.5901 Z-0.0669 I-0.0029 J0.0016
X1.5551 Y47.5857 Z-0.0735 I0.0029 J-0.0016
X1.5589 Y47.5913 Z-0.0875 I0.0019 J0.0028
X1.5544 Y47.5907 Z-0.094 I-0.0019 J-0.0028
X1.5595 Y47.5863 Z-0.1081 I0.0025 J-0.0022
X1.5594 Y47.5908 Z-0.1146 I-0.0025 J0.0022
X1.5545 Y47.5862 Z-0.1286 I-0.0024 J-0.0023
X1.559 Y47.5859 Z-0.1352 I0.0024 J0.0023
X1.5549 Y47.5911 Z-0.1492 I-0.0021 J0.0026
X1.5541 Y47.5867 Z-0.1558 I0.0021 J-0.0026
X1.5598 Y47.5903 Z-0.1698 I0.0028 J0.0018
X1.5555 Y47.5915 Z-0.1763 I-0.0028 J-0.0018
X1.5585 Y47.5855 Z-0.1904 I0.0015 J-0.003
X1.5601 Y47.5897 Z-0.1969 I-0.0015 J0.003
X1.5538 Y47.5873 Z-0.2109 I-0.0031 J-0.0012
X1.5578 Y47.5853 Z-0.2175 I0.0031 J0.0012
X1.5561 Y47.5917 I-0.0009 J0.0032
X1.5578 Y47.5853 I0.0009 J-0.0032
X1.559 Y47.5873 I-0.0004 J0.0016
G1 X1.557 Y47.5885
G0 Z0.4
X0.0089 Y47.111
Z0.13
G1 Z0.0652 F40.
G19 G3 Y47.1262 Z0.05 J0.0152 K0.
G1 Y47.1339
G17 G3 X0. Y47.1427 I-0.0089 J0.
Y47.1073 Z0.0335 I0. J-0.0177
Y47.1427 Z0.0169 I0. J0.0177
X-0.0034 Y47.1076 Z0.0014 I0. J-0.0177
X0.0034 Y47.1424 Z-0.0152 I0.0034 J0.0174
X-0.017 Y47.13 Z-0.023 I-0.0034 J-0.0174
X0.017 Y47.12 Z-0.0395 I0.017 J-0.005
X0.0066 Y47.1414 Z-0.0473 I-0.017 J0.005
X-0.0066 Y47.1086 Z-0.0638 I-0.0066 J-0.0164
X0.0157 Y47.1168 Z-0.0716 I0.0066 J0.0164
X-0.0157 Y47.1332 Z-0.0881 I-0.0157 J0.0082
X-0.0096 Y47.1101 Z-0.0959 I0.0157 J-0.0082
X0.0096 Y47.1399 Z-0.1125 I0.0096 J0.0149
X-0.0139 Y47.136 Z-0.1202 I-0.0096 J-0.0149
X0.0139 Y47.114 Z-0.1368 I0.0139 J-0.011
X0.0123 Y47.1378 Z-0.1445 I-0.0139 J0.011
X-0.0123 Y47.1122 Z-0.1611 I-0.0123 J-0.0128
X0.0123 Y47.1378 Z-0.1776 I0.0123 J0.0128
X-0.0145 Y47.1148 Z-0.1932 I-0.0123 J-0.0128
X0.0145 Y47.1352 Z-0.2097 I0.0145 J0.0102
X-0.0088 Y47.1404 Z-0.2175 I-0.0145 J-0.0102
X0.0088 Y47.1096 I0.0088 J-0.0154
X-0.0088 Y47.1404 I-0.0088 J0.0154
X-0.0121 Y47.1283 I0.0044 J-0.0077
G1 X-0.0083 Y47.1217
X-0.0068 Y47.1191 Z-0.2172
X-0.0054 Y47.1166 Z-0.2163
X-0.0041 Y47.1143 Z-0.2149
X-0.003 Y47.1123 Z-0.213
X-0.002 Y47.1107 Z-0.2107
X-0.0013 Y47.1095 Z-0.2081
X-0.0009 Y47.1087 Z-0.2052
X-0.0008 Y47.1085 Z-0.2023
G0 Z0.4
X-1.557 Y47.5885
Z0.1148
G1 Z0.05 F40.
X-1.5553 Y47.5902
G3 X-1.557 Y47.5918 I-0.0017 J0.
Y47.5851 Z0.036 I0. J-0.0033
X-1.5536 Y47.5882 Z0.0294 I0. J0.0033
X-1.5603 Y47.5888 Z0.0154 I-0.0033 J0.0003
X-1.5576 Y47.5852 Z0.0088 I0.0033 J-0.0003
X-1.5563 Y47.5918 Z-0.0052 I0.0007 J0.0033
X-1.5602 Y47.5895 Z-0.0117 I-0.0007 J-0.0033
X-1.5538 Y47.5875 Z-0.0257 I0.0032 J-0.001
X-1.5556 Y47.5916 Z-0.0323 I-0.0032 J0.001
X-1.5583 Y47.5854 Z-0.0463 I-0.0013 J-0.0031
X-1.554 Y47.5869 Z-0.0529 I0.0013 J0.0031
X-1.5599 Y47.5901 Z-0.0669 I-0.0029 J0.0016
X-1.5589 Y47.5857 Z-0.0735 I0.0029 J-0.0016
X-1.5551 Y47.5913 Z-0.0875 I0.0019 J0.0028
X-1.5595 Y47.5907 Z-0.094 I-0.0019 J-0.0028
X-1.5544 Y47.5863 Z-0.1081 I0.0025 J-0.0022
X-1.5545 Y47.5908 Z-0.1146 I-0.0025 J0.0022
X-1.5594 Y47.5862 Z-0.1286 I-0.0024 J-0.0023
X-1.5549 Y47.5859 Z-0.1352 I0.0024 J0.0023
X-1.559 Y47.5911 Z-0.1492 I-0.0021 J0.0026
X-1.5598 Y47.5867 Z-0.1558 I0.0021 J-0.0026
X-1.5541 Y47.5903 Z-0.1698 I0.0028 J0.0018
X-1.5585 Y47.5915 Z-0.1763 I-0.0028 J-0.0018
X-1.5555 Y47.5855 Z-0.1904 I0.0015 J-0.003
X-1.5538 Y47.5897 Z-0.1969 I-0.0015 J0.003
X-1.5601 Y47.5873 Z-0.2109 I-0.0031 J-0.0012
X-1.5561 Y47.5853 Z-0.2175 I0.0031 J0.0012
X-1.5578 Y47.5917 I-0.0009 J0.0032
X-1.5561 Y47.5853 I0.0009 J-0.0032
X-1.5549 Y47.5873 I-0.0004 J0.0016
G1 X-1.557 Y47.5885
G0 Z0.4
X-2.7312 Y48.246
Z0.13
G1 Z0.0652 F40.
G19 G3 Y48.2612 Z0.05 J0.0152 K0.
G1 Y48.2688
G17 G3 X-2.74 Y48.2777 I-0.0089 J0.
Y48.2423 Z0.0335 I0. J-0.0177
Y48.2777 Z0.0169 I0. J0.0177
X-2.7434 Y48.2426 Z0.0014 I0. J-0.0177
X-2.7367 Y48.2773 Z-0.0152 I0.0034 J0.0174
X-2.757 Y48.265 Z-0.023 I-0.0034 J-0.0174
X-2.7231 Y48.2549 Z-0.0395 I0.017 J-0.005
X-2.7334 Y48.2764 Z-0.0473 I-0.017 J0.005
X-2.7467 Y48.2435 Z-0.0638 I-0.0066 J-0.0164
X-2.7334 Y48.2764 Z-0.0804 I0.0066 J0.0164
X-2.7497 Y48.2451 Z-0.0959 I-0.0066 J-0.0164
X-2.7304 Y48.2748 Z-0.1125 I0.0096 J0.0149
X-2.7539 Y48.271 Z-0.1202 I-0.0096 J-0.0149
X-2.7262 Y48.249 Z-0.1368 I0.0139 J-0.011
X-2.7278 Y48.2727 Z-0.1445 I-0.0139 J0.011
X-2.7523 Y48.2472 Z-0.1611 I-0.0123 J-0.0128
X-2.7278 Y48.2727 Z-0.1776 I0.0123 J0.0128
X-2.7545 Y48.2498 Z-0.1932 I-0.0123 J-0.0128
X-2.7256 Y48.2701 Z-0.2097 I0.0145 J0.0102
X-2.7488 Y48.2753 Z-0.2175 I-0.0145 J-0.0102
X-2.7313 Y48.2446 I0.0088 J-0.0154
X-2.7488 Y48.2753 I-0.0088 J0.0154
X-2.7521 Y48.2633 I0.0044 J-0.0077
G1 X-2.7483 Y48.2567
X-2.7469 Y48.2541 Z-0.2172
X-2.7455 Y48.2516 Z-0.2163
X-2.7442 Y48.2493 Z-0.2149
X-2.743 Y48.2473 Z-0.213
X-2.7421 Y48.2457 Z-0.2107
X-2.7414 Y48.2444 Z-0.2081
X-2.7409 Y48.2437 Z-0.2052
X-2.7408 Y48.2434 Z-0.2023
G0 Z0.6
(.3 CIRCULAR THROUGH HOLE)
M7
G0 X-0.0162 Y50.9555
Z0.6
Z0.2
G1 Z0.1147 F13.333
G3 X-0.0148 Y50.9557 Z0.1083 I-0.0054 J0.0447 F55.
X-0.0109 Y50.9565 Z0.103 I-0.0068 J0.0445
X-0.0053 Y50.9583 Z0.1 I-0.0108 J0.0437
X0.0233 Y51.0002 Z0.0855 I-0.0164 J0.0419
X-0.0487 Y51.0362 Z0.0588 I-0.045 J0.
Y50.9642 Z0.0365 I0.027 J-0.036
X0.0053 Y51.0362 Z-0.0014 I0.027 J0.036
X-0.0487 Z-0.0169 I-0.027 J-0.036
Y50.9642 Z-0.0393 I0.027 J-0.036
X0.0053 Y51.0362 Z-0.0772 I0.027 J0.036
X-0.0487 Z-0.0927 I-0.027 J-0.036
Y50.9642 Z-0.115 I0.027 J-0.036
X0.0053 Y51.0362 Z-0.1529 I0.027 J0.036
X-0.0487 Z-0.1684 I-0.027 J-0.036
Y50.9642 Z-0.1908 I0.027 J-0.036
X0.0233 Y51.0002 Z-0.2175 I0.027 J0.036
X-0.0233 I-0.0233 J0. F60.
X0.1233 I0.0733 J0.
X-0.1233 I-0.1233 J0.
X0.2233 I0.1733 J0.
X-0.2233 I-0.2233 J0.
X0.3233 I0.2733 J0.
X-0.3233 I-0.3233 J0.
X0.4233 I0.3733 J0.
X-0.4233 I-0.4233 J0.
X0.5233 I0.4733 J0.
X-0.5233 I-0.5233 J0.
X0.5233 I0.5233 J0.
G2 X0.568 Y51.0706 I0.0779 J0.
G3 X0.604 Y51.1458 I-0.0282 J0.0597
X0. Y51.6217 I-0.6042 J-0.1456
Y50.3787 I0.0002 J-0.6215
X0.604 Y51.1458 I-0.0002 J0.6215
G2 X0.6071 Y51.1543 I0.0079 J0.0019
G3 X0.6101 Y51.1627 I-0.0047 J0.0064
X0. Y51.6317 I-0.6103 J-0.1625
Y50.3687 I0.0002 J-0.6315
X0.6101 Y51.1627 I-0.0002 J0.6315
X0.6075 Y51.1679 Z-0.2163 I-0.0147 J-0.0039
X0.604 Y51.1713 Z-0.213 I-0.0122 J-0.0091
X0.6011 Y51.1729 Z-0.2081 I-0.0086 J-0.0125
X0.6 Y51.1733 Z-0.2023 I-0.0057 J-0.0141
G0 Z0.6
(SHAPE POCKET)
M7
G0 X1.3644 Y50.5753
Z0.6
Z0.0005
G1 Z-0.0148 F50.
Y50.5756 Z-0.0177
X1.3646 Y50.5765 Z-0.0206
X1.365 Y50.5778 Z-0.0232
X1.3655 Y50.5797 Z-0.0255
X1.366 Y50.5819 Z-0.0274
X1.3667 Y50.5844 Z-0.0288
X1.3674 Y50.5872 Z-0.0297
X1.3681 Y50.5901 Z-0.03
G3 X1.3801 Y50.673 I-0.3767 J0.0965
X1.2707 Y50.7463 I-0.0851 J-0.0088 F60.
G1 X1.2615 Y50.6946
G3 X1.2916 Y50.6895 I0.015 J-0.0026
X1.2615 Y50.6946 I-0.015 J0.0026
X1.2719 Y50.6776 I0.015 J-0.0026
G1 X1.5343 Y50.5929
G3 X1.5508 Y50.5978 I0.0047 J0.0145
X1.5775 Y50.6441 I-0.1309 J0.1066
X1.5859 Y50.6738 I-0.1577 J0.0602 F50.
G1 X1.5891 Y50.6954 F60.
X1.5759 Y50.7074
X1.5623 Y50.719
X1.5483 Y50.7301
X1.534 Y50.7408
X1.5193 Y50.751
X1.5044 Y50.7607
X1.4891 Y50.77
X1.4735 Y50.7787
X1.4577 Y50.7869
X1.4416 Y50.7946
X1.4252 Y50.8018
X1.4087 Y50.8084
X1.3919 Y50.8145
X1.3749 Y50.8201
X1.3578 Y50.8251
X1.3405 Y50.8295
X1.3231 Y50.8334
X1.3055 Y50.8367
X1.2879 Y50.8395
G2 X1.2716 Y50.7433 I-0.5434 J0.0423
G3 X1.2841 Y50.7257 I0.015 J-0.0026
X1.3023 Y50.7352 I0.0029 J0.0168
X1.3012 Y50.8051 I-0.0711 J0.0338
X1.2905 Y50.8208 I-0.07 J-0.0362 F50.
G2 X1.2868 Y50.8318 I0.0115 J0.01
G1 X1.2884 Y50.8476 F60.
X1.2921 Y50.8545
X1.2963 Y50.8611
X1.301 Y50.8674
X1.3061 Y50.8733
X1.3117 Y50.8789
X1.3176 Y50.884
X1.3239 Y50.8886
X1.3306 Y50.8927
X1.3375 Y50.8964
X1.3447 Y50.8995
X1.3522 Y50.902
X1.3597 Y50.904
X1.3674 Y50.9054
X1.3752 Y50.9063
X1.3831 Y50.9065
X1.3909 Y50.9062
X1.3987 Y50.9052
X1.4064 Y50.9037
X1.4139 Y50.9016
X1.4213 Y50.899
X1.4285 Y50.8958
X1.4354 Y50.8921
X1.442 Y50.8878
X1.4482 Y50.8831
G2 X1.604 Y50.8132 I-0.0632 J-0.3494
G1 X1.6042 Y50.8099
X1.6007 Y50.7779
X1.5984 Y50.7594
G2 X1.5889 Y50.7476 I-0.015 J0.0024
X1.57 Y50.76 I-0.005 J0.0129
X1.5822 Y50.7899 I0.0393 J0.0014
X1.5948 Y50.798 I0.0271 J-0.0285 F50.
G3 X1.6042 Y50.8099 I-0.0056 J0.0141
G1 X1.6072 Y50.8371 F60.
G3 X1.2998 Y50.9794 I-0.2181 J-0.068
G1 X1.2979 Y50.9764
X1.2972 Y50.9729
Y50.9404
X1.2956 Y50.9172
X1.2884 Y50.8476
G3 X1.2951 Y50.8339 I0.0152 J-0.001
X1.3265 Y50.8377 I0.0135 J0.0201
X1.3177 Y50.9517 I-0.0584 J0.0528
X1.3053 Y50.96 I-0.0496 J-0.0612 F50.
G2 X1.2972 Y50.9729 I0.0072 J0.0134
G1 X1.2973 Y50.9938 F60.
X1.301 Y51.0025
X1.3052 Y51.0109
X1.31 Y51.019
X1.3153 Y51.0268
X1.3211 Y51.0343
X1.3273 Y51.0413
X1.334 Y51.0479
X1.3411 Y51.0541
X1.3486 Y51.0598
X1.3565 Y51.065
X1.3646 Y51.0697
X1.3731 Y51.0739
X1.3818 Y51.0775
X1.3907 Y51.0805
X1.3998 Y51.0829
X1.409 Y51.0848
X1.4184 Y51.086
X1.4278 Y51.0867
X1.4372
X1.4466 Y51.0861
X1.4559 Y51.085
X1.4652 Y51.0832
X1.4743 Y51.0808
X1.4832 Y51.0778
X1.492 Y51.0743
X1.5005 Y51.0702
X1.5087 Y51.0656
X1.5165 Y51.0604
X1.5241 Y51.0548
X1.5312 Y51.0486
G2 X1.6161 Y51.0018 I0.0121 J-0.0783
X1.6072 Y50.8371 I-1.1728 J-0.0195
X1.5978 Y50.8252 I-0.0151 J0.0022
X1.551 Y50.8469 I-0.0132 J0.033
X1.5952 Y50.9811 I0.112 J0.0375
X1.6079 Y50.9889 I0.0678 J-0.0967 F50.
G3 X1.6161 Y51.0018 I-0.0071 J0.0135
G1 Y51.01 F60.
X1.6148 Y51.046
G3 X1.2907 Y51.1304 I-0.1941 J-0.0812
G1 X1.2958 Y51.0797
X1.2973 Y51.0565
Y50.9938
G3 X1.3053 Y50.9809 I0.0152 J0.0005
X1.3162 Y50.9817 I0.0049 J0.0091
G1 X1.319 Y50.9837
G3 X1.3133 Y51.1114 I-0.0489 J0.0618
X1.3 Y51.1183 I-0.0431 J-0.0659 F50.
G2 X1.2907 Y51.1304 I0.0058 J0.0141
G1 X1.2879 Y51.1582 F60.
G2 X1.5106 Y51.2633 I0.1587 J-0.0478
X1.6006 Y51.2225 I-0.0317 J-0.1899
X1.6148 Y51.046 I-1.3172 J-0.1947
X1.5941 Y51.0318 I-0.0152 J0.
G1 X1.5928 Y51.0323
X1.3112 Y51.1407
X1.2975 Y51.146 F50.
G2 X1.2879 Y51.1582 I0.0055 J0.0142
G3 X1.262 Y51.3039 I-0.7651 J-0.061 F60.
G2 X1.2681 Y51.3187 I0.015 J0.0025
G1 X1.2705 Y51.3205 Z-0.0297
X1.2728 Y51.3221 Z-0.0288
X1.2749 Y51.3237 Z-0.0274
X1.2768 Y51.325 Z-0.0255
X1.2783 Y51.3261 Z-0.0232
X1.2795 Y51.327 Z-0.0206
X1.2802 Y51.3275 Z-0.0177
X1.2804 Y51.3276 Z-0.0148
G0 Z0.6
X-0.4257 Y49.5886
Z0.0005
G1 Z-0.0148 F50.
X-0.4254 Y49.5885 Z-0.0177
X-0.4246 Y49.5883 Z-0.0206
X-0.4232 Y49.5879 Z-0.0232
X-0.4214 Y49.5875 Z-0.0255
X-0.4191 Y49.5869 Z-0.0274
X-0.4166 Y49.5862 Z-0.0288
X-0.4138 Y49.5855 Z-0.0297
X-0.4109 Y49.5848 Z-0.03
G3 X-0.328 Y49.5729 I0.0965 J0.3767
X-0.245 Y49.7269 I-0.0231 J0.1119 F60.
G1 X-0.303 Y49.7377
G3 X-0.3207 Y49.7227 I-0.0025 J-0.015
G1 X-0.3205 Y49.7204
X-0.32 Y49.7182
G3 X-0.2909 Y49.7271 I0.0146 J0.0044
X-0.3199 Y49.7275 I-0.0146 J-0.0044
G1 X-0.4072 Y49.4658
G3 X-0.4024 Y49.4492 I0.0144 J-0.0048
X-0.356 Y49.4224 I0.1066 J0.1309
X-0.3263 Y49.4141 I0.0603 J0.1577 F50.
G1 X-0.3069 Y49.4112 F60.
G3 X-0.1545 Y49.7118 I-0.1863 J0.2833
G2 X-0.2465 Y49.7263 I0.0343 J0.5164
G3 X-0.2608 Y49.721 I-0.0025 J-0.015
X-0.2392 Y49.6706 I0.0238 J-0.0196
X-0.1777 Y49.6936 I0.0057 J0.0785
X-0.1682 Y49.7051 I-0.0558 J0.0556 F50.
G2 X-0.1545 Y49.7118 I0.0126 J-0.0085
G1 X-0.1379 Y49.7101 F60.
X-0.1304 Y49.7052
X-0.1232 Y49.6997
X-0.1165 Y49.6939
X-0.1101 Y49.6876
X-0.1042 Y49.6809
X-0.0987 Y49.6738
X-0.0937 Y49.6663
X-0.0893 Y49.6586
X-0.0853 Y49.6505
X-0.0819 Y49.6422
X-0.0791 Y49.6337
X-0.0768 Y49.6251
X-0.0751 Y49.6163
X-0.074 Y49.6074
X-0.0735 Y49.5984
X-0.0736 Y49.5895
X-0.0743 Y49.5806
X-0.0756 Y49.5717
X-0.0775 Y49.5629
X-0.0799 Y49.5543
X-0.083 Y49.5459
X-0.0865 Y49.5377
X-0.0907 Y49.5297
X-0.0953 Y49.5221
X-0.1004 Y49.5148
X-0.1061 Y49.5078
X-0.1121 Y49.5012
X-0.1186 Y49.495
X-0.1255 Y49.4893
G2 X-0.1833 Y49.3955 I-0.1812 J0.0468
G1 X-0.1864 Y49.3953
X-0.2201 Y49.399
X-0.2386 Y49.4012
G2 X-0.2505 Y49.4107 I0.0023 J0.0151
X-0.2393 Y49.4293 I0.0127 J0.005
X-0.2064 Y49.4173 I0.0043 J-0.0391
X-0.1984 Y49.4047 I-0.0285 J-0.0271 F50.
G3 X-0.1864 Y49.3953 I0.0141 J0.0056
G1 X-0.1506 Y49.3913 F60.
G3 X-0.0103 Y49.7026 I-0.0492 J0.2094
G1 X-0.0579
X-0.0811 Y49.7042
X-0.1379 Y49.7101
G3 X-0.1515 Y49.7034 I-0.001 J-0.0152
X-0.1492 Y49.6767 I0.0176 J-0.0119
X-0.0315 Y49.682 I0.0565 J0.0549
X-0.0232 Y49.6945 I-0.0612 J0.0495 F50.
G2 X-0.0103 Y49.7026 I0.0134 J-0.0072
G1 X0.0116 F60.
X0.0205 Y49.6989
X0.0291 Y49.6946
X0.0375 Y49.6899
X0.0455 Y49.6845
X0.0532 Y49.6787
X0.0604 Y49.6724
X0.0673 Y49.6656
X0.0737 Y49.6584
X0.0796 Y49.6508
X0.085 Y49.6429
X0.0899 Y49.6346
X0.0942 Y49.626
X0.098 Y49.6171
X0.1012 Y49.608
X0.1037 Y49.5987
X0.1057 Y49.5893
X0.1071 Y49.5798
X0.1078 Y49.5702
X0.1079 Y49.5606
X0.1074 Y49.5509
X0.1063 Y49.5414
X0.1046 Y49.5319
X0.1022 Y49.5226
X0.0993 Y49.5134
X0.0957 Y49.5045
X0.0916 Y49.4958
X0.0869 Y49.4873
X0.0817 Y49.4792
X0.076 Y49.4715
X0.0698 Y49.4641
G2 X0.0251 Y49.3846 I-0.0754 J-0.01
X-0.1506 Y49.3913 I-0.0363 J1.3439
X-0.1626 Y49.4008 I0.0022 J0.0151
X-0.1513 Y49.4342 I0.0253 J0.0101
X0.0036 Y49.4047 I0.061 J-0.1012
X0.0119 Y49.3922 I-0.0939 J-0.0716 F50.
G3 X0.0251 Y49.3846 I0.0132 J0.0076
G1 X0.0707 Y49.3862 F60.
G3 X0.1867 Y49.6608 I-0.0673 J0.1902
X0.1556 Y49.7119 I-0.0869 J-0.0178
G1 X0.0811 Y49.7042
X0.0579 Y49.7026
X0.0116
G3 X-0.0013 Y49.6945 I0.0005 J-0.0152
X0.0402 Y49.6291 I0.0393 J-0.0209
X0.1371 Y49.6891 I-0.006 J0.118
X0.1436 Y49.7026 I-0.1029 J0.058 F50.
G2 X0.1556 Y49.7119 I0.0141 J-0.0057
G3 X0.303 Y49.7377 I-0.0682 J0.8243 F60.
G2 X0.3207 Y49.7236 I0.0025 J-0.015
G1 X0.321 Y49.7182
X0.3382 Y49.4388
X0.3388 Y49.43 F50.
G2 X0.3263 Y49.4141 I-0.0152 J-0.0009
X0.0707 Y49.3862 I-0.3013 J1.5747 F60.
X0.057 Y49.3946 I0. J0.0152
G1 X0.0557 Y49.3973 Z-0.0297
X0.0544 Y49.3999 Z-0.0288
X0.0533 Y49.4022 Z-0.0274
X0.0523 Y49.4043 Z-0.0255
X0.0514 Y49.406 Z-0.0232
X0.0508 Y49.4073 Z-0.0206
X0.0504 Y49.408 Z-0.0177
X0.0503 Y49.4083 Z-0.0148
G0 Z0.6
X-1.4085 Y50.5753
Z0.0005
G1 Z-0.0148 F50.
Y50.5756 Z-0.0177
X-1.4082 Y50.5765 Z-0.0206
X-1.4079 Y50.5778 Z-0.0232
X-1.4074 Y50.5797 Z-0.0255
X-1.4069 Y50.5819 Z-0.0274
X-1.4062 Y50.5844 Z-0.0288
X-1.4055 Y50.5872 Z-0.0297
X-1.4048 Y50.5901 Z-0.03
G3 X-1.3928 Y50.673 I-0.3767 J0.0965
X-1.5995 Y50.7631 I-0.147 J-0.0551 F60.
G1 X-1.5992 Y50.7602
X-1.5984 Y50.7575
X-1.597 Y50.7549
X-1.5953 Y50.7526
X-1.5931 Y50.7507
X-1.5907 Y50.7493
X-1.5881 Y50.7482
X-1.5853 Y50.7477
X-1.5825
X-1.5797 Y50.7483
X-1.5771 Y50.7493
X-1.5747 Y50.7507
X-1.5723 Y50.7524 Z-0.0297
X-1.57 Y50.7541 Z-0.0288
X-1.5678 Y50.7556 Z-0.0274
X-1.5659 Y50.7569 Z-0.0255
X-1.5644 Y50.758 Z-0.0232
X-1.5632 Y50.7588 Z-0.0206
X-1.5625 Y50.7593 Z-0.0177
X-1.5623 Y50.7595 Z-0.0148
G0 Z0.4
X-1.2603 Y50.5614
Z0.0005
G1 Z-0.0148 F50.
Y50.5617 Z-0.0177
X-1.26 Y50.5625 Z-0.0206
X-1.2596 Y50.5639 Z-0.0232
X-1.2591 Y50.5657 Z-0.0255
X-1.2585 Y50.5679 Z-0.0274
X-1.2577 Y50.5704 Z-0.0288
X-1.2569 Y50.5732 Z-0.0297
X-1.2561 Y50.576 Z-0.03
G3 X-1.2535 Y50.6598 I-0.1621 J0.0469
G1 X-1.2541 Y50.6619 F60.
X-1.2596 Y50.6851
X-1.2661 Y50.6974
X-1.2732 Y50.7095
X-1.2807 Y50.7212
X-1.2888 Y50.7326
X-1.2974 Y50.7436
X-1.3064 Y50.7543
X-1.3159 Y50.7645
X-1.3258 Y50.7743
X-1.3362 Y50.7837
X-1.3469 Y50.7926
X-1.358 Y50.801
X-1.3695 Y50.809
X-1.3813 Y50.8164
X-1.3934 Y50.8234
X-1.4059 Y50.8298
X-1.4185 Y50.8356
X-1.4315 Y50.8409
X-1.4446 Y50.8456
X-1.4579 Y50.8498
X-1.4714 Y50.8533
X-1.4851 Y50.8563
X-1.4988 Y50.8587
X-1.5127 Y50.8605
X-1.5266 Y50.8616
X-1.5405 Y50.8622
X-1.5545
X-1.5684 Y50.8615
X-1.5823 Y50.8603
X-1.5962 Y50.8584
X-1.6099 Y50.856
X-1.6007 Y50.7779
X-1.5986 Y50.7608
G3 X-1.589 Y50.7489 I0.015 J0.0024
X-1.5514 Y50.7813 I0.0101 J0.0262
X-1.5858 Y50.8305 I-0.0769 J-0.0171
X-1.5991 Y50.8373 I-0.0425 J-0.0663 F50.
G2 X-1.6085 Y50.8492 I0.0056 J0.0141
G1 X-1.6105 Y50.8668 F60.
X-1.6069 Y50.875
X-1.6028 Y50.883
X-1.5982 Y50.8906
X-1.5931 Y50.898
X-1.5875 Y50.905
X-1.5815 Y50.9116
X-1.575 Y50.9178
X-1.5682 Y50.9235
X-1.561 Y50.9288
X-1.5534 Y50.9336
X-1.5456 Y50.9379
X-1.5375 Y50.9417
X-1.5291 Y50.9449
X-1.5206 Y50.9476
X-1.5119 Y50.9497
X-1.5031 Y50.9512
X-1.4942 Y50.9521
X-1.4853 Y50.9524
X-1.4763 Y50.9522
X-1.4674 Y50.9514
X-1.4586 Y50.9499
X-1.4499 Y50.9479
X-1.4413 Y50.9454
X-1.433 Y50.9422
X-1.4248 Y50.9386
X-1.4169 Y50.9344
X-1.4093 Y50.9296
X-1.4021 Y50.9244
X-1.3952 Y50.9188
G2 X-1.2901 Y50.8641 I0.0141 J-0.1012
G3 X-1.2596 Y50.6851 I0.916 J0.0644
G2 X-1.2648 Y50.6708 I-0.015 J-0.0026
X-1.3205 Y50.6755 I-0.0255 J0.0306
X-1.3087 Y50.8413 I0.0896 J0.077
X-1.2968 Y50.8504 I0.0778 J-0.0889 F50.
G3 X-1.2901 Y50.8641 I-0.0085 J0.0126
G1 X-1.2956 Y50.9172 F60.
G3 X-1.6161 Y51.0009 I-0.1962 J-0.0959
X-1.6105 Y50.8668 I1.131 J-0.0202
X-1.5832 Y50.8599 I0.0151 J0.0022
X-1.5778 Y50.8708 I-0.0273 J0.0204
X-1.5983 Y50.9764 I-0.1135 J0.0327
X-1.6112 Y50.9903 I-0.093 J-0.0729 F50.
G2 X-1.6161 Y51.0009 I0.0103 J0.0112
G1 Y51.01 F60.
X-1.6152 Y51.0332
X-1.6099 Y51.0427
X-1.6041 Y51.0519
X-1.5977 Y51.0606
X-1.5909 Y51.0691
X-1.5836 Y51.0771
X-1.5758 Y51.0847
X-1.5676 Y51.0918
X-1.559 Y51.0985
X-1.5501 Y51.1046
X-1.5408 Y51.1103
X-1.5313 Y51.1154
X-1.5214 Y51.1199
X-1.5113 Y51.1239
X-1.501 Y51.1273
X-1.4905 Y51.1301
X-1.4799 Y51.1323
X-1.4691 Y51.1339
X-1.4583 Y51.1349
X-1.4475 Y51.1353
X-1.4366 Y51.135
X-1.4258 Y51.1341
X-1.4151 Y51.1327
X-1.4044 Y51.1306
X-1.3939 Y51.1279
X-1.3835 Y51.1246
X-1.3734 Y51.1207
X-1.3635 Y51.1163
X-1.3539 Y51.1113
X-1.3445 Y51.1057
X-1.3355 Y51.0996
X-1.3269 Y51.0931
X-1.3186 Y51.086
X-1.3108 Y51.0785
X-1.3034 Y51.0706
X-1.2969 Y51.072
X-1.2965 Y51.0687
X-1.2973 Y51.0565
X-1.2972 Y50.9404
X-1.2956 Y50.9172
G2 X-1.3212 Y50.9055 I-0.0152 J-0.0005
X-1.344 Y50.9486 I0.0511 J0.0546
X-1.3157 Y51.0453 I0.1167 J0.0183
X-1.3021 Y51.0584 I0.0884 J-0.0784 F50.
G3 X-1.2965 Y51.0687 I-0.0096 J0.0118
G1 X-1.2958 Y51.0797 F60.
X-1.2935 Y51.1029
G3 X-1.5414 Y51.2201 I-0.1784 J-0.0565
X-1.604 Y51.1914 I0.0177 J-0.1217
G1 X-1.6113 Y51.1261
X-1.6123 Y51.1137
X-1.6152 Y51.0332
G3 X-1.6077 Y51.02 I0.0152 J0.
X-1.5532 Y51.0398 I0.019 J0.0327
X-1.5857 Y51.1685 I-0.111 J0.0405
X-1.5975 Y51.1777 I-0.0785 J-0.0883 F50.
G2 X-1.604 Y51.1914 I0.0086 J0.0126
G1 X-1.601 Y51.2189 F60.
X-1.5989 Y51.2374
X-1.5706 Y51.225
X-1.3218 Y51.1153
X-1.2935 Y51.1029 F50.
G2 X-1.262 Y51.3039 I1.0295 J-0.0584 F60.
G3 X-1.2814 Y51.321 I-0.015 J0.0025
G1 X-1.2842 Y51.3201 Z-0.0297
X-1.287 Y51.3193 Z-0.0288
X-1.2895 Y51.3185 Z-0.0274
X-1.2917 Y51.3179 Z-0.0255
X-1.2935 Y51.3173 Z-0.0232
X-1.2949 Y51.3169 Z-0.0206
X-1.2957 Y51.3166 Z-0.0177
X-1.296 Z-0.0148
G0 Z0.6
X0.4272 Y52.4354
Z0.0005
G1 Z-0.0148 F50.
X0.4269 Y52.4355 Z-0.0177
X0.4261 Y52.4357 Z-0.0206
X0.4247 Y52.436 Z-0.0232
X0.4229 Y52.4365 Z-0.0255
X0.4206 Y52.4371 Z-0.0274
X0.4181 Y52.4377 Z-0.0288
X0.4153 Y52.4384 Z-0.0297
X0.4124 Y52.4392 Z-0.03
G3 X0.3295 Y52.4511 I-0.0965 J-0.3767
G1 X0.3212 Y52.4488 F60.
X0.313 Y52.4459
X0.3051 Y52.4425
X0.2974 Y52.4386
X0.2899 Y52.4341
X0.2828 Y52.4291
X0.2761 Y52.4237
X0.2697 Y52.4179
X0.2638 Y52.4116
X0.2583 Y52.4049
X0.2532 Y52.3979
X0.2486 Y52.3905
X0.2446 Y52.3829
X0.241 Y52.375
X0.2381 Y52.3669
X0.2356 Y52.3585
X0.2338 Y52.3501
X0.2325 Y52.3415
X0.2318 Y52.3329
X0.2316 Y52.3243
X0.2321 Y52.3156
X0.2332 Y52.307
X0.2348 Y52.2985
X0.237 Y52.2901
X0.2398 Y52.2819
X0.2431 Y52.2739
X0.3003 Y52.2628
G3 X0.3053 Y52.2929 I0.0025 J0.015
X0.3003 Y52.2628 I-0.0025 J-0.015
X0.3172 Y52.2728 I0.0025 J0.015
G1 X0.408 Y52.5339
G3 X0.4032 Y52.5507 I-0.0144 J0.005
X0.3569 Y52.5775 I-0.1066 J-0.1309
X0.3272 Y52.5858 I-0.0602 J-0.1577 F50.
G1 X0.3038 Y52.5893 F60.
G3 X0.1502 Y52.2888 I0.1471 J-0.2647
G1 X0.1869 Y52.2851
X0.2103 Y52.2811
X0.2438 Y52.2743
G3 X0.258 Y52.2796 I0.0025 J0.015
X0.2375 Y52.3299 I-0.0238 J0.0196
X0.1733 Y52.3071 I-0.0083 J-0.0783
X0.1638 Y52.2955 I0.0559 J-0.0555 F50.
G2 X0.1502 Y52.2888 I-0.0126 J0.0085
G1 X0.1331 Y52.2905 F60.
X0.1254 Y52.2955
X0.118 Y52.301
X0.1109 Y52.3069
X0.1043 Y52.3134
X0.0981 Y52.3202
X0.0924 Y52.3274
X0.0872 Y52.335
X0.0825 Y52.3429
X0.0783 Y52.3511
X0.0747 Y52.3596
X0.0716 Y52.3683
X0.0691 Y52.3772
X0.0672 Y52.3862
X0.0659 Y52.3953
X0.0652 Y52.4045
Y52.4137
X0.0657 Y52.4229
X0.0668 Y52.4321
X0.0686 Y52.4411
X0.0709 Y52.45
X0.0738 Y52.4587
X0.0773 Y52.4673
X0.0814 Y52.4755
X0.086 Y52.4835
X0.0911 Y52.4912
X0.0967 Y52.4985
X0.1027 Y52.5055
X0.1092 Y52.512
X0.1162 Y52.518
G2 X0.1795 Y52.6055 I0.0913 J0.0005
G1 X0.2337 Y52.5995
X0.2376 Y52.5989
G2 X0.2492 Y52.5891 I-0.0026 J-0.015
X0.2424 Y52.5739 I-0.0112 J-0.0041
X0.1995 Y52.5835 I-0.0143 J0.0367
X0.1915 Y52.596 I0.0285 J0.0271 F50.
G3 X0.1795 Y52.6055 I-0.0141 J-0.0056
G1 X0.1402 Y52.6098 F60.
G3 X0. Y52.2982 I0.0448 J-0.2075
G1 X0.0037 Y52.2974
X0.0467
X0.0701 Y52.2969
X0.1331 Y52.2905
G3 X0.1468 Y52.2972 I0.001 J0.0152
X0.1453 Y52.3204 I-0.0158 J0.0106
X0.0249 Y52.318 I-0.0592 J-0.052
X0.0166 Y52.3055 I0.0612 J-0.0495 F50.
G2 X0.0037 Y52.2974 I-0.0134 J0.0072
G1 X-0.0234 F60.
X-0.0324 Y52.3023
X-0.0411 Y52.3076
X-0.0494 Y52.3135
X-0.0574 Y52.3198
X-0.065 Y52.3266
X-0.0721 Y52.3339
X-0.0788 Y52.3416
X-0.085 Y52.3497
X-0.0908 Y52.3582
X-0.0959 Y52.367
X-0.1006 Y52.376
X-0.1047 Y52.3854
X-0.1082 Y52.395
X-0.1111 Y52.4048
X-0.1134 Y52.4147
X-0.1151 Y52.4247
X-0.1162 Y52.4349
X-0.1167 Y52.4451
X-0.1165 Y52.4553
X-0.1158 Y52.4654
X-0.1144 Y52.4755
X-0.1124 Y52.4856
X-0.1098 Y52.4954
X-0.1066 Y52.5051
X-0.1028 Y52.5146
X-0.0985 Y52.5238
X-0.0936 Y52.5327
X-0.0881 Y52.5414
X-0.0822 Y52.5496
X-0.0757 Y52.5576
X-0.0688 Y52.565
X-0.0615 Y52.5721
G2 X-0.0378 Y52.6152 I0.0315 J0.0107
G1 X0. Y52.6167
X0.1168 Y52.6123
X0.1402 Y52.6098
G2 X0.1522 Y52.6004 I-0.0022 J-0.0151
X0.1419 Y52.5681 I-0.0248 J-0.0099
X-0.0162 Y52.5952 I-0.0644 J0.099
X-0.0246 Y52.6077 I0.0937 J0.0719 F50.
G3 X-0.0378 Y52.6152 I-0.0132 J-0.0077
G1 X-0.0862 Y52.6134 F60.
G3 X-0.1902 Y52.3263 I0.0783 J-0.1908
X-0.1635 Y52.2874 I0.0601 J0.0128
G1 X-0.0701 Y52.2969
X-0.0467 Y52.2974
X-0.0234
G3 X-0.0087 Y52.3132 I-0.0005 J0.0152
X-0.0256 Y52.3351 I-0.0237 J-0.0008
X-0.1408 Y52.3074 I-0.0337 J-0.1132
X-0.1534 Y52.2933 I0.0815 J-0.0855 F50.
G2 X-0.1635 Y52.2874 I-0.0121 J0.0092
G1 X-0.1869 Y52.2851 F60.
X-0.2103 Y52.2811
X-0.3003 Y52.2628
G2 X-0.318 Y52.2767 I-0.0025 J0.015
G1 X-0.3184 Y52.2823
X-0.339 Y52.5611
X-0.3396 Y52.5697 F50.
G2 X-0.3272 Y52.5858 I0.0152 J0.0011
X-0.0862 Y52.6134 I0.3468 J-1.9624 F60.
X-0.0725 Y52.605 I0. J-0.0152
G1 X-0.0712 Y52.6023 Z-0.0297
X-0.0699 Y52.5998 Z-0.0288
X-0.0687 Y52.5974 Z-0.0274
X-0.0677 Y52.5953 Z-0.0255
X-0.0669 Y52.5936 Z-0.0232
X-0.0662 Y52.5924 Z-0.0206
X-0.0659 Y52.5916 Z-0.0177
X-0.0657 Y52.5913 Z-0.0148
G0 Z0.6
X1.4331 Y52.8762
Z0.1
G3 X1.5341 Y52.9027 Z0.0794 I0.0378 J0.0617 F50.
X1.4077 Y52.9731 Z0.0393 I-0.0632 J0.0352
X1.444 Y52.8707 Z0.0177 I0.0632 J-0.0352
X1.5392 Y52.9138 Z-0.0029 I0.0269 J0.0672
X1.4027 Y52.9619 Z-0.043 I-0.0682 J0.024
X1.4557 Y52.8672 Z-0.0646 I0.0682 J-0.024
X1.5422 Y52.9257 Z-0.0852 I0.0152 J0.0707
X1.4801 Y53.0096 Z-0.1058 I-0.0713 J0.0122
X1.3988 Y52.944 Z-0.1263 I-0.0092 J-0.0718
X1.4679 Y52.8656 Z-0.1469 I0.0721 J-0.0061
X1.5433 Y52.9379 Z-0.1675 I0.0031 J0.0723
X1.3986 I-0.0723 J0.
X1.543 Y52.9321 I0.0723 J0.
G1 X1.5433 Y52.9379
G3 X1.5533 Y52.9689 I-0.0258 J0.0255 F60.
X1.5045 Y53.0546 I-0.1339 J-0.0196
X1.3196 Y52.9674 I-0.0674 J-0.0968
G2 X1.3963 Y52.8445 I-0.1536 J-0.1812
G3 X1.6158 Y52.8822 I0.1011 J0.0694
G2 X1.5533 Y52.9689 I0.0752 J0.1201
G3 X1.5525 Y52.9706 I-0.0141 J-0.0057
G1 X1.5383 Y52.9959
X1.5202 Y53.028
X1.5072 Y53.051 F50.
X1.506 Y53.0529
X1.5045 Y53.0546
X1.4783 Y53.078 F60.
X1.4709 Y53.0857
X1.4469 Y53.1117
X1.4393 Y53.1163
X1.4314 Y53.1204
X1.4233 Y53.1239
X1.4149 Y53.1269
X1.4063 Y53.1293
X1.3976 Y53.1311
X1.3887 Y53.1322
X1.3798 Y53.1328
X1.3709 Y53.1327
X1.3621 Y53.1321
X1.3533 Y53.1308
X1.3445 Y53.1289
X1.336 Y53.1264
X1.3276 Y53.1233
X1.3195 Y53.1197
X1.3117 Y53.1155
X1.3041 Y53.1108
X1.2969 Y53.1056
X1.2901 Y53.0998
X1.2837 Y53.0937
X1.2777 Y53.0871
X1.2722 Y53.0801
X1.2672 Y53.0727
X1.2627 Y53.065
X1.2588 Y53.057
X1.2554 Y53.0488
X1.2526 Y53.0404
G2 X1.321 Y52.9673 I-1.5602 J-1.5306
G3 X1.3357 Y52.9634 I0.0108 J0.0107
X1.3506 Y53.0073 I-0.0071 J0.0269
X1.284 Y53.0378 I-0.0623 J-0.0481
X1.2692 Y53.0356 I0.0042 J-0.0786 F50.
G2 X1.2546 Y53.0397 I-0.0037 J0.0148
G1 X1.2407 Y53.0551 F60.
G2 X1.353 Y53.2157 I0.1066 J0.045
G3 X1.4469 Y53.1117 I3.0371 J2.6484
G2 X1.4498 Y53.0967 I-0.0115 J-0.0099
X1.376 Y53.0831 I-0.0408 J0.0142
X1.3512 Y53.1861 I0.0903 J0.0762
X1.3555 Y53.2004 I0.115 J-0.0268 F50.
G3 X1.353 Y53.2154 I-0.0143 J0.0053
G1 X1.3507 Y53.2181 F60.
X1.3353 Y53.2358
G3 X1.1542 Y53.1545 I-0.0641 J-0.0996
X1.2407 Y53.0551 I3.1225 J2.6312
X1.2554 Y53.0509 I0.0109 J0.0106
X1.2631 Y53.0593 I-0.0025 J0.0101
G1 X1.2635 Y53.0622
G3 X1.1845 Y53.1512 I-0.0781 J0.0103
X1.1696 Y53.1496 I0.001 J-0.0787 F50.
G2 X1.1551 Y53.1544 I-0.0031 J0.0149
G1 X1.144 Y53.1677 F60.
X1.1411 Y53.1714
X1.1374 Y53.1761
G2 X1.253 Y53.3388 I0.1107 J0.0438
G3 X1.3353 Y53.2358 I1.2028 J0.8771
G2 X1.3376 Y53.2208 I-0.0119 J-0.0095
X1.3221 Y53.2107 I-0.0148 J0.0057
X1.2493 Y53.3084 I0.0036 J0.0787
X1.2543 Y53.3225 I0.0764 J-0.0191 F50.
G3 X1.2529 Y53.3377 I-0.0138 J0.0064
G1 X1.2375 Y53.3581 F60.
G3 X1.0548 Y53.2838 I-0.0674 J-0.0961
G1 X1.0695 Y53.2648
X1.1047 Y53.2181
X1.1374 Y53.1761
G3 X1.1589 Y53.1742 I0.0117 J0.0098
X1.1651 Y53.1954 I-0.0128 J0.0153
X1.0843 Y53.2744 I-0.1129 J-0.0347
X1.0657 Y53.278 I-0.0321 J-0.1137 F50.
G2 X1.0555 Y53.2837 I0.0017 J0.0151
G1 X1.0385 Y53.3067 F60.
G2 X1.1605 Y53.4643 I0.1128 J0.0387
G3 X1.2375 Y53.3581 I1.8911 J1.2914
G2 X1.2389 Y53.343 I-0.0125 J-0.0087
X1.2222 Y53.3337 I-0.0148 J0.0069
X1.1556 Y53.434 I0.0089 J0.0782
X1.1611 Y53.4479 I0.0756 J-0.0221 F50.
G3 X1.1604 Y53.4631 I-0.0135 J0.007
G1 X1.1476 Y53.4816 F60.
G3 X0.9611 Y53.4177 I-0.0736 J-0.0891
X1.0385 Y53.3067 I1.69 J1.0957
X1.0599 Y53.3042 I0.0119 J0.0095
X1.0654 Y53.3194 I-0.0095 J0.012
X0.9895 Y53.4064 I-0.1156 J-0.0242
X0.9712 Y53.4113 I-0.0397 J-0.1112 F50.
G2 X0.9614 Y53.4177 I0.0028 J0.015
G1 X0.9573 Y53.4242 F60.
X0.946 Y53.442
G2 X1.0776 Y53.5931 I0.1148 J0.0329
G3 X1.1476 Y53.4816 I1.1557 J0.6475
G2 X1.1483 Y53.4664 I-0.0128 J-0.0082
X1.1307 Y53.4576 I-0.0148 J0.0076
X1.0703 Y53.5633 I0.0132 J0.0776
X1.0769 Y53.5767 I0.0736 J-0.028 F50.
G3 X1.0774 Y53.5919 I-0.0129 J0.008
G1 X1.0653 Y53.6127 F60.
G3 X0.8757 Y53.5596 I-0.0782 J-0.0861
X0.946 Y53.442 I2.797 J1.5926
X0.9735 Y53.4478 I0.0126 J0.0086
X0.972 Y53.473 I-0.0512 J0.0096
X0.9037 Y53.547 I-0.1127 J-0.0354
X0.8856 Y53.5527 I-0.0443 J-0.1095 F50.
G2 X0.8761 Y53.5595 I0.0034 J0.0148
G1 X0.8639 Y53.5806 F60.
X0.862 Y53.5839
G2 X1.002 Y53.7274 I0.1164 J0.0265
G3 X1.0653 Y53.6127 I1.1683 J0.5697
G2 X1.0649 Y53.5975 I-0.0134 J-0.0072
X1.047 Y53.5902 I-0.0139 J0.0086
X0.9934 Y53.698 I0.0186 J0.0765
X1.0007 Y53.7111 I0.0722 J-0.0313 F50.
G3 X1.0018 Y53.7263 I-0.0126 J0.0086
G1 X0.999 Y53.7317 F60.
X0.9916 Y53.7473
G3 X0.7997 Y53.7077 I-0.0835 J-0.0802
X0.862 Y53.5839 I1.5768 J0.7161
X0.8754 Y53.5767 I0.013 J0.008
X0.91 Y53.6353 I-0.0011 J0.0402
X0.8275 Y53.6972 I-0.105 J-0.054
X0.8126 Y53.6991 I-0.0225 J-0.1159 F50.
G2 X0.8 Y53.7076 I0.001 J0.0152
G1 X0.789 Y53.7317 F60.
X0.7879 Y53.7402
X0.7874 Y53.7487
Y53.7573
X0.7881 Y53.7658
X0.7895 Y53.7743
X0.7914 Y53.7827
X0.7939 Y53.7908
X0.797 Y53.7988
X0.8007 Y53.8066
X0.8049 Y53.814
X0.8097 Y53.8211
X0.8149 Y53.8279
X0.8207 Y53.8342
X0.8269 Y53.8402
X0.8334 Y53.8457
X0.8404 Y53.8506
X0.8477 Y53.8551
X0.8553 Y53.859
X0.8632 Y53.8624
X0.8713 Y53.8652
X0.8796 Y53.8674
X0.888 Y53.8689
X0.8965 Y53.8699
X0.9051 Y53.8703
X0.9136 Y53.87
X0.9221 Y53.8691
X0.9306 Y53.8676
X0.9389 Y53.8655
X0.9556 Y53.8251
X0.9769 Y53.7784
X0.9916 Y53.7473
G2 X0.9899 Y53.7322 I-0.014 J-0.006
X0.9708 Y53.7264 I-0.0134 J0.0099
X0.9281 Y53.837 I0.0271 J0.0739
X0.9363 Y53.8495 I0.0697 J-0.0366 F50.
G3 X0.9386 Y53.8646 I-0.0119 J0.0095
G1 X0.9355 Y53.8718 F60.
X0.9303 Y53.8846
G3 X0.735 Y53.8604 I-0.0903 J-0.0713
X0.789 Y53.7317 I1.7758 J0.6701
X0.8017 Y53.7233 I0.0136 J0.0068
X0.842 Y53.7802 I0.0026 J0.0409
X0.7621 Y53.8485 I-0.1087 J-0.0463
X0.7474 Y53.8512 I-0.0288 J-0.1146 F50.
G2 X0.7352 Y53.8603 I0.0018 J0.0151
G1 X0.7307 Y53.8718 F60.
X0.7252 Y53.8888
G2 X0.8876 Y54.0081 I0.1203 J0.0064
G3 X0.9303 Y53.8846 I1.0511 J0.2946
G2 X0.9277 Y53.8697 I-0.0143 J-0.0052
X0.9088 Y53.8652 I-0.0125 J0.0104
X0.8741 Y53.9804 I0.0313 J0.0723
X0.8834 Y53.9921 I0.066 J-0.043 F50.
G3 X0.8871 Y54.0069 I-0.011 J0.0106
G1 X0.8855 Y54.0119 F60.
X0.8774 Y54.034
G3 X0.6709 Y54.0037 I-0.094 J-0.0783
G2 X0.7252 Y53.8888 I-0.1588 J-0.1453
G3 X0.7369 Y53.879 I0.0143 J0.0052
X0.776 Y53.9068 I0.0059 J0.0333
X0.7015 Y53.9983 I-0.0777 J0.0128
X0.6866 Y53.9975 I-0.0032 J-0.0787 F50.
G2 X0.6724 Y54.003 I-0.0023 J0.0151
G1 X0.6658 Y54.0119 F60.
X0.6623 Y54.0162
G2 X0.7897 Y54.1612 I0.1092 J0.0324
X0.8774 Y54.034 I-0.4006 J-0.3702
X0.8742 Y54.0191 I-0.0145 J-0.0047
X0.8159 Y54.0179 I-0.0297 J0.0266
X0.7867 Y54.1319 I0.0846 J0.0824
X0.7916 Y54.1461 I0.1138 J-0.0316 F50.
G3 X0.7897 Y54.1612 I-0.014 J0.0059
G1 X0.7705 Y54.1847 F60.
G3 X0.5816 Y54.1155 I-0.0719 J-0.0961
X0.6623 Y54.0162 I4.6687 J3.71
X0.6767 Y54.0114 I0.0114 J0.0101
X0.6912 Y54.0279 I-0.0035 J0.0177
X0.6123 Y54.1117 I-0.0786 J0.0051
X0.5974 Y54.1103 I0.0003 J-0.0787 F50.
G2 X0.583 Y54.1152 I-0.0029 J0.0149
G1 X0.5677 Y54.134 F60.
G2 X0.6851 Y54.2926 I0.1086 J0.0423
X0.7705 Y54.1847 I-2.3081 J-1.9152
X0.7724 Y54.1696 I-0.0122 J-0.0092
X0.7103 Y54.1595 I-0.0342 J0.0144
X0.6836 Y54.263 I0.0886 J0.078
X0.6878 Y54.2774 I0.1153 J-0.0255 F50.
G3 X0.6851 Y54.2924 I-0.0143 J0.0051
G1 X0.6771 Y54.3012 F60.
X0.653 Y54.3189
G3 X0.5263 Y54.3004 I-0.0509 J-0.0939
X0.5406 Y54.276 I0.012 J-0.0093
G1 X0.6458 Y54.2919
X0.648 Y54.2924
X0.6501 Y54.2932
G3 X0.653 Y54.3189 I-0.0065 J0.0138 F50.
G1 X0.6466 Y54.323 F60.
X0.6399 Y54.3265
X0.633 Y54.3295
X0.6259 Y54.3319
X0.6186 Y54.3338
X0.6111 Y54.3351
X0.6036 Y54.3357
X0.5961 Y54.3358
X0.5886 Y54.3353
X0.5811 Y54.3342
X0.5737 Y54.3324
X0.5666 Y54.3301
X0.5596 Y54.3273
X0.5529 Y54.3239
X0.5464 Y54.3199
X0.5403 Y54.3155
X0.5346 Y54.3106
X0.5293 Y54.3052
X0.5244 Y54.2994
X0.52 Y54.2933
X0.5162 Y54.2868
X0.5128 Y54.2801
X0.51 Y54.2731
X0.5077 Y54.2659
X0.5061 Y54.2585
X0.505 Y54.251
X0.5046 Y54.2435
X0.5047 Y54.236
X0.5054 Y54.2285
X0.5068 Y54.221
X0.5087 Y54.2138
X0.5112 Y54.2066
X0.5143 Y54.1997
X0.5179 Y54.1931
X0.522 Y54.1868
X0.5266 Y54.1808
X0.5317 Y54.1753
X0.5372 Y54.1701
X0.5431 Y54.1654
X0.5493 Y54.1612
X0.5559 Y54.1575
X0.5677 Y54.134
G3 X0.5932 Y54.1382 I0.0115 J0.01
G1 X0.5943 Y54.141 Z-0.1672
X0.5954 Y54.1436 Z-0.1663
X0.5964 Y54.146 Z-0.1649
X0.5973 Y54.1482 Z-0.163
X0.598 Y54.1499 Z-0.1607
X0.5986 Y54.1512 Z-0.1581
X0.5989 Y54.152 Z-0.1552
X0.599 Y54.1523 Z-0.1523
G0 Z0.4
X1.3966 Y52.8903
Z-0.137
G1 Z-0.1523 F50.
Y52.89 Z-0.1552
X1.3964 Y52.8892 Z-0.1581
X1.3962 Y52.8878 Z-0.1607
X1.3958 Y52.8859 Z-0.163
X1.3954 Y52.8837 Z-0.1649
X1.395 Y52.8811 Z-0.1663
X1.3945 Y52.8782 Z-0.1672
X1.394 Y52.8753 Z-0.1675
G3 X1.3963 Y52.8445 I0.0614 J-0.0108
G1 X1.4242 Y52.8062 F60.
X1.4308 Y52.7978
X1.4709 Y52.7554
X1.4785 Y52.7502
X1.4864 Y52.7455
X1.4946 Y52.7413
X1.503 Y52.7376
X1.5117 Y52.7346
X1.5206 Y52.7321
X1.5296 Y52.7302
X1.5387 Y52.7289
X1.5479 Y52.7283
X1.5571 Y52.7282
X1.5663 Y52.7288
X1.5754 Y52.73
X1.5844 Y52.7318
X1.5933 Y52.7342
X1.602 Y52.7371
X1.6105 Y52.7407
X1.6187 Y52.7448
X1.6267 Y52.7494
X1.6343 Y52.7546
X1.6415 Y52.7603
X1.6484 Y52.7664
X1.6548 Y52.773
X1.6608 Y52.78
X1.6663 Y52.7874
X1.6713 Y52.7951
X1.6758 Y52.8032
X1.6797 Y52.8115
X1.683 Y52.8201
X1.6548 Y52.8445
X1.6134 Y52.8828
G3 X1.5985 Y52.8857 I-0.01 J-0.0115
X1.59 Y52.8368 I0.0093 J-0.0268
X1.6508 Y52.8203 I0.0493 J0.0614
X1.6653 Y52.8239 I-0.0114 J0.0779 F50.
G2 X1.6802 Y52.821 I0.005 J-0.0144
G1 X1.6929 Y52.8094 F60.
G2 X1.5879 Y52.6476 I-0.1024 J-0.0485
G1 X1.5176 Y52.712
X1.4709 Y52.7554
G2 X1.4679 Y52.7703 I0.0114 J0.0101
X1.5299 Y52.7934 I0.0403 J-0.0135
X1.5867 Y52.6766 I-0.0603 J-0.1015
X1.5839 Y52.6619 I-0.1171 J0.0152 F50.
G3 X1.5879 Y52.6472 I0.0147 J-0.0039
G1 X1.611 Y52.6258 F60.
X1.619 Y52.6222
X1.6271 Y52.6192
X1.6355 Y52.6168
X1.6441 Y52.6149
X1.6527 Y52.6137
X1.6614 Y52.6131
X1.6701 Y52.6132
X1.6788 Y52.6138
X1.6875 Y52.6151
X1.696 Y52.617
X1.7044 Y52.6195
X1.7125 Y52.6226
X1.7204 Y52.6263
X1.7281 Y52.6305
X1.7354 Y52.6353
X1.7423 Y52.6406
X1.7489 Y52.6463
X1.755 Y52.6525
X1.7607 Y52.6592
X1.7659 Y52.6662
X1.7705 Y52.6736
X1.7746 Y52.6813
X1.7782 Y52.6893
X1.7811 Y52.6975
X1.7835 Y52.7059
X1.7853 Y52.7144
X1.7864 Y52.7231
G2 X1.6929 Y52.8094 I7.6029 J8.3351
G3 X1.6779 Y52.8122 I-0.0099 J-0.0115
X1.6668 Y52.7952 I0.0055 J-0.0157
X1.7554 Y52.723 I0.0785 J0.0059
X1.77 Y52.7263 I-0.0101 J0.0781 F50.
G2 X1.7849 Y52.7232 I0.0048 J-0.0145
G1 X1.8046 Y52.7044 F60.
G2 X1.7084 Y52.5326 I-0.1055 J-0.0537
G3 X1.611 Y52.6258 I-5.6714 J-5.8274
G2 X1.6219 Y52.6518 I0.0108 J0.0107
X1.6494 Y52.6437 I-0.0002 J-0.0514
X1.7023 Y52.5632 I-0.0637 J-0.0995
X1.7038 Y52.5443 I-0.1166 J-0.019 F50.
G3 X1.7083 Y52.5335 I0.0152 J0.
G1 X1.7254 Y52.5176 F60.
X1.7293 Y52.514
G3 X1.8999 Y52.6168 I0.0513 J0.1079
G1 X1.8543 Y52.6577
X1.8445 Y52.6669
X1.8046 Y52.7044
G3 X1.7897 Y52.7074 I-0.01 J-0.0114
X1.779 Y52.6921 I0.005 J-0.0149
X1.8693 Y52.616 I0.0787 J0.0018
X1.8839 Y52.6196 I-0.0116 J0.0779 F50.
G2 X1.8988 Y52.6169 I0.0051 J-0.0144
G1 X1.9178 Y52.5995 F60.
G2 X1.8275 Y52.4231 I-0.1017 J-0.0592
G3 X1.7293 Y52.514 I-5.1183 J-5.4336
G2 X1.7399 Y52.5401 I0.0107 J0.0108
X1.7476 Y52.5387 I0.0001 J-0.0209
X1.8201 Y52.453 I-0.0431 J-0.11
X1.8225 Y52.4342 I-0.1156 J-0.0243 F50.
G3 X1.8275 Y52.4237 I0.0152 J0.0007
G1 X1.8445 Y52.4092 F60.
X1.853 Y52.4037
G3 X2.0198 Y52.5337 I0.0425 J0.1174
G2 X1.9178 Y52.5995 I0.0932 J0.2566
G3 X1.9028 Y52.6023 I-0.0099 J-0.0116
X1.8853 Y52.5577 I0.0105 J-0.0299
X1.99 Y52.5236 I0.0698 J0.0365
X2.0027 Y52.5315 I-0.0349 J0.0706 F50.
G2 X2.0178 Y52.5335 I0.0092 J-0.0121
G1 X2.0313 Y52.5273 F60.
X2.0371 Y52.5243
G2 X1.9889 Y52.3349 I-0.0832 J-0.0797
X1.853 Y52.4037 I0.1895 J0.5427
X1.8466 Y52.4175 I0.0087 J0.0125
X1.9091 Y52.455 I0.0449 J-0.0039
X1.9798 Y52.363 I-0.0462 J-0.1087
X1.981 Y52.3481 I-0.1169 J-0.0167 F50.
G3 X1.9888 Y52.335 I0.0152 J0.0002
G1 X1.997 Y52.3308 F60.
X2.0141 Y52.3218
G3 X2.1535 Y52.464 I0.0225 J0.1174
X2.0371 Y52.5243 I-2.2665 J-4.2308
X2.0219 Y52.5229 I-0.0064 J-0.0138
X2.0171 Y52.5102 I0.007 J-0.0099
X2.124 Y52.4558 I0.0766 J0.0183
X2.1372 Y52.4628 I-0.0303 J0.0727 F50.
G2 X2.1524 Y52.4637 I0.0084 J-0.0127
G1 X2.1761 Y52.451 F60.
G2 X2.132 Y52.2586 I-0.085 J-0.0818
X2.0141 Y52.3218 I7.6234 J14.3468
X2.0064 Y52.335 I0.0075 J0.0132
X2.0141 Y52.3467 I0.0127 J0.0001
X2.1232 Y52.2878 I0.0315 J-0.0722
X2.1243 Y52.2729 I-0.0776 J-0.0133 F50.
G3 X2.1316 Y52.2595 I0.0152 J-0.0003
G1 X2.1518 Y52.2482 F60.
G3 X2.2809 Y52.3295 I0.0332 J0.0905
G1 X2.2727 Y52.3308
G3 X2.1761 Y52.451 I-0.1375 J-0.0117
X2.1609 Y52.45 I-0.0068 J-0.0136
X2.2466 Y52.3133 I0.0446 J-0.0672
G1 X2.2503 Y52.3156
G3 X2.2616 Y52.3254 I-0.0377 J0.0551 F50.
G2 X2.2761 Y52.3299 I0.0112 J-0.0103
G1 X2.2903 Y52.3262 F60.
G2 X2.2092 Y52.1631 I-0.0769 J-0.0635
G1 X2.1854 Y52.1907
X2.1807 Y52.2062
G2 X2.1847 Y52.2209 I0.0147 J0.0039
X2.1972 Y52.2211 I0.0064 J-0.0064
G1 X2.198 Y52.2203
G2 X2.2096 Y52.1928 I-0.0278 J-0.0279
X2.2069 Y52.1781 I-0.0394 J-0.0004 F50.
G3 X2.2092 Y52.1631 I0.0142 J-0.0055
G1 X2.2181 Y52.1528 F60.
X2.2273 Y52.144
X2.231 Y52.1404
G3 X2.3983 Y52.2441 I0.0515 J0.1037
G1 X2.3562 Y52.2841
X2.3114 Y52.3206
X2.2903 Y52.3262
G3 X2.2757 Y52.3217 I-0.0034 J-0.0149
X2.2842 Y52.2592 I0.03 J-0.0277
X2.3683 Y52.2436 I0.0622 J0.1004
X2.3828 Y52.2473 I-0.0219 J0.1161 F50.
G2 X2.3977 Y52.2441 I0.0047 J-0.0145
G1 X2.4048 Y52.2372 F60.
X2.4172 Y52.2258
G2 X2.3279 Y52.0489 I-0.1004 J-0.0603
X2.231 Y52.1404 I2.4056 J2.6447
G1 X2.2292 Y52.1427
X2.2278 Y52.1454
X2.227 Y52.1483
X2.2268 Y52.1512
X2.2271 Y52.1542
X2.2281 Y52.157
X2.2295 Y52.1596
X2.2315 Y52.1619
G2 X2.2502 Y52.1654 I0.0121 J-0.0126
X2.3209 Y52.0789 I-0.0453 J-0.1091
X2.323 Y52.0601 I-0.1159 J-0.0226 F50.
G3 X2.3278 Y52.0495 I0.0152 J0.0005
G1 X2.3481 Y52.0318 F60.
G3 X2.5171 Y52.1392 I0.0506 J0.1071
G2 X2.4172 Y52.2258 I0.8843 J1.1198
G3 X2.4023 Y52.2286 I-0.0099 J-0.0116
X2.392 Y52.2142 I0.0051 J-0.0145
X2.4867 Y52.1367 I0.0787 J-0.0004
X2.501 Y52.1411 I-0.0159 J0.0771 F50.
G2 X2.5161 Y52.1392 I0.0058 J-0.0141
G1 X2.5353 Y52.1234 F60.
G2 X2.4541 Y51.9439 I-0.0978 J-0.0639
X2.3481 Y52.0318 I2.679 J3.3423
X2.358 Y52.0581 I0.0104 J0.0111
X2.3656 Y52.0571 I0.0007 J-0.0234
X2.4455 Y51.9734 I-0.0346 J-0.1129
X2.4487 Y51.9547 I-0.1144 J-0.0292 F50.
G3 X2.4541 Y51.9444 I0.0152 J0.0014
G1 X2.4772 Y51.9264 F60.
X2.4852 Y51.9237
X2.4933 Y51.9216
X2.5016 Y51.9201
X2.51 Y51.9191
X2.5184 Y51.9187
X2.5268 Y51.919
X2.5352 Y51.9198
X2.5435 Y51.9212
X2.5517 Y51.9232
X2.5597 Y51.9257
X2.5676 Y51.9288
X2.5751 Y51.9325
X2.5825 Y51.9367
X2.5895 Y51.9414
X2.5961 Y51.9465
X2.6024 Y51.9522
X2.6082 Y51.9582
X2.6137 Y51.9646
X2.6186 Y51.9715
X2.6231 Y51.9786
X2.627 Y51.986
X2.6304 Y51.9937
X2.6333 Y52.0017
X2.6356 Y52.0098
X2.6373 Y52.018
X2.6385 Y52.0264
X2.639 Y52.0348
Y52.0432
G2 X2.5353 Y52.1234 I1.3164 J1.8083
G3 X2.5202 Y52.1253 I-0.0092 J-0.0121
X2.5112 Y52.1107 I0.0057 J-0.0136
X2.6085 Y52.0396 I0.0786 J0.0053
X2.6226 Y52.0445 I-0.0187 J0.0765 F50.
G2 X2.6378 Y52.0431 I0.0064 J-0.0138
G1 X2.6586 Y52.028 F60.
G2 X2.586 Y51.8452 I-0.0959 J-0.0677
X2.4772 Y51.9264 I1.6477 J2.3193
X2.4856 Y51.9533 I0.0098 J0.0117
X2.5026 Y51.9511 I0.0036 J-0.0398
X2.5759 Y51.8744 I-0.0396 J-0.1113
X2.58 Y51.8559 I-0.1129 J-0.0346 F50.
G3 X2.5858 Y51.8459 I0.0151 J0.0021
G1 X2.5916 Y51.8418 F60.
X2.6102 Y51.8295
G3 X2.7653 Y51.9574 I0.0359 J0.1144
G2 X2.6586 Y52.028 I0.514 J0.893
G3 X2.6434 Y52.029 I-0.0085 J-0.0126
X2.6327 Y52.0062 I0.0087 J-0.018
X2.7352 Y51.9509 I0.0764 J0.019
X2.7488 Y51.9572 I-0.0261 J0.0743 F50.
G2 X2.764 I0.0077 J-0.0132
G1 X2.7784 Y51.9484 F60.
X2.787 Y51.9429
X2.7921 Y51.936
X2.7967 Y51.9287
X2.8007 Y51.9211
X2.8042 Y51.9132
X2.8071 Y51.9051
X2.8094 Y51.8968
X2.8111 Y51.8883
X2.8122 Y51.8797
X2.8126 Y51.8711
X2.8124 Y51.8625
X2.8116 Y51.8539
X2.8102 Y51.8454
X2.8081 Y51.8371
X2.8055 Y51.8288
X2.8022 Y51.8209
X2.7984 Y51.8131
X2.794 Y51.8057
X2.7891 Y51.7986
X2.7837 Y51.7919
X2.7778 Y51.7856
X2.7715 Y51.7797
X2.7648 Y51.7743
X2.7577 Y51.7695
X2.7502 Y51.7651
X2.7425 Y51.7613
X2.7345 Y51.7581
X2.7263 Y51.7555
G2 X2.6102 Y51.8295 I2.3479 J3.8093
X2.6067 Y51.8507 I0.0088 J0.0124
X2.6266 Y51.8586 I0.0161 J-0.0115
X2.7143 Y51.7842 I-0.0228 J-0.1159
X2.7195 Y51.766 I-0.1106 J-0.0414 F50.
G3 X2.726 Y51.7563 I0.0149 J0.003
G1 X2.7317 Y51.7528 F60.
X2.752 Y51.7411
G3 X2.8978 Y51.8796 I0.0271 J0.1175
G2 X2.787 Y51.9429 I0.3955 J0.8208
G3 X2.7718 Y51.943 I-0.0077 J-0.0131
X2.7621 Y51.9175 I0.0105 J-0.0186
X2.8681 Y51.8709 I0.0745 J0.0255
X2.8812 Y51.8781 I-0.0316 J0.0721 F50.
G2 X2.8964 Y51.8794 I0.0086 J-0.0125
G1 X2.9185 Y51.8679 F60.
G2 X2.8742 Y51.677 I-0.0838 J-0.0811
X2.752 Y51.7411 I1.3391 J2.7031
X2.7448 Y51.7545 I0.0081 J0.0129
X2.7846 Y51.7929 I0.0397 J-0.0014
X2.8033 Y51.7883 I0. J-0.0398
X2.864 Y51.7051 I-0.0555 J-0.1043
X2.8657 Y51.6902 I-0.1162 J-0.0211 F50.
G3 X2.874 Y51.6775 I0.0152 J0.0008
G1 X2.9003 Y51.6652 F60.
G3 X3.0345 Y51.8148 I0.0188 J0.1182
G2 X2.9185 Y51.8679 I0.5621 J1.3825
G3 X2.9033 Y51.8665 I-0.0063 J-0.0138
X2.8959 Y51.8385 I0.0131 J-0.0184
X3.006 Y51.8032 I0.0714 J0.0333
X3.0182 Y51.8117 I-0.0387 J0.0686 F50.
G2 X3.0332 Y51.8145 I0.0099 J-0.0116
G1 X3.0531 Y51.8066 F60.
G2 X3.0294 Y51.6123 I-0.071 J-0.0899
X2.9003 Y51.6652 I0.2713 J0.8464
X2.892 Y51.6779 I0.0069 J0.0136
X2.9462 Y51.717 I0.0397 J0.0021
X3.0168 Y51.6389 I-0.0431 J-0.1099
X3.0199 Y51.6243 I-0.1137 J-0.0319 F50.
G3 X3.0294 Y51.6124 I0.0151 J0.0022
G1 X3.0586 Y51.6019 F60.
G3 X3.1798 Y51.7372 I0.0045 J0.118
X3.1578 Y51.7371 I-0.011 J-0.0106
G1 X3.1535 Y51.7325
X3.054 Y51.6274
X3.0531 Y51.6266 F50.
G3 X3.0586 Y51.6019 I0.0111 J-0.0105
X3.1473 Y51.7729 I0.0444 J0.0855 F60.
X3.1052 Y51.7837 I-0.0444 J-0.0855
G1 X3.0586 Y51.8044
X3.0531 Y51.8066
X3.0528 Y51.8168
X3.0518 Y51.827
X3.0503 Y51.837
X3.0482 Y51.847
X3.0455 Y51.8569
X3.0423 Y51.8666
X3.0385 Y51.8761
X3.0342 Y51.8853
X3.0293 Y51.8943
X3.024 Y51.903
X3.0182 Y51.9113
X3.0118 Y51.9194
X3.0051 Y51.927
X2.9979 Y51.9343
X2.9903 Y51.9411
X2.9823 Y51.9474
X2.974 Y51.9533
X2.9654 Y51.9588
X2.9564 Y51.9637
X2.9472 Y51.9681
X2.9378 Y51.9719
X2.9281 Y51.9752
X2.9183 Y51.978
X2.9083 Y51.9801
X2.8982 Y51.9817
G2 X2.237 Y52.5377 I2.3836 J3.5062
G1 X2.21 Y52.5501
X2.1832 Y52.5631
X2.1567 Y52.5765
X2.1305 Y52.5906
X2.1046 Y52.6051
X2.079 Y52.6202
X2.0536 Y52.6357
X2.0286 Y52.6518
X2.004 Y52.6684
X1.9797 Y52.6855
X1.9557 Y52.7031
X1.9321 Y52.7211
X1.9088 Y52.7397
X1.886 Y52.7587
X1.8635 Y52.7781
X1.8414 Y52.798
X1.8198 Y52.8184
X1.7985 Y52.8392
X1.7777 Y52.8604
X1.7573 Y52.882
X1.7374 Y52.9041
X1.7179 Y52.9265
X1.6988 Y52.9493
X1.6803 Y52.9725
X1.6622 Y52.9961
X1.6445 Y53.02
X1.6274 Y53.0443
X1.6147 Y53.073
X1.5956 Y53.0972
G2 X0.9428 Y54.1301 I1.8387 J1.8847
G3 X0.6763 Y54.4144 I-0.9187 J-0.5943
X0.4179 Y54.2471 I-0.0722 J-0.1716
X0.5938 Y53.936 I0.6774 J0.1776
X1.2692 Y52.8782 I2.7793 J1.0302
X1.5007 Y52.5919 I0.7288 J0.3524
X2.0158 Y52.2074 I1.0847 J0.9157
G1 X2.1504 Y52.0814
X2.2847 Y51.9552
X2.3121 Y51.9307
X2.34 Y51.9067
X2.3682 Y51.883
X2.3969 Y51.8599
X2.4259 Y51.8373
X2.4553 Y51.8151
X2.4851 Y51.7934
X2.5152 Y51.7722
X2.5457 Y51.7516
X2.5765 Y51.7314
X2.6076 Y51.7117
X2.639 Y51.6926
X2.6708 Y51.674
X2.7029 Y51.6559
X2.7353 Y51.6383
X2.7679 Y51.6213
X2.8008 Y51.6049
X2.834 Y51.5889
X2.8675 Y51.5736
X2.9012 Y51.5588
X2.9351 Y51.5445
X2.9693 Y51.5308
X3.0037 Y51.5177
X3.0383 Y51.5052
X3.0732 Y51.4932
X3.1062 Y51.4998
G3 X3.1727 Y51.8595 I-0.0059 J0.1871
X2.7982 Y52.1758 I-0.827 J-0.5993
G1 X2.7453 Y52.2181
X2.6928 Y52.2609
X2.6407 Y52.3041
X2.589 Y52.3479
X2.5377 Y52.3921
X2.4868 Y52.4367
X2.4364 Y52.4819
X2.3863 Y52.5274
X2.3367 Y52.5735
X2.2874 Y52.62
G2 X2.0216 Y52.7781 I0.4384 J1.04
G1 X1.9953 Y52.8
X1.9695 Y52.8224
X1.944 Y52.8452
X1.919 Y52.8685
X1.8943 Y52.8922
X1.87 Y52.9163
X1.8462 Y52.9408
X1.8228 Y52.9657
X1.7998 Y52.991
X1.7772 Y53.0167
X1.7551 Y53.0428
X1.7334 Y53.0693
X1.7122 Y53.0961
X1.6915 Y53.1233
X1.6712 Y53.1508
X1.6513 Y53.1787
X1.632 Y53.2069
X1.6131 Y53.2354
X1.5866 Y53.2616
X1.5606 Y53.2882
X1.535 Y53.3152
X1.5098 Y53.3427
X1.4851 Y53.3706
X1.4609 Y53.3989
X1.4372 Y53.4277
X1.4139 Y53.4568
X1.3912 Y53.4863
X1.3689 Y53.5161
X1.3472 Y53.5464
X1.3259 Y53.577
X1.3052 Y53.608
X1.285 Y53.6393
X1.2653 Y53.6709
X1.2462 Y53.7029
X1.2276 Y53.7351
X1.2096 Y53.7677
X1.1921 Y53.8006
X1.1751 Y53.8338
X1.1587 Y53.8672
X1.1429 Y53.901
X1.1276 Y53.935
X1.113 Y53.9692
X1.0988 Y54.0037
X1.0853 Y54.0384
X1.0724 Y54.0733
X1.06 Y54.1085
X1.0483 Y54.1438
G3 X0.8807 Y54.3672 I-3.4952 J-2.4479
X0.7654 Y54.4741 I-0.2042 J-0.1047
G1 X0.6762 Y54.4935
X0.6544 Y54.4978
X0.583 Y54.5093
G3 X0.3411 Y54.338 I-0.0029 J-0.2523
X0.3651 Y54.326 I0.0152 J0.0005
G1 X0.5887 Y54.4819
X0.5905 Y54.4834
X0.5921 Y54.4851
G3 X0.583 Y54.5093 I-0.0121 J0.0093 F50.
X0.4121 Y54.5217 I-0.1017 J-0.2185 F60.
X0.3411 Y54.4045 I0.0411 J-0.105
G1 Y54.1947
G3 X0.5062 Y53.8795 I0.714 J0.1731
X1.1833 Y52.8215 I2.9591 J1.1481
X1.4159 Y52.5348 I0.9021 J0.4942
X1.9782 Y52.1095 I1.2629 J1.0853
X3.0166 Y51.4114 I1.8934 J1.6949
X3.2578 Y51.9224 I0.077 J0.2761
X2.7837 Y52.3116 I-1.3626 J-1.1766
G2 X2.3717 Y52.6824 I3.8896 J4.7354
X1.6875 Y53.2915 I0.821 J1.6111
X1.1399 Y54.176 I1.7127 J1.6722
G3 X0.9584 Y54.4258 I-1.5574 J-0.9401
G1 X0.8628 Y54.4525
X0.8395 Y54.4579
X0.7654 Y54.4741
G3 X0.7476 Y54.4618 I-0.0027 J-0.015
X0.7515 Y54.4491 I0.0144 J-0.0026
X0.9302 Y54.4151 I0.1133 J0.1094
X0.9469 Y54.424 I-0.0654 J0.1433 F50.
G2 X0.9549 Y54.4263 I0.0079 J-0.013
G1 X0.9567 Y54.4262
X0.9584 Y54.4258
G2 X1.158 Y54.2415 I-0.0118 J-0.213 F60.
G1 X1.1893 Y54.2113
X1.2028 Y54.1947
X1.2126 Y54.1859
G2 X1.396 Y53.8426 I-2.476 J-1.5437
G3 X2.072 Y53.0042 I5.2609 J3.5503
X2.4981 Y52.7005 I4.0158 J5.1826
X3.1808 Y52.1576 I2.7788 J2.7942
X3.3463 Y51.9396 I0.3397 J0.0859
G2 X3.4677 Y51.6048 I-0.1813 J-0.2552
G3 X3.4157 Y51.5002 I0.3636 J-0.2458
G2 X3.2474 Y51.3411 I-0.2834 J0.1314
G1 X2.9615
G2 X2.3142 Y51.6751 I0.4507 J1.6681
G1 X2.2711 Y51.71
X2.2284 Y51.7454
X2.186 Y51.7812
X2.144 Y51.8174
X2.1024 Y51.854
X2.0611 Y51.891
X2.0202 Y51.9284
X1.9796 Y51.9663
X1.9394 Y52.0045
X1.8996 Y52.0431
G2 X1.365 Y52.4543 I0.697 J1.4594
X0.982 Y52.8964 I2.1493 J2.2486
X0.4158 Y53.8445 I2.3467 J2.0448
X0.3412 Y53.9466 I0.1044 J0.1546
G1 X0.3411 Y54.1947
G2 X0.3492 Y54.2076 I0.0152 J-0.0005
X0.3972 Y54.1979 I0.0181 J-0.034
X0.3621 Y53.9672 I-0.1221 J-0.0995
X0.3492 Y53.9595 I-0.0869 J0.1313 F50.
G3 X0.3411 Y53.9466 I0.0072 J-0.0134
G1 Y53.8216 F60.
G3 X0.797 Y52.9651 I2.3339 J0.6926
X1.3379 Y52.3336 I4.6614 J3.4452
X1.4734 Y52.2075 I5.9125 J6.2177
G1 X1.4982 Y52.1861
X1.5235 Y52.1651
X1.5491 Y52.1446
X1.575 Y52.1244
X1.6013 Y52.1048
X1.6279 Y52.0856
X1.6548 Y52.0668
X1.6821 Y52.0485
X1.7096 Y52.0307
X1.7375 Y52.0133
X1.7656 Y51.9964
X1.7941 Y51.9801
X1.8228 Y51.9641
X1.8518 Y51.9487
X1.881 Y51.9338
G3 X2.6604 Y51.3402 I2.0414 J1.872
G1 X2.9615 Y51.3411
G3 X2.9744 Y51.3492 I-0.0005 J0.0152
X2.9564 Y51.4206 I-0.0483 J0.0258
X2.6813 Y51.3622 I-0.1089 J-0.164
G1 X2.6738 Y51.3492 F50.
G2 X2.6608 Y51.3411 I-0.0134 J0.0072
G1 X2.5184 F60.
G2 X2.1354 Y51.5621 I0.3078 J0.9761
G3 X1.6034 Y51.98 I-2.1553 J-2.1957
G1 X1.5686 Y52.0056
X1.5341 Y52.0316
X1.5 Y52.058
X1.4662 Y52.085
X1.4329 Y52.1123
X1.3998 Y52.1402
X1.3672 Y52.1684
X1.335 Y52.1971
X1.3031 Y52.2263
X1.2716 Y52.2558
X1.2406 Y52.2858
X1.2099 Y52.3162
X1.1797 Y52.3471
X1.1498 Y52.3783
X1.1204 Y52.4099
X1.0915 Y52.4419
X1.0629 Y52.4743
X1.0348 Y52.5071
X1.0072 Y52.5403
X0.98 Y52.5738
G2 X0.4238 Y53.3498 I3.8226 J3.3266
X0.3411 Y53.5169 I1.3261 J0.7604
G1 Y53.8216
G2 X0.3492 Y53.8345 I0.0152 J-0.0005
X0.416 Y53.8191 I0.0245 J-0.046
X0.3622 Y53.5374 I-0.1594 J-0.1155
G1 X0.3492 Y53.5298 F50.
G3 X0.3411 Y53.5169 I0.0072 J-0.0134
G1 Y53.3552 F60.
G3 X0.5852 Y52.9146 I1.2738 J0.4177
X1.2932 Y52.1021 I4.4375 J3.1522
X1.6108 Y51.8585 I1.2363 J1.2826
G2 X2.0896 Y51.4714 I-3.1163 J-4.3441
G3 X2.2726 Y51.3411 I0.8296 J0.9722
G1 X2.5184
G3 X2.5313 Y51.3492 I-0.0005 J0.0152
X2.5203 Y51.4001 I-0.0355 J0.0189
X2.2932 Y51.3621 I-0.0959 J-0.1249
X2.2855 Y51.3492 I0.1313 J-0.0869 F50.
G2 X2.2726 Y51.3411 I-0.0134 J0.0072
G1 X2.1686 F60.
G2 X1.8519 Y51.5409 I0.2156 J0.6929
G3 X1.3132 Y51.9514 I-5.1106 J-6.1473
G1 X1.2779 Y51.9814
X1.2431 Y52.0119
X1.2087 Y52.0428
X1.1746 Y52.0741
X1.141 Y52.1059
X1.1077 Y52.138
X1.0749 Y52.1706
X1.0425 Y52.2037
X1.0105 Y52.2371
X0.979 Y52.2709
X0.9479 Y52.3052
X0.9172 Y52.3398
X0.8869 Y52.3748
X0.8572 Y52.4102
X0.8278 Y52.446
X0.799 Y52.4822
X0.7706 Y52.5187
X0.7426 Y52.5556
X0.7152 Y52.5928
X0.6882 Y52.6304
G2 X0.3404 Y53.0999 I2.3274 J2.0877
G1 X0.3411 Y53.3552
G2 X0.3492 Y53.3681 I0.0152 J-0.0005
X0.388 Y53.3621 I0.0154 J-0.0288
X0.3621 Y53.1209 I-0.1129 J-0.1098
X0.3492 Y53.1133 I-0.0869 J0.1313 F50.
G3 X0.3411 Y53.1004 I0.0072 J-0.0134
G1 Y52.9821 F60.
G3 X0.551 Y52.6345 I0.829 J0.2632
X1.6877 Y51.5627 I3.2442 J2.3022
X1.9398 Y51.3404 I1.2577 J1.1718
G1 X2.1686 Y51.3411
G3 X2.1816 Y51.3492 I-0.0005 J0.0152
X2.1585 Y51.418 I-0.0441 J0.0235
X1.961 Y51.3621 I-0.0662 J-0.1429
X1.9533 Y51.3492 I0.1313 J-0.0869 F50.
G2 X1.9404 Y51.3411 I-0.0134 J0.0072
G1 X1.8527 F60.
G2 X1.5432 Y51.541 I0.2103 J0.6652
X0.4512 Y52.6144 I2.0498 J3.1775
G1 X0.4242 Y52.6334
X0.4053 Y52.6577
G2 X0.3411 Y52.748 I0.0991 J0.1384
G1 Y52.9821
G2 X0.3492 Y52.995 I0.0152 J-0.0005
X0.4129 Y52.9761 I0.0223 J-0.0418
X0.3621 Y52.7686 I-0.1378 J-0.0762
X0.3492 Y52.761 I-0.0869 J0.1313 F50.
G3 X0.3411 Y52.748 I0.0072 J-0.0134
G1 Y52.6556 F60.
G3 X0.5376 Y52.3328 I0.6783 J0.1915
X1.5617 Y51.4081 I2.996 J2.2887
X1.6336 Y51.3411 I0.1073 J0.0431
G1 X1.8527
G3 X1.8656 Y51.3492 I-0.0005 J0.0152
X1.8357 Y51.4244 I-0.0468 J0.0249
X1.6542 Y51.3621 I-0.0503 J-0.1492
X1.6465 Y51.3492 I0.1313 J-0.0869 F50.
G2 X1.6336 Y51.3411 I-0.0134 J0.0072
G1 X1.539 F60.
G2 X1.1437 Y51.5773 I0.5149 J1.3112
X1.0838 Y51.6282 I0.0325 J0.0989
G3 X0.7711 Y51.9465 I-0.394 J-0.0744
X0.5854 Y52.1426 I-0.5684 J-0.3524
G2 X0.3411 Y52.4247 I1.2806 J1.3554
G1 Y52.6556
G2 X0.3492 Y52.6685 I0.0152 J-0.0005
X0.4158 Y52.6474 I0.023 J-0.0431
X0.3621 Y52.4453 I-0.1406 J-0.0708
X0.3492 Y52.4376 I-0.0869 J0.1313 F50.
G3 X0.3411 Y52.4247 I0.0072 J-0.0134
G1 Y52.3292 F60.
G3 X0.3844 Y52.2159 I0.2266 J0.0215
X0.4083 Y52.2329 I0.0097 J0.0118
G1 X0.3706 Y52.334
G3 X0.3636 Y52.342 I-0.0143 J-0.0053
X0.3411 Y52.3292 I-0.0072 J-0.0134 F50.
G1 X0.3407 Y52.3199 F60.
X0.3409 Y52.3106
X0.3417 Y52.3014
X0.3432 Y52.2922
X0.3452 Y52.2832
X0.3479 Y52.2743
X0.3511 Y52.2656
X0.355 Y52.2571
X0.3594 Y52.249
X0.3643 Y52.2411
X0.3698 Y52.2336
X0.3757 Y52.2265
X0.3822 Y52.2198
X0.389 Y52.2136
X0.3963 Y52.2078
X0.4039 Y52.2025
X0.4119 Y52.1978
X0.4202 Y52.1936
X0.4287 Y52.19
X0.4375 Y52.187
X0.4465 Y52.1845
X0.4556 Y52.1827
X0.4648 Y52.1815
X0.474 Y52.1809
X0.4833 Y52.181
X0.4925 Y52.1817
X0.5017 Y52.183
X0.5108 Y52.1849
G3 X0.5854 Y52.1426 I0.3804 J0.5844
X0.6086 Y52.1539 I0.0081 J0.0129
G1 X0.6089 Y52.1569 Z-0.1672
X0.6092 Y52.1597 Z-0.1663
X0.6095 Y52.1624 Z-0.1649
X0.6097 Y52.1647 Z-0.163
X0.6099 Y52.1665 Z-0.1607
X0.6101 Y52.1679 Z-0.1581
X0.6102 Y52.1688 Z-0.1552
Y52.1691 Z-0.1523
G0 Z-0.137
X1.1698 Y54.2022
G1 Z-0.1523 F50.
X1.1701 Z-0.1552
X1.1709 Y54.202 Z-0.1581
X1.1723 Y54.2017 Z-0.1607
X1.1742 Y54.2014 Z-0.163
X1.1764 Y54.2009 Z-0.1649
X1.179 Y54.2004 Z-0.1663
X1.1818 Y54.1998 Z-0.1672
X1.1847 Y54.1992 Z-0.1675
G2 X1.2126 Y54.1859 I-0.0122 J-0.0611
G3 X1.3292 Y54.1071 I0.2499 J0.2442 F60.
G2 X1.5206 Y53.8322 I-0.5914 J-0.616
G3 X2.147 Y53.0719 I6.4233 J4.6541
G1 X2.2974 Y52.9647
X2.4476 Y52.857
X2.5974 Y52.749
X2.6178 Y52.725
X2.6625 Y52.6824
G3 X3.1632 Y52.2858 I2.6464 J2.8267
X3.1782 Y52.1534 I0.4206 J-0.0193
G2 X3.1734 Y52.139 I-0.0149 J-0.0031
X3.1338 Y52.1373 I-0.0208 J0.0234
X3.14 Y52.2676 I0.0472 J0.063
X3.1535 Y52.2741 I0.041 J-0.0672 F50.
G3 X3.1632 Y52.2858 I-0.0053 J0.0143
G1 X3.1658 Y52.3059 F60.
X3.1682 Y52.3187
G3 X2.9726 Y52.5361 I-0.2938 J-0.0676
G1 X2.9354 Y52.5724
X2.8977 Y52.6084
X2.8596 Y52.6438
X2.8211 Y52.6789
X2.7822 Y52.7135
X2.7429 Y52.7476
X2.7032 Y52.7813
X2.6632 Y52.8145
X2.6227 Y52.8473
X2.5819 Y52.8796
X2.5407 Y52.9114
X2.4991 Y52.9428
X2.4572 Y52.9736
X2.415 Y53.004
X2.3723 Y53.0339
X2.3294 Y53.0633
X2.2861 Y53.0922
X2.2425 Y53.1206
X2.1985 Y53.1485
X1.9793 Y53.409
X1.7598 Y53.6692
G2 X1.486 Y54.0787 I4.1382 J3.0631
X1.3292 Y54.1071 I-0.0151 J0.3639
G3 X1.3144 Y54.1034 I-0.0042 J-0.0146
X1.3481 Y53.9986 I0.0425 J-0.0442
X1.4672 Y54.0561 I0.017 J0.1169
X1.4739 Y54.0695 I-0.1021 J0.0594 F50.
G2 X1.486 Y54.0787 I0.014 J-0.0059
G1 X1.4924 Y54.0792 F60.
X1.5157 Y54.0821
G2 X1.7396 Y53.8486 I-0.0989 J-0.3189
G3 X2.3044 Y53.191 I13.3469 J10.8927
G2 X2.9169 Y52.7223 I-1.4239 J-2.4955
X3.2147 Y52.4566 I-0.8129 J-1.2105
G3 X3.1682 Y52.3187 I0.3957 J-0.2102
G2 X3.1579 Y52.3075 I-0.0149 J0.0033
X3.1015 Y52.3622 I-0.0134 J0.0426
X3.1877 Y52.445 I0.1137 J-0.032
X3.2024 Y52.4476 I0.0275 J-0.1149 F50.
G3 X3.2147 Y52.4566 I-0.0016 J0.0151
X3.1729 Y52.609 I-0.1455 J0.042 F60.
X2.7965 Y52.966 I-3.2618 J-3.0621
G2 X2.2622 Y53.3822 I4.0934 J5.8059
X1.7801 Y53.9836 I5.3833 J4.8099
G3 X1.6603 Y54.1213 I-0.2926 J-0.1336
G2 X1.5157 Y54.0821 I-0.262 J0.6803
G3 X1.5039 Y54.0725 I0.0024 J-0.015
X1.5223 Y54.041 I0.0218 J-0.0084
X1.6415 Y54.0987 I0.017 J0.1169
X1.6482 Y54.1121 I-0.1022 J0.0592 F50.
G2 X1.6603 Y54.1213 I0.014 J-0.0059
X1.8072 Y54.0645 I0.0143 J-0.1815 F60.
G1 X1.8387 Y54.0328
X1.8698 Y54.0006
X1.9004 Y53.968
X1.9306 Y53.935
X1.9604 Y53.9016
X1.9897 Y53.8678
X2.0185 Y53.8336
X2.0468 Y53.799
X2.0747 Y53.764
X2.1021 Y53.7286
X2.129 Y53.6929
X2.1507 Y53.6645
X2.1729 Y53.6364
X2.1955 Y53.6087
X2.2186 Y53.5814
X2.2421 Y53.5545
X2.2661 Y53.528
X2.2905 Y53.5018
X2.3153 Y53.4761
X2.3405 Y53.4508
X2.3662 Y53.4259
X2.3923 Y53.4014
X2.4187 Y53.3774
X2.4456 Y53.3538
X2.4729 Y53.3307
X2.5005 Y53.308
X2.5285 Y53.2858
X2.5569 Y53.264
X2.5856 Y53.2427
X2.6147 Y53.2219
X2.6441 Y53.2016
X2.6738 Y53.1817
X2.7039 Y53.1624
X2.7343 Y53.1435
X2.7649 Y53.1252
X2.7959 Y53.1074
G3 X2.9946 Y52.921 I5.387 J5.5433
G2 X3.1729 Y52.609 I-2.5618 J-1.6711
X3.1716 Y52.5938 I-0.0138 J-0.0065
X3.129 Y52.5716 I-0.0426 J0.0297
X3.1084 Y52.5758 I0. J0.0519
X2.9882 Y52.8925 I0.0939 J0.2168
G1 X2.9949 Y52.9058 F50.
G3 X2.9946 Y52.921 I-0.0134 J0.0073
X2.8036 Y53.192 I-2.6789 J-1.6857 F60.
G1 X2.614 Y53.3489
X2.4243 Y53.5058
G2 X2.1322 Y53.8479 I16.8564 J14.6859
G3 X1.8072 Y54.0645 I-1.7753 J-2.3113
X1.792 Y54.0641 I-0.0073 J-0.0134
X1.7807 Y54.0418 I0.0124 J-0.0203
X2.1033 Y53.8431 I0.2353 J0.0209
G1 X2.1171 Y53.8491 F50.
G2 X2.1322 Y53.8479 I0.0065 J-0.0138
X2.3521 Y53.6673 I-0.5867 J-0.9384 F60.
G1 X2.3571 Y53.6514
X2.3626 Y53.6357
X2.3687 Y53.6202
X2.3753 Y53.605
X2.3825 Y53.59
X2.3902 Y53.5753
X2.3985 Y53.5609
X2.4073 Y53.5468
X2.4165 Y53.533
X2.4263 Y53.5196
X2.4366 Y53.5065
X2.4473 Y53.4938
X2.4585 Y53.4815
X2.4701 Y53.4696
X2.4822 Y53.4582
X2.4946 Y53.4472
X2.5075 Y53.4366
X2.5207 Y53.4265
X2.5343 Y53.417
X2.5482 Y53.4079
X2.5624 Y53.3993
X2.577 Y53.3913
X2.5918 Y53.3837
X2.6069 Y53.3768
X2.6222 Y53.3704
X2.6378 Y53.3645
X2.6535 Y53.3592
X2.6695 Y53.3545
X2.6817 Y53.3387
X2.688 Y53.3319
X2.8036 Y53.192
G2 X2.8044 Y53.1759 I-0.0125 J-0.0087
G1 X2.803 Y53.1733 Z-0.1672
X2.8016 Y53.1708 Z-0.1663
X2.8003 Y53.1685 Z-0.1649
X2.7992 Y53.1665 Z-0.163
X2.7983 Y53.1648 Z-0.1607
X2.7976 Y53.1636 Z-0.1581
X2.7972 Y53.1628 Z-0.1552
X2.7971 Y53.1626 Z-0.1523
G0 Z0.4
X3.4373 Y51.5819
Z-0.137
G1 Z-0.1523 F50.
X3.4375 Y51.582 Z-0.1552
X3.4383 Y51.5824 Z-0.1581
X3.4395 Y51.5831 Z-0.1607
X3.4412 Y51.584 Z-0.163
X3.4432 Y51.5851 Z-0.1649
X3.4455 Y51.5863 Z-0.1663
X3.448 Y51.5877 Z-0.1672
X3.4507 Y51.5891 Z-0.1675
G3 X3.4677 Y51.6048 I-0.0222 J0.0411
X3.4024 Y51.9094 I-0.2799 J0.0993 F60.
G1 X3.3812 Y51.921
X3.3463 Y51.9396
G3 X3.3311 Y51.9385 I-0.0067 J-0.0137
X3.3125 Y51.912 I0.0253 J-0.0375
X3.4025 Y51.5263 I0.4201 J-0.1053
G1 X3.4124 Y51.5151 F50.
G2 X3.4157 Y51.5002 I-0.0113 J-0.0103
X3.3173 Y51.3447 I-0.1474 J-0.0156 F60.
G1 X3.288 Y51.3413
X3.2646 Y51.3411
X3.2474
G2 X3.234 Y51.3501 I0.0005 J0.0152
G1 X3.2328 Y51.3528 Z-0.1672
X3.2316 Y51.3554 Z-0.1663
X3.2306 Y51.3578 Z-0.1649
X3.2296 Y51.3599 Z-0.163
X3.2288 Y51.3616 Z-0.1607
X3.2283 Y51.3629 Z-0.1581
X3.2279 Y51.3637 Z-0.1552
X3.2278 Y51.364 Z-0.1523
G0 Z-0.137
X1.5818 Y51.3576
G1 Z-0.1523 F50.
X1.5815 Y51.3575 Z-0.1552
X1.5808 Y51.3571 Z-0.1581
X1.5796 Y51.3563 Z-0.1607
X1.578 Y51.3554 Z-0.163
X1.576 Y51.3542 Z-0.1649
X1.5737 Y51.3528 Z-0.1663
X1.5713 Y51.3514 Z-0.1672
X1.5687 Y51.3499 Z-0.1675
G2 X1.539 Y51.3411 I-0.0318 J0.0536
G1 X1.3758 F60.
G2 X1.1919 Y51.4206 I0.0678 J0.4094
X1.0838 Y51.6282 I0.1422 J0.2059
X1.1097 Y51.6406 I0.0151 J0.0016
G1 X1.386 Y51.3672
X1.3875 Y51.3655
X1.3887 Y51.3636
G2 X1.3758 Y51.3411 I-0.0134 J-0.0072 F50.
X1.1919 Y51.4206 I-0.0467 J0.1445 F60.
X1.1915 Y51.4367 I0.0128 J0.0083
G1 X1.193 Y51.4393 Z-0.1672
X1.1944 Y51.4417 Z-0.1663
X1.1958 Y51.444 Z-0.1649
X1.197 Y51.446 Z-0.163
X1.1979 Y51.4476 Z-0.1607
X1.1986 Y51.4488 Z-0.1581
X1.1991 Y51.4496 Z-0.1552
X1.1992 Y51.4498 Z-0.1523
G0 Z0.6
X-1.5088 Y52.8762
Z0.1
G3 X-1.4077 Y52.9027 Z0.0794 I0.0378 J0.0617 F50.
X-1.5341 Y52.9731 Z0.0393 I-0.0632 J0.0352
X-1.4978 Y52.8707 Z0.0177 I0.0632 J-0.0352
X-1.4027 Y52.9138 Z-0.0029 I0.0269 J0.0672
X-1.5392 Y52.9619 Z-0.043 I-0.0682 J0.024
X-1.4861 Y52.8672 Z-0.0646 I0.0682 J-0.024
X-1.3996 Y52.9257 Z-0.0852 I0.0152 J0.0707
X-1.4618 Y53.0096 Z-0.1058 I-0.0713 J0.0122
X-1.543 Y52.944 Z-0.1263 I-0.0092 J-0.0718
X-1.474 Y52.8656 Z-0.1469 I0.0721 J-0.0061
X-1.3986 Y52.9379 Z-0.1675 I0.0031 J0.0723
X-1.5433 I-0.0723 J0.
X-1.3988 Y52.9321 I0.0723 J0.
G1 X-1.3986 Y52.9379
X-1.3939 Y52.9438 F60.
X-1.3898 Y52.95
X-1.3862 Y52.9566
X-1.3832 Y52.9635
X-1.3807 Y52.9706
X-1.3789 Y52.9778
X-1.3776 Y52.9852
X-1.377 Y52.9927
Y53.0002
X-1.3776 Y53.0077
X-1.3789 Y53.0151
X-1.3807 Y53.0224
X-1.3832 Y53.0294
X-1.3862 Y53.0363
X-1.3898 Y53.0429
X-1.394 Y53.0491
X-1.3986 Y53.055
X-1.4037 Y53.0605
X-1.4093 Y53.0656
X-1.4152 Y53.0701
X-1.4216 Y53.0742
X-1.4282 Y53.0777
X-1.4351 Y53.0806
X-1.4422 Y53.083
X-1.4495 Y53.0847
X-1.4569 Y53.0859
X-1.4644 Y53.0864
X-1.4719 Y53.0863
G3 X-1.5721 Y52.9293 I0.2962 J-0.2995
X-1.4414 Y52.7866 I0.0981 J-0.0414
X-1.3486 Y52.9379 I-0.3482 J0.3179
G1 X-1.3308 Y52.9567
G3 X-1.4057 Y53.1585 I-0.1056 J0.0756
G1 X-1.435 Y53.1247
X-1.4709 Y53.0857
X-1.4718 Y53.0847
G3 X-1.4749 Y53.0698 I0.0114 J-0.0101
X-1.4282 Y53.0585 I0.0269 J0.0089
X-1.4054 Y53.1265 I-0.0551 J0.0562
X-1.4091 Y53.141 I-0.0779 J-0.0118 F50.
G2 X-1.4063 Y53.156 I0.0144 J0.0051
G1 X-1.3922 Y53.1714 F60.
G2 X-1.2266 Y53.0711 I0.0517 J-0.1016
X-1.3308 Y52.9567 I-7.2219 J6.4796
X-1.3455 Y52.9528 I-0.0107 J0.0108
X-1.3697 Y53.0136 I0.0107 J0.0395
X-1.2558 Y53.0694 I0.1008 J-0.0616
X-1.2411 Y53.0668 I-0.0131 J-0.1174 F50.
G3 X-1.2265 Y53.0711 I0.0036 J0.0148
G1 X-1.2204 Y53.078 F60.
X-1.2056 Y53.0949
X-1.2022 Y53.1028
X-1.1995 Y53.1108
X-1.1973 Y53.119
X-1.1956 Y53.1273
X-1.1946 Y53.1358
X-1.1942 Y53.1442
X-1.1943 Y53.1527
X-1.1951 Y53.1612
X-1.1964 Y53.1696
X-1.1984 Y53.1778
X-1.2009 Y53.186
X-1.2039 Y53.1939
X-1.2075 Y53.2016
X-1.2117 Y53.209
X-1.2163 Y53.2161
X-1.2215 Y53.2228
X-1.2271 Y53.2292
X-1.2331 Y53.2352
X-1.2395 Y53.2407
X-1.2463 Y53.2458
X-1.2535 Y53.2504
X-1.2609 Y53.2545
X-1.2687 Y53.258
X-1.2766 Y53.261
X-1.2848 Y53.2634
X-1.293 Y53.2653
X-1.3014 Y53.2665
X-1.3099 Y53.2672
G2 X-1.3922 Y53.1714 I-1.409 J1.1274
G3 X-1.3949 Y53.1564 I0.0117 J-0.0098
X-1.3708 Y53.1425 I0.0203 J0.0074
X-1.3074 Y53.2362 I-0.0137 J0.0775
X-1.3119 Y53.2505 I-0.0771 J-0.0162 F50.
G2 X-1.31 Y53.2656 I0.014 J0.0059
G1 X-1.2965 Y53.2822 F60.
G2 X-1.1177 Y53.2012 I0.0649 J-0.0945
X-1.2056 Y53.0949 I-1.7154 J1.3289
X-1.2201 Y53.0905 I-0.0111 J0.0104
X-1.2417 Y53.1568 I0.0092 J0.0397
X-1.147 Y53.1975 I0.0893 J-0.0773
X-1.1322 Y53.1959 I-0.0054 J-0.118 F50.
G3 X-1.1179 Y53.2011 I0.0026 J0.015
G1 X-1.1047 Y53.2181 F60.
X-1.1007 Y53.2234
G3 X-1.217 Y53.3869 I-0.1107 J0.0444
G2 X-1.2965 Y53.2822 I-1.2055 J0.8323
G3 X-1.2984 Y53.2671 I0.0121 J-0.0092
X-1.2845 Y53.2585 I0.013 J0.0054
X-1.2131 Y53.3565 I-0.0049 J0.0786
X-1.2182 Y53.3706 I-0.0763 J-0.0195 F50.
G2 X-1.2169 Y53.3858 I0.0138 J0.0065
G1 X-1.2027 Y53.4048 F60.
G2 X-1.0188 Y53.3334 I0.0697 J-0.093
G1 X-1.035 Y53.3114
X-1.0695 Y53.2648
X-1.1007 Y53.2234
G2 X-1.1276 Y53.2314 I-0.0118 J0.0096
X-1.1246 Y53.2539 I0.0472 J0.005
X-1.0479 Y53.3237 I0.1098 J-0.0436
X-1.0293 Y53.3275 I0.0331 J-0.1134 F50.
G3 X-1.0192 Y53.3333 I-0.0019 J0.0151
G1 X-1.004 Y53.3543 F60.
X-1.0013 Y53.3625
X-0.9992 Y53.3708
X-0.9978 Y53.3792
X-0.9969 Y53.3878
X-0.9967 Y53.3963
X-0.9971 Y53.4049
X-0.9981 Y53.4134
X-0.9998 Y53.4218
X-1.002 Y53.4301
X-1.0048 Y53.4382
X-1.0082 Y53.4461
X-1.0122 Y53.4537
X-1.0167 Y53.461
X-1.0217 Y53.4679
X-1.0272 Y53.4745
X-1.0332 Y53.4806
X-1.0396 Y53.4863
X-1.0464 Y53.4915
X-1.0535 Y53.4963
X-1.061 Y53.5005
X-1.0688 Y53.5041
X-1.0768 Y53.5072
X-1.085 Y53.5096
X-1.0933 Y53.5115
X-1.1018 Y53.5128
X-1.1104 Y53.5134
X-1.1189 Y53.5135
X-1.1275 Y53.5129
G2 X-1.2027 Y53.4048 I-1.2326 J0.778
G3 X-1.2039 Y53.3897 I0.0126 J-0.0086
X-1.1864 Y53.3801 I0.0153 J0.0073
X-1.1216 Y53.4829 I-0.0099 J0.0781
X-1.1276 Y53.4966 I-0.0748 J-0.0246 F50.
G2 X-1.1274 Y53.5118 I0.0133 J0.0074
G1 X-1.1131 Y53.5339 F60.
G2 X-0.9271 Y53.4716 I0.0725 J-0.0925
X-1.004 Y53.3543 I-2.5403 J1.5803
X-1.0181 Y53.3486 I-0.012 J0.0094
X-1.0466 Y53.4119 I0.0056 J0.0406
X-0.9564 Y53.4645 I0.0985 J-0.0652
X-0.9414 Y53.4646 I0.0082 J-0.1178 F50.
G3 X-0.9278 Y53.4714 I0.0009 J0.0152
G1 X-0.9115 Y53.4982 F60.
G3 X-1.0479 Y53.6446 I-0.1184 J0.0264
G2 X-1.1131 Y53.5339 I-1.5127 J0.8173
G3 X-1.1134 Y53.5187 I0.0131 J-0.0078
X-1.093 Y53.5101 I0.0157 J0.0087
X-1.0404 Y53.6146 I-0.0208 J0.0759
X-1.0471 Y53.628 I-0.0734 J-0.0285 F50.
G2 X-1.0476 Y53.6432 I0.0129 J0.0081
G1 X-1.0354 Y53.6646 F60.
G2 X-0.8449 Y53.615 I0.0793 J-0.0859
X-0.9115 Y53.4982 I-2.8123 J1.5266
X-0.9391 Y53.5035 I-0.0127 J0.0084
X-0.9392 Y53.5175 I0.0341 J0.007
X-0.8724 Y53.6013 I0.1157 J-0.0237
X-0.8546 Y53.6077 I0.0489 J-0.1075 F50.
G3 X-0.8454 Y53.6149 I-0.004 J0.0147
G1 X-0.8331 Y53.6383 F60.
X-0.8315 Y53.6468
X-0.8306 Y53.6553
X-0.8302 Y53.6639
X-0.8306 Y53.6725
X-0.8315 Y53.6811
X-0.833 Y53.6895
X-0.8352 Y53.6979
X-0.8379 Y53.706
X-0.8412 Y53.714
X-0.8451 Y53.7216
X-0.8496 Y53.729
X-0.8545 Y53.736
X-0.86 Y53.7427
X-0.8659 Y53.7489
X-0.8722 Y53.7547
X-0.879 Y53.7601
X-0.8861 Y53.7649
X-0.8936 Y53.7692
X-0.9013 Y53.7729
X-0.9093 Y53.7761
X-0.9175 Y53.7787
X-0.9259 Y53.7807
X-0.9344 Y53.782
X-0.943 Y53.7828
X-0.9516 Y53.7829
X-0.9601 Y53.7825
X-0.9687 Y53.7814
X-0.9771 Y53.7796
G2 X-1.0354 Y53.6646 I-0.9564 J0.4122
G3 X-1.0348 Y53.6494 I0.0135 J-0.0071
X-1.0112 Y53.6412 I0.017 J0.0107
X-0.9669 Y53.7507 I-0.0261 J0.0743
X-0.9748 Y53.7634 I-0.0704 J-0.0353 F50.
G2 X-0.9768 Y53.7785 I0.0121 J0.0093
G1 X-0.9668 Y53.8005 F60.
G2 X-0.7734 Y53.7656 I0.0856 J-0.0787
X-0.8331 Y53.6383 I-2.3583 J1.0274
X-0.8462 Y53.6306 I-0.0132 J0.0076
X-0.8843 Y53.6919 I-0.0003 J0.0423
X-0.8014 Y53.755 I0.1056 J-0.0528
X-0.7866 Y53.7569 I0.0228 J-0.1159 F50.
G3 X-0.7739 Y53.7654 I-0.001 J0.0152
G1 X-0.7705 Y53.773 F60.
X-0.7681 Y53.7784
X-0.7628 Y53.7912
G3 X-0.917 Y53.9199 I-0.1181 J0.0152
G1 X-0.9355 Y53.8718
X-0.9556 Y53.8251
X-0.9668 Y53.8005
G3 X-0.9648 Y53.7854 I0.0141 J-0.0058
X-0.938 Y53.7788 I0.0175 J0.0135
X-0.9041 Y53.8919 I-0.033 J0.0715
X-0.9132 Y53.9038 I-0.0669 J-0.0416 F50.
G2 X-0.9165 Y53.9186 I0.0112 J0.0103
G1 X-0.9106 Y53.9358 F60.
X-0.9091 Y53.9402
G2 X-0.7141 Y53.9219 I0.0918 J-0.0697
X-0.7628 Y53.7912 I-1.1589 J0.3585
X-0.7752 Y53.7824 I-0.0139 J0.0063
X-0.8181 Y53.8397 I-0.0041 J0.0416
X-0.7409 Y53.9091 I0.1095 J-0.0443
X-0.7263 Y53.9122 I0.0323 J-0.1136 F50.
G3 X-0.7144 Y53.9217 I-0.0023 J0.0151
G1 X-0.7042 Y53.9504 F60.
G3 X-0.8633 Y54.0668 I-0.123 J-0.0012
X-0.9091 Y53.9402 I0.9412 J-0.4117
X-0.9056 Y53.9254 I0.0146 J-0.0044
X-0.8795 Y53.9264 I0.0126 J0.0119
X-0.8589 Y54.0377 I-0.0917 J0.0745
X-0.8645 Y54.0516 I-0.1122 J-0.0369 F50.
G2 X-0.8633 Y54.0668 I0.0138 J0.0066
G1 X-0.8411 Y54.0968 F60.
X-0.8343 Y54.1025
X-0.8272 Y54.1077
X-0.8196 Y54.1124
X-0.8118 Y54.1165
X-0.8037 Y54.1201
X-0.7954 Y54.1231
X-0.7869 Y54.1255
X-0.7782 Y54.1273
X-0.7694 Y54.1284
X-0.7606 Y54.129
X-0.7517 Y54.1289
X-0.7429 Y54.1282
X-0.7341 Y54.1269
X-0.7255 Y54.1249
X-0.717 Y54.1224
X-0.7087 Y54.1192
X-0.7007 Y54.1155
X-0.693 Y54.1112
X-0.6855 Y54.1064
X-0.6785 Y54.1011
X-0.6718 Y54.0952
X-0.6656 Y54.089
X-0.6598 Y54.0823
X-0.6545 Y54.0752
X-0.6497 Y54.0677
X-0.6455 Y54.0599
X-0.6418 Y54.0519
X-0.6387 Y54.0436
G3 X-0.7042 Y53.9504 I0.2606 J-0.2529
G2 X-0.7161 Y53.9409 I-0.0142 J0.0056
X-0.7479 Y53.9728 I-0.0042 J0.0277
X-0.6696 Y54.0397 I0.0778 J-0.0118
X-0.6547 Y54.0382 I-0.0005 J-0.0787 F50.
G3 X-0.6403 Y54.0431 I0.003 J0.0149
G1 X-0.6304 Y54.0551 F60.
X-0.6274 Y54.0586
G3 X-0.7488 Y54.2123 I-0.1074 J0.04
X-0.8411 Y54.0968 I24.0355 J-19.3007
X-0.8372 Y54.0757 I0.0126 J-0.0086
X-0.818 Y54.0741 I0.011 J0.016
X-0.7498 Y54.182 I-0.0498 J0.1071
X-0.7514 Y54.2009 I-0.1181 J-0.0008 F50.
G2 X-0.7488 Y54.2122 I0.015 J0.0025
G1 X-0.7321 Y54.2341 F60.
G2 X-0.5452 Y54.1611 I0.0701 J-0.0964
G3 X-0.6274 Y54.0586 I2.1524 J-1.8102
G2 X-0.642 Y54.054 I-0.0112 J0.0103
X-0.651 Y54.0633 I0.0026 J0.0115
G1 X-0.6512 Y54.0646
G2 X-0.5753 Y54.1568 I0.0776 J0.0135
X-0.5604 Y54.1557 I0.0017 J-0.0787 F50.
G3 X-0.5461 Y54.161 I0.0026 J0.015
G1 X-0.537 Y54.1727 F60.
X-0.5282 Y54.1857
X-0.5258 Y54.1936
X-0.5239 Y54.2016
X-0.5226 Y54.2097
X-0.5219 Y54.2179
X-0.5218 Y54.2262
X-0.5223 Y54.2344
X-0.5234 Y54.2426
X-0.5251 Y54.2507
X-0.5274 Y54.2586
X-0.5302 Y54.2663
X-0.5336 Y54.2738
X-0.5375 Y54.2811
X-0.542 Y54.288
X-0.5469 Y54.2946
X-0.5523 Y54.3009
X-0.5581 Y54.3067
X-0.5644 Y54.3121
X-0.571 Y54.317
X-0.578 Y54.3214
X-0.5852 Y54.3253
X-0.5927 Y54.3287
X-0.6005 Y54.3315
X-0.6084 Y54.3338
X-0.6165 Y54.3355
X-0.6193 Y54.3349
X-0.6219 Y54.3338
X-0.6243 Y54.3323
X-0.6263 Y54.3302
X-0.6279 Y54.3278
X-0.629 Y54.3251
X-0.6296 Y54.3222
Y54.3193
X-0.629 Y54.3164
X-0.6278 Y54.3136
X-0.6276 Y54.3131
X-0.554 Y54.1876
X-0.5536 Y54.187 F50.
G3 X-0.5282 Y54.1857 I0.0131 J0.0077
X-0.5487 Y54.3237 I-0.0736 J0.0596 F60.
X-0.6845 Y54.2915 I-0.0531 J-0.0784
G1 X-0.7238 Y54.245
X-0.7321 Y54.2341
G3 X-0.7221 Y54.2102 I0.0124 J-0.0088
G1 X-0.7192 Y54.2097 Z-0.1672
X-0.7163 Y54.2093 Z-0.1663
X-0.7137 Y54.2089 Z-0.1649
X-0.7115 Y54.2085 Z-0.163
X-0.7096 Y54.2082 Z-0.1607
