%
(971-23-P-0034_CAPSTAN COVER PLATE_1565)
(T1  D=0.1565 CR=0. - ZMIN=-0.2175 - FLAT END MILL)
G90 G94 G17 G91.1
G64 P0.001 Q0.001
G20
G53 G0 Z0.
(.3 CIRCLUAR THROUGH HOLE 2)
M9
T1 M6
S22000 M3
G4 P10.
G54
M7
G0 X0.8696 Y51.2003
G43 Z0.6 H1
G0 Z0.1143
G1 Z0.05 F40.
Y51.1925
G3 X0.8774 Y51.1847 I0.0078 J0.
Y51.2159 Z0.0335 I0. J0.0156
X0.8619 Y51.2018 Z0.0257 I0. J-0.0156
X0.893 Y51.1988 Z0.0091 I0.0155 J-0.0015
X0.8804 Y51.2156 Z0.0014 I-0.0155 J0.0015
X0.8745 Y51.185 Z-0.0152 I-0.003 J-0.0153
X0.8924 Y51.1959 Z-0.023 I0.003 J0.0153
X0.8625 Y51.2047 Z-0.0395 I-0.015 J0.0044
X0.8716 Y51.1858 Z-0.0473 I0.015 J-0.0044
X0.8833 Y51.2147 Z-0.0638 I0.0058 J0.0145
X0.8716 Y51.1858 Z-0.0804 I-0.0058 J-0.0145
X0.8833 Y51.2147 Z-0.0969 I0.0058 J0.0145
X0.8716 Y51.1858 Z-0.1135 I-0.0058 J-0.0145
X0.8833 Y51.2147 Z-0.13 I0.0058 J0.0145
X0.8716 Y51.1858 Z-0.1466 I-0.0058 J-0.0145
X0.8833 Y51.2147 Z-0.1631 I0.0058 J0.0145
X0.8716 Y51.1858 Z-0.1797 I-0.0058 J-0.0145
X0.8833 Y51.2147 Z-0.1962 I0.0058 J0.0145
X0.8716 Y51.1858 Z-0.2128 I-0.0058 J-0.0145
X0.8852 Y51.1867 Z-0.2175 I0.0058 J0.0145
X0.8697 Y51.2138 I-0.0077 J0.0136
X0.8852 Y51.1867 I0.0077 J-0.0136
X0.8881 Y51.1974 I-0.0039 J0.0068
G1 X0.8842 Y51.2042
G0 Z0.4
X0.6888 Y51.5705
Z0.13
G1 Z0.0657 F40.
G19 G2 Y51.5548 Z0.05 J-0.0156 K0.
G1 Y51.547
G17 G3 X0.6999 Y51.5359 I0.0111 J0.
Y51.5804 Z0.0323 I0. J0.0223
X0.6794 Y51.5668 Z0.0257 I0. J-0.0223
X0.7204 Y51.5494 Z0.008 I0.0205 J-0.0087
X0.7159 Y51.5736 Z0.0014 I-0.0205 J0.0087
X0.6839 Y51.5427 Z-0.0164 I-0.016 J-0.0155
X0.7079 Y51.5374 Z-0.023 I0.016 J0.0155
X0.6919 Y51.5789 Z-0.0407 I-0.008 J0.0208
X0.6776 Y51.5589 Z-0.0473 I0.008 J-0.0208
X0.7221 Y51.5574 Z-0.065 I0.0222 J-0.0008
X0.6776 Y51.5589 Z-0.0827 I-0.0222 J0.0008
X0.7148 Y51.5416 Z-0.0959 I0.0222 J-0.0008
X0.685 Y51.5747 Z-0.1136 I-0.0149 J0.0165
X0.6789 Y51.5509 Z-0.1202 I0.0149 J-0.0165
X0.7209 Y51.5654 Z-0.1379 I0.021 J0.0073
X0.6789 Y51.5509 Z-0.1557 I-0.021 J-0.0073
X0.7197 Y51.5481 Z-0.1689 I0.021 J0.0073
X0.68 Y51.5682 Z-0.1866 I-0.0198 J0.0101
X0.6829 Y51.5438 Z-0.1932 I0.0198 J-0.0101
X0.7169 Y51.5725 Z-0.2109 I0.017 J0.0143
X0.6933 Y51.5794 Z-0.2175 I-0.017 J-0.0143
X0.7064 Y51.5369 I0.0066 J-0.0213
X0.6933 Y51.5794 I-0.0066 J0.0213
X0.686 Y51.5655 I0.0033 J-0.0106
G1 X0.6883 Y51.558
X0.6892 Y51.5551 Z-0.2172
X0.69 Y51.5523 Z-0.2163
X0.6908 Y51.5497 Z-0.2149
X0.6915 Y51.5474 Z-0.2129
X0.6921 Y51.5456 Z-0.2105
X0.6925 Y51.5442 Z-0.2078
X0.6928 Y51.5433 Z-0.2049
X0.6929 Y51.5431 Z-0.2018
G0 Z0.4
X0.3983 Y51.8108
Z0.1143
G1 Z0.05 F40.
Y51.8187
G3 X0.3905 Y51.8265 I-0.0078 J0.
Y51.7953 Z0.0335 I0. J-0.0156
X0.406 Y51.8094 Z0.0257 I0. J0.0156
X0.375 Y51.8124 Z0.0091 I-0.0155 J0.0015
X0.406 Y51.8094 Z-0.0074 I0.0155 J-0.0015
X0.3755 Y51.8153 Z-0.023 I-0.0155 J0.0015
X0.4055 Y51.8064 Z-0.0395 I0.015 J-0.0044
X0.3963 Y51.8253 Z-0.0473 I-0.015 J0.0044
X0.3847 Y51.7964 Z-0.0638 I-0.0058 J-0.0145
X0.3963 Y51.8253 Z-0.0804 I0.0058 J0.0145
X0.3847 Y51.7964 Z-0.0969 I-0.0058 J-0.0145
X0.3963 Y51.8253 Z-0.1135 I0.0058 J0.0145
X0.3847 Y51.7964 Z-0.13 I-0.0058 J-0.0145
X0.3963 Y51.8253 Z-0.1466 I0.0058 J0.0145
X0.3847 Y51.7964 Z-0.1631 I-0.0058 J-0.0145
X0.4007 Y51.799 Z-0.1689 I0.0058 J0.0145
X0.3803 Y51.8227 Z-0.1854 I-0.0102 J0.0118
X0.3777 Y51.8019 Z-0.1932 I0.0102 J-0.0118
X0.4033 Y51.8198 Z-0.2097 I0.0128 J0.009
X0.3828 Y51.8244 Z-0.2175 I-0.0128 J-0.009
X0.3982 Y51.7973 I0.0077 J-0.0136
X0.3828 Y51.8244 I-0.0077 J0.0136
X0.3799 Y51.8138 I0.0039 J-0.0068
G1 X0.3837 Y51.807
G0 Z0.4
X0.0111 Y51.8828
Z0.13
G1 Z0.0657 F40.
G19 G3 Y51.8985 Z0.05 J0.0156 K0.
G1 Y51.9063
G17 G3 X0. Y51.9174 I-0.0111 J0.
Y51.8729 Z0.0323 I0. J-0.0223
X0.0205 Y51.8865 Z0.0257 I0. J0.0223
X-0.0205 Y51.9039 Z0.008 I-0.0205 J0.0087
X-0.016 Y51.8797 Z0.0014 I0.0205 J-0.0087
X0.016 Y51.9106 Z-0.0164 I0.016 J0.0155
X-0.008 Y51.9159 Z-0.023 I-0.016 J-0.0155
X0.008 Y51.8744 Z-0.0407 I0.008 J-0.0208
X0.0222 Y51.8944 Z-0.0473 I-0.008 J0.0208
X-0.0222 Y51.8959 Z-0.065 I-0.0222 J0.0008
X0.0222 Y51.8944 Z-0.0827 I0.0222 J-0.0008
X-0.0149 Y51.9117 Z-0.0959 I-0.0222 J0.0008
X0.0149 Y51.8787 Z-0.1136 I0.0149 J-0.0165
X0.021 Y51.9025 Z-0.1202 I-0.0149 J0.0165
X-0.021 Y51.8879 Z-0.1379 I-0.021 J-0.0073
X0.021 Y51.9025 Z-0.1557 I0.021 J0.0073
X-0.0198 Y51.9052 Z-0.1689 I-0.021 J-0.0073
X0.0198 Y51.8851 Z-0.1866 I0.0198 J-0.0101
X0.017 Y51.9095 Z-0.1932 I-0.0198 J0.0101
X-0.017 Y51.8808 Z-0.2109 I-0.017 J-0.0143
X0.0066 Y51.8739 Z-0.2175 I0.017 J0.0143
X-0.0066 Y51.9164 I-0.0066 J0.0213
X0.0066 Y51.8739 I0.0066 J-0.0213
X0.0139 Y51.8878 I-0.0033 J0.0106
G1 X0.0116 Y51.8953
X0.0107 Y51.8982 Z-0.2172
X0.0098 Y51.901 Z-0.2163
X0.009 Y51.9036 Z-0.2149
X0.0083 Y51.9059 Z-0.2129
X0.0078 Y51.9077 Z-0.2105
X0.0073 Y51.9091 Z-0.2078
X0.0071 Y51.91 Z-0.2049
X0.007 Y51.9103 Z-0.2018
G0 Z0.4
X-0.3827 Y51.8108
Z0.1143
G1 Z0.05 F40.
Y51.8187
G3 X-0.3905 Y51.8265 I-0.0078 J0.
Y51.7953 Z0.0335 I0. J-0.0156
X-0.375 Y51.8094 Z0.0257 I0. J0.0156
X-0.406 Y51.8124 Z0.0091 I-0.0155 J0.0015
X-0.375 Y51.8094 Z-0.0074 I0.0155 J-0.0015
X-0.4055 Y51.8153 Z-0.023 I-0.0155 J0.0015
X-0.3755 Y51.8064 Z-0.0395 I0.015 J-0.0044
X-0.3847 Y51.8253 Z-0.0473 I-0.015 J0.0044
X-0.3963 Y51.7964 Z-0.0638 I-0.0058 J-0.0145
X-0.3847 Y51.8253 Z-0.0804 I0.0058 J0.0145
X-0.3963 Y51.7964 Z-0.0969 I-0.0058 J-0.0145
X-0.3847 Y51.8253 Z-0.1135 I0.0058 J0.0145
X-0.3963 Y51.7964 Z-0.13 I-0.0058 J-0.0145
X-0.3847 Y51.8253 Z-0.1466 I0.0058 J0.0145
X-0.3963 Y51.7964 Z-0.1631 I-0.0058 J-0.0145
X-0.3803 Y51.799 Z-0.1689 I0.0058 J0.0145
X-0.4007 Y51.8227 Z-0.1854 I-0.0102 J0.0118
X-0.4033 Y51.8019 Z-0.1932 I0.0102 J-0.0118
X-0.3777 Y51.8198 Z-0.2097 I0.0128 J0.009
X-0.3982 Y51.8244 Z-0.2175 I-0.0128 J-0.009
X-0.3828 Y51.7973 I0.0077 J-0.0136
X-0.3982 Y51.8244 I-0.0077 J0.0136
X-0.4011 Y51.8138 I0.0039 J-0.0068
G1 X-0.3973 Y51.807
G0 Z0.4
X-0.711 Y51.5705
Z0.13
G1 Z0.0657 F40.
G19 G2 Y51.5548 Z0.05 J-0.0156 K0.
G1 Y51.547
G17 G3 X-0.6999 Y51.5359 I0.0111 J0.
Y51.5804 Z0.0323 I0. J0.0223
X-0.7204 Y51.5668 Z0.0257 I0. J-0.0223
X-0.6794 Y51.5494 Z0.008 I0.0205 J-0.0087
X-0.6839 Y51.5736 Z0.0014 I-0.0205 J0.0087
X-0.7159 Y51.5427 Z-0.0164 I-0.016 J-0.0155
X-0.6919 Y51.5374 Z-0.023 I0.016 J0.0155
X-0.7079 Y51.5789 Z-0.0407 I-0.008 J0.0208
X-0.7221 Y51.5589 Z-0.0473 I0.008 J-0.0208
X-0.6776 Y51.5574 Z-0.065 I0.0222 J-0.0008
X-0.7221 Y51.5589 Z-0.0827 I-0.0222 J0.0008
X-0.685 Y51.5416 Z-0.0959 I0.0222 J-0.0008
X-0.7148 Y51.5747 Z-0.1136 I-0.0149 J0.0165
X-0.7209 Y51.5509 Z-0.1202 I0.0149 J-0.0165
X-0.6789 Y51.5654 Z-0.1379 I0.021 J0.0073
X-0.7209 Y51.5509 Z-0.1557 I-0.021 J-0.0073
X-0.68 Y51.5481 Z-0.1689 I0.021 J0.0073
X-0.7197 Y51.5682 Z-0.1866 I-0.0198 J0.0101
X-0.7169 Y51.5438 Z-0.1932 I0.0198 J-0.0101
X-0.6829 Y51.5725 Z-0.2109 I0.017 J0.0143
X-0.7064 Y51.5794 Z-0.2175 I-0.017 J-0.0143
X-0.6933 Y51.5369 I0.0066 J-0.0213
X-0.7064 Y51.5794 I-0.0066 J0.0213
X-0.7138 Y51.5655 I0.0033 J-0.0106
G1 X-0.7115 Y51.558
X-0.7106 Y51.5551 Z-0.2172
X-0.7097 Y51.5523 Z-0.2163
X-0.7089 Y51.5497 Z-0.2149
X-0.7082 Y51.5474 Z-0.2129
X-0.7076 Y51.5456 Z-0.2105
X-0.7072 Y51.5442 Z-0.2078
X-0.707 Y51.5433 Z-0.2049
X-0.7069 Y51.5431 Z-0.2018
G0 Z0.4
X-0.8852 Y51.2003
Z0.1143
G1 Z0.05 F40.
Y51.1925
G3 X-0.8774 Y51.1847 I0.0078 J0.
Y51.2159 Z0.0335 I0. J0.0156
X-0.893 Y51.2018 Z0.0257 I0. J-0.0156
X-0.8619 Y51.1988 Z0.0091 I0.0155 J-0.0015
X-0.8745 Y51.2156 Z0.0014 I-0.0155 J0.0015
X-0.8804 Y51.185 Z-0.0152 I-0.003 J-0.0153
X-0.8625 Y51.1959 Z-0.023 I0.003 J0.0153
X-0.8924 Y51.2047 Z-0.0395 I-0.015 J0.0044
X-0.8833 Y51.1858 Z-0.0473 I0.015 J-0.0044
X-0.8716 Y51.2147 Z-0.0638 I0.0058 J0.0145
X-0.8833 Y51.1858 Z-0.0804 I-0.0058 J-0.0145
X-0.8716 Y51.2147 Z-0.0969 I0.0058 J0.0145
X-0.8833 Y51.1858 Z-0.1135 I-0.0058 J-0.0145
X-0.8716 Y51.2147 Z-0.13 I0.0058 J0.0145
X-0.8833 Y51.1858 Z-0.1466 I-0.0058 J-0.0145
X-0.8716 Y51.2147 Z-0.1631 I0.0058 J0.0145
X-0.8833 Y51.1858 Z-0.1797 I-0.0058 J-0.0145
X-0.8716 Y51.2147 Z-0.1962 I0.0058 J0.0145
X-0.8833 Y51.1858 Z-0.2128 I-0.0058 J-0.0145
X-0.8697 Y51.1867 Z-0.2175 I0.0058 J0.0145
X-0.8852 Y51.2138 I-0.0077 J0.0136
X-0.8697 Y51.1867 I0.0077 J-0.0136
X-0.8668 Y51.1974 I-0.0039 J0.0068
G1 X-0.8707 Y51.2042
G0 Z0.4
X-0.8839 Y50.8132
Z0.13
G1 Z0.0657 F40.
G19 G2 Y50.7975 Z0.05 J-0.0157 K0.
G1 Y50.7897
G17 G3 X-0.8727 Y50.7786 I0.0111 J0.
Y50.8231 Z0.0323 I0. J0.0223
X-0.8932 Y50.8095 Z0.0257 I0. J-0.0223
X-0.8523 Y50.7921 Z0.008 I0.0205 J-0.0087
X-0.8567 Y50.8163 Z0.0014 I-0.0205 J0.0087
X-0.8887 Y50.7853 Z-0.0164 I-0.016 J-0.0155
X-0.8567 Y50.8163 Z-0.0341 I0.016 J0.0155
X-0.895 Y50.8016 Z-0.0473 I-0.016 J-0.0155
X-0.8505 Y50.8001 Z-0.065 I0.0222 J-0.0008
X-0.895 Y50.8016 Z-0.0827 I-0.0222 J0.0008
X-0.8578 Y50.7843 Z-0.0959 I0.0222 J-0.0008
X-0.8876 Y50.8173 Z-0.1136 I-0.0149 J0.0165
X-0.8938 Y50.7935 Z-0.1202 I0.0149 J-0.0165
X-0.8517 Y50.8081 Z-0.1379 I0.021 J0.0073
X-0.8938 Y50.7935 Z-0.1557 I-0.021 J-0.0073
X-0.8529 Y50.7907 Z-0.1689 I0.021 J0.0073
X-0.8926 Y50.8109 Z-0.1866 I-0.0198 J0.0101
X-0.8897 Y50.7865 Z-0.1932 I0.0198 J-0.0101
X-0.8557 Y50.8151 Z-0.2109 I0.017 J0.0143
X-0.8793 Y50.8221 Z-0.2175 I-0.017 J-0.0143
X-0.8662 Y50.7795 I0.0066 J-0.0213
X-0.8793 Y50.8221 I-0.0066 J0.0213
X-0.8866 Y50.8082 I0.0033 J-0.0106
G1 X-0.8843 Y50.8007
X-0.8834 Y50.7978 Z-0.2172
X-0.8826 Y50.795 Z-0.2163
X-0.8818 Y50.7924 Z-0.2149
X-0.8811 Y50.7901 Z-0.2129
X-0.8805 Y50.7882 Z-0.2105
X-0.8801 Y50.7869 Z-0.2078
X-0.8798 Y50.786 Z-0.2049
X-0.8797 Y50.7857 Z-0.2018
G0 Z0.4
X-0.7114 Y50.4389
Z0.1143
G1 Z0.05 F40.
Y50.4311
G3 X-0.7036 Y50.4233 I0.0078 J0.
Y50.4545 Z0.0335 I0. J0.0156
X-0.7192 Y50.4404 Z0.0257 I0. J-0.0156
X-0.6881 Y50.4374 Z0.0091 I0.0155 J-0.0015
X-0.7007 Y50.4542 Z0.0014 I-0.0155 J0.0015
X-0.7066 Y50.4235 Z-0.0152 I-0.003 J-0.0153
X-0.6887 Y50.4344 Z-0.023 I0.003 J0.0153
X-0.7186 Y50.4433 Z-0.0395 I-0.015 J0.0044
X-0.7095 Y50.4244 Z-0.0473 I0.015 J-0.0044
X-0.6978 Y50.4533 Z-0.0638 I0.0058 J0.0145
X-0.7175 Y50.446 Z-0.0716 I-0.0058 J-0.0145
X-0.6898 Y50.4317 Z-0.0881 I0.0138 J-0.0072
X-0.6952 Y50.452 Z-0.0959 I-0.0138 J0.0072
X-0.7121 Y50.4258 Z-0.1125 I-0.0085 J-0.0131
X-0.6952 Y50.452 Z-0.129 I0.0085 J0.0131
X-0.7145 Y50.4276 Z-0.1445 I-0.0085 J-0.0131
X-0.6928 Y50.4501 Z-0.1611 I0.0108 J0.0112
X-0.7138 Y50.4507 Z-0.1689 I-0.0108 J-0.0112
X-0.6935 Y50.427 Z-0.1854 I0.0102 J-0.0118
X-0.6909 Y50.4478 Z-0.1932 I-0.0102 J0.0118
X-0.7164 Y50.4299 Z-0.2097 I-0.0128 J-0.009
X-0.6959 Y50.4253 Z-0.2175 I0.0128 J0.009
X-0.7114 Y50.4524 I-0.0077 J0.0136
X-0.6959 Y50.4253 I0.0077 J-0.0136
X-0.693 Y50.4359 I-0.0039 J0.0068
G1 X-0.6969 Y50.4427
G0 Z0.4
X-0.3773 Y50.1811
Z0.13
G1 Z0.0657 F40.
G19 G3 Y50.1968 Z0.05 J0.0156 K0.
G1 Y50.2046
G17 G3 X-0.3884 Y50.2157 I-0.0111 J0.
Y50.1712 Z0.0323 I0. J-0.0223
X-0.3679 Y50.1848 Z0.0257 I0. J0.0223
X-0.4089 Y50.2022 Z0.008 I-0.0205 J0.0087
X-0.4044 Y50.178 Z0.0014 I0.0205 J-0.0087
X-0.3724 Y50.2089 Z-0.0164 I0.016 J0.0155
X-0.4044 Y50.178 Z-0.0341 I-0.016 J-0.0155
X-0.3662 Y50.1927 Z-0.0473 I0.016 J0.0155
X-0.4106 Y50.1942 Z-0.065 I-0.0222 J0.0008
X-0.3662 Y50.1927 Z-0.0827 I0.0222 J-0.0008
X-0.4033 Y50.21 Z-0.0959 I-0.0222 J0.0008
X-0.3735 Y50.177 Z-0.1136 I0.0149 J-0.0165
X-0.3674 Y50.2007 Z-0.1202 I-0.0149 J0.0165
X-0.4094 Y50.1862 Z-0.1379 I-0.021 J-0.0073
X-0.3674 Y50.2007 Z-0.1557 I0.021 J0.0073
X-0.4082 Y50.2035 Z-0.1689 I-0.021 J-0.0073
X-0.3686 Y50.1834 Z-0.1866 I0.0198 J-0.0101
X-0.3714 Y50.2078 Z-0.1932 I-0.0198 J0.0101
X-0.4054 Y50.1791 Z-0.2109 I-0.017 J-0.0143
X-0.3818 Y50.1722 Z-0.2175 I0.017 J0.0143
X-0.395 Y50.2147 I-0.0066 J0.0213
X-0.3818 Y50.1722 I0.0066 J-0.0213
X-0.3745 Y50.1861 I-0.0033 J0.0106
G1 X-0.3768 Y50.1936
X-0.3777 Y50.1965 Z-0.2172
X-0.3786 Y50.1993 Z-0.2163
X-0.3794 Y50.2019 Z-0.2149
X-0.3801 Y50.2042 Z-0.2129
X-0.3806 Y50.206 Z-0.2105
X-0.3811 Y50.2074 Z-0.2078
X-0.3813 Y50.2083 Z-0.2049
X-0.3814 Y50.2086 Z-0.2018
G0 Z0.4
X0.0078 Y50.1
Z0.1143
G1 Z0.05 F40.
Y50.1078
G3 X0. Y50.1156 I-0.0078 J0.
Y50.0844 Z0.0335 I0. J-0.0156
X0.0155 Y50.0985 Z0.0257 I0. J0.0156
X-0.0155 Y50.1015 Z0.0091 I-0.0155 J0.0015
X-0.003 Y50.0847 Z0.0014 I0.0155 J-0.0015
X0.003 Y50.1153 Z-0.0152 I0.003 J0.0153
X-0.015 Y50.1044 Z-0.023 I-0.003 J-0.0153
X0.015 Y50.0956 Z-0.0395 I0.015 J-0.0044
X0.0058 Y50.1145 Z-0.0473 I-0.015 J0.0044
X-0.0058 Y50.0855 Z-0.0638 I-0.0058 J-0.0145
X0.0058 Y50.1145 Z-0.0804 I0.0058 J0.0145
X-0.0058 Y50.0855 Z-0.0969 I-0.0058 J-0.0145
X0.0058 Y50.1145 Z-0.1135 I0.0058 J0.0145
X-0.0122 Y50.1097 Z-0.1202 I-0.0058 J-0.0145
X0.0122 Y50.0903 Z-0.1368 I0.0122 J-0.0097
X0.0108 Y50.1112 Z-0.1445 I-0.0122 J0.0097
X-0.0108 Y50.0888 Z-0.1611 I-0.0108 J-0.0112
X0.0102 Y50.0882 Z-0.1689 I0.0108 J0.0112
X-0.0102 Y50.1118 Z-0.1854 I-0.0102 J0.0118
X-0.0128 Y50.091 Z-0.1932 I0.0102 J-0.0118
X0.0128 Y50.109 Z-0.2097 I0.0128 J0.009
X-0.0077 Y50.1136 Z-0.2175 I-0.0128 J-0.009
X0.0077 Y50.0864 I0.0077 J-0.0136
X-0.0077 Y50.1136 I-0.0077 J0.0136
X-0.0106 Y50.1029 I0.0039 J-0.0068
G1 X-0.0068 Y50.0961
G0 Z0.4
X0.3995 Y50.1811
Z0.13
G1 Z0.0657 F40.
G19 G3 Y50.1968 Z0.05 J0.0156 K0.
G1 Y50.2046
G17 G3 X0.3884 Y50.2157 I-0.0111 J0.
Y50.1712 Z0.0323 I0. J-0.0223
X0.4089 Y50.1848 Z0.0257 I0. J0.0223
X0.3679 Y50.2022 Z0.008 I-0.0205 J0.0087
X0.3724 Y50.178 Z0.0014 I0.0205 J-0.0087
X0.4044 Y50.2089 Z-0.0164 I0.016 J0.0155
X0.3724 Y50.178 Z-0.0341 I-0.016 J-0.0155
X0.4106 Y50.1927 Z-0.0473 I0.016 J0.0155
X0.3662 Y50.1942 Z-0.065 I-0.0222 J0.0008
X0.4106 Y50.1927 Z-0.0827 I0.0222 J-0.0008
X0.3735 Y50.21 Z-0.0959 I-0.0222 J0.0008
X0.4033 Y50.177 Z-0.1136 I0.0149 J-0.0165
X0.4094 Y50.2007 Z-0.1202 I-0.0149 J0.0165
X0.3674 Y50.1862 Z-0.1379 I-0.021 J-0.0073
X0.4094 Y50.2007 Z-0.1557 I0.021 J0.0073
X0.3686 Y50.2035 Z-0.1689 I-0.021 J-0.0073
X0.4082 Y50.1834 Z-0.1866 I0.0198 J-0.0101
X0.4054 Y50.2078 Z-0.1932 I-0.0198 J0.0101
X0.3714 Y50.1791 Z-0.2109 I-0.017 J-0.0143
X0.395 Y50.1722 Z-0.2175 I0.017 J0.0143
X0.3818 Y50.2147 I-0.0066 J0.0213
X0.395 Y50.1722 I0.0066 J-0.0213
X0.4023 Y50.1861 I-0.0033 J0.0106
G1 X0.4 Y50.1936
X0.3991 Y50.1965 Z-0.2172
X0.3982 Y50.1993 Z-0.2163
X0.3974 Y50.2019 Z-0.2149
X0.3967 Y50.2042 Z-0.2129
X0.3962 Y50.206 Z-0.2105
X0.3957 Y50.2074 Z-0.2078
X0.3955 Y50.2083 Z-0.2049
X0.3954 Y50.2086 Z-0.2018
G0 Z0.4
X0.6958 Y50.4389
Z0.1143
G1 Z0.05 F40.
Y50.4311
G3 X0.7036 Y50.4233 I0.0078 J0.
Y50.4545 Z0.0335 I0. J0.0156
X0.6881 Y50.4404 Z0.0257 I0. J-0.0156
X0.7192 Y50.4374 Z0.0091 I0.0155 J-0.0015
X0.7066 Y50.4542 Z0.0014 I-0.0155 J0.0015
X0.7007 Y50.4235 Z-0.0152 I-0.003 J-0.0153
X0.7186 Y50.4344 Z-0.023 I0.003 J0.0153
X0.6887 Y50.4433 Z-0.0395 I-0.015 J0.0044
X0.6978 Y50.4244 Z-0.0473 I0.015 J-0.0044
X0.7095 Y50.4533 Z-0.0638 I0.0058 J0.0145
X0.6898 Y50.446 Z-0.0716 I-0.0058 J-0.0145
X0.7175 Y50.4317 Z-0.0881 I0.0138 J-0.0072
X0.7121 Y50.452 Z-0.0959 I-0.0138 J0.0072
X0.6952 Y50.4258 Z-0.1125 I-0.0085 J-0.0131
X0.7121 Y50.452 Z-0.129 I0.0085 J0.0131
X0.6928 Y50.4276 Z-0.1445 I-0.0085 J-0.0131
X0.7145 Y50.4501 Z-0.1611 I0.0108 J0.0112
X0.6935 Y50.4507 Z-0.1689 I-0.0108 J-0.0112
X0.7138 Y50.427 Z-0.1854 I0.0102 J-0.0118
X0.7164 Y50.4478 Z-0.1932 I-0.0102 J0.0118
X0.6909 Y50.4299 Z-0.2097 I-0.0128 J-0.009
X0.7114 Y50.4253 Z-0.2175 I0.0128 J0.009
X0.6959 Y50.4524 I-0.0077 J0.0136
X0.7114 Y50.4253 I0.0077 J-0.0136
X0.7143 Y50.4359 I-0.0039 J0.0068
G1 X0.7104 Y50.4427
G0 Z0.4
X0.8616 Y50.8132
Z0.13
G1 Z0.0657 F40.
G19 G2 Y50.7975 Z0.05 J-0.0157 K0.
G1 Y50.7897
G17 G3 X0.8727 Y50.7786 I0.0111 J0.
Y50.8231 Z0.0323 I0. J0.0223
X0.8523 Y50.8095 Z0.0257 I0. J-0.0223
X0.8932 Y50.7921 Z0.008 I0.0205 J-0.0087
X0.8887 Y50.8163 Z0.0014 I-0.0205 J0.0087
X0.8567 Y50.7853 Z-0.0164 I-0.016 J-0.0155
X0.8887 Y50.8163 Z-0.0341 I0.016 J0.0155
X0.8505 Y50.8016 Z-0.0473 I-0.016 J-0.0155
X0.895 Y50.8001 Z-0.065 I0.0222 J-0.0008
X0.8505 Y50.8016 Z-0.0827 I-0.0222 J0.0008
X0.8876 Y50.7843 Z-0.0959 I0.0222 J-0.0008
X0.8578 Y50.8173 Z-0.1136 I-0.0149 J0.0165
X0.8517 Y50.7935 Z-0.1202 I0.0149 J-0.0165
X0.8938 Y50.8081 Z-0.1379 I0.021 J0.0073
X0.8517 Y50.7935 Z-0.1557 I-0.021 J-0.0073
X0.8926 Y50.7907 Z-0.1689 I0.021 J0.0073
X0.8529 Y50.8109 Z-0.1866 I-0.0198 J0.0101
X0.8557 Y50.7865 Z-0.1932 I0.0198 J-0.0101
X0.8897 Y50.8151 Z-0.2109 I0.017 J0.0143
X0.8662 Y50.8221 Z-0.2175 I-0.017 J-0.0143
X0.8793 Y50.7795 I0.0066 J-0.0213
X0.8662 Y50.8221 I-0.0066 J0.0213
X0.8588 Y50.8082 I0.0033 J-0.0106
G1 X0.8611 Y50.8007
X0.862 Y50.7978 Z-0.2172
X0.8629 Y50.795 Z-0.2163
X0.8637 Y50.7924 Z-0.2149
X0.8644 Y50.7901 Z-0.2129
X0.865 Y50.7882 Z-0.2105
X0.8654 Y50.7869 Z-0.2078
X0.8657 Y50.786 Z-0.2049
Y50.7857 Z-0.2018
G0 Z0.4
X3.6191 Y50.018
Z0.1143
G1 Z0.05 F40.
X3.6198 Y50.0186
G3 X3.6191 Y50.0192 I-0.0006 J0.
Y50.0167 Z0.036 I0. J-0.0012
X3.6204 Y50.0178 Z0.0294 I0. J0.0012
X3.6179 Y50.0181 Z0.0154 I-0.0012 J0.0001
X3.6189 Y50.0167 Z0.0088 I0.0012 J-0.0001
X3.6194 Y50.0192 Z-0.0052 I0.0003 J0.0012
X3.6179 Y50.0183 Z-0.0117 I-0.0003 J-0.0012
X3.6203 Y50.0176 Z-0.0258 I0.0012 J-0.0004
X3.6196 Y50.0191 Z-0.0323 I-0.0012 J0.0004
X3.6186 Y50.0168 Z-0.0463 I-0.0005 J-0.0011
X3.6202 Y50.0174 Z-0.0529 I0.0005 J0.0011
X3.618 Y50.0186 Z-0.0669 I-0.0011 J0.0006
X3.6184 Y50.0169 Z-0.0735 I0.0011 J-0.0006
X3.6198 Y50.019 Z-0.0875 I0.0007 J0.001
X3.6182 Y50.0188 Z-0.094 I-0.0007 J-0.001
X3.6201 Y50.0172 Z-0.1081 I0.001 J-0.0008
X3.62 Y50.0188 Z-0.1146 I-0.001 J0.0008
X3.6182 Y50.0171 Z-0.1286 I-0.0009 J-0.0009
X3.6199 Y50.017 Z-0.1352 I0.0009 J0.0009
X3.6184 Y50.019 Z-0.1492 I-0.0008 J0.001
X3.6181 Y50.0173 Z-0.1558 I0.0008 J-0.001
X3.6202 Y50.0186 Z-0.1698 I0.0011 J0.0007
X3.6186 Y50.0191 Z-0.1763 I-0.0011 J-0.0007
X3.6197 Y50.0168 Z-0.1904 I0.0006 J-0.0011
X3.6203 Y50.0184 Z-0.1969 I-0.0006 J0.0011
X3.618 Y50.0175 Z-0.2109 I-0.0012 J-0.0004
X3.6195 Y50.0168 Z-0.2175 I0.0012 J0.0004
X3.6188 Y50.0192 I-0.0003 J0.0012
X3.6195 Y50.0168 I0.0003 J-0.0012
X3.6199 Y50.0175 I-0.0002 J0.0006
G1 X3.6191 Y50.018
G0 Z0.4
X3.6926 Y50.6584
Z0.1143
G1 Z0.05 F40.
Y50.6663
G3 X3.6848 Y50.6741 I-0.0078 J0.
Y50.6429 Z0.0335 I0. J-0.0156
X3.7004 Y50.657 Z0.0257 I0. J0.0156
X3.6693 Y50.6599 Z0.0091 I-0.0155 J0.0015
X3.7004 Y50.657 Z-0.0074 I0.0155 J-0.0015
X3.6699 Y50.6629 Z-0.023 I-0.0155 J0.0015
X3.6998 Y50.654 Z-0.0395 I0.015 J-0.0044
X3.6907 Y50.6729 Z-0.0473 I-0.015 J0.0044
X3.679 Y50.644 Z-0.0638 I-0.0058 J-0.0145
X3.6907 Y50.6729 Z-0.0804 I0.0058 J0.0145
X3.679 Y50.644 Z-0.0969 I-0.0058 J-0.0145
X3.6907 Y50.6729 Z-0.1135 I0.0058 J0.0145
X3.679 Y50.644 Z-0.13 I-0.0058 J-0.0145
X3.6907 Y50.6729 Z-0.1466 I0.0058 J0.0145
X3.679 Y50.644 Z-0.1631 I-0.0058 J-0.0145
X3.6907 Y50.6729 Z-0.1797 I0.0058 J0.0145
X3.6721 Y50.6495 Z-0.1932 I-0.0058 J-0.0145
X3.6976 Y50.6674 Z-0.2097 I0.0128 J0.009
X3.6771 Y50.672 Z-0.2175 I-0.0128 J-0.009
X3.6926 Y50.6449 I0.0077 J-0.0136
X3.6771 Y50.672 I-0.0077 J0.0136
X3.6742 Y50.6614 I0.0039 J-0.0068
G1 X3.6781 Y50.6546
G0 Z0.4
X3.7887 Y51.3805
Z0.1143
G1 Z0.05 F40.
Y51.3883
G3 X3.7809 Y51.3961 I-0.0078 J0.
Y51.3649 Z0.0335 I0. J-0.0156
X3.7964 Y51.379 Z0.0257 I0. J0.0156
X3.7654 Y51.382 Z0.0091 I-0.0155 J0.0015
X3.7779 Y51.3652 Z0.0014 I0.0155 J-0.0015
X3.7839 Y51.3958 Z-0.0152 I0.003 J0.0153
X3.7659 Y51.3849 Z-0.023 I-0.003 J-0.0153
X3.7959 Y51.3761 Z-0.0395 I0.015 J-0.0044
X3.7867 Y51.3949 Z-0.0473 I-0.015 J0.0044
X3.7751 Y51.366 Z-0.0638 I-0.0058 J-0.0145
X3.7867 Y51.3949 Z-0.0804 I0.0058 J0.0145
X3.7751 Y51.366 Z-0.0969 I-0.0058 J-0.0145
X3.7867 Y51.3949 Z-0.1135 I0.0058 J0.0145
X3.7751 Y51.366 Z-0.13 I-0.0058 J-0.0145
X3.7867 Y51.3949 Z-0.1466 I0.0058 J0.0145
X3.7751 Y51.366 Z-0.1631 I-0.0058 J-0.0145
X3.7867 Y51.3949 Z-0.1797 I0.0058 J0.0145
X3.7681 Y51.3715 Z-0.1932 I-0.0058 J-0.0145
X3.7937 Y51.3895 Z-0.2097 I0.0128 J0.009
X3.7732 Y51.394 Z-0.2175 I-0.0128 J-0.009
X3.7886 Y51.3669 I0.0077 J-0.0136
X3.7732 Y51.394 I-0.0077 J0.0136
X3.7703 Y51.3834 I0.0039 J-0.0068
G1 X3.7741 Y51.3766
G0 Z0.4
X3.5325 Y52.2587
Z0.1143
G1 Z0.05 F40.
X3.5331 Y52.2593
G3 X3.5325 Y52.2599 I-0.0006 J0.
Y52.2574 Z0.036 I0. J-0.0012
X3.5337 Y52.2585 Z0.0294 I0. J0.0012
X3.5312 Y52.2588 Z0.0154 I-0.0012 J0.0001
X3.5322 Y52.2574 Z0.0088 I0.0012 J-0.0001
X3.5327 Y52.2599 Z-0.0052 I0.0003 J0.0012
X3.5313 Y52.259 Z-0.0117 I-0.0003 J-0.0012
X3.5337 Y52.2583 Z-0.0257 I0.0012 J-0.0004
X3.533 Y52.2598 Z-0.0323 I-0.0012 J0.0004
X3.532 Y52.2575 Z-0.0463 I-0.0005 J-0.0011
X3.5336 Y52.2581 Z-0.0529 I0.0005 J0.0011
X3.5314 Y52.2593 Z-0.0669 I-0.0011 J0.0006
X3.5317 Y52.2576 Z-0.0735 I0.0011 J-0.0006
X3.5332 Y52.2597 Z-0.0875 I0.0007 J0.001
X3.5315 Y52.2595 Z-0.094 I-0.0007 J-0.001
X3.5334 Y52.2578 Z-0.1081 I0.001 J-0.0008
Y52.2595 Z-0.1146 I-0.001 J0.0008
X3.5316 Y52.2578 Z-0.1286 I-0.0009 J-0.0009
X3.5332 Y52.2577 Z-0.1352 I0.0009 J0.0009
X3.5317 Y52.2596 Z-0.1492 I-0.0008 J0.001
X3.5314 Y52.258 Z-0.1558 I0.0008 J-0.001
X3.5335 Y52.2593 Z-0.1698 I0.0011 J0.0007
X3.5319 Y52.2598 Z-0.1763 I-0.0011 J-0.0007
X3.533 Y52.2575 Z-0.1904 I0.0006 J-0.0011
X3.5336 Y52.2591 Z-0.1969 I-0.0006 J0.0011
X3.5313 Y52.2582 Z-0.2109 I-0.0012 J-0.0004
X3.5328 Y52.2575 Z-0.2175 I0.0012 J0.0004
X3.5321 Y52.2599 I-0.0003 J0.0012
X3.5328 Y52.2575 I0.0003 J-0.0012
X3.5332 Y52.2582 I-0.0002 J0.0006
G1 X3.5325 Y52.2587
G0 Z0.4
X2.7478 Y53.74
Z0.1143
G1 Z0.05 F40.
Y53.7478
G3 X2.74 Y53.7556 I-0.0078 J0.
Y53.7244 Z0.0335 I0. J-0.0156
X2.7556 Y53.7385 Z0.0257 I0. J0.0156
X2.7245 Y53.7415 Z0.0091 I-0.0155 J0.0015
X2.7556 Y53.7385 Z-0.0074 I0.0155 J-0.0015
X2.7251 Y53.7445 Z-0.023 I-0.0155 J0.0015
X2.755 Y53.7356 Z-0.0395 I0.015 J-0.0044
X2.7459 Y53.7545 Z-0.0473 I-0.015 J0.0044
X2.7342 Y53.7256 Z-0.0638 I-0.0058 J-0.0145
X2.7459 Y53.7545 Z-0.0804 I0.0058 J0.0145
X2.7342 Y53.7256 Z-0.0969 I-0.0058 J-0.0145
X2.7459 Y53.7545 Z-0.1135 I0.0058 J0.0145
X2.7342 Y53.7256 Z-0.13 I-0.0058 J-0.0145
X2.7459 Y53.7545 Z-0.1466 I0.0058 J0.0145
X2.7342 Y53.7256 Z-0.1631 I-0.0058 J-0.0145
X2.7459 Y53.7545 Z-0.1797 I0.0058 J0.0145
X2.7273 Y53.7311 Z-0.1932 I-0.0058 J-0.0145
X2.7528 Y53.749 Z-0.2097 I0.0128 J0.009
X2.7323 Y53.7536 Z-0.2175 I-0.0128 J-0.009
X2.7478 Y53.7265 I0.0077 J-0.0136
X2.7323 Y53.7536 I-0.0077 J0.0136
X2.7294 Y53.743 I0.0039 J-0.0068
G1 X2.7333 Y53.7362
G0 Z0.4
X1.4727 Y54.4487
Z0.1143
G1 Z0.05 F40.
X1.4734 Y54.4493
G3 X1.4727 Y54.45 I-0.0006 J0.
Y54.4475 Z0.036 I0. J-0.0012
X1.474 Y54.4486 Z0.0294 I0. J0.0013
X1.4715 Y54.4488 Z0.0154 I-0.0012 J0.0001
X1.4725 Y54.4475 Z0.0088 I0.0012 J-0.0001
X1.473 Y54.4499 Z-0.0052 I0.0003 J0.0012
X1.4715 Y54.4491 Z-0.0117 I-0.0003 J-0.0012
X1.4739 Y54.4483 Z-0.0258 I0.0012 J-0.0004
X1.4732 Y54.4499 Z-0.0323 I-0.0012 J0.0004
X1.4722 Y54.4476 Z-0.0463 I-0.0005 J-0.0011
X1.4738 Y54.4481 Z-0.0529 I0.0005 J0.0011
X1.4716 Y54.4493 Z-0.0669 I-0.0011 J0.0006
X1.472 Y54.4477 Z-0.0735 I0.0011 J-0.0006
X1.4734 Y54.4497 Z-0.0875 I0.0007 J0.001
X1.4718 Y54.4495 Z-0.094 I-0.0007 J-0.001
X1.4737 Y54.4479 Z-0.1081 I0.001 J-0.0008
X1.4736 Y54.4496 Z-0.1146 I-0.001 J0.0008
X1.4718 Y54.4478 Z-0.1286 I-0.0009 J-0.0009
X1.4735 Y54.4477 Z-0.1352 I0.0009 J0.0009
X1.472 Y54.4497 Z-0.1492 I-0.0008 J0.001
X1.4717 Y54.448 Z-0.1558 I0.0008 J-0.001
X1.4738 Y54.4494 Z-0.1698 I0.0011 J0.0007
X1.4722 Y54.4498 Z-0.1763 I-0.0011 J-0.0007
X1.4733 Y54.4476 Z-0.1904 I0.0006 J-0.0011
X1.4739 Y54.4491 Z-0.1969 I-0.0006 J0.0011
X1.4716 Y54.4483 Z-0.2109 I-0.0012 J-0.0004
X1.473 Y54.4475 Z-0.2175 I0.0012 J0.0004
X1.4724 Y54.4499 I-0.0003 J0.0012
X1.473 Y54.4475 I0.0003 J-0.0012
X1.4735 Y54.4483 I-0.0002 J0.0006
G1 X1.4727 Y54.4487
G0 Z0.4
X0.0078 Y54.875
Z0.1143
G1 Z0.05 F40.
Y54.8828
G3 X0. Y54.8906 I-0.0078 J0.
Y54.8594 Z0.0335 I0. J-0.0156
X0.0155 Y54.8735 Z0.0257 I0. J0.0156
X-0.0155 Y54.8765 Z0.0091 I-0.0155 J0.0015
X0.0155 Y54.8735 Z-0.0074 I0.0155 J-0.0015
X-0.015 Y54.8794 Z-0.023 I-0.0155 J0.0015
X0.015 Y54.8706 Z-0.0395 I0.015 J-0.0044
X0.0058 Y54.8895 Z-0.0473 I-0.015 J0.0044
X-0.0058 Y54.8605 Z-0.0638 I-0.0058 J-0.0145
X0.0058 Y54.8895 Z-0.0804 I0.0058 J0.0145
X-0.0058 Y54.8605 Z-0.0969 I-0.0058 J-0.0145
X0.0058 Y54.8895 Z-0.1135 I0.0058 J0.0145
X-0.0058 Y54.8605 Z-0.13 I-0.0058 J-0.0145
X0.0058 Y54.8895 Z-0.1466 I0.0058 J0.0145
X-0.0058 Y54.8605 Z-0.1631 I-0.0058 J-0.0145
X0.0102 Y54.8632 Z-0.1689 I0.0058 J0.0145
X-0.0102 Y54.8868 Z-0.1854 I-0.0102 J0.0118
X-0.0128 Y54.866 Z-0.1932 I0.0102 J-0.0118
X0.0128 Y54.884 Z-0.2097 I0.0128 J0.009
X-0.0077 Y54.8886 Z-0.2175 I-0.0128 J-0.009
X0.0077 Y54.8614 I0.0077 J-0.0136
X-0.0077 Y54.8886 I-0.0077 J0.0136
X-0.0106 Y54.8779 I0.0039 J-0.0068
G1 X-0.0068 Y54.8711
G0 Z0.4
X-1.4727 Y54.4487
Z0.1143
G1 Z0.05 F40.
X-1.4721 Y54.4493
G3 X-1.4727 Y54.45 I-0.0006 J0.
Y54.4475 Z0.036 I0. J-0.0012
X-1.4715 Y54.4486 Z0.0294 I0. J0.0013
X-1.474 Y54.4488 Z0.0154 I-0.0012 J0.0001
X-1.473 Y54.4475 Z0.0088 I0.0012 J-0.0001
X-1.4725 Y54.4499 Z-0.0052 I0.0003 J0.0012
X-1.4739 Y54.4491 Z-0.0117 I-0.0003 J-0.0012
X-1.4715 Y54.4483 Z-0.0258 I0.0012 J-0.0004
X-1.4722 Y54.4499 Z-0.0323 I-0.0012 J0.0004
X-1.4732 Y54.4476 Z-0.0463 I-0.0005 J-0.0011
X-1.4716 Y54.4481 Z-0.0529 I0.0005 J0.0011
X-1.4738 Y54.4493 Z-0.0669 I-0.0011 J0.0006
X-1.4734 Y54.4477 Z-0.0735 I0.0011 J-0.0006
X-1.472 Y54.4497 Z-0.0875 I0.0007 J0.001
X-1.4737 Y54.4495 Z-0.094 I-0.0007 J-0.001
X-1.4718 Y54.4479 Z-0.1081 I0.001 J-0.0008
Y54.4496 Z-0.1146 I-0.001 J0.0008
X-1.4736 Y54.4478 Z-0.1286 I-0.0009 J-0.0009
X-1.472 Y54.4477 Z-0.1352 I0.0009 J0.0009
X-1.4735 Y54.4497 Z-0.1492 I-0.0008 J0.001
X-1.4738 Y54.448 Z-0.1558 I0.0008 J-0.001
X-1.4717 Y54.4494 Z-0.1698 I0.0011 J0.0007
X-1.4733 Y54.4498 Z-0.1763 I-0.0011 J-0.0007
X-1.4722 Y54.4476 Z-0.1904 I0.0006 J-0.0011
X-1.4716 Y54.4491 Z-0.1969 I-0.0006 J0.0011
X-1.4739 Y54.4483 Z-0.2109 I-0.0012 J-0.0004
X-1.4724 Y54.4475 Z-0.2175 I0.0012 J0.0004
X-1.473 Y54.4499 I-0.0003 J0.0012
X-1.4724 Y54.4475 I0.0003 J-0.0012
X-1.472 Y54.4483 I-0.0002 J0.0006
G1 X-1.4727 Y54.4487
G0 Z0.4
X-2.7322 Y53.74
Z0.1143
G1 Z0.05 F40.
Y53.7478
G3 X-2.74 Y53.7556 I-0.0078 J0.
Y53.7244 Z0.0335 I0. J-0.0156
X-2.7245 Y53.7385 Z0.0257 I0. J0.0156
X-2.7556 Y53.7415 Z0.0091 I-0.0155 J0.0015
X-2.7245 Y53.7385 Z-0.0074 I0.0155 J-0.0015
X-2.755 Y53.7445 Z-0.023 I-0.0155 J0.0015
X-2.7251 Y53.7356 Z-0.0395 I0.015 J-0.0044
X-2.7342 Y53.7545 Z-0.0473 I-0.015 J0.0044
X-2.7459 Y53.7256 Z-0.0638 I-0.0058 J-0.0145
X-2.7342 Y53.7545 Z-0.0804 I0.0058 J0.0145
X-2.7459 Y53.7256 Z-0.0969 I-0.0058 J-0.0145
X-2.7342 Y53.7545 Z-0.1135 I0.0058 J0.0145
X-2.7459 Y53.7256 Z-0.13 I-0.0058 J-0.0145
X-2.7342 Y53.7545 Z-0.1466 I0.0058 J0.0145
X-2.7459 Y53.7256 Z-0.1631 I-0.0058 J-0.0145
X-2.7342 Y53.7545 Z-0.1797 I0.0058 J0.0145
X-2.7528 Y53.7311 Z-0.1932 I-0.0058 J-0.0145
X-2.7273 Y53.749 Z-0.2097 I0.0128 J0.009
X-2.7478 Y53.7536 Z-0.2175 I-0.0128 J-0.009
X-2.7323 Y53.7265 I0.0077 J-0.0136
X-2.7478 Y53.7536 I-0.0077 J0.0136
X-2.7507 Y53.743 I0.0039 J-0.0068
G1 X-2.7468 Y53.7362
G0 Z0.4
X-3.5325 Y52.2587
Z0.1143
G1 Z0.05 F40.
X-3.5318 Y52.2593
G3 X-3.5325 Y52.2599 I-0.0006 J0.
Y52.2574 Z0.036 I0. J-0.0012
X-3.5312 Y52.2585 Z0.0294 I0. J0.0012
X-3.5337 Y52.2588 Z0.0154 I-0.0012 J0.0001
X-3.5327 Y52.2574 Z0.0088 I0.0012 J-0.0001
X-3.5322 Y52.2599 Z-0.0052 I0.0003 J0.0012
X-3.5337 Y52.259 Z-0.0117 I-0.0003 J-0.0012
X-3.5313 Y52.2583 Z-0.0257 I0.0012 J-0.0004
X-3.532 Y52.2598 Z-0.0323 I-0.0012 J0.0004
X-3.533 Y52.2575 Z-0.0463 I-0.0005 J-0.0011
X-3.5314 Y52.2581 Z-0.0529 I0.0005 J0.0011
X-3.5336 Y52.2593 Z-0.0669 I-0.0011 J0.0006
X-3.5332 Y52.2576 Z-0.0735 I0.0011 J-0.0006
X-3.5317 Y52.2597 Z-0.0875 I0.0007 J0.001
X-3.5334 Y52.2595 Z-0.094 I-0.0007 J-0.001
X-3.5315 Y52.2578 Z-0.1081 I0.001 J-0.0008
X-3.5316 Y52.2595 Z-0.1146 I-0.001 J0.0008
X-3.5334 Y52.2578 Z-0.1286 I-0.0009 J-0.0009
X-3.5317 Y52.2577 Z-0.1352 I0.0009 J0.0009
X-3.5332 Y52.2596 Z-0.1492 I-0.0008 J0.001
X-3.5335 Y52.258 Z-0.1558 I0.0008 J-0.001
X-3.5314 Y52.2593 Z-0.1698 I0.0011 J0.0007
X-3.533 Y52.2598 Z-0.1763 I-0.0011 J-0.0007
X-3.5319 Y52.2575 Z-0.1904 I0.0006 J-0.0011
X-3.5313 Y52.2591 Z-0.1969 I-0.0006 J0.0011
X-3.5336 Y52.2582 Z-0.2109 I-0.0012 J-0.0004
X-3.5321 Y52.2575 Z-0.2175 I0.0012 J0.0004
X-3.5328 Y52.2599 I-0.0003 J0.0012
X-3.5321 Y52.2575 I0.0003 J-0.0012
X-3.5317 Y52.2582 I-0.0002 J0.0006
G1 X-3.5325 Y52.2587
G0 Z0.4
X-3.7731 Y51.3805
Z0.1143
G1 Z0.05 F40.
Y51.3883
G3 X-3.7809 Y51.3961 I-0.0078 J0.
Y51.3649 Z0.0335 I0. J-0.0156
X-3.7654 Y51.379 Z0.0257 I0. J0.0156
X-3.7964 Y51.382 Z0.0091 I-0.0155 J0.0015
X-3.7839 Y51.3652 Z0.0014 I0.0155 J-0.0015
X-3.7779 Y51.3958 Z-0.0152 I0.003 J0.0153
X-3.7959 Y51.3849 Z-0.023 I-0.003 J-0.0153
X-3.7659 Y51.3761 Z-0.0395 I0.015 J-0.0044
X-3.7751 Y51.3949 Z-0.0473 I-0.015 J0.0044
X-3.7867 Y51.366 Z-0.0638 I-0.0058 J-0.0145
X-3.7751 Y51.3949 Z-0.0804 I0.0058 J0.0145
X-3.7867 Y51.366 Z-0.0969 I-0.0058 J-0.0145
X-3.7751 Y51.3949 Z-0.1135 I0.0058 J0.0145
X-3.7867 Y51.366 Z-0.13 I-0.0058 J-0.0145
X-3.7751 Y51.3949 Z-0.1466 I0.0058 J0.0145
X-3.7867 Y51.366 Z-0.1631 I-0.0058 J-0.0145
X-3.7751 Y51.3949 Z-0.1797 I0.0058 J0.0145
X-3.7937 Y51.3715 Z-0.1932 I-0.0058 J-0.0145
X-3.7681 Y51.3895 Z-0.2097 I0.0128 J0.009
X-3.7886 Y51.394 Z-0.2175 I-0.0128 J-0.009
X-3.7732 Y51.3669 I0.0077 J-0.0136
X-3.7886 Y51.394 I-0.0077 J0.0136
X-3.7915 Y51.3834 I0.0039 J-0.0068
G1 X-3.7877 Y51.3766
G0 Z0.4
X-3.677 Y50.6584
Z0.1143
G1 Z0.05 F40.
Y50.6663
G3 X-3.6848 Y50.6741 I-0.0078 J0.
Y50.6429 Z0.0335 I0. J-0.0156
X-3.6693 Y50.657 Z0.0257 I0. J0.0156
X-3.7004 Y50.6599 Z0.0091 I-0.0155 J0.0015
X-3.6693 Y50.657 Z-0.0074 I0.0155 J-0.0015
X-3.6998 Y50.6629 Z-0.023 I-0.0155 J0.0015
X-3.6699 Y50.654 Z-0.0395 I0.015 J-0.0044
X-3.679 Y50.6729 Z-0.0473 I-0.015 J0.0044
X-3.6907 Y50.644 Z-0.0638 I-0.0058 J-0.0145
X-3.679 Y50.6729 Z-0.0804 I0.0058 J0.0145
X-3.6907 Y50.644 Z-0.0969 I-0.0058 J-0.0145
X-3.679 Y50.6729 Z-0.1135 I0.0058 J0.0145
X-3.6907 Y50.644 Z-0.13 I-0.0058 J-0.0145
X-3.679 Y50.6729 Z-0.1466 I0.0058 J0.0145
X-3.6907 Y50.644 Z-0.1631 I-0.0058 J-0.0145
X-3.679 Y50.6729 Z-0.1797 I0.0058 J0.0145
X-3.6976 Y50.6495 Z-0.1932 I-0.0058 J-0.0145
X-3.6721 Y50.6674 Z-0.2097 I0.0128 J0.009
X-3.6926 Y50.672 Z-0.2175 I-0.0128 J-0.009
X-3.6771 Y50.6449 I0.0077 J-0.0136
X-3.6926 Y50.672 I-0.0077 J0.0136
X-3.6955 Y50.6614 I0.0039 J-0.0068
G1 X-3.6916 Y50.6546
G0 Z0.4
X-3.6191 Y50.018
Z0.1143
G1 Z0.05 F40.
X-3.6185 Y50.0186
G3 X-3.6191 Y50.0192 I-0.0006 J0.
Y50.0167 Z0.036 I0. J-0.0012
X-3.6179 Y50.0178 Z0.0294 I0. J0.0012
X-3.6204 Y50.0181 Z0.0154 I-0.0012 J0.0001
X-3.6194 Y50.0167 Z0.0088 I0.0012 J-0.0001
X-3.6189 Y50.0192 Z-0.0052 I0.0003 J0.0012
X-3.6203 Y50.0183 Z-0.0117 I-0.0002 J-0.0012
X-3.6179 Y50.0176 Z-0.0258 I0.0012 J-0.0004
X-3.6186 Y50.0191 Z-0.0323 I-0.0012 J0.0004
X-3.6196 Y50.0168 Z-0.0463 I-0.0005 J-0.0011
X-3.618 Y50.0174 Z-0.0529 I0.0005 J0.0011
X-3.6202 Y50.0186 Z-0.0669 I-0.0011 J0.0006
X-3.6198 Y50.0169 Z-0.0735 I0.0011 J-0.0006
X-3.6184 Y50.019 Z-0.0875 I0.0007 J0.001
X-3.6201 Y50.0188 Z-0.094 I-0.0007 J-0.001
X-3.6182 Y50.0172 Z-0.1081 I0.001 J-0.0008
Y50.0188 Z-0.1146 I-0.001 J0.0008
X-3.62 Y50.0171 Z-0.1286 I-0.0009 J-0.0009
X-3.6184 Y50.017 Z-0.1352 I0.0009 J0.0009
X-3.6199 Y50.019 Z-0.1492 I-0.0008 J0.001
X-3.6202 Y50.0173 Z-0.1558 I0.0008 J-0.001
X-3.6181 Y50.0186 Z-0.1698 I0.0011 J0.0007
X-3.6197 Y50.0191 Z-0.1763 I-0.0011 J-0.0007
X-3.6186 Y50.0168 Z-0.1904 I0.0006 J-0.0011
X-3.618 Y50.0184 Z-0.1969 I-0.0006 J0.0011
X-3.6203 Y50.0175 Z-0.2109 I-0.0012 J-0.0004
X-3.6188 Y50.0168 Z-0.2175 I0.0012 J0.0004
X-3.6195 Y50.0192 I-0.0003 J0.0012
X-3.6188 Y50.0168 I0.0003 J-0.0012
X-3.6184 Y50.0175 I-0.0002 J0.0006
G1 X-3.6191 Y50.018
G0 Z0.4
X-2.7322 Y48.2599
Z0.1143
G1 Z0.05 F40.
Y48.2678
G3 X-2.74 Y48.2756 I-0.0078 J0.
Y48.2444 Z0.0335 I0. J-0.0156
X-2.7245 Y48.2585 Z0.0257 I0. J0.0156
X-2.7556 Y48.2614 Z0.0091 I-0.0155 J0.0015
X-2.7245 Y48.2585 Z-0.0074 I0.0155 J-0.0015
X-2.755 Y48.2644 Z-0.023 I-0.0155 J0.0015
X-2.7251 Y48.2555 Z-0.0395 I0.015 J-0.0044
X-2.7342 Y48.2744 Z-0.0473 I-0.015 J0.0044
X-2.7459 Y48.2455 Z-0.0638 I-0.0058 J-0.0145
X-2.7342 Y48.2744 Z-0.0804 I0.0058 J0.0145
X-2.7459 Y48.2455 Z-0.0969 I-0.0058 J-0.0145
X-2.7342 Y48.2744 Z-0.1135 I0.0058 J0.0145
X-2.7459 Y48.2455 Z-0.13 I-0.0058 J-0.0145
X-2.7342 Y48.2744 Z-0.1466 I0.0058 J0.0145
X-2.7459 Y48.2455 Z-0.1631 I-0.0058 J-0.0145
X-2.7342 Y48.2744 Z-0.1797 I0.0058 J0.0145
X-2.7528 Y48.251 Z-0.1932 I-0.0058 J-0.0145
X-2.7273 Y48.2689 Z-0.2097 I0.0128 J0.009
X-2.7478 Y48.2735 Z-0.2175 I-0.0128 J-0.009
X-2.7323 Y48.2464 I0.0077 J-0.0136
X-2.7478 Y48.2735 I-0.0077 J0.0136
X-2.7507 Y48.2629 I0.0039 J-0.0068
G1 X-2.7468 Y48.2561
G0 Z0.4
X-1.557 Y47.5885
Z0.1143
G1 Z0.05 F40.
X-1.5563 Y47.5891
G3 X-1.557 Y47.5897 I-0.0006 J0.
Y47.5872 Z0.036 I0. J-0.0012
X-1.5557 Y47.5884 Z0.0294 I0. J0.0012
X-1.5582 Y47.5886 Z0.0154 I-0.0012 J0.0001
X-1.5572 Y47.5873 Z0.0088 I0.0012 J-0.0001
X-1.5567 Y47.5897 Z-0.0052 I0.0003 J0.0012
X-1.5582 Y47.5889 Z-0.0117 I-0.0003 J-0.0012
X-1.5558 Y47.5881 Z-0.0258 I0.0012 J-0.0004
X-1.5565 Y47.5896 Z-0.0323 I-0.0012 J0.0004
X-1.5575 Y47.5873 Z-0.0463 I-0.0005 J-0.0011
X-1.5559 Y47.5879 Z-0.0529 I0.0005 J0.0011
X-1.5581 Y47.5891 Z-0.0669 I-0.0011 J0.0006
X-1.5577 Y47.5875 Z-0.0735 I0.0011 J-0.0006
X-1.5563 Y47.5895 Z-0.0875 I0.0007 J0.001
X-1.5579 Y47.5893 Z-0.094 I-0.0007 J-0.001
X-1.556 Y47.5877 Z-0.1081 I0.001 J-0.0008
X-1.5561 Y47.5894 Z-0.1146 I-0.001 J0.0008
X-1.5579 Y47.5876 Z-0.1286 I-0.0009 J-0.0009
X-1.5562 Y47.5875 Z-0.1352 I0.0009 J0.0009
X-1.5577 Y47.5895 Z-0.1492 I-0.0008 J0.001
X-1.558 Y47.5878 Z-0.1558 I0.0008 J-0.001
X-1.5559 Y47.5892 Z-0.1698 I0.0011 J0.0007
X-1.5575 Y47.5896 Z-0.1763 I-0.0011 J-0.0007
X-1.5564 Y47.5874 Z-0.1904 I0.0006 J-0.0011
X-1.5558 Y47.5889 Z-0.1969 I-0.0006 J0.0011
X-1.5581 Y47.5881 Z-0.2109 I-0.0012 J-0.0004
X-1.5566 Y47.5873 Z-0.2175 I0.0012 J0.0004
X-1.5573 Y47.5897 I-0.0003 J0.0012
X-1.5566 Y47.5873 I0.0003 J-0.0012
X-1.5562 Y47.5881 I-0.0002 J0.0006
G1 X-1.557 Y47.5885
G0 Z0.4
X0.0078 Y47.125
Z0.1143
G1 Z0.05 F40.
Y47.1328
G3 X0. Y47.1406 I-0.0078 J0.
Y47.1094 Z0.0335 I0. J-0.0156
X0.0155 Y47.1235 Z0.0257 I0. J0.0156
X-0.0155 Y47.1265 Z0.0091 I-0.0155 J0.0015
X0.0155 Y47.1235 Z-0.0074 I0.0155 J-0.0015
X-0.015 Y47.1294 Z-0.023 I-0.0155 J0.0015
X0.015 Y47.1206 Z-0.0395 I0.015 J-0.0044
X0.0058 Y47.1395 Z-0.0473 I-0.015 J0.0044
X-0.0058 Y47.1105 Z-0.0638 I-0.0058 J-0.0145
X0.0058 Y47.1395 Z-0.0804 I0.0058 J0.0145
X-0.0058 Y47.1105 Z-0.0969 I-0.0058 J-0.0145
X0.0058 Y47.1395 Z-0.1135 I0.0058 J0.0145
X-0.0058 Y47.1105 Z-0.13 I-0.0058 J-0.0145
X0.0058 Y47.1395 Z-0.1466 I0.0058 J0.0145
X-0.0058 Y47.1105 Z-0.1631 I-0.0058 J-0.0145
X0.0058 Y47.1395 Z-0.1797 I0.0058 J0.0145
X-0.0128 Y47.116 Z-0.1932 I-0.0058 J-0.0145
X0.0128 Y47.134 Z-0.2097 I0.0128 J0.009
X-0.0077 Y47.1386 Z-0.2175 I-0.0128 J-0.009
X0.0077 Y47.1114 I0.0077 J-0.0136
X-0.0077 Y47.1386 I-0.0077 J0.0136
X-0.0106 Y47.1279 I0.0039 J-0.0068
G1 X-0.0068 Y47.1211
G0 Z0.4
X1.557 Y47.5885
Z0.1143
G1 Z0.05 F40.
X1.5576 Y47.5891
G3 X1.557 Y47.5897 I-0.0006 J0.
Y47.5872 Z0.036 I0. J-0.0012
X1.5582 Y47.5884 Z0.0294 I0. J0.0012
X1.5557 Y47.5886 Z0.0154 I-0.0012 J0.0001
X1.5567 Y47.5873 Z0.0088 I0.0012 J-0.0001
X1.5572 Y47.5897 Z-0.0052 I0.0003 J0.0012
X1.5558 Y47.5889 Z-0.0117 I-0.0003 J-0.0012
X1.5582 Y47.5881 Z-0.0258 I0.0012 J-0.0004
X1.5575 Y47.5896 Z-0.0323 I-0.0012 J0.0004
X1.5565 Y47.5873 Z-0.0463 I-0.0005 J-0.0011
X1.5581 Y47.5879 Z-0.0529 I0.0005 J0.0011
X1.5559 Y47.5891 Z-0.0669 I-0.0011 J0.0006
X1.5563 Y47.5875 Z-0.0735 I0.0011 J-0.0006
X1.5577 Y47.5895 Z-0.0875 I0.0007 J0.001
X1.556 Y47.5893 Z-0.094 I-0.0007 J-0.001
X1.5579 Y47.5877 Z-0.1081 I0.001 J-0.0008
Y47.5894 Z-0.1146 I-0.001 J0.0008
X1.5561 Y47.5876 Z-0.1286 I-0.0009 J-0.0009
X1.5577 Y47.5875 Z-0.1352 I0.0009 J0.0009
X1.5562 Y47.5895 Z-0.1492 I-0.0008 J0.001
X1.5559 Y47.5878 Z-0.1558 I0.0008 J-0.001
X1.558 Y47.5892 Z-0.1698 I0.0011 J0.0007
X1.5564 Y47.5896 Z-0.1763 I-0.0011 J-0.0007
X1.5575 Y47.5874 Z-0.1904 I0.0006 J-0.0011
X1.5581 Y47.5889 Z-0.1969 I-0.0006 J0.0011
X1.5558 Y47.5881 Z-0.2109 I-0.0012 J-0.0004
X1.5573 Y47.5873 Z-0.2175 I0.0012 J0.0004
X1.5566 Y47.5897 I-0.0003 J0.0012
X1.5573 Y47.5873 I0.0003 J-0.0012
X1.5577 Y47.5881 I-0.0002 J0.0006
G1 X1.557 Y47.5885
G0 Z0.4
X2.7478 Y48.2599
Z0.1143
G1 Z0.05 F40.
Y48.2678
G3 X2.74 Y48.2756 I-0.0078 J0.
Y48.2444 Z0.0335 I0. J-0.0156
X2.7556 Y48.2585 Z0.0257 I0. J0.0156
X2.7245 Y48.2614 Z0.0091 I-0.0155 J0.0015
X2.7556 Y48.2585 Z-0.0074 I0.0155 J-0.0015
X2.7251 Y48.2644 Z-0.023 I-0.0155 J0.0015
X2.755 Y48.2555 Z-0.0395 I0.015 J-0.0044
X2.7459 Y48.2744 Z-0.0473 I-0.015 J0.0044
X2.7342 Y48.2455 Z-0.0638 I-0.0058 J-0.0145
X2.7459 Y48.2744 Z-0.0804 I0.0058 J0.0145
X2.7342 Y48.2455 Z-0.0969 I-0.0058 J-0.0145
X2.7459 Y48.2744 Z-0.1135 I0.0058 J0.0145
X2.7342 Y48.2455 Z-0.13 I-0.0058 J-0.0145
X2.7459 Y48.2744 Z-0.1466 I0.0058 J0.0145
X2.7342 Y48.2455 Z-0.1631 I-0.0058 J-0.0145
X2.7459 Y48.2744 Z-0.1797 I0.0058 J0.0145
X2.7273 Y48.251 Z-0.1932 I-0.0058 J-0.0145
X2.7528 Y48.2689 Z-0.2097 I0.0128 J0.009
X2.7323 Y48.2735 Z-0.2175 I-0.0128 J-0.009
X2.7478 Y48.2464 I0.0077 J-0.0136
X2.7323 Y48.2735 I-0.0077 J0.0136
X2.7294 Y48.2629 I0.0039 J-0.0068
G1 X2.7333 Y48.2561
G0 Z0.6
(.3 CIRCULAR THROUGH HOLE)
M7
G0 X-0.0186 Y50.9555
Z0.6
Z0.2
G1 Z0.1151 F13.333
G3 X-0.0172 Y50.9557 Z0.1085 I-0.0051 J0.0447 F55.
X-0.0131 Y50.9565 Z0.1031 I-0.0066 J0.0445
X-0.0074 Y50.9583 Z0.1 I-0.0106 J0.0437
X0.0212 Y51.0002 Z0.0855 I-0.0164 J0.0419
X-0.0508 Y51.0362 Z0.0588 I-0.045 J0.
Y50.9642 Z0.0365 I0.027 J-0.036
X0.0032 Y51.0362 Z-0.0014 I0.027 J0.036
X-0.0508 Z-0.0169 I-0.027 J-0.036
Y50.9642 Z-0.0393 I0.027 J-0.036
X0.0032 Y51.0362 Z-0.0772 I0.027 J0.036
X-0.0508 Z-0.0927 I-0.027 J-0.036
Y50.9642 Z-0.115 I0.027 J-0.036
X0.0032 Y51.0362 Z-0.1529 I0.027 J0.036
X-0.0508 Z-0.1684 I-0.027 J-0.036
Y50.9642 Z-0.1908 I0.027 J-0.036
X0.0212 Y51.0002 Z-0.2175 I0.027 J0.036
X-0.0212 I-0.0212 J0. F60.
X0.1212 I0.0712 J0.
X-0.1212 I-0.1212 J0.
X0.2212 I0.1712 J0.
X-0.2212 I-0.2212 J0.
X0.3212 I0.2712 J0.
X-0.3212 I-0.3212 J0.
X0.4212 I0.3712 J0.
X-0.4212 I-0.4212 J0.
X0.5212 I0.4712 J0.
X-0.5212 I-0.5212 J0.
X0.5212 I0.5212 J0.
G2 X0.5659 Y51.0706 I0.0779 J0.
G3 X0.6019 Y51.1458 I-0.0282 J0.0597
X0. Y51.6196 I-0.6021 J-0.1456
Y50.3808 I0.0002 J-0.6194
X0.6019 Y51.1458 I-0.0002 J0.6194
G2 X0.6049 Y51.1542 I0.0079 J0.0019
G3 X0.6079 Y51.1627 I-0.0047 J0.0064
X0. Y51.6296 I-0.6081 J-0.1625
Y50.3708 I0.0002 J-0.6294
X0.6079 Y51.1627 I-0.0002 J0.6294
X0.6053 Y51.1681 Z-0.2163 I-0.0151 J-0.004
X0.6016 Y51.1716 Z-0.2129 I-0.0125 J-0.0094
X0.5987 Y51.1732 Z-0.2078 I-0.0089 J-0.0129
X0.5975 Y51.1736 Z-0.2019 I-0.0059 J-0.0145
G0 Z0.6
(SHAPE POCKET)
M7
G0 X1.4081 Y51.4309
Z0.6
Z0.0013
G1 Z-0.0144 F50.
X1.408 Y51.4306 Z-0.0174
X1.4078 Y51.4297 Z-0.0203
X1.4075 Y51.4283 Z-0.023
X1.407 Y51.4265 Z-0.0254
X1.4064 Y51.4242 Z-0.0274
X1.4057 Y51.4215 Z-0.0288
X1.405 Y51.4187 Z-0.0297
X1.4042 Y51.4157 Z-0.03
G3 X1.392 Y51.3305 I0.387 J-0.0991
X1.5973 Y51.2411 I0.1446 J0.0516 F60.
G1 X1.597 Y51.2442
X1.5962 Y51.2471
X1.5949 Y51.2498
X1.5931 Y51.2523
X1.5909 Y51.2543
X1.5884 Y51.2559
X1.5856 Y51.257
X1.5827 Y51.2576
X1.5798 Y51.2577
X1.5769 Y51.2572
X1.5742 Y51.2562
X1.5718 Y51.2548
X1.5692 Y51.2531 Z-0.0297
X1.5668 Y51.2514 Z-0.0288
X1.5645 Y51.2499 Z-0.0274
X1.5625 Y51.2486 Z-0.0254
X1.5609 Y51.2475 Z-0.023
X1.5597 Y51.2467 Z-0.0203
X1.559 Y51.2463 Z-0.0174
X1.5587 Y51.2461 Z-0.0144
G0 Z0.4
X1.2631 Y51.4409
Z0.0013
G1 Z-0.0144 F50.
X1.263 Y51.4406 Z-0.0174
X1.2627 Y51.4397 Z-0.0203
X1.2623 Y51.4383 Z-0.023
X1.2618 Y51.4365 Z-0.0254
X1.2611 Y51.4342 Z-0.0274
X1.2604 Y51.4316 Z-0.0288
X1.2596 Y51.4288 Z-0.0297
X1.2587 Y51.4259 Z-0.03
G3 X1.2558 Y51.3398 I0.1665 J-0.0486
G1 X1.2564 Y51.3377 F60.
X1.262 Y51.3143
X1.2685 Y51.3022
X1.2755 Y51.2904
X1.283 Y51.2789
X1.291 Y51.2678
X1.2995 Y51.257
X1.3085 Y51.2466
X1.3179 Y51.2366
X1.3277 Y51.227
X1.3379 Y51.2178
X1.3485 Y51.2092
X1.3595 Y51.2009
X1.3708 Y51.1932
X1.3825 Y51.1859
X1.3945 Y51.1792
X1.4067 Y51.173
X1.4192 Y51.1674
X1.4319 Y51.1623
X1.4449 Y51.1577
X1.458 Y51.1537
X1.4713 Y51.1503
X1.4847 Y51.1475
X1.4983 Y51.1453
X1.5119 Y51.1436
X1.5256 Y51.1426
X1.5393 Y51.1421
X1.553 Y51.1423
X1.5667 Y51.143
X1.5804 Y51.1443
X1.594 Y51.1463
X1.6075 Y51.1488
X1.5987 Y51.2207
X1.5958 Y51.2446
G3 X1.5857 Y51.2565 I-0.0154 J-0.0028
X1.5489 Y51.223 I-0.0095 J-0.0265
X1.5831 Y51.1759 I0.0763 J0.0194
X1.5961 Y51.1693 I0.0421 J0.0665 F50.
G2 X1.6057 Y51.157 I-0.0058 J-0.0145
G1 X1.6079 Y51.1376 F60.
X1.6044 Y51.1294
X1.6003 Y51.1214
X1.5957 Y51.1138
X1.5906 Y51.1064
X1.585 Y51.0994
X1.579 Y51.0928
X1.5725 Y51.0866
X1.5656 Y51.0809
X1.5584 Y51.0756
X1.5508 Y51.0709
X1.5429 Y51.0667
X1.5347 Y51.063
X1.5264 Y51.0599
X1.5178 Y51.0573
X1.509 Y51.0553
X1.5002 Y51.054
X1.4913 Y51.0532
X1.4824 Y51.053
X1.4734 Y51.0534
X1.4645 Y51.0545
X1.4557 Y51.0561
X1.4471 Y51.0583
X1.4386 Y51.0611
X1.4303 Y51.0645
X1.4222 Y51.0684
X1.4145 Y51.0728
X1.4071 Y51.0778
X1.4 Y51.0833
G2 X1.2919 Y51.1395 I-0.0148 J0.1035
G3 X1.262 Y51.3143 I-0.9142 J-0.0665
G2 X1.2674 Y51.329 I0.0154 J0.0026
X1.3285 Y51.3213 I0.0269 J-0.0325
X1.3104 Y51.1624 I-0.0954 J-0.0696
X1.2988 Y51.1536 I-0.0773 J0.0893 F50.
G3 X1.2919 Y51.1395 I0.0087 J-0.013
G1 X1.2968 Y51.0908 F60.
G3 X1.614 Y51.0066 I0.193 J0.0872
X1.608 Y51.1377 I-1.5263 J-0.0041
G1 X1.6072 Y51.1406
X1.6059 Y51.1434
X1.6041 Y51.1459
X1.6018 Y51.148
X1.5991 Y51.1495
X1.5962 Y51.1506
X1.5932 Y51.151
X1.5901 Y51.1509
G3 X1.5779 Y51.1406 I0.0022 J-0.015
X1.5966 Y51.0313 I0.1121 J-0.0372
X1.6091 Y51.0175 I0.0935 J0.0722 F50.
G2 X1.614 Y51.0066 I-0.0107 J-0.0114
G1 X1.6139 Y50.9867 F60.
X1.6134 Y50.9739
G2 X1.3003 Y50.9389 I-0.1683 J0.0878
G1 X1.2993 Y50.9399
X1.2994 Y51.0569
X1.2979 Y51.0803
X1.2968 Y51.0908
G2 X1.3227 Y51.1036 I0.0156 J0.001
X1.3472 Y51.0597 I-0.0492 J-0.0561
X1.3184 Y50.9613 I-0.1165 J-0.0194
X1.3049 Y50.9485 I-0.0878 J0.0791 F50.
G3 X1.2992 Y50.938 I0.0098 J-0.0122
G1 X1.2976 Y50.9165 F60.
X1.2969 Y50.9095
G3 X1.5305 Y50.7862 I0.172 J0.0429
X1.603 Y50.8185 I-0.014 J0.1291
G1 X1.6087 Y50.8697
X1.6104 Y50.8931
X1.6134 Y50.9739
G3 X1.6056 Y50.9874 I-0.0156 J0.
X1.5505 Y50.9663 I-0.019 J-0.0328
X1.5848 Y50.8415 I0.1124 J-0.0362
X1.5963 Y50.8326 I0.0781 J0.0886 F50.
G2 X1.603 Y50.8185 I-0.0088 J-0.0129
G1 X1.5984 Y50.7761 F60.
X1.5967 Y50.7633
X1.5689 Y50.7768
X1.3247 Y50.8959
X1.2969 Y50.9095 F50.
G2 X1.2641 Y50.6967 I-1.0811 J0.0578 F60.
G3 X1.2832 Y50.6789 I0.0154 J-0.0026
G1 X1.2862 Y50.6796 Z-0.0297
X1.289 Y50.6803 Z-0.0288
X1.2916 Y50.6809 Z-0.0274
X1.294 Y50.6814 Z-0.0254
X1.2958 Y50.6819 Z-0.023
X1.2973 Y50.6822 Z-0.0203
X1.2981 Y50.6824 Z-0.0174
X1.2984 Y50.6825 Z-0.0144
G0 Z0.6
X-0.4307 Y49.6378
Z0.0013
G1 Z-0.0144 F50.
X-0.4304 Y49.6377 Z-0.0174
X-0.4295 Y49.6375 Z-0.0203
X-0.4281 Y49.6371 Z-0.023
X-0.4262 Y49.6367 Z-0.0254
X-0.4239 Y49.6361 Z-0.0274
X-0.4213 Y49.6354 Z-0.0288
X-0.4185 Y49.6347 Z-0.0297
X-0.4155 Y49.6339 Z-0.03
G3 X-0.3303 Y49.6217 I0.0991 J0.387
X-0.2585 Y49.7285 I-0.0069 J0.0822 F60.
G1 X-0.3021 Y49.7354
G3 X-0.3203 Y49.7211 I-0.0026 J-0.0154
G1 X-0.3207 Y49.7162
X-0.3406 Y49.4411
X-0.3411 Y49.4331 F50.
G3 X-0.3284 Y49.4166 I0.0156 J-0.0011
G1 X-0.3069 Y49.4134 F60.
G3 X-0.1661 Y49.7107 I-0.3871 J0.3653
G1 X-0.1889 Y49.7133
X-0.2125 Y49.7173
X-0.2623 Y49.7273
G3 X-0.2803 Y49.7144 I-0.0026 J-0.0154
X-0.27 Y49.6954 I0.0175 J-0.0029
X-0.2017 Y49.6975 I0.0319 J0.072
X-0.1864 Y49.708 I-0.0364 J0.0698 F50.
G2 X-0.175 Y49.7118 I0.0103 J-0.0118
G1 X-0.1581 Y49.7101 F60.
X-0.1509 Y49.7051
X-0.144 Y49.6996
X-0.1375 Y49.6937
X-0.1314 Y49.6873
X-0.1258 Y49.6805
X-0.1207 Y49.6733
X-0.1161 Y49.6659
X-0.112 Y49.6581
X-0.1084 Y49.65
X-0.1055 Y49.6417
X-0.1031 Y49.6333
X-0.1013 Y49.6247
X-0.1001 Y49.6159
X-0.0995 Y49.6072
Y49.5984
X-0.1001 Y49.5896
X-0.1014 Y49.5809
X-0.1032 Y49.5723
X-0.1056 Y49.5638
X-0.1086 Y49.5556
X-0.1122 Y49.5475
X-0.1163 Y49.5398
X-0.1209 Y49.5323
X-0.1261 Y49.5252
X-0.1317 Y49.5184
X-0.1378 Y49.5121
X-0.1443 Y49.5062
G2 X-0.191 Y49.3987 I-0.1479 J0.0004
G1 X-0.1951 Y49.3984
X-0.2361 Y49.4029
X-0.2383 Y49.4032
G2 X-0.2502 Y49.4133 I0.0028 J0.0154
X-0.2334 Y49.4314 I0.0131 J0.0047
X-0.2151 Y49.4203 I-0.0105 J-0.0379
X-0.2074 Y49.4081 I-0.0288 J-0.0268 F50.
G3 X-0.1951 Y49.3984 I0.0145 J0.0058
G1 X-0.1653 Y49.3951 F60.
X-0.1542 Y49.3986
X-0.1434 Y49.4026
X-0.1328 Y49.4073
X-0.1224 Y49.4125
X-0.1124 Y49.4182
X-0.1026 Y49.4245
X-0.0933 Y49.4313
X-0.0842 Y49.4386
X-0.0756 Y49.4464
X-0.0675 Y49.4546
X-0.0598 Y49.4632
X-0.0525 Y49.4722
X-0.0458 Y49.4816
X-0.0395 Y49.4914
X-0.0338 Y49.5015
X-0.0286 Y49.5118
X-0.0241 Y49.5225
X-0.02 Y49.5333
X-0.0166 Y49.5444
X-0.0138 Y49.5556
X-0.0115 Y49.567
X-0.0099 Y49.5785
X-0.0089 Y49.59
X-0.0085 Y49.6016
X-0.0088 Y49.6131
X-0.0096 Y49.6247
X-0.0111 Y49.6362
X-0.0132 Y49.6476
X-0.0159 Y49.6588
X-0.0191 Y49.6699
X-0.023 Y49.6808
X-0.0275 Y49.6915
X-0.0325 Y49.702
X-0.0472 Y49.7005
X-0.0708 Y49.701
X-0.1581 Y49.7101
G3 X-0.1722 Y49.7032 I-0.0011 J-0.0156
X-0.1663 Y49.6669 I0.0223 J-0.015
X-0.0567 Y49.68 I0.0482 J0.0623
X-0.0487 Y49.6922 I-0.0615 J0.0492 F50.
G2 X-0.0354 Y49.7005 I0.0138 J-0.0074
G1 X-0.0106 F60.
X-0.0018 Y49.6958
X0.0066 Y49.6906
X0.0147 Y49.6849
X0.0225 Y49.6787
X0.0299 Y49.6721
X0.0368 Y49.665
X0.0432 Y49.6574
X0.0492 Y49.6495
X0.0547 Y49.6412
X0.0596 Y49.6326
X0.064 Y49.6237
X0.0678 Y49.6146
X0.0711 Y49.6052
X0.0737 Y49.5956
X0.0758 Y49.5859
X0.0772 Y49.5761
X0.078 Y49.5662
X0.0782 Y49.5563
X0.0778 Y49.5464
X0.0767 Y49.5366
X0.0751 Y49.5268
X0.0728 Y49.5171
X0.07 Y49.5076
X0.0665 Y49.4983
X0.0625 Y49.4893
X0.0579 Y49.4805
X0.0527 Y49.472
X0.0471 Y49.4639
X0.041 Y49.4561
X0.0343 Y49.4487
X0.0273 Y49.4418
G2 X-0.006 Y49.386 I-0.0419 J-0.0128
G1 X-0.118 Y49.3899
X-0.1653 Y49.3951
G2 X-0.1775 Y49.4048 I0.0023 J0.0155
X-0.1484 Y49.4586 I0.037 J0.0148
X-0.0261 Y49.4074 I0.0234 J-0.1158
X-0.0189 Y49.3948 I-0.0989 J-0.0646 F50.
G3 X-0.006 Y49.386 I0.0141 J0.0069
G1 X0. Y49.3858 F60.
X0.0366 Y49.3871
X0.047 Y49.3911
X0.0571 Y49.3957
X0.067 Y49.4008
X0.0766 Y49.4065
X0.0858 Y49.4127
X0.0947 Y49.4194
X0.1032 Y49.4265
X0.1113 Y49.4342
X0.119 Y49.4423
X0.1262 Y49.4507
X0.1329 Y49.4596
X0.1391 Y49.4688
X0.1448 Y49.4784
X0.15 Y49.4883
X0.1546 Y49.4984
X0.1586 Y49.5088
X0.162 Y49.5193
X0.1649 Y49.5301
X0.1672 Y49.541
X0.1688 Y49.552
X0.1699 Y49.5631
X0.1703 Y49.5742
X0.1701 Y49.5853
X0.1693 Y49.5964
X0.1679 Y49.6075
X0.1658 Y49.6184
X0.1632 Y49.6292
X0.16 Y49.6399
X0.1561 Y49.6503
X0.1518 Y49.6605
X0.1468 Y49.6705
X0.1413 Y49.6802
X0.1353 Y49.6895
X0.1288 Y49.6985
X0.1217 Y49.7072
X0.0708 Y49.701
X0.0472 Y49.7005
X-0.0106
G3 X-0.0239 Y49.6922 I0.0005 J-0.0156
X-0.0208 Y49.671 I0.016 J-0.0085
X0.1015 Y49.6837 I0.0561 J0.0552
X0.1082 Y49.6965 I-0.0663 J0.0425 F50.
G2 X0.1206 Y49.7062 I0.0145 J-0.0059
G1 X0.1488 Y49.7091 F60.
G2 X0.2504 Y49.4794 I-0.0508 J-0.1598
X0.2113 Y49.4002 I-0.1566 J0.0281
G1 X0.1417 Y49.3925
X0.118 Y49.3899
X0.0366 Y49.3871
G2 X0.0231 Y49.3949 I0. J0.0156
X0.0188 Y49.4087 I0.0279 J0.0161
G1 X0.0187 Y49.411
G2 X0.0326 Y49.4375 I0.0322 J0.
X0.1882 Y49.4184 I0.067 J-0.0972
X0.1972 Y49.4069 I-0.0886 J-0.0781 F50.
G3 X0.2113 Y49.4002 I0.0129 J0.0088
G1 X0.2361 Y49.4029 F60.
X0.2383 Y49.4032
G3 X0.2485 Y49.4273 I-0.0028 J0.0154
G1 X0.1202 Y49.6974
G2 X0.1488 Y49.7091 I0.0372 J-0.05 F50.
G1 X0.1889 Y49.7133 F60.
X0.2125 Y49.7173
X0.3021 Y49.7354
G2 X0.3179 Y49.7284 I0.0026 J-0.0154
G1 X0.3195 Y49.7258 Z-0.0297
X0.3211 Y49.7233 Z-0.0288
X0.3226 Y49.721 Z-0.0274
X0.3238 Y49.719 Z-0.0254
X0.3249 Y49.7174 Z-0.023
X0.3257 Y49.7162 Z-0.0203
X0.3261 Y49.7154 Z-0.0174
X0.3263 Y49.7152 Z-0.0144
G0 Z0.6
X-1.4186 Y50.5682
Z0.0013
G1 Z-0.0144 F50.
X-1.4185 Y50.5685 Z-0.0174
X-1.4183 Y50.5693 Z-0.0203
X-1.4179 Y50.5707 Z-0.023
X-1.4175 Y50.5726 Z-0.0254
X-1.4169 Y50.5749 Z-0.0274
X-1.4162 Y50.5775 Z-0.0288
X-1.4155 Y50.5804 Z-0.0297
X-1.4147 Y50.5833 Z-0.03
G3 X-1.4025 Y50.6685 I-0.387 J0.0991
X-1.5972 Y50.7586 I-0.1383 J-0.0434 F60.
G0 X-1.5957 Y50.755 Z0.4
X-1.2643 Y50.5582
Z0.0013
G1 Z-0.0144 F50.
X-1.2642 Y50.5585 Z-0.0174
X-1.2639 Y50.5594 Z-0.0203
X-1.2635 Y50.5607 Z-0.023
X-1.2629 Y50.5626 Z-0.0254
X-1.2622 Y50.5649 Z-0.0274
X-1.2614 Y50.5675 Z-0.0288
X-1.2606 Y50.5703 Z-0.0297
X-1.2597 Y50.5732 Z-0.03
G3 X-1.2555 Y50.6592 I-0.1657 J0.0511
G1 X-1.2612 Y50.6826 F60.
X-1.2682 Y50.6948
X-1.2758 Y50.7067
X-1.2839 Y50.7183
X-1.2924 Y50.7295
X-1.3014 Y50.7404
X-1.3109 Y50.7509
X-1.3208 Y50.761
X-1.3311 Y50.7707
X-1.3418 Y50.7799
X-1.3529 Y50.7886
X-1.3643 Y50.7969
X-1.3761 Y50.8047
X-1.3882 Y50.8121
X-1.4005 Y50.8188
X-1.4132 Y50.8251
X-1.4261 Y50.8308
X-1.4392 Y50.836
X-1.4526 Y50.8407
X-1.4661 Y50.8447
X-1.4798 Y50.8482
X-1.4936 Y50.8511
X-1.5075 Y50.8535
X-1.5216 Y50.8552
X-1.5356 Y50.8564
X-1.5497 Y50.857
X-1.5639
X-1.578 Y50.8563
X-1.592 Y50.8551
X-1.6061 Y50.8533
X-1.6057 Y50.8424
X-1.5984 Y50.7761
X-1.5957 Y50.755
G3 X-1.5858 Y50.7429 I0.0155 J0.0025
X-1.5487 Y50.7757 I0.01 J0.0261
X-1.583 Y50.8235 I-0.0765 J-0.0187
X-1.596 Y50.8301 I-0.0421 J-0.0665 F50.
G2 X-1.6057 Y50.8424 I0.0058 J0.0145
G1 X-1.6075 Y50.8592 F60.
X-1.6045 Y50.8674
X-1.601 Y50.8754
X-1.5969 Y50.8831
X-1.5922 Y50.8905
X-1.587 Y50.8976
X-1.5814 Y50.9043
X-1.5753 Y50.9105
X-1.5687 Y50.9163
X-1.5618 Y50.9216
X-1.5545 Y50.9264
X-1.5468 Y50.9307
X-1.5389 Y50.9344
X-1.5308 Y50.9376
X-1.5224 Y50.9401
X-1.5139 Y50.9421
X-1.5052 Y50.9434
X-1.4965 Y50.9442
X-1.4878 Y50.9443
X-1.4791 Y50.9438
X-1.4704 Y50.9426
X-1.4618 Y50.9409
X-1.4534 Y50.9385
X-1.4452 Y50.9356
X-1.4372 Y50.9321
X-1.4295 Y50.928
X-1.422 Y50.9234
X-1.415 Y50.9182
G2 X-1.2912 Y50.8539 I-0.0004 J-0.1519
G3 X-1.2612 Y50.6826 I0.8895 J0.0675
G2 X-1.2666 Y50.6679 I-0.0154 J-0.0026
X-1.3314 Y50.6778 I-0.028 J0.0336
X-1.3096 Y50.831 I0.0992 J0.0641
X-1.2981 Y50.8398 I0.0775 J-0.0892 F50.
G3 X-1.2912 Y50.8539 I-0.0087 J0.013
G1 X-1.2966 Y50.906 F60.
X-1.3011 Y50.9162
X-1.3062 Y50.9262
X-1.3118 Y50.9359
X-1.3179 Y50.9453
X-1.3246 Y50.9543
X-1.3317 Y50.963
X-1.3392 Y50.9713
X-1.3472 Y50.9791
X-1.3556 Y50.9865
X-1.3644 Y50.9935
X-1.3735 Y51.
X-1.383 Y51.0059
X-1.3928 Y51.0114
X-1.4029 Y51.0163
X-1.4132 Y51.0207
X-1.4237 Y51.0245
X-1.4345 Y51.0277
X-1.4453 Y51.0304
X-1.4563 Y51.0325
X-1.4674 Y51.0339
X-1.4786 Y51.0348
X-1.4898 Y51.0351
X-1.501 Y51.0348
X-1.5122 Y51.0338
X-1.5233 Y51.0323
X-1.5343 Y51.0302
X-1.5451 Y51.0275
X-1.5558 Y51.0242
X-1.5664 Y51.0203
X-1.5767 Y51.0159
X-1.5867 Y51.011
X-1.5965 Y51.0055
X-1.6059 Y50.9995
X-1.615 Y50.993
G3 X-1.6075 Y50.8592 I1.6996 J0.0281
X-1.5898 Y50.846 I0.0155 J0.0023
X-1.5768 Y50.8569 I-0.0023 J0.0159
X-1.5962 Y50.9669 I-0.1122 J0.037
X-1.6089 Y50.9806 I-0.0928 J-0.0731 F50.
G2 X-1.6139 Y50.9915 I0.0106 J0.0115
G1 X-1.614 Y51.0101 F60.
X-1.6135 Y51.023
G2 X-1.3006 Y51.0577 I0.1679 J-0.0859
G1 X-1.2994 Y51.0569
X-1.2993 Y50.9399
X-1.2976 Y50.9165
X-1.2966 Y50.906
G2 X-1.3111 Y50.8893 I-0.0156 J-0.0011
X-1.336 Y50.9036 I-0.0018 J0.0259
X-1.3185 Y51.0354 I0.1056 J0.053
X-1.305 Y51.0482 I0.088 J-0.0788 F50.
G3 X-1.2993 Y51.0587 I-0.0099 J0.0121
G1 X-1.2979 Y51.0803 F60.
X-1.2971 Y51.0874
G3 X-1.5306 Y51.2113 I-0.1721 J-0.0424
X-1.6033 Y51.179 I0.014 J-0.1295
G1 X-1.609 Y51.1271
X-1.6105 Y51.1037
X-1.6135 Y51.023
G3 X-1.6057 Y51.0094 I0.0157 J0.
X-1.5512 Y51.03 I0.0189 J0.0325
X-1.5851 Y51.156 I-0.112 J0.0374
X-1.5965 Y51.1649 I-0.0781 J-0.0886 F50.
G2 X-1.6033 Y51.179 I0.0088 J0.0129
G1 X-1.5987 Y51.2207 F60.
X-1.5965 Y51.2394
X-1.5689 Y51.2254
X-1.3247 Y51.1014
X-1.2971 Y51.0874 F50.
G2 X-1.2645 Y51.3022 I1.1013 J-0.0577 F60.
G3 X-1.2799 Y51.3205 I-0.0154 J0.0026
G1 X-1.2817 Y51.3204
X-1.2836 Y51.32
X-1.2865 Y51.3193 Z-0.0297
X-1.2894 Y51.3186 Z-0.0288
X-1.292 Y51.318 Z-0.0274
X-1.2943 Y51.3174 Z-0.0254
X-1.2962 Y51.317 Z-0.023
X-1.2976 Y51.3166 Z-0.0203
X-1.2985 Y51.3164 Z-0.0174
X-1.2988 Z-0.0144
G0 Z0.6
X0.429 Y52.3524
Z0.0013
G1 Z-0.0144 F50.
X0.4287 Y52.3525 Z-0.0174
X0.4279 Y52.3527 Z-0.0203
X0.4265 Y52.353 Z-0.023
X0.4246 Y52.3535 Z-0.0254
X0.4223 Y52.3541 Z-0.0274
X0.4197 Y52.3548 Z-0.0288
X0.4168 Y52.3555 Z-0.0297
X0.4139 Y52.3563 Z-0.03
G3 X0.3287 Y52.3685 I-0.0991 J-0.387
X0.2614 Y52.271 I0.0062 J-0.0762 F60.
G1 X0.3015 Y52.2647
G3 X0.3197 Y52.279 I0.0026 J0.0154
G1 X0.32 Y52.2839
X0.3408 Y52.5588
X0.3414 Y52.5668 F50.
G3 X0.3286 Y52.5834 I-0.0156 J0.0012
G1 X0.3063 Y52.5867 F60.
G3 X0.2259 Y52.4502 I0.1002 J-0.1509
X0.1735 Y52.2898 I0.0999 J-0.1214
G1 X0.1785 Y52.288
X0.1885 Y52.287
X0.212 Y52.2829
X0.2652 Y52.2721
G3 X0.2805 Y52.2966 I0.0026 J0.0154
X0.2648 Y52.3079 I-0.0245 J-0.0175
X0.2052 Y52.3024 I-0.0231 J-0.0753
X0.1898 Y52.2919 I0.0365 J-0.0698 F50.
G2 X0.1785 Y52.288 I-0.0103 J0.0118
G1 X0.161 Y52.2898 F60.
X0.1541 Y52.2936
X0.1475 Y52.2979
X0.1412 Y52.3028
X0.1354 Y52.308
X0.1299 Y52.3138
X0.125 Y52.3199
X0.1205 Y52.3264
X0.1165 Y52.3332
X0.113 Y52.3402
X0.1101 Y52.3476
X0.1077 Y52.3551
X0.106 Y52.3628
X0.1048 Y52.3706
X0.1042 Y52.3785
X0.1043 Y52.3863
X0.1049 Y52.3942
X0.1062 Y52.402
X0.108 Y52.4097
X0.1104 Y52.4172
X0.1134 Y52.4245
X0.1169 Y52.4315
X0.1209 Y52.4383
X0.1255 Y52.4447
G2 X0.1909 Y52.6014 I0.2949 J-0.0312
G1 X0.195 Y52.6016
X0.2356 Y52.5971
X0.2377 Y52.5968
G2 X0.2497 Y52.5867 I-0.0028 J-0.0154
X0.2328 Y52.5687 I-0.013 J-0.0047
X0.215 Y52.5797 I0.011 J0.0378
X0.2072 Y52.592 I0.0288 J0.0268 F50.
G3 X0.195 Y52.6016 I-0.0145 J-0.0058
G1 X0.1679 Y52.6046 F60.
G3 X0.0313 Y52.3029 I0.0673 J-0.2123
G1 X0.035 Y52.3004
X0.0394 Y52.2995
X0.0471
X0.0707 Y52.299
X0.161 Y52.2898
G3 X0.175 Y52.2967 I0.001 J0.0156
X0.1682 Y52.3347 I-0.023 J0.0155
X0.0607 Y52.32 I-0.046 J-0.0639
X0.0527 Y52.3078 I0.0615 J-0.0492 F50.
G2 X0.0394 Y52.2995 I-0.0138 J0.0074
G1 X0.0164 F60.
X0.0079 Y52.3033
X-0.0003 Y52.3076
X-0.0083 Y52.3124
X-0.0159 Y52.3178
X-0.0232 Y52.3236
X-0.0301 Y52.3298
X-0.0365 Y52.3365
X-0.0426 Y52.3436
X-0.0481 Y52.3511
X-0.0532 Y52.3589
X-0.0577 Y52.3671
X-0.0617 Y52.3755
X-0.0652 Y52.3841
X-0.068 Y52.393
X-0.0703 Y52.402
X-0.0721 Y52.4111
X-0.0732 Y52.4204
X-0.0737 Y52.4296
Y52.4389
X-0.073 Y52.4482
X-0.0717 Y52.4574
X-0.0699 Y52.4666
X-0.0674 Y52.4755
X-0.0644 Y52.4843
X-0.0608 Y52.4929
X-0.0567 Y52.5013
X-0.052 Y52.5093
X-0.0469 Y52.5171
X-0.0412 Y52.5245
G2 X0.0086 Y52.6142 I0.0755 J0.0168
G1 X0.1178 Y52.6101
X0.1414 Y52.6076
X0.1679 Y52.6046
G2 X0.1802 Y52.5949 I-0.0023 J-0.0155
X0.1511 Y52.5413 I-0.0369 J-0.0147
X0.0287 Y52.5928 I-0.0234 J0.1158
X0.0215 Y52.6055 I0.0991 J0.0643 F50.
G3 X0.0086 Y52.6142 I-0.0141 J-0.0068
G1 X0. Y52.6146 F60.
X-0.0365 Y52.6132
G3 X-0.1167 Y52.2943 I0.0808 J-0.1898
G1 X-0.0707 Y52.299
X-0.0471 Y52.2995
X0.0164
G3 X0.0297 Y52.3078 I-0.0005 J0.0156
X0.0275 Y52.3263 I-0.0144 J0.0077
X-0.0976 Y52.3168 I-0.0589 J-0.0522
X-0.1043 Y52.3039 I0.0662 J-0.0427 F50.
G2 X-0.1167 Y52.2943 I-0.0145 J0.0059
G1 X-0.1414 Y52.2918 F60.
G2 X-0.2495 Y52.5074 I0.04 J0.155
X-0.2072 Y52.6003 I0.1806 J-0.0261
G1 X-0.1414 Y52.6076
X-0.1178 Y52.6101
X-0.0365 Y52.6132
G2 X-0.0229 Y52.6054 I0. J-0.0156
X-0.0349 Y52.5589 I-0.0295 J-0.0172
X-0.1842 Y52.582 I-0.0607 J0.1013
X-0.1931 Y52.5935 I0.0886 J0.0781 F50.
G3 X-0.2072 Y52.6003 I-0.0129 J-0.0088
G1 X-0.2356 Y52.5971 F60.
X-0.2377 Y52.5968
G3 X-0.248 Y52.5728 I0.0028 J-0.0154
G1 X-0.1127 Y52.3035
G2 X-0.1414 Y52.2918 I-0.0371 J0.0501 F50.
G1 X-0.1885 Y52.287 F60.
X-0.212 Y52.2829
X-0.3015 Y52.2647
G2 X-0.3172 Y52.2717 I-0.0026 J0.0154
G1 X-0.3189 Y52.2743 Z-0.0297
X-0.3205 Y52.2767 Z-0.0288
X-0.3219 Y52.279 Z-0.0274
X-0.3232 Y52.281 Z-0.0254
X-0.3243 Y52.2826 Z-0.023
X-0.325 Y52.2839 Z-0.0203
X-0.3255 Y52.2846 Z-0.0174
X-0.3257 Y52.2849 Z-0.0144
G0 Z0.6
X3.0672 Y51.6333
Z0.1
G3 X3.0653 Y51.7819 Z0.0588 I-0.0009 J0.0743 F50.
X3.0672 Y51.6333 Z0.0176 I0.0009 J-0.0743
X3.104 Y51.6435 Z0.0108 I-0.0009 J0.0743
X3.1249 Y51.7533 Z-0.0115 I-0.0377 J0.0641
X3.0134 Y51.7598 Z-0.0337 I-0.0586 J-0.0457
X3.0213 Y51.6484 Z-0.056 I0.0529 J-0.0522
X3.1112 Y51.7668 Z-0.0972 I0.0449 J0.0592
X3.0213 Y51.6484 Z-0.1384 I-0.0449 J-0.0592
X3.1406 Y51.7076 Z-0.1675 I0.0449 J0.0592
X2.9919 I-0.0743 J0.
X3.1403 Y51.7014 I0.0743 J0.
G1 X3.1406 Y51.7076
G3 X3.1566 Y51.7682 I-0.0601 J0.0482 F60.
G1 X3.1524 Y51.7711
G2 X3.0427 Y51.8137 I1.1 J2.9903
G3 X2.9231 Y51.6519 I-0.0244 J-0.1071
X3.097 Y51.5889 I0.4341 J0.9268
G1 X3.0997 Y51.5883
X3.101 Y51.588
G3 X3.1221 Y51.5875 I0.0117 J0.0454
X3.1182 Y51.618 I-0.0048 J0.0149
G1 X3.106 Y51.6187
G3 X3.0929 Y51.6128 I-0.0009 J-0.0156
X3.101 Y51.588 I0.0122 J-0.0097 F50.
G1 X3.1134 Y51.585 F60.
X3.137 Y51.5917
X3.1442 Y51.5937
X3.1457 Y51.5941
G3 X3.1813 Y51.6166 I-0.015 J0.0632
X3.1599 Y51.6382 I-0.0134 J0.0081
G1 X3.134 Y51.6228
G3 X3.1265 Y51.6119 I0.008 J-0.0135
X3.1457 Y51.5941 I0.0154 J-0.0026 F50.
X3.1524 Y51.7711 I-0.0285 J0.0897 F60.
X3.1423 Y51.7716 I-0.0059 J-0.0145
G2 X3.1336 Y51.7717 I-0.0042 J0.0151
G1 X3.1222 Y51.775
X3.0749 Y51.7888
G2 X3.0668 Y51.7944 I0.0044 J0.015
G3 X3.0427 Y51.8137 I-0.0497 J-0.0375 F50.
G1 X3.0191 Y51.8234 F60.
X2.9719 Y51.8449
G3 X2.8274 Y51.6965 I-0.0203 J-0.1248
G2 X2.923 Y51.6518 I-1.1917 J-2.675
G3 X2.9385 Y51.6536 I0.0062 J0.0144
X2.9394 Y51.6947 I-0.0155 J0.0209
X2.8577 Y51.7053 I-0.0495 J-0.0613
X2.845 Y51.6982 I0.0322 J-0.0718 F50.
G2 X2.8294 Y51.6969 I-0.0089 J0.0129
G1 X2.8086 Y51.7076 F60.
X2.8028 Y51.7137
X2.7975 Y51.7202
X2.7927 Y51.7271
X2.7883 Y51.7343
X2.7845 Y51.7418
X2.7812 Y51.7495
X2.7784 Y51.7574
X2.7763 Y51.7655
X2.7746 Y51.7738
X2.7736 Y51.7821
X2.7732 Y51.7905
X2.7733 Y51.7989
X2.774 Y51.8073
X2.7753 Y51.8156
X2.7772 Y51.8237
X2.7797 Y51.8318
X2.7827 Y51.8396
X2.7863 Y51.8472
X2.7904 Y51.8546
X2.7949 Y51.8616
X2.8 Y51.8683
X2.8055 Y51.8746
X2.8115 Y51.8805
X2.8179 Y51.886
X2.8246 Y51.891
X2.8316 Y51.8956
X2.839 Y51.8996
X2.8466 Y51.9032
X2.8545 Y51.9061
G3 X2.9719 Y51.8449 I0.7848 J1.3628
G2 X2.9802 Y51.8316 I-0.0074 J-0.0138
X2.9695 Y51.8155 I-0.0167 J-0.0005
X2.8633 Y51.8766 I-0.0284 J0.0734
X2.8623 Y51.8911 I0.0778 J0.0123 F50.
G3 X2.8549 Y51.9049 I-0.0156 J0.0004
G1 X2.8304 Y51.9188 F60.
G3 X2.6906 Y51.7744 I-0.0223 J-0.1182
X2.8086 Y51.7076 I0.8721 J1.4012
X2.8276 Y51.7313 I0.0067 J0.0142
X2.7218 Y51.7765 I-0.0934 J-0.0723
X2.7035 Y51.7731 I0.0124 J-0.1175 F50.
G2 X2.6916 Y51.7747 I-0.0041 J0.0151
G1 X2.6683 Y51.7891 F60.
X2.6627 Y51.7958
X2.6576 Y51.8029
X2.653 Y51.8104
X2.6489 Y51.8181
X2.6454 Y51.8261
X2.6425 Y51.8344
X2.6403 Y51.8428
X2.6386 Y51.8514
X2.6375 Y51.8601
X2.6371 Y51.8688
X2.6373 Y51.8775
X2.6381 Y51.8863
X2.6396 Y51.8949
X2.6416 Y51.9034
X2.6443 Y51.9117
X2.6476 Y51.9198
X2.6514 Y51.9276
X2.6558 Y51.9352
X2.6607 Y51.9424
X2.6661 Y51.9493
X2.672 Y51.9557
X2.6784 Y51.9617
X2.6852 Y51.9672
X2.6923 Y51.9723
X2.6998 Y51.9768
X2.7076 Y51.9807
X2.7157 Y51.9841
X2.7239 Y51.9869
G3 X2.8304 Y51.9188 I1.4245 J2.1108
G2 X2.8373 Y51.9048 I-0.0087 J-0.013
X2.82 Y51.8862 I-0.02 J0.0013
X2.7311 Y51.9566 I-0.0105 J0.078
X2.731 Y51.9711 I0.0784 J0.0076 F50.
G3 X2.7244 Y51.9853 I-0.0156 J0.0014
G1 X2.7162 Y51.9906 F60.
X2.7025 Y51.9999
G3 X2.5539 Y51.8648 I-0.0306 J-0.1157
X2.6683 Y51.7891 I1.0487 J1.4616
X2.6839 Y51.7892 I0.0078 J0.0136
X2.6851 Y51.8581 I-0.0202 J0.0348
X2.5836 Y51.8695 I-0.0626 J-0.1001
X2.5702 Y51.8639 I0.0388 J-0.1115 F50.
G2 X2.5546 Y51.8649 I-0.0069 J0.014
G1 X2.5474 Y51.8701 F60.
X2.5299 Y51.8832
G2 X2.6022 Y52.0757 I0.0993 J0.0725
G3 X2.7025 Y51.9999 I0.8309 J0.9969
G2 X2.7089 Y51.9856 I-0.0093 J-0.0126
X2.6899 Y51.9677 I-0.0201 J0.0022
X2.6068 Y52.045 I-0.0043 J0.0786
X2.608 Y52.0595 I0.0787 J0.0013 F50.
G3 X2.6025 Y52.0742 I-0.0154 J0.0026
G1 X2.5822 Y52.0898 F60.
X2.574 Y52.0922
X2.5656 Y52.0941
X2.5571 Y52.0954
X2.5485 Y52.096
X2.5399 Y52.0961
X2.5314 Y52.0955
X2.5229 Y52.0943
X2.5145 Y52.0926
X2.5062 Y52.0902
X2.4982 Y52.0873
X2.4904 Y52.0838
X2.4829 Y52.0797
X2.4756 Y52.0752
X2.4688 Y52.0701
X2.4623 Y52.0646
X2.4562 Y52.0586
X2.4505 Y52.0522
X2.4454 Y52.0454
X2.4407 Y52.0383
X2.4366 Y52.0309
X2.433 Y52.0232
X2.4299 Y52.0153
X2.4275 Y52.0072
X2.4256 Y51.9989
X2.4243 Y51.9905
X2.4236 Y51.9821
X2.4235 Y51.9736
X2.424 Y51.9652
X2.4515 Y51.9435
X2.5002 Y51.9054
X2.5299 Y51.8832
G3 X2.5517 Y51.8871 I0.0089 J0.0129
X2.5519 Y51.9111 I-0.0175 J0.0122
X2.4542 Y51.9637 I-0.0983 J-0.0655
X2.4356 Y51.9623 I-0.0006 J-0.1181 F50.
G2 X2.424 Y51.9652 I-0.0024 J0.0155
G1 X2.4058 Y51.9795 F60.
X2.4017 Y51.9828
X2.3971 Y51.9902
X2.393 Y51.998
X2.3895 Y52.0059
X2.3866 Y52.0142
X2.3842 Y52.0226
X2.3825 Y52.0311
X2.3814 Y52.0398
X2.3809 Y52.0485
X2.381 Y52.0572
X2.3817 Y52.0659
X2.3831 Y52.0745
X2.385 Y52.083
X2.3876 Y52.0913
X2.3907 Y52.0995
X2.3944 Y52.1074
X2.3987 Y52.115
X2.4035 Y52.1222
X2.4088 Y52.1292
X2.4146 Y52.1357
X2.4208 Y52.1418
X2.4275 Y52.1474
X2.4345 Y52.1526
X2.4419 Y52.1572
X2.4496 Y52.1613
X2.4575 Y52.1649
X2.4657 Y52.1678
X2.4741 Y52.1702
X2.4827 Y52.172
G3 X2.5822 Y52.0898 I0.7983 J0.8653
G2 X2.5877 Y52.0751 I-0.01 J-0.0121
X2.5705 Y52.0594 I-0.0187 J0.0031
X2.4857 Y52.1408 I-0.0061 J0.0785
X2.4876 Y52.1552 I0.0787 J-0.003 F50.
G3 X2.483 Y52.1702 I-0.0153 J0.0035
G1 X2.4724 Y52.1793 F60.
X2.4665 Y52.1845
X2.4588 Y52.1878
X2.4509 Y52.1905
X2.4428 Y52.1927
X2.4345 Y52.1943
X2.4262 Y52.1953
X2.4178 Y52.1957
X2.4094 Y52.1955
X2.4011 Y52.1947
X2.3928 Y52.1933
X2.3846 Y52.1913
X2.3767 Y52.1888
X2.3689 Y52.1856
X2.3613 Y52.182
X2.354 Y52.1778
X2.3471 Y52.1731
X2.3405 Y52.1679
X2.3343 Y52.1623
X2.3285 Y52.1562
X2.3231 Y52.1498
X2.3182 Y52.143
X2.3139 Y52.1358
X2.31 Y52.1284
X2.3067 Y52.1207
X2.3039 Y52.1127
X2.3017 Y52.1046
X2.3001 Y52.0964
X2.2991 Y52.0881
X2.2987 Y52.0797
X2.2988 Y52.0713
G3 X2.4017 Y51.9828 I2.0834 J2.3187
X2.4268 Y51.9973 I0.0095 J0.0124
X2.4238 Y52.0064 I-0.0259 J-0.0034
X2.3295 Y52.0676 I-0.1037 J-0.0565
X2.3109 Y52.0677 I-0.0095 J-0.1177 F50.
G2 X2.2995 Y52.0714 I-0.0012 J0.0156
G1 X2.2847 Y52.085 F60.
X2.2791 Y52.0902
X2.275 Y52.0976
X2.2714 Y52.1053
X2.2683 Y52.1132
X2.2658 Y52.1213
X2.2638 Y52.1295
X2.2625 Y52.1379
X2.2617 Y52.1463
X2.2615 Y52.1548
X2.2619 Y52.1632
X2.2628 Y52.1716
X2.2644 Y52.18
X2.2665 Y52.1881
X2.2692 Y52.1962
X2.2725 Y52.204
X2.2762 Y52.2116
X2.2805 Y52.2189
X2.2853 Y52.2258
X2.2906 Y52.2325
X2.2963 Y52.2387
X2.3024 Y52.2446
X2.3089 Y52.25
X2.3158 Y52.2549
X2.323 Y52.2593
X2.3305 Y52.2633
X2.3383 Y52.2667
X2.3463 Y52.2695
X2.3544 Y52.2718
X2.3627 Y52.2735
X2.3711 Y52.2747
G3 X2.4665 Y52.1845 I1.0697 J1.0366
G2 X2.471 Y52.1695 I-0.0108 J-0.0114
X2.4575 Y52.1579 I-0.0148 J0.0035
X2.3724 Y52.2436 I-0.0067 J0.0785
X2.3751 Y52.2578 I0.0784 J-0.0072 F50.
G3 X2.3712 Y52.273 I-0.0151 J0.0043
G1 X2.3705 Y52.2737 F60.
X2.3587 Y52.2843
X2.3429 Y52.2955
G3 X2.1852 Y52.2062 I-0.0405 J-0.1125
X2.2791 Y52.0902 I0.3228 J0.1655
X2.2894 Y52.0864 I0.0103 J0.0118
G1 X2.292 Y52.0866
X2.2944 Y52.0872
G3 X2.3063 Y52.1183 I-0.007 J0.0205
X2.2113 Y52.1928 I-0.1373 J-0.0772
X2.1971 Y52.1961 I-0.0422 J-0.1517 F50.
G2 X2.1852 Y52.2062 I0.0028 J0.0154
G1 X2.1786 Y52.2265 F60.
X2.1739 Y52.2339
G2 X2.2621 Y52.3784 I0.0973 J0.0398
G1 X2.2643 Y52.3717
X2.265 Y52.368
G2 X2.262 Y52.3635 I-0.0054 J0.0003 F50.
G1 X2.2605 Y52.3649
G2 X2.2625 Y52.3692 I0.0364 J-0.0149
G3 X2.2624 Y52.3746 I-0.0048 J0.0027
G1 X2.2519 Y52.3909 F60.
X2.2449 Y52.395
X2.2376 Y52.3986
X2.2301 Y52.4017
X2.2223 Y52.4042
X2.2144 Y52.4061
X2.2063 Y52.4074
X2.1982 Y52.4081
X2.19 Y52.4082
X2.1819 Y52.4076
X2.1738 Y52.4065
X2.1658 Y52.4048
X2.158 Y52.4024
X2.1504 Y52.3995
X2.143 Y52.3961
X2.1359 Y52.3921
X2.1291 Y52.3876
X2.1227 Y52.3825
X2.1166 Y52.3771
X2.111 Y52.3711
X2.1059 Y52.3648
X2.1012 Y52.3581
X2.0971 Y52.3511
X2.0935 Y52.3438
X2.0904 Y52.3362
X2.0879 Y52.3285
X2.086 Y52.3205
X2.0847 Y52.3125
X2.084 Y52.3044
X2.0839 Y52.2962
X2.0845 Y52.2881
X2.0856 Y52.28
X2.0985 Y52.2737
X2.1228 Y52.2614
X2.1409 Y52.2532
G3 X2.1564 Y52.2552 I0.006 J0.0145
X2.1589 Y52.2661 I-0.0053 J0.0069
G1 X2.1577 Y52.2683
G3 X2.1156 Y52.2867 I-0.0339 J-0.0201
X2.1022 Y52.2811 I0.0083 J-0.0385 F50.
G2 X2.0866 Y52.2802 I-0.0086 J0.0131
G1 X2.0756 Y52.2862 F60.
X2.067 Y52.2908
X2.0617 Y52.2972
X2.0569 Y52.3039
X2.0526 Y52.311
X2.0488 Y52.3183
X2.0456 Y52.326
X2.0429 Y52.3338
X2.0409 Y52.3418
X2.0393 Y52.3499
X2.0384 Y52.3582
X2.0381 Y52.3664
X2.0384 Y52.3747
X2.0393 Y52.3829
X2.0407 Y52.3911
X2.0428 Y52.3991
X2.0454 Y52.4069
X2.0486 Y52.4146
X2.0524 Y52.422
X2.0566 Y52.4291
X2.0614 Y52.4358
X2.0667 Y52.4422
X2.0724 Y52.4482
X2.0785 Y52.4538
X2.085 Y52.4589
X2.0918 Y52.4636
X2.099 Y52.4677
X2.1065 Y52.4713
X2.1142 Y52.4743
X2.122 Y52.4768
X2.1301 Y52.4787
G2 X2.2519 Y52.3909 I-0.0529 J-0.2017
X2.2522 Y52.3752 I-0.0134 J-0.008
X2.2019 Y52.36 I-0.033 J0.0184
X2.1387 Y52.4508 I0.0541 J0.105
X2.1379 Y52.4653 I0.1172 J0.0142 F50.
G3 X2.1301 Y52.4788 I-0.0157 J0.
G1 X2.1023 Y52.4937 F60.
X2.0937 Y52.4954
X2.0849 Y52.4964
X2.0762 Y52.4968
X2.0674 Y52.4966
X2.0586 Y52.4958
X2.0499 Y52.4943
X2.0414 Y52.4923
X2.033 Y52.4896
X2.0248 Y52.4863
X2.0169 Y52.4824
X2.0093 Y52.478
X2.002 Y52.4731
X1.9951 Y52.4676
X1.9886 Y52.4617
X1.9825 Y52.4553
X1.977 Y52.4485
X1.9719 Y52.4414
X1.9673 Y52.4338
X1.9633 Y52.426
X1.9598 Y52.4179
X1.957 Y52.4096
X1.9547 Y52.4011
X1.9531 Y52.3924
X1.9521 Y52.3837
X1.9517 Y52.3749
X1.9519 Y52.3661
X1.9528 Y52.3574
X1.9543 Y52.3487
X1.9813 Y52.3365
X2.067 Y52.2908
G3 X2.0826 Y52.2918 I0.0069 J0.0141
X2.09 Y52.3164 I-0.0113 J0.0168
X1.9844 Y52.3578 I-0.0727 J-0.0301
X1.9718 Y52.3505 I0.0328 J-0.0716 F50.
G2 X1.9563 Y52.3491 I-0.009 J0.0128
G1 X1.9341 Y52.3603 F60.
X1.9282 Y52.3666
X1.9228 Y52.3733
X1.918 Y52.3804
X1.9136 Y52.3878
X1.9098 Y52.3955
X1.9065 Y52.4035
X1.9039 Y52.4116
X1.9018 Y52.42
X1.9003 Y52.4285
X1.8995 Y52.437
X1.8993 Y52.4457
X1.8997 Y52.4543
X1.9007 Y52.4628
X1.9023 Y52.4712
X1.9046 Y52.4796
X1.9074 Y52.4877
X1.9109 Y52.4956
X1.9149 Y52.5032
X1.9194 Y52.5105
X1.9244 Y52.5175
X1.93 Y52.5241
X1.936 Y52.5303
X1.9424 Y52.536
X1.9492 Y52.5412
X1.9564 Y52.5459
X1.9639 Y52.5501
X1.9717 Y52.5538
X1.9798 Y52.5569
X2.1023 Y52.4937
G2 X2.0985 Y52.4651 I-0.0079 J-0.0135
X2.0641 Y52.4661 I-0.0154 J0.0582
X1.9939 Y52.5289 I0.0371 J0.1121
X1.9875 Y52.5464 I0.1073 J0.0493 F50.
G3 X1.9801 Y52.5558 I-0.0151 J-0.0042
G1 X1.9784 Y52.5567 F60.
X1.9636 Y52.5671
X1.9556 Y52.5692
X1.9475 Y52.5706
X1.9392 Y52.5715
X1.9309 Y52.5718
X1.9227 Y52.5715
X1.9144 Y52.5707
X1.9063 Y52.5692
X1.8982 Y52.5672
X1.8904 Y52.5646
X1.8827 Y52.5614
X1.8753 Y52.5577
X1.8681 Y52.5535
X1.8613 Y52.5488
X1.8549 Y52.5437
X1.8488 Y52.538
X1.8431 Y52.532
X1.8379 Y52.5256
X1.8331 Y52.5188
X1.8288 Y52.5117
X1.8251 Y52.5043
X1.8219 Y52.4967
X1.8192 Y52.4888
X1.8171 Y52.4808
X1.8156 Y52.4727
X1.8146 Y52.4645
X1.8143 Y52.4562
X1.8145 Y52.4479
X1.8153 Y52.4397
X1.8167 Y52.4315
G3 X1.9341 Y52.3603 I0.2185 J0.2277
X1.9496 Y52.3624 I0.0058 J0.0145
X1.9506 Y52.4083 I-0.0182 J0.0233
X1.8458 Y52.4333 I-0.0768 J-0.0897
X1.8319 Y52.4289 I0.028 J-0.1147 F50.
G2 X1.8165 Y52.4314 I-0.0055 J0.0146
G1 X1.7926 Y52.4524 F60.
G2 X1.8713 Y52.6473 I0.1 J0.073
G3 X1.9636 Y52.5671 I0.4484 J0.4232
G2 X1.9697 Y52.5527 I-0.0095 J-0.0125
X1.9433 Y52.5318 I-0.0238 J0.003
X1.8732 Y52.616 I0.0085 J0.0783
X1.8757 Y52.6304 I0.0785 J-0.006 F50.
G3 X1.8716 Y52.6455 I-0.0151 J0.004
G1 X1.8527 Y52.6631 F60.
G3 X1.6874 Y52.5492 I-0.046 J-0.1102
G1 X1.7926 Y52.4524
G3 X1.818 Y52.4661 I0.0099 J0.0121
X1.8167 Y52.4714 I-0.0197 J-0.002
X1.718 Y52.5451 I-0.1096 J-0.0439
X1.6994 Y52.5453 I-0.0109 J-0.1176 F50.
G2 X1.688 Y52.5492 I-0.001 J0.0156
G1 X1.68 Y52.5567 F60.
X1.6655 Y52.5705
G2 X1.7609 Y52.7512 I0.108 J0.0585
G3 X1.8527 Y52.6631 I1.9963 J1.9881
G2 X1.8567 Y52.648 I-0.0111 J-0.0111
X1.8397 Y52.6351 I-0.0167 J0.0045
X1.7625 Y52.7202 I0.0013 J0.0787
X1.7651 Y52.7345 I0.0785 J-0.0063 F50.
G3 X1.7611 Y52.7496 I-0.0151 J0.0041
G1 X1.7454 Y52.7644 F60.
X1.7408 Y52.7686
G3 X1.5696 Y52.6597 I-0.0503 J-0.1099
G1 X1.6039 Y52.6288
X1.6305 Y52.6039
X1.6655 Y52.5705
G3 X1.6809 Y52.5674 I0.0104 J0.0117
X1.6905 Y52.5803 I-0.0044 J0.0133
X1.6001 Y52.6601 I-0.0787 J0.0019
X1.586 Y52.6567 I0.0116 J-0.0779 F50.
G2 X1.5707 Y52.6596 I-0.0051 J0.0148
G1 X1.5491 Y52.6797 F60.
G2 X1.6455 Y52.8582 I0.1073 J0.0574
G1 X1.6641 Y52.8398
X1.7408 Y52.7686
G2 X1.7449 Y52.7536 I-0.011 J-0.0111
X1.733 Y52.7435 I-0.0132 J0.0035
X1.6473 Y52.8275 I-0.0071 J0.0784
X1.6497 Y52.8418 I0.0785 J-0.0056 F50.
G3 X1.6456 Y52.8569 I-0.0151 J0.004
G1 X1.6241 Y52.8767 F60.
G3 X1.4534 Y52.7682 I-0.0493 J-0.111
X1.5491 Y52.6797 I12.2205 J13.1169
X1.5712 Y52.6813 I0.0102 J0.0118
X1.5734 Y52.6998 I-0.0126 J0.0109
X1.4842 Y52.7628 I-0.105 J-0.0541
X1.4656 Y52.7639 I-0.0158 J-0.1171 F50.
G2 X1.4544 Y52.7682 I-0.0004 J0.0156
G1 X1.4357 Y52.7873 F60.
G2 X1.5589 Y52.9708 I0.1115 J0.0583
G3 X1.6241 Y52.8767 I0.2014 J0.0698
G2 X1.6132 Y52.85 I-0.011 J-0.0111
X1.5554 Y52.8874 I-0.0003 J0.0628
X1.551 Y52.9382 I0.0721 J0.0318
X1.5576 Y52.9556 I0.0764 J-0.019 F50.
G3 X1.5586 Y52.9675 I-0.0139 J0.0072
G1 X1.5567 Y52.9729 F60.
X1.5544 Y52.9813
X1.5484 Y52.9873
X1.542 Y52.9928
X1.5352 Y52.9979
X1.5281 Y53.0024
X1.5206 Y53.0064
X1.5129 Y53.0099
X1.5049 Y53.0128
X1.4968 Y53.0151
X1.4885 Y53.0167
X1.4801 Y53.0178
X1.4717 Y53.0183
X1.4632 Y53.0181
X1.4548 Y53.0173
X1.4464 Y53.0159
X1.4382 Y53.0139
X1.4302 Y53.0113
X1.4223 Y53.0082
X1.4147 Y53.0044
X1.4075 Y53.0001
X1.4005 Y52.9953
X1.3939 Y52.99
X1.3877 Y52.9842
X1.382 Y52.978
X1.3767 Y52.9714
X1.372 Y52.9644
X1.3677 Y52.9571
X1.364 Y52.9494
X1.3609 Y52.9416
X1.3584 Y52.9335
X1.3564 Y52.9253
G3 X1.4357 Y52.7873 I0.3226 J0.0936
X1.4509 Y52.7837 I0.0108 J0.0113
X1.4814 Y52.8632 I-0.015 J0.0514
X1.3848 Y52.9192 I-0.1005 J-0.062
X1.3703 Y52.9188 I-0.0039 J-0.118 F50.
G2 X1.3561 Y52.9253 I-0.0014 J0.0156
G1 X1.3503 Y52.9341 F60.
X1.3459 Y52.9386
G2 X1.4617 Y53.0994 I0.1043 J0.047
X1.5544 Y52.9813 I-0.1603 J-0.2211
X1.55 Y52.9663 I-0.0152 J-0.0037
X1.4857 Y52.9699 I-0.0304 J0.0319
X1.4608 Y53.0701 I0.0906 J0.0757
X1.4647 Y53.0841 I0.1155 J-0.0245 F50.
G3 X1.4617 Y53.0994 I-0.0148 J0.0051
G1 X1.44 Y53.1228 F60.
G3 X1.2571 Y53.0315 I-0.0613 J-0.106
X1.3459 Y52.9386 I2.9757 J2.7552
X1.3611 Y52.935 I0.0107 J0.0114
X1.3714 Y52.9484 I-0.0041 J0.0138
X1.288 Y53.0292 I-0.0787 J0.0022
X1.2736 Y53.027 I0.0047 J-0.0786 F50.
G2 X1.2586 Y53.0313 I-0.0038 J0.0152
G1 X1.2421 Y53.0495 F60.
X1.2387 Y53.0573
X1.2359 Y53.0652
X1.2336 Y53.0733
X1.2319 Y53.0816
X1.2308 Y53.0899
X1.2303 Y53.0983
Y53.1067
X1.231 Y53.1151
X1.2323 Y53.1235
X1.2341 Y53.1317
X1.2365 Y53.1398
X1.2395 Y53.1476
X1.243 Y53.1553
X1.2471 Y53.1627
X1.2516 Y53.1698
X1.2567 Y53.1765
X1.2622 Y53.1829
X1.2682 Y53.1888
X1.2745 Y53.1943
X1.2813 Y53.1994
X1.2883 Y53.204
X1.2957 Y53.2081
X1.3034 Y53.2116
X1.3112 Y53.2146
X1.3193 Y53.217
X1.3275 Y53.2188
X1.3358 Y53.2201
X1.3442 Y53.2208
X1.3527
G3 X1.44 Y53.1228 I1.6992 J1.4254
G2 X1.4428 Y53.1074 I-0.0119 J-0.0101
X1.4253 Y53.0954 I-0.017 J0.006
X1.3505 Y53.1901 I0.0023 J0.0787
X1.3547 Y53.204 I0.0771 J-0.0159 F50.
G3 X1.3526 Y53.2195 I-0.0145 J0.0059
G1 X1.3363 Y53.2391 F60.
X1.3289 Y53.2435
X1.3212 Y53.2473
X1.3132 Y53.2505
X1.305 Y53.2532
X1.2966 Y53.2553
X1.2881 Y53.2567
X1.2795 Y53.2576
X1.2709 Y53.2578
X1.2622 Y53.2574
X1.2537 Y53.2564
X1.2452 Y53.2547
X1.2369 Y53.2525
X1.2287 Y53.2496
X1.2208 Y53.2462
X1.2131 Y53.2423
X1.2058 Y53.2377
X1.1988 Y53.2327
X1.1922 Y53.2272
X1.186 Y53.2212
X1.1802 Y53.2148
X1.1749 Y53.2079
X1.1701 Y53.2008
X1.1659 Y53.1933
X1.1622 Y53.1855
X1.1591 Y53.1774
X1.1565 Y53.1692
X1.1546 Y53.1608
X1.1532 Y53.1523
G3 X1.2421 Y53.0495 I2.0841 J1.7142
X1.2643 Y53.0492 I0.0113 J0.0109
X1.269 Y53.0697 I-0.0134 J0.0139
X1.1836 Y53.1443 I-0.1109 J-0.0407
X1.1652 Y53.1469 I-0.0255 J-0.1153 F50.
G2 X1.1544 Y53.1521 I0.0009 J0.0156
G1 X1.1397 Y53.17 F60.
X1.1355 Y53.1751
G2 X1.2553 Y53.3407 I0.1139 J0.0438
G3 X1.3363 Y53.2391 I0.9957 J0.7106
G2 X1.3384 Y53.2236 I-0.0124 J-0.0096
X1.3208 Y53.213 I-0.0159 J0.0065
X1.2521 Y53.3101 I0.0078 J0.0784
X1.2568 Y53.3238 I0.0765 J-0.0187 F50.
G3 X1.2553 Y53.3394 I-0.0143 J0.0064
G1 X1.2404 Y53.3587 F60.
X1.2332 Y53.3634
X1.2256 Y53.3676
X1.2178 Y53.3713
X1.2097 Y53.3744
X1.2015 Y53.3769
X1.193 Y53.3788
X1.1845 Y53.3801
X1.1759 Y53.3807
X1.1672
X1.1586 Y53.3801
X1.15 Y53.3789
X1.1416 Y53.3771
X1.1333 Y53.3746
X1.1252 Y53.3716
X1.1174 Y53.3679
X1.1098 Y53.3638
X1.1026 Y53.359
X1.0957 Y53.3538
X1.0892 Y53.3481
X1.0832 Y53.3419
X1.0776 Y53.3353
X1.0725 Y53.3283
X1.0679 Y53.321
X1.0639 Y53.3134
X1.0604 Y53.3055
X1.0575 Y53.2973
X1.0553 Y53.289
X1.0536 Y53.2805
G3 X1.1355 Y53.1751 I3.0175 J2.262
X1.163 Y53.1842 I0.0118 J0.0102
X1.1586 Y53.2077 I-0.0468 J0.0034
X1.0833 Y53.271 I-0.1068 J-0.0505
X1.065 Y53.2746 I-0.0315 J-0.1138 F50.
G2 X1.0546 Y53.2803 I0.0018 J0.0156
G1 X1.0378 Y53.3029 F60.
X1.0352 Y53.3112
X1.0332 Y53.3197
X1.0318 Y53.3283
X1.0311 Y53.337
X1.0309 Y53.3457
X1.0314 Y53.3543
X1.0325 Y53.363
X1.0342 Y53.3715
X1.0365 Y53.3799
X1.0394 Y53.3881
X1.0429 Y53.3961
X1.0469 Y53.4038
X1.0515 Y53.4112
X1.0566 Y53.4182
X1.0622 Y53.4249
X1.0682 Y53.4312
X1.0747 Y53.437
X1.0816 Y53.4423
X1.0888 Y53.4471
X1.0964 Y53.4514
X1.1042 Y53.4552
X1.1123 Y53.4584
X1.1206 Y53.461
X1.1291 Y53.463
X1.1377 Y53.4643
X1.1463 Y53.4651
X1.155 Y53.4653
X1.1637 Y53.4648
G3 X1.2404 Y53.3587 I1.6524 J1.113
G2 X1.2418 Y53.3431 I-0.0128 J-0.009
X1.2233 Y53.333 I-0.0161 J0.0075
X1.1587 Y53.4339 I0.0108 J0.078
X1.1642 Y53.4474 I0.0753 J-0.0229 F50.
G3 X1.1636 Y53.463 I-0.0139 J0.0072
G1 X1.1505 Y53.4821 F60.
X1.1438 Y53.4871
X1.1368 Y53.4916
X1.1295 Y53.4956
X1.1219 Y53.4991
X1.114 Y53.5021
X1.106 Y53.5044
X1.0979 Y53.5063
X1.0896 Y53.5075
X1.0813 Y53.5082
X1.0729
X1.0646 Y53.5077
X1.0563 Y53.5066
X1.0481 Y53.5049
X1.0401 Y53.5026
X1.0322 Y53.4998
X1.0246 Y53.4965
X1.0172 Y53.4926
X1.0101 Y53.4881
X1.0033 Y53.4832
X0.9969 Y53.4779
X0.9909 Y53.4721
X0.9853 Y53.4659
X0.9802 Y53.4593
X0.9755 Y53.4523
X0.9714 Y53.4451
X0.9677 Y53.4376
X0.9647 Y53.4298
X0.9621 Y53.4219
X0.9601 Y53.4137
G3 X1.0378 Y53.3029 I1.5794 J1.0245
X1.0598 Y53.3005 I0.0122 J0.0098
X1.0653 Y53.3161 I-0.0098 J0.0122
X0.989 Y53.4023 I-0.1154 J-0.0252
X0.971 Y53.4071 I-0.0391 J-0.1115 F50.
G2 X0.9609 Y53.4136 I0.0028 J0.0154
G1 X0.9452 Y53.4381 F60.
X0.9431 Y53.4466
X0.9416 Y53.4552
X0.9408 Y53.4639
X0.9406 Y53.4727
X0.941 Y53.4814
X0.942 Y53.4901
X0.9437 Y53.4986
X0.9459 Y53.5071
X0.9488 Y53.5153
X0.9522 Y53.5234
X0.9562 Y53.5312
X0.9607 Y53.5386
X0.9658 Y53.5457
X0.9713 Y53.5525
X0.9773 Y53.5588
X0.9838 Y53.5647
X0.9907 Y53.5701
X0.9979 Y53.5751
X1.0054 Y53.5794
X1.0133 Y53.5833
X1.0214 Y53.5866
X1.0297 Y53.5892
X1.0382 Y53.5913
X1.0468 Y53.5928
X1.0555 Y53.5937
X1.0642 Y53.5939
X1.0729 Y53.5935
X1.0816 Y53.5925
G3 X1.1505 Y53.4821 I1.0969 J0.6074
G2 X1.1512 Y53.4664 I-0.0132 J-0.0084
X1.1322 Y53.4575 I-0.0154 J0.008
X1.0748 Y53.562 I0.0164 J0.077
X1.0811 Y53.5751 I0.0738 J-0.0275 F50.
G3 X1.0833 Y53.5831 I-0.0134 J0.0081
G1 X1.0831 Y53.5858
X1.0824 Y53.5883
X1.0813 Y53.5907
X1.079 Y53.5945 F60.
X1.0698 Y53.6103
X1.0635 Y53.6157
X1.0567 Y53.6207
X1.0497 Y53.6253
X1.0423 Y53.6293
X1.0347 Y53.6328
X1.0269 Y53.6357
X1.0188 Y53.6381
X1.0106 Y53.6399
X1.0024 Y53.6411
X0.994 Y53.6417
X0.9856 Y53.6418
X0.9773 Y53.6412
X0.969 Y53.6401
X0.9608 Y53.6383
X0.9527 Y53.636
X0.9448 Y53.6331
X0.9372 Y53.6297
X0.9298 Y53.6258
X0.9227 Y53.6213
X0.916 Y53.6163
X0.9096 Y53.6109
X0.9036 Y53.6051
X0.898 Y53.5988
X0.8929 Y53.5921
X0.8883 Y53.5852
X0.8842 Y53.5779
X0.8806 Y53.5703
X0.8776 Y53.5625
X0.8751 Y53.5545
G3 X0.9452 Y53.4381 I11.9824 J7.1349
X0.9669 Y53.4342 I0.0129 J0.0089
X0.975 Y53.4539 I-0.0112 J0.0161
X0.9034 Y53.5417 I-0.1161 J-0.0216
X0.8857 Y53.5473 I-0.0445 J-0.1094 F50.
G2 X0.8759 Y53.5543 I0.0035 J0.0152
G1 X0.8606 Y53.5808 F60.
G2 X1.0067 Y53.7248 I0.1202 J0.0241
G3 X1.0698 Y53.6103 I1.3167 J0.6504
G2 X1.0694 Y53.5946 I-0.0138 J-0.0075
X1.0512 Y53.5872 I-0.0141 J0.0087
X0.9983 Y53.695 I0.0193 J0.0763
X1.0053 Y53.7077 I0.0722 J-0.0314 F50.
G3 X1.0064 Y53.7233 I-0.013 J0.0088
G1 X0.9997 Y53.7361 F60.
X0.9947 Y53.7465
G3 X0.799 Y53.7015 I-0.0833 J-0.0858
X0.8606 Y53.5808 I1.4939 J0.6872
X0.8744 Y53.5735 I0.0133 J0.0083
X0.9075 Y53.6313 I-0.0013 J0.0391
X0.8269 Y53.6906 I-0.1037 J-0.0566
X0.8125 Y53.6925 I-0.023 J-0.1158 F50.
G2 X0.7995 Y53.7013 I0.0011 J0.0156
G1 X0.7874 Y53.7286 F60.
G2 X0.9441 Y53.8618 I0.1215 J0.0157
G3 X0.9947 Y53.7465 I1.6243 J0.6453
G2 X0.9929 Y53.731 I-0.0144 J-0.0062
X0.9674 Y53.7249 I-0.0164 J0.0122
X0.9331 Y53.8328 I0.035 J0.0705
X0.9412 Y53.8449 I0.0693 J-0.0374 F50.
G3 X0.9436 Y53.8603 I-0.0122 J0.0098
G1 X0.9364 Y53.8776 F60.
X0.9336 Y53.8847
G3 X0.735 Y53.8542 I-0.0894 J-0.0796
X0.7874 Y53.7286 I2.523 J0.9802
X0.8083 Y53.7213 I0.0141 J0.0068
X0.8172 Y53.7354 I-0.0069 J0.0142
X0.7607 Y53.837 I-0.1181 J0.0008
X0.7441 Y53.8455 I-0.0616 J-0.1008 F50.
G2 X0.7356 Y53.8539 I0.006 J0.0145
G1 X0.7267 Y53.8776 F60.
X0.7242 Y53.8847
G2 X0.892 Y54.0033 I0.124 J0.0026
G3 X0.9336 Y53.8847 I0.6853 J0.1739
G2 X0.9308 Y53.8693 I-0.0147 J-0.0052
X0.9135 Y53.8613 I-0.0173 J0.0148
G1 X0.9134
G2 X0.9012 Y53.8649 I0. J0.0228
X0.8782 Y53.9751 I0.0424 J0.0663
X0.8874 Y53.9864 I0.0654 J-0.0439 F50.
G3 X0.8913 Y54.0015 I-0.0112 J0.011
G1 X0.8857 Y54.0191 F60.
X0.883 Y54.0262
G3 X0.6724 Y53.9965 I-0.0968 J-0.0753
G2 X0.7242 Y53.8847 I-0.2961 J-0.205
G3 X0.7364 Y53.875 I0.0146 J0.0057
X0.7819 Y53.9153 I0.0059 J0.0391
X0.7038 Y53.9916 I-0.0787 J-0.0025
X0.6894 Y53.9903 I-0.0006 J-0.0787 F50.
G2 X0.6746 Y53.9956 I-0.0028 J0.0154
G1 X0.6632 Y54.0103 F60.
X0.6611 Y54.0182
X0.6596 Y54.0263
X0.6587 Y54.0344
X0.6583 Y54.0426
X0.6586 Y54.0508
X0.6594 Y54.059
X0.6609 Y54.0671
X0.6629 Y54.075
X0.6654 Y54.0828
X0.6686 Y54.0904
X0.6722 Y54.0978
X0.6764 Y54.1048
X0.6811 Y54.1116
X0.6862 Y54.1179
X0.6918 Y54.124
X0.6978 Y54.1295
X0.7042 Y54.1347
X0.711 Y54.1393
X0.7181 Y54.1435
X0.7254 Y54.1472
X0.733 Y54.1503
X0.7408 Y54.1528
X0.7488 Y54.1548
X0.7569 Y54.1562
X0.765 Y54.1571
X0.7732 Y54.1573
X0.7814 Y54.157
X0.7896 Y54.156
X0.7976 Y54.1545
G2 X0.883 Y54.0262 I-0.2423 J-0.2539
X0.88 Y54.0109 I-0.0148 J-0.005
X0.8263 Y54.0088 I-0.0278 J0.0245
X0.7949 Y54.1256 I0.0822 J0.0848
X0.7997 Y54.1394 I0.1137 J-0.0321 F50.
G3 X0.7977 Y54.1549 I-0.0144 J0.0061
G1 X0.7931 Y54.1606 F60.
X0.7774 Y54.1811
G3 X0.5845 Y54.107 I-0.0721 J-0.1006
X0.6632 Y54.0103 I4.8715 J3.8825
X0.6779 Y54.0049 I0.012 J0.0101
X0.6948 Y54.0255 I-0.0036 J0.0203
X0.6155 Y54.103 I-0.0787 J-0.0013
X0.601 Y54.1015 I0.0006 J-0.0787 F50.
G2 X0.5862 Y54.1066 I-0.003 J0.0154
G1 X0.5807 Y54.1134 F60.
X0.569 Y54.1284
G2 X0.6896 Y54.2868 I0.1131 J0.0389
X0.7774 Y54.1811 I-0.7357 J-0.7003
X0.7789 Y54.1655 I-0.0128 J-0.0091
X0.7167 Y54.1563 I-0.0341 J0.0155
X0.6892 Y54.2567 I0.0885 J0.0782
X0.6929 Y54.2708 I0.116 J-0.0222 F50.
G3 X0.6896 Y54.2861 I-0.0149 J0.0048
G1 X0.6741 Y54.3021 F60.
X0.6604 Y54.3124
G3 X0.5957 Y54.3207 I-0.0449 J-0.0932
X0.5987 Y54.2903 I0.0048 J-0.0149
X0.658 Y54.2863 I0.0343 J0.0692
X0.6604 Y54.3124 I-0.0073 J0.0138 F50.
G1 X0.6133 Y54.3257 F60.
X0.5767 Y54.3154
G3 X0.569 Y54.1284 I0.0467 J-0.0955
X0.595 Y54.1314 I0.012 J0.01
G1 X0.5964 Y54.1341 Z-0.1672
X0.5977 Y54.1367 Z-0.1663
X0.5989 Y54.1391 Z-0.1649
X0.6 Y54.1412 Z-0.1629
X0.6009 Y54.143 Z-0.1605
X0.6016 Y54.1443 Z-0.1578
X0.602 Y54.145 Z-0.1549
X0.6021 Y54.1453 Z-0.1519
G0 Z0.4
X2.2458 Y52.3086
Z-0.1362
G1 Z-0.1519 F50.
X2.2461 Y52.3087 Z-0.1549
X2.2469 Y52.309 Z-0.1578
X2.2482 Y52.3096 Z-0.1605
X2.25 Y52.3104 Z-0.1629
X2.2521 Y52.3114 Z-0.1649
X2.2546 Y52.3125 Z-0.1663
X2.2573 Y52.3137 Z-0.1672
X2.2601 Y52.315 Z-0.1675
G2 X2.2905 Y52.3203 I0.0256 J-0.0568
G1 X2.3115 Y52.3179 F60.
X2.3429 Y52.2955
G2 X2.3486 Y52.2792 I-0.0095 J-0.0124
G1 X2.3478 Y52.2762 Z-0.1672
X2.3471 Y52.2734 Z-0.1663
X2.3464 Y52.2708 Z-0.1649
X2.3459 Y52.2685 Z-0.1629
X2.3454 Y52.2666 Z-0.1605
X2.345 Y52.2652 Z-0.1578
X2.3448 Y52.2643 Z-0.1549
X2.3447 Y52.264 Z-0.1519
G0 Z-0.1362
X1.9324 Y52.4694
G1 Z-0.1519 F50.
X1.9323 Y52.4691 Z-0.1549
X1.9321 Y52.4682 Z-0.1578
X1.9317 Y52.4668 Z-0.1605
X1.9312 Y52.465 Z-0.1629
X1.9307 Y52.4627 Z-0.1649
X1.93 Y52.46 Z-0.1663
X1.9293 Y52.4572 Z-0.1672
X1.9285 Y52.4542 Z-0.1675
G3 X1.9162 Y52.369 I0.387 J-0.0991
X2.0112 Y52.2135 I0.1307 J-0.027 F60.
G2 X2.1882 Y52.0404 I-0.7779 J-0.9723
G1 X2.2151 Y52.014
X2.2425 Y51.9881
X2.2703 Y51.9627
X2.2984 Y51.9377
X2.327 Y51.9132
X2.356 Y51.8891
X2.3854 Y51.8655
X2.4151 Y51.8423
X2.4452 Y51.8197
X2.4757 Y51.7975
X2.5065 Y51.7759
X2.5377 Y51.7547
X2.5692 Y51.734
X2.601 Y51.7139
X2.6332 Y51.6942
X2.6656 Y51.6751
X2.6984 Y51.6565
X2.7315 Y51.6385
X2.7648 Y51.6209
X2.7984 Y51.604
X2.8323 Y51.5875
X2.8665 Y51.5716
X2.9009 Y51.5563
X2.9355 Y51.5415
X2.9704 Y51.5273
X3.0055 Y51.5136
X3.0409 Y51.5005
X3.0764 Y51.488
X3.0874 Y51.487
X3.0985 Y51.4867
X3.1095 Y51.4871
X3.1205 Y51.488
X3.1315 Y51.4896
X3.1423 Y51.4917
X3.153 Y51.4945
X3.1635 Y51.4979
X3.1738 Y51.5018
X3.1839 Y51.5064
X3.1937 Y51.5114
X3.2033 Y51.5171
X3.2124 Y51.5232
X3.2213 Y51.5299
X3.2297 Y51.537
X3.2377 Y51.5446
X3.2453 Y51.5527
X3.2524 Y51.5611
X3.2591 Y51.57
X3.2652 Y51.5792
X3.2708 Y51.5887
X3.2758 Y51.5985
X3.2803 Y51.6086
X3.2843 Y51.6189
X3.2876 Y51.6295
X3.2904 Y51.6402
X3.2925 Y51.651
X3.294 Y51.662
X3.2949 Y51.673
X3.2952 Y51.684
X3.2949 Y51.6951
X3.294 Y51.7061
X3.2924 Y51.717
X3.2902 Y51.7279
X3.2874 Y51.7386
X3.2841 Y51.7491
X3.2801 Y51.7594
X3.2756 Y51.7695
X3.2705 Y51.7793
X3.2649 Y51.7888
X3.2587 Y51.798
X3.252 Y51.8068
X3.2449 Y51.8152
X3.2373 Y51.8233
X3.2293 Y51.8308
G2 X2.2719 Y52.5127 I1.0509 J2.4884
X1.6494 Y53.0198 I0.6927 J1.4861
G3 X1.3325 Y53.4042 I-23.1459 J-18.7572
G2 X0.9554 Y54.1168 I1.7294 J1.3713
G3 X0.6808 Y54.4027 I-0.7942 J-0.4876
X0.4497 Y54.3114 I-0.063 J-0.1787
G1 X0.4457 Y54.2995
X0.4423 Y54.2873
X0.4395 Y54.2751
X0.4373 Y54.2627
X0.4357 Y54.2502
X0.4347 Y54.2376
X0.4343 Y54.225
X0.4345 Y54.2124
X0.4354 Y54.1999
X0.4369 Y54.1874
X0.4389 Y54.1749
X0.4416 Y54.1626
X0.4449 Y54.1505
X0.4488 Y54.1385
X0.4532 Y54.1267
X0.4582 Y54.1152
X0.4638 Y54.1039
X0.4699 Y54.0929
X0.4766 Y54.0822
X0.4837 Y54.0718
X0.4914 Y54.0618
X0.4995 Y54.0522
X0.5081 Y54.043
X0.5172 Y54.0342
X0.5266 Y54.0259
X0.5365 Y54.0181
X0.5467 Y54.0107
G3 X0.8835 Y53.3396 I7.6362 J3.4118
G1 X1.0146 Y53.1751
X1.1452 Y53.0102
X1.2754 Y52.845
X1.405 Y52.6794
X1.4274 Y52.6576
X1.45 Y52.6361
X1.4868 Y52.604
X1.5233 Y52.5714
X1.5594 Y52.5385
X1.5951 Y52.5051
X1.6304 Y52.4713
X1.6653 Y52.4371
X1.6997 Y52.4025
X1.7338 Y52.3675
X1.7675 Y52.332
X1.8007 Y52.2962
X1.8335 Y52.26
X1.8659 Y52.2234
X1.8978 Y52.1864
X1.9293 Y52.1491
G3 X2.2957 Y51.81 I16.3659 J17.3167
X2.9982 Y51.4125 I1.4616 J1.7635
X3.375 Y51.5972 I0.1001 J0.2724
X3.1733 Y51.9652 I-0.2766 J0.0876
G1 X3.1365 Y51.9829
X3.1001 Y52.0013
X3.0639 Y52.0201
X3.028 Y52.0396
X2.9924 Y52.0596
X2.9572 Y52.0801
X2.9222 Y52.1012
X2.8876 Y52.1228
X2.8533 Y52.1449
X2.8194 Y52.1676
X2.7858 Y52.1908
X2.7526 Y52.2145
X2.7197 Y52.2387
X2.6872 Y52.2634
X2.6552 Y52.2886
X2.6235 Y52.3143
X2.5922 Y52.3405
X2.5613 Y52.3671
X2.5308 Y52.3943
X2.5007 Y52.4219
X2.4711 Y52.4499
X2.4419 Y52.4784
X2.4132 Y52.5074
X2.3849 Y52.5368
X2.357 Y52.5666
X2.3296 Y52.5969
G2 X1.6327 Y53.2075 I0.7645 J1.5756
G1 X1.6052 Y53.2355
X1.5781 Y53.264
X1.5515 Y53.2929
X1.5254 Y53.3223
X1.4997 Y53.352
X1.4745 Y53.3822
X1.4498 Y53.4127
X1.4256 Y53.4437
X1.4019 Y53.475
X1.3787 Y53.5068
X1.356 Y53.5388
X1.3338 Y53.5713
X1.3121 Y53.6041
X1.291 Y53.6372
X1.2704 Y53.6707
X1.2503 Y53.7045
X1.2308 Y53.7386
X1.2118 Y53.773
X1.1934 Y53.8077
X1.1756 Y53.8427
X1.1583 Y53.878
X1.1415 Y53.9136
X1.1254 Y53.9494
X1.1098 Y53.9855
X1.0948 Y54.0218
X1.0804 Y54.0583
X1.0665 Y54.0951
G3 X0.7505 Y54.4752 I-0.8193 J-0.3599
G1 X0.6731 Y54.492
X0.6495 Y54.4965
G3 X0.3434 Y54.2912 I-0.0455 J-0.263
G1 X0.3432 Y54.2003
G3 X0.5046 Y53.8768 I0.7067 J0.1506
X1.1915 Y52.8084 I2.9752 J1.1576
X1.4058 Y52.541 I0.7822 J0.4072
G2 X2.0009 Y51.9466 I-12.7977 J-13.4092
G3 X2.8955 Y51.3432 I1.8532 J1.7828
G1 X3.2133
G3 X3.3999 Y51.4468 I-0.0225 J0.2606
X3.3772 Y51.4637 I-0.0153 J0.0031
G1 X3.2064 Y51.3727
G3 X3.1996 Y51.3656 I0.0074 J-0.0138
X3.2133 Y51.3432 I0.0142 J-0.0067 F50.
X3.4104 Y51.5071 I0.0471 J0.1439 F60.
G2 X3.4495 Y51.5786 I0.6517 J-0.309
G3 X3.4802 Y51.7311 I-0.2018 J0.12
X3.4497 Y51.7304 I-0.0152 J-0.0039
G1 X3.4211 Y51.5904
G3 X3.4233 Y51.5787 I0.0153 J-0.0031
X3.4495 Y51.5786 I0.0131 J0.0086 F50.
G1 X3.4557 Y51.5865 F60.
X3.4614 Y51.5948
X3.4666 Y51.6033
X3.4713 Y51.6122
X3.4755 Y51.6213
X3.4792 Y51.6306
X3.4823 Y51.6401
X3.4848 Y51.6498
X3.4868 Y51.6596
X3.4882 Y51.6696
X3.489 Y51.6796
X3.4893 Y51.6896
X3.4889 Y51.6996
X3.488 Y51.7096
X3.4865 Y51.7195
X3.4844 Y51.7293
X3.4818 Y51.7389
X3.4786 Y51.7484
X3.4749 Y51.7577
X3.4706 Y51.7668
G3 X3.4147 Y51.9001 I-0.2882 J-0.0425
G1 X3.4083 Y51.8955
X3.4163 Y51.877
X3.4569 Y51.7828
X3.4645 Y51.7653 F50.
X3.4721 Y51.7676
G3 X3.3139 Y51.9517 I-0.1948 J-0.0073 F60.
G1 X3.2711 Y51.9936
X3.2607 Y52.0038
X3.2534 Y52.0129
G3 X2.8682 Y52.2514 I-3.2515 J-4.8227
G1 X2.8146 Y52.2941
X2.7614 Y52.3374
X2.7086 Y52.3811
X2.6562 Y52.4253
X2.6041 Y52.4699
X2.5525 Y52.515
X2.5013 Y52.5606
X2.4505 Y52.6066
X2.4 Y52.6531
X2.3501 Y52.7
G2 X1.725 Y53.2524 I0.7497 J1.4782
X1.1214 Y54.2245 I1.8567 J1.8263
G3 X0.9625 Y54.4225 I-1.7574 J-1.2469
G1 X0.8621 Y54.4505
X0.8384 Y54.456
X0.7505 Y54.4752
G3 X0.7405 Y54.474 I-0.0033 J-0.0153
G2 X0.731 Y54.4727 I-0.0067 J0.0141
G1 X0.7203 Y54.4746
X0.6778 Y54.4822
X0.6767 Y54.4825
G2 X0.6701 Y54.4859 I0.0038 J0.0152 F50.
G3 X0.6495 Y54.4965 I-0.0309 J-0.035
G1 X0.4842 Y54.5231 F60.
X0.4712 Y54.5246
G3 X0.3867 Y54.5051 I-0.0139 J-0.1327
X0.4007 Y54.4784 I0.0107 J-0.0114
G1 X0.4722 Y54.4938
G3 X0.4822 Y54.5009 I-0.0033 J0.0153
X0.4712 Y54.5246 I-0.0133 J0.0082 F50.
X0.344 Y54.4129 I-0.0206 J-0.1048 F60.
G1 X0.3432 Y54.2913
G3 X0.3465 Y54.2817 I0.0157 J0.
G2 X0.3497 Y54.2741 I-0.0124 J-0.0096
G1 X0.3512 Y54.2619
X0.354 Y54.2399
G2 X0.352 Y54.2299 I-0.0155 J-0.002
G3 X0.3432 Y54.2003 I0.0536 J-0.0318 F50.
G1 Y54.0113 F60.
G3 X0.4662 Y53.7168 I2.0864 J0.6981
X1.1005 Y52.7605 I2.8866 J1.2262
X1.4265 Y52.3838 I1.2773 J0.7758
G1 X1.5534 Y52.2571
X1.6798 Y52.1301
X1.8059 Y52.0026
X1.9315 Y51.8748
G3 X2.6514 Y51.3419 I2.0524 J2.02
G1 X2.8955 Y51.3432
G3 X2.9087 Y51.3515 I-0.0005 J0.0156
X2.8962 Y51.4054 I-0.037 J0.0197
X2.6728 Y51.364 I-0.0918 J-0.1279
X2.6654 Y51.3515 I0.1315 J-0.0866 F50.
G2 X2.6521 Y51.3432 I-0.0138 J0.0074
G1 X2.5153 F60.
G2 X2.1513 Y51.5466 I0.2332 J0.845
X1.2379 Y52.4401 I8.1493 J9.2447
X1.0487 Y52.6468 I0.5619 J0.704
X0.4607 Y53.489 I3.1612 J2.8334
X0.3432 Y53.7492 I6.3103 J3.006
G1 Y54.0113
G2 X0.3515 Y54.0246 I0.0156 J-0.0005
X0.3792 Y54.0216 I0.0117 J-0.0219
X0.364 Y53.7699 I-0.1018 J-0.1202
X0.3515 Y53.7625 I-0.0866 J0.1315 F50.
G3 X0.3432 Y53.7492 I0.0074 J-0.0138
G1 Y53.5626 F60.
G3 X0.6593 Y52.9778 I1.7216 J0.5528
X1.308 Y52.2208 I4.625 J3.3071
G2 X1.5277 Y51.9995 I-1.4455 J-1.6542
G3 X2.2666 Y51.3432 I2.9573 J2.5857
G1 X2.5153
G3 X2.5286 Y51.3515 I-0.0005 J0.0156
X2.5193 Y51.3987 I-0.0336 J0.0179
X2.2873 Y51.364 I-0.1005 J-0.1213
X2.2799 Y51.3515 I0.1315 J-0.0866 F50.
G2 X2.2666 Y51.3432 I-0.0138 J0.0074
G1 X2.1611 F60.
G2 X1.8227 Y51.5651 I0.2381 J0.7322
G1 X1.6031 Y51.7866
X1.3839 Y52.0085
X1.1649 Y52.2306
X0.9462 Y52.4531
G3 X0.7537 Y52.6986 I-4.8762 J-3.6242
G2 X0.3432 Y53.2889 I2.507 J2.1813
G1 Y53.5626
G2 X0.3594 Y53.5777 I0.0156 J-0.0005
X0.4155 Y53.5329 I-0.0021 J-0.0601
X0.3613 Y53.313 I-0.2284 J-0.0604
G1 X0.3482 Y53.2998 F50.
G3 X0.3432 Y53.2889 I0.0107 J-0.0114
G1 Y53.1611 F60.
G3 X0.5466 Y52.7968 I0.8576 J0.24
X1.5347 Y51.7169 I6.2635 J4.7388
G1 X1.5959 Y51.6451
G3 X1.9356 Y51.3432 I1.9386 J1.8399
G1 X2.1611
G3 X2.1743 Y51.3515 I-0.0005 J0.0156
X2.1492 Y51.4225 I-0.045 J0.024
X1.9563 Y51.364 I-0.0613 J-0.1451
X1.9489 Y51.3515 I0.1315 J-0.0866 F50.
G2 X1.9356 Y51.3432 I-0.0138 J0.0074
G1 X1.854 F60.
G2 X1.57 Y51.5309 I0.1307 J0.5067
X0.6851 Y52.4537 I10.0938 J10.5648
G3 X0.4755 Y52.7259 I-4.4657 J-3.2215
G2 X0.3432 Y52.9128 I0.9654 J0.8232
G1 Y53.1611
G2 X0.3515 Y53.1743 I0.0156 J-0.0005
X0.3994 Y53.1647 I0.0181 J-0.0339
X0.364 Y52.9335 I-0.1219 J-0.0997
X0.3515 Y52.9261 I-0.0866 J0.1315 F50.
G3 X0.3432 Y52.9128 I0.0074 J-0.0138
G1 Y52.8068 F60.
G3 X0.578 Y52.4384 I0.8811 J0.3025
X1.6269 Y51.3474 I7.9894 J6.6311
G1 X1.6278 Y51.3444
X1.6303 Y51.3435
X1.6329 Y51.3432
X1.854
G3 X1.8673 Y51.3515 I-0.0005 J0.0156
X1.839 Y51.4254 I-0.0462 J0.0247
X1.6536 Y51.364 I-0.0539 J-0.148
X1.6461 Y51.3515 I0.1315 J-0.0866 F50.
G2 X1.6329 Y51.3432 I-0.0138 J0.0074
G1 X1.547 F60.
G2 X1.2402 Y51.5775 I0.2641 J0.6639
X0.479 Y52.402 I4.827 J5.2204
X0.3432 Y52.5792 I0.8542 J0.7948
G1 Y52.8068
G2 X0.3515 Y52.8201 I0.0156 J-0.0005
X0.4208 Y52.7965 I0.0236 J-0.0443
X0.364 Y52.5999 I-0.1434 J-0.0651
X0.3515 Y52.5924 I-0.0866 J0.1315 F50.
G3 X0.3432 Y52.5792 I0.0074 J-0.0138
G1 Y52.4868 F60.
G3 X0.5368 Y52.1687 I0.7874 J0.2612
G1 X0.5383 Y52.1676
X0.5399 Y52.1667
G3 X0.5613 Y52.1817 I0.0057 J0.0146
G1 X0.5612 Y52.1848 Z-0.1672
X0.5611 Y52.1877 Z-0.1663
X0.561 Y52.1904 Z-0.1649
X0.5609 Y52.1928 Z-0.1629
Y52.1947 Z-0.1605
X0.5608 Y52.1962 Z-0.1578
Y52.1971 Z-0.1549
Y52.1974 Z-0.1519
G0 Z-0.1362
X0.36 Y52.5299
G1 Z-0.1519 F50.
X0.3598 Y52.5296 Z-0.1549
X0.3594 Y52.5289 Z-0.1578
X0.3586 Y52.5276 Z-0.1605
X0.3576 Y52.5259 Z-0.1629
X0.3564 Y52.5239 Z-0.1649
X0.355 Y52.5216 Z-0.1663
X0.3535 Y52.5191 Z-0.1672
X0.352 Y52.5164 Z-0.1675
G3 X0.3432 Y52.4868 I0.0536 J-0.0318
G1 Y52.3344 F60.
G3 X0.3761 Y52.2259 I0.1692 J-0.0079
X0.4011 Y52.2423 I0.0099 J0.0121
G1 X0.3739 Y52.3382
G3 X0.3656 Y52.348 I-0.0151 J-0.0043
X0.3432 Y52.3344 I-0.0067 J-0.0142 F50.
X0.506 Y52.1877 I0.1323 J-0.0169 F60.
G1 X0.5223 Y52.1799
X0.5384 Y52.1717
X0.5542 Y52.163
X0.5697 Y52.1538
X0.5849 Y52.1441
X0.5998 Y52.1339
X0.6144 Y52.1232
X0.6287 Y52.1121
X0.6425 Y52.1006
X0.656 Y52.0886
X0.6692 Y52.0762
X0.6819 Y52.0634
X0.6942 Y52.0502
X0.7061 Y52.0366
X0.7176 Y52.0227
X0.7286 Y52.0084
X0.7391 Y51.9937
X0.7492 Y51.9787
X0.7588 Y51.9635
X0.768 Y51.9479
G2 X1.0831 Y51.6484 I-0.0768 J-0.3964
G3 X1.3449 Y51.3432 I0.8549 J0.4685
G1 X1.547
G3 X1.5571 Y51.3703 I-0.0005 J0.0156
X1.5379 Y51.3834 I-0.0511 J-0.0548
X1.3692 Y51.3611 I-0.0669 J-0.1425
X1.3558 Y51.3482 I0.1017 J-0.1202 F50.
G2 X1.3449 Y51.3432 I-0.0114 J0.0107
G1 X1.3352 Y51.3424 F60.
X1.3256 Y51.3421
X1.3159 Y51.3423
X1.3063 Y51.3432
X1.2967 Y51.3447
X1.2873 Y51.3468
X1.278 Y51.3494
X1.2689 Y51.3526
X1.26 Y51.3563
X1.2513 Y51.3606
X1.2429 Y51.3654
X1.2348 Y51.3708
X1.2271 Y51.3766
X1.2198 Y51.3828
X1.2128 Y51.3895
X1.2063 Y51.3967
X1.2002 Y51.4042
X1.1946 Y51.412
X1.1894 Y51.4202
X1.1848 Y51.4287
X1.1808 Y51.4375
X1.1772 Y51.4465
X1.1743 Y51.4557
G2 X1.0872 Y51.6477 I0.1033 J0.1626
G1 X1.0863 Y51.6497
X1.0859 Y51.652
Y51.6544
X1.0864 Y51.6569
X1.0874 Y51.6593
X1.0888 Y51.6616
X1.0908 Y51.6637
X1.0934 Y51.6652 Z-0.1672
X1.096 Y51.6666 Z-0.1663
X1.0983 Y51.668 Z-0.1649
X1.1004 Y51.6691 Z-0.1629
X1.1021 Y51.6701 Z-0.1605
X1.1034 Y51.6708 Z-0.1578
X1.1041 Y51.6712 Z-0.1549
X1.1044 Y51.6714 Z-0.1519
G0 Z-0.1362
X3.267 Y51.9687
G1 Z-0.1519 F50.
Y51.969 Z-0.1549
X3.2669 Y51.9699 Z-0.1578
X3.2667 Y51.9714 Z-0.1605
X3.2664 Y51.9733 Z-0.1629
X3.2661 Y51.9756 Z-0.1649
X3.2657 Y51.9783 Z-0.1663
X3.2654 Y51.9812 Z-0.1672
X3.265 Y51.9843 Z-0.1675
G3 X3.2534 Y52.0129 I-0.0618 J-0.0082
G2 X3.1813 Y52.1337 I0.2539 J0.2335 F60.
G3 X2.8706 Y52.3761 I-0.923 J-0.8626
X2.3155 Y52.8283 I-4.1304 J-4.5033
G2 X1.7658 Y53.3707 I0.8853 J1.4472
G1 X1.7169 Y53.4127
X1.6964 Y53.4363
G2 X1.2638 Y54.1419 I1.5928 J1.4622
X1.0923 Y54.3721 I0.3176 J0.4156
G3 X0.9625 Y54.4225 I-0.1598 J-0.2189
X0.9475 Y54.4181 I-0.0037 J-0.0152
X0.9182 Y54.2598 I0.1066 J-0.1016
X1.2336 Y54.1355 I0.218 J0.0909
G1 X1.2467 Y54.1419 F50.
G2 X1.2623 Y54.1414 I0.0073 J-0.0138
G3 X1.331 Y54.1042 I0.3445 J0.555 F60.
G2 X1.5349 Y53.8148 I-0.5224 J-0.5846
G3 X2.1519 Y53.0721 I6.2759 J4.5862
G2 X2.6043 Y52.7408 I-20.3799 J-28.3051
G1 X2.6272 Y52.7196
X2.6498 Y52.698
X2.6723 Y52.6764
G3 X3.1614 Y52.291 I2.8545 J3.1202
X3.1813 Y52.1337 I0.3704 J-0.0331
G2 X3.1699 Y52.1147 I-0.0152 J-0.0038
X3.1068 Y52.1516 I-0.0127 J0.0508
X3.1402 Y52.2695 I0.1139 J0.0314
X3.1548 Y52.281 I0.0804 J-0.0865 F50.
G3 X3.1614 Y52.291 I-0.0087 J0.013
G1 X3.1646 Y52.3108 F60.
X3.167 Y52.3238
X3.163 Y52.3376
X3.1584 Y52.3512
X3.1532 Y52.3647
X3.1475 Y52.3778
X3.1412 Y52.3908
X3.1343 Y52.4034
X3.1269 Y52.4158
X3.119 Y52.4278
X3.1106 Y52.4395
X3.1018 Y52.4508
X3.0924 Y52.4617
X3.0826 Y52.4723
X3.0724 Y52.4824
X3.0617 Y52.492
X3.0506 Y52.5012
X3.0392 Y52.5099
X3.0274 Y52.5182
X3.0153 Y52.5259
X3.0028 Y52.5331
X2.9901 Y52.5397
X2.9771 Y52.5459
X2.9638 Y52.5514
X2.9503 Y52.5564
X2.9152 Y52.5912
X2.8797 Y52.6256
X2.8438 Y52.6595
X2.8074 Y52.6929
X2.7707 Y52.726
X2.7335 Y52.7585
X2.6959 Y52.7906
X2.658 Y52.8222
X2.6196 Y52.8534
X2.5809 Y52.8841
X2.5418 Y52.9143
X2.5023 Y52.944
X2.4625 Y52.9732
X2.4223 Y53.0019
X2.3817 Y53.0301
X2.3408 Y53.0579
X2.2996 Y53.0851
X2.258 Y53.1118
X2.2161 Y53.138
G2 X1.7499 Y53.6864 I21.3918 J18.6568
G1 X1.7193 Y53.7287
X1.6892 Y53.7714
X1.6596 Y53.8144
X1.6304 Y53.8578
X1.6018 Y53.9015
X1.5736 Y53.9455
X1.5459 Y53.9898
X1.5187 Y54.0344
X1.492 Y54.0793
G2 X1.331 Y54.1042 I-0.0326 J0.3221
G3 X1.3157 Y54.1011 I-0.0049 J-0.0149
X1.3426 Y53.999 I0.0393 J-0.0442
X1.4692 Y54.0547 I0.0247 J0.1155
X1.4757 Y54.0677 I-0.1019 J0.0597 F50.
G2 X1.4883 Y54.0771 I0.0144 J-0.0062
G1 X1.4998 Y54.078 F60.
X1.5234 Y54.0809
X1.537 Y54.0757
X1.5505 Y54.0699
X1.5636 Y54.0637
X1.5765 Y54.0568
X1.5892 Y54.0495
X1.6015 Y54.0416
X1.6135 Y54.0333
X1.6251 Y54.0245
X1.6364 Y54.0152
X1.6472 Y54.0054
X1.6577 Y53.9953
X1.6678 Y53.9847
X1.6774 Y53.9737
X1.6865 Y53.9623
X1.6952 Y53.9505
X1.7034 Y53.9385
X1.7111 Y53.926
X1.7183 Y53.9133
X1.7249 Y53.9003
X1.731 Y53.8871
X1.7366 Y53.8736
X1.7416 Y53.8599
X1.7461 Y53.846
G3 X2.3696 Y53.1456 I5.2009 J4.0025
G2 X2.9343 Y52.7046 I-1.2186 J-2.1424
X3.2135 Y52.4592 I-0.4376 J-0.7795
G3 X3.167 Y52.3238 I0.3462 J-0.1945
G2 X3.1484 Y52.3119 I-0.0153 J0.0034
X3.1295 Y52.3341 I0.0053 J0.0235
X3.1881 Y52.4429 I0.1179 J0.0067
X3.2048 Y52.451 I0.0594 J-0.1021 F50.
G3 X3.2135 Y52.4592 I-0.0056 J0.0146
X3.166 Y52.6179 I-0.1758 J0.0338 F60.
X2.7384 Y53.0173 I-3.5991 J-3.4238
G2 X2.2085 Y53.4496 I1.2972 J2.1313
X1.7633 Y54.012 I4.5681 J4.0735
G3 X1.662 Y54.1193 I-0.2122 J-0.0988
G2 X1.5234 Y54.0809 I-0.2139 J0.5025
G3 X1.5112 Y54.0711 I0.0024 J-0.0155
X1.5323 Y54.0378 I0.0228 J-0.0088
X1.6431 Y54.0968 I0.0084 J0.1178
X1.6496 Y54.1099 I-0.1024 J0.0588 F50.
G2 X1.662 Y54.1193 I0.0144 J-0.0061
X1.8132 Y54.0586 I0.012 J-0.1886 F60.
X2.1421 Y53.6853 I-2.8554 J-2.8484
G3 X2.7923 Y53.1123 I1.6853 J1.2568
X2.9835 Y52.9341 I5.6134 J5.8309
G2 X3.166 Y52.6179 I-2.3072 J-1.5426
X3.1647 Y52.6023 I-0.0142 J-0.0066
X3.1072 Y52.5845 I-0.0402 J0.0279
X2.9772 Y52.9055 I0.084 J0.2208
G1 X2.9838 Y52.9185 F50.
G3 X2.9835 Y52.9341 I-0.0137 J0.0075
X2.7874 Y53.2083 I-2.0921 J-1.2891 F60.
X2.5193 Y53.4237 I-1.8338 J-2.0076
X2.4956 Y53.4127 I-0.0082 J-0.0133
G1 X2.4951 Y53.4097 Z-0.1672
X2.4947 Y53.4068 Z-0.1663
X2.4943 Y53.4041 Z-0.1649
X2.4939 Y53.4018 Z-0.1629
X2.4936 Y53.3999 Z-0.1605
X2.4934 Y53.3984 Z-0.1578
X2.4933 Y53.3975 Z-0.1549
Y53.3973 Z-0.1519
G0 Z-0.1362
X2.8019 Y53.1644
G1 Z-0.1519 F50.
Y53.1647 Z-0.1549
X2.8018 Y53.1656 Z-0.1578
X2.8015 Y53.167 Z-0.1605
X2.8012 Y53.1689 Z-0.1629
X2.8009 Y53.1713 Z-0.1649
X2.8005 Y53.174 Z-0.1663
X2.8 Y53.1769 Z-0.1672
X2.7995 Y53.1799 Z-0.1675
G3 X2.7874 Y53.2083 I-0.0616 J-0.0096
X2.6504 Y53.3605 I-0.4241 J-0.2439 F60.
G2 X2.443 Y53.4917 I0.1247 J0.4266
X2.1472 Y53.8342 I9.2491 J8.2904
G3 X1.8132 Y54.0586 I-1.7115 J-2.1866
X1.7907 Y54.0404 I-0.0075 J-0.0137
X1.9363 Y53.8655 I0.2755 J0.0814
X2.1171 Y53.8338 I0.1424 J0.2809
G1 X2.1355 Y53.8367 F50.
G2 X2.1383 Y53.8369 I0.0028 J-0.0154
G1 X2.1414 Y53.8366
X2.1444 Y53.8357
X2.1472 Y53.8342
G2 X2.3604 Y53.6504 I-0.3869 J-0.6646 F60.
G3 X2.443 Y53.4917 I0.4335 J0.1248
G2 X2.4431 Y53.4745 I-0.0131 J-0.0086
G1 X2.4414 Y53.4719 Z-0.1672
X2.4398 Y53.4695 Z-0.1663
X2.4383 Y53.4672 Z-0.1649
X2.437 Y53.4653 Z-0.1629
X2.4359 Y53.4636 Z-0.1605
X2.4351 Y53.4624 Z-0.1578
X2.4346 Y53.4617 Z-0.1549
X2.4344 Y53.4614 Z-0.1519
G0 Z0.6
X-3.0182 Y51.6333
Z0.1
G3 X-2.9455 Y51.7181 Z0.0777 I-0.0009 J0.0743 F50.
X-3.0391 Y51.7792 Z0.0554 I-0.0736 J-0.0105
X-3.0875 Y51.6785 Z0.0331 I0.02 J-0.0716
X-2.9814 Y51.6435 Z0.0108 I0.0684 J0.0291
X-2.9605 Y51.7533 Z-0.0115 I-0.0377 J0.0641
X-3.072 Y51.7598 Z-0.0337 I-0.0586 J-0.0457
X-3.064 Y51.6484 Z-0.056 I0.0529 J-0.0522
X-2.9741 Y51.7668 Z-0.0972 I0.0449 J0.0592
X-3.064 Y51.6484 Z-0.1384 I-0.0449 J-0.0592
X-2.9448 Y51.7076 Z-0.1675 I0.0449 J0.0592
X-3.0934 I-0.0743 J0.
X-2.945 Y51.7014 I0.0743 J0.
G1 X-2.9448 Y51.7076
G3 X-2.9785 Y51.8419 I-0.0611 J0.0561 F60.
G2 X-3.1041 Y51.7902 I-0.5242 J1.095
G3 X-3.1181 Y51.5863 I0.0558 J-0.1063
X-3.0988 Y51.6002 I0.0037 J0.0152
G1 X-3.0984 Y51.6041
X-3.0837 Y51.7739
Y51.774 F50.
G3 X-3.1041 Y51.7902 I-0.0156 J0.0014
X-3.1027 Y51.5813 I0.0007 J-0.1045 F60.
X-3.0236 Y51.6183 I-0.0007 J0.1045
G1 X-2.9719 Y51.6312
X-2.9247 Y51.651
G3 X-2.8928 Y51.8863 I-0.0557 J0.1274
G2 X-2.9785 Y51.8419 I-0.6051 J1.0638
G3 X-2.9871 Y51.8289 I0.007 J-0.014
X-2.9446 Y51.8019 I0.0287 J-0.0018
X-2.9053 Y51.855 I-0.0378 J0.0691
X-2.9036 Y51.8694 I-0.0771 J0.0159 F50.
G2 X-2.8956 Y51.8828 I0.0156 J-0.0003
G1 X-2.8776 Y51.892 F60.
X-2.8691 Y51.8924
X-2.8607 Y51.8922
X-2.8523 Y51.8913
X-2.844 Y51.8898
X-2.8358 Y51.8877
X-2.8278 Y51.885
X-2.82 Y51.8817
X-2.8125 Y51.8779
X-2.8053 Y51.8735
X-2.7984 Y51.8686
X-2.7919 Y51.8632
X-2.7859 Y51.8573
X-2.7803 Y51.851
X-2.7752 Y51.8442
X-2.7705 Y51.8372
X-2.7665 Y51.8298
X-2.763 Y51.8221
X-2.76 Y51.8142
X-2.7577 Y51.8061
X-2.756 Y51.7978
X-2.7548 Y51.7894
X-2.7544 Y51.781
X-2.7545 Y51.7725
X-2.7553 Y51.7641
X-2.7566 Y51.7558
X-2.7586 Y51.7476
X-2.7612 Y51.7396
X-2.7644 Y51.7318
G2 X-2.9247 Y51.651 I-1.0069 J1.7983
X-2.9303 Y51.6499 I-0.0055 J0.0146
X-2.9402 Y51.6535 I0. J0.0156
X-2.9473 Y51.6895 I0.0182 J0.0223
X-2.7923 Y51.7394 I0.1037 J-0.0565
X-2.7796 Y51.7323 I-0.0512 J-0.1064 F50.
G3 X-2.764 Y51.7316 I0.0085 J0.0132
G1 X-2.7361 Y51.7472 F60.
G3 X-2.7755 Y51.9543 I-0.0839 J0.0914
G2 X-2.8776 Y51.892 I-0.5987 J0.8665
G3 X-2.8851 Y51.8783 I0.0081 J-0.0134
X-2.8598 Y51.8541 I0.0248 J0.0006
X-2.7833 Y51.9239 I-0.0018 J0.0787
X-2.783 Y51.9384 I-0.0782 J0.0089 F50.
G2 X-2.7762 Y51.9525 I0.0156 J0.0011
G1 X-2.7556 Y51.9654 F60.
X-2.7472 Y51.967
X-2.7387 Y51.968
X-2.7302 Y51.9684
X-2.7216 Y51.9681
X-2.7131 Y51.9673
X-2.7047 Y51.9658
X-2.6964 Y51.9638
X-2.6882 Y51.9611
X-2.6803 Y51.9578
X-2.6727 Y51.954
X-2.6653 Y51.9497
X-2.6583 Y51.9448
X-2.6516 Y51.9395
X-2.6453 Y51.9336
X-2.6395 Y51.9274
X-2.6342 Y51.9207
X-2.6293 Y51.9137
X-2.6249 Y51.9063
X-2.6211 Y51.8986
X-2.6179 Y51.8907
X-2.6152 Y51.8826
X-2.6132 Y51.8743
X-2.6117 Y51.8659
X-2.6109 Y51.8574
X-2.6106 Y51.8488
X-2.611 Y51.8403
X-2.612 Y51.8318
X-2.6136 Y51.8234
G2 X-2.7361 Y51.7472 I-5.9481 J9.4225
X-2.7517 Y51.7479 I-0.0071 J0.0139
X-2.7523 Y51.8177 I0.0226 J0.0351
X-2.6432 Y51.8294 I0.0657 J-0.0982
X-2.63 Y51.8232 I-0.0435 J-0.1098 F50.
G3 X-2.6144 Y51.8236 I0.0075 J0.0137
G1 X-2.5945 Y51.8366 F60.
X-2.5891 Y51.8404
G3 X-2.6522 Y52.0373 I-0.0952 J0.0781
G2 X-2.7556 Y51.9654 I-0.6465 J0.8198
G3 X-2.7624 Y51.9514 I0.0088 J-0.0129
X-2.743 Y51.9317 I0.0212 J0.0015
X-2.6577 Y52.0068 I0.0067 J0.0785
X-2.6584 Y52.0213 I-0.0787 J0.0034 F50.
G2 X-2.6526 Y52.0358 I0.0155 J0.0022
G1 X-2.6417 Y52.0439 F60.
X-2.6331 Y52.0505
X-2.6248 Y52.0529
X-2.6164 Y52.0547
X-2.6079 Y52.0558
X-2.5994 Y52.0564
X-2.5908 Y52.0563
X-2.5823 Y52.0556
X-2.5738 Y52.0543
X-2.5654 Y52.0524
X-2.5572 Y52.0499
X-2.5492 Y52.0468
X-2.5415 Y52.0432
X-2.534 Y52.039
X-2.5268 Y52.0342
X-2.5201 Y52.029
X-2.5137 Y52.0233
X-2.5077 Y52.0172
X-2.5022 Y52.0106
X-2.4971 Y52.0037
X-2.4926 Y51.9964
X-2.4886 Y51.9888
X-2.4852 Y51.9809
X-2.4824 Y51.9728
X-2.4801 Y51.9646
X-2.4784 Y51.9562
X-2.4774 Y51.9477
X-2.4769 Y51.9391
X-2.4771 Y51.9305
X-2.4779 Y51.922
G2 X-2.5891 Y51.8404 I-1.8626 J2.421
X-2.6047 Y51.8396 I-0.0085 J0.0131
X-2.627 Y51.876 I0.0186 J0.0364
X-2.6094 Y51.9096 I0.0409 J0.
X-2.508 Y51.9255 I0.0672 J-0.0972
X-2.4944 Y51.9205 I-0.0342 J-0.113 F50.
G3 X-2.4788 Y51.9221 I0.0063 J0.0143
G1 X-2.4586 Y51.938 F60.
X-2.4536 Y51.9449
X-2.4492 Y51.9522
X-2.4453 Y51.9597
X-2.442 Y51.9675
X-2.4392 Y51.9755
X-2.4369 Y51.9837
X-2.4353 Y51.992
X-2.4342 Y52.0005
X-2.4337 Y52.0089
X-2.4338 Y52.0174
X-2.4346 Y52.0259
X-2.4359 Y52.0343
X-2.4378 Y52.0426
X-2.4403 Y52.0507
X-2.4433 Y52.0586
X-2.4469 Y52.0663
X-2.451 Y52.0737
X-2.4556 Y52.0808
X-2.4607 Y52.0876
X-2.4663 Y52.094
X-2.4723 Y52.1
X-2.4788 Y52.1056
X-2.4856 Y52.1106
X-2.4927 Y52.1152
X-2.5001 Y52.1193
X-2.5078 Y52.1229
X-2.5158 Y52.1259
X-2.5239 Y52.1283
X-2.5322 Y52.1302
X-2.5474 Y52.1165
X-2.5945 Y52.0803
X-2.6331 Y52.0505
G3 X-2.6385 Y52.0359 I0.01 J-0.012
X-2.6215 Y52.0203 I0.0186 J0.0032
X-2.5361 Y52.0994 I0.0066 J0.0785
X-2.5376 Y52.1138 I-0.0787 J-0.0006 F50.
G2 X-2.5325 Y52.1286 I0.0154 J0.003
G1 X-2.5281 Y52.1322 F60.
X-2.5142 Y52.1437
X-2.5061 Y52.1467
X-2.4978 Y52.1491
X-2.4893 Y52.1508
X-2.4808 Y52.152
X-2.4722 Y52.1525
X-2.4636 Y52.1524
X-2.455 Y52.1516
X-2.4464 Y52.1503
X-2.4381 Y52.1483
X-2.4298 Y52.1457
X-2.4218 Y52.1426
X-2.414 Y52.1388
X-2.4066 Y52.1345
X-2.3994 Y52.1297
X-2.3926 Y52.1244
X-2.3863 Y52.1186
X-2.3804 Y52.1123
X-2.3749 Y52.1056
X-2.3699 Y52.0986
