%
(971-23-P-0026_BUMPER WOOD 1_2500)
(T1  D=0.25 CR=0. - ZMIN=-0.78 - FLAT END MILL)
G90 G94 G17 G91.1
G64 P0.001 Q0.001
G20
G53 G0 Z0.
(2D SLOT CUT 2)
M9
T1 M6
S13000 M3
G4 P10.
G54
M7
G0 X16.885 Y2.2655
G43 Z0.6 H1
G0 Z0.2
G1 Z0.1254 F13.333
G19 G2 Y2.2405 Z0.1004 J-0.025 K0. F60.
G1 Y2.2155
G17 G2 X16.86 Y2.2405 I0. J0.025
G1 Y2.89 Z-0.0141 F13.333
G3 X16.6793 Y3.0749 Z-0.0646 I-0.185 J0.
X16.6772 Y3.075 Z-0.0649 I-0.0043 J-0.1849
X16.675 Z-0.065 I-0.0022 J-0.185
G2 X16.86 Y2.89 I0. J-0.185 F80.
G1 Y2.01
G2 X16.675 Y1.825 I-0.185 J0.
G3 X16.65 Y1.8 I0. J-0.025 F60.
G1 X16.675
G18 G2 X16.7 Z-0.04 I0. K0.025
G0 Z0.4
X16.885 Y4.2655
Z0.2
G1 Z0.1254 F13.333
G19 G2 Y4.2405 Z0.1004 J-0.025 K0. F60.
G1 Y4.2155
G17 G2 X16.86 Y4.2405 I0. J0.025
G1 Y4.89 Z-0.0141 F13.333
G3 X16.6793 Y5.0749 Z-0.0646 I-0.185 J0.
X16.6772 Y5.075 Z-0.0649 I-0.0043 J-0.1849
X16.675 Z-0.065 I-0.0022 J-0.185
G2 X16.86 Y4.89 I0. J-0.185 F80.
G1 Y4.01
G2 X16.675 Y3.825 I-0.185 J0.
G3 X16.65 Y3.8 I0. J-0.025 F60.
G1 X16.675
G18 G2 X16.7 Z-0.04 I0. K0.025
G0 Z0.4
X-16.885 Y4.6345
Z0.2
G1 Z0.1254 F13.333
G19 G3 Y4.6595 Z0.1004 J0.025 K0. F60.
G1 Y4.6845
G17 G2 X-16.86 Y4.6595 I0. J-0.025
G1 Y4.01 Z-0.0141 F13.333
G3 X-16.6793 Y3.8251 Z-0.0646 I0.185 J0.
X-16.6772 Y3.825 Z-0.0649 I0.0043 J0.1849
X-16.675 Z-0.065 I0.0022 J0.185
G2 X-16.86 Y4.01 I0. J0.185 F80.
G1 Y4.89
G2 X-16.675 Y5.075 I0.185 J0.
G3 X-16.65 Y5.1 I0. J0.025 F60.
G1 X-16.675
G18 G3 X-16.7 Z-0.04 I0. K0.025
G0 Z0.4
X-16.885 Y2.6345
Z0.2
G1 Z0.1254 F13.333
G19 G3 Y2.6595 Z0.1004 J0.025 K0. F60.
G1 Y2.6845
G17 G2 X-16.86 Y2.6595 I0. J-0.025
G1 Y2.01 Z-0.0141 F13.333
G3 X-16.6793 Y1.8251 Z-0.0646 I0.185 J0.
X-16.6772 Y1.825 Z-0.0649 I0.0043 J0.1849
X-16.675 Z-0.065 I0.0022 J0.185
G2 X-16.86 Y2.01 I0. J0.185 F80.
G1 Y2.89
G2 X-16.675 Y3.075 I0.185 J0.
G3 X-16.65 Y3.1 I0. J0.025 F60.
G1 X-16.675
G18 G3 X-16.7 Z-0.04 I0. K0.025
G0 Z0.6
G17
(2D SLOT CUT)
M7
G0 X2.071 Y-0.2625
Z0.6
Z0.2
G1 Z0.1254 F13.333
G19 G3 Y-0.2375 Z0.1004 J0.025 K0. F60.
G1 Y-0.2125
G17 G3 X2.046 Y-0.1875 I-0.025 J0.
G1 X0.0043 Z-0.2596 F13.333
G18 G3 X0. Z-0.26 I-0.0043 K0.0246
G1 X-14.5626 F80.
G17 G2 X-14.6935 Y-0.1333 I0. J0.185
G1 X-15.8518 Y1.025
X-15.99
G2 X-16.175 Y1.21 I0. J0.185
G1 Y1.65
G2 X-16.05 Y1.825 I0.185 J0.
G1 X-16.74
G2 X-16.925 Y2.01 I0. J0.185
G1 Y2.89
G2 X-16.74 Y3.075 I0.185 J0.
G1 X-16.05
G2 X-16.175 Y3.25 I0.06 J0.175
G1 Y3.65
G2 X-16.05 Y3.825 I0.185 J0.
G1 X-16.74
G2 X-16.925 Y4.01 I0. J0.185
G1 Y4.89
G2 X-16.74 Y5.075 I0.185 J0.
G1 X-16.05
G2 X-16.175 Y5.25 I0.06 J0.175
G1 Y5.69
G2 X-15.99 Y5.875 I0.185 J0.
G1 X-13.9195
G2 X-13.7887 Y5.8209 I0. J-0.185
G1 Y5.8208
X-12.6303 Y4.6625
X12.6303
X13.7887 Y5.8208
Y5.8209
G2 X13.9195 Y5.875 I0.1308 J-0.1309
G1 X15.99
G2 X16.175 Y5.69 I0. J-0.185
G1 Y5.25
G2 X16.05 Y5.075 I-0.185 J0.
G1 X16.74
G2 X16.925 Y4.89 I0. J-0.185
G1 Y4.01
G2 X16.74 Y3.825 I-0.185 J0.
G1 X16.05
G2 X16.175 Y3.65 I-0.06 J-0.175
G1 Y3.25
G2 X16.05 Y3.075 I-0.185 J0.
G1 X16.74
G2 X16.925 Y2.89 I0. J-0.185
G1 Y2.01
G2 X16.74 Y1.825 I-0.185 J0.
G1 X16.05
G2 X16.175 Y1.65 I-0.06 J-0.175
G1 Y1.21
G2 X15.99 Y1.025 I-0.185 J0.
G1 X15.8518
X14.6935 Y-0.1333
G2 X14.5626 Y-0.1875 I-0.1308 J0.1308
G1 X0.
X-7.1812 Z-0.52 F13.333
X-14.5626 F80.
G2 X-14.6935 Y-0.1333 I0. J0.185
G1 X-15.8518 Y1.025
X-15.99
G2 X-16.175 Y1.21 I0. J0.185
G1 Y1.65
G2 X-16.05 Y1.825 I0.185 J0.
G1 X-16.74
G2 X-16.925 Y2.01 I0. J0.185
G1 Y2.89
G2 X-16.74 Y3.075 I0.185 J0.
G1 X-16.05
G2 X-16.175 Y3.25 I0.06 J0.175
G1 Y3.65
G2 X-16.05 Y3.825 I0.185 J0.
G1 X-16.74
G2 X-16.925 Y4.01 I0. J0.185
G1 Y4.89
G2 X-16.74 Y5.075 I0.185 J0.
G1 X-16.05
G2 X-16.175 Y5.25 I0.06 J0.175
G1 Y5.69
G2 X-15.99 Y5.875 I0.185 J0.
G1 X-13.9195
G2 X-13.7887 Y5.8209 I0. J-0.185
G1 Y5.8208
X-12.6303 Y4.6625
X12.6303
X13.7887 Y5.8208
Y5.8209
G2 X13.9195 Y5.875 I0.1308 J-0.1309
G1 X15.99
G2 X16.175 Y5.69 I0. J-0.185
G1 Y5.25
G2 X16.05 Y5.075 I-0.185 J0.
G1 X16.74
G2 X16.925 Y4.89 I0. J-0.185
G1 Y4.01
G2 X16.74 Y3.825 I-0.185 J0.
G1 X16.05
G2 X16.175 Y3.65 I-0.06 J-0.175
G1 Y3.25
G2 X16.05 Y3.075 I-0.185 J0.
G1 X16.74
G2 X16.925 Y2.89 I0. J-0.185
G1 Y2.01
G2 X16.74 Y1.825 I-0.185 J0.
G1 X16.05
G2 X16.175 Y1.65 I-0.06 J-0.175
G1 Y1.21
G2 X15.99 Y1.025 I-0.185 J0.
G1 X15.8518
X14.6935 Y-0.1333
G2 X14.5626 Y-0.1875 I-0.1308 J0.1308
G1 X0.
X-7.1812
X-10.1324 Z-0.6269 F13.333
Z-0.53
X-11.3824
Z-0.6721
X-14.3624 Z-0.78
X-14.5626 F80.
G2 X-14.6935 Y-0.1333 I0. J0.185
G1 X-15.8518 Y1.025
X-15.99
G2 X-16.175 Y1.21 I0. J0.185
G1 Y1.65
G2 X-16.05 Y1.825 I0.185 J0.
G1 X-16.74
G2 X-16.925 Y2.01 I0. J0.185
G1 Y2.89
G2 X-16.74 Y3.075 I0.185 J0.
G1 X-16.05
G2 X-16.175 Y3.25 I0.06 J0.175
G1 Y3.65
G2 X-16.05 Y3.825 I0.185 J0.
G1 X-16.74
G2 X-16.925 Y4.01 I0. J0.185
G1 Y4.89
G2 X-16.74 Y5.075 I0.185 J0.
G1 X-16.05
G2 X-16.175 Y5.25 I0.06 J0.175
G1 Y5.69
G2 X-15.99 Y5.875 I0.185 J0.
G1 X-13.9195
G2 X-13.7887 Y5.8209 I0. J-0.185
G1 Y5.8208
X-12.6303 Y4.6625
X-9.6416
Z-0.53
X-8.3916
Z-0.78 F13.333
X-1.9868 F80.
Z-0.53
X-0.7368
Z-0.78 F13.333
X4.0973 F80.
Z-0.53
X5.3473
Z-0.78 F13.333
X9.6721 F80.
Z-0.53
X10.9221
Z-0.78 F13.333
X12.6303 F80.
X13.7887 Y5.8208
Y5.8209
G2 X13.9195 Y5.875 I0.1308 J-0.1309
G1 X15.99
G2 X16.175 Y5.69 I0. J-0.185
G1 Y5.25
G2 X16.05 Y5.075 I-0.185 J0.
G1 X16.74
G2 X16.925 Y4.89 I0. J-0.185
G1 Y4.01
G2 X16.74 Y3.825 I-0.185 J0.
G1 X16.05
G2 X16.175 Y3.65 I-0.06 J-0.175
G1 Y3.25
G2 X16.05 Y3.075 I-0.185 J0.
G1 X16.74
G2 X16.925 Y2.89 I0. J-0.185
G1 Y2.01
G2 X16.74 Y1.825 I-0.185 J0.
G1 X16.05
G2 X16.175 Y1.65 I-0.06 J-0.175
G1 Y1.21
G2 X15.99 Y1.025 I-0.185 J0.
G1 X15.8518
X14.6935 Y-0.1333
G2 X14.5626 Y-0.1875 I-0.1308 J0.1308
G1 X13.1666
Z-0.53
X11.9166
Z-0.78 F13.333
X6.6075 F80.
Z-0.53
X5.3575
Z-0.78 F13.333
X-2.1251 F80.
Z-0.53
X-3.3751
Z-0.78 F13.333
X-10.1324 F80.
Z-0.53
X-11.3824
Z-0.78 F13.333
X-14.3624 F80.
G3 X-14.3874 Y-0.2125 I0. J-0.025 F60.
G1 Y-0.2375
G19 G2 Y-0.2625 Z-0.755 J0. K0.025
G0 Z0.6
G17
M9
G53 G0 Z0.
M30
%
