%
(971-23-P-0104_MIDDLE PLATE_1875)
(T1  D=0.1875 CR=0. - ZMIN=-0.53 - FLAT END MILL)
G90 G94 G17 G91.1
G64 P0.001 Q0.001
G20
G53 G0 Z0.
(.3 CIRCLUAR THROUGH HOLE 2)
M9
T1 M6
S13000 M3
G4 P10.
G54
M7
G0 X-3.6904 Y-7.4856
G43 Z0.6 H1
G0 Z0.0675
G1 Z0.0062 F60.
G18 G2 X-3.6716 Z-0.0125 I0.0187 K0.
G1 X-3.6623
G17 G3 X-3.6466 Y-7.47 I0. J0.0156
X-3.7091 Z-0.0345 I-0.0312 J0. F80.
X-3.6466 Z-0.0566 I0.0312 J0.
X-3.7091 Z-0.0786 I-0.0312 J0.
X-3.6466 Z-0.1007 I0.0312 J0.
X-3.7091 Z-0.1227 I-0.0312 J0.
X-3.6466 Z-0.1447 I0.0312 J0.
X-3.7091 Z-0.1668 I-0.0312 J0.
X-3.6466 Z-0.1888 I0.0312 J0.
X-3.7091 Z-0.2109 I-0.0312 J0.
X-3.6466 Z-0.2329 I0.0312 J0.
X-3.7091 Z-0.2549 I-0.0312 J0.
X-3.6466 Z-0.277 I0.0312 J0.
X-3.7091 Z-0.299 I-0.0312 J0.
X-3.6466 Z-0.3211 I0.0312 J0.
X-3.7091 Z-0.3431 I-0.0312 J0.
X-3.6466 Z-0.3652 I0.0312 J0.
X-3.7091 Z-0.3872 I-0.0312 J0.
X-3.6466 Z-0.4092 I0.0312 J0.
X-3.7091 Z-0.4313 I-0.0312 J0.
X-3.6466 Z-0.4533 I0.0312 J0.
X-3.7091 Z-0.4754 I-0.0312 J0.
X-3.6466 Z-0.4974 I0.0312 J0.
X-3.7091 Z-0.5194 I-0.0312 J0.
X-3.6799 Y-7.5012 Z-0.53 I0.0312 J0.
X-3.6758 Y-7.4388 I0.002 J0.0312
X-3.6799 Y-7.5012 I-0.002 J-0.0312
X-3.6633 Y-7.4866 I0.001 J0.0156 F60.
G1 X-3.6627 Y-7.4773
X-3.6625 Y-7.474 Z-0.5297
X-3.6623 Y-7.4709 Z-0.5289
X-3.6621 Y-7.4679 Z-0.5275
X-3.6619 Y-7.4652 Z-0.5256
X-3.6618 Y-7.4629 Z-0.5233
X-3.6616 Y-7.4611 Z-0.5206
X-3.6615 Y-7.4597 Z-0.5177
Y-7.4588 Z-0.5145
Y-7.4586 Z-0.5113
G0 Z0.4
X-3.9896 Y-5.9336
Z0.1113
G1 Z0.05 F60.
X-3.9803
G3 X-3.9746 Y-5.928 I0. J0.0056
X-3.9971 Z0.0315 I-0.0113 J0. F80.
X-3.9746 Z0.013 I0.0113 J0.
X-3.9971 Z-0.0055 I-0.0113 J0.
X-3.9746 Z-0.0241 I0.0113 J0.
X-3.9971 Z-0.0426 I-0.0113 J0.
X-3.9746 Z-0.0611 I0.0113 J0.
X-3.9971 Z-0.0796 I-0.0113 J0.
X-3.9746 Z-0.0981 I0.0113 J0.
X-3.9971 Z-0.1166 I-0.0113 J0.
X-3.9746 Z-0.1351 I0.0113 J0.
X-3.9971 Z-0.1537 I-0.0113 J0.
X-3.9746 Z-0.1722 I0.0113 J0.
X-3.9971 Z-0.1907 I-0.0113 J0.
X-3.9746 Z-0.2092 I0.0113 J0.
X-3.9971 Z-0.2277 I-0.0113 J0.
X-3.9746 Z-0.2462 I0.0113 J0.
X-3.9971 Z-0.2647 I-0.0113 J0.
X-3.9746 Z-0.2833 I0.0113 J0.
X-3.9971 Z-0.3018 I-0.0113 J0.
X-3.9746 Z-0.3203 I0.0113 J0.
X-3.9971 Z-0.3388 I-0.0112 J0.
X-3.9746 Z-0.3573 I0.0112 J0.
X-3.9971 Z-0.3758 I-0.0112 J0.
X-3.9746 Z-0.3943 I0.0112 J0.
X-3.9971 Z-0.4129 I-0.0112 J0.
X-3.9746 Z-0.4314 I0.0112 J0.
X-3.9971 Z-0.4499 I-0.0112 J0.
X-3.9746 Z-0.4684 I0.0112 J0.
X-3.9971 Z-0.4869 I-0.0112 J0.
X-3.9746 Z-0.5054 I0.0112 J0.
X-3.9971 Z-0.5239 I-0.0112 J0.
X-3.9917 Y-5.9376 Z-0.53 I0.0112 J0.
X-3.9801 Y-5.9184 I0.0058 J0.0096
X-3.9917 Y-5.9376 I-0.0058 J-0.0096
X-3.984 Y-5.9357 I0.0029 J0.0048 F60.
G1 X-3.9791 Y-5.9277
G0 Z0.4
X-5.0006 Y-6.1106
Z0.13
G1 Z0.0688 F60.
G18 G2 X-4.9819 Z0.05 I0.0187 K0.
G1 X-4.9725
G17 G3 X-4.9569 Y-6.095 I0. J0.0156
X-5.0194 Z0.028 I-0.0312 J0. F80.
X-4.9569 Z0.0059 I0.0312 J0.
X-5.0194 Z-0.0161 I-0.0312 J0.
X-4.9569 Z-0.0382 I0.0312 J0.
X-5.0194 Z-0.0602 I-0.0312 J0.
X-4.9569 Z-0.0822 I0.0312 J0.
X-5.0194 Z-0.1043 I-0.0312 J0.
X-4.9569 Z-0.1263 I0.0312 J0.
X-5.0194 Z-0.1484 I-0.0312 J0.
X-4.9569 Z-0.1704 I0.0313 J0.
X-5.0194 Z-0.1924 I-0.0313 J0.
X-4.9569 Z-0.2145 I0.0313 J0.
X-5.0194 Z-0.2365 I-0.0313 J0.
X-4.9569 Z-0.2586 I0.0313 J0.
X-5.0194 Z-0.2806 I-0.0313 J0.
X-4.9569 Z-0.3027 I0.0313 J0.
X-5.0194 Z-0.3247 I-0.0313 J0.
X-4.9569 Z-0.3467 I0.0313 J0.
X-5.0194 Z-0.3688 I-0.0313 J0.
X-4.9569 Z-0.3908 I0.0313 J0.
X-5.0194 Z-0.4129 I-0.0313 J0.
X-4.9569 Z-0.4349 I0.0313 J0.
X-5.0194 Z-0.4569 I-0.0313 J0.
X-4.9569 Z-0.479 I0.0313 J0.
X-5.0194 Z-0.501 I-0.0313 J0.
X-4.9569 Z-0.5231 I0.0313 J0.
X-4.9709 Y-6.0689 Z-0.53 I-0.0313 J0.
X-5.0053 Y-6.1211 I-0.0172 J-0.0261
X-4.9709 Y-6.0689 I0.0172 J0.0261
X-4.9926 Y-6.0734 I-0.0086 J-0.0131 F60.
G1 X-4.9977 Y-6.0812
X-4.9995 Y-6.0839 Z-0.5297
X-5.0013 Y-6.0865 Z-0.5289
X-5.0029 Y-6.089 Z-0.5275
X-5.0044 Y-6.0913 Z-0.5256
X-5.0056 Y-6.0932 Z-0.5233
X-5.0067 Y-6.0948 Z-0.5206
X-5.0074 Y-6.0959 Z-0.5177
X-5.0079 Y-6.0966 Z-0.5145
X-5.008 Y-6.0969 Z-0.5113
G0 Z0.4
X-3.9896 Y-1.8076
Z0.1113
G1 Z0.05 F60.
X-3.9803
G3 X-3.9746 Y-1.802 I0. J0.0056
X-3.9971 Z0.0315 I-0.0113 J0. F80.
X-3.9746 Z0.013 I0.0113 J0.
X-3.9971 Z-0.0055 I-0.0113 J0.
X-3.9746 Z-0.0241 I0.0113 J0.
X-3.9971 Z-0.0426 I-0.0113 J0.
X-3.9746 Z-0.0611 I0.0113 J0.
X-3.9971 Z-0.0796 I-0.0113 J0.
X-3.9746 Z-0.0981 I0.0113 J0.
X-3.9971 Z-0.1166 I-0.0112 J0.
X-3.9746 Z-0.1351 I0.0112 J0.
X-3.9971 Z-0.1537 I-0.0112 J0.
X-3.9746 Z-0.1722 I0.0112 J0.
X-3.9971 Z-0.1907 I-0.0112 J0.
X-3.9746 Z-0.2092 I0.0112 J0.
X-3.9971 Z-0.2277 I-0.0112 J0.
X-3.9746 Z-0.2462 I0.0112 J0.
X-3.9971 Z-0.2647 I-0.0112 J0.
X-3.9746 Z-0.2833 I0.0112 J0.
X-3.9971 Z-0.3018 I-0.0112 J0.
X-3.9746 Z-0.3203 I0.0112 J0.
X-3.9971 Z-0.3388 I-0.0112 J0.
X-3.9746 Z-0.3573 I0.0112 J0.
X-3.9971 Z-0.3758 I-0.0112 J0.
X-3.9746 Z-0.3943 I0.0112 J0.
X-3.9971 Z-0.4129 I-0.0112 J0.
X-3.9746 Z-0.4314 I0.0112 J0.
X-3.9971 Z-0.4499 I-0.0112 J0.
X-3.9746 Z-0.4684 I0.0112 J0.
X-3.9971 Z-0.4869 I-0.0112 J0.
X-3.9746 Z-0.5054 I0.0112 J0.
X-3.9971 Z-0.5239 I-0.0112 J0.
X-3.9917 Y-1.8116 Z-0.53 I0.0112 J0.
X-3.9801 Y-1.7924 I0.0058 J0.0096
X-3.9917 Y-1.8116 I-0.0058 J-0.0096
X-3.984 Y-1.8097 I0.0029 J0.0048 F60.
G1 X-3.9791 Y-1.8017
G0 Z0.4
X-5.0006 Y3.8894
Z0.13
G1 Z0.0688 F60.
G18 G2 X-4.9819 Z0.05 I0.0187 K0.
G1 X-4.9725
G17 G3 X-4.9569 Y3.905 I0. J0.0156
X-5.0194 Z0.028 I-0.0312 J0. F80.
X-4.9569 Z0.0059 I0.0312 J0.
X-5.0194 Z-0.0161 I-0.0312 J0.
X-4.9569 Z-0.0382 I0.0312 J0.
X-5.0194 Z-0.0602 I-0.0312 J0.
X-4.9569 Z-0.0822 I0.0312 J0.
X-5.0194 Z-0.1043 I-0.0312 J0.
X-4.9569 Z-0.1263 I0.0312 J0.
X-5.0194 Z-0.1484 I-0.0312 J0.
X-4.9569 Z-0.1704 I0.0312 J0.
X-5.0194 Z-0.1924 I-0.0312 J0.
X-4.9569 Z-0.2145 I0.0312 J0.
X-5.0194 Z-0.2365 I-0.0312 J0.
X-4.9569 Z-0.2586 I0.0312 J0.
X-5.0194 Z-0.2806 I-0.0312 J0.
X-4.9569 Z-0.3027 I0.0312 J0.
X-5.0194 Z-0.3247 I-0.0312 J0.
X-4.9569 Z-0.3467 I0.0312 J0.
X-5.0194 Z-0.3688 I-0.0312 J0.
X-4.9569 Z-0.3908 I0.0312 J0.
X-5.0194 Z-0.4129 I-0.0312 J0.
X-4.9569 Z-0.4349 I0.0312 J0.
X-5.0194 Z-0.4569 I-0.0312 J0.
X-4.9569 Z-0.479 I0.0312 J0.
X-5.0194 Z-0.501 I-0.0312 J0.
X-4.9569 Z-0.5231 I0.0312 J0.
X-4.9709 Y3.9311 Z-0.53 I-0.0312 J0.
X-5.0053 Y3.8789 I-0.0172 J-0.0261
X-4.9709 Y3.9311 I0.0172 J0.0261
X-4.9926 Y3.9266 I-0.0086 J-0.0131 F60.
G1 X-4.9977 Y3.9188
X-4.9995 Y3.9161 Z-0.5297
X-5.0013 Y3.9135 Z-0.5289
X-5.0029 Y3.911 Z-0.5275
X-5.0044 Y3.9087 Z-0.5256
X-5.0056 Y3.9068 Z-0.5233
X-5.0067 Y3.9052 Z-0.5206
X-5.0074 Y3.9041 Z-0.5177
X-5.0079 Y3.9034 Z-0.5145
X-5.008 Y3.9031 Z-0.5113
G0 Z0.4
X-3.6904 Y5.5144
Z0.0675
G1 Z0.0062 F60.
G18 G2 X-3.6716 Z-0.0125 I0.0187 K0.
G1 X-3.6623
G17 G3 X-3.6466 Y5.53 I0. J0.0156
X-3.7091 Z-0.0345 I-0.0312 J0. F80.
X-3.6466 Z-0.0566 I0.0312 J0.
X-3.7091 Z-0.0786 I-0.0312 J0.
X-3.6466 Z-0.1007 I0.0312 J0.
X-3.7091 Z-0.1227 I-0.0312 J0.
X-3.6466 Z-0.1447 I0.0313 J0.
X-3.7091 Z-0.1668 I-0.0313 J0.
X-3.6466 Z-0.1888 I0.0313 J0.
X-3.7091 Z-0.2109 I-0.0313 J0.
X-3.6466 Z-0.2329 I0.0313 J0.
X-3.7091 Z-0.2549 I-0.0313 J0.
X-3.6466 Z-0.277 I0.0313 J0.
X-3.7091 Z-0.299 I-0.0313 J0.
X-3.6466 Z-0.3211 I0.0313 J0.
X-3.7091 Z-0.3431 I-0.0313 J0.
X-3.6466 Z-0.3652 I0.0313 J0.
X-3.7091 Z-0.3872 I-0.0313 J0.
X-3.6466 Z-0.4092 I0.0313 J0.
X-3.7091 Z-0.4313 I-0.0313 J0.
X-3.6466 Z-0.4533 I0.0313 J0.
X-3.7091 Z-0.4754 I-0.0313 J0.
X-3.6466 Z-0.4974 I0.0313 J0.
X-3.7091 Z-0.5194 I-0.0313 J0.
X-3.6799 Y5.4988 Z-0.53 I0.0313 J0.
X-3.6758 Y5.5612 I0.002 J0.0312
X-3.6799 Y5.4988 I-0.002 J-0.0312
X-3.6633 Y5.5134 I0.001 J0.0156 F60.
G1 X-3.6627 Y5.5227
X-3.6625 Y5.526 Z-0.5297
X-3.6623 Y5.5291 Z-0.5289
X-3.6621 Y5.5321 Z-0.5275
X-3.6619 Y5.5348 Z-0.5256
X-3.6618 Y5.5371 Z-0.5233
X-3.6616 Y5.5389 Z-0.5206
X-3.6615 Y5.5403 Z-0.5177
Y5.5412 Z-0.5145
Y5.5414 Z-0.5113
G0 Z0.4
X3.5596 Y5.5144
Z0.0675
G1 Z0.0062 F60.
G18 G2 X3.5784 Z-0.0125 I0.0187 K0.
G1 X3.5877
G17 G3 X3.6034 Y5.53 I0. J0.0156
X3.5409 Z-0.0345 I-0.0312 J0. F80.
X3.6034 Z-0.0566 I0.0312 J0.
X3.5409 Z-0.0786 I-0.0312 J0.
X3.6034 Z-0.1007 I0.0312 J0.
X3.5409 Z-0.1227 I-0.0312 J0.
X3.6034 Z-0.1447 I0.0313 J0.
X3.5409 Z-0.1668 I-0.0313 J0.
X3.6034 Z-0.1888 I0.0313 J0.
X3.5409 Z-0.2109 I-0.0313 J0.
X3.6034 Z-0.2329 I0.0313 J0.
X3.5409 Z-0.2549 I-0.0313 J0.
X3.6034 Z-0.277 I0.0313 J0.
X3.5409 Z-0.299 I-0.0313 J0.
X3.6034 Z-0.3211 I0.0313 J0.
X3.5409 Z-0.3431 I-0.0313 J0.
X3.6034 Z-0.3652 I0.0313 J0.
X3.5409 Z-0.3872 I-0.0313 J0.
X3.6034 Z-0.4092 I0.0313 J0.
X3.5409 Z-0.4313 I-0.0313 J0.
X3.6034 Z-0.4533 I0.0313 J0.
X3.5409 Z-0.4754 I-0.0313 J0.
X3.6034 Z-0.4974 I0.0313 J0.
X3.5409 Z-0.5194 I-0.0313 J0.
X3.5701 Y5.4988 Z-0.53 I0.0313 J0.
X3.5742 Y5.5612 I0.002 J0.0312
X3.5701 Y5.4988 I-0.002 J-0.0312
X3.5867 Y5.5134 I0.001 J0.0156 F60.
G1 X3.5873 Y5.5227
X3.5875 Y5.526 Z-0.5297
X3.5877 Y5.5291 Z-0.5289
X3.5879 Y5.5321 Z-0.5275
X3.5881 Y5.5348 Z-0.5256
X3.5882 Y5.5371 Z-0.5233
X3.5884 Y5.5389 Z-0.5206
X3.5885 Y5.5403 Z-0.5177
Y5.5412 Z-0.5145
Y5.5414 Z-0.5113
G0 Z0.4
X4.4994 Y3.8894
Z0.13
G1 Z0.0688 F60.
G18 G2 X4.5181 Z0.05 I0.0187 K0.
G1 X4.5275
G17 G3 X4.5431 Y3.905 I0. J0.0156
X4.4806 Z0.028 I-0.0312 J0. F80.
X4.5431 Z0.0059 I0.0312 J0.
X4.4806 Z-0.0161 I-0.0312 J0.
X4.5431 Z-0.0382 I0.0312 J0.
X4.4806 Z-0.0602 I-0.0312 J0.
X4.5431 Z-0.0822 I0.0312 J0.
X4.4806 Z-0.1043 I-0.0312 J0.
X4.5431 Z-0.1263 I0.0312 J0.
X4.4806 Z-0.1484 I-0.0312 J0.
X4.5431 Z-0.1704 I0.0312 J0.
X4.4806 Z-0.1924 I-0.0312 J0.
X4.5431 Z-0.2145 I0.0312 J0.
X4.4806 Z-0.2365 I-0.0312 J0.
X4.5431 Z-0.2586 I0.0312 J0.
X4.4806 Z-0.2806 I-0.0312 J0.
X4.5431 Z-0.3027 I0.0312 J0.
X4.4806 Z-0.3247 I-0.0312 J0.
X4.5431 Z-0.3467 I0.0312 J0.
X4.4806 Z-0.3688 I-0.0312 J0.
X4.5431 Z-0.3908 I0.0312 J0.
X4.4806 Z-0.4129 I-0.0312 J0.
X4.5431 Z-0.4349 I0.0312 J0.
X4.4806 Z-0.4569 I-0.0312 J0.
X4.5431 Z-0.479 I0.0312 J0.
X4.4806 Z-0.501 I-0.0312 J0.
X4.5431 Z-0.5231 I0.0312 J0.
X4.5291 Y3.9311 Z-0.53 I-0.0312 J0.
X4.4947 Y3.8789 I-0.0172 J-0.0261
X4.5291 Y3.9311 I0.0172 J0.0261
X4.5074 Y3.9266 I-0.0086 J-0.0131 F60.
G1 X4.5023 Y3.9188
X4.5005 Y3.9161 Z-0.5297
X4.4987 Y3.9135 Z-0.5289
X4.4971 Y3.911 Z-0.5275
X4.4956 Y3.9087 Z-0.5256
X4.4944 Y3.9068 Z-0.5233
X4.4933 Y3.9052 Z-0.5206
X4.4926 Y3.9041 Z-0.5177
X4.4921 Y3.9034 Z-0.5145
X4.492 Y3.9031 Z-0.5113
G0 Z0.4
X3.5121 Y3.62
Z0.1113
G1 Z0.05 F60.
X3.5152 Y3.6169
G3 X3.5184 Y3.62 I0. J0.0031
X3.5059 Z0.0324 I-0.0063 J0. F80.
X3.5184 Z0.0147 I0.0063 J0.
X3.5059 Z-0.0029 I-0.0063 J0.
X3.5184 Z-0.0205 I0.0063 J0.
X3.5059 Z-0.0382 I-0.0063 J0.
X3.5184 Z-0.0558 I0.0063 J0.
X3.5059 Z-0.0734 I-0.0063 J0.
X3.5184 Z-0.0911 I0.0063 J0.
X3.5059 Z-0.1087 I-0.0063 J0.
X3.5184 Z-0.1263 I0.0063 J0.
X3.5059 Z-0.144 I-0.0063 J0.
X3.5184 Z-0.1616 I0.0063 J0.
X3.5059 Z-0.1792 I-0.0063 J0.
X3.5184 Z-0.1969 I0.0063 J0.
X3.5059 Z-0.2145 I-0.0063 J0.
X3.5184 Z-0.2321 I0.0063 J0.
X3.5059 Z-0.2498 I-0.0063 J0.
X3.5184 Z-0.2674 I0.0063 J0.
X3.5059 Z-0.285 I-0.0063 J0.
X3.5184 Z-0.3027 I0.0063 J0.
X3.5059 Z-0.3203 I-0.0063 J0.
X3.5184 Z-0.3379 I0.0063 J0.
X3.5059 Z-0.3556 I-0.0063 J0.
X3.5184 Z-0.3732 I0.0063 J0.
X3.5059 Z-0.3908 I-0.0063 J0.
X3.5184 Z-0.4085 I0.0063 J0.
X3.5059 Z-0.4261 I-0.0063 J0.
X3.5184 Z-0.4437 I0.0063 J0.
X3.5059 Z-0.4613 I-0.0063 J0.
X3.5184 Z-0.479 I0.0063 J0.
X3.5059 Z-0.4966 I-0.0063 J0.
X3.5184 Z-0.5142 I0.0063 J0.
X3.5062 Y3.6221 Z-0.53 I-0.0063 J0.
X3.518 Y3.6179 I0.0059 J-0.0021
X3.5062 Y3.6221 I-0.0059 J0.0021
X3.5081 Y3.6181 I0.003 J-0.001 F60.
G1 X3.5121 Y3.62
G0 Z0.4
X1.8221
Z0.1113
G1 Z0.05 F60.
X1.8252 Y3.6169
G3 X1.8284 Y3.62 I0. J0.0031
X1.8159 Z0.0324 I-0.0063 J0. F80.
X1.8284 Z0.0147 I0.0063 J0.
X1.8159 Z-0.0029 I-0.0063 J0.
X1.8284 Z-0.0205 I0.0063 J0.
X1.8159 Z-0.0382 I-0.0063 J0.
X1.8284 Z-0.0558 I0.0063 J0.
X1.8159 Z-0.0734 I-0.0063 J0.
X1.8284 Z-0.0911 I0.0063 J0.
X1.8159 Z-0.1087 I-0.0063 J0.
X1.8284 Z-0.1263 I0.0063 J0.
X1.8159 Z-0.144 I-0.0063 J0.
X1.8284 Z-0.1616 I0.0063 J0.
X1.8159 Z-0.1792 I-0.0063 J0.
X1.8284 Z-0.1969 I0.0063 J0.
X1.8159 Z-0.2145 I-0.0063 J0.
X1.8284 Z-0.2321 I0.0063 J0.
X1.8159 Z-0.2498 I-0.0063 J0.
X1.8284 Z-0.2674 I0.0063 J0.
X1.8159 Z-0.285 I-0.0063 J0.
X1.8284 Z-0.3027 I0.0063 J0.
X1.8159 Z-0.3203 I-0.0063 J0.
X1.8284 Z-0.3379 I0.0063 J0.
X1.8159 Z-0.3556 I-0.0063 J0.
X1.8284 Z-0.3732 I0.0063 J0.
X1.8159 Z-0.3908 I-0.0063 J0.
X1.8284 Z-0.4085 I0.0063 J0.
X1.8159 Z-0.4261 I-0.0063 J0.
X1.8284 Z-0.4437 I0.0063 J0.
X1.8159 Z-0.4613 I-0.0063 J0.
X1.8284 Z-0.479 I0.0063 J0.
X1.8159 Z-0.4966 I-0.0063 J0.
X1.8284 Z-0.5142 I0.0063 J0.
X1.8162 Y3.6221 Z-0.53 I-0.0063 J0.
X1.828 Y3.6179 I0.0059 J-0.0021
X1.8162 Y3.6221 I-0.0059 J0.0021
X1.8181 Y3.6181 I0.003 J-0.001 F60.
G1 X1.8221 Y3.62
G0 Z0.4
X2.0384 Y-0.3156
Z0.1113
G1 Z0.05 F60.
X2.0477
G3 X2.0534 Y-0.31 I0. J0.0056
X2.0309 Z0.0315 I-0.0113 J0. F80.
X2.0534 Z0.013 I0.0113 J0.
X2.0309 Z-0.0055 I-0.0113 J0.
X2.0534 Z-0.0241 I0.0113 J0.
X2.0309 Z-0.0426 I-0.0113 J0.
X2.0534 Z-0.0611 I0.0113 J0.
X2.0309 Z-0.0796 I-0.0113 J0.
X2.0534 Z-0.0981 I0.0113 J0.
X2.0309 Z-0.1166 I-0.0113 J0.
X2.0534 Z-0.1351 I0.0113 J0.
X2.0309 Z-0.1537 I-0.0113 J0.
X2.0534 Z-0.1722 I0.0113 J0.
X2.0309 Z-0.1907 I-0.0113 J0.
X2.0534 Z-0.2092 I0.0113 J0.
X2.0309 Z-0.2277 I-0.0113 J0.
X2.0534 Z-0.2462 I0.0113 J0.
X2.0309 Z-0.2647 I-0.0113 J0.
X2.0534 Z-0.2833 I0.0113 J0.
X2.0309 Z-0.3018 I-0.0113 J0.
X2.0534 Z-0.3203 I0.0113 J0.
X2.0309 Z-0.3388 I-0.0113 J0.
X2.0534 Z-0.3573 I0.0113 J0.
X2.0309 Z-0.3758 I-0.0113 J0.
X2.0534 Z-0.3943 I0.0113 J0.
X2.0309 Z-0.4129 I-0.0113 J0.
X2.0534 Z-0.4314 I0.0113 J0.
X2.0309 Z-0.4499 I-0.0113 J0.
X2.0534 Z-0.4684 I0.0113 J0.
X2.0309 Z-0.4869 I-0.0113 J0.
X2.0534 Z-0.5054 I0.0113 J0.
X2.0309 Z-0.5239 I-0.0113 J0.
X2.0363 Y-0.3196 Z-0.53 I0.0112 J0.
X2.0479 Y-0.3004 I0.0058 J0.0096
X2.0363 Y-0.3196 I-0.0058 J-0.0096
X2.044 Y-0.3177 I0.0029 J0.0048 F60.
G1 X2.0489 Y-0.3097
G0 Z0.4
X2.0384 Y0.7344
Z0.1113
G1 Z0.05 F60.
X2.0477
G3 X2.0534 Y0.74 I0. J0.0056
X2.0309 Z0.0315 I-0.0113 J0. F80.
X2.0534 Z0.013 I0.0113 J0.
X2.0309 Z-0.0055 I-0.0113 J0.
X2.0534 Z-0.0241 I0.0113 J0.
X2.0309 Z-0.0426 I-0.0113 J0.
X2.0534 Z-0.0611 I0.0113 J0.
X2.0309 Z-0.0796 I-0.0113 J0.
X2.0534 Z-0.0981 I0.0113 J0.
X2.0309 Z-0.1166 I-0.0113 J0.
X2.0534 Z-0.1351 I0.0113 J0.
X2.0309 Z-0.1537 I-0.0113 J0.
X2.0534 Z-0.1722 I0.0113 J0.
X2.0309 Z-0.1907 I-0.0113 J0.
X2.0534 Z-0.2092 I0.0113 J0.
X2.0309 Z-0.2277 I-0.0113 J0.
X2.0534 Z-0.2462 I0.0113 J0.
X2.0309 Z-0.2647 I-0.0113 J0.
X2.0534 Z-0.2833 I0.0113 J0.
X2.0309 Z-0.3018 I-0.0113 J0.
X2.0534 Z-0.3203 I0.0113 J0.
X2.0309 Z-0.3388 I-0.0113 J0.
X2.0534 Z-0.3573 I0.0113 J0.
X2.0309 Z-0.3758 I-0.0113 J0.
X2.0534 Z-0.3943 I0.0113 J0.
X2.0309 Z-0.4129 I-0.0112 J0.
X2.0534 Z-0.4314 I0.0112 J0.
X2.0309 Z-0.4499 I-0.0112 J0.
X2.0534 Z-0.4684 I0.0112 J0.
X2.0309 Z-0.4869 I-0.0112 J0.
X2.0534 Z-0.5054 I0.0112 J0.
X2.0309 Z-0.5239 I-0.0112 J0.
X2.0363 Y0.7304 Z-0.53 I0.0112 J0.
X2.0479 Y0.7496 I0.0058 J0.0096
X2.0363 Y0.7304 I-0.0058 J-0.0096
X2.044 Y0.7323 I0.0029 J0.0048 F60.
G1 X2.0489 Y0.7403
G0 Z0.4
X1.8221 Y1.74
Z0.1113
G1 Z0.05 F60.
X1.8252 Y1.7369
G3 X1.8284 Y1.74 I0. J0.0031
X1.8159 Z0.0324 I-0.0063 J0. F80.
X1.8284 Z0.0147 I0.0063 J0.
X1.8159 Z-0.0029 I-0.0063 J0.
X1.8284 Z-0.0205 I0.0063 J0.
X1.8159 Z-0.0382 I-0.0063 J0.
X1.8284 Z-0.0558 I0.0063 J0.
X1.8159 Z-0.0734 I-0.0063 J0.
X1.8284 Z-0.0911 I0.0063 J0.
X1.8159 Z-0.1087 I-0.0063 J0.
X1.8284 Z-0.1263 I0.0063 J0.
X1.8159 Z-0.144 I-0.0063 J0.
X1.8284 Z-0.1616 I0.0063 J0.
X1.8159 Z-0.1792 I-0.0063 J0.
X1.8284 Z-0.1969 I0.0063 J0.
X1.8159 Z-0.2145 I-0.0063 J0.
X1.8284 Z-0.2321 I0.0063 J0.
X1.8159 Z-0.2498 I-0.0063 J0.
X1.8284 Z-0.2674 I0.0063 J0.
X1.8159 Z-0.285 I-0.0063 J0.
X1.8284 Z-0.3027 I0.0063 J0.
X1.8159 Z-0.3203 I-0.0063 J0.
X1.8284 Z-0.3379 I0.0063 J0.
X1.8159 Z-0.3556 I-0.0063 J0.
X1.8284 Z-0.3732 I0.0063 J0.
X1.8159 Z-0.3908 I-0.0063 J0.
X1.8284 Z-0.4085 I0.0063 J0.
X1.8159 Z-0.4261 I-0.0063 J0.
X1.8284 Z-0.4437 I0.0063 J0.
X1.8159 Z-0.4613 I-0.0063 J0.
X1.8284 Z-0.479 I0.0063 J0.
X1.8159 Z-0.4966 I-0.0063 J0.
X1.8284 Z-0.5142 I0.0063 J0.
X1.8162 Y1.7421 Z-0.53 I-0.0063 J0.
X1.828 Y1.7379 I0.0059 J-0.0021
X1.8162 Y1.7421 I-0.0059 J0.0021
X1.8181 Y1.7381 I0.003 J-0.001 F60.
G1 X1.8221 Y1.74
G0 Z0.4
X3.5121
Z0.1113
G1 Z0.05 F60.
X3.5152 Y1.7369
G3 X3.5184 Y1.74 I0. J0.0031
X3.5059 Z0.0324 I-0.0063 J0. F80.
X3.5184 Z0.0147 I0.0063 J0.
X3.5059 Z-0.0029 I-0.0063 J0.
X3.5184 Z-0.0205 I0.0063 J0.
X3.5059 Z-0.0382 I-0.0063 J0.
X3.5184 Z-0.0558 I0.0063 J0.
X3.5059 Z-0.0734 I-0.0063 J0.
X3.5184 Z-0.0911 I0.0063 J0.
X3.5059 Z-0.1087 I-0.0063 J0.
X3.5184 Z-0.1263 I0.0063 J0.
X3.5059 Z-0.144 I-0.0063 J0.
X3.5184 Z-0.1616 I0.0063 J0.
X3.5059 Z-0.1792 I-0.0063 J0.
X3.5184 Z-0.1969 I0.0063 J0.
X3.5059 Z-0.2145 I-0.0063 J0.
X3.5184 Z-0.2321 I0.0063 J0.
X3.5059 Z-0.2498 I-0.0063 J0.
X3.5184 Z-0.2674 I0.0063 J0.
X3.5059 Z-0.285 I-0.0063 J0.
X3.5184 Z-0.3027 I0.0063 J0.
X3.5059 Z-0.3203 I-0.0063 J0.
X3.5184 Z-0.3379 I0.0063 J0.
X3.5059 Z-0.3556 I-0.0063 J0.
X3.5184 Z-0.3732 I0.0063 J0.
X3.5059 Z-0.3908 I-0.0063 J0.
X3.5184 Z-0.4085 I0.0063 J0.
X3.5059 Z-0.4261 I-0.0063 J0.
X3.5184 Z-0.4437 I0.0063 J0.
X3.5059 Z-0.4613 I-0.0063 J0.
X3.5184 Z-0.479 I0.0063 J0.
X3.5059 Z-0.4966 I-0.0063 J0.
X3.5184 Z-0.5142 I0.0063 J0.
X3.5062 Y1.7421 Z-0.53 I-0.0063 J0.
X3.518 Y1.7379 I0.0059 J-0.0021
X3.5062 Y1.7421 I-0.0059 J0.0021
X3.5081 Y1.7381 I0.003 J-0.001 F60.
G1 X3.5121 Y1.74
G0 Z0.4
X4.2684 Y0.7344
Z0.1113
G1 Z0.05 F60.
X4.2777
G3 X4.2834 Y0.74 I0. J0.0056
X4.2609 Z0.0315 I-0.0113 J0. F80.
X4.2834 Z0.013 I0.0113 J0.
X4.2609 Z-0.0055 I-0.0113 J0.
X4.2834 Z-0.0241 I0.0113 J0.
X4.2609 Z-0.0426 I-0.0113 J0.
X4.2834 Z-0.0611 I0.0113 J0.
X4.2609 Z-0.0796 I-0.0113 J0.
X4.2834 Z-0.0981 I0.0113 J0.
X4.2609 Z-0.1166 I-0.0113 J0.
X4.2834 Z-0.1351 I0.0113 J0.
X4.2609 Z-0.1537 I-0.0113 J0.
X4.2834 Z-0.1722 I0.0113 J0.
X4.2609 Z-0.1907 I-0.0113 J0.
X4.2834 Z-0.2092 I0.0113 J0.
X4.2609 Z-0.2277 I-0.0113 J0.
X4.2834 Z-0.2462 I0.0113 J0.
X4.2609 Z-0.2647 I-0.0113 J0.
X4.2834 Z-0.2833 I0.0113 J0.
X4.2609 Z-0.3018 I-0.0113 J0.
X4.2834 Z-0.3203 I0.0113 J0.
X4.2609 Z-0.3388 I-0.0113 J0.
X4.2834 Z-0.3573 I0.0113 J0.
X4.2609 Z-0.3758 I-0.0113 J0.
X4.2834 Z-0.3943 I0.0113 J0.
X4.2609 Z-0.4129 I-0.0113 J0.
X4.2834 Z-0.4314 I0.0113 J0.
X4.2609 Z-0.4499 I-0.0113 J0.
X4.2834 Z-0.4684 I0.0113 J0.
X4.2609 Z-0.4869 I-0.0113 J0.
X4.2834 Z-0.5054 I0.0113 J0.
X4.2609 Z-0.5239 I-0.0113 J0.
X4.2663 Y0.7304 Z-0.53 I0.0113 J0.
X4.2779 Y0.7496 I0.0058 J0.0096
X4.2663 Y0.7304 I-0.0058 J-0.0096
X4.274 Y0.7323 I0.0029 J0.0048 F60.
G1 X4.2789 Y0.7403
G0 Z0.4
X4.2684 Y-0.3156
Z0.1113
G1 Z0.05 F60.
X4.2777
G3 X4.2834 Y-0.31 I0. J0.0056
X4.2609 Z0.0315 I-0.0113 J0. F80.
X4.2834 Z0.013 I0.0113 J0.
X4.2609 Z-0.0055 I-0.0113 J0.
X4.2834 Z-0.0241 I0.0113 J0.
X4.2609 Z-0.0426 I-0.0113 J0.
X4.2834 Z-0.0611 I0.0113 J0.
X4.2609 Z-0.0796 I-0.0113 J0.
X4.2834 Z-0.0981 I0.0113 J0.
X4.2609 Z-0.1166 I-0.0113 J0.
X4.2834 Z-0.1351 I0.0113 J0.
X4.2609 Z-0.1537 I-0.0113 J0.
X4.2834 Z-0.1722 I0.0113 J0.
X4.2609 Z-0.1907 I-0.0113 J0.
X4.2834 Z-0.2092 I0.0113 J0.
X4.2609 Z-0.2277 I-0.0113 J0.
X4.2834 Z-0.2462 I0.0113 J0.
X4.2609 Z-0.2647 I-0.0113 J0.
X4.2834 Z-0.2833 I0.0113 J0.
X4.2609 Z-0.3018 I-0.0113 J0.
X4.2834 Z-0.3203 I0.0113 J0.
X4.2609 Z-0.3388 I-0.0113 J0.
X4.2834 Z-0.3573 I0.0113 J0.
X4.2609 Z-0.3758 I-0.0113 J0.
X4.2834 Z-0.3943 I0.0113 J0.
X4.2609 Z-0.4129 I-0.0113 J0.
X4.2834 Z-0.4314 I0.0113 J0.
X4.2609 Z-0.4499 I-0.0113 J0.
X4.2834 Z-0.4684 I0.0113 J0.
X4.2609 Z-0.4869 I-0.0113 J0.
X4.2834 Z-0.5054 I0.0113 J0.
X4.2609 Z-0.5239 I-0.0113 J0.
X4.2663 Y-0.3196 Z-0.53 I0.0113 J0.
X4.2779 Y-0.3004 I0.0058 J0.0096
X4.2663 Y-0.3196 I-0.0058 J-0.0096
X4.274 Y-0.3177 I0.0029 J0.0048 F60.
G1 X4.2789 Y-0.3097
G0 Z0.4
X3.2044 Y-1.8076
Z0.1113
G1 Z0.05 F60.
X3.2137
G3 X3.2194 Y-1.802 I0. J0.0056
X3.1969 Z0.0315 I-0.0113 J0. F80.
X3.2194 Z0.013 I0.0113 J0.
X3.1969 Z-0.0055 I-0.0113 J0.
X3.2194 Z-0.0241 I0.0113 J0.
X3.1969 Z-0.0426 I-0.0113 J0.
X3.2194 Z-0.0611 I0.0113 J0.
X3.1969 Z-0.0796 I-0.0113 J0.
X3.2194 Z-0.0981 I0.0113 J0.
X3.1969 Z-0.1166 I-0.0112 J0.
X3.2194 Z-0.1351 I0.0112 J0.
X3.1969 Z-0.1537 I-0.0112 J0.
X3.2194 Z-0.1722 I0.0112 J0.
X3.1969 Z-0.1907 I-0.0112 J0.
X3.2194 Z-0.2092 I0.0112 J0.
X3.1969 Z-0.2277 I-0.0112 J0.
X3.2194 Z-0.2462 I0.0112 J0.
X3.1969 Z-0.2647 I-0.0112 J0.
X3.2194 Z-0.2833 I0.0112 J0.
X3.1969 Z-0.3018 I-0.0112 J0.
X3.2194 Z-0.3203 I0.0112 J0.
X3.1969 Z-0.3388 I-0.0112 J0.
X3.2194 Z-0.3573 I0.0112 J0.
X3.1969 Z-0.3758 I-0.0112 J0.
X3.2194 Z-0.3943 I0.0112 J0.
X3.1969 Z-0.4129 I-0.0112 J0.
X3.2194 Z-0.4314 I0.0112 J0.
X3.1969 Z-0.4499 I-0.0112 J0.
X3.2194 Z-0.4684 I0.0112 J0.
X3.1969 Z-0.4869 I-0.0112 J0.
X3.2194 Z-0.5054 I0.0112 J0.
X3.1969 Z-0.5239 I-0.0112 J0.
X3.2023 Y-1.8116 Z-0.53 I0.0112 J0.
X3.2139 Y-1.7924 I0.0058 J0.0096
X3.2023 Y-1.8116 I-0.0058 J-0.0096
X3.21 Y-1.8097 I0.0029 J0.0048 F60.
G1 X3.2149 Y-1.8017
G0 Z0.4
X4.4994 Y-6.1106
Z0.13
G1 Z0.0688 F60.
G18 G2 X4.5181 Z0.05 I0.0187 K0.
G1 X4.5275
G17 G3 X4.5431 Y-6.095 I0. J0.0156
X4.4806 Z0.028 I-0.0312 J0. F80.
X4.5431 Z0.0059 I0.0312 J0.
X4.4806 Z-0.0161 I-0.0312 J0.
X4.5431 Z-0.0382 I0.0312 J0.
X4.4806 Z-0.0602 I-0.0312 J0.
X4.5431 Z-0.0822 I0.0312 J0.
X4.4806 Z-0.1043 I-0.0312 J0.
X4.5431 Z-0.1263 I0.0312 J0.
X4.4806 Z-0.1484 I-0.0312 J0.
X4.5431 Z-0.1704 I0.0313 J0.
X4.4806 Z-0.1924 I-0.0313 J0.
X4.5431 Z-0.2145 I0.0313 J0.
X4.4806 Z-0.2365 I-0.0313 J0.
X4.5431 Z-0.2586 I0.0313 J0.
X4.4806 Z-0.2806 I-0.0313 J0.
X4.5431 Z-0.3027 I0.0313 J0.
X4.4806 Z-0.3247 I-0.0313 J0.
X4.5431 Z-0.3467 I0.0313 J0.
X4.4806 Z-0.3688 I-0.0313 J0.
X4.5431 Z-0.3908 I0.0313 J0.
X4.4806 Z-0.4129 I-0.0313 J0.
X4.5431 Z-0.4349 I0.0313 J0.
X4.4806 Z-0.4569 I-0.0313 J0.
X4.5431 Z-0.479 I0.0313 J0.
X4.4806 Z-0.501 I-0.0313 J0.
X4.5431 Z-0.5231 I0.0313 J0.
X4.5291 Y-6.0689 Z-0.53 I-0.0313 J0.
X4.4947 Y-6.1211 I-0.0172 J-0.0261
X4.5291 Y-6.0689 I0.0172 J0.0261
X4.5074 Y-6.0734 I-0.0086 J-0.0131 F60.
G1 X4.5023 Y-6.0812
X4.5005 Y-6.0839 Z-0.5297
X4.4987 Y-6.0865 Z-0.5289
X4.4971 Y-6.089 Z-0.5275
X4.4956 Y-6.0913 Z-0.5256
X4.4944 Y-6.0932 Z-0.5233
X4.4933 Y-6.0948 Z-0.5206
X4.4926 Y-6.0959 Z-0.5177
X4.4921 Y-6.0966 Z-0.5145
X4.492 Y-6.0969 Z-0.5113
G0 Z0.4
X3.2044 Y-5.9336
Z0.1113
G1 Z0.05 F60.
X3.2137
G3 X3.2194 Y-5.928 I0. J0.0056
X3.1969 Z0.0315 I-0.0113 J0. F80.
X3.2194 Z0.013 I0.0113 J0.
X3.1969 Z-0.0055 I-0.0113 J0.
X3.2194 Z-0.0241 I0.0113 J0.
X3.1969 Z-0.0426 I-0.0113 J0.
X3.2194 Z-0.0611 I0.0113 J0.
X3.1969 Z-0.0796 I-0.0113 J0.
X3.2194 Z-0.0981 I0.0113 J0.
X3.1969 Z-0.1166 I-0.0113 J0.
X3.2194 Z-0.1351 I0.0113 J0.
X3.1969 Z-0.1537 I-0.0113 J0.
X3.2194 Z-0.1722 I0.0113 J0.
X3.1969 Z-0.1907 I-0.0113 J0.
X3.2194 Z-0.2092 I0.0113 J0.
X3.1969 Z-0.2277 I-0.0113 J0.
X3.2194 Z-0.2462 I0.0113 J0.
X3.1969 Z-0.2647 I-0.0113 J0.
X3.2194 Z-0.2833 I0.0113 J0.
X3.1969 Z-0.3018 I-0.0113 J0.
X3.2194 Z-0.3203 I0.0113 J0.
X3.1969 Z-0.3388 I-0.0112 J0.
X3.2194 Z-0.3573 I0.0112 J0.
X3.1969 Z-0.3758 I-0.0112 J0.
X3.2194 Z-0.3943 I0.0112 J0.
X3.1969 Z-0.4129 I-0.0112 J0.
X3.2194 Z-0.4314 I0.0112 J0.
X3.1969 Z-0.4499 I-0.0112 J0.
X3.2194 Z-0.4684 I0.0112 J0.
X3.1969 Z-0.4869 I-0.0112 J0.
X3.2194 Z-0.5054 I0.0112 J0.
X3.1969 Z-0.5239 I-0.0112 J0.
X3.2023 Y-5.9376 Z-0.53 I0.0112 J0.
X3.2139 Y-5.9184 I0.0058 J0.0096
X3.2023 Y-5.9376 I-0.0058 J-0.0096
X3.21 Y-5.9357 I0.0029 J0.0048 F60.
G1 X3.2149 Y-5.9277
G0 Z0.4
X3.5596 Y-7.4856
Z0.0675
G1 Z0.0062 F60.
G18 G2 X3.5784 Z-0.0125 I0.0187 K0.
G1 X3.5877
G17 G3 X3.6034 Y-7.47 I0. J0.0156
X3.5409 Z-0.0345 I-0.0312 J0. F80.
X3.6034 Z-0.0566 I0.0312 J0.
X3.5409 Z-0.0786 I-0.0312 J0.
X3.6034 Z-0.1007 I0.0312 J0.
X3.5409 Z-0.1227 I-0.0312 J0.
X3.6034 Z-0.1447 I0.0312 J0.
X3.5409 Z-0.1668 I-0.0312 J0.
X3.6034 Z-0.1888 I0.0312 J0.
X3.5409 Z-0.2109 I-0.0312 J0.
X3.6034 Z-0.2329 I0.0312 J0.
X3.5409 Z-0.2549 I-0.0312 J0.
X3.6034 Z-0.277 I0.0312 J0.
X3.5409 Z-0.299 I-0.0312 J0.
X3.6034 Z-0.3211 I0.0312 J0.
X3.5409 Z-0.3431 I-0.0312 J0.
X3.6034 Z-0.3652 I0.0312 J0.
X3.5409 Z-0.3872 I-0.0312 J0.
X3.6034 Z-0.4092 I0.0312 J0.
X3.5409 Z-0.4313 I-0.0312 J0.
X3.6034 Z-0.4533 I0.0312 J0.
X3.5409 Z-0.4754 I-0.0312 J0.
X3.6034 Z-0.4974 I0.0312 J0.
X3.5409 Z-0.5194 I-0.0312 J0.
X3.5701 Y-7.5012 Z-0.53 I0.0312 J0.
X3.5742 Y-7.4388 I0.002 J0.0312
X3.5701 Y-7.5012 I-0.002 J-0.0312
X3.5867 Y-7.4866 I0.001 J0.0156 F60.
G1 X3.5873 Y-7.4773
X3.5875 Y-7.474 Z-0.5297
X3.5877 Y-7.4709 Z-0.5289
X3.5879 Y-7.4679 Z-0.5275
X3.5881 Y-7.4652 Z-0.5256
X3.5882 Y-7.4629 Z-0.5233
X3.5884 Y-7.4611 Z-0.5206
X3.5885 Y-7.4597 Z-0.5177
Y-7.4588 Z-0.5145
Y-7.4586 Z-0.5113
G0 Z0.6
(SHAPE THROUGH HOLE)
M7
G0 X-1.8119 Y-7.7809
Z0.6
Z0.1
G3 X-1.8117 Y-7.9591 Z0.0507 I0.0001 J-0.0891 F13.333
X-1.8119 Y-7.7809 Z0.0013 I-0.0001 J0.0891
X-1.8117 Y-7.9591 Z-0.048 I0.0001 J-0.0891
X-1.8119 Y-7.7809 Z-0.0973 I-0.0001 J0.0891
X-1.8117 Y-7.9591 Z-0.1467 I0.0001 J-0.0891
X-1.8119 Y-7.7809 Z-0.196 I-0.0001 J0.0891
X-1.8117 Y-7.9591 Z-0.2454 I0.0001 J-0.0891
X-1.7227 Y-7.87 Z-0.27 I-0.0001 J0.0891
X-1.9008 I-0.0891 J0.
X-1.7227 I0.0891 J0.
X-1.7411 Y-7.7528 I-0.055 J0.0514 F80.
G1 X-1.8706
G3 X-1.9269 Y-7.9844 I0.0248 J-0.1287
G1 X-1.9237 Y-7.9848 F60.
X-1.9204 Y-7.9846
X-1.9173 Y-7.9839
X-1.9143 Y-7.9827
X-1.9116 Y-7.981
X-1.9092 Y-7.9788
X-1.9072 Y-7.9763
X-1.9056 Y-7.9735
X-1.9046 Y-7.9705
X-1.904 Y-7.9682
X-1.8531 Y-7.7764 F80.
X-1.8526 Y-7.7737
G3 X-1.8706 Y-7.7528 I-0.0186 J0.0021 F60.
X-2.0037 Y-7.7997 I-0.0205 J-0.1542 F80.
X-1.9139 Y-7.986 I0.0888 J-0.072
G1 X-1.753 Y-7.9872
G3 X-1.642 Y-7.7515 I-0.0381 J0.1619
G1 X-1.656 Y-7.7528
X-1.7411
G3 X-1.757 Y-7.7627 I0.0007 J-0.0187 F60.
X-1.7602 Y-7.7735 I0.0246 J-0.0131
X-1.7276 Y-7.8032 I0.0277 J-0.0023 F80.
X-1.6779 Y-7.7723 I-0.0137 J0.0775
X-1.6719 Y-7.7627 I-0.0635 J0.0466 F60.
G2 X-1.656 Y-7.7528 I0.0165 J-0.0088
G1 X-1.6272
G2 X-1.6144 Y-7.9882 I-0.0616 J-0.1214
G1 X-1.753 Y-7.9872
G2 X-1.7711 Y-7.9678 I0.0007 J0.0187
X-1.771 Y-7.9663 I0.0164 J-0.0006
X-1.7612 Y-7.9533 I0.0162 J-0.002 F80.
X-1.6399 Y-7.9702 I0.0468 J-0.1085
X-1.6281 Y-7.9812 I-0.0746 J-0.0916 F60.
G3 X-1.615 Y-7.9872 I0.0137 J0.0128
G1 X-1.582 F80.
G3 X-1.5159 Y-7.7491 I-0.0368 J0.1385
G1 X-1.6272 Y-7.7528
G3 X-1.6431 Y-7.7627 I0.0007 J-0.0187 F60.
X-1.6462 Y-7.7735 I0.0238 J-0.0127
X-1.6266 Y-7.8014 I0.027 J-0.0019 F80.
X-1.5417 Y-7.7723 I0.0215 J0.0757
X-1.5357 Y-7.7627 I-0.0635 J0.0466 F60.
G2 X-1.5198 Y-7.7528 I0.0165 J-0.0088
G1 X-1.4914
G2 X-1.4522 Y-7.9896 I-0.0465 J-0.1293
G1 X-1.582 Y-7.9872
G2 X-1.5979 Y-7.9773 I0.0007 J0.0187
X-1.5994 Y-7.9663 I0.014 J0.0075
X-1.5951 Y-7.9585 I0.0155 J-0.0035 F80.
X-1.4761 Y-7.9677 I0.0556 J-0.0558
X-1.47 Y-7.9773 I-0.0635 J-0.0466 F60.
G3 X-1.4541 Y-7.9872 I0.0165 J0.0088
G1 X-1.4206 F80.
G3 X-1.3704 Y-7.7496 I-0.0455 J0.1337
G1 X-1.4914 Y-7.7528
G3 X-1.5073 Y-7.7627 I0.0007 J-0.0187 F60.
X-1.51 Y-7.7736 I0.0204 J-0.0109
X-1.4986 Y-7.7936 I0.0232 J0. F80.
X-1.3952 Y-7.7723 I0.0399 J0.0679
X-1.3892 Y-7.7627 I-0.0635 J0.0466 F60.
G2 X-1.3733 Y-7.7528 I0.0165 J-0.0088
G1 X-1.3445
G2 X-1.2978 Y-7.99 I-0.0429 J-0.1316
G1 X-1.4206 Y-7.9872
G2 X-1.4365 Y-7.9773 I0.0007 J0.0187
X-1.439 Y-7.9664 I0.0193 J0.0103
X-1.4294 Y-7.9489 I0.0218 J-0.0006 F80.
X-1.3221 Y-7.9677 I0.0438 J-0.0654
X-1.3161 Y-7.9773 I-0.0635 J-0.0466 F60.
G3 X-1.3002 Y-7.9872 I0.0165 J0.0088
G1 X-1.2671 F80.
G3 X-1.2207 Y-7.7498 I-0.0472 J0.1325
G1 X-1.3445 Y-7.7528
G3 X-1.3604 Y-7.7627 I0.0007 J-0.0187 F60.
X-1.3629 Y-7.7736 I0.0188 J-0.01
X-1.3538 Y-7.7903 I0.0213 J0.0008 F80.
X-1.2453 Y-7.7723 I0.045 J0.0646
X-1.2393 Y-7.7627 I-0.0635 J0.0466 F60.
G2 X-1.2234 Y-7.7528 I0.0165 J-0.0088
G1 X-1.1913
G2 X-1.1456 Y-7.9901 I-0.0466 J-0.132
G1 X-1.2671 Y-7.9872
G2 X-1.283 Y-7.9773 I0.0007 J0.0187
X-1.2857 Y-7.9664 I0.02 J0.0106
X-1.275 Y-7.9474 I0.0226 J-0.0002 F80.
X-1.17 Y-7.9677 I0.0415 J-0.0669
X-1.164 Y-7.9773 I-0.0635 J-0.0466 F60.
G3 X-1.1481 Y-7.9872 I0.0165 J0.0088
G1 X-1.1148 F80.
G3 X-1.0695 Y-7.7498 I-0.0484 J0.1323
G1 X-1.1913 Y-7.7528
G3 X-1.2072 Y-7.7627 I0.0007 J-0.0187 F60.
X-1.2099 Y-7.7736 I0.0199 J-0.0106
X-1.1992 Y-7.7925 I0.0226 J0.0002 F80.
X-1.0941 Y-7.7723 I0.0416 J0.0668
X-1.0881 Y-7.7627 I-0.0635 J0.0466 F60.
G2 X-1.0722 Y-7.7528 I0.0165 J-0.0088
G1 X-1.0416
G2 X-0.9938 Y-7.9903 I-0.0446 J-0.1326
G1 X-1.1148 Y-7.9872
G2 X-1.1306 Y-7.9773 I0.0007 J0.0187
X-1.1334 Y-7.9664 I0.0203 J0.0108
X-1.1221 Y-7.9466 I0.0231 J0. F80.
X-1.0184 Y-7.9677 I0.0402 J-0.0677
X-1.0124 Y-7.9773 I-0.0635 J-0.0466 F60.
G3 X-0.9965 Y-7.9872 I0.0165 J0.0088
G1 X-0.965 F80.
G3 X-0.9184 Y-7.75 I-0.0459 J0.1322
G1 X-1.0416 Y-7.7528
G3 X-1.0575 Y-7.7627 I0.0007 J-0.0187 F60.
X-1.06 Y-7.7736 I0.019 J-0.0101
X-1.0507 Y-7.7907 I0.0216 J0.0007 F80.
X-0.9427 Y-7.7723 I0.0445 J0.065
X-0.9367 Y-7.7627 I-0.0635 J0.0466 F60.
G2 X-0.9208 Y-7.7528 I0.0165 J-0.0088
G1 X-0.8885
G2 X-0.8428 Y-7.9901 I-0.0473 J-0.1322
G1 X-0.965 Y-7.9872
G2 X-0.9809 Y-7.9773 I0.0007 J0.0187
X-0.9836 Y-7.9664 I0.0197 J0.0105
X-0.9733 Y-7.948 I0.0223 J-0.0004 F80.
X-0.8673 Y-7.9677 I0.0425 J-0.0663
X-0.8613 Y-7.9773 I-0.0635 J-0.0466 F60.
G3 X-0.8454 Y-7.9872 I0.0165 J0.0088
G1 X-0.8161 F80.
G3 X-0.7671 Y-7.7498 I-0.0423 J0.1325
G1 X-0.8885 Y-7.7528
G3 X-0.9043 Y-7.7627 I0.0007 J-0.0187 F60.
X-0.907 Y-7.7736 I0.0201 J-0.0107
X-0.8961 Y-7.7929 I0.0228 J0.0001 F80.
X-0.7916 Y-7.7723 I0.041 J0.0672
X-0.7856 Y-7.7627 I-0.0635 J0.0466 F60.
G2 X-0.7697 Y-7.7528 I0.0165 J-0.0088
G1 X-0.7395
G2 X-0.6915 Y-7.9902 I-0.0439 J-0.1325
G1 X-0.8161 Y-7.9872
G2 X-0.832 Y-7.9773 I0.0007 J0.0187
X-0.8344 Y-7.9664 I0.0183 J0.0098
X-0.8259 Y-7.9507 I0.0208 J-0.0011 F80.
X-0.716 Y-7.9677 I0.0464 J-0.0636
X-0.71 Y-7.9773 I-0.0635 J-0.0466 F60.
G3 X-0.6941 Y-7.9872 I0.0165 J0.0088
G1 X-0.6629 F80.
G3 X-0.6156 Y-7.7496 I-0.0456 J0.1326
G1 X-0.7395 Y-7.7528
G3 X-0.7554 Y-7.7627 I0.0007 J-0.0187 F60.
X-0.7579 Y-7.7736 I0.0188 J-0.01
X-0.7488 Y-7.7903 I0.0213 J0.0009 F80.
X-0.6403 Y-7.7723 I0.045 J0.0646
X-0.6343 Y-7.7627 I-0.0635 J0.0466 F60.
G2 X-0.6184 Y-7.7528 I0.0165 J-0.0088
G1 X-0.5863
G2 X-0.5404 Y-7.9901 I-0.0467 J-0.1321
G1 X-0.6629 Y-7.9872
G2 X-0.6788 Y-7.9773 I0.0007 J0.0187
X-0.6814 Y-7.9664 I0.0195 J0.0104
X-0.6714 Y-7.9484 I0.0221 J-0.0005 F80.
X-0.5649 Y-7.9677 I0.0431 J-0.0659
X-0.5588 Y-7.9773 I-0.0635 J-0.0466 F60.
G3 X-0.5429 Y-7.9872 I0.0165 J0.0088
G1 X-0.5098 F80.
G3 X-0.4645 Y-7.7498 I-0.0482 J0.1322
G1 X-0.5863 Y-7.7528
G3 X-0.6022 Y-7.7627 I0.0007 J-0.0187 F60.
X-0.6049 Y-7.7736 I0.0199 J-0.0106
X-0.5943 Y-7.7925 I0.0226 J0.0002 F80.
X-0.4891 Y-7.7723 I0.0417 J0.0668
X-0.4831 Y-7.7627 I-0.0635 J0.0466 F60.
G2 X-0.4672 Y-7.7528 I0.0165 J-0.0088
G1 X-0.4365
G2 X-0.3886 Y-7.9903 I-0.0448 J-0.1326
G1 X-0.5098 Y-7.9872
G2 X-0.5257 Y-7.9773 I0.0007 J0.0187
X-0.5284 Y-7.9664 I0.0203 J0.0108
X-0.5172 Y-7.9467 I0.023 J-0.0001 F80.
X-0.4133 Y-7.9677 I0.0404 J-0.0676
X-0.4073 Y-7.9773 I-0.0635 J-0.0466 F60.
G3 X-0.3914 Y-7.9872 I0.0165 J0.0088
G1 X-0.3625 F80.
G3 X-0.3134 Y-7.7499 I-0.042 J0.1324
G1 X-0.4365 Y-7.7528
G3 X-0.4524 Y-7.7627 I0.0007 J-0.0187 F60.
X-0.4549 Y-7.7736 I0.0192 J-0.0102
X-0.4453 Y-7.791 I0.0217 J0.0006 F80.
X-0.3379 Y-7.7723 I0.044 J0.0653
X-0.3319 Y-7.7627 I-0.0635 J0.0466 F60.
G2 X-0.316 Y-7.7528 I0.0165 J-0.0088
G1 X-0.2835
G2 X-0.2379 Y-7.9901 I-0.0472 J-0.1321
G1 X-0.3625 Y-7.9872
G2 X-0.3784 Y-7.9773 I0.0007 J0.0187
X-0.3808 Y-7.9664 I0.0183 J0.0098
X-0.3723 Y-7.9507 I0.0208 J-0.0011 F80.
X-0.2624 Y-7.9677 I0.0464 J-0.0636
X-0.2564 Y-7.9773 I-0.0635 J-0.0466 F60.
G3 X-0.2405 Y-7.9872 I0.0165 J0.0088
G1 X-0.2093 F80.
G3 X-0.1616 Y-7.7496 I-0.0454 J0.1327
G1 X-0.2835 Y-7.7528
G3 X-0.2994 Y-7.7627 I0.0007 J-0.0187 F60.
X-0.302 Y-7.7736 I0.02 J-0.0107
X-0.2913 Y-7.7926 I0.0226 J0.0002 F80.
X-0.1864 Y-7.7723 I0.0415 J0.0669
X-0.1804 Y-7.7627 I-0.0635 J0.0466 F60.
G2 X-0.1645 Y-7.7528 I0.0165 J-0.0088
G1 X-0.1349
G2 X-0.0865 Y-7.9902 I-0.0432 J-0.1324
G1 X-0.2093 Y-7.9872
G2 X-0.2252 Y-7.9773 I0.0007 J0.0187
X-0.2278 Y-7.9664 I0.0194 J0.0103
X-0.2179 Y-7.9486 I0.022 J-0.0006 F80.
X-0.111 Y-7.9677 I0.0434 J-0.0657
X-0.105 Y-7.9773 I-0.0635 J-0.0466 F60.
G3 X-0.0891 Y-7.9872 I0.0165 J0.0088
G1 X-0.0561 F80.
G3 X-0.011 Y-7.7498 I-0.0479 J0.1321
G1 X-0.1349 Y-7.7528
G3 X-0.1508 Y-7.7627 I0.0007 J-0.0187 F60.
X-0.1533 Y-7.7736 I0.0188 J-0.01
X-0.1442 Y-7.7902 I0.0213 J0.0009 F80.
X-0.0355 Y-7.7723 I0.0452 J0.0645
X-0.0295 Y-7.7627 I-0.0635 J0.0466 F60.
G2 X-0.0136 Y-7.7528 I0.0165 J-0.0088
G1 X0.0178
G2 X0.065 Y-7.99 I-0.0454 J-0.1323
G1 X-0.0561 Y-7.9872
G2 X-0.072 Y-7.9773 I0.0007 J0.0187
X-0.0747 Y-7.9664 I0.0202 J0.0107
X-0.0637 Y-7.947 I0.0228 J-0.0001 F80.
X0.0406 Y-7.9677 I0.0409 J-0.0673
X0.0466 Y-7.9773 I-0.0635 J-0.0466 F60.
G3 X0.0625 Y-7.9872 I0.0165 J0.0088
G1 X0.0915 F80.
G3 X0.1403 Y-7.7499 I-0.0423 J0.1324
G1 X0.0178 Y-7.7528
G3 X0.0019 Y-7.7627 I0.0007 J-0.0187 F60.
X-0.0007 Y-7.7736 I0.0195 J-0.0104
X0.0093 Y-7.7916 I0.0221 J0.0005 F80.
X0.1159 Y-7.7723 I0.0431 J0.0659
X0.1219 Y-7.7627 I-0.0635 J0.0466 F60.
G2 X0.1378 Y-7.7528 I0.0165 J-0.0088
G1 X0.1706
G2 X0.2159 Y-7.9902 I-0.0476 J-0.1321
G1 X0.0915 Y-7.9872
G2 X0.0756 Y-7.9773 I0.0007 J0.0187
X0.0731 Y-7.9664 I0.0185 J0.0098
X0.0818 Y-7.9505 I0.0209 J-0.0011 F80.
X0.1914 Y-7.9677 I0.0461 J-0.0638
X0.1974 Y-7.9773 I-0.0635 J-0.0466 F60.
G3 X0.2133 Y-7.9872 I0.0165 J0.0088
G1 X0.2446 F80.
G3 X0.2918 Y-7.75 I-0.0454 J0.1323
G1 X0.1706 Y-7.7528
G3 X0.1547 Y-7.7627 I0.0007 J-0.0187 F60.
X0.152 Y-7.7736 I0.0201 J-0.0107
X0.1629 Y-7.7928 I0.0228 J0.0002 F80.
X0.2675 Y-7.7723 I0.0411 J0.0671
X0.2735 Y-7.7627 I-0.0635 J0.0466 F60.
G2 X0.2894 Y-7.7528 I0.0165 J-0.0088
G1 X0.3183
G2 X0.3672 Y-7.9901 I-0.0422 J-0.1324
G1 X0.2446 Y-7.9872
G2 X0.2288 Y-7.9773 I0.0007 J0.0187
X0.2262 Y-7.9664 I0.0195 J0.0104
X0.2361 Y-7.9484 I0.0221 J-0.0005 F80.
X0.3427 Y-7.9677 I0.0431 J-0.0659
X0.3488 Y-7.9773 I-0.0635 J-0.0466 F60.
G3 X0.3646 Y-7.9872 I0.0165 J0.0088
G1 X0.3978 F80.
G3 X0.4428 Y-7.7498 I-0.0482 J0.1321
G1 X0.3183 Y-7.7528
G3 X0.3024 Y-7.7627 I0.0007 J-0.0187 F60.
X0.3 Y-7.7736 I0.0184 J-0.0098
X0.3086 Y-7.7895 I0.0209 J0.0011 F80.
X0.4182 Y-7.7723 I0.0461 J0.0638
X0.4242 Y-7.7627 I-0.0635 J0.0466 F60.
G2 X0.4401 Y-7.7528 I0.0165 J-0.0088
G1 X0.4703
G2 X0.5187 Y-7.9902 I-0.0436 J-0.1325
G1 X0.3978 Y-7.9872
G2 X0.3819 Y-7.9773 I0.0007 J0.0187
X0.3792 Y-7.9664 I0.0204 J0.0109
X0.3905 Y-7.9466 I0.0231 J0. F80.
X0.4941 Y-7.9677 I0.0401 J-0.0677
X0.5002 Y-7.9773 I-0.0635 J-0.0466 F60.
G3 X0.516 Y-7.9872 I0.0165 J0.0088
G1 X0.5483 F80.
G3 X0.594 Y-7.7499 I-0.0469 J0.1321
G1 X0.4703 Y-7.7528
G3 X0.4544 Y-7.7627 I0.0007 J-0.0187 F60.
X0.4519 Y-7.7736 I0.0189 J-0.0101
X0.4611 Y-7.7903 I0.0214 J0.0008 F80.
X0.5695 Y-7.7723 I0.045 J0.0646
X0.5755 Y-7.7627 I-0.0635 J0.0466 F60.
G2 X0.5914 Y-7.7528 I0.0165 J-0.0088
G1 X0.6229
G2 X0.67 Y-7.99 I-0.0455 J-0.1323
G1 X0.5483 Y-7.9872
G2 X0.5324 Y-7.9773 I0.0007 J0.0187
X0.5297 Y-7.9664 I0.0199 J0.0106
X0.5403 Y-7.9476 I0.0225 J-0.0003 F80.
X0.6456 Y-7.9677 I0.0418 J-0.0667
X0.6516 Y-7.9773 I-0.0635 J-0.0466 F60.
G3 X0.6675 Y-7.9872 I0.0165 J0.0088
G1 X0.6979 F80.
G3 X0.7456 Y-7.7497 I-0.0446 J0.1325
G1 X0.6229 Y-7.7528
G3 X0.607 Y-7.7627 I0.0007 J-0.0187 F60.
X0.6044 Y-7.7736 I0.0195 J-0.0104
X0.6144 Y-7.7916 I0.0221 J0.0005 F80.
X0.721 Y-7.7723 I0.0431 J0.0659
X0.727 Y-7.7627 I-0.0635 J0.0466 F60.
G2 X0.7429 Y-7.7528 I0.0165 J-0.0088
G1 X0.7755
G2 X0.821 Y-7.9901 I-0.0474 J-0.1321
G1 X0.6979 Y-7.9872
G2 X0.682 Y-7.9773 I0.0007 J0.0187
X0.6794 Y-7.9664 I0.0192 J0.0102
X0.689 Y-7.949 I0.0217 J-0.0007 F80.
X0.7965 Y-7.9677 I0.044 J-0.0653
X0.8025 Y-7.9773 I-0.0635 J-0.0466 F60.
G3 X0.8184 Y-7.9872 I0.0165 J0.0088
G1 X0.851 F80.
G3 X0.8968 Y-7.7498 I-0.0473 J0.1322
G1 X0.7755 Y-7.7528
G3 X0.7596 Y-7.7627 I0.0007 J-0.0187 F60.
X0.7569 Y-7.7736 I0.0201 J-0.0107
X0.7678 Y-7.7929 I0.0228 J0.0001 F80.
X0.8723 Y-7.7723 I0.041 J0.0672
X0.8783 Y-7.7627 I-0.0635 J0.0466 F60.
G2 X0.8942 Y-7.7528 I0.0165 J-0.0088
G1 X0.9276
G2 X0.9725 Y-7.9903 I-0.0487 J-0.1322
G1 X0.851 Y-7.9872
G2 X0.8351 Y-7.9773 I0.0007 J0.0187
X0.8325 Y-7.9664 I0.0201 J0.0107
X0.8434 Y-7.9471 I0.0228 J-0.0002 F80.
X0.9479 Y-7.9677 I0.0411 J-0.0672
X0.9539 Y-7.9773 I-0.0635 J-0.0466 F60.
G3 X0.9698 Y-7.9872 I0.0165 J0.0088
G1 X1.0007 F80.
G3 X1.0486 Y-7.7497 I-0.0451 J0.1327
G1 X0.9276 Y-7.7528
G3 X0.9117 Y-7.7627 I0.0007 J-0.0187 F60.
X0.909 Y-7.7736 I0.0204 J-0.0109
X0.9204 Y-7.7935 I0.0231 J0. F80.
X1.0239 Y-7.7723 I0.04 J0.0678
X1.0299 Y-7.7627 I-0.0635 J0.0466 F60.
G2 X1.0458 Y-7.7528 I0.0165 J-0.0088
G1 X1.0773
G2 X1.1236 Y-7.99 I-0.0461 J-0.1321
G1 X1.0007 Y-7.9872
G2 X0.9848 Y-7.9773 I0.0007 J0.0187
X0.9823 Y-7.9664 I0.0193 J0.0103
X0.992 Y-7.9488 I0.0218 J-0.0006 F80.
X1.0992 Y-7.9677 I0.0437 J-0.0655
X1.1052 Y-7.9773 I-0.0635 J-0.0466 F60.
G3 X1.1211 Y-7.9872 I0.0165 J0.0088
G1 X1.1539 F80.
G3 X1.1994 Y-7.7498 I-0.0477 J0.1322
G1 X1.0773 Y-7.7528
G3 X1.0614 Y-7.7627 I0.0007 J-0.0187 F60.
X1.0588 Y-7.7736 I0.0198 J-0.0105
X1.0692 Y-7.7922 I0.0224 J0.0003 F80.
X1.1749 Y-7.7723 I0.0422 J0.0665
X1.1809 Y-7.7627 I-0.0635 J0.0466 F60.
G2 X1.1968 Y-7.7528 I0.0165 J-0.0088
G1 X1.2263
G2 X1.2751 Y-7.9902 I-0.0426 J-0.1325
G1 X1.1539 Y-7.9872
G2 X1.138 Y-7.9773 I0.0007 J0.0187
X1.1353 Y-7.9664 I0.0202 J0.0108
X1.1464 Y-7.9469 I0.0229 J-0.0001 F80.
X1.2506 Y-7.9677 I0.0407 J-0.0674
X1.2566 Y-7.9773 I-0.0635 J-0.0466 F60.
G3 X1.2725 Y-7.9872 I0.0165 J0.0088
G1 X1.3028 F80.
G3 X1.3508 Y-7.7497 I-0.0442 J0.1325
G1 X1.2263 Y-7.7528
G3 X1.2104 Y-7.7627 I0.0007 J-0.0187 F60.
X1.2079 Y-7.7736 I0.0184 J-0.0098
X1.2166 Y-7.7895 I0.0209 J0.0011 F80.
X1.3262 Y-7.7723 I0.0461 J0.0638
X1.3322 Y-7.7627 I-0.0635 J0.0466 F60.
G2 X1.3481 Y-7.7528 I0.0165 J-0.0088
G1 X1.3794
G2 X1.4267 Y-7.9904 I-0.046 J-0.1326
G1 X1.3028 Y-7.9872
G2 X1.287 Y-7.9773 I0.0007 J0.0187
X1.2844 Y-7.9664 I0.0189 J0.0101
X1.2937 Y-7.9495 I0.0215 J-0.0008 F80.
X1.4019 Y-7.9677 I0.0447 J-0.0648
X1.4079 Y-7.9773 I-0.0635 J-0.0466 F60.
G3 X1.4238 Y-7.9872 I0.0165 J0.0088
G1 X1.456 F80.
G3 X1.5018 Y-7.7499 I-0.047 J0.1321
G1 X1.3794 Y-7.7528
G3 X1.3635 Y-7.7627 I0.0007 J-0.0187 F60.
X1.3609 Y-7.7736 I0.0196 J-0.0104
X1.3711 Y-7.7918 I0.0222 J0.0004 F80.
X1.4773 Y-7.7723 I0.0428 J0.0661
X1.4833 Y-7.7627 I-0.0635 J0.0466 F60.
G2 X1.4992 Y-7.7528 I0.0165 J-0.0088
G1 X1.5326
G2 X1.5857 Y-7.9818 I-0.0481 J-0.1318
G1 X1.5581 Y-7.9872
X1.456
G2 X1.4401 Y-7.9773 I0.0007 J0.0187
X1.437 Y-7.9665 I0.0241 J0.0128
X1.4597 Y-7.9375 I0.0272 J0.002 F80.
X1.5587 Y-7.9668 I0.0193 J-0.1165
X1.5666 Y-7.9748 I-0.0796 J-0.0872 F60.
G3 X1.5845 Y-7.9806 I0.0139 J0.0126
G1 X1.5926 Y-7.9784 F80.
X1.6005 Y-7.9756
X1.6082 Y-7.9723
X1.6157 Y-7.9684
X1.6228 Y-7.964
X1.6297 Y-7.959
X1.6361 Y-7.9536
X1.6421 Y-7.9477
X1.6477 Y-7.9414
X1.6528 Y-7.9347
X1.6574 Y-7.9277
X1.6614 Y-7.9203
X1.665 Y-7.9127
X1.6679 Y-7.9048
X1.6703 Y-7.8967
X1.6721 Y-7.8885
X1.6733 Y-7.8802
X1.6738 Y-7.8718
Y-7.8634
X1.6731 Y-7.855
X1.6719 Y-7.8467
X1.67 Y-7.8385
X1.6675 Y-7.8304
X1.6645 Y-7.8226
X1.6609 Y-7.815
X1.6568 Y-7.8077
X1.6521 Y-7.8007
X1.6469 Y-7.794
X1.6413 Y-7.7878
X1.6352 Y-7.782
X1.6287 Y-7.7766
X1.6219 Y-7.7718
X1.6147 Y-7.7674
X1.6072 Y-7.7636
X1.5994 Y-7.7603
X1.5915 Y-7.7576
X1.5833 Y-7.7555
X1.575 Y-7.754
X1.5667 Y-7.7531
X1.5583 Y-7.7528
X1.5499 Y-7.7531
X1.5415 Y-7.7541
X1.5332 Y-7.7556
X1.5305 F60.
X1.5278 Y-7.756
X1.5251 Y-7.7569
X1.5226 Y-7.7582
X1.5203 Y-7.76
X1.5183 Y-7.7622
X1.5167 Y-7.7647
X1.5155 Y-7.7675
X1.5148 Y-7.7705
X1.5146 Y-7.7737
X1.515 Y-7.7769 Z-0.2697
X1.5154 Y-7.78 Z-0.2689
X1.5157 Y-7.783 Z-0.2675
X1.516 Y-7.7856 Z-0.2656
X1.5163 Y-7.7879 Z-0.2633
X1.5165 Y-7.7898 Z-0.2606
X1.5166 Y-7.7912 Z-0.2577
X1.5167 Y-7.792 Z-0.2545
X1.5168 Y-7.7923 Z-0.2513
G0 Z0.4
X-1.8119 Y6.0191
Z0.1
G3 X-1.8117 Y5.8409 Z0.0507 I0.0001 J-0.0891 F13.333
X-1.8119 Y6.0191 Z0.0013 I-0.0001 J0.0891
X-1.8117 Y5.8409 Z-0.048 I0.0001 J-0.0891
X-1.8119 Y6.0191 Z-0.0973 I-0.0001 J0.0891
X-1.8117 Y5.8409 Z-0.1467 I0.0001 J-0.0891
X-1.8119 Y6.0191 Z-0.196 I-0.0001 J0.0891
X-1.8117 Y5.8409 Z-0.2454 I0.0001 J-0.0891
X-1.7227 Y5.93 Z-0.27 I-0.0001 J0.0891
X-1.9008 I-0.0891 J0.
X-1.7227 I0.0891 J0.
X-1.7411 Y6.0472 I-0.055 J0.0514 F80.
G1 X-1.8706
G3 X-1.9268 Y5.8154 I0.0249 J-0.1288
G1 X-1.9236 Y5.815 F60.
X-1.9203 Y5.8151
X-1.9172 Y5.8158
X-1.9142 Y5.817
X-1.9114 Y5.8187
X-1.909 Y5.8209
X-1.907 Y5.8234
X-1.9054 Y5.8262
X-1.9044 Y5.8292
X-1.9038 Y5.8314
X-1.8531 Y6.0237 F80.
X-1.8526 Y6.0263
G3 X-1.8706 Y6.0472 I-0.0186 J0.0021 F60.
G1 X-1.879 Y6.0495 F80.
X-1.8875 Y6.0512
X-1.8962 Y6.0523
X-1.9049 Y6.0528
X-1.9136 Y6.0526
X-1.9223 Y6.0518
X-1.9309 Y6.0504
X-1.9394 Y6.0484
X-1.9477 Y6.0457
X-1.9558 Y6.0425
X-1.9636 Y6.0387
X-1.9712 Y6.0343
X-1.9784 Y6.0295
X-1.9852 Y6.0241
X-1.9917 Y6.0182
X-1.9977 Y6.0118
X-2.0032 Y6.0051
X-2.0082 Y5.998
X-2.0127 Y5.9905
X-2.0167 Y5.9827
X-2.0201 Y5.9747
X-2.0228 Y5.9664
X-2.025 Y5.958
X-2.0266 Y5.9494
X-2.0276 Y5.9408
X-2.0279 Y5.932
X-2.0276 Y5.9233
X-2.0267 Y5.9147
X-2.0251 Y5.9061
X-2.023 Y5.8976
X-2.0202 Y5.8894
X-2.0168 Y5.8813
X-2.0129 Y5.8735
X-2.0084 Y5.8661
X-2.0034 Y5.8589
X-1.9979 Y5.8522
X-1.9919 Y5.8458
X-1.9855 Y5.8399
X-1.9787 Y5.8345
X-1.9715 Y5.8296
X-1.964 Y5.8252
X-1.9561 Y5.8214
X-1.948 Y5.8181
X-1.9397 Y5.8155
X-1.9313 Y5.8134
X-1.9227 Y5.812
X-1.914 Y5.8112
X-1.753 Y5.8128
G3 X-1.642 Y6.0485 I-0.0381 J0.1619
G1 X-1.656 Y6.0472
X-1.7411
G3 X-1.757 Y6.0373 I0.0007 J-0.0187 F60.
X-1.7602 Y6.0265 I0.0246 J-0.0131
X-1.7276 Y5.9968 I0.0277 J-0.0023 F80.
X-1.6779 Y6.0277 I-0.0137 J0.0775
X-1.6719 Y6.0373 I-0.0635 J0.0466 F60.
G2 X-1.656 Y6.0472 I0.0165 J-0.0088
G1 X-1.6272
G2 X-1.6144 Y5.8118 I-0.0616 J-0.1214
G1 X-1.753 Y5.8128
G2 X-1.7711 Y5.8322 I0.0007 J0.0187
X-1.771 Y5.8337 I0.0164 J-0.0006
X-1.7612 Y5.8467 I0.0162 J-0.002 F80.
X-1.6399 Y5.8298 I0.0468 J-0.1085
X-1.6281 Y5.8188 I-0.0746 J-0.0916 F60.
G3 X-1.615 Y5.8128 I0.0137 J0.0128
G1 X-1.582 F80.
G3 X-1.5159 Y6.0509 I-0.0368 J0.1385
G1 X-1.6272 Y6.0472
G3 X-1.6431 Y6.0373 I0.0007 J-0.0187 F60.
X-1.6462 Y6.0265 I0.0238 J-0.0127
X-1.6266 Y5.9986 I0.027 J-0.0019 F80.
X-1.5417 Y6.0277 I0.0215 J0.0757
X-1.5357 Y6.0373 I-0.0635 J0.0466 F60.
G2 X-1.5198 Y6.0472 I0.0165 J-0.0088
G1 X-1.4914
G2 X-1.4522 Y5.8104 I-0.0465 J-0.1293
G1 X-1.582 Y5.8128
G2 X-1.5979 Y5.8227 I0.0007 J0.0187
X-1.5994 Y5.8337 I0.014 J0.0075
X-1.5951 Y5.8415 I0.0155 J-0.0035 F80.
X-1.4761 Y5.8323 I0.0556 J-0.0558
X-1.47 Y5.8227 I-0.0635 J-0.0466 F60.
G3 X-1.4541 Y5.8128 I0.0165 J0.0088
G1 X-1.4206 F80.
G3 X-1.3704 Y6.0504 I-0.0455 J0.1337
G1 X-1.4914 Y6.0472
G3 X-1.5073 Y6.0373 I0.0007 J-0.0187 F60.
X-1.51 Y6.0264 I0.0204 J-0.0109
X-1.4986 Y6.0064 I0.0232 J0. F80.
X-1.3952 Y6.0277 I0.0399 J0.0679
X-1.3892 Y6.0373 I-0.0635 J0.0466 F60.
G2 X-1.3733 Y6.0472 I0.0165 J-0.0088
G1 X-1.3445
G2 X-1.2978 Y5.81 I-0.0429 J-0.1316
G1 X-1.4206 Y5.8128
G2 X-1.4365 Y5.8227 I0.0007 J0.0187
X-1.439 Y5.8336 I0.0193 J0.0103
X-1.4294 Y5.8511 I0.0218 J-0.0006 F80.
X-1.3221 Y5.8323 I0.0438 J-0.0654
X-1.3161 Y5.8227 I-0.0635 J-0.0466 F60.
G3 X-1.3002 Y5.8128 I0.0165 J0.0088
G1 X-1.2671 F80.
G3 X-1.2207 Y6.0502 I-0.0472 J0.1325
G1 X-1.3445 Y6.0472
G3 X-1.3604 Y6.0373 I0.0007 J-0.0187 F60.
X-1.3629 Y6.0264 I0.0188 J-0.01
X-1.3538 Y6.0097 I0.0213 J0.0008 F80.
X-1.2453 Y6.0277 I0.045 J0.0646
X-1.2393 Y6.0373 I-0.0635 J0.0466 F60.
G2 X-1.2234 Y6.0472 I0.0165 J-0.0088
G1 X-1.1913
G2 X-1.1456 Y5.8099 I-0.0466 J-0.132
G1 X-1.2671 Y5.8128
G2 X-1.283 Y5.8227 I0.0007 J0.0187
X-1.2857 Y5.8336 I0.02 J0.0106
X-1.275 Y5.8526 I0.0226 J-0.0002 F80.
X-1.17 Y5.8323 I0.0415 J-0.0669
X-1.164 Y5.8227 I-0.0635 J-0.0466 F60.
G3 X-1.1481 Y5.8128 I0.0165 J0.0088
G1 X-1.1148 F80.
G3 X-1.0695 Y6.0502 I-0.0484 J0.1323
G1 X-1.1913 Y6.0472
G3 X-1.2072 Y6.0373 I0.0007 J-0.0187 F60.
X-1.2099 Y6.0264 I0.0199 J-0.0106
X-1.1992 Y6.0075 I0.0226 J0.0002 F80.
X-1.0941 Y6.0277 I0.0416 J0.0668
X-1.0881 Y6.0373 I-0.0635 J0.0466 F60.
G2 X-1.0722 Y6.0472 I0.0165 J-0.0088
G1 X-1.0416
G2 X-0.9938 Y5.8097 I-0.0446 J-0.1326
G1 X-1.1148 Y5.8128
G2 X-1.1306 Y5.8227 I0.0007 J0.0187
X-1.1334 Y5.8336 I0.0203 J0.0108
X-1.1221 Y5.8534 I0.0231 J0. F80.
X-1.0184 Y5.8323 I0.0402 J-0.0677
X-1.0124 Y5.8227 I-0.0635 J-0.0466 F60.
G3 X-0.9965 Y5.8128 I0.0165 J0.0088
G1 X-0.965 F80.
G3 X-0.9184 Y6.05 I-0.0459 J0.1322
G1 X-1.0416 Y6.0472
G3 X-1.0575 Y6.0373 I0.0007 J-0.0187 F60.
X-1.06 Y6.0264 I0.019 J-0.0101
X-1.0507 Y6.0093 I0.0216 J0.0007 F80.
X-0.9427 Y6.0277 I0.0445 J0.065
X-0.9367 Y6.0373 I-0.0635 J0.0466 F60.
G2 X-0.9208 Y6.0472 I0.0165 J-0.0088
G1 X-0.8885
G2 X-0.8428 Y5.8099 I-0.0473 J-0.1322
G1 X-0.965 Y5.8128
G2 X-0.9809 Y5.8227 I0.0007 J0.0187
X-0.9836 Y5.8336 I0.0197 J0.0105
X-0.9733 Y5.852 I0.0223 J-0.0004 F80.
X-0.8673 Y5.8323 I0.0425 J-0.0663
X-0.8613 Y5.8227 I-0.0635 J-0.0466 F60.
G3 X-0.8454 Y5.8128 I0.0165 J0.0088
G1 X-0.8161 F80.
G3 X-0.7671 Y6.0502 I-0.0423 J0.1325
G1 X-0.8885 Y6.0472
G3 X-0.9043 Y6.0373 I0.0007 J-0.0187 F60.
X-0.907 Y6.0264 I0.0201 J-0.0107
X-0.8961 Y6.0071 I0.0228 J0.0001 F80.
X-0.7916 Y6.0277 I0.041 J0.0672
X-0.7856 Y6.0373 I-0.0635 J0.0466 F60.
G2 X-0.7697 Y6.0472 I0.0165 J-0.0088
G1 X-0.7395
G2 X-0.6915 Y5.8098 I-0.0439 J-0.1325
G1 X-0.8161 Y5.8128
G2 X-0.832 Y5.8227 I0.0007 J0.0187
X-0.8344 Y5.8336 I0.0183 J0.0098
X-0.8259 Y5.8493 I0.0208 J-0.0011 F80.
X-0.716 Y5.8323 I0.0464 J-0.0636
X-0.71 Y5.8227 I-0.0635 J-0.0466 F60.
G3 X-0.6941 Y5.8128 I0.0165 J0.0088
G1 X-0.6629 F80.
G3 X-0.6156 Y6.0504 I-0.0456 J0.1326
G1 X-0.7395 Y6.0472
G3 X-0.7554 Y6.0373 I0.0007 J-0.0187 F60.
X-0.7579 Y6.0264 I0.0188 J-0.01
X-0.7488 Y6.0097 I0.0213 J0.0009 F80.
X-0.6403 Y6.0277 I0.045 J0.0646
X-0.6343 Y6.0373 I-0.0635 J0.0466 F60.
G2 X-0.6184 Y6.0472 I0.0165 J-0.0088
G1 X-0.5863
G2 X-0.5404 Y5.8099 I-0.0467 J-0.1321
G1 X-0.6629 Y5.8128
G2 X-0.6788 Y5.8227 I0.0007 J0.0187
X-0.6814 Y5.8336 I0.0195 J0.0104
X-0.6714 Y5.8516 I0.0221 J-0.0005 F80.
X-0.5649 Y5.8323 I0.0431 J-0.0659
X-0.5588 Y5.8227 I-0.0635 J-0.0466 F60.
G3 X-0.5429 Y5.8128 I0.0165 J0.0088
G1 X-0.5098 F80.
G3 X-0.4645 Y6.0502 I-0.0482 J0.1322
G1 X-0.5863 Y6.0472
G3 X-0.6022 Y6.0373 I0.0007 J-0.0187 F60.
X-0.6049 Y6.0264 I0.0199 J-0.0106
X-0.5943 Y6.0075 I0.0226 J0.0002 F80.
X-0.4891 Y6.0277 I0.0417 J0.0668
X-0.4831 Y6.0373 I-0.0635 J0.0466 F60.
G2 X-0.4672 Y6.0472 I0.0165 J-0.0088
G1 X-0.4365
G2 X-0.3886 Y5.8097 I-0.0448 J-0.1326
G1 X-0.5098 Y5.8128
G2 X-0.5257 Y5.8227 I0.0007 J0.0187
X-0.5284 Y5.8336 I0.0203 J0.0108
X-0.5172 Y5.8533 I0.023 J-0.0001 F80.
X-0.4133 Y5.8323 I0.0404 J-0.0676
X-0.4073 Y5.8227 I-0.0635 J-0.0466 F60.
G3 X-0.3914 Y5.8128 I0.0165 J0.0088
G1 X-0.3625 F80.
G3 X-0.3134 Y6.0501 I-0.042 J0.1324
G1 X-0.4365 Y6.0472
G3 X-0.4524 Y6.0373 I0.0007 J-0.0187 F60.
X-0.4549 Y6.0264 I0.0192 J-0.0102
X-0.4453 Y6.009 I0.0217 J0.0007 F80.
X-0.3379 Y6.0277 I0.044 J0.0653
X-0.3319 Y6.0373 I-0.0635 J0.0466 F60.
G2 X-0.316 Y6.0472 I0.0165 J-0.0088
G1 X-0.2835
G2 X-0.2379 Y5.8099 I-0.0472 J-0.1321
G1 X-0.3625 Y5.8128
G2 X-0.3784 Y5.8227 I0.0007 J0.0187
X-0.3808 Y5.8336 I0.0183 J0.0098
X-0.3723 Y5.8493 I0.0208 J-0.0011 F80.
X-0.2624 Y5.8323 I0.0464 J-0.0636
X-0.2564 Y5.8227 I-0.0635 J-0.0466 F60.
G3 X-0.2405 Y5.8128 I0.0165 J0.0088
G1 X-0.2093 F80.
G3 X-0.1616 Y6.0504 I-0.0454 J0.1327
G1 X-0.2835 Y6.0472
G3 X-0.2994 Y6.0373 I0.0007 J-0.0187 F60.
X-0.302 Y6.0264 I0.02 J-0.0106
X-0.2913 Y6.0074 I0.0226 J0.0002 F80.
X-0.1864 Y6.0277 I0.0415 J0.0669
X-0.1804 Y6.0373 I-0.0635 J0.0466 F60.
G2 X-0.1645 Y6.0472 I0.0165 J-0.0088
G1 X-0.1349
G2 X-0.0865 Y5.8098 I-0.0432 J-0.1324
G1 X-0.2093 Y5.8128
G2 X-0.2252 Y5.8227 I0.0007 J0.0187
X-0.2278 Y5.8336 I0.0194 J0.0103
X-0.2179 Y5.8514 I0.022 J-0.0006 F80.
X-0.111 Y5.8323 I0.0434 J-0.0657
X-0.105 Y5.8227 I-0.0635 J-0.0466 F60.
G3 X-0.0891 Y5.8128 I0.0165 J0.0088
G1 X-0.0561 F80.
G3 X-0.011 Y6.0502 I-0.0479 J0.1321
G1 X-0.1349 Y6.0472
G3 X-0.1508 Y6.0373 I0.0007 J-0.0187 F60.
X-0.1533 Y6.0264 I0.0188 J-0.01
X-0.1442 Y6.0098 I0.0213 J0.0009 F80.
X-0.0355 Y6.0277 I0.0452 J0.0645
X-0.0295 Y6.0373 I-0.0635 J0.0466 F60.
G2 X-0.0136 Y6.0472 I0.0165 J-0.0088
G1 X0.0178
G2 X0.065 Y5.81 I-0.0454 J-0.1323
G1 X-0.0561 Y5.8128
G2 X-0.072 Y5.8227 I0.0007 J0.0187
X-0.0747 Y5.8336 I0.0202 J0.0107
X-0.0637 Y5.853 I0.0228 J-0.0001 F80.
X0.0406 Y5.8323 I0.0409 J-0.0673
X0.0466 Y5.8227 I-0.0635 J-0.0466 F60.
G3 X0.0625 Y5.8128 I0.0165 J0.0088
G1 X0.0915 F80.
G3 X0.1403 Y6.0501 I-0.0423 J0.1324
G1 X0.0178 Y6.0472
G3 X0.0019 Y6.0373 I0.0007 J-0.0187 F60.
X-0.0007 Y6.0264 I0.0195 J-0.0104
X0.0093 Y6.0084 I0.0221 J0.0005 F80.
X0.1159 Y6.0277 I0.0431 J0.0659
X0.1219 Y6.0373 I-0.0635 J0.0466 F60.
G2 X0.1378 Y6.0472 I0.0165 J-0.0088
G1 X0.1706
G2 X0.2159 Y5.8098 I-0.0476 J-0.1321
G1 X0.0915 Y5.8128
G2 X0.0756 Y5.8227 I0.0007 J0.0187
X0.0731 Y5.8336 I0.0185 J0.0098
X0.0818 Y5.8495 I0.0209 J-0.0011 F80.
X0.1914 Y5.8323 I0.0461 J-0.0638
X0.1974 Y5.8227 I-0.0635 J-0.0466 F60.
G3 X0.2133 Y5.8128 I0.0165 J0.0088
G1 X0.2446 F80.
G3 X0.2918 Y6.05 I-0.0454 J0.1323
G1 X0.1706 Y6.0472
G3 X0.1547 Y6.0373 I0.0007 J-0.0187 F60.
X0.152 Y6.0264 I0.0201 J-0.0107
X0.1629 Y6.0072 I0.0228 J0.0002 F80.
X0.2675 Y6.0277 I0.0411 J0.0671
X0.2735 Y6.0373 I-0.0635 J0.0466 F60.
G2 X0.2894 Y6.0472 I0.0165 J-0.0088
G1 X0.3183
G2 X0.3672 Y5.8099 I-0.0422 J-0.1324
G1 X0.2446 Y5.8128
G2 X0.2288 Y5.8227 I0.0007 J0.0187
X0.2262 Y5.8336 I0.0195 J0.0104
X0.2361 Y5.8516 I0.0221 J-0.0005 F80.
X0.3427 Y5.8323 I0.0431 J-0.0659
X0.3488 Y5.8227 I-0.0635 J-0.0466 F60.
G3 X0.3646 Y5.8128 I0.0165 J0.0088
G1 X0.3978 F80.
G3 X0.4428 Y6.0502 I-0.0482 J0.1321
G1 X0.3183 Y6.0472
G3 X0.3024 Y6.0373 I0.0007 J-0.0187 F60.
X0.3 Y6.0264 I0.0184 J-0.0098
X0.3086 Y6.0105 I0.0209 J0.0011 F80.
X0.4182 Y6.0277 I0.0461 J0.0638
X0.4242 Y6.0373 I-0.0635 J0.0466 F60.
G2 X0.4401 Y6.0472 I0.0165 J-0.0088
G1 X0.4703
G2 X0.5187 Y5.8098 I-0.0436 J-0.1325
G1 X0.3978 Y5.8128
G2 X0.3819 Y5.8227 I0.0007 J0.0187
X0.3792 Y5.8336 I0.0204 J0.0109
X0.3905 Y5.8534 I0.0231 J0. F80.
X0.4941 Y5.8323 I0.0401 J-0.0677
X0.5002 Y5.8227 I-0.0635 J-0.0466 F60.
G3 X0.516 Y5.8128 I0.0165 J0.0088
G1 X0.5483 F80.
G3 X0.594 Y6.0501 I-0.0469 J0.1321
G1 X0.4703 Y6.0472
G3 X0.4544 Y6.0373 I0.0007 J-0.0187 F60.
X0.4519 Y6.0264 I0.0189 J-0.0101
X0.4611 Y6.0097 I0.0214 J0.0008 F80.
X0.5695 Y6.0277 I0.045 J0.0646
X0.5755 Y6.0373 I-0.0635 J0.0466 F60.
G2 X0.5914 Y6.0472 I0.0165 J-0.0088
G1 X0.6229
G2 X0.67 Y5.81 I-0.0455 J-0.1323
G1 X0.5483 Y5.8128
G2 X0.5324 Y5.8227 I0.0007 J0.0187
X0.5297 Y5.8336 I0.0199 J0.0106
X0.5403 Y5.8524 I0.0225 J-0.0003 F80.
X0.6456 Y5.8323 I0.0418 J-0.0667
X0.6516 Y5.8227 I-0.0635 J-0.0466 F60.
G3 X0.6675 Y5.8128 I0.0165 J0.0088
G1 X0.6979 F80.
G3 X0.7456 Y6.0503 I-0.0446 J0.1325
G1 X0.6229 Y6.0472
G3 X0.607 Y6.0373 I0.0007 J-0.0187 F60.
X0.6044 Y6.0264 I0.0195 J-0.0104
X0.6144 Y6.0084 I0.0221 J0.0005 F80.
X0.721 Y6.0277 I0.0431 J0.0659
X0.727 Y6.0373 I-0.0635 J0.0466 F60.
G2 X0.7429 Y6.0472 I0.0165 J-0.0088
G1 X0.7755
G2 X0.821 Y5.8099 I-0.0474 J-0.1321
G1 X0.6979 Y5.8128
G2 X0.682 Y5.8227 I0.0007 J0.0187
X0.6794 Y5.8336 I0.0192 J0.0102
X0.689 Y5.851 I0.0217 J-0.0007 F80.
X0.7965 Y5.8323 I0.044 J-0.0653
X0.8025 Y5.8227 I-0.0635 J-0.0466 F60.
G3 X0.8184 Y5.8128 I0.0165 J0.0088
G1 X0.851 F80.
G3 X0.8968 Y6.0502 I-0.0473 J0.1322
G1 X0.7755 Y6.0472
G3 X0.7596 Y6.0373 I0.0007 J-0.0187 F60.
X0.7569 Y6.0264 I0.0201 J-0.0107
X0.7678 Y6.0071 I0.0228 J0.0001 F80.
X0.8723 Y6.0277 I0.041 J0.0672
X0.8783 Y6.0373 I-0.0635 J0.0466 F60.
G2 X0.8942 Y6.0472 I0.0165 J-0.0088
G1 X0.9276
G2 X0.9725 Y5.8097 I-0.0487 J-0.1322
G1 X0.851 Y5.8128
G2 X0.8351 Y5.8227 I0.0007 J0.0187
X0.8325 Y5.8336 I0.0201 J0.0107
X0.8434 Y5.8529 I0.0228 J-0.0002 F80.
X0.9479 Y5.8323 I0.0411 J-0.0672
X0.9539 Y5.8227 I-0.0635 J-0.0466 F60.
G3 X0.9698 Y5.8128 I0.0165 J0.0088
G1 X1.0007 F80.
G3 X1.0486 Y6.0503 I-0.0451 J0.1327
G1 X0.9276 Y6.0472
G3 X0.9117 Y6.0373 I0.0007 J-0.0187 F60.
X0.909 Y6.0264 I0.0204 J-0.0109
X0.9204 Y6.0065 I0.0231 J0. F80.
X1.0239 Y6.0277 I0.04 J0.0678
X1.0299 Y6.0373 I-0.0635 J0.0466 F60.
G2 X1.0458 Y6.0472 I0.0165 J-0.0088
G1 X1.0773
G2 X1.1236 Y5.81 I-0.0461 J-0.1321
G1 X1.0007 Y5.8128
G2 X0.9848 Y5.8227 I0.0007 J0.0187
X0.9823 Y5.8336 I0.0193 J0.0103
X0.992 Y5.8512 I0.0218 J-0.0006 F80.
X1.0992 Y5.8323 I0.0437 J-0.0655
X1.1052 Y5.8227 I-0.0635 J-0.0466 F60.
G3 X1.1211 Y5.8128 I0.0165 J0.0088
G1 X1.1539 F80.
G3 X1.1994 Y6.0502 I-0.0477 J0.1322
G1 X1.0773 Y6.0472
G3 X1.0614 Y6.0373 I0.0007 J-0.0187 F60.
X1.0588 Y6.0264 I0.0198 J-0.0105
X1.0692 Y6.0078 I0.0224 J0.0003 F80.
X1.1749 Y6.0277 I0.0422 J0.0665
X1.1809 Y6.0373 I-0.0635 J0.0466 F60.
G2 X1.1968 Y6.0472 I0.0165 J-0.0088
G1 X1.2263
G2 X1.2751 Y5.8098 I-0.0426 J-0.1325
G1 X1.1539 Y5.8128
G2 X1.138 Y5.8227 I0.0007 J0.0187
X1.1353 Y5.8336 I0.0202 J0.0108
X1.1464 Y5.8531 I0.0229 J-0.0001 F80.
X1.2506 Y5.8323 I0.0407 J-0.0674
X1.2566 Y5.8227 I-0.0635 J-0.0466 F60.
G3 X1.2725 Y5.8128 I0.0165 J0.0088
G1 X1.3028 F80.
G3 X1.3508 Y6.0503 I-0.0442 J0.1325
G1 X1.2263 Y6.0472
G3 X1.2104 Y6.0373 I0.0007 J-0.0187 F60.
X1.2079 Y6.0264 I0.0184 J-0.0098
X1.2166 Y6.0105 I0.0209 J0.0011 F80.
X1.3262 Y6.0277 I0.0461 J0.0638
X1.3322 Y6.0373 I-0.0635 J0.0466 F60.
G2 X1.3481 Y6.0472 I0.0165 J-0.0088
G1 X1.3794
G2 X1.4267 Y5.8096 I-0.046 J-0.1326
G1 X1.3028 Y5.8128
G2 X1.287 Y5.8227 I0.0007 J0.0187
X1.2844 Y5.8336 I0.0189 J0.0101
X1.2937 Y5.8505 I0.0215 J-0.0008 F80.
X1.4019 Y5.8323 I0.0447 J-0.0648
X1.4079 Y5.8227 I-0.0635 J-0.0466 F60.
G3 X1.4238 Y5.8128 I0.0165 J0.0088
G1 X1.456 F80.
G3 X1.5018 Y6.0501 I-0.047 J0.1321
G1 X1.3794 Y6.0472
G3 X1.3635 Y6.0373 I0.0007 J-0.0187 F60.
X1.3609 Y6.0264 I0.0196 J-0.0104
X1.3711 Y6.0082 I0.0222 J0.0004 F80.
X1.4773 Y6.0277 I0.0428 J0.0661
X1.4833 Y6.0373 I-0.0635 J0.0466 F60.
G2 X1.4992 Y6.0472 I0.0165 J-0.0088
G1 X1.5326
G2 X1.5857 Y5.8181 I-0.0481 J-0.1319
G1 X1.5667 Y5.8146
X1.5581 Y5.8128
X1.456
G2 X1.4401 Y5.8227 I0.0007 J0.0187
X1.4371 Y5.8335 I0.0234 J0.0125
X1.4589 Y5.8613 I0.0265 J0.0017 F80.
X1.5586 Y5.8328 I0.0208 J-0.1163
X1.5667 Y5.8249 I-0.079 J-0.0878 F60.
G3 X1.5845 Y5.8192 I0.0138 J0.0127
G1 X1.6092 Y5.8256 F80.
X1.6517 Y5.863
G3 X1.5329 Y6.0456 I-0.0959 J0.0676
X1.382 Y6.1365 I-0.1288 J-0.0431
X0.9439 Y6.1472 I-0.3204 J-4.1816
G1 X0.3368
X-0.4052
X-1.8555
X-1.8671 Y6.1486
X-1.8786 Y6.1493
X-1.8903 Y6.1495
X-1.9019 Y6.149
X-1.9134 Y6.148
X-1.9249 Y6.1463
X-1.9363 Y6.1441
X-1.9475 Y6.1412
X-1.9586 Y6.1378
X-1.9695 Y6.1338
X-1.9802 Y6.1292
X-1.9906 Y6.1241
X-2.0007 Y6.1184
X-2.0106 Y6.1122
X-2.0201 Y6.1056
X-2.0292 Y6.0984
X-2.0379 Y6.0908
X-2.0463 Y6.0827
X-2.0541 Y6.0742
X-2.0616 Y6.0653
X-2.0686 Y6.056
X-2.075 Y6.0463
X-2.081 Y6.0364
X-2.0864 Y6.0261
X-2.0913 Y6.0156
X-2.0956 Y6.0048
X-2.0994 Y5.9938
X-2.1026 Y5.9827
X-2.1052 Y5.9714
X-2.1072 Y5.9599
X-2.1086 Y5.9484
X-2.1094 Y5.9369
X-2.1095 Y5.9252
X-2.1091 Y5.9137
X-2.1081 Y5.9021
X-2.1065 Y5.8906
X-2.1043 Y5.8792
X-2.1014 Y5.868
X-2.098 Y5.8569
X-2.0941 Y5.846
X-2.0895 Y5.8353
X-2.0844 Y5.8249
X-2.0788 Y5.8147
X-2.0727 Y5.8049
X-2.066 Y5.7954
G3 X-1.6315 Y5.7131 I0.3339 J0.5752
G1 X-1.5641 Y5.7129
X-1.4629 Y5.7128
X-0.7883
X-0.1138
X1.4714
G3 X1.7564 Y5.9098 I0.0484 J0.2346
X1.5515 Y6.1662 I-0.2745 J-0.0092
X1.16 Y6.2458 I-0.3278 J-0.61
X0.8564 Y6.2471 I-0.2421 J-20.0481
G1 X0.4517 Y6.2472
X-0.0542
X-1.7744
G3 X-2.0367 Y6.1987 I-0.0398 J-0.5187
X-1.8975 Y5.634 I0.1337 J-0.2666
X-1.392 Y5.6129 I0.3685 J2.7557
G1 X-1.0547 Y5.6128
X-0.7174
X1.2725
G3 X1.6712 Y5.6559 I0.1185 J0.7696
X1.6786 Y6.1988 I-0.1269 J0.2732
X1.1038 Y6.3458 I-0.4791 J-0.6758
X0.8003 Y6.3471 I-0.2501 J-23.0598
G1 X0.4968 Y6.3472
X-1.1896
X-1.6956
G3 X-2.2346 Y6.1395 I-0.0977 J-0.5497
G1 X-2.2425 Y6.126
X-2.2498 Y6.1123
X-2.2566 Y6.0982
X-2.2628 Y6.084
X-2.2685 Y6.0694
X-2.2736 Y6.0547
X-2.2781 Y6.0398
X-2.282 Y6.0247
X-2.2854 Y6.0094
X-2.2881 Y5.9941
X-2.2902 Y5.9786
X-2.2917 Y5.9631
X-2.2926 Y5.9475
X-2.2928 Y5.9319
X-2.2925 Y5.9163
X-2.2915 Y5.9008
X-2.2899 Y5.8852
X-2.2877 Y5.8698
X-2.2849 Y5.8545
X-2.2815 Y5.8392
X-2.2775 Y5.8242
X-2.2729 Y5.8093
X-2.2677 Y5.7945
X-2.262 Y5.7801
X-2.2557 Y5.7658
X-2.2488 Y5.7518
X-2.2414 Y5.7381
X-2.2334 Y5.7247
X-2.2249 Y5.7116
X-2.2159 Y5.6989
X-2.2064 Y5.6865
X-2.1964 Y5.6745
X-2.186 Y5.6629
X-2.1751 Y5.6517
X-2.1638 Y5.641
X-2.152 Y5.6307
X-2.1399 Y5.6209
X-2.1274 Y5.6116
X-2.1145 Y5.6028
X-2.1013 Y5.5945
X-2.0878 Y5.5868
X-2.074 Y5.5795
X-2.0599 Y5.5729
X-2.0455 Y5.5667
X-2.031 Y5.5612
X-2.0162 Y5.5562
X-2.0012 Y5.5518
X-1.9861 Y5.5481
X-1.9708 Y5.5449
X-1.9554 Y5.5423
X-1.94 Y5.5403
X-1.9244 Y5.539
X-1.9088 Y5.5382
X-1.8933 Y5.5381
X-1.8597 Y5.5257
G3 X-1.3204 Y5.5129 I0.4131 J6.0139
G1 X-1.0169 Y5.5128
X0.1299
X1.3778
G3 X1.8976 Y5.7533 I0.0799 J0.5093
X1.9365 Y5.8819 I-0.3467 J0.175
X1.5573 Y6.374 I-0.4923 J0.0127
X1.0263 Y6.4462 I-0.4433 J-1.2707
X0.7902 Y6.4471 I-0.2167 J-26.5839
G1 X0.5878 Y6.4472
X0.2505
X-1.672
X-1.7057 Y6.4471
X-1.7394 Y6.4468
X-1.7583 Y6.449
X-1.7772 Y6.4507
X-1.7962 Y6.4517
X-1.8152 Y6.4521
X-1.8341 Y6.4519
X-1.8531 Y6.4511
X-1.8721 Y6.4496
X-1.8909 Y6.4476
X-1.9097 Y6.4449
X-1.9284 Y6.4417
X-1.947 Y6.4378
X-1.9655 Y6.4333
X-1.9838 Y6.4283
X-2.0019 Y6.4226
X-2.0199 Y6.4164
X-2.0376 Y6.4096
X-2.0551 Y6.4022
X-2.0723 Y6.3942
X-2.0893 Y6.3857
X-2.106 Y6.3767
X-2.1224 Y6.3671
X-2.1385 Y6.357
X-2.1542 Y6.3464
X-2.1696 Y6.3353
X-2.1846 Y6.3236
X-2.1993 Y6.3115
X-2.2135 Y6.299
X-2.2273 Y6.286
X-2.2407 Y6.2725
X-2.2537 Y6.2586
X-2.2662 Y6.2443
X-2.2782 Y6.2296
X-2.2897 Y6.2146
X-2.3008 Y6.1991
X-2.3113 Y6.1833
X-2.3213 Y6.1672
X-2.3308 Y6.1508
X-2.3398 Y6.134
X-2.3482 Y6.117
X-2.3561 Y6.0997
X-2.3634 Y6.0822
X-2.3701 Y6.0644
X-2.3762 Y6.0465
X-2.3818 Y6.0283
X-2.3868 Y6.01
X-2.3912 Y5.9915
X-2.3949 Y5.9729
X-2.3981 Y5.9542
G3 X-1.811 Y5.4319 I0.5426 J0.0187
X-1.6081 Y5.4146 I0.1748 J0.8506
X-1.3045 Y5.4129 I0.2577 J19.2912
G1 X-1.1022 Y5.4128
X0.3819
X1.2925
G3 X1.9131 Y5.6091 I0.1115 J0.7269
X2.0293 Y5.9845 I-0.3621 J0.3178
G1 X2.0246 Y6.0043
X2.0194 Y6.024
X2.0135 Y6.0434
X2.0071 Y6.0627
X2. Y6.0818
X1.9924 Y6.1007
X1.9843 Y6.1193
X1.9756 Y6.1377
X1.9663 Y6.1558
X1.9565 Y6.1736
X1.9461 Y6.1912
X1.9352 Y6.2084
X1.9239 Y6.2252
X1.912 Y6.2417
X1.8996 Y6.2579
X1.8867 Y6.2736
X1.8734 Y6.289
X1.8596 Y6.3039
X1.8454 Y6.3185
X1.8307 Y6.3326
X1.8156 Y6.3462
X1.8001 Y6.3594
X1.7842 Y6.3721
X1.768 Y6.3843
X1.7514 Y6.3961
X1.7344 Y6.4073
X1.7171 Y6.418
X1.6995 Y6.4282
X1.6816 Y6.4378
X1.6634 Y6.4469
X1.6449 Y6.4555
X1.6262 Y6.4635
X1.6073 Y6.4709
X1.5881 Y6.4777
X1.5688 Y6.484
X1.5492 Y6.4897
X1.5295 Y6.4948
X1.5097 Y6.4992
X1.4897 Y6.5031
X1.4697 Y6.5064
X1.4495 Y6.5091
X1.4293 Y6.5112
X1.409 Y6.5126
G3 X0.7361 Y6.5471 I-0.5123 J-3.4147
G1 X0.5337 Y6.5472
X0.2976
X-1.6249
X-1.6586 Y6.5471
X-1.6923 Y6.5469
X-1.7142 Y6.5491
X-1.736 Y6.5507
X-1.7579 Y6.5517
X-1.7799 Y6.552
X-1.8018 Y6.5517
X-1.8237 Y6.5508
X-1.8456 Y6.5492
X-1.8674 Y6.5471
X-1.8892 Y6.5443
X-1.9108 Y6.5408
X-1.9324 Y6.5368
X-1.9538 Y6.5321
X-1.9751 Y6.5269
X-1.9962 Y6.521
X-2.0172 Y6.5145
X-2.0379 Y6.5074
X-2.0585 Y6.4998
X-2.0788 Y6.4915
X-2.0989 Y6.4827
X-2.1187 Y6.4733
X-2.1382 Y6.4633
X-2.1574 Y6.4528
X-2.1764 Y6.4417
X-2.195 Y6.4301
X-2.2133 Y6.418
X-2.2312 Y6.4054
X-2.2487 Y6.3922
X-2.2659 Y6.3785
X-2.2826 Y6.3644
X-2.299 Y6.3498
X-2.3149 Y6.3347
X-2.3304 Y6.3192
X-2.3454 Y6.3032
X-2.36 Y6.2868
X-2.3741 Y6.27
X-2.3877 Y6.2529
X-2.4008 Y6.2353
X-2.4134 Y6.2173
X-2.4255 Y6.199
X-2.437 Y6.1804
G3 X-1.9535 Y5.3484 I0.5538 J-0.2347
X-1.2473 Y5.3129 I0.5377 J3.6531
G1 X-1.045 Y5.3128
X0.0343
X1.2485
G3 X1.9443 Y5.504 I0.125 J0.9067
G1 X1.9681 Y5.5279
G3 X1.8178 Y6.4523 I-0.4366 J0.4034
X1.6108 Y6.5682 I-0.3887 J-0.4513
G1 X1.572 Y6.571
X1.5465 Y6.5712
X-1.9022
G3 X-2.5678 Y5.93 I-0.0239 J-0.6413
X-1.9022 Y5.2888 I0.6417 J0.
G1 X1.5465 Y5.2887
G3 X1.6108 Y6.5697 I0.0244 J0.6408
G1 X1.6075 Y6.5694 F60.
X1.6043 Y6.5685
X1.6013 Y6.5672
X1.5986 Y6.5654
X1.5963 Y6.5632
X1.5943 Y6.5607
X1.5928 Y6.5579
X1.5918 Y6.5549
X1.5913 Y6.5518
Y6.5487
X1.5915 Y6.5454 Z-0.2697
X1.5916 Y6.5423 Z-0.2689
X1.5917 Y6.5393 Z-0.2675
X1.5918 Y6.5366 Z-0.2656
X1.5919 Y6.5343 Z-0.2633
X1.592 Y6.5325 Z-0.2606
X1.5921 Y6.5311 Z-0.2577
Y6.5302 Z-0.2545
Y6.53 Z-0.2513
G0 Z0.4
X-1.8573 Y-7.865
Z-0.2325
G1 Z-0.2513 F60.
X-1.8574 Y-7.8653 Z-0.2545
X-1.8576 Y-7.8661 Z-0.2577
X-1.8579 Y-7.8674 Z-0.2606
X-1.8584 Y-7.8692 Z-0.2633
X-1.859 Y-7.8715 Z-0.2656
X-1.8596 Y-7.8741 Z-0.2675
X-1.8604 Y-7.8769 Z-0.2689
X-1.8612 Y-7.88 Z-0.2697
X-1.862 Y-7.8831 Z-0.27
G3 X-1.8767 Y-7.9852 I0.4637 J-0.1188
X-1.7361 Y-8.075 I0.1227 J0.0372 F80.
X-1.2307 Y-8.0872 I0.3665 J4.7024
G1 X0.0847
X1.5013
X1.5129 Y-8.0886
X1.5246 Y-8.0894
X1.5363 Y-8.0896
X1.5481 Y-8.0892
X1.5597 Y-8.0882
X1.5713 Y-8.0865
X1.5828 Y-8.0842
X1.5942 Y-8.0813
X1.6054 Y-8.0778
X1.6164 Y-8.0737
X1.6271 Y-8.069
X1.6376 Y-8.0637
X1.6478 Y-8.0579
X1.6576 Y-8.0516
X1.6671 Y-8.0447
X1.6763 Y-8.0374
X1.685 Y-8.0295
X1.6933 Y-8.0212
X1.7011 Y-8.0125
X1.7084 Y-8.0034
X1.7153 Y-7.9939
X1.7216 Y-7.984
X1.7274 Y-7.9738
X1.7327 Y-7.9633
X1.7373 Y-7.9526
X1.7414 Y-7.9416
X1.7449 Y-7.9304
X1.7478 Y-7.919
X1.7501 Y-7.9075
X1.7518 Y-7.8959
X1.7528 Y-7.8843
X1.7532 Y-7.8726
X1.753 Y-7.8608
X1.7522 Y-7.8491
X1.7507 Y-7.8375
X1.7486 Y-7.826
X1.7459 Y-7.8146
X1.7426 Y-7.8033
X1.7387 Y-7.7923
X1.7342 Y-7.7815
X1.7292 Y-7.7709
X1.7236 Y-7.7606
X1.7174 Y-7.7506
X1.7107 Y-7.741
X1.7035 Y-7.7318
X1.6959 Y-7.7229
X1.6877 Y-7.7145
X1.6791 Y-7.7065
G3 X1.2065 Y-7.6529 I-0.3535 J-1.007
G1 X1.1053 Y-7.6528
X0.397
X-0.3113
X-1.829
G3 X-2.1026 Y-7.9288 I-0.0546 J-0.2194
X-1.8524 Y-8.1323 I0.365 J0.1931
X-1.3198 Y-8.187 I0.4169 J1.4388
G1 X-1.2186 Y-8.1871
X-0.9151 Y-8.1872
X-0.2068
X1.4122
G3 X1.7563 Y-8.084 I0.0572 J0.4347
G1 X1.7657 Y-8.0741
X1.7747 Y-8.0639
X1.7832 Y-8.0532
X1.7912 Y-8.0421
X1.7987 Y-8.0307
X1.8057 Y-8.019
X1.8121 Y-8.007
X1.818 Y-7.9947
X1.8233 Y-7.9821
X1.8281 Y-7.9693
X1.8322 Y-7.9563
X1.8358 Y-7.9431
X1.8387 Y-7.9298
X1.8411 Y-7.9164
X1.8428 Y-7.9028
X1.8439 Y-7.8892
X1.8444 Y-7.8756
X1.8443 Y-7.8619
X1.8435 Y-7.8483
X1.8421 Y-7.8347
X1.8402 Y-7.8212
X1.8376 Y-7.8079
X1.8344 Y-7.7946
X1.8306 Y-7.7815
X1.8262 Y-7.7686
X1.8212 Y-7.7559
X1.8156 Y-7.7434
X1.8095 Y-7.7312
X1.8029 Y-7.7193
X1.7957 Y-7.7077
X1.788 Y-7.6964
X1.7798 Y-7.6855
X1.7711 Y-7.675
X1.7619 Y-7.6649
X1.7523 Y-7.6553
X1.7422 Y-7.646
X1.7317 Y-7.6373
X1.7209 Y-7.629
X1.7097 Y-7.6212
X1.6981 Y-7.614
X1.6863 Y-7.6072
X1.6741 Y-7.6011
X1.6617 Y-7.5954
X1.649 Y-7.5904
X1.6361 Y-7.5859
X1.623 Y-7.5821
X1.6098 Y-7.5788
X1.5964 Y-7.5761
X1.5829 Y-7.5741
X1.5693 Y-7.5726
X1.5557 Y-7.5718
X1.5421 Y-7.5716
X1.5284 Y-7.572
X1.5148 Y-7.573
G3 X0.9746 Y-7.5528 I-0.3823 J-2.9881
G1 X0.2663
X-1.7236
G3 X-2.148 Y-7.6973 I-0.0903 J-0.4302
G1 X-2.1553 Y-7.7086
X-2.1622 Y-7.7203
X-2.1685 Y-7.7323
X-2.1743 Y-7.7445
X-2.1795 Y-7.757
X-2.1842 Y-7.7697
X-2.1883 Y-7.7825
X-2.1919 Y-7.7956
X-2.1948 Y-7.8088
X-2.1972 Y-7.8221
X-2.199 Y-7.8355
X-2.2001 Y-7.849
X-2.2007 Y-7.8625
X-2.2006 Y-7.8761
X-2.2 Y-7.8896
X-2.1988 Y-7.9031
X-2.1969 Y-7.9165
X-2.1945 Y-7.9298
X-2.1915 Y-7.943
X-2.1879 Y-7.956
X-2.1837 Y-7.9689
X-2.1789 Y-7.9815
X-2.1736 Y-7.994
X-2.1678 Y-8.0062
X-2.1614 Y-8.0181
X-2.1545 Y-8.0297
X-2.147 Y-8.041
X-2.1391 Y-8.052
X-2.1307 Y-8.0626
X-2.1218 Y-8.0728
X-2.1125 Y-8.0826
X-2.1028 Y-8.092
X-2.0926 Y-8.101
X-2.0821 Y-8.1094
X-2.0712 Y-8.1174
X-2.0599 Y-8.125
X-2.0483 Y-8.132
X-2.0365 Y-8.1384
X-2.0243 Y-8.1444
X-2.0119 Y-8.1498
G3 X-1.4326 Y-8.286 I0.4803 J0.7425
X-1.0616 Y-8.2872 I0.2794 J30.949
G1 X0.9284
X1.3669
G3 X1.8925 Y-8.056 I0.0852 J0.5195
G1 X1.8993 Y-8.042
X1.9056 Y-8.0278
X1.9113 Y-8.0133
X1.9164 Y-7.9985
X1.921 Y-7.9836
X1.925 Y-7.9686
X1.9284 Y-7.9534
X1.9312 Y-7.938
X1.9333 Y-7.9226
X1.9349 Y-7.9071
X1.9359 Y-7.8915
X1.9363 Y-7.8759
X1.936 Y-7.8604
X1.9352 Y-7.8448
X1.9337 Y-7.8293
X1.9317 Y-7.8138
X1.929 Y-7.7985
X1.9258 Y-7.7832
X1.9219 Y-7.7681
X1.9175 Y-7.7532
X1.9124 Y-7.7384
X1.9068 Y-7.7239
X1.9007 Y-7.7096
X1.894 Y-7.6955
X1.8867 Y-7.6817
X1.8789 Y-7.6682
X1.8706 Y-7.655
X1.8618 Y-7.6422
X1.8525 Y-7.6297
X1.8427 Y-7.6176
X1.8324 Y-7.6058
X1.8217 Y-7.5945
X1.8105 Y-7.5836
X1.799 Y-7.5732
X1.787 Y-7.5632
X1.7747 Y-7.5537
X1.7619 Y-7.5446
X1.7489 Y-7.5361
X1.7355 Y-7.5281
X1.7218 Y-7.5207
X1.7079 Y-7.5137
X1.6937 Y-7.5073
X1.6792 Y-7.5015
X1.6645 Y-7.4963
X1.6497 Y-7.4916
X1.6346 Y-7.4875
X1.6194 Y-7.484
X1.6041 Y-7.4811
X1.5887 Y-7.4788
X1.5732 Y-7.4771
X1.5577 Y-7.476
X1.5421 Y-7.4755
X1.5265 Y-7.4756
X1.5109 Y-7.4764
X1.4767 Y-7.4629
X1.4431 Y-7.4603
X1.4094 Y-7.4582
G3 X0.971 Y-7.4529 I-0.338 J-9.6811
G1 X0.6675 Y-7.4528
X-0.5804
X-1.7272
G3 X-2.2506 Y-7.6875 I-0.0832 J-0.5154
X-2.2916 Y-7.9163 I0.3379 J-0.1787
X-1.887 Y-8.3293 I0.563 J0.1468
X-1.1167 Y-8.3871 I0.5819 J2.595
G1 X-0.8806 Y-8.3872
X-0.5096
X1.3117
G3 X1.4803 Y-8.3833 I0.0297 J2.385
G1 X1.4982 Y-8.384
X1.5161 Y-8.3841
X1.534 Y-8.3835
X1.5519 Y-8.3824
X1.5698 Y-8.3806
X1.5875 Y-8.3782
X1.6052 Y-8.3752
X1.6228 Y-8.3716
X1.6402 Y-8.3674
X1.6575 Y-8.3625
X1.6745 Y-8.3571
X1.6914 Y-8.3511
X1.7081 Y-8.3445
X1.7245 Y-8.3374
X1.7407 Y-8.3296
X1.7566 Y-8.3214
X1.7722 Y-8.3125
X1.7875 Y-8.3032
X1.8025 Y-8.2933
X1.8171 Y-8.2829
X1.8313 Y-8.272
X1.8452 Y-8.2606
X1.8586 Y-8.2488
X1.8716 Y-8.2365
X1.8842 Y-8.2237
X1.8964 Y-8.2106
X1.9081 Y-8.197
X1.9193 Y-8.183
X1.93 Y-8.1686
X1.9402 Y-8.1539
X1.9499 Y-8.1388
X1.9591 Y-8.1234
X1.9678 Y-8.1077
X1.9758 Y-8.0917
X1.9834 Y-8.0755
X1.9903 Y-8.0589
X1.9967 Y-8.0422
X2.0025 Y-8.0252
X2.0078 Y-8.0081
X2.0124 Y-7.9908
X2.0164 Y-7.9733
X2.0198 Y-7.9557
X2.0226 Y-7.938
X2.0248 Y-7.9202
X2.0264 Y-7.9024
X2.0273 Y-7.8845
X2.0277 Y-7.8665
X2.0274 Y-7.8486
X2.0265 Y-7.8307
X2.0249 Y-7.8129
X2.0228 Y-7.7951
X2.02 Y-7.7774
X2.0167 Y-7.7597
X2.0127 Y-7.7423
X2.0081 Y-7.7249
X2.0029 Y-7.7078
X1.9972 Y-7.6908
X1.9908 Y-7.674
X1.9839 Y-7.6575
X1.9764 Y-7.6412
X1.9684 Y-7.6252
X1.9598 Y-7.6095
X1.9507 Y-7.5941
X1.941 Y-7.579
X1.9308 Y-7.5642
X1.9201 Y-7.5498
G3 X1.2565 Y-7.3546 I-0.568 J-0.7054
G1 X1.2228 Y-7.3541
X1.189 Y-7.3538
X1.1553 Y-7.3535
X1.1216 Y-7.3533
X1.0541 Y-7.3531
X0.953 Y-7.3529
X0.7506 Y-7.3528
X-0.8346
X-1.6441
G3 X-2.2662 Y-7.5458 I-0.1133 J-0.7338
X-2.3641 Y-8.0189 I0.3593 J-0.321
X-1.6006 Y-8.4684 I0.7077 J0.329
X-0.9255 Y-8.4872 I0.4707 J4.7755
G1 X-0.5545
X1.2668
G3 X1.4354 Y-8.4846 I0.028 J3.6718
G1 X1.4555 Y-8.4858
X1.4755 Y-8.4863
X1.4955 Y-8.4862
X1.5155 Y-8.4856
X1.5355 Y-8.4842
X1.5555 Y-8.4823
X1.5754 Y-8.4798
X1.5951 Y-8.4766
X1.6148 Y-8.4728
X1.6344 Y-8.4684
X1.6538 Y-8.4634
X1.673 Y-8.4579
X1.6921 Y-8.4517
X1.7109 Y-8.4449
X1.7296 Y-8.4375
X1.748 Y-8.4296
X1.7661 Y-8.4211
X1.784 Y-8.412
X1.8016 Y-8.4024
X1.8189 Y-8.3923
X1.8358 Y-8.3816
X1.8524 Y-8.3704
X1.8687 Y-8.3587
X1.8846 Y-8.3465
X1.9001 Y-8.3338
X1.9152 Y-8.3206
X1.9298 Y-8.307
X1.9441 Y-8.2929
X1.9579 Y-8.2784
X1.9713 Y-8.2635
X1.9841 Y-8.2481
X1.9965 Y-8.2324
X2.0084 Y-8.2162
X2.0198 Y-8.1998
X2.0307 Y-8.1829
X2.0411 Y-8.1658
X2.0509 Y-8.1483
X2.0601 Y-8.1306
X2.0689 Y-8.1125
X2.077 Y-8.0942
X2.0846 Y-8.0757
X2.0916 Y-8.0569
X2.098 Y-8.0379
X2.1038 Y-8.0188
X2.109 Y-7.9994
X2.1137 Y-7.9799
X2.1177 Y-7.9603
X2.1211 Y-7.9405
X2.1239 Y-7.9207
X2.126 Y-7.9008
X2.1276 Y-7.8808
X2.1285 Y-7.8608
X2.1288 Y-7.8408
X2.1285 Y-7.8207
X2.1276 Y-7.8007
X2.126 Y-7.7808
X2.1238 Y-7.7608
X2.121 Y-7.741
X2.1176 Y-7.7213
G3 X1.5 Y-7.2734 I-0.6328 J-0.223
X0.8935 Y-7.2529 I-0.4652 J-4.773
G1 X0.6912 Y-7.2528
X-0.4893
X-1.6023
G3 X-2.2986 Y-7.4426 I-0.126 J-0.9099
X-2.3857 Y-7.5453 I0.4059 J-0.4322
X-2.1452 Y-8.4071 I0.5025 J-0.3242
X-1.9556 Y-8.509 I0.3569 J0.4367
G1 X-1.9277 Y-8.511
X-1.9022 Y-8.5112
X1.5465
G3 X2.212 Y-7.87 I0.0239 J0.6413
X1.5465 Y-7.2288 I-0.6417 J0.
G1 X-1.9022 Y-7.2287
G3 X-1.9557 Y-8.5103 I-0.0244 J-0.6409
G1 X-1.9525 Y-8.5098 F60.
X-1.9494 Y-8.5088
X-1.9466 Y-8.5074
X-1.9442 Y-8.5056
X-1.9424 Y-8.5037 Z-0.2698
X-1.9406 Y-8.5018 Z-0.2693
X-1.939 Y-8.5001 Z-0.2684
X-1.938 Y-8.4973 Z-0.2667
X-1.9371 Y-8.4949 Z-0.2646
X-1.9364 Y-8.4929 Z-0.2621
X-1.9363 Y-8.4914 Z-0.2595
X-1.9362 Y-8.4902 Z-0.2566
Y-8.4897 Z-0.254
Y-8.4895 Z-0.2513
G0 Z-0.17
X-1.8648 Y-7.7985
G3 X-1.7587 Y-7.9415 Z-0.2193 I0.053 J-0.0715 F13.333
X-1.8648 Y-7.7985 Z-0.2687 I-0.053 J0.0715
X-1.7587 Y-7.9415 Z-0.318 I0.053 J-0.0715
X-1.8648 Y-7.7985 Z-0.3673 I-0.053 J0.0715
X-1.7587 Y-7.9415 Z-0.4167 I0.053 J-0.0715
X-1.8648 Y-7.7985 Z-0.466 I-0.053 J0.0715
X-1.7587 Y-7.9415 Z-0.5154 I0.053 J-0.0715
X-1.7227 Y-7.87 Z-0.53 I-0.053 J0.0715
X-1.9008 I-0.0891 J0.
X-1.7227 I0.0891 J0.
X-1.7411 Y-7.7528 I-0.055 J0.0514 F80.
G1 X-1.8706
G3 X-1.9269 Y-7.9844 I0.0248 J-0.1287
G1 X-1.9237 Y-7.9848 F60.
X-1.9204 Y-7.9846
X-1.9173 Y-7.9839
X-1.9143 Y-7.9827
X-1.9116 Y-7.981
X-1.9092 Y-7.9788
X-1.9072 Y-7.9763
X-1.9056 Y-7.9735
X-1.9046 Y-7.9705
X-1.904 Y-7.9682
X-1.8531 Y-7.7764 F80.
X-1.8526 Y-7.7737
G3 X-1.8706 Y-7.7528 I-0.0186 J0.0021 F60.
X-2.0037 Y-7.7997 I-0.0205 J-0.1542 F80.
X-1.9139 Y-7.986 I0.0888 J-0.072
G1 X-1.753 Y-7.9872
G3 X-1.642 Y-7.7515 I-0.0381 J0.1619
G1 X-1.656 Y-7.7528
X-1.7411
G3 X-1.757 Y-7.7627 I0.0007 J-0.0187 F60.
X-1.7602 Y-7.7735 I0.0246 J-0.0131
X-1.7276 Y-7.8032 I0.0277 J-0.0023 F80.
X-1.6779 Y-7.7723 I-0.0137 J0.0775
X-1.6719 Y-7.7627 I-0.0635 J0.0466 F60.
G2 X-1.656 Y-7.7528 I0.0165 J-0.0088
G1 X-1.6272
G2 X-1.6144 Y-7.9882 I-0.0616 J-0.1214
G1 X-1.753 Y-7.9872
G2 X-1.7711 Y-7.9678 I0.0007 J0.0187
X-1.771 Y-7.9663 I0.0164 J-0.0006
X-1.7612 Y-7.9533 I0.0162 J-0.002 F80.
X-1.6399 Y-7.9702 I0.0468 J-0.1085
X-1.6281 Y-7.9812 I-0.0746 J-0.0916 F60.
G3 X-1.615 Y-7.9872 I0.0137 J0.0128
G1 X-1.582 F80.
G3 X-1.5159 Y-7.7491 I-0.0368 J0.1385
G1 X-1.6272 Y-7.7528
G3 X-1.6431 Y-7.7627 I0.0007 J-0.0187 F60.
X-1.6462 Y-7.7735 I0.0238 J-0.0127
X-1.6266 Y-7.8014 I0.027 J-0.0019 F80.
X-1.5417 Y-7.7723 I0.0215 J0.0757
X-1.5357 Y-7.7627 I-0.0635 J0.0466 F60.
G2 X-1.5198 Y-7.7528 I0.0165 J-0.0088
G1 X-1.4914
G2 X-1.4522 Y-7.9896 I-0.0465 J-0.1293
G1 X-1.582 Y-7.9872
G2 X-1.5979 Y-7.9773 I0.0007 J0.0187
X-1.5994 Y-7.9663 I0.014 J0.0075
X-1.5951 Y-7.9585 I0.0155 J-0.0035 F80.
X-1.4761 Y-7.9677 I0.0556 J-0.0558
X-1.47 Y-7.9773 I-0.0635 J-0.0466 F60.
G3 X-1.4541 Y-7.9872 I0.0165 J0.0088
G1 X-1.4206 F80.
G3 X-1.3704 Y-7.7496 I-0.0455 J0.1337
G1 X-1.4914 Y-7.7528
G3 X-1.5073 Y-7.7627 I0.0007 J-0.0187 F60.
X-1.51 Y-7.7736 I0.0204 J-0.0109
X-1.4986 Y-7.7936 I0.0232 J0. F80.
X-1.3952 Y-7.7723 I0.0399 J0.0679
X-1.3892 Y-7.7627 I-0.0635 J0.0466 F60.
G2 X-1.3733 Y-7.7528 I0.0165 J-0.0088
G1 X-1.3445
G2 X-1.2978 Y-7.99 I-0.0429 J-0.1316
G1 X-1.4206 Y-7.9872
G2 X-1.4365 Y-7.9773 I0.0007 J0.0187
X-1.439 Y-7.9664 I0.0193 J0.0103
X-1.4294 Y-7.9489 I0.0218 J-0.0006 F80.
X-1.3221 Y-7.9677 I0.0438 J-0.0654
X-1.3161 Y-7.9773 I-0.0635 J-0.0466 F60.
G3 X-1.3002 Y-7.9872 I0.0165 J0.0088
G1 X-1.2671 F80.
G3 X-1.2207 Y-7.7498 I-0.0472 J0.1325
G1 X-1.3445 Y-7.7528
G3 X-1.3604 Y-7.7627 I0.0007 J-0.0187 F60.
X-1.3629 Y-7.7736 I0.0188 J-0.01
X-1.3538 Y-7.7903 I0.0213 J0.0008 F80.
X-1.2453 Y-7.7723 I0.045 J0.0646
X-1.2393 Y-7.7627 I-0.0635 J0.0466 F60.
G2 X-1.2234 Y-7.7528 I0.0165 J-0.0088
G1 X-1.1913
G2 X-1.1456 Y-7.9901 I-0.0466 J-0.132
G1 X-1.2671 Y-7.9872
G2 X-1.283 Y-7.9773 I0.0007 J0.0187
X-1.2857 Y-7.9664 I0.02 J0.0106
X-1.275 Y-7.9474 I0.0226 J-0.0002 F80.
X-1.17 Y-7.9677 I0.0415 J-0.0669
X-1.164 Y-7.9773 I-0.0635 J-0.0466 F60.
G3 X-1.1481 Y-7.9872 I0.0165 J0.0088
G1 X-1.1148 F80.
G3 X-1.0695 Y-7.7498 I-0.0484 J0.1323
G1 X-1.1913 Y-7.7528
G3 X-1.2072 Y-7.7627 I0.0007 J-0.0187 F60.
X-1.2099 Y-7.7736 I0.0199 J-0.0106
X-1.1992 Y-7.7925 I0.0226 J0.0002 F80.
X-1.0941 Y-7.7723 I0.0416 J0.0668
X-1.0881 Y-7.7627 I-0.0635 J0.0466 F60.
G2 X-1.0722 Y-7.7528 I0.0165 J-0.0088
G1 X-1.0416
G2 X-0.9938 Y-7.9903 I-0.0446 J-0.1326
G1 X-1.1148 Y-7.9872
G2 X-1.1306 Y-7.9773 I0.0007 J0.0187
X-1.1334 Y-7.9664 I0.0203 J0.0108
X-1.1221 Y-7.9466 I0.0231 J0. F80.
X-1.0184 Y-7.9677 I0.0402 J-0.0677
X-1.0124 Y-7.9773 I-0.0635 J-0.0466 F60.
G3 X-0.9965 Y-7.9872 I0.0165 J0.0088
G1 X-0.965 F80.
G3 X-0.9184 Y-7.75 I-0.0459 J0.1322
G1 X-1.0416 Y-7.7528
G3 X-1.0575 Y-7.7627 I0.0007 J-0.0187 F60.
X-1.06 Y-7.7736 I0.019 J-0.0101
X-1.0507 Y-7.7907 I0.0216 J0.0007 F80.
X-0.9427 Y-7.7723 I0.0445 J0.065
X-0.9367 Y-7.7627 I-0.0635 J0.0466 F60.
G2 X-0.9208 Y-7.7528 I0.0165 J-0.0088
G1 X-0.8885
G2 X-0.8428 Y-7.9901 I-0.0473 J-0.1322
G1 X-0.965 Y-7.9872
G2 X-0.9809 Y-7.9773 I0.0007 J0.0187
X-0.9836 Y-7.9664 I0.0197 J0.0105
X-0.9733 Y-7.948 I0.0223 J-0.0004 F80.
X-0.8673 Y-7.9677 I0.0425 J-0.0663
X-0.8613 Y-7.9773 I-0.0635 J-0.0466 F60.
G3 X-0.8454 Y-7.9872 I0.0165 J0.0088
G1 X-0.8161 F80.
G3 X-0.7671 Y-7.7498 I-0.0423 J0.1325
G1 X-0.8885 Y-7.7528
G3 X-0.9043 Y-7.7627 I0.0007 J-0.0187 F60.
X-0.907 Y-7.7736 I0.0201 J-0.0107
X-0.8961 Y-7.7929 I0.0228 J0.0001 F80.
X-0.7916 Y-7.7723 I0.041 J0.0672
X-0.7856 Y-7.7627 I-0.0635 J0.0466 F60.
G2 X-0.7697 Y-7.7528 I0.0165 J-0.0088
G1 X-0.7395
G2 X-0.6915 Y-7.9902 I-0.0439 J-0.1325
G1 X-0.8161 Y-7.9872
G2 X-0.832 Y-7.9773 I0.0007 J0.0187
X-0.8344 Y-7.9664 I0.0183 J0.0098
X-0.8259 Y-7.9507 I0.0208 J-0.0011 F80.
X-0.716 Y-7.9677 I0.0464 J-0.0636
X-0.71 Y-7.9773 I-0.0635 J-0.0466 F60.
G3 X-0.6941 Y-7.9872 I0.0165 J0.0088
G1 X-0.6629 F80.
G3 X-0.6156 Y-7.7496 I-0.0456 J0.1326
G1 X-0.7395 Y-7.7528
G3 X-0.7554 Y-7.7627 I0.0007 J-0.0187 F60.
X-0.7579 Y-7.7736 I0.0188 J-0.01
X-0.7488 Y-7.7903 I0.0213 J0.0009 F80.
X-0.6403 Y-7.7723 I0.045 J0.0646
X-0.6343 Y-7.7627 I-0.0635 J0.0466 F60.
G2 X-0.6184 Y-7.7528 I0.0165 J-0.0088
G1 X-0.5863
G2 X-0.5404 Y-7.9901 I-0.0467 J-0.1321
G1 X-0.6629 Y-7.9872
G2 X-0.6788 Y-7.9773 I0.0007 J0.0187
X-0.6814 Y-7.9664 I0.0195 J0.0104
X-0.6714 Y-7.9484 I0.0221 J-0.0005 F80.
X-0.5649 Y-7.9677 I0.0431 J-0.0659
X-0.5588 Y-7.9773 I-0.0635 J-0.0466 F60.
G3 X-0.5429 Y-7.9872 I0.0165 J0.0088
G1 X-0.5098 F80.
G3 X-0.4645 Y-7.7498 I-0.0482 J0.1322
G1 X-0.5863 Y-7.7528
G3 X-0.6022 Y-7.7627 I0.0007 J-0.0187 F60.
X-0.6049 Y-7.7736 I0.0199 J-0.0106
X-0.5943 Y-7.7925 I0.0226 J0.0002 F80.
X-0.4891 Y-7.7723 I0.0417 J0.0668
X-0.4831 Y-7.7627 I-0.0635 J0.0466 F60.
G2 X-0.4672 Y-7.7528 I0.0165 J-0.0088
G1 X-0.4365
G2 X-0.3886 Y-7.9903 I-0.0448 J-0.1326
G1 X-0.5098 Y-7.9872
G2 X-0.5257 Y-7.9773 I0.0007 J0.0187
X-0.5284 Y-7.9664 I0.0203 J0.0108
X-0.5172 Y-7.9467 I0.023 J-0.0001 F80.
X-0.4133 Y-7.9677 I0.0404 J-0.0676
X-0.4073 Y-7.9773 I-0.0635 J-0.0466 F60.
G3 X-0.3914 Y-7.9872 I0.0165 J0.0088
G1 X-0.3625 F80.
G3 X-0.3134 Y-7.7499 I-0.042 J0.1324
G1 X-0.4365 Y-7.7528
G3 X-0.4524 Y-7.7627 I0.0007 J-0.0187 F60.
X-0.4549 Y-7.7736 I0.0192 J-0.0102
X-0.4453 Y-7.791 I0.0217 J0.0006 F80.
X-0.3379 Y-7.7723 I0.044 J0.0653
X-0.3319 Y-7.7627 I-0.0635 J0.0466 F60.
G2 X-0.316 Y-7.7528 I0.0165 J-0.0088
G1 X-0.2835
G2 X-0.2379 Y-7.9901 I-0.0472 J-0.1321
G1 X-0.3625 Y-7.9872
G2 X-0.3784 Y-7.9773 I0.0007 J0.0187
X-0.3808 Y-7.9664 I0.0183 J0.0098
X-0.3723 Y-7.9507 I0.0208 J-0.0011 F80.
X-0.2624 Y-7.9677 I0.0464 J-0.0636
X-0.2564 Y-7.9773 I-0.0635 J-0.0466 F60.
G3 X-0.2405 Y-7.9872 I0.0165 J0.0088
G1 X-0.2093 F80.
G3 X-0.1616 Y-7.7496 I-0.0454 J0.1327
G1 X-0.2835 Y-7.7528
G3 X-0.2994 Y-7.7627 I0.0007 J-0.0187 F60.
X-0.302 Y-7.7736 I0.02 J-0.0107
X-0.2913 Y-7.7926 I0.0226 J0.0002 F80.
X-0.1864 Y-7.7723 I0.0415 J0.0669
X-0.1804 Y-7.7627 I-0.0635 J0.0466 F60.
G2 X-0.1645 Y-7.7528 I0.0165 J-0.0088
G1 X-0.1349
G2 X-0.0865 Y-7.9902 I-0.0432 J-0.1324
G1 X-0.2093 Y-7.9872
G2 X-0.2252 Y-7.9773 I0.0007 J0.0187
X-0.2278 Y-7.9664 I0.0194 J0.0103
X-0.2179 Y-7.9486 I0.022 J-0.0006 F80.
X-0.111 Y-7.9677 I0.0434 J-0.0657
X-0.105 Y-7.9773 I-0.0635 J-0.0466 F60.
G3 X-0.0891 Y-7.9872 I0.0165 J0.0088
G1 X-0.0561 F80.
G3 X-0.011 Y-7.7498 I-0.0479 J0.1321
G1 X-0.1349 Y-7.7528
G3 X-0.1508 Y-7.7627 I0.0007 J-0.0187 F60.
X-0.1533 Y-7.7736 I0.0188 J-0.01
X-0.1442 Y-7.7902 I0.0213 J0.0009 F80.
X-0.0355 Y-7.7723 I0.0452 J0.0645
X-0.0295 Y-7.7627 I-0.0635 J0.0466 F60.
G2 X-0.0136 Y-7.7528 I0.0165 J-0.0088
G1 X0.0178
G2 X0.065 Y-7.99 I-0.0454 J-0.1323
G1 X-0.0561 Y-7.9872
G2 X-0.072 Y-7.9773 I0.0007 J0.0187
X-0.0747 Y-7.9664 I0.0202 J0.0107
X-0.0637 Y-7.947 I0.0228 J-0.0001 F80.
X0.0406 Y-7.9677 I0.0409 J-0.0673
X0.0466 Y-7.9773 I-0.0635 J-0.0466 F60.
G3 X0.0625 Y-7.9872 I0.0165 J0.0088
G1 X0.0915 F80.
G3 X0.1403 Y-7.7499 I-0.0423 J0.1324
G1 X0.0178 Y-7.7528
G3 X0.0019 Y-7.7627 I0.0007 J-0.0187 F60.
X-0.0007 Y-7.7736 I0.0195 J-0.0104
X0.0093 Y-7.7916 I0.0221 J0.0005 F80.
X0.1159 Y-7.7723 I0.0431 J0.0659
X0.1219 Y-7.7627 I-0.0635 J0.0466 F60.
G2 X0.1378 Y-7.7528 I0.0165 J-0.0088
G1 X0.1706
G2 X0.2159 Y-7.9902 I-0.0476 J-0.1321
G1 X0.0915 Y-7.9872
G2 X0.0756 Y-7.9773 I0.0007 J0.0187
X0.0731 Y-7.9664 I0.0185 J0.0098
X0.0818 Y-7.9505 I0.0209 J-0.0011 F80.
X0.1914 Y-7.9677 I0.0461 J-0.0638
X0.1974 Y-7.9773 I-0.0635 J-0.0466 F60.
G3 X0.2133 Y-7.9872 I0.0165 J0.0088
G1 X0.2446 F80.
G3 X0.2918 Y-7.75 I-0.0454 J0.1323
G1 X0.1706 Y-7.7528
G3 X0.1547 Y-7.7627 I0.0007 J-0.0187 F60.
X0.152 Y-7.7736 I0.0201 J-0.0107
X0.1629 Y-7.7928 I0.0228 J0.0002 F80.
X0.2675 Y-7.7723 I0.0411 J0.0671
X0.2735 Y-7.7627 I-0.0635 J0.0466 F60.
G2 X0.2894 Y-7.7528 I0.0165 J-0.0088
G1 X0.3183
G2 X0.3672 Y-7.9901 I-0.0422 J-0.1324
G1 X0.2446 Y-7.9872
G2 X0.2288 Y-7.9773 I0.0007 J0.0187
X0.2262 Y-7.9664 I0.0195 J0.0104
X0.2361 Y-7.9484 I0.0221 J-0.0005 F80.
X0.3427 Y-7.9677 I0.0431 J-0.0659
X0.3488 Y-7.9773 I-0.0635 J-0.0466 F60.
G3 X0.3646 Y-7.9872 I0.0165 J0.0088
G1 X0.3978 F80.
G3 X0.4428 Y-7.7498 I-0.0482 J0.1321
G1 X0.3183 Y-7.7528
G3 X0.3024 Y-7.7627 I0.0007 J-0.0187 F60.
X0.3 Y-7.7736 I0.0184 J-0.0098
X0.3086 Y-7.7895 I0.0209 J0.0011 F80.
X0.4182 Y-7.7723 I0.0461 J0.0638
X0.4242 Y-7.7627 I-0.0635 J0.0466 F60.
G2 X0.4401 Y-7.7528 I0.0165 J-0.0088
G1 X0.4703
G2 X0.5187 Y-7.9902 I-0.0436 J-0.1325
G1 X0.3978 Y-7.9872
G2 X0.3819 Y-7.9773 I0.0007 J0.0187
X0.3792 Y-7.9664 I0.0204 J0.0109
X0.3905 Y-7.9466 I0.0231 J0. F80.
X0.4941 Y-7.9677 I0.0401 J-0.0677
X0.5002 Y-7.9773 I-0.0635 J-0.0466 F60.
G3 X0.516 Y-7.9872 I0.0165 J0.0088
G1 X0.5483 F80.
G3 X0.594 Y-7.7499 I-0.0469 J0.1321
G1 X0.4703 Y-7.7528
G3 X0.4544 Y-7.7627 I0.0007 J-0.0187 F60.
X0.4519 Y-7.7736 I0.0189 J-0.0101
X0.4611 Y-7.7903 I0.0214 J0.0008 F80.
X0.5695 Y-7.7723 I0.045 J0.0646
X0.5755 Y-7.7627 I-0.0635 J0.0466 F60.
G2 X0.5914 Y-7.7528 I0.0165 J-0.0088
G1 X0.6229
G2 X0.67 Y-7.99 I-0.0455 J-0.1323
G1 X0.5483 Y-7.9872
G2 X0.5324 Y-7.9773 I0.0007 J0.0187
X0.5297 Y-7.9664 I0.0199 J0.0106
X0.5403 Y-7.9476 I0.0225 J-0.0003 F80.
X0.6456 Y-7.9677 I0.0418 J-0.0667
X0.6516 Y-7.9773 I-0.0635 J-0.0466 F60.
G3 X0.6675 Y-7.9872 I0.0165 J0.0088
G1 X0.6979 F80.
G3 X0.7456 Y-7.7497 I-0.0446 J0.1325
G1 X0.6229 Y-7.7528
G3 X0.607 Y-7.7627 I0.0007 J-0.0187 F60.
X0.6044 Y-7.7736 I0.0195 J-0.0104
X0.6144 Y-7.7916 I0.0221 J0.0005 F80.
X0.721 Y-7.7723 I0.0431 J0.0659
X0.727 Y-7.7627 I-0.0635 J0.0466 F60.
G2 X0.7429 Y-7.7528 I0.0165 J-0.0088
G1 X0.7755
G2 X0.821 Y-7.9901 I-0.0474 J-0.1321
G1 X0.6979 Y-7.9872
G2 X0.682 Y-7.9773 I0.0007 J0.0187
X0.6794 Y-7.9664 I0.0192 J0.0102
X0.689 Y-7.949 I0.0217 J-0.0007 F80.
X0.7965 Y-7.9677 I0.044 J-0.0653
X0.8025 Y-7.9773 I-0.0635 J-0.0466 F60.
G3 X0.8184 Y-7.9872 I0.0165 J0.0088
G1 X0.851 F80.
G3 X0.8968 Y-7.7498 I-0.0473 J0.1322
G1 X0.7755 Y-7.7528
G3 X0.7596 Y-7.7627 I0.0007 J-0.0187 F60.
X0.7569 Y-7.7736 I0.0201 J-0.0107
X0.7678 Y-7.7929 I0.0228 J0.0001 F80.
X0.8723 Y-7.7723 I0.041 J0.0672
X0.8783 Y-7.7627 I-0.0635 J0.0466 F60.
G2 X0.8942 Y-7.7528 I0.0165 J-0.0088
G1 X0.9276
G2 X0.9725 Y-7.9903 I-0.0487 J-0.1322
G1 X0.851 Y-7.9872
G2 X0.8351 Y-7.9773 I0.0007 J0.0187
X0.8325 Y-7.9664 I0.0201 J0.0107
X0.8434 Y-7.9471 I0.0228 J-0.0002 F80.
X0.9479 Y-7.9677 I0.0411 J-0.0672
X0.9539 Y-7.9773 I-0.0635 J-0.0466 F60.
G3 X0.9698 Y-7.9872 I0.0165 J0.0088
G1 X1.0007 F80.
G3 X1.0486 Y-7.7497 I-0.0451 J0.1327
G1 X0.9276 Y-7.7528
G3 X0.9117 Y-7.7627 I0.0007 J-0.0187 F60.
X0.909 Y-7.7736 I0.0204 J-0.0109
X0.9204 Y-7.7935 I0.0231 J0. F80.
X1.0239 Y-7.7723 I0.04 J0.0678
X1.0299 Y-7.7627 I-0.0635 J0.0466 F60.
G2 X1.0458 Y-7.7528 I0.0165 J-0.0088
G1 X1.0773
G2 X1.1236 Y-7.99 I-0.0461 J-0.1321
G1 X1.0007 Y-7.9872
G2 X0.9848 Y-7.9773 I0.0007 J0.0187
X0.9823 Y-7.9664 I0.0193 J0.0103
X0.992 Y-7.9488 I0.0218 J-0.0006 F80.
X1.0992 Y-7.9677 I0.0437 J-0.0655
X1.1052 Y-7.9773 I-0.0635 J-0.0466 F60.
G3 X1.1211 Y-7.9872 I0.0165 J0.0088
G1 X1.1539 F80.
G3 X1.1994 Y-7.7498 I-0.0477 J0.1322
G1 X1.0773 Y-7.7528
G3 X1.0614 Y-7.7627 I0.0007 J-0.0187 F60.
X1.0588 Y-7.7736 I0.0198 J-0.0105
X1.0692 Y-7.7922 I0.0224 J0.0003 F80.
X1.1749 Y-7.7723 I0.0422 J0.0665
X1.1809 Y-7.7627 I-0.0635 J0.0466 F60.
G2 X1.1968 Y-7.7528 I0.0165 J-0.0088
G1 X1.2263
G2 X1.2751 Y-7.9902 I-0.0426 J-0.1325
G1 X1.1539 Y-7.9872
G2 X1.138 Y-7.9773 I0.0007 J0.0187
X1.1353 Y-7.9664 I0.0202 J0.0108
X1.1464 Y-7.9469 I0.0229 J-0.0001 F80.
X1.2506 Y-7.9677 I0.0407 J-0.0674
X1.2566 Y-7.9773 I-0.0635 J-0.0466 F60.
G3 X1.2725 Y-7.9872 I0.0165 J0.0088
G1 X1.3028 F80.
G3 X1.3508 Y-7.7497 I-0.0442 J0.1325
G1 X1.2263 Y-7.7528
G3 X1.2104 Y-7.7627 I0.0007 J-0.0187 F60.
X1.2079 Y-7.7736 I0.0184 J-0.0098
X1.2166 Y-7.7895 I0.0209 J0.0011 F80.
X1.3262 Y-7.7723 I0.0461 J0.0638
X1.3322 Y-7.7627 I-0.0635 J0.0466 F60.
G2 X1.3481 Y-7.7528 I0.0165 J-0.0088
G1 X1.3794
G2 X1.4267 Y-7.9904 I-0.046 J-0.1326
G1 X1.3028 Y-7.9872
G2 X1.287 Y-7.9773 I0.0007 J0.0187
X1.2844 Y-7.9664 I0.0189 J0.0101
X1.2937 Y-7.9495 I0.0215 J-0.0008 F80.
X1.4019 Y-7.9677 I0.0447 J-0.0648
X1.4079 Y-7.9773 I-0.0635 J-0.0466 F60.
G3 X1.4238 Y-7.9872 I0.0165 J0.0088
G1 X1.456 F80.
G3 X1.5018 Y-7.7499 I-0.047 J0.1321
G1 X1.3794 Y-7.7528
G3 X1.3635 Y-7.7627 I0.0007 J-0.0187 F60.
X1.3609 Y-7.7736 I0.0196 J-0.0104
X1.3711 Y-7.7918 I0.0222 J0.0004 F80.
X1.4773 Y-7.7723 I0.0428 J0.0661
X1.4833 Y-7.7627 I-0.0635 J0.0466 F60.
G2 X1.4992 Y-7.7528 I0.0165 J-0.0088
G1 X1.5326
G2 X1.5857 Y-7.9818 I-0.0481 J-0.1318
G1 X1.5581 Y-7.9872
X1.456
G2 X1.4401 Y-7.9773 I0.0007 J0.0187
X1.437 Y-7.9665 I0.0241 J0.0128
X1.4597 Y-7.9375 I0.0272 J0.002 F80.
X1.5587 Y-7.9668 I0.0193 J-0.1165
X1.5666 Y-7.9748 I-0.0796 J-0.0872 F60.
G3 X1.5845 Y-7.9806 I0.0139 J0.0126
G1 X1.5926 Y-7.9784 F80.
X1.6005 Y-7.9756
X1.6082 Y-7.9723
X1.6157 Y-7.9684
X1.6228 Y-7.964
X1.6297 Y-7.959
X1.6361 Y-7.9536
X1.6421 Y-7.9477
X1.6477 Y-7.9414
X1.6528 Y-7.9347
X1.6574 Y-7.9277
X1.6614 Y-7.9203
X1.665 Y-7.9127
X1.6679 Y-7.9048
X1.6703 Y-7.8967
X1.6721 Y-7.8885
X1.6733 Y-7.8802
X1.6738 Y-7.8718
Y-7.8634
X1.6731 Y-7.855
X1.6719 Y-7.8467
X1.67 Y-7.8385
X1.6675 Y-7.8304
X1.6645 Y-7.8226
X1.6609 Y-7.815
X1.6568 Y-7.8077
X1.6521 Y-7.8007
X1.6469 Y-7.794
X1.6413 Y-7.7878
X1.6352 Y-7.782
X1.6287 Y-7.7766
X1.6219 Y-7.7718
X1.6147 Y-7.7674
X1.6072 Y-7.7636
X1.5994 Y-7.7603
X1.5915 Y-7.7576
X1.5833 Y-7.7555
X1.575 Y-7.754
X1.5667 Y-7.7531
X1.5583 Y-7.7528
X1.5499 Y-7.7531
X1.5415 Y-7.7541
X1.5332 Y-7.7556
X1.5305 F60.
X1.5278 Y-7.756
X1.5251 Y-7.7569
X1.5226 Y-7.7582
X1.5203 Y-7.76
X1.5183 Y-7.7622
X1.5167 Y-7.7647
X1.5155 Y-7.7675
X1.5148 Y-7.7705
X1.5146 Y-7.7737
X1.515 Y-7.7769 Z-0.5297
X1.5154 Y-7.78 Z-0.5289
X1.5157 Y-7.783 Z-0.5275
X1.516 Y-7.7856 Z-0.5256
X1.5163 Y-7.7879 Z-0.5233
X1.5165 Y-7.7898 Z-0.5206
X1.5166 Y-7.7912 Z-0.5177
X1.5167 Y-7.792 Z-0.5145
X1.5168 Y-7.7923 Z-0.5113
G0 Z0.4
X-1.8648 Y6.0015
Z-0.17
G3 X-1.7587 Y5.8585 Z-0.2193 I0.053 J-0.0715 F13.333
X-1.8648 Y6.0015 Z-0.2687 I-0.053 J0.0715
X-1.7587 Y5.8585 Z-0.318 I0.053 J-0.0715
X-1.8648 Y6.0015 Z-0.3673 I-0.053 J0.0715
X-1.7587 Y5.8585 Z-0.4167 I0.053 J-0.0715
X-1.8648 Y6.0015 Z-0.466 I-0.053 J0.0715
X-1.7587 Y5.8585 Z-0.5154 I0.053 J-0.0715
X-1.7227 Y5.93 Z-0.53 I-0.053 J0.0715
X-1.9008 I-0.0891 J0.
X-1.7227 I0.0891 J0.
X-1.7411 Y6.0472 I-0.055 J0.0514 F80.
G1 X-1.8706
G3 X-1.9268 Y5.8154 I0.0249 J-0.1288
G1 X-1.9236 Y5.815 F60.
X-1.9203 Y5.8151
X-1.9172 Y5.8158
X-1.9142 Y5.817
X-1.9114 Y5.8187
X-1.909 Y5.8209
X-1.907 Y5.8234
X-1.9054 Y5.8262
X-1.9044 Y5.8292
X-1.9038 Y5.8314
X-1.8531 Y6.0237 F80.
X-1.8526 Y6.0263
G3 X-1.8706 Y6.0472 I-0.0186 J0.0021 F60.
G1 X-1.879 Y6.0495 F80.
X-1.8875 Y6.0512
X-1.8962 Y6.0523
X-1.9049 Y6.0528
X-1.9136 Y6.0526
X-1.9223 Y6.0518
X-1.9309 Y6.0504
X-1.9394 Y6.0484
X-1.9477 Y6.0457
X-1.9558 Y6.0425
X-1.9636 Y6.0387
X-1.9712 Y6.0343
X-1.9784 Y6.0295
X-1.9852 Y6.0241
X-1.9917 Y6.0182
X-1.9977 Y6.0118
X-2.0032 Y6.0051
X-2.0082 Y5.998
X-2.0127 Y5.9905
X-2.0167 Y5.9827
X-2.0201 Y5.9747
X-2.0228 Y5.9664
X-2.025 Y5.958
X-2.0266 Y5.9494
X-2.0276 Y5.9408
X-2.0279 Y5.932
X-2.0276 Y5.9233
X-2.0267 Y5.9147
X-2.0251 Y5.9061
X-2.023 Y5.8976
X-2.0202 Y5.8894
X-2.0168 Y5.8813
X-2.0129 Y5.8735
X-2.0084 Y5.8661
X-2.0034 Y5.8589
X-1.9979 Y5.8522
X-1.9919 Y5.8458
X-1.9855 Y5.8399
X-1.9787 Y5.8345
X-1.9715 Y5.8296
X-1.964 Y5.8252
X-1.9561 Y5.8214
X-1.948 Y5.8181
X-1.9397 Y5.8155
X-1.9313 Y5.8134
X-1.9227 Y5.812
X-1.914 Y5.8112
X-1.753 Y5.8128
G3 X-1.642 Y6.0485 I-0.0381 J0.1619
G1 X-1.656 Y6.0472
X-1.7411
G3 X-1.757 Y6.0373 I0.0007 J-0.0187 F60.
X-1.7602 Y6.0265 I0.0246 J-0.0131
X-1.7276 Y5.9968 I0.0277 J-0.0023 F80.
X-1.6779 Y6.0277 I-0.0137 J0.0775
X-1.6719 Y6.0373 I-0.0635 J0.0466 F60.
G2 X-1.656 Y6.0472 I0.0165 J-0.0088
G1 X-1.6272
G2 X-1.6144 Y5.8118 I-0.0616 J-0.1214
G1 X-1.753 Y5.8128
G2 X-1.7711 Y5.8322 I0.0007 J0.0187
X-1.771 Y5.8337 I0.0164 J-0.0006
X-1.7612 Y5.8467 I0.0162 J-0.002 F80.
X-1.6399 Y5.8298 I0.0468 J-0.1085
X-1.6281 Y5.8188 I-0.0746 J-0.0916 F60.
G3 X-1.615 Y5.8128 I0.0137 J0.0128
G1 X-1.582 F80.
G3 X-1.5159 Y6.0509 I-0.0368 J0.1385
G1 X-1.6272 Y6.0472
G3 X-1.6431 Y6.0373 I0.0007 J-0.0187 F60.
X-1.6462 Y6.0265 I0.0238 J-0.0127
X-1.6266 Y5.9986 I0.027 J-0.0019 F80.
X-1.5417 Y6.0277 I0.0215 J0.0757
X-1.5357 Y6.0373 I-0.0635 J0.0466 F60.
G2 X-1.5198 Y6.0472 I0.0165 J-0.0088
G1 X-1.4914
G2 X-1.4522 Y5.8104 I-0.0465 J-0.1293
G1 X-1.582 Y5.8128
G2 X-1.5979 Y5.8227 I0.0007 J0.0187
X-1.5994 Y5.8337 I0.014 J0.0075
X-1.5951 Y5.8415 I0.0155 J-0.0035 F80.
X-1.4761 Y5.8323 I0.0556 J-0.0558
X-1.47 Y5.8227 I-0.0635 J-0.0466 F60.
G3 X-1.4541 Y5.8128 I0.0165 J0.0088
G1 X-1.4206 F80.
G3 X-1.3704 Y6.0504 I-0.0455 J0.1337
G1 X-1.4914 Y6.0472
G3 X-1.5073 Y6.0373 I0.0007 J-0.0187 F60.
X-1.51 Y6.0264 I0.0204 J-0.0109
X-1.4986 Y6.0064 I0.0232 J0. F80.
X-1.3952 Y6.0277 I0.0399 J0.0679
X-1.3892 Y6.0373 I-0.0635 J0.0466 F60.
G2 X-1.3733 Y6.0472 I0.0165 J-0.0088
G1 X-1.3445
G2 X-1.2978 Y5.81 I-0.0429 J-0.1316
G1 X-1.4206 Y5.8128
G2 X-1.4365 Y5.8227 I0.0007 J0.0187
X-1.439 Y5.8336 I0.0193 J0.0103
X-1.4294 Y5.8511 I0.0218 J-0.0006 F80.
X-1.3221 Y5.8323 I0.0438 J-0.0654
X-1.3161 Y5.8227 I-0.0635 J-0.0466 F60.
G3 X-1.3002 Y5.8128 I0.0165 J0.0088
G1 X-1.2671 F80.
G3 X-1.2207 Y6.0502 I-0.0472 J0.1325
G1 X-1.3445 Y6.0472
G3 X-1.3604 Y6.0373 I0.0007 J-0.0187 F60.
X-1.3629 Y6.0264 I0.0188 J-0.01
X-1.3538 Y6.0097 I0.0213 J0.0008 F80.
X-1.2453 Y6.0277 I0.045 J0.0646
X-1.2393 Y6.0373 I-0.0635 J0.0466 F60.
G2 X-1.2234 Y6.0472 I0.0165 J-0.0088
G1 X-1.1913
G2 X-1.1456 Y5.8099 I-0.0466 J-0.132
G1 X-1.2671 Y5.8128
G2 X-1.283 Y5.8227 I0.0007 J0.0187
X-1.2857 Y5.8336 I0.02 J0.0106
X-1.275 Y5.8526 I0.0226 J-0.0002 F80.
X-1.17 Y5.8323 I0.0415 J-0.0669
X-1.164 Y5.8227 I-0.0635 J-0.0466 F60.
G3 X-1.1481 Y5.8128 I0.0165 J0.0088
G1 X-1.1148 F80.
G3 X-1.0695 Y6.0502 I-0.0484 J0.1323
G1 X-1.1913 Y6.0472
G3 X-1.2072 Y6.0373 I0.0007 J-0.0187 F60.
X-1.2099 Y6.0264 I0.0199 J-0.0106
X-1.1992 Y6.0075 I0.0226 J0.0002 F80.
X-1.0941 Y6.0277 I0.0416 J0.0668
X-1.0881 Y6.0373 I-0.0635 J0.0466 F60.
G2 X-1.0722 Y6.0472 I0.0165 J-0.0088
G1 X-1.0416
G2 X-0.9938 Y5.8097 I-0.0446 J-0.1326
G1 X-1.1148 Y5.8128
G2 X-1.1306 Y5.8227 I0.0007 J0.0187
X-1.1334 Y5.8336 I0.0203 J0.0108
X-1.1221 Y5.8534 I0.0231 J0. F80.
X-1.0184 Y5.8323 I0.0402 J-0.0677
X-1.0124 Y5.8227 I-0.0635 J-0.0466 F60.
G3 X-0.9965 Y5.8128 I0.0165 J0.0088
G1 X-0.965 F80.
G3 X-0.9184 Y6.05 I-0.0459 J0.1322
G1 X-1.0416 Y6.0472
G3 X-1.0575 Y6.0373 I0.0007 J-0.0187 F60.
X-1.06 Y6.0264 I0.019 J-0.0101
X-1.0507 Y6.0093 I0.0216 J0.0007 F80.
X-0.9427 Y6.0277 I0.0445 J0.065
X-0.9367 Y6.0373 I-0.0635 J0.0466 F60.
G2 X-0.9208 Y6.0472 I0.0165 J-0.0088
G1 X-0.8885
G2 X-0.8428 Y5.8099 I-0.0473 J-0.1322
G1 X-0.965 Y5.8128
G2 X-0.9809 Y5.8227 I0.0007 J0.0187
X-0.9836 Y5.8336 I0.0197 J0.0105
X-0.9733 Y5.852 I0.0223 J-0.0004 F80.
X-0.8673 Y5.8323 I0.0425 J-0.0663
X-0.8613 Y5.8227 I-0.0635 J-0.0466 F60.
G3 X-0.8454 Y5.8128 I0.0165 J0.0088
G1 X-0.8161 F80.
G3 X-0.7671 Y6.0502 I-0.0423 J0.1325
G1 X-0.8885 Y6.0472
G3 X-0.9043 Y6.0373 I0.0007 J-0.0187 F60.
X-0.907 Y6.0264 I0.0201 J-0.0107
X-0.8961 Y6.0071 I0.0228 J0.0001 F80.
X-0.7916 Y6.0277 I0.041 J0.0672
X-0.7856 Y6.0373 I-0.0635 J0.0466 F60.
G2 X-0.7697 Y6.0472 I0.0165 J-0.0088
G1 X-0.7395
G2 X-0.6915 Y5.8098 I-0.0439 J-0.1325
G1 X-0.8161 Y5.8128
G2 X-0.832 Y5.8227 I0.0007 J0.0187
X-0.8344 Y5.8336 I0.0183 J0.0098
X-0.8259 Y5.8493 I0.0208 J-0.0011 F80.
X-0.716 Y5.8323 I0.0464 J-0.0636
X-0.71 Y5.8227 I-0.0635 J-0.0466 F60.
G3 X-0.6941 Y5.8128 I0.0165 J0.0088
G1 X-0.6629 F80.
G3 X-0.6156 Y6.0504 I-0.0456 J0.1326
G1 X-0.7395 Y6.0472
G3 X-0.7554 Y6.0373 I0.0007 J-0.0187 F60.
X-0.7579 Y6.0264 I0.0188 J-0.01
X-0.7488 Y6.0097 I0.0213 J0.0009 F80.
X-0.6403 Y6.0277 I0.045 J0.0646
X-0.6343 Y6.0373 I-0.0635 J0.0466 F60.
G2 X-0.6184 Y6.0472 I0.0165 J-0.0088
G1 X-0.5863
G2 X-0.5404 Y5.8099 I-0.0467 J-0.1321
G1 X-0.6629 Y5.8128
G2 X-0.6788 Y5.8227 I0.0007 J0.0187
X-0.6814 Y5.8336 I0.0195 J0.0104
X-0.6714 Y5.8516 I0.0221 J-0.0005 F80.
X-0.5649 Y5.8323 I0.0431 J-0.0659
X-0.5588 Y5.8227 I-0.0635 J-0.0466 F60.
G3 X-0.5429 Y5.8128 I0.0165 J0.0088
G1 X-0.5098 F80.
G3 X-0.4645 Y6.0502 I-0.0482 J0.1322
G1 X-0.5863 Y6.0472
G3 X-0.6022 Y6.0373 I0.0007 J-0.0187 F60.
X-0.6049 Y6.0264 I0.0199 J-0.0106
X-0.5943 Y6.0075 I0.0226 J0.0002 F80.
X-0.4891 Y6.0277 I0.0417 J0.0668
X-0.4831 Y6.0373 I-0.0635 J0.0466 F60.
G2 X-0.4672 Y6.0472 I0.0165 J-0.0088
G1 X-0.4365
G2 X-0.3886 Y5.8097 I-0.0448 J-0.1326
G1 X-0.5098 Y5.8128
G2 X-0.5257 Y5.8227 I0.0007 J0.0187
X-0.5284 Y5.8336 I0.0203 J0.0108
X-0.5172 Y5.8533 I0.023 J-0.0001 F80.
X-0.4133 Y5.8323 I0.0404 J-0.0676
X-0.4073 Y5.8227 I-0.0635 J-0.0466 F60.
G3 X-0.3914 Y5.8128 I0.0165 J0.0088
G1 X-0.3625 F80.
G3 X-0.3134 Y6.0501 I-0.042 J0.1324
G1 X-0.4365 Y6.0472
G3 X-0.4524 Y6.0373 I0.0007 J-0.0187 F60.
X-0.4549 Y6.0264 I0.0192 J-0.0102
X-0.4453 Y6.009 I0.0217 J0.0007 F80.
X-0.3379 Y6.0277 I0.044 J0.0653
X-0.3319 Y6.0373 I-0.0635 J0.0466 F60.
G2 X-0.316 Y6.0472 I0.0165 J-0.0088
G1 X-0.2835
G2 X-0.2379 Y5.8099 I-0.0472 J-0.1321
G1 X-0.3625 Y5.8128
G2 X-0.3784 Y5.8227 I0.0007 J0.0187
X-0.3808 Y5.8336 I0.0183 J0.0098
X-0.3723 Y5.8493 I0.0208 J-0.0011 F80.
X-0.2624 Y5.8323 I0.0464 J-0.0636
X-0.2564 Y5.8227 I-0.0635 J-0.0466 F60.
G3 X-0.2405 Y5.8128 I0.0165 J0.0088
G1 X-0.2093 F80.
G3 X-0.1616 Y6.0504 I-0.0454 J0.1327
G1 X-0.2835 Y6.0472
G3 X-0.2994 Y6.0373 I0.0007 J-0.0187 F60.
X-0.302 Y6.0264 I0.02 J-0.0106
X-0.2913 Y6.0074 I0.0226 J0.0002 F80.
X-0.1864 Y6.0277 I0.0415 J0.0669
X-0.1804 Y6.0373 I-0.0635 J0.0466 F60.
G2 X-0.1645 Y6.0472 I0.0165 J-0.0088
G1 X-0.1349
G2 X-0.0865 Y5.8098 I-0.0432 J-0.1324
G1 X-0.2093 Y5.8128
G2 X-0.2252 Y5.8227 I0.0007 J0.0187
X-0.2278 Y5.8336 I0.0194 J0.0103
X-0.2179 Y5.8514 I0.022 J-0.0006 F80.
X-0.111 Y5.8323 I0.0434 J-0.0657
X-0.105 Y5.8227 I-0.0635 J-0.0466 F60.
G3 X-0.0891 Y5.8128 I0.0165 J0.0088
G1 X-0.0561 F80.
G3 X-0.011 Y6.0502 I-0.0479 J0.1321
G1 X-0.1349 Y6.0472
G3 X-0.1508 Y6.0373 I0.0007 J-0.0187 F60.
X-0.1533 Y6.0264 I0.0188 J-0.01
X-0.1442 Y6.0098 I0.0213 J0.0009 F80.
X-0.0355 Y6.0277 I0.0452 J0.0645
X-0.0295 Y6.0373 I-0.0635 J0.0466 F60.
G2 X-0.0136 Y6.0472 I0.0165 J-0.0088
G1 X0.0178
G2 X0.065 Y5.81 I-0.0454 J-0.1323
G1 X-0.0561 Y5.8128
G2 X-0.072 Y5.8227 I0.0007 J0.0187
X-0.0747 Y5.8336 I0.0202 J0.0107
X-0.0637 Y5.853 I0.0228 J-0.0001 F80.
X0.0406 Y5.8323 I0.0409 J-0.0673
X0.0466 Y5.8227 I-0.0635 J-0.0466 F60.
G3 X0.0625 Y5.8128 I0.0165 J0.0088
G1 X0.0915 F80.
G3 X0.1403 Y6.0501 I-0.0423 J0.1324
G1 X0.0178 Y6.0472
G3 X0.0019 Y6.0373 I0.0007 J-0.0187 F60.
X-0.0007 Y6.0264 I0.0195 J-0.0104
X0.0093 Y6.0084 I0.0221 J0.0005 F80.
X0.1159 Y6.0277 I0.0431 J0.0659
X0.1219 Y6.0373 I-0.0635 J0.0466 F60.
G2 X0.1378 Y6.0472 I0.0165 J-0.0088
G1 X0.1706
G2 X0.2159 Y5.8098 I-0.0476 J-0.1321
G1 X0.0915 Y5.8128
G2 X0.0756 Y5.8227 I0.0007 J0.0187
X0.0731 Y5.8336 I0.0185 J0.0098
X0.0818 Y5.8495 I0.0209 J-0.0011 F80.
X0.1914 Y5.8323 I0.0461 J-0.0638
X0.1974 Y5.8227 I-0.0635 J-0.0466 F60.
G3 X0.2133 Y5.8128 I0.0165 J0.0088
G1 X0.2446 F80.
G3 X0.2918 Y6.05 I-0.0454 J0.1323
G1 X0.1706 Y6.0472
G3 X0.1547 Y6.0373 I0.0007 J-0.0187 F60.
X0.152 Y6.0264 I0.0201 J-0.0107
X0.1629 Y6.0072 I0.0228 J0.0002 F80.
X0.2675 Y6.0277 I0.0411 J0.0671
X0.2735 Y6.0373 I-0.0635 J0.0466 F60.
G2 X0.2894 Y6.0472 I0.0165 J-0.0088
G1 X0.3183
G2 X0.3672 Y5.8099 I-0.0422 J-0.1324
G1 X0.2446 Y5.8128
G2 X0.2288 Y5.8227 I0.0007 J0.0187
X0.2262 Y5.8336 I0.0195 J0.0104
X0.2361 Y5.8516 I0.0221 J-0.0005 F80.
X0.3427 Y5.8323 I0.0431 J-0.0659
X0.3488 Y5.8227 I-0.0635 J-0.0466 F60.
G3 X0.3646 Y5.8128 I0.0165 J0.0088
G1 X0.3978 F80.
G3 X0.4428 Y6.0502 I-0.0482 J0.1321
G1 X0.3183 Y6.0472
G3 X0.3024 Y6.0373 I0.0007 J-0.0187 F60.
X0.3 Y6.0264 I0.0184 J-0.0098
X0.3086 Y6.0105 I0.0209 J0.0011 F80.
X0.4182 Y6.0277 I0.0461 J0.0638
X0.4242 Y6.0373 I-0.0635 J0.0466 F60.
G2 X0.4401 Y6.0472 I0.0165 J-0.0088
G1 X0.4703
G2 X0.5187 Y5.8098 I-0.0436 J-0.1325
G1 X0.3978 Y5.8128
G2 X0.3819 Y5.8227 I0.0007 J0.0187
X0.3792 Y5.8336 I0.0204 J0.0109
X0.3905 Y5.8534 I0.0231 J0. F80.
X0.4941 Y5.8323 I0.0401 J-0.0677
X0.5002 Y5.8227 I-0.0635 J-0.0466 F60.
G3 X0.516 Y5.8128 I0.0165 J0.0088
G1 X0.5483 F80.
G3 X0.594 Y6.0501 I-0.0469 J0.1321
G1 X0.4703 Y6.0472
G3 X0.4544 Y6.0373 I0.0007 J-0.0187 F60.
X0.4519 Y6.0264 I0.0189 J-0.0101
X0.4611 Y6.0097 I0.0214 J0.0008 F80.
X0.5695 Y6.0277 I0.045 J0.0646
X0.5755 Y6.0373 I-0.0635 J0.0466 F60.
G2 X0.5914 Y6.0472 I0.0165 J-0.0088
G1 X0.6229
G2 X0.67 Y5.81 I-0.0455 J-0.1323
G1 X0.5483 Y5.8128
G2 X0.5324 Y5.8227 I0.0007 J0.0187
X0.5297 Y5.8336 I0.0199 J0.0106
X0.5403 Y5.8524 I0.0225 J-0.0003 F80.
X0.6456 Y5.8323 I0.0418 J-0.0667
X0.6516 Y5.8227 I-0.0635 J-0.0466 F60.
G3 X0.6675 Y5.8128 I0.0165 J0.0088
G1 X0.6979 F80.
G3 X0.7456 Y6.0503 I-0.0446 J0.1325
G1 X0.6229 Y6.0472
G3 X0.607 Y6.0373 I0.0007 J-0.0187 F60.
X0.6044 Y6.0264 I0.0195 J-0.0104
X0.6144 Y6.0084 I0.0221 J0.0005 F80.
X0.721 Y6.0277 I0.0431 J0.0659
X0.727 Y6.0373 I-0.0635 J0.0466 F60.
G2 X0.7429 Y6.0472 I0.0165 J-0.0088
G1 X0.7755
G2 X0.821 Y5.8099 I-0.0474 J-0.1321
G1 X0.6979 Y5.8128
G2 X0.682 Y5.8227 I0.0007 J0.0187
X0.6794 Y5.8336 I0.0192 J0.0102
X0.689 Y5.851 I0.0217 J-0.0007 F80.
X0.7965 Y5.8323 I0.044 J-0.0653
X0.8025 Y5.8227 I-0.0635 J-0.0466 F60.
G3 X0.8184 Y5.8128 I0.0165 J0.0088
G1 X0.851 F80.
G3 X0.8968 Y6.0502 I-0.0473 J0.1322
G1 X0.7755 Y6.0472
G3 X0.7596 Y6.0373 I0.0007 J-0.0187 F60.
X0.7569 Y6.0264 I0.0201 J-0.0107
X0.7678 Y6.0071 I0.0228 J0.0001 F80.
X0.8723 Y6.0277 I0.041 J0.0672
X0.8783 Y6.0373 I-0.0635 J0.0466 F60.
G2 X0.8942 Y6.0472 I0.0165 J-0.0088
G1 X0.9276
G2 X0.9725 Y5.8097 I-0.0487 J-0.1322
G1 X0.851 Y5.8128
G2 X0.8351 Y5.8227 I0.0007 J0.0187
X0.8325 Y5.8336 I0.0201 J0.0107
X0.8434 Y5.8529 I0.0228 J-0.0002 F80.
X0.9479 Y5.8323 I0.0411 J-0.0672
X0.9539 Y5.8227 I-0.0635 J-0.0466 F60.
G3 X0.9698 Y5.8128 I0.0165 J0.0088
G1 X1.0007 F80.
G3 X1.0486 Y6.0503 I-0.0451 J0.1327
G1 X0.9276 Y6.0472
G3 X0.9117 Y6.0373 I0.0007 J-0.0187 F60.
X0.909 Y6.0264 I0.0204 J-0.0109
X0.9204 Y6.0065 I0.0231 J0. F80.
X1.0239 Y6.0277 I0.04 J0.0678
X1.0299 Y6.0373 I-0.0635 J0.0466 F60.
G2 X1.0458 Y6.0472 I0.0165 J-0.0088
G1 X1.0773
G2 X1.1236 Y5.81 I-0.0461 J-0.1321
G1 X1.0007 Y5.8128
G2 X0.9848 Y5.8227 I0.0007 J0.0187
X0.9823 Y5.8336 I0.0193 J0.0103
X0.992 Y5.8512 I0.0218 J-0.0006 F80.
X1.0992 Y5.8323 I0.0437 J-0.0655
X1.1052 Y5.8227 I-0.0635 J-0.0466 F60.
G3 X1.1211 Y5.8128 I0.0165 J0.0088
G1 X1.1539 F80.
G3 X1.1994 Y6.0502 I-0.0477 J0.1322
G1 X1.0773 Y6.0472
G3 X1.0614 Y6.0373 I0.0007 J-0.0187 F60.
X1.0588 Y6.0264 I0.0198 J-0.0105
X1.0692 Y6.0078 I0.0224 J0.0003 F80.
X1.1749 Y6.0277 I0.0422 J0.0665
X1.1809 Y6.0373 I-0.0635 J0.0466 F60.
G2 X1.1968 Y6.0472 I0.0165 J-0.0088
G1 X1.2263
G2 X1.2751 Y5.8098 I-0.0426 J-0.1325
G1 X1.1539 Y5.8128
G2 X1.138 Y5.8227 I0.0007 J0.0187
X1.1353 Y5.8336 I0.0202 J0.0108
X1.1464 Y5.8531 I0.0229 J-0.0001 F80.
X1.2506 Y5.8323 I0.0407 J-0.0674
X1.2566 Y5.8227 I-0.0635 J-0.0466 F60.
G3 X1.2725 Y5.8128 I0.0165 J0.0088
G1 X1.3028 F80.
G3 X1.3508 Y6.0503 I-0.0442 J0.1325
G1 X1.2263 Y6.0472
G3 X1.2104 Y6.0373 I0.0007 J-0.0187 F60.
X1.2079 Y6.0264 I0.0184 J-0.0098
X1.2166 Y6.0105 I0.0209 J0.0011 F80.
X1.3262 Y6.0277 I0.0461 J0.0638
X1.3322 Y6.0373 I-0.0635 J0.0466 F60.
G2 X1.3481 Y6.0472 I0.0165 J-0.0088
G1 X1.3794
G2 X1.4267 Y5.8096 I-0.046 J-0.1326
G1 X1.3028 Y5.8128
G2 X1.287 Y5.8227 I0.0007 J0.0187
X1.2844 Y5.8336 I0.0189 J0.0101
X1.2937 Y5.8505 I0.0215 J-0.0008 F80.
X1.4019 Y5.8323 I0.0447 J-0.0648
X1.4079 Y5.8227 I-0.0635 J-0.0466 F60.
G3 X1.4238 Y5.8128 I0.0165 J0.0088
G1 X1.456 F80.
G3 X1.5018 Y6.0501 I-0.047 J0.1321
G1 X1.3794 Y6.0472
G3 X1.3635 Y6.0373 I0.0007 J-0.0187 F60.
X1.3609 Y6.0264 I0.0196 J-0.0104
X1.3711 Y6.0082 I0.0222 J0.0004 F80.
X1.4773 Y6.0277 I0.0428 J0.0661
X1.4833 Y6.0373 I-0.0635 J0.0466 F60.
G2 X1.4992 Y6.0472 I0.0165 J-0.0088
G1 X1.5326
G2 X1.5857 Y5.8181 I-0.0481 J-0.1319
G1 X1.5667 Y5.8146
X1.5581 Y5.8128
X1.456
G2 X1.4401 Y5.8227 I0.0007 J0.0187
X1.4371 Y5.8335 I0.0234 J0.0125
X1.4589 Y5.8613 I0.0265 J0.0017 F80.
X1.5586 Y5.8328 I0.0208 J-0.1163
X1.5667 Y5.8249 I-0.079 J-0.0878 F60.
G3 X1.5845 Y5.8192 I0.0138 J0.0127
G1 X1.6092 Y5.8256 F80.
X1.6517 Y5.863
G3 X1.5329 Y6.0456 I-0.0959 J0.0676
X1.382 Y6.1365 I-0.1288 J-0.0431
X0.9439 Y6.1472 I-0.3204 J-4.1816
G1 X0.3368
X-0.4052
X-1.8555
X-1.8671 Y6.1486
X-1.8786 Y6.1493
X-1.8903 Y6.1495
X-1.9019 Y6.149
X-1.9134 Y6.148
X-1.9249 Y6.1463
X-1.9363 Y6.1441
X-1.9475 Y6.1412
X-1.9586 Y6.1378
X-1.9695 Y6.1338
X-1.9802 Y6.1292
X-1.9906 Y6.1241
X-2.0007 Y6.1184
X-2.0106 Y6.1122
X-2.0201 Y6.1056
X-2.0292 Y6.0984
X-2.0379 Y6.0908
X-2.0463 Y6.0827
X-2.0541 Y6.0742
X-2.0616 Y6.0653
X-2.0686 Y6.056
X-2.075 Y6.0463
X-2.081 Y6.0364
X-2.0864 Y6.0261
X-2.0913 Y6.0156
X-2.0956 Y6.0048
X-2.0994 Y5.9938
X-2.1026 Y5.9827
X-2.1052 Y5.9714
X-2.1072 Y5.9599
X-2.1086 Y5.9484
X-2.1094 Y5.9369
X-2.1095 Y5.9252
X-2.1091 Y5.9137
X-2.1081 Y5.9021
X-2.1065 Y5.8906
X-2.1043 Y5.8792
X-2.1014 Y5.868
X-2.098 Y5.8569
X-2.0941 Y5.846
X-2.0895 Y5.8353
X-2.0844 Y5.8249
X-2.0788 Y5.8147
X-2.0727 Y5.8049
X-2.066 Y5.7954
G3 X-1.6315 Y5.7131 I0.3339 J0.5752
G1 X-1.5641 Y5.7129
X-1.4629 Y5.7128
X-0.7883
X-0.1138
X1.4714
G3 X1.7564 Y5.9098 I0.0484 J0.2346
X1.5515 Y6.1662 I-0.2745 J-0.0092
X1.16 Y6.2458 I-0.3278 J-0.61
X0.8564 Y6.2471 I-0.2421 J-20.0481
G1 X0.4517 Y6.2472
X-0.0542
X-1.7744
G3 X-2.0367 Y6.1987 I-0.0398 J-0.5187
X-1.8975 Y5.634 I0.1337 J-0.2666
X-1.392 Y5.6129 I0.3685 J2.7557
G1 X-1.0547 Y5.6128
X-0.7174
X1.2725
G3 X1.6712 Y5.6559 I0.1185 J0.7696
X1.6786 Y6.1988 I-0.1269 J0.2732
X1.1038 Y6.3458 I-0.4791 J-0.6758
X0.8003 Y6.3471 I-0.2501 J-23.0598
G1 X0.4968 Y6.3472
X-1.1896
X-1.6956
G3 X-2.2346 Y6.1395 I-0.0977 J-0.5497
G1 X-2.2425 Y6.126
X-2.2498 Y6.1123
X-2.2566 Y6.0982
X-2.2628 Y6.084
X-2.2685 Y6.0694
X-2.2736 Y6.0547
X-2.2781 Y6.0398
X-2.282 Y6.0247
X-2.2854 Y6.0094
X-2.2881 Y5.9941
X-2.2902 Y5.9786
X-2.2917 Y5.9631
X-2.2926 Y5.9475
X-2.2928 Y5.9319
X-2.2925 Y5.9163
X-2.2915 Y5.9008
X-2.2899 Y5.8852
X-2.2877 Y5.8698
X-2.2849 Y5.8545
X-2.2815 Y5.8392
X-2.2775 Y5.8242
X-2.2729 Y5.8093
X-2.2677 Y5.7945
X-2.262 Y5.7801
X-2.2557 Y5.7658
X-2.2488 Y5.7518
X-2.2414 Y5.7381
X-2.2334 Y5.7247
X-2.2249 Y5.7116
X-2.2159 Y5.6989
X-2.2064 Y5.6865
X-2.1964 Y5.6745
X-2.186 Y5.6629
X-2.1751 Y5.6517
X-2.1638 Y5.641
X-2.152 Y5.6307
X-2.1399 Y5.6209
X-2.1274 Y5.6116
X-2.1145 Y5.6028
X-2.1013 Y5.5945
X-2.0878 Y5.5868
X-2.074 Y5.5795
X-2.0599 Y5.5729
X-2.0455 Y5.5667
X-2.031 Y5.5612
X-2.0162 Y5.5562
X-2.0012 Y5.5518
X-1.9861 Y5.5481
X-1.9708 Y5.5449
X-1.9554 Y5.5423
X-1.94 Y5.5403
X-1.9244 Y5.539
X-1.9088 Y5.5382
X-1.8933 Y5.5381
X-1.8597 Y5.5257
G3 X-1.3204 Y5.5129 I0.4131 J6.0139
G1 X-1.0169 Y5.5128
X0.1299
X1.3778
G3 X1.8976 Y5.7533 I0.0799 J0.5093
X1.9365 Y5.8819 I-0.3467 J0.175
X1.5573 Y6.374 I-0.4923 J0.0127
X1.0263 Y6.4462 I-0.4433 J-1.2707
X0.7902 Y6.4471 I-0.2167 J-26.5839
G1 X0.5878 Y6.4472
X0.2505
X-1.672
X-1.7057 Y6.4471
X-1.7394 Y6.4468
X-1.7583 Y6.449
X-1.7772 Y6.4507
X-1.7962 Y6.4517
X-1.8152 Y6.4521
X-1.8341 Y6.4519
X-1.8531 Y6.4511
X-1.8721 Y6.4496
X-1.8909 Y6.4476
X-1.9097 Y6.4449
X-1.9284 Y6.4417
X-1.947 Y6.4378
X-1.9655 Y6.4333
X-1.9838 Y6.4283
X-2.0019 Y6.4226
X-2.0199 Y6.4164
X-2.0376 Y6.4096
X-2.0551 Y6.4022
X-2.0723 Y6.3942
X-2.0893 Y6.3857
X-2.106 Y6.3767
X-2.1224 Y6.3671
X-2.1385 Y6.357
X-2.1542 Y6.3464
X-2.1696 Y6.3353
X-2.1846 Y6.3236
X-2.1993 Y6.3115
X-2.2135 Y6.299
X-2.2273 Y6.286
X-2.2407 Y6.2725
X-2.2537 Y6.2586
X-2.2662 Y6.2443
X-2.2782 Y6.2296
X-2.2897 Y6.2146
X-2.3008 Y6.1991
X-2.3113 Y6.1833
X-2.3213 Y6.1672
X-2.3308 Y6.1508
X-2.3398 Y6.134
X-2.3482 Y6.117
X-2.3561 Y6.0997
X-2.3634 Y6.0822
X-2.3701 Y6.0644
X-2.3762 Y6.0465
X-2.3818 Y6.0283
X-2.3868 Y6.01
X-2.3912 Y5.9915
X-2.3949 Y5.9729
X-2.3981 Y5.9542
G3 X-1.811 Y5.4319 I0.5426 J0.0187
X-1.6081 Y5.4146 I0.1748 J0.8506
X-1.3045 Y5.4129 I0.2577 J19.2912
