%
(971-23-P-0029_BATTERY MOUNT RIGHT_1540)
(T1  D=0.154 CR=0. - ZMIN=-0.155 - FLAT END MILL)
G90 G94 G17 G91.1
G64 P0.001 Q0.001
G20
G53 G0 Z0.
(.3 CIRCLUAR THROUGH HOLE 2)
M9
T1 M6
S22000 M3
G4 P10.
G54
M7
G0 X-3.1118 Y-7.8587
G43 Z0.6 H1
G0 Z0.13
G1 Z0.0654 F40.
G19 G2 Y-7.874 Z0.05 J-0.0154 K0.
G1 Y-7.8818
G17 G3 X-3.1 Y-7.8935 I0.0118 J0.
Y-7.8465 Z0.0323 I0. J0.0235
Y-7.8935 Z0.0146 I0. J-0.0235
Y-7.8465 Z-0.0032 I0. J0.0235
Y-7.8935 Z-0.0209 I0. J-0.0235
Y-7.8465 Z-0.0386 I0. J0.0235
Y-7.8935 Z-0.0563 I0. J-0.0235
Y-7.8465 Z-0.074 I0. J0.0235
Y-7.8935 Z-0.0918 I0. J-0.0235
Y-7.8465 Z-0.1095 I0. J0.0235
Y-7.8935 Z-0.1272 I0. J-0.0235
Y-7.8465 Z-0.1449 I0. J0.0235
X-3.123 Y-7.875 Z-0.155 I0. J-0.0235
X-3.077 Y-7.865 I0.023 J0.005
X-3.123 Y-7.875 I-0.023 J-0.005
X-3.109 Y-7.884 I0.0115 J0.0025
G1 X-3.1015 Y-7.8823
X-3.0985 Y-7.8817 Z-0.1547
X-3.0957 Y-7.8811 Z-0.1538
X-3.0931 Y-7.8805 Z-0.1524
X-3.0908 Y-7.88 Z-0.1505
X-3.0889 Y-7.8796 Z-0.1482
X-3.0876 Y-7.8793 Z-0.1455
X-3.0867 Y-7.8791 Z-0.1426
X-3.0864 Z-0.1396
G0 Z0.4
X-3.9242 Y-12.4886
Z0.13
G1 Z0.0654 F40.
G19 G2 Y-12.5041 Z0.05 J-0.0154 K0.
G1 Y-12.5118
G17 G3 X-3.9125 Y-12.5235 I0.0117 J0.
Y-12.4765 Z0.0323 I0. J0.0235
Y-12.5235 Z0.0146 I0. J-0.0235
Y-12.4765 Z-0.0032 I0. J0.0235
Y-12.5235 Z-0.0209 I0. J-0.0235
Y-12.4765 Z-0.0386 I0. J0.0235
Y-12.5235 Z-0.0563 I0. J-0.0235
Y-12.4765 Z-0.074 I0. J0.0235
Y-12.5235 Z-0.0918 I0. J-0.0235
Y-12.4765 Z-0.1095 I0. J0.0235
Y-12.5235 Z-0.1272 I0. J-0.0235
Y-12.4765 Z-0.1449 I0. J0.0235
X-3.9355 Y-12.505 Z-0.155 I0. J-0.0235
X-3.8895 Y-12.495 I0.023 J0.005
X-3.9355 Y-12.505 I-0.023 J-0.005
X-3.9215 Y-12.514 I0.0115 J0.0025
G1 X-3.914 Y-12.5123
X-3.911 Y-12.5117 Z-0.1547
X-3.9082 Y-12.5111 Z-0.1538
X-3.9056 Y-12.5105 Z-0.1524
X-3.9033 Y-12.51 Z-0.1505
X-3.9014 Y-12.5096 Z-0.1482
X-3.9001 Y-12.5093 Z-0.1455
X-3.8992 Y-12.5091 Z-0.1426
X-3.8989 Z-0.1396
G0 Z0.4
X-3.0105 Y-15.2374
Z0.13
G1 Z0.0654 F40.
G19 G2 Y-15.2528 Z0.05 J-0.0154 K0.
G1 Y-15.2605
G17 G3 X-3. Y-15.271 I0.0105 J0.
Y-15.229 Z0.0327 I0. J0.021
Y-15.271 Z0.0154 I0. J-0.021
Y-15.229 Z-0.0018 I0. J0.021
Y-15.271 Z-0.0191 I0. J-0.021
Y-15.229 Z-0.0364 I0. J0.021
Y-15.271 Z-0.0537 I0. J-0.021
Y-15.229 Z-0.071 I0. J0.021
Y-15.271 Z-0.0882 I0. J-0.021
Y-15.229 Z-0.1055 I0. J0.021
Y-15.271 Z-0.1228 I0. J-0.021
Y-15.229 Z-0.1401 I0. J0.021
X-3.0087 Y-15.2691 Z-0.155 I0. J-0.021
X-2.9913 Y-15.2309 I0.0087 J0.0191
X-3.0087 Y-15.2691 I-0.0087 J-0.0191
X-2.9948 Y-15.2639 I0.0044 J0.0095
G1 X-2.9916 Y-15.2569
X-2.9904 Y-15.2542 Z-0.1547
X-2.9892 Y-15.2516 Z-0.1538
X-2.9881 Y-15.2491 Z-0.1524
X-2.9871 Y-15.247 Z-0.1505
X-2.9863 Y-15.2453 Z-0.1482
X-2.9857 Y-15.244 Z-0.1455
X-2.9853 Y-15.2432 Z-0.1426
X-2.9852 Y-15.2429 Z-0.1396
G0 Z0.4
X-2.2605 Y-15.2374
Z0.13
G1 Z0.0654 F40.
G19 G2 Y-15.2528 Z0.05 J-0.0154 K0.
G1 Y-15.2605
G17 G3 X-2.25 Y-15.271 I0.0105 J0.
Y-15.229 Z0.0327 I0. J0.021
Y-15.271 Z0.0154 I0. J-0.021
Y-15.229 Z-0.0018 I0. J0.021
Y-15.271 Z-0.0191 I0. J-0.021
Y-15.229 Z-0.0364 I0. J0.021
Y-15.271 Z-0.0537 I0. J-0.021
Y-15.229 Z-0.071 I0. J0.021
Y-15.271 Z-0.0882 I0. J-0.021
Y-15.229 Z-0.1055 I0. J0.021
Y-15.271 Z-0.1228 I0. J-0.021
Y-15.229 Z-0.1401 I0. J0.021
X-2.2587 Y-15.2691 Z-0.155 I0. J-0.021
X-2.2413 Y-15.2309 I0.0087 J0.0191
X-2.2587 Y-15.2691 I-0.0087 J-0.0191
X-2.2448 Y-15.2639 I0.0044 J0.0095
G1 X-2.2416 Y-15.2569
X-2.2404 Y-15.2542 Z-0.1547
X-2.2392 Y-15.2516 Z-0.1538
X-2.2381 Y-15.2491 Z-0.1524
X-2.2371 Y-15.247 Z-0.1505
X-2.2363 Y-15.2453 Z-0.1482
X-2.2357 Y-15.244 Z-0.1455
X-2.2353 Y-15.2432 Z-0.1426
X-2.2352 Y-15.2429 Z-0.1396
G0 Z0.4
X-1.5105 Y-15.2374
Z0.13
G1 Z0.0654 F40.
G19 G2 Y-15.2528 Z0.05 J-0.0154 K0.
G1 Y-15.2605
G17 G3 X-1.5 Y-15.271 I0.0105 J0.
Y-15.229 Z0.0327 I0. J0.021
Y-15.271 Z0.0154 I0. J-0.021
Y-15.229 Z-0.0018 I0. J0.021
Y-15.271 Z-0.0191 I0. J-0.021
Y-15.229 Z-0.0364 I0. J0.021
Y-15.271 Z-0.0537 I0. J-0.021
Y-15.229 Z-0.071 I0. J0.021
Y-15.271 Z-0.0882 I0. J-0.021
Y-15.229 Z-0.1055 I0. J0.021
Y-15.271 Z-0.1228 I0. J-0.021
Y-15.229 Z-0.1401 I0. J0.021
X-1.5087 Y-15.2691 Z-0.155 I0. J-0.021
X-1.4913 Y-15.2309 I0.0087 J0.0191
X-1.5087 Y-15.2691 I-0.0087 J-0.0191
X-1.4948 Y-15.2639 I0.0044 J0.0095
G1 X-1.4916 Y-15.2569
X-1.4904 Y-15.2542 Z-0.1547
X-1.4892 Y-15.2516 Z-0.1538
X-1.4881 Y-15.2491 Z-0.1524
X-1.4871 Y-15.247 Z-0.1505
X-1.4863 Y-15.2453 Z-0.1482
X-1.4857 Y-15.244 Z-0.1455
X-1.4853 Y-15.2432 Z-0.1426
X-1.4852 Y-15.2429 Z-0.1396
G0 Z0.4
X-0.7605 Y-15.2374
Z0.13
G1 Z0.0654 F40.
G19 G2 Y-15.2528 Z0.05 J-0.0154 K0.
G1 Y-15.2605
G17 G3 X-0.75 Y-15.271 I0.0105 J0.
Y-15.229 Z0.0327 I0. J0.021
Y-15.271 Z0.0154 I0. J-0.021
Y-15.229 Z-0.0018 I0. J0.021
Y-15.271 Z-0.0191 I0. J-0.021
Y-15.229 Z-0.0364 I0. J0.021
Y-15.271 Z-0.0537 I0. J-0.021
Y-15.229 Z-0.071 I0. J0.021
Y-15.271 Z-0.0882 I0. J-0.021
Y-15.229 Z-0.1055 I0. J0.021
Y-15.271 Z-0.1228 I0. J-0.021
Y-15.229 Z-0.1401 I0. J0.021
X-0.7587 Y-15.2691 Z-0.155 I0. J-0.021
X-0.7413 Y-15.2309 I0.0087 J0.0191
X-0.7587 Y-15.2691 I-0.0087 J-0.0191
X-0.7448 Y-15.2639 I0.0044 J0.0095
G1 X-0.7416 Y-15.2569
X-0.7404 Y-15.2542 Z-0.1547
X-0.7392 Y-15.2516 Z-0.1538
X-0.7381 Y-15.2491 Z-0.1524
X-0.7371 Y-15.247 Z-0.1505
X-0.7363 Y-15.2453 Z-0.1482
X-0.7357 Y-15.244 Z-0.1455
X-0.7353 Y-15.2432 Z-0.1426
X-0.7352 Y-15.2429 Z-0.1396
G0 Z0.4
X-0.0105 Y-15.2374
Z0.13
G1 Z0.0654 F40.
G19 G2 Y-15.2528 Z0.05 J-0.0154 K0.
G1 Y-15.2605
G17 G3 X0. Y-15.271 I0.0105 J0.
Y-15.229 Z0.0327 I0. J0.021
Y-15.271 Z0.0154 I0. J-0.021
Y-15.229 Z-0.0018 I0. J0.021
Y-15.271 Z-0.0191 I0. J-0.021
Y-15.229 Z-0.0364 I0. J0.021
Y-15.271 Z-0.0537 I0. J-0.021
Y-15.229 Z-0.071 I0. J0.021
Y-15.271 Z-0.0882 I0. J-0.021
Y-15.229 Z-0.1055 I0. J0.021
Y-15.271 Z-0.1228 I0. J-0.021
Y-15.229 Z-0.1401 I0. J0.021
X-0.0087 Y-15.2691 Z-0.155 I0. J-0.021
X0.0087 Y-15.2309 I0.0087 J0.0191
X-0.0087 Y-15.2691 I-0.0087 J-0.0191
X0.0052 Y-15.2639 I0.0044 J0.0095
G1 X0.0084 Y-15.2569
X0.0096 Y-15.2542 Z-0.1547
X0.0108 Y-15.2516 Z-0.1538
X0.0119 Y-15.2491 Z-0.1524
X0.0129 Y-15.247 Z-0.1505
X0.0137 Y-15.2453 Z-0.1482
X0.0143 Y-15.244 Z-0.1455
X0.0147 Y-15.2432 Z-0.1426
X0.0148 Y-15.2429 Z-0.1396
G0 Z0.4
X0.7395 Y-15.2374
Z0.13
G1 Z0.0654 F40.
G19 G2 Y-15.2528 Z0.05 J-0.0154 K0.
G1 Y-15.2605
G17 G3 X0.75 Y-15.271 I0.0105 J0.
Y-15.229 Z0.0327 I0. J0.021
Y-15.271 Z0.0154 I0. J-0.021
Y-15.229 Z-0.0018 I0. J0.021
Y-15.271 Z-0.0191 I0. J-0.021
Y-15.229 Z-0.0364 I0. J0.021
Y-15.271 Z-0.0537 I0. J-0.021
Y-15.229 Z-0.071 I0. J0.021
Y-15.271 Z-0.0882 I0. J-0.021
Y-15.229 Z-0.1055 I0. J0.021
Y-15.271 Z-0.1228 I0. J-0.021
Y-15.229 Z-0.1401 I0. J0.021
X0.7413 Y-15.2691 Z-0.155 I0. J-0.021
X0.7587 Y-15.2309 I0.0087 J0.0191
X0.7413 Y-15.2691 I-0.0087 J-0.0191
X0.7552 Y-15.2639 I0.0044 J0.0095
G1 X0.7584 Y-15.2569
X0.7596 Y-15.2542 Z-0.1547
X0.7608 Y-15.2516 Z-0.1538
X0.7619 Y-15.2491 Z-0.1524
X0.7629 Y-15.247 Z-0.1505
X0.7637 Y-15.2453 Z-0.1482
X0.7643 Y-15.244 Z-0.1455
X0.7647 Y-15.2432 Z-0.1426
X0.7648 Y-15.2429 Z-0.1396
G0 Z0.4
X1.4895 Y-15.2374
Z0.13
G1 Z0.0654 F40.
G19 G2 Y-15.2528 Z0.05 J-0.0154 K0.
G1 Y-15.2605
G17 G3 X1.5 Y-15.271 I0.0105 J0.
Y-15.229 Z0.0327 I0. J0.021
Y-15.271 Z0.0154 I0. J-0.021
Y-15.229 Z-0.0018 I0. J0.021
Y-15.271 Z-0.0191 I0. J-0.021
Y-15.229 Z-0.0364 I0. J0.021
Y-15.271 Z-0.0537 I0. J-0.021
Y-15.229 Z-0.071 I0. J0.021
Y-15.271 Z-0.0882 I0. J-0.021
Y-15.229 Z-0.1055 I0. J0.021
Y-15.271 Z-0.1228 I0. J-0.021
Y-15.229 Z-0.1401 I0. J0.021
X1.4913 Y-15.2691 Z-0.155 I0. J-0.021
X1.5087 Y-15.2309 I0.0087 J0.0191
X1.4913 Y-15.2691 I-0.0087 J-0.0191
X1.5052 Y-15.2639 I0.0044 J0.0095
G1 X1.5084 Y-15.2569
X1.5096 Y-15.2542 Z-0.1547
X1.5108 Y-15.2516 Z-0.1538
X1.5119 Y-15.2491 Z-0.1524
X1.5129 Y-15.247 Z-0.1505
X1.5137 Y-15.2453 Z-0.1482
X1.5143 Y-15.244 Z-0.1455
X1.5147 Y-15.2432 Z-0.1426
X1.5148 Y-15.2429 Z-0.1396
G0 Z0.4
X2.2395 Y-15.2374
Z0.13
G1 Z0.0654 F40.
G19 G2 Y-15.2528 Z0.05 J-0.0154 K0.
G1 Y-15.2605
G17 G3 X2.25 Y-15.271 I0.0105 J0.
Y-15.229 Z0.0327 I0. J0.021
Y-15.271 Z0.0154 I0. J-0.021
Y-15.229 Z-0.0018 I0. J0.021
Y-15.271 Z-0.0191 I0. J-0.021
Y-15.229 Z-0.0364 I0. J0.021
Y-15.271 Z-0.0537 I0. J-0.021
Y-15.229 Z-0.071 I0. J0.021
Y-15.271 Z-0.0882 I0. J-0.021
Y-15.229 Z-0.1055 I0. J0.021
Y-15.271 Z-0.1228 I0. J-0.021
Y-15.229 Z-0.1401 I0. J0.021
X2.2413 Y-15.2691 Z-0.155 I0. J-0.021
X2.2587 Y-15.2309 I0.0087 J0.0191
X2.2413 Y-15.2691 I-0.0087 J-0.0191
X2.2552 Y-15.2639 I0.0044 J0.0095
G1 X2.2584 Y-15.2569
X2.2596 Y-15.2542 Z-0.1547
X2.2608 Y-15.2516 Z-0.1538
X2.2619 Y-15.2491 Z-0.1524
X2.2629 Y-15.247 Z-0.1505
X2.2637 Y-15.2453 Z-0.1482
X2.2643 Y-15.244 Z-0.1455
X2.2647 Y-15.2432 Z-0.1426
X2.2648 Y-15.2429 Z-0.1396
G0 Z0.4
X2.9895 Y-15.2374
Z0.13
G1 Z0.0654 F40.
G19 G2 Y-15.2528 Z0.05 J-0.0154 K0.
G1 Y-15.2605
G17 G3 X3. Y-15.271 I0.0105 J0.
Y-15.229 Z0.0327 I0. J0.021
Y-15.271 Z0.0154 I0. J-0.021
Y-15.229 Z-0.0018 I0. J0.021
Y-15.271 Z-0.0191 I0. J-0.021
Y-15.229 Z-0.0364 I0. J0.021
Y-15.271 Z-0.0537 I0. J-0.021
Y-15.229 Z-0.071 I0. J0.021
Y-15.271 Z-0.0882 I0. J-0.021
Y-15.229 Z-0.1055 I0. J0.021
Y-15.271 Z-0.1228 I0. J-0.021
Y-15.229 Z-0.1401 I0. J0.021
X2.9913 Y-15.2691 Z-0.155 I0. J-0.021
X3.0087 Y-15.2309 I0.0087 J0.0191
X2.9913 Y-15.2691 I-0.0087 J-0.0191
X3.0052 Y-15.2639 I0.0044 J0.0095
G1 X3.0084 Y-15.2569
X3.0096 Y-15.2542 Z-0.1547
X3.0108 Y-15.2516 Z-0.1538
X3.0119 Y-15.2491 Z-0.1524
X3.0129 Y-15.247 Z-0.1505
X3.0137 Y-15.2453 Z-0.1482
X3.0143 Y-15.244 Z-0.1455
X3.0147 Y-15.2432 Z-0.1426
X3.0148 Y-15.2429 Z-0.1396
G0 Z0.4
X3.8508 Y-12.4886
Z0.13
G1 Z0.0654 F40.
G19 G2 Y-12.5041 Z0.05 J-0.0154 K0.
G1 Y-12.5118
G17 G3 X3.8625 Y-12.5235 I0.0117 J0.
Y-12.4765 Z0.0323 I0. J0.0235
Y-12.5235 Z0.0146 I0. J-0.0235
Y-12.4765 Z-0.0032 I0. J0.0235
Y-12.5235 Z-0.0209 I0. J-0.0235
Y-12.4765 Z-0.0386 I0. J0.0235
Y-12.5235 Z-0.0563 I0. J-0.0235
Y-12.4765 Z-0.074 I0. J0.0235
Y-12.5235 Z-0.0918 I0. J-0.0235
Y-12.4765 Z-0.1095 I0. J0.0235
Y-12.5235 Z-0.1272 I0. J-0.0235
Y-12.4765 Z-0.1449 I0. J0.0235
X3.8395 Y-12.505 Z-0.155 I0. J-0.0235
X3.8855 Y-12.495 I0.023 J0.005
X3.8395 Y-12.505 I-0.023 J-0.005
X3.8535 Y-12.514 I0.0115 J0.0025
G1 X3.861 Y-12.5123
X3.864 Y-12.5117 Z-0.1547
X3.8668 Y-12.5111 Z-0.1538
X3.8694 Y-12.5105 Z-0.1524
X3.8717 Y-12.51 Z-0.1505
X3.8736 Y-12.5096 Z-0.1482
X3.8749 Y-12.5093 Z-0.1455
X3.8758 Y-12.5091 Z-0.1426
X3.8761 Z-0.1396
G0 Z0.4
X3.0382 Y-7.8587
Z0.13
G1 Z0.0654 F40.
G19 G2 Y-7.874 Z0.05 J-0.0154 K0.
G1 Y-7.8818
G17 G3 X3.05 Y-7.8935 I0.0118 J0.
Y-7.8465 Z0.0323 I0. J0.0235
Y-7.8935 Z0.0146 I0. J-0.0235
Y-7.8465 Z-0.0032 I0. J0.0235
Y-7.8935 Z-0.0209 I0. J-0.0235
Y-7.8465 Z-0.0386 I0. J0.0235
Y-7.8935 Z-0.0563 I0. J-0.0235
Y-7.8465 Z-0.074 I0. J0.0235
Y-7.8935 Z-0.0918 I0. J-0.0235
Y-7.8465 Z-0.1095 I0. J0.0235
Y-7.8935 Z-0.1272 I0. J-0.0235
Y-7.8465 Z-0.1449 I0. J0.0235
X3.027 Y-7.875 Z-0.155 I0. J-0.0235
X3.073 Y-7.865 I0.023 J0.005
X3.027 Y-7.875 I-0.023 J-0.005
X3.041 Y-7.884 I0.0115 J0.0025
G1 X3.0485 Y-7.8823
X3.0515 Y-7.8817 Z-0.1547
X3.0543 Y-7.8811 Z-0.1538
X3.0569 Y-7.8805 Z-0.1524
X3.0592 Y-7.88 Z-0.1505
X3.0611 Y-7.8796 Z-0.1482
X3.0624 Y-7.8793 Z-0.1455
X3.0633 Y-7.8791 Z-0.1426
X3.0636 Z-0.1396
G0 Z0.6
(SHAPE THROUGH HOLE)
M7
G0 X-3.2815 Y-6.9019
Z0.6
Z0.1
G3 X-3.3701 Y-6.7855 Z0.0595 I-0.0443 J0.0582 F50.
X-3.2815 Y-6.9019 Z0.019 I0.0443 J-0.0582
X-3.3701 Y-6.7855 Z-0.0216 I-0.0443 J0.0582
X-3.2815 Y-6.9019 Z-0.0621 I0.0443 J-0.0582
X-3.3701 Y-6.7855 Z-0.1026 I-0.0443 J0.0582
X-3.2815 Y-6.9019 Z-0.1431 I0.0443 J-0.0582
X-3.2527 Y-6.8437 Z-0.155 I-0.0443 J0.0582
X-3.399 I-0.0731 J0.
X-3.2529 Y-6.8496 I0.0732 J0.
G1 X-3.2527 Y-6.8437
G3 X-3.237 Y-6.7873 I-0.0314 J0.0391 F60.
G1 X-3.2422 Y-6.7815
X-3.2479 Y-6.776
X-3.2539 Y-6.7711
X-3.2604 Y-6.7666
X-3.2671 Y-6.7627
X-3.2742 Y-6.7592
X-3.2815 Y-6.7564
X-3.289 Y-6.7542
X-3.2967 Y-6.7525
X-3.3044 Y-6.7515
X-3.3123 Y-6.751
X-3.3201 Y-6.7512
X-3.3279 Y-6.752
X-3.3356 Y-6.7534
X-3.3432 Y-6.7554
X-3.3506 Y-6.758
X-3.3577 Y-6.7612
X-3.3646 Y-6.765
X-3.3712 Y-6.7692
X-3.3774 Y-6.774
X-3.3832 Y-6.7792
X-3.3886 Y-6.7849
X-3.3935 Y-6.791
X-3.398 Y-6.7974
X-3.4019 Y-6.8042
X-3.4052 Y-6.8113
X-3.408 Y-6.8186
X-3.4103 Y-6.8261
X-3.4119 Y-6.8338
X-3.4129 Y-6.8416
X-3.4133 Y-6.8494
X-3.413 Y-6.8572
X-3.4122 Y-6.865
X-3.4108 Y-6.8727
X-3.4087 Y-6.8803
X-3.4061 Y-6.8876
X-3.4029 Y-6.8948
X-3.3991 Y-6.9016
X-3.3948 Y-6.9082
X-3.39 Y-6.9144
X-3.3847 Y-6.9202
X-3.3825 Y-6.9276
X-3.3798 Y-6.9348
X-3.3764 Y-6.9418
X-3.3725 Y-6.9485
X-3.368 Y-6.9548
X-3.3631 Y-6.9607
X-3.3577 Y-6.9663
X-3.3519 Y-6.9714
X-3.3456 Y-6.9759
X-3.339 Y-6.98
X-3.3321 Y-6.9835
X-3.325 Y-6.9865
X-3.3176 Y-6.9888
X-3.3101 Y-6.9906
X-3.3024 Y-6.9917
X-3.2947 Y-6.9922
X-3.287 Y-6.9921
X-3.2793 Y-6.9913
X-3.2717 Y-6.9899
X-3.2642 Y-6.988
X-3.2569 Y-6.9854
X-3.2499 Y-6.9822
X-3.2431 Y-6.9785
X-3.2366 Y-6.9742
X-3.2306 Y-6.9694
X-3.2249 Y-6.9642
X-3.2197 Y-6.9585
X-3.2149 Y-6.9524
X-3.2107 Y-6.9459
X-3.207 Y-6.9391
X-3.2038 Y-6.932
X-3.1978 Y-6.9319
X-3.1975 Y-6.9295
G3 X-3.237 Y-6.7873 I-0.1637 J0.0311
X-3.2523 Y-6.7856 I-0.0091 J-0.0124
X-3.2682 Y-6.8093 I0.0107 J-0.0243
X-3.2182 Y-6.9087 I0.1181 J-0.0029
X-3.2056 Y-6.9165 I0.0682 J0.0965 F50.
G2 X-3.1975 Y-6.9295 I-0.0072 J-0.0136
G1 Y-6.974 F60.
G2 X-3.391 Y-7.0488 I-0.1195 J0.0213
G1 X-3.39 Y-6.9845
X-3.3901 Y-6.9376
X-3.3917 Y-6.927
G2 X-3.3856 Y-6.9129 I0.0153 J0.0018
X-3.3565 Y-6.9169 I0.0125 J-0.0168
X-3.3695 Y-7.0263 I-0.0624 J-0.048
X-3.3819 Y-7.0345 I-0.0494 J0.0613 F50.
G3 X-3.39 Y-7.0475 I0.0072 J-0.0136
G1 Y-7.0718 F60.
G3 X-3.1972 Y-7.1187 I0.1109 J0.0363
G1 X-3.1975 Y-6.974
G3 X-3.2242 Y-6.964 I-0.0154 J-0.0005
X-3.2282 Y-6.9699 I0.0175 J-0.0163
X-3.2151 Y-7.0938 I0.1064 J-0.0514
X-3.2024 Y-7.1077 I0.0932 J0.0725 F50.
G2 X-3.1975 Y-7.1184 I-0.0105 J-0.0113
G1 Y-7.1489 F60.
G2 X-3.3909 Y-7.2032 I-0.115 J0.038
G1 X-3.39 Y-7.0718
G2 X-3.3819 Y-7.0588 I0.0154 J-0.0005
X-3.3668 Y-7.0605 I0.0063 J-0.0118
X-3.3695 Y-7.1809 I-0.0521 J-0.059
X-3.3819 Y-7.189 I-0.0494 J0.0613 F50.
G3 X-3.39 Y-7.2021 I0.0072 J-0.0136
G1 Y-7.2193 F60.
X-3.3906 Y-7.2264
G3 X-3.2008 Y-7.2832 I0.113 J0.032
G1 X-3.1975 Y-7.2663
Y-7.1489
G3 X-3.2056 Y-7.1358 I-0.0154 J-0.0005
X-3.2492 Y-7.1574 I-0.0141 J-0.0264
X-3.2173 Y-7.2591 I0.1165 J-0.0193
X-3.2063 Y-7.269 I0.0846 J0.0825 F50.
G2 X-3.2007 Y-7.2833 I-0.0096 J-0.012
G1 X-3.2062 Y-7.3132 F60.
X-3.2105 Y-7.3262
G2 X-3.4276 Y-7.334 I-0.1112 J0.0711
G3 X-3.3906 Y-7.2264 I-21.9428 J7.5961
G2 X-3.3814 Y-7.2141 I0.0153 J-0.0018
X-3.3559 Y-7.2268 I0.0074 J-0.0172
X-3.4008 Y-7.3178 I-0.0764 J-0.0189
X-3.4148 Y-7.3225 I-0.0316 J0.0721 F50.
G3 X-3.4261 Y-7.3329 I0.0034 J-0.015
G1 X-3.4335 Y-7.3602 F60.
X-3.4252 Y-7.3908
G3 X-3.2286 Y-7.3597 I0.0945 J0.0395
G1 X-3.2105 Y-7.3262
G3 X-3.111 Y-7.227 I0.0102 J0.0893
X-3.1422 Y-6.7451 I-0.9446 J0.1808
X-3.4831 Y-6.9483 I-0.1622 J-0.1154
G2 X-3.525 Y-7.3458 I-1.2219 J-0.0721
G3 X-3.2818 Y-7.5358 I0.1901 J-0.0073
X-3.0158 Y-7.2544 I-0.2608 J0.513
X-3.0549 Y-6.7048 I-1.0013 J0.2049
X-3.5897 Y-6.9146 I-0.2482 J-0.1539
X-3.5902 Y-7.1319 I12.9676 J-0.1426
X-3.608 Y-7.2391 I0.9412 J-0.2112
G1 Y-7.396
G3 X-3.4074 Y-7.628 I0.2644 J0.0259
G1 X-3.4044 Y-7.6276
X-3.4014 Y-7.6266
X-3.3988 Y-7.625
X-3.3965 Y-7.6229
X-3.3947 Y-7.6204
X-3.3934 Y-7.6176
X-3.3927 Y-7.6146
X-3.3926 Y-7.6115
X-3.3931 Y-7.6085
X-3.3942 Y-7.6056
G3 X-3.3962 Y-7.6026 I-0.0137 J-0.007
G1 X-3.5809 Y-7.3865
X-3.5831 Y-7.3845
X-3.5856 Y-7.3828
G3 X-3.608 Y-7.396 I-0.007 J-0.0137 F50.
X-3.5929 Y-7.5736 I0.2448 J-0.0686 F60.
X-3.4938 Y-7.6278 I0.0952 J0.0563
X-3.2675 Y-7.6237 I0.0963 J0.9214
G1 X-3.236 Y-7.6111
X-3.2264 Y-7.6073
G3 X-2.9783 Y-7.3932 I-0.287 J0.5834
G0 X-2.9795 Y-7.3924 Z0.4
X-3.2724 Y-7.6075
Z-0.1242
G1 Z-0.1396 F50.
X-3.2721 Z-0.1426
X-3.2712 Y-7.6076 Z-0.1455
X-3.2698 Y-7.6079 Z-0.1482
X-3.2679 Y-7.6082 Z-0.1505
X-3.2656 Y-7.6086 Z-0.1524
X-3.263 Y-7.609 Z-0.1538
X-3.2601 Y-7.6095 Z-0.1547
X-3.2572 Y-7.61 Z-0.155
G3 X-3.2264 Y-7.6073 I0.0102 J0.0615
G1 X-3.131 Y-7.5855 F60.
X-3.0357 Y-7.5635
G3 X-2.9795 Y-7.443 I-0.0585 J0.1006
G1 Y-6.7857
G3 X-3.0959 Y-6.6444 I-0.1348 J0.0075
X-3.2374 Y-6.516 I-0.4952 J-0.4036
X-3.4592 Y-6.5414 I-0.0837 J-0.2504
X-3.6039 Y-6.7072 I1.2116 J-1.2035
G1 X-3.6079 Y-6.7387
X-3.608 Y-6.7622
Y-7.2391
G3 X-3.5926 Y-7.2539 I0.0154 J0.0005
G1 X-3.5902 Y-7.2537
X-3.5878 Y-7.2532
X-3.5856 Y-7.2522
X-3.5829 Y-7.2509 Z-0.1547
X-3.5804 Y-7.2496 Z-0.1538
X-3.578 Y-7.2484 Z-0.1524
X-3.5759 Y-7.2473 Z-0.1505
X-3.5742 Y-7.2464 Z-0.1482
X-3.5729 Y-7.2458 Z-0.1455
X-3.5722 Y-7.2454 Z-0.1426
X-3.5719 Y-7.2452 Z-0.1396
G0 Z0.6
(SMALL SHAPE THROUGH HOLE)
M7
G0 X-3.9058 Y-10.8473
Z0.6
Z0.1
G3 X-3.9192 Y-10.7992 Z0.0862 I-0.0067 J0.0241 F50.
X-3.9058 Y-10.8473 Z0.0723 I0.0067 J-0.0241
X-3.9192 Y-10.7992 Z0.0585 I-0.0067 J0.0241
X-3.9058 Y-10.8473 Z0.0446 I0.0067 J-0.0241
X-3.9192 Y-10.7992 Z0.0308 I-0.0067 J0.0241
X-3.9058 Y-10.8473 Z0.0169 I0.0067 J-0.0241
X-3.9192 Y-10.7992 Z0.0031 I-0.0067 J0.0241
X-3.9058 Y-10.8473 Z-0.0108 I0.0067 J-0.0241
X-3.9192 Y-10.7992 Z-0.0246 I-0.0067 J0.0241
X-3.9058 Y-10.8473 Z-0.0385 I0.0067 J-0.0241
X-3.9192 Y-10.7992 Z-0.0523 I-0.0067 J0.0241
X-3.9058 Y-10.8473 Z-0.0662 I0.0067 J-0.0241
X-3.9192 Y-10.7992 Z-0.08 I-0.0067 J0.0241
X-3.9058 Y-10.8473 Z-0.0939 I0.0067 J-0.0241
X-3.9192 Y-10.7992 Z-0.1077 I-0.0067 J0.0241
X-3.9058 Y-10.8473 Z-0.1216 I0.0067 J-0.0241
X-3.9192 Y-10.7992 Z-0.1354 I-0.0067 J0.0241
X-3.9058 Y-10.8473 Z-0.1493 I0.0067 J-0.0241
X-3.8875 Y-10.8233 Z-0.155 I-0.0067 J0.0241
X-3.9375 I-0.025 J0.
X-3.8875 I0.025 J0.
X-3.8872 Y-10.7915 I-0.0391 J0.0162 F60.
G1 X-3.8911 Y-10.7886
X-3.8953 Y-10.7861
X-3.8997 Y-10.7842
X-3.9044 Y-10.7828
X-3.9091 Y-10.782
X-3.914 Y-10.7819
X-3.9188 Y-10.7823
X-3.9236 Y-10.7833
X-3.9281 Y-10.7848
X-3.9325 Y-10.7869
X-3.9366 Y-10.7896
X-3.9403 Y-10.7927
X-3.9436 Y-10.7962
X-3.9464 Y-10.8002
X-3.9487 Y-10.8044
X-3.9505 Y-10.8089
X-3.9518 Y-10.8136
X-3.9524 Y-10.8184
X-3.9525 Y-10.8232
X-3.9519 Y-10.828
X-3.9508 Y-10.8327
X-3.9491 Y-10.8373
X-3.9468 Y-10.8416
X-3.9441 Y-10.8455
X-3.9409 Y-10.8492
G3 X-3.8778 Y-10.8889 I0.0386 J-0.0086
X-3.8872 Y-10.7915 I-0.1027 J0.0392
X-3.9132 Y-10.7913 I-0.0131 J-0.0082
G1 X-3.9138 Y-10.7923
X-3.9323 Y-10.8261
G3 X-3.9455 Y-10.8538 I0.0377 J-0.0351 F50.
G1 Y-10.9008 F60.
G3 X-3.8795 Y-10.9449 I0.0441 J-0.0054
G1 Y-10.8868
G3 X-3.8876 Y-10.8737 I-0.0154 J-0.0005
X-3.904 Y-10.8787 I-0.0057 J-0.0106
X-3.8991 Y-10.9226 I0.0348 J-0.0184
X-3.8876 Y-10.9318 I0.03 J0.0255 F50.
G2 X-3.8795 Y-10.9449 I-0.0072 J-0.0136
G1 Y-10.9586 F60.
G2 X-3.9474 Y-10.9882 I-0.0431 J0.0063
G1 X-3.9455 Y-10.9008
G2 X-3.9374 Y-10.8877 I0.0154 J-0.0005
X-3.897 Y-10.9173 I0.0131 J-0.0245
X-3.925 Y-10.9643 I-0.0774 J0.0144
X-3.9374 Y-10.9724 I-0.0494 J0.0613 F50.
G3 X-3.9455 Y-10.9855 I0.0072 J-0.0136
G1 Y-11.0005 F60.
G3 X-3.8776 Y-11.0353 I0.0452 J0.0046
G1 X-3.8795 Y-10.9586
G3 X-3.8876 Y-10.9456 I-0.0154 J-0.0005
X-3.9241 Y-10.9778 I-0.0122 J-0.0229
X-3.9 Y-11.0108 I0.0735 J0.0283
X-3.8876 Y-11.019 I0.0494 J0.0613 F50.
G2 X-3.8795 Y-11.032 I-0.0072 J-0.0136
G1 Y-11.0474 F60.
G2 X-3.9474 Y-11.0799 I-0.0446 J0.0061
G1 X-3.9455 Y-11.0005
G2 X-3.9374 Y-10.9874 I0.0154 J-0.0005
X-3.8998 Y-11.0193 I0.0125 J-0.0234
X-3.925 Y-11.0555 I-0.0746 J0.0251
X-3.9374 Y-11.0637 I-0.0494 J0.0613 F50.
G3 X-3.9455 Y-11.0767 I0.0072 J-0.0136
G1 Y-11.0913 F60.
G3 X-3.8776 Y-11.125 I0.0448 J0.005
G1 X-3.8795 Y-11.0474
G3 X-3.8876 Y-11.0344 I-0.0154 J-0.0005
X-3.9245 Y-11.0665 I-0.0123 J-0.0231
X-3.9 Y-11.1007 I0.0739 J0.0272
X-3.8876 Y-11.1088 I0.0494 J0.0613 F50.
G2 X-3.8795 Y-11.1219 I-0.0072 J-0.0136
G1 Y-11.1355 F60.
G2 X-3.9474 Y-11.1697 I-0.0447 J0.0043
G1 X-3.9455 Y-11.0913
G2 X-3.9374 Y-11.0783 I0.0154 J-0.0005
X-3.9001 Y-11.1102 I0.0124 J-0.0232
X-3.925 Y-11.1454 I-0.0743 J0.0261
X-3.9374 Y-11.1536 I-0.0494 J0.0613 F50.
G3 X-3.9455 Y-11.1666 I0.0072 J-0.0136
G1 Y-11.1825 F60.
G3 X-3.8776 Y-11.215 I0.0447 J0.0062
G1 X-3.8795 Y-11.1355
G3 X-3.8876 Y-11.1225 I-0.0154 J-0.0005
X-3.9253 Y-11.1543 I-0.0125 J-0.0234
X-3.9 Y-11.1906 I0.0747 J0.025
X-3.8876 Y-11.1988 I0.0494 J0.0613 F50.
G2 X-3.8795 Y-11.2118 I-0.0072 J-0.0136
G1 Y-11.2262 F60.
G2 X-3.9474 Y-11.26 I-0.0448 J0.0049
G1 X-3.9455 Y-11.1825
G2 X-3.9374 Y-11.1694 I0.0154 J-0.0005
X-3.9005 Y-11.2016 I0.0123 J-0.0231
X-3.925 Y-11.2356 I-0.0739 J0.0273
X-3.9374 Y-11.2438 I-0.0494 J0.0613 F50.
G3 X-3.9455 Y-11.2568 I0.0072 J-0.0136
G1 Y-11.2714 F60.
G3 X-3.8776 Y-11.3049 I0.0447 J0.0051
G1 X-3.8795 Y-11.2262
G3 X-3.8876 Y-11.2132 I-0.0154 J-0.0005
X-3.925 Y-11.2451 I-0.0124 J-0.0233
X-3.9 Y-11.2805 I0.0743 J0.0259
X-3.8876 Y-11.2887 I0.0494 J0.0613 F50.
G2 X-3.8795 Y-11.3017 I-0.0072 J-0.0136
G1 Y-11.3162 F60.
G2 X-3.9474 Y-11.3498 I-0.0447 J0.005
G1 X-3.9455 Y-11.2714
G2 X-3.9374 Y-11.2584 I0.0154 J-0.0005
X-3.9002 Y-11.2904 I0.0124 J-0.0232
X-3.925 Y-11.3255 I-0.0743 J0.0262
X-3.9374 Y-11.3337 I-0.0494 J0.0613 F50.
G3 X-3.9455 Y-11.3467 I0.0072 J-0.0136
G1 Y-11.3601 F60.
G3 X-3.8776 Y-11.3946 I0.0447 J0.004
G1 X-3.8795 Y-11.3162
G3 X-3.8876 Y-11.3032 I-0.0154 J-0.0005
X-3.9249 Y-11.3352 I-0.0124 J-0.0232
X-3.9 Y-11.3703 I0.0743 J0.0262
X-3.8876 Y-11.3785 I0.0494 J0.0613 F50.
G2 X-3.8795 Y-11.3915 I-0.0072 J-0.0136
G1 Y-11.4067 F60.
G2 X-3.9474 Y-11.4397 I-0.0447 J0.0056
G1 X-3.9455 Y-11.3601
G2 X-3.9374 Y-11.3471 I0.0154 J-0.0005
X-3.8997 Y-11.3789 I0.0125 J-0.0234
X-3.925 Y-11.4153 I-0.0747 J0.0249
X-3.9374 Y-11.4235 I-0.0494 J0.0613 F50.
G3 X-3.9455 Y-11.4365 I0.0072 J-0.0136
G1 Y-11.4512 F60.
G3 X-3.8776 Y-11.4847 I0.0448 J0.0051
G1 X-3.8795 Y-11.4067
G3 X-3.8876 Y-11.3936 I-0.0154 J-0.0005
X-3.9247 Y-11.4257 I-0.0123 J-0.0232
X-3.9 Y-11.4604 I0.0741 J0.0267
X-3.8876 Y-11.4685 I0.0494 J0.0613 F50.
G2 X-3.8795 Y-11.4816 I-0.0072 J-0.0136
G1 Y-11.4973 F60.
G2 X-3.9474 Y-11.5299 I-0.0447 J0.0062
G1 X-3.9455 Y-11.4512
G2 X-3.9374 Y-11.4382 I0.0154 J-0.0005
X-3.9001 Y-11.4701 I0.0124 J-0.0233
X-3.925 Y-11.5055 I-0.0744 J0.0259
X-3.9374 Y-11.5137 I-0.0494 J0.0613 F50.
G3 X-3.9455 Y-11.5267 I0.0072 J-0.0136
G1 Y-11.5404 F60.
G3 X-3.8776 Y-11.5747 I0.0448 J0.0043
G1 X-3.8795 Y-11.4973
G3 X-3.8876 Y-11.4843 I-0.0154 J-0.0005
X-3.9245 Y-11.5164 I-0.0123 J-0.0231
X-3.9 Y-11.5504 I0.0739 J0.0273
X-3.8876 Y-11.5586 I0.0494 J0.0613 F50.
G2 X-3.8795 Y-11.5716 I-0.0072 J-0.0136
G1 Y-11.5874 F60.
G2 X-3.9474 Y-11.6199 I-0.0447 J0.0061
G1 X-3.9455 Y-11.5404
G2 X-3.9374 Y-11.5274 I0.0154 J-0.0005
X-3.8997 Y-11.5592 I0.0125 J-0.0234
X-3.925 Y-11.5955 I-0.0747 J0.025
X-3.9374 Y-11.6037 I-0.0494 J0.0613 F50.
G3 X-3.9455 Y-11.6167 I0.0072 J-0.0136
G1 Y-11.6312 F60.
G3 X-3.8776 Y-11.6649 I0.0448 J0.005
G1 X-3.8795 Y-11.5874
G3 X-3.8876 Y-11.5743 I-0.0154 J-0.0005
X-3.9245 Y-11.6064 I-0.0123 J-0.0231
X-3.9 Y-11.6406 I0.0739 J0.0272
X-3.8876 Y-11.6487 I0.0494 J0.0613 F50.
G2 X-3.8795 Y-11.6618 I-0.0072 J-0.0136
G1 Y-11.6754 F60.
G2 X-3.9474 Y-11.7096 I-0.0447 J0.0043
G1 X-3.9455 Y-11.6312
G2 X-3.9374 Y-11.6182 I0.0154 J-0.0005
X-3.9001 Y-11.6501 I0.0124 J-0.0232
X-3.925 Y-11.6854 I-0.0743 J0.0261
X-3.9374 Y-11.6935 I-0.0494 J0.0613 F50.
G3 X-3.9455 Y-11.7066 I0.0072 J-0.0136
G1 Y-11.7224 F60.
G3 X-3.8776 Y-11.7549 I0.0447 J0.0062
G1 X-3.8795 Y-11.6754
G3 X-3.8876 Y-11.6624 I-0.0154 J-0.0005
X-3.9253 Y-11.6942 I-0.0125 J-0.0234
X-3.9 Y-11.7305 I0.0747 J0.025
X-3.8876 Y-11.7387 I0.0494 J0.0613 F50.
G2 X-3.8795 Y-11.7517 I-0.0072 J-0.0136
G1 Y-11.7661 F60.
G2 X-3.9474 Y-11.7999 I-0.0448 J0.0049
G1 X-3.9455 Y-11.7224
G2 X-3.9374 Y-11.7093 I0.0154 J-0.0005
X-3.9005 Y-11.7415 I0.0123 J-0.0231
X-3.925 Y-11.7755 I-0.0739 J0.0273
X-3.9374 Y-11.7837 I-0.0494 J0.0613 F50.
G3 X-3.9455 Y-11.7967 I0.0072 J-0.0136
G1 Y-11.8113 F60.
G3 X-3.8776 Y-11.8448 I0.0447 J0.0051
G1 X-3.8795 Y-11.7661
G3 X-3.8876 Y-11.7531 I-0.0154 J-0.0005
X-3.925 Y-11.785 I-0.0124 J-0.0233
X-3.9 Y-11.8205 I0.0743 J0.0259
X-3.8876 Y-11.8286 I0.0494 J0.0613 F50.
G2 X-3.8795 Y-11.8417 I-0.0072 J-0.0136
G1 Y-11.8561 F60.
G2 X-3.9474 Y-11.8897 I-0.0447 J0.005
G1 X-3.9455 Y-11.8113
G2 X-3.9374 Y-11.7983 I0.0154 J-0.0005
X-3.9002 Y-11.8303 I0.0124 J-0.0232
X-3.925 Y-11.8654 I-0.0743 J0.0262
X-3.9374 Y-11.8736 I-0.0494 J0.0613 F50.
G3 X-3.9455 Y-11.8866 I0.0072 J-0.0136
G1 Y-11.9001 F60.
G3 X-3.8776 Y-11.9345 I0.0447 J0.004
G1 X-3.8795 Y-11.8561
G3 X-3.8876 Y-11.8431 I-0.0154 J-0.0005
X-3.9249 Y-11.8751 I-0.0124 J-0.0232
X-3.9 Y-11.9102 I0.0743 J0.0262
X-3.8876 Y-11.9184 I0.0494 J0.0613 F50.
G2 X-3.8795 Y-11.9314 I-0.0072 J-0.0136
G1 Y-11.9466 F60.
G2 X-3.9474 Y-11.9796 I-0.0447 J0.0056
G1 X-3.9455 Y-11.9001
G2 X-3.9374 Y-11.887 I0.0154 J-0.0005
X-3.8997 Y-11.9188 I0.0125 J-0.0234
X-3.925 Y-11.9553 I-0.0747 J0.0249
X-3.9374 Y-11.9634 I-0.0494 J0.0613 F50.
G3 X-3.9455 Y-11.9765 I0.0072 J-0.0136
G1 Y-11.9911 F60.
G3 X-3.8776 Y-12.0246 I0.0448 J0.0051
G1 X-3.8795 Y-11.9466
G3 X-3.8876 Y-11.9336 I-0.0154 J-0.0005
X-3.9247 Y-11.9656 I-0.0123 J-0.0232
X-3.9 Y-12.0003 I0.0741 J0.0267
X-3.8876 Y-12.0084 I0.0494 J0.0613 F50.
G2 X-3.8795 Y-12.0215 I-0.0072 J-0.0136
G1 Y-12.0372 F60.
G2 X-3.9422 Y-12.0732 I-0.0459 J0.0073
G3 X-3.9455 Y-11.9911 I-1.416 J-0.0166
G2 X-3.9179 Y-11.9823 I0.0154 J-0.0005
G1 X-3.8957 Y-12.0114
G2 X-3.8795 Y-12.0372 I-0.0226 J-0.0321 F50.
X-3.8926 Y-12.0867 I-0.0304 J-0.0184 F60.
X-3.9416 Y-12.0718 I-0.0173 J0.0311
G1 X-3.9405 Y-12.07 Z-0.1541
X-3.9394 Y-12.0701 Z-0.1516
G0 Z0.4
X3.8692 Y-10.8708
Z0.1
G3 X3.8827 Y-10.832 Z0.0915 I-0.0067 J0.0241 F50.
X3.8423 Y-10.8615 Z0.0777 I-0.0202 J-0.0147
X3.8827 Y-10.832 Z0.0638 I0.0202 J0.0147
X3.8423 Y-10.8615 Z0.05 I-0.0202 J-0.0147
X3.8827 Y-10.832 Z0.0361 I0.0202 J0.0147
X3.8423 Y-10.8615 Z0.0223 I-0.0202 J-0.0147
X3.8827 Y-10.832 Z0.0084 I0.0202 J0.0147
X3.8423 Y-10.8615 Z-0.0054 I-0.0202 J-0.0147
X3.8827 Y-10.832 Z-0.0193 I0.0202 J0.0147
X3.8423 Y-10.8615 Z-0.0331 I-0.0202 J-0.0147
X3.8827 Y-10.832 Z-0.047 I0.0202 J0.0147
X3.8423 Y-10.8615 Z-0.0608 I-0.0202 J-0.0147
X3.8827 Y-10.832 Z-0.0747 I0.0202 J0.0147
X3.8423 Y-10.8615 Z-0.0885 I-0.0202 J-0.0147
X3.8827 Y-10.832 Z-0.1024 I0.0202 J0.0147
X3.8423 Y-10.8615 Z-0.1162 I-0.0202 J-0.0147
X3.8827 Y-10.832 Z-0.1301 I0.0202 J0.0147
X3.8423 Y-10.8615 Z-0.1439 I-0.0202 J-0.0147
X3.8875 Y-10.8467 Z-0.155 I0.0202 J0.0147
X3.8375 I-0.025 J0.
X3.8875 I0.025 J0.
X3.8535 Y-10.7802 I-0.0385 J0.0223 F60.
X3.8297 Y-10.8181 I0.0108 J-0.0332
G1 X3.8295 Y-10.8773
X3.8301 Y-10.8824
X3.8312 Y-10.8874
X3.8329 Y-10.8923
X3.8352 Y-10.8969
X3.8379 Y-10.9012
X3.8411 Y-10.9052
X3.8448 Y-10.9088
X3.8489 Y-10.9119
X3.8532 Y-10.9146
X3.8579 Y-10.9167
X3.8628 Y-10.9183
X3.8678 Y-10.9193
X3.8729 Y-10.9198
X3.878 Y-10.9197
X3.8831 Y-10.919
X3.8881 Y-10.9177
X3.8929 Y-10.9158
X3.8974 Y-10.9134
X3.8955 Y-10.8233
G3 X3.8535 Y-10.7802 I-0.0328 J0.0101
X3.8441 Y-10.7918 I0.0058 J-0.0143
G1 X3.8415 Y-10.8069
X3.8346 Y-10.8468
X3.8297 Y-10.8752 F50.
X3.8295 Y-10.8773
Y-10.9243 F60.
G3 X3.8955 Y-10.9683 I0.0441 J-0.0054
G1 Y-10.9102
G3 X3.8873 Y-10.8972 I-0.0154 J-0.0005
X3.871 Y-10.9022 I-0.0057 J-0.0106
X3.8759 Y-10.946 I0.0348 J-0.0183
X3.8873 Y-10.9553 I0.03 J0.0255 F50.
G2 X3.8955 Y-10.9683 I-0.0072 J-0.0136
G1 Y-10.9821 F60.
G2 X3.8276 Y-11.0116 I-0.0431 J0.0063
G1 X3.8295 Y-10.9243
G2 X3.8376 Y-10.9112 I0.0154 J-0.0005
X3.878 Y-10.9408 I0.0131 J-0.0245
X3.85 Y-10.9877 I-0.0774 J0.0144
X3.8376 Y-10.9959 I-0.0494 J0.0613 F50.
G3 X3.8295 Y-11.0089 I0.0072 J-0.0136
G1 Y-11.024 F60.
G3 X3.8974 Y-11.0587 I0.0452 J0.0046
G1 X3.8955 Y-10.9821
G3 X3.8873 Y-10.969 I-0.0154 J-0.0005
X3.8509 Y-11.0013 I-0.0122 J-0.0229
X3.875 Y-11.0342 I0.0735 J0.0284
X3.8873 Y-11.0424 I0.0494 J0.0613 F50.
G2 X3.8955 Y-11.0554 I-0.0072 J-0.0136
G1 Y-11.0709 F60.
G2 X3.8276 Y-11.1033 I-0.0446 J0.0061
G1 X3.8295 Y-11.024
G2 X3.8376 Y-11.0109 I0.0154 J-0.0005
X3.8752 Y-11.0428 I0.0125 J-0.0234
X3.85 Y-11.079 I-0.0746 J0.0251
X3.8376 Y-11.0871 I-0.0494 J0.0613 F50.
G3 X3.8295 Y-11.1002 I0.0072 J-0.0136
G1 Y-11.1148 F60.
G3 X3.8974 Y-11.1484 I0.0448 J0.0051
G1 X3.8955 Y-11.0709
G3 X3.8873 Y-11.0579 I-0.0154 J-0.0005
X3.8505 Y-11.09 I-0.0123 J-0.0231
X3.875 Y-11.1241 I0.0739 J0.0272
X3.8873 Y-11.1322 I0.0494 J0.0613 F50.
G2 X3.8955 Y-11.1453 I-0.0072 J-0.0136
G1 Y-11.159 F60.
G2 X3.8276 Y-11.1931 I-0.0447 J0.0043
G1 X3.8295 Y-11.1148
G2 X3.8376 Y-11.1017 I0.0154 J-0.0005
X3.8749 Y-11.1337 I0.0124 J-0.0232
X3.85 Y-11.1688 I-0.0742 J0.0262
X3.8376 Y-11.177 I-0.0494 J0.0613 F50.
G3 X3.8295 Y-11.19 I0.0072 J-0.0136
G1 Y-11.206 F60.
G3 X3.8974 Y-11.2384 I0.0447 J0.0063
G1 X3.8955 Y-11.159
G3 X3.8873 Y-11.146 I-0.0154 J-0.0005
X3.8497 Y-11.1778 I-0.0125 J-0.0234
X3.875 Y-11.214 I0.0746 J0.0251
X3.8873 Y-11.2222 I0.0494 J0.0613 F50.
G2 X3.8955 Y-11.2352 I-0.0072 J-0.0136
G1 Y-11.2497 F60.
G2 X3.8276 Y-11.2834 I-0.0448 J0.005
G1 X3.8295 Y-11.206
G2 X3.8376 Y-11.1929 I0.0154 J-0.0005
X3.8744 Y-11.225 I0.0123 J-0.0231
X3.85 Y-11.259 I-0.0738 J0.0273
X3.8376 Y-11.2672 I-0.0494 J0.0613 F50.
G3 X3.8295 Y-11.2802 I0.0072 J-0.0136
G1 Y-11.2949 F60.
G3 X3.8974 Y-11.3283 I0.0447 J0.0052
G1 X3.8955 Y-11.2497
G3 X3.8873 Y-11.2367 I-0.0154 J-0.0005
X3.8501 Y-11.2686 I-0.0124 J-0.0233
X3.875 Y-11.3039 I0.0743 J0.026
X3.8873 Y-11.3121 I0.0494 J0.0613 F50.
G2 X3.8955 Y-11.3251 I-0.0072 J-0.0136
G1 Y-11.3397 F60.
G2 X3.8276 Y-11.3732 I-0.0447 J0.005
G1 X3.8295 Y-11.2949
G2 X3.8376 Y-11.2818 I0.0154 J-0.0005
X3.8748 Y-11.3139 I0.0124 J-0.0232
X3.85 Y-11.3489 I-0.0742 J0.0263
X3.8376 Y-11.3571 I-0.0494 J0.0613 F50.
G3 X3.8295 Y-11.3701 I0.0072 J-0.0136
G1 Y-11.3836 F60.
G3 X3.8973 Y-11.418 I0.0447 J0.0041
G1 X3.8955 Y-11.3397
G3 X3.8873 Y-11.3266 I-0.0154 J-0.0005
X3.8502 Y-11.3587 I-0.0124 J-0.0232
X3.875 Y-11.3937 I0.0742 J0.0263
X3.8873 Y-11.4018 I0.0494 J0.0613 F50.
G2 X3.8955 Y-11.4149 I-0.0072 J-0.0136
G1 Y-11.4302 F60.
G2 X3.8276 Y-11.4631 I-0.0447 J0.0057
G1 X3.8295 Y-11.3836
G2 X3.8376 Y-11.3706 I0.0154 J-0.0005
X3.8753 Y-11.4024 I0.0125 J-0.0234
X3.85 Y-11.4387 I-0.0747 J0.025
X3.8376 Y-11.4469 I-0.0494 J0.0613 F50.
G3 X3.8295 Y-11.4599 I0.0072 J-0.0136
G1 Y-11.4747 F60.
G3 X3.8974 Y-11.5081 I0.0447 J0.0052
G1 X3.8955 Y-11.4302
G3 X3.8873 Y-11.4171 I-0.0154 J-0.0005
X3.8503 Y-11.4492 I-0.0123 J-0.0232
X3.875 Y-11.4838 I0.0741 J0.0267
X3.8873 Y-11.4919 I0.0494 J0.0613 F50.
G2 X3.8955 Y-11.505 I-0.0072 J-0.0136
G1 Y-11.5208 F60.
G2 X3.8276 Y-11.5533 I-0.0447 J0.0062
G1 X3.8295 Y-11.4747
G2 X3.8376 Y-11.4616 I0.0154 J-0.0005
X3.8749 Y-11.4936 I0.0124 J-0.0233
X3.85 Y-11.5289 I-0.0743 J0.026
X3.8376 Y-11.5371 I-0.0494 J0.0613 F50.
G3 X3.8295 Y-11.5501 I0.0072 J-0.0136
G1 Y-11.5639 F60.
G3 X3.8973 Y-11.5981 I0.0448 J0.0043
G1 X3.8955 Y-11.5208
G3 X3.8873 Y-11.5077 I-0.0154 J-0.0005
X3.8506 Y-11.5399 I-0.0123 J-0.0231
X3.875 Y-11.5738 I0.0738 J0.0274
X3.8873 Y-11.582 I0.0494 J0.0613 F50.
G2 X3.8955 Y-11.595 I-0.0072 J-0.0136
G1 Y-11.6108 F60.
G2 X3.8276 Y-11.6433 I-0.0447 J0.0062
G1 X3.8295 Y-11.5639
G2 X3.8376 Y-11.5508 I0.0154 J-0.0005
X3.8752 Y-11.5827 I0.0125 J-0.0234
X3.85 Y-11.6189 I-0.0746 J0.0251
X3.8376 Y-11.6271 I-0.0494 J0.0613 F50.
G3 X3.8295 Y-11.6401 I0.0072 J-0.0136
G1 Y-11.6547 F60.
G3 X3.8974 Y-11.6883 I0.0448 J0.0051
G1 X3.8955 Y-11.6108
G3 X3.8873 Y-11.5978 I-0.0154 J-0.0005
X3.8505 Y-11.6299 I-0.0123 J-0.0231
X3.875 Y-11.6639 I0.0739 J0.0273
X3.8873 Y-11.6721 I0.0494 J0.0613 F50.
G2 X3.8955 Y-11.6851 I-0.0072 J-0.0136
G1 Y-11.6989 F60.
G2 X3.8276 Y-11.733 I-0.0447 J0.0044
G1 X3.8295 Y-11.6547
G2 X3.8376 Y-11.6416 I0.0154 J-0.0005
X3.8748 Y-11.6736 I0.0124 J-0.0232
X3.85 Y-11.7087 I-0.0742 J0.0262
X3.8376 Y-11.7169 I-0.0494 J0.0613 F50.
G3 X3.8295 Y-11.7299 I0.0072 J-0.0136
G1 Y-11.7459 F60.
G3 X3.8974 Y-11.7783 I0.0447 J0.0063
G1 X3.8955 Y-11.6989
G3 X3.8873 Y-11.6859 I-0.0154 J-0.0005
X3.8497 Y-11.7177 I-0.0125 J-0.0234
X3.875 Y-11.7539 I0.0746 J0.0251
X3.8873 Y-11.7621 I0.0494 J0.0613 F50.
G2 X3.8955 Y-11.7751 I-0.0072 J-0.0136
G1 Y-11.7896 F60.
G2 X3.8276 Y-11.8233 I-0.0448 J0.005
G1 X3.8295 Y-11.7459
G2 X3.8376 Y-11.7328 I0.0154 J-0.0005
X3.8744 Y-11.7649 I0.0123 J-0.0231
X3.85 Y-11.7989 I-0.0738 J0.0274
X3.8376 Y-11.8071 I-0.0494 J0.0613 F50.
G3 X3.8295 Y-11.8201 I0.0072 J-0.0136
G1 Y-11.8348 F60.
G3 X3.8974 Y-11.8682 I0.0447 J0.0052
G1 X3.8955 Y-11.7896
G3 X3.8873 Y-11.7766 I-0.0154 J-0.0005
X3.8501 Y-11.8085 I-0.0124 J-0.0233
X3.875 Y-11.8438 I0.0743 J0.026
X3.8873 Y-11.852 I0.0494 J0.0613 F50.
G2 X3.8955 Y-11.865 I-0.0072 J-0.0136
G1 Y-11.8796 F60.
G2 X3.8276 Y-11.9131 I-0.0447 J0.0051
G1 X3.8295 Y-11.8348
G2 X3.8376 Y-11.8218 I0.0154 J-0.0005
X3.8748 Y-11.8538 I0.0124 J-0.0232
X3.85 Y-11.8888 I-0.0742 J0.0263
X3.8376 Y-11.8969 I-0.0494 J0.0613 F50.
G3 X3.8295 Y-11.91 I0.0072 J-0.0136
G1 Y-11.9235 F60.
G3 X3.8973 Y-11.9579 I0.0447 J0.0041
G1 X3.8955 Y-11.8796
G3 X3.8873 Y-11.8666 I-0.0154 J-0.0005
X3.8502 Y-11.8986 I-0.0124 J-0.0232
X3.875 Y-11.9336 I0.0742 J0.0263
X3.8873 Y-11.9417 I0.0494 J0.0613 F50.
G2 X3.8955 Y-11.9548 I-0.0072 J-0.0136
G1 Y-11.9701 F60.
G2 X3.8276 Y-12.003 I-0.0447 J0.0057
G1 X3.8295 Y-11.9235
G2 X3.8376 Y-11.9105 I0.0154 J-0.0005
X3.8753 Y-11.9423 I0.0125 J-0.0234
X3.85 Y-11.9786 I-0.0747 J0.025
X3.8376 Y-11.9868 I-0.0494 J0.0613 F50.
G3 X3.8295 Y-11.9998 I0.0072 J-0.0136
G1 Y-12.0146 F60.
G3 X3.8968 Y-12.0488 I0.0452 J0.0056
G1 X3.8969 Y-12.0457
X3.8964 Y-12.0426
X3.8954 Y-12.0397
X3.894 Y-12.0371
X3.8921 Y-12.0349
X3.8899 Y-12.0331
X3.8774 Y-12.0225
X3.8549 Y-12.0034
X3.8534 Y-12.0023
X3.8519 Y-12.0014
G3 X3.8295 Y-12.0146 I-0.007 J-0.0137 F50.
G1 Y-12.052 F60.
X3.8322 Y-12.0674
G3 X3.8744 Y-12.0889 I0.0311 J0.0088
X3.8927 Y-12.0452 I-0.0111 J0.0303
G1 X3.8955 Y-11.9701
G3 X3.8801 Y-11.9552 I-0.0154 J-0.0005
G1 X3.8777 Y-11.9554
X3.8753 Y-11.956
X3.8731 Y-11.9569
X3.8704 Y-11.9583 Z-0.1547
X3.8678 Y-11.9596 Z-0.1538
X3.8655 Y-11.9608 Z-0.1524
X3.8634 Y-11.9618 Z-0.1505
X3.8617 Y-11.9627 Z-0.1482
X3.8604 Y-11.9634 Z-0.1455
X3.8596 Y-11.9638 Z-0.1426
X3.8594 Y-11.9639 Z-0.1396
G0 Z0.6
(SHAPE THROUGH FINISHING PASS)
M7
G0 X-3.0145 Y-7.2796
Z0.6
Z0.2
G1 Z0.1 F13.333
Z-0.105
G19 G2 Y-7.3296 Z-0.155 J-0.05 K0. F40.
G1 Y-7.345
G17 G3 X-2.9645 Y-7.295 I0. J0.05
G1 Y-6.7657 F50.
G3 X-3.042 Y-6.6514 I-0.123 J0.
G2 X-3.1599 Y-6.5539 I0.092 J0.2314
G3 X-3.2637 Y-6.497 I-0.1037 J-0.0661
G1 X-3.3863
G3 X-3.49 Y-6.5539 I0. J-0.123
G2 X-3.5661 Y-6.63 I-0.21 J0.1339
G3 X-3.623 Y-6.7337 I0.0661 J-0.1037
G1 Y-7.52
G3 X-3.5 Y-7.643 I0.123 J0.
G1 X-3.2947
G3 X-3.2349 Y-7.6275 I0. J0.123
G2 X-3.0913 Y-7.5926 I0.1349 J-0.2425
G3 X-2.9645 Y-7.4697 I0.0038 J0.1229
G1 Y-7.295
G3 X-3.0145 Y-7.245 I-0.05 J0.
G1 Y-7.2604
G19 G2 Y-7.3104 Z-0.105 J0. K0.05
G0 Z0.4
X-3.9145 Y-12.0289
Z0.2
G1 Z0.1 F13.333
Z-0.105
G2 Y-12.0789 Z-0.155 J-0.05 K0. F40.
G1 Y-12.0943
G17 G3 X-3.8645 Y-12.0443 I0. J0.05
G1 Y-10.81 F50.
G3 X-3.9605 I-0.048 J0.
G1 Y-12.06
G3 X-3.8645 I0.048 J0.
G1 Y-12.0443
G3 X-3.9145 Y-11.9943 I-0.05 J0.
G1 Y-12.0097
G19 G2 Y-12.0597 Z-0.105 J0. K0.05
G0 Z0.4
X3.8605 Y-12.0289
Z0.2
G1 Z0.1 F13.333
Z-0.105
G2 Y-12.0789 Z-0.155 J-0.05 K0. F40.
G1 Y-12.0943
G17 G3 X3.9105 Y-12.0443 I0. J0.05
G1 Y-10.81 F50.
G3 X3.8145 I-0.048 J0.
G1 Y-12.06
G3 X3.9105 I0.048 J0.
G1 Y-12.0443
G3 X3.8605 Y-11.9943 I-0.05 J0.
G1 Y-12.0097
G19 G2 Y-12.0597 Z-0.105 J0. K0.05
G0 Z0.6
G17
(2D SLOT CUT)
M7
G0 X0.8467 Y-8.197
Z0.6
Z0.2
G1 Z0.1 F13.333
X-0.16 Z-0.0775 F40.
X-3.475 F55.
G3 X-3.523 Y-8.245 I0. J-0.048
G1 Y-14.875
G3 X-3.475 Y-14.923 I0.048 J0.
G1 X3.425
G3 X3.473 Y-14.875 I0. J0.048
G1 Y-8.245
G3 X3.425 Y-8.197 I-0.048 J0.
G1 X-0.16
X-0.8668 Z-0.155 F40.
X-3.475 F55.
G3 X-3.523 Y-8.245 I0. J-0.048
G1 Y-14.875
G3 X-3.475 Y-14.923 I0.048 J0.
G1 X3.425
G3 X3.473 Y-14.875 I0. J0.048
G1 Y-8.245
G3 X3.425 Y-8.197 I-0.048 J0.
G1 X-0.16
X-0.8668
G0 Z0.4
X3.977 Y-9.9548
Z0.2
G1 Z0.1 F13.333
Y-10.1486 Z0.0658 F40.
G3 X4.1039 Y-10.3153 Z0.0261 I0.173 J0.
G2 X4.252 Y-10.51 Z-0.0202 I-0.0539 J-0.1947
G1 Y-10.835 Z-0.0775
Y-11.0578 F55.
Z-0.075
Y-11.8118
Z-0.0775 F13.333
Y-12.625 F55.
G2 X4.1039 Y-12.8197 I-0.202 J0.
G3 X3.977 Y-12.9864 I0.0461 J-0.1667
G1 Y-15.375
G2 X3.775 Y-15.577 I-0.202 J0.
G1 X0.1457
Z-0.075
X-0.6083
Z-0.0775 F13.333
X-3.825 F55.
G2 X-4.027 Y-15.375 I0. J0.202
G1 Y-12.9864
G3 X-4.1539 Y-12.8197 I-0.173 J0.
G2 X-4.302 Y-12.625 I0.0539 J0.1947
G1 Y-11.9511
Z-0.075
Y-11.1971
Z-0.0775 F13.333
Y-10.51 F55.
G2 X-4.1539 Y-10.3153 I0.202 J0.
G3 X-4.027 Y-10.1486 I-0.0461 J0.1667
G1 Y-6.295
G2 X-3.825 Y-6.093 I0.202 J0.
G1 X-3.6093
Z-0.075
X-2.8553
Z-0.0775 F13.333
X-2.7625 F55.
G2 X-2.5605 Y-6.295 I0. J-0.202
G1 Y-7.47
G3 X-2.3875 Y-7.643 I0.173 J0.
G1 X0.4276
Z-0.075
X1.1816
Z-0.0775 F13.333
X2.67 F55.
G3 X2.7877 Y-7.5969 I0. J0.173
G2 X2.925 Y-7.543 I0.1373 J-0.1481
G1 X3.175
G2 X3.3123 Y-7.5969 I0. J-0.202
G3 X3.4299 Y-7.643 I0.1176 J0.1269
G1 X3.775
G2 X3.977 Y-7.845 I0. J-0.202
G1 Y-10.1486
G3 X4.1039 Y-10.3153 I0.173 J0.
G2 X4.252 Y-10.51 I-0.0539 J-0.1947
G1 Y-10.835
Y-11.0578 Z-0.0966 F40.
Z-0.075
Y-11.7398
Y-11.8118 F55.
Z-0.155 F13.333
Y-12.625 F55.
G2 X4.1039 Y-12.8197 I-0.202 J0.
G3 X3.977 Y-12.9864 I0.0461 J-0.1667
G1 Y-15.375
G2 X3.775 Y-15.577 I-0.202 J0.
G1 X0.1457
Z-0.075
X-0.6083
Z-0.155 F13.333
X-3.825 F55.
G2 X-4.027 Y-15.375 I0. J0.202
G1 Y-12.9864
G3 X-4.1539 Y-12.8197 I-0.173 J0.
G2 X-4.302 Y-12.625 I0.0539 J0.1947
G1 Y-11.9511
Z-0.075
Y-11.1971
Z-0.155 F13.333
Y-10.51 F55.
G2 X-4.1539 Y-10.3153 I0.202 J0.
G3 X-4.027 Y-10.1486 I-0.0461 J0.1667
G1 Y-6.295
G2 X-3.825 Y-6.093 I0.202 J0.
G1 X-3.6093
Z-0.075
X-2.8553
Z-0.155 F13.333
X-2.7625 F55.
G2 X-2.5605 Y-6.295 I0. J-0.202
G1 Y-7.47
G3 X-2.3875 Y-7.643 I0.173 J0.
G1 X0.4276
Z-0.075
X1.1816
Z-0.155 F13.333
X2.67 F55.
G3 X2.7877 Y-7.5969 I0. J0.173
G2 X2.925 Y-7.543 I0.1373 J-0.1481
G1 X3.175
G2 X3.3123 Y-7.5969 I0. J-0.202
G3 X3.4299 Y-7.643 I0.1176 J0.1269
G1 X3.775
G2 X3.977 Y-7.845 I0. J-0.202
G1 Y-10.1486
G3 X4.1039 Y-10.3153 I0.173 J0.
G2 X4.252 Y-10.51 I-0.0539 J-0.1947
G1 Y-11.0578
Z-0.075
Y-11.7398
G0 Z0.6
M9
G53 Z0.
M30
%
