%
(GEARBOX_1554)
(T1  D=0.1554 CR=0. - ZMIN=-0.3 - FLAT END MILL)
G90 G94 G17 G91.1
G64 P0.001 Q0.001
G20
G53 G0 Z0.
(SMALL HOLE BORE)
M9
T1 M6
S13000 M3
G4 P10.
G54
M7
G0 X-2.0011 Y-5.5119
G43 Z0.6 H1
G0 Z0.13
G1 Z0.0655 F35.
G19 G3 Y-5.4964 Z0.05 J0.0155 K0.
G1 Y-5.4886
G17 G3 X-2.0125 Y-5.4772 I-0.0114 J0.
Y-5.5228 Z0. I0. J-0.0228
Y-5.4772 Z-0.05 I0. J0.0228
Y-5.5228 Z-0.1 I0. J-0.0228
Y-5.4772 Z-0.15 I0. J0.0228
Y-5.5228 Z-0.2 I0. J-0.0228
Y-5.4772 Z-0.25 I0. J0.0228
Y-5.5228 Z-0.3 I0. J-0.0228
Y-5.4772 I0. J0.0228
Y-5.5228 I0. J-0.0228
X-2.0011 Y-5.5114 I0. J0.0114
G1 Y-5.5036
G19 G3 Y-5.4881 Z-0.2845 J0. K0.0155
G0 Z0.4
X-1.5011 Y-5.5119
Z0.13
G1 Z0.0655 F35.
G3 Y-5.4964 Z0.05 J0.0155 K0.
G1 Y-5.4886
G17 G3 X-1.5125 Y-5.4772 I-0.0114 J0.
Y-5.5228 Z0. I0. J-0.0228
Y-5.4772 Z-0.05 I0. J0.0228
Y-5.5228 Z-0.1 I0. J-0.0228
Y-5.4772 Z-0.15 I0. J0.0228
Y-5.5228 Z-0.2 I0. J-0.0228
Y-5.4772 Z-0.25 I0. J0.0228
Y-5.5228 Z-0.3 I0. J-0.0228
Y-5.4772 I0. J0.0228
Y-5.5228 I0. J-0.0228
X-1.5011 Y-5.5114 I0. J0.0114
G1 Y-5.5036
G19 G3 Y-5.4881 Z-0.2845 J0. K0.0155
G0 Z0.4
X-1.0011 Y-5.5119
Z0.13
G1 Z0.0655 F35.
G3 Y-5.4964 Z0.05 J0.0155 K0.
G1 Y-5.4886
G17 G3 X-1.0125 Y-5.4772 I-0.0114 J0.
Y-5.5228 Z0. I0. J-0.0228
Y-5.4772 Z-0.05 I0. J0.0228
Y-5.5228 Z-0.1 I0. J-0.0228
Y-5.4772 Z-0.15 I0. J0.0228
Y-5.5228 Z-0.2 I0. J-0.0228
Y-5.4772 Z-0.25 I0. J0.0228
Y-5.5228 Z-0.3 I0. J-0.0228
Y-5.4772 I0. J0.0228
Y-5.5228 I0. J-0.0228
X-1.0011 Y-5.5114 I0. J0.0114
G1 Y-5.5036
G19 G3 Y-5.4881 Z-0.2845 J0. K0.0155
G0 Z0.4
Y-6.0119
Z0.13
G1 Z0.0655 F35.
G3 Y-5.9964 Z0.05 J0.0155 K0.
G1 Y-5.9886
G17 G3 X-1.0125 Y-5.9772 I-0.0114 J0.
Y-6.0228 Z0. I0. J-0.0228
X-0.9908 Y-6.007 Z-0.02 I0. J0.0228
X-1.0342 Y-5.993 Z-0.07 I-0.0217 J0.007
X-0.9908 Y-6.007 Z-0.12 I0.0217 J-0.007
X-1.0259 Y-5.9816 Z-0.16 I-0.0217 J0.007
X-0.9991 Y-6.0184 Z-0.21 I0.0134 J-0.0184
X-1.0259 Y-5.9816 Z-0.26 I-0.0134 J0.0184
X-1.0125 Y-6.0228 Z-0.3 I0.0134 J-0.0184
Y-5.9772 I0. J0.0228
Y-6.0228 I0. J-0.0228
X-1.0011 Y-6.0114 I0. J0.0114
G1 Y-6.0036
G19 G3 Y-5.9881 Z-0.2845 J0. K0.0155
G0 Z0.4
X-1.5011 Y-6.0119
Z0.13
G1 Z0.0655 F35.
G3 Y-5.9964 Z0.05 J0.0155 K0.
G1 Y-5.9886
G17 G3 X-1.5125 Y-5.9772 I-0.0114 J0.
Y-6.0228 Z0. I0. J-0.0228
X-1.4908 Y-6.007 Z-0.02 I0. J0.0228
X-1.5342 Y-5.993 Z-0.07 I-0.0217 J0.007
X-1.4908 Y-6.007 Z-0.12 I0.0217 J-0.007
X-1.5259 Y-5.9816 Z-0.16 I-0.0217 J0.007
X-1.4991 Y-6.0184 Z-0.21 I0.0134 J-0.0184
X-1.5259 Y-5.9816 Z-0.26 I-0.0134 J0.0184
X-1.5125 Y-6.0228 Z-0.3 I0.0134 J-0.0184
Y-5.9772 I0. J0.0228
Y-6.0228 I0. J-0.0228
X-1.5011 Y-6.0114 I0. J0.0114
G1 Y-6.0036
G19 G3 Y-5.9881 Z-0.2845 J0. K0.0155
G0 Z0.4
X-2.0011 Y-6.0119
Z0.13
G1 Z0.0655 F35.
G3 Y-5.9964 Z0.05 J0.0155 K0.
G1 Y-5.9886
G17 G3 X-2.0125 Y-5.9772 I-0.0114 J0.
Y-6.0228 Z0. I0. J-0.0228
X-1.9908 Y-6.007 Z-0.02 I0. J0.0228
X-2.0342 Y-5.993 Z-0.07 I-0.0217 J0.007
X-1.9908 Y-6.007 Z-0.12 I0.0217 J-0.007
X-2.0259 Y-5.9816 Z-0.16 I-0.0217 J0.007
X-1.9991 Y-6.0184 Z-0.21 I0.0134 J-0.0184
X-2.0259 Y-5.9816 Z-0.26 I-0.0134 J0.0184
X-2.0125 Y-6.0228 Z-0.3 I0.0134 J-0.0184
Y-5.9772 I0. J0.0228
Y-6.0228 I0. J-0.0228
X-2.0011 Y-6.0114 I0. J0.0114
G1 Y-6.0036
G19 G3 Y-5.9881 Z-0.2845 J0. K0.0155
G0 Z0.4
Y-6.5119
Z0.13
G1 Z0.0655 F35.
G3 Y-6.4964 Z0.05 J0.0155 K0.
G1 Y-6.4886
G17 G3 X-2.0125 Y-6.4772 I-0.0114 J0.
Y-6.5228 Z0. I0. J-0.0228
Y-6.4772 Z-0.05 I0. J0.0228
Y-6.5228 Z-0.1 I0. J-0.0228
Y-6.4772 Z-0.15 I0. J0.0228
X-2.0259 Y-6.4816 Z-0.16 I0. J-0.0228
X-1.9991 Y-6.5184 Z-0.21 I0.0134 J-0.0184
X-1.9908 Y-6.493 Z-0.23 I-0.0134 J0.0184
X-2.0342 Y-6.507 Z-0.28 I-0.0217 J-0.007
X-2.0125 Y-6.5228 Z-0.3 I0.0217 J0.007
Y-6.4772 I0. J0.0228
Y-6.5228 I0. J-0.0228
X-2.0011 Y-6.5114 I0. J0.0114
G1 Y-6.5036
G19 G3 Y-6.4881 Z-0.2845 J0. K0.0155
G0 Z0.4
X-1.5011 Y-6.5119
Z0.13
G1 Z0.0655 F35.
G3 Y-6.4964 Z0.05 J0.0155 K0.
G1 Y-6.4886
G17 G3 X-1.5125 Y-6.4772 I-0.0114 J0.
Y-6.5228 Z0. I0. J-0.0228
Y-6.4772 Z-0.05 I0. J0.0228
Y-6.5228 Z-0.1 I0. J-0.0228
Y-6.4772 Z-0.15 I0. J0.0228
X-1.5259 Y-6.4816 Z-0.16 I0. J-0.0228
X-1.4991 Y-6.5184 Z-0.21 I0.0134 J-0.0184
X-1.4908 Y-6.493 Z-0.23 I-0.0134 J0.0184
X-1.5342 Y-6.507 Z-0.28 I-0.0217 J-0.007
X-1.5125 Y-6.5228 Z-0.3 I0.0217 J0.007
Y-6.4772 I0. J0.0228
Y-6.5228 I0. J-0.0228
X-1.5011 Y-6.5114 I0. J0.0114
G1 Y-6.5036
G19 G3 Y-6.4881 Z-0.2845 J0. K0.0155
G0 Z0.4
X-1.0011 Y-6.5119
Z0.13
G1 Z0.0655 F35.
G3 Y-6.4964 Z0.05 J0.0155 K0.
G1 Y-6.4886
G17 G3 X-1.0125 Y-6.4772 I-0.0114 J0.
Y-6.5228 Z0. I0. J-0.0228
Y-6.4772 Z-0.05 I0. J0.0228
Y-6.5228 Z-0.1 I0. J-0.0228
Y-6.4772 Z-0.15 I0. J0.0228
X-1.0259 Y-6.4816 Z-0.16 I0. J-0.0228
X-0.9991 Y-6.5184 Z-0.21 I0.0134 J-0.0184
X-0.9908 Y-6.493 Z-0.23 I-0.0134 J0.0184
X-1.0342 Y-6.507 Z-0.28 I-0.0217 J-0.007
X-1.0125 Y-6.5228 Z-0.3 I0.0217 J0.007
Y-6.4772 I0. J0.0228
Y-6.5228 I0. J-0.0228
X-1.0011 Y-6.5114 I0. J0.0114
G1 Y-6.5036
G19 G3 Y-6.4881 Z-0.2845 J0. K0.0155
G0 Z0.4
X1.4989 Y-5.5119
Z0.13
G1 Z0.0655 F35.
G3 Y-5.4964 Z0.05 J0.0155 K0.
G1 Y-5.4886
G17 G3 X1.4875 Y-5.4772 I-0.0114 J0.
Y-5.5228 Z0. I0. J-0.0228
Y-5.4772 Z-0.05 I0. J0.0228
Y-5.5228 Z-0.1 I0. J-0.0228
Y-5.4772 Z-0.15 I0. J0.0228
Y-5.5228 Z-0.2 I0. J-0.0228
Y-5.4772 Z-0.25 I0. J0.0228
Y-5.5228 Z-0.3 I0. J-0.0228
Y-5.4772 I0. J0.0228
Y-5.5228 I0. J-0.0228
X1.4989 Y-5.5114 I0. J0.0114
G1 Y-5.5036
G19 G3 Y-5.4881 Z-0.2845 J0. K0.0155
G0 Z0.4
X1.9989 Y-5.5119
Z0.13
G1 Z0.0655 F35.
G3 Y-5.4964 Z0.05 J0.0155 K0.
G1 Y-5.4886
G17 G3 X1.9875 Y-5.4772 I-0.0114 J0.
Y-5.5228 Z0. I0. J-0.0228
Y-5.4772 Z-0.05 I0. J0.0228
Y-5.5228 Z-0.1 I0. J-0.0228
Y-5.4772 Z-0.15 I0. J0.0228
Y-5.5228 Z-0.2 I0. J-0.0228
Y-5.4772 Z-0.25 I0. J0.0228
Y-5.5228 Z-0.3 I0. J-0.0228
Y-5.4772 I0. J0.0228
Y-5.5228 I0. J-0.0228
X1.9989 Y-5.5114 I0. J0.0114
G1 Y-5.5036
G19 G3 Y-5.4881 Z-0.2845 J0. K0.0155
G0 Z0.4
X2.4989 Y-5.5119
Z0.13
G1 Z0.0655 F35.
G3 Y-5.4964 Z0.05 J0.0155 K0.
G1 Y-5.4886
G17 G3 X2.4875 Y-5.4772 I-0.0114 J0.
Y-5.5228 Z0. I0. J-0.0228
Y-5.4772 Z-0.05 I0. J0.0228
Y-5.5228 Z-0.1 I0. J-0.0228
Y-5.4772 Z-0.15 I0. J0.0228
Y-5.5228 Z-0.2 I0. J-0.0228
Y-5.4772 Z-0.25 I0. J0.0228
Y-5.5228 Z-0.3 I0. J-0.0228
Y-5.4772 I0. J0.0228
Y-5.5228 I0. J-0.0228
X2.4989 Y-5.5114 I0. J0.0114
G1 Y-5.5036
G19 G3 Y-5.4881 Z-0.2845 J0. K0.0155
G0 Z0.4
Y-6.0119
Z0.13
G1 Z0.0655 F35.
G3 Y-5.9964 Z0.05 J0.0155 K0.
G1 Y-5.9886
G17 G3 X2.4875 Y-5.9772 I-0.0114 J0.
Y-6.0228 Z0. I0. J-0.0228
X2.5092 Y-6.007 Z-0.02 I0. J0.0228
X2.4658 Y-5.993 Z-0.07 I-0.0217 J0.007
X2.5092 Y-6.007 Z-0.12 I0.0217 J-0.007
X2.4741 Y-5.9816 Z-0.16 I-0.0217 J0.007
X2.5009 Y-6.0184 Z-0.21 I0.0134 J-0.0184
X2.4741 Y-5.9816 Z-0.26 I-0.0134 J0.0184
X2.4875 Y-6.0228 Z-0.3 I0.0134 J-0.0184
Y-5.9772 I0. J0.0228
Y-6.0228 I0. J-0.0228
X2.4989 Y-6.0114 I0. J0.0114
G1 Y-6.0036
G19 G3 Y-5.9881 Z-0.2845 J0. K0.0155
G0 Z0.4
X1.9989 Y-6.0119
Z0.13
G1 Z0.0655 F35.
G3 Y-5.9964 Z0.05 J0.0155 K0.
G1 Y-5.9886
G17 G3 X1.9875 Y-5.9772 I-0.0114 J0.
Y-6.0228 Z0. I0. J-0.0228
X2.0092 Y-6.007 Z-0.02 I0. J0.0228
X1.9658 Y-5.993 Z-0.07 I-0.0217 J0.007
X2.0092 Y-6.007 Z-0.12 I0.0217 J-0.007
X1.9741 Y-5.9816 Z-0.16 I-0.0217 J0.007
X2.0009 Y-6.0184 Z-0.21 I0.0134 J-0.0184
X1.9741 Y-5.9816 Z-0.26 I-0.0134 J0.0184
X1.9875 Y-6.0228 Z-0.3 I0.0134 J-0.0184
Y-5.9772 I0. J0.0228
Y-6.0228 I0. J-0.0228
X1.9989 Y-6.0114 I0. J0.0114
G1 Y-6.0036
G19 G3 Y-5.9881 Z-0.2845 J0. K0.0155
G0 Z0.4
X1.4989 Y-6.0119
Z0.13
G1 Z0.0655 F35.
G3 Y-5.9964 Z0.05 J0.0155 K0.
G1 Y-5.9886
G17 G3 X1.4875 Y-5.9772 I-0.0114 J0.
Y-6.0228 Z0. I0. J-0.0228
X1.5092 Y-6.007 Z-0.02 I0. J0.0228
X1.4658 Y-5.993 Z-0.07 I-0.0217 J0.007
X1.5092 Y-6.007 Z-0.12 I0.0217 J-0.007
X1.4741 Y-5.9816 Z-0.16 I-0.0217 J0.007
X1.5009 Y-6.0184 Z-0.21 I0.0134 J-0.0184
X1.4741 Y-5.9816 Z-0.26 I-0.0134 J0.0184
X1.4875 Y-6.0228 Z-0.3 I0.0134 J-0.0184
Y-5.9772 I0. J0.0228
Y-6.0228 I0. J-0.0228
X1.4989 Y-6.0114 I0. J0.0114
G1 Y-6.0036
G19 G3 Y-5.9881 Z-0.2845 J0. K0.0155
G0 Z0.4
Y-6.5119
Z0.13
G1 Z0.0655 F35.
G3 Y-6.4964 Z0.05 J0.0155 K0.
G1 Y-6.4886
G17 G3 X1.4875 Y-6.4772 I-0.0114 J0.
Y-6.5228 Z0. I0. J-0.0228
Y-6.4772 Z-0.05 I0. J0.0228
Y-6.5228 Z-0.1 I0. J-0.0228
Y-6.4772 Z-0.15 I0. J0.0228
Y-6.5228 Z-0.2 I0. J-0.0228
X1.5092 Y-6.493 Z-0.23 I0. J0.0228
X1.4658 Y-6.507 Z-0.28 I-0.0217 J-0.007
X1.4875 Y-6.5228 Z-0.3 I0.0217 J0.007
Y-6.4772 I0. J0.0228
Y-6.5228 I0. J-0.0228
X1.4989 Y-6.5114 I0. J0.0114
G1 Y-6.5036
G19 G3 Y-6.4881 Z-0.2845 J0. K0.0155
G0 Z0.4
X1.9989 Y-6.5119
Z0.13
G1 Z0.0655 F35.
G3 Y-6.4964 Z0.05 J0.0155 K0.
G1 Y-6.4886
G17 G3 X1.9875 Y-6.4772 I-0.0114 J0.
Y-6.5228 Z0. I0. J-0.0228
Y-6.4772 Z-0.05 I0. J0.0228
Y-6.5228 Z-0.1 I0. J-0.0228
Y-6.4772 Z-0.15 I0. J0.0228
X1.9741 Y-6.4816 Z-0.16 I0. J-0.0228
X2.0009 Y-6.5184 Z-0.21 I0.0134 J-0.0184
X2.0092 Y-6.493 Z-0.23 I-0.0134 J0.0184
X1.9658 Y-6.507 Z-0.28 I-0.0217 J-0.007
X1.9875 Y-6.5228 Z-0.3 I0.0217 J0.007
Y-6.4772 I0. J0.0228
Y-6.5228 I0. J-0.0228
X1.9989 Y-6.5114 I0. J0.0114
G1 Y-6.5036
G19 G3 Y-6.4881 Z-0.2845 J0. K0.0155
G0 Z0.4
X2.4989 Y-6.5119
Z0.13
G1 Z0.0655 F35.
G3 Y-6.4964 Z0.05 J0.0155 K0.
G1 Y-6.4886
G17 G3 X2.4875 Y-6.4772 I-0.0114 J0.
Y-6.5228 Z0. I0. J-0.0228
Y-6.4772 Z-0.05 I0. J0.0228
Y-6.5228 Z-0.1 I0. J-0.0228
Y-6.4772 Z-0.15 I0. J0.0228
X2.4741 Y-6.4816 Z-0.16 I0. J-0.0228
X2.5009 Y-6.5184 Z-0.21 I0.0134 J-0.0184
X2.5092 Y-6.493 Z-0.23 I-0.0134 J0.0184
X2.4658 Y-6.507 Z-0.28 I-0.0217 J-0.007
X2.4875 Y-6.5228 Z-0.3 I0.0217 J0.007
Y-6.4772 I0. J0.0228
Y-6.5228 I0. J-0.0228
X2.4989 Y-6.5114 I0. J0.0114
G1 Y-6.5036
G19 G3 Y-6.4881 Z-0.2845 J0. K0.0155
G0 Z0.4
X1.9982 Y-7.5634
Z0.1145
G1 Z0.05 F35.
X1.9977 Y-7.5639
G17 G3 X1.9982 Y-7.5644 I0.0005 J0.
Y-7.5624 Z0. I0. J0.001
X1.9972 Y-7.5631 Z-0.02 I0. J-0.001
X1.9992 Y-7.5637 Z-0.07 I0.001 J-0.0003
X1.9988 Y-7.5626 Z-0.09 I-0.001 J0.0003
X1.9976 Y-7.5642 Z-0.14 I-0.0006 J-0.0008
X1.9988 Z-0.16 I0.0006 J0.0008
X1.9976 Y-7.5626 Z-0.21 I-0.0006 J0.0008
X1.9972 Y-7.5637 Z-0.23 I0.0006 J-0.0008
X1.9992 Y-7.5631 Z-0.28 I0.001 J0.0003
X1.9982 Y-7.5624 Z-0.3 I-0.001 J-0.0003
Y-7.5644 I0. J-0.001
Y-7.5624 I0. J0.001
X1.9977 Y-7.5629 I0. J-0.0005
G1 X1.9982 Y-7.5634
G0 Z0.4
X2.7854 Y-7.7434
Z0.1145
G1 Z0.05 F35.
X2.7849 Y-7.7439
G3 X2.7854 Y-7.7444 I0.0005 J0.
Y-7.7424 Z0. I0. J0.001
Y-7.7444 Z-0.05 I0. J-0.001
X2.786 Y-7.7426 Z-0.09 I0. J0.001
X2.7848 Y-7.7442 Z-0.14 I-0.0006 J-0.0008
X2.786 Z-0.16 I0.0006 J0.0008
X2.7848 Y-7.7426 Z-0.21 I-0.0006 J0.0008
X2.786 Y-7.7442 Z-0.26 I0.0006 J-0.0008
X2.7854 Y-7.7424 Z-0.3 I-0.0006 J0.0008
Y-7.7444 I0. J-0.001
Y-7.7424 I0. J0.001
X2.7849 Y-7.7429 I0. J-0.0005
G1 X2.7854 Y-7.7434
G0 Z0.4
X2.6054 Y-8.5306
Z0.1145
G1 Z0.05 F35.
X2.6049 Y-8.5311
G3 X2.6054 Y-8.5316 I0.0005 J0.
Y-8.5296 Z0. I0. J0.001
X2.6044 Y-8.5303 Z-0.02 I0. J-0.001
X2.6064 Y-8.5309 Z-0.07 I0.001 J-0.0003
X2.606 Y-8.5298 Z-0.09 I-0.001 J0.0003
X2.6048 Y-8.5314 Z-0.14 I-0.0006 J-0.0008
X2.606 Z-0.16 I0.0006 J0.0008
X2.6048 Y-8.5298 Z-0.21 I-0.0006 J0.0008
X2.6044 Y-8.5309 Z-0.23 I0.0006 J-0.0008
X2.6064 Y-8.5303 Z-0.28 I0.001 J0.0003
X2.6054 Y-8.5296 Z-0.3 I-0.001 J-0.0003
Y-8.5316 I0. J-0.001
Y-8.5296 I0. J0.001
X2.6049 Y-8.5301 I0. J-0.0005
G1 X2.6054 Y-8.5306
G0 Z0.4
X1.8182 Y-8.3506
Z0.1145
G1 Z0.05 F35.
X1.8177 Y-8.3511
G3 X1.8182 Y-8.3516 I0.0005 J0.
Y-8.3496 Z0. I0. J0.001
Y-8.3516 Z-0.05 I0. J-0.001
X1.8188 Y-8.3498 Z-0.09 I0. J0.001
X1.8176 Y-8.3514 Z-0.14 I-0.0006 J-0.0008
X1.8188 Z-0.16 I0.0006 J0.0008
X1.8176 Y-8.3498 Z-0.21 I-0.0006 J0.0008
X1.8188 Y-8.3514 Z-0.26 I0.0006 J-0.0008
X1.8182 Y-8.3496 Z-0.3 I-0.0006 J0.0008
Y-8.3516 I0. J-0.001
Y-8.3496 I0. J0.001
X1.8177 Y-8.3501 I0. J-0.0005
G1 X1.8182 Y-8.3506
G0 Z0.4
X6.1489 Y-6.5869
Z0.13
G1 Z0.0655 F35.
G19 G3 Y-6.5714 Z0.05 J0.0155 K0.
G1 Y-6.5636
G17 G3 X6.1375 Y-6.5522 I-0.0114 J0.
Y-6.5978 Z0. I0. J-0.0228
Y-6.5522 Z-0.05 I0. J0.0228
Y-6.5978 Z-0.1 I0. J-0.0228
Y-6.5522 Z-0.15 I0. J0.0228
X6.1241 Y-6.5566 Z-0.16 I0. J-0.0228
X6.1509 Y-6.5934 Z-0.21 I0.0134 J-0.0184
X6.1592 Y-6.568 Z-0.23 I-0.0134 J0.0184
X6.1158 Y-6.582 Z-0.28 I-0.0217 J-0.007
X6.1375 Y-6.5978 Z-0.3 I0.0217 J0.007
Y-6.5522 I0. J0.0228
Y-6.5978 I0. J-0.0228
X6.1489 Y-6.5864 I0. J0.0114
G1 Y-6.5786
G19 G3 Y-6.5631 Z-0.2845 J0. K0.0155
G0 Z0.4
X4.9989 Y-6.5869
Z0.13
G1 Z0.0655 F35.
G3 Y-6.5714 Z0.05 J0.0155 K0.
G1 Y-6.5636
G17 G3 X4.9875 Y-6.5522 I-0.0114 J0.
Y-6.5978 Z0. I0. J-0.0228
Y-6.5522 Z-0.05 I0. J0.0228
Y-6.5978 Z-0.1 I0. J-0.0228
Y-6.5522 Z-0.15 I0. J0.0228
Y-6.5978 Z-0.2 I0. J-0.0228
X5.0092 Y-6.568 Z-0.23 I0. J0.0228
X4.9658 Y-6.582 Z-0.28 I-0.0217 J-0.007
X4.9875 Y-6.5978 Z-0.3 I0.0217 J0.007
Y-6.5522 I0. J0.0228
Y-6.5978 I0. J-0.0228
X4.9989 Y-6.5864 I0. J0.0114
G1 Y-6.5786
G19 G3 Y-6.5631 Z-0.2845 J0. K0.0155
G0 Z0.4
Y-5.4369
Z0.13
G1 Z0.0655 F35.
G3 Y-5.4214 Z0.05 J0.0155 K0.
G1 Y-5.4136
G17 G3 X4.9875 Y-5.4022 I-0.0114 J0.
Y-5.4478 Z0. I0. J-0.0228
Y-5.4022 Z-0.05 I0. J0.0228
Y-5.4478 Z-0.1 I0. J-0.0228
Y-5.4022 Z-0.15 I0. J0.0228
Y-5.4478 Z-0.2 I0. J-0.0228
Y-5.4022 Z-0.25 I0. J0.0228
Y-5.4478 Z-0.3 I0. J-0.0228
Y-5.4022 I0. J0.0228
Y-5.4478 I0. J-0.0228
X4.9989 Y-5.4364 I0. J0.0114
G1 Y-5.4286
G19 G3 Y-5.4131 Z-0.2845 J0. K0.0155
G0 Z0.4
X6.1489 Y-5.4369
Z0.13
G1 Z0.0655 F35.
G3 Y-5.4214 Z0.05 J0.0155 K0.
G1 Y-5.4136
G17 G3 X6.1375 Y-5.4022 I-0.0114 J0.
Y-5.4478 Z0. I0. J-0.0228
Y-5.4022 Z-0.05 I0. J0.0228
X6.1241 Y-5.4434 Z-0.09 I0. J-0.0228
X6.1509 Y-5.4066 Z-0.14 I0.0134 J0.0184
X6.1241 Y-5.4434 Z-0.19 I-0.0134 J-0.0184
X6.1509 Y-5.4066 Z-0.24 I0.0134 J0.0184
X6.1241 Y-5.4434 Z-0.29 I-0.0134 J-0.0184
X6.1375 Y-5.4478 Z-0.3 I0.0134 J0.0184
Y-5.4022 I0. J0.0228
Y-5.4478 I0. J-0.0228
X6.1489 Y-5.4364 I0. J0.0114
G1 Y-5.4286
G19 G3 Y-5.4131 Z-0.2845 J0. K0.0155
G0 Z0.6
G17
(2D POCKET)
M7
G0 X2.8591 Y-8.1814
Z0.6
Z0.2
G1 Z0.1 F13.333
G3 X2.8736 Y-8.0061 Z0.0688 I-0.5573 J0.1344
X2.8712 Y-8.0039 Z0.0682 I-0.0023 J-0.0002
X2.869 Y-8.0064 Z0.0676 I0.0002 J-0.0023
G2 X2.8697 Y-8.0175 Z0.0656 I-0.5672 J-0.0406
X2.795 Y-8.3301 Z0.0082 I-0.5679 J-0.0295
G3 X2.7958 Y-8.3332 Z0.0075 I0.002 J-0.0012
X2.799 Y-8.3324 Z0.0069 I0.0012 J0.002
X2.8736 Y-8.0061 Z-0.053 I-0.4972 J0.2854
X2.8712 Y-8.0039 Z-0.0537 I-0.0023 J-0.0002
X2.869 Y-8.0064 Z-0.0543 I0.0002 J-0.0023
G2 X2.8697 Y-8.0175 Z-0.0563 I-0.5672 J-0.0406
X2.795 Y-8.3301 Z-0.1137 I-0.5679 J-0.0295
G3 X2.7958 Y-8.3332 Z-0.1144 I0.002 J-0.0012
X2.799 Y-8.3324 Z-0.115 I0.0012 J0.002
X2.8736 Y-8.0061 Z-0.1749 I-0.4972 J0.2854
X2.8712 Y-8.0039 Z-0.1755 I-0.0023 J-0.0002
X2.869 Y-8.0064 Z-0.1762 I0.0002 J-0.0023
G2 X2.8697 Y-8.0175 Z-0.1781 I-0.5672 J-0.0406
X2.795 Y-8.3301 Z-0.2356 I-0.5679 J-0.0295
G3 X2.7958 Y-8.3332 Z-0.2362 I0.002 J-0.0012
X2.799 Y-8.3324 Z-0.2369 I0.0012 J0.002
X2.8736 Y-8.0061 Z-0.2968 I-0.4972 J0.2854
X2.8712 Y-8.0039 Z-0.2974 I-0.0023 J-0.0002
X2.869 Y-8.0064 Z-0.298 I0.0002 J-0.0023
G2 X2.8697 Y-8.0175 Z-0.3 I-0.5672 J-0.0406
X2.795 Y-8.3301 I-0.5679 J-0.0295 F35.
G3 X2.7958 Y-8.3332 I0.002 J-0.0012
X2.799 Y-8.3324 I0.0012 J0.002
X2.8736 Y-8.0061 I-0.4972 J0.2854
X2.8712 Y-8.0039 I-0.0023 J-0.0002
X2.869 Y-8.0064 I0.0002 J-0.0023
G2 X2.8697 Y-8.0175 I-0.5672 J-0.0406
G0 Z0.4
X2.3463 Y-8.0936
Z0.2
G1 Z0.1 F13.333
G3 X2.4608 Y-8.0004 Z0.0591 I0.0572 J0.0466
X2.3463 Y-8.0936 Z0.0182 I-0.0572 J-0.0466
X2.4608 Y-8.0004 Z-0.0227 I0.0572 J0.0466
X2.3463 Y-8.0936 Z-0.0636 I-0.0572 J-0.0466
X2.4608 Y-8.0004 Z-0.1044 I0.0572 J0.0466
X2.3463 Y-8.0936 Z-0.1453 I-0.0572 J-0.0466
X2.4608 Y-8.0004 Z-0.1862 I0.0572 J0.0466
X2.3463 Y-8.0936 Z-0.2271 I-0.0572 J-0.0466
X2.4608 Y-8.0004 Z-0.268 I0.0572 J0.0466
X2.3297 Y-8.047 Z-0.3 I-0.0572 J-0.0466
X2.4214 I0.0459 J0. F35.
X2.1821 I-0.1197 J0.
X2.5691 I0.1935 J0.
X2.0345 I-0.2673 J0.
X2.5691 I0.2673 J0.
G0 Z0.4
X2.4238 Y-7.4915
Z0.2
G1 Z0.1 F13.333
G2 X2.5849 Y-7.5538 Z0.0694 I-0.122 J-0.5555
G3 X2.588 Y-7.5529 Z0.0688 I0.0011 J0.002
X2.5872 Y-7.5498 Z0.0682 I-0.002 J0.0011
X2.2609 Y-7.4752 Z0.0083 I-0.2854 J-0.4972
X2.2587 Y-7.4776 Z0.0076 I0.0001 J-0.0023
X2.2612 Y-7.4797 Z0.007 I0.0023 J0.0002
G2 X2.5849 Y-7.5538 Z-0.0524 I0.0406 J-0.5673
G3 X2.588 Y-7.5529 Z-0.0531 I0.0011 J0.002
X2.5872 Y-7.5498 Z-0.0537 I-0.002 J0.0011
X2.2609 Y-7.4752 Z-0.1136 I-0.2854 J-0.4972
X2.2587 Y-7.4776 Z-0.1142 I0.0001 J-0.0023
X2.2612 Y-7.4797 Z-0.1149 I0.0023 J0.0002
G2 X2.5849 Y-7.5538 Z-0.1743 I0.0406 J-0.5673
G3 X2.588 Y-7.5529 Z-0.1749 I0.0011 J0.002
X2.5872 Y-7.5498 Z-0.1755 I-0.002 J0.0011
X2.5743 Y-7.5426 Z-0.1781 I-0.2854 J-0.4972
X2.2609 Y-7.4752 Z-0.2354 I-0.2725 J-0.5044
X2.2587 Y-7.4776 Z-0.2361 I0.0001 J-0.0023
X2.2612 Y-7.4797 Z-0.2367 I0.0023 J0.0002
G2 X2.5849 Y-7.5538 Z-0.2961 I0.0406 J-0.5673
G3 X2.588 Y-7.5529 Z-0.2968 I0.0011 J0.002
X2.5872 Y-7.5498 Z-0.2974 I-0.002 J0.0011
X2.5743 Y-7.5426 Z-0.3 I-0.2854 J-0.4972
X2.2609 Y-7.4752 I-0.2725 J-0.5044 F35.
X2.2587 Y-7.4776 I0.0001 J-0.0023
X2.2612 Y-7.4797 I0.0023 J0.0002
G2 X2.5849 Y-7.5538 I0.0406 J-0.5673
G3 X2.588 Y-7.5529 I0.0011 J0.002
X2.5872 Y-7.5498 I-0.002 J0.0011
X2.5743 Y-7.5426 I-0.2854 J-0.4972
G0 Z0.4
X1.7456 Y-7.9283
Z0.2
G1 Z0.1 F13.333
G2 X1.8086 Y-7.7639 Z0.0688 I0.5562 J-0.1187
G3 X1.8077 Y-7.7608 Z0.0682 I-0.002 J0.0012
X1.8046 Y-7.7616 Z0.0676 I-0.0012 J-0.002
X1.7991 Y-7.7713 Z0.0656 I0.4972 J-0.2854
X1.7299 Y-8.0879 Z0.0077 I0.5027 J-0.2757
X1.7324 Y-8.09 Z0.007 I0.0023 J0.0002
X1.7345 Y-8.0876 Z0.0064 I-0.0002 J0.0023
G2 X1.8086 Y-7.7639 Z-0.053 I0.5672 J0.0406
G3 X1.8077 Y-7.7608 Z-0.0537 I-0.002 J0.0012
X1.8046 Y-7.7616 Z-0.0543 I-0.0012 J-0.002
X1.7991 Y-7.7713 Z-0.0563 I0.4972 J-0.2854
X1.7299 Y-8.0879 Z-0.1142 I0.5027 J-0.2757
X1.7324 Y-8.09 Z-0.1148 I0.0023 J0.0002
X1.7345 Y-8.0876 Z-0.1155 I-0.0002 J0.0023
G2 X1.8086 Y-7.7639 Z-0.1749 I0.5672 J0.0406
G3 X1.8077 Y-7.7608 Z-0.1755 I-0.002 J0.0012
X1.8046 Y-7.7616 Z-0.1762 I-0.0012 J-0.002
X1.7991 Y-7.7713 Z-0.1781 I0.4972 J-0.2854
X1.7299 Y-8.0879 Z-0.2361 I0.5027 J-0.2757
X1.7324 Y-8.09 Z-0.2367 I0.0023 J0.0002
X1.7345 Y-8.0876 Z-0.2373 I-0.0002 J0.0023
G2 X1.8086 Y-7.7639 Z-0.2968 I0.5672 J0.0406
G3 X1.8077 Y-7.7608 Z-0.2974 I-0.002 J0.0012
X1.8046 Y-7.7616 Z-0.298 I-0.0012 J-0.002
X1.7991 Y-7.7713 Z-0.3 I0.4972 J-0.2854
X1.7299 Y-8.0879 I0.5027 J-0.2757 F35.
X1.7324 Y-8.09 I0.0023 J0.0002
X1.7345 Y-8.0876 I-0.0002 J0.0023
G2 X1.8086 Y-7.7639 I0.5672 J0.0406
G3 X1.8077 Y-7.7608 I-0.002 J0.0012
X1.8046 Y-7.7616 I-0.0012 J-0.002
X1.7991 Y-7.7713 I0.4972 J-0.2854
G0 Z0.4
X2.1709 Y-8.6052
Z0.2
G1 Z0.1 F13.333
G3 X2.3427 Y-8.6188 Z0.0695 I0.1308 J0.5582
X2.3424 Y-8.6142 Z0.0682 I-0.0002 J0.0023
G2 X2.0187 Y-8.5402 Z0.0088 I-0.0406 J0.5672
G3 X2.0155 Y-8.5411 Z0.0082 I-0.0012 J-0.002
X2.0164 Y-8.5442 Z0.0075 I0.002 J-0.0012
X2.3427 Y-8.6188 Z-0.0524 I0.2854 J0.4972
X2.3424 Y-8.6142 Z-0.0537 I-0.0002 J0.0023
G2 X2.0187 Y-8.5402 Z-0.1131 I-0.0406 J0.5672
G3 X2.0155 Y-8.5411 Z-0.1137 I-0.0012 J-0.002
X2.0164 Y-8.5442 Z-0.1143 I0.002 J-0.0012
X2.3427 Y-8.6188 Z-0.1742 I0.2854 J0.4972
X2.3424 Y-8.6142 Z-0.1755 I-0.0002 J0.0023
G2 X2.0187 Y-8.5402 Z-0.2349 I-0.0406 J0.5672
G3 X2.0155 Y-8.5411 Z-0.2356 I-0.0012 J-0.002
X2.0164 Y-8.5442 Z-0.2362 I0.002 J-0.0012
X2.3427 Y-8.6188 Z-0.2961 I0.2854 J0.4972
X2.3424 Y-8.6142 Z-0.2974 I-0.0002 J0.0023
G2 X2.3276 Y-8.6151 Z-0.3 I-0.0406 J0.5672
X2.0187 Y-8.5402 I-0.0259 J0.5681 F35.
G3 X2.0155 Y-8.5411 I-0.0012 J-0.002
X2.0164 Y-8.5442 I0.002 J-0.0012
X2.3427 Y-8.6188 I0.2854 J0.4972
X2.3424 Y-8.6142 I-0.0002 J0.0023
G2 X2.3276 Y-8.6151 I-0.0406 J0.5672
G0 Z0.4
X5.587 Y-5.9534
Z0.2
G1 Z0.1 F13.333
G3 X5.4726 Y-6.0466 Z0.0591 I-0.0572 J-0.0466
X5.587 Y-5.9534 Z0.0182 I0.0572 J0.0466
X5.4726 Y-6.0466 Z-0.0227 I-0.0572 J-0.0466
X5.587 Y-5.9534 Z-0.0636 I0.0572 J0.0466
X5.4726 Y-6.0466 Z-0.1044 I-0.0572 J-0.0466
X5.587 Y-5.9534 Z-0.1453 I0.0572 J0.0466
X5.4726 Y-6.0466 Z-0.1862 I-0.0572 J-0.0466
X5.587 Y-5.9534 Z-0.2271 I0.0572 J0.0466
X5.4726 Y-6.0466 Z-0.268 I-0.0572 J-0.0466
X5.6036 Y-6. Z-0.3 I0.0572 J0.0466
X5.5213 I-0.0411 J0. F35.
X5.7513 I0.115 J0.
X5.3737 I-0.1888 J0.
X5.8989 I0.2626 J0.
X5.2261 I-0.3364 J0.
X6.0465 I0.4102 J0.
X5.0784 I-0.484 J0.
X6.0465 I0.484 J0.
G0 Z0.6
(2D CONTOUR)
M7
G0 X3.8983 Y-7.8415
Z0.6
Z0.2
G1 Z0.1 F13.333
G3 X3.4514 Y-8.3901 Z-0.028 I0.4369 J-0.8122
G2 X2.296 Y-9.2467 Z-0.3 I-1.1496 J0.343
X1.1021 Y-8.047 I0.0058 J1.1997 F60.
G1 Y-8.
G3 X0.1798 Y-7.0777 I-0.9223 J0.
G1 X-0.2875
Z-0.175
X-1.4429
Z-0.3 F13.333
X-2.0625 F60.
G2 X-2.3902 Y-6.75 I0. J0.3277
G1 Y-6.663
Z-0.175
Y-5.5076
Z-0.3 F13.333
Y-5.45 F60.
G2 X-2.0625 Y-5.1223 I0.3277 J0.
G1 X-1.624
Z-0.175
X-0.4686
Z-0.3 F13.333
X3.1998 F60.
Z-0.175
X4.3552
Z-0.3 F13.333
X4.4331 F60.
G3 X4.9233 Y-4.9812 I0. J0.9223
G2 X6.6495 Y-5.4854 I0.6392 J-1.0188
X5.9454 Y-7.1401 I-1.087 J-0.5146
G1 X5.579 Y-7.2632
Z-0.175
X4.4837 Y-7.631
Z-0.3 F13.333
X4.0416 Y-7.7794 F60.
G3 X3.4514 Y-8.3901 I0.2936 J-0.8743
G2 X2.296 Y-9.2467 I-1.1496 J0.343
G0 Z0.6
M9
G53 Z0.
M30
%
