%
(971-23-P-0027_BUMPER GUSSET_1537)
(T1  D=0.1537 CR=0. - ZMIN=-0.11 - FLAT END MILL)
G90 G94 G17 G91.1
G64 P0.001 Q0.001
G20
G53 G0 Z0.
(.3 CIRCLUAR THROUGH HOLE)
M9
T1 M6
S22000 M3
G4 P10.
G54
M7
G0 X16.1306 Y-2.0106
G43 Z0.6 H1
G0 Z0.13
G1 Z0.0654 F40.
G18 G2 X16.146 Z0.05 I0.0154 K0.
G1 X16.1537
G17 G3 X16.1642 Y-2. I0. J0.0106
X16.1409 Y-1.979 Z0.0233 I-0.0211 J0.
X16.1224 Y-2.0044 Z-0.0033 I0.0022 J-0.021
X16.1496 Y-2.0201 Z-0.03 I0.0207 J0.0044
X16.1624 Y-1.9914 Z-0.0567 I-0.0065 J0.0201
X16.1325 Y-1.9817 Z-0.0833 I-0.0193 J-0.0086
X16.126 Y-2.0124 Z-0.11 I0.0106 J-0.0183
X16.1602 Y-1.9876 I0.0171 J0.0124
X16.126 Y-2.0124 I-0.0171 J-0.0124
X16.1408 Y-2.0148 I0.0086 J0.0062
G1 X16.147 Y-2.0103
X16.1494 Y-2.0085 Z-0.1097
X16.1517 Y-2.0068 Z-0.1088
X16.1539 Y-2.0052 Z-0.1074
X16.1558 Y-2.0039 Z-0.1055
X16.1573 Y-2.0027 Z-0.1032
X16.1585 Y-2.0019 Z-0.1005
X16.1592 Y-2.0014 Z-0.0976
X16.1594 Y-2.0012 Z-0.0946
G0 Z0.4
X14.4806 Y-2.0106
Z0.13
G1 Z0.0654 F40.
G18 G2 X14.496 Z0.05 I0.0154 K0.
G1 X14.5037
G17 G3 X14.5142 Y-2. I0. J0.0106
X14.4909 Y-1.979 Z0.0233 I-0.0212 J0.
X14.4724 Y-2.0044 Z-0.0033 I0.0022 J-0.021
X14.4996 Y-2.0201 Z-0.03 I0.0207 J0.0044
X14.5124 Y-1.9914 Z-0.0567 I-0.0065 J0.0201
X14.4825 Y-1.9817 Z-0.0833 I-0.0193 J-0.0086
X14.476 Y-2.0124 Z-0.11 I0.0106 J-0.0183
X14.5102 Y-1.9876 I0.0171 J0.0124
X14.476 Y-2.0124 I-0.0171 J-0.0124
X14.4908 Y-2.0148 I0.0086 J0.0062
G1 X14.497 Y-2.0103
X14.4994 Y-2.0085 Z-0.1097
X14.5017 Y-2.0068 Z-0.1088
X14.5039 Y-2.0052 Z-0.1074
X14.5058 Y-2.0039 Z-0.1055
X14.5073 Y-2.0027 Z-0.1032
X14.5085 Y-2.0019 Z-0.1005
X14.5092 Y-2.0014 Z-0.0976
X14.5094 Y-2.0012 Z-0.0946
G0 Z0.4
X14.4806 Y-3.5106
Z0.13
G1 Z0.0654 F40.
G18 G2 X14.496 Z0.05 I0.0154 K0.
G1 X14.5037
G17 G3 X14.5142 Y-3.5 I0. J0.0106
X14.4909 Y-3.479 Z0.0233 I-0.0212 J0.
X14.4724 Y-3.5044 Z-0.0033 I0.0022 J-0.021
X14.4996 Y-3.5201 Z-0.03 I0.0207 J0.0044
X14.5124 Y-3.4914 Z-0.0567 I-0.0065 J0.0201
X14.4825 Y-3.4817 Z-0.0833 I-0.0193 J-0.0086
X14.476 Y-3.5124 Z-0.11 I0.0106 J-0.0183
X14.5102 Y-3.4876 I0.0171 J0.0124
X14.476 Y-3.5124 I-0.0171 J-0.0124
X14.4908 Y-3.5148 I0.0086 J0.0062
G1 X14.497 Y-3.5103
X14.4994 Y-3.5085 Z-0.1097
X14.5017 Y-3.5068 Z-0.1088
X14.5039 Y-3.5052 Z-0.1074
X14.5058 Y-3.5039 Z-0.1055
X14.5073 Y-3.5027 Z-0.1032
X14.5085 Y-3.5019 Z-0.1005
X14.5092 Y-3.5014 Z-0.0976
X14.5094 Y-3.5012 Z-0.0946
G0 Z0.4
X16.1306 Y-3.5106
Z0.13
G1 Z0.0654 F40.
G18 G2 X16.146 Z0.05 I0.0154 K0.
G1 X16.1537
G17 G3 X16.1642 Y-3.5 I0. J0.0106
X16.1409 Y-3.479 Z0.0233 I-0.0211 J0.
X16.1224 Y-3.5044 Z-0.0033 I0.0022 J-0.021
X16.1496 Y-3.5201 Z-0.03 I0.0207 J0.0044
X16.1624 Y-3.4914 Z-0.0567 I-0.0065 J0.0201
X16.1325 Y-3.4817 Z-0.0833 I-0.0193 J-0.0086
X16.126 Y-3.5124 Z-0.11 I0.0106 J-0.0183
X16.1602 Y-3.4876 I0.0171 J0.0124
X16.126 Y-3.5124 I-0.0171 J-0.0124
X16.1408 Y-3.5148 I0.0086 J0.0062
G1 X16.147 Y-3.5103
X16.1494 Y-3.5085 Z-0.1097
X16.1517 Y-3.5068 Z-0.1088
X16.1539 Y-3.5052 Z-0.1074
X16.1558 Y-3.5039 Z-0.1055
X16.1573 Y-3.5027 Z-0.1032
X16.1585 Y-3.5019 Z-0.1005
X16.1592 Y-3.5014 Z-0.0976
X16.1594 Y-3.5012 Z-0.0946
G0 Z0.4
X16.1306 Y-5.0106
Z0.13
G1 Z0.0654 F40.
G18 G2 X16.146 Z0.05 I0.0154 K0.
G1 X16.1537
G17 G3 X16.1642 Y-5. I0. J0.0106
X16.1409 Y-4.979 Z0.0233 I-0.0211 J0.
X16.1224 Y-5.0044 Z-0.0033 I0.0022 J-0.021
X16.1496 Y-5.0201 Z-0.03 I0.0207 J0.0044
X16.1624 Y-4.9914 Z-0.0567 I-0.0065 J0.0201
X16.1325 Y-4.9817 Z-0.0833 I-0.0193 J-0.0086
X16.126 Y-5.0124 Z-0.11 I0.0106 J-0.0183
X16.1602 Y-4.9876 I0.0171 J0.0124
X16.126 Y-5.0124 I-0.0171 J-0.0124
X16.1408 Y-5.0148 I0.0086 J0.0062
G1 X16.147 Y-5.0103
X16.1494 Y-5.0085 Z-0.1097
X16.1517 Y-5.0068 Z-0.1088
X16.1539 Y-5.0052 Z-0.1074
X16.1558 Y-5.0039 Z-0.1055
X16.1573 Y-5.0027 Z-0.1032
X16.1585 Y-5.0019 Z-0.1005
X16.1592 Y-5.0014 Z-0.0976
X16.1594 Y-5.0012 Z-0.0946
G0 Z0.4
X14.4806 Y-5.0106
Z0.13
G1 Z0.0654 F40.
G18 G2 X14.496 Z0.05 I0.0154 K0.
G1 X14.5037
G17 G3 X14.5142 Y-5. I0. J0.0106
X14.4909 Y-4.979 Z0.0233 I-0.0212 J0.
X14.4724 Y-5.0044 Z-0.0033 I0.0022 J-0.021
X14.4996 Y-5.0201 Z-0.03 I0.0207 J0.0044
X14.5124 Y-4.9914 Z-0.0567 I-0.0065 J0.0201
X14.4825 Y-4.9817 Z-0.0833 I-0.0193 J-0.0086
X14.476 Y-5.0124 Z-0.11 I0.0106 J-0.0183
X14.5102 Y-4.9876 I0.0171 J0.0124
X14.476 Y-5.0124 I-0.0171 J-0.0124
X14.4908 Y-5.0148 I0.0086 J0.0062
G1 X14.497 Y-5.0103
X14.4994 Y-5.0085 Z-0.1097
X14.5017 Y-5.0068 Z-0.1088
X14.5039 Y-5.0052 Z-0.1074
X14.5058 Y-5.0039 Z-0.1055
X14.5073 Y-5.0027 Z-0.1032
X14.5085 Y-5.0019 Z-0.1005
X14.5092 Y-5.0014 Z-0.0976
X14.5094 Y-5.0012 Z-0.0946
G0 Z0.4
X12.4925 Y-5.0706
Z0.13
G1 Z0.0654 F40.
G18 G2 X12.5079 Z0.05 I0.0154 K0.
G1 X12.5156
G17 G3 X12.5262 Y-5.06 I0. J0.0106
X12.4839 Z0. I-0.0211 J0.
X12.5262 Z-0.05 I0.0211 J0.
X12.5243 Y-5.0514 Z-0.0567 I-0.0211 J0.
X12.4944 Y-5.0417 Z-0.0833 I-0.0193 J-0.0086
X12.4879 Y-5.0724 Z-0.11 I0.0106 J-0.0183
X12.5221 Y-5.0476 I0.0171 J0.0124
X12.4879 Y-5.0724 I-0.0171 J-0.0124
X12.5027 Y-5.0748 I0.0086 J0.0062
G1 X12.5089 Y-5.0703
X12.5113 Y-5.0685 Z-0.1097
X12.5136 Y-5.0668 Z-0.1088
X12.5158 Y-5.0652 Z-0.1074
X12.5177 Y-5.0639 Z-0.1055
X12.5192 Y-5.0627 Z-0.1032
X12.5204 Y-5.0619 Z-0.1005
X12.5211 Y-5.0614 Z-0.0976
X12.5213 Y-5.0612 Z-0.0946
G0 Z0.4
X11.9089 Y-5.2928
Z0.13
G1 Z0.0654 F40.
G18 G2 X11.9242 Z0.05 I0.0154 K0.
G1 X11.9319
G17 G3 X11.9425 Y-5.2822 I0. J0.0106
X11.9191 Y-5.2612 Z0.0233 I-0.0212 J0.
X11.9006 Y-5.2866 Z-0.0033 I0.0022 J-0.021
X11.9279 Y-5.3024 Z-0.03 I0.0207 J0.0044
X11.9407 Y-5.2736 Z-0.0567 I-0.0065 J0.0201
X11.9108 Y-5.2639 Z-0.0833 I-0.0193 J-0.0086
X11.9042 Y-5.2947 Z-0.11 I0.0106 J-0.0183
X11.9384 Y-5.2698 I0.0171 J0.0124
X11.9042 Y-5.2947 I-0.0171 J-0.0124
X11.919 Y-5.297 I0.0086 J0.0062
G1 X11.9252 Y-5.2925
X11.9276 Y-5.2907 Z-0.1097
X11.93 Y-5.289 Z-0.1088
X11.9321 Y-5.2875 Z-0.1074
X11.934 Y-5.2861 Z-0.1055
X11.9356 Y-5.285 Z-0.1032
X11.9367 Y-5.2842 Z-0.1005
X11.9374 Y-5.2836 Z-0.0976
X11.9376 Y-5.2835 Z-0.0946
G0 Z0.4
X10.9242 Y-5.2928
Z0.13
G1 Z0.0654 F40.
G18 G2 X10.9396 Z0.05 I0.0154 K0.
G1 X10.9472
G17 G3 X10.9578 Y-5.2822 I0. J0.0106
X10.9155 Z0. I-0.0211 J0.
X10.9578 Z-0.05 I0.0211 J0.
X10.9155 Z-0.1 I-0.0212 J0.
X10.9196 Y-5.2947 Z-0.11 I0.0212 J0.
X10.9538 Y-5.2698 I0.0171 J0.0124
X10.9196 Y-5.2947 I-0.0171 J-0.0124
X10.9343 Y-5.297 I0.0086 J0.0062
G1 X10.9405 Y-5.2925
X10.943 Y-5.2907 Z-0.1097
X10.9453 Y-5.289 Z-0.1088
X10.9475 Y-5.2875 Z-0.1074
X10.9493 Y-5.2861 Z-0.1055
X10.9509 Y-5.285 Z-0.1032
X10.952 Y-5.2842 Z-0.1005
X10.9527 Y-5.2836 Z-0.0976
X10.953 Y-5.2835 Z-0.0946
G0 Z0.4
X11.4165 Y-4.4401
Z0.13
G1 Z0.0654 F40.
G18 G2 X11.4319 Z0.05 I0.0154 K0.
G1 X11.4396
G17 G3 X11.4501 Y-4.4295 I0. J0.0106
X11.4079 Z0. I-0.0211 J0.
X11.4501 Z-0.05 I0.0211 J0.
X11.4079 Z-0.1 I-0.0211 J0.
X11.4119 Y-4.4419 Z-0.11 I0.0211 J0.
X11.4461 Y-4.4171 I0.0171 J0.0124
X11.4119 Y-4.4419 I-0.0171 J-0.0124
X11.4267 Y-4.4443 I0.0086 J0.0062
G1 X11.4329 Y-4.4398
X11.4353 Y-4.438 Z-0.1097
X11.4376 Y-4.4363 Z-0.1088
X11.4398 Y-4.4347 Z-0.1074
X11.4417 Y-4.4334 Z-0.1055
X11.4432 Y-4.4322 Z-0.1032
X11.4444 Y-4.4314 Z-0.1005
X11.4451 Y-4.4309 Z-0.0976
X11.4453 Y-4.4307 Z-0.0946
G0 Z0.4
X12.4925 Y-3.4606
Z0.13
G1 Z0.0654 F40.
G18 G2 X12.5079 Z0.05 I0.0154 K0.
G1 X12.5156
G17 G3 X12.5262 Y-3.45 I0. J0.0106
X12.4839 Z0. I-0.0211 J0.
X12.5262 Z-0.05 I0.0211 J0.
X12.4838 Z-0.1 I-0.0212 J0.
X12.4879 Y-3.4624 Z-0.11 I0.0212 J0.
X12.5221 Y-3.4376 I0.0171 J0.0124
X12.4879 Y-3.4624 I-0.0171 J-0.0124
X12.5027 Y-3.4648 I0.0086 J0.0062
G1 X12.5089 Y-3.4603
X12.5113 Y-3.4585 Z-0.1097
X12.5136 Y-3.4568 Z-0.1088
X12.5158 Y-3.4552 Z-0.1074
X12.5177 Y-3.4539 Z-0.1055
X12.5192 Y-3.4527 Z-0.1032
X12.5204 Y-3.4519 Z-0.1005
X12.5211 Y-3.4514 Z-0.0976
X12.5213 Y-3.4512 Z-0.0946
G0 Z0.4
X12.4925 Y-1.8506
Z0.13
G1 Z0.0654 F40.
G18 G2 X12.5079 Z0.05 I0.0154 K0.
G1 X12.5156
G17 G3 X12.5262 Y-1.84 I0. J0.0106
X12.4839 Z0. I-0.0211 J0.
X12.5262 Z-0.05 I0.0211 J0.
X12.5243 Y-1.8314 Z-0.0567 I-0.0211 J0.
X12.4944 Y-1.8217 Z-0.0833 I-0.0193 J-0.0086
X12.4879 Y-1.8524 Z-0.11 I0.0106 J-0.0183
X12.5221 Y-1.8276 I0.0171 J0.0124
X12.4879 Y-1.8524 I-0.0171 J-0.0124
X12.5027 Y-1.8548 I0.0086 J0.0062
G1 X12.5089 Y-1.8503
X12.5113 Y-1.8485 Z-0.1097
X12.5136 Y-1.8468 Z-0.1088
X12.5158 Y-1.8452 Z-0.1074
X12.5177 Y-1.8439 Z-0.1055
X12.5192 Y-1.8427 Z-0.1032
X12.5204 Y-1.8419 Z-0.1005
X12.5211 Y-1.8414 Z-0.0976
X12.5213 Y-1.8412 Z-0.0946
G0 Z0.4
X9.5375 Y-1.8506
Z0.13
G1 Z0.0654 F40.
G18 G2 X9.5529 Z0.05 I0.0154 K0.
G1 X9.5606
G17 G3 X9.5711 Y-1.84 I0. J0.0106
X9.5289 Z0. I-0.0211 J0.
X9.5712 Z-0.05 I0.0211 J0.
X9.5289 Z-0.1 I-0.0211 J0.
X9.5329 Y-1.8524 Z-0.11 I0.0212 J0.
X9.5671 Y-1.8276 I0.0171 J0.0124
X9.5329 Y-1.8524 I-0.0171 J-0.0124
X9.5477 Y-1.8548 I0.0086 J0.0062
G1 X9.5539 Y-1.8503
X9.5563 Y-1.8485 Z-0.1097
X9.5586 Y-1.8468 Z-0.1088
X9.5608 Y-1.8452 Z-0.1074
X9.5627 Y-1.8439 Z-0.1055
X9.5642 Y-1.8427 Z-0.1032
X9.5654 Y-1.8419 Z-0.1005
X9.5661 Y-1.8414 Z-0.0976
X9.5663 Y-1.8412 Z-0.0946
G0 Z0.4
X9.5375 Y-3.4606
Z0.13
G1 Z0.0654 F40.
G18 G2 X9.5529 Z0.05 I0.0154 K0.
G1 X9.5606
G17 G3 X9.5711 Y-3.45 I0. J0.0106
X9.5289 Z0. I-0.0211 J0.
X9.5712 Z-0.05 I0.0211 J0.
X9.5289 Z-0.1 I-0.0211 J0.
X9.5329 Y-3.4624 Z-0.11 I0.0212 J0.
X9.5671 Y-3.4376 I0.0171 J0.0124
X9.5329 Y-3.4624 I-0.0171 J-0.0124
X9.5477 Y-3.4648 I0.0086 J0.0062
G1 X9.5539 Y-3.4603
X9.5563 Y-3.4585 Z-0.1097
X9.5586 Y-3.4568 Z-0.1088
X9.5608 Y-3.4552 Z-0.1074
X9.5627 Y-3.4539 Z-0.1055
X9.5642 Y-3.4527 Z-0.1032
X9.5654 Y-3.4519 Z-0.1005
X9.5661 Y-3.4514 Z-0.0976
X9.5663 Y-3.4512 Z-0.0946
G0 Z0.4
X9.5375 Y-5.0706
Z0.13
G1 Z0.0654 F40.
G18 G2 X9.5529 Z0.05 I0.0154 K0.
G1 X9.5606
G17 G3 X9.5711 Y-5.06 I0. J0.0106
X9.5289 Z0. I-0.0211 J0.
X9.5712 Z-0.05 I0.0211 J0.
X9.5289 Z-0.1 I-0.0211 J0.
X9.5329 Y-5.0724 Z-0.11 I0.0212 J0.
X9.5671 Y-5.0476 I0.0171 J0.0124
X9.5329 Y-5.0724 I-0.0171 J-0.0124
X9.5477 Y-5.0748 I0.0086 J0.0062
G1 X9.5539 Y-5.0703
X9.5563 Y-5.0685 Z-0.1097
X9.5586 Y-5.0668 Z-0.1088
X9.5608 Y-5.0652 Z-0.1074
X9.5627 Y-5.0639 Z-0.1055
X9.5642 Y-5.0627 Z-0.1032
X9.5654 Y-5.0619 Z-0.1005
X9.5661 Y-5.0614 Z-0.0976
X9.5663 Y-5.0612 Z-0.0946
G0 Z0.6
(.3 CIRCULAR THROUGH HOLE)
M7
G0 X11.4252 Y-4.9564
Z0.6
Z0.2
G1 Z0.1148 F13.333
G3 X11.4239 Y-4.9559 Z0.1084 I-0.0171 J-0.0416 F55.
X11.4201 Y-4.9546 Z0.1031 I-0.0158 J-0.0421
X11.4143 Y-4.9534 Z0.1 I-0.0119 J-0.0434
X11.4019 Y-5.0426 Z0.0621 I-0.0062 J-0.0446
X11.4143 Y-4.9534 Z0.0242 I0.0062 J0.0446
X11.4019 Y-5.0426 Z-0.0136 I-0.0062 J-0.0446
X11.4143 Y-4.9534 Z-0.0515 I0.0062 J0.0446
X11.4019 Y-5.0426 Z-0.0894 I-0.0062 J-0.0446
X11.4531 Y-4.998 Z-0.11 I0.0062 J0.0446
X11.4049 I-0.0241 J0. F60.
X11.4531 I0.0241 J0.
G2 X11.4701 Y-4.9659 I0.0388 J0.
G3 X11.4688 Y-4.9296 I-0.0121 J0.0177
X11.3498 Y-4.998 I-0.0398 J-0.0684
X11.5081 I0.0792 J0.
X11.4688 Y-4.9296 I-0.0792 J0.
G2 X11.4649 Y-4.9219 I0.004 J0.0069
G3 X11.4603 Y-4.9146 I-0.0071 J0.0007
X11.3398 Y-4.998 I-0.0313 J-0.0835
X11.5181 I0.0892 J0.
X11.4603 Y-4.9146 I-0.0892 J0.
X11.4546 Y-4.9136 Z-0.1088 I-0.0054 J-0.0144
X11.4497 Y-4.9145 Z-0.1055 I0.0004 J-0.0154
X11.4467 Y-4.916 Z-0.1005 I0.0052 J-0.0144
X11.4457 Y-4.9166 Z-0.0946 I0.0082 J-0.013
G0 Z0.6
(2D SLOT CUT)
M7
G0 X11.3706 Y-1.0732
Z0.6
Z0.2
G1 Z0.1 F13.333
X12.2771 Z-0.0598 F40.
Z-0.01
X12.5616
X13.0308 F55.
Z-0.11 F13.333
X14.7905 F55.
Z-0.01
X15.5442
Z-0.11 F13.333
X16.6981 F55.
G2 X16.9 Y-1.275 I0. J-0.2018
G1 Y-5.1036
G2 X16.8408 Y-5.2464 I-0.2018 J0.
G1 X16.3194 Y-5.7677
G2 X16.1767 Y-5.8268 I-0.1427 J0.1427
G1 X14.4278
Z-0.01
X13.6741
Z-0.11 F13.333
X10.2237 F55.
Z-0.01
X9.47
Z-0.11 F13.333
X8.425 F55.
G2 X8.2232 Y-5.625 I0. J0.2018
G1 Y-1.275
G2 X8.425 Y-1.0732 I0.2018 J0.
G1 X9.4978
Z-0.01
X10.2515
Z-0.11 F13.333
X12.2771 F55.
Z-0.01
X12.5616
G0 Z0.6
M9
G53 Z0.
M30
%
