%
(971-23-P-0018_ENCODER MOUNT_1554)
(T1  D=0.1554 CR=0. - ZMIN=-0.0613 - FLAT END MILL)
G90 G94 G17 G91.1
G64 P0.001 Q0.001
G20
G53 G0 Z0.
(.3 CIRCLUAR THROUGH HOLE 2)
M9
T1 M6
S22000 M3
G4 P10.
G54
M7
G0 X1.6752 Y-1.0114
G43 Z0.6 H1
G0 Z0.13
G1 Z0.0655 F40.
G18 G2 X1.6907 Z0.05 I0.0155 K0.
G1 X1.6985
G17 G3 X1.7099 Y-1. I0. J0.0114
X1.6643 Z0.0323 I-0.0228 J0.
X1.7099 Z0.0146 I0.0228 J0.
X1.6643 Z-0.0032 I-0.0228 J0.
X1.7099 Z-0.0209 I0.0228 J0.
X1.6643 Z-0.0386 I-0.0228 J0.
X1.7099 Z-0.0563 I0.0228 J0.
X1.7018 Y-0.9825 Z-0.0613 I-0.0228 J0.
X1.6725 Y-1.0175 I-0.0146 J-0.0175
X1.7018 Y-0.9825 I0.0146 J0.0175
X1.6857 Y-0.9839 I-0.0073 J-0.0087
G1 X1.6807 Y-0.9899
X1.6788 Y-0.9922 Z-0.061
X1.6769 Y-0.9945 Z-0.0601
X1.6752 Y-0.9965 Z-0.0586
X1.6737 Y-0.9983 Z-0.0567
X1.6724 Y-0.9998 Z-0.0543
X1.6715 Y-1.0009 Z-0.0517
X1.6709 Y-1.0016 Z-0.0487
X1.6707 Y-1.0018 Z-0.0457
G0 Z0.6
(.3 CIRCULAR THROUGH HOLE)
M7
G0 X0.0258 Y-0.9607
Z0.6
Z0.2
G1 Z0.115 F13.333
G3 X0.0245 Y-0.9614 Z0.1084 I0.0219 J-0.0393 F55.
X0.0211 Y-0.9637 Z0.1031 I0.0232 J-0.0386
X0.0166 Y-0.9675 Z0.1 I0.0266 J-0.0363
X0.0788 Y-1.0325 Z0.0621 I0.0311 J-0.0325
X0.0166 Y-0.9675 Z0.0242 I-0.0311 J0.0325
X0.0788 Y-1.0325 Z-0.0136 I0.0311 J-0.0325
X0.0166 Y-0.9675 Z-0.0515 I-0.0311 J0.0325
X0.0027 Y-1. Z-0.0613 I0.0311 J-0.0325
X0.0973 I0.0473 J0. F60.
X-0.0973 I-0.0973 J0.
X0.1073 I0.1023 J0.
X-0.1073 I-0.1073 J0.
X0.1073 I0.1073 J0.
X0.1062 Y-0.9942 Z-0.0601 I-0.0155 J0.
X0.1036 Y-0.9899 Z-0.0567 I-0.0144 J-0.0058
X0.1011 Y-0.9876 Z-0.0517 I-0.0118 J-0.0101
X0.1002 Y-0.9869 Z-0.0457 I-0.0094 J-0.0124
G0 Z0.6
(2D SLOT CUT)
M7
G0 X-0.3118 Y-0.4223
Z0.6
Z0.2
G1 Z0.1 F13.333
X0.1489 Z0.0187 F40.
X0.5089 F13.333
Z-0.0447
X0.6016 Z-0.0611 F40.
G2 X0.6026 Z-0.0613 I0. J-0.0777
X0.611 Y-0.4229 I-0.0011 J-0.0777 F55.
G1 X1.4264 Y-0.5223
X1.4986
G2 X1.5341 Y-0.5309 I0. J-0.0777
G1 X1.9047 Y-0.721
G2 X2.0148 Y-0.9014 I-0.0925 J-0.1803
G1 Y-1.0986
G2 X1.9047 Y-1.279 I-0.2027 J0.
G1 X1.5341 Y-1.4691
G2 X1.4986 Y-1.4777 I-0.0355 J0.0691
G1 X1.4264
X1.3735 Y-1.4841
Z0.0187
X0.6237 Y-1.5756
Z-0.0613 F13.333
X0.611 Y-1.5771 F55.
G2 X0.6016 Y-1.5777 I-0.0094 J0.0771
G1 X-0.4375
G2 X-0.6402 Y-1.375 I0. J0.2027
G1 Y-1.3688
Z0.0187
Y-0.625
G2 X-0.6399 Y-0.6134 I0.2027 J0.
G1 Z-0.0613 F13.333
G2 X-0.4375 Y-0.4223 I0.2024 J-0.0116 F55.
G1 X-0.2465
Z0.0187
X0.5089
Z-0.0613 F13.333
X0.6016 F55.
G2 X0.6026 I0. J-0.0777
G0 Z0.6
M9
G53 Z0.
M30
%
