%
(971-23-P-0018_ENCODER MOUNT_1508)
(T1  D=0.1508 CR=0. - ZMIN=-0.0613 - FLAT END MILL)
G90 G94 G17 G91.1
G64 P0.001 Q0.001
G20
G53 G0 Z0.
(.3 CIRCLUAR THROUGH HOLE 2)
M9
T1 M6
S22000 M3
G4 P10.
G54
M7
G0 X1.677 Y-1.0125
G43 Z0.6 H1
G0 Z0.13
G1 Z0.0651 F40.
G18 G2 X1.6921 Z0.05 I0.0151 K0.
G1 X1.6997
G17 G3 X1.7122 Y-1. I0. J0.0125
X1.662 Z0.0323 I-0.0251 J0.
X1.7122 Z0.0146 I0.0251 J0.
X1.662 Z-0.0032 I-0.0251 J0.
X1.7122 Z-0.0209 I0.0251 J0.
X1.662 Z-0.0386 I-0.0251 J0.
X1.7122 Z-0.0563 I0.0251 J0.
X1.7032 Y-0.9808 Z-0.0613 I-0.0251 J0.
X1.671 Y-1.0192 I-0.0161 J-0.0192
X1.7032 Y-0.9808 I0.0161 J0.0192
X1.6856 Y-0.9823 I-0.0081 J-0.0096
G1 X1.6807 Y-0.9881
X1.6788 Y-0.9904 Z-0.061
X1.677 Y-0.9925 Z-0.0601
X1.6753 Y-0.9945 Z-0.0587
X1.6739 Y-0.9963 Z-0.0568
X1.6727 Y-0.9977 Z-0.0545
X1.6718 Y-0.9988 Z-0.0519
X1.6712 Y-0.9994 Z-0.0491
X1.671 Y-0.9997 Z-0.0462
G0 Z0.6
(.3 CIRCULAR THROUGH HOLE)
M7
G0 X0.0232 Y-0.9609
Z0.6
Z0.2
G1 Z0.1146 F13.333
G3 X0.022 Y-0.9616 Z0.1082 I0.0222 J-0.0391 F55.
X0.0187 Y-0.9638 Z0.103 I0.0234 J-0.0384
X0.0143 Y-0.9675 Z0.1 I0.0267 J-0.0362
X0.0765 Y-1.0325 Z0.0621 I0.0311 J-0.0325
X0.0143 Y-0.9675 Z0.0242 I-0.0311 J0.0325
X0.0765 Y-1.0325 Z-0.0136 I0.0311 J-0.0325
X0.0143 Y-0.9675 Z-0.0515 I-0.0311 J0.0325
X0.0004 Y-1. Z-0.0613 I0.0311 J-0.0325
X0.0996 I0.0496 J0. F60.
X-0.0996 I-0.0996 J0.
X0.1096 I0.1046 J0.
X-0.1096 I-0.1096 J0.
X0.1096 I0.1096 J0.
X0.1085 Y-0.9944 Z-0.0601 I-0.0151 J0.
X0.106 Y-0.9902 Z-0.0568 I-0.014 J-0.0056
X0.1036 Y-0.988 Z-0.0519 I-0.0115 J-0.0098
X0.1027 Y-0.9873 Z-0.0462 I-0.0091 J-0.012
G0 Z0.6
(2D SLOT CUT)
M7
G0 X-0.3119 Y-0.4246
Z0.6
Z0.2
G1 Z0.1 F13.333
X0.1489 Z0.0187 F40.
X0.5066 F13.333
Z-0.0443
X0.6016 Z-0.0611 F40.
G2 X0.6026 Z-0.0613 I0. J-0.0754
X0.6107 Y-0.4252 I-0.001 J-0.0754 F55.
G1 X1.4263 Y-0.5246
X1.4986
G2 X1.533 Y-0.5329 I0. J-0.0754
G1 X1.9036 Y-0.7231
G2 X2.0125 Y-0.9014 I-0.0915 J-0.1783
G1 Y-1.0986
G2 X1.9036 Y-1.2769 I-0.2004 J0.
G1 X1.533 Y-1.4671
G2 X1.4986 Y-1.4754 I-0.0344 J0.0671
G1 X1.4263
X1.371 Y-1.4821
Z0.0187
X0.6257 Y-1.573
Z-0.0613 F13.333
X0.6107 Y-1.5748 F55.
G2 X0.6016 Y-1.5754 I-0.0091 J0.0748
G1 X-0.4375
G2 X-0.6379 Y-1.375 I0. J0.2004
G1 Y-1.3665
Z0.0187
Y-0.625
G2 X-0.6377 Y-0.6157 I0.2004 J0.
G1 Z-0.0613 F13.333
G2 X-0.4375 Y-0.4246 I0.2002 J-0.0093 F55.
G1 X-0.2442
Z0.0187
X0.5066
Z-0.0613 F13.333
X0.6016 F55.
G2 X0.6026 I0. J-0.0754
G0 Z0.6
M9
G53 Z0.
M30
%
