%
(971-23-P-0018_ENCODER MOUNT_1494)
(T1  D=0.1492 CR=0. - ZMIN=-0.0613 - FLAT END MILL)
G90 G94 G17 G91.1
G64 P0.001 Q0.001
G20
G53 G0 Z0.
(.3 CIRCLUAR THROUGH HOLE 2)
M9
T1 M6
S22000 M3
G4 P10.
G54
M7
G0 X1.6777 Y-1.0129
G43 Z0.6 H1
G0 Z0.13
G1 Z0.0649 F40.
G18 G2 X1.6926 Z0.05 I0.0149 K0.
G1 X1.7001
G17 G3 X1.713 Y-1. I0. J0.0129
X1.6612 Z0.0323 I-0.0259 J0.
X1.713 Z0.0146 I0.0259 J0.
X1.6612 Z-0.0032 I-0.0259 J0.
X1.713 Z-0.0209 I0.0259 J0.
X1.6612 Z-0.0386 I-0.0259 J0.
X1.713 Z-0.0563 I0.0259 J0.
X1.7038 Y-0.9802 Z-0.0613 I-0.0259 J0.
X1.6705 Y-1.0198 I-0.0166 J-0.0198
X1.7038 Y-0.9802 I0.0166 J0.0198
X1.6855 Y-0.9818 I-0.0083 J-0.0099
G1 X1.6807 Y-0.9875
X1.6789 Y-0.9897 Z-0.061
X1.6771 Y-0.9918 Z-0.0601
X1.6754 Y-0.9938 Z-0.0587
X1.6739 Y-0.9956 Z-0.0569
X1.6728 Y-0.997 Z-0.0546
X1.6719 Y-0.998 Z-0.052
X1.6713 Y-0.9987 Z-0.0492
X1.6711 Y-0.9989 Z-0.0463
G0 Z0.6
(.3 CIRCULAR THROUGH HOLE)
M7
G0 X-0.0223 Y-1.0391
Z0.6
Z0.2
G1 Z0.1144 F13.333
G3 X-0.0211 Y-1.0384 Z0.1081 I-0.0223 J0.0391 F55.
X-0.0178 Y-1.0362 Z0.103 I-0.0235 J0.0384
X-0.0135 Y-1.0325 Z0.1 I-0.0268 J0.0362
X-0.0757 Y-0.9675 Z0.0621 I-0.0311 J0.0325
X-0.0135 Y-1.0325 Z0.0242 I0.0311 J-0.0325
X-0.0757 Y-0.9675 Z-0.0136 I-0.0311 J0.0325
X-0.0135 Y-1.0325 Z-0.0515 I0.0311 J-0.0325
X0.0004 Y-1. Z-0.0613 I-0.0311 J0.0325
G1 X-0.0004 F60.
G3 X0.1004 I0.0504 J0.
X-0.1004 I-0.1004 J0.
X0.1104 I0.1054 J0.
X-0.1104 I-0.1104 J0.
X0.1104 I0.1104 J0.
X0.1093 Y-0.9944 Z-0.0601 I-0.0149 J0.
X0.1068 Y-0.9903 Z-0.0569 I-0.0138 J-0.0056
X0.1045 Y-0.9881 Z-0.052 I-0.0113 J-0.0097
X0.1035 Y-0.9874 Z-0.0463 I-0.009 J-0.0119
G0 Z0.6
(2D SLOT CUT)
M7
G0 X-0.3119 Y-0.4254
Z0.6
Z0.2
G1 Z0.1 F13.333
X0.1489 Z0.0187 F40.
X0.5058 F13.333
Z-0.0442
X0.6016 Z-0.0611 F40.
G2 X0.6026 Z-0.0613 I0. J-0.0746
X0.6106 Y-0.4259 I-0.001 J-0.0746 F55.
G1 X1.4262 Y-0.5254
X1.4986
G2 X1.5326 Y-0.5336 I0. J-0.0746
G1 X1.9032 Y-0.7238
G2 X2.0117 Y-0.9014 I-0.0911 J-0.1776
G1 Y-1.0986
G2 X1.9032 Y-1.2762 I-0.1996 J0.
G1 X1.5326 Y-1.4664
G2 X1.4986 Y-1.4746 I-0.0341 J0.0664
G1 X1.4262
X1.3701 Y-1.4814
Z0.0187
X0.6264 Y-1.5721
Z-0.0613 F13.333
X0.6106 Y-1.5741 F55.
G2 X0.6016 Y-1.5746 I-0.009 J0.0741
G1 X-0.4375
G2 X-0.6371 Y-1.375 I0. J0.1996
G1 Y-1.3657
Z0.0187
Y-0.625
G2 X-0.6369 Y-0.6165 I0.1996 J0.
G1 Z-0.0613 F13.333
G2 X-0.4375 Y-0.4254 I0.1994 J-0.0085 F55.
G1 X-0.2434
Z0.0187
X0.5058
Z-0.0613 F13.333
X0.6016 F55.
G2 X0.6026 I0. J-0.0746
G0 Z0.6
M9
G53 Z0.
M30
%
