%
(971-23-P-0023_CROSSMEMBER GUSSET_1508)
(T1  D=0.1508 CR=0. - ZMIN=-0.155 - FLAT END MILL)
G90 G94 G17 G91.1
G64 P0.001 Q0.001
G20
G53 G0 Z0.
(.3 CIRCLUAR THROUGH HOLE 2)
M9
T1 M6
S22000 M3
G4 P10.
G54
M7
G0 X-5.6137 Y-8.9887
G43 Z0.6 H1
G0 Z0.13
G1 Z0.0651 F40.
G18 G3 X-5.6288 Z0.05 I-0.0151 K0.
G1 X-5.6363
G17 G3 X-5.6476 Y-9. I0. J-0.0113
X-5.6024 Z0.0327 I0.0226 J0.
X-5.6476 Z0.0154 I-0.0226 J0.
X-5.6024 Z-0.0018 I0.0226 J0.
X-5.6476 Z-0.0191 I-0.0226 J0.
X-5.6024 Z-0.0364 I0.0226 J0.
X-5.6476 Z-0.0537 I-0.0226 J0.
X-5.6024 Z-0.071 I0.0226 J0.
X-5.6476 Z-0.0882 I-0.0226 J0.
X-5.6024 Z-0.1055 I0.0226 J0.
X-5.6476 Z-0.1228 I-0.0226 J0.
X-5.6024 Z-0.1401 I0.0226 J0.
X-5.6456 Y-8.9906 Z-0.155 I-0.0226 J0.
X-5.6044 Y-9.0094 I0.0206 J-0.0094
X-5.6456 Y-8.9906 I-0.0206 J0.0094
X-5.64 Y-9.0056 I0.0103 J-0.0047
G1 X-5.6331 Y-9.0087
X-5.6304 Y-9.0099 Z-0.1547
X-5.6279 Y-9.0111 Z-0.1539
X-5.6255 Y-9.0122 Z-0.1525
X-5.6234 Y-9.0131 Z-0.1506
X-5.6217 Y-9.0139 Z-0.1483
X-5.6205 Y-9.0145 Z-0.1457
X-5.6197 Y-9.0149 Z-0.1429
X-5.6194 Y-9.015 Z-0.1399
G0 Z0.4
X-6.3637 Y-8.9887
Z0.13
G1 Z0.0651 F40.
G18 G3 X-6.3788 Z0.05 I-0.0151 K0.
G1 X-6.3863
G17 G3 X-6.3976 Y-9. I0. J-0.0113
X-6.3524 Z0.0327 I0.0226 J0.
X-6.3976 Z0.0154 I-0.0226 J0.
X-6.3524 Z-0.0018 I0.0226 J0.
X-6.3976 Z-0.0191 I-0.0226 J0.
X-6.3524 Z-0.0364 I0.0226 J0.
X-6.3976 Z-0.0537 I-0.0226 J0.
X-6.3524 Z-0.071 I0.0226 J0.
X-6.3976 Z-0.0882 I-0.0226 J0.
X-6.3524 Z-0.1055 I0.0226 J0.
X-6.3976 Z-0.1228 I-0.0226 J0.
X-6.3524 Z-0.1401 I0.0226 J0.
X-6.3956 Y-8.9906 Z-0.155 I-0.0226 J0.
X-6.3544 Y-9.0094 I0.0206 J-0.0094
X-6.3956 Y-8.9906 I-0.0206 J0.0094
X-6.39 Y-9.0056 I0.0103 J-0.0047
G1 X-6.3831 Y-9.0087
X-6.3804 Y-9.0099 Z-0.1547
X-6.3779 Y-9.0111 Z-0.1539
X-6.3755 Y-9.0122 Z-0.1525
X-6.3734 Y-9.0131 Z-0.1506
X-6.3717 Y-9.0139 Z-0.1483
X-6.3705 Y-9.0145 Z-0.1457
X-6.3697 Y-9.0149 Z-0.1429
X-6.3694 Y-9.015 Z-0.1399
G0 Z0.4
X-7.1137 Y-8.9887
Z0.13
G1 Z0.0651 F40.
G18 G3 X-7.1288 Z0.05 I-0.0151 K0.
G1 X-7.1363
G17 G3 X-7.1476 Y-9. I0. J-0.0113
X-7.1024 Z0.0327 I0.0226 J0.
X-7.1476 Z0.0154 I-0.0226 J0.
X-7.1024 Z-0.0018 I0.0226 J0.
X-7.1476 Z-0.0191 I-0.0226 J0.
X-7.1024 Z-0.0364 I0.0226 J0.
X-7.1476 Z-0.0537 I-0.0226 J0.
X-7.1024 Z-0.071 I0.0226 J0.
X-7.1476 Z-0.0882 I-0.0226 J0.
X-7.1024 Z-0.1055 I0.0226 J0.
X-7.1476 Z-0.1228 I-0.0226 J0.
X-7.1024 Z-0.1401 I0.0226 J0.
X-7.1456 Y-8.9906 Z-0.155 I-0.0226 J0.
X-7.1045 Y-9.0094 I0.0206 J-0.0094
X-7.1456 Y-8.9906 I-0.0206 J0.0094
X-7.14 Y-9.0056 I0.0103 J-0.0047
G1 X-7.1331 Y-9.0087
X-7.1304 Y-9.0099 Z-0.1547
X-7.1279 Y-9.0111 Z-0.1539
X-7.1255 Y-9.0122 Z-0.1525
X-7.1234 Y-9.0131 Z-0.1506
X-7.1217 Y-9.0139 Z-0.1483
X-7.1205 Y-9.0145 Z-0.1457
X-7.1197 Y-9.0149 Z-0.1429
X-7.1194 Y-9.015 Z-0.1399
G0 Z0.4
X-7.8637 Y-8.9887
Z0.13
G1 Z0.0651 F40.
G18 G3 X-7.8788 Z0.05 I-0.0151 K0.
G1 X-7.8863
G17 G3 X-7.8976 Y-9. I0. J-0.0113
X-7.8524 Z0.0327 I0.0226 J0.
X-7.8976 Z0.0154 I-0.0226 J0.
X-7.8524 Z-0.0018 I0.0226 J0.
X-7.8976 Z-0.0191 I-0.0226 J0.
X-7.8524 Z-0.0364 I0.0226 J0.
X-7.8976 Z-0.0537 I-0.0226 J0.
X-7.8524 Z-0.071 I0.0226 J0.
X-7.8976 Z-0.0882 I-0.0226 J0.
X-7.8524 Z-0.1055 I0.0226 J0.
X-7.8976 Z-0.1228 I-0.0226 J0.
X-7.8524 Z-0.1401 I0.0226 J0.
X-7.8956 Y-8.9906 Z-0.155 I-0.0226 J0.
X-7.8544 Y-9.0094 I0.0206 J-0.0094
X-7.8956 Y-8.9906 I-0.0206 J0.0094
X-7.89 Y-9.0056 I0.0103 J-0.0047
G1 X-7.8831 Y-9.0087
X-7.8804 Y-9.0099 Z-0.1547
X-7.8779 Y-9.0111 Z-0.1539
X-7.8755 Y-9.0122 Z-0.1525
X-7.8734 Y-9.0131 Z-0.1506
X-7.8717 Y-9.0139 Z-0.1483
X-7.8705 Y-9.0145 Z-0.1457
X-7.8697 Y-9.0149 Z-0.1429
X-7.8694 Y-9.015 Z-0.1399
G0 Z0.4
X-8.6137 Y-8.9887
Z0.13
G1 Z0.0651 F40.
G18 G3 X-8.6288 Z0.05 I-0.0151 K0.
G1 X-8.6363
G17 G3 X-8.6476 Y-9. I0. J-0.0113
X-8.6024 Z0.0327 I0.0226 J0.
X-8.6476 Z0.0154 I-0.0226 J0.
X-8.6024 Z-0.0018 I0.0226 J0.
X-8.6476 Z-0.0191 I-0.0226 J0.
X-8.6024 Z-0.0364 I0.0226 J0.
X-8.6476 Z-0.0537 I-0.0226 J0.
X-8.6024 Z-0.071 I0.0226 J0.
X-8.6476 Z-0.0882 I-0.0226 J0.
X-8.6024 Z-0.1055 I0.0226 J0.
X-8.6476 Z-0.1228 I-0.0226 J0.
X-8.6024 Z-0.1401 I0.0226 J0.
X-8.6456 Y-8.9906 Z-0.155 I-0.0226 J0.
X-8.6044 Y-9.0094 I0.0206 J-0.0094
X-8.6456 Y-8.9906 I-0.0206 J0.0094
X-8.64 Y-9.0056 I0.0103 J-0.0047
G1 X-8.6331 Y-9.0087
X-8.6304 Y-9.0099 Z-0.1547
X-8.6279 Y-9.0111 Z-0.1539
X-8.6255 Y-9.0122 Z-0.1525
X-8.6234 Y-9.0131 Z-0.1506
X-8.6217 Y-9.0139 Z-0.1483
X-8.6205 Y-9.0145 Z-0.1457
X-8.6197 Y-9.0149 Z-0.1429
X-8.6194 Y-9.015 Z-0.1399
G0 Z0.4
X-9.3637 Y-8.9887
Z0.13
G1 Z0.0651 F40.
G18 G3 X-9.3788 Z0.05 I-0.0151 K0.
G1 X-9.3863
G17 G3 X-9.3976 Y-9. I0. J-0.0113
X-9.3524 Z0.0327 I0.0226 J0.
X-9.3976 Z0.0154 I-0.0226 J0.
X-9.3524 Z-0.0018 I0.0226 J0.
X-9.3976 Z-0.0191 I-0.0226 J0.
X-9.3524 Z-0.0364 I0.0226 J0.
X-9.3976 Z-0.0537 I-0.0226 J0.
X-9.3524 Z-0.071 I0.0226 J0.
X-9.3976 Z-0.0882 I-0.0226 J0.
X-9.3524 Z-0.1055 I0.0226 J0.
X-9.3976 Z-0.1228 I-0.0226 J0.
X-9.3524 Z-0.1401 I0.0226 J0.
X-9.3956 Y-8.9906 Z-0.155 I-0.0226 J0.
X-9.3544 Y-9.0094 I0.0206 J-0.0094
X-9.3956 Y-8.9906 I-0.0206 J0.0094
X-9.39 Y-9.0056 I0.0103 J-0.0047
G1 X-9.3831 Y-9.0087
X-9.3804 Y-9.0099 Z-0.1547
X-9.3779 Y-9.0111 Z-0.1539
X-9.3755 Y-9.0122 Z-0.1525
X-9.3734 Y-9.0131 Z-0.1506
X-9.3717 Y-9.0139 Z-0.1483
X-9.3705 Y-9.0145 Z-0.1457
X-9.3697 Y-9.0149 Z-0.1429
X-9.3694 Y-9.015 Z-0.1399
G0 Z0.4
X-10.1137 Y-8.9887
Z0.13
G1 Z0.0651 F40.
G18 G3 X-10.1288 Z0.05 I-0.0151 K0.
G1 X-10.1363
G17 G3 X-10.1476 Y-9. I0. J-0.0113
X-10.1024 Z0.0327 I0.0226 J0.
X-10.1476 Z0.0154 I-0.0226 J0.
X-10.1024 Z-0.0018 I0.0226 J0.
X-10.1476 Z-0.0191 I-0.0226 J0.
X-10.1024 Z-0.0364 I0.0226 J0.
X-10.1476 Z-0.0537 I-0.0226 J0.
X-10.1024 Z-0.071 I0.0226 J0.
X-10.1476 Z-0.0882 I-0.0226 J0.
X-10.1024 Z-0.1055 I0.0226 J0.
X-10.1476 Z-0.1228 I-0.0226 J0.
X-10.1024 Z-0.1401 I0.0226 J0.
X-10.1456 Y-8.9906 Z-0.155 I-0.0226 J0.
X-10.1044 Y-9.0094 I0.0206 J-0.0094
X-10.1456 Y-8.9906 I-0.0206 J0.0094
X-10.14 Y-9.0056 I0.0103 J-0.0047
G1 X-10.1331 Y-9.0087
X-10.1304 Y-9.0099 Z-0.1547
X-10.1279 Y-9.0111 Z-0.1539
X-10.1255 Y-9.0122 Z-0.1525
X-10.1234 Y-9.0131 Z-0.1506
X-10.1217 Y-9.0139 Z-0.1483
X-10.1205 Y-9.0145 Z-0.1457
X-10.1197 Y-9.0149 Z-0.1429
X-10.1194 Y-9.015 Z-0.1399
G0 Z0.4
X-9.1373 Y-8.1353
Z0.13
G1 Z0.0651 F40.
G18 G2 X-9.1222 Z0.05 I0.0151 K0.
G1 X-9.1147
G17 G3 X-9.1044 Y-8.125 I0. J0.0103
X-9.1456 Z0.0331 I-0.0206 J0.
X-9.1044 Z0.0161 I0.0206 J0.
X-9.1456 Z-0.0008 I-0.0206 J0.
X-9.1044 Z-0.0177 I0.0206 J0.
X-9.1456 Z-0.0346 I-0.0206 J0.
X-9.1044 Z-0.0516 I0.0206 J0.
X-9.1456 Z-0.0685 I-0.0206 J0.
X-9.1044 Z-0.0854 I0.0206 J0.
X-9.1456 Z-0.1023 I-0.0206 J0.
X-9.1044 Z-0.1193 I0.0206 J0.
X-9.1456 Z-0.1362 I-0.0206 J0.
X-9.1044 Z-0.1531 I0.0206 J0.
X-9.1056 Y-8.118 Z-0.155 I-0.0206 J0.
X-9.1444 Y-8.132 I-0.0194 J-0.007
X-9.1056 Y-8.118 I0.0194 J0.007
X-9.1188 Y-8.1118 I-0.0097 J-0.0035
G1 X-9.1259 Y-8.1144
X-9.1287 Y-8.1154 Z-0.1547
X-9.1313 Y-8.1163 Z-0.1539
X-9.1338 Y-8.1172 Z-0.1525
X-9.1359 Y-8.118 Z-0.1506
X-9.1377 Y-8.1186 Z-0.1483
X-9.139 Y-8.1191 Z-0.1457
X-9.1398 Y-8.1194 Z-0.1429
X-9.1401 Y-8.1195 Z-0.1399
G0 Z0.4
X-9.6373 Y-8.1353
Z0.13
G1 Z0.0651 F40.
G18 G2 X-9.6222 Z0.05 I0.0151 K0.
G1 X-9.6147
G17 G3 X-9.6044 Y-8.125 I0. J0.0103
X-9.6456 Z0.0331 I-0.0206 J0.
X-9.6044 Z0.0161 I0.0206 J0.
X-9.6456 Z-0.0008 I-0.0206 J0.
X-9.6044 Z-0.0177 I0.0206 J0.
X-9.6456 Z-0.0346 I-0.0206 J0.
X-9.6044 Z-0.0516 I0.0206 J0.
X-9.6456 Z-0.0685 I-0.0206 J0.
X-9.6044 Z-0.0854 I0.0206 J0.
X-9.6456 Z-0.1023 I-0.0206 J0.
X-9.6044 Z-0.1193 I0.0206 J0.
X-9.6456 Z-0.1362 I-0.0206 J0.
X-9.6044 Z-0.1531 I0.0206 J0.
X-9.6056 Y-8.118 Z-0.155 I-0.0206 J0.
X-9.6444 Y-8.132 I-0.0194 J-0.007
X-9.6056 Y-8.118 I0.0194 J0.007
X-9.6188 Y-8.1118 I-0.0097 J-0.0035
G1 X-9.6259 Y-8.1144
X-9.6287 Y-8.1154 Z-0.1547
X-9.6313 Y-8.1163 Z-0.1539
X-9.6338 Y-8.1172 Z-0.1525
X-9.6359 Y-8.118 Z-0.1506
X-9.6377 Y-8.1186 Z-0.1483
X-9.639 Y-8.1191 Z-0.1457
X-9.6398 Y-8.1194 Z-0.1429
X-9.6401 Y-8.1195 Z-0.1399
G0 Z0.4
X-9.6373 Y-7.6353
Z0.13
G1 Z0.0651 F40.
G18 G2 X-9.6222 Z0.05 I0.0151 K0.
G1 X-9.6147
G17 G3 X-9.6044 Y-7.625 I0. J0.0103
X-9.6456 Z0.0331 I-0.0206 J0.
X-9.6044 Z0.0161 I0.0206 J0.
X-9.6456 Z-0.0008 I-0.0206 J0.
X-9.6044 Z-0.0177 I0.0206 J0.
X-9.6456 Z-0.0346 I-0.0206 J0.
X-9.6044 Z-0.0516 I0.0206 J0.
X-9.6456 Z-0.0685 I-0.0206 J0.
X-9.6044 Z-0.0854 I0.0206 J0.
X-9.6456 Z-0.1023 I-0.0206 J0.
X-9.6044 Z-0.1193 I0.0206 J0.
X-9.6456 Z-0.1362 I-0.0206 J0.
X-9.6044 Z-0.1531 I0.0206 J0.
X-9.6056 Y-7.618 Z-0.155 I-0.0206 J0.
X-9.6444 Y-7.632 I-0.0194 J-0.007
X-9.6056 Y-7.618 I0.0194 J0.007
X-9.6188 Y-7.6118 I-0.0097 J-0.0035
G1 X-9.6259 Y-7.6144
X-9.6287 Y-7.6154 Z-0.1547
X-9.6313 Y-7.6163 Z-0.1539
X-9.6338 Y-7.6172 Z-0.1525
X-9.6359 Y-7.618 Z-0.1506
X-9.6377 Y-7.6186 Z-0.1483
X-9.639 Y-7.6191 Z-0.1457
X-9.6398 Y-7.6194 Z-0.1429
X-9.6401 Y-7.6195 Z-0.1399
G0 Z0.4
X-9.1373 Y-7.6353
Z0.13
G1 Z0.0651 F40.
G18 G2 X-9.1222 Z0.05 I0.0151 K0.
G1 X-9.1147
G17 G3 X-9.1044 Y-7.625 I0. J0.0103
X-9.1456 Z0.0331 I-0.0206 J0.
X-9.1044 Z0.0161 I0.0206 J0.
X-9.1456 Z-0.0008 I-0.0206 J0.
X-9.1044 Z-0.0177 I0.0206 J0.
X-9.1456 Z-0.0346 I-0.0206 J0.
X-9.1044 Z-0.0516 I0.0206 J0.
X-9.1456 Z-0.0685 I-0.0206 J0.
X-9.1044 Z-0.0854 I0.0206 J0.
X-9.1456 Z-0.1023 I-0.0206 J0.
X-9.1044 Z-0.1193 I0.0206 J0.
X-9.1456 Z-0.1362 I-0.0206 J0.
X-9.1044 Z-0.1531 I0.0206 J0.
X-9.1056 Y-7.618 Z-0.155 I-0.0206 J0.
X-9.1444 Y-7.632 I-0.0194 J-0.007
X-9.1056 Y-7.618 I0.0194 J0.007
X-9.1188 Y-7.6118 I-0.0097 J-0.0035
G1 X-9.1259 Y-7.6144
X-9.1287 Y-7.6154 Z-0.1547
X-9.1313 Y-7.6163 Z-0.1539
X-9.1338 Y-7.6172 Z-0.1525
X-9.1359 Y-7.618 Z-0.1506
X-9.1377 Y-7.6186 Z-0.1483
X-9.139 Y-7.6191 Z-0.1457
X-9.1398 Y-7.6194 Z-0.1429
X-9.1401 Y-7.6195 Z-0.1399
G0 Z0.4
X-9.1373 Y-7.1353
Z0.13
G1 Z0.0651 F40.
G18 G2 X-9.1222 Z0.05 I0.0151 K0.
G1 X-9.1147
G17 G3 X-9.1044 Y-7.125 I0. J0.0103
X-9.1456 Z0.0331 I-0.0206 J0.
X-9.1044 Z0.0161 I0.0206 J0.
X-9.1456 Z-0.0008 I-0.0206 J0.
X-9.1044 Z-0.0177 I0.0206 J0.
X-9.1456 Z-0.0346 I-0.0206 J0.
X-9.1044 Z-0.0516 I0.0206 J0.
X-9.1456 Z-0.0685 I-0.0206 J0.
X-9.1044 Z-0.0854 I0.0206 J0.
X-9.1456 Z-0.1023 I-0.0206 J0.
X-9.1044 Z-0.1193 I0.0206 J0.
X-9.1456 Z-0.1362 I-0.0206 J0.
X-9.1044 Z-0.1531 I0.0206 J0.
X-9.1056 Y-7.118 Z-0.155 I-0.0206 J0.
X-9.1444 Y-7.132 I-0.0194 J-0.007
X-9.1056 Y-7.118 I0.0194 J0.007
X-9.1188 Y-7.1118 I-0.0097 J-0.0035
G1 X-9.1259 Y-7.1144
X-9.1287 Y-7.1154 Z-0.1547
X-9.1313 Y-7.1163 Z-0.1539
X-9.1338 Y-7.1172 Z-0.1525
X-9.1359 Y-7.118 Z-0.1506
X-9.1377 Y-7.1186 Z-0.1483
X-9.139 Y-7.1191 Z-0.1457
X-9.1398 Y-7.1194 Z-0.1429
X-9.1401 Y-7.1195 Z-0.1399
G0 Z0.4
X-9.6373 Y-7.1353
Z0.13
G1 Z0.0651 F40.
G18 G2 X-9.6222 Z0.05 I0.0151 K0.
G1 X-9.6147
G17 G3 X-9.6044 Y-7.125 I0. J0.0103
X-9.6456 Z0.0331 I-0.0206 J0.
X-9.6044 Z0.0161 I0.0206 J0.
X-9.6456 Z-0.0008 I-0.0206 J0.
X-9.6044 Z-0.0177 I0.0206 J0.
X-9.6456 Z-0.0346 I-0.0206 J0.
X-9.6044 Z-0.0516 I0.0206 J0.
X-9.6456 Z-0.0685 I-0.0206 J0.
X-9.6044 Z-0.0854 I0.0206 J0.
X-9.6456 Z-0.1023 I-0.0206 J0.
X-9.6044 Z-0.1193 I0.0206 J0.
X-9.6456 Z-0.1362 I-0.0206 J0.
X-9.6044 Z-0.1531 I0.0206 J0.
X-9.6056 Y-7.118 Z-0.155 I-0.0206 J0.
X-9.6444 Y-7.132 I-0.0194 J-0.007
X-9.6056 Y-7.118 I0.0194 J0.007
X-9.6188 Y-7.1118 I-0.0097 J-0.0035
G1 X-9.6259 Y-7.1144
X-9.6287 Y-7.1154 Z-0.1547
X-9.6313 Y-7.1163 Z-0.1539
X-9.6338 Y-7.1172 Z-0.1525
X-9.6359 Y-7.118 Z-0.1506
X-9.6377 Y-7.1186 Z-0.1483
X-9.639 Y-7.1191 Z-0.1457
X-9.6398 Y-7.1194 Z-0.1429
X-9.6401 Y-7.1195 Z-0.1399
G0 Z0.4
X-9.6373 Y-6.6353
Z0.13
G1 Z0.0651 F40.
G18 G2 X-9.6222 Z0.05 I0.0151 K0.
G1 X-9.6147
G17 G3 X-9.6044 Y-6.625 I0. J0.0103
X-9.6456 Z0.0331 I-0.0206 J0.
X-9.6044 Z0.0161 I0.0206 J0.
X-9.6456 Z-0.0008 I-0.0206 J0.
X-9.6044 Z-0.0177 I0.0206 J0.
X-9.6456 Z-0.0346 I-0.0206 J0.
X-9.6044 Z-0.0516 I0.0206 J0.
X-9.6456 Z-0.0685 I-0.0206 J0.
X-9.6044 Z-0.0854 I0.0206 J0.
X-9.6456 Z-0.1023 I-0.0206 J0.
X-9.6044 Z-0.1193 I0.0206 J0.
X-9.6456 Z-0.1362 I-0.0206 J0.
X-9.6044 Z-0.1531 I0.0206 J0.
X-9.6056 Y-6.618 Z-0.155 I-0.0206 J0.
X-9.6444 Y-6.632 I-0.0194 J-0.007
X-9.6056 Y-6.618 I0.0194 J0.007
X-9.6188 Y-6.6118 I-0.0097 J-0.0035
G1 X-9.6259 Y-6.6144
X-9.6287 Y-6.6154 Z-0.1547
X-9.6313 Y-6.6163 Z-0.1539
X-9.6338 Y-6.6172 Z-0.1525
X-9.6359 Y-6.618 Z-0.1506
X-9.6377 Y-6.6186 Z-0.1483
X-9.639 Y-6.6191 Z-0.1457
X-9.6398 Y-6.6194 Z-0.1429
X-9.6401 Y-6.6195 Z-0.1399
G0 Z0.4
X-9.1373 Y-6.6353
Z0.13
G1 Z0.0651 F40.
G18 G2 X-9.1222 Z0.05 I0.0151 K0.
G1 X-9.1147
G17 G3 X-9.1044 Y-6.625 I0. J0.0103
X-9.1456 Z0.0331 I-0.0206 J0.
X-9.1044 Z0.0161 I0.0206 J0.
X-9.1456 Z-0.0008 I-0.0206 J0.
X-9.1044 Z-0.0177 I0.0206 J0.
X-9.1456 Z-0.0346 I-0.0206 J0.
X-9.1044 Z-0.0516 I0.0206 J0.
X-9.1456 Z-0.0685 I-0.0206 J0.
X-9.1044 Z-0.0854 I0.0206 J0.
X-9.1456 Z-0.1023 I-0.0206 J0.
X-9.1044 Z-0.1193 I0.0206 J0.
X-9.1456 Z-0.1362 I-0.0206 J0.
X-9.1044 Z-0.1531 I0.0206 J0.
X-9.1056 Y-6.618 Z-0.155 I-0.0206 J0.
X-9.1444 Y-6.632 I-0.0194 J-0.007
X-9.1056 Y-6.618 I0.0194 J0.007
X-9.1188 Y-6.6118 I-0.0097 J-0.0035
G1 X-9.1259 Y-6.6144
X-9.1287 Y-6.6154 Z-0.1547
X-9.1313 Y-6.6163 Z-0.1539
X-9.1338 Y-6.6172 Z-0.1525
X-9.1359 Y-6.618 Z-0.1506
X-9.1377 Y-6.6186 Z-0.1483
X-9.139 Y-6.6191 Z-0.1457
X-9.1398 Y-6.6194 Z-0.1429
X-9.1401 Y-6.6195 Z-0.1399
G0 Z0.4
X-7.5123 Y-7.6353
Z0.13
G1 Z0.0651 F40.
G18 G2 X-7.4972 Z0.05 I0.0151 K0.
G1 X-7.4897
G17 G3 X-7.4794 Y-7.625 I0. J0.0103
X-7.5206 Z0.0331 I-0.0206 J0.
X-7.4794 Z0.0161 I0.0206 J0.
X-7.5206 Z-0.0008 I-0.0206 J0.
X-7.4794 Z-0.0177 I0.0206 J0.
X-7.5206 Z-0.0346 I-0.0206 J0.
X-7.4794 Z-0.0516 I0.0206 J0.
X-7.5206 Z-0.0685 I-0.0206 J0.
X-7.4794 Z-0.0854 I0.0206 J0.
X-7.5206 Z-0.1023 I-0.0206 J0.
X-7.4794 Z-0.1193 I0.0206 J0.
X-7.5206 Z-0.1362 I-0.0206 J0.
X-7.4794 Z-0.1531 I0.0206 J0.
X-7.4806 Y-7.618 Z-0.155 I-0.0206 J0.
X-7.5194 Y-7.632 I-0.0194 J-0.007
X-7.4806 Y-7.618 I0.0194 J0.007
X-7.4938 Y-7.6118 I-0.0097 J-0.0035
G1 X-7.5009 Y-7.6144
X-7.5037 Y-7.6154 Z-0.1547
X-7.5063 Y-7.6163 Z-0.1539
X-7.5088 Y-7.6172 Z-0.1525
X-7.5109 Y-7.618 Z-0.1506
X-7.5127 Y-7.6186 Z-0.1483
X-7.514 Y-7.6191 Z-0.1457
X-7.5148 Y-7.6194 Z-0.1429
X-7.5151 Y-7.6195 Z-0.1399
G0 Z0.4
X-8.0123 Y-7.6353
Z0.13
G1 Z0.0651 F40.
G18 G2 X-7.9972 Z0.05 I0.0151 K0.
G1 X-7.9897
G17 G3 X-7.9794 Y-7.625 I0. J0.0103
X-8.0206 Z0.0331 I-0.0206 J0.
X-7.9794 Z0.0161 I0.0206 J0.
X-8.0206 Z-0.0008 I-0.0206 J0.
X-7.9794 Z-0.0177 I0.0206 J0.
X-8.0206 Z-0.0346 I-0.0206 J0.
X-7.9794 Z-0.0516 I0.0206 J0.
X-8.0206 Z-0.0685 I-0.0206 J0.
X-7.9794 Z-0.0854 I0.0206 J0.
X-8.0206 Z-0.1023 I-0.0206 J0.
X-7.9794 Z-0.1193 I0.0206 J0.
X-8.0206 Z-0.1362 I-0.0206 J0.
X-7.9794 Z-0.1531 I0.0206 J0.
X-7.9806 Y-7.618 Z-0.155 I-0.0206 J0.
X-8.0194 Y-7.632 I-0.0194 J-0.007
X-7.9806 Y-7.618 I0.0194 J0.007
X-7.9938 Y-7.6118 I-0.0097 J-0.0035
G1 X-8.0009 Y-7.6144
X-8.0037 Y-7.6154 Z-0.1547
X-8.0063 Y-7.6163 Z-0.1539
X-8.0088 Y-7.6172 Z-0.1525
X-8.0109 Y-7.618 Z-0.1506
X-8.0127 Y-7.6186 Z-0.1483
X-8.014 Y-7.6191 Z-0.1457
X-8.0148 Y-7.6194 Z-0.1429
X-8.0151 Y-7.6195 Z-0.1399
G0 Z0.4
X-8.5123 Y-7.6353
Z0.13
G1 Z0.0651 F40.
G18 G2 X-8.4972 Z0.05 I0.0151 K0.
G1 X-8.4897
G17 G3 X-8.4794 Y-7.625 I0. J0.0103
X-8.5206 Z0.0331 I-0.0206 J0.
X-8.4794 Z0.0161 I0.0206 J0.
X-8.5206 Z-0.0008 I-0.0206 J0.
X-8.4794 Z-0.0177 I0.0206 J0.
X-8.5206 Z-0.0346 I-0.0206 J0.
X-8.4794 Z-0.0516 I0.0206 J0.
X-8.5206 Z-0.0685 I-0.0206 J0.
X-8.4794 Z-0.0854 I0.0206 J0.
X-8.5206 Z-0.1023 I-0.0206 J0.
X-8.4794 Z-0.1193 I0.0206 J0.
X-8.5206 Z-0.1362 I-0.0206 J0.
X-8.4794 Z-0.1531 I0.0206 J0.
X-8.4806 Y-7.618 Z-0.155 I-0.0206 J0.
X-8.5194 Y-7.632 I-0.0194 J-0.007
X-8.4806 Y-7.618 I0.0194 J0.007
X-8.4938 Y-7.6118 I-0.0097 J-0.0035
G1 X-8.5009 Y-7.6144
X-8.5037 Y-7.6154 Z-0.1547
X-8.5063 Y-7.6163 Z-0.1539
X-8.5088 Y-7.6172 Z-0.1525
X-8.5109 Y-7.618 Z-0.1506
X-8.5127 Y-7.6186 Z-0.1483
X-8.514 Y-7.6191 Z-0.1457
X-8.5148 Y-7.6194 Z-0.1429
X-8.5151 Y-7.6195 Z-0.1399
G0 Z0.4
X-8.5123 Y-8.1353
Z0.13
G1 Z0.0651 F40.
G18 G2 X-8.4972 Z0.05 I0.0151 K0.
G1 X-8.4897
G17 G3 X-8.4794 Y-8.125 I0. J0.0103
X-8.5206 Z0.0331 I-0.0206 J0.
X-8.4794 Z0.0161 I0.0206 J0.
X-8.5206 Z-0.0008 I-0.0206 J0.
X-8.4794 Z-0.0177 I0.0206 J0.
X-8.5206 Z-0.0346 I-0.0206 J0.
X-8.4794 Z-0.0516 I0.0206 J0.
X-8.5206 Z-0.0685 I-0.0206 J0.
X-8.4794 Z-0.0854 I0.0206 J0.
X-8.5206 Z-0.1023 I-0.0206 J0.
X-8.4794 Z-0.1193 I0.0206 J0.
X-8.5206 Z-0.1362 I-0.0206 J0.
X-8.4794 Z-0.1531 I0.0206 J0.
X-8.4806 Y-8.118 Z-0.155 I-0.0206 J0.
X-8.5194 Y-8.132 I-0.0194 J-0.007
X-8.4806 Y-8.118 I0.0194 J0.007
X-8.4938 Y-8.1118 I-0.0097 J-0.0035
G1 X-8.5009 Y-8.1144
X-8.5037 Y-8.1154 Z-0.1547
X-8.5063 Y-8.1163 Z-0.1539
X-8.5088 Y-8.1172 Z-0.1525
X-8.5109 Y-8.118 Z-0.1506
X-8.5127 Y-8.1186 Z-0.1483
X-8.514 Y-8.1191 Z-0.1457
X-8.5148 Y-8.1194 Z-0.1429
X-8.5151 Y-8.1195 Z-0.1399
G0 Z0.4
X-8.0123 Y-8.1353
Z0.13
G1 Z0.0651 F40.
G18 G2 X-7.9972 Z0.05 I0.0151 K0.
G1 X-7.9897
G17 G3 X-7.9794 Y-8.125 I0. J0.0103
X-8.0206 Z0.0331 I-0.0206 J0.
X-7.9794 Z0.0161 I0.0206 J0.
X-8.0206 Z-0.0008 I-0.0206 J0.
X-7.9794 Z-0.0177 I0.0206 J0.
X-8.0206 Z-0.0346 I-0.0206 J0.
X-7.9794 Z-0.0516 I0.0206 J0.
X-8.0206 Z-0.0685 I-0.0206 J0.
X-7.9794 Z-0.0854 I0.0206 J0.
X-8.0206 Z-0.1023 I-0.0206 J0.
X-7.9794 Z-0.1193 I0.0206 J0.
X-8.0206 Z-0.1362 I-0.0206 J0.
X-7.9794 Z-0.1531 I0.0206 J0.
X-7.9806 Y-8.118 Z-0.155 I-0.0206 J0.
X-8.0194 Y-8.132 I-0.0194 J-0.007
X-7.9806 Y-8.118 I0.0194 J0.007
X-7.9938 Y-8.1118 I-0.0097 J-0.0035
G1 X-8.0009 Y-8.1144
X-8.0037 Y-8.1154 Z-0.1547
X-8.0063 Y-8.1163 Z-0.1539
X-8.0088 Y-8.1172 Z-0.1525
X-8.0109 Y-8.118 Z-0.1506
X-8.0127 Y-8.1186 Z-0.1483
X-8.014 Y-8.1191 Z-0.1457
X-8.0148 Y-8.1194 Z-0.1429
X-8.0151 Y-8.1195 Z-0.1399
G0 Z0.4
X-7.5123 Y-8.1353
Z0.13
G1 Z0.0651 F40.
G18 G2 X-7.4972 Z0.05 I0.0151 K0.
G1 X-7.4897
G17 G3 X-7.4794 Y-8.125 I0. J0.0103
X-7.5206 Z0.0331 I-0.0206 J0.
X-7.4794 Z0.0161 I0.0206 J0.
X-7.5206 Z-0.0008 I-0.0206 J0.
X-7.4794 Z-0.0177 I0.0206 J0.
X-7.5206 Z-0.0346 I-0.0206 J0.
X-7.4794 Z-0.0516 I0.0206 J0.
X-7.5206 Z-0.0685 I-0.0206 J0.
X-7.4794 Z-0.0854 I0.0206 J0.
X-7.5206 Z-0.1023 I-0.0206 J0.
X-7.4794 Z-0.1193 I0.0206 J0.
X-7.5206 Z-0.1362 I-0.0206 J0.
X-7.4794 Z-0.1531 I0.0206 J0.
X-7.4806 Y-8.118 Z-0.155 I-0.0206 J0.
X-7.5194 Y-8.132 I-0.0194 J-0.007
X-7.4806 Y-8.118 I0.0194 J0.007
X-7.4938 Y-8.1118 I-0.0097 J-0.0035
G1 X-7.5009 Y-8.1144
X-7.5037 Y-8.1154 Z-0.1547
X-7.5063 Y-8.1163 Z-0.1539
X-7.5088 Y-8.1172 Z-0.1525
X-7.5109 Y-8.118 Z-0.1506
X-7.5127 Y-8.1186 Z-0.1483
X-7.514 Y-8.1191 Z-0.1457
X-7.5148 Y-8.1194 Z-0.1429
X-7.5151 Y-8.1195 Z-0.1399
G0 Z0.4
X-6.8873 Y-8.1353
Z0.13
G1 Z0.0651 F40.
G18 G2 X-6.8722 Z0.05 I0.0151 K0.
G1 X-6.8647
G17 G3 X-6.8544 Y-8.125 I0. J0.0103
X-6.8956 Z0.0331 I-0.0206 J0.
X-6.8544 Z0.0161 I0.0206 J0.
X-6.8956 Z-0.0008 I-0.0206 J0.
X-6.8544 Z-0.0177 I0.0206 J0.
X-6.8956 Z-0.0346 I-0.0206 J0.
X-6.8544 Z-0.0516 I0.0206 J0.
X-6.8956 Z-0.0685 I-0.0206 J0.
X-6.8544 Z-0.0854 I0.0206 J0.
X-6.8956 Z-0.1023 I-0.0206 J0.
X-6.8544 Z-0.1193 I0.0206 J0.
X-6.8956 Z-0.1362 I-0.0206 J0.
X-6.8544 Z-0.1531 I0.0206 J0.
X-6.8556 Y-8.118 Z-0.155 I-0.0206 J0.
X-6.8944 Y-8.132 I-0.0194 J-0.007
X-6.8556 Y-8.118 I0.0194 J0.007
X-6.8688 Y-8.1118 I-0.0097 J-0.0035
G1 X-6.8759 Y-8.1144
X-6.8787 Y-8.1154 Z-0.1547
X-6.8813 Y-8.1163 Z-0.1539
X-6.8838 Y-8.1172 Z-0.1525
X-6.8859 Y-8.118 Z-0.1506
X-6.8877 Y-8.1186 Z-0.1483
X-6.889 Y-8.1191 Z-0.1457
X-6.8898 Y-8.1194 Z-0.1429
X-6.8901 Y-8.1195 Z-0.1399
G0 Z0.4
X-6.3873 Y-8.1353
Z0.13
G1 Z0.0651 F40.
G18 G2 X-6.3722 Z0.05 I0.0151 K0.
G1 X-6.3647
G17 G3 X-6.3544 Y-8.125 I0. J0.0103
X-6.3956 Z0.0331 I-0.0206 J0.
X-6.3544 Z0.0161 I0.0206 J0.
X-6.3956 Z-0.0008 I-0.0206 J0.
X-6.3544 Z-0.0177 I0.0206 J0.
X-6.3956 Z-0.0346 I-0.0206 J0.
X-6.3544 Z-0.0516 I0.0206 J0.
X-6.3956 Z-0.0685 I-0.0206 J0.
X-6.3544 Z-0.0854 I0.0206 J0.
X-6.3956 Z-0.1023 I-0.0206 J0.
X-6.3544 Z-0.1193 I0.0206 J0.
X-6.3956 Z-0.1362 I-0.0206 J0.
X-6.3544 Z-0.1531 I0.0206 J0.
X-6.3556 Y-8.118 Z-0.155 I-0.0206 J0.
X-6.3944 Y-8.132 I-0.0194 J-0.007
X-6.3556 Y-8.118 I0.0194 J0.007
X-6.3688 Y-8.1118 I-0.0097 J-0.0035
G1 X-6.3759 Y-8.1144
X-6.3787 Y-8.1154 Z-0.1547
X-6.3813 Y-8.1163 Z-0.1539
X-6.3838 Y-8.1172 Z-0.1525
X-6.3859 Y-8.118 Z-0.1506
X-6.3877 Y-8.1186 Z-0.1483
X-6.389 Y-8.1191 Z-0.1457
X-6.3898 Y-8.1194 Z-0.1429
X-6.3901 Y-8.1195 Z-0.1399
G0 Z0.4
X-6.3873 Y-7.6353
Z0.13
G1 Z0.0651 F40.
G18 G2 X-6.3722 Z0.05 I0.0151 K0.
G1 X-6.3647
G17 G3 X-6.3544 Y-7.625 I0. J0.0103
X-6.3956 Z0.0331 I-0.0206 J0.
X-6.3544 Z0.0161 I0.0206 J0.
X-6.3956 Z-0.0008 I-0.0206 J0.
X-6.3544 Z-0.0177 I0.0206 J0.
X-6.3956 Z-0.0346 I-0.0206 J0.
X-6.3544 Z-0.0516 I0.0206 J0.
X-6.3956 Z-0.0685 I-0.0206 J0.
X-6.3544 Z-0.0854 I0.0206 J0.
X-6.3956 Z-0.1023 I-0.0206 J0.
X-6.3544 Z-0.1193 I0.0206 J0.
X-6.3956 Z-0.1362 I-0.0206 J0.
X-6.3544 Z-0.1531 I0.0206 J0.
X-6.3556 Y-7.618 Z-0.155 I-0.0206 J0.
X-6.3944 Y-7.632 I-0.0194 J-0.007
X-6.3556 Y-7.618 I0.0194 J0.007
X-6.3688 Y-7.6118 I-0.0097 J-0.0035
G1 X-6.3759 Y-7.6144
X-6.3787 Y-7.6154 Z-0.1547
X-6.3813 Y-7.6163 Z-0.1539
X-6.3838 Y-7.6172 Z-0.1525
X-6.3859 Y-7.618 Z-0.1506
X-6.3877 Y-7.6186 Z-0.1483
X-6.389 Y-7.6191 Z-0.1457
X-6.3898 Y-7.6194 Z-0.1429
X-6.3901 Y-7.6195 Z-0.1399
G0 Z0.4
X-6.8873 Y-7.6353
Z0.13
G1 Z0.0651 F40.
G18 G2 X-6.8722 Z0.05 I0.0151 K0.
G1 X-6.8647
G17 G3 X-6.8544 Y-7.625 I0. J0.0103
X-6.8956 Z0.0331 I-0.0206 J0.
X-6.8544 Z0.0161 I0.0206 J0.
X-6.8956 Z-0.0008 I-0.0206 J0.
X-6.8544 Z-0.0177 I0.0206 J0.
X-6.8956 Z-0.0346 I-0.0206 J0.
X-6.8544 Z-0.0516 I0.0206 J0.
X-6.8956 Z-0.0685 I-0.0206 J0.
X-6.8544 Z-0.0854 I0.0206 J0.
X-6.8956 Z-0.1023 I-0.0206 J0.
X-6.8544 Z-0.1193 I0.0206 J0.
X-6.8956 Z-0.1362 I-0.0206 J0.
X-6.8544 Z-0.1531 I0.0206 J0.
X-6.8556 Y-7.618 Z-0.155 I-0.0206 J0.
X-6.8944 Y-7.632 I-0.0194 J-0.007
X-6.8556 Y-7.618 I0.0194 J0.007
X-6.8688 Y-7.6118 I-0.0097 J-0.0035
G1 X-6.8759 Y-7.6144
X-6.8787 Y-7.6154 Z-0.1547
X-6.8813 Y-7.6163 Z-0.1539
X-6.8838 Y-7.6172 Z-0.1525
X-6.8859 Y-7.618 Z-0.1506
X-6.8877 Y-7.6186 Z-0.1483
X-6.889 Y-7.6191 Z-0.1457
X-6.8898 Y-7.6194 Z-0.1429
X-6.8901 Y-7.6195 Z-0.1399
G0 Z0.4
X-6.8873 Y-7.1353
Z0.13
G1 Z0.0651 F40.
G18 G2 X-6.8722 Z0.05 I0.0151 K0.
G1 X-6.8647
G17 G3 X-6.8544 Y-7.125 I0. J0.0103
X-6.8956 Z0.0331 I-0.0206 J0.
X-6.8544 Z0.0161 I0.0206 J0.
X-6.8956 Z-0.0008 I-0.0206 J0.
X-6.8544 Z-0.0177 I0.0206 J0.
X-6.8956 Z-0.0346 I-0.0206 J0.
X-6.8544 Z-0.0516 I0.0206 J0.
X-6.8956 Z-0.0685 I-0.0206 J0.
X-6.8544 Z-0.0854 I0.0206 J0.
X-6.8956 Z-0.1023 I-0.0206 J0.
X-6.8544 Z-0.1193 I0.0206 J0.
X-6.8956 Z-0.1362 I-0.0206 J0.
X-6.8544 Z-0.1531 I0.0206 J0.
X-6.8556 Y-7.118 Z-0.155 I-0.0206 J0.
X-6.8944 Y-7.132 I-0.0194 J-0.007
X-6.8556 Y-7.118 I0.0194 J0.007
X-6.8688 Y-7.1118 I-0.0097 J-0.0035
G1 X-6.8759 Y-7.1144
X-6.8787 Y-7.1154 Z-0.1547
X-6.8813 Y-7.1163 Z-0.1539
X-6.8838 Y-7.1172 Z-0.1525
X-6.8859 Y-7.118 Z-0.1506
X-6.8877 Y-7.1186 Z-0.1483
X-6.889 Y-7.1191 Z-0.1457
X-6.8898 Y-7.1194 Z-0.1429
X-6.8901 Y-7.1195 Z-0.1399
G0 Z0.4
X-6.3873 Y-7.1353
Z0.13
G1 Z0.0651 F40.
G18 G2 X-6.3722 Z0.05 I0.0151 K0.
G1 X-6.3647
G17 G3 X-6.3544 Y-7.125 I0. J0.0103
X-6.3956 Z0.0331 I-0.0206 J0.
X-6.3544 Z0.0161 I0.0206 J0.
X-6.3956 Z-0.0008 I-0.0206 J0.
X-6.3544 Z-0.0177 I0.0206 J0.
X-6.3956 Z-0.0346 I-0.0206 J0.
X-6.3544 Z-0.0516 I0.0206 J0.
X-6.3956 Z-0.0685 I-0.0206 J0.
X-6.3544 Z-0.0854 I0.0206 J0.
X-6.3956 Z-0.1023 I-0.0206 J0.
X-6.3544 Z-0.1193 I0.0206 J0.
X-6.3956 Z-0.1362 I-0.0206 J0.
X-6.3544 Z-0.1531 I0.0206 J0.
X-6.3556 Y-7.118 Z-0.155 I-0.0206 J0.
X-6.3944 Y-7.132 I-0.0194 J-0.007
X-6.3556 Y-7.118 I0.0194 J0.007
X-6.3688 Y-7.1118 I-0.0097 J-0.0035
G1 X-6.3759 Y-7.1144
X-6.3787 Y-7.1154 Z-0.1547
X-6.3813 Y-7.1163 Z-0.1539
X-6.3838 Y-7.1172 Z-0.1525
X-6.3859 Y-7.118 Z-0.1506
X-6.3877 Y-7.1186 Z-0.1483
X-6.389 Y-7.1191 Z-0.1457
X-6.3898 Y-7.1194 Z-0.1429
X-6.3901 Y-7.1195 Z-0.1399
G0 Z0.4
X-6.3873 Y-6.6353
Z0.13
G1 Z0.0651 F40.
G18 G2 X-6.3722 Z0.05 I0.0151 K0.
G1 X-6.3647
G17 G3 X-6.3544 Y-6.625 I0. J0.0103
X-6.3956 Z0.0331 I-0.0206 J0.
X-6.3544 Z0.0161 I0.0206 J0.
X-6.3956 Z-0.0008 I-0.0206 J0.
X-6.3544 Z-0.0177 I0.0206 J0.
X-6.3956 Z-0.0346 I-0.0206 J0.
X-6.3544 Z-0.0516 I0.0206 J0.
X-6.3956 Z-0.0685 I-0.0206 J0.
X-6.3544 Z-0.0854 I0.0206 J0.
X-6.3956 Z-0.1023 I-0.0206 J0.
X-6.3544 Z-0.1193 I0.0206 J0.
X-6.3956 Z-0.1362 I-0.0206 J0.
X-6.3544 Z-0.1531 I0.0206 J0.
X-6.3556 Y-6.618 Z-0.155 I-0.0206 J0.
X-6.3944 Y-6.632 I-0.0194 J-0.007
X-6.3556 Y-6.618 I0.0194 J0.007
X-6.3688 Y-6.6118 I-0.0097 J-0.0035
G1 X-6.3759 Y-6.6144
X-6.3787 Y-6.6154 Z-0.1547
X-6.3813 Y-6.6163 Z-0.1539
X-6.3838 Y-6.6172 Z-0.1525
X-6.3859 Y-6.618 Z-0.1506
X-6.3877 Y-6.6186 Z-0.1483
X-6.389 Y-6.6191 Z-0.1457
X-6.3898 Y-6.6194 Z-0.1429
X-6.3901 Y-6.6195 Z-0.1399
G0 Z0.4
X-6.8873 Y-6.6353
Z0.13
G1 Z0.0651 F40.
G18 G2 X-6.8722 Z0.05 I0.0151 K0.
G1 X-6.8647
G17 G3 X-6.8544 Y-6.625 I0. J0.0103
X-6.8956 Z0.0331 I-0.0206 J0.
X-6.8544 Z0.0161 I0.0206 J0.
X-6.8956 Z-0.0008 I-0.0206 J0.
X-6.8544 Z-0.0177 I0.0206 J0.
X-6.8956 Z-0.0346 I-0.0206 J0.
X-6.8544 Z-0.0516 I0.0206 J0.
X-6.8956 Z-0.0685 I-0.0206 J0.
X-6.8544 Z-0.0854 I0.0206 J0.
X-6.8956 Z-0.1023 I-0.0206 J0.
X-6.8544 Z-0.1193 I0.0206 J0.
X-6.8956 Z-0.1362 I-0.0206 J0.
X-6.8544 Z-0.1531 I0.0206 J0.
X-6.8556 Y-6.618 Z-0.155 I-0.0206 J0.
X-6.8944 Y-6.632 I-0.0194 J-0.007
X-6.8556 Y-6.618 I0.0194 J0.007
X-6.8688 Y-6.6118 I-0.0097 J-0.0035
G1 X-6.8759 Y-6.6144
X-6.8787 Y-6.6154 Z-0.1547
X-6.8813 Y-6.6163 Z-0.1539
X-6.8838 Y-6.6172 Z-0.1525
X-6.8859 Y-6.618 Z-0.1506
X-6.8877 Y-6.6186 Z-0.1483
X-6.889 Y-6.6191 Z-0.1457
X-6.8898 Y-6.6194 Z-0.1429
X-6.8901 Y-6.6195 Z-0.1399
G0 Z0.6
(2D SLOT CUT)
M7
G0 X-6.8683 Y-9.5754
Z0.6
Z0.2
G1 Z0.1 F13.333
X-7.875 Z-0.0775 F40.
X-8.9704 F55.
Z-0.075
X-9.7212
Z-0.0775 F13.333
X-10.25 F55.
G2 X-10.4504 Y-9.375 I0. J0.2004
G1 Y-8.5138
G2 X-10.4456 Y-8.4701 I0.2004 J0.0001
G1 X-10.2462 Y-7.5781
Z-0.075
X-10.0824 Y-6.8453
Z-0.0775 F13.333
X-9.9954 Y-6.4563 F55.
G2 X-9.7998 Y-6.2996 I0.1956 J-0.0437
G1 X-9.05
G2 X-8.8496 Y-6.5 I0. J-0.2004
G1 Y-7.3
G3 X-8.8 Y-7.3496 I0.0496 J0.
G1 X-7.2
G3 X-7.1504 Y-7.3 I0. J0.0496
G1 Y-6.5
G2 X-6.95 Y-6.2996 I0.2004 J0.
G1 X-6.225
G2 X-6.0246 Y-6.5 I0. J-0.2004
G1 Y-6.8794
Z-0.075
Y-7.6302
Z-0.0775 F13.333
Y-8.375 F55.
G3 X-5.975 Y-8.4246 I0.0496 J0.
G1 X-5.5
G2 X-5.2996 Y-8.625 I0. J-0.2004
G1 Y-9.375
G2 X-5.5 Y-9.5754 I-0.2004 J0.
G1 X-6.1478
Z-0.075
X-6.8986
Z-0.0775 F13.333
X-7.875 F55.
X-8.3371 Z-0.155 F40.
X-8.9704 F55.
Z-0.075
X-9.7212
Z-0.155 F13.333
X-10.25 F55.
G2 X-10.4504 Y-9.375 I0. J0.2004
G1 Y-8.5138
G2 X-10.4456 Y-8.4701 I0.2004 J0.0001
G1 X-10.2462 Y-7.5781
Z-0.075
X-10.0824 Y-6.8453
Z-0.155 F13.333
X-9.9954 Y-6.4563 F55.
G2 X-9.7998 Y-6.2996 I0.1956 J-0.0437
G1 X-9.05
G2 X-8.8496 Y-6.5 I0. J-0.2004
G1 Y-7.3
G3 X-8.8 Y-7.3496 I0.0496 J0.
G1 X-7.2
G3 X-7.1504 Y-7.3 I0. J0.0496
G1 Y-6.5
G2 X-6.95 Y-6.2996 I0.2004 J0.
G1 X-6.225
G2 X-6.0246 Y-6.5 I0. J-0.2004
G1 Y-6.8794
Z-0.075
Y-7.6302
Z-0.155 F13.333
Y-8.375 F55.
G3 X-5.975 Y-8.4246 I0.0496 J0.
G1 X-5.5
G2 X-5.2996 Y-8.625 I0. J-0.2004
G1 Y-9.375
G2 X-5.5 Y-9.5754 I-0.2004 J0.
G1 X-6.1478
Z-0.075
X-6.8986
Z-0.155 F13.333
X-8.3371 F55.
G0 Z0.6
M9
G53 Z0.
M30
%
