%
(FULL WIDTH INTAKE PROTOTYPE PLATE_2500)
(T1  D=0.25 CR=0. - ZMIN=-0.28 - FLAT END MILL)
G90 G94 G17 G91.1
G64 P0.001 Q0.001
G20
G53 G0 Z0.
(.3 CIRCLUAR THROUGH HOLE 2)
M9
T1 M6
S15000 M3
G4 P10.
G54
M7
G0 X9.7634 Y8.4934
G43 Z0.6 H1
G0 Z0.105
G1 Z0.05 F60.
X9.7674 Y8.4974
G3 X9.7634 Y8.5014 I-0.004 J0.
Y8.4854 Z0.0265 I0. J-0.008 F80.
Y8.5014 Z0.0031 I0. J0.008
Y8.4854 Z-0.0204 I0. J-0.008
Y8.5014 Z-0.0438 I0. J0.008
Y8.4854 Z-0.0673 I0. J-0.008
Y8.5014 Z-0.0907 I0. J0.008
X9.7554 Y8.4929 Z-0.1029 I0. J-0.008
X9.7643 Y8.4854 Z-0.115 I0.008 J0.0004
X9.7625 Y8.5013 Z-0.1385 I-0.0009 J0.0079
X9.7555 Y8.4948 Z-0.148 I0.0009 J-0.0079
X9.7713 Y8.492 Z-0.1715 I0.0079 J-0.0014
X9.767 Y8.5005 Z-0.181 I-0.0079 J0.0014
X9.7598 Y8.4863 Z-0.2045 I-0.0036 J-0.0071
X9.7692 Y8.4879 Z-0.214 I0.0036 J0.0071
X9.7576 Y8.4989 Z-0.2375 I-0.0058 J0.0055
X9.7565 Y8.4894 Z-0.247 I0.0058 J-0.0055
X9.7704 Y8.4973 Z-0.2705 I0.007 J0.004
X9.7616 Y8.5012 Z-0.28 I-0.007 J-0.004
X9.7652 Y8.4856 I0.0018 J-0.0078
X9.7616 Y8.5012 I-0.0018 J0.0078
X9.7586 Y8.4964 I0.0009 J-0.0039 F60.
G1 X9.7634 Y8.4934
G0 Z0.4
Y7.8634
Z0.105
G1 Z0.05 F60.
X9.7674 Y7.8674
G3 X9.7634 Y7.8714 I-0.004 J0.
Y7.8554 Z0.0265 I0. J-0.008 F80.
Y7.8714 Z0.0031 I0. J0.008
Y7.8554 Z-0.0204 I0. J-0.008
Y7.8714 Z-0.0438 I0. J0.008
Y7.8554 Z-0.0673 I0. J-0.008
X9.7708 Y7.8665 Z-0.082 I0. J0.008
X9.7561 Y7.8602 Z-0.1055 I-0.0074 J-0.0031
X9.7708 Y7.8665 Z-0.1289 I0.0074 J0.0031
X9.7555 Y7.8648 Z-0.148 I-0.0074 J-0.0031
X9.7713 Y7.862 Z-0.1715 I0.0079 J-0.0014
X9.7555 Y7.8648 Z-0.1949 I-0.0079 J0.0014
X9.7692 Y7.8579 Z-0.214 I0.0079 J-0.0014
X9.7576 Y7.8689 Z-0.2375 I-0.0058 J0.0055
X9.7565 Y7.8594 Z-0.247 I0.0058 J-0.0055
X9.7704 Y7.8673 Z-0.2705 I0.007 J0.004
X9.7616 Y7.8712 Z-0.28 I-0.007 J-0.004
X9.7652 Y7.8556 I0.0018 J-0.0078
X9.7616 Y7.8712 I-0.0018 J0.0078
X9.7586 Y7.8664 I0.0009 J-0.0039 F60.
G1 X9.7634 Y7.8634
G0 Z0.4
Y2.13
Z0.105
G1 Z0.05 F60.
X9.7674 Y2.134
G3 X9.7634 Y2.138 I-0.004 J0.
Y2.122 Z0.0265 I0. J-0.008 F80.
Y2.138 Z0.0031 I0. J0.008
Y2.122 Z-0.0204 I0. J-0.008
Y2.138 Z-0.0438 I0. J0.008
Y2.122 Z-0.0673 I0. J-0.008
Y2.138 Z-0.0907 I0. J0.008
Y2.122 Z-0.1142 I0. J-0.008
Y2.138 Z-0.1376 I0. J0.008
Y2.122 Z-0.1611 I0. J-0.008
Y2.138 Z-0.1845 I0. J0.008
Y2.122 Z-0.208 I0. J-0.008
Y2.138 Z-0.2314 I0. J0.008
Y2.122 Z-0.2549 I0. J-0.008
X9.7714 Y2.1309 Z-0.2674 I0. J0.008
X9.7616 Y2.1378 Z-0.28 I-0.0079 J-0.0009
X9.7652 Y2.1222 I0.0018 J-0.0078
X9.7616 Y2.1378 I-0.0018 J0.0078
X9.7586 Y2.133 I0.0009 J-0.0039 F60.
G1 X9.7634 Y2.13
G0 Z0.4
Y1.5
Z0.105
G1 Z0.05 F60.
X9.7674 Y1.504
G3 X9.7634 Y1.508 I-0.004 J0.
Y1.492 Z0.0265 I0. J-0.008 F80.
Y1.508 Z0.0031 I0. J0.008
Y1.492 Z-0.0204 I0. J-0.008
Y1.508 Z-0.0438 I0. J0.008
Y1.492 Z-0.0673 I0. J-0.008
Y1.508 Z-0.0907 I0. J0.008
Y1.492 Z-0.1142 I0. J-0.008
Y1.508 Z-0.1376 I0. J0.008
Y1.492 Z-0.1611 I0. J-0.008
Y1.508 Z-0.1845 I0. J0.008
Y1.492 Z-0.208 I0. J-0.008
Y1.508 Z-0.2314 I0. J0.008
Y1.492 Z-0.2549 I0. J-0.008
X9.7714 Y1.5009 Z-0.2674 I0. J0.008
X9.7616 Y1.5078 Z-0.28 I-0.0079 J-0.0009
X9.7652 Y1.4922 I0.0018 J-0.0078
X9.7616 Y1.5078 I-0.0018 J0.0078
X9.7586 Y1.503 I0.0009 J-0.0039 F60.
G1 X9.7634 Y1.5
G0 Z0.4
X-7.2366
Z0.105
G1 Z0.05 F60.
X-7.2326 Y1.504
G3 X-7.2366 Y1.508 I-0.004 J0.
Y1.492 Z0.0265 I0. J-0.008 F80.
Y1.508 Z0.0031 I0. J0.008
Y1.492 Z-0.0204 I0. J-0.008
Y1.508 Z-0.0438 I0. J0.008
Y1.492 Z-0.0673 I0. J-0.008
Y1.508 Z-0.0907 I0. J0.008
X-7.2446 Y1.4996 Z-0.1029 I0. J-0.008
X-7.2357 Y1.4921 Z-0.115 I0.008 J0.0004
X-7.2375 Y1.5079 Z-0.1385 I-0.0009 J0.0079
X-7.2445 Y1.5014 Z-0.148 I0.0009 J-0.0079
X-7.2287 Y1.4986 Z-0.1715 I0.0079 J-0.0014
X-7.2445 Y1.5014 Z-0.1949 I-0.0079 J0.0014
X-7.2308 Y1.4945 Z-0.214 I0.0079 J-0.0014
X-7.2424 Y1.5055 Z-0.2375 I-0.0058 J0.0055
X-7.2308 Y1.4945 Z-0.2609 I0.0058 J-0.0055
X-7.2384 Y1.5078 Z-0.28 I-0.0058 J0.0055
X-7.2348 Y1.4922 I0.0018 J-0.0078
X-7.2384 Y1.5078 I-0.0018 J0.0078
X-7.2414 Y1.503 I0.0009 J-0.0039 F60.
G1 X-7.2366 Y1.5
G0 Z0.4
Y2.13
Z0.105
G1 Z0.05 F60.
X-7.2326 Y2.134
G3 X-7.2366 Y2.138 I-0.004 J0.
Y2.122 Z0.0265 I0. J-0.008 F80.
Y2.138 Z0.0031 I0. J0.008
Y2.122 Z-0.0204 I0. J-0.008
Y2.138 Z-0.0438 I0. J0.008
Y2.122 Z-0.0673 I0. J-0.008
Y2.138 Z-0.0907 I0. J0.008
Y2.122 Z-0.1142 I0. J-0.008
Y2.138 Z-0.1376 I0. J0.008
Y2.122 Z-0.1611 I0. J-0.008
Y2.138 Z-0.1845 I0. J0.008
Y2.122 Z-0.208 I0. J-0.008
Y2.138 Z-0.2314 I0. J0.008
Y2.122 Z-0.2549 I0. J-0.008
X-7.2286 Y2.1309 Z-0.2674 I0. J0.008
X-7.2384 Y2.1378 Z-0.28 I-0.0079 J-0.0009
X-7.2348 Y2.1222 I0.0018 J-0.0078
X-7.2384 Y2.1378 I-0.0018 J0.0078
X-7.2414 Y2.133 I0.0009 J-0.0039 F60.
G1 X-7.2366 Y2.13
G0 Z0.4
Y2.76
Z0.105
G1 Z0.05 F60.
X-7.2326 Y2.764
G3 X-7.2366 Y2.768 I-0.004 J0.
Y2.752 Z0.0265 I0. J-0.008 F80.
X-7.2289 Y2.7577 Z0.017 I0. J0.008
X-7.2442 Y2.7623 Z-0.0065 I-0.0077 J0.0023
X-7.2289 Y2.7577 Z-0.0299 I0.0077 J-0.0023
X-7.2417 Y2.7661 Z-0.049 I-0.0077 J0.0023
X-7.2315 Y2.7539 Z-0.0725 I0.0051 J-0.0061
X-7.2292 Y2.7631 Z-0.082 I-0.0051 J0.0061
X-7.2439 Y2.7569 Z-0.1055 I-0.0074 J-0.0031
X-7.2357 Y2.7521 Z-0.115 I0.0074 J0.0031
X-7.2375 Y2.7679 Z-0.1385 I-0.0009 J0.0079
X-7.2445 Y2.7614 Z-0.148 I0.0009 J-0.0079
X-7.2287 Y2.7586 Z-0.1715 I0.0079 J-0.0014
X-7.2445 Y2.7614 Z-0.1949 I-0.0079 J0.0014
X-7.2308 Y2.7545 Z-0.214 I0.0079 J-0.0014
X-7.2424 Y2.7655 Z-0.2375 I-0.0058 J0.0055
X-7.2308 Y2.7545 Z-0.2609 I0.0058 J-0.0055
X-7.2384 Y2.7678 Z-0.28 I-0.0058 J0.0055
X-7.2348 Y2.7522 I0.0018 J-0.0078
X-7.2384 Y2.7678 I-0.0018 J0.0078
X-7.2414 Y2.763 I0.0009 J-0.0039 F60.
G1 X-7.2366 Y2.76
G0 Z0.4
Y3.39
Z0.105
G1 Z0.05 F60.
X-7.2326 Y3.394
G3 X-7.2366 Y3.398 I-0.004 J0.
Y3.382 Z0.0265 I0. J-0.008 F80.
Y3.398 Z0.0031 I0. J0.008
Y3.382 Z-0.0204 I0. J-0.008
Y3.398 Z-0.0438 I0. J0.008
Y3.382 Z-0.0673 I0. J-0.008
Y3.398 Z-0.0907 I0. J0.008
Y3.382 Z-0.1142 I0. J-0.008
Y3.398 Z-0.1376 I0. J0.008
Y3.382 Z-0.1611 I0. J-0.008
Y3.398 Z-0.1845 I0. J0.008
Y3.382 Z-0.208 I0. J-0.008
Y3.398 Z-0.2314 I0. J0.008
Y3.382 Z-0.2549 I0. J-0.008
X-7.2286 Y3.3909 Z-0.2674 I0. J0.008
X-7.2384 Y3.3978 Z-0.28 I-0.0079 J-0.0009
X-7.2348 Y3.3822 I0.0018 J-0.0078
X-7.2384 Y3.3978 I-0.0018 J0.0078
X-7.2414 Y3.393 I0.0009 J-0.0039 F60.
G1 X-7.2366 Y3.39
G0 Z0.4
Y17.0342
Z0.105
G1 Z0.05 F60.
X-7.2326 Y17.0382
G3 X-7.2366 Y17.0422 I-0.004 J0.
Y17.0262 Z0.0265 I0. J-0.008 F80.
X-7.2289 Y17.0319 Z0.017 I0. J0.008
X-7.2442 Y17.0365 Z-0.0065 I-0.0077 J0.0023
X-7.241 Y17.0276 Z-0.016 I0.0077 J-0.0023
X-7.2322 Y17.0409 Z-0.0395 I0.0044 J0.0067
X-7.2417 Y17.0404 Z-0.049 I-0.0044 J-0.0067
X-7.2315 Y17.0281 Z-0.0725 I0.0051 J-0.0061
X-7.2292 Y17.0374 Z-0.082 I-0.0051 J0.0061
X-7.2439 Y17.0311 Z-0.1055 I-0.0074 J-0.0031
X-7.2292 Y17.0374 Z-0.1289 I0.0074 J0.0031
X-7.2445 Y17.0357 Z-0.148 I-0.0074 J-0.0031
X-7.2287 Y17.0328 Z-0.1715 I0.0079 J-0.0014
X-7.2445 Y17.0357 Z-0.1949 I-0.0079 J0.0014
X-7.2308 Y17.0287 Z-0.214 I0.0079 J-0.0014
X-7.2424 Y17.0398 Z-0.2375 I-0.0058 J0.0055
X-7.2435 Y17.0303 Z-0.247 I0.0058 J-0.0055
X-7.2296 Y17.0382 Z-0.2705 I0.007 J0.004
X-7.2384 Y17.042 Z-0.28 I-0.007 J-0.004
X-7.2348 Y17.0264 I0.0018 J-0.0078
X-7.2384 Y17.042 I-0.0018 J0.0078
X-7.2414 Y17.0372 I0.0009 J-0.0039 F60.
G1 X-7.2366 Y17.0342
G0 Z0.4
Y17.6642
Z0.105
G1 Z0.05 F60.
X-7.2326 Y17.6682
G3 X-7.2366 Y17.6722 I-0.004 J0.
Y17.6562 Z0.0265 I0. J-0.008 F80.
X-7.2289 Y17.6619 Z0.017 I0. J0.008
X-7.2442 Y17.6665 Z-0.0065 I-0.0077 J0.0023
X-7.241 Y17.6576 Z-0.016 I0.0077 J-0.0023
X-7.2322 Y17.6709 Z-0.0395 I0.0044 J0.0067
X-7.241 Y17.6576 Z-0.0629 I-0.0044 J-0.0067
X-7.2292 Y17.6674 Z-0.082 I0.0044 J0.0067
X-7.2439 Y17.6611 Z-0.1055 I-0.0074 J-0.0031
X-7.2357 Y17.6563 Z-0.115 I0.0074 J0.0031
X-7.2375 Y17.6722 Z-0.1385 I-0.0009 J0.0079
X-7.2445 Y17.6657 Z-0.148 I0.0009 J-0.0079
X-7.2287 Y17.6628 Z-0.1715 I0.0079 J-0.0014
X-7.2445 Y17.6657 Z-0.1949 I-0.0079 J0.0014
X-7.2308 Y17.6587 Z-0.214 I0.0079 J-0.0014
X-7.2424 Y17.6698 Z-0.2375 I-0.0058 J0.0055
X-7.2308 Y17.6587 Z-0.2609 I0.0058 J-0.0055
X-7.2384 Y17.672 Z-0.28 I-0.0058 J0.0055
X-7.2348 Y17.6564 I0.0018 J-0.0078
X-7.2384 Y17.672 I-0.0018 J0.0078
X-7.2414 Y17.6672 I0.0009 J-0.0039 F60.
G1 X-7.2366 Y17.6642
G0 Z0.6
(.3 CIRCULAR THROUGH HOLE)
M7
G0 X-0.1098 Y8.2455
Z0.6
Z0.2
G1 Z0.1241 F13.333
G3 X-0.1104 Y8.2444 Z0.1161 I0.0393 J-0.022
X-0.112 Y8.2409 Z0.1089 I0.0399 J-0.0208
X-0.114 Y8.2353 Z0.1034 I0.0415 J-0.0174
X-0.1153 Y8.228 Z0.1 I0.0434 J-0.0117
X-0.0257 Y8.2191 Z0.0621 I0.0448 J-0.0045
X-0.1153 Y8.228 Z0.0242 I-0.0448 J0.0045
X-0.0257 Y8.2191 Z-0.0136 I0.0448 J-0.0045
X-0.1153 Y8.228 Z-0.0515 I-0.0448 J0.0045
X-0.0257 Y8.2191 Z-0.0894 I0.0448 J-0.0045
X-0.1153 Y8.228 Z-0.1273 I-0.0448 J0.0045
X-0.0257 Y8.2191 Z-0.1652 I0.0448 J-0.0045
X-0.1153 Y8.228 Z-0.203 I-0.0448 J0.0045
X-0.0257 Y8.2191 Z-0.2409 I0.0448 J-0.0045
X-0.0683 Y8.2685 Z-0.2605 I-0.0448 J0.0045
X-0.1155 Y8.2235 Z-0.28 I-0.0022 J-0.0449
X-0.037 I0.0393 J0. F80.
X-0.2155 I-0.0893 J0.
X0.063 I0.1393 J0.
X-0.3155 I-0.1893 J0.
X0.163 I0.2393 J0.
X-0.4155 I-0.2893 J0.
X0.263 I0.3393 J0.
X-0.5155 I-0.3893 J0.
X0.363 I0.4393 J0.
X-0.6155 I-0.4893 J0.
X0.373 I0.4943 J0.
X-0.6255 I-0.4993 J0.
X0.373 I0.4993 J0.
X0.3718 Y8.2311 Z-0.2788 I-0.025 J0. F60.
X0.3688 Y8.2374 Z-0.2752 I-0.0238 J-0.0076
X0.3652 Y8.2416 Z-0.2697 I-0.0208 J-0.0139
X0.3625 Y8.2439 Z-0.2627 I-0.0173 J-0.0181
X0.3615 Y8.2446 Z-0.255 I-0.0145 J-0.0204
G0 Z0.4
X0.3703 Y6.8359
Z0.2
G1 Z0.1241 F13.333
G3 X0.3697 Y6.8347 Z0.1161 I0.0393 J-0.022
X0.3681 Y6.8312 Z0.1089 I0.0399 J-0.0208
X0.3661 Y6.8256 Z0.1034 I0.0415 J-0.0174
X0.3648 Y6.8183 Z0.1 I0.0434 J-0.0117
X0.4543 Y6.8094 Z0.0621 I0.0448 J-0.0045
X0.3648 Y6.8183 Z0.0242 I-0.0448 J0.0045
X0.4543 Y6.8094 Z-0.0136 I0.0448 J-0.0045
X0.3648 Y6.8183 Z-0.0515 I-0.0448 J0.0045
X0.4543 Y6.8094 Z-0.0894 I0.0448 J-0.0045
X0.3648 Y6.8183 Z-0.1273 I-0.0448 J0.0045
X0.4543 Y6.8094 Z-0.1652 I0.0448 J-0.0045
X0.3648 Y6.8183 Z-0.203 I-0.0448 J0.0045
X0.4543 Y6.8094 Z-0.2409 I0.0448 J-0.0045
X0.4118 Y6.8588 Z-0.2605 I-0.0448 J0.0045
X0.3646 Y6.8139 Z-0.28 I-0.0022 J-0.0449
X0.4431 I0.0393 J0. F80.
X0.2646 I-0.0893 J0.
X0.5431 I0.1393 J0.
X0.1646 I-0.1893 J0.
X0.6431 I0.2393 J0.
X0.0646 I-0.2893 J0.
X0.7431 I0.3393 J0.
X-0.0354 I-0.3893 J0.
X0.8431 I0.4393 J0.
X-0.1354 I-0.4893 J0.
X0.8531 I0.4943 J0.
X-0.1454 I-0.4993 J0.
X0.8531 I0.4993 J0.
X0.8519 Y6.8215 Z-0.2788 I-0.025 J0. F60.
X0.8489 Y6.8277 Z-0.2752 I-0.0238 J-0.0076
X0.8453 Y6.8319 Z-0.2697 I-0.0208 J-0.0139
X0.8426 Y6.8342 Z-0.2627 I-0.0173 J-0.0181
X0.8416 Y6.8349 Z-0.255 I-0.0145 J-0.0204
G0 Z0.4
X2.0472 Y6.1791
Z0.2
G1 Z0.1241 F13.333
G3 X2.0466 Y6.178 Z0.1161 I0.0393 J-0.022
X2.045 Y6.1745 Z0.1089 I0.0399 J-0.0208
X2.043 Y6.1689 Z0.1034 I0.0415 J-0.0174
X2.0417 Y6.1616 Z0.1 I0.0434 J-0.0117
X2.1313 Y6.1527 Z0.0621 I0.0448 J-0.0045
X2.0417 Y6.1616 Z0.0242 I-0.0448 J0.0045
X2.1313 Y6.1527 Z-0.0136 I0.0448 J-0.0045
X2.0417 Y6.1616 Z-0.0515 I-0.0448 J0.0045
X2.1313 Y6.1527 Z-0.0894 I0.0448 J-0.0045
X2.0417 Y6.1616 Z-0.1273 I-0.0448 J0.0045
X2.1313 Y6.1527 Z-0.1652 I0.0448 J-0.0045
X2.0417 Y6.1616 Z-0.203 I-0.0448 J0.0045
X2.1313 Y6.1527 Z-0.2409 I0.0448 J-0.0045
X2.0887 Y6.2021 Z-0.2605 I-0.0448 J0.0045
X2.0415 Y6.1571 Z-0.28 I-0.0022 J-0.0449
X2.12 I0.0393 J0. F80.
X1.9415 I-0.0893 J0.
X2.22 I0.1393 J0.
X1.8415 I-0.1893 J0.
X2.32 I0.2393 J0.
X1.7415 I-0.2893 J0.
X2.42 I0.3393 J0.
X1.6415 I-0.3893 J0.
X2.52 I0.4393 J0.
X1.5415 I-0.4893 J0.
X2.53 I0.4943 J0.
X1.5315 I-0.4993 J0.
X2.53 I0.4993 J0.
X2.5288 Y6.1647 Z-0.2788 I-0.025 J0. F60.
X2.5258 Y6.171 Z-0.2752 I-0.0238 J-0.0076
X2.5222 Y6.1752 Z-0.2697 I-0.0208 J-0.0139
X2.5195 Y6.1775 Z-0.2627 I-0.0173 J-0.0181
X2.5185 Y6.1782 Z-0.255 I-0.0145 J-0.0204
G0 Z0.4
X2.821 Y4.7708
Z0.2
G1 Z0.1241 F13.333
G3 X2.8204 Y4.7697 Z0.1161 I0.0393 J-0.022
X2.8188 Y4.7662 Z0.1089 I0.0399 J-0.0208
X2.8168 Y4.7606 Z0.1034 I0.0415 J-0.0174
X2.8155 Y4.7533 Z0.1 I0.0434 J-0.0117
X2.905 Y4.7444 Z0.0621 I0.0448 J-0.0045
X2.8155 Y4.7533 Z0.0242 I-0.0448 J0.0045
X2.905 Y4.7444 Z-0.0136 I0.0448 J-0.0045
X2.8155 Y4.7533 Z-0.0515 I-0.0448 J0.0045
X2.905 Y4.7444 Z-0.0894 I0.0448 J-0.0045
X2.8155 Y4.7533 Z-0.1273 I-0.0448 J0.0045
X2.905 Y4.7444 Z-0.1652 I0.0448 J-0.0045
X2.8155 Y4.7533 Z-0.203 I-0.0448 J0.0045
X2.905 Y4.7444 Z-0.2409 I0.0448 J-0.0045
X2.8625 Y4.7938 Z-0.2605 I-0.0448 J0.0045
X2.8153 Y4.7488 Z-0.28 I-0.0022 J-0.0449
X2.8938 I0.0393 J0. F80.
X2.7153 I-0.0893 J0.
X2.9938 I0.1393 J0.
X2.6153 I-0.1893 J0.
X3.0938 I0.2393 J0.
X2.5153 I-0.2893 J0.
X3.1938 I0.3393 J0.
X2.4153 I-0.3893 J0.
X3.2938 I0.4393 J0.
X2.3153 I-0.4893 J0.
X3.3038 I0.4943 J0.
X2.3053 I-0.4993 J0.
X3.3038 I0.4993 J0.
X3.3026 Y4.7564 Z-0.2788 I-0.025 J0. F60.
X3.2996 Y4.7627 Z-0.2752 I-0.0238 J-0.0076
X3.296 Y4.7669 Z-0.2697 I-0.0208 J-0.0139
X3.2933 Y4.7692 Z-0.2627 I-0.0173 J-0.0181
X3.2923 Y4.7699 Z-0.255 I-0.0145 J-0.0204
G0 Z0.4
X3.8616 Y3.5481
Z0.2
G1 Z0.1241 F13.333
G3 X3.861 Y3.5469 Z0.1161 I0.0393 J-0.022
X3.8594 Y3.5434 Z0.1089 I0.0399 J-0.0208
X3.8574 Y3.5378 Z0.1034 I0.0415 J-0.0174
X3.8561 Y3.5305 Z0.1 I0.0434 J-0.0117
X3.9457 Y3.5216 Z0.0621 I0.0448 J-0.0045
X3.8561 Y3.5305 Z0.0242 I-0.0448 J0.0045
X3.9457 Y3.5216 Z-0.0136 I0.0448 J-0.0045
X3.8561 Y3.5305 Z-0.0515 I-0.0448 J0.0045
X3.9457 Y3.5216 Z-0.0894 I0.0448 J-0.0045
X3.8561 Y3.5305 Z-0.1273 I-0.0448 J0.0045
X3.9457 Y3.5216 Z-0.1652 I0.0448 J-0.0045
X3.8561 Y3.5305 Z-0.203 I-0.0448 J0.0045
X3.9457 Y3.5216 Z-0.2409 I0.0448 J-0.0045
X3.9031 Y3.571 Z-0.2605 I-0.0448 J0.0045
X3.8559 Y3.5261 Z-0.28 I-0.0022 J-0.0449
X3.9383 I0.0412 J0. F80.
X3.7559 I-0.0912 J0.
X4.0383 I0.1412 J0.
X3.6559 I-0.1912 J0.
X4.1383 I0.2412 J0.
X3.5559 I-0.2912 J0.
X4.2383 I0.3412 J0.
X3.4559 I-0.3912 J0.
X4.2383 I0.3912 J0.
G2 X4.2818 Y3.5956 I0.0773 J0.
G3 X4.3144 Y3.6709 I-0.0276 J0.0566
X3.8471 Y4.0153 I-0.4673 J-0.1448
Y3.0368 I0. J-0.4892
X4.3144 Y3.6709 I0. J0.4892
G2 X4.3169 Y3.6795 I0.0077 J0.0024
G3 X4.3193 Y3.6881 I-0.0051 J0.0061
X3.8471 Y4.0253 I-0.4722 J-0.162
Y3.0268 I0. J-0.4992
X4.3193 Y3.6881 I0. J0.4992
X4.3157 Y3.6949 Z-0.2788 I-0.0236 J-0.0081 F60.
X4.3109 Y3.6998 Z-0.2752 I-0.0201 J-0.0149
X4.3061 Y3.7027 Z-0.2697 I-0.0152 J-0.0199
X4.3028 Y3.7039 Z-0.2627 I-0.0105 J-0.0227
X4.3016 Y3.7043 Z-0.255 I-0.0071 J-0.024
G0 Z0.4
X5.1299 Y2.5614
Z0.2
G1 Z0.1241 F13.333
G3 X5.1293 Y2.5603 Z0.1161 I0.0393 J-0.022
X5.1277 Y2.5568 Z0.1089 I0.0399 J-0.0208
X5.1257 Y2.5512 Z0.1034 I0.0415 J-0.0174
X5.1244 Y2.5439 Z0.1 I0.0434 J-0.0117
X5.214 Y2.535 Z0.0621 I0.0448 J-0.0045
X5.1244 Y2.5439 Z0.0242 I-0.0448 J0.0045
X5.214 Y2.535 Z-0.0136 I0.0448 J-0.0045
X5.1244 Y2.5439 Z-0.0515 I-0.0448 J0.0045
X5.214 Y2.535 Z-0.0894 I0.0448 J-0.0045
X5.1244 Y2.5439 Z-0.1273 I-0.0448 J0.0045
X5.214 Y2.535 Z-0.1652 I0.0448 J-0.0045
X5.1244 Y2.5439 Z-0.203 I-0.0448 J0.0045
X5.214 Y2.535 Z-0.2409 I0.0448 J-0.0045
X5.1714 Y2.5844 Z-0.2605 I-0.0448 J0.0045
X5.1242 Y2.5394 Z-0.28 I-0.0022 J-0.0449
X5.2067 I0.0412 J0. F80.
X5.0242 I-0.0912 J0.
X5.3067 I0.1412 J0.
X4.9242 I-0.1912 J0.
X5.4067 I0.2412 J0.
X4.8242 I-0.2912 J0.
X5.5067 I0.3412 J0.
X4.7242 I-0.3912 J0.
X5.5067 I0.3912 J0.
G2 X5.5502 Y2.609 I0.0773 J0.
G3 X5.5828 Y2.6842 I-0.0276 J0.0566
X5.1154 Y3.0287 I-0.4673 J-0.1448
Y2.0502 I0. J-0.4893
X5.5828 Y2.6842 I0. J0.4892
G2 X5.5853 Y2.6928 I0.0077 J0.0024
G3 X5.5877 Y2.7015 I-0.0051 J0.0061
X5.1154 Y3.0387 I-0.4722 J-0.162
Y2.0402 I0. J-0.4993
X5.5877 Y2.7015 I0. J0.4992
X5.5841 Y2.7083 Z-0.2788 I-0.0236 J-0.0081 F60.
X5.5792 Y2.7132 Z-0.2752 I-0.0201 J-0.0149
X5.5745 Y2.7161 Z-0.2697 I-0.0152 J-0.0199
X5.5711 Y2.7173 Z-0.2627 I-0.0105 J-0.0227
X5.57 Y2.7176 Z-0.255 I-0.0071 J-0.024
G0 Z0.4
X4.403 Y1.397
Z0.2
G1 Z0.1241 F13.333
G3 X4.4024 Y1.3958 Z0.1161 I0.0393 J-0.022
X4.4007 Y1.3924 Z0.1089 I0.0399 J-0.0208
X4.3988 Y1.3867 Z0.1034 I0.0415 J-0.0174
X4.3975 Y1.3795 Z0.1 I0.0434 J-0.0117
X4.487 Y1.3705 Z0.0621 I0.0448 J-0.0045
X4.3975 Y1.3795 Z0.0242 I-0.0448 J0.0045
X4.487 Y1.3705 Z-0.0136 I0.0448 J-0.0045
X4.3975 Y1.3795 Z-0.0515 I-0.0448 J0.0045
X4.487 Y1.3705 Z-0.0894 I0.0448 J-0.0045
X4.3975 Y1.3795 Z-0.1273 I-0.0448 J0.0045
X4.487 Y1.3705 Z-0.1652 I0.0448 J-0.0045
X4.3975 Y1.3795 Z-0.203 I-0.0448 J0.0045
X4.487 Y1.3705 Z-0.2409 I0.0448 J-0.0045
X4.4445 Y1.4199 Z-0.2605 I-0.0448 J0.0045
X4.3972 Y1.375 Z-0.28 I-0.0022 J-0.0449
X4.4757 I0.0393 J0. F80.
X4.2972 I-0.0893 J0.
X4.5757 I0.1393 J0.
X4.1972 I-0.1893 J0.
X4.6757 I0.2393 J0.
X4.0972 I-0.2893 J0.
X4.7757 I0.3393 J0.
X3.9972 I-0.3893 J0.
X4.8757 I0.4393 J0.
X3.8972 I-0.4893 J0.
X4.8857 I0.4943 J0.
X3.8872 I-0.4993 J0.
X4.8857 I0.4993 J0.
X4.8846 Y1.3826 Z-0.2788 I-0.025 J0. F60.
X4.8816 Y1.3889 Z-0.2752 I-0.0238 J-0.0076
X4.878 Y1.3931 Z-0.2697 I-0.0208 J-0.0139
X4.8753 Y1.3954 Z-0.2627 I-0.0173 J-0.0181
X4.8743 Y1.396 Z-0.255 I-0.0145 J-0.0204
G0 Z0.4
X3.0264 Y2.4478
Z0.2
G1 Z0.1241 F13.333
G3 X3.0258 Y2.4466 Z0.1161 I0.0393 J-0.022
X3.0242 Y2.4431 Z0.1089 I0.0399 J-0.0208
X3.0222 Y2.4375 Z0.1034 I0.0415 J-0.0174
X3.0209 Y2.4302 Z0.1 I0.0434 J-0.0117
X3.1105 Y2.4213 Z0.0621 I0.0448 J-0.0045
X3.0209 Y2.4302 Z0.0242 I-0.0448 J0.0045
X3.1105 Y2.4213 Z-0.0136 I0.0448 J-0.0045
X3.0209 Y2.4302 Z-0.0515 I-0.0448 J0.0045
X3.1105 Y2.4213 Z-0.0894 I0.0448 J-0.0045
X3.0209 Y2.4302 Z-0.1273 I-0.0448 J0.0045
X3.1105 Y2.4213 Z-0.1652 I0.0448 J-0.0045
X3.0209 Y2.4302 Z-0.203 I-0.0448 J0.0045
X3.1105 Y2.4213 Z-0.2409 I0.0448 J-0.0045
X3.0679 Y2.4707 Z-0.2605 I-0.0448 J0.0045
X3.0207 Y2.4258 Z-0.28 I-0.0022 J-0.0449
X3.1032 I0.0412 J0. F80.
X2.9207 I-0.0912 J0.
X3.2032 I0.1412 J0.
X2.8207 I-0.1912 J0.
X3.3032 I0.2412 J0.
X2.7207 I-0.2912 J0.
X3.4032 I0.3412 J0.
X2.6207 I-0.3912 J0.
X3.4032 I0.3912 J0.
G2 X3.4467 Y2.4953 I0.0773 J0.
G3 X3.4793 Y2.5706 I-0.0276 J0.0566
X3.0119 Y2.915 I-0.4673 J-0.1448
Y1.9365 I0. J-0.4893
X3.4793 Y2.5706 I0. J0.4892
G2 X3.4818 Y2.5792 I0.0077 J0.0024
G3 X3.4842 Y2.5878 I-0.0051 J0.0061
X3.0119 Y2.925 I-0.4722 J-0.162
Y1.9265 I0. J-0.4993
X3.4842 Y2.5878 I0. J0.4993
X3.4806 Y2.5946 Z-0.2788 I-0.0236 J-0.0081 F60.
X3.4757 Y2.5995 Z-0.2752 I-0.0201 J-0.0149
X3.471 Y2.6024 Z-0.2697 I-0.0152 J-0.0199
X3.4676 Y2.6036 Z-0.2627 I-0.0105 J-0.0227
X3.4665 Y2.604 Z-0.255 I-0.0071 J-0.024
G0 Z0.4
X1.8709 Y3.7355
Z0.2
G1 Z0.1241 F13.333
G3 X1.8702 Y3.7343 Z0.1161 I0.0393 J-0.022
X1.8686 Y3.7308 Z0.1089 I0.0399 J-0.0208
X1.8667 Y3.7252 Z0.1034 I0.0415 J-0.0174
X1.8653 Y3.7179 Z0.1 I0.0434 J-0.0117
X1.9549 Y3.709 Z0.0621 I0.0448 J-0.0045
X1.8653 Y3.7179 Z0.0242 I-0.0448 J0.0045
X1.9549 Y3.709 Z-0.0136 I0.0448 J-0.0045
X1.8653 Y3.7179 Z-0.0515 I-0.0448 J0.0045
X1.9549 Y3.709 Z-0.0894 I0.0448 J-0.0045
X1.8653 Y3.7179 Z-0.1273 I-0.0448 J0.0045
X1.9549 Y3.709 Z-0.1652 I0.0448 J-0.0045
X1.8653 Y3.7179 Z-0.203 I-0.0448 J0.0045
X1.9549 Y3.709 Z-0.2409 I0.0448 J-0.0045
X1.9124 Y3.7584 Z-0.2605 I-0.0448 J0.0045
X1.8651 Y3.7135 Z-0.28 I-0.0022 J-0.0449
X1.9476 I0.0412 J0. F80.
X1.7651 I-0.0912 J0.
X2.0476 I0.1412 J0.
X1.6651 I-0.1912 J0.
X2.1476 I0.2412 J0.
X1.5651 I-0.2912 J0.
X2.2476 I0.3412 J0.
X1.4651 I-0.3912 J0.
X2.2476 I0.3912 J0.
G2 X2.2911 Y3.783 I0.0773 J0.
G3 X2.3237 Y3.8583 I-0.0276 J0.0566
X1.8564 Y4.2027 I-0.4673 J-0.1448
Y3.2242 I0. J-0.4892
X2.3237 Y3.8583 I0. J0.4892
G2 X2.3262 Y3.8669 I0.0077 J0.0024
G3 X2.3286 Y3.8755 I-0.0051 J0.0061
X1.8564 Y4.2127 I-0.4722 J-0.162
Y3.2142 I0. J-0.4992
X2.3286 Y3.8755 I0. J0.4992
X2.325 Y3.8823 Z-0.2788 I-0.0236 J-0.0081 F60.
X2.3201 Y3.8872 Z-0.2752 I-0.0201 J-0.0149
X2.3154 Y3.8901 Z-0.2697 I-0.0152 J-0.0199
X2.3121 Y3.8913 Z-0.2627 I-0.0105 J-0.0227
X2.3109 Y3.8917 Z-0.255 I-0.0071 J-0.024
G0 Z0.4
X0.9745 Y5.2153
Z0.2
G1 Z0.1241 F13.333
G3 X0.9738 Y5.2142 Z0.1161 I0.0393 J-0.022
X0.9722 Y5.2107 Z0.1089 I0.0399 J-0.0208
X0.9703 Y5.2051 Z0.1034 I0.0415 J-0.0174
X0.9689 Y5.1978 Z0.1 I0.0434 J-0.0117
X1.0585 Y5.1889 Z0.0621 I0.0448 J-0.0045
X0.9689 Y5.1978 Z0.0242 I-0.0448 J0.0045
X1.0585 Y5.1889 Z-0.0136 I0.0448 J-0.0045
X0.9689 Y5.1978 Z-0.0515 I-0.0448 J0.0045
X1.0585 Y5.1889 Z-0.0894 I0.0448 J-0.0045
X0.9689 Y5.1978 Z-0.1273 I-0.0448 J0.0045
X1.0585 Y5.1889 Z-0.1652 I0.0448 J-0.0045
X0.9689 Y5.1978 Z-0.203 I-0.0448 J0.0045
X1.0585 Y5.1889 Z-0.2409 I0.0448 J-0.0045
X1.016 Y5.2383 Z-0.2605 I-0.0448 J0.0045
X0.9687 Y5.1933 Z-0.28 I-0.0022 J-0.0449
X1.0511 I0.0412 J0. F80.
X0.8687 I-0.0912 J0.
X1.1511 I0.1412 J0.
X0.7687 I-0.1912 J0.
X1.2511 I0.2412 J0.
X0.6687 I-0.2912 J0.
X1.3511 I0.3412 J0.
X0.5687 I-0.3912 J0.
X1.3511 I0.3912 J0.
G2 X1.3946 Y5.2629 I0.0773 J0.
G3 X1.4272 Y5.3381 I-0.0276 J0.0566
X0.9599 Y5.6826 I-0.4673 J-0.1448
Y4.7041 I0. J-0.4892
X1.4272 Y5.3381 I0. J0.4892
G2 X1.4297 Y5.3467 I0.0077 J0.0024
G3 X1.4321 Y5.3553 I-0.0051 J0.0061
X0.9599 Y5.6926 I-0.4722 J-0.162
Y4.6941 I0. J-0.4992
X1.4321 Y5.3553 I0. J0.4992
X1.4285 Y5.3622 Z-0.2788 I-0.0236 J-0.0081 F60.
X1.4237 Y5.3671 Z-0.2752 I-0.0201 J-0.0149
X1.4189 Y5.3699 Z-0.2697 I-0.0152 J-0.0199
X1.4156 Y5.3712 Z-0.2627 I-0.0105 J-0.0227
X1.4144 Y5.3715 Z-0.255 I-0.0071 J-0.024
G0 Z0.4
X-1.5797 Y7.291
Z0.2
G1 Z0.1241 F13.333
G3 X-1.5803 Y7.2898 Z0.1161 I0.0393 J-0.022
X-1.582 Y7.2863 Z0.1089 I0.0399 J-0.0208
X-1.5839 Y7.2807 Z0.1034 I0.0415 J-0.0174
X-1.5852 Y7.2734 Z0.1 I0.0434 J-0.0117
X-1.4957 Y7.2645 Z0.0621 I0.0448 J-0.0045
X-1.5852 Y7.2734 Z0.0242 I-0.0448 J0.0045
X-1.4957 Y7.2645 Z-0.0136 I0.0448 J-0.0045
X-1.5852 Y7.2734 Z-0.0515 I-0.0448 J0.0045
X-1.4957 Y7.2645 Z-0.0894 I0.0448 J-0.0045
X-1.5852 Y7.2734 Z-0.1273 I-0.0448 J0.0045
X-1.4957 Y7.2645 Z-0.1652 I0.0448 J-0.0045
X-1.5852 Y7.2734 Z-0.203 I-0.0448 J0.0045
X-1.4957 Y7.2645 Z-0.2409 I0.0448 J-0.0045
X-1.5382 Y7.3139 Z-0.2605 I-0.0448 J0.0045
X-1.5854 Y7.269 Z-0.28 I-0.0022 J-0.0449
X-1.5069 I0.0393 J0. F80.
X-1.6854 I-0.0893 J0.
X-1.4069 I0.1393 J0.
X-1.7854 I-0.1893 J0.
X-1.3069 I0.2393 J0.
X-1.8854 I-0.2893 J0.
X-1.2069 I0.3393 J0.
X-1.9854 I-0.3893 J0.
X-1.1069 I0.4393 J0.
X-2.0854 I-0.4893 J0.
X-1.0969 I0.4943 J0.
X-2.0954 I-0.4993 J0.
X-1.0969 I0.4993 J0.
X-1.0981 Y7.2766 Z-0.2788 I-0.025 J0. F60.
X-1.1011 Y7.2828 Z-0.2752 I-0.0238 J-0.0076
X-1.1047 Y7.2871 Z-0.2697 I-0.0208 J-0.0139
X-1.1074 Y7.2893 Z-0.2627 I-0.0173 J-0.0181
X-1.1084 Y7.29 Z-0.255 I-0.0145 J-0.0204
G0 Z0.4
X-2.3818 Y8.4376
Z0.2
G1 Z0.1241 F13.333
G3 X-2.3824 Y8.4364 Z0.1161 I0.0393 J-0.022
X-2.384 Y8.4329 Z0.1089 I0.0399 J-0.0208
X-2.3859 Y8.4273 Z0.1034 I0.0415 J-0.0174
X-2.3873 Y8.42 Z0.1 I0.0434 J-0.0117
X-2.2977 Y8.4111 Z0.0621 I0.0448 J-0.0045
X-2.3873 Y8.42 Z0.0242 I-0.0448 J0.0045
X-2.2977 Y8.4111 Z-0.0136 I0.0448 J-0.0045
X-2.3873 Y8.42 Z-0.0515 I-0.0448 J0.0045
X-2.2977 Y8.4111 Z-0.0894 I0.0448 J-0.0045
X-2.3873 Y8.42 Z-0.1273 I-0.0448 J0.0045
X-2.2977 Y8.4111 Z-0.1652 I0.0448 J-0.0045
X-2.3873 Y8.42 Z-0.203 I-0.0448 J0.0045
X-2.2977 Y8.4111 Z-0.2409 I0.0448 J-0.0045
X-2.3403 Y8.4605 Z-0.2605 I-0.0448 J0.0045
X-2.3875 Y8.4156 Z-0.28 I-0.0022 J-0.0449
X-2.309 I0.0393 J0. F80.
X-2.4875 I-0.0893 J0.
X-2.209 I0.1393 J0.
X-2.5875 I-0.1893 J0.
X-2.109 I0.2393 J0.
X-2.6875 I-0.2893 J0.
X-2.009 I0.3393 J0.
X-2.7875 I-0.3893 J0.
X-1.909 I0.4393 J0.
X-2.8875 I-0.4893 J0.
X-1.899 I0.4943 J0.
X-2.8975 I-0.4993 J0.
X-1.899 I0.4993 J0.
X-1.9002 Y8.4232 Z-0.2788 I-0.025 J0. F60.
X-1.9032 Y8.4294 Z-0.2752 I-0.0238 J-0.0076
X-1.9067 Y8.4336 Z-0.2697 I-0.0208 J-0.0139
X-1.9095 Y8.4359 Z-0.2627 I-0.0173 J-0.0181
X-1.9105 Y8.4366 Z-0.255 I-0.0145 J-0.0204
G0 Z0.4
X-0.9598 Y9.4683
Z0.2
G1 Z0.1241 F13.333
G3 X-0.9605 Y9.4671 Z0.1161 I0.0393 J-0.022
X-0.9621 Y9.4637 Z0.1089 I0.0399 J-0.0208
X-0.964 Y9.458 Z0.1034 I0.0415 J-0.0174
X-0.9653 Y9.4508 Z0.1 I0.0434 J-0.0117
X-0.8758 Y9.4418 Z0.0621 I0.0448 J-0.0045
X-0.9653 Y9.4508 Z0.0242 I-0.0448 J0.0045
X-0.8758 Y9.4418 Z-0.0136 I0.0448 J-0.0045
X-0.9653 Y9.4508 Z-0.0515 I-0.0448 J0.0045
X-0.8758 Y9.4418 Z-0.0894 I0.0448 J-0.0045
X-0.9653 Y9.4508 Z-0.1273 I-0.0448 J0.0045
X-0.8758 Y9.4418 Z-0.1652 I0.0448 J-0.0045
X-0.9653 Y9.4508 Z-0.203 I-0.0448 J0.0045
X-0.8758 Y9.4418 Z-0.2409 I0.0448 J-0.0045
X-0.9183 Y9.4912 Z-0.2605 I-0.0448 J0.0045
X-0.9656 Y9.4463 Z-0.28 I-0.0022 J-0.0449
X-0.8871 I0.0393 J0. F80.
X-1.0656 I-0.0893 J0.
X-0.7871 I0.1393 J0.
X-1.1656 I-0.1893 J0.
X-0.6871 I0.2393 J0.
X-1.2656 I-0.2893 J0.
X-0.5871 I0.3393 J0.
X-1.3656 I-0.3893 J0.
X-0.4871 I0.4393 J0.
X-1.4656 I-0.4893 J0.
X-0.4771 I0.4943 J0.
X-1.4756 I-0.4993 J0.
X-0.4771 I0.4993 J0.
X-0.4782 Y9.4539 Z-0.2788 I-0.025 J0. F60.
X-0.4813 Y9.4602 Z-0.2752 I-0.0238 J-0.0076
X-0.4848 Y9.4644 Z-0.2697 I-0.0208 J-0.0139
X-0.4875 Y9.4667 Z-0.2627 I-0.0173 J-0.0181
X-0.4886 Y9.4673 Z-0.255 I-0.0145 J-0.0204
G0 Z0.4
X-2.114 Y10.4094
Z0.2
G1 Z0.1241 F13.333
G3 X-2.1146 Y10.4082 Z0.1161 I0.0393 J-0.022
X-2.1162 Y10.4047 Z0.1089 I0.0399 J-0.0208
X-2.1182 Y10.3991 Z0.1034 I0.0415 J-0.0174
X-2.1195 Y10.3918 Z0.1 I0.0434 J-0.0117
X-2.0299 Y10.3829 Z0.0621 I0.0448 J-0.0045
X-2.1195 Y10.3918 Z0.0242 I-0.0448 J0.0045
X-2.0299 Y10.3829 Z-0.0136 I0.0448 J-0.0045
X-2.1195 Y10.3918 Z-0.0515 I-0.0448 J0.0045
X-2.0299 Y10.3829 Z-0.0894 I0.0448 J-0.0045
X-2.1195 Y10.3918 Z-0.1273 I-0.0448 J0.0045
X-2.0299 Y10.3829 Z-0.1652 I0.0448 J-0.0045
X-2.1195 Y10.3918 Z-0.203 I-0.0448 J0.0045
X-2.0299 Y10.3829 Z-0.2409 I0.0448 J-0.0045
X-2.0725 Y10.4323 Z-0.2605 I-0.0448 J0.0045
X-2.1197 Y10.3874 Z-0.28 I-0.0022 J-0.0449
X-2.0412 I0.0393 J0. F80.
X-2.2197 I-0.0893 J0.
X-1.9412 I0.1393 J0.
X-2.3197 I-0.1893 J0.
X-1.8412 I0.2393 J0.
X-2.4197 I-0.2893 J0.
X-1.7412 I0.3393 J0.
X-2.5197 I-0.3893 J0.
X-1.6412 I0.4393 J0.
X-2.6197 I-0.4893 J0.
X-1.6312 I0.4943 J0.
X-2.6297 I-0.4993 J0.
X-1.6312 I0.4993 J0.
X-1.6324 Y10.395 Z-0.2788 I-0.025 J0. F60.
X-1.6354 Y10.4012 Z-0.2752 I-0.0238 J-0.0076
X-1.639 Y10.4055 Z-0.2697 I-0.0208 J-0.0139
X-1.6417 Y10.4077 Z-0.2627 I-0.0173 J-0.0181
X-1.6427 Y10.4084 Z-0.255 I-0.0145 J-0.0204
G0 Z0.4
X-3.4828 Y10.9959
Z0.2
G1 Z0.1241 F13.333
G3 X-3.4834 Y10.9947 Z0.1161 I0.0393 J-0.022
X-3.4851 Y10.9912 Z0.1089 I0.0399 J-0.0208
X-3.487 Y10.9856 Z0.1034 I0.0415 J-0.0174
X-3.4883 Y10.9783 Z0.1 I0.0434 J-0.0117
X-3.3988 Y10.9694 Z0.0621 I0.0448 J-0.0045
X-3.4883 Y10.9783 Z0.0242 I-0.0448 J0.0045
X-3.3988 Y10.9694 Z-0.0136 I0.0448 J-0.0045
X-3.4883 Y10.9783 Z-0.0515 I-0.0448 J0.0045
X-3.3988 Y10.9694 Z-0.0894 I0.0448 J-0.0045
X-3.4883 Y10.9783 Z-0.1273 I-0.0448 J0.0045
X-3.3988 Y10.9694 Z-0.1652 I0.0448 J-0.0045
X-3.4883 Y10.9783 Z-0.203 I-0.0448 J0.0045
X-3.3988 Y10.9694 Z-0.2409 I0.0448 J-0.0045
X-3.4413 Y11.0188 Z-0.2605 I-0.0448 J0.0045
X-3.4886 Y10.9739 Z-0.28 I-0.0022 J-0.0449
X-3.4101 I0.0393 J0. F80.
X-3.5886 I-0.0893 J0.
X-3.3101 I0.1393 J0.
X-3.6886 I-0.1893 J0.
X-3.2101 I0.2393 J0.
X-3.7886 I-0.2893 J0.
X-3.1101 I0.3393 J0.
X-3.8886 I-0.3893 J0.
X-3.0101 I0.4393 J0.
X-3.9886 I-0.4893 J0.
X-3.0001 I0.4943 J0.
X-3.9986 I-0.4993 J0.
X-3.0001 I0.4993 J0.
X-3.0012 Y10.9815 Z-0.2788 I-0.025 J0. F60.
X-3.0043 Y10.9877 Z-0.2752 I-0.0238 J-0.0076
X-3.0078 Y10.9919 Z-0.2697 I-0.0208 J-0.0139
X-3.0105 Y10.9942 Z-0.2627 I-0.0173 J-0.0181
X-3.0115 Y10.9949 Z-0.255 I-0.0145 J-0.0204
G0 Z0.4
X-3.5593 Y9.1934
Z0.2
G1 Z0.1241 F13.333
G3 X-3.56 Y9.1922 Z0.1161 I0.0393 J-0.022
X-3.5616 Y9.1887 Z0.1089 I0.0399 J-0.0208
X-3.5635 Y9.1831 Z0.1034 I0.0415 J-0.0174
X-3.5649 Y9.1758 Z0.1 I0.0434 J-0.0117
X-3.4753 Y9.1669 Z0.0621 I0.0448 J-0.0045
X-3.5649 Y9.1758 Z0.0242 I-0.0448 J0.0045
X-3.4753 Y9.1669 Z-0.0136 I0.0448 J-0.0045
X-3.5649 Y9.1758 Z-0.0515 I-0.0448 J0.0045
X-3.4753 Y9.1669 Z-0.0894 I0.0448 J-0.0045
X-3.5649 Y9.1758 Z-0.1273 I-0.0448 J0.0045
X-3.4753 Y9.1669 Z-0.1652 I0.0448 J-0.0045
X-3.5649 Y9.1758 Z-0.203 I-0.0448 J0.0045
X-3.4753 Y9.1669 Z-0.2409 I0.0448 J-0.0045
X-3.5179 Y9.2163 Z-0.2605 I-0.0448 J0.0045
X-3.5651 Y9.1714 Z-0.28 I-0.0022 J-0.0449
X-3.4866 I0.0393 J0. F80.
X-3.6651 I-0.0893 J0.
X-3.3866 I0.1393 J0.
X-3.7651 I-0.1893 J0.
X-3.2866 I0.2393 J0.
X-3.8651 I-0.2893 J0.
X-3.1866 I0.3393 J0.
X-3.9651 I-0.3893 J0.
X-3.0866 I0.4393 J0.
X-4.0651 I-0.4893 J0.
X-3.0766 I0.4943 J0.
X-4.0751 I-0.4993 J0.
X-3.0766 I0.4993 J0.
X-3.0778 Y9.179 Z-0.2788 I-0.025 J0. F60.
X-3.0808 Y9.1852 Z-0.2752 I-0.0238 J-0.0076
X-3.0843 Y9.1895 Z-0.2697 I-0.0208 J-0.0139
X-3.0871 Y9.1917 Z-0.2627 I-0.0173 J-0.0181
X-3.0881 Y9.1924 Z-0.255 I-0.0145 J-0.0204
G0 Z0.4
X-4.9358 Y9.445
Z0.2
G1 Z0.1241 F13.333
G3 X-4.9365 Y9.4438 Z0.1161 I0.0393 J-0.022
X-4.9381 Y9.4404 Z0.1089 I0.0399 J-0.0208
X-4.94 Y9.4347 Z0.1034 I0.0415 J-0.0174
X-4.9414 Y9.4274 Z0.1 I0.0434 J-0.0117
X-4.8518 Y9.4185 Z0.0621 I0.0448 J-0.0045
X-4.9414 Y9.4274 Z0.0242 I-0.0448 J0.0045
X-4.8518 Y9.4185 Z-0.0136 I0.0448 J-0.0045
X-4.9414 Y9.4274 Z-0.0515 I-0.0448 J0.0045
X-4.8518 Y9.4185 Z-0.0894 I0.0448 J-0.0045
X-4.9414 Y9.4274 Z-0.1273 I-0.0448 J0.0045
X-4.8518 Y9.4185 Z-0.1652 I0.0448 J-0.0045
X-4.9414 Y9.4274 Z-0.203 I-0.0448 J0.0045
X-4.8518 Y9.4185 Z-0.2409 I0.0448 J-0.0045
X-4.8943 Y9.4679 Z-0.2605 I-0.0448 J0.0045
X-4.9416 Y9.423 Z-0.28 I-0.0022 J-0.0449
X-4.8631 I0.0393 J0. F80.
X-5.0416 I-0.0893 J0.
X-4.7631 I0.1393 J0.
X-5.1416 I-0.1893 J0.
X-4.6631 I0.2393 J0.
X-5.2416 I-0.2893 J0.
X-4.5631 I0.3393 J0.
X-5.3416 I-0.3893 J0.
X-4.4631 I0.4393 J0.
X-5.4416 I-0.4893 J0.
X-4.4531 I0.4943 J0.
X-5.4516 I-0.4993 J0.
X-4.4531 I0.4993 J0.
X-4.4543 Y9.4306 Z-0.2788 I-0.025 J0. F60.
X-4.4573 Y9.4369 Z-0.2752 I-0.0238 J-0.0076
X-4.4608 Y9.4411 Z-0.2697 I-0.0208 J-0.0139
X-4.4636 Y9.4433 Z-0.2627 I-0.0173 J-0.0181
X-4.4646 Y9.444 Z-0.255 I-0.0145 J-0.0204
G0 Z0.4
X-4.9603 Y11.1823
Z0.2
G1 Z0.1241 F13.333
G3 X-4.9609 Y11.1812 Z0.1161 I0.0393 J-0.022
X-4.9625 Y11.1777 Z0.1089 I0.0399 J-0.0208
X-4.9645 Y11.1721 Z0.1034 I0.0415 J-0.0174
X-4.9658 Y11.1648 Z0.1 I0.0434 J-0.0117
X-4.8762 Y11.1559 Z0.0621 I0.0448 J-0.0045
X-4.9658 Y11.1648 Z0.0242 I-0.0448 J0.0045
X-4.8762 Y11.1559 Z-0.0136 I0.0448 J-0.0045
X-4.9658 Y11.1648 Z-0.0515 I-0.0448 J0.0045
X-4.8762 Y11.1559 Z-0.0894 I0.0448 J-0.0045
X-4.9658 Y11.1648 Z-0.1273 I-0.0448 J0.0045
X-4.8762 Y11.1559 Z-0.1652 I0.0448 J-0.0045
X-4.9658 Y11.1648 Z-0.203 I-0.0448 J0.0045
X-4.8762 Y11.1559 Z-0.2409 I0.0448 J-0.0045
X-4.9188 Y11.2053 Z-0.2605 I-0.0448 J0.0045
X-4.966 Y11.1603 Z-0.28 I-0.0022 J-0.0449
X-4.8875 I0.0393 J0. F80.
X-5.066 I-0.0893 J0.
X-4.7875 I0.1393 J0.
X-5.166 I-0.1893 J0.
X-4.6875 I0.2393 J0.
X-5.266 I-0.2893 J0.
X-4.5875 I0.3393 J0.
X-5.366 I-0.3893 J0.
X-4.4875 I0.4393 J0.
X-5.466 I-0.4893 J0.
X-4.4775 I0.4943 J0.
X-5.476 I-0.4993 J0.
X-4.4775 I0.4993 J0.
X-4.4787 Y11.1679 Z-0.2788 I-0.025 J0. F60.
X-4.4817 Y11.1742 Z-0.2752 I-0.0238 J-0.0076
X-4.4853 Y11.1784 Z-0.2697 I-0.0208 J-0.0139
X-4.488 Y11.1807 Z-0.2627 I-0.0173 J-0.0181
X-4.489 Y11.1814 Z-0.255 I-0.0145 J-0.0204
G0 Z0.4
X-4.6222 Y17.7707
Z0.2
G1 Z0.1241 F13.333
G3 X-4.6228 Y17.7695 Z0.1161 I0.0393 J-0.022
X-4.6245 Y17.7661 Z0.1089 I0.0399 J-0.0208
X-4.6264 Y17.7604 Z0.1034 I0.0415 J-0.0174
X-4.6277 Y17.7532 Z0.1 I0.0434 J-0.0117
X-4.5382 Y17.7442 Z0.0621 I0.0448 J-0.0045
X-4.556 Y17.7847 Z0.0497 I-0.0448 J0.0045
X-4.61 Y17.7127 Z0.0119 I-0.027 J-0.036
X-4.556 Y17.7847 Z-0.026 I0.027 J0.036
X-4.61 Y17.7127 Z-0.0639 I-0.027 J-0.036
X-4.556 Y17.7847 Z-0.1018 I0.027 J0.036
X-4.61 Y17.7127 Z-0.1397 I-0.027 J-0.036
X-4.556 Y17.7847 Z-0.1775 I0.027 J0.036
X-4.61 Y17.7127 Z-0.2154 I-0.027 J-0.036
X-4.556 Y17.7847 Z-0.2533 I0.027 J0.036
X-4.628 Y17.7487 Z-0.28 I-0.027 J-0.036
X-4.5494 I0.0393 J0. F80.
X-4.728 I-0.0893 J0.
X-4.4494 I0.1393 J0.
X-4.828 I-0.1893 J0.
X-4.3494 I0.2393 J0.
X-4.928 I-0.2893 J0.
X-4.2494 I0.3393 J0.
X-5.028 I-0.3893 J0.
X-4.1494 I0.4393 J0.
X-5.128 I-0.4893 J0.
X-4.1394 I0.4943 J0.
X-5.138 I-0.4993 J0.
X-4.1394 I0.4993 J0.
X-4.1406 Y17.7563 Z-0.2788 I-0.025 J0. F60.
X-4.1436 Y17.7626 Z-0.2752 I-0.0238 J-0.0076
X-4.1472 Y17.7668 Z-0.2697 I-0.0208 J-0.0139
X-4.1499 Y17.7691 Z-0.2627 I-0.0173 J-0.0181
X-4.1509 Y17.7697 Z-0.255 I-0.0145 J-0.0204
G0 Z0.4
X-2.8948 Y17.6066
Z0.2
G1 Z0.1241 F13.333
G3 X-2.8954 Y17.6054 Z0.1161 I0.0393 J-0.022
X-2.897 Y17.6019 Z0.1089 I0.0399 J-0.0208
X-2.899 Y17.5963 Z0.1034 I0.0415 J-0.0174
X-2.9003 Y17.589 Z0.1 I0.0434 J-0.0117
X-2.8107 Y17.5801 Z0.0621 I0.0448 J-0.0045
X-2.9003 Y17.589 Z0.0242 I-0.0448 J0.0045
X-2.8107 Y17.5801 Z-0.0136 I0.0448 J-0.0045
X-2.9003 Y17.589 Z-0.0515 I-0.0448 J0.0045
X-2.8107 Y17.5801 Z-0.0894 I0.0448 J-0.0045
X-2.9003 Y17.589 Z-0.1273 I-0.0448 J0.0045
X-2.8107 Y17.5801 Z-0.1652 I0.0448 J-0.0045
X-2.9003 Y17.589 Z-0.203 I-0.0448 J0.0045
X-2.8107 Y17.5801 Z-0.2409 I0.0448 J-0.0045
X-2.8533 Y17.6295 Z-0.2605 I-0.0448 J0.0045
X-2.9005 Y17.5846 Z-0.28 I-0.0022 J-0.0449
X-2.822 I0.0393 J0. F80.
X-3.0005 I-0.0893 J0.
X-2.722 I0.1393 J0.
X-3.1005 I-0.1893 J0.
X-2.622 I0.2393 J0.
X-3.2005 I-0.2893 J0.
X-2.522 I0.3393 J0.
X-3.3005 I-0.3893 J0.
X-2.422 I0.4393 J0.
X-3.4005 I-0.4893 J0.
X-2.412 I0.4943 J0.
X-3.4105 I-0.4993 J0.
X-2.412 I0.4993 J0.
X-2.4132 Y17.5922 Z-0.2788 I-0.025 J0. F60.
X-2.4162 Y17.5984 Z-0.2752 I-0.0238 J-0.0076
X-2.4198 Y17.6027 Z-0.2697 I-0.0208 J-0.0139
X-2.4225 Y17.6049 Z-0.2627 I-0.0173 J-0.0181
X-2.4235 Y17.6056 Z-0.255 I-0.0145 J-0.0204
G0 Z0.4
X-1.2113 Y17.1938
Z0.2
G1 Z0.1241 F13.333
G3 X-1.212 Y17.1927 Z0.1161 I0.0393 J-0.022
X-1.2136 Y17.1892 Z0.1089 I0.0399 J-0.0208
X-1.2155 Y17.1836 Z0.1034 I0.0415 J-0.0174
X-1.2169 Y17.1763 Z0.1 I0.0434 J-0.0117
X-1.1273 Y17.1674 Z0.0621 I0.0448 J-0.0045
X-1.2169 Y17.1763 Z0.0242 I-0.0448 J0.0045
X-1.1273 Y17.1674 Z-0.0136 I0.0448 J-0.0045
X-1.2169 Y17.1763 Z-0.0515 I-0.0448 J0.0045
X-1.1273 Y17.1674 Z-0.0894 I0.0448 J-0.0045
X-1.2169 Y17.1763 Z-0.1273 I-0.0448 J0.0045
X-1.1273 Y17.1674 Z-0.1652 I0.0448 J-0.0045
X-1.2169 Y17.1763 Z-0.203 I-0.0448 J0.0045
X-1.1273 Y17.1674 Z-0.2409 I0.0448 J-0.0045
X-1.1699 Y17.2168 Z-0.2605 I-0.0448 J0.0045
X-1.2171 Y17.1718 Z-0.28 I-0.0022 J-0.0449
X-1.1347 I0.0412 J0. F80.
X-1.3171 I-0.0912 J0.
X-1.0347 I0.1412 J0.
X-1.4171 I-0.1912 J0.
X-0.9347 I0.2412 J0.
X-1.5171 I-0.2912 J0.
X-0.8347 I0.3412 J0.
X-1.6171 I-0.3912 J0.
X-0.8347 I0.3912 J0.
G2 X-0.7912 Y17.2414 I0.0773 J0.
G3 X-0.7586 Y17.3166 I-0.0276 J0.0566
X-1.2259 Y17.6611 I-0.4673 J-0.1448
Y16.6826 I0. J-0.4892
X-0.7586 Y17.3166 I0. J0.4892
G2 X-0.7561 Y17.3252 I0.0077 J0.0024
G3 X-0.7537 Y17.3338 I-0.0051 J0.0061
X-1.2259 Y17.6711 I-0.4722 J-0.162
Y16.6726 I0. J-0.4992
X-0.7537 Y17.3338 I0. J0.4992
X-0.7573 Y17.3407 Z-0.2788 I-0.0236 J-0.0081 F60.
X-0.7622 Y17.3456 Z-0.2752 I-0.0201 J-0.0149
X-0.7669 Y17.3484 Z-0.2697 I-0.0152 J-0.0199
X-0.7702 Y17.3497 Z-0.2627 I-0.0105 J-0.0227
X-0.7714 Y17.35 Z-0.255 I-0.0071 J-0.024
G0 Z0.4
X-0.7515 Y18.6091
Z0.2
G1 Z0.1241 F13.333
G3 X-0.7521 Y18.608 Z0.1161 I0.0393 J-0.022
X-0.7538 Y18.6045 Z0.1089 I0.0399 J-0.0208
X-0.7557 Y18.5989 Z0.1034 I0.0415 J-0.0174
X-0.757 Y18.5916 Z0.1 I0.0434 J-0.0117
X-0.6675 Y18.5827 Z0.0621 I0.0448 J-0.0045
X-0.757 Y18.5916 Z0.0242 I-0.0448 J0.0045
X-0.6675 Y18.5827 Z-0.0136 I0.0448 J-0.0045
X-0.757 Y18.5916 Z-0.0515 I-0.0448 J0.0045
X-0.6675 Y18.5827 Z-0.0894 I0.0448 J-0.0045
X-0.757 Y18.5916 Z-0.1273 I-0.0448 J0.0045
X-0.6675 Y18.5827 Z-0.1652 I0.0448 J-0.0045
X-0.757 Y18.5916 Z-0.203 I-0.0448 J0.0045
X-0.6675 Y18.5827 Z-0.2409 I0.0448 J-0.0045
X-0.71 Y18.6321 Z-0.2605 I-0.0448 J0.0045
X-0.7573 Y18.5871 Z-0.28 I-0.0022 J-0.0449
X-0.6788 I0.0393 J0. F80.
X-0.8573 I-0.0893 J0.
X-0.5788 I0.1393 J0.
X-0.9573 I-0.1893 J0.
X-0.4788 I0.2393 J0.
X-1.0573 I-0.2893 J0.
X-0.3788 I0.3393 J0.
X-1.1573 I-0.3893 J0.
X-0.2788 I0.4393 J0.
X-1.2573 I-0.4893 J0.
X-0.2688 I0.4943 J0.
X-1.2673 I-0.4993 J0.
X-0.2688 I0.4993 J0.
X-0.2699 Y18.5947 Z-0.2788 I-0.025 J0. F60.
X-0.2729 Y18.601 Z-0.2752 I-0.0238 J-0.0076
X-0.2765 Y18.6052 Z-0.2697 I-0.0208 J-0.0139
X-0.2792 Y18.6075 Z-0.2627 I-0.0173 J-0.0181
X-0.2802 Y18.6082 Z-0.255 I-0.0145 J-0.0204
G0 Z0.4
X1.0566 Y17.8752
Z0.2
G1 Z0.1241 F13.333
G3 X1.0559 Y17.874 Z0.1161 I0.0393 J-0.022
X1.0543 Y17.8705 Z0.1089 I0.0399 J-0.0208
X1.0524 Y17.8649 Z0.1034 I0.0415 J-0.0174
X1.051 Y17.8576 Z0.1 I0.0434 J-0.0117
X1.1406 Y17.8487 Z0.0621 I0.0448 J-0.0045
X1.051 Y17.8576 Z0.0242 I-0.0448 J0.0045
X1.1406 Y17.8487 Z-0.0136 I0.0448 J-0.0045
X1.051 Y17.8576 Z-0.0515 I-0.0448 J0.0045
X1.1406 Y17.8487 Z-0.0894 I0.0448 J-0.0045
X1.051 Y17.8576 Z-0.1273 I-0.0448 J0.0045
X1.1406 Y17.8487 Z-0.1652 I0.0448 J-0.0045
X1.051 Y17.8576 Z-0.203 I-0.0448 J0.0045
X1.1406 Y17.8487 Z-0.2409 I0.0448 J-0.0045
X1.098 Y17.8981 Z-0.2605 I-0.0448 J0.0045
X1.0508 Y17.8531 Z-0.28 I-0.0022 J-0.0449
X1.1293 I0.0393 J0. F80.
X0.9508 I-0.0893 J0.
X1.2293 I0.1393 J0.
X0.8508 I-0.1893 J0.
X1.3293 I0.2393 J0.
X0.7508 I-0.2893 J0.
X1.4293 I0.3393 J0.
X0.6508 I-0.3893 J0.
X1.5293 I0.4393 J0.
X0.5508 I-0.4893 J0.
X1.5393 I0.4943 J0.
X0.5408 I-0.4993 J0.
X1.5393 I0.4993 J0.
X1.5381 Y17.8608 Z-0.2788 I-0.025 J0. F60.
X1.5351 Y17.867 Z-0.2752 I-0.0238 J-0.0076
X1.5316 Y17.8712 Z-0.2697 I-0.0208 J-0.0139
X1.5288 Y17.8735 Z-0.2627 I-0.0173 J-0.0181
X1.5278 Y17.8742 Z-0.255 I-0.0145 J-0.0204
G0 Z0.4
X2.7392 Y16.8869
Z0.2
G1 Z0.1241 F13.333
G3 X2.7385 Y16.8857 Z0.1161 I0.0393 J-0.022
X2.7369 Y16.8822 Z0.1089 I0.0399 J-0.0208
X2.735 Y16.8766 Z0.1034 I0.0415 J-0.0174
X2.7336 Y16.8693 Z0.1 I0.0434 J-0.0117
X2.8232 Y16.8604 Z0.0621 I0.0448 J-0.0045
X2.7336 Y16.8693 Z0.0242 I-0.0448 J0.0045
X2.8232 Y16.8604 Z-0.0136 I0.0448 J-0.0045
X2.7336 Y16.8693 Z-0.0515 I-0.0448 J0.0045
X2.8232 Y16.8604 Z-0.0894 I0.0448 J-0.0045
X2.7336 Y16.8693 Z-0.1273 I-0.0448 J0.0045
X2.8232 Y16.8604 Z-0.1652 I0.0448 J-0.0045
X2.7336 Y16.8693 Z-0.203 I-0.0448 J0.0045
X2.8232 Y16.8604 Z-0.2409 I0.0448 J-0.0045
X2.7806 Y16.9098 Z-0.2605 I-0.0448 J0.0045
X2.7334 Y16.8649 Z-0.28 I-0.0022 J-0.0449
X2.8119 I0.0393 J0. F80.
X2.6334 I-0.0893 J0.
X2.9119 I0.1393 J0.
X2.5334 I-0.1893 J0.
X3.0119 I0.2393 J0.
X2.4334 I-0.2893 J0.
X3.1119 I0.3393 J0.
X2.3334 I-0.3893 J0.
X3.2119 I0.4393 J0.
X2.2334 I-0.4893 J0.
X3.2219 I0.4943 J0.
X2.2234 I-0.4993 J0.
X3.2219 I0.4993 J0.
X3.2207 Y16.8725 Z-0.2788 I-0.025 J0. F60.
X3.2177 Y16.8787 Z-0.2752 I-0.0238 J-0.0076
X3.2142 Y16.883 Z-0.2697 I-0.0208 J-0.0139
X3.2114 Y16.8852 Z-0.2627 I-0.0173 J-0.0181
X3.2104 Y16.8859 Z-0.255 I-0.0145 J-0.0204
G0 Z0.4
X4.2607 Y15.6652
Z0.2
G1 Z0.1241 F13.333
G3 X4.2601 Y15.664 Z0.1161 I0.0393 J-0.022
X4.2585 Y15.6606 Z0.1089 I0.0399 J-0.0208
X4.2566 Y15.6549 Z0.1034 I0.0415 J-0.0174
X4.2552 Y15.6476 Z0.1 I0.0434 J-0.0117
X4.3448 Y15.6387 Z0.0621 I0.0448 J-0.0045
X4.2552 Y15.6476 Z0.0242 I-0.0448 J0.0045
X4.3448 Y15.6387 Z-0.0136 I0.0448 J-0.0045
X4.2552 Y15.6476 Z-0.0515 I-0.0448 J0.0045
X4.3448 Y15.6387 Z-0.0894 I0.0448 J-0.0045
X4.2552 Y15.6476 Z-0.1273 I-0.0448 J0.0045
X4.3448 Y15.6387 Z-0.1652 I0.0448 J-0.0045
X4.2552 Y15.6476 Z-0.203 I-0.0448 J0.0045
X4.3448 Y15.6387 Z-0.2409 I0.0448 J-0.0045
X4.3022 Y15.6881 Z-0.2605 I-0.0448 J0.0045
X4.255 Y15.6432 Z-0.28 I-0.0022 J-0.0449
X4.3335 I0.0393 J0. F80.
X4.155 I-0.0893 J0.
X4.4335 I0.1393 J0.
X4.055 I-0.1893 J0.
X4.5335 I0.2393 J0.
X3.955 I-0.2893 J0.
X4.6335 I0.3393 J0.
X3.855 I-0.3893 J0.
X4.7335 I0.4393 J0.
X3.755 I-0.4893 J0.
X4.7435 I0.4943 J0.
X3.745 I-0.4993 J0.
X4.7435 I0.4993 J0.
X4.7423 Y15.6508 Z-0.2788 I-0.025 J0. F60.
X4.7393 Y15.6571 Z-0.2752 I-0.0238 J-0.0076
X4.7358 Y15.6613 Z-0.2697 I-0.0208 J-0.0139
X4.733 Y15.6635 Z-0.2627 I-0.0173 J-0.0181
X4.732 Y15.6642 Z-0.255 I-0.0145 J-0.0204
G0 Z0.4
X5.5893 Y14.2359
Z0.2
G1 Z0.1241 F13.333
G3 X5.5886 Y14.2347 Z0.1161 I0.0393 J-0.022
X5.587 Y14.2313 Z0.1089 I0.0399 J-0.0208
X5.5851 Y14.2256 Z0.1034 I0.0415 J-0.0174
X5.5837 Y14.2184 Z0.1 I0.0434 J-0.0117
X5.6733 Y14.2094 Z0.0621 I0.0448 J-0.0045
X5.5837 Y14.2184 Z0.0242 I-0.0448 J0.0045
X5.6733 Y14.2094 Z-0.0136 I0.0448 J-0.0045
X5.5837 Y14.2184 Z-0.0515 I-0.0448 J0.0045
X5.6733 Y14.2094 Z-0.0894 I0.0448 J-0.0045
X5.5837 Y14.2184 Z-0.1273 I-0.0448 J0.0045
X5.6733 Y14.2094 Z-0.1652 I0.0448 J-0.0045
X5.5837 Y14.2184 Z-0.203 I-0.0448 J0.0045
X5.6733 Y14.2094 Z-0.2409 I0.0448 J-0.0045
X5.6307 Y14.2588 Z-0.2605 I-0.0448 J0.0045
X5.5835 Y14.2139 Z-0.28 I-0.0022 J-0.0449
X5.662 I0.0393 J0. F80.
X5.4835 I-0.0893 J0.
X5.762 I0.1393 J0.
X5.3835 I-0.1893 J0.
X5.862 I0.2393 J0.
X5.2835 I-0.2893 J0.
X5.962 I0.3393 J0.
X5.1835 I-0.3893 J0.
X6.062 I0.4393 J0.
X5.0835 I-0.4893 J0.
X6.072 I0.4943 J0.
X5.0735 I-0.4993 J0.
X6.072 I0.4993 J0.
X6.0708 Y14.2215 Z-0.2788 I-0.025 J0. F60.
X6.0678 Y14.2278 Z-0.2752 I-0.0238 J-0.0076
X6.0643 Y14.232 Z-0.2697 I-0.0208 J-0.0139
X6.0615 Y14.2342 Z-0.2627 I-0.0173 J-0.0181
X6.0605 Y14.2349 Z-0.255 I-0.0145 J-0.0204
G0 Z0.4
X6.6965 Y12.6291
Z0.2
G1 Z0.1241 F13.333
G3 X6.6959 Y12.628 Z0.1161 I0.0393 J-0.022
X6.6943 Y12.6245 Z0.1089 I0.0399 J-0.0208
X6.6923 Y12.6189 Z0.1034 I0.0415 J-0.0174
X6.691 Y12.6116 Z0.1 I0.0434 J-0.0117
X6.7806 Y12.6027 Z0.0621 I0.0448 J-0.0045
X6.691 Y12.6116 Z0.0242 I-0.0448 J0.0045
X6.7806 Y12.6027 Z-0.0136 I0.0448 J-0.0045
X6.691 Y12.6116 Z-0.0515 I-0.0448 J0.0045
X6.7806 Y12.6027 Z-0.0894 I0.0448 J-0.0045
X6.691 Y12.6116 Z-0.1273 I-0.0448 J0.0045
X6.7806 Y12.6027 Z-0.1652 I0.0448 J-0.0045
X6.691 Y12.6116 Z-0.203 I-0.0448 J0.0045
X6.7806 Y12.6027 Z-0.2409 I0.0448 J-0.0045
X6.738 Y12.6521 Z-0.2605 I-0.0448 J0.0045
X6.6908 Y12.6071 Z-0.28 I-0.0022 J-0.0449
X6.7693 I0.0393 J0. F80.
X6.5908 I-0.0893 J0.
X6.8693 I0.1393 J0.
X6.4908 I-0.1893 J0.
X6.9693 I0.2393 J0.
X6.3908 I-0.2893 J0.
X7.0693 I0.3393 J0.
X6.2908 I-0.3893 J0.
X7.1693 I0.4393 J0.
X6.1908 I-0.4893 J0.
X7.1793 I0.4943 J0.
X6.1808 I-0.4993 J0.
X7.1793 I0.4993 J0.
X7.1781 Y12.6147 Z-0.2788 I-0.025 J0. F60.
X7.1751 Y12.621 Z-0.2752 I-0.0238 J-0.0076
X7.1715 Y12.6252 Z-0.2697 I-0.0208 J-0.0139
X7.1688 Y12.6275 Z-0.2627 I-0.0173 J-0.0181
X7.1678 Y12.6282 Z-0.255 I-0.0145 J-0.0204
G0 Z0.4
X7.5593 Y10.8789
Z0.2
G1 Z0.1241 F13.333
G3 X7.5587 Y10.8777 Z0.1161 I0.0393 J-0.022
X7.557 Y10.8742 Z0.1089 I0.0399 J-0.0208
X7.5551 Y10.8686 Z0.1034 I0.0415 J-0.0174
X7.5538 Y10.8613 Z0.1 I0.0434 J-0.0117
X7.6433 Y10.8524 Z0.0621 I0.0448 J-0.0045
X7.5538 Y10.8613 Z0.0242 I-0.0448 J0.0045
X7.6433 Y10.8524 Z-0.0136 I0.0448 J-0.0045
X7.5538 Y10.8613 Z-0.0515 I-0.0448 J0.0045
X7.6433 Y10.8524 Z-0.0894 I0.0448 J-0.0045
X7.5538 Y10.8613 Z-0.1273 I-0.0448 J0.0045
X7.6433 Y10.8524 Z-0.1652 I0.0448 J-0.0045
X7.5538 Y10.8613 Z-0.203 I-0.0448 J0.0045
X7.6433 Y10.8524 Z-0.2409 I0.0448 J-0.0045
X7.6008 Y10.9018 Z-0.2605 I-0.0448 J0.0045
X7.5535 Y10.8569 Z-0.28 I-0.0022 J-0.0449
X7.632 I0.0393 J0. F80.
X7.4535 I-0.0893 J0.
X7.732 I0.1393 J0.
X7.3535 I-0.1893 J0.
X7.832 I0.2393 J0.
X7.2535 I-0.2893 J0.
X7.932 I0.3393 J0.
X7.1535 I-0.3893 J0.
X8.032 I0.4393 J0.
X7.0535 I-0.4893 J0.
X8.042 I0.4943 J0.
X7.0435 I-0.4993 J0.
X8.042 I0.4993 J0.
X8.0409 Y10.8645 Z-0.2788 I-0.025 J0. F60.
X8.0379 Y10.8707 Z-0.2752 I-0.0238 J-0.0076
X8.0343 Y10.8749 Z-0.2697 I-0.0208 J-0.0139
X8.0316 Y10.8772 Z-0.2627 I-0.0173 J-0.0181
X8.0306 Y10.8779 Z-0.255 I-0.0145 J-0.0204
G0 Z0.4
X8.1592 Y9.022
Z0.2
G1 Z0.1241 F13.333
G3 X8.1586 Y9.0208 Z0.1161 I0.0393 J-0.022
X8.1569 Y9.0174 Z0.1089 I0.0399 J-0.0208
X8.155 Y9.0117 Z0.1034 I0.0415 J-0.0174
X8.1537 Y9.0045 Z0.1 I0.0434 J-0.0117
X8.2432 Y8.9955 Z0.0621 I0.0448 J-0.0045
X8.1537 Y9.0045 Z0.0242 I-0.0448 J0.0045
X8.2432 Y8.9955 Z-0.0136 I0.0448 J-0.0045
X8.1537 Y9.0045 Z-0.0515 I-0.0448 J0.0045
X8.2432 Y8.9955 Z-0.0894 I0.0448 J-0.0045
X8.1537 Y9.0045 Z-0.1273 I-0.0448 J0.0045
X8.2432 Y8.9955 Z-0.1652 I0.0448 J-0.0045
X8.1537 Y9.0045 Z-0.203 I-0.0448 J0.0045
X8.2432 Y8.9955 Z-0.2409 I0.0448 J-0.0045
X8.2007 Y9.0449 Z-0.2605 I-0.0448 J0.0045
X8.1535 Y9. Z-0.28 I-0.0022 J-0.0449
X8.232 I0.0393 J0. F80.
X8.0535 I-0.0893 J0.
X8.332 I0.1393 J0.
X7.9535 I-0.1893 J0.
X8.432 I0.2393 J0.
X7.8535 I-0.2893 J0.
X8.532 I0.3393 J0.
X7.7535 I-0.3893 J0.
X8.632 I0.4393 J0.
X7.6535 I-0.4893 J0.
X8.642 I0.4943 J0.
X7.6435 I-0.4993 J0.
X8.642 I0.4993 J0.
X8.6408 Y9.0076 Z-0.2788 I-0.025 J0. F60.
X8.6378 Y9.0139 Z-0.2752 I-0.0238 J-0.0076
X8.6342 Y9.0181 Z-0.2697 I-0.0208 J-0.0139
X8.6315 Y9.0204 Z-0.2627 I-0.0173 J-0.0181
X8.6305 Y9.021 Z-0.255 I-0.0145 J-0.0204
G0 Z0.4
X7.7427 Y7.594
Z0.2
G1 Z0.1241 F13.333
G3 X7.7421 Y7.5928 Z0.1161 I0.0393 J-0.022
X7.7405 Y7.5894 Z0.1089 I0.0399 J-0.0208
X7.7385 Y7.5838 Z0.1034 I0.0415 J-0.0174
X7.7372 Y7.5765 Z0.1 I0.0434 J-0.0117
X7.8267 Y7.5676 Z0.0621 I0.0448 J-0.0045
X7.7372 Y7.5765 Z0.0242 I-0.0448 J0.0045
X7.8267 Y7.5676 Z-0.0136 I0.0448 J-0.0045
X7.7372 Y7.5765 Z-0.0515 I-0.0448 J0.0045
X7.8267 Y7.5676 Z-0.0894 I0.0448 J-0.0045
X7.7372 Y7.5765 Z-0.1273 I-0.0448 J0.0045
X7.8267 Y7.5676 Z-0.1652 I0.0448 J-0.0045
X7.7372 Y7.5765 Z-0.203 I-0.0448 J0.0045
X7.8267 Y7.5676 Z-0.2409 I0.0448 J-0.0045
X7.7842 Y7.617 Z-0.2605 I-0.0448 J0.0045
X7.737 Y7.572 Z-0.28 I-0.0022 J-0.0449
X7.8155 I0.0393 J0. F80.
X7.637 I-0.0893 J0.
X7.9155 I0.1393 J0.
X7.537 I-0.1893 J0.
X8.0155 I0.2393 J0.
X7.437 I-0.2893 J0.
X8.1155 I0.3393 J0.
X7.337 I-0.3893 J0.
X8.2155 I0.4393 J0.
X7.237 I-0.4893 J0.
X8.2255 I0.4943 J0.
X7.227 I-0.4993 J0.
X8.2255 I0.4993 J0.
X8.2243 Y7.5796 Z-0.2788 I-0.025 J0. F60.
X8.2213 Y7.5859 Z-0.2752 I-0.0238 J-0.0076
X8.2177 Y7.5901 Z-0.2697 I-0.0208 J-0.0139
X8.215 Y7.5924 Z-0.2627 I-0.0173 J-0.0181
X8.214 Y7.593 Z-0.255 I-0.0145 J-0.0204
G0 Z0.4
X6.7123 Y8.6687
Z0.2
G1 Z0.1241 F13.333
G3 X6.7117 Y8.6676 Z0.1161 I0.0393 J-0.022
X6.7101 Y8.6641 Z0.1089 I0.0399 J-0.0208
X6.7081 Y8.6585 Z0.1034 I0.0415 J-0.0174
X6.7068 Y8.6512 Z0.1 I0.0434 J-0.0117
X6.7964 Y8.6423 Z0.0621 I0.0448 J-0.0045
X6.7068 Y8.6512 Z0.0242 I-0.0448 J0.0045
X6.7964 Y8.6423 Z-0.0136 I0.0448 J-0.0045
X6.7068 Y8.6512 Z-0.0515 I-0.0448 J0.0045
X6.7964 Y8.6423 Z-0.0894 I0.0448 J-0.0045
X6.7068 Y8.6512 Z-0.1273 I-0.0448 J0.0045
X6.7964 Y8.6423 Z-0.1652 I0.0448 J-0.0045
X6.7068 Y8.6512 Z-0.203 I-0.0448 J0.0045
X6.7964 Y8.6423 Z-0.2409 I0.0448 J-0.0045
X6.7538 Y8.6917 Z-0.2605 I-0.0448 J0.0045
X6.7066 Y8.6467 Z-0.28 I-0.0022 J-0.0449
X6.789 I0.0412 J0. F80.
X6.6066 I-0.0912 J0.
X6.889 I0.1412 J0.
X6.5066 I-0.1912 J0.
X6.989 I0.2412 J0.
X6.4066 I-0.2912 J0.
X7.089 I0.3412 J0.
X6.3066 I-0.3912 J0.
X7.089 I0.3912 J0.
G2 X7.1325 Y8.7162 I0.0773 J0.
G3 X7.1651 Y8.7915 I-0.0276 J0.0566
X6.6978 Y9.1359 I-0.4673 J-0.1448
Y8.1575 I0. J-0.4892
X7.1651 Y8.7915 I0. J0.4892
G2 X7.1676 Y8.8001 I0.0077 J0.0024
G3 X7.17 Y8.8087 I-0.0051 J0.0061
X6.6978 Y9.1459 I-0.4722 J-0.162
Y8.1475 I0. J-0.4992
X7.17 Y8.8087 I0. J0.4992
X7.1664 Y8.8155 Z-0.2788 I-0.0236 J-0.0081 F60.
X7.1615 Y8.8205 Z-0.2752 I-0.0201 J-0.0149
X7.1568 Y8.8233 Z-0.2697 I-0.0152 J-0.0199
X7.1535 Y8.8246 Z-0.2627 I-0.0105 J-0.0227
X7.1523 Y8.8249 Z-0.255 I-0.0071 J-0.024
G0 Z0.4
X6.1808 Y10.3199
Z0.2
G1 Z0.1241 F13.333
G3 X6.1802 Y10.3187 Z0.1161 I0.0393 J-0.022
X6.1785 Y10.3152 Z0.1089 I0.0399 J-0.0208
X6.1766 Y10.3096 Z0.1034 I0.0415 J-0.0174
X6.1753 Y10.3023 Z0.1 I0.0434 J-0.0117
X6.2648 Y10.2934 Z0.0621 I0.0448 J-0.0045
X6.1753 Y10.3023 Z0.0242 I-0.0448 J0.0045
X6.2648 Y10.2934 Z-0.0136 I0.0448 J-0.0045
X6.1753 Y10.3023 Z-0.0515 I-0.0448 J0.0045
X6.2648 Y10.2934 Z-0.0894 I0.0448 J-0.0045
X6.1753 Y10.3023 Z-0.1273 I-0.0448 J0.0045
X6.2648 Y10.2934 Z-0.1652 I0.0448 J-0.0045
X6.1753 Y10.3023 Z-0.203 I-0.0448 J0.0045
X6.2648 Y10.2934 Z-0.2409 I0.0448 J-0.0045
X6.2223 Y10.3428 Z-0.2605 I-0.0448 J0.0045
X6.175 Y10.2979 Z-0.28 I-0.0022 J-0.0449
X6.2535 I0.0393 J0. F80.
X6.075 I-0.0893 J0.
X6.3535 I0.1393 J0.
X5.975 I-0.1893 J0.
X6.4535 I0.2393 J0.
X5.875 I-0.2893 J0.
X6.5535 I0.3393 J0.
X5.775 I-0.3893 J0.
X6.6535 I0.4393 J0.
X5.675 I-0.4893 J0.
X6.6635 I0.4943 J0.
X5.665 I-0.4993 J0.
X6.6635 I0.4993 J0.
X6.6624 Y10.3055 Z-0.2788 I-0.025 J0. F60.
X6.6593 Y10.3117 Z-0.2752 I-0.0238 J-0.0076
X6.6558 Y10.316 Z-0.2697 I-0.0208 J-0.0139
X6.6531 Y10.3182 Z-0.2627 I-0.0173 J-0.0181
X6.6521 Y10.3189 Z-0.255 I-0.0145 J-0.0204
G0 Z0.4
X5.4136 Y11.8763
Z0.2
G1 Z0.1241 F13.333
G3 X5.413 Y11.8751 Z0.1161 I0.0393 J-0.022
X5.4114 Y11.8716 Z0.1089 I0.0399 J-0.0208
X5.4094 Y11.866 Z0.1034 I0.0415 J-0.0174
X5.4081 Y11.8587 Z0.1 I0.0434 J-0.0117
X5.4977 Y11.8498 Z0.0621 I0.0448 J-0.0045
X5.4081 Y11.8587 Z0.0242 I-0.0448 J0.0045
X5.4977 Y11.8498 Z-0.0136 I0.0448 J-0.0045
X5.4081 Y11.8587 Z-0.0515 I-0.0448 J0.0045
X5.4977 Y11.8498 Z-0.0894 I0.0448 J-0.0045
X5.4081 Y11.8587 Z-0.1273 I-0.0448 J0.0045
X5.4977 Y11.8498 Z-0.1652 I0.0448 J-0.0045
X5.4081 Y11.8587 Z-0.203 I-0.0448 J0.0045
X5.4977 Y11.8498 Z-0.2409 I0.0448 J-0.0045
X5.4551 Y11.8992 Z-0.2605 I-0.0448 J0.0045
X5.4079 Y11.8543 Z-0.28 I-0.0022 J-0.0449
X5.4864 I0.0393 J0. F80.
X5.3079 I-0.0893 J0.
X5.5864 I0.1393 J0.
X5.2079 I-0.1893 J0.
X5.6864 I0.2393 J0.
X5.1079 I-0.2893 J0.
X5.7864 I0.3393 J0.
X5.0079 I-0.3893 J0.
X5.8864 I0.4393 J0.
X4.9079 I-0.4893 J0.
X5.8964 I0.4943 J0.
X4.8979 I-0.4993 J0.
X5.8964 I0.4993 J0.
X5.8952 Y11.8619 Z-0.2788 I-0.025 J0. F60.
X5.8922 Y11.8681 Z-0.2752 I-0.0238 J-0.0076
X5.8886 Y11.8723 Z-0.2697 I-0.0208 J-0.0139
X5.8859 Y11.8746 Z-0.2627 I-0.0173 J-0.0181
X5.8849 Y11.8753 Z-0.255 I-0.0145 J-0.0204
G0 Z0.4
X4.429 Y13.305
Z0.2
G1 Z0.1241 F13.333
G3 X4.4283 Y13.3039 Z0.1161 I0.0393 J-0.022
X4.4267 Y13.3004 Z0.1089 I0.0399 J-0.0208
X4.4248 Y13.2948 Z0.1034 I0.0415 J-0.0174
X4.4234 Y13.2875 Z0.1 I0.0434 J-0.0117
X4.513 Y13.2786 Z0.0621 I0.0448 J-0.0045
X4.4234 Y13.2875 Z0.0242 I-0.0448 J0.0045
X4.513 Y13.2786 Z-0.0136 I0.0448 J-0.0045
X4.4234 Y13.2875 Z-0.0515 I-0.0448 J0.0045
X4.513 Y13.2786 Z-0.0894 I0.0448 J-0.0045
X4.4234 Y13.2875 Z-0.1273 I-0.0448 J0.0045
X4.513 Y13.2786 Z-0.1652 I0.0448 J-0.0045
X4.4234 Y13.2875 Z-0.203 I-0.0448 J0.0045
X4.513 Y13.2786 Z-0.2409 I0.0448 J-0.0045
X4.4705 Y13.328 Z-0.2605 I-0.0448 J0.0045
X4.4232 Y13.283 Z-0.28 I-0.0022 J-0.0449
X4.5017 I0.0393 J0. F80.
X4.3232 I-0.0893 J0.
X4.6017 I0.1393 J0.
X4.2232 I-0.1893 J0.
X4.7017 I0.2393 J0.
X4.1232 I-0.2893 J0.
X4.8017 I0.3393 J0.
X4.0232 I-0.3893 J0.
X4.9017 I0.4393 J0.
X3.9232 I-0.4893 J0.
X4.9117 I0.4943 J0.
X3.9132 I-0.4993 J0.
X4.9117 I0.4993 J0.
X4.9105 Y13.2906 Z-0.2788 I-0.025 J0. F60.
X4.9075 Y13.2969 Z-0.2752 I-0.0238 J-0.0076
X4.904 Y13.3011 Z-0.2697 I-0.0208 J-0.0139
X4.9013 Y13.3034 Z-0.2627 I-0.0173 J-0.0181
X4.9002 Y13.3041 Z-0.255 I-0.0145 J-0.0204
G0 Z0.4
X3.2477 Y14.576
Z0.2
G1 Z0.1241 F13.333
G3 X3.247 Y14.5749 Z0.1161 I0.0393 J-0.022
X3.2454 Y14.5714 Z0.1089 I0.0399 J-0.0208
X3.2435 Y14.5658 Z0.1034 I0.0415 J-0.0174
X3.2421 Y14.5585 Z0.1 I0.0434 J-0.0117
X3.3317 Y14.5496 Z0.0621 I0.0448 J-0.0045
X3.2421 Y14.5585 Z0.0242 I-0.0448 J0.0045
X3.3317 Y14.5496 Z-0.0136 I0.0448 J-0.0045
X3.2421 Y14.5585 Z-0.0515 I-0.0448 J0.0045
X3.3317 Y14.5496 Z-0.0894 I0.0448 J-0.0045
X3.2421 Y14.5585 Z-0.1273 I-0.0448 J0.0045
X3.3317 Y14.5496 Z-0.1652 I0.0448 J-0.0045
X3.2421 Y14.5585 Z-0.203 I-0.0448 J0.0045
X3.3317 Y14.5496 Z-0.2409 I0.0448 J-0.0045
X3.2892 Y14.599 Z-0.2605 I-0.0448 J0.0045
X3.2419 Y14.554 Z-0.28 I-0.0022 J-0.0449
X3.3204 I0.0393 J0. F80.
X3.1419 I-0.0893 J0.
X3.4204 I0.1393 J0.
X3.0419 I-0.1893 J0.
X3.5204 I0.2393 J0.
X2.9419 I-0.2893 J0.
X3.6204 I0.3393 J0.
X2.8419 I-0.3893 J0.
X3.7204 I0.4393 J0.
X2.7419 I-0.4893 J0.
X3.7304 I0.4943 J0.
X2.7319 I-0.4993 J0.
X3.7304 I0.4993 J0.
X3.7292 Y14.5616 Z-0.2788 I-0.025 J0. F60.
X3.7262 Y14.5679 Z-0.2752 I-0.0238 J-0.0076
X3.7227 Y14.5721 Z-0.2697 I-0.0208 J-0.0139
X3.7199 Y14.5744 Z-0.2627 I-0.0173 J-0.0181
X3.7189 Y14.5751 Z-0.255 I-0.0145 J-0.0204
G0 Z0.4
X1.8946 Y15.6624
Z0.2
G1 Z0.1241 F13.333
G3 X1.894 Y15.6612 Z0.1161 I0.0393 J-0.022
X1.8924 Y15.6578 Z0.1089 I0.0399 J-0.0208
X1.8904 Y15.6521 Z0.1034 I0.0415 J-0.0174
X1.8891 Y15.6448 Z0.1 I0.0434 J-0.0117
X1.9786 Y15.6359 Z0.0621 I0.0448 J-0.0045
X1.8891 Y15.6448 Z0.0242 I-0.0448 J0.0045
X1.9786 Y15.6359 Z-0.0136 I0.0448 J-0.0045
X1.8891 Y15.6448 Z-0.0515 I-0.0448 J0.0045
X1.9786 Y15.6359 Z-0.0894 I0.0448 J-0.0045
X1.8891 Y15.6448 Z-0.1273 I-0.0448 J0.0045
X1.9786 Y15.6359 Z-0.1652 I0.0448 J-0.0045
X1.8891 Y15.6448 Z-0.203 I-0.0448 J0.0045
X1.9786 Y15.6359 Z-0.2409 I0.0448 J-0.0045
X1.9361 Y15.6853 Z-0.2605 I-0.0448 J0.0045
X1.8889 Y15.6404 Z-0.28 I-0.0022 J-0.0449
X1.9674 I0.0393 J0. F80.
X1.7889 I-0.0893 J0.
X2.0674 I0.1393 J0.
X1.6889 I-0.1893 J0.
X2.1674 I0.2393 J0.
X1.5889 I-0.2893 J0.
X2.2674 I0.3393 J0.
X1.4889 I-0.3893 J0.
X2.3674 I0.4393 J0.
X1.3889 I-0.4893 J0.
X2.3774 I0.4943 J0.
X1.3789 I-0.4993 J0.
X2.3774 I0.4993 J0.
X2.3762 Y15.648 Z-0.2788 I-0.025 J0. F60.
X2.3732 Y15.6543 Z-0.2752 I-0.0238 J-0.0076
X2.3696 Y15.6585 Z-0.2697 I-0.0208 J-0.0139
X2.3669 Y15.6607 Z-0.2627 I-0.0173 J-0.0181
X2.3659 Y15.6614 Z-0.255 I-0.0145 J-0.0204
G0 Z0.4
X0.3984 Y16.5412
Z0.2
G1 Z0.1241 F13.333
G3 X0.3978 Y16.54 Z0.1161 I0.0393 J-0.022
X0.3961 Y16.5365 Z0.1089 I0.0399 J-0.0208
X0.3942 Y16.5309 Z0.1034 I0.0415 J-0.0174
X0.3929 Y16.5236 Z0.1 I0.0434 J-0.0117
X0.4824 Y16.5147 Z0.0621 I0.0448 J-0.0045
X0.3929 Y16.5236 Z0.0242 I-0.0448 J0.0045
X0.4824 Y16.5147 Z-0.0136 I0.0448 J-0.0045
X0.3929 Y16.5236 Z-0.0515 I-0.0448 J0.0045
X0.4824 Y16.5147 Z-0.0894 I0.0448 J-0.0045
X0.3929 Y16.5236 Z-0.1273 I-0.0448 J0.0045
X0.4824 Y16.5147 Z-0.1652 I0.0448 J-0.0045
X0.3929 Y16.5236 Z-0.203 I-0.0448 J0.0045
X0.4824 Y16.5147 Z-0.2409 I0.0448 J-0.0045
X0.4399 Y16.5641 Z-0.2605 I-0.0448 J0.0045
X0.3927 Y16.5192 Z-0.28 I-0.0022 J-0.0449
X0.4712 I0.0393 J0. F80.
X0.2927 I-0.0893 J0.
X0.5712 I0.1393 J0.
X0.1927 I-0.1893 J0.
X0.6712 I0.2393 J0.
X0.0927 I-0.2893 J0.
X0.7712 I0.3393 J0.
X-0.0073 I-0.3893 J0.
X0.8712 I0.4393 J0.
X-0.1073 I-0.4893 J0.
X0.8812 I0.4943 J0.
X-0.1173 I-0.4993 J0.
X0.8812 I0.4993 J0.
X0.88 Y16.5268 Z-0.2788 I-0.025 J0. F60.
X0.877 Y16.533 Z-0.2752 I-0.0238 J-0.0076
X0.8734 Y16.5373 Z-0.2697 I-0.0208 J-0.0139
X0.8707 Y16.5395 Z-0.2627 I-0.0173 J-0.0181
X0.8697 Y16.5402 Z-0.255 I-0.0145 J-0.0204
G0 Z0.4
X-2.6469 Y19.0733
Z0.2
G1 Z0.1241 F13.333
G3 X-2.6475 Y19.0721 Z0.1161 I0.0393 J-0.022
X-2.6491 Y19.0686 Z0.1089 I0.0399 J-0.0208
X-2.651 Y19.063 Z0.1034 I0.0415 J-0.0174
X-2.6524 Y19.0557 Z0.1 I0.0434 J-0.0117
X-2.5628 Y19.0468 Z0.0621 I0.0448 J-0.0045
X-2.6524 Y19.0557 Z0.0242 I-0.0448 J0.0045
X-2.5628 Y19.0468 Z-0.0136 I0.0448 J-0.0045
X-2.6524 Y19.0557 Z-0.0515 I-0.0448 J0.0045
X-2.5628 Y19.0468 Z-0.0894 I0.0448 J-0.0045
X-2.6524 Y19.0557 Z-0.1273 I-0.0448 J0.0045
X-2.5628 Y19.0468 Z-0.1652 I0.0448 J-0.0045
X-2.6524 Y19.0557 Z-0.203 I-0.0448 J0.0045
X-2.5628 Y19.0468 Z-0.2409 I0.0448 J-0.0045
X-2.6054 Y19.0962 Z-0.2605 I-0.0448 J0.0045
X-2.6526 Y19.0513 Z-0.28 I-0.0022 J-0.0449
X-2.5741 I0.0393 J0. F80.
X-2.7526 I-0.0893 J0.
X-2.4741 I0.1393 J0.
X-2.8526 I-0.1893 J0.
X-2.3741 I0.2393 J0.
X-2.9526 I-0.2893 J0.
X-2.2741 I0.3393 J0.
X-3.0526 I-0.3893 J0.
X-2.1741 I0.4393 J0.
X-3.1526 I-0.4893 J0.
X-2.1641 I0.4943 J0.
X-3.1626 I-0.4993 J0.
X-2.1641 I0.4993 J0.
X-2.1653 Y19.0589 Z-0.2788 I-0.025 J0. F60.
X-2.1683 Y19.0651 Z-0.2752 I-0.0238 J-0.0076
X-2.1718 Y19.0693 Z-0.2697 I-0.0208 J-0.0139
X-2.1746 Y19.0716 Z-0.2627 I-0.0173 J-0.0181
X-2.1756 Y19.0723 Z-0.255 I-0.0145 J-0.0204
G0 Z0.4
X-4.5894 Y19.2578
Z0.2
G1 Z0.1241 F13.333
G3 X-4.5901 Y19.2567 Z0.1161 I0.0393 J-0.022
X-4.5917 Y19.2532 Z0.1089 I0.0399 J-0.0208
X-4.5936 Y19.2476 Z0.1034 I0.0415 J-0.0174
X-4.595 Y19.2403 Z0.1 I0.0434 J-0.0117
X-4.5054 Y19.2314 Z0.0621 I0.0448 J-0.0045
X-4.595 Y19.2403 Z0.0242 I-0.0448 J0.0045
X-4.5054 Y19.2314 Z-0.0136 I0.0448 J-0.0045
X-4.595 Y19.2403 Z-0.0515 I-0.0448 J0.0045
X-4.5054 Y19.2314 Z-0.0894 I0.0448 J-0.0045
X-4.595 Y19.2403 Z-0.1273 I-0.0448 J0.0045
X-4.5054 Y19.2314 Z-0.1652 I0.0448 J-0.0045
X-4.595 Y19.2403 Z-0.203 I-0.0448 J0.0045
X-4.5054 Y19.2314 Z-0.2409 I0.0448 J-0.0045
X-4.548 Y19.2808 Z-0.2605 I-0.0448 J0.0045
X-4.5952 Y19.2358 Z-0.28 I-0.0022 J-0.0449
X-4.5167 I0.0393 J0. F80.
X-4.6952 I-0.0893 J0.
X-4.4167 I0.1393 J0.
X-4.7952 I-0.1893 J0.
X-4.3167 I0.2393 J0.
X-4.8952 I-0.2893 J0.
X-4.2167 I0.3393 J0.
X-4.9952 I-0.3893 J0.
X-4.1167 I0.4393 J0.
X-5.0952 I-0.4893 J0.
X-4.1067 I0.4943 J0.
X-5.1052 I-0.4993 J0.
X-4.1067 I0.4993 J0.
X-4.1079 Y19.2434 Z-0.2788 I-0.025 J0. F60.
X-4.1109 Y19.2497 Z-0.2752 I-0.0238 J-0.0076
X-4.1144 Y19.2539 Z-0.2697 I-0.0208 J-0.0139
X-4.1172 Y19.2562 Z-0.2627 I-0.0173 J-0.0181
X-4.1182 Y19.2569 Z-0.255 I-0.0145 J-0.0204
G0 Z0.6
(2D SLOT CUT)
M7
G0 X-7.8616 Y8.2917
Z0.6
Z0.2
G1 Z0.1 F13.333
Y10.4468 Z-0.28
Y17.0047 F80.
Z-0.16
Y17.8547
Z-0.28 F13.333
Y20.5617 F80.
G2 X-7.7626 Y20.684 I0.125 J0.
X-1.1688 Y20.6294 I3.1739 J-14.885
G1 Z-0.16
G2 X-0.3462 Y20.4153 I-3.42 J-14.8304
G1 Z-0.28 F13.333
G2 X5.394 Y17.2873 I-4.2426 J-14.6163 F80.
G1 Z-0.16
G2 X6.0198 Y16.7121 I-9.9827 J-11.4883
G1 Z-0.28 F13.333
G2 X9.489 Y11.5828 I-10.6085 J-10.9131 F80.
G1 Z-0.16
G2 X9.79 Y10.7878 I-14.0778 J-5.7838
G1 Z-0.28 F13.333
G2 X10.3864 Y8.5157 I-14.3787 J-4.9888 F80.
X10.3884 Y8.4934 I-0.123 J-0.0223
G1 Y5.281
Z-0.16
Y4.431
Z-0.28 F13.333
Y0. F80.
G2 X10.2634 Y-0.125 I-0.125 J0.
G1 X1.8435
Z-0.16
X0.9935
Z-0.28 F13.333
X-7.7366 F80.
G2 X-7.8616 Y0. I0. J0.125
G1 Y2.073
Z-0.16
Y2.923
Z-0.28 F13.333
Y10.4468 F80.
G0 Z0.6
M9
G53 Z0.
M30
%
