%
(FULL WIDTH INTAKE PROTOTYPE PLATE_1554)
(T1  D=0.1554 CR=0. - ZMIN=-0.28 - FLAT END MILL)
G90 G94 G17 G91.1
G64 P0.001 Q0.001
G20
G53 G0 Z0.
(.3 CIRCLUAR THROUGH HOLE 2)
M9
T1 M6
S13000 M3
G4 P10.
G54
M7
G0 X-7.221 Y17.6807
G43 Z0.6 H1
G0 Z0.13
G1 Z0.0655 F40.
G19 G3 Y17.6962 Z0.05 J0.0155 K0.
G1 Y17.704
G17 G3 X-7.2366 Y17.7195 I-0.0155 J0.
Y17.6089 Z0.0265 I0. J-0.0553
Y17.7195 Z0.0031 I0. J0.0553
Y17.6089 Z-0.0204 I0. J-0.0553
Y17.7195 Z-0.0438 I0. J0.0553
Y17.6089 Z-0.0673 I0. J-0.0553
Y17.7195 Z-0.0907 I0. J0.0553
Y17.6089 Z-0.1142 I0. J-0.0553
Y17.7195 Z-0.1376 I0. J0.0553
Y17.6089 Z-0.1611 I0. J-0.0553
Y17.7195 Z-0.1845 I0. J0.0553
Y17.6089 Z-0.208 I0. J-0.0553
Y17.7195 Z-0.2314 I0. J0.0553
Y17.6089 Z-0.2549 I0. J-0.0553
X-7.1816 Y17.6704 Z-0.2674 I0. J0.0553
X-7.2489 Y17.7181 Z-0.28 I-0.055 J-0.0062
X-7.2242 Y17.6103 I0.0123 J-0.0539
X-7.2489 Y17.7181 I-0.0123 J0.0539
X-7.2606 Y17.6995 I0.0035 J-0.0151
G1 X-7.2589 Y17.692
X-7.2582 Y17.689 Z-0.2797
X-7.2575 Y17.6862 Z-0.2788
X-7.2569 Y17.6835 Z-0.2774
X-7.2564 Y17.6812 Z-0.2754
X-7.256 Y17.6794 Z-0.2731
X-7.2557 Y17.678 Z-0.2704
X-7.2555 Y17.6771 Z-0.2675
X-7.2554 Y17.6768 Z-0.2645
G0 Z0.4
X-7.221 Y17.0507
Z0.13
G1 Z0.0655 F40.
G19 G3 Y17.0662 Z0.05 J0.0155 K0.
G1 Y17.074
G17 G3 X-7.2366 Y17.0895 I-0.0155 J0.
Y16.9789 Z0.0265 I0. J-0.0553
Y17.0895 Z0.0031 I0. J0.0553
Y16.9789 Z-0.0204 I0. J-0.0553
Y17.0895 Z-0.0438 I0. J0.0553
Y16.9789 Z-0.0673 I0. J-0.0553
Y17.0895 Z-0.0907 I0. J0.0553
Y16.9789 Z-0.1142 I0. J-0.0553
Y17.0895 Z-0.1376 I0. J0.0553
Y16.9789 Z-0.1611 I0. J-0.0553
Y17.0895 Z-0.1845 I0. J0.0553
Y16.9789 Z-0.208 I0. J-0.0553
Y17.0895 Z-0.2314 I0. J0.0553
Y16.9789 Z-0.2549 I0. J-0.0553
X-7.1816 Y17.0404 Z-0.2674 I0. J0.0553
X-7.2489 Y17.0881 Z-0.28 I-0.055 J-0.0062
X-7.2242 Y16.9803 I0.0123 J-0.0539
X-7.2489 Y17.0881 I-0.0123 J0.0539
X-7.2606 Y17.0695 I0.0035 J-0.0151
G1 X-7.2589 Y17.062
X-7.2582 Y17.059 Z-0.2797
X-7.2575 Y17.0562 Z-0.2788
X-7.2569 Y17.0535 Z-0.2774
X-7.2564 Y17.0512 Z-0.2754
X-7.256 Y17.0494 Z-0.2731
X-7.2557 Y17.048 Z-0.2704
X-7.2555 Y17.0471 Z-0.2675
X-7.2554 Y17.0468 Z-0.2645
G0 Z0.4
X-7.221 Y3.4064
Z0.13
G1 Z0.0655 F40.
G19 G3 Y3.422 Z0.05 J0.0155 K0.
G1 Y3.4298
G17 G3 X-7.2366 Y3.4453 I-0.0155 J0.
Y3.3347 Z0.0265 I0. J-0.0553
Y3.4453 Z0.0031 I0. J0.0553
Y3.3347 Z-0.0204 I0. J-0.0553
Y3.4453 Z-0.0438 I0. J0.0553
Y3.3347 Z-0.0673 I0. J-0.0553
Y3.4453 Z-0.0907 I0. J0.0553
Y3.3347 Z-0.1142 I0. J-0.0553
Y3.4453 Z-0.1376 I0. J0.0553
Y3.3347 Z-0.1611 I0. J-0.0553
Y3.4453 Z-0.1845 I0. J0.0553
Y3.3347 Z-0.208 I0. J-0.0553
Y3.4453 Z-0.2314 I0. J0.0553
Y3.3347 Z-0.2549 I0. J-0.0553
X-7.1816 Y3.3962 Z-0.2674 I0. J0.0553
X-7.2489 Y3.4439 Z-0.28 I-0.055 J-0.0062
X-7.2242 Y3.3361 I0.0123 J-0.0539
X-7.2489 Y3.4439 I-0.0123 J0.0539
X-7.2606 Y3.4253 I0.0035 J-0.0151
G1 X-7.2589 Y3.4177
X-7.2582 Y3.4148 Z-0.2797
X-7.2575 Y3.4119 Z-0.2788
X-7.2569 Y3.4093 Z-0.2774
X-7.2564 Y3.407 Z-0.2754
X-7.256 Y3.4051 Z-0.2731
X-7.2557 Y3.4037 Z-0.2704
X-7.2555 Y3.4029 Z-0.2675
X-7.2554 Y3.4026 Z-0.2645
G0 Z0.4
X-7.221 Y2.7764
Z0.13
G1 Z0.0655 F40.
G19 G3 Y2.792 Z0.05 J0.0155 K0.
G1 Y2.7998
G17 G3 X-7.2366 Y2.8153 I-0.0155 J0.
Y2.7047 Z0.0265 I0. J-0.0553
Y2.8153 Z0.0031 I0. J0.0553
Y2.7047 Z-0.0204 I0. J-0.0553
Y2.8153 Z-0.0438 I0. J0.0553
Y2.7047 Z-0.0673 I0. J-0.0553
Y2.8153 Z-0.0907 I0. J0.0553
Y2.7047 Z-0.1142 I0. J-0.0553
Y2.8153 Z-0.1376 I0. J0.0553
Y2.7047 Z-0.1611 I0. J-0.0553
Y2.8153 Z-0.1845 I0. J0.0553
Y2.7047 Z-0.208 I0. J-0.0553
Y2.8153 Z-0.2314 I0. J0.0553
Y2.7047 Z-0.2549 I0. J-0.0553
X-7.1816 Y2.7662 Z-0.2674 I0. J0.0553
X-7.2489 Y2.8139 Z-0.28 I-0.055 J-0.0062
X-7.2242 Y2.7061 I0.0123 J-0.0539
X-7.2489 Y2.8139 I-0.0123 J0.0539
X-7.2606 Y2.7953 I0.0035 J-0.0151
G1 X-7.2589 Y2.7877
X-7.2582 Y2.7848 Z-0.2797
X-7.2575 Y2.7819 Z-0.2788
X-7.2569 Y2.7793 Z-0.2774
X-7.2564 Y2.777 Z-0.2754
X-7.256 Y2.7751 Z-0.2731
X-7.2557 Y2.7737 Z-0.2704
X-7.2555 Y2.7729 Z-0.2675
X-7.2554 Y2.7726 Z-0.2645
G0 Z0.4
X-7.221 Y2.1464
Z0.13
G1 Z0.0655 F40.
G19 G3 Y2.162 Z0.05 J0.0155 K0.
G1 Y2.1698
G17 G3 X-7.2366 Y2.1853 I-0.0155 J0.
Y2.0747 Z0.0265 I0. J-0.0553
Y2.1853 Z0.0031 I0. J0.0553
Y2.0747 Z-0.0204 I0. J-0.0553
Y2.1853 Z-0.0438 I0. J0.0553
Y2.0747 Z-0.0673 I0. J-0.0553
Y2.1853 Z-0.0907 I0. J0.0553
Y2.0747 Z-0.1142 I0. J-0.0553
Y2.1853 Z-0.1376 I0. J0.0553
Y2.0747 Z-0.1611 I0. J-0.0553
Y2.1853 Z-0.1845 I0. J0.0553
Y2.0747 Z-0.208 I0. J-0.0553
Y2.1853 Z-0.2314 I0. J0.0553
Y2.0747 Z-0.2549 I0. J-0.0553
X-7.1816 Y2.1362 Z-0.2674 I0. J0.0553
X-7.2489 Y2.1839 Z-0.28 I-0.055 J-0.0062
X-7.2242 Y2.0761 I0.0123 J-0.0539
X-7.2489 Y2.1839 I-0.0123 J0.0539
X-7.2606 Y2.1653 I0.0035 J-0.0151
G1 X-7.2589 Y2.1577
X-7.2582 Y2.1548 Z-0.2797
X-7.2575 Y2.1519 Z-0.2788
X-7.2569 Y2.1493 Z-0.2774
X-7.2564 Y2.147 Z-0.2754
X-7.256 Y2.1451 Z-0.2731
X-7.2557 Y2.1437 Z-0.2704
X-7.2555 Y2.1429 Z-0.2675
X-7.2554 Y2.1426 Z-0.2645
G0 Z0.4
X-7.221 Y1.5164
Z0.13
G1 Z0.0655 F40.
G19 G3 Y1.532 Z0.05 J0.0155 K0.
G1 Y1.5398
G17 G3 X-7.2366 Y1.5553 I-0.0155 J0.
Y1.4447 Z0.0265 I0. J-0.0553
Y1.5553 Z0.0031 I0. J0.0553
Y1.4447 Z-0.0204 I0. J-0.0553
Y1.5553 Z-0.0438 I0. J0.0553
Y1.4447 Z-0.0673 I0. J-0.0553
Y1.5553 Z-0.0907 I0. J0.0553
Y1.4447 Z-0.1142 I0. J-0.0553
Y1.5553 Z-0.1376 I0. J0.0553
Y1.4447 Z-0.1611 I0. J-0.0553
Y1.5553 Z-0.1845 I0. J0.0553
Y1.4447 Z-0.208 I0. J-0.0553
Y1.5553 Z-0.2314 I0. J0.0553
Y1.4447 Z-0.2549 I0. J-0.0553
X-7.1816 Y1.5062 Z-0.2674 I0. J0.0553
X-7.2489 Y1.5539 Z-0.28 I-0.055 J-0.0062
X-7.2242 Y1.4461 I0.0123 J-0.0539
X-7.2489 Y1.5539 I-0.0123 J0.0539
X-7.2606 Y1.5353 I0.0035 J-0.0151
G1 X-7.2589 Y1.5277
X-7.2582 Y1.5248 Z-0.2797
X-7.2575 Y1.5219 Z-0.2788
X-7.2569 Y1.5193 Z-0.2774
X-7.2564 Y1.517 Z-0.2754
X-7.256 Y1.5151 Z-0.2731
X-7.2557 Y1.5137 Z-0.2704
X-7.2555 Y1.5129 Z-0.2675
X-7.2554 Y1.5126 Z-0.2645
G0 Z0.4
X9.779 Y1.5164
Z0.13
G1 Z0.0655 F40.
G19 G3 Y1.532 Z0.05 J0.0155 K0.
G1 Y1.5398
G17 G3 X9.7634 Y1.5553 I-0.0155 J0.
Y1.4447 Z0.0265 I0. J-0.0553
Y1.5553 Z0.0031 I0. J0.0553
Y1.4447 Z-0.0204 I0. J-0.0553
Y1.5553 Z-0.0438 I0. J0.0553
Y1.4447 Z-0.0673 I0. J-0.0553
Y1.5553 Z-0.0907 I0. J0.0553
Y1.4447 Z-0.1142 I0. J-0.0553
Y1.5553 Z-0.1376 I0. J0.0553
Y1.4447 Z-0.1611 I0. J-0.0553
Y1.5553 Z-0.1845 I0. J0.0553
Y1.4447 Z-0.208 I0. J-0.0553
Y1.5553 Z-0.2314 I0. J0.0553
Y1.4447 Z-0.2549 I0. J-0.0553
X9.8184 Y1.5062 Z-0.2674 I0. J0.0553
X9.7511 Y1.5539 Z-0.28 I-0.055 J-0.0062
X9.7758 Y1.4461 I0.0123 J-0.0539
X9.7511 Y1.5539 I-0.0123 J0.0539
X9.7394 Y1.5353 I0.0035 J-0.0151
G1 X9.7411 Y1.5277
X9.7418 Y1.5248 Z-0.2797
X9.7425 Y1.5219 Z-0.2788
X9.7431 Y1.5193 Z-0.2774
X9.7436 Y1.517 Z-0.2754
X9.744 Y1.5151 Z-0.2731
X9.7443 Y1.5137 Z-0.2704
X9.7445 Y1.5129 Z-0.2675
X9.7446 Y1.5126 Z-0.2645
G0 Z0.4
X9.779 Y2.1464
Z0.13
G1 Z0.0655 F40.
G19 G3 Y2.162 Z0.05 J0.0155 K0.
G1 Y2.1698
G17 G3 X9.7634 Y2.1853 I-0.0155 J0.
Y2.0747 Z0.0265 I0. J-0.0553
Y2.1853 Z0.0031 I0. J0.0553
Y2.0747 Z-0.0204 I0. J-0.0553
Y2.1853 Z-0.0438 I0. J0.0553
Y2.0747 Z-0.0673 I0. J-0.0553
Y2.1853 Z-0.0907 I0. J0.0553
Y2.0747 Z-0.1142 I0. J-0.0553
Y2.1853 Z-0.1376 I0. J0.0553
Y2.0747 Z-0.1611 I0. J-0.0553
Y2.1853 Z-0.1845 I0. J0.0553
Y2.0747 Z-0.208 I0. J-0.0553
Y2.1853 Z-0.2314 I0. J0.0553
Y2.0747 Z-0.2549 I0. J-0.0553
X9.8184 Y2.1362 Z-0.2674 I0. J0.0553
X9.7511 Y2.1839 Z-0.28 I-0.055 J-0.0062
X9.7758 Y2.0761 I0.0123 J-0.0539
X9.7511 Y2.1839 I-0.0123 J0.0539
X9.7394 Y2.1653 I0.0035 J-0.0151
G1 X9.7411 Y2.1577
X9.7418 Y2.1548 Z-0.2797
X9.7425 Y2.1519 Z-0.2788
X9.7431 Y2.1493 Z-0.2774
X9.7436 Y2.147 Z-0.2754
X9.744 Y2.1451 Z-0.2731
X9.7443 Y2.1437 Z-0.2704
X9.7445 Y2.1429 Z-0.2675
X9.7446 Y2.1426 Z-0.2645
G0 Z0.4
X9.779 Y7.8798
Z0.13
G1 Z0.0655 F40.
G19 G3 Y7.8954 Z0.05 J0.0155 K0.
G1 Y7.9032
G17 G3 X9.7634 Y7.9187 I-0.0155 J0.
Y7.8081 Z0.0265 I0. J-0.0553
Y7.9187 Z0.0031 I0. J0.0553
Y7.8081 Z-0.0204 I0. J-0.0553
Y7.9187 Z-0.0438 I0. J0.0553
Y7.8081 Z-0.0673 I0. J-0.0553
Y7.9187 Z-0.0907 I0. J0.0553
Y7.8081 Z-0.1142 I0. J-0.0553
Y7.9187 Z-0.1376 I0. J0.0553
Y7.8081 Z-0.1611 I0. J-0.0553
Y7.9187 Z-0.1845 I0. J0.0553
Y7.8081 Z-0.208 I0. J-0.0553
Y7.9187 Z-0.2314 I0. J0.0553
Y7.8081 Z-0.2549 I0. J-0.0553
X9.8184 Y7.8696 Z-0.2674 I0. J0.0553
X9.7511 Y7.9173 Z-0.28 I-0.055 J-0.0062
X9.7758 Y7.8095 I0.0123 J-0.0539
X9.7511 Y7.9173 I-0.0123 J0.0539
X9.7394 Y7.8987 I0.0035 J-0.0151
G1 X9.7411 Y7.8911
X9.7418 Y7.8882 Z-0.2797
X9.7425 Y7.8853 Z-0.2788
X9.7431 Y7.8827 Z-0.2774
X9.7436 Y7.8804 Z-0.2754
X9.744 Y7.8785 Z-0.2731
X9.7443 Y7.8771 Z-0.2704
X9.7445 Y7.8763 Z-0.2675
X9.7446 Y7.876 Z-0.2645
G0 Z0.4
X9.779 Y8.5098
Z0.13
G1 Z0.0655 F40.
G19 G3 Y8.5254 Z0.05 J0.0155 K0.
G1 Y8.5332
G17 G3 X9.7634 Y8.5487 I-0.0155 J0.
Y8.4381 Z0.0265 I0. J-0.0553
Y8.5487 Z0.0031 I0. J0.0553
Y8.4381 Z-0.0204 I0. J-0.0553
Y8.5487 Z-0.0438 I0. J0.0553
Y8.4381 Z-0.0673 I0. J-0.0553
Y8.5487 Z-0.0907 I0. J0.0553
Y8.4381 Z-0.1142 I0. J-0.0553
Y8.5487 Z-0.1376 I0. J0.0553
Y8.4381 Z-0.1611 I0. J-0.0553
Y8.5487 Z-0.1845 I0. J0.0553
Y8.4381 Z-0.208 I0. J-0.0553
Y8.5487 Z-0.2314 I0. J0.0553
Y8.4381 Z-0.2549 I0. J-0.0553
X9.8184 Y8.4996 Z-0.2674 I0. J0.0553
X9.7511 Y8.5473 Z-0.28 I-0.055 J-0.0062
X9.7758 Y8.4395 I0.0123 J-0.0539
X9.7511 Y8.5473 I-0.0123 J0.0539
X9.7394 Y8.5287 I0.0035 J-0.0151
G1 X9.7411 Y8.5211
X9.7418 Y8.5182 Z-0.2797
X9.7425 Y8.5153 Z-0.2788
X9.7431 Y8.5127 Z-0.2774
X9.7436 Y8.5104 Z-0.2754
X9.744 Y8.5085 Z-0.2731
X9.7443 Y8.5071 Z-0.2704
X9.7445 Y8.5063 Z-0.2675
X9.7446 Y8.506 Z-0.2645
G0 Z0.6
(.3 CIRCULAR THROUGH HOLE)
S22000 M3
G4 P10.
M7
G0 X-0.9732 Y9.4028
Z0.6
Z0.2
G1 Z0.115 F13.333
G3 X-0.9718 Y9.4032 Z0.1084 I-0.0116 J0.0435 F55.
X-0.9679 Y9.4046 Z0.1031 I-0.013 J0.0431
X-0.9626 Y9.4072 Z0.1 I-0.0168 J0.0417
X-1.007 Y9.4854 Z0.0621 I-0.0222 J0.0391
X-0.9626 Y9.4072 Z0.0242 I0.0222 J-0.0391
X-1.007 Y9.4854 Z-0.0136 I-0.0222 J0.0391
X-0.9626 Y9.4072 Z-0.0515 I0.0222 J-0.0391
X-1.007 Y9.4854 Z-0.0894 I-0.0222 J0.0391
X-0.9626 Y9.4072 Z-0.1273 I0.0222 J-0.0391
X-0.9398 Y9.4463 Z-0.14 I-0.0222 J0.0391
X-1.0129 I-0.0366 J0. F60.
X-0.8398 I0.0866 J0.
X-1.1129 I-0.1366 J0.
X-0.7398 I0.1866 J0.
X-1.2129 I-0.2366 J0.
X-0.6398 I0.2866 J0.
X-1.3129 I-0.3366 J0.
X-0.5398 I0.3866 J0.
X-1.4129 I-0.4366 J0.
X-0.4398 I0.4866 J0.
X-1.5129 I-0.5366 J0.
X-0.4398 I0.5366 J0.
X-0.4946 Y9.4902 Z-0.1601 I-0.045 J0. F55.
G1 X-0.8849 Y9.4024 Z-0.2599
G2 X-0.9398 Y9.4463 Z-0.28 I-0.0099 J0.0439
G3 X-1.0129 I-0.0366 J0. F60.
X-0.8398 I0.0866 J0.
X-1.1129 I-0.1366 J0.
X-0.7398 I0.1866 J0.
X-1.2129 I-0.2366 J0.
X-0.6398 I0.2866 J0.
X-1.3129 I-0.3366 J0.
X-0.5398 I0.3866 J0.
X-1.4129 I-0.4366 J0.
X-0.4398 I0.4866 J0.
X-1.5129 I-0.5366 J0.
X-0.4298 I0.5416 J0.
X-1.5229 I-0.5466 J0.
X-0.4298 I0.5466 J0.
X-0.4309 Y9.4521 Z-0.2788 I-0.0155 J0.
X-0.4335 Y9.4564 Z-0.2754 I-0.0144 J-0.0058
X-0.4359 Y9.4587 Z-0.2704 I-0.0118 J-0.0101
X-0.4369 Y9.4594 Z-0.2645 I-0.0094 J-0.0124
G0 Z0.4
X-0.1231 Y8.1801
Z0.2
G1 Z0.115 F13.333
G3 X-0.1217 Y8.1805 Z0.1084 I-0.0116 J0.0435 F55.
X-0.1179 Y8.1818 Z0.1031 I-0.013 J0.0431
X-0.1125 Y8.1844 Z0.1 I-0.0168 J0.0417
X-0.1569 Y8.2627 Z0.0621 I-0.0222 J0.0391
X-0.1125 Y8.1844 Z0.0242 I0.0222 J-0.0391
X-0.1569 Y8.2627 Z-0.0136 I-0.0222 J0.0391
X-0.1125 Y8.1844 Z-0.0515 I0.0222 J-0.0391
X-0.1569 Y8.2627 Z-0.0894 I-0.0222 J0.0391
X-0.1125 Y8.1844 Z-0.1273 I0.0222 J-0.0391
X-0.0897 Y8.2235 Z-0.14 I-0.0222 J0.0391
X-0.1628 I-0.0366 J0. F60.
X0.0103 I0.0866 J0.
X-0.2628 I-0.1366 J0.
X0.1103 I0.1866 J0.
X-0.3628 I-0.2366 J0.
X0.2103 I0.2866 J0.
X-0.4628 I-0.3366 J0.
X0.3103 I0.3866 J0.
X-0.5628 I-0.4366 J0.
X0.4103 I0.4866 J0.
X-0.6628 I-0.5366 J0.
X0.4103 I0.5366 J0.
X0.4011 Y8.2312 I-0.0078 J0.
G1 X-0.0262 Y8.1503
G2 X-0.0351 Y8.1533 I-0.0025 J0.0073
G1 X-0.1068 Y8.2583
G3 X-0.1087 Y8.2603 I-0.0064 J-0.0044
X-0.1607 Y8.1868 Z-0.1779 I-0.026 J-0.0367 F55.
X-0.1087 Y8.2603 Z-0.2158 I0.026 J0.0367
X-0.1607 Y8.1868 Z-0.2536 I-0.026 J-0.0367
X-0.0897 Y8.2235 Z-0.28 I0.026 J0.0367
X-0.1628 I-0.0366 J0. F60.
X0.0103 I0.0866 J0.
X-0.2628 I-0.1366 J0.
X0.1103 I0.1866 J0.
X-0.3628 I-0.2366 J0.
X0.2103 I0.2866 J0.
X-0.4628 I-0.3366 J0.
X0.3103 I0.3866 J0.
X-0.5628 I-0.4366 J0.
X0.4103 I0.4866 J0.
X-0.6628 I-0.5366 J0.
X0.4203 I0.5416 J0.
X-0.6728 I-0.5466 J0.
X0.4203 I0.5466 J0.
X0.4198 Y8.2259 Z-0.2795 I-0.0063 J0.
X0.4188 Y8.2277 Z-0.2781 I-0.0059 J-0.0024
X0.4178 Y8.2286 Z-0.2761 I-0.0048 J-0.0041
X0.4174 Y8.2289 Z-0.2737 I-0.0038 J-0.005
G0 Z0.4
X0.3569 Y6.7704
Z0.2
G1 Z0.115 F13.333
G3 X0.3583 Y6.7708 Z0.1084 I-0.0116 J0.0435 F55.
X0.3622 Y6.7721 Z0.1031 I-0.013 J0.0431
X0.3676 Y6.7747 Z0.1 I-0.0168 J0.0417
X0.3232 Y6.853 Z0.0621 I-0.0222 J0.0391
X0.3676 Y6.7747 Z0.0242 I0.0222 J-0.0391
X0.3232 Y6.853 Z-0.0136 I-0.0222 J0.0391
X0.3676 Y6.7747 Z-0.0515 I0.0222 J-0.0391
X0.3232 Y6.853 Z-0.0894 I-0.0222 J0.0391
X0.3676 Y6.7747 Z-0.1273 I0.0222 J-0.0391
X0.3904 Y6.8139 Z-0.14 I-0.0222 J0.0391
X0.3173 I-0.0366 J0. F60.
X0.4904 I0.0866 J0.
X0.2173 I-0.1366 J0.
X0.5904 I0.1866 J0.
X0.1173 I-0.2366 J0.
X0.6904 I0.2866 J0.
X0.0173 I-0.3366 J0.
X0.7904 I0.3866 J0.
X-0.0827 I-0.4366 J0.
X0.8904 I0.4866 J0.
X-0.1827 I-0.5366 J0.
X0.8904 I0.5366 J0.
X0.8355 Y6.8578 Z-0.1601 I-0.045 J0. F55.
G1 X0.4453 Y6.77 Z-0.2599
G2 X0.3904 Y6.8139 Z-0.28 I-0.0099 J0.0439
G3 X0.3173 I-0.0366 J0. F60.
X0.4904 I0.0866 J0.
X0.2173 I-0.1366 J0.
X0.5904 I0.1866 J0.
X0.1173 I-0.2366 J0.
X0.6904 I0.2866 J0.
X0.0173 I-0.3366 J0.
X0.7904 I0.3866 J0.
X-0.0827 I-0.4366 J0.
X0.8904 I0.4866 J0.
X-0.1827 I-0.5366 J0.
X0.9004 I0.5416 J0.
X-0.1927 I-0.5466 J0.
X0.9004 I0.5466 J0.
X0.8993 Y6.8197 Z-0.2788 I-0.0155 J0.
X0.8966 Y6.824 Z-0.2754 I-0.0144 J-0.0058
X0.8942 Y6.8263 Z-0.2704 I-0.0118 J-0.0101
X0.8932 Y6.8269 Z-0.2645 I-0.0094 J-0.0124
G0 Z0.4
X2.0339 Y6.1136
Z0.2
G1 Z0.115 F13.333
G3 X2.0353 Y6.114 Z0.1084 I-0.0116 J0.0435 F55.
X2.0391 Y6.1154 Z0.1031 I-0.013 J0.0431
X2.0445 Y6.118 Z0.1 I-0.0168 J0.0417
X2.0001 Y6.1963 Z0.0621 I-0.0222 J0.0391
X2.0445 Y6.118 Z0.0242 I0.0222 J-0.0391
X2.0001 Y6.1963 Z-0.0136 I-0.0222 J0.0391
X2.0445 Y6.118 Z-0.0515 I0.0222 J-0.0391
X2.0001 Y6.1963 Z-0.0894 I-0.0222 J0.0391
X2.0445 Y6.118 Z-0.1273 I0.0222 J-0.0391
X2.0673 Y6.1571 Z-0.14 I-0.0222 J0.0391
X1.9942 I-0.0366 J0. F60.
X2.1673 I0.0866 J0.
X1.8942 I-0.1366 J0.
X2.2673 I0.1866 J0.
X1.7942 I-0.2366 J0.
X2.3673 I0.2866 J0.
X1.6942 I-0.3366 J0.
X2.4673 I0.3866 J0.
X1.5942 I-0.4366 J0.
X2.5673 I0.4866 J0.
X1.4942 I-0.5366 J0.
X2.5673 I0.5366 J0.
X2.5124 Y6.201 Z-0.1601 I-0.045 J0. F55.
G1 X2.1222 Y6.1132 Z-0.2599
G2 X2.0673 Y6.1571 Z-0.28 I-0.0099 J0.0439
G3 X1.9942 I-0.0366 J0. F60.
X2.1673 I0.0866 J0.
X1.8942 I-0.1366 J0.
X2.2673 I0.1866 J0.
X1.7942 I-0.2366 J0.
X2.3673 I0.2866 J0.
X1.6942 I-0.3366 J0.
X2.4673 I0.3866 J0.
X1.5942 I-0.4366 J0.
X2.5673 I0.4866 J0.
X1.4942 I-0.5366 J0.
X2.5773 I0.5416 J0.
X1.4842 I-0.5466 J0.
X2.5773 I0.5466 J0.
X2.5762 Y6.1629 Z-0.2788 I-0.0155 J0.
X2.5736 Y6.1672 Z-0.2754 I-0.0144 J-0.0058
X2.5711 Y6.1695 Z-0.2704 I-0.0118 J-0.0101
X2.5701 Y6.1702 Z-0.2645 I-0.0094 J-0.0124
G0 Z0.4
X2.8076 Y4.7053
Z0.2
G1 Z0.115 F13.333
G3 X2.809 Y4.7057 Z0.1084 I-0.0116 J0.0435 F55.
X2.8129 Y4.7071 Z0.1031 I-0.013 J0.0431
X2.8183 Y4.7097 Z0.1 I-0.0168 J0.0417
X2.7739 Y4.788 Z0.0621 I-0.0222 J0.0391
X2.8183 Y4.7097 Z0.0242 I0.0222 J-0.0391
X2.7739 Y4.788 Z-0.0136 I-0.0222 J0.0391
X2.8183 Y4.7097 Z-0.0515 I0.0222 J-0.0391
X2.7739 Y4.788 Z-0.0894 I-0.0222 J0.0391
X2.8183 Y4.7097 Z-0.1273 I0.0222 J-0.0391
X2.8411 Y4.7488 Z-0.14 I-0.0222 J0.0391
X2.768 I-0.0366 J0. F60.
X2.9411 I0.0866 J0.
X2.668 I-0.1366 J0.
X3.0411 I0.1866 J0.
X2.568 I-0.2366 J0.
X3.1411 I0.2866 J0.
X2.468 I-0.3366 J0.
X3.2411 I0.3866 J0.
X2.368 I-0.4366 J0.
X3.3411 I0.4866 J0.
X2.268 I-0.5366 J0.
X3.3411 I0.5366 J0.
X3.2862 Y4.7927 Z-0.1601 I-0.045 J0. F55.
G1 X2.8959 Y4.7049 Z-0.2599
G2 X2.8411 Y4.7488 Z-0.28 I-0.0099 J0.0439
G3 X2.768 I-0.0366 J0. F60.
X2.9411 I0.0866 J0.
X2.668 I-0.1366 J0.
X3.0411 I0.1866 J0.
X2.568 I-0.2366 J0.
X3.1411 I0.2866 J0.
X2.468 I-0.3366 J0.
X3.2411 I0.3866 J0.
X2.368 I-0.4366 J0.
X3.3411 I0.4866 J0.
X2.268 I-0.5366 J0.
X3.3511 I0.5416 J0.
X2.258 I-0.5466 J0.
X3.3511 I0.5466 J0.
X3.3499 Y4.7546 Z-0.2788 I-0.0155 J0.
X3.3473 Y4.7589 Z-0.2754 I-0.0144 J-0.0058
X3.3449 Y4.7612 Z-0.2704 I-0.0118 J-0.0101
X3.3439 Y4.7619 Z-0.2645 I-0.0094 J-0.0124
G0 Z0.4
X3.8522 Y3.4826
Z0.2
G1 Z0.115 F13.333
G3 X3.8536 Y3.483 Z0.1084 I-0.0116 J0.0435 F55.
X3.8575 Y3.4843 Z0.1031 I-0.013 J0.0431
X3.8629 Y3.4869 Z0.1 I-0.0168 J0.0417
X3.8184 Y3.5652 Z0.0621 I-0.0222 J0.0391
X3.8629 Y3.4869 Z0.0242 I0.0222 J-0.0391
X3.8184 Y3.5652 Z-0.0136 I-0.0222 J0.0391
X3.8629 Y3.4869 Z-0.0515 I0.0222 J-0.0391
X3.8184 Y3.5652 Z-0.0894 I-0.0222 J0.0391
X3.8629 Y3.4869 Z-0.1273 I0.0222 J-0.0391
X3.8856 Y3.5261 Z-0.14 I-0.0222 J0.0391
X3.8086 I-0.0385 J0. F60.
X3.9856 I0.0885 J0.
X3.7086 I-0.1385 J0.
X4.0856 I0.1885 J0.
X3.6086 I-0.2385 J0.
X4.1856 I0.2885 J0.
X3.5086 I-0.3385 J0.
X4.2856 I0.3885 J0.
X3.4086 I-0.4385 J0.
X4.2856 I0.4385 J0.
G2 X4.3296 Y3.596 I0.0776 J0.
G3 X4.3636 Y3.6712 I-0.0278 J0.0579
X3.8471 Y4.0626 I-0.5165 J-0.1452
Y2.9895 I0. J-0.5365
X4.3636 Y3.6712 I0. J0.5365
X4.2968 Y3.6974 Z-0.16 I-0.0433 J-0.0122 F55.
G1 X3.9541 Y3.4877 Z-0.257
G2 X3.8856 Y3.5261 Z-0.28 I-0.0235 J0.0384
G3 X3.8086 I-0.0385 J0. F60.
X3.9856 I0.0885 J0.
X3.7086 I-0.1385 J0.
X4.0856 I0.1885 J0.
X3.6086 I-0.2385 J0.
X4.1856 I0.2885 J0.
X3.5086 I-0.3385 J0.
X4.2856 I0.3885 J0.
X3.4086 I-0.4385 J0.
X4.2856 I0.4385 J0.
G2 X4.3296 Y3.596 I0.0776 J0.
G3 X4.3636 Y3.6712 I-0.0278 J0.0579
X3.8471 Y4.0626 I-0.5165 J-0.1452
Y2.9895 I0. J-0.5365
X4.3636 Y3.6712 I0. J0.5365
G2 X4.3664 Y3.6798 I0.0078 J0.0022
G3 X4.369 Y3.6883 I-0.005 J0.0062
X3.8471 Y4.0726 I-0.5219 J-0.1623
Y2.9795 I0. J-0.5465
X4.369 Y3.6883 I0. J0.5465
X4.3662 Y3.6935 Z-0.2788 I-0.0148 J-0.0046
X4.3625 Y3.6969 Z-0.2754 I-0.012 J-0.0098
X4.3594 Y3.6983 Z-0.2704 I-0.0083 J-0.0131
X4.3583 Y3.6987 Z-0.2645 I-0.0053 J-0.0146
G0 Z0.4
X5.1206 Y2.496
Z0.2
G1 Z0.115 F13.333
G3 X5.122 Y2.4964 Z0.1084 I-0.0116 J0.0435 F55.
X5.1258 Y2.4977 Z0.1031 I-0.013 J0.0431
X5.1312 Y2.5003 Z0.1 I-0.0168 J0.0417
X5.0868 Y2.5786 Z0.0621 I-0.0222 J0.0391
X5.1312 Y2.5003 Z0.0242 I0.0222 J-0.0391
X5.0868 Y2.5786 Z-0.0136 I-0.0222 J0.0391
X5.1312 Y2.5003 Z-0.0515 I0.0222 J-0.0391
X5.0868 Y2.5786 Z-0.0894 I-0.0222 J0.0391
X5.1312 Y2.5003 Z-0.1273 I0.0222 J-0.0391
X5.154 Y2.5394 Z-0.14 I-0.0222 J0.0391
X5.0769 I-0.0385 J0. F60.
X5.254 I0.0885 J0.
X4.9769 I-0.1385 J0.
X5.354 I0.1885 J0.
X4.8769 I-0.2385 J0.
X5.454 I0.2885 J0.
X4.7769 I-0.3385 J0.
X5.554 I0.3885 J0.
X4.6769 I-0.4385 J0.
X5.554 I0.4385 J0.
G2 X5.598 Y2.6093 I0.0776 J0.
G3 X5.632 Y2.6846 I-0.0278 J0.0579
X5.1154 Y3.076 I-0.5165 J-0.1452
Y2.0029 I0. J-0.5366
X5.632 Y2.6846 I0. J0.5365
X5.5652 Y2.7108 Z-0.16 I-0.0433 J-0.0122 F55.
G1 X5.2225 Y2.5011 Z-0.257
G2 X5.154 Y2.5394 Z-0.28 I-0.0235 J0.0384
G3 X5.0769 I-0.0385 J0. F60.
X5.254 I0.0885 J0.
X4.9769 I-0.1385 J0.
X5.354 I0.1885 J0.
X4.8769 I-0.2385 J0.
X5.454 I0.2885 J0.
X4.7769 I-0.3385 J0.
X5.554 I0.3885 J0.
X4.6769 I-0.4385 J0.
X5.554 I0.4385 J0.
G2 X5.598 Y2.6093 I0.0776 J0.
G3 X5.632 Y2.6846 I-0.0278 J0.0579
X5.1154 Y3.076 I-0.5165 J-0.1452
Y2.0029 I0. J-0.5366
X5.632 Y2.6846 I0. J0.5365
G2 X5.6347 Y2.6931 I0.0078 J0.0022
G3 X5.6373 Y2.7017 I-0.005 J0.0062
X5.1154 Y3.086 I-0.5219 J-0.1623
Y1.9929 I0. J-0.5465
X5.6373 Y2.7017 I0. J0.5465
X5.6345 Y2.7069 Z-0.2788 I-0.0148 J-0.0046
X5.6308 Y2.7102 Z-0.2754 I-0.012 J-0.0098
X5.6278 Y2.7117 Z-0.2704 I-0.0083 J-0.0131
X5.6266 Y2.7121 Z-0.2645 I-0.0053 J-0.0146
G0 Z0.4
X4.3896 Y1.3315
Z0.2
G1 Z0.115 F13.333
G3 X4.391 Y1.3319 Z0.1084 I-0.0116 J0.0435 F55.
X4.3949 Y1.3333 Z0.1031 I-0.013 J0.0431
X4.4003 Y1.3359 Z0.1 I-0.0168 J0.0417
X4.3558 Y1.4141 Z0.0621 I-0.0222 J0.0391
X4.4003 Y1.3359 Z0.0242 I0.0222 J-0.0391
X4.3558 Y1.4141 Z-0.0136 I-0.0222 J0.0391
X4.4003 Y1.3359 Z-0.0515 I0.0222 J-0.0391
X4.3558 Y1.4141 Z-0.0894 I-0.0222 J0.0391
X4.4003 Y1.3359 Z-0.1273 I0.0222 J-0.0391
X4.423 Y1.375 Z-0.14 I-0.0222 J0.0391
X4.3499 I-0.0366 J0. F60.
X4.523 I0.0866 J0.
X4.2499 I-0.1366 J0.
X4.623 I0.1866 J0.
X4.1499 I-0.2366 J0.
X4.723 I0.2866 J0.
X4.0499 I-0.3366 J0.
X4.823 I0.3866 J0.
X3.9499 I-0.4366 J0.
X4.923 I0.4866 J0.
X3.8499 I-0.5366 J0.
X4.923 I0.5366 J0.
X4.8682 Y1.4189 Z-0.1601 I-0.045 J0. F55.
G1 X4.4779 Y1.3311 Z-0.2599
G2 X4.423 Y1.375 Z-0.28 I-0.0099 J0.0439
G3 X4.3499 I-0.0366 J0. F60.
X4.523 I0.0866 J0.
X4.2499 I-0.1366 J0.
X4.623 I0.1866 J0.
X4.1499 I-0.2366 J0.
X4.723 I0.2866 J0.
X4.0499 I-0.3366 J0.
X4.823 I0.3866 J0.
X3.9499 I-0.4366 J0.
X4.923 I0.4866 J0.
X3.8499 I-0.5366 J0.
X4.933 I0.5416 J0.
X3.8399 I-0.5466 J0.
X4.933 I0.5466 J0.
X4.9319 Y1.3808 Z-0.2788 I-0.0155 J0.
X4.9293 Y1.3851 Z-0.2754 I-0.0144 J-0.0058
X4.9269 Y1.3874 Z-0.2704 I-0.0118 J-0.0101
X4.9259 Y1.3881 Z-0.2645 I-0.0094 J-0.0124
G0 Z0.4
X3.0171 Y2.3823
Z0.2
G1 Z0.115 F13.333
G3 X3.0185 Y2.3827 Z0.1084 I-0.0116 J0.0435 F55.
X3.0223 Y2.3841 Z0.1031 I-0.013 J0.0431
X3.0277 Y2.3866 Z0.1 I-0.0168 J0.0417
X2.9833 Y2.4649 Z0.0621 I-0.0222 J0.0391
X3.0277 Y2.3866 Z0.0242 I0.0222 J-0.0391
X2.9833 Y2.4649 Z-0.0136 I-0.0222 J0.0391
X3.0277 Y2.3866 Z-0.0515 I0.0222 J-0.0391
X2.9833 Y2.4649 Z-0.0894 I-0.0222 J0.0391
X3.0277 Y2.3866 Z-0.1273 I0.0222 J-0.0391
X3.0505 Y2.4258 Z-0.14 I-0.0222 J0.0391
X2.9734 I-0.0385 J0. F60.
X3.1505 I0.0885 J0.
X2.8734 I-0.1385 J0.
X3.2505 I0.1885 J0.
X2.7734 I-0.2385 J0.
X3.3505 I0.2885 J0.
X2.6734 I-0.3385 J0.
X3.4505 I0.3885 J0.
X2.5734 I-0.4385 J0.
X3.4505 I0.4385 J0.
G2 X3.4945 Y2.4957 I0.0776 J0.
G3 X3.5285 Y2.5709 I-0.0278 J0.0579
X3.0119 Y2.9623 I-0.5165 J-0.1452
Y1.8892 I0. J-0.5365
X3.5285 Y2.5709 I0. J0.5365
X3.4617 Y2.5972 Z-0.16 I-0.0433 J-0.0122 F55.
G1 X3.119 Y2.3874 Z-0.257
G2 X3.0505 Y2.4258 Z-0.28 I-0.0235 J0.0384
G3 X2.9734 I-0.0385 J0. F60.
X3.1505 I0.0885 J0.
X2.8734 I-0.1385 J0.
X3.2505 I0.1885 J0.
X2.7734 I-0.2385 J0.
X3.3505 I0.2885 J0.
X2.6734 I-0.3385 J0.
X3.4505 I0.3885 J0.
X2.5734 I-0.4385 J0.
X3.4505 I0.4385 J0.
G2 X3.4945 Y2.4957 I0.0776 J0.
G3 X3.5285 Y2.5709 I-0.0278 J0.0579
X3.0119 Y2.9623 I-0.5165 J-0.1452
Y1.8892 I0. J-0.5365
X3.5285 Y2.5709 I0. J0.5365
G2 X3.5312 Y2.5795 I0.0078 J0.0022
G3 X3.5338 Y2.588 I-0.005 J0.0062
X3.0119 Y2.9723 I-0.5219 J-0.1623
Y1.8792 I0. J-0.5466
X3.5338 Y2.588 I0. J0.5465
X3.531 Y2.5932 Z-0.2788 I-0.0148 J-0.0046
X3.5273 Y2.5966 Z-0.2754 I-0.012 J-0.0098
X3.5243 Y2.598 Z-0.2704 I-0.0083 J-0.0131
X3.5231 Y2.5984 Z-0.2645 I-0.0053 J-0.0146
G0 Z0.4
X1.8615 Y3.67
Z0.2
G1 Z0.115 F13.333
G3 X1.8629 Y3.6704 Z0.1084 I-0.0116 J0.0435 F55.
X1.8667 Y3.6717 Z0.1031 I-0.013 J0.0431
X1.8721 Y3.6743 Z0.1 I-0.0168 J0.0417
X1.8277 Y3.7526 Z0.0621 I-0.0222 J0.0391
X1.8721 Y3.6743 Z0.0242 I0.0222 J-0.0391
X1.8277 Y3.7526 Z-0.0136 I-0.0222 J0.0391
X1.8721 Y3.6743 Z-0.0515 I0.0222 J-0.0391
X1.8277 Y3.7526 Z-0.0894 I-0.0222 J0.0391
X1.8721 Y3.6743 Z-0.1273 I0.0222 J-0.0391
X1.8949 Y3.7135 Z-0.14 I-0.0222 J0.0391
X1.8178 I-0.0385 J0. F60.
X1.9949 I0.0885 J0.
X1.7178 I-0.1385 J0.
X2.0949 I0.1885 J0.
X1.6178 I-0.2385 J0.
X2.1949 I0.2885 J0.
X1.5178 I-0.3385 J0.
X2.2949 I0.3885 J0.
X1.4178 I-0.4385 J0.
X2.2949 I0.4385 J0.
G2 X2.3389 Y3.7834 I0.0776 J0.
G3 X2.3729 Y3.8586 I-0.0278 J0.0579
X1.8564 Y4.25 I-0.5165 J-0.1452
Y3.1769 I0. J-0.5365
X2.3729 Y3.8586 I0. J0.5365
X2.3061 Y3.8848 Z-0.16 I-0.0433 J-0.0122 F55.
G1 X1.9634 Y3.6751 Z-0.257
G2 X1.8949 Y3.7135 Z-0.28 I-0.0235 J0.0384
G3 X1.8178 I-0.0385 J0. F60.
X1.9949 I0.0885 J0.
X1.7178 I-0.1385 J0.
X2.0949 I0.1885 J0.
X1.6178 I-0.2385 J0.
X2.1949 I0.2885 J0.
X1.5178 I-0.3385 J0.
X2.2949 I0.3885 J0.
X1.4178 I-0.4385 J0.
X2.2949 I0.4385 J0.
G2 X2.3389 Y3.7834 I0.0776 J0.
G3 X2.3729 Y3.8586 I-0.0278 J0.0579
X1.8564 Y4.25 I-0.5165 J-0.1452
Y3.1769 I0. J-0.5365
X2.3729 Y3.8586 I0. J0.5365
G2 X2.3756 Y3.8672 I0.0078 J0.0022
G3 X2.3783 Y3.8757 I-0.005 J0.0062
X1.8564 Y4.26 I-0.5219 J-0.1623
Y3.1669 I0. J-0.5465
X2.3783 Y3.8757 I0. J0.5465
X2.3755 Y3.8809 Z-0.2788 I-0.0148 J-0.0046
X2.3717 Y3.8843 Z-0.2754 I-0.012 J-0.0098
X2.3687 Y3.8857 Z-0.2704 I-0.0083 J-0.0131
X2.3676 Y3.8861 Z-0.2645 I-0.0053 J-0.0146
G0 Z0.4
X0.965 Y5.1498
Z0.2
G1 Z0.115 F13.333
G3 X0.9664 Y5.1502 Z0.1084 I-0.0116 J0.0435 F55.
X0.9703 Y5.1516 Z0.1031 I-0.013 J0.0431
X0.9757 Y5.1542 Z0.1 I-0.0168 J0.0417
X0.9312 Y5.2325 Z0.0621 I-0.0222 J0.0391
X0.9757 Y5.1542 Z0.0242 I0.0222 J-0.0391
X0.9312 Y5.2325 Z-0.0136 I-0.0222 J0.0391
X0.9757 Y5.1542 Z-0.0515 I0.0222 J-0.0391
X0.9312 Y5.2325 Z-0.0894 I-0.0222 J0.0391
X0.9757 Y5.1542 Z-0.1273 I0.0222 J-0.0391
X0.9984 Y5.1933 Z-0.14 I-0.0222 J0.0391
X0.9214 I-0.0385 J0. F60.
X1.0984 I0.0885 J0.
X0.8214 I-0.1385 J0.
X1.1984 I0.1885 J0.
X0.7214 I-0.2385 J0.
X1.2984 I0.2885 J0.
X0.6214 I-0.3385 J0.
X1.3984 I0.3885 J0.
X0.5214 I-0.4385 J0.
X1.3984 I0.4385 J0.
G2 X1.4424 Y5.2632 I0.0776 J0.
G3 X1.4764 Y5.3385 I-0.0278 J0.0579
X0.9599 Y5.7299 I-0.5165 J-0.1452
Y4.6568 I0. J-0.5365
X1.4764 Y5.3385 I0. J0.5365
X1.4096 Y5.3647 Z-0.16 I-0.0433 J-0.0122 F55.
G1 X1.0669 Y5.1549 Z-0.257
G2 X0.9984 Y5.1933 Z-0.28 I-0.0235 J0.0384
G3 X0.9214 I-0.0385 J0. F60.
X1.0984 I0.0885 J0.
X0.8214 I-0.1385 J0.
X1.1984 I0.1885 J0.
X0.7214 I-0.2385 J0.
X1.2984 I0.2885 J0.
X0.6214 I-0.3385 J0.
X1.3984 I0.3885 J0.
X0.5214 I-0.4385 J0.
X1.3984 I0.4385 J0.
G2 X1.4424 Y5.2632 I0.0776 J0.
G3 X1.4764 Y5.3385 I-0.0278 J0.0579
X0.9599 Y5.7299 I-0.5165 J-0.1452
Y4.6568 I0. J-0.5365
X1.4764 Y5.3385 I0. J0.5365
G2 X1.4792 Y5.347 I0.0078 J0.0022
G3 X1.4818 Y5.3556 I-0.005 J0.0062
X0.9599 Y5.7399 I-0.5219 J-0.1623
Y4.6468 I0. J-0.5465
X1.4818 Y5.3556 I0. J0.5465
X1.479 Y5.3608 Z-0.2788 I-0.0148 J-0.0046
X1.4752 Y5.3641 Z-0.2754 I-0.012 J-0.0098
X1.4722 Y5.3656 Z-0.2704 I-0.0083 J-0.0131
X1.4711 Y5.3659 Z-0.2645 I-0.0053 J-0.0146
G0 Z0.4
X-1.5931 Y7.2255
Z0.2
G1 Z0.115 F13.333
G3 X-1.5917 Y7.2259 Z0.1084 I-0.0116 J0.0435 F55.
X-1.5878 Y7.2272 Z0.1031 I-0.013 J0.0431
X-1.5824 Y7.2298 Z0.1 I-0.0168 J0.0417
X-1.6268 Y7.3081 Z0.0621 I-0.0222 J0.0391
X-1.5824 Y7.2298 Z0.0242 I0.0222 J-0.0391
X-1.6268 Y7.3081 Z-0.0136 I-0.0222 J0.0391
X-1.5824 Y7.2298 Z-0.0515 I0.0222 J-0.0391
X-1.6268 Y7.3081 Z-0.0894 I-0.0222 J0.0391
X-1.5824 Y7.2298 Z-0.1273 I0.0222 J-0.0391
X-1.5596 Y7.269 Z-0.14 I-0.0222 J0.0391
X-1.6327 I-0.0366 J0. F60.
X-1.4596 I0.0866 J0.
X-1.7327 I-0.1366 J0.
X-1.3596 I0.1866 J0.
X-1.8327 I-0.2366 J0.
X-1.2596 I0.2866 J0.
X-1.9327 I-0.3366 J0.
X-1.1596 I0.3866 J0.
X-2.0327 I-0.4366 J0.
X-1.0596 I0.4866 J0.
X-2.1327 I-0.5366 J0.
X-1.0596 I0.5366 J0.
X-1.1145 Y7.3129 Z-0.1601 I-0.045 J0. F55.
G1 X-1.5048 Y7.2251 Z-0.2599
G2 X-1.5596 Y7.269 Z-0.28 I-0.0099 J0.0439
G3 X-1.6327 I-0.0366 J0. F60.
X-1.4596 I0.0866 J0.
X-1.7327 I-0.1366 J0.
X-1.3596 I0.1866 J0.
X-1.8327 I-0.2366 J0.
X-1.2596 I0.2866 J0.
X-1.9327 I-0.3366 J0.
X-1.1596 I0.3866 J0.
X-2.0327 I-0.4366 J0.
X-1.0596 I0.4866 J0.
X-2.1327 I-0.5366 J0.
X-1.0496 I0.5416 J0.
X-2.1427 I-0.5466 J0.
X-1.0496 I0.5466 J0.
X-1.0508 Y7.2748 Z-0.2788 I-0.0155 J0.
X-1.0534 Y7.2791 Z-0.2754 I-0.0144 J-0.0058
X-1.0558 Y7.2814 Z-0.2704 I-0.0118 J-0.0101
X-1.0568 Y7.2821 Z-0.2645 I-0.0094 J-0.0124
G0 Z0.4
X-2.3951 Y8.3721
Z0.2
G1 Z0.115 F13.333
G3 X-2.3937 Y8.3725 Z0.1084 I-0.0116 J0.0435 F55.
X-2.3899 Y8.3738 Z0.1031 I-0.013 J0.0431
X-2.3845 Y8.3764 Z0.1 I-0.0168 J0.0417
X-2.4289 Y8.4547 Z0.0621 I-0.0222 J0.0391
X-2.3845 Y8.3764 Z0.0242 I0.0222 J-0.0391
X-2.4289 Y8.4547 Z-0.0136 I-0.0222 J0.0391
X-2.3845 Y8.3764 Z-0.0515 I0.0222 J-0.0391
X-2.4289 Y8.4547 Z-0.0894 I-0.0222 J0.0391
X-2.3845 Y8.3764 Z-0.1273 I0.0222 J-0.0391
X-2.3617 Y8.4156 Z-0.14 I-0.0222 J0.0391
X-2.4348 I-0.0366 J0. F60.
X-2.2617 I0.0866 J0.
X-2.5348 I-0.1366 J0.
X-2.1617 I0.1866 J0.
X-2.6348 I-0.2366 J0.
X-2.0617 I0.2866 J0.
X-2.7348 I-0.3366 J0.
X-1.9617 I0.3866 J0.
X-2.8348 I-0.4366 J0.
X-1.8617 I0.4866 J0.
X-2.9348 I-0.5366 J0.
X-1.8617 I0.5366 J0.
X-1.9166 Y8.4595 Z-0.1601 I-0.045 J0. F55.
G1 X-2.3068 Y8.3716 Z-0.2599
G2 X-2.3617 Y8.4156 Z-0.28 I-0.0099 J0.0439
G3 X-2.4348 I-0.0366 J0. F60.
X-2.2617 I0.0866 J0.
X-2.5348 I-0.1366 J0.
X-2.1617 I0.1866 J0.
X-2.6348 I-0.2366 J0.
X-2.0617 I0.2866 J0.
X-2.7348 I-0.3366 J0.
X-1.9617 I0.3866 J0.
X-2.8348 I-0.4366 J0.
X-1.8617 I0.4866 J0.
X-2.9348 I-0.5366 J0.
X-1.8517 I0.5416 J0.
X-2.9448 I-0.5466 J0.
X-1.8517 I0.5466 J0.
X-1.8528 Y8.4214 Z-0.2788 I-0.0155 J0.
X-1.8554 Y8.4256 Z-0.2754 I-0.0144 J-0.0058
X-1.8579 Y8.428 Z-0.2704 I-0.0118 J-0.0101
X-1.8588 Y8.4286 Z-0.2645 I-0.0094 J-0.0124
G0 Z0.4
X-3.5727 Y9.1279
Z0.2
G1 Z0.115 F13.333
G3 X-3.5713 Y9.1283 Z0.1084 I-0.0116 J0.0435 F55.
X-3.5675 Y9.1296 Z0.1031 I-0.013 J0.0431
X-3.5621 Y9.1322 Z0.1 I-0.0168 J0.0417
X-3.6065 Y9.2105 Z0.0621 I-0.0222 J0.0391
X-3.5621 Y9.1322 Z0.0242 I0.0222 J-0.0391
X-3.6065 Y9.2105 Z-0.0136 I-0.0222 J0.0391
X-3.5621 Y9.1322 Z-0.0515 I0.0222 J-0.0391
X-3.6065 Y9.2105 Z-0.0894 I-0.0222 J0.0391
X-3.5621 Y9.1322 Z-0.1273 I0.0222 J-0.0391
X-3.5393 Y9.1714 Z-0.14 I-0.0222 J0.0391
X-3.6124 I-0.0366 J0. F60.
X-3.4393 I0.0866 J0.
X-3.7124 I-0.1366 J0.
X-3.3393 I0.1866 J0.
X-3.8124 I-0.2366 J0.
X-3.2393 I0.2866 J0.
X-3.9124 I-0.3366 J0.
X-3.1393 I0.3866 J0.
X-4.0124 I-0.4366 J0.
X-3.0393 I0.4866 J0.
X-4.1124 I-0.5366 J0.
X-3.0393 I0.5366 J0.
X-3.0942 Y9.2153 Z-0.1601 I-0.045 J0. F55.
G1 X-3.4844 Y9.1275 Z-0.2599
G2 X-3.5393 Y9.1714 Z-0.28 I-0.0099 J0.0439
G3 X-3.6124 I-0.0366 J0. F60.
X-3.4393 I0.0866 J0.
X-3.7124 I-0.1366 J0.
X-3.3393 I0.1866 J0.
X-3.8124 I-0.2366 J0.
X-3.2393 I0.2866 J0.
X-3.9124 I-0.3366 J0.
X-3.1393 I0.3866 J0.
X-4.0124 I-0.4366 J0.
X-3.0393 I0.4866 J0.
X-4.1124 I-0.5366 J0.
X-3.0293 I0.5416 J0.
X-4.1224 I-0.5466 J0.
X-3.0293 I0.5466 J0.
X-3.0304 Y9.1772 Z-0.2788 I-0.0155 J0.
X-3.033 Y9.1815 Z-0.2754 I-0.0144 J-0.0058
X-3.0355 Y9.1838 Z-0.2704 I-0.0118 J-0.0101
X-3.0364 Y9.1845 Z-0.2645 I-0.0094 J-0.0124
G0 Z0.4
X-2.1273 Y10.3439
Z0.2
G1 Z0.115 F13.333
G3 X-2.1259 Y10.3443 Z0.1084 I-0.0116 J0.0435 F55.
X-2.1221 Y10.3456 Z0.1031 I-0.013 J0.0431
X-2.1167 Y10.3482 Z0.1 I-0.0168 J0.0417
X-2.1611 Y10.4265 Z0.0621 I-0.0222 J0.0391
X-2.1167 Y10.3482 Z0.0242 I0.0222 J-0.0391
X-2.1611 Y10.4265 Z-0.0136 I-0.0222 J0.0391
X-2.1167 Y10.3482 Z-0.0515 I0.0222 J-0.0391
X-2.1611 Y10.4265 Z-0.0894 I-0.0222 J0.0391
X-2.1167 Y10.3482 Z-0.1273 I0.0222 J-0.0391
X-2.0939 Y10.3874 Z-0.14 I-0.0222 J0.0391
X-2.167 I-0.0366 J0. F60.
X-1.9939 I0.0866 J0.
X-2.267 I-0.1366 J0.
X-1.8939 I0.1866 J0.
X-2.367 I-0.2366 J0.
X-1.7939 I0.2866 J0.
X-2.467 I-0.3366 J0.
X-1.6939 I0.3866 J0.
X-2.567 I-0.4366 J0.
X-1.5939 I0.4866 J0.
X-2.667 I-0.5366 J0.
X-1.5939 I0.5366 J0.
X-1.6488 Y10.4313 Z-0.1601 I-0.045 J0. F55.
G1 X-2.039 Y10.3435 Z-0.2599
G2 X-2.0939 Y10.3874 Z-0.28 I-0.0099 J0.0439
G3 X-2.167 I-0.0366 J0. F60.
X-1.9939 I0.0866 J0.
X-2.267 I-0.1366 J0.
X-1.8939 I0.1866 J0.
X-2.367 I-0.2366 J0.
X-1.7939 I0.2866 J0.
X-2.467 I-0.3366 J0.
X-1.6939 I0.3866 J0.
X-2.567 I-0.4366 J0.
X-1.5939 I0.4866 J0.
X-2.667 I-0.5366 J0.
X-1.5839 I0.5416 J0.
X-2.677 I-0.5466 J0.
X-1.5839 I0.5466 J0.
X-1.585 Y10.3932 Z-0.2788 I-0.0155 J0.
X-1.5876 Y10.3975 Z-0.2754 I-0.0144 J-0.0058
X-1.5901 Y10.3998 Z-0.2704 I-0.0118 J-0.0101
X-1.5911 Y10.4004 Z-0.2645 I-0.0094 J-0.0124
G0 Z0.4
X-3.4962 Y10.9304
Z0.2
G1 Z0.115 F13.333
G3 X-3.4948 Y10.9308 Z0.1084 I-0.0116 J0.0435 F55.
X-3.4909 Y10.9321 Z0.1031 I-0.013 J0.0431
X-3.4855 Y10.9347 Z0.1 I-0.0168 J0.0417
X-3.53 Y11.013 Z0.0621 I-0.0222 J0.0391
X-3.4855 Y10.9347 Z0.0242 I0.0222 J-0.0391
X-3.53 Y11.013 Z-0.0136 I-0.0222 J0.0391
X-3.4855 Y10.9347 Z-0.0515 I0.0222 J-0.0391
X-3.53 Y11.013 Z-0.0894 I-0.0222 J0.0391
X-3.4855 Y10.9347 Z-0.1273 I0.0222 J-0.0391
X-3.4628 Y10.9739 Z-0.14 I-0.0222 J0.0391
X-3.5359 I-0.0366 J0. F60.
X-3.3628 I0.0866 J0.
X-3.6359 I-0.1366 J0.
X-3.2628 I0.1866 J0.
X-3.7359 I-0.2366 J0.
X-3.1628 I0.2866 J0.
X-3.8359 I-0.3366 J0.
X-3.0628 I0.3866 J0.
X-3.9359 I-0.4366 J0.
X-2.9628 I0.4866 J0.
X-4.0359 I-0.5366 J0.
X-2.9628 I0.5366 J0.
X-3.0176 Y11.0178 Z-0.1601 I-0.045 J0. F55.
G1 X-3.4079 Y10.93 Z-0.2599
G2 X-3.4628 Y10.9739 Z-0.28 I-0.0099 J0.0439
G3 X-3.5359 I-0.0366 J0. F60.
X-3.3628 I0.0866 J0.
X-3.6359 I-0.1366 J0.
X-3.2628 I0.1866 J0.
X-3.7359 I-0.2366 J0.
X-3.1628 I0.2866 J0.
X-3.8359 I-0.3366 J0.
X-3.0628 I0.3866 J0.
X-3.9359 I-0.4366 J0.
X-2.9628 I0.4866 J0.
X-4.0359 I-0.5366 J0.
X-2.9528 I0.5416 J0.
X-4.0459 I-0.5466 J0.
X-2.9528 I0.5466 J0.
X-2.9539 Y10.9797 Z-0.2788 I-0.0155 J0.
X-2.9565 Y10.984 Z-0.2754 I-0.0144 J-0.0058
X-2.9589 Y10.9863 Z-0.2704 I-0.0118 J-0.0101
X-2.9599 Y10.9869 Z-0.2645 I-0.0094 J-0.0124
G0 Z0.4
X-4.9736 Y11.1168
Z0.2
G1 Z0.115 F13.333
G3 X-4.9722 Y11.1172 Z0.1084 I-0.0116 J0.0435 F55.
X-4.9684 Y11.1186 Z0.1031 I-0.013 J0.0431
X-4.963 Y11.1212 Z0.1 I-0.0168 J0.0417
X-5.0074 Y11.1995 Z0.0621 I-0.0222 J0.0391
X-4.963 Y11.1212 Z0.0242 I0.0222 J-0.0391
X-5.0074 Y11.1995 Z-0.0136 I-0.0222 J0.0391
X-4.963 Y11.1212 Z-0.0515 I0.0222 J-0.0391
X-5.0074 Y11.1995 Z-0.0894 I-0.0222 J0.0391
X-4.963 Y11.1212 Z-0.1273 I0.0222 J-0.0391
X-4.9402 Y11.1603 Z-0.14 I-0.0222 J0.0391
X-5.0133 I-0.0366 J0. F60.
X-4.8402 I0.0866 J0.
X-5.1133 I-0.1366 J0.
X-4.7402 I0.1866 J0.
X-5.2133 I-0.2366 J0.
X-4.6402 I0.2866 J0.
X-5.3133 I-0.3366 J0.
X-4.5402 I0.3866 J0.
X-5.4133 I-0.4366 J0.
X-4.4402 I0.4866 J0.
X-5.5133 I-0.5366 J0.
X-4.4402 I0.5366 J0.
X-4.4951 Y11.2042 Z-0.1601 I-0.045 J0. F55.
G1 X-4.8853 Y11.1164 Z-0.2599
G2 X-4.9402 Y11.1603 Z-0.28 I-0.0099 J0.0439
G3 X-5.0133 I-0.0366 J0. F60.
X-4.8402 I0.0866 J0.
X-5.1133 I-0.1366 J0.
X-4.7402 I0.1866 J0.
X-5.2133 I-0.2366 J0.
X-4.6402 I0.2866 J0.
X-5.3133 I-0.3366 J0.
X-4.5402 I0.3866 J0.
X-5.4133 I-0.4366 J0.
X-4.4402 I0.4866 J0.
X-5.5133 I-0.5366 J0.
X-4.4302 I0.5416 J0.
X-5.5233 I-0.5466 J0.
X-4.4302 I0.5466 J0.
X-4.4313 Y11.1661 Z-0.2788 I-0.0155 J0.
X-4.4339 Y11.1704 Z-0.2754 I-0.0144 J-0.0058
X-4.4364 Y11.1727 Z-0.2704 I-0.0118 J-0.0101
X-4.4374 Y11.1734 Z-0.2645 I-0.0094 J-0.0124
G0 Z0.4
X-4.9492 Y9.3795
Z0.2
G1 Z0.115 F13.333
G3 X-4.9478 Y9.3799 Z0.1084 I-0.0116 J0.0435 F55.
X-4.9439 Y9.3813 Z0.1031 I-0.013 J0.0431
X-4.9386 Y9.3839 Z0.1 I-0.0168 J0.0417
X-4.983 Y9.4621 Z0.0621 I-0.0222 J0.0391
X-4.9386 Y9.3839 Z0.0242 I0.0222 J-0.0391
X-4.983 Y9.4621 Z-0.0136 I-0.0222 J0.0391
X-4.9386 Y9.3839 Z-0.0515 I0.0222 J-0.0391
X-4.983 Y9.4621 Z-0.0894 I-0.0222 J0.0391
X-4.9386 Y9.3839 Z-0.1273 I0.0222 J-0.0391
X-4.9158 Y9.423 Z-0.14 I-0.0222 J0.0391
X-4.9889 I-0.0366 J0. F60.
X-4.8158 I0.0866 J0.
X-5.0889 I-0.1366 J0.
X-4.7158 I0.1866 J0.
X-5.1889 I-0.2366 J0.
X-4.6158 I0.2866 J0.
X-5.2889 I-0.3366 J0.
X-4.5158 I0.3866 J0.
X-5.3889 I-0.4366 J0.
X-4.4158 I0.4866 J0.
X-5.4889 I-0.5366 J0.
X-4.4158 I0.5366 J0.
X-4.4706 Y9.4669 Z-0.1601 I-0.045 J0. F55.
G1 X-4.8609 Y9.3791 Z-0.2599
G2 X-4.9158 Y9.423 Z-0.28 I-0.0099 J0.0439
G3 X-4.9889 I-0.0366 J0. F60.
X-4.8158 I0.0866 J0.
X-5.0889 I-0.1366 J0.
X-4.7158 I0.1866 J0.
X-5.1889 I-0.2366 J0.
X-4.6158 I0.2866 J0.
X-5.2889 I-0.3366 J0.
X-4.5158 I0.3866 J0.
X-5.3889 I-0.4366 J0.
X-4.4158 I0.4866 J0.
X-5.4889 I-0.5366 J0.
X-4.4058 I0.5416 J0.
X-5.4989 I-0.5466 J0.
X-4.4058 I0.5466 J0.
X-4.4069 Y9.4288 Z-0.2788 I-0.0155 J0.
X-4.4095 Y9.4331 Z-0.2754 I-0.0144 J-0.0058
X-4.4119 Y9.4354 Z-0.2704 I-0.0118 J-0.0101
X-4.4129 Y9.4361 Z-0.2645 I-0.0094 J-0.0124
G0 Z0.4
X-2.9081 Y17.5411
Z0.2
G1 Z0.115 F13.333
G3 X-2.9067 Y17.5415 Z0.1084 I-0.0116 J0.0435 F55.
X-2.9029 Y17.5428 Z0.1031 I-0.013 J0.0431
X-2.8975 Y17.5454 Z0.1 I-0.0168 J0.0417
X-2.9419 Y17.6237 Z0.0621 I-0.0222 J0.0391
X-2.8975 Y17.5454 Z0.0242 I0.0222 J-0.0391
X-2.9419 Y17.6237 Z-0.0136 I-0.0222 J0.0391
X-2.8975 Y17.5454 Z-0.0515 I0.0222 J-0.0391
X-2.9419 Y17.6237 Z-0.0894 I-0.0222 J0.0391
X-2.8975 Y17.5454 Z-0.1273 I0.0222 J-0.0391
X-2.8747 Y17.5846 Z-0.14 I-0.0222 J0.0391
X-2.9478 I-0.0366 J0. F60.
X-2.7747 I0.0866 J0.
X-3.0478 I-0.1366 J0.
X-2.6747 I0.1866 J0.
X-3.1478 I-0.2366 J0.
X-2.5747 I0.2866 J0.
X-3.2478 I-0.3366 J0.
X-2.4747 I0.3866 J0.
X-3.3478 I-0.4366 J0.
X-2.3747 I0.4866 J0.
X-3.4478 I-0.5366 J0.
X-2.3747 I0.5366 J0.
X-2.4296 Y17.6285 Z-0.1601 I-0.045 J0. F55.
G1 X-2.8198 Y17.5407 Z-0.2599
G2 X-2.8747 Y17.5846 Z-0.28 I-0.0099 J0.0439
G3 X-2.9478 I-0.0366 J0. F60.
X-2.7747 I0.0866 J0.
X-3.0478 I-0.1366 J0.
X-2.6747 I0.1866 J0.
X-3.1478 I-0.2366 J0.
X-2.5747 I0.2866 J0.
X-3.2478 I-0.3366 J0.
X-2.4747 I0.3866 J0.
X-3.3478 I-0.4366 J0.
X-2.3747 I0.4866 J0.
X-3.4478 I-0.5366 J0.
X-2.3647 I0.5416 J0.
X-3.4578 I-0.5466 J0.
X-2.3647 I0.5466 J0.
X-2.3658 Y17.5904 Z-0.2788 I-0.0155 J0.
X-2.3684 Y17.5947 Z-0.2754 I-0.0144 J-0.0058
X-2.3709 Y17.597 Z-0.2704 I-0.0118 J-0.0101
X-2.3719 Y17.5976 Z-0.2645 I-0.0094 J-0.0124
G0 Z0.4
X-1.2208 Y17.1283
Z0.2
G1 Z0.115 F13.333
G3 X-1.2194 Y17.1287 Z0.1084 I-0.0116 J0.0435 F55.
X-1.2155 Y17.1301 Z0.1031 I-0.013 J0.0431
X-1.2102 Y17.1327 Z0.1 I-0.0168 J0.0417
X-1.2546 Y17.211 Z0.0621 I-0.0222 J0.0391
X-1.2102 Y17.1327 Z0.0242 I0.0222 J-0.0391
X-1.2546 Y17.211 Z-0.0136 I-0.0222 J0.0391
X-1.2102 Y17.1327 Z-0.0515 I0.0222 J-0.0391
X-1.2546 Y17.211 Z-0.0894 I-0.0222 J0.0391
X-1.2102 Y17.1327 Z-0.1273 I0.0222 J-0.0391
X-1.1874 Y17.1718 Z-0.14 I-0.0222 J0.0391
X-1.2644 I-0.0385 J0. F60.
X-1.0874 I0.0885 J0.
X-1.3644 I-0.1385 J0.
X-0.9874 I0.1885 J0.
X-1.4644 I-0.2385 J0.
X-0.8874 I0.2885 J0.
X-1.5644 I-0.3385 J0.
X-0.7874 I0.3885 J0.
X-1.6644 I-0.4385 J0.
X-0.7874 I0.4385 J0.
G2 X-0.7434 Y17.2417 I0.0776 J0.
G3 X-0.7094 Y17.317 I-0.0278 J0.0579
X-1.2259 Y17.7084 I-0.5165 J-0.1452
Y16.6353 I0. J-0.5365
X-0.7094 Y17.317 I0. J0.5365
X-0.7762 Y17.3432 Z-0.16 I-0.0433 J-0.0122 F55.
G1 X-1.1189 Y17.1335 Z-0.257
G2 X-1.1874 Y17.1718 Z-0.28 I-0.0235 J0.0384
G3 X-1.2644 I-0.0385 J0. F60.
X-1.0874 I0.0885 J0.
X-1.3644 I-0.1385 J0.
X-0.9874 I0.1885 J0.
X-1.4644 I-0.2385 J0.
X-0.8874 I0.2885 J0.
X-1.5644 I-0.3385 J0.
X-0.7874 I0.3885 J0.
X-1.6644 I-0.4385 J0.
X-0.7874 I0.4385 J0.
G2 X-0.7434 Y17.2417 I0.0776 J0.
G3 X-0.7094 Y17.317 I-0.0278 J0.0579
X-1.2259 Y17.7084 I-0.5165 J-0.1452
Y16.6353 I0. J-0.5365
X-0.7094 Y17.317 I0. J0.5365
G2 X-0.7066 Y17.3255 I0.0078 J0.0022
G3 X-0.704 Y17.3341 I-0.005 J0.0062
X-1.2259 Y17.7184 I-0.5219 J-0.1623
Y16.6253 I0. J-0.5465
X-0.704 Y17.3341 I0. J0.5465
X-0.7068 Y17.3393 Z-0.2788 I-0.0148 J-0.0046
X-0.7106 Y17.3426 Z-0.2754 I-0.012 J-0.0098
X-0.7136 Y17.3441 Z-0.2704 I-0.0083 J-0.0131
X-0.7147 Y17.3445 Z-0.2645 I-0.0053 J-0.0146
G0 Z0.4
X-0.7649 Y18.5436
Z0.2
G1 Z0.115 F13.333
G3 X-0.7635 Y18.544 Z0.1084 I-0.0116 J0.0435 F55.
X-0.7596 Y18.5454 Z0.1031 I-0.013 J0.0431
X-0.7542 Y18.548 Z0.1 I-0.0168 J0.0417
X-0.7987 Y18.6263 Z0.0621 I-0.0222 J0.0391
X-0.7542 Y18.548 Z0.0242 I0.0222 J-0.0391
X-0.7987 Y18.6263 Z-0.0136 I-0.0222 J0.0391
X-0.7542 Y18.548 Z-0.0515 I0.0222 J-0.0391
X-0.7987 Y18.6263 Z-0.0894 I-0.0222 J0.0391
X-0.7542 Y18.548 Z-0.1273 I0.0222 J-0.0391
X-0.7315 Y18.5871 Z-0.14 I-0.0222 J0.0391
X-0.8046 I-0.0366 J0. F60.
X-0.6315 I0.0866 J0.
X-0.9046 I-0.1366 J0.
X-0.5315 I0.1866 J0.
X-1.0046 I-0.2366 J0.
X-0.4315 I0.2866 J0.
X-1.1046 I-0.3366 J0.
X-0.3315 I0.3866 J0.
X-1.2046 I-0.4366 J0.
X-0.2315 I0.4866 J0.
X-1.3046 I-0.5366 J0.
X-0.2315 I0.5366 J0.
X-0.2863 Y18.631 Z-0.1601 I-0.045 J0. F55.
G1 X-0.6766 Y18.5432 Z-0.2599
G2 X-0.7315 Y18.5871 Z-0.28 I-0.0099 J0.0439
G3 X-0.8046 I-0.0366 J0. F60.
X-0.6315 I0.0866 J0.
X-0.9046 I-0.1366 J0.
X-0.5315 I0.1866 J0.
X-1.0046 I-0.2366 J0.
X-0.4315 I0.2866 J0.
X-1.1046 I-0.3366 J0.
X-0.3315 I0.3866 J0.
X-1.2046 I-0.4366 J0.
X-0.2315 I0.4866 J0.
X-1.3046 I-0.5366 J0.
X-0.2215 I0.5416 J0.
X-1.3146 I-0.5466 J0.
X-0.2215 I0.5466 J0.
X-0.2226 Y18.5929 Z-0.2788 I-0.0155 J0.
X-0.2252 Y18.5972 Z-0.2754 I-0.0144 J-0.0058
X-0.2276 Y18.5995 Z-0.2704 I-0.0118 J-0.0101
X-0.2286 Y18.6002 Z-0.2645 I-0.0094 J-0.0124
G0 Z0.4
X1.0432 Y17.8097
Z0.2
G1 Z0.115 F13.333
G3 X1.0446 Y17.8101 Z0.1084 I-0.0116 J0.0435 F55.
X1.0485 Y17.8114 Z0.1031 I-0.013 J0.0431
X1.0538 Y17.814 Z0.1 I-0.0168 J0.0417
X1.0094 Y17.8923 Z0.0621 I-0.0222 J0.0391
X1.0538 Y17.814 Z0.0242 I0.0222 J-0.0391
X1.0094 Y17.8923 Z-0.0136 I-0.0222 J0.0391
X1.0538 Y17.814 Z-0.0515 I0.0222 J-0.0391
X1.0094 Y17.8923 Z-0.0894 I-0.0222 J0.0391
X1.0538 Y17.814 Z-0.1273 I0.0222 J-0.0391
X1.0766 Y17.8531 Z-0.14 I-0.0222 J0.0391
X1.0035 I-0.0366 J0. F60.
X1.1766 I0.0866 J0.
X0.9035 I-0.1366 J0.
X1.2766 I0.1866 J0.
X0.8035 I-0.2366 J0.
X1.3766 I0.2866 J0.
X0.7035 I-0.3366 J0.
X1.4766 I0.3866 J0.
X0.6035 I-0.4366 J0.
X1.5766 I0.4866 J0.
X0.5035 I-0.5366 J0.
X1.5766 I0.5366 J0.
X1.5217 Y17.8971 Z-0.1601 I-0.045 J0. F55.
G1 X1.1315 Y17.8092 Z-0.2599
G2 X1.0766 Y17.8531 Z-0.28 I-0.0099 J0.0439
G3 X1.0035 I-0.0366 J0. F60.
X1.1766 I0.0866 J0.
X0.9035 I-0.1366 J0.
X1.2766 I0.1866 J0.
X0.8035 I-0.2366 J0.
X1.3766 I0.2866 J0.
X0.7035 I-0.3366 J0.
X1.4766 I0.3866 J0.
X0.6035 I-0.4366 J0.
X1.5766 I0.4866 J0.
X0.5035 I-0.5366 J0.
X1.5866 I0.5416 J0.
X0.4935 I-0.5466 J0.
X1.5866 I0.5466 J0.
X1.5855 Y17.859 Z-0.2788 I-0.0155 J0.
X1.5829 Y17.8632 Z-0.2754 I-0.0144 J-0.0058
X1.5804 Y17.8656 Z-0.2704 I-0.0118 J-0.0101
X1.5795 Y17.8662 Z-0.2645 I-0.0094 J-0.0124
G0 Z0.4
X2.7258 Y16.8214
Z0.2
G1 Z0.115 F13.333
G3 X2.7272 Y16.8218 Z0.1084 I-0.0116 J0.0435 F55.
X2.7311 Y16.8232 Z0.1031 I-0.013 J0.0431
X2.7364 Y16.8257 Z0.1 I-0.0168 J0.0417
X2.692 Y16.904 Z0.0621 I-0.0222 J0.0391
X2.7364 Y16.8257 Z0.0242 I0.0222 J-0.0391
X2.692 Y16.904 Z-0.0136 I-0.0222 J0.0391
X2.7364 Y16.8257 Z-0.0515 I0.0222 J-0.0391
X2.692 Y16.904 Z-0.0894 I-0.0222 J0.0391
X2.7364 Y16.8257 Z-0.1273 I0.0222 J-0.0391
X2.7592 Y16.8649 Z-0.14 I-0.0222 J0.0391
X2.6861 I-0.0366 J0. F60.
X2.8592 I0.0866 J0.
X2.5861 I-0.1366 J0.
X2.9592 I0.1866 J0.
X2.4861 I-0.2366 J0.
X3.0592 I0.2866 J0.
X2.3861 I-0.3366 J0.
X3.1592 I0.3866 J0.
X2.2861 I-0.4366 J0.
X3.2592 I0.4866 J0.
X2.1861 I-0.5366 J0.
X3.2592 I0.5366 J0.
X3.2043 Y16.9088 Z-0.1601 I-0.045 J0. F55.
G1 X2.8141 Y16.821 Z-0.2599
G2 X2.7592 Y16.8649 Z-0.28 I-0.0099 J0.0439
G3 X2.6861 I-0.0366 J0. F60.
X2.8592 I0.0866 J0.
X2.5861 I-0.1366 J0.
X2.9592 I0.1866 J0.
X2.4861 I-0.2366 J0.
X3.0592 I0.2866 J0.
X2.3861 I-0.3366 J0.
X3.1592 I0.3866 J0.
X2.2861 I-0.4366 J0.
X3.2592 I0.4866 J0.
X2.1861 I-0.5366 J0.
X3.2692 I0.5416 J0.
X2.1761 I-0.5466 J0.
X3.2692 I0.5466 J0.
X3.2681 Y16.8707 Z-0.2788 I-0.0155 J0.
X3.2655 Y16.875 Z-0.2754 I-0.0144 J-0.0058
X3.263 Y16.8773 Z-0.2704 I-0.0118 J-0.0101
X3.2621 Y16.878 Z-0.2645 I-0.0094 J-0.0124
G0 Z0.4
X4.2474 Y15.5997
Z0.2
G1 Z0.115 F13.333
G3 X4.2488 Y15.6001 Z0.1084 I-0.0116 J0.0435 F55.
X4.2526 Y15.6015 Z0.1031 I-0.013 J0.0431
X4.258 Y15.604 Z0.1 I-0.0168 J0.0417
X4.2136 Y15.6823 Z0.0621 I-0.0222 J0.0391
X4.258 Y15.604 Z0.0242 I0.0222 J-0.0391
X4.2136 Y15.6823 Z-0.0136 I-0.0222 J0.0391
X4.258 Y15.604 Z-0.0515 I0.0222 J-0.0391
X4.2136 Y15.6823 Z-0.0894 I-0.0222 J0.0391
X4.258 Y15.604 Z-0.1273 I0.0222 J-0.0391
X4.2808 Y15.6432 Z-0.14 I-0.0222 J0.0391
X4.2077 I-0.0366 J0. F60.
X4.3808 I0.0866 J0.
X4.1077 I-0.1366 J0.
X4.4808 I0.1866 J0.
X4.0077 I-0.2366 J0.
X4.5808 I0.2866 J0.
X3.9077 I-0.3366 J0.
X4.6808 I0.3866 J0.
X3.8077 I-0.4366 J0.
X4.7808 I0.4866 J0.
X3.7077 I-0.5366 J0.
X4.7808 I0.5366 J0.
X4.7259 Y15.6871 Z-0.1601 I-0.045 J0. F55.
G1 X4.3357 Y15.5993 Z-0.2599
G2 X4.2808 Y15.6432 Z-0.28 I-0.0099 J0.0439
G3 X4.2077 I-0.0366 J0. F60.
X4.3808 I0.0866 J0.
X4.1077 I-0.1366 J0.
X4.4808 I0.1866 J0.
X4.0077 I-0.2366 J0.
X4.5808 I0.2866 J0.
X3.9077 I-0.3366 J0.
X4.6808 I0.3866 J0.
X3.8077 I-0.4366 J0.
X4.7808 I0.4866 J0.
X3.7077 I-0.5366 J0.
X4.7908 I0.5416 J0.
X3.6977 I-0.5466 J0.
X4.7908 I0.5466 J0.
X4.7897 Y15.649 Z-0.2788 I-0.0155 J0.
X4.7871 Y15.6533 Z-0.2754 I-0.0144 J-0.0058
X4.7846 Y15.6556 Z-0.2704 I-0.0118 J-0.0101
X4.7837 Y15.6563 Z-0.2645 I-0.0094 J-0.0124
G0 Z0.4
X5.5759 Y14.1704
Z0.2
G1 Z0.115 F13.333
G3 X5.5773 Y14.1708 Z0.1084 I-0.0116 J0.0435 F55.
X5.5811 Y14.1722 Z0.1031 I-0.013 J0.0431
X5.5865 Y14.1748 Z0.1 I-0.0168 J0.0417
X5.5421 Y14.253 Z0.0621 I-0.0222 J0.0391
X5.5865 Y14.1748 Z0.0242 I0.0222 J-0.0391
X5.5421 Y14.253 Z-0.0136 I-0.0222 J0.0391
X5.5865 Y14.1748 Z-0.0515 I0.0222 J-0.0391
X5.5421 Y14.253 Z-0.0894 I-0.0222 J0.0391
X5.5865 Y14.1748 Z-0.1273 I0.0222 J-0.0391
X5.6093 Y14.2139 Z-0.14 I-0.0222 J0.0391
X5.5362 I-0.0366 J0. F60.
X5.7093 I0.0866 J0.
X5.4362 I-0.1366 J0.
X5.8093 I0.1866 J0.
X5.3362 I-0.2366 J0.
X5.9093 I0.2866 J0.
X5.2362 I-0.3366 J0.
X6.0093 I0.3866 J0.
X5.1362 I-0.4366 J0.
X6.1093 I0.4866 J0.
X5.0362 I-0.5366 J0.
X6.1093 I0.5366 J0.
X6.0544 Y14.2578 Z-0.1601 I-0.045 J0. F55.
G1 X5.6642 Y14.17 Z-0.2599
G2 X5.6093 Y14.2139 Z-0.28 I-0.0099 J0.0439
G3 X5.5362 I-0.0366 J0. F60.
X5.7093 I0.0866 J0.
X5.4362 I-0.1366 J0.
X5.8093 I0.1866 J0.
X5.3362 I-0.2366 J0.
X5.9093 I0.2866 J0.
X5.2362 I-0.3366 J0.
X6.0093 I0.3866 J0.
X5.1362 I-0.4366 J0.
X6.1093 I0.4866 J0.
X5.0362 I-0.5366 J0.
X6.1193 I0.5416 J0.
X5.0262 I-0.5466 J0.
X6.1193 I0.5466 J0.
X6.1182 Y14.2197 Z-0.2788 I-0.0155 J0.
X6.1156 Y14.224 Z-0.2754 I-0.0144 J-0.0058
X6.1131 Y14.2263 Z-0.2704 I-0.0118 J-0.0101
X6.1122 Y14.227 Z-0.2645 I-0.0094 J-0.0124
G0 Z0.4
X6.6832 Y12.5636
Z0.2
G1 Z0.115 F13.333
G3 X6.6846 Y12.564 Z0.1084 I-0.0116 J0.0435 F55.
X6.6884 Y12.5654 Z0.1031 I-0.013 J0.0431
X6.6938 Y12.568 Z0.1 I-0.0168 J0.0417
X6.6494 Y12.6463 Z0.0621 I-0.0222 J0.0391
X6.6938 Y12.568 Z0.0242 I0.0222 J-0.0391
X6.6494 Y12.6463 Z-0.0136 I-0.0222 J0.0391
X6.6938 Y12.568 Z-0.0515 I0.0222 J-0.0391
X6.6494 Y12.6463 Z-0.0894 I-0.0222 J0.0391
X6.6938 Y12.568 Z-0.1273 I0.0222 J-0.0391
X6.7166 Y12.6071 Z-0.14 I-0.0222 J0.0391
X6.6435 I-0.0366 J0. F60.
X6.8166 I0.0866 J0.
X6.5435 I-0.1366 J0.
X6.9166 I0.1866 J0.
X6.4435 I-0.2366 J0.
X7.0166 I0.2866 J0.
X6.3435 I-0.3366 J0.
X7.1166 I0.3866 J0.
X6.2435 I-0.4366 J0.
X7.2166 I0.4866 J0.
X6.1435 I-0.5366 J0.
X7.2166 I0.5366 J0.
X7.1617 Y12.651 Z-0.1601 I-0.045 J0. F55.
G1 X6.7715 Y12.5632 Z-0.2599
G2 X6.7166 Y12.6071 Z-0.28 I-0.0099 J0.0439
G3 X6.6435 I-0.0366 J0. F60.
X6.8166 I0.0866 J0.
X6.5435 I-0.1366 J0.
X6.9166 I0.1866 J0.
X6.4435 I-0.2366 J0.
X7.0166 I0.2866 J0.
X6.3435 I-0.3366 J0.
X7.1166 I0.3866 J0.
X6.2435 I-0.4366 J0.
X7.2166 I0.4866 J0.
X6.1435 I-0.5366 J0.
X7.2266 I0.5416 J0.
X6.1335 I-0.5466 J0.
X7.2266 I0.5466 J0.
X7.2255 Y12.6129 Z-0.2788 I-0.0155 J0.
X7.2229 Y12.6172 Z-0.2754 I-0.0144 J-0.0058
X7.2204 Y12.6195 Z-0.2704 I-0.0118 J-0.0101
X7.2194 Y12.6202 Z-0.2645 I-0.0094 J-0.0124
G0 Z0.4
X7.5459 Y10.8134
Z0.2
G1 Z0.115 F13.333
G3 X7.5473 Y10.8138 Z0.1084 I-0.0116 J0.0435 F55.
X7.5512 Y10.8151 Z0.1031 I-0.013 J0.0431
X7.5566 Y10.8177 Z0.1 I-0.0168 J0.0417
X7.5121 Y10.896 Z0.0621 I-0.0222 J0.0391
X7.5566 Y10.8177 Z0.0242 I0.0222 J-0.0391
X7.5121 Y10.896 Z-0.0136 I-0.0222 J0.0391
X7.5566 Y10.8177 Z-0.0515 I0.0222 J-0.0391
X7.5121 Y10.896 Z-0.0894 I-0.0222 J0.0391
X7.5566 Y10.8177 Z-0.1273 I0.0222 J-0.0391
X7.5793 Y10.8569 Z-0.14 I-0.0222 J0.0391
X7.5062 I-0.0366 J0. F60.
X7.6793 I0.0866 J0.
X7.4062 I-0.1366 J0.
X7.7793 I0.1866 J0.
X7.3062 I-0.2366 J0.
X7.8793 I0.2866 J0.
X7.2062 I-0.3366 J0.
X7.9793 I0.3866 J0.
X7.1062 I-0.4366 J0.
X8.0793 I0.4866 J0.
X7.0062 I-0.5366 J0.
X8.0793 I0.5366 J0.
X8.0245 Y10.9008 Z-0.1601 I-0.045 J0. F55.
G1 X7.6342 Y10.8129 Z-0.2599
G2 X7.5793 Y10.8569 Z-0.28 I-0.0099 J0.0439
G3 X7.5062 I-0.0366 J0. F60.
X7.6793 I0.0866 J0.
X7.4062 I-0.1366 J0.
X7.7793 I0.1866 J0.
X7.3062 I-0.2366 J0.
X7.8793 I0.2866 J0.
X7.2062 I-0.3366 J0.
X7.9793 I0.3866 J0.
X7.1062 I-0.4366 J0.
X8.0793 I0.4866 J0.
X7.0062 I-0.5366 J0.
X8.0893 I0.5416 J0.
X6.9962 I-0.5466 J0.
X8.0893 I0.5466 J0.
X8.0882 Y10.8627 Z-0.2788 I-0.0155 J0.
X8.0856 Y10.8669 Z-0.2754 I-0.0144 J-0.0058
X8.0832 Y10.8692 Z-0.2704 I-0.0118 J-0.0101
X8.0822 Y10.8699 Z-0.2645 I-0.0094 J-0.0124
G0 Z0.4
X8.1458 Y8.9565
Z0.2
G1 Z0.115 F13.333
G3 X8.1472 Y8.9569 Z0.1084 I-0.0116 J0.0435 F55.
X8.1511 Y8.9583 Z0.1031 I-0.013 J0.0431
X8.1565 Y8.9609 Z0.1 I-0.0168 J0.0417
X8.1121 Y9.0391 Z0.0621 I-0.0222 J0.0391
X8.1565 Y8.9609 Z0.0242 I0.0222 J-0.0391
X8.1121 Y9.0391 Z-0.0136 I-0.0222 J0.0391
X8.1565 Y8.9609 Z-0.0515 I0.0222 J-0.0391
X8.1121 Y9.0391 Z-0.0894 I-0.0222 J0.0391
X8.1565 Y8.9609 Z-0.1273 I0.0222 J-0.0391
X8.1793 Y9. Z-0.14 I-0.0222 J0.0391
X8.1062 I-0.0366 J0. F60.
X8.2793 I0.0866 J0.
X8.0062 I-0.1366 J0.
X8.3793 I0.1866 J0.
X7.9062 I-0.2366 J0.
X8.4793 I0.2866 J0.
X7.8062 I-0.3366 J0.
X8.5793 I0.3866 J0.
X7.7062 I-0.4366 J0.
X8.6793 I0.4866 J0.
X7.6062 I-0.5366 J0.
X8.6793 I0.5366 J0.
X8.6244 Y9.0439 Z-0.1601 I-0.045 J0. F55.
G1 X8.2341 Y8.9561 Z-0.2599
G2 X8.1793 Y9. Z-0.28 I-0.0099 J0.0439
G3 X8.1062 I-0.0366 J0. F60.
X8.2793 I0.0866 J0.
X8.0062 I-0.1366 J0.
X8.3793 I0.1866 J0.
X7.9062 I-0.2366 J0.
X8.4793 I0.2866 J0.
X7.8062 I-0.3366 J0.
X8.5793 I0.3866 J0.
X7.7062 I-0.4366 J0.
X8.6793 I0.4866 J0.
X7.6062 I-0.5366 J0.
X8.6893 I0.5416 J0.
X7.5962 I-0.5466 J0.
X8.6893 I0.5466 J0.
X8.6881 Y9.0058 Z-0.2788 I-0.0155 J0.
X8.6855 Y9.0101 Z-0.2754 I-0.0144 J-0.0058
X8.6831 Y9.0124 Z-0.2704 I-0.0118 J-0.0101
X8.6821 Y9.0131 Z-0.2645 I-0.0094 J-0.0124
G0 Z0.4
X7.7293 Y7.5285
Z0.2
G1 Z0.115 F13.333
G3 X7.7307 Y7.5289 Z0.1084 I-0.0116 J0.0435 F55.
X7.7346 Y7.5303 Z0.1031 I-0.013 J0.0431
X7.74 Y7.5329 Z0.1 I-0.0168 J0.0417
X7.6956 Y7.6111 Z0.0621 I-0.0222 J0.0391
X7.74 Y7.5329 Z0.0242 I0.0222 J-0.0391
X7.6956 Y7.6111 Z-0.0136 I-0.0222 J0.0391
X7.74 Y7.5329 Z-0.0515 I0.0222 J-0.0391
X7.6956 Y7.6111 Z-0.0894 I-0.0222 J0.0391
X7.74 Y7.5329 Z-0.1273 I0.0222 J-0.0391
X7.7628 Y7.572 Z-0.14 I-0.0222 J0.0391
X7.6897 I-0.0366 J0. F60.
X7.8628 I0.0866 J0.
X7.5897 I-0.1366 J0.
X7.9628 I0.1866 J0.
X7.4897 I-0.2366 J0.
X8.0628 I0.2866 J0.
X7.3897 I-0.3366 J0.
X8.1628 I0.3866 J0.
X7.2897 I-0.4366 J0.
X8.2628 I0.4866 J0.
X7.1897 I-0.5366 J0.
X8.2628 I0.5366 J0.
X8.2079 Y7.6159 Z-0.1601 I-0.045 J0. F55.
G1 X7.8177 Y7.5281 Z-0.2599
G2 X7.7628 Y7.572 Z-0.28 I-0.0099 J0.0439
G3 X7.6897 I-0.0366 J0. F60.
X7.8628 I0.0866 J0.
X7.5897 I-0.1366 J0.
X7.9628 I0.1866 J0.
X7.4897 I-0.2366 J0.
X8.0628 I0.2866 J0.
X7.3897 I-0.3366 J0.
X8.1628 I0.3866 J0.
X7.2897 I-0.4366 J0.
X8.2628 I0.4866 J0.
X7.1897 I-0.5366 J0.
X8.2728 I0.5416 J0.
X7.1797 I-0.5466 J0.
X8.2728 I0.5466 J0.
X8.2716 Y7.5778 Z-0.2788 I-0.0155 J0.
X8.269 Y7.5821 Z-0.2754 I-0.0144 J-0.0058
X8.2666 Y7.5844 Z-0.2704 I-0.0118 J-0.0101
X8.2656 Y7.5851 Z-0.2645 I-0.0094 J-0.0124
G0 Z0.4
X6.7029 Y8.6032
Z0.2
G1 Z0.115 F13.333
G3 X6.7043 Y8.6036 Z0.1084 I-0.0116 J0.0435 F55.
X6.7081 Y8.605 Z0.1031 I-0.013 J0.0431
X6.7135 Y8.6076 Z0.1 I-0.0168 J0.0417
X6.6691 Y8.6859 Z0.0621 I-0.0222 J0.0391
X6.7135 Y8.6076 Z0.0242 I0.0222 J-0.0391
X6.6691 Y8.6859 Z-0.0136 I-0.0222 J0.0391
X6.7135 Y8.6076 Z-0.0515 I0.0222 J-0.0391
X6.6691 Y8.6859 Z-0.0894 I-0.0222 J0.0391
X6.7135 Y8.6076 Z-0.1273 I0.0222 J-0.0391
X6.7363 Y8.6467 Z-0.14 I-0.0222 J0.0391
X6.6593 I-0.0385 J0. F60.
X6.8363 I0.0885 J0.
X6.5593 I-0.1385 J0.
X6.9363 I0.1885 J0.
X6.4593 I-0.2385 J0.
X7.0363 I0.2885 J0.
X6.3593 I-0.3385 J0.
X7.1363 I0.3885 J0.
X6.2593 I-0.4385 J0.
X7.1363 I0.4385 J0.
G2 X7.1803 Y8.7166 I0.0776 J0.
G3 X7.2143 Y8.7919 I-0.0278 J0.0579
X6.6978 Y9.1832 I-0.5165 J-0.1452
Y8.1102 I0. J-0.5365
X7.2143 Y8.7919 I0. J0.5365
X7.1475 Y8.8181 Z-0.16 I-0.0433 J-0.0122 F55.
G1 X6.8048 Y8.6083 Z-0.257
G2 X6.7363 Y8.6467 Z-0.28 I-0.0235 J0.0384
G3 X6.6593 I-0.0385 J0. F60.
X6.8363 I0.0885 J0.
X6.5593 I-0.1385 J0.
X6.9363 I0.1885 J0.
X6.4593 I-0.2385 J0.
X7.0363 I0.2885 J0.
X6.3593 I-0.3385 J0.
X7.1363 I0.3885 J0.
X6.2593 I-0.4385 J0.
X7.1363 I0.4385 J0.
G2 X7.1803 Y8.7166 I0.0776 J0.
G3 X7.2143 Y8.7919 I-0.0278 J0.0579
X6.6978 Y9.1832 I-0.5165 J-0.1452
Y8.1102 I0. J-0.5365
X7.2143 Y8.7919 I0. J0.5365
G2 X7.217 Y8.8004 I0.0078 J0.0022
G3 X7.2197 Y8.809 I-0.005 J0.0062
X6.6978 Y9.1932 I-0.5219 J-0.1623
Y8.1002 I0. J-0.5465
X7.2197 Y8.809 I0. J0.5465
X7.2169 Y8.8142 Z-0.2788 I-0.0148 J-0.0046
X7.2131 Y8.8175 Z-0.2754 I-0.012 J-0.0098
X7.2101 Y8.819 Z-0.2704 I-0.0083 J-0.0131
X7.209 Y8.8193 Z-0.2645 I-0.0053 J-0.0146
G0 Z0.4
X6.1674 Y10.2544
Z0.2
G1 Z0.115 F13.333
G3 X6.1688 Y10.2548 Z0.1084 I-0.0116 J0.0435 F55.
X6.1727 Y10.2561 Z0.1031 I-0.013 J0.0431
X6.1781 Y10.2587 Z0.1 I-0.0168 J0.0417
X6.1336 Y10.337 Z0.0621 I-0.0222 J0.0391
X6.178 Y10.2587 Z0.0242 I0.0222 J-0.0391
X6.1336 Y10.337 Z-0.0136 I-0.0222 J0.0391
X6.178 Y10.2587 Z-0.0515 I0.0222 J-0.0391
X6.1336 Y10.337 Z-0.0894 I-0.0222 J0.0391
X6.178 Y10.2587 Z-0.1273 I0.0222 J-0.0391
X6.2008 Y10.2979 Z-0.14 I-0.0222 J0.0391
X6.1277 I-0.0366 J0. F60.
X6.3008 I0.0866 J0.
X6.0277 I-0.1366 J0.
X6.4008 I0.1866 J0.
X5.9277 I-0.2366 J0.
X6.5008 I0.2866 J0.
X5.8277 I-0.3366 J0.
X6.6008 I0.3866 J0.
X5.7277 I-0.4366 J0.
X6.7008 I0.4866 J0.
X5.6277 I-0.5366 J0.
X6.7008 I0.5366 J0.
X6.646 Y10.3418 Z-0.1601 I-0.045 J0. F55.
G1 X6.2557 Y10.254 Z-0.2599
G2 X6.2008 Y10.2979 Z-0.28 I-0.0099 J0.0439
G3 X6.1277 I-0.0366 J0. F60.
X6.3008 I0.0866 J0.
X6.0277 I-0.1366 J0.
X6.4008 I0.1866 J0.
X5.9277 I-0.2366 J0.
X6.5008 I0.2866 J0.
X5.8277 I-0.3366 J0.
X6.6008 I0.3866 J0.
X5.7277 I-0.4366 J0.
X6.7008 I0.4866 J0.
X5.6277 I-0.5366 J0.
X6.7108 I0.5416 J0.
X5.6177 I-0.5466 J0.
X6.7108 I0.5466 J0.
X6.7097 Y10.3037 Z-0.2788 I-0.0155 J0.
X6.7071 Y10.308 Z-0.2754 I-0.0144 J-0.0058
X6.7047 Y10.3103 Z-0.2704 I-0.0118 J-0.0101
X6.7037 Y10.311 Z-0.2645 I-0.0094 J-0.0124
G0 Z0.4
X5.4003 Y11.8108
Z0.2
G1 Z0.115 F13.333
G3 X5.4017 Y11.8112 Z0.1084 I-0.0116 J0.0435 F55.
X5.4055 Y11.8125 Z0.1031 I-0.013 J0.0431
X5.4109 Y11.8151 Z0.1 I-0.0168 J0.0417
X5.3665 Y11.8934 Z0.0621 I-0.0222 J0.0391
X5.4109 Y11.8151 Z0.0242 I0.0222 J-0.0391
X5.3665 Y11.8934 Z-0.0136 I-0.0222 J0.0391
X5.4109 Y11.8151 Z-0.0515 I0.0222 J-0.0391
X5.3665 Y11.8934 Z-0.0894 I-0.0222 J0.0391
X5.4109 Y11.8151 Z-0.1273 I0.0222 J-0.0391
X5.4337 Y11.8543 Z-0.14 I-0.0222 J0.0391
X5.3606 I-0.0366 J0. F60.
X5.5337 I0.0866 J0.
X5.2606 I-0.1366 J0.
X5.6337 I0.1866 J0.
X5.1606 I-0.2366 J0.
X5.7337 I0.2866 J0.
X5.0606 I-0.3366 J0.
X5.8337 I0.3866 J0.
X4.9606 I-0.4366 J0.
X5.9337 I0.4866 J0.
X4.8606 I-0.5366 J0.
X5.9337 I0.5366 J0.
X5.8788 Y11.8982 Z-0.1601 I-0.045 J0. F55.
G1 X5.4886 Y11.8103 Z-0.2599
G2 X5.4337 Y11.8543 Z-0.28 I-0.0099 J0.0439
G3 X5.3606 I-0.0366 J0. F60.
X5.5337 I0.0866 J0.
X5.2606 I-0.1366 J0.
X5.6337 I0.1866 J0.
X5.1606 I-0.2366 J0.
X5.7337 I0.2866 J0.
X5.0606 I-0.3366 J0.
X5.8337 I0.3866 J0.
X4.9606 I-0.4366 J0.
X5.9337 I0.4866 J0.
X4.8606 I-0.5366 J0.
X5.9437 I0.5416 J0.
X4.8506 I-0.5466 J0.
X5.9437 I0.5466 J0.
X5.9426 Y11.8601 Z-0.2788 I-0.0155 J0.
X5.94 Y11.8643 Z-0.2754 I-0.0144 J-0.0058
X5.9375 Y11.8667 Z-0.2704 I-0.0118 J-0.0101
X5.9365 Y11.8673 Z-0.2645 I-0.0094 J-0.0124
G0 Z0.4
X4.4156 Y13.2395
Z0.2
G1 Z0.115 F13.333
G3 X4.417 Y13.2399 Z0.1084 I-0.0116 J0.0435 F55.
X4.4209 Y13.2413 Z0.1031 I-0.013 J0.0431
X4.4262 Y13.2439 Z0.1 I-0.0168 J0.0417
X4.3818 Y13.3222 Z0.0621 I-0.0222 J0.0391
X4.4262 Y13.2439 Z0.0242 I0.0222 J-0.0391
X4.3818 Y13.3222 Z-0.0136 I-0.0222 J0.0391
X4.4262 Y13.2439 Z-0.0515 I0.0222 J-0.0391
X4.3818 Y13.3222 Z-0.0894 I-0.0222 J0.0391
X4.4262 Y13.2439 Z-0.1273 I0.0222 J-0.0391
X4.449 Y13.283 Z-0.14 I-0.0222 J0.0391
X4.3759 I-0.0366 J0. F60.
X4.549 I0.0866 J0.
X4.2759 I-0.1366 J0.
X4.649 I0.1866 J0.
X4.1759 I-0.2366 J0.
X4.749 I0.2866 J0.
X4.0759 I-0.3366 J0.
X4.849 I0.3866 J0.
X3.9759 I-0.4366 J0.
X4.949 I0.4866 J0.
X3.8759 I-0.5366 J0.
X4.949 I0.5366 J0.
X4.8942 Y13.3269 Z-0.1601 I-0.045 J0. F55.
G1 X4.5039 Y13.2391 Z-0.2599
G2 X4.449 Y13.283 Z-0.28 I-0.0099 J0.0439
G3 X4.3759 I-0.0366 J0. F60.
X4.549 I0.0866 J0.
X4.2759 I-0.1366 J0.
X4.649 I0.1866 J0.
X4.1759 I-0.2366 J0.
X4.749 I0.2866 J0.
X4.0759 I-0.3366 J0.
X4.849 I0.3866 J0.
X3.9759 I-0.4366 J0.
X4.949 I0.4866 J0.
X3.8759 I-0.5366 J0.
X4.959 I0.5416 J0.
X3.8659 I-0.5466 J0.
X4.959 I0.5466 J0.
X4.9579 Y13.2888 Z-0.2788 I-0.0155 J0.
X4.9553 Y13.2931 Z-0.2754 I-0.0144 J-0.0058
X4.9529 Y13.2954 Z-0.2704 I-0.0118 J-0.0101
X4.9519 Y13.2961 Z-0.2645 I-0.0094 J-0.0124
G0 Z0.4
X3.2343 Y14.5105
Z0.2
G1 Z0.115 F13.333
G3 X3.2357 Y14.5109 Z0.1084 I-0.0116 J0.0435 F55.
X3.2396 Y14.5123 Z0.1031 I-0.013 J0.0431
X3.2449 Y14.5149 Z0.1 I-0.0168 J0.0417
X3.2005 Y14.5932 Z0.0621 I-0.0222 J0.0391
X3.2449 Y14.5149 Z0.0242 I0.0222 J-0.0391
X3.2005 Y14.5932 Z-0.0136 I-0.0222 J0.0391
X3.2449 Y14.5149 Z-0.0515 I0.0222 J-0.0391
X3.2005 Y14.5932 Z-0.0894 I-0.0222 J0.0391
X3.2449 Y14.5149 Z-0.1273 I0.0222 J-0.0391
X3.2677 Y14.554 Z-0.14 I-0.0222 J0.0391
X3.1946 I-0.0366 J0. F60.
X3.3677 I0.0866 J0.
X3.0946 I-0.1366 J0.
X3.4677 I0.1866 J0.
X2.9946 I-0.2366 J0.
X3.5677 I0.2866 J0.
X2.8946 I-0.3366 J0.
X3.6677 I0.3866 J0.
X2.7946 I-0.4366 J0.
X3.7677 I0.4866 J0.
X2.6946 I-0.5366 J0.
X3.7677 I0.5366 J0.
X3.7128 Y14.5979 Z-0.1601 I-0.045 J0. F55.
G1 X3.3226 Y14.5101 Z-0.2599
G2 X3.2677 Y14.554 Z-0.28 I-0.0099 J0.0439
G3 X3.1946 I-0.0366 J0. F60.
X3.3677 I0.0866 J0.
X3.0946 I-0.1366 J0.
X3.4677 I0.1866 J0.
X2.9946 I-0.2366 J0.
X3.5677 I0.2866 J0.
X2.8946 I-0.3366 J0.
X3.6677 I0.3866 J0.
X2.7946 I-0.4366 J0.
X3.7677 I0.4866 J0.
X2.6946 I-0.5366 J0.
X3.7777 I0.5416 J0.
X2.6846 I-0.5466 J0.
X3.7777 I0.5466 J0.
X3.7766 Y14.5598 Z-0.2788 I-0.0155 J0.
X3.774 Y14.5641 Z-0.2754 I-0.0144 J-0.0058
X3.7716 Y14.5664 Z-0.2704 I-0.0118 J-0.0101
X3.7706 Y14.5671 Z-0.2645 I-0.0094 J-0.0124
G0 Z0.4
X1.8812 Y15.5969
Z0.2
G1 Z0.115 F13.333
G3 X1.8826 Y15.5973 Z0.1084 I-0.0116 J0.0435 F55.
X1.8865 Y15.5987 Z0.1031 I-0.013 J0.0431
X1.8919 Y15.6013 Z0.1 I-0.0168 J0.0417
X1.8475 Y15.6795 Z0.0621 I-0.0222 J0.0391
X1.8919 Y15.6013 Z0.0242 I0.0222 J-0.0391
X1.8475 Y15.6795 Z-0.0136 I-0.0222 J0.0391
X1.8919 Y15.6013 Z-0.0515 I0.0222 J-0.0391
X1.8475 Y15.6795 Z-0.0894 I-0.0222 J0.0391
X1.8919 Y15.6013 Z-0.1273 I0.0222 J-0.0391
X1.9147 Y15.6404 Z-0.14 I-0.0222 J0.0391
X1.8416 I-0.0366 J0. F60.
X2.0147 I0.0866 J0.
X1.7416 I-0.1366 J0.
X2.1147 I0.1866 J0.
X1.6416 I-0.2366 J0.
X2.2147 I0.2866 J0.
X1.5416 I-0.3366 J0.
X2.3147 I0.3866 J0.
X1.4416 I-0.4366 J0.
X2.4147 I0.4866 J0.
X1.3416 I-0.5366 J0.
X2.4147 I0.5366 J0.
X2.3598 Y15.6843 Z-0.1601 I-0.045 J0. F55.
G1 X1.9695 Y15.5965 Z-0.2599
G2 X1.9147 Y15.6404 Z-0.28 I-0.0099 J0.0439
G3 X1.8416 I-0.0366 J0. F60.
X2.0147 I0.0866 J0.
X1.7416 I-0.1366 J0.
X2.1147 I0.1866 J0.
X1.6416 I-0.2366 J0.
X2.2147 I0.2866 J0.
X1.5416 I-0.3366 J0.
X2.3147 I0.3866 J0.
X1.4416 I-0.4366 J0.
X2.4147 I0.4866 J0.
X1.3416 I-0.5366 J0.
X2.4247 I0.5416 J0.
X1.3316 I-0.5466 J0.
X2.4247 I0.5466 J0.
X2.4235 Y15.6462 Z-0.2788 I-0.0155 J0.
X2.4209 Y15.6505 Z-0.2754 I-0.0144 J-0.0058
X2.4185 Y15.6528 Z-0.2704 I-0.0118 J-0.0101
X2.4175 Y15.6535 Z-0.2645 I-0.0094 J-0.0124
G0 Z0.4
X0.385 Y16.4757
Z0.2
G1 Z0.115 F13.333
G3 X0.3864 Y16.4761 Z0.1084 I-0.0116 J0.0435 F55.
X0.3903 Y16.4774 Z0.1031 I-0.013 J0.0431
X0.3957 Y16.48 Z0.1 I-0.0168 J0.0417
X0.3513 Y16.5583 Z0.0621 I-0.0222 J0.0391
X0.3957 Y16.48 Z0.0242 I0.0222 J-0.0391
X0.3513 Y16.5583 Z-0.0136 I-0.0222 J0.0391
X0.3957 Y16.48 Z-0.0515 I0.0222 J-0.0391
X0.3513 Y16.5583 Z-0.0894 I-0.0222 J0.0391
X0.3957 Y16.48 Z-0.1273 I0.0222 J-0.0391
X0.4185 Y16.5192 Z-0.14 I-0.0222 J0.0391
X0.3454 I-0.0366 J0. F60.
X0.5185 I0.0866 J0.
X0.2454 I-0.1366 J0.
X0.6185 I0.1866 J0.
X0.1454 I-0.2366 J0.
X0.7185 I0.2866 J0.
X0.0454 I-0.3366 J0.
X0.8185 I0.3866 J0.
X-0.0546 I-0.4366 J0.
X0.9185 I0.4866 J0.
X-0.1546 I-0.5366 J0.
X0.9185 I0.5366 J0.
X0.8636 Y16.5631 Z-0.1601 I-0.045 J0. F55.
G1 X0.4733 Y16.4753 Z-0.2599
G2 X0.4185 Y16.5192 Z-0.28 I-0.0099 J0.0439
G3 X0.3454 I-0.0366 J0. F60.
X0.5185 I0.0866 J0.
X0.2454 I-0.1366 J0.
X0.6185 I0.1866 J0.
X0.1454 I-0.2366 J0.
X0.7185 I0.2866 J0.
X0.0454 I-0.3366 J0.
X0.8185 I0.3866 J0.
X-0.0546 I-0.4366 J0.
X0.9185 I0.4866 J0.
X-0.1546 I-0.5366 J0.
X0.9285 I0.5416 J0.
X-0.1646 I-0.5466 J0.
X0.9285 I0.5466 J0.
X0.9273 Y16.525 Z-0.2788 I-0.0155 J0.
X0.9247 Y16.5293 Z-0.2754 I-0.0144 J-0.0058
X0.9223 Y16.5316 Z-0.2704 I-0.0118 J-0.0101
X0.9213 Y16.5322 Z-0.2645 I-0.0094 J-0.0124
G0 Z0.4
X-2.6602 Y19.0078
Z0.2
G1 Z0.115 F13.333
G3 X-2.6588 Y19.0082 Z0.1084 I-0.0116 J0.0435 F55.
X-2.655 Y19.0095 Z0.1031 I-0.013 J0.0431
X-2.6496 Y19.0121 Z0.1 I-0.0168 J0.0417
X-2.694 Y19.0904 Z0.0621 I-0.0222 J0.0391
X-2.6496 Y19.0121 Z0.0242 I0.0222 J-0.0391
X-2.694 Y19.0904 Z-0.0136 I-0.0222 J0.0391
X-2.6496 Y19.0121 Z-0.0515 I0.0222 J-0.0391
X-2.694 Y19.0904 Z-0.0894 I-0.0222 J0.0391
X-2.6496 Y19.0121 Z-0.1273 I0.0222 J-0.0391
X-2.6268 Y19.0513 Z-0.14 I-0.0222 J0.0391
X-2.6999 I-0.0366 J0. F60.
X-2.5268 I0.0866 J0.
X-2.7999 I-0.1366 J0.
X-2.4268 I0.1866 J0.
X-2.8999 I-0.2366 J0.
X-2.3268 I0.2866 J0.
X-2.9999 I-0.3366 J0.
X-2.2268 I0.3866 J0.
X-3.0999 I-0.4366 J0.
X-2.1268 I0.4866 J0.
X-3.1999 I-0.5366 J0.
X-2.1268 I0.5366 J0.
X-2.1817 Y19.0952 Z-0.1601 I-0.045 J0. F55.
G1 X-2.5719 Y19.0074 Z-0.2599
G2 X-2.6268 Y19.0513 Z-0.28 I-0.0099 J0.0439
G3 X-2.6999 I-0.0366 J0. F60.
X-2.5268 I0.0866 J0.
X-2.7999 I-0.1366 J0.
X-2.4268 I0.1866 J0.
X-2.8999 I-0.2366 J0.
X-2.3268 I0.2866 J0.
X-2.9999 I-0.3366 J0.
X-2.2268 I0.3866 J0.
X-3.0999 I-0.4366 J0.
X-2.1268 I0.4866 J0.
X-3.1999 I-0.5366 J0.
X-2.1168 I0.5416 J0.
X-3.2099 I-0.5466 J0.
X-2.1168 I0.5466 J0.
X-2.1179 Y19.0571 Z-0.2788 I-0.0155 J0.
X-2.1205 Y19.0614 Z-0.2754 I-0.0144 J-0.0058
X-2.123 Y19.0637 Z-0.2704 I-0.0118 J-0.0101
X-2.1239 Y19.0643 Z-0.2645 I-0.0094 J-0.0124
G0 Z0.4
X-4.6028 Y19.1923
Z0.2
G1 Z0.115 F13.333
G3 X-4.6014 Y19.1927 Z0.1084 I-0.0116 J0.0435 F55.
X-4.5976 Y19.1941 Z0.1031 I-0.013 J0.0431
X-4.5922 Y19.1967 Z0.1 I-0.0168 J0.0417
X-4.6366 Y19.275 Z0.0621 I-0.0222 J0.0391
X-4.5922 Y19.1967 Z0.0242 I0.0222 J-0.0391
X-4.6366 Y19.275 Z-0.0136 I-0.0222 J0.0391
X-4.5922 Y19.1967 Z-0.0515 I0.0222 J-0.0391
X-4.6366 Y19.275 Z-0.0894 I-0.0222 J0.0391
X-4.5922 Y19.1967 Z-0.1273 I0.0222 J-0.0391
X-4.5694 Y19.2358 Z-0.14 I-0.0222 J0.0391
X-4.6425 I-0.0366 J0. F60.
X-4.4694 I0.0866 J0.
X-4.7425 I-0.1366 J0.
X-4.3694 I0.1866 J0.
X-4.8425 I-0.2366 J0.
X-4.2694 I0.2866 J0.
X-4.9425 I-0.3366 J0.
X-4.1694 I0.3866 J0.
X-5.0425 I-0.4366 J0.
X-4.0694 I0.4866 J0.
X-5.1425 I-0.5366 J0.
X-4.0694 I0.5366 J0.
X-4.1243 Y19.2797 Z-0.1601 I-0.045 J0. F55.
G1 X-4.5145 Y19.1919 Z-0.2599
G2 X-4.5694 Y19.2358 Z-0.28 I-0.0099 J0.0439
G3 X-4.6425 I-0.0366 J0. F60.
X-4.4694 I0.0866 J0.
X-4.7425 I-0.1366 J0.
X-4.3694 I0.1866 J0.
X-4.8425 I-0.2366 J0.
X-4.2694 I0.2866 J0.
X-4.9425 I-0.3366 J0.
X-4.1694 I0.3866 J0.
X-5.0425 I-0.4366 J0.
X-4.0694 I0.4866 J0.
X-5.1425 I-0.5366 J0.
X-4.0594 I0.5416 J0.
X-5.1525 I-0.5466 J0.
X-4.0594 I0.5466 J0.
X-4.0605 Y19.2416 Z-0.2788 I-0.0155 J0.
X-4.0631 Y19.2459 Z-0.2754 I-0.0144 J-0.0058
X-4.0656 Y19.2482 Z-0.2704 I-0.0118 J-0.0101
X-4.0665 Y19.2489 Z-0.2645 I-0.0094 J-0.0124
G0 Z0.4
X-4.6356 Y17.7052
Z0.2
G1 Z0.115 F13.333
G3 X-4.6342 Y17.7056 Z0.1084 I-0.0116 J0.0435 F55.
X-4.6303 Y17.707 Z0.1031 I-0.013 J0.0431
X-4.6249 Y17.7096 Z0.1 I-0.0168 J0.0417
X-4.6095 Y17.7734 Z0.0803 I-0.0222 J0.0391
X-4.6741 Y17.7847 Z0.0606 I-0.0376 J-0.0247
X-4.6201 Y17.7127 Z0.0227 I0.027 J-0.036
X-4.6741 Y17.7847 Z-0.0152 I-0.027 J0.036
X-4.6201 Y17.7127 Z-0.0531 I0.027 J-0.036
X-4.6741 Y17.7847 Z-0.0909 I-0.027 J0.036
X-4.6201 Y17.7127 Z-0.1288 I0.027 J-0.036
X-4.6021 Y17.7487 Z-0.14 I-0.027 J0.036
X-4.6753 I-0.0366 J0. F60.
X-4.5021 I0.0866 J0.
X-4.7753 I-0.1366 J0.
X-4.4021 I0.1866 J0.
X-4.8753 I-0.2366 J0.
X-4.3021 I0.2866 J0.
X-4.9753 I-0.3366 J0.
X-4.2021 I0.3866 J0.
X-5.0753 I-0.4366 J0.
X-4.1021 I0.4866 J0.
X-5.1753 I-0.5366 J0.
X-4.1021 I0.5366 J0.
X-4.157 Y17.7926 Z-0.1601 I-0.045 J0. F55.
G1 X-4.5473 Y17.7048 Z-0.2599
G2 X-4.6021 Y17.7487 Z-0.28 I-0.0099 J0.0439
G3 X-4.6753 I-0.0366 J0. F60.
X-4.5021 I0.0866 J0.
X-4.7753 I-0.1366 J0.
X-4.4021 I0.1866 J0.
X-4.8753 I-0.2366 J0.
X-4.3021 I0.2866 J0.
X-4.9753 I-0.3366 J0.
X-4.2021 I0.3866 J0.
X-5.0753 I-0.4366 J0.
X-4.1021 I0.4866 J0.
X-5.1753 I-0.5366 J0.
X-4.0921 I0.5416 J0.
X-5.1853 I-0.5466 J0.
X-4.0921 I0.5466 J0.
X-4.0933 Y17.7545 Z-0.2788 I-0.0155 J0.
X-4.0959 Y17.7588 Z-0.2754 I-0.0144 J-0.0058
X-4.0983 Y17.7611 Z-0.2704 I-0.0118 J-0.0101
X-4.0993 Y17.7618 Z-0.2645 I-0.0094 J-0.0124
G0 Z0.6
(2D SLOT CUT)
M7
G0 X-7.8143 Y9.0857
Z0.6
Z0.2
G1 Z0.1 F13.333
Y10.4468 Z-0.14 F40.
Y20.5617 F55.
G2 X-7.7528 Y20.6377 I0.0777 J0.
X10.3399 Y8.5073 I3.164 J-14.8387
X10.3411 Y8.4934 I-0.0765 J-0.0139
G1 Y0.
G2 X10.2634 Y-0.0777 I-0.0777 J0.
G1 X-7.7366
G2 X-7.8143 Y0. I0. J0.0777
G1 Y10.4468
Y13.7936 Z-0.28 F40.
Y17.052 F55.
Z-0.16
Y17.8074
Z-0.28 F13.333
Y20.5617 F55.
G2 X-7.7528 Y20.6377 I0.0777 J0.
X-1.1346 Y20.5729 I3.164 J-14.8387
G1 Z-0.16
G2 X-0.4035 Y20.3827 I-3.4541 J-14.7739
G1 Z-0.28 F13.333
G2 X5.3976 Y17.2214 I-4.1852 J-14.5836 F55.
G1 Z-0.16
G2 X5.9538 Y16.7102 I-9.9863 J-11.4224
G1 Z-0.28 F13.333
G2 X9.4627 Y11.5222 I-10.5425 J-10.9112 F55.
G1 Z-0.16
G2 X9.7301 Y10.8158 I-14.0514 J-5.7232
G1 Z-0.28 F13.333
G2 X10.3399 Y8.5073 I-14.3189 J-5.0167 F55.
X10.3411 Y8.4934 I-0.0765 J-0.0139
G1 Y5.2337
Z-0.16
Y4.4783
Z-0.28 F13.333
Y0. F55.
G2 X10.2634 Y-0.0777 I-0.0777 J0.
G1 X1.7962
Z-0.16
X1.0408
Z-0.28 F13.333
X-7.7366 F55.
G2 X-7.8143 Y0. I0. J0.0777
G1 Y2.1203
Z-0.16
Y2.8757
Z-0.28 F13.333
Y13.7936 F55.
G0 Z0.6
M9
G53 Z0.
M30
%
