%
(971-23-P-0034_CAPSTAN COVER PLATE_1537)
(T1  D=0.1537 CR=0. - ZMIN=-0.2075 - FLAT END MILL)
G90 G94 G17 G91.1
G64 P0.001 Q0.001
G20
G53 G0 Z0.
(.3 CIRCLUAR THROUGH HOLE)
M9
T1 M6
S22000 M3
G4 P10.
G54
M7
G0 X0.8572 Y-51.1942
G43 Z0.6 H1
G0 Z0.13
G1 Z0.0654 F40.
X0.8573 Y-51.1945 Z0.0624
X0.8577 Y-51.1953 Z0.0595
X0.8583 Y-51.1965 Z0.0568
X0.8592 Y-51.1983 Z0.0545
X0.8602 Y-51.2004 Z0.0526
X0.8613 Y-51.2028 Z0.0512
X0.8626 Y-51.2054 Z0.0503
X0.8639 Y-51.2081 Z0.05
X0.8672 Y-51.215
G3 X0.883 Y-51.2205 I0.0107 J0.0051
X0.8625 Y-51.1779 Z0. I-0.0103 J0.0213
X0.883 Y-51.2205 Z-0.05 I0.0103 J-0.0213
X0.8911 Y-51.1842 Z-0.0788 I-0.0103 J0.0213
X0.8544 Y-51.2141 Z-0.1287 I-0.0183 J-0.015
X0.8911 Y-51.1842 Z-0.1787 I0.0183 J0.015
X0.8539 Y-51.1849 Z-0.2075 I-0.0183 J-0.015
X0.8915 Y-51.2135 I0.0188 J-0.0143
X0.8539 Y-51.1849 I-0.0188 J0.0143
X0.8562 Y-51.2014 I0.0094 J-0.0072
G1 X0.8623 Y-51.2061
X0.8647 Y-51.2079 Z-0.2072
X0.867 Y-51.2097 Z-0.2063
X0.8691 Y-51.2113 Z-0.2049
X0.8709 Y-51.2127 Z-0.203
X0.8724 Y-51.2138 Z-0.2007
X0.8736 Y-51.2147 Z-0.198
X0.8743 Y-51.2152 Z-0.1951
X0.8745 Y-51.2154 Z-0.1921
G0 Z0.4
X0.7176 Y-51.5706
Z0.13
G1 Z0.0654 F40.
X0.7175 Y-51.5704 Z0.0624
X0.7171 Y-51.5696 Z0.0595
X0.7165 Y-51.5683 Z0.0568
X0.7156 Y-51.5666 Z0.0545
X0.7146 Y-51.5645 Z0.0526
X0.7135 Y-51.5621 Z0.0512
X0.7122 Y-51.5595 Z0.0503
X0.7109 Y-51.5568 Z0.05
X0.7076 Y-51.5499
G3 X0.6963 Y-51.5459 I-0.0076 J-0.0037
X0.711 Y-51.5764 Z0. I0.0073 J-0.0152
X0.7201 Y-51.5648 Z-0.0144 I-0.0073 J0.0152
X0.6872 Y-51.5575 Z-0.0644 I-0.0165 J0.0037
X0.6906 Y-51.5718 Z-0.0788 I0.0165 J-0.0037
X0.7167 Y-51.5505 Z-0.1287 I0.0131 J0.0107
X0.6906 Y-51.5718 Z-0.1787 I-0.0131 J-0.0107
X0.7171 Y-51.5714 Z-0.2075 I0.0131 J0.0107
X0.6902 Y-51.5509 I-0.0134 J0.0102
X0.7171 Y-51.5714 I0.0134 J-0.0102
X0.7155 Y-51.5595 I-0.0067 J0.0051
G1 X0.7094 Y-51.5549
X0.707 Y-51.5531 Z-0.2072
X0.7047 Y-51.5513 Z-0.2063
X0.7026 Y-51.5497 Z-0.2049
X0.7007 Y-51.5483 Z-0.203
X0.6992 Y-51.5471 Z-0.2007
X0.6981 Y-51.5463 Z-0.198
X0.6974 Y-51.5457 Z-0.1951
X0.6971 Y-51.5456 Z-0.1921
G0 Z0.4
X0.3729 Y-51.8015
Z0.13
G1 Z0.0654 F40.
X0.373 Y-51.8018 Z0.0624
X0.3734 Y-51.8026 Z0.0595
X0.374 Y-51.8039 Z0.0568
X0.3748 Y-51.8056 Z0.0545
X0.3758 Y-51.8077 Z0.0526
X0.377 Y-51.8101 Z0.0512
X0.3782 Y-51.8127 Z0.0503
X0.3795 Y-51.8154 Z0.05
X0.3829 Y-51.8223
G3 X0.3987 Y-51.8278 I0.0107 J0.0051
X0.3781 Y-51.7852 Z0. I-0.0103 J0.0213
X0.3653 Y-51.8014 Z-0.0144 I0.0103 J-0.0213
X0.4115 Y-51.8117 Z-0.0644 I0.0231 J-0.0051
X0.4067 Y-51.7916 Z-0.0788 I-0.0231 J0.0051
X0.3701 Y-51.8215 Z-0.1287 I-0.0183 J-0.015
X0.4067 Y-51.7916 Z-0.1787 I0.0183 J0.015
X0.3696 Y-51.7922 Z-0.2075 I-0.0183 J-0.015
X0.4072 Y-51.8209 I0.0188 J-0.0143
X0.3696 Y-51.7922 I-0.0188 J0.0143
X0.3718 Y-51.8088 I0.0094 J-0.0072
G1 X0.3779 Y-51.8134
X0.3803 Y-51.8152 Z-0.2072
X0.3826 Y-51.817 Z-0.2063
X0.3847 Y-51.8186 Z-0.2049
X0.3866 Y-51.82 Z-0.203
X0.3881 Y-51.8212 Z-0.2007
X0.3892 Y-51.822 Z-0.198
X0.3899 Y-51.8226 Z-0.1951
X0.3902 Y-51.8227 Z-0.1921
G0 Z0.4
X0.014 Y-51.9095
Z0.13
G1 Z0.0654 F40.
X0.0138 Y-51.9092 Z0.0624
X0.0134 Y-51.9084 Z0.0595
X0.0128 Y-51.9072 Z0.0568
X0.012 Y-51.9054 Z0.0545
X0.011 Y-51.9033 Z0.0526
X0.0098 Y-51.9009 Z0.0512
X0.0086 Y-51.8983 Z0.0503
X0.0073 Y-51.8956 Z0.05
X0.0039 Y-51.8887
G3 X-0.0073 Y-51.8848 I-0.0076 J-0.0037
X0.0073 Y-51.9152 Z0. I0.0073 J-0.0152
X0.0165 Y-51.9037 Z-0.0144 I-0.0073 J0.0152
X-0.0165 Y-51.8963 Z-0.0644 I-0.0165 J0.0037
X-0.0131 Y-51.9107 Z-0.0788 I0.0165 J-0.0037
X0.0131 Y-51.8893 Z-0.1287 I0.0131 J0.0107
X-0.0131 Y-51.9107 Z-0.1787 I-0.0131 J-0.0107
X0.0134 Y-51.9102 Z-0.2075 I0.0131 J0.0107
X-0.0134 Y-51.8898 I-0.0134 J0.0102
X0.0134 Y-51.9102 I0.0134 J-0.0102
X0.0118 Y-51.8984 I-0.0067 J0.0051
G1 X0.0057 Y-51.8937
X0.0033 Y-51.8919 Z-0.2072
X0.001 Y-51.8902 Z-0.2063
X-0.0011 Y-51.8886 Z-0.2049
X-0.0029 Y-51.8872 Z-0.203
X-0.0044 Y-51.886 Z-0.2007
X-0.0056 Y-51.8851 Z-0.198
X-0.0063 Y-51.8846 Z-0.1951
X-0.0065 Y-51.8844 Z-0.1921
G0 Z0.4
X-0.4039 Y-51.8015
Z0.13
G1 Z0.0654 F40.
X-0.4038 Y-51.8018 Z0.0624
X-0.4034 Y-51.8026 Z0.0595
X-0.4028 Y-51.8039 Z0.0568
X-0.402 Y-51.8056 Z0.0545
X-0.401 Y-51.8077 Z0.0526
X-0.3998 Y-51.8101 Z0.0512
X-0.3986 Y-51.8127 Z0.0503
X-0.3973 Y-51.8154 Z0.05
X-0.3939 Y-51.8223
G3 X-0.3781 Y-51.8278 I0.0107 J0.0051
X-0.3987 Y-51.7852 Z0. I-0.0103 J0.0213
X-0.4115 Y-51.8014 Z-0.0144 I0.0103 J-0.0213
X-0.3653 Y-51.8117 Z-0.0644 I0.0231 J-0.0051
X-0.3701 Y-51.7916 Z-0.0788 I-0.0231 J0.0051
X-0.4067 Y-51.8215 Z-0.1287 I-0.0183 J-0.015
X-0.3701 Y-51.7916 Z-0.1787 I0.0183 J0.015
X-0.4072 Y-51.7922 Z-0.2075 I-0.0183 J-0.015
X-0.3696 Y-51.8209 I0.0188 J-0.0143
X-0.4072 Y-51.7922 I-0.0188 J0.0143
X-0.405 Y-51.8088 I0.0094 J-0.0072
G1 X-0.3989 Y-51.8134
X-0.3965 Y-51.8152 Z-0.2072
X-0.3942 Y-51.817 Z-0.2063
X-0.3921 Y-51.8186 Z-0.2049
X-0.3902 Y-51.82 Z-0.203
X-0.3887 Y-51.8212 Z-0.2007
X-0.3876 Y-51.822 Z-0.198
X-0.3869 Y-51.8226 Z-0.1951
X-0.3866 Y-51.8227 Z-0.1921
G0 Z0.4
X-0.6897 Y-51.5706
Z0.13
G1 Z0.0654 F40.
X-0.6898 Y-51.5704 Z0.0624
X-0.6902 Y-51.5696 Z0.0595
X-0.6908 Y-51.5683 Z0.0568
X-0.6917 Y-51.5666 Z0.0545
X-0.6927 Y-51.5645 Z0.0526
X-0.6938 Y-51.5621 Z0.0512
X-0.6951 Y-51.5595 Z0.0503
X-0.6964 Y-51.5568 Z0.05
X-0.6997 Y-51.5499
G3 X-0.711 Y-51.5459 I-0.0076 J-0.0037
X-0.6963 Y-51.5764 Z0. I0.0073 J-0.0152
X-0.6872 Y-51.5648 Z-0.0144 I-0.0073 J0.0152
X-0.7201 Y-51.5575 Z-0.0644 I-0.0165 J0.0037
X-0.7167 Y-51.5718 Z-0.0788 I0.0165 J-0.0037
X-0.6906 Y-51.5505 Z-0.1287 I0.0131 J0.0107
X-0.7167 Y-51.5718 Z-0.1787 I-0.0131 J-0.0107
X-0.6902 Y-51.5714 Z-0.2075 I0.0131 J0.0107
X-0.7171 Y-51.5509 I-0.0134 J0.0102
X-0.6902 Y-51.5714 I0.0134 J-0.0102
X-0.6918 Y-51.5595 I-0.0067 J0.0051
G1 X-0.6979 Y-51.5549
X-0.7003 Y-51.5531 Z-0.2072
X-0.7026 Y-51.5513 Z-0.2063
X-0.7047 Y-51.5497 Z-0.2049
X-0.7066 Y-51.5483 Z-0.203
X-0.7081 Y-51.5471 Z-0.2007
X-0.7092 Y-51.5463 Z-0.198
X-0.7099 Y-51.5457 Z-0.1951
X-0.7101 Y-51.5456 Z-0.1921
G0 Z0.4
X-0.8883 Y-51.1942
Z0.13
G1 Z0.0654 F40.
X-0.8881 Y-51.1945 Z0.0624
X-0.8878 Y-51.1953 Z0.0595
X-0.8871 Y-51.1965 Z0.0568
X-0.8863 Y-51.1983 Z0.0545
X-0.8853 Y-51.2004 Z0.0526
X-0.8841 Y-51.2028 Z0.0512
X-0.8829 Y-51.2054 Z0.0503
X-0.8816 Y-51.2081 Z0.05
X-0.8783 Y-51.215
G3 X-0.8625 Y-51.2205 I0.0107 J0.0051
X-0.883 Y-51.1779 Z0. I-0.0103 J0.0213
X-0.8625 Y-51.2205 Z-0.05 I0.0103 J-0.0213
X-0.8544 Y-51.1842 Z-0.0788 I-0.0103 J0.0213
X-0.8911 Y-51.2141 Z-0.1287 I-0.0183 J-0.015
X-0.8544 Y-51.1842 Z-0.1787 I0.0183 J0.015
X-0.8915 Y-51.1849 Z-0.2075 I-0.0183 J-0.015
X-0.8539 Y-51.2135 I0.0188 J-0.0143
X-0.8915 Y-51.1849 I-0.0188 J0.0143
X-0.8893 Y-51.2014 I0.0094 J-0.0072
G1 X-0.8832 Y-51.2061
X-0.8808 Y-51.2079 Z-0.2072
X-0.8785 Y-51.2097 Z-0.2063
X-0.8764 Y-51.2113 Z-0.2049
X-0.8745 Y-51.2127 Z-0.203
X-0.873 Y-51.2138 Z-0.2007
X-0.8719 Y-51.2147 Z-0.198
X-0.8712 Y-51.2152 Z-0.1951
X-0.871 Y-51.2154 Z-0.1921
G0 Z0.4
X-0.8635 Y-50.8092
Z0.13
G1 Z0.0654 F40.
X-0.8636 Y-50.809 Z0.0624
X-0.864 Y-50.8082 Z0.0595
X-0.8646 Y-50.8069 Z0.0568
X-0.8654 Y-50.8052 Z0.0545
X-0.8664 Y-50.8031 Z0.0526
X-0.8676 Y-50.8007 Z0.0512
X-0.8689 Y-50.7981 Z0.0503
X-0.8702 Y-50.7954 Z0.05
X-0.8735 Y-50.7884
G3 X-0.8848 Y-50.7845 I-0.0076 J-0.0037
X-0.8701 Y-50.815 Z0. I0.0073 J-0.0152
X-0.8609 Y-50.8034 Z-0.0144 I-0.0073 J0.0152
X-0.8939 Y-50.7961 Z-0.0644 I-0.0165 J0.0037
X-0.8905 Y-50.8104 Z-0.0788 I0.0165 J-0.0037
X-0.8643 Y-50.7891 Z-0.1287 I0.0131 J0.0107
X-0.8905 Y-50.8104 Z-0.1787 I-0.0131 J-0.0107
X-0.864 Y-50.81 Z-0.2075 I0.0131 J0.0107
X-0.8909 Y-50.7895 I-0.0134 J0.0102
X-0.864 Y-50.81 I0.0134 J-0.0102
X-0.8656 Y-50.7981 I-0.0067 J0.0051
G1 X-0.8717 Y-50.7935
X-0.8741 Y-50.7917 Z-0.2072
X-0.8764 Y-50.7899 Z-0.2063
X-0.8785 Y-50.7883 Z-0.2049
X-0.8804 Y-50.7869 Z-0.203
X-0.8819 Y-50.7857 Z-0.2007
X-0.883 Y-50.7849 Z-0.198
X-0.8837 Y-50.7843 Z-0.1951
X-0.8839 Y-50.7842 Z-0.1921
G0 Z0.4
X-0.6844 Y-50.4469
Z0.13
G1 Z0.0654 F40.
X-0.6845 Y-50.4466 Z0.0624
X-0.6849 Y-50.4458 Z0.0595
X-0.6855 Y-50.4445 Z0.0568
X-0.6863 Y-50.4428 Z0.0545
X-0.6873 Y-50.4407 Z0.0526
X-0.6885 Y-50.4383 Z0.0512
X-0.6897 Y-50.4357 Z0.0503
X-0.691 Y-50.433 Z0.05
X-0.6944 Y-50.4261
G3 X-0.7101 Y-50.4206 I-0.0107 J-0.0051
X-0.6896 Y-50.4632 Z0. I0.0103 J-0.0213
X-0.6768 Y-50.447 Z-0.0144 I-0.0103 J0.0213
X-0.723 Y-50.4367 Z-0.0644 I-0.0231 J0.0051
X-0.7182 Y-50.4568 Z-0.0788 I0.0231 J-0.0051
X-0.6816 Y-50.4269 Z-0.1287 I0.0183 J0.015
X-0.7182 Y-50.4568 Z-0.1787 I-0.0183 J-0.015
X-0.6811 Y-50.4562 Z-0.2075 I0.0183 J0.015
X-0.7187 Y-50.4275 I-0.0188 J0.0143
X-0.6811 Y-50.4562 I0.0188 J-0.0143
X-0.6833 Y-50.4396 I-0.0094 J0.0072
G1 X-0.6894 Y-50.435
X-0.6918 Y-50.4331 Z-0.2072
X-0.6941 Y-50.4314 Z-0.2063
X-0.6962 Y-50.4298 Z-0.2049
X-0.6981 Y-50.4284 Z-0.203
X-0.6996 Y-50.4272 Z-0.2007
X-0.7007 Y-50.4264 Z-0.198
X-0.7014 Y-50.4258 Z-0.1951
X-0.7016 Y-50.4257 Z-0.1921
G0 Z0.4
X-0.4044 Y-50.1796
Z0.13
G1 Z0.0654 F40.
X-0.4043 Y-50.1799 Z0.0624
X-0.4039 Y-50.1807 Z0.0595
X-0.4033 Y-50.182 Z0.0568
X-0.4025 Y-50.1837 Z0.0545
X-0.4015 Y-50.1858 Z0.0526
X-0.4003 Y-50.1882 Z0.0512
X-0.3991 Y-50.1908 Z0.0503
X-0.3978 Y-50.1935 Z0.05
X-0.3944 Y-50.2004
G3 X-0.3832 Y-50.2044 I0.0076 J0.0037
X-0.3978 Y-50.1739 Z0. I-0.0073 J0.0152
X-0.407 Y-50.1855 Z-0.0144 I0.0073 J-0.0152
X-0.374 Y-50.1928 Z-0.0644 I0.0165 J-0.0037
X-0.3774 Y-50.1784 Z-0.0788 I-0.0165 J0.0037
X-0.4036 Y-50.1998 Z-0.1287 I-0.0131 J-0.0107
X-0.3774 Y-50.1784 Z-0.1787 I0.0131 J0.0107
X-0.4039 Y-50.1789 Z-0.2075 I-0.0131 J-0.0107
X-0.377 Y-50.1994 I0.0134 J-0.0102
X-0.4039 Y-50.1789 I-0.0134 J0.0102
X-0.4023 Y-50.1907 I0.0067 J-0.0051
G1 X-0.3962 Y-50.1954
X-0.3938 Y-50.1972 Z-0.2072
X-0.3915 Y-50.199 Z-0.2063
X-0.3894 Y-50.2006 Z-0.2049
X-0.3876 Y-50.202 Z-0.203
X-0.3861 Y-50.2031 Z-0.2007
X-0.3849 Y-50.204 Z-0.198
X-0.3842 Y-50.2045 Z-0.1951
X-0.384 Y-50.2047 Z-0.1921
G0 Z0.4
X-0.0155 Y-50.0998
Z0.13
G1 Z0.0654 F40.
X-0.0154 Y-50.1001 Z0.0624
X-0.015 Y-50.1009 Z0.0595
X-0.0144 Y-50.1022 Z0.0568
X-0.0136 Y-50.1039 Z0.0545
X-0.0126 Y-50.106 Z0.0526
X-0.0114 Y-50.1084 Z0.0512
X-0.0102 Y-50.111 Z0.0503
X-0.0089 Y-50.1137 Z0.05
X-0.0055 Y-50.1206
G3 X0.0103 Y-50.1261 I0.0107 J0.0051
X-0.0103 Y-50.0835 Z0. I-0.0103 J0.0213
X-0.0231 Y-50.0997 Z-0.0144 I0.0103 J-0.0213
X0.0231 Y-50.11 Z-0.0644 I0.0231 J-0.0051
X0.0183 Y-50.0899 Z-0.0788 I-0.0231 J0.0051
X-0.0183 Y-50.1198 Z-0.1287 I-0.0183 J-0.015
X0.0183 Y-50.0899 Z-0.1787 I0.0183 J0.015
X-0.0188 Y-50.0905 Z-0.2075 I-0.0183 J-0.015
X0.0188 Y-50.1191 I0.0188 J-0.0143
X-0.0188 Y-50.0905 I-0.0188 J0.0143
X-0.0166 Y-50.1071 I0.0094 J-0.0072
G1 X-0.0105 Y-50.1117
X-0.0081 Y-50.1135 Z-0.2072
X-0.0058 Y-50.1153 Z-0.2063
X-0.0037 Y-50.1169 Z-0.2049
X-0.0018 Y-50.1183 Z-0.203
X-0.0003 Y-50.1195 Z-0.2007
X0.0008 Y-50.1203 Z-0.198
X0.0015 Y-50.1209 Z-0.1951
X0.0018 Y-50.121 Z-0.1921
G0 Z0.4
X0.3765 Y-50.1796
Z0.13
G1 Z0.0654 F40.
X0.3767 Y-50.1799 Z0.0624
X0.3771 Y-50.1807 Z0.0595
X0.3777 Y-50.182 Z0.0568
X0.3785 Y-50.1837 Z0.0545
X0.3795 Y-50.1858 Z0.0526
X0.3807 Y-50.1882 Z0.0512
X0.3819 Y-50.1908 Z0.0503
X0.3832 Y-50.1935 Z0.05
X0.3865 Y-50.2004
G3 X0.3978 Y-50.2044 I0.0076 J0.0037
X0.3832 Y-50.1739 Z0. I-0.0073 J0.0152
X0.374 Y-50.1855 Z-0.0144 I0.0073 J-0.0152
X0.407 Y-50.1928 Z-0.0644 I0.0165 J-0.0037
X0.4036 Y-50.1784 Z-0.0788 I-0.0165 J0.0037
X0.3774 Y-50.1998 Z-0.1287 I-0.0131 J-0.0107
X0.4036 Y-50.1784 Z-0.1787 I0.0131 J0.0107
X0.377 Y-50.1789 Z-0.2075 I-0.0131 J-0.0107
X0.4039 Y-50.1994 I0.0134 J-0.0102
X0.377 Y-50.1789 I-0.0134 J0.0102
X0.3787 Y-50.1907 I0.0067 J-0.0051
G1 X0.3848 Y-50.1954
X0.3872 Y-50.1972 Z-0.2072
X0.3894 Y-50.199 Z-0.2063
X0.3916 Y-50.2006 Z-0.2049
X0.3934 Y-50.202 Z-0.203
X0.3949 Y-50.2031 Z-0.2007
X0.3961 Y-50.204 Z-0.198
X0.3968 Y-50.2045 Z-0.1951
X0.397 Y-50.2047 Z-0.1921
G0 Z0.4
X0.7154 Y-50.4469
Z0.13
G1 Z0.0654 F40.
X0.7153 Y-50.4466 Z0.0624
X0.7149 Y-50.4458 Z0.0595
X0.7143 Y-50.4445 Z0.0568
X0.7135 Y-50.4428 Z0.0545
X0.7124 Y-50.4407 Z0.0526
X0.7113 Y-50.4383 Z0.0512
X0.71 Y-50.4357 Z0.0503
X0.7087 Y-50.433 Z0.05
X0.7054 Y-50.4261
G3 X0.6896 Y-50.4206 I-0.0107 J-0.0051
X0.7101 Y-50.4632 Z0. I0.0103 J-0.0213
X0.723 Y-50.447 Z-0.0144 I-0.0103 J0.0213
X0.6768 Y-50.4367 Z-0.0644 I-0.0231 J0.0051
X0.6816 Y-50.4568 Z-0.0788 I0.0231 J-0.0051
X0.7182 Y-50.4269 Z-0.1287 I0.0183 J0.015
X0.6816 Y-50.4568 Z-0.1787 I-0.0183 J-0.015
X0.7187 Y-50.4562 Z-0.2075 I0.0183 J0.015
X0.6811 Y-50.4275 I-0.0188 J0.0143
X0.7187 Y-50.4562 I0.0188 J-0.0143
X0.7164 Y-50.4396 I-0.0094 J0.0072
G1 X0.7103 Y-50.435
X0.7079 Y-50.4331 Z-0.2072
X0.7057 Y-50.4314 Z-0.2063
X0.7035 Y-50.4298 Z-0.2049
X0.7017 Y-50.4284 Z-0.203
X0.7002 Y-50.4272 Z-0.2007
X0.699 Y-50.4264 Z-0.198
X0.6983 Y-50.4258 Z-0.1951
X0.6981 Y-50.4257 Z-0.1921
G0 Z0.4
X0.8914 Y-50.8092
Z0.13
G1 Z0.0654 F40.
X0.8913 Y-50.809 Z0.0624
X0.8909 Y-50.8082 Z0.0595
X0.8903 Y-50.8069 Z0.0568
X0.8894 Y-50.8052 Z0.0545
X0.8884 Y-50.8031 Z0.0526
X0.8873 Y-50.8007 Z0.0512
X0.886 Y-50.7981 Z0.0503
X0.8847 Y-50.7954 Z0.05
X0.8814 Y-50.7884
G3 X0.8701 Y-50.7845 I-0.0076 J-0.0037
X0.8848 Y-50.815 Z0. I0.0073 J-0.0152
X0.8939 Y-50.8034 Z-0.0144 I-0.0073 J0.0152
X0.8609 Y-50.7961 Z-0.0644 I-0.0165 J0.0037
X0.8643 Y-50.8104 Z-0.0788 I0.0165 J-0.0037
X0.8905 Y-50.7891 Z-0.1287 I0.0131 J0.0107
X0.8643 Y-50.8104 Z-0.1787 I-0.0131 J-0.0107
X0.8909 Y-50.81 Z-0.2075 I0.0131 J0.0107
X0.864 Y-50.7895 I-0.0134 J0.0102
X0.8909 Y-50.81 I0.0134 J-0.0102
X0.8893 Y-50.7981 I-0.0067 J0.0051
G1 X0.8832 Y-50.7935
X0.8808 Y-50.7917 Z-0.2072
X0.8785 Y-50.7899 Z-0.2063
X0.8764 Y-50.7883 Z-0.2049
X0.8745 Y-50.7869 Z-0.203
X0.873 Y-50.7857 Z-0.2007
X0.8719 Y-50.7849 Z-0.198
X0.8712 Y-50.7843 Z-0.1951
X0.8709 Y-50.7842 Z-0.1921
G0 Z0.4
X-3.6191 Y-50.018
Z0.1146
G1 Z0.05 F40.
X-3.6205 Y-50.0193
G3 X-3.6191 Y-50.0206 I0.0013 J0.
Y-50.0153 Z0. I0. J0.0026
X-3.6212 Y-50.0163 Z-0.0144 I0. J-0.0027
X-3.6171 Y-50.0196 Z-0.0644 I0.0021 J-0.0016
X-3.6166 Y-50.0173 Z-0.0788 I-0.0021 J0.0016
X-3.6217 Y-50.0186 Z-0.1288 I-0.0026 J-0.0006
X-3.6202 Y-50.0204 Z-0.1431 I0.0026 J0.0006
X-3.618 Y-50.0156 Z-0.1931 I0.0011 J0.0024
X-3.6203 Z-0.2075 I-0.0011 J-0.0024
X-3.6179 Y-50.0203 I0.0012 J-0.0024
X-3.6203 Y-50.0156 I-0.0012 J0.0024
X-3.6209 Y-50.0174 I0.0006 J-0.0012
G1 X-3.6191 Y-50.018
G0 Z0.4
X-3.6536 Y-50.6938
Z0.13
G1 Z0.0654 F40.
G19 G2 Y-50.7092 Z0.05 J-0.0154 K0.
G1 Y-50.7169
G17 G3 X-3.6451 Y-50.7253 I0.0085 J0.
Y-50.6915 Z0. I0. J0.0169
Y-50.7253 Z-0.05 I0. J-0.0169
X-3.6287 Y-50.7045 Z-0.0788 I0. J0.0169
X-3.6616 Y-50.7124 Z-0.1287 I-0.0164 J-0.0039
X-3.6522 Y-50.7238 Z-0.1431 I0.0164 J0.0039
X-3.6381 Y-50.6931 Z-0.1931 I0.0071 J0.0154
X-3.6528 Y-50.6934 Z-0.2075 I-0.0071 J-0.0153
X-3.6375 Y-50.7235 I0.0077 J-0.0151
X-3.6528 Y-50.6934 I-0.0077 J0.0151
X-3.6565 Y-50.7047 I0.0038 J-0.0075
G1 X-3.653 Y-50.7116
X-3.6517 Y-50.7143 Z-0.2072
X-3.6504 Y-50.7168 Z-0.2063
X-3.6491 Y-50.7192 Z-0.2049
X-3.6481 Y-50.7213 Z-0.203
X-3.6472 Y-50.723 Z-0.2007
X-3.6466 Y-50.7242 Z-0.198
X-3.6462 Y-50.725 Z-0.1951
X-3.646 Y-50.7253 Z-0.1921
G0 Z0.4
X-3.7894 Y-51.3659
Z0.13
G1 Z0.0654 F40.
G19 G2 Y-51.3812 Z0.05 J-0.0154 K0.
G1 Y-51.3889
G17 G3 X-3.7809 Y-51.3974 I0.0085 J0.
Y-51.3636 Z0. I0. J0.0169
Y-51.3974 Z-0.05 I0. J-0.0169
X-3.7645 Y-51.3765 Z-0.0788 I0. J0.0169
X-3.7973 Y-51.3844 Z-0.1287 I-0.0164 J-0.0039
X-3.788 Y-51.3958 Z-0.1431 I0.0164 J0.0039
X-3.7738 Y-51.3651 Z-0.1931 I0.0071 J0.0154
X-3.7886 Y-51.3654 Z-0.2075 I-0.0071 J-0.0153
X-3.7732 Y-51.3955 I0.0077 J-0.0151
X-3.7886 Y-51.3654 I-0.0077 J0.0151
X-3.7923 Y-51.3768 I0.0038 J-0.0075
G1 X-3.7888 Y-51.3836
X-3.7874 Y-51.3863 Z-0.2072
X-3.7861 Y-51.3889 Z-0.2063
X-3.7849 Y-51.3912 Z-0.2049
X-3.7838 Y-51.3933 Z-0.203
X-3.783 Y-51.395 Z-0.2007
X-3.7823 Y-51.3963 Z-0.198
X-3.7819 Y-51.3971 Z-0.1951
X-3.7818 Y-51.3973 Z-0.1921
G0 Z0.4
X-3.5325 Y-52.2587
Z0.1146
G1 Z0.05 F40.
X-3.5338 Y-52.26
G3 X-3.5325 Y-52.2613 I0.0013 J0.
Y-52.256 Z0. I0. J0.0026
X-3.5345 Y-52.257 Z-0.0144 I0. J-0.0026
X-3.5304 Y-52.2603 Z-0.0644 I0.0021 J-0.0016
X-3.5299 Y-52.258 Z-0.0788 I-0.0021 J0.0016
X-3.535 Y-52.2593 Z-0.1288 I-0.0026 J-0.0006
X-3.5336 Y-52.2611 Z-0.1431 I0.0026 J0.0006
X-3.5314 Y-52.2563 Z-0.1931 I0.0011 J0.0024
X-3.5337 Z-0.2075 I-0.0011 J-0.0024
X-3.5313 Y-52.261 I0.0012 J-0.0024
X-3.5337 Y-52.2563 I-0.0012 J0.0024
X-3.5342 Y-52.2581 I0.0006 J-0.0012
G1 X-3.5325 Y-52.2587
G0 Z0.4
X-2.7485 Y-53.7254
Z0.13
G1 Z0.0654 F40.
G19 G2 Y-53.7408 Z0.05 J-0.0154 K0.
G1 Y-53.7485
G17 G3 X-2.74 Y-53.7569 I0.0085 J0.
Y-53.7231 Z0. I0. J0.0169
Y-53.7569 Z-0.05 I0. J-0.0169
X-2.7236 Y-53.7361 Z-0.0788 I0. J0.0169
X-2.7565 Y-53.744 Z-0.1287 I-0.0164 J-0.0039
X-2.7471 Y-53.7554 Z-0.1431 I0.0164 J0.0039
X-2.733 Y-53.7247 Z-0.1931 I0.0071 J0.0154
X-2.7477 Y-53.725 Z-0.2075 I-0.0071 J-0.0153
X-2.7324 Y-53.7551 I0.0077 J-0.0151
X-2.7477 Y-53.725 I-0.0077 J0.0151
X-2.7514 Y-53.7363 I0.0038 J-0.0075
G1 X-2.7479 Y-53.7432
X-2.7466 Y-53.7459 Z-0.2072
X-2.7452 Y-53.7484 Z-0.2063
X-2.744 Y-53.7508 Z-0.2049
X-2.743 Y-53.7529 Z-0.203
X-2.7421 Y-53.7546 Z-0.2007
X-2.7415 Y-53.7558 Z-0.198
X-2.7411 Y-53.7566 Z-0.1951
X-2.7409 Y-53.7569 Z-0.1921
G0 Z0.4
X-1.4727 Y-54.4487
Z0.1146
G1 Z0.05 F40.
X-1.4741 Y-54.45
G3 X-1.4727 Y-54.4514 I0.0013 J0.
Y-54.4461 Z0. I0. J0.0026
X-1.4748 Y-54.4471 Z-0.0144 I0. J-0.0027
X-1.4706 Y-54.4504 Z-0.0644 I0.0021 J-0.0016
X-1.4701 Y-54.4481 Z-0.0788 I-0.0021 J0.0016
X-1.4753 Y-54.4493 Z-0.1288 I-0.0026 J-0.0006
X-1.4738 Y-54.4511 Z-0.1431 I0.0026 J0.0006
X-1.4716 Y-54.4463 Z-0.1931 I0.0011 J0.0024
X-1.4739 Z-0.2075 I-0.0011 J-0.0024
X-1.4715 Y-54.4511 I0.0012 J-0.0024
X-1.4739 Y-54.4463 I-0.0012 J0.0024
X-1.4745 Y-54.4481 I0.0006 J-0.0012
G1 X-1.4727 Y-54.4487
G0 Z0.4
X-0.0084 Y-54.8604
Z0.13
G1 Z0.0654 F40.
G19 G2 Y-54.8758 Z0.05 J-0.0154 K0.
G1 Y-54.8835
G17 G3 X0. Y-54.8919 I0.0084 J0.
Y-54.8581 Z0. I0. J0.0169
Y-54.8919 Z-0.05 I0. J-0.0169
Y-54.8581 Z-0.1 I0. J0.0169
X-0.0071 Y-54.8903 Z-0.1431 I0. J-0.0169
X0.0071 Y-54.8597 Z-0.1931 I0.0071 J0.0154
X-0.0077 Y-54.8599 Z-0.2075 I-0.0071 J-0.0153
X0.0077 Y-54.8901 I0.0077 J-0.0151
X-0.0077 Y-54.8599 I-0.0077 J0.0151
X-0.0114 Y-54.8713 I0.0038 J-0.0075
G1 X-0.0079 Y-54.8782
X-0.0065 Y-54.8808 Z-0.2072
X-0.0052 Y-54.8834 Z-0.2063
X-0.004 Y-54.8858 Z-0.2049
X-0.0029 Y-54.8878 Z-0.203
X-0.0021 Y-54.8895 Z-0.2007
X-0.0014 Y-54.8908 Z-0.198
X-0.001 Y-54.8916 Z-0.1951
X-0.0009 Y-54.8918 Z-0.1921
G0 Z0.4
X1.4727 Y-54.4487
Z0.1146
G1 Z0.05 F40.
X1.4714 Y-54.45
G3 X1.4727 Y-54.4514 I0.0013 J0.
Y-54.4461 Z0. I0. J0.0026
X1.4706 Y-54.4471 Z-0.0144 I0. J-0.0027
X1.4748 Y-54.4504 Z-0.0644 I0.0021 J-0.0016
X1.4753 Y-54.4481 Z-0.0788 I-0.0021 J0.0016
X1.4702 Y-54.4493 Z-0.1288 I-0.0026 J-0.0006
X1.4716 Y-54.4511 Z-0.1431 I0.0026 J0.0006
X1.4738 Y-54.4463 Z-0.1931 I0.0011 J0.0024
X1.4715 Z-0.2075 I-0.0011 J-0.0024
X1.4739 Y-54.4511 I0.0012 J-0.0024
X1.4715 Y-54.4463 I-0.0012 J0.0024
X1.4709 Y-54.4481 I0.0006 J-0.0012
G1 X1.4727 Y-54.4487
G0 Z0.4
X2.7316 Y-53.7254
Z0.13
G1 Z0.0654 F40.
G19 G2 Y-53.7408 Z0.05 J-0.0154 K0.
G1 Y-53.7485
G17 G3 X2.74 Y-53.7569 I0.0085 J0.
Y-53.7231 Z0. I0. J0.0169
Y-53.7569 Z-0.05 I0. J-0.0169
X2.7565 Y-53.7361 Z-0.0788 I0. J0.0169
X2.7236 Y-53.744 Z-0.1287 I-0.0164 J-0.0039
X2.733 Y-53.7554 Z-0.1431 I0.0164 J0.0039
X2.7471 Y-53.7247 Z-0.1931 I0.0071 J0.0154
X2.7324 Y-53.725 Z-0.2075 I-0.0071 J-0.0153
X2.7477 Y-53.7551 I0.0077 J-0.0151
X2.7324 Y-53.725 I-0.0077 J0.0151
X2.7287 Y-53.7363 I0.0038 J-0.0075
G1 X2.7322 Y-53.7432
X2.7335 Y-53.7459 Z-0.2072
X2.7348 Y-53.7484 Z-0.2063
X2.736 Y-53.7508 Z-0.2049
X2.7371 Y-53.7529 Z-0.203
X2.738 Y-53.7546 Z-0.2007
X2.7386 Y-53.7558 Z-0.198
X2.739 Y-53.7566 Z-0.1951
X2.7391 Y-53.7569 Z-0.1921
G0 Z0.4
X3.5325 Y-52.2587
Z0.1146
G1 Z0.05 F40.
X3.5311 Y-52.26
G3 X3.5325 Y-52.2613 I0.0013 J0.
Y-52.256 Z0. I0. J0.0026
X3.5304 Y-52.257 Z-0.0144 I0. J-0.0026
X3.5345 Y-52.2603 Z-0.0644 I0.0021 J-0.0016
X3.535 Y-52.258 Z-0.0788 I-0.0021 J0.0016
X3.5299 Y-52.2593 Z-0.1288 I-0.0026 J-0.0006
X3.5314 Y-52.2611 Z-0.1431 I0.0026 J0.0006
X3.5336 Y-52.2563 Z-0.1931 I0.0011 J0.0024
X3.5313 Z-0.2075 I-0.0011 J-0.0024
X3.5337 Y-52.261 I0.0012 J-0.0024
X3.5313 Y-52.2563 I-0.0012 J0.0024
X3.5307 Y-52.2581 I0.0006 J-0.0012
G1 X3.5325 Y-52.2587
G0 Z0.4
X3.7725 Y-51.3659
Z0.13
G1 Z0.0654 F40.
G19 G2 Y-51.3812 Z0.05 J-0.0154 K0.
G1 Y-51.3889
G17 G3 X3.7809 Y-51.3974 I0.0085 J0.
Y-51.3636 Z0. I0. J0.0169
Y-51.3974 Z-0.05 I0. J-0.0169
Y-51.3636 Z-0.1 I0. J0.0169
X3.7738 Y-51.3958 Z-0.1431 I0. J-0.0169
X3.788 Y-51.3651 Z-0.1931 I0.0071 J0.0154
X3.7732 Y-51.3654 Z-0.2075 I-0.0071 J-0.0153
X3.7886 Y-51.3955 I0.0077 J-0.0151
X3.7732 Y-51.3654 I-0.0077 J0.0151
X3.7695 Y-51.3768 I0.0038 J-0.0075
G1 X3.773 Y-51.3836
X3.7744 Y-51.3863 Z-0.2072
X3.7757 Y-51.3889 Z-0.2063
X3.7769 Y-51.3912 Z-0.2049
X3.778 Y-51.3933 Z-0.203
X3.7788 Y-51.395 Z-0.2007
X3.7795 Y-51.3963 Z-0.198
X3.7799 Y-51.3971 Z-0.1951
X3.78 Y-51.3973 Z-0.1921
G0 Z0.4
X3.6367 Y-50.6938
Z0.13
G1 Z0.0654 F40.
G19 G2 Y-50.7092 Z0.05 J-0.0154 K0.
G1 Y-50.7169
G17 G3 X3.6451 Y-50.7253 I0.0085 J0.
Y-50.6915 Z0. I0. J0.0169
Y-50.7253 Z-0.05 I0. J-0.0169
Y-50.6915 Z-0.1 I0. J0.0169
X3.6381 Y-50.7238 Z-0.1431 I0. J-0.0169
X3.6522 Y-50.6931 Z-0.1931 I0.0071 J0.0154
X3.6375 Y-50.6934 Z-0.2075 I-0.0071 J-0.0153
X3.6528 Y-50.7235 I0.0077 J-0.0151
X3.6375 Y-50.6934 I-0.0077 J0.0151
X3.6338 Y-50.7047 I0.0038 J-0.0075
G1 X3.6373 Y-50.7116
X3.6386 Y-50.7143 Z-0.2072
X3.6399 Y-50.7168 Z-0.2063
X3.6412 Y-50.7192 Z-0.2049
X3.6422 Y-50.7213 Z-0.203
X3.6431 Y-50.723 Z-0.2007
X3.6437 Y-50.7242 Z-0.198
X3.6441 Y-50.725 Z-0.1951
X3.6443 Y-50.7253 Z-0.1921
G0 Z0.4
X3.6191 Y-50.018
Z0.1146
G1 Z0.05 F40.
X3.6178 Y-50.0193
G3 X3.6191 Y-50.0206 I0.0013 J0.
Y-50.0153 Z0. I0. J0.0026
X3.6171 Y-50.0163 Z-0.0144 I0. J-0.0027
X3.6212 Y-50.0196 Z-0.0644 I0.0021 J-0.0016
X3.6217 Y-50.0173 Z-0.0788 I-0.0021 J0.0016
X3.6166 Y-50.0186 Z-0.1288 I-0.0026 J-0.0006
X3.618 Y-50.0204 Z-0.1431 I0.0026 J0.0006
X3.6202 Y-50.0156 Z-0.1931 I0.0011 J0.0024
X3.6179 Z-0.2075 I-0.0011 J-0.0024
X3.6203 Y-50.0203 I0.0012 J-0.0024
X3.6179 Y-50.0156 I-0.0012 J0.0024
X3.6173 Y-50.0174 I0.0006 J-0.0012
G1 X3.6191 Y-50.018
G0 Z0.4
X2.7316 Y-48.2454
Z0.13
G1 Z0.0654 F40.
G19 G2 Y-48.2607 Z0.05 J-0.0154 K0.
G1 Y-48.2684
G17 G3 X2.74 Y-48.2769 I0.0085 J0.
Y-48.2431 Z0. I0. J0.0169
Y-48.2769 Z-0.05 I0. J-0.0169
X2.7565 Y-48.256 Z-0.0788 I0. J0.0169
X2.7236 Y-48.2639 Z-0.1287 I-0.0164 J-0.0039
X2.733 Y-48.2753 Z-0.1431 I0.0164 J0.0039
X2.7471 Y-48.2446 Z-0.1931 I0.0071 J0.0154
X2.7324 Y-48.2449 Z-0.2075 I-0.0071 J-0.0153
X2.7477 Y-48.275 I0.0077 J-0.0151
X2.7324 Y-48.2449 I-0.0077 J0.0151
X2.7287 Y-48.2563 I0.0038 J-0.0075
G1 X2.7322 Y-48.2631
X2.7335 Y-48.2658 Z-0.2072
X2.7348 Y-48.2684 Z-0.2063
X2.736 Y-48.2707 Z-0.2049
X2.7371 Y-48.2728 Z-0.203
X2.738 Y-48.2745 Z-0.2007
X2.7386 Y-48.2758 Z-0.198
X2.739 Y-48.2765 Z-0.1951
X2.7391 Y-48.2768 Z-0.1921
G0 Z0.4
X1.557 Y-47.5885
Z0.1146
G1 Z0.05 F40.
X1.5556 Y-47.5898
G3 X1.557 Y-47.5911 I0.0013 J0.
Y-47.5858 Z0. I0. J0.0026
X1.5549 Y-47.5869 Z-0.0144 I0. J-0.0026
X1.559 Y-47.5901 Z-0.0644 I0.0021 J-0.0016
X1.5595 Y-47.5879 Z-0.0788 I-0.0021 J0.0016
X1.5544 Y-47.5891 Z-0.1288 I-0.0026 J-0.0006
X1.5559 Y-47.5909 Z-0.1431 I0.0026 J0.0006
X1.5581 Y-47.5861 Z-0.1931 I0.0011 J0.0024
X1.5558 Z-0.2075 I-0.0011 J-0.0024
X1.5582 Y-47.5909 I0.0012 J-0.0024
X1.5558 Y-47.5861 I-0.0012 J0.0024
X1.5552 Y-47.5879 I0.0006 J-0.0012
G1 X1.557 Y-47.5885
G0 Z0.4
X-0.0084 Y-47.1104
Z0.13
G1 Z0.0654 F40.
G19 G2 Y-47.1258 Z0.05 J-0.0154 K0.
G1 Y-47.1334
G17 G3 X0. Y-47.1419 I0.0084 J0.
Y-47.1081 Z0. I0. J0.0169
Y-47.1419 Z-0.05 I0. J-0.0169
Y-47.1081 Z-0.1 I0. J0.0169
X-0.0071 Y-47.1403 Z-0.1431 I0. J-0.0169
X0.0071 Y-47.1097 Z-0.1931 I0.0071 J0.0154
X-0.0077 Y-47.1099 Z-0.2075 I-0.0071 J-0.0153
X0.0077 Y-47.1401 I0.0077 J-0.0151
X-0.0077 Y-47.1099 I-0.0077 J0.0151
X-0.0114 Y-47.1213 I0.0038 J-0.0075
G1 X-0.0079 Y-47.1282
X-0.0065 Y-47.1308 Z-0.2072
X-0.0052 Y-47.1334 Z-0.2063
X-0.004 Y-47.1358 Z-0.2049
X-0.0029 Y-47.1378 Z-0.203
X-0.0021 Y-47.1395 Z-0.2007
X-0.0014 Y-47.1408 Z-0.198
X-0.001 Y-47.1416 Z-0.1951
X-0.0009 Y-47.1418 Z-0.1921
G0 Z0.4
X-1.557 Y-47.5885
Z0.1146
G1 Z0.05 F40.
X-1.5583 Y-47.5898
G3 X-1.557 Y-47.5911 I0.0013 J0.
Y-47.5858 Z0. I0. J0.0026
X-1.559 Y-47.5869 Z-0.0144 I0. J-0.0026
X-1.5549 Y-47.5901 Z-0.0644 I0.0021 J-0.0016
X-1.5544 Y-47.5879 Z-0.0788 I-0.0021 J0.0016
X-1.5595 Y-47.5891 Z-0.1288 I-0.0026 J-0.0006
X-1.5581 Y-47.5909 Z-0.1431 I0.0026 J0.0006
X-1.5559 Y-47.5861 Z-0.1931 I0.0011 J0.0024
X-1.5582 Z-0.2075 I-0.0011 J-0.0024
X-1.5558 Y-47.5909 I0.0012 J-0.0024
X-1.5582 Y-47.5861 I-0.0012 J0.0024
X-1.5587 Y-47.5879 I0.0006 J-0.0012
G1 X-1.557 Y-47.5885
G0 Z0.4
X-2.7485 Y-48.2454
Z0.13
G1 Z0.0654 F40.
G19 G2 Y-48.2607 Z0.05 J-0.0154 K0.
G1 Y-48.2684
G17 G3 X-2.74 Y-48.2769 I0.0085 J0.
Y-48.2431 Z0. I0. J0.0169
Y-48.2769 Z-0.05 I0. J-0.0169
X-2.7236 Y-48.256 Z-0.0788 I0. J0.0169
X-2.7565 Y-48.2639 Z-0.1287 I-0.0164 J-0.0039
X-2.7471 Y-48.2753 Z-0.1431 I0.0164 J0.0039
X-2.733 Y-48.2446 Z-0.1931 I0.0071 J0.0154
X-2.7477 Y-48.2449 Z-0.2075 I-0.0071 J-0.0153
X-2.7324 Y-48.275 I0.0077 J-0.0151
X-2.7477 Y-48.2449 I-0.0077 J0.0151
X-2.7514 Y-48.2563 I0.0038 J-0.0075
G1 X-2.7479 Y-48.2631
X-2.7466 Y-48.2658 Z-0.2072
X-2.7452 Y-48.2684 Z-0.2063
X-2.744 Y-48.2707 Z-0.2049
X-2.743 Y-48.2728 Z-0.203
X-2.7421 Y-48.2745 Z-0.2007
X-2.7415 Y-48.2758 Z-0.198
X-2.7411 Y-48.2765 Z-0.1951
X-2.7409 Y-48.2768 Z-0.1921
G0 Z0.6
(.3 CIRCULAR THROUGH HOLE)
M7
G0 X0.014 Y-51.0262
Z0.6
Z0.2
G1 Z0.1148 F13.333
G3 X0.0148 Y-51.025 Z0.1084 I-0.0366 J0.0262 F55.
X0.0169 Y-51.0215 Z0.1031 I-0.0374 J0.0251
X0.0194 Y-51.0162 Z0.1 I-0.0395 J0.0216
X0.0224 Y-50.9999 Z0.0955 I-0.042 J0.0163
X-0.0496 Y-50.9639 Z0.0688 I-0.045 J0.
Y-51.0359 Z0.0465 I0.027 J-0.036
X0.0044 Y-50.9639 Z0.0086 I0.027 J0.036
X-0.0496 Z-0.0069 I-0.027 J-0.036
Y-51.0359 Z-0.0293 I0.027 J-0.036
X0.0044 Y-50.9639 Z-0.0672 I0.027 J0.036
X-0.0496 Z-0.0827 I-0.027 J-0.036
Y-51.0359 Z-0.105 I0.027 J-0.036
X0.0044 Y-50.9639 Z-0.1429 I0.027 J0.036
X-0.0496 Z-0.1584 I-0.027 J-0.036
Y-51.0359 Z-0.1808 I0.027 J-0.036
X0.0224 Y-50.9999 Z-0.2075 I0.027 J0.036
X-0.0224 I-0.0224 J0. F60.
X0.1224 I0.0724 J0.
X-0.1224 I-0.1224 J0.
X0.2224 I0.1724 J0.
X-0.2224 I-0.2224 J0.
X0.3224 I0.2724 J0.
X-0.3224 I-0.3224 J0.
X0.4224 I0.3724 J0.
X-0.4224 I-0.4224 J0.
X0.5224 I0.4724 J0.
X-0.5224 I-0.5224 J0.
X0.5224 I0.5224 J0.
G2 X0.5672 Y-50.9292 I0.0782 J0.
G3 X0.6033 Y-50.8537 I-0.0283 J0.0599
X0.524 Y-50.6672 I-0.6033 J-0.1463
G1 X0.5067 Y-50.6412
X0.4854 Y-50.6129
X0.4624 Y-50.5858
X0.4411 Y-50.563
G3 X0.0661 Y-50.3829 I-0.4407 J-0.4371
G1 X0.0355 Y-50.3801
X0. Y-50.3794
X-0.0355 Y-50.3801
X-0.0661 Y-50.3829
G3 X-0.4411 Y-50.563 I0.0658 J-0.6173
G1 X-0.4624 Y-50.5858
X-0.4854 Y-50.6129
X-0.5067 Y-50.6412
X-0.524 Y-50.6672
G3 X-0.6166 Y-51.0725 I0.524 J-0.3329
G1 X-0.6122 Y-51.1031
X-0.6052 Y-51.1382
X-0.5963 Y-51.1726
X-0.587 Y-51.2024
G3 X-0.3279 Y-51.5271 I0.5869 J0.2025
G1 X-0.3011 Y-51.5427
X-0.2693 Y-51.5591
X-0.2366 Y-51.5738
X-0.2076 Y-51.5852
G3 X0.2076 I0.2076 J0.5852
G1 X0.2366 Y-51.5738
X0.2693 Y-51.5591
X0.3011 Y-51.5427
X0.3279 Y-51.5271
G3 X0.587 Y-51.2024 I-0.3278 J0.5272
G1 X0.5963 Y-51.1726
X0.6052 Y-51.1382
X0.6122 Y-51.1031
X0.6166 Y-51.0725
G3 X0.6033 Y-50.8537 I-0.6166 J0.0724
G2 X0.6064 Y-50.8453 I0.0079 J0.0019
G3 X0.6093 Y-50.8368 I-0.0047 J0.0064
X0.5324 Y-50.6617 I-0.6093 J-0.1632
G1 X0.5148 Y-50.6354
X0.4932 Y-50.6066
X0.4699 Y-50.5791
X0.4483 Y-50.5561
G3 X0.0671 Y-50.3729 I-0.4479 J-0.4441
G1 X0.0361 Y-50.3701
X0. Y-50.3694
X-0.0361 Y-50.3701
X-0.0671 Y-50.3729
G3 X-0.4483 Y-50.5561 I0.0668 J-0.6272
G1 X-0.4699 Y-50.5791
X-0.4932 Y-50.6066
X-0.5148 Y-50.6354
X-0.5324 Y-50.6617
G3 X-0.6265 Y-51.0738 I0.5324 J-0.3384
G1 X-0.622 Y-51.1047
X-0.615 Y-51.1404
X-0.6059 Y-51.1753
X-0.5965 Y-51.2055
G3 X-0.333 Y-51.5357 I0.5964 J0.2056
G1 X-0.3059 Y-51.5515
X-0.2737 Y-51.5682
X-0.2405 Y-51.5831
X-0.2111 Y-51.5945
G3 X0.2111 I0.2111 J0.5945
G1 X0.2405 Y-51.5831
X0.2737 Y-51.5682
X0.3059 Y-51.5515
X0.333 Y-51.5357
G3 X0.5965 Y-51.2055 I-0.3329 J0.5358
G1 X0.6059 Y-51.1753
X0.615 Y-51.1404
X0.622 Y-51.1047
X0.6265 Y-51.0738
G3 X0.6093 Y-50.8368 I-0.6265 J0.0738
X0.6068 Y-50.8316 Z-0.2063 I-0.0148 J-0.004
X0.6032 Y-50.8282 Z-0.203 I-0.0123 J-0.0092
X0.6003 Y-50.8266 Z-0.198 I-0.0087 J-0.0127
X0.5992 Y-50.8262 Z-0.1921 I-0.0058 J-0.0142
G0 Z0.6
(SHAPE POCKET)
M7
G0 X0.4275 Y-49.6353
Z0.6
Z0.0007
G1 Z-0.0146 F50.
X0.4273 Z-0.0176
X0.4264 Y-49.635 Z-0.0205
X0.425 Y-49.6347 Z-0.0232
X0.4232 Y-49.6342 Z-0.0255
X0.4209 Y-49.6336 Z-0.0274
X0.4184 Y-49.633 Z-0.0288
X0.4156 Y-49.6323 Z-0.0297
X0.4127 Y-49.6315 Z-0.03
G3 X0.329 Y-49.6195 I-0.0974 J-0.3801
X0.2547 Y-49.7289 I0.0071 J-0.0848 F60.
G1 X0.3016 Y-49.7367
G3 X0.3066 Y-49.7064 I0.0025 J0.0152
X0.3016 Y-49.7367 I-0.0025 J-0.0152
X0.3186 Y-49.7266 I0.0025 J0.0152
G1 X0.4087 Y-49.4674
G3 X0.4039 Y-49.4504 I-0.0145 J0.0051
X0.3569 Y-49.4233 I-0.1076 J-0.1321
X0.3272 Y-49.4149 I-0.0606 J-0.1592 F50.
G1 X0.3044 Y-49.4116 F60.
G3 X0.1617 Y-49.7116 I0.3972 J-0.373
G2 X0.2579 Y-49.7279 I-0.0508 J-0.5921
G3 X0.2723 Y-49.7225 I0.0025 J0.0152
X0.2478 Y-49.6712 I-0.0242 J0.0199
X0.1927 Y-49.6945 I0.0008 J-0.0787
X0.1833 Y-49.7059 I0.0559 J-0.0555 F50.
G2 X0.1695 Y-49.7127 I-0.0127 J0.0086
G1 X0.151 Y-49.7107 F60.
X0.1441 Y-49.7065
X0.1374 Y-49.7018
X0.1312 Y-49.6966
X0.1253 Y-49.691
X0.1199 Y-49.6849
X0.1149 Y-49.6785
X0.1105 Y-49.6717
X0.1065 Y-49.6646
X0.1031 Y-49.6572
X0.1002 Y-49.6496
X0.0979 Y-49.6418
X0.0962 Y-49.6338
X0.0951 Y-49.6258
X0.0945 Y-49.6177
X0.0946 Y-49.6095
X0.0953 Y-49.6014
X0.0966 Y-49.5934
X0.0984 Y-49.5855
X0.1009 Y-49.5777
X0.1039 Y-49.5702
X0.1075 Y-49.5629
X0.1116 Y-49.5559
X0.1162 Y-49.5492
X0.1212 Y-49.5428
G2 X0.191 Y-49.3965 I0.2439 J-0.0265
G1 X0.2207 Y-49.3998
X0.2393 Y-49.402
G2 X0.2512 Y-49.4116 I-0.0024 J-0.0152
X0.2373 Y-49.4307 I-0.0131 J-0.0051
X0.211 Y-49.4185 I0.0023 J0.0393
X0.2031 Y-49.406 I0.0286 J0.027 F50.
G3 X0.191 Y-49.3965 I-0.0143 J-0.0057
G1 X0.1615 Y-49.3933 F60.
X0.1503 Y-49.3968
X0.1394 Y-49.4009
X0.1287 Y-49.4056
X0.1183 Y-49.4109
X0.1081 Y-49.4167
X0.0983 Y-49.4231
X0.0889 Y-49.4299
X0.0798 Y-49.4373
X0.0711 Y-49.4451
X0.0628 Y-49.4534
X0.055 Y-49.4621
X0.0477 Y-49.4712
X0.0409 Y-49.4807
X0.0345 Y-49.4905
X0.0288 Y-49.5007
X0.0235 Y-49.5111
X0.0188 Y-49.5218
X0.0147 Y-49.5328
X0.0112 Y-49.5439
X0.0083 Y-49.5552
X0.006 Y-49.5667
X0.0043 Y-49.5783
X0.0032 Y-49.5899
X0.0027 Y-49.6016
X0.0029 Y-49.6133
X0.0036 Y-49.6249
X0.005 Y-49.6365
X0.0071 Y-49.648
X0.0097 Y-49.6594
X0.0129 Y-49.6706
X0.0167 Y-49.6817
X0.0211 Y-49.6925
X0.0261 Y-49.7031
X0.0581 Y-49.7019
X0.0813 Y-49.7035
X0.151 Y-49.7107
G3 X0.1648 Y-49.704 I0.0011 J0.0153
X0.159 Y-49.6683 I-0.0219 J0.0148
X0.0497 Y-49.6814 I-0.048 J-0.0624
X0.0416 Y-49.6937 I0.0613 J-0.0494 F50.
G2 X0.0285 Y-49.7019 I-0.0136 J0.0072
G1 X0.0046 F60.
X-0.004 Y-49.6974
X-0.0123 Y-49.6923
X-0.0203 Y-49.6868
X-0.028 Y-49.6808
X-0.0353 Y-49.6744
X-0.0421 Y-49.6675
X-0.0485 Y-49.6602
X-0.0545 Y-49.6525
X-0.06 Y-49.6445
X-0.065 Y-49.6362
X-0.0694 Y-49.6275
X-0.0734 Y-49.6187
X-0.0767 Y-49.6096
X-0.0796 Y-49.6003
X-0.0818 Y-49.5908
X-0.0835 Y-49.5812
X-0.0845 Y-49.5716
X-0.085 Y-49.5619
X-0.0849 Y-49.5522
X-0.0842 Y-49.5425
X-0.0829 Y-49.5329
X-0.081 Y-49.5234
X-0.0785 Y-49.514
X-0.0755 Y-49.5047
X-0.0719 Y-49.4957
X-0.0678 Y-49.4869
X-0.0631 Y-49.4784
X-0.058 Y-49.4702
X-0.0523 Y-49.4623
X-0.0461 Y-49.4548
X-0.0396 Y-49.4477
X-0.0326 Y-49.441
G2 X-0.0006 Y-49.3848 I0.0424 J0.013
X0.1615 Y-49.3933 I0.0119 J-1.3331
X0.1735 Y-49.4028 I-0.0022 J-0.0152
X0.1504 Y-49.4506 I-0.0334 J-0.0133
X0.0203 Y-49.4056 I-0.0337 J0.1132
X0.0125 Y-49.393 I0.0964 J0.0682 F50.
G3 X-0.0006 Y-49.3848 I-0.0136 J-0.0072
G1 X-0.0116 F60.
X-0.0476 Y-49.3861
G3 X-0.1282 Y-49.7084 I0.0841 J-0.1923
G1 X-0.0813 Y-49.7035
X-0.0581 Y-49.7019
X0.0046
G3 X0.0176 Y-49.6937 I-0.0005 J0.0154
X0.0155 Y-49.6761 I-0.0137 J0.0073
X-0.1093 Y-49.6858 I-0.0587 J-0.0525
X-0.1161 Y-49.6989 I0.0661 J-0.0428 F50.
G2 X-0.1282 Y-49.7084 I-0.0142 J0.0058
G1 X-0.1559 Y-49.7112 F60.
G2 X-0.2594 Y-49.4827 I0.0489 J0.1599
X-0.22 Y-49.3997 I0.176 J-0.0327
G1 X-0.1278 Y-49.3895
X-0.1046 Y-49.388
X-0.0476 Y-49.3861
G2 X-0.0343 Y-49.3937 I0. J-0.0154
X-0.0456 Y-49.4396 I-0.0295 J-0.017
X-0.1971 Y-49.4181 I-0.0631 J0.0999
X-0.2062 Y-49.4064 I0.0884 J0.0784 F50.
G3 X-0.22 Y-49.3997 I-0.0127 J-0.0087
G1 X-0.2393 Y-49.402 F60.
G3 X-0.2496 Y-49.4258 I0.0024 J-0.0152
G1 X-0.1273 Y-49.6995
G2 X-0.1559 Y-49.7112 I-0.0372 J0.05 F50.
G3 X-0.3016 Y-49.7367 I0.0682 J-0.8202 F60.
G2 X-0.3167 Y-49.7303 I-0.0025 J0.0152
G1 X-0.3184 Y-49.7278 Z-0.0297
X-0.3201 Y-49.7254 Z-0.0288
X-0.3216 Y-49.7232 Z-0.0274
X-0.3229 Y-49.7213 Z-0.0255
X-0.324 Y-49.7197 Z-0.0232
X-0.3248 Y-49.7186 Z-0.0205
X-0.3253 Y-49.7179 Z-0.0176
X-0.3255 Y-49.7176 Z-0.0146
G0 Z0.6
X-1.3639 Y-50.5736
Z0.0007
G1 Z-0.0146 F50.
X-1.364 Y-50.5739 Z-0.0176
X-1.3642 Y-50.5747 Z-0.0205
X-1.3646 Y-50.5761 Z-0.0232
X-1.365 Y-50.5779 Z-0.0255
X-1.3656 Y-50.5802 Z-0.0274
X-1.3663 Y-50.5828 Z-0.0288
X-1.367 Y-50.5856 Z-0.0297
X-1.3677 Y-50.5885 Z-0.03
G3 X-1.3798 Y-50.6721 I0.3801 J-0.0974
X-1.2709 Y-50.7445 I0.0842 J0.0086 F60.
G1 X-1.2625 Y-50.6956
G3 X-1.2928 Y-50.6905 I-0.0151 J0.0026
X-1.2625 Y-50.6956 I0.0151 J-0.0026
X-1.2727 Y-50.6785 I-0.0151 J0.0026
G1 X-1.5328 Y-50.5913
G3 X-1.5496 Y-50.5962 I-0.0049 J-0.0146
X-1.5767 Y-50.6432 I0.1321 J-0.1075
X-1.585 Y-50.673 I0.1592 J-0.0605 F50.
G1 X-1.588 Y-50.693 F60.
X-1.575 Y-50.7052
X-1.5617 Y-50.717
X-1.5479 Y-50.7283
X-1.5337 Y-50.7392
X-1.5192 Y-50.7495
X-1.5044 Y-50.7594
X-1.4892 Y-50.7687
X-1.4737 Y-50.7775
X-1.4579 Y-50.7858
X-1.4419 Y-50.7935
X-1.4256 Y-50.8007
X-1.409 Y-50.8073
X-1.3923 Y-50.8134
X-1.3753 Y-50.8189
X-1.3582 Y-50.8238
X-1.3409 Y-50.8281
X-1.3235 Y-50.8318
X-1.3059 Y-50.8349
X-1.2883 Y-50.8374
G2 X-1.2719 Y-50.7413 I0.5327 J-0.0411
G3 X-1.2772 Y-50.7269 I-0.0151 J0.0026
X-1.3288 Y-50.7515 I-0.0201 J-0.0242
X-1.3055 Y-50.8063 I0.0787 J0.0012
X-1.294 Y-50.8157 I0.0554 J0.0559 F50.
G2 X-1.2873 Y-50.8295 I-0.0086 J-0.0128
G1 X-1.2891 Y-50.8472 F60.
X-1.2931 Y-50.8541
X-1.2976 Y-50.8607
X-1.3025 Y-50.8669
X-1.3079 Y-50.8728
X-1.3137 Y-50.8782
X-1.3199 Y-50.8832
X-1.3265 Y-50.8877
X-1.3334 Y-50.8917
X-1.3405 Y-50.8952
X-1.3479 Y-50.8982
X-1.3555 Y-50.9006
X-1.3633 Y-50.9024
X-1.3711 Y-50.9037
X-1.3791 Y-50.9043
X-1.387 Y-50.9044
X-1.395 Y-50.9039
X-1.4029 Y-50.9028
X-1.4107 Y-50.9011
X-1.4183 Y-50.8988
X-1.4257 Y-50.896
X-1.433 Y-50.8927
X-1.4399 Y-50.8888
X-1.4465 Y-50.8844
X-1.4528 Y-50.8795
G2 X-1.6031 Y-50.812 I0.0514 J0.3154
G1 X-1.6033 Y-50.8085
X-1.5999 Y-50.7774
X-1.5979 Y-50.7614
G2 X-1.5883 Y-50.7495 I0.0152 J-0.0024
X-1.5693 Y-50.764 I0.005 J-0.0131
X-1.5814 Y-50.7885 I-0.0392 J0.0042
X-1.5938 Y-50.7965 I-0.027 J0.0286 F50.
G3 X-1.6033 Y-50.8085 I0.0057 J-0.0143
G1 X-1.6065 Y-50.8367 F60.
X-1.603 Y-50.8479
X-1.5989 Y-50.8589
X-1.5943 Y-50.8696
X-1.589 Y-50.8801
X-1.5833 Y-50.8903
X-1.577 Y-50.9002
X-1.5701 Y-50.9097
X-1.5628 Y-50.9188
X-1.555 Y-50.9276
X-1.5467 Y-50.9359
X-1.5381 Y-50.9437
X-1.529 Y-50.9511
X-1.5195 Y-50.958
X-1.5096 Y-50.9644
X-1.4995 Y-50.9702
X-1.489 Y-50.9755
X-1.4783 Y-50.9802
X-1.4673 Y-50.9843
X-1.4562 Y-50.9878
X-1.4448 Y-50.9908
X-1.4334 Y-50.9931
X-1.4218 Y-50.9948
X-1.4101 Y-50.9959
X-1.3984 Y-50.9963
X-1.3867 Y-50.9962
X-1.375 Y-50.9954
X-1.3634 Y-50.994
X-1.3518 Y-50.9919
X-1.3404 Y-50.9893
X-1.3292 Y-50.986
X-1.3181 Y-50.9822
X-1.3073 Y-50.9777
X-1.2967 Y-50.9727
X-1.2979 Y-50.9402
X-1.2963 Y-50.917
X-1.2891 Y-50.8472
G3 X-1.2959 Y-50.8334 I-0.0153 J0.001
X-1.3304 Y-50.8387 I-0.0144 J-0.0214
X-1.3184 Y-50.9491 I0.0615 J-0.0492
X-1.306 Y-50.9573 I0.0495 J0.0613 F50.
G2 X-1.2979 Y-50.9703 I-0.0072 J-0.0136
G1 X-1.298 Y-50.9938 F60.
X-1.3024 Y-51.0024
X-1.3073 Y-51.0108
X-1.3127 Y-51.0188
X-1.3186 Y-51.0264
X-1.3249 Y-51.0337
X-1.3317 Y-51.0406
X-1.3389 Y-51.047
X-1.3465 Y-51.053
X-1.3544 Y-51.0585
X-1.3627 Y-51.0636
X-1.3712 Y-51.0681
X-1.3801 Y-51.0721
X-1.3891 Y-51.0755
X-1.3983 Y-51.0783
X-1.4077 Y-51.0806
X-1.4172 Y-51.0824
X-1.4268 Y-51.0835
X-1.4364 Y-51.084
X-1.4461
X-1.4557 Y-51.0833
X-1.4653 Y-51.0821
X-1.4748 Y-51.0803
X-1.4842 Y-51.0779
X-1.4933 Y-51.0749
X-1.5023 Y-51.0714
X-1.5111 Y-51.0673
X-1.5196 Y-51.0627
X-1.5278 Y-51.0576
X-1.5356 Y-51.052
X-1.5431 Y-51.046
X-1.5503 Y-51.0394
X-1.557 Y-51.0325
G2 X-1.6153 Y-50.9992 I-0.0135 J0.0441
X-1.6065 Y-50.8367 I1.3251 J0.009
X-1.5969 Y-50.8246 I0.0152 J-0.0022
X-1.5491 Y-50.8477 I0.0134 J-0.0335
X-1.5945 Y-50.9785 I-0.1131 J-0.034
X-1.6071 Y-50.9863 I-0.0677 J0.0968 F50.
G3 X-1.6153 Y-50.9992 I0.0072 J-0.0136
G1 X-1.6154 Y-51.0101 F60.
X-1.6141 Y-51.0461
G3 X-1.2917 Y-51.1274 I0.1925 J0.0838
G1 X-1.2965 Y-51.0799
X-1.298 Y-51.0566
Y-50.9938
G3 X-1.3061 Y-50.9808 I-0.0154 J-0.0005
X-1.3225 Y-50.9826 I-0.0069 J-0.0129
X-1.3142 Y-51.1083 I0.0512 J-0.0598
X-1.3011 Y-51.1152 I0.043 J0.066 F50.
G2 X-1.2917 Y-51.1274 I-0.0058 J-0.0142
G1 X-1.2888 Y-51.1567 F60.
G2 X-1.5192 Y-51.2579 I-0.1606 J0.0527
X-1.6003 Y-51.2189 I0.0323 J0.171
G1 X-1.6105 Y-51.1264
X-1.612 Y-51.1031
X-1.6141 Y-51.0461
G2 X-1.6064 Y-51.0328 I0.0154 J0.
X-1.5609 Y-51.0438 I0.017 J-0.0293
X-1.582 Y-51.196 I-0.0994 J-0.0638
X-1.5937 Y-51.2051 I-0.0784 J0.0884 F50.
G3 X-1.6003 Y-51.2189 I0.0087 J-0.0127
G1 X-1.5981 Y-51.238 F60.
X-1.5682 Y-51.2302
X-1.3187 Y-51.1646
X-1.2888 Y-51.1567 F50.
G3 X-1.2635 Y-51.3001 I0.7561 J0.0594 F60.
G2 X-1.2699 Y-51.3153 I-0.0152 J-0.0025
G1 X-1.2723 Y-51.317 Z-0.0297
X-1.2747 Y-51.3186 Z-0.0288
X-1.2769 Y-51.3202 Z-0.0274
X-1.2788 Y-51.3215 Z-0.0255
X-1.2804 Y-51.3226 Z-0.0232
X-1.2815 Y-51.3234 Z-0.0205
X-1.2822 Y-51.3239 Z-0.0176
X-1.2825 Y-51.3241 Z-0.0146
G0 Z0.6
X-0.429 Y-52.3887
Z0.0007
G1 Z-0.0146 F50.
X-0.4287 Y-52.3888 Z-0.0176
X-0.4279 Y-52.389 Z-0.0205
X-0.4265 Y-52.3893 Z-0.0232
X-0.4246 Y-52.3898 Z-0.0255
X-0.4224 Y-52.3904 Z-0.0274
X-0.4198 Y-52.391 Z-0.0288
X-0.417 Y-52.3918 Z-0.0297
X-0.4141 Y-52.3925 Z-0.03
G3 X-0.3304 Y-52.4045 I0.0974 J0.3801
X-0.2497 Y-52.2725 I-0.0122 J0.0982 F60.
G1 X-0.2988 Y-52.2638
G3 X-0.3149 Y-52.2763 I-0.0023 J-0.0136
G1 X-0.3155 Y-52.2843
X-0.3384 Y-52.5597
X-0.3393 Y-52.5702 F50.
G3 X-0.328 Y-52.585 I0.0138 J-0.0011
G1 X-0.3046 Y-52.5884 F60.
X-0.2923 Y-52.5765
X-0.2805 Y-52.5642
X-0.2691 Y-52.5515
X-0.2581 Y-52.5384
X-0.2476 Y-52.525
X-0.2376 Y-52.5111
X-0.228 Y-52.497
X-0.219 Y-52.4825
X-0.2104 Y-52.4678
X-0.2023 Y-52.4527
X-0.1948 Y-52.4374
X-0.1878 Y-52.4218
X-0.1813 Y-52.406
X-0.1754 Y-52.39
X-0.17 Y-52.3738
X-0.1652 Y-52.3574
X-0.161 Y-52.3409
X-0.1573 Y-52.3242
X-0.1542 Y-52.3074
X-0.1517 Y-52.2905
X-0.1621 Y-52.2883
X-0.1874 Y-52.2857
X-0.2109 Y-52.2816
X-0.2519 Y-52.2733
G3 X-0.2663 Y-52.2787 I-0.0025 J-0.0152
X-0.2428 Y-52.3299 I0.0241 J-0.0199
X-0.1852 Y-52.3065 I0.0015 J0.0787
X-0.1759 Y-52.2951 I-0.056 J0.0553 F50.
G2 X-0.1621 Y-52.2883 I0.0128 J-0.0086
G1 X-0.1446 Y-52.2901 F60.
X-0.1372 Y-52.2952
X-0.1302 Y-52.3008
X-0.1236 Y-52.3069
X-0.1174 Y-52.3134
X-0.1116 Y-52.3203
X-0.1064 Y-52.3276
X-0.1017 Y-52.3353
X-0.0975 Y-52.3432
X-0.0938 Y-52.3514
X-0.0908 Y-52.3599
X-0.0883 Y-52.3685
X-0.0864 Y-52.3773
X-0.0851 Y-52.3862
X-0.0845 Y-52.3952
X-0.0844 Y-52.4042
X-0.085 Y-52.4131
X-0.0862 Y-52.4221
X-0.088 Y-52.4309
X-0.0903 Y-52.4395
X-0.0933 Y-52.448
X-0.0969 Y-52.4563
X-0.101 Y-52.4642
X-0.1056 Y-52.4719
X-0.1108 Y-52.4793
X-0.1165 Y-52.4863
X-0.1226 Y-52.4928
X-0.1291 Y-52.499
X-0.1361 Y-52.5047
G2 X-0.1863 Y-52.6034 I-0.148 J0.0131
G1 X-0.1898 Y-52.6036
X-0.2343 Y-52.5987
X-0.2382 Y-52.5981
G2 X-0.2499 Y-52.5883 I0.0027 J0.0151
X-0.2358 Y-52.5694 I0.0132 J0.0048
X-0.2098 Y-52.5817 I-0.0026 J-0.0393
X-0.2018 Y-52.5941 I-0.0286 J-0.027 F50.
G3 X-0.1898 Y-52.6036 I0.0143 J0.0057
G1 X-0.1569 Y-52.6072 F60.
X-0.1458 Y-52.6042
X-0.1349 Y-52.6006
X-0.1242 Y-52.5963
X-0.1137 Y-52.5916
X-0.1035 Y-52.5862
X-0.0936 Y-52.5804
X-0.084 Y-52.574
X-0.0747 Y-52.5671
X-0.0659 Y-52.5597
X-0.0575 Y-52.5518
X-0.0495 Y-52.5436
X-0.0419 Y-52.5349
X-0.0348 Y-52.5258
X-0.0282 Y-52.5163
X-0.0222 Y-52.5065
X-0.0166 Y-52.4964
X-0.0116 Y-52.486
X-0.0072 Y-52.4754
X-0.0034 Y-52.4646
X-0.0001 Y-52.4535
X0.0026 Y-52.4423
X0.0046 Y-52.431
X0.0061 Y-52.4196
X0.007 Y-52.4081
X0.0072 Y-52.3966
X0.0068 Y-52.385
X0.0058 Y-52.3736
X0.0042 Y-52.3622
X0.002 Y-52.3509
X-0.0008 Y-52.3397
X-0.0042 Y-52.3287
X-0.0082 Y-52.3179
X-0.0128 Y-52.3073
X-0.0179 Y-52.297
X-0.0469 Y-52.2982
X-0.0703 Y-52.2976
X-0.1446 Y-52.2901
G3 X-0.1584 Y-52.2968 I-0.001 J-0.0153
X-0.1541 Y-52.3287 I0.0202 J-0.0135
X-0.0413 Y-52.3186 I0.0516 J0.0595
X-0.0331 Y-52.3063 I-0.0613 J0.0494 F50.
G2 X-0.0201 Y-52.2982 I0.0136 J-0.0072
G1 X0.0071 F60.
X0.0158 Y-52.3031
X0.0242 Y-52.3085
X0.0323 Y-52.3144
X0.04 Y-52.3208
X0.0473 Y-52.3277
X0.0541 Y-52.335
X0.0605 Y-52.3427
X0.0664 Y-52.3508
X0.0718 Y-52.3592
X0.0767 Y-52.368
X0.0811 Y-52.377
X0.0848 Y-52.3862
X0.0881 Y-52.3957
X0.0907 Y-52.4054
X0.0927 Y-52.4152
X0.0942 Y-52.4251
X0.095 Y-52.435
X0.0953 Y-52.445
X0.0949 Y-52.455
X0.0939 Y-52.465
X0.0923 Y-52.4749
X0.0901 Y-52.4846
X0.0874 Y-52.4942
X0.084 Y-52.5037
X0.0801 Y-52.5129
X0.0756 Y-52.5218
X0.0706 Y-52.5305
X0.0651 Y-52.5388
X0.059 Y-52.5468
X0.0525 Y-52.5544
X0.0456 Y-52.5616
X0.0382 Y-52.5683
G2 X0.0101 Y-52.6156 I-0.0373 J-0.0098
X-0.1569 Y-52.6072 I-0.0288 J1.1018
X-0.169 Y-52.5977 I0.0022 J0.0152
X-0.1535 Y-52.5596 I0.0276 J0.011
X-0.0115 Y-52.5956 I0.0482 J-0.1078
X-0.0032 Y-52.6079 I-0.0938 J-0.0718 F50.
G3 X0.0101 Y-52.6156 I0.0133 J0.0077
G1 X0.0572 Y-52.6138 F60.
X0.0675 Y-52.6095
X0.0775 Y-52.6046
X0.0872 Y-52.5991
X0.0966 Y-52.5932
X0.1057 Y-52.5867
X0.1144 Y-52.5798
X0.1228 Y-52.5724
X0.1307 Y-52.5645
X0.1382 Y-52.5563
X0.1452 Y-52.5476
X0.1517 Y-52.5386
X0.1577 Y-52.5292
X0.1633 Y-52.5196
X0.1682 Y-52.5096
X0.1727 Y-52.4994
X0.1765 Y-52.4889
X0.1798 Y-52.4783
X0.1826 Y-52.4675
X0.1847 Y-52.4565
X0.1862 Y-52.4455
X0.1871 Y-52.4344
X0.1874 Y-52.4233
X0.1872 Y-52.4121
X0.1863 Y-52.401
X0.1848 Y-52.39
X0.1827 Y-52.379
X0.18 Y-52.3682
X0.1767 Y-52.3576
X0.1729 Y-52.3471
X0.1685 Y-52.3369
X0.1635 Y-52.3269
X0.158 Y-52.3172
X0.152 Y-52.3078
X0.1455 Y-52.2988
X0.1385 Y-52.2901
X0.0703 Y-52.2976
X0.0469 Y-52.2982
X0.0071
G3 X-0.0059 Y-52.3063 I0.0005 J-0.0154
X-0.003 Y-52.3259 I0.0147 J-0.0079
X0.1187 Y-52.3133 I0.0558 J0.0556
X0.1256 Y-52.3002 I-0.066 J0.043 F50.
G2 X0.1377 Y-52.2908 I0.0142 J-0.0058
G1 X0.1874 Y-52.2857 F60.
X0.2109 Y-52.2816
X0.2988 Y-52.2638
G2 X0.3149 Y-52.2763 I0.0023 J-0.0136
G1 X0.3155 Y-52.2843
X0.3384 Y-52.5597
X0.3393 Y-52.5702 F50.
G2 X0.328 Y-52.585 I-0.0138 J-0.0011
X0.0572 Y-52.6138 I-0.3383 J1.8897 F60.
X0.0433 Y-52.605 I0. J0.0154
G1 X0.042 Y-52.6023 Z-0.0297
X0.0408 Y-52.5997 Z-0.0288
X0.0396 Y-52.5973 Z-0.0274
X0.0386 Y-52.5952 Z-0.0255
X0.0378 Y-52.5935 Z-0.0232
X0.0372 Y-52.5922 Z-0.0205
X0.0368 Y-52.5914 Z-0.0176
X0.0367 Y-52.5911 Z-0.0146
G0 Z0.6
X1.3511 Y-51.4271
Z0.0007
G1 Z-0.0146 F50.
X1.3512 Y-51.4268 Z-0.0176
X1.3514 Y-51.426 Z-0.0205
X1.3518 Y-51.4246 Z-0.0232
X1.3522 Y-51.4227 Z-0.0255
X1.3528 Y-51.4205 Z-0.0274
X1.3535 Y-51.4179 Z-0.0288
X1.3542 Y-51.4151 Z-0.0297
X1.3549 Y-51.4122 Z-0.03
G3 X1.367 Y-51.3285 I-0.3801 J0.0974
X1.2703 Y-51.2592 I-0.0759 J-0.0038 F60.
G1 X1.2635 Y-51.3001
G3 X1.2761 Y-51.3162 I0.0136 J-0.0023
G1 X1.284 Y-51.3168
X1.5597 Y-51.3378
X1.5703 Y-51.3386 F50.
G3 X1.585 Y-51.3273 I0.001 J0.0138
G1 X1.5882 Y-51.3056 F60.
G3 X1.4535 Y-51.2265 I-0.142 J-0.0875
X1.2885 Y-51.1705 I-0.1291 J-0.1092
G1 X1.2869 Y-51.1749
X1.2846 Y-51.1962
X1.2799 Y-51.2195
X1.2712 Y-51.2624
G3 X1.2765 Y-51.2768 I0.0152 J-0.0025
X1.3286 Y-51.2511 I0.0203 J0.0245
X1.3052 Y-51.1981 I-0.0787 J-0.0031
X1.2937 Y-51.1887 I-0.0553 J-0.0561 F50.
G2 X1.2869 Y-51.1749 I0.0086 J0.0128
G1 X1.2887 Y-51.157 F60.
X1.2929 Y-51.1501
X1.2976 Y-51.1435
X1.3028 Y-51.1373
X1.3084 Y-51.1315
X1.3144 Y-51.1261
X1.3208 Y-51.1212
X1.3275 Y-51.1168
X1.3346 Y-51.1128
X1.3419 Y-51.1094
X1.3494 Y-51.1066
X1.3572 Y-51.1043
X1.365 Y-51.1026
X1.373 Y-51.1015
X1.3811 Y-51.101
X1.3891 Y-51.1011
X1.3972 Y-51.1017
X1.4051 Y-51.103
X1.413 Y-51.1048
X1.4207 Y-51.1072
X1.4282 Y-51.1102
X1.4354 Y-51.1137
X1.4424 Y-51.1178
X1.4491 Y-51.1224
X1.4554 Y-51.1274
G2 X1.6033 Y-51.1919 I-0.0075 J-0.2189
G1 X1.6002 Y-51.2195
X1.5981 Y-51.238
G2 X1.5885 Y-51.25 I-0.0152 J0.0023
X1.5694 Y-51.2349 I-0.0051 J0.0131
X1.5813 Y-51.2119 I0.039 J-0.0057
X1.5938 Y-51.204 I0.027 J-0.0286 F50.
G3 X1.6033 Y-51.1919 I-0.0057 J0.0143
G1 X1.6068 Y-51.1601 F60.
G3 X1.298 Y-51.0346 I-0.2132 J-0.0819
G1 Y-51.0566
X1.2965 Y-51.0799
X1.2887 Y-51.157
G3 X1.2955 Y-51.1708 I0.0153 J-0.001
X1.332 Y-51.1646 I0.015 J0.0224
X1.3185 Y-51.0558 I-0.0628 J0.0475
X1.3062 Y-51.0476 I-0.0493 J-0.0614 F50.
G2 X1.298 Y-51.0346 I0.0072 J0.0136
G1 Y-51.0101 F60.
X1.3022 Y-51.0016
X1.3069 Y-50.9934
X1.3121 Y-50.9855
X1.3178 Y-50.978
X1.3239 Y-50.9708
X1.3305 Y-50.964
X1.3375 Y-50.9577
X1.3449 Y-50.9518
X1.3526 Y-50.9463
X1.3607 Y-50.9414
X1.369 Y-50.937
X1.3776 Y-50.9331
X1.3865 Y-50.9298
X1.3955 Y-50.927
X1.4047 Y-50.9248
X1.414 Y-50.9231
X1.4234 Y-50.9221
X1.4328 Y-50.9216
X1.4422 Y-50.9218
X1.4517 Y-50.9225
X1.461 Y-50.9238
X1.4703 Y-50.9257
X1.4794 Y-50.9281
X1.4883 Y-50.9312
X1.4971 Y-50.9348
X1.5056 Y-50.9389
X1.5138 Y-50.9435
X1.5217 Y-50.9487
X1.5293 Y-50.9543
X1.5365 Y-50.9604
G2 X1.6154 Y-51.0041 I0.0116 J-0.0721
X1.6068 Y-51.1601 I-1.3913 J-0.0019
X1.5973 Y-51.1722 I-0.0152 J0.0022
X1.5479 Y-51.1459 I-0.0136 J0.034
X1.5947 Y-51.025 I0.1155 J0.0248
X1.6073 Y-51.0171 I0.0687 J-0.0961 F50.
G3 X1.6154 Y-51.0041 I-0.0073 J0.0135
G1 X1.6153 Y-50.9868 F60.
X1.6144 Y-50.9635
X1.6104 Y-50.9531
X1.6058 Y-50.943
X1.6007 Y-50.9331
X1.595 Y-50.9235
X1.5889 Y-50.9143
X1.5822 Y-50.9054
X1.575 Y-50.8968
X1.5674 Y-50.8887
X1.5594 Y-50.881
X1.5509 Y-50.8738
X1.5421 Y-50.867
X1.5329 Y-50.8608
X1.5233 Y-50.855
X1.5135 Y-50.8498
X1.5034 Y-50.8451
X1.4931 Y-50.841
X1.4825 Y-50.8375
X1.4718 Y-50.8345
X1.4609 Y-50.8322
X1.4499 Y-50.8304
X1.4388 Y-50.8293
X1.4277 Y-50.8287
X1.4166 Y-50.8288
X1.4055 Y-50.8295
X1.3944 Y-50.8308
X1.3835 Y-50.8327
X1.3726 Y-50.8352
X1.3619 Y-50.8382
X1.3514 Y-50.8419
X1.3411 Y-50.8462
X1.3311 Y-50.851
X1.3213 Y-50.8563
X1.3119 Y-50.8622
X1.3028 Y-50.8685
X1.294 Y-50.8754
X1.2922 Y-50.8777
X1.2963 Y-50.917
X1.2979 Y-50.9402
X1.298 Y-51.0101
G3 X1.3061 Y-51.0231 I0.0154 J0.0006
X1.3253 Y-51.0206 I0.0078 J0.0148
X1.3148 Y-50.8967 I-0.0534 J0.0579
X1.3017 Y-50.8898 I-0.0429 J-0.066 F50.
G2 X1.2922 Y-50.8777 I0.0058 J0.0142
G1 X1.2896 Y-50.8519 F60.
G2 X1.5054 Y-50.7442 I0.1555 J-0.0415
X1.6009 Y-50.7866 I-0.0299 J-0.1964
G1 X1.6102 Y-50.8704
X1.6119 Y-50.8937
X1.6144 Y-50.9635
G2 X1.6068 Y-50.9768 I-0.0154 J0.
X1.5663 Y-50.9686 I-0.0156 J0.0268
X1.5826 Y-50.8095 I0.0946 J0.0707
X1.5943 Y-50.8004 I0.0784 J-0.0884 F50.
G3 X1.6009 Y-50.7866 I-0.0087 J0.0127
G1 X1.5999 Y-50.7774 F60.
X1.5979 Y-50.7614
G3 X1.5741 Y-50.7511 I-0.0152 J-0.0024
G1 X1.3013 Y-50.8805
G2 X1.2896 Y-50.8519 I0.05 J0.0372 F50.
G3 X1.2625 Y-50.6956 I-0.8071 J-0.0596 F60.
G2 X1.2688 Y-50.6805 I0.0151 J0.0026
G1 X1.2713 Y-50.6787 Z-0.0297
X1.2736 Y-50.6771 Z-0.0288
X1.2758 Y-50.6756 Z-0.0274
X1.2777 Y-50.6742 Z-0.0255
X1.2793 Y-50.6731 Z-0.0232
X1.2804 Y-50.6723 Z-0.0205
X1.2812 Y-50.6718 Z-0.0176
X1.2814 Y-50.6716 Z-0.0146
G0 Z0.6
X-1.4504 Y-52.9408
Z0.1
G3 X-1.4161 Y-52.8462 Z0.0703 I-0.0326 J0.0653 F50.
X-1.5088 Y-52.8071 Z0.0406 I-0.0669 J-0.0292
X-1.4573 Y-52.9438 Z-0.0209 I0.0257 J-0.0683
X-1.4116 Y-52.8605 Z-0.0486 I-0.0257 J0.0683
X-1.5557 Y-52.8829 Z-0.1081 I-0.0715 J-0.0149
X-1.4793 Y-52.9483 Z-0.1378 I0.0726 J0.0075
X-1.41 Y-52.8754 Z-0.1675 I-0.0038 J0.0729
X-1.556 I-0.073 J0.
X-1.4103 Y-52.8813 I0.073 J0.
G1 X-1.41 Y-52.8754
G3 X-1.5664 Y-52.7525 I-0.0818 J0.0568 F60.
G1 X-1.5745 Y-52.7579
X-1.5823 Y-52.7638
X-1.5896 Y-52.7703
X-1.5966 Y-52.7771
X-1.6031 Y-52.7844
X-1.6091 Y-52.7921
X-1.6146 Y-52.8001
X-1.6196 Y-52.8085
X-1.6241 Y-52.8172
X-1.628 Y-52.8262
X-1.6313 Y-52.8353
X-1.634 Y-52.8447
X-1.6362 Y-52.8542
X-1.6377 Y-52.8638
X-1.6387 Y-52.8736
X-1.639 Y-52.8833
X-1.6387 Y-52.8931
X-1.6378 Y-52.9028
X-1.6362 Y-52.9124
X-1.6341 Y-52.922
X-1.6314 Y-52.9313
X-1.6281 Y-52.9405
X-1.6242 Y-52.9495
X-1.6197 Y-52.9581
X-1.6147 Y-52.9665
X-1.6092 Y-52.9746
X-1.6032 Y-52.9823
X-1.5968 Y-52.9896
X-1.5898 Y-52.9965
X-1.5825 Y-53.0029
X-1.5748 Y-53.0088
X-1.5667 Y-53.0143
X-1.5582 Y-53.0192
X-1.5495 Y-53.0236
X-1.5405 Y-53.0274
X-1.5313 Y-53.0307
X-1.522 Y-53.0333
X-1.5124 Y-53.0354
X-1.5028 Y-53.0368
X-1.493 Y-53.0377
X-1.4833 Y-53.0379
X-1.4735 Y-53.0375
X-1.4638 Y-53.0365
X-1.4542 Y-53.0349
X-1.4447 Y-53.0327
X-1.4354 Y-53.0299
X-1.4262 Y-53.0265
X-1.4173 Y-53.0225
X-1.4087 Y-53.018
X-1.4003 Y-53.013
X-1.3923 Y-53.0074
X-1.3847 Y-53.0013
X-1.3774 Y-52.9948
X-1.3706 Y-52.9878
X-1.3643 Y-52.9804
X-1.3584 Y-52.9726
X-1.353 Y-52.9645
X-1.3482 Y-52.956
X-1.3439 Y-52.9473
X-1.3401 Y-52.9382
X-1.337 Y-52.929
X-1.3344 Y-52.9196
X-1.3288 Y-52.9104
X-1.3237 Y-52.9008
X-1.3192 Y-52.891
X-1.3153 Y-52.8809
X-1.3119 Y-52.8707
X-1.3091 Y-52.8602
X-1.307 Y-52.8496
X-1.3054 Y-52.8389
X-1.3044 Y-52.8282
X-1.3041 Y-52.8174
X-1.3044 Y-52.8066
X-1.3053 Y-52.7958
X-1.3068 Y-52.7851
X-1.3089 Y-52.7745
X-1.3116 Y-52.764
X-1.3149 Y-52.7537
X-1.3188 Y-52.7437
X-1.3232 Y-52.7338
X-1.3282 Y-52.7242
X-1.3337 Y-52.7149
X-1.3398 Y-52.706
X-1.3464 Y-52.6974
X-1.3534 Y-52.6892
X-1.3609 Y-52.6814
X-1.3688 Y-52.6741
X-1.3771 Y-52.6672
X-1.3859 Y-52.6608
X-1.3949 Y-52.6549
X-1.4043 Y-52.6495
X-1.414 Y-52.6447
X-1.4239 Y-52.6405
X-1.434 Y-52.6368
X-1.4444 Y-52.6337
X-1.4549 Y-52.6311
X-1.4655 Y-52.6292
X-1.4763 Y-52.6279
X-1.4871 Y-52.6272
X-1.4979
X-1.5086 Y-52.6277
X-1.5194 Y-52.6289
X-1.53 Y-52.6306
X-1.5406 Y-52.633
X-1.551 Y-52.636
X-1.5612 Y-52.6395
X-1.5712 Y-52.6437
X-1.5809 Y-52.6483
X-1.5904 Y-52.6536
X-1.5995 Y-52.6593
X-1.6083 Y-52.6656
X-1.6167 Y-52.6724
X-1.6247 Y-52.6796
X-1.6323 Y-52.6873
X-1.6422 Y-52.6943
X-1.6517 Y-52.7017
X-1.6608 Y-52.7097
X-1.6695 Y-52.7181
X-1.6777 Y-52.7269
X-1.6855 Y-52.7361
X-1.6928 Y-52.7458
X-1.6996 Y-52.7558
X-1.7058 Y-52.7661
X-1.7115 Y-52.7767
X-1.7167 Y-52.7877
X-1.7213 Y-52.7988
X-1.7253 Y-52.8102
X-1.7287 Y-52.8218
X-1.7316 Y-52.8336
X-1.7338 Y-52.8454
X-1.7354 Y-52.8574
X-1.7363 Y-52.8694
X-1.7367 Y-52.8815
X-1.7364 Y-52.8936
X-1.7356 Y-52.9056
X-1.7341 Y-52.9176
X-1.7319 Y-52.9295
X-1.7292 Y-52.9413
X-1.7259 Y-52.9529
X-1.722 Y-52.9643
X-1.7175 Y-52.9755
X-1.7124 Y-52.9865
X-1.7068 Y-52.9972
X-1.7006 Y-53.0075
X-1.6939 Y-53.0176
X-1.6867 Y-53.0273
X-1.679 Y-53.0366
X-1.6708 Y-53.0455
X-1.6622 Y-53.0539
X-1.6532 Y-53.062
X-1.6437 Y-53.0695
X-1.6339 Y-53.0765
X-1.6237 Y-53.0831
X-1.6133 Y-53.0891
X-1.6025 Y-53.0945
X-1.5901 Y-53.0996
X-1.5775 Y-53.1041
X-1.5647 Y-53.108
X-1.5517 Y-53.1113
X-1.5386 Y-53.114
X-1.5254 Y-53.1161
X-1.5121 Y-53.1176
X-1.4987 Y-53.1185
X-1.4854 Y-53.1187
X-1.472 Y-53.1183
X-1.4586 Y-53.1173
X-1.4453 Y-53.1156
X-1.4322 Y-53.1134
X-1.4191 Y-53.1105
X-1.4062 Y-53.107
X-1.3934 Y-53.103
X-1.3809 Y-53.0983
X-1.3685 Y-53.093
X-1.3565 Y-53.0872
X-1.3447 Y-53.0809
X-1.3333 Y-53.0739
X-1.3221 Y-53.0665
X-1.3114 Y-53.0586
X-1.301 Y-53.0501
X-1.291 Y-53.0412
X-1.2814 Y-53.0318
X-1.2723 Y-53.022
X-1.2637 Y-53.0118
X-1.2556 Y-53.0012
X-1.2479 Y-52.9902
X-1.2408 Y-52.9789
X-1.2342 Y-52.9672
X-1.2282 Y-52.9553
X-1.2227 Y-52.9431
X-1.2178 Y-52.9306
X-1.2135 Y-52.9179
X-1.2097 Y-52.9051
X-1.2066 Y-52.8921
X-1.2041 Y-52.8789
X-1.2022 Y-52.8657
X-1.201 Y-52.8523
X-1.2003 Y-52.839
Y-52.8256
X-1.2009 Y-52.8122
X-1.2021 Y-52.7989
X-1.204 Y-52.7856
X-1.2064 Y-52.7725
X-1.2095 Y-52.7595
X-1.2132 Y-52.7466
X-1.2174 Y-52.7339
X-1.2223 Y-52.7214
X-1.2277 Y-52.7092
X-1.2337 Y-52.6973
X-1.2403 Y-52.6856
X-1.2474 Y-52.6742
X-1.255 Y-52.6632
X-1.2631 Y-52.6526
X-1.2717 Y-52.6423
X-1.2808 Y-52.6325
X-1.2903 Y-52.6231
X-1.3002 Y-52.6141
X-1.3106 Y-52.6057
X-1.3213 Y-52.5977
X-1.3324 Y-52.5902
X-1.3438 Y-52.5833
X-1.3556 Y-52.5768
X-1.3676 Y-52.571
X-1.3799 Y-52.5657
X-1.3924 Y-52.561
X-1.4062 Y-52.5567
X-1.4201 Y-52.553
X-1.4341 Y-52.5499
X-1.4483 Y-52.5474
X-1.4625 Y-52.5456
X-1.4768 Y-52.5443
X-1.4912 Y-52.5437
X-1.5056 Y-52.5436
X-1.52 Y-52.5442
X-1.5343 Y-52.5454
X-1.5485 Y-52.5473
X-1.5627 Y-52.5497
X-1.5768 Y-52.5527
X-1.5907 Y-52.5564
X-1.6044 Y-52.5606
X-1.618 Y-52.5655
X-1.6313 Y-52.5709
X-1.6444 Y-52.5768
X-1.6572 Y-52.5834
X-1.6697 Y-52.5904
X-1.6819 Y-52.598
X-1.6938 Y-52.6062
X-1.7053 Y-52.6148
X-1.7164 Y-52.6239
X-1.7271 Y-52.6335
X-1.7374 Y-52.6435
X-1.7473 Y-52.654
X-1.7567 Y-52.6649
X-1.7656 Y-52.6761
X-1.774 Y-52.6878
X-1.7819 Y-52.6998
X-1.7893 Y-52.7121
X-1.7962 Y-52.7247
X-1.8025 Y-52.7377
X-1.8083 Y-52.7508
X-1.8134 Y-52.7643
X-1.818 Y-52.7779
X-1.822 Y-52.7917
X-1.8254 Y-52.8057
X-1.8283 Y-52.8198
X-1.8304 Y-52.834
X-1.832 Y-52.8483
X-1.833 Y-52.8626
X-1.8333 Y-52.877
X-1.8331 Y-52.8914
X-1.8322 Y-52.9057
X-1.8307 Y-52.92
X-1.8286 Y-52.9342
X-1.8259 Y-52.9483
X-1.8225 Y-52.9623
X-1.8186 Y-52.9762
X-1.8141 Y-52.9898
X-1.809 Y-53.0033
X-1.8033 Y-53.0165
X-1.7971 Y-53.0294
X-1.7903 Y-53.0421
X-1.783 Y-53.0545
X-1.7751 Y-53.0665
X-1.7667 Y-53.0782
X-1.7579 Y-53.0895
X-1.7485 Y-53.1005
X-1.7387 Y-53.111
X-1.7285 Y-53.1211
X-1.7178 Y-53.1307
X-1.7068 Y-53.1399
X-1.6953 Y-53.1486
X-1.6835 Y-53.1568
X-1.6713 Y-53.1644
X-1.6589 Y-53.1716
X-1.6461 Y-53.1782
X-1.6331 Y-53.1842
X-1.6198 Y-53.1897
X-1.6062 Y-53.1946
X-1.5915 Y-53.1991
X-1.5766 Y-53.2031
X-1.5615 Y-53.2064
X-1.5464 Y-53.2091
X-1.5311 Y-53.2112
X-1.5157 Y-53.2126
X-1.5003 Y-53.2135
X-1.4849 Y-53.2137
X-1.4695 Y-53.2133
X-1.4541 Y-53.2123
X-1.4388 Y-53.2107
X-1.4236 Y-53.2084
X-1.4084 Y-53.2055
X-1.3934 Y-53.2021
X-1.3785 Y-53.198
X-1.3638 Y-53.1933
X-1.3494 Y-53.1881
X-1.3351 Y-53.1822
X-1.3211 Y-53.1758
X-1.3073 Y-53.1688
X-1.2939 Y-53.1613
X-1.2807 Y-53.1533
X-1.2679 Y-53.1447
X-1.2555 Y-53.1356
X-1.2434 Y-53.126
X-1.2317 Y-53.1159
X-1.2205 Y-53.1054
X-1.2096 Y-53.0944
X-1.1993 Y-53.083
X-1.1894 Y-53.0712
X-1.1799 Y-53.059
X-1.171 Y-53.0465
X-1.1626 Y-53.0335
X-1.1547 Y-53.0203
X-1.1474 Y-53.0067
X-1.1406 Y-52.9929
X-1.1344 Y-52.9788
X-1.1287 Y-52.9644
X-1.1237 Y-52.9499
X-1.1192 Y-52.9351
X-1.1153 Y-52.9202
X-1.112 Y-52.9052
X-1.1094 Y-52.89
X-1.1073 Y-52.8747
X-1.1059 Y-52.8593
X-1.1051 Y-52.844
X-1.1049 Y-52.8285
X-1.1053 Y-52.8131
X-1.1064 Y-52.7978
X-1.1081 Y-52.7824
X-1.1104 Y-52.7672
X-1.1133 Y-52.7521
X-1.1168 Y-52.737
X-1.1209 Y-52.7222
X-1.1256 Y-52.7075
X-1.1309 Y-52.693
X-1.1368 Y-52.6788
X-1.1432 Y-52.6648
X-1.1502 Y-52.6511
X-1.1578 Y-52.6376
X-1.1659 Y-52.6245
X-1.1745 Y-52.6117
X-1.1836 Y-52.5993
X-1.1932 Y-52.5873
X-1.2033 Y-52.5756
X-1.2139 Y-52.5644
X-1.2249 Y-52.5536
X-1.2363 Y-52.5432
X-1.2482 Y-52.5334
X-1.2604 Y-52.524
X-1.273 Y-52.5151
X-1.2859 Y-52.5067
X-1.2992 Y-52.4989
X-1.3127 Y-52.4916
X-1.3266 Y-52.4848
X-1.3407 Y-52.4786
G3 X-1.9221 Y-52.8411 I-0.1651 J-0.3827
G1 X-1.9231 Y-52.8577
X-1.9234 Y-52.8743
X-1.9232 Y-52.891
X-1.9223 Y-52.9076
X-1.9208 Y-52.9241
X-1.9187 Y-52.9406
X-1.9159 Y-52.957
X-1.9126 Y-52.9733
X-1.9086 Y-52.9894
X-1.9041 Y-53.0054
X-1.8989 Y-53.0212
X-1.8932 Y-53.0368
X-1.8869 Y-53.0522
X-1.88 Y-53.0673
X-1.8725 Y-53.0822
X-1.8645 Y-53.0967
X-1.856 Y-53.111
X-1.8469 Y-53.1249
X-1.8374 Y-53.1385
X-1.8273 Y-53.1517
X-1.8167 Y-53.1645
X-1.8057 Y-53.177
X-1.7942 Y-53.189
X-1.7823 Y-53.2005
X-1.7699 Y-53.2117
X-1.7571 Y-53.2223
X-1.744 Y-53.2325
X-1.7305 Y-53.2421
X-1.7166 Y-53.2513
X-1.7024 Y-53.2599
X-1.6879 Y-53.268
X-1.673 Y-53.2755
X-1.658 Y-53.2825
X-1.6426 Y-53.2889
X-1.6271 Y-53.2947
X-1.6113 Y-53.3
X-1.5953 Y-53.3046
X-1.5792 Y-53.3087
X-1.563 Y-53.3121
X-1.5466 Y-53.315
X-1.5301 Y-53.3172
X-1.5136 Y-53.3188
X-1.497 Y-53.3198
X-1.4804 Y-53.3202
X-1.4637 Y-53.3199
X-1.4471 Y-53.319
X-1.4306 Y-53.3175
X-1.4141 Y-53.3154
X-1.3977 Y-53.3127
X-1.3814 Y-53.3094
X-1.3653 Y-53.3054
X-1.3493 Y-53.3009
X-1.3335 Y-53.2957
X-1.3179 Y-53.29
X-1.3025 Y-53.2837
X-1.2874 Y-53.2768
X-1.2725 Y-53.2694
X-1.258 Y-53.2614
X-1.2437 Y-53.2529
X-1.2298 Y-53.2438
X-1.2162 Y-53.2342
X-1.2029 Y-53.2242
X-1.1901 Y-53.2136
X-1.1777 Y-53.2026
X-1.1657 Y-53.1911
X-1.1541 Y-53.1792
X-1.143 Y-53.1668
X-1.1323 Y-53.1541
X-1.1222 Y-53.1409
X-1.1125 Y-53.1274
X-1.1033 Y-53.1135
X-1.0947 Y-53.0993
X-1.0866 Y-53.0848
X-1.0791 Y-53.07
X-1.0721 Y-53.0549
X-1.0657 Y-53.0396
X-1.0598 Y-53.024
X-1.0546 Y-53.0083
X-1.0499 Y-52.9923
X-1.0458 Y-52.9762
X-1.0399 Y-52.9606
X-1.0345 Y-52.9448
X-1.0298 Y-52.9289
X-1.0256 Y-52.9127
X-1.022 Y-52.8964
X-1.0191 Y-52.88
X-1.0168 Y-52.8635
X-1.0151 Y-52.8469
X-1.014 Y-52.8303
X-1.0135 Y-52.8136
X-1.0137 Y-52.797
X-1.0144 Y-52.7803
X-1.0158 Y-52.7637
X-1.0179 Y-52.7471
X-1.0205 Y-52.7307
X-1.0237 Y-52.7143
X-1.0276 Y-52.6981
X-1.0321 Y-52.6821
X-1.0371 Y-52.6662
X-1.0428 Y-52.6505
X-1.049 Y-52.635
X-1.0558 Y-52.6198
X-1.0632 Y-52.6049
X-1.0711 Y-52.5902
X-1.0796 Y-52.5758
X-1.0886 Y-52.5618
X-1.0981 Y-52.5481
X-1.1081 Y-52.5348
X-1.1186 Y-52.5218
X-1.1296 Y-52.5093
X-1.1411 Y-52.4972
X-1.153 Y-52.4855
X-1.1653 Y-52.4743
X-1.178 Y-52.4635
X-1.1912 Y-52.4533
X-1.2047 Y-52.4435
X-1.2185 Y-52.4342
X-1.2327 Y-52.4255
X-1.2472 Y-52.4173
X-1.2633 Y-52.4089
X-1.2797 Y-52.4011
X-1.2963 Y-52.3938
X-1.3131 Y-52.3871
X-1.3302 Y-52.381
X-1.3475 Y-52.3755
X-1.3649 Y-52.3706
X-1.3825 Y-52.3662
X-1.4003 Y-52.3625
X-1.4181 Y-52.3594
X-1.4361 Y-52.3569
X-1.4541 Y-52.3551
X-1.4722 Y-52.3538
X-1.4903 Y-52.3532
X-1.5085
X-1.5266 Y-52.3538
X-1.5447 Y-52.3551
X-1.5627 Y-52.357
X-1.5807 Y-52.3594
X-1.5985 Y-52.3625
X-1.6163 Y-52.3662
X-1.6339 Y-52.3706
X-1.6513 Y-52.3755
X-1.6686 Y-52.381
X-1.6857 Y-52.3871
X-1.7025 Y-52.3938
X-1.7191 Y-52.4011
X-1.7355 Y-52.4089
X-1.7516 Y-52.4173
X-1.7673 Y-52.4262
X-1.7828 Y-52.4357
X-1.7979 Y-52.4457
X-1.8127 Y-52.4562
X-1.8271 Y-52.4672
X-1.8411 Y-52.4787
X-1.8547 Y-52.4907
X-1.8679 Y-52.5031
X-1.8807 Y-52.516
X-1.893 Y-52.5293
X-1.9048 Y-52.543
X-1.9162 Y-52.5572
X-1.9271 Y-52.5717
X-1.9374 Y-52.5865
X-1.9473 Y-52.6018
X-1.9566 Y-52.6173
X-1.9654 Y-52.6332
X-1.9736 Y-52.6493
X-1.9813 Y-52.6658
X-1.9884 Y-52.6824
X-1.9949 Y-52.6993
X-2.0009 Y-52.7165
X-2.0062 Y-52.7338
X-2.011 Y-52.7513
X-2.0151 Y-52.7689
X-2.0187 Y-52.7867
X-2.0216 Y-52.8046
X-2.0239 Y-52.8226
X-2.0256 Y-52.8406
X-2.0267 Y-52.8587
X-2.0271 Y-52.8769
X-2.0269 Y-52.895
X-2.0261 Y-52.9131
X-2.0247 Y-52.9312
X-2.0227 Y-52.9492
X-2.02 Y-52.9671
X-2.0167 Y-52.985
X-2.0129 Y-53.0027
X-2.0084 Y-53.0202
X-2.0033 Y-53.0376
X-1.9976 Y-53.0549
X-1.9913 Y-53.0719
X-1.9845 Y-53.0886
X-1.9771 Y-53.1052
X-1.9691 Y-53.1215
X-1.9605 Y-53.1375
X-1.9515 Y-53.1531
X-1.9418 Y-53.1685
X-1.9317 Y-53.1835
X-1.921 Y-53.1982
X-1.9099 Y-53.2125
X-1.8983 Y-53.2264
X-1.8862 Y-53.2399
X-1.8736 Y-53.253
X-1.8606 Y-53.2656
X-1.8472 Y-53.2778
X-1.8333 Y-53.2895
X-1.8191 Y-53.3007
X-1.8045 Y-53.3115
X-1.7895 Y-53.3217
X-1.7742 Y-53.3314
X-1.7586 Y-53.3406
X-1.7426 Y-53.3492
X-1.7264 Y-53.3573
X-1.7099 Y-53.3648
X-1.6931 Y-53.3717
X-1.6762 Y-53.3781
X-1.659 Y-53.3839
X-1.6416 Y-53.3891
X-1.6241 Y-53.3936
X-1.6064 Y-53.3976
X-1.5886 Y-53.401
X-1.5707 Y-53.4038
X-1.5527 Y-53.4059
X-1.5346 Y-53.4074
X-1.5165 Y-53.4083
X-1.4984 Y-53.4086
X-1.4802 Y-53.4082
X-1.4621 Y-53.4073
X-1.4441 Y-53.4057
G3 X-0.9274 Y-52.7016 I-0.0489 J0.5775
X-1.695 Y-52.2849 I-0.5656 J-0.1266
X-1.2867 Y-53.4789 I0.2053 J-0.5966
X-1.5545 Y-52.1522 I-0.2114 J0.6477
X-1.7292 Y-53.567 I0.0646 J-0.7261
G1 X-1.7083 Y-53.5735
X-1.6871 Y-53.5795
X-1.6658 Y-53.5848
X-1.6443 Y-53.5896
X-1.6227 Y-53.5937
X-1.601 Y-53.5972
X-1.5792 Y-53.6001
X-1.5573 Y-53.6024
X-1.5354 Y-53.604
X-1.5134 Y-53.6051
X-1.4914 Y-53.6055
X-1.4694 Y-53.6052
X-1.4474 Y-53.6044
X-1.4255 Y-53.6029
X-1.4036 Y-53.6008
X-1.3818 Y-53.598
X-1.3601 Y-53.5947
X-1.3384 Y-53.5907
X-1.3169 Y-53.5861
X-1.2956 Y-53.5809
X-1.2743 Y-53.5751
X-1.2533 Y-53.5687
X-1.2325 Y-53.5617
X-1.2118 Y-53.5541
X-1.1914 Y-53.5459
X-1.1712 Y-53.5371
X-1.1513 Y-53.5278
X-1.1317 Y-53.5179
X-1.1123 Y-53.5074
X-1.0933 Y-53.4964
X-1.0746 Y-53.4849
X-1.0562 Y-53.4728
X-1.0382 Y-53.4602
X-1.0205 Y-53.4471
X-1.0032 Y-53.4335
X-0.9863 Y-53.4195
X-0.9699 Y-53.4049
X-0.9538 Y-53.3899
X-0.9382 Y-53.3744
X-0.923 Y-53.3585
X-0.9083 Y-53.3421
X-0.894 Y-53.3254
X-0.8803 Y-53.3082
X-0.867 Y-53.2907
X-0.8543 Y-53.2728
X-0.842 Y-53.2545
X-0.8303 Y-53.2359
X-0.8191 Y-53.217
X-0.8085 Y-53.1977
X-0.7984 Y-53.1782
X-0.7889 Y-53.1583
X-0.7799 Y-53.1383
X-0.7715 Y-53.1179
X-0.7637 Y-53.0974
X-0.7565 Y-53.0766
X-0.7499 Y-53.0556
X-0.7439 Y-53.0344
X-0.7385 Y-53.0131
X-0.7337 Y-52.9917
X-0.7295 Y-52.9701
X-0.726 Y-52.9484
X-0.723 Y-52.9266
X-0.7207 Y-52.9047
X-0.719 Y-52.8828
X-0.718 Y-52.8608
X-0.7175 Y-52.8388
X-0.7177 Y-52.8168
X-0.7185 Y-52.7949
X-0.72 Y-52.7729
X-0.722 Y-52.751
X-0.7247 Y-52.7292
X-0.728 Y-52.7075
X-0.732 Y-52.6858
X-0.7365 Y-52.6643
X-0.7417 Y-52.6429
X-0.7474 Y-52.6217
X-0.7538 Y-52.6007
X-0.7608 Y-52.5798
X-0.7683 Y-52.5591
X-0.7765 Y-52.5387
X-0.7852 Y-52.5185
X-0.7945 Y-52.4986
X-0.8043 Y-52.4789
X-0.8148 Y-52.4596
X-0.8257 Y-52.4405
X-0.8372 Y-52.4218
X-0.8493 Y-52.4034
X-0.8618 Y-52.3853
X-0.8749 Y-52.3676
X-0.8884 Y-52.3503
G3 X-2.31 Y-52.8656 I-0.6214 J-0.5041
X-0.8894 Y-53.458 I0.8259 J-0.0189
X-1.4014 Y-51.9605 I-0.604 J0.6298
X-2.3101 Y-53.3007 I-0.0949 J-0.9138
X-0.6824 Y-53.3562 I0.8292 J0.4246
X-1.3908 Y-51.864 I-0.8061 J0.5316
X-2.4741 Y-53.1488 I-0.1087 J-1.0075
X-0.8829 Y-53.7123 I0.9906 J0.269
X-0.8158 Y-51.9983 I-0.6215 J0.8827
X-2.4974 Y-52.3864 I-0.6865 J-0.8627
X-1.777 Y-53.9648 I1.0109 J-0.4922
X-0.3452 Y-53.0162 I0.2911 J1.1156
G1 X-0.3419 Y-52.6875
G3 X-0.5306 Y-52.1684 I-1.0042 J-0.0713
G2 X-0.7725 Y-51.9499 I0.2627 J0.5339
X-1.0096 Y-51.7989 I0.1047 J0.4262
G3 X-1.5099 Y-51.6594 I-0.4468 J-0.6353
X-2.631 Y-52.4456 I0.0117 J-1.209
X-2.599 Y-53.3846 I1.1362 J-0.4313
G1 X-2.5843 Y-53.3908
X-2.5699 Y-53.3977
X-2.5558 Y-53.405
X-2.542 Y-53.413
X-2.5285 Y-53.4214
X-2.5153 Y-53.4304
X-2.5025 Y-53.4399
X-2.4901 Y-53.4498
X-2.478 Y-53.4603
X-2.4664 Y-53.4712
X-2.4552 Y-53.4825
X-2.4445 Y-53.4943
X-2.4342 Y-53.5065
X-2.4244 Y-53.519
X-2.4151 Y-53.532
X-2.4063 Y-53.5453
X-2.3981 Y-53.5589
X-2.3903 Y-53.5728
X-2.3832 Y-53.587
X-2.3765 Y-53.6015
X-2.3705 Y-53.6163
X-2.365 Y-53.6312
X-2.3601 Y-53.6464
X-2.3558 Y-53.6617
X-2.3521 Y-53.6772
G3 X-1.875 Y-54.0234 I2.7147 J3.2397
X-1.5888 Y-54.0974 I0.3309 J0.6892
X-1.5904 Y-54.0682 I-0.0055 J0.0143
G1 X-1.8625 Y-53.9957
G3 X-1.8744 Y-53.9974 I-0.004 J-0.0149
X-1.875 Y-54.0234 I0.0079 J-0.0132 F50.
X-1.7055 Y-54.1185 I0.408 J0.5284 F60.
X-1.4766 Y-54.0775 I-0.1351 J1.4128
G2 X-1.3992 Y-54.0853 I-0.0418 J-0.7978
G1 X-1.372 Y-54.084
X-1.3449 Y-54.0821
X-1.3179 Y-54.0796
X-1.2909 Y-54.0765
X-1.264 Y-54.0727
X-1.2372 Y-54.0684
X-1.2105 Y-54.0634
X-1.1839 Y-54.0578
X-1.1574 Y-54.0516
X-1.1311 Y-54.0448
X-1.105 Y-54.0374
X-1.079 Y-54.0294
X-1.0532 Y-54.0208
X-1.0277 Y-54.0116
X-1.0023 Y-54.0019
X-0.9772 Y-53.9915
X-0.9523 Y-53.9806
X-0.9277 Y-53.9691
X-0.9034 Y-53.9571
X-0.8793 Y-53.9444
X-0.8555 Y-53.9313
X-0.8321 Y-53.9176
X-0.8089 Y-53.9034
X-0.7861 Y-53.8886
X-0.7637 Y-53.8733
X-0.7415 Y-53.8576
X-0.7198 Y-53.8413
X-0.6984 Y-53.8245
X-0.6775 Y-53.8072
X-0.6569 Y-53.7895
X-0.6367 Y-53.7713
X-0.617 Y-53.7526
X-0.5977 Y-53.7335
X-0.5788 Y-53.7139
X-0.5604 Y-53.6939
X-0.5425 Y-53.6735
X-0.525 Y-53.6527
X-0.508 Y-53.6315
X-0.4915 Y-53.6099
X-0.4755 Y-53.588
X-0.4601 Y-53.5657
X-0.4451 Y-53.543
X-0.4306 Y-53.52
X-0.4167 Y-53.4967
X-0.4033 Y-53.473
X-0.3905 Y-53.4491
X-0.3782 Y-53.4249
X-0.3665 Y-53.4003
X-0.3553 Y-53.3756
X-0.3447 Y-53.3506
X-0.3419 Y-53.0167
G3 X-0.35 Y-53.0036 I-0.0154 J-0.0005
X-0.3722 Y-53.0051 I-0.0099 J-0.0186
X-0.3628 Y-53.3313 I0.1148 J-0.1599
G1 X-0.35 Y-53.3387 F50.
G2 X-0.3419 Y-53.3517 I-0.0072 J-0.0136
G1 Y-53.4973 F60.
G2 X-0.6118 Y-53.8767 I-0.7205 J0.2268
G1 X-0.6329 Y-53.8947
X-0.6543 Y-53.9122
X-0.6761 Y-53.9292
X-0.6983 Y-53.9458
X-0.7208 Y-53.9619
X-0.7436 Y-53.9775
X-0.7668 Y-53.9926
X-0.7903 Y-54.0073
X-0.8141 Y-54.0214
X-0.8382 Y-54.035
X-0.8625 Y-54.0481
X-0.8872 Y-54.0607
X-0.9121 Y-54.0728
X-0.9373 Y-54.0843
X-0.9627 Y-54.0953
X-0.9883 Y-54.1058
X-1.0141 Y-54.1157
X-1.0402 Y-54.125
X-1.0664 Y-54.1338
X-1.0928 Y-54.1421
X-1.1194 Y-54.1497
X-1.1462 Y-54.1568
X-1.1731 Y-54.1634
X-1.2001 Y-54.1693
X-1.2272 Y-54.1747
G3 X-1.3992 Y-54.0853 I-0.238 J-0.2475
G2 X-1.4097 Y-54.0742 I0.0043 J0.0147
X-1.3728 Y-54.015 I0.0475 J0.0115
X-1.2299 Y-54.1423 I0.0254 J-0.1153
X-1.2323 Y-54.1569 I-0.1175 J0.012 F50.
G3 X-1.2278 Y-54.1716 I0.015 J-0.0035
G1 X-1.2096 Y-54.1875 F60.
X-1.2017 Y-54.1948
X-1.1982 Y-54.1988
X-1.1863 Y-54.2042
X-1.1742 Y-54.2092
X-1.1619 Y-54.2136
X-1.1494 Y-54.2174
X-1.1368 Y-54.2207
X-1.124 Y-54.2234
X-1.1111 Y-54.2255
X-1.0981 Y-54.2271
X-1.085 Y-54.228
X-1.072 Y-54.2284
X-1.0589 Y-54.2282
X-1.0458 Y-54.2273
X-1.0328 Y-54.2259
X-1.0199 Y-54.224
X-1.0071 Y-54.2214
X-0.9944 Y-54.2183
X-0.9819 Y-54.2146
X-0.9695 Y-54.2103
X-0.9574 Y-54.2055
X-0.9454 Y-54.2001
X-0.9338 Y-54.1942
X-0.9224 Y-54.1878
X-0.9113 Y-54.1809
X-0.9005 Y-54.1735
X-0.8901 Y-54.1656
X-0.88 Y-54.1572
X-0.8544 Y-54.1463
X-0.829 Y-54.1348
X-0.8038 Y-54.1228
X-0.779 Y-54.1101
X-0.7544 Y-54.097
X-0.7301 Y-54.0832
X-0.7062 Y-54.069
X-0.6825 Y-54.0542
X-0.6592 Y-54.0389
X-0.6363 Y-54.023
X-0.6137 Y-54.0067
X-0.5915 Y-53.9898
X-0.5697 Y-53.9725
X-0.5483 Y-53.9546
X-0.5272 Y-53.9363
X-0.5066 Y-53.9176
X-0.4864 Y-53.8983
X-0.4667 Y-53.8787
X-0.4474 Y-53.8586
X-0.4285 Y-53.838
X-0.4101 Y-53.8171
X-0.3922 Y-53.7957
X-0.3748 Y-53.7739
X-0.3578 Y-53.7518
X-0.3414 Y-53.7293
X-0.3419 Y-53.4973
G3 X-0.35 Y-53.4842 I-0.0154 J-0.0005
X-0.4159 Y-53.5048 I-0.0228 J-0.0428
X-0.3627 Y-53.7083 I0.14 J-0.0722
X-0.35 Y-53.7159 I0.0868 J0.1314 F50.
G2 X-0.3419 Y-53.729 I-0.0072 J-0.0136
G1 Y-53.8125 F60.
G2 X-0.5909 Y-54.1117 I-0.4986 J0.1618
X-1.1226 Y-54.3234 I-0.5895 J0.7069
G1 X-1.1247 Y-54.3205
G3 X-1.1982 Y-54.1988 I-0.434 J-0.179
G2 X-1.1961 Y-54.1771 I0.0119 J0.0098
X-1.1537 Y-54.1785 I0.0204 J-0.0249
X-1.1192 Y-54.2907 I-0.0808 J-0.0862
X-1.1248 Y-54.3087 I-0.1152 J0.026 F50.
G3 X-1.1247 Y-54.3205 I0.0143 J-0.0057
G1 X-1.1101 Y-54.3516 F60.
X-1.1094 Y-54.353
X-1.109 Y-54.3537
X-1.1016 Y-54.3629
X-1.09 Y-54.3691
X-1.0782 Y-54.3748
X-1.066 Y-54.3799
X-1.0537 Y-54.3844
X-1.0412 Y-54.3884
X-1.0285 Y-54.3917
X-1.0156 Y-54.3944
X-1.0026 Y-54.3965
X-0.9896 Y-54.3979
X-0.9765 Y-54.3988
X-0.9633 Y-54.399
X-0.9502 Y-54.3986
X-0.9371 Y-54.3975
X-0.9241 Y-54.3958
X-0.9111 Y-54.3935
X-0.8983 Y-54.3906
X-0.8857 Y-54.3871
X-0.8732 Y-54.383
X-0.8609 Y-54.3782
X-0.8489 Y-54.3729
X-0.8372 Y-54.3671
X-0.8257 Y-54.3606
X-0.8146 Y-54.3537
X-0.8038 Y-54.3462
X-0.7934 Y-54.3382
X-0.7833 Y-54.3297
G3 X-0.3407 Y-54.022 I-0.4278 J1.0878
G1 X-0.3419 Y-53.8125
G3 X-0.3685 Y-53.8026 I-0.0154 J-0.0005
X-0.3927 Y-53.9453 I0.0963 J-0.0898
X-0.3599 Y-53.9967 I0.1803 J0.0791
X-0.3467 Y-54.0102 I0.1474 J0.1305 F50.
G2 X-0.3419 Y-54.0209 I-0.0105 J-0.0112
G1 Y-54.0937 F60.
X-0.3479 Y-54.1089
X-0.3545 Y-54.1239
X-0.3617 Y-54.1385
X-0.3694 Y-54.1529
X-0.3777 Y-54.167
X-0.3865 Y-54.1808
X-0.3958 Y-54.1942
X-0.4057 Y-54.2072
X-0.416 Y-54.2198
X-0.4268 Y-54.2321
X-0.4381 Y-54.2439
X-0.4498 Y-54.2553
X-0.462 Y-54.2662
X-0.4746 Y-54.2766
X-0.4875 Y-54.2866
X-0.5009 Y-54.296
X-0.5145 Y-54.3049
X-0.5286 Y-54.3133
X-0.5429 Y-54.3212
X-0.5575 Y-54.3284
X-0.5724 Y-54.3352
X-0.5875 Y-54.3413
X-0.6029 Y-54.3469
G2 X-0.8233 Y-54.4607 I-0.4592 J0.6187
X-1.093 Y-54.3733 I0.0709 J0.6786
G1 X-1.0935 Y-54.3728
X-1.1016 Y-54.3629
G2 X-1.1035 Y-54.3476 I0.0123 J0.0093
X-1.0538 Y-54.309 I0.0595 J-0.0251
X-0.8389 Y-54.4359 I0.0301 J-0.1945
G1 X-0.8343 Y-54.45 F50.
G3 X-0.8233 Y-54.4607 I0.0148 J0.0042
G1 X-0.7266 Y-54.4818 F60.
G3 X-0.3703 Y-54.3123 I-0.0507 J0.5658
X-0.3419 Y-54.281 I-0.0115 J0.039
G1 Y-54.0937
G3 X-0.35 Y-54.0807 I-0.0154 J-0.0005
X-0.3845 Y-54.0873 I-0.0132 J-0.0247
X-0.3626 Y-54.2602 I0.09 J-0.0765
X-0.35 Y-54.268 I0.0682 J0.0964 F50.
G2 X-0.3419 Y-54.281 I-0.0072 J-0.0136
G1 Y-54.341 F60.
G2 X-0.5058 Y-54.5211 I-0.27 J0.0812
G1 X-0.6563 Y-54.4968
X-0.6797 Y-54.492
X-0.7266 Y-54.4818
G2 X-0.7376 Y-54.4711 I0.0038 J0.0149
X-0.6997 Y-54.4081 I0.0486 J0.0137
X-0.5228 Y-54.4972 I0.0333 J-0.1539
X-0.5174 Y-54.511 I-0.1435 J-0.0648 F50.
G3 X-0.5058 Y-54.5211 I0.0145 J0.005
X-0.3493 Y-54.3448 I0.0439 J0.1186 F60.
G1 X-0.3483 Y-54.3434
X-0.3476 Y-54.3417
X-0.3472 Y-54.3399
Y-54.3378
X-0.3477 Y-54.3358
X-0.3485 Y-54.3337
X-0.3498 Y-54.3318
X-0.3515 Y-54.3302
X-0.3536 Y-54.3288
X-0.356 Y-54.3278
X-0.3586 Y-54.3273
X-0.3614
X-0.3643 Y-54.3279
X-0.3669 Y-54.3293 Z-0.1672
X-0.3695 Y-54.3306 Z-0.1663
X-0.3718 Y-54.3318 Z-0.1649
X-0.3739 Y-54.3329 Z-0.163
X-0.3756 Y-54.3337 Z-0.1607
X-0.3769 Y-54.3344 Z-0.158
X-0.3777 Y-54.3348 Z-0.1551
X-0.3779 Y-54.3349 Z-0.1521
G0 Z-0.1368
X-2.5511 Y-53.3844
G1 Z-0.1521 F50.
X-2.5513 Y-53.3845 Z-0.1551
X-2.5522 Y-53.3846 Z-0.158
X-2.5536 Y-53.3848 Z-0.1607
X-2.5555 Y-53.3851 Z-0.163
X-2.5578 Y-53.3855 Z-0.1649
X-2.5604 Y-53.3859 Z-0.1663
X-2.5633 Y-53.3863 Z-0.1672
X-2.5662 Y-53.3867 Z-0.1675
G2 X-2.597 Y-53.3837 I-0.0094 J0.0616
X-2.7162 Y-53.2969 I0.0409 J0.1813 F60.
X-2.7872 Y-52.6398 I0.9458 J0.4346
X-2.0086 Y-51.6639 I1.2951 J-0.2347
G1 X-1.9828 Y-51.6531
X-1.9568 Y-51.6429
X-1.9305 Y-51.6332
X-1.9041 Y-51.6241
X-1.8774 Y-51.6157
X-1.8506 Y-51.6078
X-1.8236 Y-51.6005
X-1.7964 Y-51.5938
X-1.7692 Y-51.5877
X-1.7417 Y-51.5822
X-1.7142 Y-51.5774
X-1.6866 Y-51.5731
X-1.6588 Y-51.5695
X-1.631 Y-51.5665
X-1.6032 Y-51.5641
X-1.5753 Y-51.5623
X-1.5474 Y-51.5611
X-1.5194 Y-51.5606
X-1.4914 Y-51.5607
X-1.4635 Y-51.5614
X-1.4356 Y-51.5627
X-1.4077 Y-51.5646
X-1.3798 Y-51.5672
X-1.352 Y-51.5704
X-1.3243 Y-51.5741
X-1.2967 Y-51.5786
X-1.2692 Y-51.5836
X-1.2418 Y-51.5892
X-1.2146 Y-51.5954
X-1.1875 Y-51.6023
X-1.1605 Y-51.6097
X-1.1337 Y-51.6177
X-1.1071 Y-51.6264
X-1.0807 Y-51.6356
G3 X-1.0096 Y-51.7989 I0.3376 J0.0499
G2 X-1.0086 Y-51.8142 I-0.0128 J-0.0085
X-1.1021 Y-51.8277 I-0.0514 J0.0254
X-1.0993 Y-51.6646 I0.0868 J0.0801
X-1.0882 Y-51.6547 I0.084 J-0.083 F50.
G3 X-1.0825 Y-51.6405 I-0.0095 J0.0121
G1 X-1.0839 Y-51.6328 F60.
X-1.0881 Y-51.6023
X-1.0952 Y-51.5915
X-1.1027 Y-51.5811
X-1.1106 Y-51.5711
X-1.1191 Y-51.5614
X-1.128 Y-51.5522
X-1.1372 Y-51.5433
X-1.1469 Y-51.5349
X-1.157 Y-51.527
X-1.1674 Y-51.5195
X-1.1782 Y-51.5125
X-1.1892 Y-51.5061
X-1.2006 Y-51.5001
X-1.2122 Y-51.4947
X-1.2241 Y-51.4898
X-1.2362 Y-51.4855
X-1.2484 Y-51.4817
X-1.2608 Y-51.4785
X-1.2734 Y-51.4759
X-1.286 Y-51.4738
X-1.2988 Y-51.4724
X-1.3116 Y-51.4715
X-1.3244 Y-51.4713
X-1.3372 Y-51.4716
X-1.35 Y-51.4725
X-1.3627 Y-51.474
X-1.3754 Y-51.4761
G3 X-2.7364 Y-52.2076 I-0.1485 J-1.3555
X-2.8931 Y-53.0705 I1.1973 J-0.6632
G1 X-2.8119 Y-53.1797
X-2.7934 Y-53.2031
X-2.7162 Y-53.2969
G3 X-2.7016 Y-53.3018 I0.0115 J0.0102
X-2.6562 Y-53.2343 I-0.0115 J0.0567
X-2.8636 Y-53.0745 I-0.1934 J-0.0365
G1 X-2.8783 Y-53.0761 F50.
G2 X-2.8926 Y-53.0704 I-0.0022 J0.0152
G1 X-2.9157 Y-53.0391 F60.
X-2.9297 Y-53.0184
X-2.9695 Y-52.9579
G2 X-2.9566 Y-52.4911 I0.7501 J0.2129
X-1.9572 Y-51.4341 I1.4631 J-0.3823
G1 X-1.9293 Y-51.4252
X-1.9012 Y-51.417
X-1.873 Y-51.4093
X-1.8446 Y-51.4021
X-1.8161 Y-51.3956
X-1.7874 Y-51.3897
X-1.7587 Y-51.3844
X-1.7298 Y-51.3796
X-1.7008 Y-51.3755
X-1.6718 Y-51.3719
X-1.6427 Y-51.369
X-1.6135 Y-51.3667
X-1.5843 Y-51.365
X-1.5551 Y-51.3638
X-1.5258 Y-51.3633
X-1.4966 Y-51.3634
X-1.4673 Y-51.3641
X-1.4381 Y-51.3654
X-1.4089 Y-51.3673
X-1.3797 Y-51.3698
X-1.3506 Y-51.3729
X-1.3216 Y-51.3766
X-1.2927 Y-51.381
X-1.2638 Y-51.3859
X-1.2351 Y-51.3914
X-1.2065 Y-51.3975
G2 X-1.0904 Y-51.5859 I-0.278 J-0.3011
G1 X-1.0881 Y-51.6023
G2 X-1.0944 Y-51.6163 I-0.0153 J-0.0016
X-1.1488 Y-51.6181 I-0.0285 J0.0392
X-1.212 Y-51.4294 I0.0841 J0.1331
X-1.2061 Y-51.4158 I0.1474 J-0.0556 F50.
G3 X-1.2072 Y-51.4005 I-0.0138 J0.0068
X-1.3125 Y-51.3419 I-0.0996 J-0.055 F60.
G1 X-1.9219
G3 X-2.661 Y-51.763 I0.2721 J-1.3367
X-3.099 Y-52.7495 I1.1608 J-1.1059
G1 X-3.0377 Y-52.8516
X-3.0239 Y-52.875
X-2.9695 Y-52.9579
G3 X-2.9555 Y-52.9643 I0.0125 J0.0089
X-2.9209 Y-52.9301 I-0.0035 J0.0382
X-3.0687 Y-52.7569 I-0.1567 J0.0159
X-3.0835 Y-52.7568 I-0.0089 J-0.1572 F50.
G2 X-3.0971 Y-52.7496 I-0.0006 J0.0154
G1 X-3.1196 Y-52.7109 F60.
X-3.1319 Y-52.6875
X-3.1499 Y-52.6523
G2 X-3.0894 Y-52.2589 I0.6392 J0.103
X-2.2522 Y-51.341 I1.5936 J-0.6128
G1 X-1.9219 Y-51.3419
G2 X-1.9088 Y-51.35 I-0.0005 J-0.0154
X-1.9118 Y-51.381 I-0.0249 J-0.0133
X-2.2312 Y-51.3628 I-0.1532 J0.1236
G1 X-2.2387 Y-51.35 F50.
G3 X-2.2517 Y-51.3419 I-0.0136 J-0.0072
G1 X-2.3906 F60.
G3 X-2.7802 Y-51.6014 I0.2602 J-0.8126
X-3.1692 Y-52.1927 I1.2743 J-1.2618
G2 X-3.2253 Y-52.5077 I-0.584 J-0.0584
G1 X-3.2109 Y-52.5299
X-3.2039 Y-52.5469
X-3.1499 Y-52.6523
G3 X-3.129 Y-52.6583 I0.0134 J0.0075
G1 X-3.1232 Y-52.6548
G3 X-3.0984 Y-52.6349 I-0.0706 J0.1128
X-3.1445 Y-52.2123 I-0.1974 J0.1923
G1 X-3.1606 Y-52.2025 F50.
G2 X-3.1678 Y-52.1933 I0.0075 J0.0134
G1 X-3.1787 Y-52.1484 F60.
X-3.1818 Y-52.1367
X-3.1865 Y-52.125
G2 X-3.0536 Y-51.7877 I0.4124 J0.0324
X-2.6262 Y-51.3419 I1.3272 J-0.8445
G1 X-2.3906
G2 X-2.3776 Y-51.35 I-0.0005 J-0.0154
X-2.3954 Y-51.4122 I-0.0411 J-0.0219
X-2.6056 Y-51.3627 I-0.0789 J0.1363
X-2.6132 Y-51.35 I0.1314 J0.0868 F50.
G3 X-2.6262 Y-51.3419 I-0.0136 J-0.0072
G1 X-2.7188 F60.
G3 X-3.03 Y-51.5813 I0.1904 J-0.5694
X-3.2737 Y-51.9932 I0.7385 J-0.7153
G2 X-3.1865 Y-52.125 I-0.2556 J-0.2641
G3 X-3.1735 Y-52.1332 I0.0136 J0.0071
X-3.1216 Y-52.0331 I0.0026 J0.0621
X-3.2444 Y-51.9909 I-0.0935 J-0.0722
X-3.2586 Y-51.9955 I0.0293 J-0.1144 F50.
G2 X-3.2737 Y-51.9932 I-0.0056 J0.0143
G1 X-3.2944 Y-51.9757 F60.
X-3.2997 Y-51.9658
X-3.3044 Y-51.9556
X-3.3085 Y-51.9452
X-3.312 Y-51.9346
X-3.3149 Y-51.9239
X-3.3172 Y-51.9129
X-3.3189 Y-51.9019
X-3.32 Y-51.8907
X-3.3205 Y-51.8796
X-3.3203 Y-51.8684
X-3.3195 Y-51.8573
X-3.3181 Y-51.8462
X-3.316 Y-51.8352
X-3.3134 Y-51.8243
X-3.3101 Y-51.8136
X-3.3063 Y-51.8031
X-3.3018 Y-51.7929
X-3.2968 Y-51.7829
X-3.2913 Y-51.7732
X-3.2852 Y-51.7638
X-3.2786 Y-51.7548
X-3.2715 Y-51.7462
X-3.2639 Y-51.7379
X-3.2559 Y-51.7302
X-3.2475 Y-51.7228
X-3.2338 Y-51.6987
X-3.2197 Y-51.6749
X-3.205 Y-51.6514
X-3.1899 Y-51.6282
X-3.1743 Y-51.6053
X-3.1583 Y-51.5828
X-3.1418 Y-51.5606
X-3.1248 Y-51.5387
X-3.1074 Y-51.5172
X-3.0895 Y-51.496
X-3.0712 Y-51.4752
X-3.0525 Y-51.4548
X-3.0333 Y-51.4348
X-3.0138 Y-51.4152
X-2.9938 Y-51.396
X-2.9735 Y-51.3772
X-2.9528 Y-51.3588
X-2.9317 Y-51.3409
X-2.7188 Y-51.3419
G2 X-2.7057 Y-51.35 I-0.0005 J-0.0154
X-2.7407 Y-51.4287 I-0.0482 J-0.0257
X-2.9103 Y-51.3627 I-0.0382 J0.1528
X-2.9179 Y-51.35 I0.1314 J0.0868 F50.
G3 X-2.9309 Y-51.3419 I-0.0136 J-0.0072
G1 X-3. F60.
G3 X-3.2717 Y-51.5687 I0.1477 J-0.4529
X-3.4118 Y-51.9035 I0.3304 J-0.335
G2 X-3.2944 Y-51.9757 I-0.2463 J-0.5318
G3 X-3.2696 Y-51.9618 I0.0095 J0.0121
X-3.2926 Y-51.922 I-0.0578 J-0.0068
X-3.3817 Y-51.8999 I-0.0707 J-0.0946
X-3.4 Y-51.9043 I0.0185 J-0.1167 F50.
G2 X-3.4118 Y-51.9035 I-0.0048 J0.0146
X-3.4671 Y-51.7969 I0.0809 J0.1096 F60.
X-3.2974 Y-51.4396 I0.5681 J-0.0509
X-3.2037 Y-51.3419 I0.1958 J-0.0939
G1 X-3.
G2 X-2.9901 Y-51.3685 I-0.0005 J-0.0154
X-3.0045 Y-51.3787 I-0.0456 J0.0489
X-3.1793 Y-51.3597 I-0.0732 J0.1394
X-3.193 Y-51.3467 I0.1015 J0.1204 F50.
G3 X-3.2037 Y-51.3419 I-0.0112 J-0.0105
G1 X-3.2707 F60.
G3 X-3.3917 Y-51.4098 I0.03 J-0.195
X-3.3844 Y-51.4168 I0.0047 J-0.0024
G1 X-3.3691 Y-51.4083
X-3.2833 Y-51.3602
X-3.2683 Y-51.3517 F50.
G3 X-3.2707 Y-51.3419 I-0.0026 J0.0046
G1 X-3.2796 Y-51.3415 F60.
X-3.2885 Y-51.3418
X-3.2974 Y-51.3426
X-3.3062 Y-51.3441
X-3.3149 Y-51.3463
X-3.3234 Y-51.349
X-3.3316 Y-51.3523
X-3.3397 Y-51.3562
X-3.3474 Y-51.3606
X-3.3548 Y-51.3656
X-3.3619 Y-51.3711
X-3.3685 Y-51.377
X-3.3747 Y-51.3834
X-3.3805 Y-51.3902
X-3.3857 Y-51.3974
X-3.3905 Y-51.405
X-3.3947 Y-51.4129
X-3.3983 Y-51.421
X-3.4013 Y-51.4294
X-3.4038 Y-51.438
X-3.4057 Y-51.4467
X-3.4069 Y-51.4555
X-3.4075 Y-51.4644
Y-51.4733
X-3.4069 Y-51.4822
X-3.4056 Y-51.4911
G3 X-3.4878 Y-51.7031 I0.3025 J-0.2391
G1 X-3.4671 Y-51.7969
G3 X-3.4424 Y-51.8049 I0.0149 J0.0038
G1 X-3.4401 Y-51.8029 Z-0.1672
X-3.4379 Y-51.8011 Z-0.1663
X-3.4358 Y-51.7994 Z-0.1649
X-3.434 Y-51.7979 Z-0.163
X-3.4326 Y-51.7967 Z-0.1607
X-3.4315 Y-51.7958 Z-0.158
X-3.4308 Y-51.7952 Z-0.1551
X-3.4306 Y-51.795 Z-0.1521
G0 Z-0.1368
X-0.3584 Y-52.7304
G1 Z-0.1521 F50.
X-0.3583 Y-52.7301 Z-0.1551
X-0.3578 Y-52.7294 Z-0.158
X-0.3571 Y-52.7282 Z-0.1607
X-0.3561 Y-52.7265 Z-0.163
X-0.3549 Y-52.7245 Z-0.1649
X-0.3536 Y-52.7222 Z-0.1663
X-0.3521 Y-52.7197 Z-0.1672
X-0.3506 Y-52.7172 Z-0.1675
G3 X-0.3419 Y-52.6875 I-0.0536 J0.0318
G1 Y-52.3594 F60.
G3 X-0.3884 Y-52.2133 I-0.3047 J-0.0165
X-0.3979 Y-52.2197 I-0.0038 J-0.0046
G1 X-0.3933 Y-52.2345
X-0.3578 Y-52.3475
X-0.3536 Y-52.361 F50.
G3 X-0.3419 Y-52.3594 I0.0057 J0.0018
G1 X-0.34 Y-52.3501 F60.
X-0.3387 Y-52.3407
X-0.338 Y-52.3313
X-0.3379 Y-52.3219
X-0.3385 Y-52.3124
X-0.3397 Y-52.3031
X-0.3415 Y-52.2938
X-0.3438 Y-52.2846
X-0.3468 Y-52.2756
X-0.3503 Y-52.2669
X-0.3544 Y-52.2584
X-0.3591 Y-52.2501
X-0.3643 Y-52.2422
X-0.3699 Y-52.2347
X-0.3761 Y-52.2275
X-0.3827 Y-52.2208
X-0.3898 Y-52.2144
X-0.3972 Y-52.2086
X-0.405 Y-52.2033
X-0.4131 Y-52.1984
X-0.4215 Y-52.1941
X-0.4302 Y-52.1904
X-0.4391 Y-52.1873
X-0.4482 Y-52.1847
X-0.4575 Y-52.1827
X-0.4668 Y-52.1813
X-0.4762 Y-52.1806
X-0.4857 Y-52.1804
X-0.4951 Y-52.1809
X-0.5045 Y-52.182
X-0.5138 Y-52.1837
X-0.5309 Y-52.1687
G3 X-0.5456 Y-52.1706 I-0.0056 J-0.0143
G1 X-0.5472 Y-52.1724 Z-0.1673
X-0.5487 Y-52.1742 Z-0.1668
X-0.5501 Y-52.1758 Z-0.1659
X-0.5506 Y-52.1779 Z-0.1645
X-0.5511 Y-52.1797 Z-0.1629
X-0.5515 Y-52.1812 Z-0.161
X-0.5518 Y-52.1825 Z-0.1588
Y-52.183 Z-0.1577
Y-52.1837 Z-0.1549
Y-52.184 Z-0.1521
G0 Z0.4
X-1.8819 Y-49.594
Z0.1
G3 X-1.9471 Y-49.4633 Z0.0385 I-0.0326 J0.0653 F50.
X-1.896 Y-49.5993 Z-0.0189 I0.0326 J-0.0653
X-1.8431 Y-49.5137 Z-0.0486 I-0.0186 J0.0706
X-1.986 Y-49.5436 Z-0.1101 I-0.0715 J-0.0149
X-1.8415 Y-49.5286 Z-0.1675 I0.0715 J0.0149
X-1.9876 I-0.073 J0.
X-1.8418 Y-49.5346 I0.073 J0.
G1 X-1.8415 Y-49.5286
G3 X-1.9979 Y-49.4057 I-0.0818 J0.0568 F60.
G1 X-2.006 Y-49.4111
X-2.0138 Y-49.4171
X-2.0211 Y-49.4235
X-2.0281 Y-49.4303
X-2.0346 Y-49.4376
X-2.0406 Y-49.4453
X-2.0461 Y-49.4534
X-2.0511 Y-49.4617
X-2.0556 Y-49.4704
X-2.0595 Y-49.4794
X-2.0628 Y-49.4885
X-2.0655 Y-49.4979
X-2.0677 Y-49.5074
X-2.0692 Y-49.5171
X-2.0702 Y-49.5268
X-2.0705 Y-49.5365
X-2.0702 Y-49.5463
X-2.0693 Y-49.556
X-2.0677 Y-49.5656
X-2.0656 Y-49.5752
X-2.0629 Y-49.5845
X-2.0596 Y-49.5937
X-2.0557 Y-49.6027
X-2.0512 Y-49.6114
X-2.0462 Y-49.6197
X-2.0407 Y-49.6278
X-2.0347 Y-49.6355
X-2.0283 Y-49.6428
X-2.0213 Y-49.6497
X-2.014 Y-49.6561
X-2.0063 Y-49.662
X-1.9982 Y-49.6675
X-1.9897 Y-49.6724
X-1.981 Y-49.6768
X-1.972 Y-49.6806
X-1.9628 Y-49.6839
X-1.9535 Y-49.6865
X-1.9439 Y-49.6886
X-1.9343 Y-49.6901
X-1.9246 Y-49.6909
X-1.9148 Y-49.6911
X-1.905 Y-49.6907
X-1.8953 Y-49.6897
X-1.8857 Y-49.6881
X-1.8762 Y-49.6859
X-1.8669 Y-49.6831
X-1.8577 Y-49.6797
X-1.8488 Y-49.6757
X-1.8402 Y-49.6712
X-1.8318 Y-49.6662
X-1.8238 Y-49.6606
X-1.8162 Y-49.6545
X-1.8089 Y-49.648
X-1.8021 Y-49.641
X-1.7958 Y-49.6336
X-1.7899 Y-49.6258
X-1.7845 Y-49.6177
X-1.7797 Y-49.6092
X-1.7754 Y-49.6005
X-1.7716 Y-49.5915
X-1.7685 Y-49.5822
X-1.7659 Y-49.5728
X-1.7603 Y-49.5636
X-1.7552 Y-49.554
X-1.7507 Y-49.5442
X-1.7468 Y-49.5341
X-1.7434 Y-49.5239
X-1.7406 Y-49.5134
X-1.7385 Y-49.5028
X-1.7369 Y-49.4921
X-1.7359 Y-49.4814
X-1.7356 Y-49.4706
X-1.7359 Y-49.4598
X-1.7368 Y-49.449
X-1.7383 Y-49.4383
X-1.7404 Y-49.4277
X-1.7431 Y-49.4172
X-1.7464 Y-49.407
X-1.7503 Y-49.3969
X-1.7547 Y-49.387
X-1.7597 Y-49.3774
X-1.7652 Y-49.3682
X-1.7713 Y-49.3592
X-1.7779 Y-49.3506
X-1.7849 Y-49.3424
X-1.7924 Y-49.3346
X-1.8003 Y-49.3273
X-1.8087 Y-49.3204
X-1.8174 Y-49.314
X-1.8264 Y-49.3081
X-1.8358 Y-49.3028
X-1.8455 Y-49.2979
X-1.8554 Y-49.2937
X-1.8656 Y-49.29
X-1.8759 Y-49.2869
X-1.8864 Y-49.2844
X-1.897 Y-49.2824
X-1.9078 Y-49.2811
X-1.9186 Y-49.2805
X-1.9294 Y-49.2804
X-1.9402 Y-49.2809
X-1.9509 Y-49.2821
X-1.9616 Y-49.2838
X-1.9721 Y-49.2862
X-1.9825 Y-49.2892
X-1.9927 Y-49.2927
X-2.0027 Y-49.2969
X-2.0124 Y-49.3016
X-2.0219 Y-49.3068
X-2.031 Y-49.3126
X-2.0398 Y-49.3188
X-2.0482 Y-49.3256
X-2.0562 Y-49.3328
X-2.0638 Y-49.3405
X-2.0737 Y-49.3475
X-2.0832 Y-49.3549
X-2.0923 Y-49.3629
X-2.101 Y-49.3713
X-2.1092 Y-49.3801
X-2.117 Y-49.3894
X-2.1243 Y-49.399
X-2.1311 Y-49.409
X-2.1373 Y-49.4193
X-2.143 Y-49.43
X-2.1482 Y-49.4409
X-2.1528 Y-49.452
X-2.1568 Y-49.4634
X-2.1602 Y-49.475
X-2.1631 Y-49.4868
X-2.1653 Y-49.4986
X-2.1669 Y-49.5106
X-2.1679 Y-49.5227
X-2.1682 Y-49.5347
X-2.1679 Y-49.5468
X-2.1671 Y-49.5588
X-2.1656 Y-49.5708
X-2.1634 Y-49.5827
X-2.1607 Y-49.5945
X-2.1574 Y-49.6061
X-2.1535 Y-49.6175
X-2.149 Y-49.6287
X-2.1439 Y-49.6397
X-2.1383 Y-49.6504
X-2.1321 Y-49.6608
X-2.1254 Y-49.6708
X-2.1182 Y-49.6805
X-2.1105 Y-49.6898
X-2.1023 Y-49.6987
X-2.0937 Y-49.7072
X-2.0847 Y-49.7152
X-2.0752 Y-49.7227
X-2.0654 Y-49.7297
X-2.0552 Y-49.7363
X-2.0448 Y-49.7423
X-2.034 Y-49.7477
X-2.0216 Y-49.7528
X-2.009 Y-49.7573
X-1.9962 Y-49.7612
X-1.9832 Y-49.7645
X-1.9701 Y-49.7673
X-1.9569 Y-49.7693
X-1.9436 Y-49.7708
X-1.9302 Y-49.7717
X-1.9169 Y-49.7719
X-1.9035 Y-49.7715
X-1.8901 Y-49.7705
X-1.8768 Y-49.7689
X-1.8637 Y-49.7666
X-1.8506 Y-49.7637
X-1.8377 Y-49.7602
X-1.8249 Y-49.7562
X-1.8124 Y-49.7515
X-1.8001 Y-49.7463
X-1.788 Y-49.7404
X-1.7762 Y-49.7341
X-1.7648 Y-49.7272
X-1.7536 Y-49.7197
X-1.7429 Y-49.7118
X-1.7325 Y-49.7033
X-1.7225 Y-49.6944
X-1.713 Y-49.685
X-1.7038 Y-49.6752
X-1.6952 Y-49.665
X-1.6871 Y-49.6544
X-1.6794 Y-49.6434
X-1.6723 Y-49.6321
X-1.6657 Y-49.6204
X-1.6597 Y-49.6085
X-1.6542 Y-49.5963
X-1.6493 Y-49.5838
X-1.645 Y-49.5711
X-1.6412 Y-49.5583
X-1.6381 Y-49.5453
X-1.6356 Y-49.5321
X-1.6337 Y-49.5189
X-1.6325 Y-49.5056
X-1.6318 Y-49.4922
Y-49.4788
X-1.6324 Y-49.4654
X-1.6336 Y-49.4521
X-1.6355 Y-49.4389
X-1.6379 Y-49.4257
X-1.641 Y-49.4127
X-1.6447 Y-49.3998
X-1.6489 Y-49.3871
X-1.6538 Y-49.3747
X-1.6592 Y-49.3624
X-1.6652 Y-49.3505
X-1.6718 Y-49.3388
X-1.6789 Y-49.3275
X-1.6865 Y-49.3164
X-1.6946 Y-49.3058
X-1.7032 Y-49.2955
X-1.7123 Y-49.2857
X-1.7218 Y-49.2763
X-1.7317 Y-49.2674
X-1.7421 Y-49.2589
X-1.7528 Y-49.2509
X-1.7639 Y-49.2434
X-1.7754 Y-49.2365
X-1.7871 Y-49.2301
X-1.7991 Y-49.2242
X-1.8114 Y-49.2189
X-1.8239 Y-49.2142
X-1.8377 Y-49.2099
X-1.8516 Y-49.2062
X-1.8656 Y-49.2031
X-1.8798 Y-49.2007
X-1.894 Y-49.1988
X-1.9084 Y-49.1975
X-1.9227 Y-49.1969
X-1.9371 Y-49.1968
X-1.9515 Y-49.1974
X-1.9658 Y-49.1987
X-1.98 Y-49.2005
X-1.9942 Y-49.2029
X-2.0083 Y-49.206
X-2.0222 Y-49.2096
X-2.0359 Y-49.2138
X-2.0495 Y-49.2187
X-2.0628 Y-49.2241
X-2.0759 Y-49.23
X-2.0887 Y-49.2366
X-2.1012 Y-49.2436
X-2.1134 Y-49.2513
X-2.1253 Y-49.2594
X-2.1368 Y-49.268
X-2.1479 Y-49.2771
X-2.1586 Y-49.2867
X-2.1689 Y-49.2967
X-2.1788 Y-49.3072
X-2.1882 Y-49.3181
X-2.1971 Y-49.3293
X-2.2055 Y-49.341
X-2.2134 Y-49.353
X-2.2208 Y-49.3653
X-2.2277 Y-49.378
X-2.234 Y-49.3909
X-2.2398 Y-49.4041
X-2.2449 Y-49.4175
X-2.2495 Y-49.4311
X-2.2535 Y-49.4449
X-2.2569 Y-49.4589
X-2.2598 Y-49.473
X-2.2619 Y-49.4872
X-2.2635 Y-49.5015
X-2.2645 Y-49.5158
X-2.2648 Y-49.5302
X-2.2646 Y-49.5446
X-2.2637 Y-49.5589
X-2.2622 Y-49.5732
X-2.2601 Y-49.5874
X-2.2574 Y-49.6016
X-2.254 Y-49.6155
X-2.2501 Y-49.6294
X-2.2456 Y-49.643
X-2.2405 Y-49.6565
X-2.2348 Y-49.6697
X-2.2286 Y-49.6826
X-2.2218 Y-49.6953
X-2.2145 Y-49.7077
X-2.2066 Y-49.7197
X-2.1982 Y-49.7314
X-2.1894 Y-49.7427
X-2.18 Y-49.7537
X-2.1702 Y-49.7642
X-2.16 Y-49.7743
X-2.1493 Y-49.7839
X-2.1383 Y-49.7931
X-2.1268 Y-49.8018
X-2.115 Y-49.81
X-2.1028 Y-49.8177
X-2.0904 Y-49.8248
X-2.0776 Y-49.8314
X-2.0646 Y-49.8375
X-2.0513 Y-49.8429
X-2.0377 Y-49.8478
X-2.023 Y-49.8523
X-2.0081 Y-49.8562
X-1.993 Y-49.8595
X-1.9779 Y-49.8622
X-1.9626 Y-49.8643
X-1.9472 Y-49.8658
X-1.9318 Y-49.8666
X-1.9164 Y-49.8668
X-1.901 Y-49.8664
X-1.8856 Y-49.8654
X-1.8703 Y-49.8637
X-1.8551 Y-49.8615
X-1.8399 Y-49.8586
X-1.8249 Y-49.8551
X-1.81 Y-49.851
X-1.7953 Y-49.8464
X-1.7809 Y-49.8411
X-1.7666 Y-49.8352
X-1.7526 Y-49.8288
X-1.7388 Y-49.8218
X-1.7254 Y-49.8143
X-1.7122 Y-49.8063
X-1.6994 Y-49.7977
X-1.687 Y-49.7886
X-1.6749 Y-49.779
X-1.6632 Y-49.7689
X-1.652 Y-49.7584
X-1.6412 Y-49.7474
X-1.6308 Y-49.736
X-1.6209 Y-49.7242
X-1.6115 Y-49.712
X-1.6025 Y-49.6994
X-1.5941 Y-49.6865
X-1.5862 Y-49.6733
X-1.5789 Y-49.6597
X-1.5721 Y-49.6459
X-1.5659 Y-49.6318
X-1.5602 Y-49.6174
X-1.5552 Y-49.6029
X-1.5507 Y-49.5881
X-1.5468 Y-49.5732
X-1.5435 Y-49.5582
X-1.5409 Y-49.543
X-1.5388 Y-49.5277
X-1.5374 Y-49.5123
X-1.5366 Y-49.497
X-1.5364 Y-49.4815
X-1.5368 Y-49.4661
X-1.5378 Y-49.4508
X-1.5395 Y-49.4354
X-1.5418 Y-49.4202
X-1.5447 Y-49.405
X-1.5482 Y-49.39
X-1.5523 Y-49.3752
X-1.557 Y-49.3605
X-1.5623 Y-49.346
X-1.5682 Y-49.3318
X-1.5746 Y-49.3178
X-1.5816 Y-49.304
X-1.5891 Y-49.2906
X-1.5972 Y-49.2775
X-1.6058 Y-49.2647
X-1.6149 Y-49.2522
X-1.6245 Y-49.2402
X-1.6346 Y-49.2285
X-1.6452 Y-49.2173
X-1.6562 Y-49.2065
X-1.6676 Y-49.1961
X-1.6794 Y-49.1862
X-1.6916 Y-49.1768
X-1.7042 Y-49.1679
X-1.7171 Y-49.1595
X-1.7304 Y-49.1517
X-1.7439 Y-49.1444
X-1.7578 Y-49.1376
X-1.7719 Y-49.1314
X-1.7863 Y-49.1258
X-1.8008 Y-49.1207
G3 X-2.3539 Y-49.4943 I-0.1361 J-0.3947
G1 X-2.3548 Y-49.5109
X-2.3552 Y-49.5276
X-2.3549 Y-49.5442
X-2.354 Y-49.5608
X-2.3525 Y-49.5773
X-2.3504 Y-49.5938
X-2.3476 Y-49.6102
X-2.3443 Y-49.6265
X-2.3403 Y-49.6426
X-2.3357 Y-49.6586
X-2.3306 Y-49.6744
X-2.3248 Y-49.69
X-2.3185 Y-49.7054
X-2.3116 Y-49.7205
X-2.3042 Y-49.7354
X-2.2962 Y-49.7499
X-2.2876 Y-49.7642
X-2.2786 Y-49.7781
X-2.269 Y-49.7917
X-2.2589 Y-49.8049
X-2.2483 Y-49.8177
X-2.2373 Y-49.8302
X-2.2258 Y-49.8422
X-2.2139 Y-49.8537
X-2.2015 Y-49.8648
X-2.1887 Y-49.8755
X-2.1756 Y-49.8856
X-2.162 Y-49.8953
X-2.1482 Y-49.9044
X-2.134 Y-49.9131
X-2.1194 Y-49.9211
X-2.1046 Y-49.9287
X-2.0895 Y-49.9357
X-2.0742 Y-49.9421
X-2.0586 Y-49.9479
X-2.0429 Y-49.9531
X-2.0269 Y-49.9578
X-2.0108 Y-49.9618
X-1.9945 Y-49.9653
X-1.9781 Y-49.9681
X-1.9617 Y-49.9704
X-1.9451 Y-49.972
X-1.9285 Y-49.9729
X-1.9119 Y-49.9733
X-1.8953 Y-49.9731
X-1.8787 Y-49.9722
X-1.8621 Y-49.9707
X-1.8457 Y-49.9686
X-1.8293 Y-49.9659
X-1.813 Y-49.9625
X-1.7968 Y-49.9586
X-1.7808 Y-49.954
X-1.765 Y-49.9489
X-1.7494 Y-49.9432
X-1.7341 Y-49.9369
X-1.7189 Y-49.93
X-1.7041 Y-49.9226
X-1.6895 Y-49.9146
X-1.6752 Y-49.906
X-1.6613 Y-49.897
X-1.6477 Y-49.8874
X-1.6345 Y-49.8774
X-1.6216 Y-49.8668
X-1.6092 Y-49.8558
X-1.5972 Y-49.8443
X-1.5856 Y-49.8324
X-1.5745 Y-49.82
X-1.5638 Y-49.8073
X-1.5536 Y-49.7941
X-1.544 Y-49.7806
X-1.5348 Y-49.7667
X-1.5262 Y-49.7525
X-1.5181 Y-49.738
X-1.5105 Y-49.7232
X-1.5035 Y-49.7082
X-1.4971 Y-49.6928
X-1.4912 Y-49.6773
X-1.486 Y-49.6615
X-1.4813 Y-49.6455
X-1.4772 Y-49.6294
X-1.4713 Y-49.6139
X-1.4659 Y-49.5981
X-1.4612 Y-49.5821
X-1.457 Y-49.5659
X-1.4535 Y-49.5496
X-1.4505 Y-49.5332
X-1.4482 Y-49.5167
X-1.4465 Y-49.5001
X-1.4454 Y-49.4835
X-1.445 Y-49.4668
X-1.4451 Y-49.4502
X-1.4459 Y-49.4335
X-1.4473 Y-49.4169
X-1.4494 Y-49.4004
X-1.452 Y-49.3839
X-1.4553 Y-49.3675
X-1.4591 Y-49.3513
X-1.4636 Y-49.3353
X-1.4687 Y-49.3194
X-1.4743 Y-49.3037
X-1.4805 Y-49.2882
X-1.4873 Y-49.273
X-1.4947 Y-49.2581
X-1.5026 Y-49.2434
X-1.5111 Y-49.229
X-1.5201 Y-49.215
X-1.5296 Y-49.2013
X-1.5397 Y-49.188
X-1.5502 Y-49.1751
X-1.5612 Y-49.1625
X-1.5726 Y-49.1504
X-1.5845 Y-49.1387
X-1.5968 Y-49.1275
X-1.6095 Y-49.1167
X-1.6227 Y-49.1065
X-1.6362 Y-49.0967
X-1.65 Y-49.0874
X-1.6642 Y-49.0787
X-1.6787 Y-49.0705
X-1.6948 Y-49.0621
X-1.7111 Y-49.0542
X-1.7278 Y-49.047
X-1.7446 Y-49.0403
X-1.7617 Y-49.0342
X-1.779 Y-49.0287
X-1.7964 Y-49.0237
X-1.814 Y-49.0194
X-1.8318 Y-49.0157
X-1.8496 Y-49.0126
X-1.8676 Y-49.0101
X-1.8856 Y-49.0083
X-1.9037 Y-49.007
X-1.9218 Y-49.0064
X-1.94
X-1.9581 Y-49.007
X-1.9762 Y-49.0083
X-1.9942 Y-49.0101
X-2.0122 Y-49.0126
X-2.03 Y-49.0157
X-2.0478 Y-49.0194
X-2.0654 Y-49.0238
X-2.0828 Y-49.0287
X-2.1001 Y-49.0342
X-2.1172 Y-49.0403
X-2.134 Y-49.047
X-2.1506 Y-49.0543
X-2.167 Y-49.0621
X-2.183 Y-49.0705
X-2.1988 Y-49.0794
X-2.2143 Y-49.0889
X-2.2294 Y-49.0989
X-2.2442 Y-49.1094
X-2.2586 Y-49.1204
X-2.2726 Y-49.1319
X-2.2862 Y-49.1439
X-2.2994 Y-49.1563
X-2.3122 Y-49.1692
X-2.3245 Y-49.1825
X-2.3363 Y-49.1962
X-2.3477 Y-49.2104
X-2.3585 Y-49.2249
X-2.3689 Y-49.2397
X-2.3788 Y-49.255
X-2.3881 Y-49.2705
X-2.3969 Y-49.2864
X-2.4051 Y-49.3025
X-2.4128 Y-49.319
X-2.4199 Y-49.3356
X-2.4264 Y-49.3525
X-2.4324 Y-49.3697
X-2.4377 Y-49.387
X-2.4425 Y-49.4045
X-2.4466 Y-49.4221
X-2.4501 Y-49.4399
X-2.4531 Y-49.4578
X-2.4554 Y-49.4758
X-2.4571 Y-49.4938
X-2.4581 Y-49.5119
X-2.4586 Y-49.5301
X-2.4584 Y-49.5482
X-2.4576 Y-49.5663
X-2.4562 Y-49.5844
X-2.4542 Y-49.6024
X-2.4515 Y-49.6203
X-2.4482 Y-49.6382
X-2.4444 Y-49.6559
X-2.4399 Y-49.6734
X-2.4348 Y-49.6908
X-2.4291 Y-49.7081
X-2.4228 Y-49.7251
X-2.416 Y-49.7419
X-2.4086 Y-49.7584
X-2.4006 Y-49.7747
X-2.392 Y-49.7907
X-2.383 Y-49.8063
X-2.3733 Y-49.8217
X-2.3632 Y-49.8367
X-2.3525 Y-49.8514
X-2.3414 Y-49.8657
X-2.3298 Y-49.8796
X-2.3177 Y-49.8931
X-2.3051 Y-49.9062
X-2.2921 Y-49.9188
X-2.2787 Y-49.931
X-2.2648 Y-49.9427
X-2.2506 Y-49.9539
X-2.236 Y-49.9647
X-2.221 Y-49.9749
X-2.2057 Y-49.9846
X-2.1901 Y-49.9938
X-2.1741 Y-50.0024
X-2.1579 Y-50.0105
X-2.1414 Y-50.018
X-2.1247 Y-50.025
X-2.1077 Y-50.0313
X-2.0905 Y-50.0371
X-2.0731 Y-50.0423
X-2.0556 Y-50.0469
X-2.0379 Y-50.0509
X-2.0201 Y-50.0542
X-2.0022 Y-50.057
X-1.9842 Y-50.0591
X-1.9661 Y-50.0606
X-1.948 Y-50.0615
X-1.9299 Y-50.0618
X-1.9117 Y-50.0615
X-1.8936 Y-50.0605
X-1.8756 Y-50.0589
G3 X-1.3589 Y-49.3548 I-0.0489 J0.5775
X-2.1265 Y-48.9381 I-0.5656 J-0.1266
X-1.7182 Y-50.1321 I0.2053 J-0.5966
X-1.986 Y-48.8054 I-0.2114 J0.6477
X-2.1607 Y-50.2202 I0.0646 J-0.7261
G1 X-2.1398 Y-50.2267
X-2.1186 Y-50.2327
X-2.0973 Y-50.2381
X-2.0758 Y-50.2428
X-2.0542 Y-50.2469
X-2.0325 Y-50.2504
X-2.0107 Y-50.2533
X-1.9888 Y-50.2556
X-1.9669 Y-50.2573
X-1.9449 Y-50.2583
X-1.9229 Y-50.2587
X-1.9009 Y-50.2584
X-1.879 Y-50.2576
X-1.857 Y-50.2561
X-1.8351 Y-50.254
X-1.8133 Y-50.2512
X-1.7916 Y-50.2479
X-1.7699 Y-50.2439
X-1.7484 Y-50.2393
X-1.7271 Y-50.2341
X-1.7058 Y-50.2283
X-1.6848 Y-50.2219
X-1.664 Y-50.2149
X-1.6433 Y-50.2073
X-1.6229 Y-50.1991
X-1.6027 Y-50.1904
X-1.5828 Y-50.181
X-1.5632 Y-50.1711
X-1.5439 Y-50.1607
X-1.5248 Y-50.1497
X-1.5061 Y-50.1381
X-1.4877 Y-50.126
X-1.4697 Y-50.1135
X-1.452 Y-50.1004
X-1.4347 Y-50.0868
X-1.4178 Y-50.0727
X-1.4014 Y-50.0581
X-1.3853 Y-50.0431
X-1.3697 Y-50.0276
X-1.3545 Y-50.0117
X-1.3398 Y-49.9953
X-1.3255 Y-49.9786
X-1.3118 Y-49.9614
X-1.2985 Y-49.9439
X-1.2858 Y-49.926
X-1.2735 Y-49.9077
X-1.2618 Y-49.8891
X-1.2506 Y-49.8702
X-1.24 Y-49.8509
X-1.2299 Y-49.8314
X-1.2204 Y-49.8116
X-1.2114 Y-49.7915
X-1.203 Y-49.7711
X-1.1952 Y-49.7506
X-1.188 Y-49.7298
X-1.1814 Y-49.7088
X-1.1754 Y-49.6877
X-1.17 Y-49.6663
X-1.1652 Y-49.6449
X-1.1611 Y-49.6233
X-1.1575 Y-49.6016
X-1.1546 Y-49.5798
X-1.1522 Y-49.5579
X-1.1505 Y-49.536
X-1.1495 Y-49.514
X-1.149 Y-49.492
X-1.1492 Y-49.4701
X-1.15 Y-49.4481
X-1.1515 Y-49.4261
X-1.1535 Y-49.4042
X-1.1562 Y-49.3824
X-1.1595 Y-49.3607
X-1.1635 Y-49.339
X-1.168 Y-49.3175
X-1.1732 Y-49.2961
X-1.1789 Y-49.2749
X-1.1853 Y-49.2539
X-1.1923 Y-49.233
X-1.1998 Y-49.2124
X-1.208 Y-49.1919
X-1.2167 Y-49.1717
X-1.226 Y-49.1518
X-1.2358 Y-49.1322
X-1.2463 Y-49.1128
X-1.2572 Y-49.0937
X-1.2687 Y-49.075
X-1.2808 Y-49.0566
X-1.2933 Y-49.0385
X-1.3064 Y-49.0208
X-1.3199 Y-49.0035
G3 X-2.7415 Y-49.5188 I-0.6214 J-0.5042
X-1.3209 Y-50.1112 I0.8259 J-0.0189
X-1.8329 Y-48.6137 I-0.604 J0.6298
X-2.7416 Y-49.9539 I-0.0949 J-0.9138
X-1.114 Y-50.0094 I0.8292 J0.4246
X-1.8223 Y-48.5172 I-0.8061 J0.5316
X-2.9056 Y-49.802 I-0.1087 J-1.0075
X-1.3144 Y-50.3655 I0.9906 J0.269
X-1.2473 Y-48.6515 I-0.6215 J0.8827
X-2.929 Y-49.0396 I-0.6865 J-0.8627
X-2.2085 Y-50.6181 I1.0109 J-0.4922
X-1.0246 Y-50.2266 I0.2949 J1.094
G1 X-1.0085 Y-50.2031
X-1.0078 Y-50.2022
X-0.9975 Y-50.1909
G3 X-1.3376 Y-48.4715 I-0.9275 J0.7099
X-2.385 Y-48.4021 I-0.5944 J-1.0318
G1 X-2.3913 Y-48.4167
X-2.3981 Y-48.431
X-2.4055 Y-48.4451
X-2.4135 Y-48.4588
X-2.4219 Y-48.4723
X-2.4309 Y-48.4854
X-2.4404 Y-48.4981
X-2.4504 Y-48.5105
X-2.4608 Y-48.5225
X-2.4717 Y-48.5341
X-2.483 Y-48.5452
X-2.4948 Y-48.5559
X-2.5069 Y-48.5661
X-2.5195 Y-48.5759
X-2.5324 Y-48.5851
X-2.5457 Y-48.5939
X-2.5593 Y-48.6021
X-2.5732 Y-48.6098
X-2.5873 Y-48.6169
X-2.6018 Y-48.6235
X-2.6165 Y-48.6295
X-2.6314 Y-48.635
X-2.6465 Y-48.6399
X-2.6618 Y-48.6442
X-2.6773 Y-48.6478
G3 X-3.0852 Y-49.2305 I2.9819 J-2.5221
G1 X-3.0929 Y-49.2558
X-3.0999 Y-49.2814
X-3.1064 Y-49.3071
X-3.1122 Y-49.3329
X-3.1175 Y-49.3589
X-3.1221 Y-49.385
X-3.1261 Y-49.4112
X-3.1295 Y-49.4375
X-3.1323 Y-49.4638
X-3.1344 Y-49.4902
X-3.1359 Y-49.5167
X-3.1369 Y-49.5432
X-3.1372 Y-49.5696
X-3.1368 Y-49.5961
X-3.1359 Y-49.6226
X-3.1343 Y-49.6491
X-3.1321 Y-49.6755
X-3.1293 Y-49.7018
X-3.1259 Y-49.7281
X-3.1218 Y-49.7543
X-3.1171 Y-49.7804
X-3.1119 Y-49.8063
X-3.106 Y-49.8322
X-3.0995 Y-49.8579
X-3.0924 Y-49.8834
X-3.0847 Y-49.9087
X-3.0765 Y-49.9339
X-3.0676 Y-49.9589
X-3.0581 Y-49.9836
X-3.0481 Y-50.0082
X-3.0375 Y-50.0324
X-3.0263 Y-50.0565
X-3.0146 Y-50.0802
X-3.0023 Y-50.1037
X-2.9895 Y-50.1269
X-2.9761 Y-50.1498
X-2.9622 Y-50.1723
X-2.9478 Y-50.1945
X-2.9328 Y-50.2164
X-2.9174 Y-50.2379
X-2.9014 Y-50.2591
X-2.885 Y-50.2798
X-2.868 Y-50.3002
X-2.8506 Y-50.3202
X-2.8327 Y-50.3398
X-2.8144 Y-50.3589
X-2.7956 Y-50.3776
X-2.7764 Y-50.3958
X-2.7568 Y-50.4136
G3 X-2.3932 Y-50.6582 I0.7699 J0.7523
G1 X-1.5
G3 X-1.0925 Y-50.4386 I-0.1759 J0.8145
G2 X-1.0253 Y-50.2263 I0.4612 J-0.0292
G1 X-1.0238 Y-50.2239
X-1.0229 Y-50.2212
X-1.0226 Y-50.2183
X-1.0228 Y-50.2155
X-1.0236 Y-50.2126
X-1.025 Y-50.21
X-1.0269 Y-50.2077
X-1.0292 Y-50.2058
X-1.0319 Y-50.2044
X-1.0349 Y-50.2035
G3 X-1.0389 Y-50.234 I-0.002 J-0.0152
X-1.0222 Y-50.2235 I0.002 J0.0152
G1 X-1.0138 Y-50.1969
G3 X-1.0431 Y-50.1876 I-0.0146 J0.0047
X-1.024 Y-50.2069 I0.0146 J-0.0047
X-0.9975 Y-50.1909 I-0.018 J0.0596 F50.
G2 X-0.8672 Y-50.0904 I0.2851 J-0.2347 F60.
G3 X-0.688 Y-49.7502 I-0.3246 J0.3882
X-1.2762 Y-48.3939 I-1.2318 J0.2715
X-2.2652 Y-48.2576 I-0.6561 J-1.1045
X-2.3841 Y-48.4043 I0.1018 J-0.2041
X-2.3814 Y-48.4195 I0.0144 J-0.0053
X-2.3239 Y-48.4247 I0.0314 J0.0262
X-2.2677 Y-48.2874 I-0.1005 J0.1213
X-2.2699 Y-48.2728 I-0.1567 J-0.016 F50.
G2 X-2.265 Y-48.2582 I0.0151 J0.003
G1 X-2.1786 Y-48.1875 F60.
X-2.1563 Y-48.1703
G2 X-1.7355 Y-48.1291 I0.273 J-0.6181
X-0.6187 Y-49.0808 I-0.1911 J-1.3553
X-0.6209 Y-49.8805 I-1.3026 J-0.3962
G3 X-0.7722 Y-50.0579 I0.4661 J-0.5508
G1 X-0.7969 Y-50.0625
X-0.8203 Y-50.0722
X-0.8672 Y-50.0904
G2 X-0.8823 Y-50.0875 I-0.0051 J0.0145
X-0.9072 Y-49.9746 I0.0629 J0.0731
X-0.6514 Y-49.8745 I0.1793 J-0.0812
G1 X-0.638 Y-49.8807 F50.
G3 X-0.6226 Y-49.88 I0.007 J0.0137
G1 X-0.5859 Y-49.8546 F60.
X-0.5811 Y-49.8516
X-0.5709 Y-49.8468
G3 X-0.4613 Y-49.5027 I-0.284 J0.2799
X-1.2417 Y-48.1869 I-1.4575 J0.0248
X-1.9402 Y-48.0175 I-0.6806 J-1.2817
G1 X-1.9846 Y-48.0469
X-1.9922 Y-48.0518
X-2.1563 Y-48.1703
G3 X-2.1616 Y-48.1847 I0.0098 J-0.0119
X-2.1542 Y-48.1934 I0.0109 J0.0018
G1 X-2.1515 Y-48.1943
G3 X-1.9465 Y-48.0475 I0.0476 J0.1501
X-1.9469 Y-48.0327 I-0.1574 J0.0033 F50.
G2 X-1.9402 Y-48.0189 I0.0153 J0.0011
G1 X-1.8516 Y-47.963 F60.
G2 X-1.6656 Y-47.942 I0.1263 J-0.2851
G1 X-1.6406 Y-47.9501
X-1.6268 Y-47.9531
X-1.6172 Y-47.9542
G2 X-0.3713 Y-49.3192 I-0.2895 J-1.5152
X-0.4157 Y-49.7981 I-0.9067 J-0.1576
G3 X-0.5625 Y-49.8428 I0.0552 J-0.4446
G2 X-0.5777 Y-49.8406 I-0.0057 J0.0143
X-0.5699 Y-49.7668 I0.0272 J0.0344
X-0.4409 Y-49.7831 I0.0521 J-0.106
X-0.4303 Y-49.7934 I-0.0768 J-0.0897 F50.
G3 X-0.4157 Y-49.7981 I0.0114 J0.0103
X-0.3419 Y-49.6875 I-0.0356 J0.1037 F60.
G1 Y-49.0313
X-0.3493 Y-49.0012
X-0.3573 Y-48.9714
X-0.366 Y-48.9417
X-0.3753 Y-48.9122
X-0.3851 Y-48.8829
X-0.3955 Y-48.8538
X-0.4065 Y-48.8249
X-0.4181 Y-48.7962
X-0.4303 Y-48.7678
X-0.4431 Y-48.7396
X-0.4564 Y-48.7117
X-0.4702 Y-48.684
X-0.4847 Y-48.6567
X-0.4996 Y-48.6296
X-0.5152 Y-48.6029
X-0.5312 Y-48.5764
X-0.5478 Y-48.5503
X-0.5649 Y-48.5246
X-0.5825 Y-48.4992
X-0.6006 Y-48.4741
X-0.6193 Y-48.4494
X-0.6384 Y-48.4251
X-0.658 Y-48.4012
X-0.6781 Y-48.3777
X-0.6987 Y-48.3546
X-0.7197 Y-48.3319
X-0.7412 Y-48.3097
X-0.7631 Y-48.2879
X-0.7854 Y-48.2665
X-0.8082 Y-48.2456
X-0.8314 Y-48.2251
X-0.855 Y-48.2052
X-0.879 Y-48.1857
X-0.9034 Y-48.1667
X-0.9282 Y-48.1482
X-0.9533 Y-48.1302
X-0.9788 Y-48.1127
X-1.0047 Y-48.0957
X-1.0309 Y-48.0792
X-1.0574 Y-48.0633
X-1.0842 Y-48.0479
X-1.1113 Y-48.0331
X-1.1387 Y-48.0188
X-1.1664 Y-48.005
X-1.1944 Y-47.9919
X-1.2227 Y-47.9793
X-1.2511 Y-47.9672
X-1.2799 Y-47.9558
G3 X-1.382 Y-47.9148 I-0.0868 J-0.0685
G2 X-1.6172 Y-47.9542 I-0.1727 J0.309
G3 X-1.6203 Y-47.9848 I-0.0015 J-0.0153
X-1.6034 Y-47.9702 I0.0015 J0.0153
X-1.6188 Y-47.9541 I-0.0154 J0.0008
G1 X-1.6517 Y-47.9542
G3 X-1.6516 Y-47.9849 I0. J-0.0154
X-1.6401 Y-47.9594 I0. J0.0154
X-1.6656 Y-47.942 I-0.0468 J-0.0412 F50.
X-1.8516 Y-47.963 I-0.0795 J-0.1294 F60.
X-1.855 Y-47.986 I0.0082 J-0.013
G1 X-1.8521 Y-47.9894
G3 X-1.4469 Y-48.0856 I0.2704 J0.2378
X-1.4028 Y-47.9527 I-0.0344 J0.0852
G2 X-1.405 Y-47.9448 I0.0131 J0.008
G1 X-1.4048 Y-47.9422
X-1.4041 Y-47.9397
X-1.4031 Y-47.9374
G2 X-1.382 Y-47.9148 I0.0546 J-0.0299 F50.
G1 X-1.3594 Y-47.9014 F60.
X-1.3359 Y-47.8871
G2 X-1.0062 Y-47.9884 I0.07 J-0.3592
G1 X-0.9793 Y-48.0042
X-0.9527 Y-48.0204
X-0.9265 Y-48.0372
X-0.9005 Y-48.0544
X-0.8749 Y-48.0722
X-0.8497 Y-48.0904
X-0.8248 Y-48.1092
X-0.8003 Y-48.1284
X-0.7761 Y-48.148
X-0.7523 Y-48.1682
X-0.7289 Y-48.1887
X-0.706 Y-48.2098
X-0.6834 Y-48.2312
X-0.6612 Y-48.2532
X-0.6395 Y-48.2755
X-0.6182 Y-48.2982
X-0.5974 Y-48.3214
X-0.577 Y-48.3449
X-0.557 Y-48.3688
X-0.5375 Y-48.3931
X-0.5185 Y-48.4178
X-0.5 Y-48.4429
X-0.4819 Y-48.4683
X-0.4644 Y-48.494
X-0.4473 Y-48.5201
X-0.4308 Y-48.5465
X-0.4148 Y-48.5732
X-0.3992 Y-48.6002
X-0.3842 Y-48.6275
X-0.3698 Y-48.6551
X-0.3558 Y-48.6829
X-0.3424 Y-48.7111
X-0.3419 Y-49.0313
G2 X-0.35 Y-49.0443 I-0.0154 J0.0005
X-0.3957 Y-49.0376 I-0.0183 J0.0344
X-0.3628 Y-48.7313 I0.1383 J0.1401
G1 X-0.35 Y-48.7238 F50.
G3 X-0.3419 Y-48.7108 I-0.0072 J0.0136
G1 Y-48.5625 F60.
G3 X-0.6423 Y-48.1336 I-0.9516 J-0.347
G1 X-0.6622 Y-48.1136
X-0.6825 Y-48.0941
X-0.7032 Y-48.075
X-0.7243 Y-48.0563
X-0.7457 Y-48.038
X-0.7675 Y-48.0202
X-0.7897 Y-48.0029
X-0.8123 Y-47.986
X-0.8352 Y-47.9696
X-0.8584 Y-47.9536
X-0.882 Y-47.9382
X-0.9059 Y-47.9232
X-0.93 Y-47.9088
X-0.9545 Y-47.8948
X-0.9793 Y-47.8814
X-1.0043 Y-47.8685
X-1.0296 Y-47.8561
X-1.0551 Y-47.8442
X-1.0809 Y-47.8328
X-1.1069 Y-47.822
X-1.1332 Y-47.8118
X-1.1596 Y-47.802
X-1.1862 Y-47.7929
X-1.2131 Y-47.7842
X-1.2401 Y-47.7762
G2 X-1.3359 Y-47.8871 I-0.3088 J0.1701
G3 X-1.3411 Y-47.9015 I0.01 J-0.0117
X-1.3321 Y-47.911 I0.0118 J0.0021
G1 X-1.3311 Y-47.9113
G3 X-1.2378 Y-47.813 I0.0176 J0.0767
X-1.2431 Y-47.7992 I-0.0757 J-0.0215 F50.
G2 X-1.2423 Y-47.7839 I0.0137 J0.0069
G1 X-1.2307 Y-47.7656 F60.
X-1.2298 Y-47.7635
X-1.2221 Y-47.7568
X-1.214 Y-47.7505
X-1.2056 Y-47.7448
X-1.1968 Y-47.7396
X-1.1877 Y-47.735
X-1.1784 Y-47.7309
X-1.1688 Y-47.7273
X-1.159 Y-47.7244
X-1.1491 Y-47.7221
X-1.139 Y-47.7204
X-1.1289 Y-47.7192
X-1.1187 Y-47.7188
X-1.1085 Y-47.7189
X-1.0983 Y-47.7196
X-1.0882 Y-47.721
X-1.0782 Y-47.723
X-1.0683 Y-47.7256
X-1.0586 Y-47.7288
X-1.0491 Y-47.7325
X-1.0399 Y-47.7369
X-1.0309 Y-47.7417
X-1.0223 Y-47.7472
X-1.014 Y-47.7531
X-1.0061 Y-47.7595
X-0.9986 Y-47.7664
X-0.9695 Y-47.7808
X-0.9407 Y-47.7958
X-0.9122 Y-47.8113
X-0.884 Y-47.8274
X-0.8561 Y-47.8439
X-0.8285 Y-47.8611
X-0.8013 Y-47.8787
X-0.7744 Y-47.8969
X-0.7479 Y-47.9156
X-0.7217 Y-47.9348
X-0.6959 Y-47.9545
X-0.6705 Y-47.9747
X-0.6455 Y-47.9954
X-0.6209 Y-48.0165
X-0.5967 Y-48.0382
X-0.5729 Y-48.0602
X-0.5496 Y-48.0828
X-0.5267 Y-48.1058
X-0.5042 Y-48.1292
X-0.4822 Y-48.153
X-0.4606 Y-48.1773
X-0.4396 Y-48.202
X-0.419 Y-48.2271
X-0.3989 Y-48.2526
X-0.3793 Y-48.2784
X-0.3602 Y-48.3047
X-0.3416 Y-48.3313
X-0.3419 Y-48.5625
G2 X-0.35 Y-48.5755 I-0.0154 J0.0005
X-0.4164 Y-48.5545 I-0.0229 J0.043
X-0.3627 Y-48.3521 I0.1405 J0.0711
X-0.35 Y-48.3445 I0.0868 J-0.1314 F50.
G3 X-0.3419 Y-48.3314 I-0.0072 J0.0136
G1 Y-48.2344 F60.
G3 X-0.5794 Y-47.9232 I-0.5887 J-0.2032
X-1.1312 Y-47.6275 I-0.7478 J-0.7326
X-1.2252 Y-47.7638 I0.0698 J-0.1487
G1 X-1.2267 Y-47.7656
X-1.2279 Y-47.7677
X-1.2286 Y-47.7702
X-1.2289 Y-47.773
X-1.2285 Y-47.7758
X-1.2275 Y-47.7787
G3 X-1.2143 Y-47.7802 I0.0074 J0.0058
X-1.1414 Y-47.6549 I-0.1218 J0.1547
G1 X-1.1398 Y-47.6402 F50.
G2 X-1.1312 Y-47.6275 I0.0153 J-0.0011
G1 X-1.1256 Y-47.625 F60.
X-1.0078 Y-47.5896
G2 X-0.6504 Y-47.7403 I-0.0205 J-0.5477
X-0.3419 Y-48.0237 I-0.8674 J-1.2543
G1 Y-48.2344
G2 X-0.35 Y-48.2474 I-0.0154 J0.0005
X-0.4293 Y-48.2114 I-0.0258 J0.0484
X-0.3627 Y-48.0443 I0.1534 J0.0357
X-0.35 Y-48.0367 I0.0868 J-0.1314 F50.
G3 X-0.3419 Y-48.0237 I-0.0072 J0.0136
G1 Y-47.9531 F60.
