%
(971-23-P-0152_WRIST TENSIONER_1537)
(T1  D=0.1537 CR=0. - ZMIN=-0.235 - FLAT END MILL)
G90 G94 G17 G91.1
G64 P0.001 Q0.001
G20
G53 G0 Z0.
(.3 CIRCLUAR THROUGH HOLE)
M9
T1 M6
S22000 M3
G4 P10.
G54
M7
G0 X2.3401 Y-0.3561
G43 Z0.6 H1
G0 Z0.13
G1 Z0.0654 F40.
G19 G2 Y-0.3715 Z0.05 J-0.0154 K0.
G1 Y-0.3792
G17 G3 X2.3507 Y-0.3898 I0.0106 J0.
Y-0.3475 Z0. I0. J0.0211
Y-0.3898 Z-0.05 I0. J-0.0211
Y-0.3475 Z-0.1 I0. J0.0211
Y-0.3898 Z-0.15 I0. J-0.0211
Y-0.3475 Z-0.2 I0. J0.0212
X2.3335 Y-0.381 Z-0.235 I0. J-0.0212
X2.3678 Y-0.3562 I0.0171 J0.0124
X2.3335 Y-0.381 I-0.0171 J-0.0124
X2.3483 Y-0.3834 I0.0086 J0.0062
G1 X2.3545 Y-0.3789
X2.357 Y-0.3771 Z-0.2347
X2.3593 Y-0.3754 Z-0.2338
X2.3614 Y-0.3739 Z-0.2324
X2.3633 Y-0.3725 Z-0.2305
X2.3649 Y-0.3714 Z-0.2282
X2.366 Y-0.3705 Z-0.2255
X2.3667 Y-0.37 Z-0.2226
X2.367 Y-0.3698 Z-0.2196
G0 Z0.4
X3.564 Y-1.0272
Z0.1146
G1 Z0.05 F40.
Y-1.0349
G3 X3.568 Y-1.0388 I0.0039 J0.
Y-1.023 Z0. I0. J0.0079
Y-1.0388 Z-0.05 I0. J-0.0079
X3.5716 Y-1.0239 Z-0.0925 I0. J0.0079
X3.5644 Y-1.038 Z-0.1425 I-0.0036 J-0.007
X3.574 Y-1.0361 Z-0.1637 I0.0036 J0.007
X3.562 Y-1.0258 Z-0.2138 I-0.006 J0.0051
X3.5616 Y-1.0356 Z-0.235 I0.006 J-0.0051
X3.5744 Y-1.0263 I0.0064 J0.0046
X3.5616 Y-1.0356 I-0.0064 J-0.0046
X3.5671 Y-1.0365 I0.0032 J0.0023
G1 X3.5733 Y-1.0319
G0 Z0.4
X4.1035 Y-1.3207
Z0.1146
G1 Z0.05 F40.
Y-1.3284
G3 X4.1075 Y-1.3324 I0.004 J0.
Y-1.3166 Z0. I0. J0.0079
Y-1.3324 Z-0.05 I0. J-0.0079
Y-1.3166 Z-0.1 I0. J0.0079
Y-1.3324 Z-0.15 I0. J-0.0079
Y-1.3166 Z-0.2 I0. J0.0079
X4.1011 Y-1.3291 Z-0.235 I0. J-0.0079
X4.1138 Y-1.3198 I0.0064 J0.0046
X4.1011 Y-1.3291 I-0.0064 J-0.0046
X4.1066 Y-1.33 I0.0032 J0.0023
G1 X4.1128 Y-1.3255
G0 Z0.6
(2D SLOT CUT)
M7
G0 X2.2869 Y-0.7725
Z0.6
Z0.2
G1 Z0.1 F13.333
X2.1754 Y-0.7163 Z0.078 F40.
G2 X2.4175 Y0.0149 Z-0.1175 I0.1753 J0.3477
X2.5473 Y-0.0326 I-0.0669 J-0.3836 F55.
G1 X4.2726 Y-1.0424
G2 X3.9603 Y-1.6163 I-0.1651 J-0.2821
G1 X2.1754 Y-0.7163
G2 X2.4175 Y0.0149 I0.1753 J0.3477
X2.5473 Y-0.0326 Z-0.142 I-0.0669 J-0.3836 F40.
G1 X3.0025 Y-0.299 Z-0.235
X3.0842 Y-0.3468 F55.
Z-0.135
X3.7346 Y-0.7275
Z-0.235 F13.333
X4.2726 Y-1.0424 F55.
G2 X3.9603 Y-1.6163 I-0.1651 J-0.2821
G1 X3.4361 Y-1.352
Z-0.135
X2.7631 Y-1.0127
Z-0.235 F13.333
X2.1754 Y-0.7163 F55.
G2 X2.0086 Y-0.1825 I0.1753 J0.3477
X2.5473 Y-0.0326 I0.342 J-0.1861
G1 X3.0025 Y-0.299
G0 Z0.6
M9
G53 Z0.
M30
%
