%
(971-23-P-0152_WRIST TENSIONER_149)
(T1  D=0.149 CR=0. - ZMIN=-0.235 - FLAT END MILL)
G90 G94 G17 G91.1
G64 P0.001 Q0.001
G20
G53 G0 Z0.
(.3 CIRCLUAR THROUGH HOLE)
M9
T1 M6
S22000 M3
G4 P10.
G54
M7
G0 X2.3389 Y-0.358
G43 Z0.6 H1
G0 Z0.13
G1 Z0.0649 F40.
G19 G2 Y-0.3729 Z0.05 J-0.0149 K0.
G1 Y-0.3804
G17 G3 X2.3507 Y-0.3921 I0.0118 J0.
Y-0.3451 Z0. I0. J0.0235
Y-0.3921 Z-0.05 I0. J-0.0235
Y-0.3451 Z-0.1 I0. J0.0235
Y-0.3921 Z-0.15 I0. J-0.0235
Y-0.3451 Z-0.2 I0. J0.0235
X2.3316 Y-0.3824 Z-0.235 I0. J-0.0235
X2.3697 Y-0.3548 I0.019 J0.0138
X2.3316 Y-0.3824 I-0.019 J-0.0138
X2.3481 Y-0.385 I0.0095 J0.0069
G1 X2.3541 Y-0.3806
X2.3564 Y-0.3789 Z-0.2347
X2.3587 Y-0.3773 Z-0.2339
X2.3608 Y-0.3758 Z-0.2325
X2.3626 Y-0.3745 Z-0.2306
X2.3641 Y-0.3734 Z-0.2284
X2.3652 Y-0.3726 Z-0.2258
X2.3659 Y-0.3721 Z-0.223
X2.3661 Y-0.3719 Z-0.2201
G0 Z0.4
X3.5628 Y-1.0286
Z0.1151
G1 Z0.05 F40.
Y-1.0361
G3 X3.568 Y-1.0412 I0.0051 J0.
Y-1.0207 Z0. I0. J0.0103
X3.558 Y-1.0285 Z-0.0212 I0. J-0.0102
X3.5779 Y-1.0333 Z-0.0713 I0.01 J-0.0024
X3.5726 Y-1.0218 Z-0.0925 I-0.01 J0.0024
X3.5633 Y-1.0401 Z-0.1425 I-0.0047 J-0.0091
X3.5758 Y-1.0376 Z-0.1637 I0.0047 J0.0091
X3.5602 Y-1.0243 Z-0.2137 I-0.0078 J0.0067
X3.5597 Y-1.037 Z-0.235 I0.0078 J-0.0067
X3.5763 Y-1.0249 I0.0083 J0.006
X3.5597 Y-1.037 I-0.0083 J-0.006
X3.5668 Y-1.0381 I0.0041 J0.003
G1 X3.5729 Y-1.0337
G0 Z0.4
X4.1023 Y-1.3221
Z0.1151
G1 Z0.05 F40.
Y-1.3296
G3 X4.1075 Y-1.3347 I0.0051 J0.
Y-1.3142 Z0. I0. J0.0102
Y-1.3347 Z-0.05 I0. J-0.0103
Y-1.3142 Z-0.1 I0. J0.0103
Y-1.3347 Z-0.15 I0. J-0.0103
Y-1.3142 Z-0.2 I0. J0.0103
X4.0992 Y-1.3305 Z-0.235 I0. J-0.0103
X4.1157 Y-1.3184 I0.0083 J0.006
X4.0992 Y-1.3305 I-0.0083 J-0.006
X4.1063 Y-1.3316 I0.0041 J0.003
G1 X4.1123 Y-1.3272
G0 Z0.6
(2D SLOT CUT)
M7
G0 X2.294 Y-0.7734
Z0.6
Z0.2
G1 Z0.1 F13.333
X2.1764 Y-0.7142 Z0.0768 F40.
G2 X2.4171 Y0.0126 Z-0.1175 I0.1742 J0.3456
X2.5461 Y-0.0346 I-0.0665 J-0.3812 F55.
G1 X4.2714 Y-1.0444
G2 X3.9613 Y-1.6142 I-0.1639 J-0.2801
G1 X2.1764 Y-0.7142
G2 X2.4171 Y0.0126 I0.1742 J0.3456
X2.5461 Y-0.0346 Z-0.1419 I-0.0665 J-0.3812 F40.
G1 X3.002 Y-0.3015 Z-0.235
X3.085 Y-0.35 F55.
Z-0.135
X3.7314 Y-0.7284
Z-0.235 F13.333
X4.2714 Y-1.0444 F55.
G2 X3.9613 Y-1.6142 I-0.1639 J-0.2801
G1 X3.4351 Y-1.3488
Z-0.135
X2.7663 Y-1.0116
Z-0.235 F13.333
X2.1764 Y-0.7142 F55.
G2 X2.0107 Y-0.1837 I0.1742 J0.3456
X2.5461 Y-0.0346 I0.3399 J-0.185
G1 X3.002 Y-0.3015
G0 Z0.6
M9
G53 Z0.
M30
%
