%
(971-23-P-0089_PLUG SPACER_1492)
(T1  D=0.1492 CR=0. - ZMIN=-0.155 - FLAT END MILL)
G90 G94 G17 G91.1
G64 P0.001 Q0.001
G20
G53 G0 Z0.
(.3 CIRCLUAR THROUGH HOLE 2)
M9
T1 M6
S22000 M3
G4 P10.
G54
M7
G0 X-64.2554 Y-8.9906
G43 Z0.6 H1
G0 Z0.13
G1 Z0.0649 F40.
G19 G2 Y-9.0055 Z0.05 J-0.0149 K0.
G1 Y-9.0129
G17 G3 X-64.2425 Y-9.0259 I0.0129 J0.
Y-8.9741 Z0.0323 I0. J0.0259
Y-9.0259 Z0.0146 I0. J-0.0259
X-64.2339 Y-8.9756 Z-0.0013 I0. J0.0259
X-64.2511 Y-9.0244 Z-0.019 I-0.0086 J-0.0244
X-64.2199 Y-9.0126 Z-0.0269 I0.0086 J0.0244
X-64.2651 Y-8.9874 Z-0.0446 I-0.0226 J0.0126
X-64.2199 Y-9.0126 Z-0.0623 I0.0226 J-0.0126
X-64.2596 Y-8.9806 Z-0.0781 I-0.0226 J0.0126
X-64.2254 Y-9.0194 Z-0.0958 I0.0171 J-0.0194
X-64.2205 Y-8.9864 Z-0.1038 I-0.0171 J0.0194
X-64.2645 Y-9.0136 Z-0.1215 I-0.022 J-0.0136
X-64.2328 Y-9.024 Z-0.1294 I0.022 J0.0136
X-64.2522 Y-8.976 Z-0.1471 I-0.0097 J0.024
X-64.2678 Y-9.0055 Z-0.155 I0.0097 J-0.024
X-64.2172 Y-8.9945 I0.0253 J0.0055
X-64.2678 Y-9.0055 I-0.0253 J-0.0055
X-64.2524 Y-9.0154 I0.0126 J0.0028
G1 X-64.2451 Y-9.0138
X-64.2423 Y-9.0132 Z-0.1547
X-64.2395 Y-9.0126 Z-0.1539
X-64.237 Y-9.0121 Z-0.1525
X-64.2348 Y-9.0116 Z-0.1506
X-64.233 Y-9.0112 Z-0.1484
X-64.2316 Y-9.0109 Z-0.1458
X-64.2308 Y-9.0107 Z-0.143
X-64.2305 Y-9.0106 Z-0.1401
G0 Z0.4
X-65.263 Y-8.9906
Z0.13
G1 Z0.0649 F40.
G19 G2 Y-9.0055 Z0.05 J-0.0149 K0.
G1 Y-9.0129
G17 G3 X-65.25 Y-9.0259 I0.013 J0.
Y-8.9741 Z0.0323 I0. J0.0259
X-65.2755 Y-8.9956 Z0.0244 I0. J-0.0259
X-65.2245 Y-9.0044 Z0.0067 I0.0255 J-0.0044
X-65.2414 Y-8.9756 Z-0.0013 I-0.0255 J0.0044
X-65.2586 Y-9.0244 Z-0.019 I-0.0086 J-0.0244
X-65.2414 Y-8.9756 Z-0.0367 I0.0086 J0.0244
X-65.2586 Y-9.0244 Z-0.0544 I-0.0086 J-0.0244
X-65.2414 Y-8.9756 Z-0.0721 I0.0086 J0.0244
X-65.2671 Y-8.9806 Z-0.0781 I-0.0086 J-0.0244
X-65.2329 Y-9.0194 Z-0.0958 I0.0171 J-0.0194
X-65.228 Y-8.9864 Z-0.1038 I-0.0171 J0.0194
X-65.272 Y-9.0136 Z-0.1215 I-0.022 J-0.0136
X-65.2403 Y-9.024 Z-0.1294 I0.022 J0.0136
X-65.2597 Y-8.976 Z-0.1471 I-0.0097 J0.024
X-65.2753 Y-9.0055 Z-0.155 I0.0097 J-0.024
X-65.2247 Y-8.9945 I0.0253 J0.0055
X-65.2753 Y-9.0055 I-0.0253 J-0.0055
X-65.2599 Y-9.0154 I0.0127 J0.0028
G1 X-65.2526 Y-9.0138
X-65.2498 Y-9.0132 Z-0.1547
X-65.247 Y-9.0126 Z-0.1539
X-65.2445 Y-9.0121 Z-0.1525
X-65.2423 Y-9.0116 Z-0.1506
X-65.2405 Y-9.0112 Z-0.1484
X-65.2391 Y-9.0109 Z-0.1458
X-65.2383 Y-9.0107 Z-0.143
X-65.238 Y-9.0106 Z-0.1401
G0 Z0.4
X-65.7629 Y-8.9906
Z0.13
G1 Z0.0649 F40.
G19 G2 Y-9.0055 Z0.05 J-0.0149 K0.
G1 Y-9.0129
G17 G3 X-65.75 Y-9.0259 I0.0129 J0.
Y-8.9741 Z0.0323 I0. J0.0259
Y-9.0259 Z0.0146 I0. J-0.0259
X-65.7414 Y-8.9756 Z-0.0013 I0. J0.0259
X-65.7586 Y-9.0244 Z-0.019 I-0.0086 J-0.0244
X-65.7414 Y-8.9756 Z-0.0367 I0.0086 J0.0244
X-65.7662 Y-9.0202 Z-0.0525 I-0.0086 J-0.0244
X-65.7338 Y-8.9798 Z-0.0702 I0.0162 J0.0202
X-65.7671 Y-8.9806 Z-0.0781 I-0.0162 J-0.0202
X-65.7329 Y-9.0194 Z-0.0958 I0.0171 J-0.0194
X-65.728 Y-8.9864 Z-0.1038 I-0.0171 J0.0194
X-65.772 Y-9.0136 Z-0.1215 I-0.022 J-0.0136
X-65.7403 Y-9.024 Z-0.1294 I0.022 J0.0136
X-65.7597 Y-8.976 Z-0.1471 I-0.0097 J0.024
X-65.7753 Y-9.0055 Z-0.155 I0.0097 J-0.024
X-65.7247 Y-8.9945 I0.0253 J0.0055
X-65.7753 Y-9.0055 I-0.0253 J-0.0055
X-65.7599 Y-9.0154 I0.0127 J0.0028
G1 X-65.7526 Y-9.0138
X-65.7498 Y-9.0132 Z-0.1547
X-65.747 Y-9.0126 Z-0.1539
X-65.7445 Y-9.0121 Z-0.1525
X-65.7423 Y-9.0116 Z-0.1506
X-65.7405 Y-9.0112 Z-0.1484
X-65.7391 Y-9.0109 Z-0.1458
X-65.7383 Y-9.0107 Z-0.143
X-65.738 Y-9.0106 Z-0.1401
G0 Z0.4
X-66.7705 Y-8.9906
Z0.13
G1 Z0.0649 F40.
G19 G2 Y-9.0055 Z0.05 J-0.0149 K0.
G1 Y-9.0129
G17 G3 X-66.7575 Y-9.0259 I0.013 J0.
Y-8.9741 Z0.0323 I0. J0.0259
Y-9.0259 Z0.0146 I0. J-0.0259
X-66.7489 Y-8.9756 Z-0.0013 I0. J0.0259
X-66.7661 Y-9.0244 Z-0.019 I-0.0086 J-0.0244
X-66.7349 Y-9.0126 Z-0.0269 I0.0086 J0.0244
X-66.7801 Y-8.9874 Z-0.0446 I-0.0226 J0.0126
X-66.7349 Y-9.0126 Z-0.0623 I0.0226 J-0.0126
X-66.7746 Y-8.9806 Z-0.0781 I-0.0226 J0.0126
X-66.7404 Y-9.0194 Z-0.0958 I0.0171 J-0.0194
X-66.7355 Y-8.9864 Z-0.1038 I-0.0171 J0.0194
X-66.7795 Y-9.0136 Z-0.1215 I-0.022 J-0.0136
X-66.7478 Y-9.024 Z-0.1294 I0.022 J0.0136
X-66.7672 Y-8.976 Z-0.1471 I-0.0097 J0.024
X-66.7828 Y-9.0055 Z-0.155 I0.0097 J-0.024
X-66.7322 Y-8.9945 I0.0253 J0.0055
X-66.7828 Y-9.0055 I-0.0253 J-0.0055
X-66.7674 Y-9.0154 I0.0127 J0.0028
G1 X-66.7601 Y-9.0138
X-66.7573 Y-9.0132 Z-0.1547
X-66.7545 Y-9.0126 Z-0.1539
X-66.752 Y-9.0121 Z-0.1525
X-66.7498 Y-9.0116 Z-0.1506
X-66.748 Y-9.0112 Z-0.1484
X-66.7466 Y-9.0109 Z-0.1458
X-66.7458 Y-9.0107 Z-0.143
X-66.7455 Y-9.0106 Z-0.1401
G0 Z0.4
X-67.0129 Y-7.9906
Z0.13
G1 Z0.0649 F40.
G19 G2 Y-8.0055 Z0.05 J-0.0149 K0.
G1 Y-8.013
G17 G3 X-67. Y-8.0259 I0.0129 J0.
Y-7.9741 Z0.0323 I0. J0.0259
X-67.0255 Y-7.9956 Z0.0244 I0. J-0.0259
X-66.9745 Y-8.0044 Z0.0067 I0.0255 J-0.0044
X-66.9914 Y-7.9756 Z-0.0013 I-0.0255 J0.0044
X-67.0086 Y-8.0244 Z-0.019 I-0.0086 J-0.0244
X-66.9774 Y-8.0126 Z-0.0269 I0.0086 J0.0244
X-67.0226 Y-7.9874 Z-0.0446 I-0.0226 J0.0126
X-67.0162 Y-8.0202 Z-0.0525 I0.0226 J-0.0126
X-66.9838 Y-7.9798 Z-0.0702 I0.0162 J0.0202
X-67.0171 Y-7.9806 Z-0.0781 I-0.0162 J-0.0202
X-66.9829 Y-8.0194 Z-0.0958 I0.0171 J-0.0194
X-66.978 Y-7.9864 Z-0.1038 I-0.0171 J0.0194
X-67.022 Y-8.0136 Z-0.1215 I-0.022 J-0.0136
X-66.9903 Y-8.024 Z-0.1294 I0.022 J0.0136
X-67.0097 Y-7.976 Z-0.1471 I-0.0097 J0.024
X-67.0253 Y-8.0055 Z-0.155 I0.0097 J-0.024
X-66.9747 Y-7.9945 I0.0253 J0.0055
X-67.0253 Y-8.0055 I-0.0253 J-0.0055
X-67.0099 Y-8.0154 I0.0127 J0.0028
G1 X-67.0026 Y-8.0138
X-66.9998 Y-8.0132 Z-0.1547
X-66.997 Y-8.0126 Z-0.1539
X-66.9945 Y-8.0121 Z-0.1525
X-66.9923 Y-8.0116 Z-0.1506
X-66.9905 Y-8.0112 Z-0.1484
X-66.9891 Y-8.0109 Z-0.1458
X-66.9883 Y-8.0107 Z-0.143
X-66.988 Y-8.0106 Z-0.1401
G0 Z0.4
X-66.0129 Y-7.9906
Z0.13
G1 Z0.0649 F40.
G19 G2 Y-8.0055 Z0.05 J-0.0149 K0.
G1 Y-8.013
G17 G3 X-66. Y-8.0259 I0.0129 J0.
Y-7.9741 Z0.0323 I0. J0.0259
X-66.0255 Y-7.9956 Z0.0244 I0. J-0.0259
X-65.9745 Y-8.0044 Z0.0067 I0.0255 J-0.0044
X-65.9914 Y-7.9756 Z-0.0013 I-0.0255 J0.0044
X-66.0086 Y-8.0244 Z-0.019 I-0.0086 J-0.0244
X-65.9914 Y-7.9756 Z-0.0367 I0.0086 J0.0244
X-66.0086 Y-8.0244 Z-0.0544 I-0.0086 J-0.0244
X-65.9914 Y-7.9756 Z-0.0721 I0.0086 J0.0244
X-66.0086 Y-8.0244 Z-0.0899 I-0.0086 J-0.0244
X-65.978 Y-7.9864 Z-0.1038 I0.0086 J0.0244
X-66.022 Y-8.0136 Z-0.1215 I-0.022 J-0.0136
X-65.9903 Y-8.024 Z-0.1294 I0.022 J0.0136
X-66.0097 Y-7.976 Z-0.1471 I-0.0097 J0.024
X-66.0253 Y-8.0055 Z-0.155 I0.0097 J-0.024
X-65.9747 Y-7.9945 I0.0253 J0.0055
X-66.0253 Y-8.0055 I-0.0253 J-0.0055
X-66.0099 Y-8.0154 I0.0126 J0.0028
G1 X-66.0026 Y-8.0138
X-65.9998 Y-8.0132 Z-0.1547
X-65.997 Y-8.0126 Z-0.1539
X-65.9945 Y-8.0121 Z-0.1525
X-65.9923 Y-8.0116 Z-0.1506
X-65.9905 Y-8.0112 Z-0.1484
X-65.9891 Y-8.0109 Z-0.1458
X-65.9883 Y-8.0107 Z-0.143
X-65.988 Y-8.0106 Z-0.1401
G0 Z0.4
X-65.013 Y-7.9906
Z0.13
G1 Z0.0649 F40.
G19 G2 Y-8.0055 Z0.05 J-0.0149 K0.
G1 Y-8.013
G17 G3 X-65. Y-8.0259 I0.013 J0.
Y-7.9741 Z0.0323 I0. J0.0259
X-65.0255 Y-7.9956 Z0.0244 I0. J-0.0259
X-64.9745 Y-8.0044 Z0.0067 I0.0255 J-0.0044
X-64.9914 Y-7.9756 Z-0.0013 I-0.0255 J0.0044
X-65.0086 Y-8.0244 Z-0.019 I-0.0086 J-0.0244
X-64.9774 Y-8.0126 Z-0.0269 I0.0086 J0.0244
X-65.0226 Y-7.9874 Z-0.0446 I-0.0226 J0.0126
X-64.9774 Y-8.0126 Z-0.0623 I0.0226 J-0.0126
X-65.0226 Y-7.9874 Z-0.08 I-0.0226 J0.0126
X-64.9774 Y-8.0126 Z-0.0978 I0.0226 J-0.0126
X-64.978 Y-7.9864 Z-0.1038 I-0.0226 J0.0126
X-65.022 Y-8.0136 Z-0.1215 I-0.022 J-0.0136
X-64.9903 Y-8.024 Z-0.1294 I0.022 J0.0136
X-65.0097 Y-7.976 Z-0.1471 I-0.0097 J0.024
X-65.0253 Y-8.0055 Z-0.155 I0.0097 J-0.024
X-64.9747 Y-7.9945 I0.0253 J0.0055
X-65.0253 Y-8.0055 I-0.0253 J-0.0055
X-65.0099 Y-8.0154 I0.0127 J0.0028
G1 X-65.0026 Y-8.0138
X-64.9998 Y-8.0132 Z-0.1547
X-64.997 Y-8.0126 Z-0.1539
X-64.9945 Y-8.0121 Z-0.1525
X-64.9923 Y-8.0116 Z-0.1506
X-64.9905 Y-8.0112 Z-0.1484
X-64.9891 Y-8.0109 Z-0.1458
X-64.9883 Y-8.0107 Z-0.143
X-64.988 Y-8.0106 Z-0.1401
G0 Z0.4
X-64.013 Y-7.9906
Z0.13
G1 Z0.0649 F40.
G19 G2 Y-8.0055 Z0.05 J-0.0149 K0.
G1 Y-8.013
G17 G3 X-64. Y-8.0259 I0.013 J0.
Y-7.9741 Z0.0323 I0. J0.0259
X-64.0255 Y-7.9956 Z0.0244 I0. J-0.0259
X-63.9745 Y-8.0044 Z0.0067 I0.0255 J-0.0044
X-63.9914 Y-7.9756 Z-0.0013 I-0.0255 J0.0044
X-64.0086 Y-8.0244 Z-0.019 I-0.0086 J-0.0244
X-63.9774 Y-8.0126 Z-0.0269 I0.0086 J0.0244
X-64.0226 Y-7.9874 Z-0.0446 I-0.0226 J0.0126
X-63.9774 Y-8.0126 Z-0.0623 I0.0226 J-0.0126
X-64.0226 Y-7.9874 Z-0.08 I-0.0226 J0.0126
X-63.9774 Y-8.0126 Z-0.0978 I0.0226 J-0.0126
X-63.978 Y-7.9864 Z-0.1038 I-0.0226 J0.0126
X-64.022 Y-8.0136 Z-0.1215 I-0.022 J-0.0136
X-63.9903 Y-8.024 Z-0.1294 I0.022 J0.0136
X-64.0097 Y-7.976 Z-0.1471 I-0.0097 J0.024
X-64.0253 Y-8.0055 Z-0.155 I0.0097 J-0.024
X-63.9747 Y-7.9945 I0.0253 J0.0055
X-64.0253 Y-8.0055 I-0.0253 J-0.0055
X-64.0099 Y-8.0154 I0.0127 J0.0028
G1 X-64.0026 Y-8.0138
X-63.9998 Y-8.0132 Z-0.1547
X-63.997 Y-8.0126 Z-0.1539
X-63.9945 Y-8.0121 Z-0.1525
X-63.9923 Y-8.0116 Z-0.1506
X-63.9905 Y-8.0112 Z-0.1484
X-63.9891 Y-8.0109 Z-0.1458
X-63.9883 Y-8.0107 Z-0.143
X-63.988 Y-8.0106 Z-0.1401
G0 Z0.6
(2D SLOT CUT)
M7
G0 X-64.4933 Y-9.5746
Z0.6
Z0.2
G1 Z0.1 F13.333
X-65.5 Z-0.0775 F40.
X-66.4656 F55.
Z-0.075
X-67.2148
Z-0.0775 F13.333
X-67.365 F55.
G2 X-67.4396 Y-9.5 I0. J0.0746
G1 Y-7.8825
G2 X-67.315 Y-7.7579 I0.1246 J0.
G1 X-67.1006
Z-0.075
X-66.3514
Z-0.0775 F13.333
X-65.1207 F55.
Z-0.075
X-64.3715
Z-0.0775 F13.333
X-63.685 F55.
G2 X-63.5604 Y-7.8825 I0. J-0.1246
G1 Y-9.5
G2 X-63.635 Y-9.5746 I-0.0746 J0.
G1 X-64.0726
Z-0.075
X-64.8218
Z-0.0775 F13.333
X-65.5 F55.
X-65.9395 Z-0.155 F40.
X-66.4656 F55.
Z-0.075
X-67.2148
Z-0.155 F13.333
X-67.365 F55.
G2 X-67.4396 Y-9.5 I0. J0.0746
G1 Y-7.8825
G2 X-67.315 Y-7.7579 I0.1246 J0.
G1 X-67.1006
Z-0.075
X-66.3514
Z-0.155 F13.333
X-65.1207 F55.
Z-0.075
X-64.3715
Z-0.155 F13.333
X-63.685 F55.
G2 X-63.5604 Y-7.8825 I0. J-0.1246
G1 Y-9.5
G2 X-63.635 Y-9.5746 I-0.0746 J0.
G1 X-64.0726
Z-0.075
X-64.8218
Z-0.155 F13.333
X-65.9395 F55.
G0 Z0.6
M9
G53 Z0.
M30
%
