%
(971-23-P-0089_PLUG SPACER_1540)
(T1  D=0.154 CR=0. - ZMIN=-0.155 - FLAT END MILL)
G90 G94 G17 G91.1
G64 P0.001 Q0.001
G20
G53 G0 Z0.
(.3 CIRCLUAR THROUGH HOLE 2)
M9
T1 M6
S22000 M3
G4 P10.
G54
M7
G0 X-64.0117 Y-7.9887
G43 Z0.6 H1
G0 Z0.13
G1 Z0.0654 F40.
G19 G2 Y-8.0041 Z0.05 J-0.0154 K0.
G1 Y-8.0117
G17 G3 X-64. Y-8.0235 I0.0118 J0.
Y-7.9765 Z0.0323 I0. J0.0235
Y-8.0235 Z0.0146 I0. J-0.0235
X-63.9922 Y-7.9778 Z-0.0013 I0. J0.0235
X-64.0078 Y-8.0222 Z-0.019 I-0.0078 J-0.0222
X-63.9922 Y-7.9778 Z-0.0367 I0.0078 J0.0222
X-64.0147 Y-8.0183 Z-0.0525 I-0.0078 J-0.0222
X-63.9853 Y-7.9817 Z-0.0702 I0.0147 J0.0183
X-64.0156 Y-7.9824 Z-0.0781 I-0.0147 J-0.0183
X-63.9844 Y-8.0176 Z-0.0958 I0.0156 J-0.0176
X-64.0156 Y-7.9824 Z-0.1136 I-0.0156 J0.0176
X-63.9844 Y-8.0176 Z-0.1313 I0.0156 J-0.0176
X-64.0156 Y-7.9824 Z-0.149 I-0.0156 J0.0176
X-64.023 Y-8.005 Z-0.155 I0.0156 J-0.0176
X-63.977 Y-7.995 I0.023 J0.005
X-64.023 Y-8.005 I-0.023 J-0.005
X-64.009 Y-8.014 I0.0115 J0.0025
G1 X-64.0015 Y-8.0123
X-63.9985 Y-8.0117 Z-0.1547
X-63.9957 Y-8.0111 Z-0.1538
X-63.9931 Y-8.0105 Z-0.1524
X-63.9908 Y-8.01 Z-0.1505
X-63.9889 Y-8.0096 Z-0.1482
X-63.9876 Y-8.0093 Z-0.1455
X-63.9867 Y-8.0091 Z-0.1426
X-63.9864 Z-0.1396
G0 Z0.4
X-65.0118 Y-7.9887
Z0.13
G1 Z0.0654 F40.
G19 G2 Y-8.0041 Z0.05 J-0.0154 K0.
G1 Y-8.0117
G17 G3 X-65. Y-8.0235 I0.0118 J0.
Y-7.9765 Z0.0323 I0. J0.0235
Y-8.0235 Z0.0146 I0. J-0.0235
X-64.9922 Y-7.9778 Z-0.0013 I0. J0.0235
X-65.0078 Y-8.0222 Z-0.019 I-0.0078 J-0.0222
X-64.9922 Y-7.9778 Z-0.0367 I0.0078 J0.0222
X-65.0147 Y-8.0183 Z-0.0525 I-0.0078 J-0.0222
X-64.9853 Y-7.9817 Z-0.0702 I0.0147 J0.0183
X-65.0156 Y-7.9824 Z-0.0781 I-0.0147 J-0.0183
X-64.9844 Y-8.0176 Z-0.0958 I0.0156 J-0.0176
X-65.0156 Y-7.9824 Z-0.1136 I-0.0156 J0.0176
X-64.9844 Y-8.0176 Z-0.1313 I0.0156 J-0.0176
X-65.0156 Y-7.9824 Z-0.149 I-0.0156 J0.0176
X-65.023 Y-8.005 Z-0.155 I0.0156 J-0.0176
X-64.977 Y-7.995 I0.023 J0.005
X-65.023 Y-8.005 I-0.023 J-0.005
X-65.009 Y-8.014 I0.0115 J0.0025
G1 X-65.0015 Y-8.0123
X-64.9985 Y-8.0117 Z-0.1547
X-64.9957 Y-8.0111 Z-0.1538
X-64.9931 Y-8.0105 Z-0.1524
X-64.9908 Y-8.01 Z-0.1505
X-64.9889 Y-8.0096 Z-0.1482
X-64.9876 Y-8.0093 Z-0.1455
X-64.9867 Y-8.0091 Z-0.1426
X-64.9864 Z-0.1396
G0 Z0.4
X-66.0118 Y-7.9887
Z0.13
G1 Z0.0654 F40.
G19 G2 Y-8.0041 Z0.05 J-0.0154 K0.
G1 Y-8.0117
G17 G3 X-66. Y-8.0235 I0.0118 J0.
Y-7.9765 Z0.0323 I0. J0.0235
X-66.0232 Y-7.996 Z0.0244 I0. J-0.0235
X-65.9768 Y-8.004 Z0.0067 I0.0232 J-0.004
X-65.9922 Y-7.9778 Z-0.0013 I-0.0232 J0.004
X-66.0078 Y-8.0222 Z-0.019 I-0.0078 J-0.0222
X-65.9922 Y-7.9778 Z-0.0367 I0.0078 J0.0222
X-66.0147 Y-8.0183 Z-0.0525 I-0.0078 J-0.0222
X-65.9853 Y-7.9817 Z-0.0702 I0.0147 J0.0183
X-66.0156 Y-7.9824 Z-0.0781 I-0.0147 J-0.0183
X-65.9844 Y-8.0176 Z-0.0958 I0.0156 J-0.0176
X-65.98 Y-7.9876 Z-0.1038 I-0.0156 J0.0176
X-66.02 Y-8.0124 Z-0.1215 I-0.02 J-0.0124
X-65.98 Y-7.9876 Z-0.1392 I0.02 J0.0124
X-66.023 Y-8.005 Z-0.155 I-0.02 J-0.0124
X-65.977 Y-7.995 I0.023 J0.005
X-66.023 Y-8.005 I-0.023 J-0.005
X-66.009 Y-8.014 I0.0115 J0.0025
G1 X-66.0015 Y-8.0123
X-65.9985 Y-8.0117 Z-0.1547
X-65.9957 Y-8.0111 Z-0.1538
X-65.9931 Y-8.0105 Z-0.1524
X-65.9908 Y-8.01 Z-0.1505
X-65.9889 Y-8.0096 Z-0.1482
X-65.9876 Y-8.0093 Z-0.1455
X-65.9867 Y-8.0091 Z-0.1426
X-65.9864 Z-0.1396
G0 Z0.4
X-67.0118 Y-7.9887
Z0.13
G1 Z0.0654 F40.
G19 G2 Y-8.0041 Z0.05 J-0.0154 K0.
G1 Y-8.0117
G17 G3 X-67. Y-8.0235 I0.0118 J0.
Y-7.9765 Z0.0323 I0. J0.0235
X-67.0232 Y-7.996 Z0.0244 I0. J-0.0235
X-66.9768 Y-8.004 Z0.0067 I0.0232 J-0.004
X-66.9922 Y-7.9778 Z-0.0013 I-0.0232 J0.004
X-67.0078 Y-8.0222 Z-0.019 I-0.0078 J-0.0222
X-66.9922 Y-7.9778 Z-0.0367 I0.0078 J0.0222
X-67.0147 Y-8.0183 Z-0.0525 I-0.0078 J-0.0222
X-66.9853 Y-7.9817 Z-0.0702 I0.0147 J0.0183
X-67.0155 Y-7.9824 Z-0.0781 I-0.0147 J-0.0183
X-66.9845 Y-8.0176 Z-0.0958 I0.0155 J-0.0176
X-66.98 Y-7.9876 Z-0.1038 I-0.0155 J0.0176
X-67.02 Y-8.0124 Z-0.1215 I-0.02 J-0.0124
X-66.9912 Y-8.0218 Z-0.1294 I0.02 J0.0124
X-67.0088 Y-7.9782 Z-0.1471 I-0.0088 J0.0218
X-67.023 Y-8.005 Z-0.155 I0.0088 J-0.0218
X-66.977 Y-7.995 I0.023 J0.005
X-67.023 Y-8.005 I-0.023 J-0.005
X-67.009 Y-8.014 I0.0115 J0.0025
G1 X-67.0015 Y-8.0123
X-66.9985 Y-8.0117 Z-0.1547
X-66.9957 Y-8.0111 Z-0.1538
X-66.9931 Y-8.0105 Z-0.1524
X-66.9908 Y-8.01 Z-0.1505
X-66.9889 Y-8.0096 Z-0.1482
X-66.9876 Y-8.0093 Z-0.1455
X-66.9867 Y-8.0091 Z-0.1426
X-66.9864 Z-0.1396
G0 Z0.4
X-66.7693 Y-8.9886
Z0.13
G1 Z0.0654 F40.
G19 G2 Y-9.004 Z0.05 J-0.0154 K0.
G1 Y-9.0118
G17 G3 X-66.7575 Y-9.0235 I0.0118 J0.
Y-8.9765 Z0.0323 I0. J0.0235
X-66.7807 Y-8.996 Z0.0244 I0. J-0.0235
X-66.7343 Y-9.004 Z0.0067 I0.0232 J-0.004
X-66.7497 Y-8.9778 Z-0.0013 I-0.0232 J0.004
X-66.7653 Y-9.0222 Z-0.019 I-0.0078 J-0.0222
X-66.7497 Y-8.9778 Z-0.0367 I0.0078 J0.0222
X-66.7722 Y-9.0183 Z-0.0525 I-0.0078 J-0.0222
X-66.7428 Y-8.9817 Z-0.0702 I0.0147 J0.0183
X-66.7731 Y-8.9824 Z-0.0781 I-0.0147 J-0.0183
X-66.7419 Y-9.0176 Z-0.0958 I0.0156 J-0.0176
X-66.7375 Y-8.9876 Z-0.1038 I-0.0156 J0.0176
X-66.7775 Y-9.0124 Z-0.1215 I-0.02 J-0.0124
X-66.7487 Y-9.0218 Z-0.1294 I0.02 J0.0124
X-66.7663 Y-8.9782 Z-0.1471 I-0.0088 J0.0218
X-66.7805 Y-9.005 Z-0.155 I0.0088 J-0.0218
X-66.7345 Y-8.995 I0.023 J0.005
X-66.7805 Y-9.005 I-0.023 J-0.005
X-66.7665 Y-9.014 I0.0115 J0.0025
G1 X-66.759 Y-9.0123
X-66.756 Y-9.0117 Z-0.1547
X-66.7532 Y-9.0111 Z-0.1538
X-66.7506 Y-9.0105 Z-0.1524
X-66.7483 Y-9.01 Z-0.1505
X-66.7464 Y-9.0096 Z-0.1482
X-66.7451 Y-9.0093 Z-0.1455
X-66.7442 Y-9.0091 Z-0.1426
X-66.7439 Z-0.1396
G0 Z0.4
X-65.7618 Y-8.9886
Z0.13
G1 Z0.0654 F40.
G19 G2 Y-9.004 Z0.05 J-0.0154 K0.
G1 Y-9.0118
G17 G3 X-65.75 Y-9.0235 I0.0118 J0.
Y-8.9765 Z0.0323 I0. J0.0235
Y-9.0235 Z0.0146 I0. J-0.0235
X-65.7422 Y-8.9778 Z-0.0013 I0. J0.0235
X-65.7578 Y-9.0222 Z-0.019 I-0.0078 J-0.0222
X-65.7422 Y-8.9778 Z-0.0367 I0.0078 J0.0222
X-65.7647 Y-9.0183 Z-0.0525 I-0.0078 J-0.0222
X-65.7353 Y-8.9817 Z-0.0702 I0.0147 J0.0183
X-65.7655 Y-8.9824 Z-0.0781 I-0.0147 J-0.0183
X-65.7345 Y-9.0176 Z-0.0958 I0.0155 J-0.0176
X-65.73 Y-8.9876 Z-0.1038 I-0.0155 J0.0176
X-65.77 Y-9.0124 Z-0.1215 I-0.02 J-0.0124
X-65.7412 Y-9.0218 Z-0.1294 I0.02 J0.0124
X-65.7588 Y-8.9782 Z-0.1471 I-0.0088 J0.0218
X-65.773 Y-9.005 Z-0.155 I0.0088 J-0.0218
X-65.727 Y-8.995 I0.023 J0.005
X-65.773 Y-9.005 I-0.023 J-0.005
X-65.759 Y-9.014 I0.0115 J0.0025
G1 X-65.7515 Y-9.0123
X-65.7485 Y-9.0117 Z-0.1547
X-65.7457 Y-9.0111 Z-0.1538
X-65.7431 Y-9.0105 Z-0.1524
X-65.7408 Y-9.01 Z-0.1505
X-65.7389 Y-9.0096 Z-0.1482
X-65.7376 Y-9.0093 Z-0.1455
X-65.7367 Y-9.0091 Z-0.1426
X-65.7364 Z-0.1396
G0 Z0.4
X-65.2617 Y-8.9886
Z0.13
G1 Z0.0654 F40.
G19 G2 Y-9.004 Z0.05 J-0.0154 K0.
G1 Y-9.0118
G17 G3 X-65.25 Y-9.0235 I0.0118 J0.
Y-8.9765 Z0.0323 I0. J0.0235
X-65.2732 Y-8.996 Z0.0244 I0. J-0.0235
X-65.2268 Y-9.004 Z0.0067 I0.0232 J-0.004
X-65.2422 Y-8.9778 Z-0.0013 I-0.0232 J0.004
X-65.2578 Y-9.0222 Z-0.019 I-0.0078 J-0.0222
X-65.2422 Y-8.9778 Z-0.0367 I0.0078 J0.0222
X-65.2647 Y-9.0183 Z-0.0525 I-0.0078 J-0.0222
X-65.2353 Y-8.9817 Z-0.0702 I0.0147 J0.0183
X-65.2656 Y-8.9824 Z-0.0781 I-0.0147 J-0.0183
X-65.2344 Y-9.0176 Z-0.0958 I0.0156 J-0.0176
X-65.23 Y-8.9876 Z-0.1038 I-0.0156 J0.0176
X-65.27 Y-9.0124 Z-0.1215 I-0.02 J-0.0124
X-65.2412 Y-9.0218 Z-0.1294 I0.02 J0.0124
X-65.2588 Y-8.9782 Z-0.1471 I-0.0088 J0.0218
X-65.273 Y-9.005 Z-0.155 I0.0088 J-0.0218
X-65.227 Y-8.995 I0.023 J0.005
X-65.273 Y-9.005 I-0.023 J-0.005
X-65.259 Y-9.014 I0.0115 J0.0025
G1 X-65.2515 Y-9.0123
X-65.2485 Y-9.0117 Z-0.1547
X-65.2457 Y-9.0111 Z-0.1538
X-65.2431 Y-9.0105 Z-0.1524
X-65.2408 Y-9.01 Z-0.1505
X-65.2389 Y-9.0096 Z-0.1482
X-65.2376 Y-9.0093 Z-0.1455
X-65.2367 Y-9.0091 Z-0.1426
X-65.2364 Z-0.1396
G0 Z0.4
X-64.2543 Y-8.9886
Z0.13
G1 Z0.0654 F40.
G19 G2 Y-9.004 Z0.05 J-0.0154 K0.
G1 Y-9.0118
G17 G3 X-64.2425 Y-9.0235 I0.0118 J0.
Y-8.9765 Z0.0323 I0. J0.0235
X-64.2657 Y-8.996 Z0.0244 I0. J-0.0235
X-64.2193 Y-9.004 Z0.0067 I0.0232 J-0.004
X-64.2347 Y-8.9778 Z-0.0013 I-0.0232 J0.004
X-64.2503 Y-9.0222 Z-0.019 I-0.0078 J-0.0222
X-64.2347 Y-8.9778 Z-0.0367 I0.0078 J0.0222
X-64.2572 Y-9.0183 Z-0.0525 I-0.0078 J-0.0222
X-64.2278 Y-8.9817 Z-0.0702 I0.0147 J0.0183
X-64.2572 Y-9.0183 Z-0.0879 I-0.0147 J-0.0183
X-64.2225 Y-8.9876 Z-0.1038 I0.0147 J0.0183
X-64.2625 Y-9.0124 Z-0.1215 I-0.02 J-0.0124
X-64.2225 Y-8.9876 Z-0.1392 I0.02 J0.0124
X-64.2655 Y-9.005 Z-0.155 I-0.02 J-0.0124
X-64.2195 Y-8.995 I0.023 J0.005
X-64.2655 Y-9.005 I-0.023 J-0.005
X-64.2515 Y-9.014 I0.0115 J0.0025
G1 X-64.244 Y-9.0123
X-64.241 Y-9.0117 Z-0.1547
X-64.2382 Y-9.0111 Z-0.1538
X-64.2356 Y-9.0105 Z-0.1524
X-64.2333 Y-9.01 Z-0.1505
X-64.2314 Y-9.0096 Z-0.1482
X-64.2301 Y-9.0093 Z-0.1455
X-64.2292 Y-9.0091 Z-0.1426
X-64.2289 Z-0.1396
G0 Z0.6
(2D SLOT CUT)
M7
G0 X-64.4933 Y-9.577
Z0.6
Z0.2
G1 Z0.1 F13.333
X-65.5 Z-0.0775 F40.
X-66.4632 F55.
Z-0.075
X-67.2172
Z-0.0775 F13.333
X-67.365 F55.
G2 X-67.442 Y-9.5 I0. J0.077
G1 Y-7.8825
G2 X-67.315 Y-7.7555 I0.127 J0.
G1 X-67.103
Z-0.075
X-66.349
Z-0.0775 F13.333
X-65.1231 F55.
Z-0.075
X-64.3691
Z-0.0775 F13.333
X-63.685 F55.
G2 X-63.558 Y-7.8825 I0. J-0.127
G1 Y-9.5
G2 X-63.635 Y-9.577 I-0.077 J0.
G1 X-64.0702
Z-0.075
X-64.8242
Z-0.0775 F13.333
X-65.5 F55.
X-65.9395 Z-0.155 F40.
X-66.4632 F55.
Z-0.075
X-67.2172
Z-0.155 F13.333
X-67.365 F55.
G2 X-67.442 Y-9.5 I0. J0.077
G1 Y-7.8825
G2 X-67.315 Y-7.7555 I0.127 J0.
G1 X-67.103
Z-0.075
X-66.349
Z-0.155 F13.333
X-65.1231 F55.
Z-0.075
X-64.3691
Z-0.155 F13.333
X-63.685 F55.
G2 X-63.558 Y-7.8825 I0. J-0.127
G1 Y-9.5
G2 X-63.635 Y-9.577 I-0.077 J0.
G1 X-64.0702
Z-0.075
X-64.8242
Z-0.155 F13.333
X-65.9395 F55.
G0 Z0.6
M9
G53 Z0.
M30
%
