%
(971-23-P-0088_MOUNT FOR BRACE_1565)
(T1  D=0.1565 CR=0. - ZMIN=-0.2175 - FLAT END MILL)
G90 G94 G17 G91.1
G64 P0.001 Q0.001
G20
G53 G0 Z0.
(.3 CIRCLUAR THROUGH HOLE 2)
M9
T1 M6
S22000 M3
G4 P10.
G54
M7
G0 X-63.9864 Y29.2599
G43 Z0.6 H1
G0 Z0.13
G1 Z0.0657 F40.
G18 G3 X-64.0021 Z0.05 I-0.0157 K0.
G1 X-64.0099
G17 G3 X-64.0198 Y29.25 I0. J-0.0099
X-63.9802 Z0.0327 I0.0198 J0.
X-64.0198 Z0.0154 I-0.0198 J0.
X-63.9802 Z-0.0018 I0.0198 J0.
X-64.0198 Z-0.0191 I-0.0198 J0.
X-64.0151 Y29.2373 Z-0.023 I0.0198 J0.
X-63.9849 Y29.2627 Z-0.0402 I0.0151 J0.0127
X-64.0078 Y29.2681 Z-0.0473 I-0.0151 J-0.0127
X-63.9922 Y29.2319 Z-0.0646 I0.0078 J-0.0181
X-63.9804 Y29.2523 Z-0.0716 I-0.0078 J0.0181
X-64.0196 Y29.2477 Z-0.0889 I-0.0196 J-0.0023
X-64.0035 Y29.2306 Z-0.0959 I0.0196 J0.0023
X-63.9965 Y29.2694 Z-0.1132 I0.0035 J0.0194
X-64.0035 Y29.2306 Z-0.1305 I-0.0035 J-0.0194
X-63.9864 Y29.2643 Z-0.1445 I0.0035 J0.0194
X-64.0136 Y29.2357 Z-0.1618 I-0.0136 J-0.0143
X-63.9864 Y29.2643 Z-0.1791 I0.0136 J0.0143
X-64.0192 Y29.2455 Z-0.1932 I-0.0136 J-0.0143
X-63.9808 Y29.2545 Z-0.2105 I0.0192 J0.0045
X-63.9988 Y29.2697 Z-0.2175 I-0.0192 J-0.0045
X-64.0012 Y29.2303 I-0.0012 J-0.0197
X-63.9988 Y29.2697 I0.0012 J0.0197
X-64.0092 Y29.2605 I-0.0006 J-0.0099
G1 X-64.0097 Y29.2527
X-64.0099 Y29.2496 Z-0.2172
X-64.0101 Y29.2467 Z-0.2163
X-64.0103 Y29.244 Z-0.2149
X-64.0104 Y29.2416 Z-0.2129
X-64.0105 Y29.2397 Z-0.2105
X-64.0106 Y29.2382 Z-0.2078
X-64.0107 Y29.2373 Z-0.2049
Y29.237 Z-0.2018
G0 Z0.4
X-65.4864 Y29.2599
Z0.13
G1 Z0.0657 F40.
G18 G3 X-65.5021 Z0.05 I-0.0156 K0.
G1 X-65.5099
G17 G3 X-65.5198 Y29.25 I0. J-0.0099
X-65.4802 Z0.0327 I0.0198 J0.
X-65.5197 Z0.0154 I-0.0198 J0.
X-65.4802 Z-0.0018 I0.0198 J0.
X-65.5197 Z-0.0191 I-0.0198 J0.
X-65.5151 Y29.2373 Z-0.023 I0.0198 J0.
X-65.4849 Y29.2627 Z-0.0402 I0.0151 J0.0127
X-65.5078 Y29.2681 Z-0.0473 I-0.0151 J-0.0127
X-65.4922 Y29.2319 Z-0.0646 I0.0078 J-0.0181
X-65.4804 Y29.2523 Z-0.0716 I-0.0078 J0.0181
X-65.5196 Y29.2477 Z-0.0889 I-0.0196 J-0.0023
X-65.5035 Y29.2306 Z-0.0959 I0.0196 J0.0023
X-65.4965 Y29.2694 Z-0.1132 I0.0035 J0.0194
X-65.5035 Y29.2306 Z-0.1305 I-0.0035 J-0.0194
X-65.4864 Y29.2643 Z-0.1445 I0.0035 J0.0194
X-65.5136 Y29.2357 Z-0.1618 I-0.0136 J-0.0143
X-65.4902 Y29.2329 Z-0.1689 I0.0136 J0.0143
X-65.5098 Y29.2671 Z-0.1861 I-0.0098 J0.0171
X-65.5192 Y29.2455 Z-0.1932 I0.0098 J-0.0171
X-65.4808 Y29.2545 Z-0.2105 I0.0192 J0.0045
X-65.4988 Y29.2697 Z-0.2175 I-0.0192 J-0.0045
X-65.5012 Y29.2303 I-0.0012 J-0.0197
X-65.4988 Y29.2697 I0.0012 J0.0197
X-65.5092 Y29.2605 I-0.0006 J-0.0099
G1 X-65.5097 Y29.2527
X-65.5099 Y29.2496 Z-0.2172
X-65.5101 Y29.2467 Z-0.2163
X-65.5103 Y29.244 Z-0.2149
X-65.5104 Y29.2416 Z-0.2129
X-65.5105 Y29.2397 Z-0.2105
X-65.5106 Y29.2382 Z-0.2078
X-65.5107 Y29.2373 Z-0.2049
Y29.237 Z-0.2018
G0 Z0.4
X-67.0136 Y29.2401
Z0.13
G1 Z0.0657 F40.
G18 G2 X-66.9979 Z0.05 I0.0156 K0.
G1 X-66.9901
G17 G3 X-66.9802 Y29.25 I0. J0.0099
X-67.0198 Z0.0327 I-0.0198 J0.
X-66.9803 Z0.0154 I0.0198 J0.
X-67.0165 Y29.2609 Z0.0014 I-0.0198 J0.
X-66.9835 Y29.2391 Z-0.0159 I0.0165 J-0.0109
X-66.9849 Y29.2627 Z-0.023 I-0.0165 J0.0109
X-67.0151 Y29.2373 Z-0.0402 I-0.0151 J-0.0127
X-66.9922 Y29.2319 Z-0.0473 I0.0151 J0.0127
X-67.0078 Y29.2681 Z-0.0646 I-0.0078 J0.0181
X-67.0196 Y29.2477 Z-0.0716 I0.0078 J-0.0181
X-66.9804 Y29.2523 Z-0.0889 I0.0196 J0.0023
X-66.9965 Y29.2694 Z-0.0959 I-0.0196 J-0.0023
X-67.0035 Y29.2306 Z-0.1132 I-0.0035 J-0.0194
X-66.9965 Y29.2694 Z-0.1305 I0.0035 J0.0194
X-67.0136 Y29.2357 Z-0.1445 I-0.0035 J-0.0194
X-66.9864 Y29.2643 Z-0.1618 I0.0136 J0.0143
X-67.0098 Y29.2671 Z-0.1689 I-0.0136 J-0.0143
X-66.9902 Y29.2329 Z-0.1861 I0.0098 J-0.0171
X-67.0098 Y29.2671 Z-0.2034 I-0.0098 J0.0171
X-67.0012 Y29.2303 Z-0.2175 I0.0098 J-0.0171
X-66.9988 Y29.2697 I0.0012 J0.0197
X-67.0012 Y29.2303 I-0.0012 J-0.0197
X-66.9908 Y29.2395 I0.0006 J0.0099
G1 X-66.9903 Y29.2473
X-66.9901 Y29.2504 Z-0.2172
X-66.9899 Y29.2533 Z-0.2163
X-66.9897 Y29.256 Z-0.2149
X-66.9896 Y29.2584 Z-0.2129
X-66.9895 Y29.2603 Z-0.2105
X-66.9894 Y29.2618 Z-0.2078
X-66.9893 Y29.2627 Z-0.2049
Y29.263 Z-0.2018
G0 Z0.4
X-67.9371 Y29.4918
Z0.1143
G1 Z0.05 F40.
X-67.9293
G3 X-67.921 Y29.5 I0. J0.0082
X-67.954 Z0.0333 I-0.0165 J0.
X-67.9398 Y29.4837 Z0.0257 I0.0165 J0.
X-67.9352 Y29.5163 Z0.009 I0.0023 J0.0163
X-67.9534 Y29.5045 Z0.0014 I-0.0023 J-0.0163
X-67.9216 Y29.4955 Z-0.0153 I0.0159 J-0.0045
X-67.9308 Y29.5151 Z-0.023 I-0.0159 J0.0045
X-67.9442 Y29.4849 Z-0.0397 I-0.0067 J-0.0151
X-67.9235 Y29.4913 Z-0.0473 I0.0067 J0.0151
X-67.9515 Y29.5087 Z-0.064 I-0.014 J0.0087
X-67.9235 Y29.4913 Z-0.0807 I0.014 J-0.0087
X-67.9485 Y29.5123 Z-0.0959 I-0.014 J0.0087
X-67.9265 Y29.4877 Z-0.1126 I0.011 J-0.0123
X-67.9238 Y29.5092 Z-0.1202 I-0.011 J0.0123
X-67.9512 Y29.4908 Z-0.1369 I-0.0137 J-0.0092
X-67.9303 Y29.4852 Z-0.1445 I0.0137 J0.0092
X-67.9447 Y29.5148 Z-0.1613 I-0.0072 J0.0148
X-67.9303 Y29.4852 Z-0.178 I0.0072 J-0.0148
X-67.9404 Y29.5162 Z-0.1932 I-0.0072 J0.0148
X-67.9346 Y29.4837 Z-0.2099 I0.0029 J-0.0162
X-67.921 Y29.5006 Z-0.2175 I-0.0029 J0.0163
X-67.954 Y29.4994 I-0.0165 J-0.0006
X-67.921 Y29.5006 I0.0165 J0.0006
X-67.9295 Y29.5085 I-0.0082 J-0.0003
G1 X-67.9374 Y29.5083
G0 Z0.4
X-67.0136 Y30.9901
Z0.13
G1 Z0.0657 F40.
G18 G2 X-66.9979 Z0.05 I0.0156 K0.
G1 X-66.9901
G17 G3 X-66.9802 Y31. I0. J0.0099
X-67.0198 Z0.0327 I-0.0198 J0.
X-66.9803 Z0.0154 I0.0198 J0.
X-67.0165 Y31.0109 Z0.0014 I-0.0198 J0.
X-66.9835 Y30.9891 Z-0.0159 I0.0165 J-0.0109
X-66.9849 Y31.0127 Z-0.023 I-0.0165 J0.0109
X-67.0151 Y30.9873 Z-0.0402 I-0.0151 J-0.0127
X-66.9922 Y30.9819 Z-0.0473 I0.0151 J0.0127
X-67.0078 Y31.0181 Z-0.0646 I-0.0078 J0.0181
X-67.0196 Y30.9977 Z-0.0716 I0.0078 J-0.0181
X-66.9804 Y31.0023 Z-0.0889 I0.0196 J0.0023
X-66.9965 Y31.0194 Z-0.0959 I-0.0196 J-0.0023
X-67.0035 Y30.9806 Z-0.1132 I-0.0035 J-0.0194
X-66.9824 Y30.9911 Z-0.1202 I0.0035 J0.0194
X-67.0176 Y31.0089 Z-0.1375 I-0.0176 J0.0089
X-67.0136 Y30.9857 Z-0.1445 I0.0176 J-0.0089
X-66.9864 Y31.0143 Z-0.1618 I0.0136 J0.0143
X-67.0098 Y31.0171 Z-0.1689 I-0.0136 J-0.0143
X-66.9902 Y30.9829 Z-0.1861 I0.0098 J-0.0171
X-67.0098 Y31.0171 Z-0.2034 I-0.0098 J0.0171
X-67.0012 Y30.9803 Z-0.2175 I0.0098 J-0.0171
X-66.9988 Y31.0197 I0.0012 J0.0197
X-67.0012 Y30.9803 I-0.0012 J-0.0197
X-66.9908 Y30.9895 I0.0006 J0.0099
G1 X-66.9903 Y30.9973
X-66.9901 Y31.0004 Z-0.2172
X-66.9899 Y31.0033 Z-0.2163
X-66.9897 Y31.006 Z-0.2149
X-66.9896 Y31.0084 Z-0.2129
X-66.9895 Y31.0103 Z-0.2105
X-66.9894 Y31.0118 Z-0.2078
X-66.9893 Y31.0127 Z-0.2049
Y31.013 Z-0.2018
G0 Z0.4
X-65.4864 Y31.0099
Z0.13
G1 Z0.0657 F40.
G18 G3 X-65.5021 Z0.05 I-0.0156 K0.
G1 X-65.5099
G17 G3 X-65.5198 Y31. I0. J-0.0099
X-65.4802 Z0.0327 I0.0198 J0.
X-65.5197 Z0.0154 I-0.0198 J0.
X-65.4835 Y30.9891 Z0.0014 I0.0198 J0.
X-65.5165 Y31.0109 Z-0.0159 I-0.0165 J0.0109
X-65.4835 Y30.9891 Z-0.0332 I0.0165 J-0.0109
X-65.5078 Y31.0181 Z-0.0473 I-0.0165 J0.0109
X-65.4922 Y30.9819 Z-0.0646 I0.0078 J-0.0181
X-65.4804 Y31.0023 Z-0.0716 I-0.0078 J0.0181
X-65.5196 Y30.9977 Z-0.0889 I-0.0196 J-0.0023
X-65.4804 Y31.0023 Z-0.1062 I0.0196 J0.0023
X-65.5176 Y31.0089 Z-0.1202 I-0.0196 J-0.0023
X-65.4824 Y30.9911 Z-0.1375 I0.0176 J-0.0089
X-65.4864 Y31.0143 Z-0.1445 I-0.0176 J0.0089
X-65.5136 Y30.9857 Z-0.1618 I-0.0136 J-0.0143
X-65.4902 Y30.9829 Z-0.1689 I0.0136 J0.0143
X-65.5098 Y31.0171 Z-0.1861 I-0.0098 J0.0171
X-65.5192 Y30.9955 Z-0.1932 I0.0098 J-0.0171
X-65.4808 Y31.0045 Z-0.2105 I0.0192 J0.0045
X-65.4988 Y31.0197 Z-0.2175 I-0.0192 J-0.0045
X-65.5012 Y30.9803 I-0.0012 J-0.0197
X-65.4988 Y31.0197 I0.0012 J0.0197
X-65.5092 Y31.0105 I-0.0006 J-0.0099
G1 X-65.5097 Y31.0027
X-65.5099 Y30.9996 Z-0.2172
X-65.5101 Y30.9967 Z-0.2163
X-65.5103 Y30.994 Z-0.2149
X-65.5104 Y30.9916 Z-0.2129
X-65.5105 Y30.9897 Z-0.2105
X-65.5106 Y30.9882 Z-0.2078
X-65.5107 Y30.9873 Z-0.2049
Y30.987 Z-0.2018
G0 Z0.4
X-63.9864 Y31.0099
Z0.13
G1 Z0.0657 F40.
G18 G3 X-64.0021 Z0.05 I-0.0157 K0.
G1 X-64.0099
G17 G3 X-64.0198 Y31. I0. J-0.0099
X-63.9802 Z0.0327 I0.0198 J0.
X-64.0198 Z0.0154 I-0.0198 J0.
X-63.9835 Y30.9891 Z0.0014 I0.0198 J0.
X-64.0165 Y31.0109 Z-0.0159 I-0.0165 J0.0109
X-63.9835 Y30.9891 Z-0.0332 I0.0165 J-0.0109
X-64.0078 Y31.0181 Z-0.0473 I-0.0165 J0.0109
X-63.9922 Y30.9819 Z-0.0646 I0.0078 J-0.0181
X-63.9804 Y31.0023 Z-0.0716 I-0.0078 J0.0181
X-64.0196 Y30.9977 Z-0.0889 I-0.0196 J-0.0023
X-63.9804 Y31.0023 Z-0.1062 I0.0196 J0.0023
X-64.0176 Y31.0089 Z-0.1202 I-0.0196 J-0.0023
X-63.9824 Y30.9911 Z-0.1375 I0.0176 J-0.0089
X-63.9864 Y31.0143 Z-0.1445 I-0.0176 J0.0089
X-64.0136 Y30.9857 Z-0.1618 I-0.0136 J-0.0143
X-63.9864 Y31.0143 Z-0.1791 I0.0136 J0.0143
X-64.0192 Y30.9955 Z-0.1932 I-0.0136 J-0.0143
X-63.9808 Y31.0045 Z-0.2105 I0.0192 J0.0045
X-63.9988 Y31.0197 Z-0.2175 I-0.0192 J-0.0045
X-64.0012 Y30.9803 I-0.0012 J-0.0197
X-63.9988 Y31.0197 I0.0012 J0.0197
X-64.0092 Y31.0105 I-0.0006 J-0.0099
G1 X-64.0097 Y31.0027
X-64.0099 Y30.9996 Z-0.2172
X-64.0101 Y30.9967 Z-0.2163
X-64.0103 Y30.994 Z-0.2149
X-64.0104 Y30.9916 Z-0.2129
X-64.0105 Y30.9897 Z-0.2105
X-64.0106 Y30.9882 Z-0.2078
X-64.0107 Y30.9873 Z-0.2049
Y30.987 Z-0.2018
G0 Z0.4
X-63.9864 Y32.7599
Z0.13
G1 Z0.0657 F40.
G18 G3 X-64.0021 Z0.05 I-0.0157 K0.
G1 X-64.0099
G17 G3 X-64.0198 Y32.75 I0. J-0.0099
X-63.9802 Z0.0327 I0.0198 J0.
X-64.0197 Z0.0154 I-0.0198 J0.
X-63.9835 Y32.7391 Z0.0014 I0.0198 J0.
X-64.0165 Y32.7609 Z-0.0159 I-0.0165 J0.0109
X-64.0151 Y32.7373 Z-0.023 I0.0165 J-0.0109
X-63.9849 Y32.7627 Z-0.0402 I0.0151 J0.0127
X-64.0078 Y32.7681 Z-0.0473 I-0.0151 J-0.0127
X-63.9922 Y32.7319 Z-0.0646 I0.0078 J-0.0181
X-63.9804 Y32.7523 Z-0.0716 I-0.0078 J0.0181
X-64.0196 Y32.7477 Z-0.0889 I-0.0196 J-0.0023
X-64.0035 Y32.7306 Z-0.0959 I0.0196 J0.0023
X-63.9965 Y32.7694 Z-0.1132 I0.0035 J0.0194
X-64.0176 Y32.7589 Z-0.1202 I-0.0035 J-0.0194
X-63.9824 Y32.7411 Z-0.1375 I0.0176 J-0.0089
X-63.9864 Y32.7643 Z-0.1445 I-0.0176 J0.0089
X-64.0136 Y32.7357 Z-0.1618 I-0.0136 J-0.0143
X-63.9902 Y32.7329 Z-0.1689 I0.0136 J0.0143
X-64.0098 Y32.7671 Z-0.1861 I-0.0098 J0.0171
X-64.0192 Y32.7455 Z-0.1932 I0.0098 J-0.0171
X-63.9808 Y32.7545 Z-0.2105 I0.0192 J0.0045
X-63.9988 Y32.7697 Z-0.2175 I-0.0192 J-0.0045
X-64.0012 Y32.7303 I-0.0012 J-0.0197
X-63.9988 Y32.7697 I0.0012 J0.0197
X-64.0092 Y32.7605 I-0.0006 J-0.0099
G1 X-64.0097 Y32.7527
X-64.0099 Y32.7496 Z-0.2172
X-64.0101 Y32.7467 Z-0.2163
X-64.0103 Y32.744 Z-0.2149
X-64.0104 Y32.7416 Z-0.2129
X-64.0105 Y32.7397 Z-0.2105
X-64.0106 Y32.7382 Z-0.2078
X-64.0107 Y32.7373 Z-0.2049
Y32.737 Z-0.2018
G0 Z0.4
X-65.4864 Y32.7599
Z0.13
G1 Z0.0657 F40.
G18 G3 X-65.5021 Z0.05 I-0.0156 K0.
G1 X-65.5099
G17 G3 X-65.5198 Y32.75 I0. J-0.0099
X-65.4802 Z0.0327 I0.0198 J0.
X-65.5197 Z0.0154 I-0.0198 J0.
X-65.4835 Y32.7391 Z0.0014 I0.0198 J0.
X-65.5165 Y32.7609 Z-0.0159 I-0.0165 J0.0109
X-65.5151 Y32.7373 Z-0.023 I0.0165 J-0.0109
X-65.4849 Y32.7627 Z-0.0402 I0.0151 J0.0127
X-65.5078 Y32.7681 Z-0.0473 I-0.0151 J-0.0127
X-65.4922 Y32.7319 Z-0.0646 I0.0078 J-0.0181
X-65.4804 Y32.7523 Z-0.0716 I-0.0078 J0.0181
X-65.5196 Y32.7477 Z-0.0889 I-0.0196 J-0.0023
X-65.5035 Y32.7306 Z-0.0959 I0.0196 J0.0023
X-65.4965 Y32.7694 Z-0.1132 I0.0035 J0.0194
X-65.5176 Y32.7589 Z-0.1202 I-0.0035 J-0.0194
X-65.4824 Y32.7411 Z-0.1375 I0.0176 J-0.0089
X-65.4864 Y32.7643 Z-0.1445 I-0.0176 J0.0089
X-65.5136 Y32.7357 Z-0.1618 I-0.0136 J-0.0143
X-65.4902 Y32.7329 Z-0.1689 I0.0136 J0.0143
X-65.5098 Y32.7671 Z-0.1861 I-0.0098 J0.0171
X-65.4902 Y32.7329 Z-0.2034 I0.0098 J-0.0171
X-65.4988 Y32.7697 Z-0.2175 I-0.0098 J0.0171
X-65.5012 Y32.7303 I-0.0012 J-0.0197
X-65.4988 Y32.7697 I0.0012 J0.0197
X-65.5092 Y32.7605 I-0.0006 J-0.0099
G1 X-65.5097 Y32.7527
X-65.5099 Y32.7496 Z-0.2172
X-65.5101 Y32.7467 Z-0.2163
X-65.5103 Y32.744 Z-0.2149
X-65.5104 Y32.7416 Z-0.2129
X-65.5105 Y32.7397 Z-0.2105
X-65.5106 Y32.7382 Z-0.2078
X-65.5107 Y32.7373 Z-0.2049
Y32.737 Z-0.2018
G0 Z0.4
X-67.0136 Y32.7401
Z0.13
G1 Z0.0657 F40.
G18 G2 X-66.9979 Z0.05 I0.0156 K0.
G1 X-66.9901
G17 G3 X-66.9802 Y32.75 I0. J0.0099
X-67.0198 Z0.0327 I-0.0198 J0.
X-66.9803 Z0.0154 I0.0198 J0.
X-67.0165 Y32.7609 Z0.0014 I-0.0198 J0.
X-66.9835 Y32.7391 Z-0.0159 I0.0165 J-0.0109
X-67.0165 Y32.7609 Z-0.0332 I-0.0165 J0.0109
X-66.9922 Y32.7319 Z-0.0473 I0.0165 J-0.0109
X-67.0078 Y32.7681 Z-0.0646 I-0.0078 J0.0181
X-67.0196 Y32.7477 Z-0.0716 I0.0078 J-0.0181
X-66.9804 Y32.7523 Z-0.0889 I0.0196 J0.0023
X-67.0196 Y32.7477 Z-0.1062 I-0.0196 J-0.0023
X-66.9824 Y32.7411 Z-0.1202 I0.0196 J0.0023
X-67.0176 Y32.7589 Z-0.1375 I-0.0176 J0.0089
X-67.0136 Y32.7357 Z-0.1445 I0.0176 J-0.0089
X-66.9864 Y32.7643 Z-0.1618 I0.0136 J0.0143
X-67.0098 Y32.7671 Z-0.1689 I-0.0136 J-0.0143
X-66.9902 Y32.7329 Z-0.1861 I0.0098 J-0.0171
X-66.9808 Y32.7545 Z-0.1932 I-0.0098 J0.0171
X-67.0192 Y32.7455 Z-0.2105 I-0.0192 J-0.0045
X-67.0012 Y32.7303 Z-0.2175 I0.0192 J0.0045
X-66.9988 Y32.7697 I0.0012 J0.0197
X-67.0012 Y32.7303 I-0.0012 J-0.0197
X-66.9908 Y32.7395 I0.0006 J0.0099
G1 X-66.9903 Y32.7473
X-66.9901 Y32.7504 Z-0.2172
X-66.9899 Y32.7533 Z-0.2163
X-66.9897 Y32.756 Z-0.2149
X-66.9896 Y32.7584 Z-0.2129
X-66.9895 Y32.7603 Z-0.2105
X-66.9894 Y32.7618 Z-0.2078
X-66.9893 Y32.7627 Z-0.2049
Y32.763 Z-0.2018
G0 Z0.6
(SHAPE THROUGH HOLE)
M7
G0 X-66.4603 Y30.6245
Z0.6
Z0.1
G3 X-66.5521 Y30.5708 Z0.0791 I-0.0197 J-0.0717 F50.
X-66.4961 Y30.4803 Z0.0582 I0.0721 J-0.0179
X-66.407 Y30.5384 Z0.0373 I0.0162 J0.0726
X-66.4673 Y30.6261 Z0.0164 I-0.0729 J0.0144
X-66.5535 Y30.5637 Z-0.0045 I-0.0126 J-0.0733
X-66.489 Y30.479 Z-0.0255 I0.0735 J-0.0108
X-66.406 Y30.5456 Z-0.0464 I0.009 J0.0738
X-66.554 Y30.5601 Z-0.0875 I-0.074 J0.0072
X-66.4836 Y30.4786 Z-0.1088 I0.074 J-0.0072
X-66.4056 Y30.5528 Z-0.13 I0.0036 J0.0742
X-66.5543 I-0.0743 J0.
X-66.4059 Y30.5466 I0.0743 J0.
G1 X-66.4056 Y30.5528
G3 X-66.3954 Y30.5915 I-0.0379 J0.0307 F60.
X-66.6056 Y30.5767 I-0.0997 J-0.0846
X-66.4806 Y30.3964 I0.1138 J-0.0546
X-66.4793 Y30.4038 I-0.0032 J0.0044
G1 X-66.492 Y30.4225
X-66.5852 Y30.5594
X-66.5968 Y30.5765 F50.
G3 X-66.6056 Y30.5767 I-0.0045 J-0.0031
X-66.6212 Y30.3919 I0.1278 J-0.1038 F60.
X-66.4441 Y30.4592 I0.0712 J0.0793
X-66.3954 Y30.5915 I-0.0373 J0.0888
X-66.421 Y30.5968 I-0.0146 J-0.0058
G1 X-66.4232 Y30.5947 Z-0.1297
X-66.4253 Y30.5926 Z-0.1288
X-66.4272 Y30.5907 Z-0.1274
X-66.4289 Y30.589 Z-0.1254
X-66.4302 Y30.5876 Z-0.123
X-66.4313 Y30.5866 Z-0.1203
X-66.4319 Y30.586 Z-0.1174
X-66.4321 Y30.5858 Z-0.1143
G0 Z0.4
X-66.4603 Y31.5189
Z0.1
G3 X-66.5521 Y31.4651 Z0.0791 I-0.0197 J-0.0717 F50.
X-66.4961 Y31.3746 Z0.0582 I0.0721 J-0.0179
X-66.407 Y31.4328 Z0.0373 I0.0162 J0.0726
X-66.4673 Y31.5204 Z0.0164 I-0.0729 J0.0144
X-66.5535 Y31.458 Z-0.0045 I-0.0126 J-0.0733
X-66.489 Y31.3734 Z-0.0255 I0.0735 J-0.0108
X-66.4709 Y31.521 Z-0.0666 I0.009 J0.0738
X-66.5542 Y31.4508 Z-0.0882 I-0.009 J-0.0738
X-66.4818 Y31.3729 Z-0.1091 I0.0743 J-0.0036
X-66.4056 Y31.4472 Z-0.13 I0.0018 J0.0743
X-66.5543 I-0.0743 J0.
X-66.4059 Y31.441 I0.0743 J0.
G1 X-66.4056 Y31.4472
G3 X-66.392 Y31.4908 I-0.1263 J0.0635 F60.
G1 X-66.4047 Y31.5059
X-66.4177 Y31.5209
X-66.431 Y31.5355
X-66.4445 Y31.55
X-66.4506 Y31.5555
X-66.457 Y31.5605
X-66.4638 Y31.565
X-66.4709 Y31.569
X-66.4783 Y31.5725
X-66.4859 Y31.5755
X-66.4937 Y31.5778
X-66.5017 Y31.5796
X-66.5098 Y31.5807
X-66.518 Y31.5813
X-66.5261
X-66.5343 Y31.5806
X-66.5423 Y31.5794
X-66.5503 Y31.5775
X-66.5581 Y31.5751
X-66.5657 Y31.5721
X-66.5731 Y31.5686
X-66.5801 Y31.5645
X-66.5869 Y31.5599
X-66.5933 Y31.5548
X-66.5993 Y31.5492
X-66.6048 Y31.5433
X-66.61 Y31.5369
X-66.6146 Y31.5302
X-66.6187 Y31.5231
X-66.6223 Y31.5158
X-66.6253 Y31.5082
X-66.6277 Y31.5004
X-66.6296 Y31.4924
X-66.6309 Y31.4844
X-66.6315 Y31.4762
X-66.6303 Y31.4737
X-66.6286 Y31.4715
X-66.6265 Y31.4696
X-66.624 Y31.4682
X-66.6213 Y31.4672
X-66.6184 Y31.4667
X-66.6155 Y31.4668
X-66.6126 Y31.4675
X-66.6063 Y31.4699
X-66.4565 Y31.5263
X-66.4527 Y31.5277 F50.
G3 X-66.4445 Y31.5499 I-0.0055 J0.0146
G1 X-66.4676 Y31.5884 F60.
X-66.48 Y31.6032
X-66.5114 Y31.6246
G3 X-66.617 Y31.4534 I-0.0418 J-0.0925
X-66.3984 Y31.4001 I0.1254 J0.0396
X-66.392 Y31.4908 I-0.0709 J0.0506
G1 X-66.398 Y31.4928
X-66.4004 Y31.4909 Z-0.1297
X-66.4027 Y31.4891 Z-0.1288
X-66.4048 Y31.4874 Z-0.1274
X-66.4067 Y31.486 Z-0.1254
X-66.4082 Y31.4848 Z-0.123
X-66.4093 Y31.4839 Z-0.1203
X-66.41 Y31.4833 Z-0.1174
X-66.4103 Y31.4832 Z-0.1143
G0 Z0.4
X-65.4246 Y30.0597
Z0.1
G3 X-65.5165 Y30.0059 Z0.0791 I-0.0197 J-0.0717 F50.
X-65.4605 Y29.9154 Z0.0582 I0.0721 J-0.0179
X-65.3714 Y29.9736 Z0.0373 I0.0162 J0.0726
X-65.4317 Y30.0612 Z0.0164 I-0.0729 J0.0144
X-65.5179 Y29.9988 Z-0.0045 I-0.0126 J-0.0733
X-65.4534 Y29.9142 Z-0.0255 I0.0735 J-0.0108
X-65.3703 Y29.9807 Z-0.0464 I0.009 J0.0738
X-65.5183 Y29.9952 Z-0.0875 I-0.074 J0.0072
X-65.448 Y29.9137 Z-0.1088 I0.074 J-0.0072
X-65.37 Y29.988 Z-0.13 I0.0036 J0.0742
X-65.5187 I-0.0743 J0.
X-65.3703 Y29.9818 I0.0743 J0.
G1 X-65.37 Y29.988
G3 X-65.36 Y30.0373 I-0.0442 J0.0347 F60.
G1 X-65.3973 Y30.0713
X-65.4018 Y30.0821
G3 X-65.5919 Y29.9595 I-0.0859 J-0.0755
X-65.5397 Y29.8695 I0.0726 J-0.018
G1 X-65.5385 Y29.8702
X-65.4914 Y29.8859
X-65.4514 Y29.865
G3 X-65.2783 Y29.992 I0.0426 J0.1234
X-65.36 Y30.0373 I-1.5696 J-2.7319
X-65.3754 Y30.0401 I-0.0101 J-0.0119
X-65.3815 Y29.9955 I0.0085 J-0.0239
X-65.3095 Y29.9857 I0.0454 J0.0643
X-65.2963 Y29.9918 I-0.0266 J0.0741 F50.
G2 X-65.2807 Y29.9919 I0.0079 J-0.0135
G1 X-65.2743 Y29.988 F60.
X-65.2643 Y29.9817
X-65.2591 Y29.975
X-65.2545 Y29.968
X-65.2504 Y29.9607
X-65.2468 Y29.9531
X-65.2437 Y29.9453
X-65.2413 Y29.9373
X-65.2393 Y29.9291
X-65.238 Y29.9208
X-65.2372 Y29.9125
X-65.2371 Y29.9041
X-65.2375 Y29.8957
X-65.2385 Y29.8874
X-65.2401 Y29.8791
X-65.2423 Y29.871
X-65.2451 Y29.8631
X-65.2484 Y29.8554
X-65.2522 Y29.8479
X-65.2566 Y29.8407
X-65.2614 Y29.8339
X-65.2667 Y29.8274
X-65.2725 Y29.8213
X-65.2787 Y29.8156
X-65.2853 Y29.8104
X-65.2922 Y29.8057
X-65.2994 Y29.8014
X-65.3069 Y29.7977
X-65.3147 Y29.7945
X-65.3227 Y29.7919
X-65.3308 Y29.7898
G3 X-65.4514 Y29.865 I-0.623 J-0.8646
G2 X-65.4427 Y29.8945 I0.0072 J0.0139
G3 X-65.4399 Y29.9257 I0.0014 J0.0156
X-65.4473 Y29.9245 I-0.0014 J-0.0156
G1 X-65.5105 Y29.8981
G3 X-65.518 Y29.8915 I0.006 J-0.0144
G2 X-65.5397 Y29.8695 I-0.0539 J0.0313 F50.
G1 X-65.5607 Y29.8578 F60.
X-65.5691 Y29.8572
X-65.5775
X-65.586 Y29.8578
X-65.5943 Y29.859
X-65.6026 Y29.8608
X-65.6107 Y29.8632
X-65.6186 Y29.8662
X-65.6262 Y29.8697
X-65.6336 Y29.8738
X-65.6407 Y29.8783
X-65.6475 Y29.8834
X-65.6538 Y29.889
X-65.6598 Y29.895
X-65.6653 Y29.9014
X-65.6703 Y29.9081
X-65.6749 Y29.9153
X-65.6789 Y29.9227
X-65.6823 Y29.9304
X-65.6852 Y29.9383
X-65.6876 Y29.9464
X-65.6893 Y29.9547
X-65.6905 Y29.9631
X-65.691 Y29.9715
X-65.6909 Y29.9799
X-65.6903 Y29.9883
X-65.689 Y29.9967
X-65.6871 Y30.0049
X-65.6847 Y30.013
G3 X-65.5996 Y30.1057 I-0.0269 J0.1101
G2 X-65.401 Y30.1906 I0.1283 J-0.0252
G1 X-65.4027 Y30.1292
X-65.4018 Y30.0821
G2 X-65.4099 Y30.0687 I-0.0156 J0.0003
X-65.4504 Y30.0863 I-0.0135 J0.0243
X-65.4231 Y30.1666 I0.0765 J0.0188
X-65.411 Y30.1746 I0.0492 J-0.0614 F50.
G3 X-65.4027 Y30.1879 I-0.0074 J0.0138
G1 X-65.4028 Y30.2115 F60.
X-65.406 Y30.2194
X-65.4098 Y30.2271
X-65.4142 Y30.2345
X-65.419 Y30.2415
X-65.4244 Y30.2482
X-65.4302 Y30.2544
X-65.4365 Y30.2602
X-65.4432 Y30.2655
X-65.4503 Y30.2704
X-65.4576 Y30.2747
X-65.4653 Y30.2784
X-65.4733 Y30.2816
X-65.4814 Y30.2842
X-65.4897 Y30.2862
X-65.4982 Y30.2876
X-65.5067 Y30.2884
X-65.5152 Y30.2886
X-65.5238 Y30.2881
X-65.5322 Y30.287
X-65.5406 Y30.2853
X-65.5488 Y30.283
X-65.5569 Y30.2801
X-65.5647 Y30.2766
X-65.5722 Y30.2726
X-65.5795 Y30.268
X-65.5863 Y30.2629
X-65.5928 Y30.2574
X-65.5989 Y30.2513
X-65.5983 Y30.1292
X-65.5996 Y30.1057
G3 X-65.5968 Y30.0959 I0.0156 J-0.0008
G2 X-65.5978 Y30.0768 I-0.0129 J-0.0089
G1 X-65.6422 Y30.0256
G2 X-65.6542 Y30.0202 I-0.0118 J0.0102
G3 X-65.6842 Y30.0128 I-0.0007 J-0.0623 F50.
G1 X-65.7123 Y29.9966 F60.
G3 X-65.6633 Y29.7936 I0.0905 J-0.0856
G2 X-65.5607 Y29.8578 I0.5465 J-0.7593
G3 X-65.5531 Y29.8715 I-0.0081 J0.0134
X-65.5823 Y29.8989 I-0.0279 J-0.0005
X-65.6572 Y29.8246 I0.0038 J-0.0786
X-65.6566 Y29.8101 I0.0786 J-0.0043 F50.
G2 X-65.6626 Y29.7956 I-0.0155 J-0.002
G1 X-65.6797 Y29.7834 F60.
X-65.6877 Y29.7812
X-65.6958 Y29.7796
X-65.704 Y29.7786
X-65.7123 Y29.7781
X-65.7206 Y29.7782
X-65.7288 Y29.7789
X-65.737 Y29.7803
X-65.745 Y29.7821
X-65.753 Y29.7846
X-65.7607 Y29.7876
X-65.7681 Y29.7912
X-65.7753 Y29.7952
X-65.7822 Y29.7998
X-65.7888 Y29.8049
X-65.795 Y29.8104
X-65.8007 Y29.8163
X-65.8061 Y29.8227
X-65.8109 Y29.8294
X-65.8153 Y29.8364
X-65.8192 Y29.8437
X-65.8225 Y29.8513
X-65.8253 Y29.8591
X-65.8275 Y29.8671
X-65.8292 Y29.8752
X-65.8302 Y29.8834
X-65.8307 Y29.8916
X-65.8306 Y29.8999
X-65.8299 Y29.9082
X-65.8286 Y29.9163
G2 X-65.7124 Y29.9968 I0.7593 J-0.973
G1 X-65.7099 Y29.9978
X-65.7072 Y29.9984
X-65.7044 Y29.9985
X-65.7017 Y29.9982
X-65.6991 Y29.9973
X-65.6967 Y29.9961
G2 X-65.6941 Y29.9302 I-0.021 J-0.0338
X-65.7993 Y29.9126 I-0.0699 J0.0952
X-65.8129 Y29.9178 I0.0352 J0.1127 F50.
G3 X-65.8284 Y29.9163 I-0.0065 J-0.0142
G1 X-65.8514 Y29.8987 F60.
G3 X-65.7839 Y29.7063 I0.0962 J-0.0743
X-65.6797 Y29.7835 I-1.9569 J2.7509
G1 X-65.6776 Y29.7856
X-65.6758 Y29.7882
X-65.6746 Y29.791
X-65.674 Y29.794
Y29.7971
X-65.6746 Y29.8001
X-65.6758 Y29.803
X-65.6775 Y29.8055
X-65.6797 Y29.8077
X-65.6822 Y29.8094
G3 X-65.6879 Y29.8112 I-0.0073 J-0.0138
X-65.7325 Y29.7958 I-0.0059 J-0.0555
X-65.7717 Y29.7348 I0.1093 J-0.1133
X-65.7769 Y29.7169 I0.1486 J-0.0523 F50.
G2 X-65.7838 Y29.7071 I-0.0153 J0.0034
G1 X-65.7864 Y29.7055 F60.
X-65.8089 Y29.6926
X-65.8173 Y29.6907
X-65.8258 Y29.6894
X-65.8344 Y29.6888
X-65.8431 Y29.6887
X-65.8517 Y29.6892
X-65.8603 Y29.6903
X-65.8687 Y29.6921
X-65.877 Y29.6944
X-65.8852 Y29.6973
X-65.8931 Y29.7007
X-65.9008 Y29.7047
X-65.9081 Y29.7092
X-65.9151 Y29.7143
X-65.9218 Y29.7198
X-65.928 Y29.7257
X-65.9339 Y29.7321
X-65.9392 Y29.7389
X-65.9441 Y29.746
X-65.9485 Y29.7534
X-65.9523 Y29.7612
X-65.9556 Y29.7692
X-65.9583 Y29.7774
X-65.9604 Y29.7857
X-65.962 Y29.7942
X-65.9629 Y29.8028
X-65.9633 Y29.8114
X-65.963 Y29.8201
X-65.9622 Y29.8286
X-65.9607 Y29.8372
G3 X-65.8514 Y29.8987 I-0.117 J0.3357
G2 X-65.8358 Y29.9002 I0.0091 J-0.0127
X-65.8228 Y29.8669 I-0.0106 J-0.0234
X-65.9308 Y29.827 I-0.0726 J0.0305
X-65.9431 Y29.8347 I0.0354 J0.0703 F50.
G3 X-65.9586 Y29.8367 I-0.0095 J-0.0124
G1 X-65.9621 Y29.8351 F60.
X-65.9803 Y29.827
X-65.9861 Y29.8208
X-65.9916 Y29.8142
X-65.9965 Y29.8073
X-66.0009 Y29.8
X-66.0048 Y29.7924
X-66.0081 Y29.7845
X-66.0109 Y29.7765
X-66.0131 Y29.7682
X-66.0146 Y29.7599
X-66.0156 Y29.7514
X-66.016 Y29.7429
X-66.0157 Y29.7344
X-66.0149 Y29.7259
X-66.0134 Y29.7175
X-66.0113 Y29.7092
X-66.0087 Y29.7011
X-66.0055 Y29.6932
X-66.0017 Y29.6856
X-65.9974 Y29.6783
X-65.9925 Y29.6712
X-65.9872 Y29.6646
X-65.9814 Y29.6583
X-65.9752 Y29.6525
X-65.9685 Y29.6472
X-65.9616 Y29.6423
X-65.9542 Y29.6379
X-65.9466 Y29.6341
X-65.9387 Y29.6309
G3 X-65.8089 Y29.6926 I-0.4127 J1.0359
X-65.8015 Y29.7064 I-0.0083 J0.0133
X-65.8593 Y29.7428 I-0.0412 J-0.0013
X-65.9274 Y29.6589 I0.0475 J-0.1082
X-65.9295 Y29.6445 I0.1156 J-0.0242 F50.
G2 X-65.9384 Y29.6317 I-0.0156 J0.0013
G1 X-65.9621 Y29.6215 F60.
X-65.9725 Y29.6187
G2 X-66.0993 Y29.7356 I-0.0054 J0.1213
X-65.9803 Y29.827 I0.1672 J-0.0946
X-65.9648 Y29.8249 I0.0059 J-0.0145
G1 X-65.9643 Y29.8195
X-65.9701 Y29.8132
G2 X-66.0738 Y29.7499 I-0.1708 J0.1632
G1 X-66.0878 Y29.7462 F50.
G3 X-66.0993 Y29.7356 I0.0035 J-0.0153
X-65.9725 Y29.6187 I0.0887 J-0.031 F60.
X-65.9651 Y29.6438 I-0.0046 J0.015
G1 X-65.9671 Y29.6461 Z-0.1297
X-65.969 Y29.6483 Z-0.1288
X-65.9707 Y29.6504 Z-0.1274
X-65.9722 Y29.6522 Z-0.1254
X-65.9735 Y29.6537 Z-0.123
X-65.9744 Y29.6548 Z-0.1203
X-65.975 Y29.6555 Z-0.1174
X-65.9752 Y29.6557 Z-0.1143
G0 Z0.4
X-65.3566 Y29.8294
Z-0.0987
G1 Z-0.1143 F50.
X-65.3565 Y29.8291 Z-0.1174
X-65.3561 Y29.8283 Z-0.1203
X-65.3555 Y29.827 Z-0.123
X-65.3547 Y29.8252 Z-0.1254
X-65.3538 Y29.823 Z-0.1274
X-65.3527 Y29.8205 Z-0.1288
X-65.3515 Y29.8179 Z-0.1297
X-65.3502 Y29.8151 Z-0.13
G3 X-65.331 Y29.7908 I0.0569 J0.0254
G1 X-65.3091 Y29.7754 F60.
G3 X-65.1538 Y29.9039 I0.0362 J0.1144
X-65.2642 Y29.9817 I-0.9547 J-1.2379
G1 X-65.267 Y29.983
X-65.27 Y29.9837
X-65.2731 Y29.9838
X-65.2761 Y29.9833
X-65.279 Y29.9822
X-65.2816 Y29.9806
X-65.2839 Y29.9785
X-65.2856 Y29.976
G3 X-65.2854 Y29.9606 I0.0129 J-0.0075
X-65.1848 Y29.9051 I0.1002 J0.0625
X-65.1663 Y29.9066 I-0.0004 J0.1181 F50.
G2 X-65.1546 Y29.9038 I0.0025 J-0.0154
G1 X-65.1417 Y29.8938 F60.
X-65.1343 Y29.8879
G2 X-65.2049 Y29.6972 I-0.096 J-0.0729
X-65.309 Y29.7755 I2.6277 J3.5985
G1 X-65.311 Y29.7773
X-65.3127 Y29.7794
X-65.314 Y29.7818
X-65.3148 Y29.7844
X-65.3152 Y29.7871
Y29.7898
G2 X-65.2792 Y29.8091 I0.0249 J-0.0031
X-65.2152 Y29.7246 I-0.0523 J-0.1059
X-65.2135 Y29.7101 I-0.1162 J-0.0213 F50.
G3 X-65.2049 Y29.6971 I0.0156 J0.0009
G1 X-65.1713 Y29.6816 F60.
G3 X-65.0256 Y29.8311 I0.0221 J0.1243
G2 X-65.1343 Y29.8879 I0.1778 J0.4722
G3 X-65.1498 Y29.8897 I-0.0093 J-0.0126
X-65.1619 Y29.8576 I0.0095 J-0.0219
X-65.0556 Y29.821 I0.0711 J0.0338
X-65.0433 Y29.8287 I-0.0352 J0.0705 F50.
G2 X-65.0277 Y29.8306 I0.0094 J-0.0125
G1 X-65.0207 Y29.8273 F60.
X-65.0077 Y29.8214
X-65.0017 Y29.8156
X-64.9962 Y29.8094
X-64.9911 Y29.8028
X-64.9865 Y29.7958
X-64.9824 Y29.7886
X-64.9788 Y29.781
X-64.9758 Y29.7733
X-64.9733 Y29.7653
X-64.9714 Y29.7572
X-64.9701 Y29.7489
X-64.9694 Y29.7406
X-64.9692 Y29.7323
X-64.9697 Y29.724
X-64.9707 Y29.7157
X-64.9723 Y29.7075
X-64.9745 Y29.6995
X-64.9773 Y29.6916
X-64.9806 Y29.684
X-64.9844 Y29.6766
X-64.9888 Y29.6695
X-64.9936 Y29.6627
X-64.9989 Y29.6562
X-65.0047 Y29.6502
X-65.0108 Y29.6446
X-65.0174 Y29.6395
X-65.0243 Y29.6348
X-65.0315 Y29.6306
X-65.039 Y29.6269
X-65.0467 Y29.6238
G2 X-65.1713 Y29.6816 I3.1426 J6.9398
X-65.1692 Y29.7104 I0.007 J0.014
X-65.1455 Y29.7121 I0.015 J-0.0455
X-65.0621 Y29.6506 I-0.0213 J-0.1162
X-65.0548 Y29.6335 I-0.1047 J-0.0547 F50.
G3 X-65.0469 Y29.6244 I0.0148 J0.005
G1 X-65.0207 Y29.6125 F60.
G3 X-64.9015 Y29.6799 I0.0147 J0.1131
X-64.9246 Y29.6971 I-0.0152 J0.0037
G1 X-65.0216 Y29.64
X-65.0238 Y29.6384
G3 X-65.0207 Y29.6125 I0.0101 J-0.0119 F50.
X-64.898 Y29.6837 I0.0271 J0.0945 F60.
X-64.9741 Y29.8033 I-0.0955 J0.0233
G1 X-65.0077 Y29.8214
G3 X-65.0294 Y29.8068 I-0.006 J-0.0145
G1 X-65.0293 Y29.8037 Z-0.1297
Y29.8008 Z-0.1288
X-65.0292 Y29.7981 Z-0.1274
Y29.7957 Z-0.1254
Y29.7938 Z-0.123
Y29.7923 Z-0.1203
Y29.7914 Z-0.1174
Y29.7911 Z-0.1143
G0 Z0.4
X-65.4194 Y30.1684
Z-0.0987
G1 Z-0.1143 F50.
X-65.4193 Y30.1687 Z-0.1174
X-65.4188 Y30.1694 Z-0.1203
X-65.4181 Y30.1707 Z-0.123
X-65.4171 Y30.1723 Z-0.1254
X-65.4159 Y30.1744 Z-0.1274
X-65.4145 Y30.1767 Z-0.1288
X-65.413 Y30.1792 Z-0.1297
X-65.4114 Y30.1819 Z-0.13
G3 X-65.4028 Y30.2115 I-0.0536 J0.0318
G1 Y30.2704 F60.
X-65.4095 Y30.2939
G3 X-65.5098 Y30.3647 I-0.107 J-0.0452
X-65.5159 Y30.3367 I0.0031 J-0.0153
G1 X-65.5096 Y30.3289
X-65.5029 Y30.3216
X-65.4957 Y30.3146
X-65.4882 Y30.308
X-65.4804 Y30.3019
X-65.4722 Y30.2962
X-65.4637 Y30.2909
X-65.4549 Y30.2861
X-65.4459 Y30.2819
X-65.4367 Y30.2781
X-65.4272 Y30.2748
X-65.4242 Y30.2746 F50.
X-65.4211 Y30.275
X-65.4182 Y30.276
X-65.4155 Y30.2775
X-65.4132 Y30.2796
X-65.4113 Y30.282
X-65.41 Y30.2848
X-65.4092 Y30.2878
X-65.409 Y30.2909
X-65.4095 Y30.2939
X-65.4116 Y30.3013 F60.
X-65.4143 Y30.3084
X-65.4176 Y30.3153
X-65.4214 Y30.3219
X-65.4257 Y30.3282
X-65.4305 Y30.3342
X-65.4358 Y30.3397
X-65.4415 Y30.3448
X-65.4476 Y30.3494
X-65.454 Y30.3535
X-65.4607 Y30.3571
X-65.4677 Y30.3602
X-65.475 Y30.3627
X-65.4823 Y30.3646
X-65.4899 Y30.3659
X-65.4975 Y30.3667
X-65.5051 Y30.3668
X-65.5127 Y30.3663
X-65.5203 Y30.3652
X-65.5277 Y30.3635
X-65.535 Y30.3612
X-65.5421 Y30.3583
X-65.5489 Y30.3549
X-65.5555 Y30.351
X-65.5617 Y30.3465
X-65.5675 Y30.3416
X-65.573 Y30.3362
X-65.5779 Y30.3304
X-65.5824 Y30.3243
X-65.5864 Y30.3178
X-65.5899 Y30.311
X-65.5928 Y30.3039
X-65.5952 Y30.2966
X-65.5969 Y30.2892
X-65.5981 Y30.2817
X-65.5987 Y30.274
X-65.5986 Y30.2664
X-65.598 Y30.2588
X-65.5967 Y30.2513
G0 X-65.5984 Y30.2509 Z0.4
X-65.4246 Y32.0837
Z0.1
G3 X-65.5165 Y32.03 Z0.0791 I-0.0197 J-0.0717 F50.
X-65.4605 Y31.9395 Z0.0582 I0.0721 J-0.0179
X-65.3714 Y31.9976 Z0.0373 I0.0162 J0.0726
X-65.4317 Y32.0853 Z0.0164 I-0.0729 J0.0144
X-65.5179 Y32.0229 Z-0.0045 I-0.0126 J-0.0733
X-65.4534 Y31.9382 Z-0.0255 I0.0735 J-0.0108
X-65.4353 Y32.0858 Z-0.0666 I0.009 J0.0738
X-65.5186 Y32.0156 Z-0.0882 I-0.009 J-0.0738
X-65.4461 Y31.9377 Z-0.1091 I0.0743 J-0.0036
X-65.37 Y32.012 Z-0.13 I0.0018 J0.0743
X-65.5187 I-0.0743 J0.
X-65.3703 Y32.0058 I0.0743 J0.
G1 X-65.37 Y32.012
G3 X-65.419 Y32.1532 I-0.0643 J0.0568 F60.
G1 X-65.4443 Y32.1387
X-65.4914 Y32.1141
X-65.4953 Y32.1154
X-65.504 Y32.1135
X-65.5124 Y32.1109
X-65.5207 Y32.1078
X-65.5288 Y32.1041
X-65.5366 Y32.0999
X-65.544 Y32.0952
X-65.5512 Y32.0899
X-65.5579 Y32.0842
X-65.5643 Y32.078
X-65.5702 Y32.0714
X-65.5756 Y32.0644
X-65.5805 Y32.0571
X-65.5849 Y32.0494
X-65.5888 Y32.0414
X-65.5921 Y32.0332
X-65.5949 Y32.0248
X-65.5971 Y32.0162
X-65.5986 Y32.0075
X-65.5996 Y31.9987
X-65.6 Y31.9899
X-65.5997 Y31.981
X-65.5989 Y31.9722
X-65.5974 Y31.9635
X-65.5953 Y31.9549
X-65.5927 Y31.9464
X-65.5895 Y31.9382
X-65.5857 Y31.9302
X-65.5814 Y31.9225
X-65.5765 Y31.915
X-65.5712 Y31.908
X-65.5654 Y31.9013
X-65.5591 Y31.8951
X-65.5524 Y31.8892
X-65.5454 Y31.8839
X-65.538 Y31.8791
X-65.5302 Y31.8747
X-65.5222 Y31.871
X-65.514 Y31.8677
X-65.5055 Y31.8651
X-65.4969 Y31.863
X-65.4882 Y31.8616
X-65.4794 Y31.8607
X-65.4705 Y31.8605
X-65.4617 Y31.8609
X-65.4529 Y31.8618
X-65.4508 Y31.8584
X-65.4482 Y31.8552
X-65.4452 Y31.8525
X-65.4418 Y31.8503
X-65.4381 Y31.8486
X-65.4342 Y31.8475
X-65.4302 Y31.847
X-65.4261 Y31.8471
X-65.4221 Y31.8478
X-65.4183 Y31.849
X-65.4147 Y31.8509
X-65.4114 Y31.8532
X-65.4084 Y31.856
X-65.406 Y31.8593
X-65.404 Y31.8628
X-65.4026 Y31.8666
X-65.404 Y31.8738
X-65.4047 Y31.881
X-65.4049 Y31.8883
X-65.4046 Y31.8956
X-65.4036 Y31.9028
X-65.4021 Y31.9099
X-65.4001 Y31.9169
X-65.3975 Y31.9237
X-65.3943 Y31.9302
X-65.3907 Y31.9365
X-65.3865 Y31.9425
X-65.3819 Y31.9481
X-65.3769 Y31.9534
X-65.3715 Y31.9582
X-65.3657 Y31.9626
X-65.3596 Y31.9666
X-65.3532 Y31.97
X-65.3465 Y31.9729
X-65.3396 Y31.9753
X-65.3326 Y31.9771
X-65.3254 Y31.9784
G3 X-65.3368 Y32.2073 I-0.0828 J0.1106
G2 X-65.419 Y32.1532 I-0.208 J0.2264
G3 X-65.4262 Y32.1394 I0.0084 J-0.0132
X-65.3769 Y32.1156 I0.031 J0.0013
X-65.3448 Y32.1744 I-0.0466 J0.0635
X-65.3453 Y32.1889 I-0.0786 J0.0047 F50.
G2 X-65.3392 Y32.2034 I0.0155 J0.002
G1 X-65.3216 Y32.2158 F60.
G2 X-65.1881 Y32.0707 I0.0199 J-0.1157
X-65.3258 Y31.9815 I-0.7243 J0.9672
G1 X-65.3287 Y31.9803
X-65.3317 Y31.9796
X-65.3348
X-65.3378 Y31.9802
X-65.3407 Y31.9813
X-65.3433 Y31.983
X-65.3455 Y31.9852
X-65.3472 Y31.9877
X-65.3484 Y31.9905
X-65.3491 Y31.9936
G2 X-65.3457 Y32.005 I0.0156 J0.0016
G3 X-65.3702 Y32.0245 I-0.0122 J0.0097
X-65.3727 Y32.02 I0.0122 J-0.0097
G1 X-65.4126 Y31.9097
G3 X-65.4114 Y31.8963 I0.0147 J-0.0053
G2 X-65.4027 Y31.8667 I-0.0536 J-0.0318 F50.
G1 Y31.8489 F60.
G2 X-65.5977 Y31.8254 I-0.1041 J0.0431
G3 X-65.6371 Y31.9568 I-0.0979 J0.0423
G2 X-65.6006 Y32.167 I0.103 J0.0904
G3 X-65.4953 Y32.1154 I0.1897 J0.2537
G2 X-65.4853 Y32.1034 I-0.0054 J-0.0147
X-65.5163 Y32.068 I-0.0298 J-0.0052
X-65.5909 Y32.1355 I0.0034 J0.0787
X-65.5916 Y32.15 I0.0779 J0.0111 F50.
G3 X-65.5989 Y32.1639 I-0.0156 J0.0007
G1 X-65.6165 Y32.1743 F60.
X-65.6249 Y32.1758
X-65.6334 Y32.1766
X-65.6419 Y32.1768
X-65.6505 Y32.1764
X-65.6589 Y32.1754
X-65.6673 Y32.1738
X-65.6755 Y32.1715
X-65.6836 Y32.1687
X-65.6914 Y32.1653
X-65.699 Y32.1613
X-65.7062 Y32.1567
X-65.7131 Y32.1517
X-65.7196 Y32.1462
X-65.7256 Y32.1402
X-65.7313 Y32.1338
X-65.7364 Y32.1269
X-65.741 Y32.1198
X-65.7451 Y32.1123
X-65.7486 Y32.1045
X-65.7516 Y32.0965
X-65.7539 Y32.0883
X-65.7557 Y32.08
X-65.7568 Y32.0715
X-65.7573 Y32.063
X-65.7572 Y32.0545
X-65.7565 Y32.046
X-65.7551 Y32.0375
X-65.7532 Y32.0292
G2 X-65.6371 Y31.9568 I-1.4 J-2.373
G3 X-65.6216 Y31.9551 I0.0093 J0.0126
X-65.6153 Y32.0224 I-0.0154 J0.0354
X-65.7241 Y32.0349 I-0.0663 J-0.0978
X-65.7373 Y32.0288 I0.0425 J-0.1102 F50.
G2 X-65.753 Y32.0293 I-0.0074 J0.0138
G1 X-65.7739 Y32.0433 F60.
X-65.7799 Y32.0476
G2 X-65.7172 Y32.2462 I0.0961 J0.0789
G1 X-65.6797 Y32.2166
X-65.6569 Y32.2003
X-65.6326 Y32.1838
X-65.6165 Y32.1743
G2 X-65.6093 Y32.1604 I-0.0084 J-0.0132
X-65.6311 Y32.139 I-0.0224 J0.001
X-65.712 Y32.2153 I-0.0022 J0.0787
X-65.7111 Y32.2298 I0.0787 J0.0024 F50.
G3 X-65.7167 Y32.2444 I-0.0155 J0.0024
G1 X-65.7207 Y32.2474 F60.
X-65.7268 Y32.2521
X-65.7354 Y32.2585
X-65.7435 Y32.261
X-65.7517 Y32.2628
X-65.76 Y32.2641
X-65.7684 Y32.2647
X-65.7769 Y32.2648
X-65.7853 Y32.2643
X-65.7936 Y32.2631
X-65.8019 Y32.2614
X-65.81 Y32.2591
X-65.8179 Y32.2563
X-65.8256 Y32.2528
X-65.8331 Y32.2489
X-65.8402 Y32.2444
X-65.847 Y32.2394
X-65.8534 Y32.234
X-65.8595 Y32.2281
X-65.8651 Y32.2218
X-65.8702 Y32.2151
X-65.8748 Y32.2081
X-65.879 Y32.2007
X-65.8826 Y32.1931
X-65.8856 Y32.1852
X-65.8881 Y32.1772
X-65.89 Y32.169
X-65.8914 Y32.1607
X-65.8921 Y32.1523
X-65.8922 Y32.1438
X-65.8917 Y32.1354
X-65.8907 Y32.1271
G2 X-65.7799 Y32.0476 I-1.7153 J-2.5089
G3 X-65.7643 Y32.0466 I0.0087 J0.013
X-65.755 Y32.0621 I-0.0074 J0.015
X-65.8607 Y32.1337 I-0.0787 J-0.0024
X-65.8738 Y32.1275 I0.027 J-0.074 F50.
G2 X-65.8894 Y32.1273 I-0.008 J0.0135
G1 X-65.9096 Y32.1395 F60.
X-65.915 Y32.1461
X-65.9199 Y32.153
X-65.9244 Y32.1603
X-65.9282 Y32.1679
X-65.9316 Y32.1757
X-65.9343 Y32.1838
X-65.9365 Y32.192
X-65.9381 Y32.2004
X-65.939 Y32.2088
X-65.9394 Y32.2173
X-65.9391 Y32.2259
X-65.9382 Y32.2343
X-65.9367 Y32.2427
X-65.9346 Y32.251
X-65.9319 Y32.259
X-65.9287 Y32.2669
X-65.9249 Y32.2745
X-65.9205 Y32.2818
X-65.9156 Y32.2888
X-65.9103 Y32.2954
X-65.9045 Y32.3016
X-65.8982 Y32.3074
X-65.8916 Y32.3127
X-65.8845 Y32.3175
X-65.8772 Y32.3218
X-65.8695 Y32.3256
X-65.8616 Y32.3288
X-65.8535 Y32.3314
G2 X-65.7353 Y32.2587 I-0.263 J-0.5602
G1 X-65.7333 Y32.2568
X-65.7317 Y32.2545
X-65.7305 Y32.2521
X-65.7298 Y32.2494
X-65.7295 Y32.2467
X-65.7297 Y32.244
G2 X-65.7848 Y32.217 I-0.0369 J0.0056
X-65.844 Y32.3028 I0.0577 J0.1031
X-65.8452 Y32.3173 I0.1168 J0.0172 F50.
G3 X-65.8533 Y32.3307 I-0.0156 J-0.0004
G1 X-65.868 Y32.3381 F60.
X-65.8763 Y32.3415
X-65.8869 Y32.3461
G3 X-66.0222 Y32.1906 I-0.0137 J-0.1247
G2 X-65.9095 Y32.1397 I-0.4365 J-1.1162
G1 X-65.9071 Y32.1385
X-65.9044 Y32.1378
X-65.9017 Y32.1376
X-65.899 Y32.1378
X-65.8964 Y32.1385
X-65.8939 Y32.1397
G3 X-65.8863 Y32.1653 I-0.01 J0.0169
X-65.9924 Y32.2008 I-0.0706 J-0.0348
X-66.0047 Y32.1931 I0.0355 J-0.0703 F50.
G2 X-66.0202 Y32.1911 I-0.0095 J0.0124
G1 X-66.0403 Y32.2003 F60.
X-66.0452 Y32.2026
G2 X-66.0323 Y32.3845 I0.083 J0.0855
X-65.8869 Y32.3461 I0.0364 J-0.1567
X-65.8781 Y32.3333 I-0.0067 J-0.0141
X-65.89 Y32.3211 I-0.0112 J-0.0009
X-66.0067 Y32.3702 I0.0138 J0.1964
G1 X-66.0173 Y32.3802 F50.
G3 X-66.0323 Y32.3845 I-0.0112 J-0.0109
X-66.0451 Y32.2029 I0.0218 J-0.0928 F60.
G1 X-66.0422 Y32.2019
X-66.0392 Y32.2016
X-66.0361 Y32.2018
X-66.0332 Y32.2027
X-66.0305 Y32.2041
X-66.0281 Y32.206
X-66.0261 Y32.2083
X-66.0246 Y32.211
X-66.0237 Y32.2139
X-66.0234 Y32.217
Y32.2201 Z-0.1297
Y32.223 Z-0.1288
Y32.2257 Z-0.1274
Y32.2281 Z-0.1254
Y32.23 Z-0.123
Y32.2315 Z-0.1203
Y32.2324 Z-0.1174
Y32.2327 Z-0.1143
G0 Z0.4
X-65.5816 Y31.868
Z-0.0987
G1 Z-0.1143 F50.
X-65.5818 Y31.8677 Z-0.1174
X-65.5822 Y31.867 Z-0.1203
X-65.583 Y31.8657 Z-0.123
X-65.5839 Y31.8641 Z-0.1254
X-65.5852 Y31.862 Z-0.1274
X-65.5865 Y31.8597 Z-0.1288
X-65.5881 Y31.8572 Z-0.1297
X-65.5896 Y31.8545 Z-0.13
G3 X-65.5984 Y31.8249 I0.0535 J-0.0319
G1 Y31.7931 F60.
X-65.5961 Y31.7847
X-65.5931 Y31.7765
X-65.5896 Y31.7685
X-65.5856 Y31.7608
X-65.581 Y31.7534
X-65.576 Y31.7463
X-65.5704 Y31.7396
X-65.5644 Y31.7333
X-65.5579 Y31.7275
X-65.5511 Y31.7221
X-65.5439 Y31.7172
X-65.5363 Y31.7129
X-65.5285 Y31.709
X-65.5205 Y31.7058
X-65.5122 Y31.7031
X-65.5037 Y31.701
X-65.4952 Y31.6994
X-65.4865 Y31.6985
X-65.4778 Y31.6982
X-65.4691 Y31.6986
X-65.4604 Y31.6995
X-65.4519 Y31.701
X-65.4434 Y31.7032
X-65.4352 Y31.7059
X-65.4271 Y31.7092
X-65.4193 Y31.7131
X-65.4118 Y31.7174
X-65.4046 Y31.7224
X-65.4042 Y31.7252
Y31.728
X-65.4048 Y31.7308
X-65.4059 Y31.7334
X-65.4074 Y31.7358
X-65.4093 Y31.7379
X-65.4116 Y31.7396
X-65.4141 Y31.7408
X-65.4221 Y31.7441
X-65.5761 Y31.8067
X-65.5768 Y31.807 F50.
G3 X-65.5984 Y31.7931 I-0.0059 J-0.0145
G1 X-65.5985 Y31.7296 F60.
X-65.5886 Y31.6931
G3 X-65.4035 Y31.7296 I0.089 J0.0362
G1 X-65.4027 Y31.8489
G0 Z0.4
X-65.2326 Y32.0581
Z-0.0987
G1 Z-0.1143 F50.
X-65.2323 Y32.0582 Z-0.1174
X-65.2314 Y32.0583 Z-0.1203
X-65.23 Y32.0584 Z-0.123
X-65.2281 Y32.0586 Z-0.1254
X-65.2257 Y32.0589 Z-0.1274
X-65.223 Y32.0592 Z-0.1288
X-65.2201 Y32.0595 Z-0.1297
X-65.2171 Y32.0598 Z-0.13
G3 X-65.1881 Y32.0707 I-0.0068 J0.0619
G1 X-65.1619 Y32.0905 F60.
G3 X-65.227 Y32.2895 I-0.0956 J0.0788
G2 X-65.3216 Y32.2158 I-0.8011 J0.931
G3 X-65.3277 Y32.2014 I0.0095 J-0.0125
X-65.3011 Y32.1805 I0.0238 J0.003
X-65.2315 Y32.2584 I-0.0091 J0.0782
X-65.2328 Y32.2729 I-0.0787 J0.0003 F50.
G2 X-65.233 Y32.2757 I0.0154 J0.0028
X-65.2275 Y32.2876 I0.0157 J0.
G1 X-65.2189 Y32.2945 F60.
X-65.209 Y32.3011
X-65.196 Y32.307
G2 X-65.0496 Y32.1577 I0.0209 J-0.1259
G3 X-65.1619 Y32.0905 I0.0847 J-0.2689
G2 X-65.1775 Y32.0891 I-0.009 J0.0128
X-65.1909 Y32.1183 I0.0105 J0.0225
X-65.0799 Y32.1678 I0.0759 J-0.021
X-65.0675 Y32.1601 I-0.0352 J-0.0705 F50.
G3 X-65.052 Y32.1582 I0.0094 J0.0125
G1 X-65.0311 Y32.1678 F60.
X-65.0251 Y32.174
X-65.0196 Y32.1806
X-65.0146 Y32.1875
X-65.0101 Y32.1948
X-65.0061 Y32.2024
X-65.0027 Y32.2103
X-64.9999 Y32.2183
X-64.9976 Y32.2266
X-64.996 Y32.235
X-64.9949 Y32.2435
X-64.9945 Y32.2521
X-64.9947 Y32.2607
X-64.9955 Y32.2692
X-64.9969 Y32.2777
X-64.999 Y32.286
X-65.0016 Y32.2941
X-65.0048 Y32.3021
X-65.0086 Y32.3098
X-65.0129 Y32.3172
X-65.0178 Y32.3243
X-65.0231 Y32.331
X-65.0289 Y32.3373
X-65.0351 Y32.3431
X-65.0418 Y32.3486
X-65.0488 Y32.3535
X-65.0562 Y32.3579
X-65.0638 Y32.3617
X-65.0718 Y32.365
X-65.196 Y32.307
G3 X-65.203 Y32.286 I0.007 J-0.014
X-65.1841 Y32.2752 I0.0176 J0.0088
X-65.0873 Y32.3381 I-0.0077 J0.1179
X-65.08 Y32.3551 I-0.1045 J0.0551 F50.
G2 X-65.0721 Y32.3642 I0.0148 J-0.005
G1 X-65.0442 Y32.3768 F60.
G2 X-64.9113 Y32.2428 I0.0122 J-0.1208
X-65.0311 Y32.1678 I-0.2171 J0.2139
X-65.0466 Y32.1698 I-0.0061 J0.0144
X-65.0493 Y32.1839 I0.0064 J0.0085
X-64.9405 Y32.2396 I0.1005 J-0.0621
X-64.9261 Y32.2377 I-0.0083 J-0.1178 F50.
G3 X-64.9113 Y32.2428 I0.003 J0.0154
X-65.0441 Y32.3766 I-0.0809 J0.0526 F60.
G0 X-65.0442 Y32.3768 Z0.4
X-64.4831 Y30.6245
Z0.1
G3 X-64.575 Y30.5708 Z0.0791 I-0.0197 J-0.0717 F50.
X-64.519 Y30.4803 Z0.0582 I0.0721 J-0.0179
X-64.4299 Y30.5384 Z0.0373 I0.0162 J0.0726
X-64.4902 Y30.6261 Z0.0164 I-0.0729 J0.0144
X-64.5764 Y30.5637 Z-0.0045 I-0.0126 J-0.0733
X-64.5119 Y30.479 Z-0.0255 I0.0735 J-0.0108
X-64.4289 Y30.5456 Z-0.0464 I0.009 J0.0738
X-64.5768 Y30.5601 Z-0.0875 I-0.074 J0.0072
X-64.5065 Y30.4786 Z-0.1088 I0.074 J-0.0072
X-64.4285 Y30.5528 Z-0.13 I0.0036 J0.0742
X-64.5772 I-0.0743 J0.
X-64.4288 Y30.5466 I0.0743 J0.
G1 X-64.4285 Y30.5528
G3 X-64.4207 Y30.5978 I-0.0211 J0.0269 F60.
G1 X-64.4249 Y30.6048
X-64.4296 Y30.6113
X-64.4348 Y30.6175
X-64.4404 Y30.6233
X-64.4465 Y30.6286
X-64.4529 Y30.6335
X-64.4597 Y30.6379
X-64.4668 Y30.6417
X-64.4742 Y30.645
X-64.4818 Y30.6477
X-64.4896 Y30.6499
X-64.4975 Y30.6514
X-64.5056 Y30.6524
X-64.5136 Y30.6527
X-64.5217 Y30.6524
X-64.5297 Y30.6516
X-64.5377 Y30.6501
X-64.5455 Y30.648
X-64.5531 Y30.6454
X-64.5605 Y30.6421
X-64.5677 Y30.6384
X-64.5745 Y30.6341
X-64.581 Y30.6293
X-64.5871 Y30.624
X-64.5928 Y30.6183
X-64.598 Y30.6121
X-64.6028 Y30.6056
X-64.6071 Y30.5987
X-64.6108 Y30.5916
X-64.614 Y30.5842
X-64.6166 Y30.5765
X-64.6186 Y30.5687
X-64.6201 Y30.5608
X-64.6209 Y30.5527
X-64.6211 Y30.5447
X-64.6208 Y30.5366
X-64.6198 Y30.5286
X-64.6182 Y30.5207
X-64.616 Y30.5129
X-64.6132 Y30.5053
X-64.6099 Y30.498
X-64.606 Y30.4909
X-64.6016 Y30.4841
X-64.5588 Y30.4587
X-64.5499 Y30.4504
X-64.5454 Y30.4446
G3 X-64.3617 Y30.4878 I0.0779 J0.081
G1 X-64.3621 Y30.4907
X-64.363 Y30.4935
X-64.3644 Y30.4961
X-64.3663 Y30.4983
X-64.3686 Y30.5002
X-64.3712 Y30.5016
X-64.3741 Y30.5025
X-64.3771 Y30.5027
X-64.3801 Y30.5025
X-64.3835 Y30.5017
X-64.536 Y30.469
G3 X-64.5454 Y30.4446 I0.0033 J-0.0153 F50.
G1 X-64.5419 Y30.4377 F60.
X-64.538 Y30.4311
X-64.5335 Y30.4248
X-64.5285 Y30.4189
X-64.5231 Y30.4135
X-64.5173 Y30.4084
X-64.5111 Y30.4038
X-64.5045 Y30.3998
X-64.4977 Y30.3962
X-64.4906 Y30.3932
X-64.4833 Y30.3908
X-64.4758 Y30.3889
X-64.4682 Y30.3876
X-64.4605 Y30.387
X-64.4528 Y30.3869
X-64.4451 Y30.3874
X-64.4375 Y30.3886
X-64.43 Y30.3903
X-64.4226 Y30.3926
X-64.4155 Y30.3955
X-64.4086 Y30.3989
X-64.402 Y30.4028
X-64.3957 Y30.4073
X-64.3898 Y30.4122
X-64.3843 Y30.4176
X-64.3792 Y30.4234
X-64.3746 Y30.4296
X-64.3705 Y30.4361
X-64.3669 Y30.4429
X-64.3638 Y30.45
X-64.3614 Y30.4573
X-64.3595 Y30.4648
X-64.3581 Y30.4723
X-64.3574 Y30.48
X-64.3573 Y30.4877
X-64.3578 Y30.4954
X-64.3589 Y30.503
X-64.3606 Y30.5105
X-64.3628 Y30.5179
X-64.3657 Y30.5251
X-64.3691 Y30.532
X-64.373 Y30.5386
X-64.3774 Y30.5449
X-64.3823 Y30.5509
X-64.4087 Y30.5868
X-64.4207 Y30.5978
G3 X-64.4458 Y30.5907 I-0.0102 J-0.0119
G1 X-64.4467 Y30.5878 Z-0.1297
X-64.4476 Y30.585 Z-0.1288
X-64.4484 Y30.5824 Z-0.1274
X-64.4492 Y30.5801 Z-0.1254
X-64.4497 Y30.5783 Z-0.123
X-64.4502 Y30.5769 Z-0.1203
X-64.4504 Y30.5761 Z-0.1174
X-64.4505 Y30.5758 Z-0.1143
G0 Z0.4
X-64.4831 Y31.5189
Z0.1
G3 X-64.575 Y31.4651 Z0.0791 I-0.0197 J-0.0717 F50.
X-64.519 Y31.3746 Z0.0582 I0.0721 J-0.0179
X-64.4299 Y31.4328 Z0.0373 I0.0162 J0.0726
X-64.4902 Y31.5204 Z0.0164 I-0.0729 J0.0144
X-64.5764 Y31.458 Z-0.0045 I-0.0126 J-0.0733
X-64.5119 Y31.3734 Z-0.0255 I0.0735 J-0.0108
X-64.4938 Y31.521 Z-0.0666 I0.009 J0.0738
X-64.5771 Y31.4508 Z-0.0882 I-0.009 J-0.0738
X-64.5047 Y31.3729 Z-0.1091 I0.0743 J-0.0036
X-64.4285 Y31.4472 Z-0.13 I0.0018 J0.0743
X-64.5772 I-0.0743 J0.
X-64.4288 Y31.441 I0.0743 J0.
G1 X-64.4285 Y31.4472
X-64.4242 Y31.4533 F60.
X-64.4204 Y31.4597
X-64.4172 Y31.4664
X-64.4145 Y31.4733
X-64.4123 Y31.4804
X-64.4107 Y31.4877
X-64.4097 Y31.495
X-64.4093 Y31.5025
X-64.4095 Y31.5099
X-64.4102 Y31.5173
X-64.4116 Y31.5246
X-64.4135 Y31.5318
X-64.416 Y31.5388
X-64.4191 Y31.5456
X-64.4227 Y31.5521
X-64.4268 Y31.5583
X-64.4313 Y31.5642
X-64.4364 Y31.5697
X-64.4418 Y31.5748
X-64.4476 Y31.5794
X-64.4538 Y31.5835
X-64.4603 Y31.5872
X-64.4671 Y31.5903
X-64.4741 Y31.5928
X-64.4812 Y31.5948
X-64.4885 Y31.5962
X-64.4959 Y31.5971
X-64.5034 Y31.5973
X-64.5108 Y31.597
G2 X-64.6115 Y31.4942 I-0.4461 J0.3365
G1 X-64.6143 Y31.4868
X-64.6166 Y31.4792
X-64.6183 Y31.4714
X-64.6194 Y31.4635
X-64.62 Y31.4555
X-64.6199 Y31.4475
X-64.6192 Y31.4396
X-64.6179 Y31.4317
X-64.616 Y31.4239
X-64.6135 Y31.4163
X-64.6104 Y31.409
X-64.6068 Y31.4018
X-64.6027 Y31.395
X-64.5981 Y31.3885
X-64.593 Y31.3824
X-64.5874 Y31.3767
X-64.5814 Y31.3714
X-64.575 Y31.3666
X-64.5683 Y31.3623
X-64.5613 Y31.3585
X-64.554 Y31.3552
X-64.5465 Y31.3525
X-64.5388 Y31.3504
X-64.531 Y31.3489
X-64.523 Y31.348
X-64.5151 Y31.3477
X-64.5071 Y31.348
X-64.4991 Y31.3489
X-64.4913 Y31.3504
X-64.4836 Y31.3525
X-64.4761 Y31.3552
X-64.4688 Y31.3584
X-64.4618 Y31.3622
X-64.455 Y31.3665
X-64.4487 Y31.3713
X-64.4427 Y31.3765
X-64.4371 Y31.3822
X-64.432 Y31.3883
X-64.4273 Y31.3948
X-64.4232 Y31.4016
X-64.4196 Y31.4088
X-64.4165 Y31.4161
X-64.4094 Y31.4198
X-64.4026 Y31.4239
X-64.3962 Y31.4286
X-64.3902 Y31.4337
X-64.3845 Y31.4393
X-64.3793 Y31.4453
X-64.3746 Y31.4517
X-64.3704 Y31.4585
X-64.3667 Y31.4655
X-64.3636 Y31.4729
X-64.3611 Y31.4804
X-64.3591 Y31.4881
X-64.3577 Y31.4959
X-64.357 Y31.5038
X-64.3568 Y31.5118
X-64.3573 Y31.5197
X-64.3584 Y31.5276
X-64.3601 Y31.5354
X-64.3624 Y31.543
X-64.3652 Y31.5504
X-64.3687 Y31.5576
X-64.3726 Y31.5645
X-64.3771 Y31.571
X-64.3821 Y31.5772
X-64.3875 Y31.583
X-64.3934 Y31.5884
X-64.3997 Y31.5933
X-64.4063 Y31.5976
X-64.4132 Y31.6015
X-64.4205 Y31.6048
X-64.4279 Y31.6076
X-64.4356 Y31.6098
X-64.4433 Y31.6113
X-64.4512 Y31.6123
X-64.4592 Y31.6127
X-64.4671 Y31.6124
X-64.475 Y31.6116
X-64.4828 Y31.6101
X-64.4905 Y31.608
X-64.498 Y31.6054
X-64.5053 Y31.6022
X-64.5123 Y31.5984
X-64.522 Y31.6006
X-64.5318 Y31.6021
X-64.5417 Y31.6031
X-64.5516 Y31.6035
X-64.5616 Y31.6032
X-64.5715 Y31.6024
X-64.5813 Y31.6009
X-64.5911 Y31.5989
X-64.6006 Y31.5962
X-64.6101 Y31.593
X-64.6193 Y31.5892
X-64.6282 Y31.5849
X-64.6369 Y31.58
X-64.6452 Y31.5746
X-64.6532 Y31.5687
X-64.6608 Y31.5623
X-64.6681 Y31.5554
X-64.6749 Y31.5482
X-64.6812 Y31.5405
X-64.687 Y31.5324
X-64.6924 Y31.5241
X-64.6972 Y31.5154
X-64.7015 Y31.5064
X-64.7052 Y31.4972
X-64.7084 Y31.4877
X-64.711 Y31.4781
X-64.713 Y31.4684
X-64.7143 Y31.4585
X-64.7151 Y31.4486
X-64.7153 Y31.4387
X-64.7149 Y31.4287
X-64.7138 Y31.4188
X-64.7122 Y31.409
X-64.7099 Y31.3993
X-64.7071 Y31.3898
X-64.7037 Y31.3804
X-64.6997 Y31.3713
X-64.6952 Y31.3625
X-64.6901 Y31.3539
X-64.6846 Y31.3457
X-64.6785 Y31.3378
X-64.672 Y31.3303
X-64.665 Y31.3232
X-64.6576 Y31.3165
X-64.6498 Y31.3104
X-64.6416 Y31.3047
X-64.6332 Y31.2995
X-64.6244 Y31.2948
X-64.6153 Y31.2907
X-64.606 Y31.2872
X-64.5965 Y31.2842
X-64.5869 Y31.2818
X-64.5771 Y31.28
G3 X-64.3211 Y31.3699 I0.0697 J0.2108
X-64.5149 Y31.7024 I-0.1494 J0.1356
X-64.6807 Y31.6686 I-0.0461 J-0.1976
G1 X-64.7489 Y31.589
X-64.7562 Y31.5787
X-64.7631 Y31.5681
X-64.7694 Y31.5572
X-64.7752 Y31.546
X-64.7804 Y31.5345
X-64.785 Y31.5227
X-64.7891 Y31.5108
X-64.7926 Y31.4986
X-64.7954 Y31.4863
X-64.7977 Y31.4739
X-64.7994 Y31.4614
X-64.8004 Y31.4488
X-64.8009 Y31.4362
X-64.8007 Y31.4236
X-64.7999 Y31.411
X-64.7985 Y31.3984
X-64.7964 Y31.386
X-64.7938 Y31.3736
X-64.7906 Y31.3614
X-64.7867 Y31.3494
X-64.7823 Y31.3376
X-64.7773 Y31.326
X-64.7718 Y31.3146
X-64.7657 Y31.3036
X-64.7591 Y31.2928
X-64.7519 Y31.2824
X-64.7443 Y31.2724
X-64.7362 Y31.2627
X-64.7276 Y31.2535
X-64.7185 Y31.2446
X-64.7091 Y31.2363
X-64.6992 Y31.2284
X-64.689 Y31.221
X-64.6784 Y31.2141
X-64.6675 Y31.2077
X-64.6563 Y31.2019
X-64.6449 Y31.1966
X-64.6331 Y31.1919
X-64.6212 Y31.1878
X-64.4662 Y31.187
X-64.4523 Y31.1889
X-64.4385 Y31.1914
X-64.4248 Y31.1944
X-64.4113 Y31.1981
X-64.3979 Y31.2023
X-64.3848 Y31.2071
X-64.3718 Y31.2125
X-64.3591 Y31.2184
X-64.3467 Y31.2249
X-64.3345 Y31.2318
X-64.3227 Y31.2393
X-64.3112 Y31.2473
X-64.3 Y31.2558
X-64.2892 Y31.2648
X-64.2788 Y31.2742
X-64.2688 Y31.284
X-64.2593 Y31.2943
X-64.2502 Y31.3049
X-64.2416 Y31.316
X-64.2334 Y31.3274
X-64.2258 Y31.3391
X-64.2186 Y31.3512
X-64.212 Y31.3635
X-64.2059 Y31.3761
X-64.2004 Y31.389
X-64.1954 Y31.4021
X-64.191 Y31.4154
X-64.1871 Y31.4289
X-64.1875 Y31.4319
X-64.1885 Y31.4348
X-64.19 Y31.4375
X-64.1921 Y31.4397
X-64.1945 Y31.4416
X-64.1973 Y31.4429
X-64.2002 Y31.4437
X-64.2033 Y31.4439
X-64.2063 Y31.4435
X-64.2093 Y31.4425
G3 X-64.2128 Y31.4402 I0.0067 J-0.0142
G1 X-64.4758 Y31.2145
X-64.4781 Y31.2121
X-64.4798 Y31.2093
G3 X-64.4662 Y31.187 I0.0142 J-0.0067 F50.
G1 X-64.3013 F60.
G3 X-64.1869 Y31.2477 I-0.0024 J0.1425
X-64.2091 Y31.2614 I-0.0156 J-0.0005
G1 X-64.2093
X-64.3072 Y31.2169
G3 X-64.3149 Y31.2093 I0.0065 J-0.0142
X-64.3013 Y31.187 I0.0142 J-0.0067 F50.
X-64.2144 Y31.1892 I0.0411 J0.0918 F60.
X-64.187 Y31.2473 I-0.0198 J0.0449
G1 X-64.1869 Y31.5536
G3 X-64.568 Y31.8 I-0.3069 J-0.0567
G1 X-64.6807 Y31.6686
G3 X-64.683 Y31.6531 I0.0122 J-0.0098
X-64.6348 Y31.6326 I0.0341 J0.0133
X-64.5659 Y31.7707 I-0.0456 J0.109
X-64.5704 Y31.7846 I-0.1145 J-0.0291 F50.
G2 X-64.568 Y31.8 I0.0146 J0.0057
G1 X-64.5313 Y31.8428 F60.
G2 X-64.1869 Y31.7699 I0.1309 J-0.2313
G1 Y31.5536
G2 X-64.1952 Y31.5403 I-0.0156 J0.0005
X-64.272 Y31.5722 I-0.0253 J0.0474
X-64.2077 Y31.7492 I0.1508 J0.0454
X-64.1952 Y31.7566 I0.0866 J-0.1315 F50.
G3 X-64.1869 Y31.7699 I-0.0074 J0.0138
G1 Y31.8257 F60.
G3 X-64.4206 Y31.972 I-0.2013 J-0.0616
G1 X-64.5313 Y31.8428
G3 X-64.5337 Y31.8273 I0.0122 J-0.0098
X-64.4822 Y31.8069 I0.0352 J0.0138
X-64.4185 Y31.9427 I-0.0507 J0.1067
X-64.4229 Y31.9566 I-0.1145 J-0.0291 F50.
G2 X-64.4206 Y31.972 I0.0146 J0.0057
G1 X-64.39 Y32.0077 F60.
G2 X-64.186 Y31.9872 I0.0904 J-0.1261
G1 X-64.1869 Y31.8257
G2 X-64.1952 Y31.8124 I-0.0156 J0.0005
X-64.2536 Y31.8375 I-0.0191 J0.0359
X-64.2076 Y31.9654 I0.1139 J0.0313
X-64.1952 Y31.973 I0.0679 J-0.0966 F50.
G3 X-64.1869 Y31.9863 I-0.0074 J0.0138
G1 Y32.0247 F60.
G3 X-64.2984 Y32.1168 I-0.1092 J-0.0186
G1 X-64.39 Y32.0077
G3 X-64.376 Y31.9824 I0.0122 J-0.0098
X-64.3599 Y31.9877 I-0.0046 J0.0411
X-64.3011 Y32.0845 I-0.0592 J0.1022
X-64.3017 Y32.1031 I-0.118 J0.0054 F50.
G2 X-64.2984 Y32.1146 I0.0156 J0.0017
G1 X-64.2812 Y32.1347 F60.
G2 X-64.1851 Y32.1427 I0.0525 J-0.0494
G1 X-64.1869 Y32.0247
G2 X-64.2156 Y32.0166 I-0.0156 J0.0005
G1 X-64.2758 Y32.1069
X-64.282 Y32.1162 F50.
G2 X-64.2812 Y32.1347 I0.013 J0.0087
G1 X-64.2386 Y32.1843 F60.
G2 X-64.1869 Y32.1944 I0.0283 J-0.0078
G1 Y32.1403
G2 X-64.1952 Y32.127 I-0.0156 J0.0005
X-64.2144 Y32.1349 I-0.0063 J0.0118
X-64.2065 Y32.1721 I0.0377 J0.0115
X-64.1952 Y32.1812 I0.0298 J-0.0257 F50.
G3 X-64.1869 Y32.1944 I-0.0074 J0.0138
G1 Y32.2097 F60.
X-64.1873 Y32.2157
X-64.1878 Y32.2172
X-64.1904 Y32.2212
X-64.1944 Y32.2239
X-64.1991 Y32.2247
X-64.2037 Y32.2236
X-64.2075 Y32.2207
G3 X-64.2105 Y32.216 I0.0235 J-0.0188
X-64.2095 Y32.2027 I0.011 J-0.0059
X-64.1869 Y32.2097 I0.0101 J0.0074 F50.
G1 Y32.2132 F60.
X-64.1876 Y32.2218
X-64.1886 Y32.2277
X-64.1888 Y32.2283
X-64.1894 Y32.2293
X-64.1897 Y32.2297
X-64.1907 Y32.2306
X-64.1915 Y32.231
X-64.1929 Y32.2315
G3 X-64.2386 Y32.1843 I0.0078 J-0.0533
X-64.2305 Y32.1595 I0.0122 J-0.0098
G1 X-64.2276 Y32.1587 Z-0.1297
X-64.2247 Y32.1579 Z-0.1288
X-64.2221 Y32.1572 Z-0.1274
X-64.2199 Y32.1565 Z-0.1254
X-64.218 Y32.156 Z-0.123
X-64.2166 Y32.1556 Z-0.1203
X-64.2157 Y32.1554 Z-0.1174
X-64.2154 Y32.1553 Z-0.1143
G0 Z-0.0987
X-64.7081 Y31.6109
G1 Z-0.1143 F50.
X-64.7084 Y31.6108 Z-0.1174
X-64.7093 Y31.6105 Z-0.1203
X-64.7106 Y31.61 Z-0.123
X-64.7125 Y31.6094 Z-0.1254
X-64.7147 Y31.6086 Z-0.1274
X-64.7173 Y31.6078 Z-0.1288
X-64.7201 Y31.6068 Z-0.1297
X-64.723 Y31.6059 Z-0.13
G3 X-64.7489 Y31.589 I0.0199 J-0.059
G1 X-64.8524 Y31.4682 F60.
G3 X-64.7871 Y31.187 I0.2087 J-0.0997
G1 X-64.6215
G3 X-64.6082 Y31.1953 I-0.0005 J0.0156
X-64.6297 Y31.2509 I-0.0348 J0.0185
X-64.7662 Y31.2077 I-0.0399 J-0.1112
X-64.7738 Y31.1953 I0.0966 J-0.0679 F50.
G2 X-64.7871 Y31.187 I-0.0138 J0.0074
G1 X-64.8325 F60.
X-64.8419 Y31.1886
X-64.8512 Y31.1908
X-64.8603 Y31.1936
X-64.8693 Y31.1969
X-64.878 Y31.2008
X-64.8864 Y31.2052
X-64.8946 Y31.2102
X-64.9024 Y31.2156
X-64.9099 Y31.2215
X-64.917 Y31.2278
X-64.9237 Y31.2346
X-64.93 Y31.2418
X-64.9358 Y31.2494
X-64.9412 Y31.2573
X-64.946 Y31.2655
X-64.9503 Y31.274
X-64.9541 Y31.2828
X-64.9573 Y31.2918
X-64.96 Y31.3009
X-64.9621 Y31.3102
X-64.9636 Y31.3196
X-64.9645 Y31.3291
X-64.9648 Y31.3387
X-64.8524 Y31.4682
G2 X-64.8375 Y31.4729 I0.0115 J-0.0106
X-64.8095 Y31.4256 I-0.0082 J-0.0368
X-64.9342 Y31.3411 I-0.1134 J0.0331
X-64.9485 Y31.3434 I0.0113 J0.1176 F50.
G3 X-64.9635 Y31.3387 I-0.0034 J-0.0153
G1 X-64.9896 Y31.3082 F60.
G3 X-64.9818 Y31.1853 I0.0833 J-0.0564
G1 X-64.9787 Y31.1856
X-64.9757 Y31.1864
X-64.9729 Y31.1876
X-64.9705 Y31.1894
X-64.9684 Y31.1915
X-64.9668 Y31.1939
X-64.9656 Y31.1966
X-64.965 Y31.1994
X-64.9648 Y31.2022
X-64.9646 Y31.2095
X-64.9624 Y31.2972
X-64.9627 Y31.3007
X-64.9638 Y31.304
G3 X-64.9896 Y31.3082 I-0.0143 J-0.0064 F50.
G1 X-65.0417 Y31.2473 F60.
G3 X-65.0469 Y31.187 I0.0171 J-0.0318
X-65.0124 Y31.2427 I-0.0014 J0.0393
X-65.0146 Y31.2462 I-0.0162 J-0.0074
X-65.0417 Y31.2473 I-0.014 J-0.011 F50.
G1 X-65.078 Y31.2051 F60.
X-65.0807 Y31.2002
X-65.0832 Y31.1959
X-65.0835 Y31.1952
X-65.0837 Y31.1937
X-65.0838 Y31.193
X-65.0836 Y31.1923
X-65.0833 Y31.1916
X-65.0828 Y31.1908
X-65.0822 Y31.1901
X-65.081 Y31.1893
X-65.0804 Y31.189
X-65.0698 Y31.187
X-64.8325
G0 Z0.4
X-67.3317 Y31.0032
Z0.1
G3 X-67.4236 Y30.9495 Z0.0791 I-0.0197 J-0.0717 F50.
X-67.3676 Y30.859 Z0.0582 I0.0721 J-0.0179
X-67.2785 Y30.9171 Z0.0373 I0.0162 J0.0726
X-67.3388 Y31.0048 Z0.0164 I-0.0729 J0.0144
X-67.3641 Y30.8583 Z-0.0248 I-0.0126 J-0.0733
X-67.3388 Y31.0048 Z-0.066 I0.0126 J0.0733
X-67.3641 Y30.8583 Z-0.1072 I-0.0126 J-0.0733
X-67.2771 Y30.9315 Z-0.13 I0.0126 J0.0733
X-67.4258 I-0.0743 J0.
X-67.2774 Y30.9253 I0.0743 J0.
G1 X-67.2771 Y30.9315
X-67.277 Y30.9348 F60.
X-67.2768 Y30.9356
Y30.9364
Y30.9372
X-67.2843 Y30.9882
X-67.285 Y31.
X-67.2847 Y31.0036
G3 X-67.384 Y31.0712 I-0.0765 J-0.0056
G1 X-67.4458 Y30.8869
G3 X-67.3533 Y30.7843 I0.0855 J-0.0159
X-67.2743 Y30.9168 I-0.4101 J0.3344
G1 X-67.2742 Y30.9176
X-67.2741 Y30.9183
X-67.2768 Y30.9372
G3 X-67.2978 Y30.949 I-0.0154 J-0.0028
G1 X-67.301 Y30.9478
X-67.4201 Y30.9022
X-67.4368 Y30.8959 F50.
G3 X-67.4458 Y30.8869 I0.0056 J-0.0146
G1 X-67.4678 Y30.8233 F60.
X-67.4692 Y30.8162
X-67.4701 Y30.809
X-67.4704 Y30.8017
X-67.47 Y30.7944
X-67.4691 Y30.7872
X-67.4676 Y30.7801
X-67.4655 Y30.7731
X-67.4628 Y30.7663
X-67.4596 Y30.7598
X-67.4558 Y30.7536
X-67.4515 Y30.7477
X-67.4468 Y30.7422
X-67.4416 Y30.737
X-67.436 Y30.7324
X-67.4301 Y30.7282
X-67.4238 Y30.7245
X-67.4173 Y30.7213
X-67.4105 Y30.7187
X-67.4035 Y30.7167
X-67.3963 Y30.7152
X-67.3536 Y30.7873
G3 Y30.8029 I-0.0136 J0.0078
X-67.403 Y30.797 I-0.0234 J-0.0135
X-67.4016 Y30.7489 I0.0756 J-0.022
X-67.3956 Y30.7357 I0.0743 J0.0261 F50.
G2 Y30.72 I-0.0136 J-0.0078
G1 X-67.4046 Y30.7055 F60.
G2 X-67.5069 Y30.7157 I-0.0472 J0.0442
G1 X-67.4678 Y30.8233
G2 X-67.4556 Y30.8332 I0.0146 J-0.0056
X-67.426 Y30.8092 I0.004 J-0.0253
X-67.4782 Y30.7306 I-0.0786 J-0.0044
X-67.4923 Y30.7271 I-0.0264 J0.0742 F50.
G3 X-67.5044 Y30.7172 I0.0024 J-0.0155
G1 X-67.5109 Y30.6984 F60.
G3 X-67.452 Y30.6259 I0.0577 J-0.0133
G1 X-67.4046 Y30.7055
G3 Y30.7212 I-0.0136 J0.0078
X-67.4543 Y30.7197 I-0.0244 J-0.0141
X-67.4582 Y30.6584 I0.0704 J-0.0352
X-67.4521 Y30.6452 I0.0743 J0.0261 F50.
G2 Y30.6296 I-0.0136 J-0.0078
G1 X-67.461 Y30.6153 F60.
G2 X-67.5419 I-0.0405 J0.0303
G1 X-67.5109 Y30.6984
G2 X-67.4988 Y30.7083 I0.0146 J-0.0056
X-67.47 Y30.6673 I0.0044 J-0.0275
X-67.5126 Y30.631 I-0.069 J0.0379
X-67.5267 Y30.6274 I-0.0264 J0.0742 F50.
G3 X-67.5389 Y30.6176 I0.0024 J-0.0155
G1 X-67.5444 Y30.6015 F60.
X-67.5455 Y30.5965
X-67.546 Y30.5915
X-67.5459 Y30.5864
X-67.5452 Y30.5814
X-67.5439 Y30.5764
X-67.542 Y30.5717
X-67.5396 Y30.5673
X-67.5367 Y30.5631
X-67.5333 Y30.5594
X-67.5295 Y30.556
X-67.5253 Y30.5532
X-67.5208 Y30.5508
X-67.516 Y30.549
X-67.5111 Y30.5478
X-67.5061 Y30.5472
X-67.501
X-67.461 Y30.6153
G3 Y30.6309 I-0.0136 J0.0078
X-67.5097 Y30.6237 I-0.0229 J-0.0132
X-67.5073 Y30.5797 I0.0767 J-0.0179
X-67.5012 Y30.5665 I0.0743 J0.0261 F50.
G2 Y30.5509 I-0.0136 J-0.0078
G1 X-67.5098 Y30.5371 F60.
G2 X-67.5661 Y30.5388 I-0.0278 J0.0131
G1 X-67.5444 Y30.6015
G2 X-67.5242 Y30.6104 I0.0146 J-0.0056
X-67.5159 Y30.5921 I-0.0051 J-0.0134
X-67.5419 Y30.557 I-0.0739 J0.0273
X-67.5578 Y30.5475 I-0.0479 J0.0625 F50.
G3 X-67.5661 Y30.5388 I0.0063 J-0.0143
G1 X-67.5714 Y30.5236 F60.
G3 X-67.5401 Y30.4886 I0.0218 J-0.012
X-67.5384 Y30.5245 I-0.0341 J0.0197
X-67.5457 Y30.5326 I-0.0163 J-0.0074
X-67.5714 Y30.5236 I-0.009 J-0.0155 F50.
G1 X-67.5831 Y30.4896 F60.
G3 X-67.5592 Y30.458 I0.0153 J-0.0133
X-67.5553 Y30.4879 I-0.0341 J0.0197
X-67.5579 Y30.4933 I-0.0142 J-0.0036
X-67.5831 Y30.4896 I-0.0116 J-0.0089 F50.
G1 X-67.5944 Y30.457 F60.
X-67.596 Y30.4513
X-67.5964 Y30.4453
X-67.5954 Y30.4393
X-67.5944 Y30.4367
X-67.5915 Y30.4325
X-67.5872 Y30.4299
X-67.5821 Y30.4294
X-67.5773 Y30.4311
X-67.5738 Y30.4348
G3 X-67.5686 Y30.4511 I-0.0341 J0.0197
X-67.5699 Y30.4581 I-0.0133 J0.0011
X-67.5944 Y30.457 I-0.012 J-0.0059 F50.
G1 X-67.6031 Y30.4318 F60.
X-67.6047 Y30.426
Y30.4254
X-67.6036 Y30.4206
X-67.6006 Y30.4167
X-67.5963 Y30.4144
X-67.5914 Y30.4141
X-67.5868 Y30.4159
X-67.5833 Y30.4194
G3 X-67.5816 Y30.4228 I-0.0341 J0.0197
X-67.5806 Y30.429 I-0.0106 J0.0048
X-67.6031 Y30.4318 I-0.0116 J-0.0014 F50.
G1 X-67.6086 Y30.4157 F60.
X-67.6103 Y30.41
X-67.6088 Y30.4053
X-67.6052 Y30.4019
X-67.6004 Y30.4007
X-67.5957 Y30.4019
X-67.5921 Y30.4053
X-67.5907 Y30.408
G3 X-67.5956 Y30.4212 I-0.0088 J0.0042 F50.
X-67.6086 Y30.4157 I-0.0039 J-0.009
G1 X-67.6133 Y30.4023 F60.
X-67.6138 Y30.4007
X-67.6143 Y30.3993
X-67.6145 Y30.3987
X-67.6125 Y30.3958 F50.
X-67.6094 Y30.3995
X-67.6118 Y30.401
X-67.6128 Y30.4008
X-67.6137 Y30.4002
X-67.6143 Y30.3993
X-67.6145 Y30.3989 F60.
Y30.3984
X-67.6146 Y30.3975
X-67.6149 Y30.3957
X-67.6155 Y30.3898
X-67.6134 Y30.3871
X-67.6103 Y30.3858
X-67.6069 Y30.3861
X-67.6041 Y30.3879
X-67.6022 Y30.3903 F50.
G3 X-67.6079 Y30.4016 I-0.0057 J0.0041
X-67.6149 Y30.3957 I0. J-0.0071
G1 X-67.616 Y30.3882 F60.
X-67.6156 Y30.3862
X-67.6154 Y30.3857
X-67.6148 Y30.3847
X-67.6135 Y30.3838
X-67.6129 Y30.3835
X-67.6117 Y30.3832
X-67.6111 Y30.3831
X-67.6095 Y30.3832
G3 X-67.5098 Y30.5371 I-0.2536 J0.2734
X-67.5215 Y30.5604 I-0.0136 J0.0078
G1 X-67.5246 Y30.5608 Z-0.1297
X-67.5275 Y30.5612 Z-0.1288
X-67.5302 Y30.5615 Z-0.1274
X-67.5325 Y30.5618 Z-0.1254
X-67.5345 Y30.562 Z-0.123
X-67.5359 Y30.5622 Z-0.1203
X-67.5368 Y30.5623 Z-0.1174
X-67.5371 Z-0.1143
G0 Z-0.0987
X-67.3044 Y30.9617
G1 Z-0.1143 F50.
X-67.3043 Y30.962 Z-0.1174
X-67.3037 Y30.9627 Z-0.1203
X-67.3029 Y30.9639 Z-0.123
X-67.3018 Y30.9655 Z-0.1254
X-67.3005 Y30.9674 Z-0.1274
X-67.2989 Y30.9697 Z-0.1288
X-67.2972 Y30.9721 Z-0.1297
X-67.2955 Y30.9746 Z-0.13
G3 X-67.2847 Y31.0036 I-0.0512 J0.0355
G1 X-67.2842 Y31.0118 F60.
X-67.2776 Y31.0589
X-67.2772 Y31.0656
X-67.2775 Y31.0722
X-67.2783 Y31.0788
X-67.2797 Y31.0854
X-67.2816 Y31.0917
X-67.2841 Y31.0979
X-67.2871 Y31.1039
X-67.2906 Y31.1096
X-67.2945 Y31.1149
X-67.2989 Y31.1199
X-67.3037 Y31.1245
X-67.3089 Y31.1287
X-67.3145 Y31.1324
X-67.3203 Y31.1356
X-67.3264 Y31.1383
X-67.3327 Y31.1405
X-67.3392 Y31.1421
X-67.3457 Y31.1432
X-67.3524 Y31.1437
X-67.359 Y31.1436
X-67.3831 Y31.0683
G3 X-67.3796 Y31.0531 I0.015 J-0.0046
X-67.3343 Y31.0714 I0.0192 J0.0178
X-67.3464 Y31.1119 I-0.0787 J-0.0016
X-67.3553 Y31.1234 I-0.0666 J-0.0421 F50.
G2 X-67.3588 Y31.1386 I0.0115 J0.0106
G1 X-67.3538 Y31.1531 F60.
G2 X-67.2398 Y31.1501 I0.0561 J-0.0356
G1 X-67.2459 Y31.1432
X-67.2521 Y31.1296
X-67.2695 Y31.0907
X-67.2727 Y31.0824
X-67.2758 Y31.0707
X-67.2776 Y31.0589
G2 X-67.2958 Y31.0464 I-0.0154 J0.0029
X-67.3132 Y31.0683 I0.0039 J0.021
X-67.2702 Y31.1348 I0.0787 J-0.0037
X-67.2528 Y31.1412 I0.0357 J-0.0702 F50.
G3 X-67.2431 Y31.1483 I-0.0036 J0.0152
G1 X-67.2403 Y31.1531 F60.
X-67.2354 Y31.1592
G3 X-67.3224 Y31.2484 I-0.0655 J0.0231
G1 X-67.3538 Y31.1531
G3 X-67.3503 Y31.1379 I0.015 J-0.0046
X-67.3036 Y31.1458 I0.0207 J0.0192
X-67.3093 Y31.2193 I-0.0722 J0.0314
X-67.3182 Y31.2308 I-0.0666 J-0.0421 F50.
G2 X-67.3217 Y31.246 I0.0115 J0.0106
G1 X-67.3155 Y31.2638 F60.
X-67.3114 Y31.2694
X-67.3068 Y31.2746
X-67.3018 Y31.2793
X-67.2963 Y31.2836
X-67.2905 Y31.2874
X-67.2843 Y31.2907
X-67.2779 Y31.2934
X-67.2713 Y31.2955
X-67.2645 Y31.297
X-67.2577 Y31.2979
X-67.2507 Y31.2981
X-67.2438 Y31.2978
X-67.2369 Y31.2968
X-67.2301 Y31.2952
X-67.2235 Y31.293
X-67.2172 Y31.2902
X-67.2111 Y31.2869
X-67.2053 Y31.283
X-67.1999 Y31.2787
X-67.1949 Y31.2739
X-67.1904 Y31.2686
X-67.1863 Y31.2629
G2 X-67.2354 Y31.1592 I-0.0931 J-0.0194
X-67.2501 Y31.1541 I-0.0118 J0.0102
X-67.2564 Y31.163 I0.0015 J0.0077
G1 X-67.256 Y31.1655
G2 X-67.2076 Y31.2417 I0.1163 J-0.0204
X-67.1952 Y31.2493 I0.0679 J-0.0966 F50.
G3 X-67.187 Y31.2625 I-0.0074 J0.0138
G1 Y31.2945 F60.
G3 X-67.283 Y31.364 I-0.0776 J-0.0062
G1 X-67.3155 Y31.2638
G3 X-67.312 Y31.2485 I0.015 J-0.0046
X-67.267 Y31.2543 I0.0205 J0.019
X-67.2698 Y31.3336 I-0.0694 J0.0373
X-67.2786 Y31.3451 I-0.0666 J-0.0421 F50.
G2 X-67.2821 Y31.3604 I0.0115 J0.0106
G1 X-67.276 Y31.3781 F60.
G2 X-67.185 Y31.4013 I0.0551 J-0.0259
G1 X-67.187 Y31.2945
G2 X-67.1952 Y31.2812 I-0.0156 J0.0005
X-67.2353 Y31.3 I-0.013 J0.0244
X-67.2074 Y31.3774 I0.0771 J0.0159
X-67.1952 Y31.3854 I0.0492 J-0.0615 F50.
G3 X-67.187 Y31.3986 I-0.0074 J0.0138
G1 Y31.4162 F60.
G3 X-67.2493 Y31.4617 I-0.0492 J-0.0018
G1 X-67.276 Y31.3781
G3 X-67.2725 Y31.3628 I0.015 J-0.0046
X-67.2247 Y31.3776 I0.0204 J0.0189
X-67.236 Y31.4315 I-0.0778 J0.0119
X-67.2448 Y31.443 I-0.0666 J-0.0421 F50.
G2 X-67.2483 Y31.4583 I0.0115 J0.0106
G1 X-67.2426 Y31.4749 F60.
X-67.2407 Y31.4792
X-67.2384 Y31.4833
X-67.2355 Y31.487
X-67.2322 Y31.4903
X-67.2285 Y31.4931
X-67.2245 Y31.4955
X-67.2202 Y31.4973
X-67.2157 Y31.4986
X-67.2111 Y31.4993
X-67.2064 Y31.4994
X-67.2017 Y31.4989
X-67.1972 Y31.4979
X-67.1928 Y31.4962
X-67.1887 Y31.4941
X-67.1849 Y31.4914
X-67.187 Y31.4162
G2 X-67.2168 Y31.4101 I-0.0156 J0.0005
G1 X-67.2336 Y31.4461
X-67.2418 Y31.4637 F50.
G2 X-67.2426 Y31.4749 I0.0142 J0.0066
G1 X-67.2292 Y31.5136 F60.
G2 X-67.187 Y31.5296 I0.0231 J0.0027
G1 Y31.4888
G2 X-67.1952 Y31.4755 I-0.0156 J0.0005
X-67.215 Y31.4908 I-0.0064 J0.0121
X-67.2065 Y31.5073 I0.0383 J-0.0092
X-67.1952 Y31.5164 I0.0298 J-0.0257 F50.
G3 X-67.187 Y31.5296 I-0.0074 J0.0138
G1 Y31.5447 F60.
X-67.1873 Y31.5507
X-67.1896 Y31.5562
X-67.1932 Y31.561
X-67.1951 Y31.5627
X-67.2001 Y31.5654
X-67.2058
X-67.2108 Y31.5627
X-67.2139 Y31.5579
G3 X-67.2156 Y31.5446 I0.0376 J-0.0116
X-67.2096 Y31.5336 I0.0143 J0.0007
X-67.187 Y31.5447 I0.0084 J0.0116 F50.
G1 Y31.5697 F60.
X-67.1873 Y31.5757
X-67.1903 Y31.5801
X-67.195 Y31.5825
X-67.2003 Y31.5824
X-67.2049 Y31.5799
X-67.2078 Y31.5754
X-67.2085 Y31.573
G3 X-67.2084 Y31.567 I0.0106 J-0.0029
X-67.187 Y31.5697 I0.0105 J0.0031 F50.
G1 Y31.586 F60.
Y31.5867
Y31.5874
X-67.1884 Y31.5933
X-67.1911 Y31.5959
X-67.1949 Y31.5967
X-67.1985 Y31.5954
X-67.2008 Y31.5924
X-67.2018 Y31.5898 F50.
G3 X-67.1874 Y31.5847 I0.0072 J-0.0026
X-67.187 Y31.5874 I-0.0072 J0.0026
G1 X-67.1888 Y31.5975 F60.
X-67.1897 Y31.5991
X-67.1902 Y31.5996
X-67.1907 Y31.6
X-67.1914 Y31.6004
X-67.1922 Y31.6007
X-67.193 Y31.6009
X-67.1945
X-67.1953 Y31.6007
G3 X-67.2072 Y31.5771 I0.0117 J-0.0207
G1 X-67.2292 Y31.5136
G3 X-67.2264 Y31.4992 I0.015 J-0.0046
G1 X-67.2246 Y31.4977 Z-0.1298
X-67.2227 Y31.4963 Z-0.1293
X-67.221 Y31.4949 Z-0.1284
X-67.2189 Y31.4944 Z-0.1271
X-67.2171 Y31.494 Z-0.1255
X-67.2155 Y31.4936 Z-0.1236
X-67.2142 Y31.4933 Z-0.1214
X-67.2133 Y31.4934 Z-0.1192
X-67.2127 Z-0.1168
X-67.2126 Z-0.1144
G0 Z0.4
X-67.3094 Y29.924
Z0.1
G3 X-67.4012 Y29.8702 Z0.0791 I-0.0197 J-0.0717 F50.
X-67.3453 Y29.7797 Z0.0582 I0.0721 J-0.0179
X-67.2561 Y29.8379 Z0.0373 I0.0162 J0.0726
X-67.3165 Y29.9256 Z0.0164 I-0.0729 J0.0144
X-67.4026 Y29.8631 Z-0.0045 I-0.0126 J-0.0733
X-67.3381 Y29.7785 Z-0.0255 I0.0735 J-0.0108
X-67.32 Y29.9261 Z-0.0666 I0.009 J0.0738
X-67.4033 Y29.8559 Z-0.0882 I-0.009 J-0.0738
X-67.3309 Y29.778 Z-0.1091 I0.0743 J-0.0036
X-67.2547 Y29.8523 Z-0.13 I0.0018 J0.0743
X-67.4034 I-0.0743 J0.
X-67.255 Y29.8461 I0.0743 J0.
G1 X-67.2547 Y29.8523
G3 X-67.4136 Y29.9796 I-0.0862 J0.0552 F60.
G1 X-67.464 Y29.9046
G3 X-67.4794 Y29.8231 I0.0893 J-0.0592
X-67.4514 Y29.8284 I0.0128 J0.009
G1 X-67.4358 Y29.8922
G3 X-67.4378 Y29.9044 I-0.0152 J0.0037
X-67.464 Y29.9046 I-0.0132 J-0.0085 F50.
X-67.495 Y29.8487 I0.0213 J-0.0485 F60.
G2 X-67.4404 Y29.7619 I-5.5941 J-3.5842
G3 X-67.187 Y29.782 I0.1214 J0.0767
G1 Y29.9647
G3 X-67.3505 Y30.0893 I-0.1435 J-0.0186
G1 X-67.4158 Y29.9818
G3 Y29.9661 I0.0136 J-0.0078
X-67.3927 Y29.9575 I0.0168 J0.0097
X-67.3441 Y30.058 I-0.0257 J0.0744
X-67.3502 Y30.0712 I-0.0743 J-0.0261 F50.
G2 Y30.0869 I0.0136 J0.0078
G1 X-67.3355 Y30.1105 F60.
X-67.33 Y30.1163
X-67.3241 Y30.1217
X-67.3178 Y30.1266
X-67.3111 Y30.131
X-67.3041 Y30.1349
X-67.2968 Y30.1382
X-67.2893 Y30.141
X-67.2816 Y30.1431
X-67.2737 Y30.1447
X-67.2657 Y30.1456
X-67.2577 Y30.1459
X-67.2497 Y30.1456
X-67.2418 Y30.1447
X-67.2339 Y30.1431
X-67.2262 Y30.1409
X-67.2187 Y30.1382
X-67.2114 Y30.1348
X-67.2044 Y30.1309
X-67.1978 Y30.1265
X-67.1915 Y30.1216
X-67.1856 Y30.1162
X-67.187 Y29.9647
G2 X-67.1952 Y29.9514 I-0.0156 J0.0005
X-67.257 Y29.9839 I-0.0199 J0.0372
X-67.2076 Y30.0939 I0.1173 J0.0134
X-67.1952 Y30.1015 I0.0679 J-0.0966 F50.
G3 X-67.187 Y30.1148 I-0.0074 J0.0138
G1 Y30.1402 F60.
G3 X-67.2728 Y30.2146 I-0.0793 J-0.0048
G1 X-67.3355 Y30.1105
G3 Y30.0948 I0.0136 J-0.0078
X-67.3057 Y30.0858 I0.0197 J0.0113
X-67.2664 Y30.1825 I-0.035 J0.0705
X-67.2725 Y30.1957 I-0.0743 J-0.0261 F50.
G2 Y30.2113 I0.0136 J0.0078
G1 X-67.2604 Y30.2307 F60.
G2 X-67.185 Y30.2429 I0.0437 J-0.0307
G1 X-67.187 Y30.1402
G2 X-67.2164 Y30.1333 I-0.0156 J0.0005
G1 X-67.2535 Y30.2023
X-67.2606 Y30.2155 F50.
G2 X-67.2604 Y30.2307 I0.0138 J0.0074
G1 X-67.232 Y30.2762 F60.
G2 X-67.187 Y30.287 I0.0252 J-0.0057
G1 Y30.2402
G2 X-67.1952 Y30.227 I-0.0156 J0.0005
X-67.2161 Y30.2397 I-0.0067 J0.0125
X-67.2065 Y30.2647 I0.0394 J-0.0007
X-67.1952 Y30.2737 I0.0298 J-0.0257 F50.
G3 X-67.187 Y30.287 I-0.0074 J0.0138
G1 Y30.3018 F60.
X-67.1873 Y30.3078
X-67.1895 Y30.3133
X-67.1896 Y30.3135
X-67.1939 Y30.3173
X-67.1994 Y30.3185
X-67.2049 Y30.317
X-67.209 Y30.3131
X-67.2116 Y30.3082
G3 X-67.2097 Y30.2934 I0.0116 J-0.006
X-67.187 Y30.3018 I0.0096 J0.0088 F50.
G1 Y30.3154 F60.
Y30.3161
X-67.1887 Y30.3253
X-67.1888 Y30.3261
X-67.1891 Y30.3266
X-67.1898 Y30.3279
X-67.1908 Y30.3286
X-67.1915 Y30.3291
X-67.193 Y30.3295
X-67.1937
G3 X-67.232 Y30.2762 I0.0165 J-0.0522
X-67.2203 Y30.2529 I0.0136 J-0.0078
G1 X-67.2172 Y30.2525 Z-0.1297
X-67.2143 Y30.2522 Z-0.1288
X-67.2116 Y30.2518 Z-0.1274
X-67.2093 Y30.2516 Z-0.1254
X-67.2074 Y30.2513 Z-0.123
X-67.2059 Y30.2512 Z-0.1203
X-67.205 Y30.2511 Z-0.1174
X-67.2047 Y30.251 Z-0.1143
G0 Z-0.0987
X-67.2037 Y29.8252
G1 Z-0.1143 F50.
X-67.2035 Y29.8249 Z-0.1174
X-67.2031 Y29.8241 Z-0.1203
X-67.2023 Y29.8229 Z-0.123
X-67.2013 Y29.8212 Z-0.1254
X-67.2001 Y29.8192 Z-0.1274
X-67.1987 Y29.8169 Z-0.1288
X-67.1972 Y29.8143 Z-0.1297
X-67.1957 Y29.8117 Z-0.13
G2 X-67.187 Y29.782 I-0.0536 J-0.0318
G1 Y29.7162 F60.
X-67.1894 Y29.7072
X-67.1924 Y29.6984
X-67.196 Y29.6899
X-67.2001 Y29.6816
X-67.2047 Y29.6735
X-67.2099 Y29.6658
X-67.2155 Y29.6584
X-67.2216 Y29.6515
X-67.2281 Y29.6449
X-67.2351 Y29.6387
X-67.2424 Y29.633
X-67.25 Y29.6278
X-67.258 Y29.6231
X-67.2663 Y29.6189
X-67.2748 Y29.6153
X-67.2836 Y29.6122
X-67.2925 Y29.6097
X-67.3016 Y29.6077
X-67.3108 Y29.6064
X-67.32 Y29.6056
X-67.3293 Y29.6054
X-67.3385 Y29.6059
X-67.3478 Y29.6069
X-67.3569 Y29.6085
X-67.3659 Y29.6107
X-67.3747 Y29.6135
X-67.3834 Y29.6169
X-67.3918 Y29.6207
G3 X-67.4404 Y29.7619 I-0.5092 J-0.0963
G2 X-67.4383 Y29.7774 I0.0145 J0.0059
X-67.3496 Y29.7611 I0.0401 J-0.031
X-67.3753 Y29.6474 I-0.113 J-0.0342
X-67.3857 Y29.6373 I-0.0873 J0.0795 F50.
G3 X-67.3909 Y29.6225 I0.0102 J-0.0119
G1 X-67.3855 Y29.5984 F60.
G3 X-67.1862 Y29.5698 I0.1098 J0.0566
G1 X-67.1865 Y29.5726
X-67.1873 Y29.5754
X-67.1886 Y29.5779
X-67.1902 Y29.5801
X-67.1922 Y29.5821
X-67.1946 Y29.5836
X-67.1971 Y29.5847
X-67.1997 Y29.5853
X-67.2093 Y29.5871
X-67.3665 Y29.6163
X-67.3673 Y29.6165 F50.
G3 X-67.3855 Y29.5984 I-0.0029 J-0.0154
G1 X-67.3806 Y29.5748 F60.
X-67.3791 Y29.5513
X-67.3785 Y29.5383
G3 X-67.3074 Y29.462 I0.0945 J0.0168
X-67.2952 Y29.4883 I0.0007 J0.0156
G1 X-67.3514 Y29.5491
X-67.3539 Y29.5513
X-67.3568 Y29.5529
G3 X-67.3785 Y29.5383 I-0.0061 J-0.0144 F50.
X-67.3717 Y29.4693 I0.0499 J-0.03 F60.
G1 X-67.3615 Y29.4664
X-67.3608 Y29.4663
X-67.2565 Y29.458
G3 X-67.1874 Y29.4743 I0.0262 J0.0436
X-67.2034 Y29.4905 I-0.0156 J0.0006
G1 X-67.2088 Y29.4904
X-67.2552 Y29.4892
G3 X-67.2683 Y29.4813 I0.0004 J-0.0156
X-67.2565 Y29.458 I0.0136 J-0.0078 F50.
X-67.1881 Y29.4666 I0.0303 J0.035 F60.
G1 X-67.1878 Y29.4688
X-67.187 Y29.4806
Y29.7162
G3 X-67.1943 Y29.7289 I-0.0156 J-0.0005
G1 X-67.1965 Y29.7297 Z-0.1298
X-67.1987 Y29.7304 Z-0.1293
X-67.2008 Y29.7312 Z-0.1284
X-67.2026 Y29.7313 Z-0.1273
X-67.2049 Y29.7308 Z-0.1254
X-67.2067 Y29.7303 Z-0.123
X-67.2081 Y29.73 Z-0.1203
X-67.209 Y29.7298 Z-0.1174
X-67.2093 Z-0.1144
G0 Z0.4
X-66.5085 Y30.5323
Z-0.0987
G1 Z-0.1143 F50.
X-66.5083 Y30.5321 Z-0.1174
X-66.5078 Y30.5314 Z-0.1203
X-66.507 Y30.5302 Z-0.123
X-66.5058 Y30.5286 Z-0.1254
X-66.5045 Y30.5267 Z-0.1274
X-66.5029 Y30.5244 Z-0.1288
X-66.5012 Y30.522 Z-0.1297
X-66.4995 Y30.5195 Z-0.13
G3 X-66.4428 Y30.4548 I0.3272 J0.2293
G1 X-66.4358 Y30.4515 F60.
X-66.4285 Y30.4489
X-66.4211 Y30.4468
X-66.4135 Y30.4452
X-66.4058 Y30.4443
X-66.3981 Y30.444
X-66.3904 Y30.4443
X-66.3827 Y30.4452
X-66.3751 Y30.4467
X-66.3677 Y30.4488
X-66.3604 Y30.4515
X-66.3534 Y30.4547
X-66.3467 Y30.4585
X-66.3403 Y30.4628
X-66.3342 Y30.4675
X-66.3285 Y30.4728
X-66.3232 Y30.4784
X-66.3185 Y30.4845
X-66.3142 Y30.4909
X-66.3104 Y30.4976
X-66.3071 Y30.5047
X-66.3044 Y30.5119
X-66.3023 Y30.5193
X-66.3008 Y30.5269
X-66.2999 Y30.5346
X-66.2996 Y30.5423
X-66.2999 Y30.55
X-66.3008 Y30.5577
X-66.3023 Y30.5653
X-66.3043 Y30.5727
X-66.307 Y30.58
X-66.3102 Y30.587
X-66.314 Y30.5937
X-66.317 Y30.6041
X-66.3206 Y30.6144
X-66.3247 Y30.6244
X-66.3294 Y30.6341
X-66.3347 Y30.6436
X-66.3405 Y30.6527
X-66.3468 Y30.6615
X-66.3536 Y30.67
X-66.3609 Y30.678
X-66.3686 Y30.6856
X-66.3767 Y30.6928
X-66.3852 Y30.6995
X-66.3941 Y30.7057
X-66.4033 Y30.7113
X-66.4129 Y30.7165
X-66.4227 Y30.7211
X-66.4327 Y30.7251
X-66.443 Y30.7286
X-66.4534 Y30.7314
X-66.464 Y30.7337
X-66.4747 Y30.7353
X-66.4855 Y30.7364
X-66.4963 Y30.7368
X-66.5072 Y30.7366
X-66.518 Y30.7358
X-66.5287 Y30.7344
X-66.5393 Y30.7324
X-66.5498 Y30.7298
X-66.5602 Y30.7266
X-66.5703 Y30.7228
X-66.5802 Y30.7184
X-66.5899 Y30.7135
X-66.5992 Y30.708
X-66.6082 Y30.702
X-66.6169 Y30.6955
X-66.6252 Y30.6886
X-66.6331 Y30.6811
X-66.6405 Y30.6733
X-66.6475 Y30.665
X-66.654 Y30.6563
X-66.66 Y30.6473
X-66.6655 Y30.638
G3 X-66.6982 Y30.3486 I0.1222 J-0.1603
X-66.4077 Y30.3284 I0.1549 J0.129
X-66.3573 Y30.792 I-0.0456 J0.2395
G1 X-66.3619 Y30.7963
X-66.3669 Y30.8002
X-66.3722 Y30.8036
X-66.3777 Y30.8065
X-66.3835 Y30.8089
X-66.3895 Y30.8108
X-66.3957 Y30.8122
X-66.4019 Y30.813
X-66.5392
G3 X-66.813 Y30.5833 I0.0414 J-0.3275
X-66.7874 Y30.5718 I0.0156 J0.0005
G1 X-66.5298 Y30.7853
X-66.5274 Y30.7878
X-66.5256 Y30.7907
G3 X-66.5392 Y30.813 I-0.0142 J0.0067 F50.
G1 X-66.7041 F60.
G3 X-66.813 Y30.7557 I0. J-0.1322
X-66.791 Y30.7418 I0.0156 J0.0005
G1 X-66.7908 Y30.7419
X-66.6983 Y30.7831
G3 X-66.6905 Y30.7907 I-0.0064 J0.0143
X-66.7041 Y30.813 I-0.0142 J0.0067 F50.
X-66.7856 Y30.8108 I-0.0384 J-0.0852 F60.
X-66.813 Y30.7527 I0.0195 J-0.0448
G1 Y30.4099
X-66.8113 Y30.3973
X-66.8089 Y30.3848
X-66.806 Y30.3724
X-66.8024 Y30.3602
X-66.7982 Y30.3482
X-66.7935 Y30.3364
X-66.7881 Y30.3248
X-66.7823 Y30.3135
X-66.7758 Y30.3025
X-66.7689 Y30.2919
X-66.7614 Y30.2816
X-66.7535 Y30.2716
X-66.745 Y30.2621
X-66.7361 Y30.253
X-66.7268 Y30.2443
X-66.7171 Y30.2361
X-66.707 Y30.2284
X-66.6965 Y30.2212
X-66.6856 Y30.2145
X-66.6745 Y30.2084
X-66.6631 Y30.2028
X-66.6514 Y30.1978
X-66.6395 Y30.1933
X-66.6273 Y30.1895
X-66.615 Y30.1862
X-66.6026 Y30.1835
X-66.59 Y30.1815
X-66.5774 Y30.18
X-66.5647 Y30.1792
X-66.552 Y30.179
X-66.5392 Y30.1795
X-66.5266 Y30.1805
X-66.5139 Y30.1822
X-66.5014 Y30.1844
X-66.489 Y30.1873
X-66.4768 Y30.1908
X-66.4647 Y30.1949
X-66.4529 Y30.1996
X-66.4413 Y30.2048
X-66.43 Y30.2106
X-66.4189 Y30.217
X-66.1623 Y30.5146
G3 X-66.2264 Y30.813 I-0.2078 J0.1115
G1 X-66.4019
G3 X-66.4151 Y30.8047 I0.0005 J-0.0156
X-66.401 Y30.7569 I0.0314 J-0.0167
X-66.2472 Y30.7923 I0.0571 J0.1034
X-66.2396 Y30.8047 I-0.0966 J0.0679 F50.
G2 X-66.2264 Y30.813 I0.0138 J-0.0074
G1 X-66.1729 F60.
X-66.1635 Y30.8107
X-66.1541 Y30.8079
X-66.145 Y30.8045
X-66.1361 Y30.8005
X-66.1275 Y30.7961
X-66.1191 Y30.7911
X-66.1111 Y30.7856
X-66.1033 Y30.7797
X-66.096 Y30.7733
X-66.089 Y30.7665
X-66.0825 Y30.7593
X-66.0764 Y30.7517
X-66.0708 Y30.7438
X-66.0656 Y30.7356
X-66.061 Y30.727
X-66.0568 Y30.7182
X-66.0532 Y30.7092
X-66.0501 Y30.6999
X-66.0476 Y30.6905
X-66.0457 Y30.681
X-66.0443 Y30.6714
X-66.0435 Y30.6617
X-66.0433 Y30.6519
X-66.1623 Y30.5146
G2 X-66.1772 Y30.5099 I-0.0115 J0.0106
X-66.2025 Y30.5454 I0.0071 J0.0318
X-66.0739 Y30.6496 I0.1173 J-0.0134
X-66.0595 Y30.6473 I-0.0113 J-0.1176 F50.
G3 X-66.0446 Y30.652 I0.0034 J0.0153
G1 X-66.021 Y30.6795 F60.
G3 X-66.0267 Y30.8147 I-0.0847 J0.0641
G1 X-66.0298 Y30.8145
X-66.0327 Y30.8137
X-66.0355 Y30.8125
X-66.0379 Y30.8107
X-66.04 Y30.8086
X-66.0417 Y30.8062
X-66.0428 Y30.8036
X-66.0435 Y30.8008
X-66.0437 Y30.798
X-66.044 Y30.7905
G3 X-66.0468 Y30.6837 I0.167 J-0.0578
X-66.021 Y30.6795 I0.0143 J0.0064 F50.
G1 X-65.9653 Y30.7445 F60.
G3 X-65.9578 Y30.813 I-0.0224 J0.0371
X-65.9715 Y30.8039 I0.0005 J-0.0156
G1 X-65.9772 Y30.7915
X-65.991 Y30.7616
G3 X-65.9911 Y30.7487 I0.0142 J-0.0066
X-65.9653 Y30.7445 I0.0143 J0.0064 F50.
G1 X-65.9223 Y30.7946 F60.
X-65.9218 Y30.7952
X-65.9207 Y30.7972
X-65.9166 Y30.8045
X-65.9164 Y30.8053
X-65.9162 Y30.8067
X-65.9165 Y30.808
X-65.9169 Y30.8087
X-65.9174 Y30.8094
X-65.918 Y30.81
G3 X-65.9304 Y30.813 I-0.0107 J-0.0174
G1 X-66.1729
G3 X-66.183 Y30.7859 I0.0005 J-0.0156
G1 X-66.1794 Y30.7875
X-66.1829 Y30.7892
G3 X-66.4168 Y30.246 I0.3939 J-0.4916
G1 X-66.415 Y30.2274 F50.
G2 X-66.4183 Y30.2159 I-0.0156 J-0.0017
G1 X-66.4832 Y30.1402 F60.
G2 X-66.813 Y30.1987 I-0.1327 J0.2107
G1 Y30.4099
G2 X-66.8048 Y30.4232 I0.0156 J-0.0005
X-66.7257 Y30.3875 I0.0258 J-0.0484
X-66.7923 Y30.2194 I-0.1532 J-0.0365
X-66.8048 Y30.212 I-0.0866 J0.1315 F50.
G3 X-66.813 Y30.1987 I0.0074 J-0.0138
G1 Y30.1508 F60.
G3 X-66.597 Y30.0075 I0.1872 J0.0478
G1 X-66.4832 Y30.1402
G3 X-66.4809 Y30.1556 I-0.0122 J0.0098
X-66.5273 Y30.1761 I-0.0334 J-0.0131
X-66.5991 Y30.0368 I0.0426 J-0.1101
X-66.5947 Y30.0229 I0.1145 J0.0291 F50.
G2 X-66.597 Y30.0075 I-0.0146 J-0.0057
G1 X-66.6246 Y29.9753 F60.
G2 X-66.8141 Y29.9884 I-0.0876 J0.1106
G1 X-66.813 Y30.1508
G2 X-66.8048 Y30.1641 I0.0156 J-0.0005
X-66.7468 Y30.1395 I0.0191 J-0.0357
X-66.7924 Y30.0103 I-0.1135 J-0.0325
X-66.8048 Y30.0027 I-0.0679 J0.0966 F50.
G3 X-66.813 Y29.9894 I0.0074 J-0.0138
G1 Y29.9565 F60.
G3 X-66.7142 Y29.8683 I0.0984 J0.0108
G1 X-66.6246 Y29.9753
G3 X-66.6386 Y30.0006 I-0.0122 J0.0098
X-66.662 Y29.9916 I0.0056 J-0.0497
X-66.7115 Y29.9009 I0.0686 J-0.0962
X-66.7108 Y29.8823 I0.118 J-0.0054 F50.
G2 X-66.7142 Y29.8708 I-0.0156 J-0.0017
G1 X-66.7326 Y29.8492 F60.
X-66.737 Y29.8451
X-66.7418 Y29.8415
X-66.7469 Y29.8383
X-66.7523 Y29.8357
X-66.7579 Y29.8335
X-66.7637 Y29.832
X-66.7696 Y29.831
X-66.7756 Y29.8305
X-66.7816 Y29.8307
X-66.7876 Y29.8314
X-66.7934 Y29.8327
X-66.7992 Y29.8346
X-66.8047 Y29.837
X-66.8099 Y29.8399
X-66.8148 Y29.8433
X-66.813 Y29.9565
G2 X-66.7836 Y29.9634 I0.0156 J-0.0005
G1 X-66.7371 Y29.8775
X-66.7311 Y29.8665 F50.
G2 X-66.7326 Y29.8492 I-0.0138 J-0.0075
G1 X-66.7708 Y29.8047 F60.
G2 X-66.813 Y29.7986 I-0.0223 J0.005
G1 Y29.8457
G2 X-66.8048 Y29.8589 I0.0156 J-0.0005
X-66.7839 Y29.8463 I0.0067 J-0.0125
X-66.7935 Y29.8209 I-0.0394 J0.0004
X-66.8048 Y29.8119 I-0.0298 J0.0257 F50.
G3 X-66.813 Y29.7986 I0.0074 J-0.0138
G1 Y29.7868 F60.
X-66.8127 Y29.7818
X-66.8126 Y29.7806
X-66.8124 Y29.779
X-66.812 Y29.776
G3 X-66.8095 Y29.7724 I0.0053 J0.0011
X-66.8013 Y29.7778 I0.0027 J0.0047 F50.
G1 X-66.8016 Y29.7799
G3 X-66.8124 Y29.779 I-0.0054 J-0.0007
G1 X-66.8123 Y29.7777 F60.
X-66.8118 Y29.7745
X-66.8115 Y29.7731
X-66.8114 Y29.7721
X-66.8106 Y29.7709
X-66.81 Y29.7701
X-66.8092 Y29.7693
X-66.8045 Y29.7742 F50.
X-66.8067 Y29.7761
X-66.8114 Y29.7721
X-66.8108 Y29.7711 F60.
X-66.8105 Y29.7704
X-66.8092 Y29.7693
G3 X-66.7708 Y29.8047 I0.0043 J0.0338
X-66.7681 Y29.8191 I-0.0122 J0.0098
G1 X-66.7693 Y29.8212 Z-0.1298
X-66.7704 Y29.8232 Z-0.1293
X-66.7716 Y29.8251 Z-0.1284
X-66.7733 Y29.8263 Z-0.1271
X-66.7749 Y29.8274 Z-0.1255
X-66.7762 Y29.8283 Z-0.1236
X-66.7773 Y29.829 Z-0.1214
X-66.7782 Y29.8293 Z-0.1192
X-66.7787 Y29.8295 Z-0.1168
X-66.7789 Y29.8296 Z-0.1144
G0 Z0.4
X-66.5113 Y31.4703
Z-0.0987
G1 Z-0.1143 F50.
X-66.5114 Y31.47 Z-0.1174
X-66.5116 Y31.4691 Z-0.1203
X-66.512 Y31.4677 Z-0.123
X-66.5125 Y31.4659 Z-0.1254
X-66.5131 Y31.4636 Z-0.1274
X-66.5137 Y31.4609 Z-0.1288
X-66.5145 Y31.4581 Z-0.1297
X-66.5152 Y31.4551 Z-0.13
G3 X-66.5275 Y31.3699 I0.387 J-0.0991
G1 X-66.527 Y31.3626 F60.
X-66.5259 Y31.3553
X-66.5242 Y31.3481
X-66.5219 Y31.3411
X-66.5191 Y31.3344
X-66.5156 Y31.3279
X-66.5117 Y31.3216
X-66.5072 Y31.3158
X-66.5023 Y31.3103
X-66.4969 Y31.3053
X-66.4911 Y31.3007
X-66.485 Y31.2967
X-66.4785 Y31.2932
X-66.4718 Y31.2902
X-66.4649 Y31.2878
X-66.4577 Y31.286
X-66.4505 Y31.2848
X-66.4431 Y31.2842
X-66.4358
X-66.4284 Y31.2848
X-66.4212 Y31.2861
X-66.4141 Y31.2879
X-66.4071 Y31.2904
X-66.4004 Y31.2934
X-66.394 Y31.297
X-66.3879 Y31.3011
X-66.3821 Y31.3057
X-66.3768 Y31.3107
X-66.3719 Y31.3162
X-66.3675 Y31.3221
X-66.3635 Y31.3283
G3 X-66.3531 Y31.5939 I-0.1051 J0.1371
X-66.7298 Y31.4549 I-0.1884 J-0.0695
X-66.6842 Y31.3832 I0.1884 J0.0695
X-66.404 Y31.2027 I0.2534 J0.0857
X-66.2054 Y31.4787 I-0.0518 J0.2467
X-66.2266 Y31.5605 I-0.1423 J0.0067
G1 X-66.3823 Y31.742
X-66.3915 Y31.7508
X-66.401 Y31.759
X-66.411 Y31.7668
X-66.4214 Y31.7741
X-66.4321 Y31.7809
X-66.4431 Y31.7872
X-66.4544 Y31.7929
X-66.466 Y31.798
X-66.4778 Y31.8026
X-66.4898 Y31.8066
X-66.502 Y31.81
X-66.5143 Y31.8127
X-66.5268 Y31.8149
X-66.5394 Y31.8165
X-66.552 Y31.8174
X-66.5647 Y31.8178
X-66.5773 Y31.8175
X-66.59 Y31.8166
X-66.6025 Y31.815
X-66.615 Y31.8129
X-66.6274 Y31.8101
X-66.6396 Y31.8068
X-66.6516 Y31.8028
X-66.6634 Y31.7983
X-66.675 Y31.7932
X-66.6863 Y31.7875
X-66.6974 Y31.7813
X-66.7081 Y31.7745
X-66.7184 Y31.7673
X-66.7284 Y31.7595
X-66.738 Y31.7513
X-66.7472 Y31.7425
X-66.756 Y31.7334
X-66.7643 Y31.7238
X-66.7721 Y31.7139
X-66.7794 Y31.7035
X-66.7862 Y31.6929
X-66.7925 Y31.6819
X-66.7982 Y31.6706
X-66.8034 Y31.659
X-66.808 Y31.6472
X-66.812 Y31.6352
X-66.813 Y31.4594
G3 X-66.6501 Y31.187 I0.4738 J0.0985
G0 Z0.4
X-66.7963 Y31.5025
Z-0.0987
G1 Z-0.1143 F50.
X-66.7965 Y31.5022 Z-0.1174
X-66.7969 Y31.5014 Z-0.1203
X-66.7977 Y31.5002 Z-0.123
X-66.7987 Y31.4985 Z-0.1254
X-66.7999 Y31.4965 Z-0.1274
X-66.8013 Y31.4942 Z-0.1288
X-66.8028 Y31.4916 Z-0.1297
X-66.8043 Y31.489 Z-0.13
G3 X-66.813 Y31.4594 I0.0536 J-0.0318
G1 Y31.2945 F60.
G3 X-66.7719 Y31.187 I0.0995 J-0.0235
X-66.7574 Y31.2068 I-0.0005 J0.0156
G1 X-66.7581 Y31.2094
X-66.7823 Y31.298
G3 X-66.7907 Y31.3081 I-0.0151 J-0.0041
X-66.813 Y31.2945 I-0.0067 J-0.0142 F50.
X-66.7805 Y31.1877 I0.07 J-0.037 F60.
G1 X-66.7748 Y31.187
X-66.3036
G3 X-66.1136 Y31.4286 I-0.0449 J0.2308
G1 X-66.2266 Y31.5605
G3 X-66.2416 Y31.5651 I-0.0115 J-0.0106
X-66.2691 Y31.5212 I0.0079 J-0.0355
X-66.1429 Y31.431 I0.1149 J0.0274
X-66.1285 Y31.4333 I-0.0113 J0.1176 F50.
G2 X-66.1136 Y31.4286 I0.0034 J-0.0153
G1 X-66.0794 Y31.3887 F60.
X-66.075 Y31.38
X-66.0711 Y31.3711
X-66.0677 Y31.362
X-66.0649 Y31.3527
X-66.0627 Y31.3433
X-66.061 Y31.3337
X-66.0599 Y31.3241
X-66.0594 Y31.3144
X-66.0595 Y31.3047
X-66.0601 Y31.295
X-66.0613 Y31.2853
X-66.0631 Y31.2758
X-66.0655 Y31.2664
X-66.0684 Y31.2571
X-66.0719 Y31.248
X-66.0759 Y31.2392
X-66.0804 Y31.2306
X-66.0854 Y31.2223
X-66.0909 Y31.2143
X-66.0969 Y31.2067
X-66.1034 Y31.1994
X-66.1102 Y31.1925
X-66.1175 Y31.186
X-66.3036 Y31.187
G2 X-66.3169 Y31.1953 I0.0005 J0.0156
X-66.3093 Y31.2322 I0.026 J0.0139
X-66.1391 Y31.2077 I0.0735 J-0.0925
X-66.1315 Y31.1953 I-0.0966 J-0.0679 F50.
G3 X-66.1183 Y31.187 I0.0138 J0.0074
G1 X-66.0787 F60.
G3 X-65.983 Y31.2789 I-0.01 J0.1062
G1 X-65.9852 Y31.2811
X-65.9877 Y31.2829
X-65.9905 Y31.2841
X-65.9935 Y31.2849
X-65.9964 Y31.285
X-65.9994 Y31.2847
X-66.0022 Y31.2838
X-66.0047 Y31.2825
X-66.007 Y31.2808
X-66.0126 Y31.2762
X-66.088 Y31.2148
X-66.0905 Y31.2123
X-66.0923 Y31.2093
G3 X-66.0787 Y31.187 I0.0142 J-0.0067 F50.
G1 X-65.9974 F60.
G3 X-65.9397 Y31.2257 I0.0145 J0.0408
X-65.9554 Y31.2302 I-0.0115 J-0.0106
G1 X-65.9687 Y31.2266
X-66.001 Y31.2177
G3 X-66.011 Y31.2093 I0.0041 J-0.0151
X-65.9974 Y31.187 I0.0142 J-0.0067 F50.
G1 X-65.9326 F60.
X-65.9304
X-65.9297 Y31.1871
X-65.9198 Y31.189
X-65.9192 Y31.1892
X-65.918 Y31.19
X-65.9174 Y31.1906
X-65.9169 Y31.1913
X-65.9165 Y31.192
X-65.9162 Y31.1933
G3 X-65.9223 Y31.2054 I-0.0204 J-0.0027
G1 X-66.0794 Y31.3887
G3 X-66.1052 Y31.3845 I-0.0115 J-0.0106
G1 X-66.1065 Y31.3817 Z-0.1297
X-66.1077 Y31.379 Z-0.1288
X-66.1088 Y31.3766 Z-0.1274
X-66.1097 Y31.3744 Z-0.1254
X-66.1105 Y31.3726 Z-0.123
X-66.1111 Y31.3713 Z-0.1203
X-66.1115 Y31.3705 Z-0.1174
X-66.1116 Y31.3702 Z-0.1143
G0 Z-0.0987
X-66.3669 Y31.6984
G1 Z-0.1143 F50.
X-66.367 Y31.6987 Z-0.1174
X-66.3671 Y31.6996 Z-0.1203
X-66.3674 Y31.701 Z-0.123
X-66.3677 Y31.7029 Z-0.1254
X-66.3681 Y31.7053 Z-0.1274
X-66.3686 Y31.7079 Z-0.1288
X-66.3691 Y31.7108 Z-0.1297
X-66.3696 Y31.7138 Z-0.13
G3 X-66.3823 Y31.742 I-0.0614 J-0.0107
G1 X-66.4832 Y31.8598 F60.
G3 X-66.813 Y31.8024 I-0.1329 J-0.2128
G1 Y31.6355
G3 X-66.8048 Y31.6223 I0.0156 J0.0005
X-66.75 Y31.6427 I0.0183 J0.0344
X-66.7924 Y31.7815 I-0.1103 J0.0422
X-66.8048 Y31.7892 I-0.0679 J-0.0966 F50.
G2 X-66.813 Y31.8024 I0.0074 J0.0138
G1 Y31.8492 F60.
G2 X-66.5967 Y31.9922 I0.1868 J-0.0475
G1 X-66.4832 Y31.8598
G2 X-66.4809 Y31.8444 I-0.0122 J-0.0098
X-66.5278 Y31.8239 I-0.0336 J0.0131
X-66.5988 Y31.9629 I0.0434 J0.1098
X-66.5944 Y31.9767 I0.1145 J-0.0291 F50.
G3 X-66.5967 Y31.9922 I-0.0146 J0.0057
G1 X-66.6246 Y32.0247 F60.
G3 X-66.8141 Y32.0116 I-0.0876 J-0.1109
G1 X-66.813 Y31.8492
G3 X-66.8048 Y31.8359 I0.0156 J0.0005
X-66.7468 Y31.8605 I0.0191 J0.0357
X-66.7924 Y31.9897 I-0.1135 J0.0325
X-66.8048 Y31.9973 I-0.0679 J-0.0966 F50.
G2 X-66.813 Y32.0105 I0.0074 J0.0138
G1 Y32.0435 F60.
G2 X-66.7141 Y32.1316 I0.0985 J-0.0109
G1 X-66.6246 Y32.0247
G2 X-66.6386 Y31.9994 I-0.0122 J-0.0098
X-66.6622 Y32.0084 I0.0056 J0.0498
X-66.7114 Y32.0991 I0.0687 J0.0961
X-66.7108 Y32.1177 I0.118 J0.0054 F50.
G3 X-66.7141 Y32.1292 I-0.0156 J0.0017
G1 X-66.7326 Y32.1508 F60.
X-66.737 Y32.1549
X-66.7418 Y32.1585
X-66.7469 Y32.1617
X-66.7523 Y32.1643
X-66.7579 Y32.1664
X-66.7637 Y32.168
X-66.7696 Y32.169
X-66.7756 Y32.1694
X-66.7816 Y32.1693
X-66.7876 Y32.1686
X-66.7935 Y32.1673
X-66.7992 Y32.1654
X-66.8047 Y32.163
X-66.8099 Y32.1601
X-66.8148 Y32.1567
X-66.8147 Y32.1536
X-66.8139 Y32.1506
X-66.8127 Y32.1479
X-66.8111 Y32.1454
X-66.809 Y32.1433
X-66.8067 Y32.1417
X-66.8041 Y32.1405
X-66.8014 Y32.1397
X-66.7908 Y32.1369
X-66.7842 Y32.1336
X-66.7773 Y32.1309
X-66.7702 Y32.1287
X-66.7629 Y32.1271
X-66.7556 Y32.1261
X-66.7481 Y32.1257
X-66.7407 Y32.1259
G3 X-66.7326 Y32.1508 I-0.0042 J0.0151 F50.
G1 X-66.7708 Y32.1953 F60.
G3 X-66.813 Y32.2014 I-0.0223 J-0.005
X-66.7938 Y32.1689 I0.0393 J0.0014
X-66.7761 Y32.1686 I0.0091 J0.0153
X-66.7708 Y32.1953 I-0.0086 J0.0156 F50.
G1 X-66.7955 Y32.2241 F60.
X-66.796 Y32.2246
X-66.8004 Y32.2282
X-66.8034 Y32.2307
X-66.8039 Y32.2309
X-66.8052 Y32.2314
X-66.8057 Y32.2315
X-66.8072
X-66.8086 Y32.2309
X-66.8092 Y32.2307
X-66.8105 Y32.2296
G3 X-66.813 Y32.2132 I0.0187 J-0.0114
G1 Y32.0435
G3 X-66.8057 Y32.0308 I0.0156 J0.0005
G1 X-66.8035 Y32.03 Z-0.1298
X-66.8013 Y32.0292 Z-0.1293
X-66.7992 Y32.0285 Z-0.1284
X-66.7974 Y32.0284 Z-0.1273
X-66.7951 Y32.0289 Z-0.1254
X-66.7933 Y32.0293 Z-0.123
X-66.7919 Y32.0296 Z-0.1203
X-66.791 Y32.0298 Z-0.1174
X-66.7907 Y32.0299 Z-0.1144
G0 Z0.4
X-65.484 Y29.9834
Z-0.0987
G1 Z-0.1143 F50.
Y29.9831 Z-0.1174
X-65.4843 Y29.9823 Z-0.1203
X-65.4846 Y29.9809 Z-0.123
X-65.4851 Y29.979 Z-0.1254
X-65.4857 Y29.9767 Z-0.1274
X-65.4864 Y29.9741 Z-0.1288
X-65.4872 Y29.9713 Z-0.1297
X-65.4879 Y29.9683 Z-0.13
G3 X-65.5007 Y29.8832 I0.3865 J-0.1014
X-65.3888 Y29.7121 I0.1798 J-0.0046 F60.
G1 X-65.3726 Y29.6975
X-65.356 Y29.6833
X-65.339 Y29.6697
X-65.3217 Y29.6565
X-65.3039 Y29.6438
X-65.2858 Y29.6317
X-65.2674 Y29.62
X-65.2486 Y29.6089
X-65.2295 Y29.5984
X-65.2102 Y29.5884
X-65.1905 Y29.5789
X-65.1706 Y29.57
X-65.1505 Y29.5617
X-65.1301 Y29.554
X-65.1095 Y29.5468
X-65.0887 Y29.5403
X-65.0677 Y29.5343
X-65.0466 Y29.529
X-65.0253 Y29.5242
X-65.0039 Y29.5201
X-64.9824 Y29.5166
X-64.9608 Y29.5136
G3 X-64.9738 Y29.9046 I-0.0494 J0.1941
X-65.2663 Y30.103 I-13.0996 J-19.0074
G2 X-65.324 Y30.3375 I2.0259 J0.6228
G3 X-65.4343 Y30.4435 I-0.1858 J-0.0828
G1 X-65.4451 Y30.4464
X-65.456 Y30.4487
X-65.4671 Y30.4503
X-65.4783 Y30.4514
X-65.4894 Y30.4518
X-65.5006 Y30.4517
X-65.5118 Y30.4509
X-65.5229 Y30.4496
X-65.5339 Y30.4476
X-65.5448 Y30.445
X-65.5555 Y30.4419
X-65.5661 Y30.4381
X-65.5764 Y30.4338
X-65.5865 Y30.429
X-65.5963 Y30.4236
X-65.6058 Y30.4177
X-65.615 Y30.4112
X-65.6238 Y30.4043
X-65.6322 Y30.3969
X-65.6402 Y30.3891
X-65.6477 Y30.3809
X-65.6548 Y30.3722
X-65.6615 Y30.3632
X-65.6676 Y30.3538
X-65.6732 Y30.3441
X-65.6782 Y30.3342
X-65.6828 Y30.3239
X-65.6867 Y30.3134
X-65.6901 Y30.3028
X-65.6929 Y30.2919
X-65.6951 Y30.281
X-65.6967 Y30.2699
X-65.6977 Y30.2587
X-65.6981 Y30.2476
X-65.6978 Y30.2364
X-65.697 Y30.2252
X-65.6956 Y30.2141
X-65.6935 Y30.2031
X-65.6909 Y30.1922
X-65.6877 Y30.1815
G2 X-65.9092 Y29.9813 I-0.5793 J0.4184
G3 X-66.1585 Y29.8195 I0.3382 J-0.7938
X-65.8952 Y29.5527 I0.1559 J-0.1094
X-65.5985 Y29.7154 I-0.3776 J1.0406
G1 X-65.5829 Y29.7138
X-65.5536 Y29.7033
X-65.5267 Y29.6874
G3 X-65.0994 Y29.437 I0.8648 J0.9856
G1 X-64.9609
X-64.9482 Y29.4382
X-64.9356 Y29.44
X-64.923 Y29.4425
X-64.9106 Y29.4455
X-64.8984 Y29.4491
X-64.8863 Y29.4533
X-64.8745 Y29.4581
X-64.8629 Y29.4634
X-64.8516 Y29.4692
X-64.8405 Y29.4757
X-64.8298 Y29.4826
X-64.8194 Y29.49
X-64.8094 Y29.4979
X-64.7998 Y29.5063
X-64.7906 Y29.5152
X-64.7818 Y29.5244
X-64.7735 Y29.5341
X-64.7656 Y29.5442
X-64.7583 Y29.5546
X-64.7514 Y29.5654
X-64.7451 Y29.5764
X-64.7393 Y29.5878
X-64.7341 Y29.5994
X-64.7294 Y29.6113
X-64.7253 Y29.6234
X-64.7217 Y29.6357
X-64.7188 Y29.6481
X-64.7165 Y29.6606
X-64.7147 Y29.6733
X-64.7136 Y29.686
X-64.7131 Y29.6987
Y29.7115
X-64.7138 Y29.7242
X-64.7151 Y29.7369
X-64.7171 Y29.7496
X-64.7196 Y29.7621
X-64.7227 Y29.7745
X-64.7264 Y29.7867
X-64.7306 Y29.7987
X-64.7355 Y29.8105
X-64.7409 Y29.8221
X-64.7468 Y29.8334
X-64.8073 Y29.9046
G3 X-65.151 Y30.1463 I-4.9996 J-6.7458
G2 X-65.2249 Y30.3489 I0.465 J0.2842
G3 X-65.7854 Y30.2438 I-0.2733 J-0.0898
G2 X-66.1382 Y29.9679 I-0.6929 J0.5225
G1 X-66.139 Y29.9672
X-66.1397 Y29.9664
X-66.233 Y29.8576
X-66.2403 Y29.8471
X-66.2472 Y29.8364
X-66.2535 Y29.8253
X-66.2593 Y29.8139
X-66.2645 Y29.8023
X-66.2691 Y29.7904
X-66.2732 Y29.7783
X-66.2767 Y29.766
X-66.2797 Y29.7536
X-66.282 Y29.7411
X-66.2837 Y29.7284
X-66.2848 Y29.7157
X-66.2853 Y29.703
X-66.2852 Y29.6902
X-66.2845 Y29.6775
X-66.2831 Y29.6648
X-66.2812 Y29.6522
X-66.2786 Y29.6397
X-66.2755 Y29.6273
X-66.2718 Y29.6151
X-66.2675 Y29.6031
X-66.2626 Y29.5913
X-66.2572 Y29.5797
X-66.2512 Y29.5685
X-66.2447 Y29.5575
X-66.2377 Y29.5468
X-66.2301 Y29.5365
X-66.2221 Y29.5266
X-66.2136 Y29.5171
X-66.2047 Y29.508
X-66.1953 Y29.4993
X-66.1856 Y29.4911
X-66.1754 Y29.4833
X-66.1649 Y29.4761
X-66.1541 Y29.4693
X-66.143 Y29.4631
X-66.1315 Y29.4575
X-66.1198 Y29.4523
X-66.1079 Y29.4478
X-66.0958 Y29.4438
X-66.0835 Y29.4404
X-66.0711 Y29.4376
X-65.9738 Y29.437
G3 X-65.608 Y29.5793 I-0.127 J0.8679
G2 X-65.4922 Y29.5342 I-0.0371 J-0.2666
G1 X-65.4904 Y29.5339
G2 X-65.2671 Y29.437 I-0.0662 J-0.4581
G1 X-65.0994
G3 X-65.0862 Y29.4453 I-0.0005 J0.0156
X-65.1004 Y29.5684 I-0.0963 J0.0513
X-65.4683 Y29.553 I-0.1777 J-0.1556
G1 X-65.4765 Y29.541 F50.
G2 X-65.4904 Y29.5339 I-0.0131 J0.0085
G3 X-65.7265 Y29.437 I0.0047 J-0.3474 F60.
G1 X-65.9738
G2 X-65.9879 Y29.447 I0.0005 J0.0156
G1 X-65.989 Y29.4498 Z-0.1297
X-65.9901 Y29.4526 Z-0.1288
X-65.991 Y29.4551 Z-0.1274
X-65.9919 Y29.4573 Z-0.1254
X-65.9926 Y29.4591 Z-0.123
X-65.9931 Y29.4604 Z-0.1203
X-65.9934 Y29.4613 Z-0.1174
X-65.9936 Y29.4616 Z-0.1143
G0 Z-0.0987
X-66.0281 Y29.4537
G1 Z-0.1143 F50.
X-66.0283 Y29.4535 Z-0.1174
X-66.0291 Y29.4531 Z-0.1203
X-66.0303 Y29.4524 Z-0.123
X-66.032 Y29.4514 Z-0.1254
X-66.034 Y29.4501 Z-0.1274
X-66.0364 Y29.4488 Z-0.1288
X-66.0389 Y29.4473 Z-0.1297
X-66.0415 Y29.4457 Z-0.13
G2 X-66.0712 Y29.437 I-0.0318 J0.0536
G1 X-66.1988 F60.
G2 X-66.3777 Y29.6887 I0.0656 J0.236
G1 X-66.233 Y29.8576
G2 X-66.2099 Y29.8364 I0.0115 J-0.0106
X-66.2322 Y29.8356 I-0.0115 J0.0106
X-66.2328 Y29.8578 I0.0107 J0.0114
G1 X-66.1483 Y29.9464
G2 X-66.1256 Y29.9248 I0.0113 J-0.0108
X-66.1524 Y29.9382 I-0.0113 J0.0108
X-66.1397 Y29.9664 I0.0614 J-0.0107 F50.
G1 X-65.6071 Y30.5878 F60.
G2 X-65.4301 Y30.6327 I0.1287 J-0.1359
G1 X-64.8073 Y29.9046
G2 X-64.8318 Y29.8851 I-0.0122 J-0.0098
X-64.829 Y29.9074 I0.0122 J0.0098
X-64.8068 Y29.9039 I0.0094 J-0.0125
G1 X-64.7646 Y29.8447
G2 X-64.7901 Y29.8265 I-0.0128 J-0.0091
X-64.7724 Y29.8504 I0.0127 J0.0091
X-64.7464 Y29.8336 I-0.0199 J-0.059 F50.
G1 X-64.666 Y29.7397 F60.
G2 X-64.7391 Y29.437 I-0.2157 J-0.1081
G1 X-64.9609
G2 X-64.9742 Y29.4453 I0.0005 J0.0156
X-64.9463 Y29.5187 I0.0461 J0.0246
X-64.7598 Y29.4578 I0.055 J-0.1476
X-64.7523 Y29.4453 I-0.1315 J-0.0866 F50.
G3 X-64.7391 Y29.437 I0.0138 J0.0074
G1 X-64.6888 F60.
X-64.6791 Y29.4389
X-64.6695 Y29.4413
X-64.6601 Y29.4444
X-64.6508 Y29.4479
X-64.6418 Y29.4521
X-64.6331 Y29.4567
X-64.6246 Y29.4619
X-64.6165 Y29.4675
X-64.6087 Y29.4737
X-64.6013 Y29.4802
X-64.5943 Y29.4873
X-64.5877 Y29.4947
X-64.5816 Y29.5025
X-64.576 Y29.5106
X-64.5708 Y29.5191
X-64.5662 Y29.5278
X-64.5621 Y29.5368
X-64.5585 Y29.5461
X-64.5555 Y29.5555
X-64.553 Y29.5651
X-64.5511 Y29.5748
X-64.5499 Y29.5846
X-64.5492 Y29.5945
X-64.549 Y29.6044
X-64.666 Y29.7397
G3 X-64.6809 Y29.7444 I-0.0115 J-0.0106
X-64.7072 Y29.7057 I0.0074 J-0.0333
X-64.5793 Y29.6068 I0.1166 J0.0187
X-64.5649 Y29.6091 I-0.0113 J0.1176 F50.
G2 X-64.55 Y29.6044 I0.0034 J-0.0153
G1 X-64.5247 Y29.5748 F60.
G2 X-64.5342 Y29.4354 I-0.0903 J-0.0639
G1 X-64.6888 Y29.437
G2 X-64.6975 Y29.4652 I0.0005 J0.0156
G1 X-64.552 Y29.5721
X-64.5455 Y29.5769 F50.
G2 X-64.5247 Y29.5748 I0.0093 J-0.0126
G1 X-64.4703 Y29.5114 F60.
G2 X-64.4618 Y29.437 I-0.0284 J-0.0409
G1 X-64.5359
G2 X-64.5492 Y29.4453 I0.0005 J0.0156
X-64.517 Y29.482 I0.023 J0.0123
X-64.4831 Y29.4574 I-0.0275 J-0.0738
X-64.4751 Y29.4453 I-0.0615 J-0.0492 F50.
G3 X-64.4618 Y29.437 I0.0138 J0.0074
G1 X-64.4462 F60.
X-64.4402 Y29.4373
X-64.4344 Y29.4389
X-64.429 Y29.4415
X-64.428 Y29.4421
X-64.4246 Y29.4456
X-64.423 Y29.4502
X-64.4233 Y29.455
X-64.4256 Y29.4593
X-64.4337 Y29.4674
G3 X-64.4626 Y29.4585 I-0.0119 J-0.0129
X-64.4462 Y29.437 I0.017 J-0.004 F50.
G1 X-64.4302 F60.
X-64.4195 Y29.439
X-64.4178 Y29.4401
X-64.4174 Y29.4406
X-64.4169 Y29.4413
X-64.4165 Y29.4419
G3 X-64.4703 Y29.5114 I-0.1338 J-0.0481
X-64.4961 Y29.5072 I-0.0115 J-0.0106
G1 X-64.4973 Y29.5044 Z-0.1297
X-64.4985 Y29.5017 Z-0.1288
X-64.4996 Y29.4992 Z-0.1274
X-64.5006 Y29.4971 Z-0.1254
X-64.5014 Y29.4953 Z-0.123
X-64.502 Y29.494 Z-0.1203
X-64.5024 Y29.4932 Z-0.1174
X-64.5025 Y29.4929 Z-0.1143
G0 Z-0.0987
X-65.6225 Y30.5441
G1 Z-0.1143 F50.
X-65.6224 Y30.5444 Z-0.1174
X-65.6223 Y30.5453 Z-0.1203
X-65.622 Y30.5467 Z-0.123
X-65.6217 Y30.5487 Z-0.1254
X-65.6213 Y30.551 Z-0.1274
X-65.6208 Y30.5537 Z-0.1288
X-65.6203 Y30.5566 Z-0.1297
X-65.6198 Y30.5596 Z-0.13
G2 X-65.6071 Y30.5878 I0.0614 J-0.0107
G1 X-65.5263 Y30.682 F60.
G2 X-65.4883 Y30.698 I0.027 J-0.011
G1 X-65.4792 Y30.6884
X-65.4304 Y30.6315
G2 X-65.4517 Y30.609 I-0.0122 J-0.0098
G1 X-65.5187 Y30.6563
X-65.5231 Y30.6594 F50.
G2 X-65.5263 Y30.682 I0.009 J0.0128
X-65.4883 Y30.698 I0.0198 J0.0062 F60.
X-65.4858 Y30.6809 I-0.0117 J-0.0104
G1 X-65.4871 Y30.6782 Z-0.1297
X-65.4884 Y30.6755 Z-0.1288
X-65.4895 Y30.6731 Z-0.1274
X-65.4905 Y30.6709 Z-0.1254
X-65.4913 Y30.6691 Z-0.123
X-65.4919 Y30.6678 Z-0.1203
X-65.4923 Y30.667 Z-0.1174
X-65.4924 Y30.6668 Z-0.1143
G0 Z-0.0987
X-66.3369 Y29.7106
G1 Z-0.1143 F50.
X-66.3372 Y29.7105 Z-0.1174
X-66.3381 Y29.7102 Z-0.1203
X-66.3394 Y29.7098 Z-0.123
X-66.3413 Y29.7091 Z-0.1254
X-66.3435 Y29.7084 Z-0.1274
X-66.3461 Y29.7075 Z-0.1288
X-66.3489 Y29.7066 Z-0.1297
X-66.3518 Y29.7056 Z-0.13
G3 X-66.3777 Y29.6887 I0.0199 J-0.059
G1 X-66.4148 Y29.6455 F60.
X-66.4191 Y29.6365
X-66.4229 Y29.6272
X-66.4262 Y29.6178
X-66.4289 Y29.6081
X-66.4311 Y29.5983
X-66.4327 Y29.5884
X-66.4337 Y29.5785
X-66.4341 Y29.5684
X-66.4339 Y29.5584
X-66.4331 Y29.5484
X-66.4318 Y29.5385
X-66.4298 Y29.5287
X-66.4273 Y29.519
X-66.4243 Y29.5094
X-66.4207 Y29.5001
X-66.4165 Y29.491
X-66.4118 Y29.4821
X-66.4066 Y29.4735
X-66.4009 Y29.4653
X-66.3948 Y29.4574
X-66.3882 Y29.4499
X-66.3811 Y29.4427
X-66.3737 Y29.436
X-66.1988 Y29.437
G3 X-66.1856 Y29.4453 I-0.0005 J0.0156
X-66.2008 Y29.4944 I-0.032 J0.017
X-66.352 Y29.4577 I-0.0546 J-0.1047
X-66.3596 Y29.4453 I0.0966 J-0.0679 F50.
G2 X-66.3729 Y29.437 I-0.0138 J0.0074
G1 X-66.4108 F60.
G2 X-66.5118 Y29.5348 I0.0088 J0.1102
G1 X-66.4148 Y29.6455
G2 X-66.3998 Y29.6502 I0.0115 J-0.0106
X-66.3755 Y29.5827 I-0.0092 J-0.0415
X-66.4802 Y29.5375 I-0.0934 J0.0723
X-66.4945 Y29.5397 I0.0113 J0.1176 F50.
G3 X-66.5094 Y29.535 I-0.0034 J-0.0153
G1 X-66.5289 Y29.5124 F60.
G3 X-66.5276 Y29.437 I0.0382 J-0.0371
X-66.5129 Y29.4493 I-0.0005 J0.0156
G1 X-66.5107 Y29.4593
G3 X-66.5031 Y29.5082 I-0.0513 J0.033
X-66.5289 Y29.5124 I-0.0143 J-0.0064 F50.
G1 X-66.5702 Y29.4641 F60.
X-66.5739 Y29.4594
X-66.5766 Y29.454
X-66.5772 Y29.4523
X-66.5777 Y29.4469
X-66.5756 Y29.4418
X-66.5715 Y29.4383
X-66.5662 Y29.437
G3 X-66.5563 Y29.4379 I-0.0031 J0.0891
X-66.5443 Y29.4601 I-0.0023 J0.0156
X-66.5702 Y29.4641 I-0.0143 J-0.0066 F50.
G1 X-66.5779 Y29.4552 F60.
X-66.5783 Y29.4545
X-66.5834 Y29.4454
X-66.5836 Y29.4449
X-66.5838 Y29.4433
X-66.5837 Y29.4428
X-66.5835 Y29.4418
X-66.5825 Y29.4404
G3 X-66.5696 Y29.437 I0.0128 J0.0225
G1 X-66.4108
G3 X-66.3981 Y29.4443 I-0.0005 J0.0156
G1 X-66.3973 Y29.4466 Z-0.1298
X-66.3966 Y29.4488 Z-0.1293
X-66.3958 Y29.4508 Z-0.1284
X-66.3957 Y29.4526 Z-0.1273
X-66.3962 Y29.4549 Z-0.1254
X-66.3967 Y29.4568 Z-0.123
X-66.397 Y29.4582 Z-0.1203
X-66.3972 Y29.459 Z-0.1174
Y29.4593 Z-0.1144
G0 Z0.4
X-65.5156 Y31.9662
Z-0.0987
G1 Z-0.1143 F50.
X-65.5158 Y31.9661 Z-0.1174
X-65.5166 Y31.9657 Z-0.1203
X-65.5179 Y31.965 Z-0.123
X-65.5197 Y31.9642 Z-0.1254
X-65.5218 Y31.9631 Z-0.1274
X-65.5242 Y31.9619 Z-0.1288
X-65.5268 Y31.9606 Z-0.1297
X-65.5296 Y31.9593 Z-0.13
G3 X-65.6023 Y31.9131 I0.1766 J-0.3584
G1 X-65.6116 Y31.9071 F60.
X-65.6205 Y31.9007
X-65.6291 Y31.8937
X-65.6372 Y31.8862
X-65.645 Y31.8783
X-65.6523 Y31.87
X-65.659 Y31.8612
X-65.6653 Y31.8521
X-65.6711 Y31.8427
X-65.6763 Y31.8329
X-65.681 Y31.8229
X-65.6851 Y31.8126
X-65.6886 Y31.8022
X-65.6915 Y31.7915
X-65.6938 Y31.7807
X-65.6955 Y31.7697
X-65.6966 Y31.7587
X-65.697 Y31.7477
X-65.6968 Y31.7366
X-65.696 Y31.7256
X-65.6946 Y31.7146
X-65.6926 Y31.7038
X-65.6899 Y31.693
X-65.6867 Y31.6824
X-65.6828 Y31.6721
X-65.6784 Y31.6619
X-65.6734 Y31.6521
X-65.6679 Y31.6425
X-65.6619 Y31.6332
X-65.6553 Y31.6243
X-65.6482 Y31.6158
X-65.6407 Y31.6077
X-65.6327 Y31.6001
X-65.6243 Y31.5929
X-65.6155 Y31.5862
X-65.6064 Y31.58
X-65.5969 Y31.5743
X-65.5871 Y31.5691
X-65.577 Y31.5646
X-65.5667 Y31.5606
X-65.5562 Y31.5571
X-65.5455 Y31.5543
X-65.5347 Y31.5521
X-65.5237 Y31.5505
X-65.5127 Y31.5496
X-65.5016 Y31.5492
X-65.4906 Y31.5495
X-65.4796 Y31.5504
X-65.4686 Y31.5519
X-65.4578 Y31.554
X-65.4471 Y31.5568
X-65.4365 Y31.5601
X-65.4262 Y31.564
X-65.4161 Y31.5685
X-65.4062 Y31.5736
X-65.3967 Y31.5792
X-65.3875 Y31.5854
X-65.3787 Y31.592
X-65.3702 Y31.5992
X-65.3622 Y31.6068
X-65.3546 Y31.6148
X-65.3475 Y31.6233
X-65.3409 Y31.6321
X-65.3347 Y31.6413
X-65.3292 Y31.6509
X-65.3241 Y31.6607
X-65.3196 Y31.6708
X-65.3157 Y31.6812
X-65.3124 Y31.6917
X-65.3097 Y31.7024
X-65.3076 Y31.7133
X-65.3061 Y31.7242
X-65.3052 Y31.7353
X-65.3049 Y31.7463
X-65.3053 Y31.7574
X-65.3063 Y31.7684
X-65.3079 Y31.7793
X-65.3101 Y31.7901
X-65.313 Y31.8008
G2 X-65.1189 Y31.9982 I0.3627 J-0.1625
G3 X-64.8436 Y32.18 I-0.5064 J1.0663
X-65.0736 Y32.4632 I-0.152 J0.1116
X-65.4676 Y32.2462 I0.6345 J-1.6182
G2 X-65.7687 Y32.3976 I0.1477 J0.669
G3 X-66.0962 Y32.4561 I-0.2145 J-0.255
X-66.0265 Y32.097 I0.0984 J-0.1672
G2 X-65.7867 Y31.9209 I-0.9457 J-1.5387
G1 X-65.7819 Y31.8901
X-65.7831 Y31.8589
X-65.7871 Y31.8455
X-65.7905 Y31.8321
X-65.7933 Y31.8184
X-65.7954 Y31.8047
X-65.797 Y31.7908
X-65.7979 Y31.777
X-65.7982 Y31.763
X-65.7979 Y31.7491
X-65.7969 Y31.7353
X-65.7953 Y31.7214
X-65.7931 Y31.7077
X-65.7903 Y31.6941
X-65.7868 Y31.6806
X-65.7828 Y31.6673
X-65.7781 Y31.6542
X-65.7729 Y31.6413
X-65.7671 Y31.6286
X-65.7607 Y31.6162
X-65.7538 Y31.6042
X-65.7463 Y31.5924
X-65.7383 Y31.581
X-65.7298 Y31.57
X-65.7209 Y31.5594
X-65.7114 Y31.5492
X-65.7015 Y31.5394
X-65.6912 Y31.5301
X-65.6804 Y31.5213
X-65.6693 Y31.5129
X-65.6578 Y31.5051
X-65.6459 Y31.4978
X-65.6338 Y31.491
X-65.6213 Y31.4848
X-65.6086 Y31.4792
X-65.5956 Y31.4741
X-65.5825 Y31.4697
X-65.5691 Y31.4658
X-65.5556 Y31.4626
X-65.5419 Y31.4599
X-65.5281 Y31.4579
X-65.5143 Y31.4565
X-65.5004 Y31.4557
X-65.4865 Y31.4556
X-65.4726 Y31.4561
X-65.4587 Y31.4572
X-65.4449 Y31.4589
X-65.4312 Y31.4613
X-65.4176 Y31.4642
X-65.4042 Y31.4678
X-65.3909 Y31.472
X-65.3779 Y31.4768
X-65.365 Y31.4822
X-65.3524 Y31.4881
X-65.3401 Y31.4946
X-65.3282 Y31.5017
X-65.3169 Y31.5138
X-65.3062 Y31.5263
X-65.2959 Y31.5392
X-65.2861 Y31.5525
X-65.2769 Y31.5662
X-65.2681 Y31.5802
X-65.2599 Y31.5945
X-65.2522 Y31.6091
X-65.245 Y31.6239
X-65.2384 Y31.6391
X-65.2324 Y31.6544
X-65.227 Y31.67
X-65.2221 Y31.6858
X-65.2179 Y31.7017
X-65.2142 Y31.7178
X-65.2112 Y31.7341
X-65.2087 Y31.7504
X-65.2069 Y31.7668
X-65.2057 Y31.7832
G2 X-64.8579 Y32.0363 I0.9368 J-0.9215
G1 X-64.7724 Y32.1361
X-64.7648 Y32.1464
X-64.7576 Y32.157
X-64.7509 Y32.168
X-64.7448 Y32.1793
X-64.7392 Y32.1908
X-64.7342 Y32.2027
X-64.7298 Y32.2147
X-64.7259 Y32.2269
X-64.7226 Y32.2393
X-64.7199 Y32.2519
X-64.7179 Y32.2646
X-64.7164 Y32.2773
X-64.7156 Y32.2901
X-64.7153 Y32.3029
X-64.7157 Y32.3158
X-64.7167 Y32.3286
X-64.7183 Y32.3413
X-64.7205 Y32.3539
X-64.7233 Y32.3665
X-64.7268 Y32.3788
X-64.7308 Y32.391
X-64.7354 Y32.403
X-64.7405 Y32.4148
X-64.7462 Y32.4263
X-64.7525 Y32.4375
X-64.7593 Y32.4484
X-64.7666 Y32.4589
X-64.7744 Y32.4691
X-64.7826 Y32.4789
X-64.7914 Y32.4883
X-64.8006 Y32.4973
X-64.8101 Y32.5058
X-64.8201 Y32.5139
X-64.8305 Y32.5214
X-64.8412 Y32.5285
X-64.8523 Y32.535
X-64.8636 Y32.541
X-64.8752 Y32.5465
X-64.8871 Y32.5513
X-64.8992 Y32.5557
X-64.9115 Y32.5594
X-64.9239 Y32.5625
X-65.0316 Y32.563
G3 X-65.467 Y32.3683 I0.196 J-1.0227
G2 X-65.7184 Y32.4827 I0.168 J0.7025
G3 X-65.9057 Y32.563 I-0.3789 J-0.6253
G1 X-66.0445
G3 X-66.2571 Y32.1708 I0.0258 J-0.2677
G1 X-66.1927 Y32.0954
G3 X-65.9164 Y31.8944 I3.8469 J4.9977
G2 X-65.8855 Y31.737 I-1.2078 J-0.3186
G1 X-65.6071 Y31.4122
G3 X-65.4294 Y31.3683 I0.128 J0.1363
G1 X-65.4277 Y31.3708
X-65.4265 Y31.3735
X-65.4258 Y31.3764
X-65.4257 Y31.3794
X-65.4261 Y31.3823
X-65.427 Y31.3851
X-65.4284 Y31.3876
X-65.4303 Y31.3899
X-65.4325 Y31.3918
X-65.435 Y31.3932
X-65.4377 Y31.3941
X-65.4378 Y31.3942
X-65.5907 Y31.4371
X-65.5934 Y31.4376
X-65.5963
X-65.599 Y31.4371
G3 X-65.6071 Y31.4122 I0.0042 J-0.0151 F50.
G1 X-65.5309 Y31.3233 F60.
G3 X-65.4879 Y31.3024 I0.0315 J0.0102
X-65.4882 Y31.3236 I-0.0117 J0.0104
G1 X-65.4935 Y31.3292
X-65.5073 Y31.3438
G3 X-65.5228 Y31.3482 I-0.0114 J-0.0107
X-65.5309 Y31.3233 I0.0042 J-0.0151 F50.
X-65.4792 Y31.3116 I0.0261 J-0.0049 F60.
G1 X-64.8579 Y32.0363
G3 X-64.8549 Y32.0494 I-0.0122 J0.0098
G1 X-64.8585 Y32.0661
X-64.9608 Y32.5375
G2 X-64.9535 Y32.5543 I0.0153 J0.0033
X-64.9238 Y32.563 I0.0318 J-0.0536 F50.
G1 X-64.8066 F60.
G2 X-64.6232 Y32.3103 I-0.0568 J-0.2341
G1 X-64.7724 Y32.1361
G2 X-64.7874 Y32.1314 I-0.0115 J0.0106
X-64.8244 Y32.1925 I0.0107 J0.0483
X-64.6524 Y32.3081 I0.1521 J-0.0406
X-64.6381 Y32.3056 I-0.0199 J-0.1562 F50.
G3 X-64.6232 Y32.3103 I0.0034 J0.0153
G1 X-64.5852 Y32.3545 F60.
X-64.5809 Y32.3635
X-64.5771 Y32.3728
X-64.5738 Y32.3823
X-64.5711 Y32.3919
X-64.569 Y32.4017
X-64.5675 Y32.4116
X-64.5665 Y32.4216
X-64.5661 Y32.4316
X-64.5663 Y32.4416
X-64.5671 Y32.4516
X-64.5684 Y32.4615
X-64.5704 Y32.4714
X-64.5729 Y32.4811
X-64.5759 Y32.4906
X-64.5796 Y32.4999
X-64.5837 Y32.5091
X-64.5884 Y32.5179
X-64.5936 Y32.5265
X-64.5993 Y32.5347
X-64.6055 Y32.5426
X-64.6121 Y32.5501
X-64.6191 Y32.5573
X-64.6265 Y32.564
X-64.8066 Y32.563
G3 X-64.8199 Y32.5547 I0.0005 J-0.0156
X-64.8083 Y32.5106 I0.0296 J-0.0158
X-64.6483 Y32.5423 I0.0634 J0.0997
X-64.6406 Y32.5547 I-0.0966 J0.0679 F50.
G2 X-64.6274 Y32.563 I0.0138 J-0.0074
G1 X-64.584 F60.
G2 X-64.4881 Y32.4653 I-0.0156 J-0.1112
G1 X-64.5852 Y32.3545
G2 X-64.6002 Y32.3498 I-0.0115 J0.0106
X-64.6245 Y32.4173 I0.0092 J0.0415
X-64.5198 Y32.4626 I0.0934 J-0.0723
X-64.5055 Y32.4603 I-0.0113 J-0.1176 F50.
G3 X-64.4905 Y32.465 I0.0034 J0.0153
G1 X-64.4703 Y32.4886 F60.
G3 X-64.4697 Y32.5648 I-0.0478 J0.0384
G1 X-64.4729 Y32.5646
X-64.4759 Y32.5638
X-64.4787 Y32.5625
X-64.4812 Y32.5608
X-64.4833 Y32.5586
X-64.485 Y32.5561
X-64.4861 Y32.5535
X-64.4868 Y32.5507
X-64.4889 Y32.5407
X-64.4916 Y32.5359
X-64.4939 Y32.5308
X-64.4957 Y32.5256
X-64.497 Y32.5202
X-64.4978 Y32.5148
X-64.4982 Y32.5092
X-64.498 Y32.5037
X-64.4973 Y32.4982
X-64.496 Y32.4928
X-64.4945 Y32.4902 F50.
