%
(971-23-P-0088_MOUNT FOR BRACE_1540)
(T1  D=0.154 CR=0. - ZMIN=-0.2175 - FLAT END MILL)
G90 G94 G17 G91.1
G64 P0.001 Q0.001
G20
G53 G0 Z0.
(.3 CIRCLUAR THROUGH HOLE 2)
M9
T1 M6
S22000 M3
G4 P10.
G54
M7
G0 X-63.9874 Y29.2605
G43 Z0.6 H1
G0 Z0.13
G1 Z0.0654 F40.
G18 G3 X-64.0028 Z0.05 I-0.0154 K0.
G1 X-64.0105
G17 G3 X-64.021 Y29.25 I0. J-0.0105
X-63.979 Z0.0327 I0.021 J0.
X-63.994 Y29.2701 Z0.0257 I-0.021 J0.
X-64.006 Y29.2299 Z0.0084 I-0.006 J-0.0201
X-63.9825 Y29.2384 Z0.0014 I0.006 J0.0201
X-64.0175 Y29.2616 Z-0.0159 I-0.0175 J0.0116
X-64.0161 Y29.2365 Z-0.023 I0.0175 J-0.0116
X-63.9839 Y29.2635 Z-0.0402 I0.0161 J0.0135
X-64.0083 Y29.2693 Z-0.0473 I-0.0161 J-0.0135
X-63.9917 Y29.2307 Z-0.0646 I0.0083 J-0.0193
X-63.9791 Y29.2524 Z-0.0716 I-0.0083 J0.0193
X-64.0209 Y29.2476 Z-0.0889 I-0.0209 J-0.0024
X-64.0037 Y29.2293 Z-0.0959 I0.0209 J0.0024
X-63.9963 Y29.2707 Z-0.1132 I0.0037 J0.0207
X-64.0037 Y29.2293 Z-0.1305 I-0.0037 J-0.0207
X-63.9855 Y29.2652 Z-0.1445 I0.0037 J0.0207
X-64.0145 Y29.2348 Z-0.1618 I-0.0145 J-0.0152
X-63.9896 Y29.2318 Z-0.1689 I0.0145 J0.0152
X-64.0104 Y29.2682 Z-0.1861 I-0.0104 J0.0182
X-64.0204 Y29.2452 Z-0.1932 I0.0104 J-0.0182
X-63.9796 Y29.2548 Z-0.2105 I0.0204 J0.0048
X-63.9987 Y29.271 Z-0.2175 I-0.0204 J-0.0048
X-64.0013 Y29.229 I-0.0013 J-0.021
X-63.9987 Y29.271 I0.0013 J0.021
X-64.0098 Y29.2611 I-0.0006 J-0.0105
G1 X-64.0103 Y29.2534
X-64.0105 Y29.2504 Z-0.2172
X-64.0107 Y29.2476 Z-0.2163
X-64.0108 Y29.2449 Z-0.2149
X-64.011 Y29.2426 Z-0.213
X-64.0111 Y29.2407 Z-0.2107
X-64.0112 Y29.2392 Z-0.208
Y29.2384 Z-0.2051
X-64.0113 Y29.2381 Z-0.2021
G0 Z0.4
X-65.4874 Y29.2605
Z0.13
G1 Z0.0654 F40.
G18 G3 X-65.5028 Z0.05 I-0.0154 K0.
G1 X-65.5105
G17 G3 X-65.521 Y29.25 I0. J-0.0105
X-65.479 Z0.0327 I0.021 J0.
X-65.494 Y29.2701 Z0.0257 I-0.021 J0.
X-65.506 Y29.2299 Z0.0084 I-0.006 J-0.0201
X-65.494 Y29.2701 Z-0.0089 I0.006 J0.0201
X-65.5161 Y29.2365 Z-0.023 I-0.006 J-0.0201
X-65.4839 Y29.2635 Z-0.0402 I0.0161 J0.0135
X-65.5083 Y29.2693 Z-0.0473 I-0.0161 J-0.0135
X-65.4917 Y29.2307 Z-0.0646 I0.0083 J-0.0193
X-65.5083 Y29.2693 Z-0.0818 I-0.0083 J0.0193
X-65.5037 Y29.2293 Z-0.0959 I0.0083 J-0.0193
X-65.4963 Y29.2707 Z-0.1132 I0.0037 J0.0207
X-65.5187 Y29.2595 Z-0.1202 I-0.0037 J-0.0207
X-65.4813 Y29.2405 Z-0.1375 I0.0187 J-0.0095
X-65.5187 Y29.2595 Z-0.1548 I-0.0187 J0.0095
X-65.4896 Y29.2318 Z-0.1689 I0.0187 J-0.0095
X-65.5104 Y29.2682 Z-0.1861 I-0.0104 J0.0182
X-65.4896 Y29.2318 Z-0.2034 I0.0104 J-0.0182
X-65.4987 Y29.271 Z-0.2175 I-0.0104 J0.0182
X-65.5013 Y29.229 I-0.0013 J-0.021
X-65.4987 Y29.271 I0.0013 J0.021
X-65.5098 Y29.2611 I-0.0006 J-0.0105
G1 X-65.5103 Y29.2534
X-65.5105 Y29.2504 Z-0.2172
X-65.5107 Y29.2476 Z-0.2163
X-65.5108 Y29.2449 Z-0.2149
X-65.511 Y29.2426 Z-0.213
X-65.5111 Y29.2407 Z-0.2107
X-65.5112 Y29.2392 Z-0.208
Y29.2384 Z-0.2051
X-65.5113 Y29.2381 Z-0.2021
G0 Z0.4
X-67.0126 Y29.2395
Z0.13
G1 Z0.0654 F40.
G18 G2 X-66.9972 Z0.05 I0.0154 K0.
G1 X-66.9895
G17 G3 X-66.979 Y29.25 I0. J0.0105
X-67.021 Z0.0327 I-0.021 J0.
X-67.006 Y29.2299 Z0.0257 I0.021 J0.
X-66.994 Y29.2701 Z0.0084 I0.006 J0.0201
X-67.006 Y29.2299 Z-0.0089 I-0.006 J-0.0201
X-66.9839 Y29.2635 Z-0.023 I0.006 J0.0201
X-67.0161 Y29.2365 Z-0.0402 I-0.0161 J-0.0135
X-66.9917 Y29.2307 Z-0.0473 I0.0161 J0.0135
X-67.0083 Y29.2693 Z-0.0646 I-0.0083 J0.0193
X-66.9917 Y29.2307 Z-0.0818 I0.0083 J-0.0193
X-66.9963 Y29.2707 Z-0.0959 I-0.0083 J0.0193
X-67.0037 Y29.2293 Z-0.1132 I-0.0037 J-0.0207
X-66.9813 Y29.2405 Z-0.1202 I0.0037 J0.0207
X-67.0187 Y29.2595 Z-0.1375 I-0.0187 J0.0095
X-66.9813 Y29.2405 Z-0.1548 I0.0187 J-0.0095
X-67.0187 Y29.2595 Z-0.1721 I-0.0187 J0.0095
X-66.9813 Y29.2405 Z-0.1893 I0.0187 J-0.0095
X-66.9795 Y29.2548 Z-0.1932 I-0.0187 J0.0095
X-67.0205 Y29.2452 Z-0.2105 I-0.0205 J-0.0048
X-67.0013 Y29.229 Z-0.2175 I0.0205 J0.0048
X-66.9987 Y29.271 I0.0013 J0.021
X-67.0013 Y29.229 I-0.0013 J-0.021
X-66.9902 Y29.2389 I0.0006 J0.0105
G1 X-66.9897 Y29.2466
X-66.9895 Y29.2496 Z-0.2172
X-66.9893 Y29.2524 Z-0.2163
X-66.9892 Y29.2551 Z-0.2149
X-66.989 Y29.2574 Z-0.213
X-66.9889 Y29.2593 Z-0.2107
X-66.9888 Y29.2608 Z-0.208
Y29.2616 Z-0.2051
X-66.9887 Y29.2619 Z-0.2021
G0 Z0.4
X-67.9517 Y29.4911
Z0.13
G1 Z0.0654 F40.
G18 G2 X-67.9363 Z0.05 I0.0154 K0.
G1 X-67.9286
G17 G3 X-67.9197 Y29.5 I0. J0.0089
X-67.9553 Z0.0333 I-0.0178 J0.
X-67.94 Y29.4824 Z0.0257 I0.0178 J0.
X-67.935 Y29.5176 Z0.009 I0.0025 J0.0176
X-67.9546 Y29.5049 Z0.0014 I-0.0025 J-0.0176
X-67.9204 Y29.4951 Z-0.0153 I0.0171 J-0.0049
X-67.9546 Y29.5049 Z-0.032 I-0.0171 J0.0049
X-67.9224 Y29.4906 Z-0.0473 I0.0171 J-0.0049
X-67.9526 Y29.5094 Z-0.064 I-0.0151 J0.0094
X-67.9224 Y29.4906 Z-0.0807 I0.0151 J-0.0094
X-67.9526 Y29.5094 Z-0.0974 I-0.0151 J0.0094
X-67.9224 Y29.4906 Z-0.1141 I0.0151 J-0.0094
X-67.9228 Y29.5099 Z-0.1202 I-0.0151 J0.0094
X-67.9522 Y29.4901 Z-0.1369 I-0.0147 J-0.0099
X-67.9297 Y29.484 Z-0.1445 I0.0147 J0.0099
X-67.9453 Y29.5159 Z-0.1613 I-0.0078 J0.016
X-67.9544 Y29.4945 Z-0.1689 I0.0078 J-0.0159
X-67.9206 Y29.5055 Z-0.1856 I0.0169 J0.0055
X-67.9544 Y29.4945 Z-0.2023 I-0.0169 J-0.0055
X-67.9198 Y29.5006 Z-0.2175 I0.0169 J0.0055
X-67.9552 Y29.4994 I-0.0177 J-0.0006
X-67.9198 Y29.5006 I0.0177 J0.0006
X-67.9289 Y29.5092 I-0.0089 J-0.0003
G1 X-67.9366 Y29.5089
X-67.9396 Y29.5088 Z-0.2172
X-67.9425 Y29.5087 Z-0.2163
X-67.9452 Y29.5086 Z-0.2149
X-67.9475 Y29.5085 Z-0.213
X-67.9494 Z-0.2107
X-67.9509 Y29.5084 Z-0.208
X-67.9517 Z-0.2051
X-67.952 Z-0.2021
G0 Z0.4
X-67.0126 Y30.9895
Z0.13
G1 Z0.0654 F40.
G18 G2 X-66.9972 Z0.05 I0.0154 K0.
G1 X-66.9895
G17 G3 X-66.979 Y31. I0. J0.0105
X-67.021 Z0.0327 I-0.021 J0.
X-67.006 Y30.9799 Z0.0257 I0.021 J0.
X-66.994 Y31.0201 Z0.0084 I0.006 J0.0201
X-67.006 Y30.9799 Z-0.0089 I-0.006 J-0.0201
X-66.9839 Y31.0135 Z-0.023 I0.006 J0.0201
X-67.0161 Y30.9865 Z-0.0402 I-0.0161 J-0.0135
X-66.9917 Y30.9807 Z-0.0473 I0.0161 J0.0135
X-67.0083 Y31.0193 Z-0.0646 I-0.0083 J0.0193
X-66.9917 Y30.9807 Z-0.0818 I0.0083 J-0.0193
X-66.9963 Y31.0207 Z-0.0959 I-0.0083 J0.0193
X-67.0037 Y30.9793 Z-0.1132 I-0.0037 J-0.0207
X-66.9813 Y30.9905 Z-0.1202 I0.0037 J0.0207
X-67.0187 Y31.0095 Z-0.1375 I-0.0187 J0.0095
X-67.0145 Y30.9848 Z-0.1445 I0.0187 J-0.0095
X-66.9855 Y31.0152 Z-0.1618 I0.0145 J0.0152
X-67.0145 Y30.9848 Z-0.1791 I-0.0145 J-0.0152
X-66.9795 Y31.0048 Z-0.1932 I0.0145 J0.0152
X-67.0205 Y30.9952 Z-0.2105 I-0.0205 J-0.0048
X-67.0013 Y30.979 Z-0.2175 I0.0205 J0.0048
X-66.9987 Y31.021 I0.0013 J0.021
X-67.0013 Y30.979 I-0.0013 J-0.021
X-66.9902 Y30.9889 I0.0006 J0.0105
G1 X-66.9897 Y30.9966
X-66.9895 Y30.9996 Z-0.2172
X-66.9893 Y31.0024 Z-0.2163
X-66.9892 Y31.0051 Z-0.2149
X-66.989 Y31.0074 Z-0.213
X-66.9889 Y31.0093 Z-0.2107
X-66.9888 Y31.0108 Z-0.208
Y31.0116 Z-0.2051
X-66.9887 Y31.0119 Z-0.2021
G0 Z0.4
X-65.4874 Y31.0105
Z0.13
G1 Z0.0654 F40.
G18 G3 X-65.5028 Z0.05 I-0.0154 K0.
G1 X-65.5105
G17 G3 X-65.521 Y31. I0. J-0.0105
X-65.479 Z0.0327 I0.021 J0.
X-65.494 Y31.0201 Z0.0257 I-0.021 J0.
X-65.506 Y30.9799 Z0.0084 I-0.006 J-0.0201
X-65.4825 Y30.9884 Z0.0014 I0.006 J0.0201
X-65.5175 Y31.0116 Z-0.0159 I-0.0175 J0.0116
X-65.5161 Y30.9865 Z-0.023 I0.0175 J-0.0116
X-65.4839 Y31.0135 Z-0.0402 I0.0161 J0.0135
X-65.5083 Y31.0193 Z-0.0473 I-0.0161 J-0.0135
X-65.4917 Y30.9807 Z-0.0646 I0.0083 J-0.0193
X-65.4791 Y31.0024 Z-0.0716 I-0.0083 J0.0193
X-65.5209 Y30.9976 Z-0.0889 I-0.0209 J-0.0024
X-65.5037 Y30.9793 Z-0.0959 I0.0209 J0.0024
X-65.4963 Y31.0207 Z-0.1132 I0.0037 J0.0207
X-65.5187 Y31.0095 Z-0.1202 I-0.0037 J-0.0207
X-65.4813 Y30.9905 Z-0.1375 I0.0187 J-0.0095
X-65.4855 Y31.0152 Z-0.1445 I-0.0187 J0.0095
X-65.5145 Y30.9848 Z-0.1618 I-0.0145 J-0.0152
X-65.4896 Y30.9818 Z-0.1689 I0.0145 J0.0152
X-65.5104 Y31.0182 Z-0.1861 I-0.0104 J0.0182
X-65.4896 Y30.9818 Z-0.2034 I0.0104 J-0.0182
X-65.4987 Y31.021 Z-0.2175 I-0.0104 J0.0182
X-65.5013 Y30.979 I-0.0013 J-0.021
X-65.4987 Y31.021 I0.0013 J0.021
X-65.5098 Y31.0111 I-0.0006 J-0.0105
G1 X-65.5103 Y31.0034
X-65.5105 Y31.0004 Z-0.2172
X-65.5107 Y30.9976 Z-0.2163
X-65.5108 Y30.9949 Z-0.2149
X-65.511 Y30.9926 Z-0.213
X-65.5111 Y30.9907 Z-0.2107
X-65.5112 Y30.9892 Z-0.208
Y30.9884 Z-0.2051
X-65.5113 Y30.9881 Z-0.2021
G0 Z0.4
X-63.9874 Y31.0105
Z0.13
G1 Z0.0654 F40.
G18 G3 X-64.0028 Z0.05 I-0.0154 K0.
G1 X-64.0105
G17 G3 X-64.021 Y31. I0. J-0.0105
X-63.979 Z0.0327 I0.021 J0.
X-63.994 Y31.0201 Z0.0257 I-0.021 J0.
X-64.006 Y30.9799 Z0.0084 I-0.006 J-0.0201
X-63.9825 Y30.9884 Z0.0014 I0.006 J0.0201
X-64.0175 Y31.0116 Z-0.0159 I-0.0175 J0.0116
X-64.0161 Y30.9865 Z-0.023 I0.0175 J-0.0116
X-63.9839 Y31.0135 Z-0.0402 I0.0161 J0.0135
X-64.0161 Y30.9865 Z-0.0575 I-0.0161 J-0.0135
X-63.9791 Y31.0024 Z-0.0716 I0.0161 J0.0135
X-64.0209 Y30.9976 Z-0.0889 I-0.0209 J-0.0024
X-64.0037 Y30.9793 Z-0.0959 I0.0209 J0.0024
X-63.9963 Y31.0207 Z-0.1132 I0.0037 J0.0207
X-64.0187 Y31.0095 Z-0.1202 I-0.0037 J-0.0207
X-63.9813 Y30.9905 Z-0.1375 I0.0187 J-0.0095
X-64.0187 Y31.0095 Z-0.1548 I-0.0187 J0.0095
X-63.9896 Y30.9818 Z-0.1689 I0.0187 J-0.0095
X-64.0104 Y31.0182 Z-0.1861 I-0.0104 J0.0182
X-64.0204 Y30.9952 Z-0.1932 I0.0104 J-0.0182
X-63.9796 Y31.0048 Z-0.2105 I0.0204 J0.0048
X-63.9987 Y31.021 Z-0.2175 I-0.0204 J-0.0048
X-64.0013 Y30.979 I-0.0013 J-0.021
X-63.9987 Y31.021 I0.0013 J0.021
X-64.0098 Y31.0111 I-0.0006 J-0.0105
G1 X-64.0103 Y31.0034
X-64.0105 Y31.0004 Z-0.2172
X-64.0107 Y30.9976 Z-0.2163
X-64.0108 Y30.9949 Z-0.2149
X-64.011 Y30.9926 Z-0.213
X-64.0111 Y30.9907 Z-0.2107
X-64.0112 Y30.9892 Z-0.208
Y30.9884 Z-0.2051
X-64.0113 Y30.9881 Z-0.2021
G0 Z0.4
X-63.9874 Y32.7605
Z0.13
G1 Z0.0654 F40.
G18 G3 X-64.0028 Z0.05 I-0.0154 K0.
G1 X-64.0105
G17 G3 X-64.021 Y32.75 I0. J-0.0105
X-63.979 Z0.0327 I0.021 J0.
X-63.994 Y32.7701 Z0.0257 I-0.021 J0.
X-64.006 Y32.7299 Z0.0084 I-0.006 J-0.0201
X-63.9825 Y32.7384 Z0.0014 I0.006 J0.0201
X-64.0175 Y32.7616 Z-0.0159 I-0.0175 J0.0116
X-63.9825 Y32.7384 Z-0.0332 I0.0175 J-0.0116
X-64.0083 Y32.7693 Z-0.0473 I-0.0175 J0.0116
X-63.9917 Y32.7307 Z-0.0646 I0.0083 J-0.0193
X-63.9791 Y32.7524 Z-0.0716 I-0.0083 J0.0193
X-64.0209 Y32.7476 Z-0.0889 I-0.0209 J-0.0024
X-64.0037 Y32.7293 Z-0.0959 I0.0209 J0.0024
X-63.9963 Y32.7707 Z-0.1132 I0.0037 J0.0207
X-64.0037 Y32.7293 Z-0.1305 I-0.0037 J-0.0207
X-63.9855 Y32.7652 Z-0.1445 I0.0037 J0.0207
X-64.0145 Y32.7348 Z-0.1618 I-0.0145 J-0.0152
X-63.9855 Y32.7652 Z-0.1791 I0.0145 J0.0152
X-64.0204 Y32.7452 Z-0.1932 I-0.0145 J-0.0152
X-63.9795 Y32.7548 Z-0.2105 I0.0204 J0.0048
X-63.9987 Y32.771 Z-0.2175 I-0.0205 J-0.0048
X-64.0013 Y32.729 I-0.0013 J-0.021
X-63.9987 Y32.771 I0.0013 J0.021
X-64.0098 Y32.7611 I-0.0006 J-0.0105
G1 X-64.0103 Y32.7534
X-64.0105 Y32.7504 Z-0.2172
X-64.0107 Y32.7476 Z-0.2163
X-64.0108 Y32.7449 Z-0.2149
X-64.011 Y32.7426 Z-0.213
X-64.0111 Y32.7407 Z-0.2107
X-64.0112 Y32.7392 Z-0.208
Y32.7384 Z-0.2051
X-64.0113 Y32.7381 Z-0.2021
G0 Z0.4
X-65.4874 Y32.7605
Z0.13
G1 Z0.0654 F40.
G18 G3 X-65.5028 Z0.05 I-0.0154 K0.
G1 X-65.5105
G17 G3 X-65.521 Y32.75 I0. J-0.0105
X-65.479 Z0.0327 I0.021 J0.
X-65.494 Y32.7701 Z0.0257 I-0.021 J0.
X-65.506 Y32.7299 Z0.0084 I-0.006 J-0.0201
X-65.494 Y32.7701 Z-0.0089 I0.006 J0.0201
X-65.5161 Y32.7365 Z-0.023 I-0.006 J-0.0201
X-65.4839 Y32.7635 Z-0.0402 I0.0161 J0.0135
X-65.5083 Y32.7693 Z-0.0473 I-0.0161 J-0.0135
X-65.4917 Y32.7307 Z-0.0646 I0.0083 J-0.0193
X-65.5083 Y32.7693 Z-0.0818 I-0.0083 J0.0193
X-65.5037 Y32.7293 Z-0.0959 I0.0083 J-0.0193
X-65.4963 Y32.7707 Z-0.1132 I0.0037 J0.0207
X-65.5187 Y32.7595 Z-0.1202 I-0.0037 J-0.0207
X-65.4813 Y32.7405 Z-0.1375 I0.0187 J-0.0095
X-65.4855 Y32.7652 Z-0.1445 I-0.0187 J0.0095
X-65.5145 Y32.7348 Z-0.1618 I-0.0145 J-0.0152
X-65.4855 Y32.7652 Z-0.1791 I0.0145 J0.0152
X-65.5205 Y32.7452 Z-0.1932 I-0.0145 J-0.0152
X-65.4795 Y32.7548 Z-0.2105 I0.0205 J0.0048
X-65.4987 Y32.771 Z-0.2175 I-0.0205 J-0.0048
X-65.5013 Y32.729 I-0.0013 J-0.021
X-65.4987 Y32.771 I0.0013 J0.021
X-65.5098 Y32.7611 I-0.0006 J-0.0105
G1 X-65.5103 Y32.7534
X-65.5105 Y32.7504 Z-0.2172
X-65.5107 Y32.7476 Z-0.2163
X-65.5108 Y32.7449 Z-0.2149
X-65.511 Y32.7426 Z-0.213
X-65.5111 Y32.7407 Z-0.2107
X-65.5112 Y32.7392 Z-0.208
Y32.7384 Z-0.2051
X-65.5113 Y32.7381 Z-0.2021
G0 Z0.4
X-67.0126 Y32.7395
Z0.13
G1 Z0.0654 F40.
G18 G2 X-66.9972 Z0.05 I0.0154 K0.
G1 X-66.9895
G17 G3 X-66.979 Y32.75 I0. J0.0105
X-67.021 Z0.0327 I-0.021 J0.
X-67.006 Y32.7299 Z0.0257 I0.021 J0.
X-66.994 Y32.7701 Z0.0084 I0.006 J0.0201
X-67.0175 Y32.7616 Z0.0014 I-0.006 J-0.0201
X-66.9825 Y32.7384 Z-0.0159 I0.0175 J-0.0116
X-66.9839 Y32.7635 Z-0.023 I-0.0175 J0.0116
X-67.0161 Y32.7365 Z-0.0402 I-0.0161 J-0.0135
X-66.9917 Y32.7307 Z-0.0473 I0.0161 J0.0135
X-67.0083 Y32.7693 Z-0.0646 I-0.0083 J0.0193
X-67.0209 Y32.7476 Z-0.0716 I0.0083 J-0.0193
X-66.9791 Y32.7524 Z-0.0889 I0.0209 J0.0024
X-66.9963 Y32.7707 Z-0.0959 I-0.0209 J-0.0024
X-67.0037 Y32.7293 Z-0.1132 I-0.0037 J-0.0207
X-66.9813 Y32.7405 Z-0.1202 I0.0037 J0.0207
X-67.0187 Y32.7595 Z-0.1375 I-0.0187 J0.0095
X-67.0145 Y32.7348 Z-0.1445 I0.0187 J-0.0095
X-66.9855 Y32.7652 Z-0.1618 I0.0145 J0.0152
X-67.0104 Y32.7682 Z-0.1689 I-0.0145 J-0.0152
X-66.9896 Y32.7318 Z-0.1861 I0.0104 J-0.0182
X-67.0104 Y32.7682 Z-0.2034 I-0.0104 J0.0182
X-67.0013 Y32.729 Z-0.2175 I0.0104 J-0.0182
X-66.9987 Y32.771 I0.0013 J0.021
X-67.0013 Y32.729 I-0.0013 J-0.021
X-66.9902 Y32.7389 I0.0006 J0.0105
G1 X-66.9897 Y32.7466
X-66.9895 Y32.7496 Z-0.2172
X-66.9893 Y32.7524 Z-0.2163
X-66.9892 Y32.7551 Z-0.2149
X-66.989 Y32.7574 Z-0.213
X-66.9889 Y32.7593 Z-0.2107
X-66.9888 Y32.7608 Z-0.208
Y32.7616 Z-0.2051
X-66.9887 Y32.7619 Z-0.2021
G0 Z0.6
(SHAPE THROUGH HOLE)
M7
G0 X-66.5328 Y30.5241
Z0.6
Z0.1
G3 X-66.6353 Y30.4971 Z0.0791 I-0.0384 J-0.0622 F50.
X-66.6032 Y30.3961 Z0.0582 I0.0641 J-0.0352
X-66.5039 Y30.4333 Z0.0373 I0.032 J0.0658
X-66.546 Y30.5306 Z0.0164 I-0.0673 J0.0286
X-66.6411 Y30.4836 Z-0.0045 I-0.0252 J-0.0687
X-66.5014 Y30.4402 Z-0.0451 I0.0698 J-0.0217
X-66.6411 Y30.4836 Z-0.0856 I-0.0698 J0.0217
X-66.5822 Y30.3896 Z-0.1078 I0.0698 J-0.0217
X-66.4981 Y30.4619 Z-0.13 I0.011 J0.0723
X-66.6444 I-0.0732 J0.
X-66.4983 Y30.456 I0.0732 J0.
G1 X-66.4981 Y30.4619
X-66.4935 Y30.4679 F60.
X-66.4895 Y30.4743
X-66.486 Y30.481
X-66.4831 Y30.488
X-66.4807 Y30.4952
X-66.479 Y30.5026
X-66.4779 Y30.51
X-66.4774 Y30.5176
X-66.4775 Y30.5251
X-66.4782 Y30.5327
X-66.4796 Y30.5401
X-66.4816 Y30.5474
X-66.4842 Y30.5545
X-66.4873 Y30.5614
X-66.491 Y30.568
X-66.4953 Y30.5742
X-66.5 Y30.5801
X-66.5052 Y30.5856
X-66.5109 Y30.5906
X-66.5169 Y30.5951
X-66.5233 Y30.5991
X-66.5301 Y30.6026
X-66.537 Y30.6055
X-66.5442 Y30.6078
X-66.5516 Y30.6096
X-66.5591 Y30.6107
X-66.5666 Y30.6111
X-66.5742 Y30.611
X-66.582 Y30.6056
X-66.5894 Y30.5997
X-66.5965 Y30.5934
X-66.6032 Y30.5866
X-66.6094 Y30.5794
X-66.6151 Y30.5718
X-66.6204 Y30.5639
X-66.6251 Y30.5557
X-66.6293 Y30.5472
X-66.633 Y30.5384
X-66.6361 Y30.5295
X-66.6387 Y30.5203
X-66.6406 Y30.511
X-66.642 Y30.5016
X-66.6427 Y30.4922
X-66.6429 Y30.4827
X-66.6425 Y30.4732
X-66.6414 Y30.4637
X-66.6398 Y30.4544
X-66.6376 Y30.4451
X-66.6348 Y30.4361
X-66.6315 Y30.4272
X-66.6275 Y30.4185
X-66.6231 Y30.4102
X-66.6181 Y30.4021
X-66.6126 Y30.3943
X-66.6067 Y30.3869
X-66.6003 Y30.3799
X-66.5935 Y30.3733
X-66.5862 Y30.3672
X-66.5786 Y30.3615
G3 X-66.4364 Y30.4624 I-0.0086 J0.1628
G1 X-66.4304 Y30.4689
X-66.425 Y30.4757
X-66.42 Y30.4829
X-66.4156 Y30.4904
X-66.4117 Y30.4983
X-66.4084 Y30.5063
X-66.4056 Y30.5146
X-66.4034 Y30.5231
X-66.4019 Y30.5317
X-66.401 Y30.5404
X-66.4006 Y30.5491
X-66.4009 Y30.5579
X-66.4019 Y30.5665
X-66.4034 Y30.5752
X-66.4055 Y30.5836
X-66.4083 Y30.5919
X-66.4116 Y30.6
X-66.4155 Y30.6078
X-66.4199 Y30.6154
X-66.4248 Y30.6226
X-66.4303 Y30.6294
X-66.4362 Y30.6359
X-66.4425 Y30.6419
X-66.4493 Y30.6474
X-66.4523
X-66.4553 Y30.6468
X-66.4581 Y30.6457
X-66.4606 Y30.6441
X-66.4628 Y30.642
X-66.4645 Y30.6396
X-66.4657 Y30.6368
X-66.4663 Y30.6339
X-66.4664 Y30.631
X-66.4662 Y30.6266
X-66.4581 Y30.4767
Y30.4757 F50.
G3 X-66.4364 Y30.4624 I0.0154 J0.0008
X-66.4967 Y30.6464 I-0.0302 J0.092 F60.
X-66.5237 Y30.6325 I0.0302 J-0.092
G1 X-66.5712 Y30.6123
X-66.5741 Y30.6098
G3 X-66.5695 Y30.5843 I0.0104 J-0.0113
G1 X-66.5667 Y30.5831 Z-0.1297
X-66.5641 Y30.582 Z-0.1288
X-66.5616 Y30.581 Z-0.1274
X-66.5594 Y30.5801 Z-0.1255
X-66.5577 Y30.5794 Z-0.1232
X-66.5563 Y30.5789 Z-0.1205
X-66.5555 Y30.5785 Z-0.1176
X-66.5553 Y30.5784 Z-0.1146
G0 Z0.4
X-66.4392 Y31.5068
Z0.1
G3 X-66.5417 Y31.4798 Z0.0791 I-0.0384 J-0.0622 F50.
X-66.5096 Y31.3787 Z0.0582 I0.0641 J-0.0352
X-66.4103 Y31.4159 Z0.0373 I0.032 J0.0658
X-66.4524 Y31.5132 Z0.0164 I-0.0673 J0.0286
X-66.5028 Y31.3758 Z-0.0242 I-0.0252 J-0.0687
X-66.4059 Y31.4299 Z-0.0464 I0.0252 J0.0687
X-66.4666 Y31.5168 Z-0.0673 I-0.0717 J0.0146
X-66.5504 Y31.4519 Z-0.0882 I-0.011 J-0.0723
X-66.4813 Y31.3715 Z-0.1091 I0.0728 J-0.0073
X-66.4045 Y31.4445 Z-0.13 I0.0037 J0.0731
X-66.5508 I-0.0731 J0.
X-66.4047 Y31.4386 I0.0731 J0.
G1 X-66.4045 Y31.4445
G3 X-66.388 Y31.4997 I-0.0411 J0.0423 F60.
G1 X-66.4254 Y31.5381
X-66.4422 Y31.558
X-66.449 Y31.5628
X-66.4561 Y31.5671
X-66.4635 Y31.5709
X-66.4712 Y31.5741
X-66.4791 Y31.5768
X-66.4871 Y31.579
X-66.4953 Y31.5805
X-66.5035 Y31.5815
X-66.5119 Y31.5819
X-66.5202 Y31.5816
X-66.5285 Y31.5808
X-66.5367 Y31.5795
X-66.5448 Y31.5775
X-66.5527 Y31.5749
X-66.5604 Y31.5718
X-66.5679 Y31.5682
X-66.5751 Y31.564
X-66.582 Y31.5594
X-66.5886 Y31.5542
X-66.5947 Y31.5486
X-66.6005 Y31.5426
X-66.6058 Y31.5362
X-66.6106 Y31.5294
X-66.615 Y31.5223
X-66.6188 Y31.5149
X-66.6221 Y31.5073
X-66.6248 Y31.4994
X-66.627 Y31.4914
X-66.6286 Y31.4832
X-66.6296 Y31.475
X-66.6282 Y31.4724
X-66.6264 Y31.4702
X-66.6241 Y31.4683
X-66.6216 Y31.467
X-66.6188 Y31.4661
X-66.6158 Y31.4658
X-66.6129 Y31.466
X-66.61 Y31.4669
X-66.6037 Y31.4695
X-66.4507 Y31.5332
X-66.4484 Y31.5342 F50.
G3 X-66.4422 Y31.558 I-0.0059 J0.0142
G1 X-66.4649 Y31.5849 F60.
X-66.4776 Y31.5971
X-66.5174 Y31.6251
G3 X-66.6153 Y31.4471 I-0.0307 J-0.0991
X-66.4308 Y31.3554 I0.1449 J0.06
X-66.3876 Y31.5 I-0.0334 J0.0887
G1 X-66.3899 Y31.5018
X-66.3924 Y31.5031
X-66.3952 Y31.5039
X-66.398 Y31.5043
X-66.4009 Y31.5041
X-66.4037 Y31.5033
X-66.4063 Y31.5021
X-66.4086 Y31.5005
X-66.4106 Y31.4984
X-66.4121 Y31.4961
X-66.4132 Y31.4935
X-66.4142 Y31.4906 Z-0.1297
X-66.4151 Y31.4879 Z-0.1288
X-66.416 Y31.4854 Z-0.1274
X-66.4167 Y31.4832 Z-0.1255
X-66.4173 Y31.4814 Z-0.1232
X-66.4178 Y31.48 Z-0.1205
X-66.4181 Y31.4792 Z-0.1176
X-66.4182 Y31.4789 Z-0.1146
G0 Z0.4
X-65.4093 Y30.0562
Z0.1
G3 X-65.5118 Y30.0292 Z0.0791 I-0.0384 J-0.0622 F50.
X-65.4797 Y29.9282 Z0.0582 I0.0641 J-0.0352
X-65.3804 Y29.9654 Z0.0373 I0.032 J0.0658
X-65.4225 Y30.0627 Z0.0164 I-0.0673 J0.0286
X-65.4729 Y29.9253 Z-0.0242 I-0.0252 J-0.0687
X-65.376 Y29.9794 Z-0.0464 I0.0252 J0.0687
X-65.5194 Y30.0086 Z-0.0869 I-0.0717 J0.0146
X-65.4551 Y29.9212 Z-0.1084 I0.0717 J-0.0146
X-65.3746 Y29.994 Z-0.13 I0.0073 J0.0728
X-65.5209 I-0.0732 J0.
X-65.3748 Y29.988 I0.0731 J0.
G1 X-65.3746 Y29.994
G3 X-65.3671 Y30.039 I-0.0122 J0.0252 F60.
G1 X-65.3707 Y30.0408
X-65.4009 Y30.0784
X-65.4038 Y30.0876
G3 X-65.5924 Y29.9567 I-0.0869 J-0.0761
X-65.5403 Y29.871 I0.0715 J-0.0152
G1 X-65.4945 Y29.8895
X-65.4547 Y29.8688
G3 X-65.2829 Y29.993 I0.0405 J0.125
G1 X-65.3073 Y30.0065
X-65.3541 Y30.0327
X-65.3671 Y30.039
G3 X-65.3824 Y30.0374 I-0.0062 J-0.0141
X-65.3803 Y29.9933 I0.0156 J-0.0213
X-65.314 Y29.9868 I0.0401 J0.0678
X-65.3006 Y29.993 I-0.0261 J0.0743 F50.
G2 X-65.2852 I0.0077 J-0.0133
G1 X-65.2658 Y29.981 F60.
G2 X-65.3338 Y29.7939 I-0.0959 J-0.071
G3 X-65.4547 Y29.8688 I-0.6449 J-0.9063
G2 X-65.4461 Y29.8978 I0.0071 J0.0137
G3 X-65.4429 Y29.9284 I0.0016 J0.0153
X-65.4519 Y29.9267 I-0.0016 J-0.0153
G1 X-65.5112 Y29.8944
X-65.5139 Y29.8926
X-65.5161 Y29.8902
G2 X-65.5403 Y29.871 I-0.0496 J0.0377 F50.
G1 X-65.5414 Y29.8706 F60.
X-65.5612 Y29.8595
G2 X-65.6891 Y30.0087 I-0.0154 J0.1163
G3 X-65.5946 Y30.1106 I-0.0295 J0.1221
G1 X-65.5933 Y30.1192
X-65.5913 Y30.1277
X-65.5888 Y30.136
X-65.5857 Y30.1441
X-65.582 Y30.152
X-65.5778 Y30.1596
X-65.573 Y30.1669
X-65.5678 Y30.1738
X-65.562 Y30.1803
X-65.5559 Y30.1864
X-65.5493 Y30.1921
X-65.5423 Y30.1973
X-65.5349 Y30.2019
X-65.5273 Y30.2061
X-65.5194 Y30.2097
X-65.5112 Y30.2127
X-65.5029 Y30.2151
X-65.4944 Y30.2169
X-65.4857 Y30.2182
X-65.4771 Y30.2188
X-65.4684
X-65.4597 Y30.2181
X-65.4511 Y30.2169
X-65.4426 Y30.215
X-65.4343 Y30.2126
X-65.4261 Y30.2096
X-65.4182 Y30.206
X-65.4106 Y30.2018
X-65.4032 Y30.1972
X-65.4044 Y30.1344
X-65.4038 Y30.0876
G2 X-65.4118 Y30.0744 I-0.0154 J0.0004
X-65.4509 Y30.0905 I-0.013 J0.0238
X-65.4249 Y30.1742 I0.0755 J0.0224
X-65.4125 Y30.1824 I0.0495 J-0.0613 F50.
G3 X-65.4044 Y30.1954 I-0.0073 J0.0136
G1 Y30.2171 F60.
X-65.4074 Y30.2251
X-65.411 Y30.2327
X-65.4151 Y30.2401
X-65.4198 Y30.2472
X-65.4249 Y30.254
X-65.4305 Y30.2603
X-65.4366 Y30.2662
X-65.4431 Y30.2716
X-65.45 Y30.2766
X-65.4572 Y30.281
X-65.4648 Y30.2849
X-65.4726 Y30.2882
X-65.4806 Y30.2909
X-65.4888 Y30.2931
X-65.4971 Y30.2946
X-65.5055 Y30.2955
X-65.514 Y30.2958
X-65.5224 Y30.2955
X-65.5309 Y30.2945
X-65.5392 Y30.293
X-65.5474 Y30.2908
X-65.5554 Y30.2881
X-65.5632 Y30.2847
X-65.5707 Y30.2808
X-65.5779 Y30.2764
X-65.5848 Y30.2714
X-65.5912 Y30.266
X-65.5973 Y30.2601
X-65.5968 Y30.111
G3 X-65.5935 Y30.1014 I0.0154 J0.
G2 Y30.0823 I-0.0121 J-0.0096
G1 X-65.6469 Y30.0212
G2 X-65.6586 Y30.0159 I-0.0116 J0.0101
G3 X-65.6887 Y30.0086 I-0.0007 J-0.0623 F50.
G1 X-65.714 Y29.994 F60.
G3 X-65.6658 Y29.7943 I0.0876 J-0.0845
G2 X-65.5612 Y29.8595 I0.3689 J-0.4748
G3 X-65.5537 Y29.873 I-0.008 J0.0132
X-65.5785 Y29.8981 I-0.0256 J-0.0005
X-65.6596 Y29.8247 I-0.0025 J-0.0787
X-65.6592 Y29.8099 I0.0786 J-0.0052 F50.
G2 X-65.6652 Y29.7957 I-0.0153 J-0.0019
G1 X-65.6818 Y29.7841 F60.
X-65.6845 Y29.7821
G2 X-65.8314 Y29.9126 I-0.0322 J0.1118
X-65.7141 Y29.9942 I0.7914 J-1.0138
G1 X-65.7116 Y29.9952
X-65.7089 Y29.9958
X-65.7062 Y29.9959
X-65.7035 Y29.9955
X-65.701 Y29.9947
X-65.6986 Y29.9935
G2 X-65.6956 Y29.9273 I-0.0212 J-0.0342
X-65.8021 Y29.9087 I-0.0712 J0.0942
X-65.8159 Y29.914 I0.0353 J0.1127 F50.
G3 X-65.8312 Y29.9126 I-0.0064 J-0.014
G1 X-65.8471 Y29.9004 F60.
X-65.8532 Y29.8957
X-65.8582 Y29.8888
X-65.8627 Y29.8816
X-65.8667 Y29.8741
X-65.8701 Y29.8664
X-65.873 Y29.8584
X-65.8753 Y29.8502
X-65.877 Y29.8419
X-65.8781 Y29.8334
X-65.8786 Y29.8249
Y29.8165
X-65.8779 Y29.808
X-65.8766 Y29.7996
X-65.8747 Y29.7913
X-65.8723 Y29.7832
X-65.8692 Y29.7752
X-65.8656 Y29.7675
X-65.8615 Y29.7601
X-65.8569 Y29.753
X-65.8517 Y29.7462
X-65.8461 Y29.7398
X-65.8401 Y29.7338
X-65.8336 Y29.7283
X-65.8268 Y29.7232
X-65.8196 Y29.7187
X-65.8122 Y29.7146
X-65.8044 Y29.7111
X-65.7965 Y29.7082
X-65.7883 Y29.7058
G3 X-65.6845 Y29.7821 I-1.5787 J2.2569
X-65.6925 Y29.8094 I-0.0097 J0.012
X-65.7344 Y29.7957 I-0.0056 J-0.0533
X-65.7758 Y29.734 I0.1063 J-0.1162
X-65.7812 Y29.716 I0.1477 J-0.0545 F50.
G2 X-65.7881 Y29.7065 I-0.015 J0.0036
G1 X-65.8149 Y29.6913 F60.
G2 X-65.963 Y29.8341 I-0.0283 J0.1188
G3 X-65.8531 Y29.8956 I-0.1448 J0.3882
G1 X-65.8508 Y29.8969
X-65.8483 Y29.8979
X-65.8457 Y29.8985
X-65.8431
X-65.8404 Y29.8982
X-65.8379 Y29.8973
G2 X-65.8252 Y29.8669 I-0.0097 J-0.0219
X-65.9336 Y29.8242 I-0.0736 J0.0279
X-65.9462 Y29.8319 I0.0348 J0.0706 F50.
G3 X-65.9615 Y29.8338 I-0.0093 J-0.0123
G1 X-65.9849 Y29.8231 F60.
G3 X-65.9431 Y29.6302 I0.0841 J-0.0828
X-65.8149 Y29.6913 I-0.7863 J1.8154
X-65.8076 Y29.7048 I-0.0081 J0.0131
X-65.8695 Y29.7418 I-0.0427 J-0.0011
X-65.9325 Y29.6584 I0.053 J-0.1055
X-65.9343 Y29.6437 I0.116 J-0.0221 F50.
G2 X-65.9428 Y29.6309 I-0.0154 J0.001
G1 X-65.9627 Y29.6218 F60.
X-65.9897 Y29.6201
G2 X-66.0222 Y29.6249 I-0.0077 J0.0605
G1 X-66.0392 Y29.6349
X-66.0504 Y29.6422
X-66.0631 Y29.6533
X-66.0667 Y29.6574
G2 X-65.9849 Y29.8231 I0.0983 J0.0545
X-65.9643 Y29.8041 I0.0059 J-0.0142
G1 X-66.016 Y29.6475
X-66.0173 Y29.6436 F50.
G2 X-66.0392 Y29.6349 I-0.0146 J0.0048
G1 X-66.0563 Y29.6449 F60.
X-66.0667 Y29.6574
G2 X-66.0687 Y29.6727 I0.0122 J0.0094
X-66.0578 Y29.678 I0.0084 J-0.0034
G1 X-66.0564 Y29.6775
G2 X-66.0315 Y29.6531 I-0.0123 J-0.0374
X-66.0293 Y29.6386 I-0.0372 J-0.013 F50.
G3 X-66.0222 Y29.6249 I0.0154 J-0.0006
G1 X-66.0131 Y29.6197 F60.
X-66.0095 Y29.6189
X-65.9897 Y29.6201
G3 X-65.9779 Y29.6433 I-0.0015 J0.0153
G1 X-65.9794 Y29.6459 Z-0.1297
X-65.9809 Y29.6484 Z-0.1288
X-65.9823 Y29.6507 Z-0.1274
X-65.9834 Y29.6527 Z-0.1255
X-65.9844 Y29.6543 Z-0.1232
X-65.9851 Y29.6556 Z-0.1205
X-65.9856 Y29.6563 Z-0.1176
X-65.9857 Y29.6566 Z-0.1146
G0 Z0.4
X-65.3597 Y29.8331
Z-0.0992
G1 Z-0.1146 F50.
X-65.3596 Y29.8328 Z-0.1176
X-65.3592 Y29.832 Z-0.1205
X-65.3586 Y29.8307 Z-0.1232
X-65.3578 Y29.829 Z-0.1255
X-65.3569 Y29.8269 Z-0.1274
X-65.3558 Y29.8244 Z-0.1288
X-65.3546 Y29.8218 Z-0.1297
X-65.3534 Y29.8191 Z-0.13
G3 X-65.334 Y29.7949 I0.0568 J0.0257
G1 X-65.313 Y29.7803 F60.
G3 X-65.1583 Y29.9053 I0.0374 J0.1119
X-65.2658 Y29.981 I-0.8767 J-1.1301
X-65.2868 Y29.9753 I-0.0076 J-0.0134
X-65.2861 Y29.9582 I0.014 J-0.008
X-65.1891 Y29.9066 I0.0976 J0.0665
X-65.1704 Y29.908 I0.0006 J0.1181 F50.
G2 X-65.1589 Y29.9052 I0.0024 J-0.0152
G1 X-65.1528 Y29.9004 F60.
X-65.1364 Y29.8871
G2 X-65.2082 Y29.7006 I-0.0985 J-0.0692
G1 X-65.313 Y29.7803
X-65.315 Y29.7821
X-65.3166 Y29.7842
X-65.3179 Y29.7866
X-65.3187 Y29.7891
X-65.3191 Y29.7918
Y29.7944
G2 X-65.2839 Y29.8138 I0.0245 J-0.003
X-65.2184 Y29.7283 I-0.0507 J-0.1067
X-65.2166 Y29.7136 I-0.1162 J-0.0211 F50.
G3 X-65.2082 Y29.7007 I0.0154 J0.0008
G1 X-65.1759 Y29.6856 F60.
G3 X-65.0291 Y29.8309 I0.0243 J0.1222
G1 X-65.0809 Y29.8536
X-65.12 Y29.8738
X-65.1364 Y29.8871
G3 X-65.1517 Y29.889 I-0.0093 J-0.0123
X-65.1639 Y29.8554 I0.0094 J-0.0224
X-65.059 Y29.8209 I0.07 J0.036
X-65.0464 Y29.8286 I-0.0349 J0.0706 F50.
G2 X-65.0311 Y29.8306 I0.0093 J-0.0123
G1 X-65.0084 Y29.8201 F60.
X-65.0024 Y29.8141
X-64.997 Y29.8077
X-64.992 Y29.8008
X-64.9875 Y29.7937
X-64.9835 Y29.7862
X-64.9801 Y29.7785
X-64.9773 Y29.7705
X-64.9751 Y29.7624
X-64.9734 Y29.7541
X-64.9724 Y29.7458
X-64.972 Y29.7373
X-64.9722 Y29.7289
X-64.973 Y29.7206
X-64.9744 Y29.7123
X-64.9765 Y29.7041
X-64.9791 Y29.6961
X-64.9823 Y29.6884
X-64.986 Y29.6808
X-64.9903 Y29.6736
X-64.9951 Y29.6667
X-65.0004 Y29.6602
X-65.0061 Y29.6541
X-65.0123 Y29.6485
X-65.0188 Y29.6433
X-65.0257 Y29.6386
X-65.033 Y29.6344
X-65.0405 Y29.6307
X-65.0482 Y29.6277
G2 X-65.1759 Y29.6857 I1.2055 J2.8211
G1 X-65.1782 Y29.6871
X-65.1802 Y29.6889
X-65.1818 Y29.691
X-65.1831 Y29.6933
X-65.1839 Y29.6959
X-65.1843 Y29.6985
G2 X-65.1264 Y29.7383 I0.0411 J0.0022
X-65.0592 Y29.655 I-0.0484 J-0.1078
X-65.057 Y29.6404 I-0.1156 J-0.0244 F50.
G3 X-65.0483 Y29.6277 I0.0153 J0.0013
G1 X-65.0295 Y29.6197 F60.
X-65.0264 Y29.6191
X-64.9878 Y29.6211
G3 X-65.0085 Y29.8156 I-0.0237 J0.0958
G1 X-65.0104 Y29.8169
X-65.0126 Y29.8178
X-65.0149 Y29.8183
X-65.0174
X-65.0199 Y29.8178
X-65.0223 Y29.8168
X-65.0246 Y29.8153
X-65.0265 Y29.8133
X-65.0281 Y29.8109
X-65.0292 Y29.8082
X-65.0297 Y29.8052
X-65.0296 Y29.8022 Z-0.1297
X-65.0294 Y29.7994 Z-0.1288
X-65.0293 Y29.7967 Z-0.1274
X-65.0292 Y29.7944 Z-0.1255
X-65.0291 Y29.7925 Z-0.1232
Y29.791 Z-0.1205
X-65.029 Y29.7902 Z-0.1176
Y29.7899 Z-0.1146
G0 Z0.4
X-65.421 Y30.1742
Z-0.0992
G1 Z-0.1146 F50.
X-65.4208 Y30.1745 Z-0.1176
X-65.4204 Y30.1752 Z-0.1205
X-65.4197 Y30.1764 Z-0.1232
X-65.4187 Y30.1781 Z-0.1255
X-65.4175 Y30.1801 Z-0.1274
X-65.4161 Y30.1824 Z-0.1288
X-65.4147 Y30.1849 Z-0.1297
X-65.4131 Y30.1874 Z-0.13
G3 X-65.4044 Y30.2171 I-0.0536 J0.0318
G1 X-65.4045 Y30.2747 F60.
X-65.4112 Y30.2981
G3 X-65.4994 Y30.3698 I-0.1028 J-0.0364
X-65.506 Y30.3432 I0.0035 J-0.015
X-65.4291 Y30.2793 I0.1277 J0.0755
X-65.4112 Y30.2981 I0.003 J0.0151 F50.
G1 X-65.4133 Y30.3054 F60.
X-65.416 Y30.3125
X-65.4192 Y30.3193
X-65.423 Y30.3259
X-65.4273 Y30.3321
X-65.4321 Y30.338
X-65.4374 Y30.3435
X-65.443 Y30.3485
X-65.4491 Y30.353
X-65.4555 Y30.3571
X-65.4622 Y30.3606
X-65.4692 Y30.3636
X-65.4764 Y30.366
X-65.4838 Y30.3678
X-65.4912 Y30.369
X-65.4988 Y30.3696
X-65.5064 Y30.3695
X-65.5139 Y30.3689
X-65.5214 Y30.3677
X-65.5287 Y30.3658
X-65.5359 Y30.3634
X-65.5429 Y30.3604
X-65.5496 Y30.3569
X-65.556 Y30.3528
X-65.562 Y30.3482
X-65.5677 Y30.3432
X-65.5729 Y30.3377
X-65.5777 Y30.3318
X-65.5819 Y30.3256
X-65.5857 Y30.319
X-65.5889 Y30.3121
X-65.5916 Y30.305
X-65.5936 Y30.2977
X-65.5951 Y30.2903
X-65.596 Y30.2828
X-65.5962 Y30.2752
X-65.5959 Y30.2676
X-65.5949 Y30.2601
G0 X-65.597 Y30.2598 Z0.4
X-65.4093 Y32.0683
Z0.1
G3 X-65.5118 Y32.0413 Z0.0791 I-0.0384 J-0.0622 F50.
X-65.4797 Y31.9402 Z0.0582 I0.0641 J-0.0352
X-65.3804 Y31.9774 Z0.0373 I0.032 J0.0658
X-65.4225 Y32.0747 Z0.0164 I-0.0673 J0.0286
X-65.5176 Y32.0277 Z-0.0045 I-0.0252 J-0.0687
X-65.4659 Y31.9352 Z-0.0255 I0.0698 J-0.0217
X-65.376 Y31.9914 Z-0.0464 I0.0182 J0.0709
X-65.5194 Y32.0206 Z-0.0869 I-0.0717 J0.0146
X-65.4551 Y31.9332 Z-0.1084 I0.0717 J-0.0146
X-65.3746 Y32.006 Z-0.13 I0.0073 J0.0728
X-65.5209 I-0.0732 J0.
X-65.3748 Y32.0001 I0.0731 J0.
G1 X-65.3746 Y32.006
G3 X-65.4241 Y32.1484 I-0.0631 J0.0579 F60.
G1 X-65.4477 Y32.1348
X-65.4945 Y32.1105
X-65.4967 Y32.1113
X-65.5055 Y32.1091
X-65.5141 Y32.1064
X-65.5225 Y32.103
X-65.5306 Y32.0991
X-65.5385 Y32.0946
X-65.5461 Y32.0896
X-65.5532 Y32.0841
X-65.56 Y32.0782
X-65.5664 Y32.0717
X-65.5723 Y32.0649
X-65.5778 Y32.0577
X-65.5827 Y32.0501
X-65.5871 Y32.0422
X-65.591 Y32.034
X-65.5943 Y32.0256
X-65.597 Y32.0169
X-65.5991 Y32.0081
X-65.6006 Y31.9992
X-65.6015 Y31.9902
X-65.6018 Y31.9812
X-65.6015 Y31.9721
X-65.6005 Y31.9631
X-65.599 Y31.9542
X-65.5968 Y31.9454
X-65.5941 Y31.9368
X-65.5907 Y31.9284
X-65.5868 Y31.9202
X-65.5824 Y31.9123
X-65.5774 Y31.9048
X-65.5719 Y31.8976
X-65.566 Y31.8908
X-65.5595 Y31.8844
X-65.5527 Y31.8784
X-65.5455 Y31.873
X-65.5379 Y31.868
X-65.53 Y31.8636
X-65.5219 Y31.8597
X-65.5134 Y31.8564
X-65.5048 Y31.8537
X-65.496 Y31.8515
X-65.4871 Y31.85
X-65.4781 Y31.8491
X-65.4691 Y31.8488
X-65.46 Y31.8491
X-65.451 Y31.85
X-65.4421 Y31.8516
X-65.4333 Y31.8537
X-65.4247 Y31.8564
X-65.4163 Y31.8597
X-65.4082 Y31.8527
X-65.4054 Y31.8562
X-65.4044 Y31.8607
G2 X-65.3229 Y31.9848 I0.0971 J0.0251
G3 X-65.3405 Y32.2022 I-0.0818 J0.1028
G2 X-65.4241 Y32.1484 I-0.2321 J0.2689
G3 X-65.4313 Y32.1348 I0.0082 J-0.013
X-65.3832 Y32.1099 I0.0311 J0.0011
X-65.3478 Y32.1705 I-0.0431 J0.0659
X-65.3482 Y32.1852 I-0.0786 J0.0054 F50.
G2 X-65.3421 Y32.1994 I0.0153 J0.0018
G1 X-65.3248 Y32.2115 F60.
G2 X-65.1908 Y32.0711 I0.0236 J-0.1116
X-65.3229 Y31.9848 I-0.7229 J0.9613
X-65.3304 Y31.9828 I-0.0075 J0.0134
X-65.3424 Y32.0079 I0. J0.0154
G3 X-65.3663 Y32.0273 I-0.012 J0.0097
X-65.3687 Y32.0231 I0.012 J-0.0097
G1 X-65.4142 Y31.9037
X-65.4149 Y31.901
X-65.4152 Y31.8983
X-65.4149 Y31.8955
X-65.4142 Y31.8929
X-65.413 Y31.8904
G2 X-65.4044 Y31.8607 I-0.0536 J-0.0318 F50.
G1 Y31.8398 F60.
G2 X-65.5965 Y31.8147 I-0.1038 J0.0463
G3 X-65.6394 Y31.9601 I-0.1309 J0.0404
G2 X-65.6016 Y32.1653 I0.0995 J0.0878
G1 X-65.5882 Y32.1556
X-65.5414 Y32.129
X-65.5291 Y32.1242
G2 X-65.5211 Y32.1039 I-0.0062 J-0.0141
X-65.541 Y32.095 I-0.0148 J0.0065
X-65.5874 Y32.1353 I0.0244 J0.0749
X-65.5935 Y32.1531 I0.0708 J0.0345 F50.
G3 X-65.6002 Y32.1627 I-0.015 J-0.0033
G1 X-65.6184 Y32.1735 F60.
G3 X-65.7558 Y32.0329 I-0.0247 J-0.1133
X-65.6394 Y31.9601 I2.0839 J3.2036
X-65.624 Y31.9599 I0.0078 J0.0133
X-65.6225 Y32.0283 I-0.0195 J0.0346
X-65.727 Y32.0384 I-0.0625 J-0.1002
X-65.7404 Y32.0323 I0.042 J-0.1104 F50.
G2 X-65.7558 Y32.0329 I-0.0072 J0.0136
G1 X-65.7754 Y32.0461 F60.
X-65.7807 Y32.0498
G2 X-65.7201 Y32.246 I0.0932 J0.0787
G3 X-65.6184 Y32.1735 I0.5239 J0.628
G2 X-65.6113 Y32.1598 I-0.0083 J-0.013
X-65.6321 Y32.1389 I-0.022 J0.001
X-65.7152 Y32.2153 I-0.0044 J0.0786
X-65.7143 Y32.2301 I0.0787 J0.0022 F50.
G3 X-65.7197 Y32.2445 I-0.0152 J0.0025
G1 X-65.7286 Y32.2512 F60.
X-65.7372 Y32.2577
X-65.7451 Y32.2602
X-65.7532 Y32.2622
X-65.7615 Y32.2636
X-65.7698 Y32.2645
X-65.7781 Y32.2647
X-65.7865 Y32.2644
X-65.7948 Y32.2634
X-65.803 Y32.2619
X-65.8111 Y32.2597
X-65.819 Y32.257
X-65.8267 Y32.2538
X-65.8341 Y32.25
X-65.8413 Y32.2457
X-65.8481 Y32.2409
X-65.8546 Y32.2356
X-65.8607 Y32.2299
X-65.8663 Y32.2237
X-65.8715 Y32.2172
X-65.8763 Y32.2103
X-65.8805 Y32.2031
X-65.8842 Y32.1956
X-65.8874 Y32.1879
X-65.89 Y32.18
X-65.892 Y32.1719
X-65.8934 Y32.1636
X-65.8943 Y32.1553
X-65.8946 Y32.147
X-65.8942 Y32.1386
X-65.8933 Y32.1303
G2 X-65.7807 Y32.0498 I-1.4513 J-2.1478
G3 X-65.7653 Y32.0489 I0.0084 J0.0129
X-65.7575 Y32.0607 I-0.0064 J0.0127
X-65.8634 Y32.1372 I-0.0787 J0.0026
X-65.8767 Y32.1308 I0.0272 J-0.0739 F50.
G2 X-65.8921 Y32.1305 I-0.0079 J0.0132
G1 X-65.9108 Y32.1417 F60.
G2 X-65.8585 Y32.3309 I0.0848 J0.0784
G1 X-65.8222 Y32.3129
X-65.7754 Y32.2863
X-65.7372 Y32.2577
G2 X-65.7316 Y32.2433 I-0.0097 J-0.012
X-65.7849 Y32.2157 I-0.0367 J0.0057
X-65.8489 Y32.3029 I0.0527 J0.1057
X-65.8503 Y32.3176 I0.1166 J0.0185 F50.
G3 X-65.8584 Y32.3307 I-0.0154 J-0.0005
G1 X-65.8642 Y32.3335 F60.
X-65.8871 Y32.3439
X-65.8955 Y32.345
X-65.904 Y32.3455
X-65.9125
X-65.921 Y32.3448
X-65.9294 Y32.3435
X-65.9377 Y32.3417
X-65.9458 Y32.3393
X-65.9538 Y32.3363
X-65.9615 Y32.3328
X-65.969 Y32.3287
X-65.9762 Y32.3241
X-65.983 Y32.319
X-65.9894 Y32.3135
X-65.9955 Y32.3075
X-66.0011 Y32.3011
X-66.0062 Y32.2943
X-66.0109 Y32.2872
X-66.0151 Y32.2798
X-66.0187 Y32.2721
X-66.0218 Y32.2642
X-66.0243 Y32.2561
X-66.0262 Y32.2478
X-66.0276 Y32.2394
X-66.0283 Y32.2309
X-66.0285 Y32.2224
X-66.0281 Y32.2139
X-66.027 Y32.2055
X-66.0254 Y32.1971
X-66.0226 Y32.1959
X-66.0197 Y32.1952
X-66.0167 Y32.1951
G3 X-66.0059 Y32.1994 I0. J0.0154
G1 X-65.9983 Y32.2069
X-65.8842 Y32.318
X-65.8831 Y32.319 F50.
G3 X-65.8871 Y32.3439 I-0.0107 J0.011
G1 X-65.9159 Y32.3569 F60.
X-65.9521 Y32.3734
X-65.9627 Y32.3782
X-65.9809 Y32.3793
G3 X-66.0756 Y32.3298 I0.0005 J-0.1162
G1 X-66.076 Y32.3269
X-66.0759 Y32.3241
X-66.0753 Y32.3213
X-66.0742 Y32.3186
X-66.0726 Y32.3163
X-66.0706 Y32.3142
X-66.0683 Y32.3126
X-66.0657 Y32.3114
X-66.063 Y32.3107
X-66.0602 Y32.3105
X-66.0574 Y32.3108
G3 X-66.0536 Y32.3121 I-0.003 J0.0151
G1 X-66.0448 Y32.3132
X-66.0361 Y32.315
X-66.0275 Y32.3174
X-66.0192 Y32.3203
X-66.011 Y32.3239
X-66.0032 Y32.328
X-65.9956 Y32.3326
X-65.9884 Y32.3378
X-65.9815 Y32.3434
X-65.9751 Y32.3496
X-65.9691 Y32.3561
X-65.9678 Y32.3589 F50.
X-65.9671 Y32.3619
X-65.967 Y32.365
X-65.9675 Y32.3681
X-65.9686 Y32.371
X-65.9703 Y32.3736
X-65.9725 Y32.3758
X-65.975 Y32.3775
X-65.9779 Y32.3787
X-65.9809 Y32.3793
G3 X-66.009 Y32.191 I-0.011 J-0.0946 F60.
G2 X-65.9108 Y32.1417 I-0.3264 J-0.7719
G3 X-65.888 Y32.1541 I0.0074 J0.0135
G1 X-65.8877 Y32.1571 Z-0.1297
X-65.8876 Y32.16 Z-0.1288
X-65.8874 Y32.1626 Z-0.1274
X-65.8872 Y32.165 Z-0.1255
X-65.8871 Y32.1669 Z-0.1232
X-65.887 Y32.1683 Z-0.1205
X-65.8869 Y32.1692 Z-0.1176
Y32.1695 Z-0.1146
G0 Z0.4
X-65.5803 Y31.8573
Z-0.0992
G1 Z-0.1146 F50.
X-65.5804 Y31.857 Z-0.1176
X-65.5809 Y31.8562 Z-0.1205
X-65.5816 Y31.855 Z-0.1232
X-65.5826 Y31.8534 Z-0.1255
X-65.5838 Y31.8514 Z-0.1274
X-65.5851 Y31.8491 Z-0.1288
X-65.5866 Y31.8466 Z-0.1297
X-65.5882 Y31.844 Z-0.13
G3 X-65.5969 Y31.8144 I0.0535 J-0.0319
G1 Y31.7811 F60.
X-65.5943 Y31.7728
X-65.5911 Y31.7647
X-65.5873 Y31.7568
X-65.583 Y31.7493
X-65.5782 Y31.742
X-65.5728 Y31.7351
X-65.567 Y31.7286
X-65.5607 Y31.7226
X-65.554 Y31.7169
X-65.547 Y31.7118
X-65.5396 Y31.7072
X-65.5319 Y31.7032
X-65.5239 Y31.6996
X-65.5157 Y31.6967
X-65.5072 Y31.6944
X-65.4987 Y31.6926
X-65.4901 Y31.6915
X-65.4813 Y31.691
X-65.4726 Y31.6911
X-65.4639 Y31.6918
X-65.4553 Y31.6931
X-65.4468 Y31.695
X-65.4385 Y31.6976
X-65.4303 Y31.7007
X-65.4224 Y31.7044
X-65.4148 Y31.7086
X-65.4075 Y31.7134
X-65.407 Y31.7162
X-65.4071 Y31.7191
X-65.4077 Y31.7219
X-65.4088 Y31.7245
X-65.4103 Y31.7269
X-65.4123 Y31.729
X-65.4145 Y31.7306
X-65.4171 Y31.7318
X-65.4252 Y31.7351
X-65.5745 Y31.7944
X-65.5759 Y31.7949 F50.
G3 X-65.5969 Y31.7811 I-0.0057 J-0.0143
G1 X-65.597 Y31.7253 F60.
X-65.5882 Y31.6936
X-65.5857 Y31.6853
G3 X-65.4051 Y31.7253 I0.0859 J0.0397
G1 X-65.4044 Y31.8398
G3 X-65.4268 Y31.853 I-0.0154 J-0.0005
G1 X-65.4294 Y31.8517 Z-0.1297
X-65.432 Y31.8504 Z-0.1288
X-65.4344 Y31.8492 Z-0.1274
X-65.4365 Y31.8481 Z-0.1255
X-65.4382 Y31.8472 Z-0.1232
X-65.4394 Y31.8466 Z-0.1205
X-65.4402 Y31.8462 Z-0.1176
X-65.4405 Y31.8461 Z-0.1146
G0 Z0.4
X-65.2276 Y32.0615
Z-0.0992
G1 Z-0.1146 F50.
X-65.2273 Z-0.1176
X-65.2264 Y32.0616 Z-0.1205
X-65.225 Y32.0618 Z-0.1232
X-65.2231 Y32.0619 Z-0.1255
X-65.2208 Y32.0622 Z-0.1274
X-65.2181 Y32.0625 Z-0.1288
X-65.2153 Y32.0627 Z-0.1297
X-65.2123 Y32.063 Z-0.13
G3 X-65.1905 Y32.071 I-0.0047 J0.0465
G1 X-65.1668 Y32.0886 F60.
X-65.1626 Y32.0919
G3 X-65.2299 Y32.2865 I-0.0984 J0.0749
G2 X-65.3248 Y32.2115 I-0.6272 J0.6959
G3 X-65.3308 Y32.1974 I0.0093 J-0.0123
X-65.3036 Y32.1759 I0.0244 J0.0029
X-65.2336 Y32.2553 I-0.0087 J0.0783
X-65.2352 Y32.27 I-0.0787 J-0.0012 F50.
G2 X-65.2304 Y32.2846 I0.0151 J0.0031
G1 X-65.2278 Y32.2868 F60.
X-65.2137 Y32.2968
X-65.2008 Y32.3028
X-65.1922 Y32.3042
X-65.1835 Y32.305
X-65.1748 Y32.3053
X-65.1661 Y32.3049
X-65.1575 Y32.3039
X-65.1489 Y32.3023
X-65.1405 Y32.3002
X-65.1322 Y32.2975
X-65.1242 Y32.2941
X-65.1164 Y32.2903
X-65.1089 Y32.2859
X-65.1017 Y32.281
X-65.0948 Y32.2756
X-65.0884 Y32.2698
X-65.0823 Y32.2635
X-65.0768 Y32.2569
X-65.0716 Y32.2498
X-65.067 Y32.2424
X-65.0629 Y32.2348
X-65.0594 Y32.2268
X-65.0564 Y32.2187
X-65.054 Y32.2103
X-65.0521 Y32.2018
X-65.0509 Y32.1932
X-65.0502 Y32.1845
Y32.1758
X-65.0508 Y32.1671
X-65.0519 Y32.1585
G3 X-65.1626 Y32.0919 I0.0828 J-0.263
G2 X-65.1779 Y32.0902 I-0.0091 J0.0124
X-65.192 Y32.1211 I0.0103 J0.0234
X-65.0819 Y32.1685 I0.0753 J-0.0232
X-65.0693 Y32.1607 I-0.0349 J-0.0706 F50.
G3 X-65.054 Y32.1588 I0.0093 J0.0123
G1 X-65.0323 Y32.1689 F60.
G3 X-65.0731 Y32.362 I-0.083 J0.0833
G1 X-65.12 Y32.3406
X-65.1668 Y32.3186
X-65.2008 Y32.3028
G3 X-65.2092 Y32.2899 I0.007 J-0.0137
X-65.1499 Y32.2498 I0.0417 J-0.0023
X-65.0839 Y32.334 I-0.0499 J0.1071
X-65.0819 Y32.3487 I-0.1159 J0.0228 F50.
G2 X-65.0733 Y32.3615 I0.0154 J-0.0011
G1 X-65.0448 Y32.3738 F60.
G2 X-64.9158 Y32.269 I0.0149 J-0.1135
X-65.0323 Y32.1689 I-0.1635 J0.0725
X-65.0476 Y32.1708 I-0.006 J0.0142
G1 X-65.048 Y32.1731
X-65.0411 Y32.1832
G2 X-64.9413 Y32.2546 I0.1587 J-0.1164
G1 X-64.927 Y32.2585 F50.
G3 X-64.9158 Y32.269 I-0.0035 J0.015
X-65.045 Y32.3742 I-0.0904 J0.0209 F60.
G1 X-65.0474 Y32.3727
X-65.0496 Y32.3708
X-65.0514 Y32.3685
X-65.0527 Y32.366
X-65.0535 Y32.3632
X-65.0538 Y32.3604
X-65.0536 Y32.3576
X-65.0529 Y32.3548
X-65.0517 Y32.3522
X-65.05 Y32.35
X-65.048 Y32.348
X-65.0457 Y32.3461 Z-0.1297
X-65.0435 Y32.3442 Z-0.1288
X-65.0414 Y32.3425 Z-0.1274
X-65.0396 Y32.3411 Z-0.1255
X-65.0382 Y32.3398 Z-0.1232
X-65.0371 Y32.3389 Z-0.1205
X-65.0364 Y32.3384 Z-0.1176
X-65.0362 Y32.3382 Z-0.1146
G0 Z0.4
X-64.473 Y30.6177
Z0.1
G3 X-64.5756 Y30.5907 Z0.0791 I-0.0384 J-0.0622 F50.
X-64.5434 Y30.4897 Z0.0582 I0.0641 J-0.0352
X-64.4441 Y30.5269 Z0.0373 I0.032 J0.0658
X-64.4862 Y30.6242 Z0.0164 I-0.0673 J0.0286
X-64.5813 Y30.5772 Z-0.0045 I-0.0252 J-0.0687
X-64.5296 Y30.4846 Z-0.0255 I0.0698 J-0.0217
X-64.4398 Y30.5409 Z-0.0464 I0.0182 J0.0709
X-64.5005 Y30.6278 Z-0.0673 I-0.0717 J0.0146
X-64.5842 Y30.5628 Z-0.0882 I-0.011 J-0.0723
X-64.5151 Y30.4824 Z-0.1091 I0.0728 J-0.0073
X-64.4383 Y30.5555 Z-0.13 I0.0037 J0.0731
X-64.5846 I-0.0732 J0.
X-64.4385 Y30.5495 I0.0732 J0.
G1 X-64.4383 Y30.5555
G3 X-64.4278 Y30.6009 I-0.0177 J0.028 F60.
X-64.616 Y30.6023 I-0.0946 J-0.0678
X-64.5543 Y30.4521 I0.1089 J-0.043
G1 X-64.5483 Y30.4464
X-64.5419 Y30.441
X-64.5351 Y30.4362
X-64.5279 Y30.4319
X-64.5205 Y30.4281
X-64.5128 Y30.4249
X-64.5048 Y30.4223
X-64.4967 Y30.4202
X-64.4885 Y30.4188
X-64.4802 Y30.418
X-64.4719 Y30.4178
X-64.4635 Y30.4182
X-64.4552 Y30.4193
X-64.4471 Y30.4209
X-64.439 Y30.4231
X-64.4312 Y30.426
X-64.4235 Y30.4294
X-64.4162 Y30.4334
X-64.4092 Y30.4378
X-64.4025 Y30.4429
X-64.3962 Y30.4483
X-64.3903 Y30.4543
X-64.3849 Y30.4606
X-64.38 Y30.4674
X-64.3756 Y30.4745
X-64.3717 Y30.4818
X-64.3684 Y30.4895
X-64.3656 Y30.4974
X-64.3635 Y30.5055
X-64.3644 Y30.5081
X-64.3659 Y30.5104
X-64.3678 Y30.5125
X-64.3701 Y30.5142
X-64.3726 Y30.5155
X-64.3754 Y30.5162
X-64.3783 Y30.5164
X-64.3812 Y30.5161
X-64.388 Y30.5143
X-64.5419 Y30.4752
X-64.5446 Y30.4745 F50.
G3 X-64.5543 Y30.4521 I0.0038 J-0.0149
X-64.352 Y30.4899 I0.1012 J0.0189 F60.
X-64.3875 Y30.5503 I-0.1012 J-0.0189
G1 X-64.4178 Y30.593
X-64.4278 Y30.6009
G3 X-64.4521 Y30.5916 I-0.0092 J-0.0124
G1 X-64.4527 Y30.5887 Z-0.1297
X-64.4532 Y30.5858 Z-0.1288
X-64.4538 Y30.5832 Z-0.1274
X-64.4542 Y30.5809 Z-0.1255
X-64.4546 Y30.5791 Z-0.1232
X-64.4549 Y30.5777 Z-0.1205
X-64.4551 Y30.5768 Z-0.1176
Y30.5765 Z-0.1146
G0 Z0.4
X-64.473 Y31.5068
Z0.1
G3 X-64.5756 Y31.4798 Z0.0791 I-0.0384 J-0.0622 F50.
X-64.5434 Y31.3787 Z0.0582 I0.0641 J-0.0352
X-64.4441 Y31.4159 Z0.0373 I0.032 J0.0658
X-64.4862 Y31.5132 Z0.0164 I-0.0673 J0.0286
X-64.5813 Y31.4662 Z-0.0045 I-0.0252 J-0.0687
X-64.5296 Y31.3737 Z-0.0255 I0.0698 J-0.0217
X-64.4398 Y31.4299 Z-0.0464 I0.0182 J0.0709
X-64.5005 Y31.5168 Z-0.0673 I-0.0717 J0.0146
X-64.5842 Y31.4519 Z-0.0882 I-0.011 J-0.0723
X-64.5151 Y31.3715 Z-0.1091 I0.0728 J-0.0073
X-64.4383 Y31.4445 Z-0.13 I0.0037 J0.0731
X-64.5846 I-0.0732 J0.
X-64.4385 Y31.4386 I0.0732 J0.
G1 X-64.4383 Y31.4445
G3 X-64.5259 Y31.5935 I-0.0718 J0.058 F60.
G2 X-64.6171 Y31.4932 I-0.2139 J0.1031
G1 X-64.6201 Y31.4857
X-64.6224 Y31.478
X-64.6242 Y31.4701
X-64.6253 Y31.4622
X-64.6259 Y31.4541
X-64.6258 Y31.4461
X-64.6251 Y31.438
X-64.6237 Y31.4301
X-64.6218 Y31.4223
X-64.6193 Y31.4146
X-64.6162 Y31.4072
X-64.6125 Y31.4
X-64.6083 Y31.3931
X-64.6036 Y31.3866
X-64.5984 Y31.3804
X-64.5928 Y31.3747
X-64.5867 Y31.3694
X-64.5802 Y31.3646
X-64.5734 Y31.3603
X-64.5663 Y31.3566
X-64.5589 Y31.3534
X-64.5513 Y31.3508
X-64.5435 Y31.3487
X-64.5355 Y31.3473
X-64.5275 Y31.3465
X-64.5195 Y31.3463
X-64.5114 Y31.3467
X-64.5034 Y31.3478
X-64.4955 Y31.3494
X-64.4878 Y31.3516
X-64.4803 Y31.3545
X-64.473 Y31.3579
X-64.466 Y31.3618
X-64.4593 Y31.3663
X-64.4529 Y31.3713
X-64.447 Y31.3768
X-64.4415 Y31.3826
X-64.4365 Y31.3889
X-64.432 Y31.3956
X-64.428 Y31.4026
X-64.4245 Y31.4099
G3 X-64.3578 Y31.5147 I-0.0923 J0.1324
X-64.5257 Y31.5923 I-0.0914 J0.0228
G1 X-64.5355 Y31.5943
X-64.5454 Y31.5956
X-64.5553 Y31.5963
X-64.5653 Y31.5964
X-64.5753 Y31.5959
X-64.5852 Y31.5947
X-64.595 Y31.5929
X-64.6047 Y31.5905
X-64.6142 Y31.5875
X-64.6235 Y31.5839
X-64.6326 Y31.5797
X-64.6414 Y31.575
X-64.6498 Y31.5697
X-64.6579 Y31.5639
X-64.6657 Y31.5576
X-64.673 Y31.5508
X-64.6799 Y31.5436
X-64.6863 Y31.5359
X-64.6922 Y31.5279
X-64.6976 Y31.5195
X-64.7025 Y31.5108
X-64.7068 Y31.5018
X-64.7105 Y31.4925
X-64.7136 Y31.483
X-64.7162 Y31.4734
X-64.7181 Y31.4636
X-64.7194 Y31.4537
X-64.7201 Y31.4438
Y31.4338
X-64.7195 Y31.4238
X-64.7183 Y31.4139
X-64.7165 Y31.4041
X-64.7141 Y31.3944
X-64.711 Y31.3849
X-64.7074 Y31.3756
X-64.7032 Y31.3666
X-64.6984 Y31.3578
X-64.6931 Y31.3494
X-64.6873 Y31.3413
X-64.6809 Y31.3336
X-64.6741 Y31.3263
X-64.6669 Y31.3194
X-64.6592 Y31.313
X-64.6512 Y31.3071
X-64.6428 Y31.3018
X-64.634 Y31.2969
X-64.625 Y31.2927
X-64.6157 Y31.289
X-64.6063 Y31.2859
X-64.5966 Y31.2834
G3 X-64.3365 Y31.3539 I0.0844 J0.2035
X-64.5781 Y31.6951 I-0.133 J0.162
G1 X-64.5871 Y31.6961
X-64.5961 Y31.6965
X-64.6051 Y31.6963
X-64.6141 Y31.6956
X-64.623 Y31.6942
X-64.6318 Y31.6922
X-64.6404 Y31.6897
X-64.6489 Y31.6866
X-64.6571 Y31.6829
X-64.665 Y31.6787
X-64.6727 Y31.674
X-64.68 Y31.6688
X-64.687 Y31.6631
X-64.7531 Y31.5859
X-64.7606 Y31.5758
X-64.7675 Y31.5653
X-64.7738 Y31.5544
X-64.7797 Y31.5433
X-64.7849 Y31.5319
X-64.7896 Y31.5202
X-64.7938 Y31.5084
X-64.7973 Y31.4963
X-64.8003 Y31.4841
X-64.8026 Y31.4717
X-64.8043 Y31.4593
X-64.8055 Y31.4467
X-64.8059 Y31.4342
X-64.8058 Y31.4216
X-64.8051 Y31.4091
X-64.8037 Y31.3966
X-64.8018 Y31.3841
X-64.7992 Y31.3718
X-64.796 Y31.3597
X-64.7922 Y31.3477
X-64.7879 Y31.3359
X-64.783 Y31.3243
X-64.7775 Y31.313
X-64.7714 Y31.302
X-64.7648 Y31.2913
X-64.7577 Y31.2809
X-64.7501 Y31.2709
X-64.7421 Y31.2613
X-64.7335 Y31.252
X-64.7245 Y31.2432
X-64.7151 Y31.2349
X-64.7053 Y31.227
X-64.6951 Y31.2197
X-64.6846 Y31.2128
X-64.6737 Y31.2065
X-64.6626 Y31.2007
X-64.6512 Y31.1955
X-64.6395 Y31.1908
X-64.6276 Y31.1867
X-64.485 Y31.1857
G3 X-64.1857 Y31.4259 I-0.0313 J0.3457
G1 Y31.5859
X-64.188 Y31.5986
X-64.1908 Y31.6112
X-64.1943 Y31.6236
X-64.1983 Y31.6359
X-64.2029 Y31.6479
X-64.208 Y31.6598
X-64.2137 Y31.6713
X-64.2199 Y31.6826
X-64.2267 Y31.6936
X-64.2339 Y31.7043
X-64.2416 Y31.7146
X-64.2498 Y31.7246
X-64.2585 Y31.7341
X-64.2676 Y31.7433
X-64.2771 Y31.752
X-64.287 Y31.7603
X-64.2972 Y31.7681
X-64.3078 Y31.7754
X-64.3188 Y31.7822
X-64.3301 Y31.7885
X-64.3416 Y31.7942
X-64.3534 Y31.7995
X-64.3654 Y31.8041
X-64.3776 Y31.8082
X-64.39 Y31.8118
X-64.4026 Y31.8147
X-64.4152 Y31.8171
X-64.428 Y31.8189
X-64.4408 Y31.82
X-64.4537 Y31.8206
X-64.4666
X-64.4795 Y31.82
X-64.4923 Y31.8188
X-64.5051 Y31.817
X-64.5178 Y31.8146
X-64.5303 Y31.8116
X-64.5427 Y31.808
X-64.5549 Y31.8039
X-64.5669 Y31.7992
X-64.687 Y31.6631
G3 X-64.6893 Y31.6479 I0.012 J-0.0096
X-64.6529 Y31.6288 I0.0291 J0.0114
X-64.5658 Y31.7726 I-0.0274 J0.1149
X-64.5704 Y31.7867 I-0.1145 J-0.0289 F50.
G2 X-64.568 Y31.8019 I0.0143 J0.0056
G1 X-64.522 Y31.8556 F60.
G2 X-64.1857 Y31.7957 I0.1354 J-0.2137
G1 Y31.5859
G2 X-64.2011 Y31.5711 I-0.0154 J0.0005
G1 X-64.2035 Y31.5713
X-64.2059 Y31.5718
X-64.2081 Y31.5728
G2 X-64.2156 Y31.5813 I0.007 J0.0137
G3 X-64.2358 Y31.5904 I-0.0145 J-0.0052
X-64.2442 Y31.57 I0.0057 J-0.0143
G1 X-64.1953 Y31.4573
X-64.1944 Y31.4556
G2 X-64.1857 Y31.4259 I-0.0536 J-0.0318 F50.
G1 Y31.3047 F60.
G2 X-64.2496 Y31.1857 I-0.1523 J0.0052
G1 X-64.485
G2 X-64.4999 Y31.2011 I0.0005 J0.0154
G1 X-64.4997 Y31.2035
X-64.4991 Y31.2059
X-64.4982 Y31.2081
G2 X-64.4897 Y31.2156 I0.0137 J-0.007
G3 X-64.4807 Y31.2362 I-0.0052 J0.0145
X-64.5019 Y31.2438 I-0.0141 J-0.0061
G1 X-64.5982 Y31.1945
G2 X-64.6279 Y31.1857 I-0.0318 J0.0536 F50.
G1 X-64.7324 F60.
G2 X-64.8986 Y31.4163 I0.0628 J0.2203
G1 X-64.7531 Y31.5859
G2 X-64.7385 Y31.5906 I0.0113 J-0.0104
X-64.7008 Y31.5232 I-0.0112 J-0.0505
X-64.8693 Y31.4184 I-0.1488 J0.0514
X-64.8839 Y31.4209 I0.0196 J0.1563 F50.
G3 X-64.8986 Y31.4163 I-0.0033 J-0.015
G1 X-64.9306 Y31.3789 F60.
G3 X-64.9015 Y31.1857 I0.1354 J-0.0784
G1 X-64.7324
G3 X-64.7194 Y31.1939 I-0.0005 J0.0154
X-64.7383 Y31.2471 I-0.0338 J0.018
X-64.8807 Y31.2065 I-0.046 J-0.1088
X-64.8885 Y31.1939 I0.0965 J-0.0682 F50.
G2 X-64.9015 Y31.1857 I-0.0136 J0.0072
G1 X-64.9435 F60.
G2 X-65.0277 Y31.268 I0.0134 J0.098
G1 X-64.9306 Y31.3789
G2 X-64.904 Y31.3662 I0.0113 J-0.0104
G1 X-64.9274 Y31.2083
X-64.9288 Y31.1989 F50.
G2 X-64.9435 Y31.1857 I-0.0152 J0.0023
G1 X-65.0244 F60.
G2 X-65.0688 Y31.2177 I-0.0146 J0.0265
G1 X-65.0254 Y31.2684
G2 X-64.9989 Y31.255 I0.0113 J-0.0104
G1 X-65.0079 Y31.2082
X-65.0098 Y31.1982 F50.
G2 X-65.0244 Y31.1857 I-0.0151 J0.0029
X-65.0844 Y31.191 I-0.027 J0.0373 F60.
G1 X-65.0841 Y31.195
X-65.0833 Y31.199
X-65.0819 Y31.2028
X-65.0801 Y31.2063
X-65.0778 Y31.2096
X-65.075 Y31.2126
X-65.0719 Y31.2151
X-65.0685 Y31.2172
X-65.0665 Y31.2192
X-65.0641 Y31.2208
X-65.0614 Y31.2219
X-65.0586 Y31.2225
X-65.0557
X-65.0528 Y31.222
X-65.0499 Y31.2211 Z-0.1297
X-65.0472 Y31.2202 Z-0.1288
X-65.0446 Y31.2194 Z-0.1274
X-65.0424 Y31.2187 Z-0.1255
X-65.0406 Y31.2181 Z-0.1232
X-65.0392 Y31.2177 Z-0.1205
X-65.0384 Y31.2174 Z-0.1176
X-65.0381 Y31.2173 Z-0.1146
G0 Z-0.0992
X-64.2023 Y31.3476
G1 Z-0.1146 F50.
X-64.2021 Y31.3473 Z-0.1176
X-64.2017 Y31.3466 Z-0.1205
X-64.201 Y31.3454 Z-0.1232
X-64.2 Y31.3437 Z-0.1255
X-64.1988 Y31.3417 Z-0.1274
X-64.1974 Y31.3394 Z-0.1288
X-64.1959 Y31.3369 Z-0.1297
X-64.1944 Y31.3344 Z-0.13
G2 X-64.1857 Y31.3047 I-0.0536 J-0.0318
X-64.188 Y31.2139 I-0.095 J-0.043 F60.
X-64.2496 Y31.1857 I-0.0466 J0.0204
X-64.2632 Y31.1951 I0.0005 J0.0154
G1 X-64.2644 Y31.1979 Z-0.1297
X-64.2655 Y31.2005 Z-0.1288
X-64.2666 Y31.203 Z-0.1274
X-64.2675 Y31.2051 Z-0.1255
X-64.2682 Y31.2069 Z-0.1232
X-64.2688 Y31.2082 Z-0.1205
X-64.2691 Y31.209 Z-0.1176
X-64.2693 Y31.2093 Z-0.1146
G0 Z-0.0992
X-64.2023 Y31.7528
G1 Z-0.1146 F50.
X-64.2021 Y31.753 Z-0.1176
X-64.2017 Y31.7538 Z-0.1205
X-64.201 Y31.755 Z-0.1232
X-64.2 Y31.7567 Z-0.1255
X-64.1988 Y31.7587 Z-0.1274
X-64.1974 Y31.761 Z-0.1288
X-64.1959 Y31.7634 Z-0.1297
X-64.1944 Y31.766 Z-0.13
G3 X-64.1857 Y31.7957 I-0.0536 J0.0318
G1 Y31.8438 F60.
G3 X-64.4062 Y31.9908 I-0.192 J-0.0491
G1 X-64.522 Y31.8556
G3 X-64.5243 Y31.8404 I0.012 J-0.0096
X-64.4817 Y31.8203 I0.0319 J0.0125
X-64.404 Y31.9614 I-0.0367 J0.1122
X-64.4085 Y31.9755 I-0.1145 J-0.0289 F50.
G2 X-64.4062 Y31.9908 I0.0143 J0.0056
G1 X-64.3759 Y32.0261 F60.
X-64.368 Y32.0314
X-64.3598 Y32.0363
X-64.3514 Y32.0406
X-64.3426 Y32.0443
X-64.3336 Y32.0475
X-64.3245 Y32.0501
X-64.3152 Y32.052
X-64.3057 Y32.0534
X-64.2962 Y32.0541
X-64.2867 Y32.0543
X-64.2772 Y32.0538
X-64.2678 Y32.0527
X-64.2584 Y32.0509
X-64.2492 Y32.0486
X-64.2401 Y32.0457
X-64.2313 Y32.0421
X-64.2227 Y32.0381
X-64.2144 Y32.0334
X-64.2064 Y32.0283
X-64.1988 Y32.0226
X-64.1915 Y32.0164
X-64.1847 Y32.0098
X-64.1857 Y31.8438
G2 X-64.1938 Y31.8307 I-0.0154 J0.0005
X-64.2498 Y31.8526 I-0.0186 J0.0349
X-64.2064 Y31.988 I0.1115 J0.0389
X-64.1938 Y31.9957 I0.0682 J-0.0965 F50.
G3 X-64.1857 Y32.0088 I-0.0072 J0.0136
G1 Y32.0442 F60.
G3 X-64.2864 Y32.1327 I-0.1011 J-0.0135
G1 X-64.3759 Y32.0261
G3 X-64.3735 Y32.0044 I0.012 J-0.0096
X-64.3502 Y32.0024 I0.0131 J0.0164
X-64.2891 Y32.1003 I-0.0568 J0.1035
X-64.2897 Y32.1191 I-0.118 J0.0056 F50.
G2 X-64.2864 Y32.1305 I0.0153 J0.0017
G1 X-64.271 Y32.1485 F60.
G2 X-64.184 Y32.1592 I0.0495 J-0.0431
G1 X-64.1857 Y32.0442
G2 X-64.2142 Y32.0366 I-0.0154 J0.0005
G1 X-64.2658 Y32.1205
X-64.2721 Y32.1308 F50.
G2 X-64.271 Y32.1485 I0.0131 J0.0081
G1 X-64.2271 Y32.1997 F60.
G2 X-64.1857 Y32.2063 I0.022 J-0.0051
G1 Y32.1953
Y32.1567
G2 X-64.1938 Y32.1436 I-0.0154 J0.0005
X-64.2144 Y32.1546 I-0.0066 J0.0124
X-64.2053 Y32.1839 I0.0392 J0.0039
X-64.1938 Y32.1932 I0.0301 J-0.0254 F50.
G3 X-64.1857 Y32.2063 I-0.0073 J0.0136
G1 X-64.1858 Y32.2188 F60.
X-64.1864 Y32.2226
X-64.1867 Y32.2243
X-64.187 Y32.2258
X-64.1874 Y32.2274
X-64.1876 Y32.2284
X-64.188 Y32.2292
X-64.1884 Y32.2301
G3 X-64.1908 Y32.2319 I-0.0045 J-0.0033
X-64.1983 Y32.2256 I-0.0021 J-0.0052 F50.
G1 X-64.1979 Y32.2239
G3 X-64.187 Y32.2258 I0.0054 J0.0011
G1 X-64.1874 Y32.2281 F60.
X-64.1875 Y32.2285
X-64.1884 Y32.2301
X-64.1887 Y32.2305
X-64.1903 Y32.2319
G3 X-64.2271 Y32.1997 I-0.0039 J-0.0326
X-64.2186 Y32.1751 I0.012 J-0.0096
G1 X-64.2157 Y32.1744 Z-0.1297
X-64.2129 Y32.1737 Z-0.1288
X-64.2103 Y32.1731 Z-0.1274
X-64.208 Y32.1726 Z-0.1255
X-64.2062 Y32.1721 Z-0.1232
X-64.2048 Y32.1718 Z-0.1205
X-64.2039 Y32.1716 Z-0.1176
X-64.2037 Y32.1715 Z-0.1146
G0 Z0.4
X-67.313 Y30.9938
Z0.1
G3 X-67.4155 Y30.9668 Z0.0791 I-0.0384 J-0.0622 F50.
X-67.3834 Y30.8658 Z0.0582 I0.0641 J-0.0352
X-67.2841 Y30.903 Z0.0373 I0.032 J0.0658
X-67.3262 Y31.0003 Z0.0164 I-0.0673 J0.0286
X-67.4213 Y30.9533 Z-0.0045 I-0.0252 J-0.0687
X-67.3696 Y30.8607 Z-0.0255 I0.0698 J-0.0217
X-67.2797 Y30.917 Z-0.0464 I0.0182 J0.0709
X-67.3404 Y31.0039 Z-0.0673 I-0.0717 J0.0146
X-67.4242 Y30.9389 Z-0.0882 I-0.011 J-0.0723
X-67.3551 Y30.8585 Z-0.1091 I0.0728 J-0.0073
X-67.2783 Y30.9316 Z-0.13 I0.0037 J0.0731
X-67.4246 I-0.0732 J0.
X-67.2785 Y30.9256 I0.0732 J0.
G1 X-67.2783 Y30.9316
G3 X-67.2765 Y30.9435 I-0.0472 J0.0131 F60.
G1 X-67.2814 Y30.9766
X-67.2837 Y31.
X-67.2835 Y31.0021
G3 X-67.3848 Y31.0719 I-0.0781 J-0.0051
G1 X-67.4469 Y30.8876
G3 X-67.3525 Y30.7837 I0.0875 J-0.0153
X-67.2731 Y30.9162 I-0.4525 J0.361
G1 X-67.2728 Y30.9217
X-67.273 Y30.9273
X-67.2737 Y30.9328
X-67.2749 Y30.9382
X-67.2766 Y30.9435
X-67.2774 Y30.9464
X-67.2788 Y30.9491
X-67.2807 Y30.9515
X-67.283 Y30.9534
X-67.2857 Y30.9549
X-67.2886 Y30.9558
X-67.2916 Y30.9561
X-67.2946 Y30.9558
X-67.2976 Y30.9549
X-67.3007 Y30.9536
X-67.4214 Y30.9033
X-67.4384 Y30.8962 F50.
G3 X-67.4469 Y30.8876 I0.0059 J-0.0142
G1 X-67.4692 Y30.823 F60.
G3 X-67.3965 Y30.7132 I0.0879 J-0.0209
G1 X-67.3527 Y30.7863
G3 Y30.8017 I-0.0133 J0.0077
X-67.4024 Y30.7966 I-0.0237 J-0.0137
X-67.402 Y30.7461 I0.0748 J-0.0247
X-67.3958 Y30.7327 I0.0744 J0.0259 F50.
G2 Y30.7173 I-0.0133 J-0.0077
G1 X-67.4054 Y30.7019 F60.
G2 X-67.5093 Y30.7121 I-0.0477 J0.0476
G1 X-67.4692 Y30.823
G2 X-67.4572 Y30.8327 I0.0144 J-0.0055
X-67.4294 Y30.8121 I0.0038 J-0.024
X-67.4807 Y30.727 I-0.078 J-0.011
X-67.495 Y30.7233 I-0.0266 J0.0741 F50.
G3 X-67.507 Y30.7137 I0.0024 J-0.0152
G1 X-67.5133 Y30.6953 F60.
G3 X-67.4541 Y30.6206 I0.0598 J-0.0134
G1 X-67.4054 Y30.7019
G3 Y30.7173 I-0.0133 J0.0077
X-67.4547 Y30.7169 I-0.0245 J-0.0141
X-67.4603 Y30.6528 I0.0689 J-0.0382
X-67.4541 Y30.6394 I0.0744 J0.0259 F50.
G2 Y30.624 I-0.0133 J-0.0077
G1 X-67.4634 Y30.6091 F60.
G2 X-67.545 Y30.609 I-0.0408 J0.0325
G1 X-67.5133 Y30.6953
G2 X-67.5014 Y30.705 I0.0144 J-0.0055
X-67.4714 Y30.6653 I0.0044 J-0.0278
X-67.5162 Y30.6244 I-0.0714 J0.0332
X-67.5305 Y30.6207 I-0.0266 J0.0741 F50.
G3 X-67.5424 Y30.6111 I0.0024 J-0.0152
G1 X-67.5482 Y30.5945 F60.
G3 X-67.5049 Y30.5394 I0.0431 J-0.0107
G1 X-67.4634 Y30.6091
G3 Y30.6245 I-0.0133 J0.0077
X-67.5126 Y30.6181 I-0.0233 J-0.0134
X-67.511 Y30.5715 I0.076 J-0.0207
X-67.5049 Y30.5581 I0.0744 J0.0259 F50.
G2 Y30.5427 I-0.0133 J-0.0077
G1 X-67.5132 Y30.5293 F60.
X-67.5161 Y30.5256
X-67.5194 Y30.5222
X-67.523 Y30.5193
X-67.5271 Y30.5169
X-67.5314 Y30.515
X-67.5359 Y30.5137
X-67.5405 Y30.513
X-67.5452 Y30.5128
X-67.5498 Y30.5133
X-67.5544 Y30.5143
X-67.5588 Y30.516
X-67.563 Y30.5181
X-67.5668 Y30.5208
X-67.5703 Y30.5239
X-67.5734 Y30.5275
X-67.5482 Y30.5945
G2 X-67.5283 Y30.6033 I0.0144 J-0.0055
X-67.5197 Y30.5852 I-0.0052 J-0.0135
X-67.5463 Y30.5477 I-0.0747 J0.0249
X-67.5625 Y30.5381 I-0.0481 J0.0624 F50.
G3 X-67.5706 Y30.5296 I0.0062 J-0.0141
G1 X-67.5749 Y30.5171 F60.
G3 X-67.5448 Y30.4787 I0.0234 J-0.0126
X-67.5462 Y30.5203 I-0.0341 J0.0197
X-67.5493 Y30.5237 I-0.0135 J-0.0091
X-67.5749 Y30.5171 I-0.0104 J-0.0125 F50.
G1 X-67.5876 Y30.4805 F60.
G3 X-67.5649 Y30.4465 I0.0137 J-0.0154
X-67.5624 Y30.4805 I-0.0341 J0.0197
X-67.563 Y30.4819 I-0.0126 J-0.0049
X-67.5876 Y30.4805 I-0.0119 J-0.0063 F50.
G1 X-67.5999 Y30.4448 F60.
X-67.6016 Y30.4391
X-67.6017 Y30.4331
X-67.6006 Y30.4272
X-67.5984 Y30.4216
X-67.5982 Y30.4213
X-67.5944 Y30.4178
X-67.5894 Y30.4165
X-67.5844 Y30.4178
X-67.5807 Y30.4213
G3 X-67.5754 Y30.44 I-0.0341 J0.0197
X-67.5761 Y30.4444 I-0.0127 J0.0003
X-67.5999 Y30.4448 I-0.012 J-0.0041 F50.
G1 X-67.6092 Y30.4178 F60.
X-67.6109 Y30.412
X-67.6106 Y30.406
X-67.6105 Y30.4057
X-67.6082 Y30.4017
X-67.6043 Y30.3991
X-67.5996 Y30.3985
X-67.5952 Y30.4
X-67.5919 Y30.4033
G3 X-67.5887 Y30.4104 I-0.0341 J0.0197
X-67.5882 Y30.4132 I-0.0103 J0.0035
X-67.6092 Y30.4178 I-0.0109 J0.0007 F50.
G1 X-67.6156 Y30.3994 F60.
X-67.6158 Y30.3987
X-67.6161 Y30.3965
X-67.6163 Y30.3947
X-67.6165 Y30.3935
X-67.617 Y30.3875
X-67.6149 Y30.3845
X-67.6116 Y30.383
X-67.6079 Y30.3833
X-67.6048 Y30.3853
G3 X-67.6029 Y30.3878 I-0.0261 J0.0222 F50.
X-67.6152 Y30.3965 I-0.0062 J0.0043
X-67.6165 Y30.3935 I0.0062 J-0.0043
G1 X-67.6172 Y30.3884 F60.
Y30.3879
X-67.6166 Y30.3853
X-67.616 Y30.3843
X-67.6154 Y30.3836
X-67.6143 Y30.3828
X-67.6137 Y30.3824
X-67.6117 Y30.3819
X-67.6113 Y30.3818
X-67.6093 Y30.382
G3 X-67.5962 Y30.3965 I-0.0094 J0.0217
G1 X-67.5132 Y30.5293
G3 X-67.5252 Y30.5523 I-0.0133 J0.0077
G1 X-67.5282 Y30.5526 Z-0.1297
X-67.5311 Y30.5528 Z-0.1288
X-67.5338 Y30.5531 Z-0.1274
X-67.5361 Y30.5533 Z-0.1255
X-67.538 Y30.5534 Z-0.1232
X-67.5394 Y30.5536 Z-0.1205
X-67.5403 Z-0.1176
X-67.5406 Y30.5537 Z-0.1146
G0 Z-0.0992
X-67.3045 Y30.9612
G1 Z-0.1146 F50.
X-67.3043 Y30.9614 Z-0.1176
X-67.3038 Y30.9622 Z-0.1205
X-67.3029 Y30.9633 Z-0.1232
X-67.3018 Y30.9648 Z-0.1255
X-67.3004 Y30.9667 Z-0.1274
X-67.2988 Y30.9688 Z-0.1288
X-67.2971 Y30.9711 Z-0.1297
X-67.2953 Y30.9736 Z-0.13
G3 X-67.2835 Y31.0021 I-0.0499 J0.0373
G1 X-67.2813 Y31.0234 F60.
X-67.2758 Y31.0625
G3 X-67.3591 Y31.1463 I-0.0802 J0.0036
G1 X-67.384 Y31.0694
G3 X-67.3806 Y31.0544 I0.0147 J-0.0045
X-67.3345 Y31.072 I0.0195 J0.0181
X-67.3465 Y31.1152 I-0.0787 J0.0013
X-67.3555 Y31.1269 I-0.0667 J-0.0418 F50.
G2 X-67.359 Y31.1419 I0.0113 J0.0105
G1 X-67.3536 Y31.1575 F60.
G2 X-67.237 Y31.1534 I0.057 J-0.0388
G3 X-67.2758 Y31.0625 I0.1713 J-0.1269
G2 X-67.3037 Y31.0568 I-0.0151 J0.0029
X-67.3083 Y31.0742 I0.0228 J0.0155
X-67.2665 Y31.1382 I0.0785 J-0.0057
X-67.249 Y31.1449 I0.0367 J-0.0696 F50.
G3 X-67.2395 Y31.1519 I-0.0038 J0.0149
G1 X-67.2393 Y31.1523 F60.
X-67.2322 Y31.1617
G3 X-67.3213 Y31.2547 I-0.0678 J0.0243
G1 X-67.3536 Y31.1575
G3 X-67.3502 Y31.1425 I0.0147 J-0.0045
X-67.3045 Y31.149 I0.0206 J0.0191
X-67.3082 Y31.226 I-0.0705 J0.0351
X-67.3172 Y31.2377 I-0.0667 J-0.0418 F50.
G2 X-67.3207 Y31.2527 I0.0113 J0.0105
G1 X-67.3145 Y31.2707 F60.
X-67.3104 Y31.2763
X-67.3058 Y31.2815
X-67.3008 Y31.2863
X-67.2954 Y31.2906
X-67.2897 Y31.2944
X-67.2836 Y31.2978
X-67.2772 Y31.3005
X-67.2707 Y31.3027
X-67.2639 Y31.3043
X-67.2571 Y31.3053
X-67.2502 Y31.3056
X-67.2433 Y31.3054
X-67.2364 Y31.3046
X-67.2297 Y31.3031
X-67.223 Y31.3011
X-67.2166 Y31.2985
X-67.2105 Y31.2953
X-67.2047 Y31.2916
X-67.1992 Y31.2874
X-67.1941 Y31.2827
X-67.1894 Y31.2776
X-67.1852 Y31.2721
X-67.1838 Y31.2647
X-67.1828 Y31.2573
X-67.1825 Y31.2498
X-67.1828 Y31.2423
X-67.1836 Y31.2348
X-67.1849 Y31.2274
X-67.1869 Y31.2201
X-67.1894 Y31.2131
X-67.1924 Y31.2062
X-67.1959 Y31.1995
X-67.1999 Y31.1932
X-67.2044 Y31.1872
X-67.2093 Y31.1815
X-67.2147 Y31.1763
X-67.2204 Y31.1714
X-67.2265 Y31.167
X-67.2329 Y31.1631
X-67.2345 Y31.1611
X-67.2364 Y31.1593
X-67.2386 Y31.1579
X-67.2411 Y31.1569
X-67.2438 Y31.1563
X-67.2466
G2 X-67.2556 Y31.1683 I0.0018 J0.0107
X-67.2064 Y31.2509 I0.1173 J-0.0138
X-67.1938 Y31.2587 I0.0682 J-0.0965 F50.
G3 X-67.1857 Y31.2718 I-0.0072 J0.0136
G1 Y31.3047 F60.
G3 X-67.2809 Y31.3727 I-0.0779 J-0.0084
G1 X-67.3145 Y31.2707
G3 X-67.311 Y31.2557 I0.0147 J-0.0045
X-67.2673 Y31.2601 I0.0202 J0.0188
X-67.2678 Y31.3429 I-0.0673 J0.0409
X-67.2768 Y31.3546 I-0.0667 J-0.0418 F50.
G2 X-67.2803 Y31.3696 I0.0113 J0.0105
G1 X-67.2741 Y31.3874 F60.
G2 X-67.1839 Y31.4116 I0.0556 J-0.0268
G1 X-67.1857 Y31.3047
G2 X-67.1938 Y31.2916 I-0.0154 J0.0005
X-67.2339 Y31.3103 I-0.013 J0.0244
X-67.2062 Y31.3878 I0.0771 J0.0162
X-67.1938 Y31.396 I0.0494 J-0.0613 F50.
G3 X-67.1857 Y31.409 I-0.0072 J0.0136
G1 Y31.4258 F60.
X-67.1862 Y31.4312
X-67.1873 Y31.4366
X-67.189 Y31.4418
X-67.1913 Y31.4468
X-67.1941 Y31.4515
X-67.1974 Y31.4558
X-67.2011 Y31.4598
X-67.2053 Y31.4634
X-67.2098 Y31.4664
X-67.2146 Y31.469
X-67.2197 Y31.471
X-67.225 Y31.4725
X-67.2304 Y31.4733
X-67.2358 Y31.4736
X-67.2413 Y31.4732
X-67.2467 Y31.4723
X-67.2741 Y31.3874
G3 X-67.2707 Y31.3724 I0.0147 J-0.0045
X-67.2227 Y31.3864 I0.0205 J0.019
X-67.2335 Y31.4423 I-0.0775 J0.014
X-67.2425 Y31.454 I-0.0667 J-0.0418 F50.
G2 X-67.2459 Y31.469 I0.0113 J0.0105
G1 X-67.2403 Y31.4853 F60.
X-67.2385 Y31.4894
X-67.2361 Y31.4934
X-67.2334 Y31.497
X-67.2302 Y31.5002
X-67.2266 Y31.503
X-67.2227 Y31.5054
X-67.2185 Y31.5072
X-67.2142 Y31.5086
X-67.2097 Y31.5094
X-67.2052 Y31.5096
X-67.2006 Y31.5093
X-67.1962 Y31.5084
X-67.1918 Y31.507
X-67.1877 Y31.5051
X-67.1839 Y31.5027
X-67.1857 Y31.4258
G2 X-67.2151 Y31.42 I-0.0154 J0.0005
G1 X-67.2315 Y31.4564
X-67.2396 Y31.4744 F50.
G2 X-67.2403 Y31.4853 I0.014 J0.0063
G1 X-67.2267 Y31.5246 F60.
G2 X-67.1857 Y31.5417 I0.0229 J0.0028
G1 Y31.5001
G2 X-67.1938 Y31.4871 I-0.0154 J0.0005
X-67.2138 Y31.5021 I-0.0065 J0.0122
X-67.2053 Y31.5195 I0.0385 J-0.0082
X-67.1938 Y31.5287 I0.03 J-0.0255 F50.
G3 X-67.1857 Y31.5417 I-0.0072 J0.0136
G1 Y31.5554 F60.
X-67.186 Y31.5614
X-67.1884 Y31.5669
X-67.192 Y31.5717
X-67.1944 Y31.5739
X-67.1989 Y31.5763
X-67.204
X-67.2084 Y31.5739
X-67.2111 Y31.5696
G3 X-67.2127 Y31.5548 I0.0376 J-0.0116
X-67.2084 Y31.546 I0.0135 J0.0011
X-67.1857 Y31.5554 I0.0092 J0.0099 F50.
G1 Y31.5812 F60.
X-67.186 Y31.5872
X-67.1887 Y31.5911
X-67.193 Y31.5933
X-67.1977 Y31.5934
X-67.202 Y31.5913
X-67.2049 Y31.5875
X-67.2058 Y31.5848
G3 X-67.2063 Y31.5804 I0.0098 J-0.0032
X-67.1857 Y31.5812 I0.0103 J0.0011 F50.
G1 Y31.5869 F60.
Y31.5874
X-67.1876 Y31.5978
X-67.1878 Y31.5983
X-67.1887 Y31.5997
X-67.1892 Y31.6004
X-67.19 Y31.6011
X-67.1906 Y31.6015
X-67.1923 Y31.6021
X-67.1929
X-67.195
X-67.1966 Y31.6015
G3 X-67.2267 Y31.5246 I0.0566 J-0.0665
X-67.2237 Y31.51 I0.0147 J-0.0045
G1 X-67.2218 Y31.5086 Z-0.1298
X-67.2199 Y31.5072 Z-0.1293
X-67.2182 Y31.5059 Z-0.1284
X-67.2158 Y31.5054 Z-0.1268
X-67.2137 Y31.505 Z-0.1248
X-67.212 Y31.5046 Z-0.1225
X-67.2108 Y31.5047 Z-0.12
X-67.2101 Y31.5048 Z-0.1174
X-67.2099 Z-0.1146
G0 Z0.4
X-67.2907 Y29.9145
Z0.1
G3 X-67.3932 Y29.8875 Z0.0791 I-0.0384 J-0.0622 F50.
X-67.3611 Y29.7864 Z0.0582 I0.0641 J-0.0352
X-67.2618 Y29.8236 Z0.0373 I0.032 J0.0658
X-67.3039 Y29.9209 Z0.0164 I-0.0673 J0.0286
X-67.3989 Y29.8739 Z-0.0045 I-0.0252 J-0.0687
X-67.3473 Y29.7814 Z-0.0255 I0.0698 J-0.0217
X-67.2574 Y29.8376 Z-0.0464 I0.0182 J0.0709
X-67.4008 Y29.8668 Z-0.0869 I-0.0717 J0.0146
X-67.3364 Y29.7794 Z-0.1084 I0.0717 J-0.0146
X-67.256 Y29.8522 Z-0.13 I0.0073 J0.0728
X-67.4023 I-0.0732 J0.
X-67.2562 Y29.8463 I0.0731 J0.
G1 X-67.256 Y29.8522
G3 X-67.4155 Y29.9769 I-0.0845 J0.0563 F60.
G1 X-67.4634 Y29.9079
G3 X-67.4798 Y29.8213 I0.096 J-0.0629
X-67.4522 Y29.8266 I0.0126 J0.0088
G1 X-67.4357 Y29.8957
G3 X-67.4374 Y29.9072 I-0.015 J0.0036
X-67.4634 Y29.9079 I-0.0132 J-0.0079 F50.
X-67.4964 Y29.8485 I0.0279 J-0.0543 F60.
X-67.44 Y29.7584 I1.2863 J0.7425
X-67.1858 Y29.7847 I0.1199 J0.0821
G1 X-67.1857 Y29.9687
G3 X-67.3511 Y30.0906 I-0.1459 J-0.0249
G1 X-67.4185 Y29.9797
G3 Y29.9643 I0.0133 J-0.0077
X-67.4014 Y29.9569 I0.0137 J0.0079
X-67.3446 Y30.0595 I-0.0176 J0.0767
X-67.3508 Y30.0729 I-0.0744 J-0.0259 F50.
G2 Y30.0883 I0.0133 J0.0077
G1 X-67.3336 Y30.1158 F60.
G2 X-67.1845 Y30.1189 I0.0761 J-0.0737
G1 X-67.1857 Y29.9687
G2 X-67.1938 Y29.9557 I-0.0154 J0.0005
X-67.2558 Y29.9889 I-0.0199 J0.0373
X-67.2064 Y30.0968 I0.1176 J0.0115
X-67.1938 Y30.1046 I0.0682 J-0.0965 F50.
G3 X-67.1857 Y30.1177 I-0.0072 J0.0136
G1 Y30.1457 F60.
G3 X-67.2714 Y30.2184 I-0.0806 J-0.0081
G1 X-67.3336 Y30.1158
G3 Y30.1004 I0.0133 J-0.0077
X-67.3024 Y30.0915 I0.0202 J0.0116
X-67.2651 Y30.1869 I-0.037 J0.0695
X-67.2713 Y30.2003 I-0.0744 J-0.0259 F50.
G2 Y30.2157 I0.0133 J0.0077
G1 X-67.2608 Y30.2324 F60.
G2 X-67.184 Y30.2481 I0.0462 J-0.0304
G1 X-67.1857 Y30.1457
G2 X-67.2144 Y30.1384 I-0.0154 J0.0005
G1 X-67.2533 Y30.2043
X-67.2607 Y30.2169 F50.
G2 X-67.2608 Y30.2324 I0.0133 J0.0078
G1 X-67.2289 Y30.2836 F60.
G2 X-67.1857 Y30.2939 I0.024 J-0.0047
G1 Y30.2455
G2 X-67.1938 Y30.2324 I-0.0154 J0.0005
X-67.2147 Y30.2442 I-0.0067 J0.0125
X-67.2053 Y30.2716 I0.0393 J0.0019
X-67.1938 Y30.2808 I0.03 J-0.0255 F50.
G3 X-67.1857 Y30.2939 I-0.0072 J0.0136
G1 Y30.3086 F60.
X-67.186 Y30.3146
X-67.1884 Y30.3201
X-67.189 Y30.3208
X-67.1924 Y30.3238
X-67.1968 Y30.325
X-67.2013 Y30.3242
X-67.205 Y30.3216
G3 X-67.2062 Y30.3189 I0.0041 J-0.0034
X-67.2046 Y30.3144 I0.0053 J-0.0007 F50.
G1 X-67.1947 Y30.3049
G3 X-67.1857 Y30.3086 I0.0037 J0.0038
G1 Y30.3159 F60.
X-67.1877 Y30.3266
X-67.188 Y30.3272
X-67.1889 Y30.3288
X-67.1905 Y30.33
X-67.1909 Y30.3302
X-67.1928 Y30.3307
G3 X-67.2289 Y30.2836 I0.0074 J-0.0431
X-67.2169 Y30.2605 I0.0133 J-0.0077
G1 X-67.2139 Y30.2603 Z-0.1297
X-67.211 Y30.26 Z-0.1288
X-67.2084 Y30.2598 Z-0.1274
X-67.206 Y30.2596 Z-0.1255
X-67.2041 Y30.2594 Z-0.1232
X-67.2027 Y30.2593 Z-0.1205
X-67.2018 Y30.2592 Z-0.1176
X-67.2015 Z-0.1146
G0 Z-0.0992
X-67.2023 Y29.8276
G1 Z-0.1146 F50.
X-67.2021 Y29.8274 Z-0.1176
X-67.2017 Y29.8266 Z-0.1205
X-67.201 Y29.8254 Z-0.1232
X-67.2 Y29.8237 Z-0.1255
X-67.1988 Y29.8217 Z-0.1274
X-67.1974 Y29.8194 Z-0.1288
X-67.196 Y29.817 Z-0.1297
X-67.1944 Y29.8144 Z-0.13
G2 X-67.1857 Y29.7847 I-0.0536 J-0.0318
G1 Y29.7215 F60.
X-67.1877 Y29.7125
X-67.1903 Y29.7036
X-67.1934 Y29.6949
X-67.197 Y29.6865
X-67.2012 Y29.6783
X-67.206 Y29.6704
X-67.2112 Y29.6628
X-67.2169 Y29.6555
X-67.223 Y29.6486
X-67.2296 Y29.6422
X-67.2365 Y29.6361
X-67.2439 Y29.6306
X-67.2515 Y29.6255
X-67.2595 Y29.6209
X-67.2678 Y29.6168
X-67.2763 Y29.6132
X-67.285 Y29.6103
X-67.2939 Y29.6078
X-67.3029 Y29.606
X-67.312 Y29.6047
X-67.3212 Y29.604
X-67.3304 Y29.6039
X-67.3396 Y29.6044
X-67.3488 Y29.6055
X-67.3578 Y29.6071
X-67.3668 Y29.6094
X-67.3756 Y29.6122
X-67.3841 Y29.6155
X-67.3925 Y29.6194
G3 X-67.44 Y29.7584 I-0.8127 J-0.1999
G2 X-67.4318 Y29.7786 I0.0142 J0.006
X-67.3898 Y29.7665 I0.0135 J-0.0319
X-67.38 Y29.6486 I-0.097 J-0.0674
X-67.3894 Y29.6323 I-0.1068 J0.0505 F50.
G3 X-67.3918 Y29.6208 I0.0127 J-0.0087
G1 X-67.3858 Y29.5937 F60.
X-67.3813 Y29.5863
X-67.3763 Y29.5792
X-67.3708 Y29.5725
X-67.3648 Y29.5661
X-67.3585 Y29.5602
X-67.3517 Y29.5547
X-67.3446 Y29.5498
X-67.3371 Y29.5453
X-67.3294 Y29.5413
X-67.3214 Y29.5379
X-67.3132 Y29.5351
X-67.3048 Y29.5328
X-67.2963 Y29.5311
X-67.2876 Y29.53
X-67.279 Y29.5295
X-67.2703 Y29.5296
X-67.2616 Y29.5303
X-67.253 Y29.5316
X-67.2445 Y29.5335
X-67.2362 Y29.536
X-67.2281 Y29.539
X-67.2201 Y29.5426
X-67.2125 Y29.5467
X-67.2052 Y29.5514
X-67.1982 Y29.5565
X-67.1915 Y29.5621
X-67.1853 Y29.5682
X-67.1857 Y29.5713
X-67.1867 Y29.5743
X-67.1883 Y29.577
X-67.1903 Y29.5793
X-67.1928 Y29.5812
X-67.1956 Y29.5825
X-67.1986 Y29.5832
X-67.2082 Y29.5848
X-67.3663 Y29.611
X-67.3681 Y29.6113 F50.
G3 X-67.3858 Y29.5937 I-0.0025 J-0.0152
G1 X-67.3813 Y29.5703 F60.
X-67.3801 Y29.5469
X-67.3796 Y29.534
G3 X-67.3153 Y29.4614 I0.093 J0.0176
X-67.303 Y29.4868 I0.0007 J0.0154
G1 X-67.3525 Y29.5441
X-67.3549 Y29.5464
X-67.3578 Y29.5481
G3 X-67.3796 Y29.534 I-0.0064 J-0.014 F50.
X-67.3725 Y29.4683 I0.047 J-0.0282 F60.
X-67.2523 Y29.4564 I0.0903 J0.2994
X-67.1862 Y29.4715 I0.0251 J0.0424
X-67.2018 Y29.4878 I-0.0154 J0.0009
G1 X-67.2074 Y29.4877
X-67.2508 Y29.4871
G3 X-67.2637 Y29.4797 I0.0002 J-0.0154
X-67.2523 Y29.4564 I0.0131 J-0.0081 F50.
X-67.1869 Y29.4663 I0.0283 J0.0342 F60.
G1 X-67.1863 Y29.4707
X-67.1857 Y29.4765
Y29.7215
G3 X-67.1933 Y29.7342 I-0.0154 J-0.0005
G1 X-67.1956 Y29.7349 Z-0.1298
X-67.1978 Y29.7356 Z-0.1293
X-67.1999 Y29.7363 Z-0.1284
X-67.2011 Z-0.1277
X-67.2034 Y29.7358 Z-0.1258
X-67.2054 Y29.7353 Z-0.1235
X-67.2069 Y29.735 Z-0.1208
X-67.2078 Y29.7348 Z-0.1179
X-67.208 Y29.7347 Z-0.1162
X-67.2081 Y29.7346 Z-0.1146
G0 Z0.4
X-66.507 Y30.5309
Z-0.0992
G1 Z-0.1146 F50.
X-66.5068 Y30.5306 Z-0.1176
X-66.5063 Y30.5299 Z-0.1205
X-66.5055 Y30.5287 Z-0.1232
X-66.5044 Y30.5272 Z-0.1255
X-66.5031 Y30.5252 Z-0.1274
X-66.5015 Y30.5231 Z-0.1288
X-66.4999 Y30.5207 Z-0.1297
X-66.4982 Y30.5182 Z-0.13
G3 X-66.4424 Y30.4545 I0.3219 J0.2257
X-66.3015 Y30.6082 I0.0529 J0.0929 F60.
G1 X-66.3051 Y30.6185
X-66.3093 Y30.6287
X-66.3141 Y30.6385
X-66.3194 Y30.6481
X-66.3253 Y30.6574
X-66.3316 Y30.6663
X-66.3385 Y30.6749
X-66.3458 Y30.6831
X-66.3536 Y30.6908
X-66.3618 Y30.698
X-66.3705 Y30.7048
X-66.3795 Y30.7111
X-66.3888 Y30.7169
X-66.3984 Y30.7221
X-66.4083 Y30.7268
X-66.4185 Y30.7309
X-66.4289 Y30.7344
X-66.4395 Y30.7373
X-66.4502 Y30.7397
X-66.461 Y30.7414
X-66.472 Y30.7425
X-66.4829 Y30.7429
X-66.4939 Y30.7428
X-66.5048 Y30.742
X-66.5157 Y30.7406
X-66.5265 Y30.7386
X-66.5371 Y30.736
X-66.5476 Y30.7328
X-66.5579 Y30.729
X-66.568 Y30.7246
X-66.5778 Y30.7196
X-66.5872 Y30.7141
X-66.5964 Y30.7081
X-66.6052 Y30.7016
X-66.6136 Y30.6945
X-66.6217 Y30.687
X-66.6292 Y30.6791
X-66.6363 Y30.6708
X-66.643 Y30.662
X-66.6491 Y30.6529
G3 X-66.7023 Y30.3615 I0.1097 J-0.1706
X-66.408 Y30.3279 I0.1629 J0.1208
X-66.2525 Y30.4075 I-0.0212 J0.2332
G1 X-66.2469 Y30.4141
X-66.2396 Y30.4242
X-66.2328 Y30.4347
X-66.2265 Y30.4455
X-66.2207 Y30.4567
X-66.2155 Y30.468
X-66.2109 Y30.4797
X-66.2068 Y30.4915
X-66.2033 Y30.5035
X-66.2004 Y30.5157
X-66.1981 Y30.528
X-66.1964 Y30.5404
X-66.1953 Y30.5528
X-66.1948 Y30.5653
X-66.1949 Y30.5778
X-66.1956 Y30.5903
X-66.1969 Y30.6028
X-66.1988 Y30.6151
X-66.2013 Y30.6274
X-66.2044 Y30.6395
X-66.2081 Y30.6515
X-66.2124 Y30.6632
X-66.2172 Y30.6748
X-66.2226 Y30.6861
X-66.2285 Y30.6971
X-66.235 Y30.7078
X-66.2419 Y30.7182
X-66.2494 Y30.7282
X-66.2573 Y30.7379
X-66.2657 Y30.7472
X-66.2746 Y30.756
X-66.2838 Y30.7645
X-66.2935 Y30.7724
X-66.3035 Y30.7799
X-66.3139 Y30.7869
X-66.3246 Y30.7933
X-66.3356 Y30.7993
X-66.3469 Y30.8047
X-66.3585 Y30.8095
X-66.3702 Y30.8138
X-66.5253 Y30.8143
G3 X-66.8143 Y30.576 I0.0306 J-0.3314
G1 Y30.4141
X-66.8123 Y30.4014
X-66.8097 Y30.3889
X-66.8066 Y30.3765
X-66.8028 Y30.3643
X-66.7984 Y30.3523
X-66.7935 Y30.3405
X-66.788 Y30.3289
X-66.782 Y30.3176
X-66.7754 Y30.3067
X-66.7683 Y30.296
X-66.7607 Y30.2857
X-66.7526 Y30.2758
X-66.7441 Y30.2663
X-66.7351 Y30.2572
X-66.7257 Y30.2486
X-66.7158 Y30.2404
X-66.7056 Y30.2327
X-66.6951 Y30.2255
X-66.6842 Y30.2188
X-66.6729 Y30.2127
X-66.6614 Y30.207
X-66.6497 Y30.202
X-66.6377 Y30.1975
X-66.6255 Y30.1936
X-66.6132 Y30.1903
X-66.6007 Y30.1876
X-66.5881 Y30.1855
X-66.5754 Y30.184
X-66.5626 Y30.1832
X-66.5498 Y30.1829
X-66.537 Y30.1832
X-66.5243 Y30.1842
X-66.5116 Y30.1858
X-66.499 Y30.188
X-66.4865 Y30.1908
X-66.4742 Y30.1941
X-66.462 Y30.1981
X-66.4501 Y30.2027
X-66.4383 Y30.2078
X-66.4269 Y30.2135
X-66.4157 Y30.2197
X-66.2525 Y30.4075
G3 X-66.2702 Y30.4317 I-0.0117 J0.01
G1 X-66.2837 Y30.426
G3 X-66.2728 Y30.3972 I0.006 J-0.0142
X-66.2469 Y30.4141 I-0.0199 J0.059 F50.
G1 X-66.1464 Y30.5312 F60.
G3 X-66.2052 Y30.8143 I-0.2027 J0.1055
G1 X-66.3701
G3 X-66.3831 Y30.8061 I0.0005 J-0.0154
X-66.3612 Y30.7501 I0.0349 J-0.0186
X-66.226 Y30.7935 I0.0387 J0.1116
X-66.2182 Y30.8061 I-0.0965 J0.0682 F50.
G2 X-66.2052 Y30.8143 I0.0136 J-0.0072
G1 X-66.1607 F60.
G2 X-66.0306 Y30.6663 I-0.0253 J-0.1533
G1 X-66.1464 Y30.5312
G2 X-66.1611 Y30.5266 I-0.0113 J0.0104
X-66.1875 Y30.5658 I0.0075 J0.0335
X-66.0599 Y30.664 I0.1165 J-0.0194
X-66.0453 Y30.6617 I-0.011 J-0.1176 F50.
G3 X-66.0306 Y30.6663 I0.0033 J0.015
G1 X-66.0058 Y30.6953 F60.
G3 X-66.0111 Y30.8158 I-0.0804 J0.0568
G1 X-66.014 Y30.8155
X-66.0169 Y30.8148
X-66.0196 Y30.8136
X-66.0219 Y30.812
X-66.024 Y30.8099
X-66.0256 Y30.8076
X-66.0268 Y30.8051
X-66.0275 Y30.8024
X-66.0277 Y30.7997
X-66.0281 Y30.7916
X-66.0325 Y30.7065
X-66.0323 Y30.7031
X-66.0313 Y30.6999
G3 X-66.0058 Y30.6953 I0.0142 J0.0059 F50.
G1 X-65.954 Y30.7557 F60.
G3 X-65.9465 Y30.8143 I-0.0124 J0.0313
X-65.982 Y30.7612 I0.0014 J-0.0393
X-65.9806 Y30.7582 I0.0157 J0.0058
X-65.954 Y30.7557 I0.0143 J0.0088 F50.
X-65.9153 Y30.8084 I-0.0136 J0.0506 F60.
G1 X-65.9156 Y30.8091
X-65.9165 Y30.8104
X-65.9169 Y30.8108
X-65.9189 Y30.8121
X-65.9209 Y30.8125
X-65.93 Y30.8142
X-66.1607 Y30.8143
G3 X-66.1706 Y30.7876 I0.0005 J-0.0154
X-66.1608 Y30.7981 I0.0049 J0.0052
X-66.1701 Y30.7985 I-0.0049 J-0.0052
X-66.4133 Y30.2482 I0.3846 J-0.4989
G1 X-66.4115 Y30.2295 F50.
G2 X-66.4148 Y30.2181 I-0.0153 J-0.0017
G1 X-66.4784 Y30.1439 F60.
G2 X-66.8143 Y30.2043 I-0.1348 J0.2146
G1 Y30.4141
G2 X-66.7989 Y30.4289 I0.0154 J-0.0005
G1 X-66.7965 Y30.4287
X-66.7941 Y30.4282
X-66.7919 Y30.4272
G2 X-66.7844 Y30.4187 I-0.007 J-0.0137
G3 X-66.7643 Y30.4095 I0.0145 J0.0052
X-66.7557 Y30.4299 I-0.0056 J0.0143
G1 X-66.8047 Y30.5445
X-66.8056 Y30.5463
G2 X-66.8143 Y30.576 I0.0536 J0.0318 F50.
G1 Y30.6953 F60.
G2 X-66.7552 Y30.8143 I0.1372 J0.006
G1 X-66.5253
G2 X-66.5204 Y30.7845 I-0.0005 J-0.0154
G1 X-66.7919 Y30.682
X-66.7935 Y30.6814 F50.
G2 X-66.8143 Y30.6953 I-0.0054 J0.0144
X-66.812 Y30.7861 I0.0946 J0.043 F60.
X-66.7552 Y30.8143 I0.0444 J-0.0183
X-66.7415 Y30.8049 I-0.0005 J-0.0154
G1 X-66.7404 Y30.8021 Z-0.1297
X-66.7392 Y30.7995 Z-0.1288
X-66.7382 Y30.797 Z-0.1274
X-66.7373 Y30.7949 Z-0.1255
X-66.7365 Y30.7931 Z-0.1232
X-66.736 Y30.7918 Z-0.1205
X-66.7356 Y30.791 Z-0.1176
X-66.7355 Y30.7907 Z-0.1146
G0 Z-0.0992
X-66.7977 Y30.2472
G1 Z-0.1146 F50.
X-66.7979 Y30.247 Z-0.1176
X-66.7983 Y30.2462 Z-0.1205
X-66.799 Y30.245 Z-0.1232
X-66.8 Y30.2434 Z-0.1255
X-66.8012 Y30.2413 Z-0.1274
X-66.8026 Y30.2391 Z-0.1288
X-66.8041 Y30.2366 Z-0.1297
X-66.8056 Y30.234 Z-0.13
G3 X-66.8143 Y30.2043 I0.0536 J-0.0318
G1 Y30.1562 F60.
G3 X-66.5938 Y30.0093 I0.1919 J0.0491
G1 X-66.4784 Y30.1439
G3 X-66.4761 Y30.1591 I-0.012 J0.0096
X-66.5196 Y30.1793 I-0.0323 J-0.0126
X-66.596 Y30.0386 I0.0381 J-0.1118
X-66.5915 Y30.0245 I0.1145 J0.0289 F50.
G2 X-66.5938 Y30.0093 I-0.0143 J-0.0056
G1 X-66.6191 Y29.9797 F60.
X-66.6265 Y29.9738
X-66.6342 Y29.9685
X-66.6423 Y29.9636
X-66.6507 Y29.9593
X-66.6593 Y29.9555
X-66.6682 Y29.9524
X-66.6772 Y29.9498
X-66.6865 Y29.9478
X-66.6958 Y29.9465
X-66.7052 Y29.9457
X-66.7146 Y29.9456
X-66.724 Y29.9461
X-66.7333 Y29.9473
X-66.7426 Y29.949
X-66.7517 Y29.9514
X-66.7607 Y29.9544
X-66.7694 Y29.9579
X-66.7779 Y29.9621
X-66.786 Y29.9667
X-66.7939 Y29.9719
X-66.8014 Y29.9777
X-66.8085 Y29.9839
X-66.8151 Y29.9905
X-66.8143 Y30.1562
G2 X-66.8062 Y30.1693 I0.0154 J-0.0005
X-66.7502 Y30.1474 I0.0186 J-0.0349
X-66.7936 Y30.0121 I-0.1116 J-0.0388
X-66.8062 Y30.0043 I-0.0682 J0.0965 F50.
G3 X-66.8143 Y29.9913 I0.0072 J-0.0136
G1 Y29.9558 F60.
G3 X-66.7134 Y29.8676 I0.1011 J0.0137
G1 X-66.6191 Y29.9797
G3 X-66.6168 Y29.9949 I-0.012 J0.0096
X-66.6875 Y30.0084 I-0.0396 J-0.0155
X-66.7156 Y29.8991 I0.0865 J-0.0805
X-66.7111 Y29.885 I0.1145 J0.0289 F50.
G2 X-66.7134 Y29.8698 I-0.0143 J-0.0056
G1 X-66.729 Y29.8515 F60.
G2 X-66.816 Y29.841 I-0.0494 J0.0433
G1 X-66.8143 Y29.9558
G2 X-66.7858 Y29.9634 I0.0154 J-0.0005
G1 X-66.7342 Y29.8795
X-66.7279 Y29.8692 F50.
G2 X-66.729 Y29.8515 I-0.0131 J-0.0081
G1 X-66.7735 Y29.7997 F60.
G2 X-66.8143 Y29.7937 I-0.0216 J0.0053
G1 Y29.8047
Y29.8434
G2 X-66.8062 Y29.8565 I0.0154 J-0.0005
X-66.7856 Y29.8456 I0.0066 J-0.0124
X-66.7947 Y29.8161 I-0.0392 J-0.0041
X-66.8062 Y29.8068 I-0.0301 J0.0254 F50.
G3 X-66.8143 Y29.7937 I0.0073 J-0.0136
G1 X-66.8142 Y29.7812 F60.
X-66.8136 Y29.7774
X-66.8133 Y29.7757
X-66.813 Y29.7743
X-66.8127 Y29.773
X-66.8121 Y29.7712
X-66.8112 Y29.7696
X-66.8099 Y29.7683
X-66.8085 Y29.7687
G3 X-66.7974 Y29.8039 I-0.0276 J0.0281
X-66.8095 Y29.805 I-0.0062 J-0.0011
X-66.813 Y29.7743 I0.0582 J-0.0222 F50.
G1 X-66.8126 Y29.7716 F60.
X-66.8121 Y29.7708
X-66.8117 Y29.7701
X-66.8112 Y29.7694
X-66.8099 Y29.7683
G3 X-66.7735 Y29.7997 I0.0081 J0.0274
X-66.771 Y29.8143 I-0.012 J0.0096
G1 X-66.7722 Y29.8164 Z-0.1298
X-66.7734 Y29.8183 Z-0.1293
X-66.7746 Y29.8202 Z-0.1284
X-66.7764 Y29.8213 Z-0.127
X-66.778 Y29.8223 Z-0.1254
X-66.7793 Y29.8231 Z-0.1235
X-66.7804 Y29.8238 Z-0.1214
X-66.7812 Y29.8241 Z-0.1192
X-66.7817 Y29.8242 Z-0.1169
X-66.7819 Y29.8243 Z-0.1146
G0 Z0.4
X-66.5243 Y31.4962
Z-0.0992
G1 Z-0.1146 F50.
X-66.524 Y31.4963 Z-0.1176
X-66.5233 Y31.4967 Z-0.1205
X-66.522 Y31.4973 Z-0.1232
X-66.5203 Y31.4982 Z-0.1255
X-66.5182 Y31.4992 Z-0.1274
X-66.5158 Y31.5004 Z-0.1288
X-66.5132 Y31.5017 Z-0.1297
X-66.5105 Y31.503 Z-0.13
G3 X-66.439 Y31.5484 I-0.1738 J0.3527
X-66.5749 Y31.7091 I-0.093 J0.0592 F60.
G1 X-66.5853 Y31.7077
X-66.5956 Y31.7058
X-66.6058 Y31.7032
X-66.6159 Y31.7001
X-66.6257 Y31.6964
X-66.6353 Y31.6921
X-66.6447 Y31.6874
X-66.6538 Y31.682
X-66.6625 Y31.6762
X-66.6709 Y31.6699
X-66.679 Y31.6631
X-66.6866 Y31.6559
X-66.6938 Y31.6482
X-66.7006 Y31.6401
X-66.7068 Y31.6317
X-66.7126 Y31.6229
X-66.7179 Y31.6138
X-66.7227 Y31.6045
X-66.7269 Y31.5948
X-66.7305 Y31.585
X-66.7336 Y31.5749
X-66.7361 Y31.5647
X-66.7381 Y31.5544
X-66.7394 Y31.5439
X-66.7401 Y31.5335
X-66.7402 Y31.5229
X-66.7398 Y31.5124
X-66.7387 Y31.502
X-66.737 Y31.4916
X-66.7348 Y31.4813
X-66.7319 Y31.4712
X-66.7285 Y31.4613
X-66.7246 Y31.4515
X-66.72 Y31.442
X-66.715 Y31.4328
X-66.7094 Y31.4239
X-66.7033 Y31.4153
X-66.6968 Y31.4071
X-66.6898 Y31.3993
X-66.6857 Y31.3885
X-66.681 Y31.378
X-66.6757 Y31.3677
X-66.67 Y31.3578
X-66.6636 Y31.3481
X-66.6568 Y31.3389
X-66.6495 Y31.33
X-66.6417 Y31.3215
X-66.6334 Y31.3135
X-66.6248 Y31.3059
X-66.6157 Y31.2988
X-66.6063 Y31.2922
X-66.5965 Y31.2861
X-66.5864 Y31.2806
X-66.576 Y31.2756
X-66.5653 Y31.2712
X-66.5545 Y31.2674
X-66.5434 Y31.2641
X-66.5322 Y31.2615
X-66.5209 Y31.2595
X-66.5095 Y31.2581
X-66.498 Y31.2573
X-66.4865 Y31.2572
X-66.4749 Y31.2576
X-66.4635 Y31.2587
X-66.4521 Y31.2605
X-66.4408 Y31.2628
X-66.4297 Y31.2657
X-66.4187 Y31.2693
X-66.408 Y31.2734
X-66.3975 Y31.2781
X-66.3872 Y31.2834
X-66.3773 Y31.2892
X-66.3677 Y31.2956
X-66.3585 Y31.3024
X-66.3496 Y31.3098
X-66.3412 Y31.3176
X-66.3331 Y31.3259
X-66.3256 Y31.3345
X-66.3185 Y31.3436
X-66.312 Y31.3531
X-66.3059 Y31.3629
X-66.3004 Y31.373
X-66.2955 Y31.3834
X-66.2911 Y31.394
X-66.2873 Y31.4049
X-66.2841 Y31.416
X-66.2815 Y31.4272
X-66.2796 Y31.4385
X-66.2782 Y31.4499
X-66.2775 Y31.4614
X-66.2773 Y31.4729
X-66.2779 Y31.4844
X-66.279 Y31.4959
G2 X-66.3372 Y31.6735 I1.3304 J0.5346
G3 X-66.7533 Y31.7232 I-0.2245 J-0.1125
X-66.8143 Y31.622 I0.0973 J-0.1275
G1 Y31.4688
G3 X-66.585 Y31.1857 I0.338 J0.0394
X-66.5725 Y31.2101 I0. J0.0154
G1 X-66.7798 Y31.4995
G3 X-66.8056 Y31.4984 I-0.0125 J-0.009
X-66.8143 Y31.4688 I0.0536 J-0.0318 F50.
G1 Y31.3047 F60.
G3 X-66.7557 Y31.1857 I0.1352 J-0.0073
X-66.742 Y31.207 I-0.0005 J0.0154
G1 X-66.7425 Y31.2082
X-66.7847 Y31.31
G3 X-66.7919 Y31.3179 I-0.0142 J-0.0059
X-66.8143 Y31.3047 I-0.007 J-0.0137 F50.
X-66.812 Y31.2139 I0.0945 J-0.043 F60.
G1 X-66.81 Y31.2093
X-66.8074 Y31.2051
X-66.8045 Y31.2011
X-66.8011 Y31.1975
X-66.7974 Y31.1942
X-66.7933 Y31.1914
X-66.7889 Y31.189
X-66.7843 Y31.1872
X-66.7795 Y31.1858
X-66.7747 Y31.185
X-66.7697 Y31.1847
X-66.7648 Y31.185
X-66.7599 Y31.1858
X-66.4081 Y31.1857
X-66.3958 Y31.1878
X-66.3836 Y31.1905
X-66.3716 Y31.1938
X-66.3597 Y31.1977
X-66.348 Y31.2021
X-66.3366 Y31.2071
X-66.3254 Y31.2126
X-66.3145 Y31.2186
X-66.3039 Y31.2252
X-66.2936 Y31.2323
X-66.2836 Y31.2398
X-66.2741 Y31.2479
X-66.2649 Y31.2563
X-66.2562 Y31.2652
X-66.2479 Y31.2746
X-66.24 Y31.2843
X-66.2327 Y31.2943
X-66.2258 Y31.3047
X-66.2194 Y31.3155
X-66.2136 Y31.3265
X-66.2083 Y31.3378
X-66.2035 Y31.3493
X-66.1993 Y31.3611
X-66.1957 Y31.373
X-66.1926 Y31.3851
X-66.1902 Y31.3973
X-66.1883 Y31.4097
X-66.187 Y31.4221
X-66.1863 Y31.4346
X-66.1862 Y31.447
X-66.1868 Y31.4595
X-66.1879 Y31.4719
X-66.1896 Y31.4843
X-66.1919 Y31.4965
X-66.1948 Y31.5087
X-66.1982 Y31.5207
X-66.2023 Y31.5325
X-66.4784 Y31.8561
G3 X-66.8143 Y31.7954 I-0.1331 J-0.2228
G1 Y31.622
G3 X-66.8062 Y31.6089 I0.0154 J0.0005
X-66.7564 Y31.6246 I0.0172 J0.0322
X-66.7936 Y31.7745 I-0.1053 J0.0535
X-66.8062 Y31.7823 I-0.0682 J-0.0965 F50.
G2 X-66.8143 Y31.7954 I0.0072 J0.0136
G1 Y31.8438 F60.
G2 X-66.5915 Y31.9881 I0.1917 J-0.0519
G1 X-66.4784 Y31.8561
G2 X-66.4761 Y31.8409 I-0.012 J-0.0096
X-66.5237 Y31.8205 I-0.0339 J0.0132
X-66.5937 Y31.9587 I0.0445 J0.1094
X-66.5892 Y31.9728 I0.1145 J-0.0289 F50.
G3 X-66.5915 Y31.9881 I-0.0143 J0.0056
G1 X-66.6191 Y32.0203 F60.
X-66.6266 Y32.026
X-66.6344 Y32.0312
X-66.6426 Y32.0358
X-66.651 Y32.04
X-66.6597 Y32.0435
X-66.6686 Y32.0465
X-66.6777 Y32.049
X-66.6869 Y32.0508
X-66.6962 Y32.052
X-66.7055 Y32.0526
X-66.7149
X-66.7243 Y32.052
X-66.7336 Y32.0508
X-66.7428 Y32.049
X-66.7519 Y32.0466
X-66.7608 Y32.0436
X-66.7695 Y32.0401
X-66.7779 Y32.036
X-66.7861 Y32.0313
X-66.7939 Y32.0261
X-66.8014 Y32.0205
X-66.8085 Y32.0143
X-66.8152 Y32.0077
X-66.8143 Y31.8438
G3 X-66.8062 Y31.8307 I0.0154 J0.0005
X-66.7491 Y31.854 I0.0188 J0.0354
X-66.7936 Y31.9861 I-0.1126 J0.0356
X-66.8062 Y31.9938 I-0.0682 J-0.0965 F50.
G2 X-66.8143 Y32.0069 I0.0072 J0.0136
G1 Y32.0442 F60.
G2 X-66.7123 Y32.1312 I0.1018 J-0.016
G1 X-66.6191 Y32.0203
G2 X-66.6329 Y31.9954 I-0.012 J-0.0096
X-66.6443 Y31.9987 I0.0038 J0.0338
X-66.7096 Y32.0988 I0.0526 J0.1057
X-66.709 Y32.1176 I0.118 J0.0056 F50.
G3 X-66.7123 Y32.1289 I-0.0153 J0.0017
G1 X-66.729 Y32.1485 F60.
G3 X-66.816 Y32.1581 I-0.049 J-0.0448
G1 X-66.8159 Y32.1551
X-66.8152 Y32.1522
X-66.8141 Y32.1496
X-66.8125 Y32.1472
X-66.8106 Y32.1451
X-66.8084 Y32.1434
X-66.8059 Y32.1422
X-66.8033 Y32.1414
X-66.7921 Y32.138
X-66.786 Y32.1342
X-66.7796 Y32.131
X-66.7729 Y32.1283
X-66.766 Y32.1262
X-66.759 Y32.1246
X-66.7518 Y32.1238
X-66.7446 Y32.1235
X-66.7374 Y32.1238
X-66.7345 Y32.1249 F50.
X-66.7319 Y32.1265
X-66.7296 Y32.1285
X-66.7278 Y32.131
X-66.7265 Y32.1338
X-66.7258 Y32.1369
X-66.7257 Y32.1399
X-66.7262 Y32.143
X-66.7273 Y32.1459
X-66.729 Y32.1485
X-66.7735 Y32.2003 F60.
G3 X-66.8143 Y32.2059 I-0.0215 J-0.0055
X-66.7973 Y32.1748 I0.0394 J0.0012
X-66.7789 Y32.1738 I0.01 J0.0145
X-66.7735 Y32.2003 I-0.0083 J0.0156 F50.
X-66.8094 Y32.232 I-0.029 J0.0033 F60.
G1 X-66.8122 Y32.229
X-66.8144 Y32.2258
X-66.8163 Y32.2222
X-66.8176 Y32.2184
X-66.8184 Y32.2145
X-66.8187 Y32.2105
X-66.8184 Y32.2065
X-66.8175 Y32.2026
X-66.8162 Y32.1989
X-66.8143 Y32.1953
Y32.0442
G0 Z-0.0992
X-66.2418 Y31.5546
G1 Z-0.1146 F50.
X-66.2416 Y31.5545 Z-0.1176
X-66.2407 Y31.5542 Z-0.1205
X-66.2394 Y31.5538 Z-0.1232
X-66.2376 Y31.5532 Z-0.1255
X-66.2354 Y31.5524 Z-0.1274
X-66.2328 Y31.5516 Z-0.1288
X-66.2301 Y31.5506 Z-0.1297
X-66.2272 Y31.5497 Z-0.13
G2 X-66.2013 Y31.5328 I-0.0199 J-0.059
G1 X-66.141 Y31.4624 F60.
G2 X-66.2042 Y31.1857 I-0.2016 J-0.0995
G1 X-66.4081
G2 X-66.4229 Y31.2017 I0.0005 J0.0154
X-66.4147 Y31.216 I0.0177 J-0.0006
X-66.2285 Y31.2036 I0.0847 J-0.1328
X-66.2149 Y31.1906 I-0.1015 J-0.1204 F50.
G3 X-66.2042 Y31.1857 I0.0113 J0.0105
G1 X-66.1501 F60.
X-66.1406 Y31.188
X-66.1313 Y31.1909
X-66.1221 Y31.1943
X-66.1132 Y31.1984
X-66.1046 Y31.203
X-66.0962 Y31.2081
X-66.0883 Y31.2137
X-66.0806 Y31.2199
X-66.0734 Y31.2265
X-66.0667 Y31.2336
X-66.0604 Y31.241
X-66.0546 Y31.2489
X-66.0493 Y31.2571
X-66.0445 Y31.2656
X-66.0403 Y31.2745
X-66.0366 Y31.2835
X-66.0335 Y31.2928
X-66.0311 Y31.3023
X-66.0292 Y31.3119
X-66.028 Y31.3216
X-66.0273 Y31.3313
X-66.141 Y31.4624
G3 X-66.1557 Y31.467 I-0.0113 J-0.0104
X-66.1834 Y31.4219 I0.008 J-0.036
X-66.0579 Y31.3337 I0.1144 J0.0294
X-66.0433 Y31.336 I-0.011 J0.1176 F50.
G2 X-66.0286 Y31.3314 I0.0033 J-0.015
G1 X-66.0058 Y31.3047 F60.
G2 X-66.0089 Y31.1842 I-0.0767 J-0.0583
G1 X-66.1501 Y31.1857
G2 X-66.1584 Y31.2137 I0.0005 J0.0154
G1 X-66.0331 Y31.3018
X-66.026 Y31.3069 F50.
G2 X-66.0058 Y31.3047 I0.0089 J-0.0126
G1 X-65.954 Y31.2443 F60.
G2 X-65.9455 Y31.1857 I-0.0103 J-0.0314
G1 X-66.0107
G2 X-66.0256 Y31.2017 I0.0005 J0.0154
X-66.0105 Y31.2156 I0.0144 J-0.0005
X-65.9705 Y31.2027 I-0.0032 J-0.0787
X-65.9562 Y31.1906 I-0.0432 J-0.0658 F50.
G3 X-65.9455 Y31.1857 I0.0113 J0.0105
G1 X-65.9322 F60.
X-65.9311
X-65.9305
X-65.9295 Y31.1858
X-65.9291 Y31.1859
G3 X-65.9253 Y31.1887 I-0.0013 J0.0058
X-65.9356 Y31.1946 I-0.0051 J0.003 F50.
X-65.9326 Y31.1862 I0.0051 J-0.0029
X-65.9305 Y31.1857 I0.0023 J0.0059
G1 X-65.93 Y31.1858 F60.
X-65.9272 Y31.1863
X-65.9253 Y31.1867
X-65.924 Y31.1869
X-65.9199 Y31.1879
X-65.9189 Y31.1882
X-65.9179 Y31.1887
X-65.9169 Y31.1892
X-65.9179 Y31.1921
G3 X-65.945 Y31.1938 I-0.0183 J-0.0766
G1 X-65.9466 Y31.1936 F50.
X-65.947 Y31.1891
G3 X-65.924 Y31.1869 I0.0159 J0.044
G1 X-65.9196 Y31.1878 F60.
X-65.9189 Y31.1879
X-65.9169 Y31.1892
X-65.9165 Y31.1896
X-65.9156 Y31.1909
X-65.9153 Y31.1916
G3 X-65.954 Y31.2443 I-0.0572 J-0.0014
X-65.9681 Y31.249 I-0.0113 J-0.0104
G1 X-65.9703 Y31.2481 Z-0.1298
X-65.9724 Y31.2472 Z-0.1293
X-65.9744 Y31.2463 Z-0.1284
X-65.9758 Y31.2447 Z-0.127
X-65.977 Y31.2433 Z-0.1254
X-65.9781 Y31.2421 Z-0.1235
X-65.9789 Y31.2411 Z-0.1214
X-65.9793 Y31.2404 Z-0.1192
X-65.9795 Y31.2399 Z-0.1169
X-65.9796 Y31.2397 Z-0.1146
G0 Z0.4
X-65.4867 Y30.0315
Z-0.0992
G1 Z-0.1146 F50.
X-65.4865 Y30.0316 Z-0.1176
X-65.4857 Y30.032 Z-0.1205
X-65.4844 Y30.0326 Z-0.1232
X-65.4827 Y30.0335 Z-0.1255
X-65.4806 Y30.0345 Z-0.1274
X-65.4782 Y30.0357 Z-0.1288
X-65.4756 Y30.0369 Z-0.1297
X-65.4729 Y30.0383 Z-0.13
G3 X-65.4014 Y30.0837 I-0.1738 J0.3527
G1 X-65.3919 Y30.0895 F60.
X-65.3828 Y30.0958
X-65.374 Y30.1026
X-65.3656 Y30.1099
X-65.3577 Y30.1177
X-65.3502 Y30.1259
X-65.3432 Y30.1345
X-65.3366 Y30.1435
X-65.3306 Y30.1529
X-65.3251 Y30.1625
X-65.3202 Y30.1725
X-65.3159 Y30.1827
X-65.3121 Y30.1932
X-65.3089 Y30.2038
X-65.3063 Y30.2146
X-65.3043 Y30.2256
X-65.303 Y30.2366
X-65.3023 Y30.2477
X-65.3022 Y30.2588
X-65.3027 Y30.2699
X-65.3038 Y30.281
X-65.3056 Y30.292
X-65.308 Y30.3028
X-65.3109 Y30.3135
X-65.3145 Y30.324
X-65.3187 Y30.3344
X-65.3234 Y30.3444
X-65.3287 Y30.3542
X-65.3346 Y30.3636
X-65.3409 Y30.3728
X-65.3478 Y30.3815
X-65.3551 Y30.3898
X-65.3629 Y30.3978
X-65.3712 Y30.4052
X-65.3798 Y30.4122
X-65.3888 Y30.4187
X-65.3982 Y30.4247
X-65.4079 Y30.4301
X-65.4179 Y30.435
X-65.4281 Y30.4394
X-65.4386 Y30.4431
X-65.4492 Y30.4462
X-65.4601 Y30.4488
X-65.471 Y30.4507
X-65.482 Y30.452
X-65.4931 Y30.4527
X-65.5042 Y30.4528
X-65.5153 Y30.4522
X-65.5264 Y30.451
X-65.5374 Y30.4492
X-65.5482 Y30.4468
X-65.5589 Y30.4438
X-65.5694 Y30.4402
X-65.5797 Y30.436
X-65.5897 Y30.4312
X-65.5995 Y30.4258
X-65.6089 Y30.42
X-65.618 Y30.4136
X-65.6267 Y30.4067
X-65.6351 Y30.3993
X-65.6429 Y30.3915
X-65.6504 Y30.3832
X-65.6573 Y30.3746
X-65.6638 Y30.3655
X-65.6697 Y30.3561
X-65.6752 Y30.3464
X-65.68 Y30.3364
X-65.6843 Y30.3261
X-65.688 Y30.3157
X-65.6911 Y30.305
X-65.6936 Y30.2942
X-65.6955 Y30.2832
X-65.6967 Y30.2722
X-65.6974 Y30.2611
Y30.25
X-65.6968 Y30.2389
X-65.6956 Y30.2278
X-65.6937 Y30.2169
X-65.6913 Y30.206
X-65.6882 Y30.1953
G2 X-65.8806 Y30.0001 I-0.3614 J0.1637
G3 X-66.1497 Y29.8096 I0.3286 J-0.7493
X-65.9112 Y29.5453 I0.1615 J-0.0941
X-65.5345 Y29.7564 I-0.5476 J1.4186
G2 X-65.2636 Y29.621 I-0.095 J-0.5291
G3 X-64.9343 Y29.5453 I0.2375 J0.2792
X-64.9834 Y29.9056 I-0.0813 J0.1724
X-65.2114 Y30.0653 I-9.0086 J-12.6244
G2 X-65.2156 Y30.1873 I0.229 J0.0688
G3 X-65.7807 Y30.3265 I-0.2826 J0.0696
X-65.7879 Y30.2306 I0.2825 J-0.0696
G2 X-66.1549 Y29.9483 I-0.8854 J0.771
G1 X-66.1635 Y29.9405
X-66.1641 Y29.9398
X-66.197 Y29.9015
G3 X-65.9833 Y29.4357 I0.2072 J-0.1868
G1 X-65.9625
X-65.9391 Y29.4406
X-65.9158 Y29.446
X-65.8926 Y29.452
X-65.8697 Y29.4587
X-65.8469 Y29.4659
X-65.8243 Y29.4737
X-65.8019 Y29.4822
X-65.7798 Y29.4912
X-65.7579 Y29.5008
X-65.7362 Y29.5109
X-65.7149 Y29.5217
X-65.6938 Y29.533
X-65.673 Y29.5448
X-65.6525 Y29.5572
X-65.6324 Y29.5701
X-65.6126 Y29.5835
X-65.5932 Y29.5975
X-65.5742 Y29.6119
X-65.5555 Y29.6269
X-65.5373 Y29.6423
G2 X-65.2551 Y29.5048 I-0.3662 J-1.1098
G3 X-65.0698 Y29.4357 I0.2807 J0.4698
G1 X-65.001
G3 X-64.9109 Y29.9784 I-0.0098 J0.2805
G2 X-65.1014 Y30.1338 I0.2785 J0.5359
G3 X-65.1169 Y30.2677 I-0.4034 J0.021
G1 X-65.3921 Y30.5888
X-65.3998 Y30.5962
X-65.4079 Y30.603
X-65.4164 Y30.6094
X-65.4252 Y30.6153
X-65.4344 Y30.6207
X-65.4438 Y30.6255
X-65.4536 Y30.6297
X-65.4635 Y30.6334
X-65.4737 Y30.6364
X-65.484 Y30.6389
X-65.4945 Y30.6408
X-65.505 Y30.642
X-65.5156 Y30.6426
X-65.5262
X-65.5368 Y30.642
X-65.5474 Y30.6407
X-65.5578 Y30.6388
X-65.5682 Y30.6364
X-65.5698 Y30.6339
X-65.5709 Y30.6313
X-65.5716 Y30.6285
X-65.5718 Y30.6256
X-65.5714 Y30.6228
X-65.5705 Y30.6201
X-65.5692 Y30.6176
X-65.5675 Y30.6154
X-65.5654 Y30.6135
X-65.563 Y30.6121
X-65.5604 Y30.6111
X-65.5595 Y30.6108
X-65.4087 Y30.5645
X-65.406 Y30.5639
X-65.4033 Y30.5638
X-65.4006 Y30.5642
G3 X-65.3921 Y30.5888 I-0.0036 J0.015 F50.
G1 X-65.47 Y30.6796 F60.
G3 X-65.5104 Y30.7013 I-0.0305 J-0.0082
X-65.5111 Y30.6809 I0.0112 J-0.0106
G1 X-65.5056 Y30.6743
X-65.4939 Y30.6602
G3 X-65.4784 Y30.6551 I0.0118 J0.0098
X-65.47 Y30.6796 I-0.0036 J0.015 F50.
X-65.5166 Y30.6953 I-0.0243 J0.0049 F60.
G1 X-66.1641 Y29.9398
G3 X-66.1407 Y29.9198 I0.0117 J-0.01
X-66.1438 Y29.9425 I-0.0117 J0.01
X-66.1661 Y29.937 I-0.0087 J-0.0127
G1 X-66.1798 Y29.9109
G3 X-66.1525 Y29.8966 I0.0136 J-0.0072
X-66.1711 Y29.9183 I-0.0136 J0.0072
X-66.197 Y29.9015 I0.0199 J-0.059 F50.
G1 X-66.3202 Y29.7578 F60.
G3 X-66.2348 Y29.4357 I0.2402 J-0.1087
G1 X-65.9833
G3 X-65.9719 Y29.4615 I0. J0.0154
X-65.9858 Y29.4489 I-0.007 J-0.0063
X-65.9703 Y29.4512 I0.007 J0.0063
X-65.9983 Y29.4641 I-0.014 J0.0065
X-65.9997 Y29.4577 I0.014 J-0.0065
X-65.9922 Y29.4445 I0.0154 J0.
X-65.9625 Y29.4357 I0.0318 J0.0536 F50.
G1 X-65.728 F60.
X-65.7182 Y29.4455
X-65.708 Y29.4548
X-65.6974 Y29.4637
X-65.6864 Y29.4721
X-65.675 Y29.48
X-65.6633 Y29.4873
X-65.6513 Y29.4942
X-65.639 Y29.5004
X-65.6264 Y29.5062
X-65.6135 Y29.5113
X-65.6005 Y29.5159
X-65.5873 Y29.5199
X-65.5739 Y29.5233
X-65.5603 Y29.5261
X-65.5467 Y29.5283
X-65.5329 Y29.5299
X-65.5191 Y29.5309
X-65.5053 Y29.5312
X-65.4915 Y29.5309
X-65.4777 Y29.53
X-65.4639 Y29.5285
X-65.4503 Y29.5264
X-65.4367 Y29.5237
X-65.4233 Y29.5204
X-65.41 Y29.5164
X-65.397 Y29.5119
X-65.3841 Y29.5068
X-65.3715 Y29.5012
X-65.3592 Y29.4949
X-65.3471 Y29.4882
X-65.3354 Y29.4809
X-65.324 Y29.473
X-65.3129 Y29.4647
X-65.3023 Y29.4559
X-65.292 Y29.4466
X-65.2822 Y29.4369
X-65.2589 Y29.4357
X-65.0698
G3 X-65.0603 Y29.4391 I0. J0.0154
G2 X-65.0558 Y29.4415 I0.0096 J-0.0121
G1 X-65.0435 Y29.4458
X-65.0411 Y29.4464
G2 X-65.0306 Y29.4445 I0.0026 J-0.0152
G3 X-65.001 Y29.4357 I0.0318 J0.0536 F50.
G1 X-64.8239 F60.
G3 X-64.6378 Y29.7087 I-0.0765 J0.2521
G1 X-65.1169 Y30.2677
G3 X-65.1425 Y30.2632 I-0.0113 J-0.0104
G1 X-65.1437 Y30.2604 Z-0.1297
X-65.1448 Y30.2577 Z-0.1288
X-65.1458 Y30.2553 Z-0.1274
X-65.1467 Y30.2531 Z-0.1255
X-65.1474 Y30.2513 Z-0.1232
X-65.1479 Y30.25 Z-0.1205
X-65.1483 Y30.2492 Z-0.1176
X-65.1484 Y30.2489 Z-0.1146
G0 Z-0.0992
X-64.8668 Y29.4523
G1 Z-0.1146 F50.
X-64.8666 Y29.4522 Z-0.1176
X-64.8658 Y29.4517 Z-0.1205
X-64.8646 Y29.451 Z-0.1232
X-64.8629 Y29.45 Z-0.1255
X-64.8609 Y29.4488 Z-0.1274
X-64.8586 Y29.4475 Z-0.1288
X-64.8562 Y29.446 Z-0.1297
X-64.8536 Y29.4445 Z-0.13
G3 X-64.8239 Y29.4357 I0.0318 J0.0536
G1 X-64.7066 F60.
G3 X-64.5558 Y29.6131 I-0.0483 J0.1938
G1 X-64.6378 Y29.7087
G3 X-64.6525 Y29.7133 I-0.0113 J-0.0104
X-64.6663 Y29.6964 I0.0038 J-0.0173
X-64.5876 Y29.6159 I0.0787 J-0.0019
G1 X-64.5852
G3 X-64.5705 Y29.6177 I-0.0024 J0.0787 F50.
G2 X-64.5558 Y29.6131 I0.0033 J-0.015
G1 X-64.5319 Y29.5852 F60.
X-64.5274 Y29.5778
X-64.5235 Y29.5702
X-64.5201 Y29.5622
X-64.5173 Y29.554
X-64.5151 Y29.5457
X-64.5135 Y29.5372
X-64.5125 Y29.5286
X-64.5122 Y29.52
X-64.5125 Y29.5114
X-64.5134 Y29.5028
X-64.5149 Y29.4943
X-64.517 Y29.4859
X-64.5197 Y29.4777
X-64.523 Y29.4697
X-64.5269 Y29.462
X-64.5313 Y29.4546
X-64.5362 Y29.4475
X-64.5417 Y29.4408
X-64.5476 Y29.4345
X-64.7066 Y29.4357
G2 X-64.7197 Y29.4439 I0.0005 J0.0154
X-64.6926 Y29.5034 I0.0364 J0.0194
X-64.5696 Y29.4565 I0.0265 J-0.1151
X-64.5619 Y29.4439 I-0.0965 J-0.0682 F50.
G3 X-64.5488 Y29.4357 I0.0136 J0.0072
G1 X-64.519 F60.
G3 X-64.4519 Y29.4918 I0.0029 J0.0647
X-64.4706 Y29.4949 I-0.0113 J-0.0104
G1 X-64.4798 Y29.4899
G3 X-64.5322 Y29.4581 I0.0121 J-0.0791
X-64.519 Y29.4357 I0.0137 J-0.007 F50.
G1 X-64.4487 F60.
X-64.4412 Y29.4361
X-64.4347 Y29.4373
X-64.4283 Y29.4395
X-64.4252 Y29.4411
X-64.4218 Y29.4438
X-64.4198 Y29.4476
X-64.4196 Y29.4518
X-64.4211 Y29.4558
G3 X-64.4279 Y29.4576 I-0.0044 J-0.003
G1 X-64.4358 Y29.4535
X-64.4509 Y29.4458 F50.
G3 X-64.4487 Y29.4357 I0.0024 J-0.0047
G1 X-64.43 Y29.4358 F60.
X-64.4192 Y29.4378
X-64.4188 Y29.438
X-64.4172 Y29.439
X-64.4166 Y29.4395
X-64.4156 Y29.4409
X-64.4153 Y29.4414
X-64.4149 Y29.4432
G3 X-64.4211 Y29.4559 I-0.0271 J-0.0053
G1 X-64.5319 Y29.5852
G3 X-64.5575 Y29.5807 I-0.0113 J-0.0104
G1 X-64.5586 Y29.5779 Z-0.1297
X-64.5597 Y29.5752 Z-0.1288
X-64.5608 Y29.5727 Z-0.1274
X-64.5616 Y29.5706 Z-0.1255
X-64.5624 Y29.5688 Z-0.1232
X-64.5629 Y29.5675 Z-0.1205
X-64.5633 Y29.5667 Z-0.1176
X-64.5634 Y29.5664 Z-0.1146
G0 Z0.4
X-66.1919 Y29.4523
Z-0.0992
G1 Z-0.1146 F50.
X-66.1921 Y29.4522 Z-0.1176
X-66.1929 Y29.4517 Z-0.1205
X-66.1941 Y29.451 Z-0.1232
X-66.1957 Y29.45 Z-0.1255
X-66.1977 Y29.4488 Z-0.1274
X-66.2 Y29.4475 Z-0.1288
X-66.2025 Y29.446 Z-0.1297
X-66.2051 Y29.4445 Z-0.13
G2 X-66.2348 Y29.4357 I-0.0318 J0.0536
G1 X-66.2908 F60.
G2 X-66.4383 Y29.62 I0.0402 J0.1833
G1 X-66.3202 Y29.7578
G2 X-66.3055 Y29.7624 I0.0113 J-0.0104
X-66.2805 Y29.7277 I-0.007 J-0.0314
X-66.409 Y29.6223 I-0.1175 J0.0122
X-66.4236 Y29.6246 I0.011 J0.1176 F50.
G3 X-66.4383 Y29.62 I-0.0033 J-0.015
G1 X-66.4656 Y29.5881 F60.
G3 X-66.4514 Y29.4344 I0.1018 J-0.0681
G1 X-66.4484 Y29.4347
X-66.4455 Y29.4355
X-66.4428 Y29.4368
X-66.4404 Y29.4386
X-66.4384 Y29.4408
X-66.4369 Y29.4433
X-66.4358 Y29.4459
X-66.4353 Y29.4487
X-66.4352 Y29.4516
X-66.4354 Y29.4584
X-66.4389 Y29.5781
X-66.4392 Y29.5808
X-66.4401 Y29.5835
G3 X-66.4656 Y29.5881 I-0.0142 J-0.0059 F50.
G1 X-66.521 Y29.5234 F60.
G3 X-66.5319 Y29.4357 I0.042 J-0.0497
X-66.518 Y29.4458 I-0.0005 J0.0154
G1 X-66.5136 Y29.4577
X-66.4953 Y29.5077
G3 X-66.4955 Y29.5188 I-0.0145 J0.0053
X-66.521 Y29.5234 I-0.0142 J-0.0059 F50.
G1 X-66.5722 Y29.4637 F60.
X-66.5761 Y29.4587
X-66.5791 Y29.4535
X-66.5804 Y29.4502
X-66.5811 Y29.4458
X-66.5798 Y29.4414
X-66.5768 Y29.4381
X-66.5727 Y29.4363
G3 X-66.5667 Y29.4405 I0.0008 J0.0052
G1 X-66.5664 Y29.4422
X-66.5631 Y29.4591 F50.
G3 X-66.5722 Y29.4637 I-0.0052 J0.001
G1 X-66.579 Y29.4557 F60.
X-66.5847 Y29.4457
X-66.5851 Y29.4433
X-66.585 Y29.4428
X-66.5847 Y29.4415
X-66.5845 Y29.441
X-66.5834 Y29.4396
X-66.583 Y29.4391
X-66.5815 Y29.4382
X-66.5808 Y29.4378
X-66.57 Y29.4358
X-66.2908 Y29.4357
G3 X-66.2781 Y29.4434 I-0.0005 J0.0154
G1 X-66.2773 Y29.4456 Z-0.1298
X-66.2767 Y29.4478 Z-0.1293
X-66.276 Y29.4499 Z-0.1284
Y29.4511 Z-0.1277
X-66.2765 Y29.4535 Z-0.1258
X-66.2769 Y29.4554 Z-0.1235
X-66.2773 Y29.4569 Z-0.1208
X-66.2775 Y29.4578 Z-0.1179
X-66.2776 Y29.4581 Z-0.1162
Z-0.1146
G0 Z0.4
X-65.516 Y32.0184
Z-0.0992
G1 Z-0.1146 F50.
X-65.5159 Y32.0186 Z-0.1176
X-65.5157 Y32.0195 Z-0.1205
X-65.5154 Y32.0209 Z-0.1232
X-65.5149 Y32.0227 Z-0.1255
X-65.5144 Y32.025 Z-0.1274
X-65.5137 Y32.0276 Z-0.1288
X-65.513 Y32.0304 Z-0.1297
X-65.5123 Y32.0333 Z-0.13
G3 X-65.5009 Y32.1172 I-0.3816 J0.0947
G1 X-65.5004 Y32.1272 F60.
X-65.5005 Y32.1371
X-65.5012 Y32.147
X-65.5026 Y32.1569
X-65.5045 Y32.1667
X-65.5071 Y32.1763
X-65.5103 Y32.1857
X-65.514 Y32.1949
X-65.5183 Y32.2039
X-65.5232 Y32.2126
X-65.5286 Y32.2209
X-65.5345 Y32.2289
X-65.5409 Y32.2365
X-65.5478 Y32.2437
X-65.5551 Y32.2505
X-65.5628 Y32.2568
X-65.5709 Y32.2626
X-65.5793 Y32.2679
X-65.588 Y32.2726
X-65.597 Y32.2768
X-65.6063 Y32.2804
G3 X-66.0137 Y32.4778 I-0.4135 J-0.3345
G1 X-66.0246 Y32.4758
X-66.0353 Y32.4733
X-66.0459 Y32.4702
X-66.0563 Y32.4664
X-66.0665 Y32.4621
X-66.0764 Y32.4572
X-66.086 Y32.4518
X-66.0953 Y32.4458
X-66.1042 Y32.4393
X-66.1128 Y32.4323
X-66.1209 Y32.4249
X-66.1286 Y32.417
X-66.1359 Y32.4087
X-66.1426 Y32.3999
X-66.1489 Y32.3908
X-66.1546 Y32.3814
X-66.1598 Y32.3716
X-66.1645 Y32.3616
X-66.1685 Y32.3514
X-66.172 Y32.3409
X-66.1749 Y32.3302
X-66.1771 Y32.3194
X-66.1788 Y32.3085
X-66.1798 Y32.2975
X-66.1802 Y32.2864
X-66.18 Y32.2754
X-66.1791 Y32.2644
X-66.1777 Y32.2535
X-66.1756 Y32.2426
X-66.1729 Y32.2319
X-66.1696 Y32.2214
X-66.1657 Y32.211
X-66.1612 Y32.2009
X-66.1562 Y32.1911
X-66.1506 Y32.1816
X-66.1445 Y32.1724
X-66.1379 Y32.1635
X-66.1308 Y32.1551
X-66.1232 Y32.1471
X-66.1151 Y32.1395
X-66.1067 Y32.1324
X-66.0979 Y32.1257
X-66.0887 Y32.1196
X-66.0792 Y32.114
X-66.0693 Y32.109
X-66.0593 Y32.1045
X-66.0489 Y32.1006
X-66.0384 Y32.0973
G2 X-65.7326 Y31.8828 I-16.1276 J-23.3238
G3 X-65.686 Y31.6639 I1.5646 J0.2186
X-65.5701 Y31.548 I0.201 J0.0849
X-65.3154 Y31.8153 I0.0552 J0.2024
G2 X-65.0989 Y32.0158 I0.5298 J-0.3549
G3 X-64.8533 Y32.1829 I-0.2938 J0.6963
G1 X-64.8478 Y32.1923
X-64.8429 Y32.202
X-64.8385 Y32.2119
X-64.8348 Y32.2221
X-64.8316 Y32.2325
X-64.829 Y32.2431
X-64.827 Y32.2538
X-64.8256 Y32.2645
X-64.8249 Y32.2754
X-64.8248 Y32.2863
X-64.8253 Y32.2971
X-64.8264 Y32.3079
X-64.8281 Y32.3187
X-64.8304 Y32.3293
X-64.8334 Y32.3398
X-64.8369 Y32.35
X-64.841 Y32.3601
X-64.8457 Y32.3699
X-64.8509 Y32.3795
X-64.8567 Y32.3887
X-64.863 Y32.3975
X-64.8698 Y32.406
X-64.877 Y32.4141
X-64.8847 Y32.4218
X-64.8929 Y32.429
X-64.9014 Y32.4358
X-64.9103 Y32.442
X-64.9196 Y32.4477
X-64.9291 Y32.4529
X-64.9389 Y32.4575
X-64.949 Y32.4616
X-64.9593 Y32.4651
X-64.9698 Y32.468
X-64.9804 Y32.4702
X-64.9912 Y32.4719
X-65.002 Y32.473
X-65.0129 Y32.4734
X-65.0237 Y32.4732
X-65.0346 Y32.4724
X-65.0454 Y32.471
X-65.056 Y32.469
X-65.0666 Y32.4663
X-65.077 Y32.4631
X-65.0871 Y32.4593
X-65.0971 Y32.4549
X-65.1067 Y32.4499
X-65.1161 Y32.4444
X-65.1252 Y32.4383
X-65.1338 Y32.4318
G3 X-65.398 Y32.2853 I0.3226 J-0.8929
G2 X-65.4941 Y32.3322 I0.0246 J0.1725
G3 X-65.8918 Y32.5643 I-0.7399 J-0.8112
G1 X-66.0094
G3 X-66.2339 Y32.1426 I0.0094 J-0.2756
G1 X-66.1883 Y32.0883
G2 X-65.8316 Y31.8189 I-5.7081 J-7.9263
G3 X-65.7179 Y31.5396 I0.6061 J0.0839
G1 X-65.7175 Y31.5391
G3 X-65.2183 Y31.755 I0.212 J0.1949
G2 X-64.8834 Y32.0237 I0.6539 J-0.4719
G1 X-64.8579 Y32.0413
X-64.8389 Y32.0567
X-64.8381 Y32.0576
X-64.8004 Y32.1016
G3 X-65.0183 Y32.5635 I-0.207 J0.1847
G1 X-65.0244 Y32.5643
G3 X-65.3869 Y32.4215 I0.1285 J-0.8579
G2 X-65.4992 Y32.4663 I0.0439 J0.2729
G1 X-65.5011 Y32.4664
G2 X-65.728 Y32.5643 I0.0252 J0.3705
G1 X-65.8918
G3 X-65.9067 Y32.5483 I0.0005 J-0.0154
X-65.9009 Y32.5238 I0.065 J0.0023
X-65.5251 Y32.4481 I0.2151 J0.0975
G1 X-65.5118 Y32.4615 F50.
G2 X-65.5011 Y32.4664 I0.0113 J-0.0104
G3 X-65.2824 Y32.5633 I-0.0102 J0.3186 F60.
G1 X-65.2589 Y32.5643
X-65.0244
G2 X-65.0096 Y32.5489 I-0.0005 J-0.0154
G1 X-65.0097 Y32.5465
X-65.0103 Y32.5441
X-65.0112 Y32.5419
G2 X-65.0198 Y32.5344 I-0.0137 J0.007
G1 X-65.034 Y32.5282
G2 X-65.048 Y32.5555 I-0.0061 J0.0141
X-65.0183 Y32.5643 I0.0318 J-0.0536 F50.
G1 X-64.8239 F60.
G2 X-64.6372 Y32.292 I-0.0781 J-0.2538
G1 X-64.8004 Y32.1016
G3 X-64.8231 Y32.1224 I-0.0113 J0.0104
X-64.8271 Y32.1106 I0.0113 J-0.0104
G1 X-64.8252 Y32.0898
Y32.0878
X-64.8254 Y32.0858
G2 X-64.8381 Y32.0576 I-0.0614 J0.0107 F50.
G1 X-65.3996 Y31.4024 F60.
G2 X-65.5633 Y31.3576 I-0.1256 J0.1373
G1 X-65.7175 Y31.5391
G2 X-65.6978 Y31.5621 I0.012 J0.0096
G1 X-65.679 Y31.5504
G2 X-65.692 Y31.5227 I-0.0081 J-0.0131
X-65.7179 Y31.5396 I0.0199 J0.059 F50.
G1 X-66.1883 Y32.0883 F60.
G2 X-66.1649 Y32.1084 I0.0117 J0.01
X-66.1673 Y32.086 I-0.0117 J-0.01
X-66.1895 Y32.09 I-0.0092 J0.0123
G1 X-66.2166 Y32.1316
G2 X-66.1907 Y32.1484 I0.0129 J0.0084
X-66.2086 Y32.1254 I-0.0129 J-0.0084
X-66.2345 Y32.1423 I0.0199 J0.059 F50.
G1 X-66.3289 Y32.2525 F60.
G2 X-66.2448 Y32.5643 I0.2436 J0.1015
G1 X-66.0094
G2 X-65.9963 Y32.5561 I-0.0005 J-0.0154
X-66.0143 Y32.4937 I-0.0412 J-0.022
X-66.2242 Y32.5434 I-0.0785 J0.1365
X-66.2317 Y32.5561 I0.1314 J0.0868 F50.
G3 X-66.2448 Y32.5643 I-0.0136 J-0.0072
G1 X-66.3037 F60.
X-66.314 Y32.5615
X-66.3242 Y32.5582
X-66.3341 Y32.5543
X-66.3438 Y32.5498
X-66.3532 Y32.5447
X-66.3622 Y32.5391
X-66.371 Y32.533
X-66.3793 Y32.5263
X-66.3873 Y32.5192
X-66.3948 Y32.5116
X-66.4019 Y32.5036
X-66.4084 Y32.4952
X-66.4145 Y32.4865
X-66.42 Y32.4773
X-66.425 Y32.4679
X-66.4295 Y32.4582
X-66.4333 Y32.4483
X-66.4366 Y32.4381
X-66.4392 Y32.4278
X-66.4413 Y32.4173
X-66.4427 Y32.4067
X-66.4435 Y32.3961
X-66.4437 Y32.3854
X-66.3289 Y32.2525
G3 X-66.3143 Y32.2479 I0.0113 J0.0104
X-66.2871 Y32.2902 I-0.0078 J0.0349
X-66.4136 Y32.3831 I-0.1155 J-0.0247
X-66.4282 Y32.3808 I0.011 J-0.1176 F50.
G2 X-66.4429 Y32.3854 I-0.0033 J0.015
G1 X-66.4696 Y32.4166 F60.
G2 X-66.4577 Y32.5656 I0.0977 J0.0672
G1 X-66.3037 Y32.5643
G2 X-66.2907 Y32.5561 I-0.0005 J-0.0154
X-66.3215 Y32.4949 I-0.037 J-0.0197
X-66.4355 Y32.5435 I-0.0176 J0.1168
X-66.4432 Y32.5561 I0.0965 J0.0682 F50.
G3 X-66.4563 Y32.5643 I-0.0136 J-0.0072
G1 X-66.4855 F60.
G3 X-66.5497 Y32.5101 I-0.0027 J-0.062
X-66.5311 Y32.5069 I0.0113 J0.0104
G1 X-66.5218 Y32.512
X-66.5153 Y32.5132
X-66.509 Y32.515
X-66.5029 Y32.5174
X-66.4969 Y32.5203
X-66.4913 Y32.5237
X-66.486 Y32.5276
X-66.481 Y32.5319
X-66.4764 Y32.5367
X-66.4723 Y32.5418
X-66.4712 Y32.5447 F50.
X-66.4707 Y32.5478
X-66.4708 Y32.5509
X-66.4715 Y32.5539
X-66.4728 Y32.5567
X-66.4746 Y32.5592
X-66.4769 Y32.5613
X-66.4796 Y32.5628
X-66.4825 Y32.5638
X-66.4855 Y32.5643
X-66.5552 F60.
X-66.5612 Y32.564
X-66.5675 Y32.5627
X-66.5737 Y32.5605
X-66.5754 Y32.5596
X-66.5786 Y32.557
X-66.5806 Y32.5534
X-66.5809 Y32.5493
X-66.5797 Y32.5454
G3 X-66.5726 Y32.5435 I0.0045 J0.0028
G1 X-66.5679 Y32.5461
X-66.5646 Y32.5465 F50.
X-66.5614 Y32.5475
X-66.5584 Y32.5489
X-66.5557 Y32.5509
X-66.5534 Y32.5532
X-66.5515 Y32.5559
X-66.5501 Y32.5589
X-66.5503 Y32.5605
X-66.551 Y32.562
X-66.5522 Y32.5632
X-66.5536 Y32.564
X-66.5552 Y32.5643
X-66.57 Y32.5642 F60.
X-66.5808 Y32.5622
X-66.5815 Y32.5618
X-66.583 Y32.5609
X-66.5834 Y32.5604
X-66.5845 Y32.559
X-66.5847 Y32.5585
X-66.585 Y32.5572
X-66.5851 Y32.5567
X-66.5847 Y32.5543
X-66.579 Y32.5443
X-66.4696 Y32.4166
G3 X-66.444 Y32.4211 I0.0113 J0.0104
G1 X-66.4429 Y32.4239 Z-0.1297
X-66.4418 Y32.4266 Z-0.1288
X-66.4408 Y32.4291 Z-0.1274
X-66.4399 Y32.4312 Z-0.1255
X-66.4392 Y32.433 Z-0.1232
X-66.4386 Y32.4343 Z-0.1205
X-66.4383 Y32.4351 Z-0.1176
X-66.4382 Y32.4354 Z-0.1146
G0 Z-0.0992
X-65.3843 Y31.4458
G1 Z-0.1146 F50.
X-65.3844 Y31.4455 Z-0.1176
X-65.3845 Y31.4446 Z-0.1205
X-65.3848 Y31.4432 Z-0.1232
X-65.3851 Y31.4414 Z-0.1255
X-65.3855 Y31.4391 Z-0.1274
X-65.3859 Y31.4364 Z-0.1288
X-65.3864 Y31.4336 Z-0.1297
X-65.387 Y31.4306 Z-0.13
G2 X-65.3996 Y31.4024 I-0.0614 J0.0107
G1 X-65.4774 Y31.3117 F60.
