%
(971-23-P-0169_BEAM BREAK BRACKET_1523)
(T1  D=0.1523 CR=0. - ZMIN=-0.0825 - FLAT END MILL)
G90 G94 G17 G91.1
G64 P0.001 Q0.001
G20
G53 G0 Z0.
(.3 CIRCLUAR THROUGH HOLE)
M9
T1 M6
S22000 M3
G4 P10.
G54
M7
G0 X-4.1564 Y-1.1658
G43 Z0.6 H1
G0 Z0.1148
G1 Z0.05 F40.
X-4.1488
G3 X-4.1445 Y-1.1615 I0. J0.0043
X-4.1617 Z0. I-0.0086 J0.
X-4.1576 Y-1.1688 Z-0.0163 I0.0086 J0.
X-4.1486 Y-1.1541 Z-0.0663 I0.0045 J0.0073
X-4.157 Y-1.1538 Z-0.0825 I-0.0045 J-0.0073
X-4.1492 Y-1.1691 I0.0039 J-0.0077
X-4.157 Y-1.1538 I-0.0039 J0.0077
X-4.1589 Y-1.1596 I0.002 J-0.0038
G1 X-4.1554 Y-1.1664
G0 Z0.4
X-4.6516 Y-1.0965
Z0.1148
G1 Z0.05 F40.
X-4.644
G3 X-4.6397 Y-1.0922 I0. J0.0043
X-4.6569 Z0. I-0.0086 J0.
X-4.6397 Z-0.05 I0.0086 J0.
X-4.6522 Y-1.0845 Z-0.0825 I-0.0086 J0.
X-4.6444 Y-1.0999 I0.0039 J-0.0077
X-4.6522 Y-1.0845 I-0.0039 J0.0077
X-4.654 Y-1.0903 I0.002 J-0.0038
G1 X-4.6506 Y-1.0971
G0 Z0.4
X-4.7117 Y-1.6537
Z0.1148
G1 Z0.05 F40.
X-4.7093 Y-1.6561
G3 X-4.7069 Y-1.6537 I0. J0.0024
X-4.7166 Z0. I-0.0049 J0.
X-4.7142 Y-1.6578 Z-0.0163 I0.0048 J0.
X-4.7092 Y-1.6496 Z-0.0663 I0.0025 J0.0041
X-4.7139 Y-1.6494 Z-0.0825 I-0.0025 J-0.0041
X-4.7095 Y-1.658 I0.0022 J-0.0043
X-4.7139 Y-1.6494 I-0.0022 J0.0043
X-4.715 Y-1.6526 I0.0011 J-0.0022
G1 X-4.7117 Y-1.6537
G0 Z0.4
X-4.2697 Y-1.8874
Z0.1148
G1 Z0.05 F40.
X-4.2673 Y-1.8899
G3 X-4.2649 Y-1.8874 I0. J0.0024
X-4.2746 Z0. I-0.0049 J0.
X-4.2722 Y-1.8916 Z-0.0163 I0.0048 J0.
X-4.2672 Y-1.8833 Z-0.0663 I0.0025 J0.0041
X-4.2719 Y-1.8831 Z-0.0825 I-0.0025 J-0.0041
X-4.2675 Y-1.8918 I0.0022 J-0.0043
X-4.2719 Y-1.8831 I-0.0022 J0.0043
X-4.273 Y-1.8864 I0.0011 J-0.0022
G1 X-4.2697 Y-1.8874
G0 Z0.6
(2D SLOT CUT)
M7
G0 X-4.8635 Y-3.1793
Z0.6
Z0.2
G1 Z0.1 F13.333
X-5.2771 Y-2.9606 Z0.0175 F40.
X-5.4519 Y-2.8681
Z-0.0174 F13.333
X-5.5381 Y-2.8226 Z-0.0346 F40.
G2 X-5.657 Y-2.5961 I0.1057 J0.1999
G1 Z-0.0825 F13.333
G2 X-5.6323 Y-2.5169 I0.2246 J-0.0266 F55.
G1 X-5.2385 Y-1.7721
G2 X-5.2335 Y-1.7639 I0.0673 J-0.0356
G1 X-5.2281 Y-1.7563
X-5.2252 Y-1.7512
X-5.2227 Y-1.7459
X-5.2205 Y-1.7401
X-5.2187 Y-1.7336
X-5.217 Y-1.7249
X-5.2165 Y-1.7215
X-5.2158 Y-1.7165
X-5.2152 Y-1.7112
X-5.2146 Y-1.7046
G2 X-5.2142 Y-1.701 I0.0758 J-0.007
G1 X-5.1198 Y-1.0263
G2 X-4.8645 Y-0.8336 I0.224 J-0.0313
G1 X-3.8742 Y-0.9721
G2 X-3.6815 Y-1.2274 I-0.0313 J-0.224
G1 X-3.6974 Y-1.341
Z0.0175
X-3.8016 Y-2.0861
Z-0.0825 F13.333
X-3.8411 Y-2.3685 F55.
G2 X-3.8425 Y-2.3758 I-0.0754 J0.0105
G1 X-3.8444 Y-2.3836
X-3.8445 Y-2.3839
X-3.8461 Y-2.3907
X-3.8462 Y-2.3909
X-3.8476 Y-2.3967
G2 X-3.8477 Y-2.3971 I-0.0739 J0.0184
G1 X-3.8489 Y-2.4018
G2 X-3.8492 Y-2.403 I-0.0738 J0.0189
G1 X-3.8528 Y-2.4159
G2 X-3.8533 Y-2.4179 I-0.0735 J0.02
G1 X-3.8568 Y-2.4295
G2 X-3.8576 Y-2.432 I-0.0729 J0.0219
G1 X-3.8619 Y-2.4445
G2 X-3.8629 Y-2.4475 I-0.0721 J0.0245
G1 X-3.8675 Y-2.4594
G2 X-3.8689 Y-2.4627 I-0.071 J0.0274
G1 X-3.8739 Y-2.474
G2 X-3.8754 Y-2.4772 I-0.0697 J0.0307
G1 X-3.8808 Y-2.488
G2 X-3.8816 Y-2.4896 I-0.0682 J0.0339
G1 X-4.2754 Y-3.2344
G2 X-4.5811 Y-3.3286 I-0.1999 J0.1057
G1 X-4.7869 Y-3.2198
Z0.0175
X-5.4519 Y-2.8681
Z-0.0825 F13.333
X-5.5381 Y-2.8226 F55.
G2 X-5.657 Y-2.5961 I0.1057 J0.1999
G0 Z0.6
M9
G53 Z0.
M30
%
