%
(971-23-P-0102_CHAIN TENSIONER_1497)
(T1  D=0.1497 CR=0. - ZMIN=-0.405 - FLAT END MILL)
G90 G94 G17 G91.1
G64 P0.001 Q0.001
G20
G53 G0 Z0.
(.3 CIRCLUAR THROUGH HOLE 2)
M9
T1 M6
S22000 M3
G4 P10.
G54
M7
G0 X71.4209 Y11.9872
G43 Z0.6 H1
G0 Z0.13
G1 Z0.065 F40.
G18 G2 X71.4359 Z0.05 I0.015 K0.
G1 X71.4434
G17 G3 X71.4562 Y12. I0. J0.0128
X71.4049 Z0.0323 I-0.0256 J0.
X71.4247 Y11.975 Z0.0247 I0.0256 J0.
X71.4364 Y12.025 Z0.007 I0.0059 J0.025
X71.4076 Y12.0114 Z-0.0006 I-0.0059 J-0.025
X71.4535 Y11.9886 Z-0.0183 I0.023 J-0.0114
X71.4076 Y12.0114 Z-0.036 I-0.023 J0.0114
X71.4535 Y11.9886 Z-0.0537 I0.023 J-0.0114
X71.4076 Y12.0114 Z-0.0714 I-0.023 J0.0114
X71.4535 Y11.9886 Z-0.0892 I0.023 J-0.0114
X71.4076 Y12.0114 Z-0.1069 I-0.023 J0.0114
X71.4535 Y11.9886 Z-0.1246 I0.023 J-0.0114
X71.4076 Y12.0114 Z-0.1423 I-0.023 J0.0114
X71.4535 Y11.9886 Z-0.16 I0.023 J-0.0114
X71.4076 Y12.0114 Z-0.1778 I-0.023 J0.0114
X71.4535 Y11.9886 Z-0.1955 I0.023 J-0.0114
X71.4076 Y12.0114 Z-0.2132 I-0.023 J0.0114
X71.445 Y11.9788 Z-0.2281 I0.023 J-0.0114
X71.4161 Y12.0212 Z-0.2458 I-0.0145 J0.0212
X71.445 Y11.9788 Z-0.2635 I0.0145 J-0.0212
X71.427 Y12.0254 Z-0.2786 I-0.0145 J0.0212
X71.4341 Y11.9746 Z-0.2963 I0.0035 J-0.0254
X71.4561 Y11.9976 Z-0.3039 I-0.0035 J0.0254
X71.405 Y12.0024 Z-0.3216 I-0.0255 J0.0024
X71.4224 Y11.9757 Z-0.3292 I0.0255 J-0.0024
X71.4387 Y12.0243 Z-0.3469 I0.0082 J0.0243
X71.4088 Y12.0135 Z-0.3544 I-0.0082 J-0.0243
X71.4523 Y11.9865 Z-0.3722 I0.0218 J-0.0135
X71.4088 Y12.0135 Z-0.3899 I-0.0218 J0.0135
X71.444 Y11.9782 Z-0.405 I0.0218 J-0.0135
X71.4171 Y12.0218 I-0.0135 J0.0218
X71.444 Y11.9782 I0.0135 J-0.0218
X71.4482 Y11.9958 I-0.0067 J0.0109
G1 X71.4443 Y12.0022
X71.4427 Y12.0047 Z-0.4047
X71.4413 Y12.0071 Z-0.4039
X71.4399 Y12.0093 Z-0.4025
X71.4387 Y12.0112 Z-0.4006
X71.4377 Y12.0128 Z-0.3983
X71.437 Y12.014 Z-0.3958
X71.4366 Y12.0147 Z-0.393
X71.4364 Y12.0149 Z-0.39
G0 Z0.4
X69.6948 Y12.3356
Z0.13
G1 Z0.065 F40.
G18 G3 X69.6798 Z0.05 I-0.015 K0.
G1 X69.6723
G17 G3 X69.6595 Y12.3227 I0. J-0.0128
X69.7108 Z0.0323 I0.0256 J0.
X69.691 Y12.3477 Z0.0247 I-0.0256 J0.
X69.6793 Y12.2978 Z0.007 I-0.0059 J-0.025
X69.7081 Y12.3113 Z-0.0006 I0.0059 J0.025
X69.6622 Y12.3342 Z-0.0183 I-0.023 J0.0114
X69.7081 Y12.3113 Z-0.036 I0.023 J-0.0114
X69.6622 Y12.3342 Z-0.0537 I-0.023 J0.0114
X69.7081 Y12.3113 Z-0.0714 I0.023 J-0.0114
X69.6622 Y12.3342 Z-0.0892 I-0.023 J0.0114
X69.7081 Y12.3113 Z-0.1069 I0.023 J-0.0114
X69.6622 Y12.3342 Z-0.1246 I-0.023 J0.0114
X69.7081 Y12.3113 Z-0.1423 I0.023 J-0.0114
X69.6922 Y12.3474 Z-0.1522 I-0.023 J0.0114
X69.6781 Y12.2981 Z-0.1699 I-0.007 J-0.0247
X69.7075 Y12.3102 Z-0.1775 I0.007 J0.0247
X69.6627 Y12.3352 Z-0.1952 I-0.0224 J0.0125
X69.6678 Y12.3038 Z-0.2028 I0.0224 J-0.0125
X69.7024 Y12.3417 Z-0.2205 I0.0173 J0.0189
X69.6707 Y12.3439 Z-0.2281 I-0.0173 J-0.0189
X69.6996 Y12.3016 Z-0.2458 I0.0145 J-0.0212
X69.6707 Y12.3439 Z-0.2635 I-0.0145 J0.0212
X69.6886 Y12.2973 Z-0.2786 I0.0145 J-0.0212
X69.6816 Y12.3481 Z-0.2963 I-0.0035 J0.0254
X69.6596 Y12.3251 Z-0.3039 I0.0035 J-0.0254
X69.7107 Y12.3203 Z-0.3216 I0.0255 J-0.0024
X69.6596 Y12.3251 Z-0.3393 I-0.0255 J0.0024
X69.7069 Y12.3092 Z-0.3544 I0.0255 J-0.0024
X69.6633 Y12.3363 Z-0.3722 I-0.0218 J0.0135
X69.667 Y12.3046 Z-0.3797 I0.0218 J-0.0135
X69.7033 Y12.3408 Z-0.3974 I0.0182 J0.0181
X69.6717 Y12.3446 Z-0.405 I-0.0182 J-0.0181
X69.6986 Y12.3009 I0.0135 J-0.0218
X69.6717 Y12.3446 I-0.0135 J0.0218
X69.6675 Y12.3269 I0.0067 J-0.0109
G1 X69.6714 Y12.3205
X69.6729 Y12.3181 Z-0.4047
X69.6744 Y12.3157 Z-0.4039
X69.6758 Y12.3135 Z-0.4025
X69.677 Y12.3115 Z-0.4006
X69.678 Y12.3099 Z-0.3983
X69.6787 Y12.3088 Z-0.3958
X69.6791 Y12.308 Z-0.393
X69.6793 Y12.3078 Z-0.39
G0 Z0.6
(.3 CIRCULAR THROUGH HOLE)
M7
G0 X68.6685 Y12.5424
Z0.6
Z0.2
G1 Z0.1145 F13.333
G3 X68.6671 Y12.5419 Z0.1081 I0.0151 J-0.0424 F55.
X68.6635 Y12.5403 Z0.103 I0.0164 J-0.0419
X68.6586 Y12.5374 Z0.1 I0.02 J-0.0403
X68.6565 Y12.464 Z0.077 I0.025 J-0.0374
X68.7105 Y12.536 Z0.0391 I0.027 J0.036
X68.6565 Y12.464 Z0.0012 I-0.027 J-0.036
X68.7105 Y12.536 Z-0.0367 I0.027 J0.036
X68.6565 Y12.464 Z-0.0746 I-0.027 J-0.036
X68.7285 Y12.5 Z-0.1012 I0.027 J0.036
X68.7242 I-0.0022 J0. F60.
X68.8285 I0.0522 J0.
X68.6242 I-0.1022 J0.
X68.8285 I0.1022 J0.
X68.7835 Y12.545 Z-0.1199 I-0.045 J0. F55.
G1 X68.6835 Z-0.1464
G3 Y12.455 Z-0.1838 I0. J-0.045
X68.7285 Y12.5 Z-0.2025 I0. J0.045
X68.7242 I-0.0022 J0. F60.
X68.8285 I0.0522 J0.
X68.6242 I-0.1022 J0.
X68.8285 I0.1022 J0.
X68.7835 Y12.545 Z-0.2212 I-0.045 J0. F55.
G1 X68.6835 Z-0.2477
G3 Y12.455 Z-0.2851 I0. J-0.045
X68.7285 Y12.5 Z-0.3038 I0. J0.045
X68.7242 I-0.0022 J0. F60.
X68.8285 I0.0522 J0.
X68.6242 I-0.1022 J0.
X68.8285 I0.1022 J0.
X68.7835 Y12.545 Z-0.3224 I-0.045 J0. F55.
G1 X68.6835 Z-0.3489
G3 Y12.455 Z-0.3863 I0. J-0.045
X68.7285 Y12.5 Z-0.405 I0. J0.045
X68.7242 I-0.0022 J0. F60.
X68.8285 I0.0522 J0.
X68.6242 I-0.1022 J0.
X68.8385 I0.1072 J0.
X68.6142 I-0.1122 J0.
X68.8385 I0.1122 J0.
X68.8375 Y12.5056 Z-0.4039 I-0.015 J0.
X68.8349 Y12.5097 Z-0.4006 I-0.0139 J-0.0056
X68.8326 Y12.5119 Z-0.3958 I-0.0114 J-0.0097
X68.8317 Y12.5126 Z-0.39 I-0.009 J-0.0119
G0 Z0.6
(2D SLOT CUT)
M7
G0 X71.0826 Y12.2603
Z0.6
Z0.2
G1 Z0.1152 F13.333
X71.0827 Y12.2606 Z0.1123 F40.
X71.0828 Y12.2614 Z0.1095
X71.0831 Y12.2628 Z0.1069
X71.0834 Y12.2646 Z0.1046
X71.0838 Y12.2669 Z0.1028
X71.0843 Y12.2694 Z0.1014
X71.0848 Y12.2722 Z0.1005
X71.0853 Y12.275 Z0.1002
X71.0881 Y12.2898
G3 X71.0761 Y12.3072 I-0.0147 J0.0027
G1 X70.0667 Y12.4938 Z-0.0808
X70.0641 Y12.4943 Z-0.081
X70.0088 Y12.5045 F30.
G3 X70.0034 Y12.4971 I-0.0009 J-0.005
G1 X70.0035 Y12.4969
G2 X70.0307 Y12.4331 I-0.3187 J-0.1737
G3 X70.0348 Y12.4296 I0.005 J0.0016
G1 X70.0349 Y12.4295
X71.1422 Y12.2248
G3 X71.147 Y12.2266 I0.0009 J0.005
G1 X71.1471 Y12.2267
G2 X71.1957 Y12.2766 I0.2833 J-0.227
G1 X71.1958 Y12.2767
G3 X71.1934 Y12.2855 I-0.0033 J0.0039
G1 X71.1931 Y12.2856
X70.0641 Y12.4943
X70.0088 Y12.5045 Z-0.0909 F40.
G3 X70.0034 Y12.4971 Z-0.0929 I-0.0009 J-0.005
G1 X70.0035 Y12.4969 Z-0.093
G2 X70.0307 Y12.4331 Z-0.1052 I-0.3187 J-0.1737
G3 X70.0348 Y12.4296 Z-0.1062 I0.005 J0.0016
G1 X70.0349 Y12.4295
X70.3458 Y12.3721 Z-0.162
X71.1422 Y12.2248 F30.
G3 X71.147 Y12.2266 I0.0009 J0.005
G1 X71.1471 Y12.2267
G2 X71.1957 Y12.2766 I0.2833 J-0.227
G1 X71.1958 Y12.2767
G3 X71.1934 Y12.2855 I-0.0033 J0.0039
G1 X71.1931 Y12.2856
X70.0641 Y12.4943
X70.0088 Y12.5045
G3 X70.0034 Y12.4971 I-0.0009 J-0.005
G1 X70.0035 Y12.4969
G2 X70.0307 Y12.4331 I-0.3187 J-0.1737
G3 X70.0348 Y12.4296 I0.005 J0.0016
G1 X70.0349 Y12.4295
X70.3458 Y12.3721
X70.7975 Y12.2885 Z-0.243 F40.
X71.1422 Y12.2248 F30.
G3 X71.147 Y12.2266 I0.0009 J0.005
G1 X71.1471 Y12.2267
G2 X71.1957 Y12.2766 I0.2833 J-0.227
G1 X71.1958 Y12.2767
G3 X71.1934 Y12.2855 I-0.0033 J0.0039
G1 X71.1931 Y12.2856
X70.0088 Y12.5045
G3 X70.0034 Y12.4971 I-0.0009 J-0.005
G1 X70.0035 Y12.4969
G2 X70.0307 Y12.4331 I-0.3187 J-0.1737
G3 X70.0348 Y12.4296 I0.005 J0.0016
G1 X70.0349 Y12.4295
X70.7975 Y12.2885
X71.1422 Y12.2248 Z-0.3048 F40.
G3 X71.147 Y12.2266 Z-0.3058 I0.0009 J0.005
G1 X71.1471 Y12.2267
G2 X71.1957 Y12.2766 Z-0.3181 I0.2833 J-0.227
G1 X71.1958 Y12.2767
G3 X71.1934 Y12.2855 Z-0.3201 I-0.0033 J0.0039
G1 X71.1931 Y12.2856 Z-0.3202
X71.1717 Y12.2895 Z-0.324
X70.0088 Y12.5045 F30.
G3 X70.0034 Y12.4971 I-0.0009 J-0.005
G1 X70.0035 Y12.4969
G2 X70.0307 Y12.4331 I-0.3187 J-0.1737
G3 X70.0348 Y12.4296 I0.005 J0.0016
G1 X70.0349 Y12.4295
X70.7975 Y12.2885
X71.1422 Y12.2248
G3 X71.147 Y12.2266 I0.0009 J0.005
G1 X71.1471 Y12.2267
G2 X71.1957 Y12.2766 I0.2833 J-0.227
G1 X71.1958 Y12.2767
G3 X71.1934 Y12.2855 I-0.0033 J0.0039
G1 X71.1931 Y12.2856
X71.1717 Y12.2895
X70.72 Y12.373 Z-0.405 F40.
X70.0088 Y12.5045 F30.
G3 X70.0034 Y12.4971 I-0.0009 J-0.005
G1 X70.0035 Y12.4969
G2 X70.0307 Y12.4331 I-0.3187 J-0.1737
G3 X70.0348 Y12.4296 I0.005 J0.0016
G1 X70.0349 Y12.4295
X71.1422 Y12.2248
G3 X71.147 Y12.2266 I0.0009 J0.005
G1 X71.1471 Y12.2267
G2 X71.1957 Y12.2766 I0.2833 J-0.227
G1 X71.1958 Y12.2767
G3 X71.1934 Y12.2855 I-0.0033 J0.0039
G1 X71.1931 Y12.2856
X70.72 Y12.373
G3 X70.7026 Y12.361 I-0.0027 J-0.0147
G1 X70.6998 Y12.3463
X70.6993 Y12.3435 Z-0.4047
X70.6988 Y12.3407 Z-0.4039
X70.6983 Y12.3381 Z-0.4025
X70.6979 Y12.3359 Z-0.4006
X70.6976 Y12.3341 Z-0.3983
X70.6973 Y12.3327 Z-0.3958
X70.6972 Y12.3319 Z-0.393
X70.6971 Y12.3316 Z-0.39
G0 Z0.4
X71.009 Y11.8608
Z0.2
G1 Z0.1152 F13.333
Y11.8611 Z0.1123 F40.
X71.0092 Y11.862 Z0.1095
X71.0094 Y11.8633 Z0.1069
X71.0098 Y11.8651 Z0.1046
X71.0102 Y11.8674 Z0.1028
X71.0106 Y11.8699 Z0.1014
X71.0112 Y11.8727 Z0.1005
X71.0117 Y11.8756 Z0.1002
X71.0144 Y11.8903
G3 X71.0024 Y11.9077 I-0.0147 J0.0027
G1 X69.993 Y12.0943 Z-0.0808
X69.9905 Y12.0948 Z-0.081
X69.9735 Y12.0979 F30.
G3 X69.9687 Y12.0961 I-0.0009 J-0.005
G1 X69.9686
G2 X69.92 Y12.0461 I-0.2832 J0.227
G3 X69.9223 Y12.0372 I0.0033 J-0.0039
G1 X71.1069 Y11.8182
G3 X71.1123 Y11.8257 I0.0009 J0.005
G1 X71.1122 Y11.8258
G2 X71.085 Y11.8897 I0.3187 J0.1737
G3 X71.081 Y11.8932 I-0.005 J-0.0016
G1 X71.0809
X69.9905 Y12.0948
X69.9735 Y12.0979 Z-0.084 F40.
G3 X69.9687 Y12.0961 Z-0.085 I-0.0009 J-0.005
G1 X69.9686
G2 X69.92 Y12.0461 Z-0.0973 I-0.2832 J0.227
G3 X69.9223 Y12.0372 Z-0.0994 I0.0033 J-0.0039
G1 X70.2717 Y11.9726 Z-0.162
X71.1069 Y11.8182 F30.
G3 X71.1123 Y11.8257 I0.0009 J0.005
G1 X71.1122 Y11.8258
G2 X71.085 Y11.8897 I0.3187 J0.1737
G3 X71.081 Y11.8932 I-0.005 J-0.0016
G1 X71.0809
X69.9905 Y12.0948
X69.9735 Y12.0979
G3 X69.9687 Y12.0961 I-0.0009 J-0.005
G1 X69.9686
G2 X69.92 Y12.0461 I-0.2832 J0.227
G3 X69.9223 Y12.0372 I0.0033 J-0.0039
G1 X70.2717 Y11.9726
X70.7234 Y11.8891 Z-0.243 F40.
X71.1069 Y11.8182 F30.
G3 X71.1123 Y11.8257 I0.0009 J0.005
G1 X71.1122 Y11.8258
G2 X71.085 Y11.8897 I0.3187 J0.1737
G3 X71.081 Y11.8932 I-0.005 J-0.0016
G1 X71.0809
X69.9735 Y12.0979
G3 X69.9687 Y12.0961 I-0.0009 J-0.005
G1 X69.9686
G2 X69.92 Y12.0461 I-0.2832 J0.227
G3 X69.9223 Y12.0372 I0.0033 J-0.0039
G1 X70.7234 Y11.8891
X71.1069 Y11.8182 Z-0.3118 F40.
G3 X71.1123 Y11.8257 Z-0.3138 I0.0009 J0.005
G1 X71.1122 Y11.8258
G2 X71.0888 Y11.8784 Z-0.324 I0.3187 J0.1737
X71.085 Y11.8897 I0.3421 J0.1211 F30.
G3 X71.081 Y11.8932 I-0.005 J-0.0016
G1 X71.0809
X69.9735 Y12.0979
G3 X69.9687 Y12.0961 I-0.0009 J-0.005
G1 X69.9686
G2 X69.92 Y12.0461 I-0.2832 J0.227
G3 X69.9223 Y12.0372 I0.0033 J-0.0039
G1 X70.7234 Y11.8891
X71.1069 Y11.8182
G3 X71.1123 Y11.8257 I0.0009 J0.005
G1 X71.1122 Y11.8258
G2 X71.0888 Y11.8784 I0.3187 J0.1737
X71.085 Y11.8897 Z-0.3261 I0.3421 J0.1211 F40.
G3 X71.081 Y11.8932 Z-0.3271 I-0.005 J-0.0016
G1 X71.0809
X70.6465 Y11.9735 Z-0.405
X69.9735 Y12.0979 F30.
G3 X69.9687 Y12.0961 I-0.0009 J-0.005
G1 X69.9686
G2 X69.92 Y12.0461 I-0.2832 J0.227
G3 X69.9223 Y12.0372 I0.0033 J-0.0039
G1 X71.1069 Y11.8182
G3 X71.1123 Y11.8257 I0.0009 J0.005
G1 X71.1122 Y11.8258
G2 X71.085 Y11.8897 I0.3187 J0.1737
G3 X71.081 Y11.8932 I-0.005 J-0.0016
G1 X71.0809
X70.6465 Y11.9735
G3 X70.629 Y11.9615 I-0.0027 J-0.0147
G1 X70.6263 Y11.9468
X70.6258 Y11.9439 Z-0.4047
X70.6252 Y11.9412 Z-0.4039
X70.6248 Y11.9386 Z-0.4025
X70.6244 Y11.9364 Z-0.4006
X70.624 Y11.9346 Z-0.3983
X70.6238 Y11.9332 Z-0.3958
X70.6236 Y11.9324 Z-0.393
Y11.9321 Z-0.39
G0 Z0.4
X71.9683 Y12.1984
Z0.2
G1 Z0.1152 F13.333
X71.968 Z0.1123 F40.
X71.9671 Y12.1985 Z0.1095
X71.9658 Y12.1987 Z0.1069
X71.9639 Y12.1989 Z0.1046
X71.9617 Y12.1991 Z0.1028
X71.9591 Y12.1994 Z0.1014
X71.9563 Y12.1997 Z0.1005
X71.9534 Y12.2 Z0.1002
X71.9385 Y12.2016
G3 X71.922 Y12.1883 I-0.0016 J-0.0149
G2 X71.9185 Y12.1641 Z0.0959 I-0.3231 J0.0347
G1 Y12.164
X71.8275 Y11.6724 Z0.0077
G2 X71.4572 Y11.4106 Z-0.0808 I-0.3195 J0.0592
X71.4559 Y11.4108 Z-0.0809 I0.0508 J0.321
X71.4546 Y11.411 Z-0.081 I0.0521 J0.3208
X71.449 Y11.412 I0.0534 J0.3205 F30.
G1 X68.499 Y11.9575
G2 X68.2386 Y12.336 I0.0589 J0.3194
G1 X68.3295 Y12.8276
G2 X68.7081 Y13.088 I0.3194 J-0.059
G1 X71.6581 Y12.5425
G2 X71.9185 Y12.1641 I-0.0592 J-0.3195
G1 Y12.164
X71.8275 Y11.6724
G2 X71.4546 Y11.411 I-0.3195 J0.0592
X71.449 Y11.412 Z-0.082 I0.0534 J0.3205 F40.
G1 X71.0029 Y11.4945 Z-0.162
X68.499 Y11.9575 F30.
G2 X68.2386 Y12.336 I0.0589 J0.3194
G1 X68.3295 Y12.8276
G2 X68.7081 Y13.088 I0.3194 J-0.059
G1 X71.6581 Y12.5425
G2 X71.9185 Y12.1641 I-0.0592 J-0.3195
G1 Y12.164
X71.8275 Y11.6724
G2 X71.449 Y11.412 I-0.3195 J0.0592
G1 X71.0029 Y11.4945
X70.5512 Y11.578 Z-0.243 F40.
X68.499 Y11.9575 F30.
G2 X68.2386 Y12.336 I0.0589 J0.3194
G1 X68.3295 Y12.8276
G2 X68.7081 Y13.088 I0.3194 J-0.059
G1 X71.6581 Y12.5425
G2 X71.9185 Y12.1641 I-0.0592 J-0.3195
G1 Y12.164
X71.8275 Y11.6724
G2 X71.449 Y11.412 I-0.3195 J0.0592
G1 X70.5512 Y11.578
X70.0995 Y11.6615 Z-0.324 F40.
X68.499 Y11.9575 F30.
G2 X68.2386 Y12.336 I0.0589 J0.3194
G1 X68.3295 Y12.8276
G2 X68.7081 Y13.088 I0.3194 J-0.059
G1 X71.6581 Y12.5425
G2 X71.9185 Y12.1641 I-0.0592 J-0.3195
G1 Y12.164
X71.8275 Y11.6724
G2 X71.449 Y11.412 I-0.3195 J0.0592
G1 X70.5512 Y11.578
X70.0995 Y11.6615
X70.0939 Y11.6626 Z-0.325 F40.
X69.6477 Y11.745
X69.4359 Y11.7842 F30.
Z-0.405 F13.333
X68.499 Y11.9575 F30.
G2 X68.2386 Y12.336 I0.0589 J0.3194
G1 X68.3295 Y12.8276
G2 X68.7081 Y13.088 I0.3194 J-0.059
G1 X69.7553 Y12.8944
Z-0.325
X70.4925 Y12.7581
Z-0.405 F13.333
X71.6581 Y12.5425 F30.
G2 X71.9185 Y12.1641 I-0.0592 J-0.3195
G1 Y12.164
X71.8275 Y11.6724
G2 X71.449 Y11.412 I-0.3195 J0.0592
G1 X70.1731 Y11.6479
Z-0.325
X69.6477 Y11.745
G3 X69.6303 Y11.7331 I-0.0027 J-0.0147
G1 X69.6249 Y11.7036
G0 Z0.6
M9
G53 Z0.
M30
%
