%
(971-23-P-0102_CHAIN TENSIONER_1501)
(T1  D=0.1501 CR=0. - ZMIN=-0.405 - FLAT END MILL)
G90 G94 G17 G91.1
G64 P0.001 Q0.001
G20
G53 G0 Z0.
(.3 CIRCLUAR THROUGH HOLE 2)
M9
T1 M6
S22000 M3
G4 P10.
G54
M7
G0 X71.4208 Y11.9873
G43 Z0.6 H1
G0 Z0.13
G1 Z0.065 F40.
G18 G2 X71.4358 Z0.05 I0.015 K0.
G1 X71.4433
G17 G3 X71.456 Y12. I0. J0.0127
X71.4051 Z0.0323 I-0.0255 J0.
X71.456 Z0.0146 I0.0255 J0.
X71.4078 Y12.0113 Z-0.0006 I-0.0255 J0.
X71.4533 Y11.9887 Z-0.0183 I0.0228 J-0.0113
X71.4078 Y12.0113 Z-0.036 I-0.0228 J0.0113
X71.4459 Y11.9797 Z-0.0511 I0.0228 J-0.0113
X71.4152 Y12.0203 Z-0.0688 I-0.0153 J0.0203
X71.4459 Y11.9797 Z-0.0866 I0.0153 J-0.0203
X71.4259 Y12.025 Z-0.1017 I-0.0153 J0.0203
X71.4352 Y11.975 Z-0.1194 I0.0047 J-0.025
X71.456 Y11.9988 Z-0.1269 I-0.0047 J0.025
X71.4051 Y12.0012 Z-0.1447 I-0.0254 J0.0012
X71.456 Y11.9988 Z-0.1624 I0.0254 J-0.0012
X71.4083 Y12.0124 Z-0.1775 I-0.0254 J0.0012
X71.4528 Y11.9876 Z-0.1952 I0.0222 J-0.0124
X71.4477 Y12.0188 Z-0.2028 I-0.0222 J0.0124
X71.4134 Y11.9812 Z-0.2205 I-0.0172 J-0.0188
X71.4449 Y11.979 Z-0.2281 I0.0172 J0.0188
X71.4162 Y12.021 Z-0.2458 I-0.0144 J0.021
X71.4068 Y11.9908 Z-0.2533 I0.0144 J-0.021
X71.4543 Y12.0092 Z-0.2711 I0.0237 J0.0092
X71.4271 Y12.0252 Z-0.2786 I-0.0237 J-0.0092
X71.434 Y11.9748 Z-0.2963 I0.0035 J-0.0252
X71.4559 Y11.9976 Z-0.3039 I-0.0035 J0.0252
X71.4052 Y12.0024 Z-0.3216 I-0.0253 J0.0024
X71.4224 Y11.9759 Z-0.3292 I0.0253 J-0.0024
X71.4387 Y12.0241 Z-0.3469 I0.0081 J0.0241
X71.4224 Y11.9759 Z-0.3646 I-0.0081 J-0.0241
X71.4486 Y12.018 Z-0.3797 I0.0081 J0.0241
X71.4125 Y11.982 Z-0.3974 I-0.018 J-0.018
X71.4439 Y11.9783 Z-0.405 I0.018 J0.018
X71.4172 Y12.0217 I-0.0134 J0.0217
X71.4439 Y11.9783 I0.0134 J-0.0217
X71.4481 Y11.9959 I-0.0067 J0.0108
G1 X71.4441 Y12.0022
X71.4426 Y12.0047 Z-0.4047
X71.4411 Y12.0071 Z-0.4039
X71.4397 Y12.0093 Z-0.4025
X71.4385 Y12.0113 Z-0.4006
X71.4376 Y12.0129 Z-0.3983
X71.4368 Y12.014 Z-0.3957
X71.4364 Y12.0148 Z-0.3929
X71.4362 Y12.015 Z-0.39
G0 Z0.4
X69.6949 Y12.3355
Z0.13
G1 Z0.065 F40.
G18 G3 X69.6799 Z0.05 I-0.015 K0.
G1 X69.6724
G17 G3 X69.6597 Y12.3227 I0. J-0.0127
X69.7106 Z0.0323 I0.0255 J0.
X69.6597 Z0.0146 I-0.0255 J0.
X69.7079 Y12.3114 Z-0.0006 I0.0255 J0.
X69.6624 Y12.3341 Z-0.0183 I-0.0228 J0.0113
X69.7079 Y12.3114 Z-0.036 I0.0228 J-0.0113
X69.6698 Y12.343 Z-0.0511 I-0.0228 J0.0113
X69.7005 Y12.3024 Z-0.0688 I0.0153 J-0.0203
X69.6698 Y12.343 Z-0.0866 I-0.0153 J0.0203
X69.6898 Y12.2977 Z-0.1017 I0.0153 J-0.0203
X69.6805 Y12.3477 Z-0.1194 I-0.0047 J0.025
X69.6597 Y12.3239 Z-0.1269 I0.0047 J-0.025
X69.7106 Y12.3215 Z-0.1447 I0.0254 J-0.0012
X69.6597 Y12.3239 Z-0.1624 I-0.0254 J0.0012
X69.7074 Y12.3103 Z-0.1775 I0.0254 J-0.0012
X69.6629 Y12.3351 Z-0.1952 I-0.0222 J0.0124
X69.7074 Y12.3103 Z-0.2129 I0.0222 J-0.0124
X69.6708 Y12.3437 Z-0.2281 I-0.0222 J0.0124
X69.6995 Y12.3017 Z-0.2458 I0.0144 J-0.021
X69.6708 Y12.3437 Z-0.2635 I-0.0144 J0.021
X69.6886 Y12.2975 Z-0.2786 I0.0144 J-0.021
X69.6817 Y12.3479 Z-0.2963 I-0.0035 J0.0252
X69.6886 Y12.2975 Z-0.3141 I0.0035 J-0.0252
X69.6933 Y12.3468 Z-0.3292 I-0.0035 J0.0252
X69.677 Y12.2986 Z-0.3469 I-0.0081 J-0.0241
X69.7068 Y12.3093 Z-0.3544 I0.0081 J0.0241
X69.6635 Y12.3362 Z-0.3722 I-0.0216 J0.0134
X69.6671 Y12.3048 Z-0.3797 I0.0216 J-0.0134
X69.7032 Y12.3407 Z-0.3974 I0.018 J0.018
X69.6718 Y12.3444 Z-0.405 I-0.018 J-0.018
X69.6985 Y12.3011 I0.0134 J-0.0217
X69.6718 Y12.3444 I-0.0134 J0.0217
X69.6676 Y12.3269 I0.0067 J-0.0108
G1 X69.6716 Y12.3205
X69.6731 Y12.318 Z-0.4047
X69.6746 Y12.3156 Z-0.4039
X69.6759 Y12.3134 Z-0.4025
X69.6771 Y12.3115 Z-0.4006
X69.6781 Y12.3099 Z-0.3983
X69.6788 Y12.3087 Z-0.3957
X69.6793 Y12.308 Z-0.3929
X69.6794 Y12.3077 Z-0.39
G0 Z0.6
(.3 CIRCULAR THROUGH HOLE)
M7
G0 X68.6683 Y12.5424
Z0.6
Z0.2
G1 Z0.1145 F13.333
G3 X68.667 Y12.5419 Z0.1082 I0.015 J-0.0424 F55.
X68.6634 Y12.5403 Z0.103 I0.0164 J-0.0419
X68.6584 Y12.5374 Z0.1 I0.02 J-0.0403
X68.6563 Y12.464 Z0.077 I0.025 J-0.0374
X68.7103 Y12.536 Z0.0391 I0.027 J0.036
X68.6563 Y12.464 Z0.0012 I-0.027 J-0.036
X68.7103 Y12.536 Z-0.0367 I0.027 J0.036
X68.6563 Y12.464 Z-0.0746 I-0.027 J-0.036
X68.7283 Y12.5 Z-0.1012 I0.027 J0.036
X68.7244 I-0.002 J0. F60.
X68.8283 I0.052 J0.
X68.6244 I-0.102 J0.
X68.8283 I0.102 J0.
X68.7833 Y12.545 Z-0.1199 I-0.045 J0. F55.
G1 X68.6833 Z-0.1464
G3 Y12.455 Z-0.1838 I0. J-0.045
X68.7283 Y12.5 Z-0.2025 I0. J0.045
X68.7244 I-0.002 J0. F60.
X68.8283 I0.052 J0.
X68.6244 I-0.102 J0.
X68.8283 I0.102 J0.
X68.7833 Y12.545 Z-0.2212 I-0.045 J0. F55.
G1 X68.6833 Z-0.2477
G3 Y12.455 Z-0.2851 I0. J-0.045
X68.7283 Y12.5 Z-0.3038 I0. J0.045
X68.7244 I-0.002 J0. F60.
X68.8283 I0.052 J0.
X68.6244 I-0.102 J0.
X68.8283 I0.102 J0.
X68.7833 Y12.545 Z-0.3224 I-0.045 J0. F55.
G1 X68.6833 Z-0.3489
G3 Y12.455 Z-0.3863 I0. J-0.045
X68.7283 Y12.5 Z-0.405 I0. J0.045
X68.7244 I-0.002 J0. F60.
X68.8283 I0.052 J0.
X68.6244 I-0.102 J0.
X68.8383 I0.107 J0.
X68.6144 I-0.112 J0.
X68.8383 I0.112 J0.
X68.8373 Y12.5056 Z-0.4039 I-0.015 J0.
X68.8347 Y12.5098 Z-0.4006 I-0.0139 J-0.0056
X68.8324 Y12.512 Z-0.3957 I-0.0114 J-0.0098
X68.8314 Y12.5126 Z-0.39 I-0.009 J-0.012
G0 Z0.6
(2D SLOT CUT)
M7
G0 X71.0826 Y12.26
Z0.6
Z0.2
G1 Z0.1152 F13.333
X71.0827 Y12.2603 Z0.1123 F40.
X71.0828 Y12.2611 Z0.1095
X71.0831 Y12.2625 Z0.1069
X71.0834 Y12.2643 Z0.1046
X71.0838 Y12.2666 Z0.1028
X71.0843 Y12.2691 Z0.1014
X71.0848 Y12.2719 Z0.1005
X71.0853 Y12.2748 Z0.1002
X71.0881 Y12.2895
G3 X71.076 Y12.307 I-0.0148 J0.0027
G1 X70.0667 Y12.4937 Z-0.0808
X70.0641 Y12.4941 Z-0.081
X70.0088 Y12.5044 F30.
G3 X70.0036 Y12.4972 I-0.0009 J-0.0048
G1 X70.0037 Y12.497
G2 X70.0309 Y12.4331 I-0.3189 J-0.1738
G3 X70.0348 Y12.4298 I0.0048 J0.0016
G1 X70.0349 Y12.4297
X71.1423 Y12.225
G3 X71.1469 Y12.2267 I0.0008 J0.0048
G1 X71.147 Y12.2268
G2 X71.1956 Y12.2768 I0.2834 J-0.2272
G3 X71.1934 Y12.2853 I-0.0031 J0.0037
G1 X71.193 Y12.2854
X70.0641 Y12.4941
X70.0088 Y12.5044 Z-0.0909 F40.
G3 X70.0036 Y12.4972 Z-0.0929 I-0.0009 J-0.0048
G1 X70.0037 Y12.497
G2 X70.0309 Y12.4331 Z-0.1052 I-0.3189 J-0.1738
G3 X70.0348 Y12.4298 Z-0.1061 I0.0048 J0.0016
G1 X70.0349 Y12.4297
X70.3465 Y12.3721 Z-0.162
X71.1423 Y12.225 F30.
G3 X71.1469 Y12.2267 I0.0008 J0.0048
G1 X71.147 Y12.2268
G2 X71.1956 Y12.2768 I0.2834 J-0.2272
G3 X71.1934 Y12.2853 I-0.0031 J0.0037
G1 X71.193 Y12.2854
X70.0641 Y12.4941
X70.0088 Y12.5044
G3 X70.0036 Y12.4972 I-0.0009 J-0.0048
G1 X70.0037 Y12.497
G2 X70.0309 Y12.4331 I-0.3189 J-0.1738
G3 X70.0348 Y12.4298 I0.0048 J0.0016
G1 X70.0349 Y12.4297
X70.3465 Y12.3721
X70.7982 Y12.2886 Z-0.243 F40.
X71.1423 Y12.225 F30.
G3 X71.1469 Y12.2267 I0.0008 J0.0048
G1 X71.147 Y12.2268
G2 X71.1956 Y12.2768 I0.2834 J-0.2272
G3 X71.1934 Y12.2853 I-0.0031 J0.0037
G1 X71.193 Y12.2854
X70.0088 Y12.5044
G3 X70.0036 Y12.4972 I-0.0009 J-0.0048
G1 X70.0037 Y12.497
G2 X70.0309 Y12.4331 I-0.3189 J-0.1738
G3 X70.0348 Y12.4298 I0.0048 J0.0016
G1 X70.0349 Y12.4297
X70.7982 Y12.2886
X71.1423 Y12.225 Z-0.3047 F40.
G3 X71.1469 Y12.2267 Z-0.3056 I0.0008 J0.0048
G1 X71.147 Y12.2268
G2 X71.1956 Y12.2768 Z-0.3179 I0.2834 J-0.2272
G1 Z-0.318
G3 X71.1934 Y12.2853 Z-0.3199 I-0.0031 J0.0037
G1 X71.193 Y12.2854
X71.1704 Y12.2896 Z-0.324
X70.0088 Y12.5044 F30.
G3 X70.0036 Y12.4972 I-0.0009 J-0.0048
G1 X70.0037 Y12.497
G2 X70.0309 Y12.4331 I-0.3189 J-0.1738
G3 X70.0348 Y12.4298 I0.0048 J0.0016
G1 X70.0349 Y12.4297
X70.7982 Y12.2886
X71.1423 Y12.225
G3 X71.1469 Y12.2267 I0.0008 J0.0048
G1 X71.147 Y12.2268
G2 X71.1956 Y12.2768 I0.2834 J-0.2272
G3 X71.1934 Y12.2853 I-0.0031 J0.0037
G1 X71.193 Y12.2854
X71.1704 Y12.2896
X70.7187 Y12.3731 Z-0.405 F40.
X70.0088 Y12.5044 F30.
G3 X70.0036 Y12.4972 I-0.0009 J-0.0048
G1 X70.0037 Y12.497
G2 X70.0309 Y12.4331 I-0.3189 J-0.1738
G3 X70.0348 Y12.4298 I0.0048 J0.0016
G1 X70.0349 Y12.4297
X71.1423 Y12.225
G3 X71.1469 Y12.2267 I0.0008 J0.0048
G1 X71.147 Y12.2268
G2 X71.1956 Y12.2768 I0.2834 J-0.2272
G3 X71.1934 Y12.2853 I-0.0031 J0.0037
G1 X71.193 Y12.2854
X70.7187 Y12.3731
G3 X70.7012 Y12.361 I-0.0027 J-0.0148
G1 X70.6985 Y12.3463
X70.698 Y12.3434 Z-0.4047
X70.6975 Y12.3406 Z-0.4039
X70.697 Y12.3381 Z-0.4025
X70.6966 Y12.3359 Z-0.4006
X70.6962 Y12.334 Z-0.3983
X70.696 Y12.3327 Z-0.3957
X70.6958 Y12.3318 Z-0.3929
Y12.3315 Z-0.39
G0 Z0.4
X71.0089 Y11.8605
Z0.2
G1 Z0.1152 F13.333
X71.009 Y11.8608 Z0.1123 F40.
X71.0092 Y11.8616 Z0.1095
X71.0094 Y11.863 Z0.1069
X71.0097 Y11.8648 Z0.1046
X71.0102 Y11.8671 Z0.1028
X71.0106 Y11.8696 Z0.1014
X71.0111 Y11.8724 Z0.1005
X71.0117 Y11.8753 Z0.1002
X71.0144 Y11.89
G3 X71.0024 Y11.9075 I-0.0148 J0.0027
G1 X69.993 Y12.0941 Z-0.0808
X69.9904 Y12.0946 Z-0.081
X69.9735 Y12.0978 F30.
G3 X69.9688 Y12.096 I-0.0008 J-0.0048
G1 Y12.0959
G2 X69.9202 Y12.046 I-0.2834 J0.2271
G1 X69.9201 Y12.0459
G3 X69.9223 Y12.0374 I0.0031 J-0.0037
G1 X71.107 Y11.8184
G3 X71.1122 Y11.8256 I0.0009 J0.0048
G1 X71.1121 Y11.8257
G2 X71.0848 Y11.8896 I0.3189 J0.1738
G3 X71.0809 Y11.893 I-0.0048 J-0.0016
G1 X71.0808
X69.9904 Y12.0946
X69.9735 Y12.0978 Z-0.084 F40.
G3 X69.9688 Y12.096 Z-0.085 I-0.0008 J-0.0048
G1 Y12.0959
G2 X69.9202 Y12.046 Z-0.0973 I-0.2834 J0.2271
G1 X69.9201 Y12.0459
G3 X69.9223 Y12.0374 Z-0.0992 I0.0031 J-0.0037
G1 X70.2723 Y11.9727 Z-0.162
X71.107 Y11.8184 F30.
G3 X71.1122 Y11.8256 I0.0009 J0.0048
G1 X71.1121 Y11.8257
G2 X71.0848 Y11.8896 I0.3189 J0.1738
G3 X71.0809 Y11.893 I-0.0048 J-0.0016
G1 X71.0808
X69.9904 Y12.0946
X69.9735 Y12.0978
G3 X69.9688 Y12.096 I-0.0008 J-0.0048
G1 Y12.0959
G2 X69.9202 Y12.046 I-0.2834 J0.2271
G1 X69.9201 Y12.0459
G3 X69.9223 Y12.0374 I0.0031 J-0.0037
G1 X70.2723 Y11.9727
X70.7241 Y11.8892 Z-0.243 F40.
X71.107 Y11.8184 F30.
G3 X71.1122 Y11.8256 I0.0009 J0.0048
G1 X71.1121 Y11.8257
G2 X71.0848 Y11.8896 I0.3189 J0.1738
G3 X71.0809 Y11.893 I-0.0048 J-0.0016
G1 X71.0808
X69.9735 Y12.0978
G3 X69.9688 Y12.096 I-0.0008 J-0.0048
G1 Y12.0959
G2 X69.9202 Y12.046 I-0.2834 J0.2271
G1 X69.9201 Y12.0459
G3 X69.9223 Y12.0374 I0.0031 J-0.0037
G1 X70.7241 Y11.8892
X71.107 Y11.8184 Z-0.3117 F40.
G3 X71.1122 Y11.8256 Z-0.3136 I0.0009 J0.0048
G1 X71.1121 Y11.8257
G2 X71.0882 Y11.8793 Z-0.324 I0.3189 J0.1738
X71.0848 Y11.8896 I0.3427 J0.1202 F30.
G3 X71.0809 Y11.893 I-0.0048 J-0.0016
G1 X71.0808
X69.9735 Y12.0978
G3 X69.9688 Y12.096 I-0.0008 J-0.0048
G1 Y12.0959
G2 X69.9202 Y12.046 I-0.2834 J0.2271
G1 X69.9201 Y12.0459
G3 X69.9223 Y12.0374 I0.0031 J-0.0037
G1 X70.7241 Y11.8892
X71.107 Y11.8184
G3 X71.1122 Y11.8256 I0.0009 J0.0048
G1 X71.1121 Y11.8257
G2 X71.0882 Y11.8793 I0.3189 J0.1738
X71.0848 Y11.8896 Z-0.3259 I0.3427 J0.1202 F40.
G3 X71.0809 Y11.893 Z-0.3269 I-0.0048 J-0.0016
G1 X71.0808
X70.6452 Y11.9736 Z-0.405
X69.9735 Y12.0978 F30.
G3 X69.9688 Y12.096 I-0.0008 J-0.0048
G1 Y12.0959
G2 X69.9202 Y12.046 I-0.2834 J0.2271
G1 X69.9201 Y12.0459
G3 X69.9223 Y12.0374 I0.0031 J-0.0037
G1 X71.107 Y11.8184
G3 X71.1122 Y11.8256 I0.0009 J0.0048
G1 X71.1121 Y11.8257
G2 X71.0848 Y11.8896 I0.3189 J0.1738
G3 X71.0809 Y11.893 I-0.0048 J-0.0016
G1 X71.0808
X70.6452 Y11.9736
G3 X70.6277 Y11.9615 I-0.0027 J-0.0148
G1 X70.625 Y11.9468
X70.6244 Y11.9439 Z-0.4047
X70.6239 Y11.9411 Z-0.4039
X70.6234 Y11.9386 Z-0.4025
X70.623 Y11.9363 Z-0.4006
X70.6227 Y11.9345 Z-0.3983
X70.6224 Y11.9331 Z-0.3957
X70.6223 Y11.9323 Z-0.3929
X70.6222 Y11.932 Z-0.39
G0 Z0.4
X71.9686 Y12.198
Z0.2
G1 Z0.1152 F13.333
X71.9683 Y12.1981 Z0.1123 F40.
X71.9674 Y12.1982 Z0.1095
X71.9661 Y12.1983 Z0.1069
X71.9642 Y12.1985 Z0.1046
X71.9619 Y12.1987 Z0.1028
X71.9594 Y12.199 Z0.1014
X71.9566 Y12.1993 Z0.1005
X71.9536 Y12.1996 Z0.1002
X71.9387 Y12.2013
G3 X71.9222 Y12.188 I-0.0016 J-0.0149
G2 X71.9187 Y12.164 Z0.096 I-0.3233 J0.035
G1 X71.8277 Y11.6723 Z0.0078
G2 X71.4572 Y11.4104 Z-0.0808 I-0.3197 J0.0592
X71.4559 Y11.4106 Z-0.0809 I0.0508 J0.3212
X71.4546 Y11.4108 Z-0.081 I0.0521 J0.321
X71.449 Y11.4118 I0.0534 J0.3207 F30.
G1 X68.499 Y11.9573
G2 X68.2384 Y12.336 I0.059 J0.3196
G1 X68.3293 Y12.8277
G2 X68.7081 Y13.0882 I0.3196 J-0.059
G1 X71.6581 Y12.5427
G2 X71.9187 Y12.164 I-0.0592 J-0.3197
G1 X71.8277 Y11.6723
G2 X71.4546 Y11.4108 I-0.3197 J0.0592
X71.449 Y11.4118 Z-0.082 I0.0534 J0.3207 F40.
G1 X71.0029 Y11.4943 Z-0.162
X68.499 Y11.9573 F30.
G2 X68.2384 Y12.336 I0.059 J0.3196
G1 X68.3293 Y12.8277
G2 X68.7081 Y13.0882 I0.3196 J-0.059
G1 X71.6581 Y12.5427
G2 X71.9187 Y12.164 I-0.0592 J-0.3197
G1 X71.8277 Y11.6723
G2 X71.449 Y11.4118 I-0.3197 J0.0592
G1 X71.0029 Y11.4943
X70.5511 Y11.5778 Z-0.243 F40.
X68.499 Y11.9573 F30.
G2 X68.2384 Y12.336 I0.059 J0.3196
G1 X68.3293 Y12.8277
G2 X68.7081 Y13.0882 I0.3196 J-0.059
G1 X71.6581 Y12.5427
G2 X71.9187 Y12.164 I-0.0592 J-0.3197
G1 X71.8277 Y11.6723
G2 X71.449 Y11.4118 I-0.3197 J0.0592
G1 X70.5511 Y11.5778
X70.0994 Y11.6613 Z-0.324 F40.
X68.499 Y11.9573 F30.
G2 X68.2384 Y12.336 I0.059 J0.3196
G1 X68.3293 Y12.8277
G2 X68.7081 Y13.0882 I0.3196 J-0.059
G1 X71.6581 Y12.5427
G2 X71.9187 Y12.164 I-0.0592 J-0.3197
G1 X71.8277 Y11.6723
G2 X71.449 Y11.4118 I-0.3197 J0.0592
G1 X70.5511 Y11.5778
X70.0994 Y11.6613
X70.0939 Y11.6624 Z-0.325 F40.
X69.6477 Y11.7449
X69.4357 Y11.7841 F30.
Z-0.405 F13.333
X68.499 Y11.9573 F30.
G2 X68.2384 Y12.336 I0.059 J0.3196
G1 X68.3293 Y12.8277
G2 X68.7081 Y13.0882 I0.3196 J-0.059
G1 X69.7551 Y12.8946
Z-0.325
X70.4927 Y12.7582
Z-0.405 F13.333
X71.6581 Y12.5427 F30.
G2 X71.9187 Y12.164 I-0.0592 J-0.3197
G1 X71.8277 Y11.6723
G2 X71.449 Y11.4118 I-0.3197 J0.0592
G1 X70.1733 Y11.6477
Z-0.325
X69.6477 Y11.7449
G3 X69.6302 Y11.7328 I-0.0027 J-0.0148
G1 X69.6248 Y11.7033
G0 Z0.6
M9
G53 Z0.
M30
%
