%
(971-23-P-0102_CHAIN TENSIONER_1565)
(T1  D=0.1565 CR=0. - ZMIN=-0.405 - FLAT END MILL)
G90 G94 G17 G91.1
G64 P0.001 Q0.001
G20
G53 G0 Z0.
(.3 CIRCLUAR THROUGH HOLE 2)
M9
T1 M6
S22000 M3
G4 P10.
G54
M7
G0 X71.4182 Y11.9889
G43 Z0.6 H1
G0 Z0.13
G1 Z0.0657 F40.
G18 G2 X71.4339 Z0.05 I0.0157 K0.
G1 X71.4417
G17 G3 X71.4528 Y12. I0. J0.0111
X71.4083 Z0.0323 I-0.0223 J0.
X71.4255 Y11.9783 Z0.0247 I0.0222 J0.
X71.4356 Y12.0217 Z0.007 I0.0051 J0.0217
X71.4255 Y11.9783 Z-0.0107 I-0.0051 J-0.0217
X71.4448 Y12.0171 Z-0.0258 I0.0051 J0.0217
X71.4163 Y11.9829 Z-0.0436 I-0.0142 J-0.0171
X71.444 Y11.9822 Z-0.0511 I0.0142 J0.0171
X71.4171 Y12.0178 Z-0.0688 I-0.0134 J0.0178
X71.444 Y11.9822 Z-0.0866 I0.0134 J-0.0178
X71.4265 Y12.0219 Z-0.1017 I-0.0134 J0.0178
X71.4346 Y11.9781 Z-0.1194 I0.0041 J-0.0219
X71.4265 Y12.0219 Z-0.1371 I-0.0041 J0.0219
X71.4244 Y11.9786 Z-0.1522 I0.0041 J-0.0219
X71.4367 Y12.0214 Z-0.1699 I0.0061 J0.0214
X71.4111 Y12.0108 Z-0.1775 I-0.0061 J-0.0214
X71.45 Y11.9892 Z-0.1952 I0.0194 J-0.0108
X71.4111 Y12.0108 Z-0.2129 I-0.0194 J0.0108
X71.4431 Y11.9816 Z-0.2281 I0.0194 J-0.0108
X71.418 Y12.0184 Z-0.2458 I-0.0126 J0.0184
X71.4431 Y11.9816 Z-0.2635 I0.0126 J-0.0184
X71.4275 Y12.022 Z-0.2786 I-0.0126 J0.0184
X71.4336 Y11.978 Z-0.2963 I0.003 J-0.022
X71.4275 Y12.022 Z-0.3141 I-0.003 J0.022
X71.4336 Y11.978 Z-0.3318 I0.003 J-0.022
X71.4275 Y12.022 Z-0.3495 I-0.003 J0.022
X71.4336 Y11.978 Z-0.3672 I0.003 J-0.022
X71.4463 Y12.0157 Z-0.3797 I-0.003 J0.022
X71.4148 Y11.9843 Z-0.3974 I-0.0158 J-0.0157
X71.4422 Y11.9811 Z-0.405 I0.0158 J0.0157
X71.4189 Y12.0189 I-0.0117 J0.0189
X71.4422 Y11.9811 I0.0117 J-0.0189
X71.4459 Y11.9964 I-0.0058 J0.0095
G1 X71.4418 Y12.003
X71.4401 Y12.0056 Z-0.4047
X71.4386 Y12.0081 Z-0.4038
X71.4372 Y12.0104 Z-0.4024
X71.4359 Y12.0125 Z-0.4004
X71.4349 Y12.0141 Z-0.398
X71.4342 Y12.0153 Z-0.3953
X71.4337 Y12.0161 Z-0.3924
X71.4335 Y12.0164 Z-0.3894
G0 Z0.4
X69.6975 Y12.3339
Z0.13
G1 Z0.0657 F40.
G18 G3 X69.6818 Z0.05 I-0.0157 K0.
G1 X69.674
G17 G3 X69.6629 Y12.3227 I0. J-0.0111
X69.7074 Z0.0323 I0.0223 J0.
X69.6902 Y12.3444 Z0.0247 I-0.0222 J0.
X69.68 Y12.3011 Z0.007 I-0.0051 J-0.0217
X69.6902 Y12.3444 Z-0.0107 I0.0051 J0.0217
X69.6709 Y12.3056 Z-0.0258 I-0.0051 J-0.0217
X69.6994 Y12.3398 Z-0.0436 I0.0142 J0.0171
X69.6717 Y12.3405 Z-0.0511 I-0.0142 J-0.0171
X69.6985 Y12.305 Z-0.0688 I0.0134 J-0.0178
X69.6717 Y12.3405 Z-0.0866 I-0.0134 J0.0178
X69.6892 Y12.3009 Z-0.1017 I0.0134 J-0.0178
X69.6811 Y12.3446 Z-0.1194 I-0.0041 J0.0219
X69.6892 Y12.3009 Z-0.1371 I0.0041 J-0.0219
X69.6912 Y12.3441 Z-0.1522 I-0.0041 J0.0219
X69.679 Y12.3013 Z-0.1699 I-0.0061 J-0.0214
X69.7046 Y12.3119 Z-0.1775 I0.0061 J0.0214
X69.6657 Y12.3336 Z-0.1952 I-0.0194 J0.0108
X69.7046 Y12.3119 Z-0.2129 I0.0194 J-0.0108
X69.6726 Y12.3411 Z-0.2281 I-0.0194 J0.0108
X69.6977 Y12.3044 Z-0.2458 I0.0126 J-0.0184
X69.6726 Y12.3411 Z-0.2635 I-0.0126 J0.0184
X69.6882 Y12.3007 Z-0.2786 I0.0126 J-0.0184
X69.6821 Y12.3448 Z-0.2963 I-0.003 J0.022
X69.6882 Y12.3007 Z-0.3141 I0.003 J-0.022
X69.6922 Y12.3438 Z-0.3292 I-0.003 J0.022
X69.678 Y12.3016 Z-0.3469 I-0.0071 J-0.0211
X69.704 Y12.311 Z-0.3544 I0.0071 J0.0211
X69.6662 Y12.3345 Z-0.3722 I-0.0189 J0.0117
X69.704 Y12.311 Z-0.3899 I0.0189 J-0.0117
X69.6735 Y12.3417 Z-0.405 I-0.0189 J0.0117
X69.6968 Y12.3038 I0.0117 J-0.0189
X69.6735 Y12.3417 I-0.0117 J0.0189
X69.6698 Y12.3264 I0.0058 J-0.0095
G1 X69.6739 Y12.3197
X69.6755 Y12.3171 Z-0.4047
X69.6771 Y12.3146 Z-0.4038
X69.6785 Y12.3123 Z-0.4024
X69.6797 Y12.3103 Z-0.4004
X69.6808 Y12.3086 Z-0.398
X69.6815 Y12.3074 Z-0.3953
X69.682 Y12.3066 Z-0.3924
X69.6822 Y12.3064 Z-0.3894
G0 Z0.6
(.3 CIRCULAR THROUGH HOLE)
M7
G0 X68.7872 Y12.4574
Z0.6
Z0.2
G1 Z0.1151 F13.333
G3 X68.7886 Y12.4579 Z0.1085 I-0.0146 J0.0426 F55.
X68.7924 Y12.4596 Z0.1031 I-0.016 J0.0421
X68.7976 Y12.4626 Z0.1 I-0.0198 J0.0404
X68.7996 Y12.536 Z0.077 I-0.025 J0.0374
X68.7456 Y12.464 Z0.0391 I-0.027 J-0.036
X68.7996 Y12.536 Z0.0012 I0.027 J0.036
X68.7456 Y12.464 Z-0.0367 I-0.027 J-0.036
X68.7996 Y12.536 Z-0.0746 I0.027 J0.036
X68.7276 Y12.5 Z-0.1012 I-0.027 J-0.036
X68.8251 I0.0488 J0. F60.
X68.6276 I-0.0988 J0.
X68.8251 I0.0988 J0.
X68.8234 Y12.505 I-0.008 J0.
G1 X68.798 Y12.5367
G3 X68.7959 Y12.5385 I-0.0062 J-0.005
X68.7494 Y12.4615 Z-0.1391 I-0.0233 J-0.0385 F55.
X68.7959 Y12.5385 Z-0.177 I0.0233 J0.0385
X68.7276 Y12.5 Z-0.2025 I-0.0233 J-0.0385
X68.8251 I0.0488 J0. F60.
X68.6276 I-0.0988 J0.
X68.8251 I0.0988 J0.
X68.8234 Y12.505 I-0.008 J0.
G1 X68.798 Y12.5367
G3 X68.7959 Y12.5385 I-0.0062 J-0.005
X68.7494 Y12.4615 Z-0.2404 I-0.0233 J-0.0385 F55.
X68.7959 Y12.5385 Z-0.2783 I0.0233 J0.0385
X68.7276 Y12.5 Z-0.3038 I-0.0233 J-0.0385
X68.8251 I0.0488 J0. F60.
X68.6276 I-0.0988 J0.
X68.8251 I0.0988 J0.
X68.8234 Y12.505 I-0.008 J0.
G1 X68.798 Y12.5367
G3 X68.7959 Y12.5385 I-0.0062 J-0.005
X68.7494 Y12.4615 Z-0.3416 I-0.0233 J-0.0385 F55.
X68.7959 Y12.5385 Z-0.3795 I0.0233 J0.0385
X68.7276 Y12.5 Z-0.405 I-0.0233 J-0.0385
X68.8251 I0.0488 J0. F60.
X68.6276 I-0.0988 J0.
X68.8351 I0.1038 J0.
X68.6176 I-0.1088 J0.
X68.8351 I0.1088 J0.
X68.834 Y12.5058 Z-0.4038 I-0.0157 J0.
X68.8314 Y12.5102 Z-0.4004 I-0.0145 J-0.0058
X68.8289 Y12.5125 Z-0.3953 I-0.0119 J-0.0102
X68.8279 Y12.5132 Z-0.3894 I-0.0094 J-0.0125
G0 Z0.6
(2D SLOT CUT)
M7
G0 X71.0824 Y12.2548
Z0.6
Z0.2
G1 Z0.1159 F13.333
X71.0825 Y12.2551 Z0.1128 F40.
X71.0826 Y12.256 Z0.1099
X71.0829 Y12.2574 Z0.1072
X71.0833 Y12.2593 Z0.1048
X71.0837 Y12.2617 Z0.1029
X71.0842 Y12.2643 Z0.1014
X71.0847 Y12.2672 Z0.1005
X71.0853 Y12.2702 Z0.1002
X71.0881 Y12.2856
G3 X71.0756 Y12.3038 I-0.0154 J0.0028
G1 X70.0662 Y12.4905 Z-0.0808
X70.0635 Y12.491 Z-0.081
X70.0082 Y12.5012 F30.
G3 X70.0064 Y12.4987 I-0.0003 J-0.0017
G1 X70.0065 Y12.4985
G2 X70.034 Y12.4341 I-0.3217 J-0.1753
G3 X70.0354 Y12.4329 I0.0017 J0.0006
G1 X70.0355
X71.1428 Y12.2282
G3 X71.1444 Y12.2287 I0.0003 J0.0016
G1 X71.1445 Y12.2288
G2 X71.1935 Y12.2792 I0.2859 J-0.2292
G1 X71.1936 Y12.2793
G3 X71.1928 Y12.2822 I-0.0011 J0.0013
G1 X71.1925
X70.0635 Y12.491
X70.0082 Y12.5012 Z-0.0909 F40.
G3 X70.0064 Y12.4987 Z-0.0916 I-0.0003 J-0.0017
G1 X70.0065 Y12.4985
G2 X70.034 Y12.4341 Z-0.104 I-0.3217 J-0.1753
G3 X70.0354 Y12.4329 Z-0.1043 I0.0017 J0.0006
G1 X70.0355 Z-0.1044
X70.3569 Y12.3735 Z-0.162
X71.1428 Y12.2282 F30.
G3 X71.1444 Y12.2287 I0.0003 J0.0016
G1 X71.1445 Y12.2288
G2 X71.1935 Y12.2792 I0.2859 J-0.2292
G1 X71.1936 Y12.2793
G3 X71.1928 Y12.2822 I-0.0011 J0.0013
G1 X71.1925
X70.0635 Y12.491
X70.0082 Y12.5012
G3 X70.0064 Y12.4987 I-0.0003 J-0.0017
G1 X70.0065 Y12.4985
G2 X70.034 Y12.4341 I-0.3217 J-0.1753
G3 X70.0354 Y12.4329 I0.0017 J0.0006
G1 X70.0355
X70.3569 Y12.3735
X70.8087 Y12.2899 Z-0.243 F40.
X71.1428 Y12.2282 F30.
G3 X71.1444 Y12.2287 I0.0003 J0.0016
G1 X71.1445 Y12.2288
G2 X71.1935 Y12.2792 I0.2859 J-0.2292
G1 X71.1936 Y12.2793
G3 X71.1928 Y12.2822 I-0.0011 J0.0013
G1 X71.1925
X70.0082 Y12.5012
G3 X70.0064 Y12.4987 I-0.0003 J-0.0017
G1 X70.0065 Y12.4985
G2 X70.034 Y12.4341 I-0.3217 J-0.1753
G3 X70.0354 Y12.4329 I0.0017 J0.0006
G1 X70.0355
X70.8087 Y12.2899
X71.1428 Y12.2282 Z-0.3029 F40.
G3 X71.1444 Y12.2287 Z-0.3032 I0.0003 J0.0016
G1 X71.1445 Y12.2288
G2 X71.1935 Y12.2792 Z-0.3157 I0.2859 J-0.2292
G1 X71.1936 Y12.2793
G3 X71.1928 Y12.2822 Z-0.3163 I-0.0011 J0.0013
G1 X71.1925 Z-0.3164
X71.1501 Y12.2901 Z-0.324
X70.0082 Y12.5012 F30.
G3 X70.0064 Y12.4987 I-0.0003 J-0.0017
G1 X70.0065 Y12.4985
G2 X70.034 Y12.4341 I-0.3217 J-0.1753
G3 X70.0354 Y12.4329 I0.0017 J0.0006
G1 X70.0355
X70.8087 Y12.2899
X71.1428 Y12.2282
G3 X71.1444 Y12.2287 I0.0003 J0.0016
G1 X71.1445 Y12.2288
G2 X71.1935 Y12.2792 I0.2859 J-0.2292
G1 X71.1936 Y12.2793
G3 X71.1928 Y12.2822 I-0.0011 J0.0013
G1 X71.1925
X71.1501 Y12.2901
X70.6984 Y12.3736 Z-0.405 F40.
X70.0082 Y12.5012 F30.
G3 X70.0064 Y12.4987 I-0.0003 J-0.0017
G1 X70.0065 Y12.4985
G2 X70.034 Y12.4341 I-0.3217 J-0.1753
G3 X70.0354 Y12.4329 I0.0017 J0.0006
G1 X70.0355
X71.1428 Y12.2282
G3 X71.1444 Y12.2287 I0.0003 J0.0016
G1 X71.1445 Y12.2288
G2 X71.1935 Y12.2792 I0.2859 J-0.2292
G1 X71.1936 Y12.2793
G3 X71.1928 Y12.2822 I-0.0011 J0.0013
G1 X71.1925
X70.6984 Y12.3736
G3 X70.6801 Y12.361 I-0.0028 J-0.0154
G1 X70.6773 Y12.3457
X70.6767 Y12.3427 Z-0.4047
X70.6762 Y12.3398 Z-0.4038
X70.6757 Y12.3371 Z-0.4024
X70.6753 Y12.3348 Z-0.4004
X70.6749 Y12.3329 Z-0.398
X70.6747 Y12.3314 Z-0.3953
X70.6745 Y12.3306 Z-0.3924
Y12.3303 Z-0.3894
G0 Z0.4
X71.0088 Y11.8553
Z0.2
G1 Z0.1159 F13.333
Y11.8556 Z0.1128 F40.
X71.009 Y11.8565 Z0.1099
X71.0092 Y11.8579 Z0.1072
X71.0096 Y11.8598 Z0.1048
X71.01 Y11.8622 Z0.1029
X71.0105 Y11.8648 Z0.1014
X71.011 Y11.8677 Z0.1005
X71.0116 Y11.8707 Z0.1002
X71.0144 Y11.8861
G3 X71.0019 Y11.9044 I-0.0154 J0.0028
G1 X69.9925 Y12.091 Z-0.0808
X69.9898 Y12.0915 Z-0.081
X69.9729 Y12.0946 F30.
G3 X69.9713 Y12.094 I-0.0003 J-0.0016
G1 Y12.0939
G2 X69.9222 Y12.0435 I-0.2859 J0.2292
G3 X69.9229 Y12.0405 I0.0011 J-0.0013
G1 X71.1075 Y11.8215
G3 X71.1094 Y11.824 I0.0003 J0.0017
G1 X71.1092 Y11.8242
G2 X71.0818 Y11.8886 I0.3217 J0.1753
G3 X71.0803 Y11.8899 I-0.0018 J-0.0006
G1 X69.9898 Y12.0915
X69.9729 Y12.0946 Z-0.084 F40.
G3 X69.9713 Y12.094 Z-0.0843 I-0.0003 J-0.0016
G1 Y12.0939 Z-0.0844
G2 X69.9222 Y12.0435 Z-0.0968 I-0.2859 J0.2292
G3 X69.9229 Y12.0405 Z-0.0975 I0.0011 J-0.0013
G1 X70.2828 Y11.974 Z-0.162
X71.1075 Y11.8215 F30.
G3 X71.1094 Y11.824 I0.0003 J0.0017
G1 X71.1092 Y11.8242
G2 X71.0818 Y11.8886 I0.3217 J0.1753
G3 X71.0803 Y11.8899 I-0.0018 J-0.0006
G1 X69.9898 Y12.0915
X69.9729 Y12.0946
G3 X69.9713 Y12.094 I-0.0003 J-0.0016
G1 Y12.0939
G2 X69.9222 Y12.0435 I-0.2859 J0.2292
G3 X69.9229 Y12.0405 I0.0011 J-0.0013
G1 X70.2828 Y11.974
X70.7345 Y11.8905 Z-0.243 F40.
X71.1075 Y11.8215 F30.
G3 X71.1094 Y11.824 I0.0003 J0.0017
G1 X71.1092 Y11.8242
G2 X71.0818 Y11.8886 I0.3217 J0.1753
G3 X71.0803 Y11.8899 I-0.0018 J-0.0006
G1 X69.9729 Y12.0946
G3 X69.9713 Y12.094 I-0.0003 J-0.0016
G1 Y12.0939
G2 X69.9222 Y12.0435 I-0.2859 J0.2292
G3 X69.9229 Y12.0405 I0.0011 J-0.0013
G1 X70.7345 Y11.8905
X71.1075 Y11.8215 Z-0.3099 F40.
G3 X71.1094 Y11.824 Z-0.3106 I0.0003 J0.0017
G1 X71.1092 Y11.8242
G2 X71.0818 Y11.8886 Z-0.323 I0.3217 J0.1753
G3 X71.0803 Y11.8899 Z-0.3233 I-0.0018 J-0.0006
G1 X71.0765 Y11.8906 Z-0.324
X69.9729 Y12.0946 F30.
G3 X69.9713 Y12.094 I-0.0003 J-0.0016
G1 Y12.0939
G2 X69.9222 Y12.0435 I-0.2859 J0.2292
G3 X69.9229 Y12.0405 I0.0011 J-0.0013
G1 X70.7345 Y11.8905
X71.1075 Y11.8215
G3 X71.1094 Y11.824 I0.0003 J0.0017
G1 X71.1092 Y11.8242
G2 X71.0818 Y11.8886 I0.3217 J0.1753
G3 X71.0803 Y11.8899 I-0.0018 J-0.0006
G1 X71.0765 Y11.8906
X70.6248 Y11.9741 Z-0.405 F40.
X69.9729 Y12.0946 F30.
G3 X69.9713 Y12.094 I-0.0003 J-0.0016
G1 Y12.0939
G2 X69.9222 Y12.0435 I-0.2859 J0.2292
G3 X69.9229 Y12.0405 I0.0011 J-0.0013
G1 X71.1075 Y11.8215
G3 X71.1094 Y11.824 I0.0003 J0.0017
G1 X71.1092 Y11.8242
G2 X71.0818 Y11.8886 I0.3217 J0.1753
G3 X71.0803 Y11.8899 I-0.0018 J-0.0006
G1 X71.0765 Y11.8906
X70.6248 Y11.9741
G3 X70.6066 Y11.9615 I-0.0028 J-0.0154
G1 X70.6037 Y11.9461
X70.6032 Y11.9431 Z-0.4047
X70.6027 Y11.9402 Z-0.4038
X70.6022 Y11.9376 Z-0.4024
X70.6017 Y11.9353 Z-0.4004
X70.6014 Y11.9333 Z-0.398
X70.6011 Y11.9319 Z-0.3953
X70.601 Y11.931 Z-0.3924
X70.6009 Y11.9307 Z-0.3894
G0 Z0.4
X71.9733 Y12.1923
Z0.2
G1 Z0.1159 F13.333
X71.973 Z0.1128 F40.
X71.9721 Y12.1924 Z0.1099
X71.9707 Y12.1926 Z0.1072
X71.9688 Y12.1929 Z0.1048
X71.9664 Y12.1932 Z0.1029
X71.9637 Y12.1935 Z0.1014
X71.9608 Y12.1939 Z0.1005
X71.9578 Y12.1942 Z0.1002
X71.9422 Y12.1962
G3 X71.9248 Y12.1826 I-0.0019 J-0.0155
G2 X71.9218 Y12.1634 Z0.0968 I-0.3259 J0.0404
G1 X71.8309 Y11.6718 Z0.0087
G2 X71.4567 Y11.4072 Z-0.0808 I-0.3229 J0.0598
X71.4554 Y11.4074 Z-0.0809 I0.0513 J0.3243
X71.4541 Y11.4076 Z-0.081 I0.0526 J0.3241
X71.4484 Y11.4086 I0.0539 J0.3239 F30.
G1 X68.4984 Y11.9541
G2 X68.2353 Y12.3366 I0.0595 J0.3227
G1 X68.3262 Y12.8282
G2 X68.7087 Y13.0914 I0.3227 J-0.0596
G1 X71.6587 Y12.5459
G2 X71.9218 Y12.1634 I-0.0598 J-0.3229
G1 X71.8309 Y11.6718
G2 X71.4541 Y11.4076 I-0.3229 J0.0598
X71.4484 Y11.4086 Z-0.082 I0.0539 J0.3239 F40.
G1 X71.0023 Y11.4911 Z-0.162
X68.4984 Y11.9541 F30.
G2 X68.2353 Y12.3366 I0.0595 J0.3227
G1 X68.3262 Y12.8282
G2 X68.7087 Y13.0914 I0.3227 J-0.0596
G1 X71.6587 Y12.5459
G2 X71.9218 Y12.1634 I-0.0598 J-0.3229
G1 X71.8309 Y11.6718
G2 X71.4484 Y11.4086 I-0.3229 J0.0598
G1 X71.0023 Y11.4911
X70.5506 Y11.5746 Z-0.243 F40.
X68.4984 Y11.9541 F30.
G2 X68.2353 Y12.3366 I0.0595 J0.3227
G1 X68.3262 Y12.8282
G2 X68.7087 Y13.0914 I0.3227 J-0.0596
G1 X71.6587 Y12.5459
G2 X71.9218 Y12.1634 I-0.0598 J-0.3229
G1 X71.8309 Y11.6718
G2 X71.4484 Y11.4086 I-0.3229 J0.0598
G1 X70.5506 Y11.5746
X70.0989 Y11.6582 Z-0.324 F40.
X68.4984 Y11.9541 F30.
G2 X68.2353 Y12.3366 I0.0595 J0.3227
G1 X68.3262 Y12.8282
G2 X68.7087 Y13.0914 I0.3227 J-0.0596
G1 X71.6587 Y12.5459
G2 X71.9218 Y12.1634 I-0.0598 J-0.3229
G1 X71.8309 Y11.6718
G2 X71.4484 Y11.4086 I-0.3229 J0.0598
G1 X70.5506 Y11.5746
X70.0989 Y11.6582
X70.0933 Y11.6592 Z-0.325 F40.
X69.6472 Y11.7417
X69.4319 Y11.7815 F30.
Z-0.405 F13.333
X68.4984 Y11.9541 F30.
G2 X68.2353 Y12.3366 I0.0595 J0.3227
G1 X68.3262 Y12.8282
G2 X68.7087 Y13.0914 I0.3227 J-0.0596
G1 X69.7525 Y12.8983
Z-0.325
X70.4964 Y12.7608
Z-0.405 F13.333
X71.6587 Y12.5459 F30.
G2 X71.9218 Y12.1634 I-0.0598 J-0.3229
G1 X71.8309 Y11.6718
G2 X71.4484 Y11.4086 I-0.3229 J0.0598
G1 X70.1758 Y11.6439
Z-0.325
X69.6472 Y11.7417
G3 X69.629 Y11.7292 I-0.0028 J-0.0154
G1 X69.6233 Y11.6984
G0 Z0.6
M9
G53 Z0.
M30
%
