%
(971-23-P-0102_CHAIN TENSIONER_1563)
(T1  D=0.1563 CR=0. - ZMIN=-0.405 - FLAT END MILL)
G90 G94 G17 G91.1
G64 P0.001 Q0.001
G20
G53 G0 Z0.
(.3 CIRCLUAR THROUGH HOLE 2)
M9
T1 M6
S22000 M3
G4 P10.
G54
M7
G0 X71.4183 Y11.9888
G43 Z0.6 H1
G0 Z0.13
G1 Z0.0656 F20.
G18 G2 X71.4339 Z0.05 I0.0156 K0.
G1 X71.4417
G17 G3 X71.4529 Y12. I0. J0.0112
X71.4082 Z0.0323 I-0.0224 J0.
X71.4529 Z0.0146 I0.0224 J0.
X71.4082 Z-0.0032 I-0.0224 J0.
X71.4529 Z-0.0209 I0.0224 J0.
X71.4082 Z-0.0386 I-0.0224 J0.
X71.4529 Z-0.0563 I0.0224 J0.
X71.4082 Z-0.074 I-0.0223 J0.
X71.4529 Z-0.0918 I0.0223 J0.
X71.4082 Z-0.1095 I-0.0223 J0.
X71.4529 Y11.999 Z-0.1269 I0.0223 J0.
X71.4082 Y12.001 Z-0.1447 I-0.0223 J0.001
X71.4244 Y11.9785 Z-0.1522 I0.0223 J-0.001
X71.4367 Y12.0215 Z-0.1699 I0.0061 J0.0215
X71.4244 Y11.9785 Z-0.1877 I-0.0061 J-0.0215
X71.4456 Y12.0165 Z-0.2028 I0.0061 J0.0215
X71.4155 Y11.9835 Z-0.2205 I-0.0151 J-0.0165
X71.4432 Y11.9815 Z-0.2281 I0.0151 J0.0165
X71.4179 Y12.0185 Z-0.2458 I-0.0126 J0.0185
X71.4097 Y11.9919 Z-0.2533 I0.0126 J-0.0185
X71.4514 Y12.0081 Z-0.2711 I0.0208 J0.0081
X71.4275 Y12.0221 Z-0.2786 I-0.0208 J-0.0081
X71.4336 Y11.9779 Z-0.2963 I0.0031 J-0.0221
X71.4528 Y11.9979 Z-0.3039 I-0.0031 J0.0221
X71.4083 Y12.0021 Z-0.3216 I-0.0223 J0.0021
X71.4528 Y11.9979 Z-0.3393 I0.0223 J-0.0021
X71.4083 Y12.0021 Z-0.3571 I-0.0223 J0.0021
X71.4528 Y11.9979 Z-0.3748 I0.0223 J-0.0021
X71.4464 Y12.0158 Z-0.3797 I-0.0223 J0.0021
X71.4147 Y11.9842 Z-0.3974 I-0.0158 J-0.0158
X71.4423 Y11.981 Z-0.405 I0.0158 J0.0158
X71.4188 Y12.019 I-0.0117 J0.019
X71.4423 Y11.981 I0.0117 J-0.019
X71.4459 Y11.9964 I-0.0059 J0.0095
G1 X71.4418 Y12.003
X71.4402 Y12.0056 Z-0.4047
X71.4387 Y12.0081 Z-0.4038
X71.4373 Y12.0104 Z-0.4024
X71.436 Y12.0124 Z-0.4004
X71.435 Y12.0141 Z-0.3981
X71.4342 Y12.0153 Z-0.3954
X71.4338 Y12.0161 Z-0.3924
X71.4336 Y12.0163 Z-0.3894
G0 Z0.4
X69.6974 Y12.3339
Z0.13
G1 Z0.0656 F20.
G18 G3 X69.6818 Z0.05 I-0.0156 K0.
G1 X69.674
G17 G3 X69.6628 Y12.3227 I0. J-0.0112
X69.7075 Z0.0323 I0.0224 J0.
X69.6903 Y12.3445 Z0.0247 I-0.0224 J0.
X69.68 Y12.301 Z0.007 I-0.0051 J-0.0218
X69.7051 Y12.3128 Z-0.0006 I0.0051 J0.0218
X69.6651 Y12.3327 Z-0.0183 I-0.02 J0.01
X69.7051 Y12.3128 Z-0.036 I0.02 J-0.01
X69.6651 Y12.3327 Z-0.0537 I-0.02 J0.01
X69.7051 Y12.3128 Z-0.0714 I0.02 J-0.01
X69.6651 Y12.3327 Z-0.0892 I-0.02 J0.01
X69.7051 Y12.3128 Z-0.1069 I0.02 J-0.01
X69.6651 Y12.3327 Z-0.1246 I-0.02 J0.01
X69.7051 Y12.3128 Z-0.1423 I0.02 J-0.01
X69.6651 Y12.3327 Z-0.16 I-0.02 J0.01
X69.7051 Y12.3128 Z-0.1778 I0.02 J-0.01
X69.6651 Y12.3327 Z-0.1955 I-0.02 J0.01
X69.6701 Y12.3062 Z-0.2028 I0.02 J-0.01
X69.7002 Y12.3392 Z-0.2205 I0.0151 J0.0165
X69.6725 Y12.3412 Z-0.2281 I-0.0151 J-0.0165
X69.6978 Y12.3043 Z-0.2458 I0.0126 J-0.0185
X69.6725 Y12.3412 Z-0.2635 I-0.0126 J0.0185
X69.6882 Y12.3006 Z-0.2786 I0.0126 J-0.0185
X69.6821 Y12.3449 Z-0.2963 I-0.0031 J0.0221
X69.6629 Y12.3248 Z-0.3039 I0.0031 J-0.0221
X69.7074 Y12.3206 Z-0.3216 I0.0223 J-0.0021
X69.6629 Y12.3248 Z-0.3393 I-0.0223 J0.0021
X69.7074 Y12.3206 Z-0.3571 I0.0223 J-0.0021
X69.6629 Y12.3248 Z-0.3748 I-0.0223 J0.0021
X69.6693 Y12.3069 Z-0.3797 I0.0223 J-0.0021
X69.701 Y12.3385 Z-0.3974 I0.0158 J0.0158
X69.6734 Y12.3417 Z-0.405 I-0.0158 J-0.0158
X69.6969 Y12.3037 I0.0117 J-0.019
X69.6734 Y12.3417 I-0.0117 J0.019
X69.6698 Y12.3264 I0.0059 J-0.0095
G1 X69.6739 Y12.3197
X69.6755 Y12.3171 Z-0.4047
X69.677 Y12.3146 Z-0.4038
X69.6784 Y12.3123 Z-0.4024
X69.6797 Y12.3103 Z-0.4004
X69.6807 Y12.3087 Z-0.3981
X69.6814 Y12.3074 Z-0.3954
X69.6819 Y12.3067 Z-0.3924
X69.6821 Y12.3064 Z-0.3894
G0 Z0.6
(.3 CIRCULAR THROUGH HOLE)
M7
G0 X68.7871 Y12.4574
Z0.6
Z0.2
G1 Z0.1151 F13.333
G3 X68.7885 Y12.4579 Z0.1085 I-0.0146 J0.0426 F20.
X68.7923 Y12.4596 Z0.1031 I-0.016 J0.0421
X68.7975 Y12.4626 Z0.1 I-0.0198 J0.0404
X68.7995 Y12.536 Z0.077 I-0.025 J0.0374
X68.7455 Y12.464 Z0.0391 I-0.027 J-0.036
X68.7995 Y12.536 Z0.0012 I0.027 J0.036
X68.7455 Y12.464 Z-0.0367 I-0.027 J-0.036
X68.7995 Y12.536 Z-0.0746 I0.027 J0.036
X68.7275 Y12.5 Z-0.1012 I-0.027 J-0.036
X68.8252 I0.0489 J0.
X68.6275 I-0.0989 J0.
X68.8252 I0.0989 J0.
X68.8235 Y12.505 I-0.008 J0.
G1 X68.7979 Y12.5367
G3 X68.7958 Y12.5385 I-0.0062 J-0.005
X68.7493 Y12.4615 Z-0.1391 I-0.0233 J-0.0385
X68.7958 Y12.5385 Z-0.177 I0.0233 J0.0385
X68.7275 Y12.5 Z-0.2025 I-0.0233 J-0.0385
X68.8252 I0.0489 J0.
X68.6275 I-0.0989 J0.
X68.8252 I0.0989 J0.
X68.8235 Y12.505 I-0.008 J0.
G1 X68.7979 Y12.5367
G3 X68.7958 Y12.5385 I-0.0062 J-0.005
X68.7493 Y12.4615 Z-0.2404 I-0.0233 J-0.0385
X68.7958 Y12.5385 Z-0.2783 I0.0233 J0.0385
X68.7275 Y12.5 Z-0.3038 I-0.0233 J-0.0385
X68.8252 I0.0489 J0.
X68.6275 I-0.0989 J0.
X68.8252 I0.0989 J0.
X68.8235 Y12.505 I-0.008 J0.
G1 X68.7979 Y12.5367
G3 X68.7958 Y12.5385 I-0.0062 J-0.005
X68.7493 Y12.4615 Z-0.3416 I-0.0233 J-0.0385
X68.7958 Y12.5385 Z-0.3795 I0.0233 J0.0385
X68.7275 Y12.5 Z-0.405 I-0.0233 J-0.0385
X68.8252 I0.0489 J0.
X68.6275 I-0.0989 J0.
X68.8352 I0.1039 J0.
X68.6175 I-0.1089 J0.
X68.8352 I0.1089 J0.
X68.8341 Y12.5058 Z-0.4038 I-0.0156 J0.
X68.8315 Y12.5102 Z-0.4004 I-0.0145 J-0.0058
X68.829 Y12.5125 Z-0.3954 I-0.0119 J-0.0102
X68.8281 Y12.5132 Z-0.3894 I-0.0094 J-0.0125
G0 Z0.6
(2D SLOT CUT)
M7
G0 X71.0071 Y12.2689
Z0.6
Z0.2
G1 Z0.1159 F13.333
X71.0072 Y12.2692 Z0.1128 F20.
X71.0074 Y12.2701 Z0.1099
X71.0076 Y12.2715 Z0.1072
X71.008 Y12.2734 Z0.1048
X71.0084 Y12.2757 Z0.1029
X71.0089 Y12.2784 Z0.1014
X71.0094 Y12.2813 Z0.1005
X71.01 Y12.2843 Z0.1002
X71.0128 Y12.2997
G3 X71.0003 Y12.3179 I-0.0154 J0.0028
G1 X70.0662 Y12.4906 Z-0.0673
X70.0635 Y12.4911 Z-0.0675
X70.0082 Y12.5013
G3 X70.0063 Y12.4987 I-0.0003 J-0.0018
G1 X70.0064 Y12.4985
G2 X70.0339 Y12.4341 I-0.3216 J-0.1753
G3 X70.0354 Y12.4328 I0.0018 J0.0006
G1 X70.0355
X71.1428 Y12.2281
G3 X71.1445 Y12.2287 I0.0003 J0.0017
G1 Y12.2288
G2 X71.1936 Y12.2792 I0.2858 J-0.2291
G3 X71.1928 Y12.2823 I-0.0011 J0.0013
G1 X71.1925
X70.0635 Y12.4911
X70.0082 Y12.5013 Z-0.0774
G3 X70.0063 Y12.4987 Z-0.0781 I-0.0003 J-0.0018
G1 X70.0064 Y12.4985 Z-0.0782
G2 X70.0339 Y12.4341 Z-0.0905 I-0.3216 J-0.1753
G3 X70.0354 Y12.4328 Z-0.0909 I0.0018 J0.0006
G1 X70.0355
X70.2813 Y12.3873 Z-0.135
X71.1428 Y12.2281
G3 X71.1445 Y12.2287 I0.0003 J0.0017
G1 Y12.2288
G2 X71.1936 Y12.2792 I0.2858 J-0.2291
G3 X71.1928 Y12.2823 I-0.0011 J0.0013
G1 X71.1925
X70.0635 Y12.4911
X70.0082 Y12.5013
G3 X70.0063 Y12.4987 I-0.0003 J-0.0018
G1 X70.0064 Y12.4985
G2 X70.0339 Y12.4341 I-0.3216 J-0.1753
G3 X70.0354 Y12.4328 I0.0018 J0.0006
G1 X70.0355
X70.2813 Y12.3873
X70.6578 Y12.3177 Z-0.2025
X71.1428 Y12.2281
G3 X71.1445 Y12.2287 I0.0003 J0.0017
G1 Y12.2288
G2 X71.1936 Y12.2792 I0.2858 J-0.2291
G3 X71.1928 Y12.2823 I-0.0011 J0.0013
G1 X71.1925
X70.0082 Y12.5013
G3 X70.0063 Y12.4987 I-0.0003 J-0.0018
G1 X70.0064 Y12.4985
G2 X70.0339 Y12.4341 I-0.3216 J-0.1753
G3 X70.0354 Y12.4328 I0.0018 J0.0006
G1 X70.0355
X70.6578 Y12.3177
X71.0342 Y12.2481 Z-0.27
X71.1428 Y12.2281
G3 X71.1445 Y12.2287 I0.0003 J0.0017
G1 Y12.2288
G2 X71.1936 Y12.2792 I0.2858 J-0.2291
G3 X71.1928 Y12.2823 I-0.0011 J0.0013
G1 X71.1925
X70.0082 Y12.5013
G3 X70.0063 Y12.4987 I-0.0003 J-0.0018
G1 X70.0064 Y12.4985
G2 X70.0339 Y12.4341 I-0.3216 J-0.1753
G3 X70.0354 Y12.4328 I0.0018 J0.0006
G1 X70.0355
X70.6578 Y12.3177
X71.0342 Y12.2481
X71.1428 Y12.2281 Z-0.2895
G3 X71.1445 Y12.2287 Z-0.2898 I0.0003 J0.0017
G1 Y12.2288
G2 X71.1936 Y12.2792 Z-0.3022 I0.2858 J-0.2291
G1 Z-0.3023
G3 X71.1928 Y12.2823 Z-0.303 I-0.0011 J0.0013
G1 X71.1925
X71.0002 Y12.3179 Z-0.3375
X70.0082 Y12.5013
G3 X70.0063 Y12.4987 I-0.0003 J-0.0018
G1 X70.0064 Y12.4985
G2 X70.0339 Y12.4341 I-0.3216 J-0.1753
G3 X70.0354 Y12.4328 I0.0018 J0.0006
G1 X70.0355
X71.0342 Y12.2481
X71.1428 Y12.2281
G3 X71.1445 Y12.2287 I0.0003 J0.0017
G1 Y12.2288
G2 X71.1936 Y12.2792 I0.2858 J-0.2291
G3 X71.1928 Y12.2823 I-0.0011 J0.0013
G1 X71.1925
X71.0002 Y12.3179
X70.6237 Y12.3875 Z-0.405
X70.0082 Y12.5013
G3 X70.0063 Y12.4987 I-0.0003 J-0.0018
G1 X70.0064 Y12.4985
G2 X70.0339 Y12.4341 I-0.3216 J-0.1753
G3 X70.0354 Y12.4328 I0.0018 J0.0006
G1 X70.0355
X71.1428 Y12.2281
G3 X71.1445 Y12.2287 I0.0003 J0.0017
G1 Y12.2288
G2 X71.1936 Y12.2792 I0.2858 J-0.2291
G3 X71.1928 Y12.2823 I-0.0011 J0.0013
G1 X71.1925
X70.6237 Y12.3875
G3 X70.6055 Y12.375 I-0.0028 J-0.0154
G1 X70.6027 Y12.3596
X70.6021 Y12.3566 Z-0.4047
X70.6016 Y12.3537 Z-0.4038
X70.6011 Y12.3511 Z-0.4024
X70.6007 Y12.3487 Z-0.4004
X70.6003 Y12.3468 Z-0.3981
X70.6 Y12.3454 Z-0.3954
X70.5999 Y12.3445 Z-0.3924
X70.5998 Y12.3442 Z-0.3894
G0 Z0.4
X70.9335 Y11.8694
Z0.2
G1 Z0.1159 F13.333
Y11.8697 Z0.1128 F20.
X70.9337 Y11.8706 Z0.1099
X70.934 Y11.872 Z0.1072
X70.9343 Y11.8739 Z0.1048
X70.9347 Y11.8763 Z0.1029
X70.9352 Y11.8789 Z0.1014
X70.9358 Y11.8818 Z0.1005
X70.9363 Y11.8848 Z0.1002
X70.9392 Y11.9002
G3 X70.9266 Y11.9184 I-0.0154 J0.0028
G1 X69.9925 Y12.0911 Z-0.0673
X69.9899 Y12.0916 Z-0.0675
X69.9729 Y12.0947
G3 X69.9713 Y12.0941 I-0.0003 J-0.0017
G1 X69.9712 Y12.094
G2 X69.9222 Y12.0436 I-0.2858 J0.2291
G1 X69.9221 Y12.0435
G3 X69.9229 Y12.0404 I0.0011 J-0.0014
G1 X71.1075 Y11.8214
G3 X71.1094 Y11.8241 I0.0003 J0.0018
G1 X71.1093 Y11.8243
G2 X71.0819 Y11.8886 I0.3216 J0.1753
G3 X71.0804 Y11.8899 I-0.0019 J-0.0006
G1 X71.0803 Y11.89
X69.9899 Y12.0916
X69.9729 Y12.0947 Z-0.0705
G3 X69.9713 Y12.0941 Z-0.0709 I-0.0003 J-0.0017
G1 X69.9712 Y12.094
G2 X69.9222 Y12.0436 Z-0.0833 I-0.2858 J0.2291
G1 X69.9221 Y12.0435
G3 X69.9229 Y12.0404 Z-0.084 I0.0011 J-0.0014
G1 X70.2072 Y11.9879 Z-0.135
X71.1075 Y11.8214
G3 X71.1094 Y11.8241 I0.0003 J0.0018
G1 X71.1093 Y11.8243
G2 X71.0819 Y11.8886 I0.3216 J0.1753
G3 X71.0804 Y11.8899 I-0.0019 J-0.0006
G1 X71.0803 Y11.89
X69.9899 Y12.0916
X69.9729 Y12.0947
G3 X69.9713 Y12.0941 I-0.0003 J-0.0017
G1 X69.9712 Y12.094
G2 X69.9222 Y12.0436 I-0.2858 J0.2291
G1 X69.9221 Y12.0435
G3 X69.9229 Y12.0404 I0.0011 J-0.0014
G1 X70.2072 Y11.9879
X70.5836 Y11.9183 Z-0.2025
X71.1075 Y11.8214
G3 X71.1094 Y11.8241 I0.0003 J0.0018
G1 X71.1093 Y11.8243
G2 X71.0819 Y11.8886 I0.3216 J0.1753
G3 X71.0804 Y11.8899 I-0.0019 J-0.0006
G1 X71.0803 Y11.89
X69.9729 Y12.0947
G3 X69.9713 Y12.0941 I-0.0003 J-0.0017
G1 X69.9712 Y12.094
G2 X69.9222 Y12.0436 I-0.2858 J0.2291
G1 X69.9221 Y12.0435
G3 X69.9229 Y12.0404 I0.0011 J-0.0014
G1 X70.5836 Y11.9183
X70.9601 Y11.8487 Z-0.27
X71.1075 Y11.8214
G3 X71.1094 Y11.8241 I0.0003 J0.0018
G1 X71.1093 Y11.8243
G2 X71.0819 Y11.8886 I0.3216 J0.1753
G3 X71.0804 Y11.8899 I-0.0019 J-0.0006
G1 X71.0803 Y11.89
X69.9729 Y12.0947
G3 X69.9713 Y12.0941 I-0.0003 J-0.0017
G1 X69.9712 Y12.094
G2 X69.9222 Y12.0436 I-0.2858 J0.2291
G1 X69.9221 Y12.0435
G3 X69.9229 Y12.0404 I0.0011 J-0.0014
G1 X70.5836 Y11.9183
X70.9601 Y11.8487
X71.1075 Y11.8214 Z-0.2964
G3 X71.1094 Y11.8241 Z-0.2972 I0.0003 J0.0018
G1 X71.1093 Y11.8243
G2 X71.0819 Y11.8886 Z-0.3096 I0.3216 J0.1753
G3 X71.0804 Y11.8899 Z-0.3099 I-0.0019 J-0.0006
G1 X71.0803 Y11.89
X70.9266 Y11.9184 Z-0.3375
X69.9729 Y12.0947
G3 X69.9713 Y12.0941 I-0.0003 J-0.0017
G1 X69.9712 Y12.094
G2 X69.9222 Y12.0436 I-0.2858 J0.2291
G1 X69.9221 Y12.0435
G3 X69.9229 Y12.0404 I0.0011 J-0.0014
G1 X70.9601 Y11.8487
X71.1075 Y11.8214
G3 X71.1094 Y11.8241 I0.0003 J0.0018
G1 X71.1093 Y11.8243
G2 X71.0819 Y11.8886 I0.3216 J0.1753
G3 X71.0804 Y11.8899 I-0.0019 J-0.0006
G1 X71.0803 Y11.89
X70.9266 Y11.9184
X70.5502 Y11.988 Z-0.405
X69.9729 Y12.0947
G3 X69.9713 Y12.0941 I-0.0003 J-0.0017
G1 X69.9712 Y12.094
G2 X69.9222 Y12.0436 I-0.2858 J0.2291
G1 X69.9221 Y12.0435
G3 X69.9229 Y12.0404 I0.0011 J-0.0014
G1 X71.1075 Y11.8214
G3 X71.1094 Y11.8241 I0.0003 J0.0018
G1 X71.1093 Y11.8243
G2 X71.0819 Y11.8886 I0.3216 J0.1753
G3 X71.0804 Y11.8899 I-0.0019 J-0.0006
G1 X71.0803 Y11.89
X70.5502 Y11.988
G3 X70.532 Y11.9754 I-0.0028 J-0.0154
G1 X70.5291 Y11.9601
X70.5286 Y11.9571 Z-0.4047
X70.528 Y11.9542 Z-0.4038
X70.5275 Y11.9515 Z-0.4024
X70.5271 Y11.9492 Z-0.4004
X70.5268 Y11.9473 Z-0.3981
X70.5265 Y11.9459 Z-0.3954
X70.5263 Y11.945 Z-0.3924
Y11.9447 Z-0.3894
G0 Z0.4
X71.9603 Y12.1142
Z0.2
G1 Z0.1159 F13.333
X71.96 Z0.1128 F20.
X71.9591 Y12.1144 Z0.1099
X71.9577 Y12.1147 Z0.1072
X71.9558 Y12.115 Z0.1048
X71.9535 Y12.1154 Z0.1029
X71.9508 Y12.1159 Z0.1014
X71.9479 Y12.1165 Z0.1005
X71.9449 Y12.117 Z0.1002
X71.9296 Y12.1199
G3 X71.9114 Y12.1073 I-0.0028 J-0.0154
G1 X71.8308 Y11.6718 Z0.0221
G2 X71.4568 Y11.4073 Z-0.0673 I-0.3228 J0.0598
X71.4554 Y11.4075 Z-0.0674 I0.0512 J0.3242
X71.4541 Y11.4077 Z-0.0675 I0.0526 J0.324
X71.4484 Y11.4087 I0.0539 J0.3238
G1 X68.4984 Y11.9542
G2 X68.2354 Y12.3366 I0.0595 J0.3226
G1 X68.3263 Y12.8282
G2 X68.7087 Y13.0913 I0.3227 J-0.0596
G1 X71.6587 Y12.5458
G2 X71.9217 Y12.1635 I-0.0598 J-0.3228
G1 Y12.1634
X71.8308 Y11.6718
G2 X71.4541 Y11.4077 I-0.3228 J0.0598
X71.4484 Y11.4087 Z-0.0685 I0.0539 J0.3238
G1 X71.0776 Y11.4773 Z-0.135
X68.4984 Y11.9542
G2 X68.2354 Y12.3366 I0.0595 J0.3226
G1 X68.3263 Y12.8282
G2 X68.7087 Y13.0913 I0.3227 J-0.0596
G1 X71.6587 Y12.5458
G2 X71.9217 Y12.1635 I-0.0598 J-0.3228
G1 Y12.1634
X71.8308 Y11.6718
G2 X71.4484 Y11.4087 I-0.3228 J0.0598
G1 X71.0776 Y11.4773
X70.7012 Y11.5469 Z-0.2025
X68.4984 Y11.9542
G2 X68.2354 Y12.3366 I0.0595 J0.3226
G1 X68.3263 Y12.8282
G2 X68.7087 Y13.0913 I0.3227 J-0.0596
G1 X71.6587 Y12.5458
G2 X71.9217 Y12.1635 I-0.0598 J-0.3228
G1 Y12.1634
X71.8308 Y11.6718
G2 X71.4484 Y11.4087 I-0.3228 J0.0598
G1 X70.7012 Y11.5469
X70.3248 Y11.6165 Z-0.27
X68.4984 Y11.9542
G2 X68.2354 Y12.3366 I0.0595 J0.3226
G1 X68.3263 Y12.8282
G2 X68.7087 Y13.0913 I0.3227 J-0.0596
G1 X71.6587 Y12.5458
G2 X71.9217 Y12.1635 I-0.0598 J-0.3228
G1 Y12.1634
X71.8308 Y11.6718
G2 X71.4484 Y11.4087 I-0.3228 J0.0598
G1 X70.7012 Y11.5469
X70.3248 Y11.6165
X70.0181 Y11.6732 Z-0.325
X69.9484 Y11.6861
X69.4321 Y11.7816
Z-0.3375 F13.333
X68.4984 Y11.9542 F20.
G2 X68.2354 Y12.3366 I0.0595 J0.3226
G1 X68.3263 Y12.8282
G2 X68.7087 Y13.0913 I0.3227 J-0.0596
G1 X69.7526 Y12.8982
Z-0.325
X70.4963 Y12.7607
Z-0.3375 F13.333
X71.6587 Y12.5458 F20.
G2 X71.9217 Y12.1635 I-0.0598 J-0.3228
G1 Y12.1634
X71.8308 Y11.6718
G2 X71.4484 Y11.4087 I-0.3228 J0.0598
G1 X70.1757 Y11.6441
Z-0.325
X69.9484 Y11.6861
X69.5719 Y11.7557
X69.4321 Y11.7816
Z-0.405 F13.333
X68.4984 Y11.9542 F20.
G2 X68.2354 Y12.3366 I0.0595 J0.3226
G1 X68.3263 Y12.8282
G2 X68.7087 Y13.0913 I0.3227 J-0.0596
G1 X69.7526 Y12.8982
Z-0.325
X70.4963 Y12.7607
Z-0.405 F13.333
X71.6587 Y12.5458 F20.
G2 X71.9217 Y12.1635 I-0.0598 J-0.3228
G1 Y12.1634
X71.8308 Y11.6718
G2 X71.4484 Y11.4087 I-0.3228 J0.0598
G1 X70.1757 Y11.6441
Z-0.325
X69.5719 Y11.7557
G3 X69.5537 Y11.7432 I-0.0028 J-0.0154
G1 X69.548 Y11.7124
G0 Z0.6
M9
G53 Z0.
M30
%
