%
(971-23-P-0078_BUTTERFLY FISH GEARBOX PLATE_1501)
(T1  D=0.1501 CR=0. - ZMIN=-0.2175 - FLAT END MILL)
G90 G94 G17 G91.1
G64 P0.001 Q0.001
G20
G53 G0 Z0.
(.3 CIRCLUAR THROUGH HOLE 2)
M9
T1 M6
S22000 M3
G4 P10.
G54
M7
G0 X74.9686 Y7.1873
G43 Z0.6 H1
G0 Z0.13
G1 Z0.065 F40.
G18 G2 X74.9837 Z0.05 I0.015 K0.
G1 X74.9912
G17 G3 X75.0039 Y7.2 I0. J0.0127
X74.953 Z0.0323 I-0.0254 J0.
X75.0039 Z0.0146 I0.0254 J0.
X74.953 Z-0.0032 I-0.0254 J0.
X75.0039 Z-0.0209 I0.0254 J0.
X74.953 Z-0.0386 I-0.0254 J0.
X75.0039 Z-0.0563 I0.0254 J0.
X74.953 Z-0.074 I-0.0254 J0.
X75.0039 Z-0.0918 I0.0255 J0.
X74.9973 Y7.2171 Z-0.0959 I-0.0255 J0.
X74.9595 Y7.1829 Z-0.1136 I-0.0189 J-0.0171
X74.9868 Y7.1759 Z-0.1202 I0.0189 J0.0171
X74.9701 Y7.2241 Z-0.1379 I-0.0083 J0.0241
X74.9868 Y7.1759 Z-0.1557 I0.0083 J-0.0241
X74.9899 Y7.2227 Z-0.1689 I-0.0083 J0.0241
X74.9669 Y7.1773 Z-0.1866 I-0.0115 J-0.0227
X74.9948 Y7.1805 Z-0.1932 I0.0115 J0.0227
X74.962 Y7.2195 Z-0.2109 I-0.0164 J0.0195
X74.9541 Y7.1925 Z-0.2175 I0.0164 J-0.0195
X75.0028 Y7.2075 I0.0243 J0.0075
X74.9541 Y7.1925 I-0.0243 J-0.0075
X74.97 Y7.1841 I0.0122 J0.0037
G1 X74.9772 Y7.1863
X74.98 Y7.1872 Z-0.2172
X74.9827 Y7.188 Z-0.2164
X74.9852 Y7.1888 Z-0.215
X74.9873 Y7.1894 Z-0.2131
X74.9891 Y7.19 Z-0.2108
X74.9904 Y7.1904 Z-0.2082
X74.9913 Y7.1906 Z-0.2054
X74.9915 Y7.1907 Z-0.2025
G0 Z0.4
X74.6973 Y11.0127
Z0.13
G1 Z0.065 F40.
G18 G3 X74.6823 Z0.05 I-0.015 K0.
G1 X74.6748
G17 G3 X74.662 Y11. I0. J-0.0127
X74.713 Z0.0323 I0.0255 J0.
X74.662 Z0.0146 I-0.0255 J0.
X74.713 Z-0.0032 I0.0255 J0.
X74.662 Z-0.0209 I-0.0255 J0.
X74.6637 Y10.9909 Z-0.023 I0.0255 J0.
X74.7113 Y11.0091 Z-0.0407 I0.0238 J0.0091
X74.6884 Y11.0254 Z-0.0473 I-0.0238 J-0.0091
X74.6866 Y10.9746 Z-0.065 I-0.0009 J-0.0254
X74.6884 Y11.0254 Z-0.0827 I0.0009 J0.0254
X74.6686 Y10.9829 Z-0.0959 I-0.0009 J-0.0254
X74.7064 Y11.0171 Z-0.1136 I0.0189 J0.0171
X74.6792 Y11.0241 Z-0.1202 I-0.0189 J-0.0171
X74.6958 Y10.9759 Z-0.1379 I0.0083 J-0.0241
X74.6792 Y11.0241 Z-0.1557 I-0.0083 J0.0241
X74.676 Y10.9773 Z-0.1689 I0.0083 J-0.0241
X74.699 Y11.0227 Z-0.1866 I0.0115 J0.0227
X74.676 Y10.9773 Z-0.2043 I-0.0115 J-0.0227
X74.7118 Y11.0075 Z-0.2175 I0.0115 J0.0227
X74.6632 Y10.9925 I-0.0243 J-0.0075
X74.7118 Y11.0075 I0.0243 J0.0075
X74.6959 Y11.0159 I-0.0122 J-0.0037
G1 X74.6887 Y11.0137
X74.6859 Y11.0128 Z-0.2172
X74.6833 Y11.012 Z-0.2164
X74.6808 Y11.0112 Z-0.215
X74.6786 Y11.0106 Z-0.2131
X74.6768 Y11.01 Z-0.2108
X74.6755 Y11.0096 Z-0.2082
X74.6747 Y11.0094 Z-0.2054
X74.6744 Y11.0093 Z-0.2025
G0 Z0.4
X74.8007 Y11.9873
Z0.13
G1 Z0.065 F40.
G18 G2 X74.8158 Z0.05 I0.015 K0.
G1 X74.8233
G17 G3 X74.836 Y12. I0. J0.0127
X74.7851 Z0.0323 I-0.0254 J0.
X74.8006 Y11.9766 Z0.0257 I0.0254 J0.
X74.8205 Y12.0234 Z0.008 I0.0099 J0.0234
X74.7928 Y12.0183 Z0.0014 I-0.0099 J-0.0234
X74.8282 Y11.9817 Z-0.0164 I0.0177 J-0.0183
X74.8343 Y12.0091 Z-0.023 I-0.0177 J0.0183
X74.7868 Y11.9909 Z-0.0407 I-0.0238 J-0.0091
X74.8097 Y11.9746 Z-0.0473 I0.0238 J0.0091
X74.8114 Y12.0254 Z-0.065 I0.0009 J0.0254
X74.8097 Y11.9746 Z-0.0827 I-0.0009 J-0.0254
X74.8294 Y12.0171 Z-0.0959 I0.0009 J0.0254
X74.7916 Y11.9829 Z-0.1136 I-0.0189 J-0.0171
X74.8189 Y11.9759 Z-0.1202 I0.0189 J0.0171
X74.8022 Y12.0241 Z-0.1379 I-0.0083 J0.0241
X74.7851 Y12.0017 Z-0.1445 I0.0083 J-0.0241
X74.8359 Y11.9983 Z-0.1623 I0.0254 J-0.0017
X74.822 Y12.0227 Z-0.1689 I-0.0254 J0.0017
X74.799 Y11.9773 Z-0.1866 I-0.0115 J-0.0227
X74.8269 Y11.9805 Z-0.1932 I0.0115 J0.0227
X74.7941 Y12.0195 Z-0.2109 I-0.0164 J0.0195
X74.7862 Y11.9925 Z-0.2175 I0.0164 J-0.0195
X74.8349 Y12.0075 I0.0243 J0.0075
X74.7862 Y11.9925 I-0.0243 J-0.0075
X74.8021 Y11.9841 I0.0122 J0.0037
G1 X74.8093 Y11.9863
X74.8121 Y11.9872 Z-0.2172
X74.8148 Y11.988 Z-0.2164
X74.8173 Y11.9888 Z-0.215
X74.8194 Y11.9894 Z-0.2131
X74.8212 Y11.99 Z-0.2108
X74.8225 Y11.9904 Z-0.2082
X74.8234 Y11.9906 Z-0.2054
X74.8236 Y11.9907 Z-0.2025
G0 Z0.4
X73.838 Y14.6578
Z0.13
G1 Z0.065 F40.
G18 G2 X73.853 Z0.05 I0.015 K0.
G1 X73.8605
G17 G3 X73.8733 Y14.6705 I0. J0.0127
X73.8224 Z0.0323 I-0.0254 J0.
X73.8733 Z0.0146 I0.0254 J0.
X73.8301 Y14.6888 Z0.0014 I-0.0254 J0.
X73.8655 Y14.6522 Z-0.0164 I0.0177 J-0.0183
X73.8716 Y14.6796 Z-0.023 I-0.0177 J0.0183
X73.8241 Y14.6614 Z-0.0407 I-0.0238 J-0.0091
X73.8716 Y14.6796 Z-0.0584 I0.0238 J0.0091
X73.8241 Y14.6614 Z-0.0761 I-0.0238 J-0.0091
X73.8716 Y14.6796 Z-0.0938 I0.0238 J0.0091
X73.8241 Y14.6614 Z-0.1116 I-0.0238 J-0.0091
X73.8561 Y14.6465 Z-0.1202 I0.0238 J0.0091
X73.8395 Y14.6946 Z-0.1379 I-0.0083 J0.0241
X73.8224 Y14.6722 Z-0.1445 I0.0083 J-0.0241
X73.8732 Y14.6688 Z-0.1623 I0.0254 J-0.0017
X73.8224 Y14.6722 Z-0.18 I-0.0254 J0.0017
X73.8642 Y14.6511 Z-0.1932 I0.0254 J-0.0017
X73.8314 Y14.69 Z-0.2109 I-0.0164 J0.0195
X73.8235 Y14.663 Z-0.2175 I0.0164 J-0.0195
X73.8721 Y14.678 I0.0243 J0.0075
X73.8235 Y14.663 I-0.0243 J-0.0075
X73.8394 Y14.6546 I0.0122 J0.0037
G1 X73.8466 Y14.6568
X73.8494 Y14.6577 Z-0.2172
X73.8521 Y14.6585 Z-0.2164
X73.8545 Y14.6593 Z-0.215
X73.8567 Y14.6599 Z-0.2131
X73.8585 Y14.6605 Z-0.2108
X73.8598 Y14.6609 Z-0.2082
X73.8606 Y14.6612 Z-0.2054
X73.8609 Z-0.2025
G0 Z0.4
X73.4352 Y14.954
Z0.13
G1 Z0.065 F40.
G18 G2 X73.4502 Z0.05 I0.015 K0.
G1 X73.4577
G17 G3 X73.4704 Y14.9667 I0. J0.0127
X73.4195 Z0.0323 I-0.0254 J0.
X73.435 Y14.9433 Z0.0257 I0.0254 J0.
X73.4549 Y14.9901 Z0.008 I0.0099 J0.0234
X73.4273 Y14.985 Z0.0014 I-0.0099 J-0.0234
X73.4627 Y14.9484 Z-0.0164 I0.0177 J-0.0183
X73.4273 Y14.985 Z-0.0341 I-0.0177 J0.0183
X73.4627 Y14.9484 Z-0.0518 I0.0177 J-0.0183
X73.4273 Y14.985 Z-0.0695 I-0.0177 J0.0183
X73.4627 Y14.9484 Z-0.0872 I0.0177 J-0.0183
X73.4273 Y14.985 Z-0.105 I-0.0177 J0.0183
X73.4533 Y14.9426 Z-0.1202 I0.0177 J-0.0183
X73.4367 Y14.9907 Z-0.1379 I-0.0083 J0.0241
X73.4196 Y14.9684 Z-0.1445 I0.0083 J-0.0241
X73.4704 Y14.965 Z-0.1623 I0.0254 J-0.0017
X73.4196 Y14.9684 Z-0.18 I-0.0254 J0.0017
X73.4614 Y14.9472 Z-0.1932 I0.0254 J-0.0017
X73.4286 Y14.9861 Z-0.2109 I-0.0164 J0.0195
X73.4207 Y14.9592 Z-0.2175 I0.0164 J-0.0195
X73.4693 Y14.9742 I0.0243 J0.0075
X73.4207 Y14.9592 I-0.0243 J-0.0075
X73.4366 Y14.9508 I0.0122 J0.0037
G1 X73.4437 Y14.953
X73.4465 Y14.9539 Z-0.2172
X73.4492 Y14.9547 Z-0.2164
X73.4517 Y14.9554 Z-0.215
X73.4539 Y14.9561 Z-0.2131
X73.4557 Y14.9567 Z-0.2108
X73.457 Y14.9571 Z-0.2082
X73.4578 Y14.9573 Z-0.2054
X73.4581 Y14.9574 Z-0.2025
G0 Z0.4
X68.5675 Y11.7824
Z0.115
G1 Z0.05 F40.
X68.5697 Y11.7802
G3 X68.572 Y11.7824 I0. J0.0022
X68.5631 Z0.036 I-0.0045 J0.
X68.5671 Y11.778 Z0.0294 I0.0045 J0.
X68.5679 Y11.7868 Z0.0154 I0.0004 J0.0044
X68.5631 Y11.7833 Z0.0088 I-0.0004 J-0.0044
X68.5719 Y11.7815 Z-0.0052 I0.0044 J-0.0009
X68.5688 Y11.7866 Z-0.0117 I-0.0044 J0.0009
X68.5662 Y11.7781 Z-0.0257 I-0.0013 J-0.0042
X68.5688 Y11.7866 Z-0.0398 I0.0013 J0.0042
X68.5654 Y11.7785 Z-0.0529 I-0.0013 J-0.0042
X68.5696 Y11.7863 Z-0.0669 I0.0021 J0.0039
X68.5638 Y11.7849 Z-0.0735 I-0.0021 J-0.0039
X68.5712 Y11.7799 Z-0.0875 I0.0037 J-0.0025
X68.5704 Y11.7858 Z-0.094 I-0.0037 J0.0025
X68.5646 Y11.779 Z-0.1081 I-0.0029 J-0.0034
X68.5706 Y11.7792 Z-0.1146 I0.0029 J0.0034
X68.5644 Y11.7856 Z-0.1286 I-0.0031 J0.0032
X68.564 Y11.7796 Z-0.1352 I0.0031 J-0.0032
X68.571 Y11.7851 Z-0.1492 I0.0035 J0.0027
X68.5651 Y11.7861 Z-0.1558 I-0.0035 J-0.0027
X68.5699 Y11.7786 Z-0.1698 I0.0024 J-0.0038
X68.5715 Y11.7844 Z-0.1763 I-0.0024 J0.0038
X68.5635 Y11.7804 Z-0.1904 I-0.004 J-0.002
X68.5691 Y11.7782 Z-0.1969 I0.004 J0.002
X68.5659 Y11.7865 Z-0.2109 I-0.0016 J0.0042
X68.5632 Y11.7812 Z-0.2175 I0.0016 J-0.0042
X68.5718 Y11.7835 I0.0043 J0.0011
X68.5632 Y11.7812 I-0.0043 J-0.0011
X68.5659 Y11.7797 I0.0022 J0.0006
G1 X68.5675 Y11.7824
G0 Z0.4
X67.0515 Y10.4209
Z0.13
G1 Z0.065 F40.
G18 G2 X67.0665 Z0.05 I0.015 K0.
G1 X67.074
G17 G3 X67.0855 Y10.4324 I0. J0.0115
X67.0395 Z0.0327 I-0.023 J0.
X67.0559 Y10.4104 Z0.0257 I0.023 J0.
X67.0691 Y10.4544 Z0.0084 I0.0066 J0.022
X67.0559 Y10.4104 Z-0.0089 I-0.0066 J-0.022
X67.0801 Y10.4471 Z-0.023 I0.0066 J0.022
X67.0449 Y10.4177 Z-0.0402 I-0.0176 J-0.0147
X67.0716 Y10.4113 Z-0.0473 I0.0176 J0.0147
X67.0534 Y10.4535 Z-0.0646 I-0.0091 J0.0211
X67.0397 Y10.4298 Z-0.0716 I0.0091 J-0.0211
X67.0853 Y10.435 Z-0.0889 I0.0228 J0.0026
X67.0665 Y10.455 Z-0.0959 I-0.0228 J-0.0026
X67.0585 Y10.4098 Z-0.1132 I-0.004 J-0.0226
X67.083 Y10.422 Z-0.1202 I0.004 J0.0226
X67.042 Y10.4427 Z-0.1375 I-0.0205 J0.0103
X67.0467 Y10.4157 Z-0.1445 I0.0205 J-0.0103
X67.0783 Y10.449 Z-0.1618 I0.0158 J0.0167
X67.0511 Y10.4523 Z-0.1689 I-0.0158 J-0.0167
X67.0739 Y10.4125 Z-0.1861 I0.0114 J-0.0199
X67.0849 Y10.4376 Z-0.1932 I-0.0114 J0.0199
X67.0401 Y10.4272 Z-0.2105 I-0.0224 J-0.0052
X67.0611 Y10.4095 Z-0.2175 I0.0223 J0.0052
X67.0639 Y10.4553 I0.0014 J0.0229
X67.0611 Y10.4095 I-0.0014 J-0.0229
X67.0732 Y10.4202 I0.0007 J0.0115
G1 X67.0737 Y10.4277
X67.0739 Y10.4306 Z-0.2172
X67.0741 Y10.4335 Z-0.2164
X67.0742 Y10.436 Z-0.215
X67.0744 Y10.4383 Z-0.2131
X67.0745 Y10.4402 Z-0.2108
X67.0746 Y10.4416 Z-0.2082
Y10.4424 Z-0.2054
Y10.4427 Z-0.2025
G0 Z0.4
X67.0515 Y9.6709
Z0.13
G1 Z0.065 F40.
G18 G2 X67.0665 Z0.05 I0.015 K0.
G1 X67.074
G17 G3 X67.0855 Y9.6824 I0. J0.0115
X67.0395 Z0.0327 I-0.023 J0.
X67.0854 Z0.0154 I0.023 J0.
X67.0433 Y9.695 Z0.0014 I-0.023 J0.
X67.0817 Y9.6698 Z-0.0159 I0.0192 J-0.0126
X67.0801 Y9.6971 Z-0.023 I-0.0192 J0.0126
X67.0449 Y9.6677 Z-0.0402 I-0.0176 J-0.0147
X67.0716 Y9.6613 Z-0.0473 I0.0176 J0.0147
X67.0534 Y9.7035 Z-0.0646 I-0.0091 J0.0211
X67.0397 Y9.6798 Z-0.0716 I0.0091 J-0.0211
X67.0853 Y9.685 Z-0.0889 I0.0228 J0.0026
X67.0665 Y9.705 Z-0.0959 I-0.0228 J-0.0026
X67.0585 Y9.6598 Z-0.1132 I-0.004 J-0.0226
X67.083 Y9.672 Z-0.1202 I0.004 J0.0226
X67.042 Y9.6927 Z-0.1375 I-0.0205 J0.0103
X67.0467 Y9.6657 Z-0.1445 I0.0205 J-0.0103
X67.0783 Y9.699 Z-0.1618 I0.0158 J0.0167
X67.0467 Y9.6657 Z-0.1791 I-0.0158 J-0.0167
X67.0849 Y9.6876 Z-0.1932 I0.0158 J0.0167
X67.0401 Y9.6772 Z-0.2105 I-0.0224 J-0.0052
X67.0611 Y9.6595 Z-0.2175 I0.0224 J0.0052
X67.0639 Y9.7053 I0.0014 J0.0229
X67.0611 Y9.6595 I-0.0014 J-0.0229
X67.0732 Y9.6702 I0.0007 J0.0115
G1 X67.0737 Y9.6777
X67.0739 Y9.6806 Z-0.2172
X67.0741 Y9.6835 Z-0.2164
X67.0742 Y9.686 Z-0.215
X67.0744 Y9.6883 Z-0.2131
X67.0745 Y9.6902 Z-0.2108
X67.0746 Y9.6916 Z-0.2082
Y9.6924 Z-0.2054
Y9.6927 Z-0.2025
G0 Z0.4
X67.0515 Y8.9209
Z0.13
G1 Z0.065 F40.
G18 G2 X67.0665 Z0.05 I0.015 K0.
G1 X67.074
G17 G3 X67.0855 Y8.9324 I0. J0.0115
X67.0395 Z0.0327 I-0.023 J0.
X67.0854 Z0.0154 I0.023 J0.
X67.0433 Y8.945 Z0.0014 I-0.023 J0.
X67.0817 Y8.9198 Z-0.0159 I0.0192 J-0.0126
X67.0801 Y8.9471 Z-0.023 I-0.0192 J0.0126
X67.0449 Y8.9177 Z-0.0402 I-0.0176 J-0.0147
X67.0716 Y8.9113 Z-0.0473 I0.0176 J0.0147
X67.0534 Y8.9535 Z-0.0646 I-0.0091 J0.0211
X67.0397 Y8.9298 Z-0.0716 I0.0091 J-0.0211
X67.0853 Y8.935 Z-0.0889 I0.0228 J0.0026
X67.0665 Y8.955 Z-0.0959 I-0.0228 J-0.0026
X67.0585 Y8.9098 Z-0.1132 I-0.004 J-0.0226
X67.083 Y8.922 Z-0.1202 I0.004 J0.0226
X67.042 Y8.9427 Z-0.1375 I-0.0205 J0.0103
X67.0467 Y8.9157 Z-0.1445 I0.0205 J-0.0103
X67.0783 Y8.949 Z-0.1618 I0.0158 J0.0167
X67.0467 Y8.9157 Z-0.1791 I-0.0158 J-0.0167
X67.0849 Y8.9376 Z-0.1932 I0.0158 J0.0167
X67.0401 Y8.9272 Z-0.2105 I-0.0224 J-0.0052
X67.0611 Y8.9095 Z-0.2175 I0.0224 J0.0052
X67.0639 Y8.9553 I0.0014 J0.0229
X67.0611 Y8.9095 I-0.0014 J-0.0229
X67.0732 Y8.9202 I0.0007 J0.0115
G1 X67.0737 Y8.9277
X67.0739 Y8.9306 Z-0.2172
X67.0741 Y8.9335 Z-0.2164
X67.0742 Y8.936 Z-0.215
X67.0744 Y8.9383 Z-0.2131
X67.0745 Y8.9402 Z-0.2108
X67.0746 Y8.9416 Z-0.2082
Y8.9424 Z-0.2054
Y8.9427 Z-0.2025
G0 Z0.4
X69.1875 Y7.9179
Z0.115
G1 Z0.05 F40.
X69.1897 Y7.9156
G3 X69.192 Y7.9179 I0. J0.0022
X69.1831 Z0.036 I-0.0045 J0.
X69.1871 Y7.9134 Z0.0294 I0.0045 J0.
X69.188 Y7.9223 Z0.0154 I0.0005 J0.0044
X69.1831 Y7.9188 Z0.0088 I-0.0005 J-0.0044
X69.1919 Y7.917 Z-0.0052 I0.0044 J-0.0009
X69.1888 Y7.9221 Z-0.0117 I-0.0044 J0.0009
X69.1862 Y7.9136 Z-0.0257 I-0.0013 J-0.0042
X69.1916 Y7.9161 Z-0.0323 I0.0013 J0.0042
X69.1834 Y7.9196 Z-0.0463 I-0.0041 J0.0017
X69.1853 Y7.914 Z-0.0529 I0.0041 J-0.0017
X69.1897 Y7.9218 Z-0.0669 I0.0022 J0.0039
X69.1838 Y7.9204 Z-0.0735 I-0.0022 J-0.0039
X69.1912 Y7.9153 Z-0.0875 I0.0037 J-0.0025
X69.1904 Y7.9213 Z-0.094 I-0.0037 J0.0025
X69.1846 Y7.9145 Z-0.1081 I-0.0029 J-0.0034
X69.1906 Y7.9147 Z-0.1146 I0.0029 J0.0034
X69.1844 Y7.9211 Z-0.1286 I-0.0031 J0.0032
X69.184 Y7.9151 Z-0.1352 I0.0031 J-0.0032
X69.191 Y7.9206 Z-0.1492 I0.0035 J0.0027
X69.1851 Y7.9216 Z-0.1558 I-0.0035 J-0.0027
X69.1899 Y7.9141 Z-0.1698 I0.0024 J-0.0038
X69.1915 Y7.9198 Z-0.1763 I-0.0024 J0.0038
X69.1835 Y7.9159 Z-0.1904 I-0.004 J-0.002
X69.1891 Y7.9137 Z-0.1969 I0.004 J0.002
X69.1859 Y7.922 Z-0.2109 I-0.0016 J0.0042
X69.1832 Y7.9167 Z-0.2175 I0.0016 J-0.0042
X69.1918 Y7.919 I0.0043 J0.0011
X69.1832 Y7.9167 I-0.0043 J-0.0011
X69.1859 Y7.9151 I0.0021 J0.0006
G1 X69.1875 Y7.9179
G0 Z0.4
X68.3811 Y4.8786
Z0.13
G1 Z0.065 F40.
G18 G2 X68.3961 Z0.05 I0.015 K0.
G1 X68.4036
G17 G3 X68.4163 Y4.8913 I0. J0.0127
X68.3654 Z0.0323 I-0.0255 J0.
X68.4163 Z0.0146 I0.0255 J0.
X68.3654 Z-0.0032 I-0.0255 J0.
X68.4163 Z-0.0209 I0.0255 J0.
X68.4146 Y4.9004 Z-0.023 I-0.0255 J0.
X68.3671 Y4.8822 Z-0.0407 I-0.0238 J-0.0091
X68.39 Y4.8659 Z-0.0473 I0.0238 J0.0091
X68.3917 Y4.9167 Z-0.065 I0.0009 J0.0254
X68.39 Y4.8659 Z-0.0827 I-0.0009 J-0.0254
X68.4098 Y4.9084 Z-0.0959 I0.0009 J0.0254
X68.372 Y4.8742 Z-0.1136 I-0.0189 J-0.0171
X68.3992 Y4.8673 Z-0.1202 I0.0189 J0.0171
X68.3825 Y4.9154 Z-0.1379 I-0.0083 J0.0241
X68.3992 Y4.8673 Z-0.1557 I0.0083 J-0.0241
X68.4024 Y4.914 Z-0.1689 I-0.0083 J0.0241
X68.3794 Y4.8686 Z-0.1866 I-0.0115 J-0.0227
X68.4073 Y4.8718 Z-0.1932 I0.0115 J0.0227
X68.3745 Y4.9108 Z-0.2109 I-0.0164 J0.0195
X68.3665 Y4.8838 Z-0.2175 I0.0164 J-0.0195
X68.4152 Y4.8988 I0.0243 J0.0075
X68.3665 Y4.8838 I-0.0243 J-0.0075
X68.3825 Y4.8754 I0.0122 J0.0037
G1 X68.3896 Y4.8776
X68.3924 Y4.8785 Z-0.2172
X68.3951 Y4.8793 Z-0.2164
X68.3976 Y4.8801 Z-0.215
X68.3998 Y4.8807 Z-0.2131
X68.4016 Y4.8813 Z-0.2108
X68.4029 Y4.8817 Z-0.2082
X68.4037 Y4.8819 Z-0.2054
X68.404 Y4.882 Z-0.2025
G0 Z0.4
X68.875 Y3.125
Z0.115
G1 Z0.05 F40.
X68.8728 Y3.1272
G3 X68.8706 Y3.125 I0. J-0.0022
X68.8795 Z0.036 I0.0045 J0.
X68.8754 Y3.1294 Z0.0294 I-0.0045 J0.
X68.8746 Y3.1206 Z0.0154 I-0.0004 J-0.0044
X68.8794 Y3.1241 Z0.0088 I0.0004 J0.0044
X68.8706 Y3.1259 Z-0.0052 I-0.0044 J0.0009
X68.8737 Y3.1208 Z-0.0117 I0.0044 J-0.0009
X68.8763 Y3.1292 Z-0.0257 I0.0013 J0.0042
X68.8737 Y3.1208 Z-0.0398 I-0.0013 J-0.0042
X68.8772 Y3.1289 Z-0.0529 I0.0013 J0.0042
X68.8729 Y3.1211 Z-0.0669 I-0.0021 J-0.0039
X68.8787 Y3.1225 Z-0.0735 I0.0021 J0.0039
X68.8713 Y3.1275 Z-0.0875 I-0.0037 J0.0025
X68.8721 Y3.1216 Z-0.094 I0.0037 J-0.0025
X68.8779 Y3.1284 Z-0.1081 I0.0029 J0.0034
X68.8719 Y3.1282 Z-0.1146 I-0.0029 J-0.0034
X68.8781 Y3.1218 Z-0.1286 I0.0031 J-0.0032
X68.8785 Y3.1277 Z-0.1352 I-0.0031 J0.0032
X68.8715 Y3.1223 Z-0.1492 I-0.0035 J-0.0027
X68.8774 Y3.1212 Z-0.1558 I0.0035 J0.0027
X68.8726 Y3.1288 Z-0.1698 I-0.0024 J0.0038
X68.871 Y3.123 Z-0.1763 I0.0024 J-0.0038
X68.879 Y3.127 Z-0.1904 I0.004 J0.002
X68.8734 Y3.1292 Z-0.1969 I-0.004 J-0.002
X68.8766 Y3.1208 Z-0.2109 I0.0016 J-0.0042
X68.8793 Y3.1261 Z-0.2175 I-0.0016 J0.0042
X68.8707 Y3.1239 I-0.0043 J-0.0011
X68.8793 Y3.1261 I0.0043 J0.0011
X68.8766 Y3.1277 I-0.0022 J-0.0006
G1 X68.875 Y3.125
G0 Z0.4
Y1.875
Z0.115
G1 Z0.05 F40.
X68.8728 Y1.8772
G3 X68.8706 Y1.875 I0. J-0.0022
X68.8795 Z0.036 I0.0045 J0.
X68.8754 Y1.8794 Z0.0294 I-0.0045 J0.
X68.8746 Y1.8706 Z0.0154 I-0.0004 J-0.0044
X68.8794 Y1.8741 Z0.0088 I0.0004 J0.0044
X68.8706 Y1.8759 Z-0.0052 I-0.0044 J0.0009
X68.8737 Y1.8708 Z-0.0117 I0.0044 J-0.0009
X68.8763 Y1.8792 Z-0.0257 I0.0013 J0.0042
X68.8737 Y1.8708 Z-0.0398 I-0.0013 J-0.0042
X68.8772 Y1.8789 Z-0.0529 I0.0013 J0.0042
X68.8729 Y1.8711 Z-0.0669 I-0.0021 J-0.0039
X68.8787 Y1.8725 Z-0.0735 I0.0021 J0.0039
X68.8713 Y1.8775 Z-0.0875 I-0.0037 J0.0025
X68.8721 Y1.8716 Z-0.094 I0.0037 J-0.0025
X68.8779 Y1.8784 Z-0.1081 I0.0029 J0.0034
X68.8719 Y1.8782 Z-0.1146 I-0.0029 J-0.0034
X68.8781 Y1.8718 Z-0.1286 I0.0031 J-0.0032
X68.8785 Y1.8777 Z-0.1352 I-0.0031 J0.0032
X68.8715 Y1.8723 Z-0.1492 I-0.0035 J-0.0027
X68.8774 Y1.8712 Z-0.1558 I0.0035 J0.0027
X68.8726 Y1.8788 Z-0.1698 I-0.0024 J0.0038
X68.871 Y1.873 Z-0.1763 I0.0024 J-0.0038
X68.879 Y1.877 Z-0.1904 I0.004 J0.002
X68.8734 Y1.8792 Z-0.1969 I-0.004 J-0.002
X68.8766 Y1.8708 Z-0.2109 I0.0016 J-0.0042
X68.8793 Y1.8761 Z-0.2175 I-0.0016 J0.0042
X68.8707 Y1.8739 I-0.0043 J-0.0011
X68.8793 Y1.8761 I0.0043 J0.0011
X68.8766 Y1.8777 I-0.0022 J-0.0006
G1 X68.875 Y1.875
G0 Z0.4
X70.375
Z0.115
G1 Z0.05 F40.
X70.3772 Y1.8728
G3 X70.3795 Y1.875 I0. J0.0022
X70.3706 Z0.036 I-0.0045 J0.
X70.3746 Y1.8706 Z0.0294 I0.0045 J0.
X70.3754 Y1.8794 Z0.0154 I0.0004 J0.0044
X70.3706 Y1.8759 Z0.0088 I-0.0004 J-0.0044
X70.3794 Y1.8741 Z-0.0052 I0.0044 J-0.0009
X70.3763 Y1.8792 Z-0.0117 I-0.0044 J0.0009
X70.3737 Y1.8708 Z-0.0257 I-0.0013 J-0.0042
X70.3791 Y1.8733 Z-0.0323 I0.0013 J0.0042
X70.3709 Y1.8767 Z-0.0463 I-0.0041 J0.0017
X70.3728 Y1.8711 Z-0.0529 I0.0041 J-0.0017
X70.3772 Y1.8789 Z-0.0669 I0.0022 J0.0039
X70.3713 Y1.8775 Z-0.0735 I-0.0022 J-0.0039
X70.3787 Y1.8725 Z-0.0875 I0.0037 J-0.0025
X70.3779 Y1.8784 Z-0.094 I-0.0037 J0.0025
X70.3721 Y1.8716 Z-0.1081 I-0.0029 J-0.0034
X70.3781 Y1.8718 Z-0.1146 I0.0029 J0.0034
X70.3719 Y1.8782 Z-0.1286 I-0.0031 J0.0032
X70.3715 Y1.8723 Z-0.1352 I0.0031 J-0.0032
X70.3785 Y1.8777 Z-0.1492 I0.0035 J0.0027
X70.3726 Y1.8788 Z-0.1558 I-0.0035 J-0.0027
X70.3774 Y1.8712 Z-0.1698 I0.0024 J-0.0038
X70.379 Y1.877 Z-0.1763 I-0.0024 J0.0038
X70.371 Y1.873 Z-0.1904 I-0.004 J-0.002
X70.3766 Y1.8708 Z-0.1969 I0.004 J0.002
X70.3734 Y1.8792 Z-0.2109 I-0.0016 J0.0042
X70.3707 Y1.8739 Z-0.2175 I0.0016 J-0.0042
X70.3793 Y1.8761 I0.0043 J0.0011
X70.3707 Y1.8739 I-0.0043 J-0.0011
X70.3734 Y1.8723 I0.0021 J0.0006
G1 X70.375 Y1.875
G0 Z0.4
Y3.125
Z0.115
G1 Z0.05 F40.
X70.3772 Y3.1228
G3 X70.3795 Y3.125 I0. J0.0022
X70.3706 Z0.036 I-0.0045 J0.
X70.3746 Y3.1206 Z0.0294 I0.0045 J0.
X70.3754 Y3.1294 Z0.0154 I0.0004 J0.0044
X70.3706 Y3.1259 Z0.0088 I-0.0004 J-0.0044
X70.3794 Y3.1241 Z-0.0052 I0.0044 J-0.0009
X70.3763 Y3.1292 Z-0.0117 I-0.0044 J0.0009
X70.3737 Y3.1208 Z-0.0257 I-0.0013 J-0.0042
X70.3791 Y3.1233 Z-0.0323 I0.0013 J0.0042
X70.3709 Y3.1267 Z-0.0463 I-0.0041 J0.0017
X70.3728 Y3.1211 Z-0.0529 I0.0041 J-0.0017
X70.3772 Y3.1289 Z-0.0669 I0.0022 J0.0039
X70.3713 Y3.1275 Z-0.0735 I-0.0022 J-0.0039
X70.3787 Y3.1225 Z-0.0875 I0.0037 J-0.0025
X70.3779 Y3.1284 Z-0.094 I-0.0037 J0.0025
X70.3721 Y3.1216 Z-0.1081 I-0.0029 J-0.0034
X70.3781 Y3.1218 Z-0.1146 I0.0029 J0.0034
X70.3719 Y3.1282 Z-0.1286 I-0.0031 J0.0032
X70.3715 Y3.1223 Z-0.1352 I0.0031 J-0.0032
X70.3785 Y3.1277 Z-0.1492 I0.0035 J0.0027
X70.3726 Y3.1288 Z-0.1558 I-0.0035 J-0.0027
X70.3774 Y3.1212 Z-0.1698 I0.0024 J-0.0038
X70.379 Y3.127 Z-0.1763 I-0.0024 J0.0038
X70.371 Y3.123 Z-0.1904 I-0.004 J-0.002
X70.3766 Y3.1208 Z-0.1969 I0.004 J0.002
X70.3734 Y3.1292 Z-0.2109 I-0.0016 J0.0042
X70.3707 Y3.1239 Z-0.2175 I0.0016 J-0.0042
X70.3793 Y3.1261 I0.0043 J0.0011
X70.3707 Y3.1239 I-0.0043 J-0.0011
X70.3734 Y3.1223 I0.0021 J0.0006
G1 X70.375 Y3.125
G0 Z0.4
X70.3363 Y4.458
Z0.13
G1 Z0.065 F40.
G18 G2 X70.3514 Z0.05 I0.015 K0.
G1 X70.3589
G17 G3 X70.3716 Y4.4707 I0. J0.0127
X70.3207 Z0.0323 I-0.0255 J0.
X70.3716 Z0.0146 I0.0255 J0.
X70.3207 Z-0.0032 I-0.0255 J0.
X70.3716 Z-0.0209 I0.0255 J0.
X70.3699 Y4.4798 Z-0.023 I-0.0255 J0.
X70.3224 Y4.4616 Z-0.0407 I-0.0238 J-0.0091
X70.3453 Y4.4453 Z-0.0473 I0.0238 J0.0091
X70.347 Y4.4961 Z-0.065 I0.0009 J0.0254
X70.3453 Y4.4453 Z-0.0827 I-0.0009 J-0.0254
X70.365 Y4.4878 Z-0.0959 I0.0009 J0.0254
X70.3272 Y4.4536 Z-0.1136 I-0.0189 J-0.0171
X70.3545 Y4.4466 Z-0.1202 I0.0189 J0.0171
X70.3378 Y4.4947 Z-0.1379 I-0.0083 J0.0241
X70.3545 Y4.4466 Z-0.1557 I0.0083 J-0.0241
X70.3576 Y4.4934 Z-0.1689 I-0.0083 J0.0241
X70.3346 Y4.448 Z-0.1866 I-0.0115 J-0.0227
X70.3625 Y4.4512 Z-0.1932 I0.0115 J0.0227
X70.3297 Y4.4902 Z-0.2109 I-0.0164 J0.0195
X70.3218 Y4.4632 Z-0.2175 I0.0164 J-0.0195
X70.3705 Y4.4782 I0.0243 J0.0075
X70.3218 Y4.4632 I-0.0243 J-0.0075
X70.3377 Y4.4548 I0.0122 J0.0037
G1 X70.3449 Y4.457
X70.3477 Y4.4579 Z-0.2172
X70.3504 Y4.4587 Z-0.2164
X70.3529 Y4.4595 Z-0.215
X70.355 Y4.4601 Z-0.2131
X70.3568 Y4.4607 Z-0.2108
X70.3581 Y4.4611 Z-0.2082
X70.359 Y4.4613 Z-0.2054
X70.3592 Y4.4614 Z-0.2025
G0 Z0.4
X70.2587 Y5.7207
Z0.115
G1 Z0.05 F40.
X70.261 Y5.7185
G3 X70.2632 Y5.7207 I0. J0.0022
X70.2543 Z0.036 I-0.0045 J0.
X70.2583 Y5.7163 Z0.0294 I0.0045 J0.
X70.2592 Y5.7251 Z0.0154 I0.0004 J0.0044
X70.2544 Y5.7216 Z0.0088 I-0.0004 J-0.0044
X70.2631 Y5.7198 Z-0.0052 I0.0044 J-0.0009
X70.2601 Y5.7249 Z-0.0117 I-0.0044 J0.0009
X70.2574 Y5.7164 Z-0.0257 I-0.0013 J-0.0042
X70.2628 Y5.7189 Z-0.0323 I0.0013 J0.0042
X70.2546 Y5.7224 Z-0.0463 I-0.0041 J0.0017
X70.2566 Y5.7168 Z-0.0529 I0.0041 J-0.0017
X70.2609 Y5.7246 Z-0.0669 I0.0022 J0.0039
X70.2551 Y5.7232 Z-0.0735 I-0.0022 J-0.0039
X70.2624 Y5.7181 Z-0.0875 I0.0037 J-0.0025
X70.2616 Y5.7241 Z-0.094 I-0.0037 J0.0025
X70.2558 Y5.7173 Z-0.1081 I-0.0029 J-0.0034
X70.2618 Y5.7175 Z-0.1146 I0.0029 J0.0034
X70.2557 Y5.7239 Z-0.1286 I-0.0031 J0.0032
X70.2552 Y5.7179 Z-0.1352 I0.0031 J-0.0032
X70.2622 Y5.7234 Z-0.1492 I0.0035 J0.0027
X70.2564 Y5.7244 Z-0.1558 I-0.0035 J-0.0027
X70.2611 Y5.7169 Z-0.1698 I0.0024 J-0.0038
X70.2627 Y5.7227 Z-0.1763 I-0.0024 J0.0038
X70.2547 Y5.7187 Z-0.1904 I-0.004 J-0.002
X70.2603 Y5.7165 Z-0.1969 I0.004 J0.002
X70.2572 Y5.7248 Z-0.2109 I-0.0016 J0.0042
X70.2544 Y5.7195 Z-0.2175 I0.0016 J-0.0042
X70.263 Y5.7218 I0.0043 J0.0011
X70.2544 Y5.7195 I-0.0043 J-0.0011
X70.2572 Y5.718 I0.0021 J0.0006
G1 X70.2587 Y5.7207
G0 Z0.4
X71.263 Y5.4173
Z0.13
G1 Z0.065 F40.
G18 G2 X71.278 Z0.05 I0.015 K0.
G1 X71.2855
G17 G3 X71.2983 Y5.43 I0. J0.0127
X71.2474 Z0.0323 I-0.0254 J0.
X71.2983 Z0.0146 I0.0254 J0.
X71.2551 Y5.4483 Z0.0014 I-0.0254 J0.
X71.2905 Y5.4117 Z-0.0164 I0.0177 J-0.0183
X71.2966 Y5.4391 Z-0.023 I-0.0177 J0.0183
X71.2491 Y5.4209 Z-0.0407 I-0.0238 J-0.0091
X71.2966 Y5.4391 Z-0.0584 I0.0238 J0.0091
X71.2491 Y5.4209 Z-0.0761 I-0.0238 J-0.0091
X71.2966 Y5.4391 Z-0.0938 I0.0238 J0.0091
X71.2491 Y5.4209 Z-0.1116 I-0.0238 J-0.0091
X71.2811 Y5.4059 Z-0.1202 I0.0238 J0.0091
X71.2645 Y5.4541 Z-0.1379 I-0.0083 J0.0241
X71.2474 Y5.4317 Z-0.1445 I0.0083 J-0.0241
X71.2982 Y5.4283 Z-0.1623 I0.0254 J-0.0017
X71.2474 Y5.4317 Z-0.18 I-0.0254 J0.0017
X71.2892 Y5.4105 Z-0.1932 I0.0254 J-0.0017
X71.2564 Y5.4495 Z-0.2109 I-0.0164 J0.0195
X71.2485 Y5.4225 Z-0.2175 I0.0164 J-0.0195
X71.2971 Y5.4375 I0.0243 J0.0075
X71.2485 Y5.4225 I-0.0243 J-0.0075
X71.2644 Y5.4141 I0.0122 J0.0037
G1 X71.2716 Y5.4163
X71.2744 Y5.4172 Z-0.2172
X71.2771 Y5.418 Z-0.2164
X71.2795 Y5.4188 Z-0.215
X71.2817 Y5.4194 Z-0.2131
X71.2835 Y5.42 Z-0.2108
X71.2848 Y5.4204 Z-0.2082
X71.2856 Y5.4206 Z-0.2054
X71.2859 Y5.4207 Z-0.2025
G0 Z0.4
X71.5924 Y7.39
Z0.13
G1 Z0.065 F40.
G18 G2 X71.6074 Z0.05 I0.015 K0.
G1 X71.6149
G17 G3 X71.6276 Y7.4027 I0. J0.0127
X71.5767 Z0.0323 I-0.0255 J0.
X71.6276 Z0.0146 I0.0255 J0.
X71.5767 Z-0.0032 I-0.0255 J0.
X71.6276 Z-0.0209 I0.0255 J0.
X71.6259 Y7.4118 Z-0.023 I-0.0255 J0.
X71.5784 Y7.3936 Z-0.0407 I-0.0238 J-0.0091
X71.6013 Y7.3773 Z-0.0473 I0.0238 J0.0091
X71.6031 Y7.4281 Z-0.065 I0.0009 J0.0254
X71.6013 Y7.3773 Z-0.0827 I-0.0009 J-0.0254
X71.6211 Y7.4197 Z-0.0959 I0.0009 J0.0254
X71.5833 Y7.3856 Z-0.1136 I-0.0189 J-0.0171
X71.6105 Y7.3786 Z-0.1202 I0.0189 J0.0171
X71.5939 Y7.4267 Z-0.1379 I-0.0083 J0.0241
X71.6105 Y7.3786 Z-0.1557 I0.0083 J-0.0241
X71.6137 Y7.4254 Z-0.1689 I-0.0083 J0.0241
X71.5907 Y7.38 Z-0.1866 I-0.0115 J-0.0227
X71.6137 Y7.4254 Z-0.2043 I0.0115 J0.0227
X71.5779 Y7.3952 Z-0.2175 I-0.0115 J-0.0227
X71.6265 Y7.4102 I0.0243 J0.0075
X71.5779 Y7.3952 I-0.0243 J-0.0075
X71.5938 Y7.3868 I0.0122 J0.0037
G1 X71.601 Y7.389
X71.6038 Y7.3899 Z-0.2172
X71.6064 Y7.3907 Z-0.2164
X71.6089 Y7.3914 Z-0.215
X71.6111 Y7.3921 Z-0.2131
X71.6129 Y7.3927 Z-0.2108
X71.6142 Y7.3931 Z-0.2082
X71.615 Y7.3933 Z-0.2054
X71.6153 Y7.3934 Z-0.2025
G0 Z0.4
X71.6152 Y9.4873
Z0.13
G1 Z0.065 F40.
G18 G2 X71.6302 Z0.05 I0.015 K0.
G1 X71.6377
G17 G3 X71.6504 Y9.5 I0. J0.0127
X71.5996 Z0.0323 I-0.0254 J0.
X71.6504 Z0.0146 I0.0254 J0.
X71.6073 Y9.5183 Z0.0014 I-0.0254 J0.
X71.6427 Y9.4817 Z-0.0164 I0.0177 J-0.0183
X71.6488 Y9.5091 Z-0.023 I-0.0177 J0.0183
X71.6012 Y9.4909 Z-0.0407 I-0.0238 J-0.0091
X71.6488 Y9.5091 Z-0.0584 I0.0238 J0.0091
X71.6012 Y9.4909 Z-0.0761 I-0.0238 J-0.0091
X71.6488 Y9.5091 Z-0.0938 I0.0238 J0.0091
X71.6012 Y9.4909 Z-0.1116 I-0.0238 J-0.0091
X71.6333 Y9.4759 Z-0.1202 I0.0238 J0.0091
X71.6167 Y9.5241 Z-0.1379 I-0.0083 J0.0241
X71.5996 Y9.5017 Z-0.1445 I0.0083 J-0.0241
X71.6504 Y9.4983 Z-0.1623 I0.0254 J-0.0017
X71.6365 Y9.5227 Z-0.1689 I-0.0254 J0.0017
X71.6135 Y9.4773 Z-0.1866 I-0.0115 J-0.0227
X71.6414 Y9.4805 Z-0.1932 I0.0115 J0.0227
X71.6086 Y9.5195 Z-0.2109 I-0.0164 J0.0195
X71.6007 Y9.4925 Z-0.2175 I0.0164 J-0.0195
X71.6493 Y9.5075 I0.0243 J0.0075
X71.6007 Y9.4925 I-0.0243 J-0.0075
X71.6166 Y9.4841 I0.0122 J0.0037
G1 X71.6238 Y9.4863
X71.6266 Y9.4872 Z-0.2172
X71.6293 Y9.488 Z-0.2164
X71.6317 Y9.4888 Z-0.215
X71.6339 Y9.4894 Z-0.2131
X71.6357 Y9.49 Z-0.2108
X71.637 Y9.4904 Z-0.2082
X71.6378 Y9.4906 Z-0.2054
X71.6381 Y9.4907 Z-0.2025
G0 Z0.4
X71.4208 Y11.9873
Z0.13
G1 Z0.065 F40.
G18 G2 X71.4358 Z0.05 I0.015 K0.
G1 X71.4433
G17 G3 X71.456 Y12. I0. J0.0127
X71.4051 Z0.0323 I-0.0255 J0.
X71.456 Z0.0146 I0.0255 J0.
X71.4051 Z-0.0032 I-0.0255 J0.
X71.456 Z-0.0209 I0.0255 J0.
X71.4543 Y12.0091 Z-0.023 I-0.0255 J0.
X71.4068 Y11.9909 Z-0.0407 I-0.0238 J-0.0091
X71.4297 Y11.9746 Z-0.0473 I0.0238 J0.0091
X71.4314 Y12.0254 Z-0.065 I0.0009 J0.0254
X71.4075 Y12.0107 Z-0.0716 I-0.0009 J-0.0254
X71.4536 Y11.9893 Z-0.0893 I0.0231 J-0.0107
X71.4075 Y12.0107 Z-0.107 I-0.0231 J0.0107
X71.4389 Y11.9759 Z-0.1202 I0.0231 J-0.0107
X71.4222 Y12.024 Z-0.1379 I-0.0083 J0.0241
X71.4052 Y12.0017 Z-0.1445 I0.0083 J-0.024
X71.4559 Y11.9983 Z-0.1623 I0.0254 J-0.0017
X71.4052 Y12.0017 Z-0.18 I-0.0254 J0.0017
X71.4559 Y11.9983 Z-0.1977 I0.0254 J-0.0017
X71.4052 Y12.0017 Z-0.2154 I-0.0254 J0.0017
X71.4062 Y11.9925 Z-0.2175 I0.0254 J-0.0017
X71.4549 Y12.0075 I0.0243 J0.0075
X71.4062 Y11.9925 I-0.0243 J-0.0075
X71.4221 Y11.9841 I0.0122 J0.0037
G1 X71.4293 Y11.9863
X71.4321 Y11.9872 Z-0.2172
X71.4348 Y11.988 Z-0.2164
X71.4373 Y11.9888 Z-0.215
X71.4395 Y11.9894 Z-0.2131
X71.4412 Y11.99 Z-0.2108
X71.4426 Y11.9904 Z-0.2082
X71.4434 Y11.9906 Z-0.2054
X71.4437 Y11.9907 Z-0.2025
G0 Z0.4
X71.1875 Y13.5
Z0.115
G1 Z0.05 F40.
X71.1897 Y13.4978
G3 X71.1919 Y13.5 I0. J0.0022
X71.183 Z0.036 I-0.0045 J0.
X71.1871 Y13.4956 Z0.0294 I0.0045 J0.
X71.1879 Y13.5044 Z0.0154 I0.0004 J0.0044
X71.1831 Y13.5009 Z0.0088 I-0.0004 J-0.0044
X71.1919 Y13.4991 Z-0.0052 I0.0044 J-0.0009
X71.1888 Y13.5042 Z-0.0117 I-0.0044 J0.0009
X71.1862 Y13.4958 Z-0.0257 I-0.0013 J-0.0042
X71.1916 Y13.4983 Z-0.0323 I0.0013 J0.0042
X71.1834 Y13.5017 Z-0.0463 I-0.0041 J0.0017
X71.1854 Y13.4961 Z-0.0529 I0.0041 J-0.0017
X71.1896 Y13.5039 Z-0.0669 I0.0021 J0.0039
X71.1838 Y13.5025 Z-0.0735 I-0.0021 J-0.0039
X71.1912 Y13.4975 Z-0.0875 I0.0037 J-0.0025
X71.1904 Y13.5034 Z-0.094 I-0.0037 J0.0025
X71.1846 Y13.4966 Z-0.1081 I-0.0029 J-0.0034
X71.1906 Y13.4968 Z-0.1146 I0.0029 J0.0034
X71.1844 Y13.5032 Z-0.1286 I-0.0031 J0.0032
X71.184 Y13.4973 Z-0.1352 I0.0031 J-0.0032
X71.191 Y13.5027 Z-0.1492 I0.0035 J0.0027
X71.1851 Y13.5038 Z-0.1558 I-0.0035 J-0.0027
X71.1899 Y13.4962 Z-0.1698 I0.0024 J-0.0038
X71.1915 Y13.502 Z-0.1763 I-0.0024 J0.0038
X71.1835 Y13.498 Z-0.1904 I-0.004 J-0.002
X71.1891 Y13.4958 Z-0.1969 I0.004 J0.002
X71.1859 Y13.5042 Z-0.2109 I-0.0016 J0.0042
X71.1832 Y13.4989 Z-0.2175 I0.0016 J-0.0042
X71.1918 Y13.5011 I0.0043 J0.0011
X71.1832 Y13.4989 I-0.0043 J-0.0011
X71.1859 Y13.4973 I0.0022 J0.0006
G1 X71.1875 Y13.5
G0 Z0.4
X69.8646 Y14.2152
Z0.115
G1 Z0.05 F40.
X69.8668 Y14.213
G3 X69.869 Y14.2152 I0. J0.0022
X69.8601 Z0.036 I-0.0045 J0.
X69.8641 Y14.2108 Z0.0294 I0.0045 J0.
X69.865 Y14.2196 Z0.0154 I0.0004 J0.0044
X69.8602 Y14.2161 Z0.0088 I-0.0004 J-0.0044
X69.869 Y14.2143 Z-0.0052 I0.0044 J-0.0009
X69.8659 Y14.2195 Z-0.0117 I-0.0044 J0.0009
X69.8633 Y14.211 Z-0.0257 I-0.0013 J-0.0042
X69.8659 Y14.2195 Z-0.0398 I0.0013 J0.0042
X69.8624 Y14.2113 Z-0.0529 I-0.0013 J-0.0042
X69.8667 Y14.2191 Z-0.0669 I0.0021 J0.0039
X69.8609 Y14.2177 Z-0.0735 I-0.0021 J-0.0039
X69.8683 Y14.2127 Z-0.0875 I0.0037 J-0.0025
X69.8675 Y14.2186 Z-0.094 I-0.0037 J0.0025
X69.8617 Y14.2118 Z-0.1081 I-0.0029 J-0.0034
X69.8677 Y14.212 Z-0.1146 I0.0029 J0.0034
X69.8615 Y14.2184 Z-0.1286 I-0.0031 J0.0032
X69.8611 Y14.2125 Z-0.1352 I0.0031 J-0.0032
X69.8681 Y14.218 Z-0.1492 I0.0035 J0.0027
X69.8622 Y14.219 Z-0.1558 I-0.0035 J-0.0027
X69.867 Y14.2115 Z-0.1698 I0.0024 J-0.0038
X69.8686 Y14.2172 Z-0.1763 I-0.0024 J0.0038
X69.8606 Y14.2132 Z-0.1904 I-0.004 J-0.002
X69.8662 Y14.2111 Z-0.1969 I0.004 J0.002
X69.863 Y14.2194 Z-0.2109 I-0.0016 J0.0042
X69.8603 Y14.2141 Z-0.2175 I0.0016 J-0.0042
X69.8689 Y14.2164 I0.0043 J0.0011
X69.8603 Y14.2141 I-0.0043 J-0.0011
X69.863 Y14.2125 I0.0022 J0.0006
G1 X69.8646 Y14.2152
G0 Z0.4
X69.4337 Y14.4688
Z0.115
G1 Z0.05 F40.
X69.4359 Y14.4666
G3 X69.4381 Y14.4688 I0. J0.0022
X69.4292 Z0.036 I-0.0045 J0.
X69.4332 Y14.4644 Z0.0294 I0.0045 J0.
X69.4341 Y14.4732 Z0.0154 I0.0004 J0.0044
X69.4293 Y14.4697 Z0.0088 I-0.0004 J-0.0044
X69.438 Y14.4679 Z-0.0052 I0.0044 J-0.0009
X69.4293 Y14.4697 Z-0.0192 I-0.0044 J0.0009
X69.4378 Y14.4671 Z-0.0323 I0.0044 J-0.0009
X69.4296 Y14.4705 Z-0.0463 I-0.0041 J0.0017
X69.4315 Y14.4649 Z-0.0529 I0.0041 J-0.0017
X69.4358 Y14.4727 Z-0.0669 I0.0021 J0.0039
X69.43 Y14.4713 Z-0.0735 I-0.0021 J-0.0039
X69.4373 Y14.4663 Z-0.0875 I0.0037 J-0.0025
X69.4366 Y14.4722 Z-0.094 I-0.0037 J0.0025
X69.4308 Y14.4654 Z-0.1081 I-0.0029 J-0.0034
X69.4368 Y14.4656 Z-0.1146 I0.0029 J0.0034
X69.4306 Y14.472 Z-0.1286 I-0.0031 J0.0032
X69.4302 Y14.4661 Z-0.1352 I0.0031 J-0.0032
X69.4372 Y14.4715 Z-0.1492 I0.0035 J0.0027
X69.4313 Y14.4726 Z-0.1558 I-0.0035 J-0.0027
X69.436 Y14.465 Z-0.1698 I0.0024 J-0.0038
X69.4377 Y14.4708 Z-0.1763 I-0.0024 J0.0038
X69.4297 Y14.4668 Z-0.1904 I-0.004 J-0.002
X69.4352 Y14.4646 Z-0.1969 I0.004 J0.002
X69.4321 Y14.473 Z-0.2109 I-0.0016 J0.0042
X69.4294 Y14.4677 Z-0.2175 I0.0016 J-0.0042
X69.438 Y14.4699 I0.0043 J0.0011
X69.4294 Y14.4677 I-0.0043 J-0.0011
X69.4321 Y14.4661 I0.0022 J0.0006
G1 X69.4337 Y14.4688
G0 Z0.4
X67.0515 Y14.1635
Z0.13
G1 Z0.065 F40.
G18 G2 X67.0665 Z0.05 I0.015 K0.
G1 X67.074
G17 G3 X67.0855 Y14.175 I0. J0.0115
X67.0395 Z0.0327 I-0.023 J0.
X67.0854 Z0.0154 I0.023 J0.
X67.0433 Y14.1876 Z0.0014 I-0.023 J0.
X67.0817 Y14.1624 Z-0.0159 I0.0192 J-0.0126
X67.0801 Y14.1897 Z-0.023 I-0.0192 J0.0126
X67.0449 Y14.1603 Z-0.0402 I-0.0176 J-0.0147
X67.0716 Y14.1539 Z-0.0473 I0.0176 J0.0147
X67.0534 Y14.1961 Z-0.0646 I-0.0091 J0.0211
X67.0716 Y14.1539 Z-0.0818 I0.0091 J-0.0211
X67.0665 Y14.1976 Z-0.0959 I-0.0091 J0.0211
X67.0585 Y14.1524 Z-0.1132 I-0.004 J-0.0226
X67.0665 Y14.1976 Z-0.1305 I0.004 J0.0226
X67.0467 Y14.1584 Z-0.1445 I-0.004 J-0.0226
X67.0783 Y14.1917 Z-0.1618 I0.0158 J0.0167
X67.0467 Y14.1583 Z-0.1791 I-0.0158 J-0.0167
X67.0849 Y14.1802 Z-0.1932 I0.0158 J0.0167
X67.0401 Y14.1698 Z-0.2105 I-0.0224 J-0.0052
X67.0611 Y14.1521 Z-0.2175 I0.0224 J0.0052
X67.0639 Y14.1979 I0.0014 J0.0229
X67.0611 Y14.1521 I-0.0014 J-0.0229
X67.0732 Y14.1628 I0.0007 J0.0115
G1 X67.0737 Y14.1703
X67.0739 Y14.1732 Z-0.2172
X67.0741 Y14.1761 Z-0.2164
X67.0742 Y14.1786 Z-0.215
X67.0744 Y14.1809 Z-0.2131
X67.0745 Y14.1828 Z-0.2108
X67.0746 Y14.1842 Z-0.2082
Y14.185 Z-0.2054
Y14.1853 Z-0.2025
G0 Z0.4
X67.0515 Y14.9135
Z0.13
G1 Z0.065 F40.
G18 G2 X67.0665 Z0.05 I0.015 K0.
G1 X67.074
G17 G3 X67.0855 Y14.925 I0. J0.0115
X67.0395 Z0.0327 I-0.023 J0.
X67.0854 Z0.0154 I0.023 J0.
X67.0433 Y14.9376 Z0.0014 I-0.023 J0.
X67.0817 Y14.9124 Z-0.0159 I0.0192 J-0.0126
X67.0801 Y14.9397 Z-0.023 I-0.0192 J0.0126
X67.0449 Y14.9103 Z-0.0402 I-0.0176 J-0.0147
X67.0716 Y14.9039 Z-0.0473 I0.0176 J0.0147
X67.0534 Y14.9461 Z-0.0646 I-0.0091 J0.0211
X67.0397 Y14.9224 Z-0.0716 I0.0091 J-0.0211
X67.0853 Y14.9276 Z-0.0889 I0.0228 J0.0026
X67.0665 Y14.9476 Z-0.0959 I-0.0228 J-0.0026
X67.0585 Y14.9024 Z-0.1132 I-0.004 J-0.0226
X67.0665 Y14.9476 Z-0.1305 I0.004 J0.0226
X67.0467 Y14.9083 Z-0.1445 I-0.004 J-0.0226
X67.0783 Y14.9417 Z-0.1618 I0.0158 J0.0167
X67.0467 Y14.9083 Z-0.1791 I-0.0158 J-0.0167
X67.0849 Y14.9302 Z-0.1932 I0.0158 J0.0167
X67.0401 Y14.9198 Z-0.2105 I-0.0224 J-0.0052
X67.0611 Y14.9021 Z-0.2175 I0.0224 J0.0052
X67.0639 Y14.9479 I0.0014 J0.0229
X67.0611 Y14.9021 I-0.0014 J-0.0229
X67.0732 Y14.9128 I0.0007 J0.0115
G1 X67.0737 Y14.9203
X67.0739 Y14.9233 Z-0.2172
X67.0741 Y14.9261 Z-0.2164
X67.0742 Y14.9287 Z-0.215
X67.0744 Y14.9309 Z-0.2131
X67.0745 Y14.9328 Z-0.2108
X67.0746 Y14.9342 Z-0.2082
Y14.935 Z-0.2054
Y14.9353 Z-0.2025
G0 Z0.4
X67.0515 Y15.6635
Z0.13
G1 Z0.065 F40.
G18 G2 X67.0665 Z0.05 I0.015 K0.
G1 X67.074
G17 G3 X67.0855 Y15.675 I0. J0.0115
X67.0395 Z0.0327 I-0.023 J0.
X67.0559 Y15.653 Z0.0257 I0.023 J0.
X67.0691 Y15.697 Z0.0084 I0.0066 J0.022
X67.0559 Y15.653 Z-0.0089 I-0.0066 J-0.022
X67.0801 Y15.6897 Z-0.023 I0.0066 J0.022
X67.0449 Y15.6603 Z-0.0402 I-0.0176 J-0.0147
X67.0716 Y15.6539 Z-0.0473 I0.0176 J0.0147
X67.0534 Y15.6961 Z-0.0646 I-0.0091 J0.0211
X67.0397 Y15.6724 Z-0.0716 I0.0091 J-0.0211
X67.0853 Y15.6776 Z-0.0889 I0.0228 J0.0026
X67.0665 Y15.6976 Z-0.0959 I-0.0228 J-0.0026
X67.0585 Y15.6524 Z-0.1132 I-0.004 J-0.0226
X67.083 Y15.6647 Z-0.1202 I0.004 J0.0226
X67.042 Y15.6853 Z-0.1375 I-0.0205 J0.0103
X67.0467 Y15.6583 Z-0.1445 I0.0205 J-0.0103
X67.0783 Y15.6917 Z-0.1618 I0.0158 J0.0167
X67.0511 Y15.6949 Z-0.1689 I-0.0158 J-0.0167
X67.0739 Y15.6551 Z-0.1861 I0.0114 J-0.0199
X67.0849 Y15.6802 Z-0.1932 I-0.0114 J0.0199
X67.0401 Y15.6698 Z-0.2105 I-0.0224 J-0.0052
X67.0611 Y15.6521 Z-0.2175 I0.0223 J0.0052
X67.0639 Y15.6979 I0.0014 J0.0229
X67.0611 Y15.6521 I-0.0014 J-0.0229
X67.0732 Y15.6628 I0.0007 J0.0115
G1 X67.0737 Y15.6703
X67.0739 Y15.6732 Z-0.2172
X67.0741 Y15.6761 Z-0.2164
X67.0742 Y15.6787 Z-0.215
X67.0744 Y15.6809 Z-0.2131
X67.0745 Y15.6828 Z-0.2108
X67.0746 Y15.6842 Z-0.2082
Y15.685 Z-0.2054
Y15.6853 Z-0.2025
G0 Z0.6
(.3 CIRCULAR THROUGH HOLE)
M7
G0 X70.5355 Y7.9962
Z0.6
Z0.2
G1 Z0.1145 F13.333
G3 X70.5368 Y7.9958 Z0.1082 I0.0125 J0.0432 F55.
X70.5407 Y7.995 Z0.103 I0.0111 J0.0436
X70.5464 Y7.9945 Z0.1 I0.0073 J0.0444
X70.5749 Y8.0034 Z0.0918 I0.0015 J0.045
X70.5209 Y8.0754 Z0.054 I-0.027 J0.036
X70.5749 Y8.0034 Z0.0161 I0.027 J-0.036
X70.5209 Y8.0754 Z-0.0218 I-0.027 J0.036
X70.5749 Y8.0034 Z-0.0597 I0.027 J-0.036
X70.5209 Y8.0755 Z-0.0976 I-0.027 J0.036
X70.5029 Y8.0394 Z-0.1087 I0.027 J-0.036
X70.5597 I0.0284 J0. F60.
X70.4029 I-0.0784 J0.
X70.6597 I0.1284 J0.
X70.3029 I-0.1784 J0.
X70.7597 I0.2284 J0.
X70.2029 I-0.2784 J0.
X70.8597 I0.3284 J0.
X70.1029 I-0.3784 J0.
X70.8597 I0.3784 J0.
G2 X70.9031 Y8.109 I0.0774 J0.
G3 X70.9352 Y8.1844 I-0.0276 J0.0563
X70.0047 Y8.0394 I-0.4539 J-0.1451
X70.9579 I0.4766 J0.0002
X70.9352 Y8.1844 I-0.4766 J-0.0002
X70.9247 Y8.1888 I-0.0072 J-0.0023
G1 X70.8747 Y8.1634
X70.5893 Y8.0572
G3 X70.5749 Y8.0754 Z-0.115 I-0.0413 J-0.0178 F55.
X70.5209 Y8.0034 Z-0.1529 I-0.027 J-0.036
X70.5749 Y8.0755 Z-0.1908 I0.027 J0.036
X70.5029 Y8.0394 Z-0.2175 I-0.027 J-0.036
X70.5597 I0.0284 J0. F60.
X70.4029 I-0.0784 J0.
X70.6597 I0.1284 J0.
X70.3029 I-0.1784 J0.
X70.7597 I0.2284 J0.
X70.2029 I-0.2784 J0.
X70.8597 I0.3284 J0.
X70.1029 I-0.3784 J0.
X70.8597 I0.3784 J0.
G2 X70.9031 Y8.109 I0.0774 J0.
G3 X70.9352 Y8.1844 I-0.0276 J0.0563
X70.0047 Y8.0394 I-0.4539 J-0.1451
X70.9579 I0.4766 J0.0002
X70.9352 Y8.1844 I-0.4766 J-0.0002
G2 X70.9377 Y8.193 I0.0077 J0.0025
G3 X70.94 Y8.2017 I-0.0052 J0.006
X69.9947 Y8.0394 I-0.4587 J-0.1624
X70.9679 I0.4866 J0.0002
X70.94 Y8.2017 I-0.4866 J-0.0002
X70.9371 Y8.2066 Z-0.2164 I-0.0141 J-0.005
X70.9333 Y8.2097 Z-0.2131 I-0.0113 J-0.0099
X70.9303 Y8.211 Z-0.2082 I-0.0075 J-0.013
X70.9292 Y8.2113 Z-0.2025 I-0.0045 J-0.0143
G0 Z0.4
X69.6432 Y9.8998
Z0.2
G1 Z0.1145 F13.333
G3 X69.6445 Y9.8995 Z0.1082 I0.0125 J0.0432 F55.
X69.6484 Y9.8987 Z0.103 I0.0111 J0.0436
X69.6541 Y9.8981 Z0.1 I0.0073 J0.0444
X69.6826 Y9.9071 Z0.0918 I0.0015 J0.045
X69.6286 Y9.9791 Z0.054 I-0.027 J0.036
X69.6826 Y9.9071 Z0.0161 I0.027 J-0.036
X69.6286 Y9.9791 Z-0.0218 I-0.027 J0.036
X69.6826 Y9.9071 Z-0.0597 I0.027 J-0.036
X69.6286 Y9.9791 Z-0.0976 I-0.027 J0.036
X69.6106 Y9.9431 Z-0.1087 I0.027 J-0.036
X69.6642 I0.0268 J0. F60.
X69.5106 I-0.0768 J0.
X69.7642 I0.1268 J0.
X69.4106 I-0.1768 J0.
X69.8642 I0.2268 J0.
X69.3106 I-0.2768 J0.
X69.9642 I0.3268 J0.
X69.2106 I-0.3768 J0.
X70.0642 I0.4268 J0.
X69.1106 I-0.4768 J0.
X70.0642 I0.4768 J0.
X70.0192 Y9.9881 Z-0.124 I-0.045 J0. F55.
G1 X69.6556 Z-0.2023
G3 X69.6106 Y9.9431 Z-0.2175 I0. J-0.045
X69.6642 I0.0268 J0. F60.
X69.5106 I-0.0768 J0.
X69.7642 I0.1268 J0.
X69.4106 I-0.1768 J0.
X69.8642 I0.2268 J0.
X69.3106 I-0.2768 J0.
X69.9642 I0.3268 J0.
X69.2106 I-0.3768 J0.
X70.0642 I0.4268 J0.
X69.1106 I-0.4768 J0.
X70.0742 I0.4818 J0.
X69.1006 I-0.4868 J0.
X70.0742 I0.4868 J0.
X70.0731 Y9.9487 Z-0.2164 I-0.015 J0.
X70.0706 Y9.9528 Z-0.2131 I-0.0139 J-0.0056
X70.0682 Y9.955 Z-0.2082 I-0.0114 J-0.0098
X70.0673 Y9.9557 Z-0.2025 I-0.009 J-0.012
G0 Z0.4
X73.5457 Y9.5097
Z0.2
G1 Z0.1145 F13.333
G3 X73.547 Y9.5093 Z0.1082 I0.0125 J0.0432 F55.
X73.5509 Y9.5085 Z0.103 I0.0111 J0.0436
X73.5566 Y9.508 Z0.1 I0.0073 J0.0444
X73.5852 Y9.517 Z0.0918 I0.0015 J0.045
X73.5312 Y9.589 Z0.054 I-0.027 J0.036
X73.5852 Y9.517 Z0.0161 I0.027 J-0.036
X73.5312 Y9.589 Z-0.0218 I-0.027 J0.036
X73.5852 Y9.517 Z-0.0597 I0.027 J-0.036
X73.5312 Y9.589 Z-0.0976 I-0.027 J0.036
X73.5132 Y9.553 Z-0.1087 I0.027 J-0.036
X73.5699 I0.0284 J0. F60.
X73.4132 I-0.0784 J0.
X73.6699 I0.1284 J0.
X73.3132 I-0.1784 J0.
X73.7699 I0.2284 J0.
X73.2132 I-0.2784 J0.
X73.8699 I0.3284 J0.
X73.1132 I-0.3784 J0.
X73.8699 I0.3784 J0.
G2 X73.9133 Y9.6225 I0.0774 J0.
G3 X73.9455 Y9.6979 I-0.0276 J0.0563
X73.015 Y9.553 I-0.4539 J-0.1451
X73.9681 I0.4766 J0.0002
X73.9455 Y9.6979 I-0.4766 J-0.0002
X73.9349 Y9.7023 I-0.0071 J-0.0023
G1 X73.8849 Y9.6769
X73.5995 Y9.5707
G3 X73.5852 Y9.589 Z-0.115 I-0.0414 J-0.0178 F55.
X73.5312 Y9.517 Z-0.1529 I-0.027 J-0.036
X73.5852 Y9.589 Z-0.1908 I0.027 J0.036
X73.5132 Y9.553 Z-0.2175 I-0.027 J-0.036
X73.5699 I0.0284 J0. F60.
X73.4132 I-0.0784 J0.
X73.6699 I0.1284 J0.
X73.3132 I-0.1784 J0.
X73.7699 I0.2284 J0.
X73.2132 I-0.2784 J0.
X73.8699 I0.3284 J0.
X73.1132 I-0.3784 J0.
X73.8699 I0.3784 J0.
G2 X73.9133 Y9.6225 I0.0774 J0.
G3 X73.9455 Y9.6979 I-0.0276 J0.0563
X73.015 Y9.553 I-0.4539 J-0.1451
X73.9681 I0.4766 J0.0002
X73.9455 Y9.6979 I-0.4766 J-0.0002
G2 X73.9479 Y9.7065 I0.0077 J0.0025
G3 X73.9502 Y9.7152 I-0.0052 J0.006
X73.005 Y9.553 I-0.4587 J-0.1624
X73.9781 I0.4866 J0.0002
X73.9502 Y9.7152 I-0.4866 J-0.0002
X73.9473 Y9.7201 Z-0.2164 I-0.0141 J-0.005
X73.9435 Y9.7232 Z-0.2131 I-0.0113 J-0.0099
X73.9406 Y9.7245 Z-0.2082 I-0.0075 J-0.013
X73.9395 Y9.7248 Z-0.2025 I-0.0045 J-0.0143
G0 Z0.4
X73.5617 Y7.4568
Z0.2
G1 Z0.1145 F13.333
G3 X73.563 Y7.4564 Z0.1082 I0.0125 J0.0432 F55.
X73.5669 Y7.4556 Z0.103 I0.0111 J0.0436
X73.5726 Y7.455 Z0.1 I0.0073 J0.0444
X73.6011 Y7.464 Z0.0918 I0.0015 J0.045
X73.5471 Y7.536 Z0.054 I-0.027 J0.036
X73.6011 Y7.464 Z0.0161 I0.027 J-0.036
X73.5471 Y7.536 Z-0.0218 I-0.027 J0.036
X73.6011 Y7.464 Z-0.0597 I0.027 J-0.036
X73.5471 Y7.536 Z-0.0976 I-0.027 J0.036
X73.5291 Y7.5 Z-0.1087 I0.027 J-0.036
X73.5827 I0.0268 J0. F60.
X73.4291 I-0.0768 J0.
X73.6827 I0.1268 J0.
X73.3291 I-0.1768 J0.
X73.7827 I0.2268 J0.
X73.2291 I-0.2768 J0.
X73.8827 I0.3268 J0.
X73.1291 I-0.3768 J0.
X73.9827 I0.4268 J0.
X73.0291 I-0.4768 J0.
X73.9827 I0.4768 J0.
X73.9377 Y7.545 Z-0.124 I-0.045 J0. F55.
G1 X73.5741 Z-0.2023
G3 X73.5291 Y7.5 Z-0.2175 I0. J-0.045
X73.5827 I0.0268 J0. F60.
X73.4291 I-0.0768 J0.
X73.6827 I0.1268 J0.
X73.3291 I-0.1768 J0.
X73.7827 I0.2268 J0.
X73.2291 I-0.2768 J0.
X73.8827 I0.3268 J0.
X73.1291 I-0.3768 J0.
X73.9827 I0.4268 J0.
X73.0291 I-0.4768 J0.
X73.9927 I0.4818 J0.
X73.0191 I-0.4868 J0.
X73.9927 I0.4868 J0.
X73.9916 Y7.5056 Z-0.2164 I-0.015 J0.
X73.9891 Y7.5098 Z-0.2131 I-0.0139 J-0.0056
X73.9867 Y7.512 Z-0.2082 I-0.0114 J-0.0098
X73.9858 Y7.5126 Z-0.2025 I-0.009 J-0.012
G0 Z0.4
X69.7719 Y6.2538
Z0.2
G1 Z0.1145 F13.333
G3 X69.7733 Y6.2534 Z0.1082 I0.0125 J0.0432 F55.
X69.7771 Y6.2526 Z0.103 I0.0111 J0.0436
X69.7829 Y6.2521 Z0.1 I0.0073 J0.0444
X69.8114 Y6.261 Z0.0918 I0.0015 J0.045
X69.7574 Y6.333 Z0.054 I-0.027 J0.036
X69.8114 Y6.261 Z0.0161 I0.027 J-0.036
X69.7574 Y6.333 Z-0.0218 I-0.027 J0.036
X69.8114 Y6.261 Z-0.0597 I0.027 J-0.036
X69.7574 Y6.333 Z-0.0976 I-0.027 J0.036
X69.7394 Y6.297 Z-0.1087 I0.027 J-0.036
X69.7929 I0.0268 J0. F60.
X69.6394 I-0.0768 J0.
X69.8929 I0.1268 J0.
X69.5394 I-0.1768 J0.
X69.9929 I0.2268 J0.
X69.4394 I-0.2768 J0.
X70.0929 I0.3268 J0.
X69.3394 I-0.3768 J0.
X70.1929 I0.4268 J0.
X69.2394 I-0.4768 J0.
X70.1929 I0.4768 J0.
X70.1479 Y6.342 Z-0.124 I-0.045 J0. F55.
G1 X69.7844 Z-0.2023
G3 X69.7394 Y6.297 Z-0.2175 I0. J-0.045
X69.7929 I0.0268 J0. F60.
X69.6394 I-0.0768 J0.
X69.8929 I0.1268 J0.
X69.5394 I-0.1768 J0.
X69.9929 I0.2268 J0.
X69.4394 I-0.2768 J0.
X70.0929 I0.3268 J0.
X69.3394 I-0.3768 J0.
X70.1929 I0.4268 J0.
X69.2394 I-0.4768 J0.
X70.2029 I0.4818 J0.
X69.2294 I-0.4868 J0.
X70.2029 I0.4868 J0.
X70.2018 Y6.3027 Z-0.2164 I-0.015 J0.
X70.1993 Y6.3068 Z-0.2131 I-0.0139 J-0.0056
X70.1969 Y6.309 Z-0.2082 I-0.0114 J-0.0098
X70.196 Y6.3097 Z-0.2025 I-0.009 J-0.012
G0 Z0.6
(SHAPE THROUGH HOLE)
M7
G0 X67.8247 Y9.8075
Z0.6
Z0.1
G3 X67.7035 Y9.7324 Z0.0605 I-0.0606 J-0.0375 F50.
X67.8247 Y9.8075 Z0.021 I0.0606 J0.0375
X67.7035 Z-0.0045 I-0.0606 J-0.0375
X67.7323 Y9.7061 Z-0.0255 I0.0606 J-0.0375
X67.8306 Y9.7442 Z-0.0464 I0.0318 J0.0638
X67.7836 Y9.8385 Z-0.0673 I-0.0665 J0.0258
X67.694 Y9.783 Z-0.0882 I-0.0195 J-0.0686
X67.7575 Y9.6989 Z-0.1091 I0.0701 J-0.0131
X67.8354 Y9.7699 Z-0.13 I0.0066 J0.071
X67.6928 I-0.0713 J0.
X67.8354 I0.0713 J0.
X67.687 Y9.8958 I-0.0778 J0.0587 F60.
G1 X67.6787 Y9.8908
X67.6708 Y9.8853
X67.6632 Y9.8793
X67.6559 Y9.8728
X67.6492 Y9.8659
X67.6428 Y9.8586
X67.6369 Y9.8508
X67.6316 Y9.8428
X67.6267 Y9.8344
X67.6224 Y9.8257
X67.6187 Y9.8168
X67.6155 Y9.8076
X67.6129 Y9.7983
X67.6109 Y9.7888
X67.6095 Y9.7792
X67.6087 Y9.7696
X67.6085 Y9.7599
X67.6089 Y9.7502
X67.61 Y9.7405
X67.6116 Y9.731
X67.6138 Y9.7216
X67.6167 Y9.7123
X67.6201 Y9.7032
X67.6241 Y9.6944
X67.6286 Y9.6858
X67.6336 Y9.6776
X67.6392 Y9.6696
X67.6453 Y9.6621
X67.6518 Y9.6549
X67.6588 Y9.6481
X67.6661 Y9.6419
X67.6739 Y9.636
X67.682 Y9.6307
X67.6904 Y9.626
X67.6991 Y9.6217
X67.7081 Y9.618
X67.7173 Y9.6149
X67.7266 Y9.6124
X67.7361 Y9.6104
X67.7457 Y9.6091
X67.7554 Y9.6084
X67.7651 Y9.6082
X67.7747 Y9.6087
X67.7844 Y9.6098
X67.7939 Y9.6116
X67.8033 Y9.6139
X67.8125 Y9.6168
X67.8216 Y9.6202
X67.8304 Y9.6243
X67.8389 Y9.6289
X67.8472 Y9.634
X67.8551 Y9.6396
X67.8626 Y9.6457
X67.8697 Y9.6523
X67.8764 Y9.6593
X67.8826 Y9.6667
X67.8884 Y9.6745
X67.8936 Y9.6826
X67.8983 Y9.6911
X67.9025 Y9.6998
X67.9062 Y9.7088
X67.9092 Y9.718
X67.9152 Y9.727
X67.9207 Y9.7363
X67.9257 Y9.7459
X67.9301 Y9.7558
X67.934 Y9.7659
X67.9372 Y9.7762
X67.9399 Y9.7867
X67.942 Y9.7973
X67.9434 Y9.8081
X67.9443 Y9.8188
X67.9445 Y9.8297
X67.9442 Y9.8405
X67.9432 Y9.8512
X67.9416 Y9.8619
X67.9394 Y9.8725
X67.9366 Y9.883
X67.9332 Y9.8933
X67.9292 Y9.9033
X67.9246 Y9.9131
X67.9196 Y9.9227
X67.9139 Y9.9319
X67.9078 Y9.9408
X67.9012 Y9.9494
X67.8941 Y9.9575
X67.8865 Y9.9653
X67.8785 Y9.9726
X67.8701 Y9.9794
X67.8614 Y9.9858
X67.8522 Y9.9916
X67.8428 Y9.9969
X67.8331 Y10.0017
X67.8231 Y10.0059
X67.8129 Y10.0095
X67.8026 Y10.0125
X67.792 Y10.015
X67.7814 Y10.0168
X67.7706 Y10.0181
X67.7598 Y10.0187
X67.749
X67.7382 Y10.0181
X67.7275 Y10.0169
X67.7168 Y10.0151
X67.7063 Y10.0126
X67.6959 Y10.0096
X67.6857 Y10.006
X67.6757 Y10.0018
X67.666 Y9.9971
X67.6565 Y9.9918
X67.6474 Y9.986
X67.6386 Y9.9797
X67.6302 Y9.9728
X67.6222 Y9.9656
X67.6147 Y9.9578
X67.6048 Y9.9508
X67.5953 Y9.9433
X67.5863 Y9.9353
X67.5776 Y9.9268
X67.5694 Y9.9179
X67.5616 Y9.9086
X67.5544 Y9.8989
X67.5476 Y9.8888
X67.5414 Y9.8784
X67.5357 Y9.8677
X67.5306 Y9.8568
X67.526 Y9.8455
X67.5221 Y9.8341
X67.5187 Y9.8225
X67.5159 Y9.8107
X67.5137 Y9.7988
X67.5121 Y9.7868
X67.5112 Y9.7747
X67.5109 Y9.7626
X67.5112 Y9.7505
X67.5121 Y9.7384
X67.5136 Y9.7264
X67.5158 Y9.7145
X67.5186 Y9.7027
X67.5219 Y9.691
X67.5259 Y9.6796
X67.5304 Y9.6684
X67.5355 Y9.6574
X67.5412 Y9.6467
X67.5474 Y9.6363
X67.5541 Y9.6262
X67.5614 Y9.6165
X67.5691 Y9.6072
X67.5773 Y9.5983
X67.5859 Y9.5898
X67.595 Y9.5818
X67.6044 Y9.5742
X67.6143 Y9.5671
X67.6245 Y9.5606
X67.635 Y9.5546
X67.6458 Y9.5491
X67.6569 Y9.5442
X67.6682 Y9.5399
X67.6811 Y9.536
X67.6941 Y9.5328
X67.7073 Y9.5301
X67.7206 Y9.5281
X67.734 Y9.5267
X67.7474 Y9.5259
X67.7608 Y9.5258
X67.7743 Y9.5262
X67.7877 Y9.5273
X67.801 Y9.529
X67.8142 Y9.5314
X67.8274 Y9.5343
X67.8403 Y9.5379
X67.8531 Y9.542
X67.8657 Y9.5467
X67.8781 Y9.552
X67.8902 Y9.5579
X67.902 Y9.5643
X67.9135 Y9.5713
X67.9246 Y9.5788
X67.9354 Y9.5868
X67.9458 Y9.5953
X67.9558 Y9.6043
X67.9654 Y9.6137
X67.9746 Y9.6236
X67.9832 Y9.6339
X67.9914 Y9.6446
X67.9991 Y9.6556
X68.0062 Y9.667
X68.0129 Y9.6787
X68.0189 Y9.6907
X68.0244 Y9.7029
X68.0294 Y9.7155
X68.0337 Y9.7282
X68.0375 Y9.7411
X68.0406 Y9.7542
X68.0431 Y9.7674
X68.0451 Y9.7807
X68.0464 Y9.7941
X68.0471 Y9.8075
Y9.8209
X68.0465 Y9.8344
X68.0453 Y9.8477
X68.0435 Y9.8611
X68.0411 Y9.8743
X68.0381 Y9.8874
X68.0344 Y9.9003
X68.0302 Y9.9131
X68.0254 Y9.9256
X68.02 Y9.938
X68.014 Y9.95
X68.0075 Y9.9618
X68.0004 Y9.9732
X67.9928 Y9.9843
X67.9847 Y9.995
X67.9761 Y10.0054
X67.9671 Y10.0153
X67.9576 Y10.0248
X67.9476 Y10.0339
X67.9373 Y10.0425
X67.9266 Y10.0506
X67.9155 Y10.0582
X67.904 Y10.0652
X67.8923 Y10.0718
X67.8802 Y10.0777
X67.8679 Y10.0832
X67.8554 Y10.088
X67.8426 Y10.0922
X67.806 Y10.1011
G3 X67.4185 Y9.7966 I-0.0587 J-0.3241
G2 X67.4375 Y9.6831 I-0.3035 J-0.109
G1 X67.4405 Y9.6695
X67.4441 Y9.6561
X67.4482 Y9.6428
X67.4529 Y9.6298
X67.4582 Y9.6169
X67.464 Y9.6043
X67.4704 Y9.5919
X67.4772 Y9.5798
X67.4846 Y9.568
X67.4925 Y9.5566
X67.5009 Y9.5455
X67.5097 Y9.5347
X67.519 Y9.5244
X67.5288 Y9.5145
X67.5389 Y9.505
X67.5495 Y9.4959
X67.5604 Y9.4873
X67.5717 Y9.4792
X67.5833 Y9.4715
X67.5952 Y9.4644
X67.6074 Y9.4578
X67.6199 Y9.4517
X67.6327 Y9.4462
X67.6457 Y9.4412
X67.6589 Y9.4367
X67.6722 Y9.4329
X67.6857 Y9.4296
X67.6994 Y9.4269
X67.7131 Y9.4248
X67.7269 Y9.4233
X67.7408 Y9.4223
X67.7547 Y9.422
X67.7686 Y9.4223
X67.7825 Y9.4231
X67.7963 Y9.4246
X67.9428 Y9.4827
G3 X68.0615 Y10.053 I-0.1867 J0.3364
G1 X67.8431 Y10.0939
G3 X67.8374 Y10.0644 I-0.0029 J-0.0147
X67.8431 Y10.0939 I0.0029 J0.0147
X67.8372 Y10.0938 I-0.0029 J-0.0147
G1 X67.8205 Y10.0904
G3 X67.8266 Y10.061 I0.0031 J-0.0147
X67.8335 Y10.0869 I-0.0031 J0.0147
X67.806 Y10.1011 I-0.0414 J-0.0465 F50.
G1 X67.6176 Y10.1376 F60.
G3 X67.3521 Y9.9201 I0.0136 J-0.2874
G2 X67.4185 Y9.7966 I-0.2377 J-0.2074
G3 X67.4301 Y9.7871 I0.0141 J0.0052
X67.4527 Y9.7969 I0.0038 J0.0222
X67.3816 Y9.9187 I-0.0658 J0.0432
X67.3666 Y9.9162 I0.0053 J-0.0786 F50.
G2 X67.3521 Y9.9201 I-0.0039 J0.0145
G1 X67.3296 Y9.9442 F60.
G2 X67.424 Y10.1751 I0.1728 J0.0641
G1 X67.6176 Y10.1376
G2 X67.6286 Y10.1274 I-0.0034 J-0.0146
X67.6228 Y10.1083 I-0.0171 J-0.0053
X67.4404 Y10.1506 I-0.0749 J0.0913
X67.435 Y10.1649 I0.1075 J0.0489 F50.
G3 X67.424 Y10.1751 I-0.0143 J-0.0044
G1 X67.3726 Y10.1851 F60.
X67.3708 Y10.1854
X67.3694 Y10.1857
G3 X67.3416 Y10.1822 I-0.0102 J-0.0308
X67.3516 Y10.1569 I0.0109 J-0.0103
G1 X67.3651 Y10.1561
G3 X67.3773 Y10.1612 I0.0009 J0.015
X67.3694 Y10.1857 I-0.0113 J0.0098 F50.
G1 X67.3512 Y10.1892 F60.
G3 X67.2924 Y10.1361 I0.0948 J-0.1641
X67.2463 Y10.0841 I0.0239 J-0.0676
X67.2719 Y10.074 I0.015 J0.0005
G1 X67.3109 Y10.1127
G3 X67.3153 Y10.1244 I-0.0106 J0.0106
X67.2924 Y10.1361 I-0.015 J-0.001 F50.
X67.2463 Y10.1025 I-0.0018 J-0.0459 F60.
X67.2472 Y10.0096 I0.1289 J-0.0453
G2 X67.3296 Y9.9442 I-0.1444 J-0.2666
G3 X67.3546 Y9.9504 I0.0106 J0.0106
G1 X67.3555 Y9.9532 Z-0.1297
X67.3563 Y9.9559 Z-0.1289
X67.357 Y9.9584 Z-0.1275
X67.3577 Y9.9606 Z-0.1256
X67.3582 Y9.9624 Z-0.1233
X67.3586 Y9.9637 Z-0.1207
X67.3589 Y9.9645 Z-0.1179
X67.359 Y9.9648 Z-0.115
G0 Z-0.1
X67.8298 Y9.4551
G1 Z-0.115 F50.
X67.8296 Y9.4549 Z-0.1179
X67.8291 Y9.4542 Z-0.1207
X67.8283 Y9.4531 Z-0.1233
X67.8271 Y9.4516 Z-0.1256
X67.8257 Y9.4498 Z-0.1275
X67.8242 Y9.4477 Z-0.1289
X67.8225 Y9.4455 Z-0.1297
X67.8207 Y9.4432 Z-0.13
G2 X67.7964 Y9.4241 I-0.0495 J0.0379
G1 X67.6745 Y9.3753 F60.
G2 X67.4021 Y9.5225 I-0.0284 J0.2732
G3 X67.4381 Y9.6831 I-0.3393 J0.1604
G2 X67.4648 Y9.6906 I0.0149 J-0.0018
X67.477 Y9.593 I-0.0748 J-0.059
X67.4278 Y9.5384 I-0.1079 J0.048
X67.4105 Y9.5303 I-0.0587 J0.1025 F50.
G3 X67.4021 Y9.5225 I0.0053 J-0.0141
G1 X67.4013 Y9.5206 F60.
X67.3875 Y9.4974
G3 X67.5041 Y9.3071 I0.1624 J-0.0313
G1 X67.6745 Y9.3753
G3 X67.6834 Y9.3874 I-0.0061 J0.0137
X67.6606 Y9.4205 I-0.0306 J0.0034
X67.5156 Y9.3342 I-0.0303 J-0.1142
X67.513 Y9.3192 I0.1148 J-0.0278 F50.
G2 X67.5041 Y9.3071 I-0.0149 J0.0016
G1 X67.4668 Y9.2921 F60.
G2 X67.3038 Y9.396 I-0.0324 J0.1291
G3 X67.3873 Y9.4974 I-0.1885 J0.2405
G1 X67.389 Y9.4995
X67.391 Y9.5013
X67.3932 Y9.5026
X67.3957 Y9.5036
X67.3982 Y9.5041
X67.4008 Y9.5042
G2 X67.4255 Y9.4807 I-0.0013 J-0.026
X67.3352 Y9.3953 I-0.0784 J-0.0075
X67.3204 Y9.3991 I0.0119 J0.0778 F50.
G3 X67.3057 Y9.3964 I-0.0051 J-0.0141
G1 X67.3035 Y9.3944 F60.
X67.2924 Y9.3867
G3 X67.3281 Y9.236 I0.0752 J-0.0618
G1 X67.3307 Y9.2375
X67.3331 Y9.2394
X67.3349 Y9.2418
X67.3363 Y9.2444
X67.3372 Y9.2472
X67.3374 Y9.2502
X67.3371 Y9.2531
X67.3352 Y9.2639
X67.3155 Y9.3752
X67.3153 Y9.3767 F50.
G3 X67.2924 Y9.3867 I-0.0148 J-0.0026
X67.2463 Y9.3522 I-0.0021 J-0.0452 F60.
X67.2472 Y9.2597 I0.1335 J-0.0451
X67.3004 Y9.2255 I0.0954 J0.0903
G1 X67.4668 Y9.2921
G0 Z0.4
X67.8972 Y9.482
Z-0.1
G1 Z-0.115 F50.
X67.8975 Z-0.1179
X67.8983 Y9.4819 Z-0.1207
X67.8997 Y9.4817 Z-0.1233
X67.9015 Y9.4814 Z-0.1256
X67.9038 Y9.481 Z-0.1275
X67.9063 Y9.4806 Z-0.1289
X67.9091 Y9.4802 Z-0.1297
X67.912 Y9.4797 Z-0.13
G3 X67.9428 Y9.4827 I0.0097 J0.0616
G1 X68.1054 Y9.5477 F60.
G3 X68.2175 Y9.9587 I-0.2176 J0.2801
X68.1871 Y10.0272 I-0.0708 J0.0096
G1 X68.06 Y10.0519
G3 X68.046 Y10.0465 I-0.0023 J-0.0148
X68.0449 Y10.0301 I0.011 J-0.0089
X68.1625 Y10.011 I0.0671 J0.0413
X68.1731 Y10.0218 I-0.0505 J0.0604 F50.
G2 X68.1871 Y10.0272 I0.0117 J-0.0095
G1 X68.2285 Y10.0192 F60.
X68.2385 Y10.0124
X68.2482 Y10.005
X68.2575 Y9.9972
X68.2664 Y9.989
X68.2749 Y9.9803
X68.2829 Y9.9712
X68.2905 Y9.9617
X68.2976 Y9.9519
X68.3042 Y9.9417
X68.3103 Y9.9312
X68.3158 Y9.9204
X68.3208 Y9.9093
X68.3252 Y9.898
X68.3291 Y9.8865
X68.3324 Y9.8748
X68.3351 Y9.863
X68.3372 Y9.8511
X68.3388 Y9.839
X68.3397 Y9.8269
X68.34 Y9.8148
X68.3397 Y9.8027
X68.3388 Y9.7905
X68.3373 Y9.7785
X68.3352 Y9.7666
X68.3325 Y9.7547
X68.3292 Y9.743
X68.3254 Y9.7315
X68.321 Y9.7202
X68.316 Y9.7092
X68.3104 Y9.6984
G2 X68.2918 Y9.6224 I-0.064 J-0.0246
G1 X68.1054 Y9.5477
G2 X68.0906 Y9.5504 I-0.0051 J0.0141
X68.0864 Y9.5635 I0.0084 J0.0099
X68.2648 Y9.634 I0.1146 J-0.0288
X68.277 Y9.625 I-0.0639 J-0.0993 F50.
G3 X68.2918 Y9.6224 I0.0097 J0.0115
G1 X68.3446 Y9.6435 F60.
G3 X68.3887 Y9.9881 I-0.1933 J0.1998
G1 X68.2285 Y10.0192
G3 X68.2145 Y10.0138 I-0.0023 J-0.0148
X68.2265 Y9.9534 I0.0311 J-0.0252
X68.3644 Y9.9716 I0.0565 J0.1037
X68.3747 Y9.9828 I-0.0814 J0.0855 F50.
G2 X68.3887 Y9.9881 I0.0117 J-0.0095
G1 X68.4305 Y9.98 F60.
G2 X68.5028 Y9.7068 I-0.1235 J-0.1788
G1 X68.3446 Y9.6435
G2 X68.3299 Y9.6462 I-0.0051 J0.0141
X68.3271 Y9.7014 I0.0244 J0.0289
X68.4758 Y9.7185 I0.0848 J-0.0822
X68.488 Y9.7094 I-0.0639 J-0.0993 F50.
G3 X68.5028 Y9.7068 I0.0097 J0.0115
G1 X68.5467 Y9.7244 F60.
G3 X68.5825 Y9.9506 I-0.1116 J0.1336
G1 X68.4305 Y9.98
G3 X68.4165 Y9.9747 I-0.0023 J-0.0148
X68.4337 Y9.9096 I0.0324 J-0.0262
X68.5582 Y9.934 I0.0431 J0.11
X68.5685 Y9.9452 I-0.0814 J0.0855 F50.
G2 X68.5825 Y9.9506 I0.0117 J-0.0095
G1 X68.6163 Y9.944 F60.
G2 X68.6866 Y9.7797 I-0.0464 J-0.117
G1 X68.5467 Y9.7244
G2 X68.5319 Y9.727 I-0.0051 J0.0141
X68.5393 Y9.7966 I0.0272 J0.0323
X68.6587 Y9.7917 I0.0556 J-0.1042
X68.6709 Y9.7827 I-0.0639 J-0.0993 F50.
G3 X68.6857 Y9.78 I0.0097 J0.0115
G1 X68.7163 Y9.7923 F60.
G3 X68.7553 Y9.8407 I-0.0308 J0.0647
G1 X68.7546 Y9.8435
X68.7533 Y9.846
X68.7516 Y9.8484
X68.7495 Y9.8503
X68.7471 Y9.8518
X68.7445 Y9.8529
X68.7417 Y9.8534
X68.7388
X68.7361 Y9.8528
X68.7334 Y9.8518
X68.7311 Y9.8503
G3 X68.729 Y9.8484 I0.0091 J-0.0119
X68.6963 Y9.8085 I0.0323 J-0.0598
X68.7163 Y9.7923 I0.0149 J-0.0021 F50.
X68.7489 Y9.8656 I0.0058 J0.0414 F60.
G1 X68.7504 Y9.8921
X68.749 Y9.917
X68.7489 Y9.9178
X68.7485 Y9.9184
X68.6163 Y9.944
G3 X68.6022 Y9.9385 I-0.0023 J-0.0148
G1 X68.6012 Y9.9364 Z-0.1298
X68.6002 Y9.9343 Z-0.1293
X68.5993 Y9.9324 Z-0.1284
X68.5992 Y9.9307 Z-0.1274
X68.599 Y9.9292 Z-0.1262
X68.5993 Y9.9275 Z-0.1243
X68.5995 Y9.9261 Z-0.1222
X68.5997 Y9.9251 Z-0.1199
X68.5998 Y9.9245 Z-0.1175
Y9.9243 Z-0.115
G0 Z0.4
X67.7996 Y14.8036
Z0.1
G3 X67.6783 Y14.7286 Z0.0605 I-0.0606 J-0.0375 F50.
X67.7916 Y14.7181 Z0.0373 I0.0606 J0.0375
X67.7819 Y14.823 Z0.0164 I-0.0527 J0.048
X67.6783 Y14.8036 Z-0.0045 I-0.043 J-0.0569
X67.7072 Y14.7023 Z-0.0255 I0.0606 J-0.0375
X67.8054 Y14.7404 Z-0.0464 I0.0318 J0.0638
X67.7585 Y14.8347 Z-0.0673 I-0.0665 J0.0258
X67.6689 Y14.7792 Z-0.0882 I-0.0195 J-0.0686
X67.7324 Y14.6951 Z-0.1091 I0.0701 J-0.0131
X67.8103 Y14.7661 Z-0.13 I0.0066 J0.071
X67.6677 I-0.0713 J0.
X67.8103 I0.0713 J0.
X67.6619 Y14.892 I-0.0778 J0.0587 F60.
G1 X67.6536 Y14.887
X67.6456 Y14.8815
X67.638 Y14.8755
X67.6308 Y14.869
X67.624 Y14.8621
X67.6177 Y14.8547
X67.6118 Y14.847
X67.6064 Y14.839
X67.6016 Y14.8306
X67.5973 Y14.8219
X67.5935 Y14.813
X67.5903 Y14.8038
X67.5877 Y14.7945
X67.5857 Y14.785
X67.5843 Y14.7754
X67.5835 Y14.7657
X67.5834 Y14.756
X67.5838 Y14.7464
X67.5848 Y14.7367
X67.5865 Y14.7272
X67.5887 Y14.7177
X67.5915 Y14.7085
X67.5949 Y14.6994
X67.5989 Y14.6906
X67.6034 Y14.682
X67.6085 Y14.6737
X67.6141 Y14.6658
X67.6201 Y14.6582
X67.6267 Y14.6511
X67.6336 Y14.6443
X67.641 Y14.638
X67.6487 Y14.6322
X67.6568 Y14.6269
X67.6653 Y14.6221
X67.674 Y14.6179
X67.6829 Y14.6142
X67.6921 Y14.6111
X67.7015 Y14.6085
X67.711 Y14.6066
X67.7206 Y14.6053
X67.7302 Y14.6046
X67.7399 Y14.6044
X67.7496 Y14.6049
X67.7592 Y14.606
X67.7687 Y14.6077
X67.7782 Y14.6101
X67.7874 Y14.6129
X67.7964 Y14.6164
X67.8053 Y14.6205
X67.8138 Y14.625
X67.822 Y14.6302
X67.8299 Y14.6358
X67.8374 Y14.6419
X67.8445 Y14.6485
X67.8512 Y14.6555
X67.8575 Y14.6629
X67.8632 Y14.6707
X67.8685 Y14.6788
X67.8732 Y14.6873
X67.8774 Y14.696
X67.881 Y14.705
X67.8841 Y14.7142
X67.8901 Y14.7232
X67.8956 Y14.7325
X67.9006 Y14.7421
X67.905 Y14.752
X67.9088 Y14.7621
X67.9121 Y14.7724
X67.9148 Y14.7829
X67.9168 Y14.7935
X67.9183 Y14.8042
X67.9192 Y14.815
X67.9194 Y14.8258
X67.919 Y14.8367
X67.918 Y14.8474
X67.9164 Y14.8581
X67.9142 Y14.8687
X67.9114 Y14.8792
X67.908 Y14.8894
X67.904 Y14.8995
X67.8995 Y14.9093
X67.8944 Y14.9189
X67.8888 Y14.9281
X67.8827 Y14.937
X67.876 Y14.9456
X67.8689 Y14.9537
X67.8614 Y14.9615
X67.8534 Y14.9688
X67.845 Y14.9756
X67.8362 Y14.9819
X67.8271 Y14.9878
X67.8177 Y14.9931
X67.808 Y14.9978
X67.798 Y15.002
X67.7878 Y15.0057
X67.7774 Y15.0087
X67.7669 Y15.0112
X67.7562 Y15.013
X67.7455 Y15.0143
X67.7347 Y15.0149
X67.7239
X67.7131 Y15.0143
X67.7023 Y15.0131
X67.6917 Y15.0112
X67.6811 Y15.0088
X67.6707 Y15.0058
X67.6605 Y15.0022
X67.6506 Y14.998
X67.6408 Y14.9933
X67.6314 Y14.988
X67.6223 Y14.9822
X67.6135 Y14.9758
X67.6051 Y14.969
X67.5971 Y14.9617
X67.5895 Y14.954
X67.5797 Y14.947
X67.5702 Y14.9395
X67.5611 Y14.9314
X67.5525 Y14.923
X67.5442 Y14.9141
X67.5365 Y14.9048
X67.5292 Y14.8951
X67.5225 Y14.885
X67.5163 Y14.8746
X67.5106 Y14.8639
X67.5054 Y14.8529
X67.5009 Y14.8417
X67.4969 Y14.8303
X67.4935 Y14.8187
X67.4907 Y14.8069
X67.4886 Y14.795
X67.487 Y14.7829
X67.4861 Y14.7709
X67.4857 Y14.7588
X67.486 Y14.7467
X67.487 Y14.7346
X67.4885 Y14.7226
X67.4907 Y14.7107
X67.4934 Y14.6989
X67.4968 Y14.6872
X67.5007 Y14.6758
X67.5053 Y14.6646
X67.5104 Y14.6536
X67.516 Y14.6429
X67.5222 Y14.6325
X67.529 Y14.6224
X67.5362 Y14.6127
X67.5439 Y14.6034
X67.5521 Y14.5944
X67.5608 Y14.586
X67.5698 Y14.5779
X67.5793 Y14.5704
X67.5891 Y14.5633
X67.5993 Y14.5568
X67.6098 Y14.5508
X67.6207 Y14.5453
X67.6317 Y14.5404
X67.643 Y14.5361
X67.6559 Y14.5322
X67.669 Y14.5289
X67.6822 Y14.5262
X67.6955 Y14.5242
X67.7089 Y14.5227
X67.7223 Y14.5219
X67.7358 Y14.5217
X67.7492 Y14.5222
X67.7627 Y14.5232
X67.776 Y14.5249
X67.7893 Y14.5272
X67.8024 Y14.5302
X67.8154 Y14.5337
X67.8282 Y14.5379
X67.8409 Y14.5426
X67.8532 Y14.5479
X67.8653 Y14.5538
X67.8772 Y14.5602
X67.8887 Y14.5672
X67.8998 Y14.5747
X67.9107 Y14.5828
X67.9211 Y14.5913
X67.9311 Y14.6003
X67.9407 Y14.6097
X67.9498 Y14.6196
X67.9585 Y14.6299
X67.9667 Y14.6406
X67.9743 Y14.6517
X67.9815 Y14.6631
X67.9881 Y14.6748
X67.9941 Y14.6869
X67.9996 Y14.6992
X68.0045 Y14.7117
X68.0088 Y14.7245
X68.0126 Y14.7374
X68.0157 Y14.7505
X68.0182 Y14.7637
X68.0201 Y14.7771
X68.0213 Y14.7905
X68.0219 Y14.8039
Y14.8174
X68.0213 Y14.8308
X68.0201 Y14.8442
X68.0182 Y14.8576
X68.0157 Y14.8708
X68.0126 Y14.8839
X68.0089 Y14.8968
X68.0046 Y14.9096
X67.9997 Y14.9221
X67.9942 Y14.9344
X67.9881 Y14.9465
X67.9815 Y14.9582
X67.9744 Y14.9696
X67.9667 Y14.9807
X67.9586 Y14.9914
X67.9499 Y15.0017
X67.9408 Y15.0116
X67.9312 Y15.021
X67.9212 Y15.03
X67.8266 Y15.0801
G3 X67.4374 Y14.934 I-0.114 J-0.2878
G2 X67.4121 Y14.7914 I-0.3762 J-0.0068
G3 X67.6445 Y14.4323 I0.3068 J-0.0561
G1 X67.8626 Y14.4594
X67.8768 Y14.4644
X67.8908 Y14.47
X67.9045 Y14.4761
X67.9179 Y14.4828
X67.9311 Y14.4901
X67.9439 Y14.4978
X67.9565 Y14.5061
X67.9687 Y14.5149
X67.9805 Y14.5242
X67.9919 Y14.5339
X68.003 Y14.5441
X68.0136 Y14.5548
X68.0238 Y14.5658
X68.0335 Y14.5773
X68.0427 Y14.5891
X68.0515 Y14.6013
X68.0597 Y14.6139
X68.0675 Y14.6268
X68.0747 Y14.64
X68.0814 Y14.6534
X68.0875 Y14.6671
X68.0931 Y14.6811
X68.098 Y14.6953
X68.1025 Y14.7096
X68.1063 Y14.7242
X68.1095 Y14.7389
X68.1122 Y14.7536
X68.1142 Y14.7685
X68.1156 Y14.7835
X68.1164 Y14.7985
X68.1167 Y14.8135
X68.1163 Y14.8285
X68.1153 Y14.8435
X68.1137 Y14.8585
X68.1114 Y14.8733
X68.1086 Y14.8881
X68.1052 Y14.9027
X68.1012 Y14.9172
X68.0966 Y14.9315
X68.0915 Y14.9456
X67.9224 Y15.0314
G3 X67.9074 Y15.0301 I-0.0063 J-0.0136
X67.8979 Y14.9996 I0.015 J-0.0214
X68.0633 Y14.9363 I0.1106 J0.0414
X68.0763 Y14.9442 I-0.0547 J0.1047 F50.
G2 X68.0912 Y14.9455 I0.0086 J-0.0123
G1 X68.1402 Y14.9206 F60.
X68.1483 Y14.9116
X68.156 Y14.9022
X68.1632 Y14.8924
X68.1699 Y14.8823
X68.1761 Y14.8719
X68.1818 Y14.8611
X68.1869 Y14.8501
X68.1915 Y14.8389
X68.1956 Y14.8275
X68.1991 Y14.8159
X68.202 Y14.8041
X68.2043 Y14.7922
X68.2061 Y14.7802
X68.2073 Y14.7681
X68.2078 Y14.756
Y14.7439
X68.2072 Y14.7317
X68.206 Y14.7197
X68.2042 Y14.7077
X68.2018 Y14.6958
X68.1988 Y14.684
X68.1953 Y14.6724
X68.1912 Y14.661
X68.1865 Y14.6498
X68.1813 Y14.6388
X68.1756 Y14.6281
X68.1693 Y14.6177
X68.1626 Y14.6077
X68.1554 Y14.5979
X68.1477 Y14.5885
X68.1395 Y14.5796
G2 X68.082 Y14.4865 I-0.103 J-0.0006
G1 X67.8626 Y14.4594
G2 X67.859 Y14.4891 I-0.0018 J0.0149
X67.8757 Y14.4758 I0.0018 J-0.0149
X67.8621 Y14.4593 I-0.0149 J-0.0016
G1 X67.665 Y14.4415
G2 X67.6623 Y14.4714 I-0.0013 J0.015
X67.6729 Y14.4446 I0.0013 J-0.0149
X67.6445 Y14.4323 I-0.0382 J0.0492 F50.
G1 X67.5437 Y14.4199 F60.
G2 X67.3179 Y14.6506 I0.0357 J0.2608
G3 X67.4121 Y14.7914 I-0.2672 J0.2807
G2 X67.4412 Y14.7862 I0.0141 J-0.0052
G3 X67.4575 Y14.7713 I0.015 J0.0001
X67.471 Y14.7888 I-0.0013 J0.015
X67.4493 Y14.9053 I-0.1909 J0.0248
G2 X67.4376 Y14.9339 I0.0499 J0.0373 F50.
G1 X67.4355 Y14.9539 F60.
X67.4318 Y14.9872
X67.4302 Y15.0003
G2 X67.6208 Y15.1848 I0.2184 J-0.0349
G1 X67.8266 Y15.0801
G2 X67.8344 Y15.0673 I-0.0073 J-0.0131
X67.7853 Y15.0175 I-0.0488 J-0.0009
X67.6296 Y15.1568 I0.0007 J0.1575
X67.6286 Y15.1719 I0.1564 J0.0182 F50.
G3 X67.6208 Y15.1848 I-0.015 J-0.0003
G1 X67.5726 Y15.2093 F60.
X67.5634 Y15.2123
X67.5539 Y15.2147
X67.5444 Y15.2165
X67.5347 Y15.2177
X67.525 Y15.2184
X67.5152
X67.5055 Y15.2178
X67.4958 Y15.2166
X67.4863 Y15.2149
X67.4768 Y15.2125
X67.4675 Y15.2096
X67.4584 Y15.2061
X67.4496 Y15.2021
X67.441 Y15.1975
X67.4327 Y15.1924
X67.4247 Y15.1868
X67.4171 Y15.1807
X67.4099 Y15.1741
X67.4031 Y15.1671
X67.3967 Y15.1598
X67.3908 Y15.152
X67.3855 Y15.1439
X67.3806 Y15.1355
X67.3762 Y15.1268
G2 X67.4302 Y15.0003 I-0.2696 J-0.19
G3 X67.4413 Y14.9902 I0.0143 J0.0045
X67.4622 Y14.9991 I0.0042 J0.0192
X67.4065 Y15.1184 I-0.067 J0.0414
X67.3913 Y15.1191 I-0.0113 J-0.0779 F50.
G2 X67.378 Y15.1259 I-0.0007 J0.015
G1 X67.3698 Y15.1396 F60.
X67.3656 Y15.1461
G2 X67.4301 Y15.2818 I0.1013 J0.0351
G1 X67.5726 Y15.2093
G2 X67.5804 Y15.1965 I-0.0073 J-0.0131
X67.531 Y15.1558 I-0.0408 J-0.0008
X67.4391 Y15.2538 I0.0249 J0.1155
X67.4378 Y15.269 I0.1168 J0.0174 F50.
G3 X67.4301 Y15.2818 I-0.015 J-0.0003
G1 X67.403 Y15.2956 F60.
G3 X67.2848 Y15.2244 I-0.0273 J-0.0883
G1 X67.2871 Y15.2228
X67.2896 Y15.2217
X67.2922 Y15.2211
X67.2948 Y15.2209
X67.2974 Y15.2211
X67.2999 Y15.2218
X67.3023 Y15.2228
X67.3167 Y15.2295
X67.402 Y15.2689
X67.4039 Y15.2699
G3 X67.403 Y15.2956 I-0.0082 J0.0126 F50.
G1 X67.3389 Y15.3282 F60.
G3 X67.2453 Y15.3082 I-0.0321 J-0.0785
G1 X67.2456 Y15.3052
X67.2465 Y15.3023
X67.2479 Y15.2996
X67.2497 Y15.2973
X67.2519 Y15.2954
X67.2545 Y15.294
X67.2572 Y15.293
X67.2601 Y15.2926
X67.2629 Y15.2928
X67.2692 Y15.2934
X67.2771 Y15.2922
X67.2851 Y15.2916
X67.2932 Y15.2915
X67.3012 Y15.292
X67.3092 Y15.293
X67.3171 Y15.2946
X67.3248 Y15.2967
X67.3324 Y15.2994
X67.3398 Y15.3025
G3 X67.3389 Y15.3282 I-0.0082 J0.0126 F50.
X67.2707 Y15.3621 I-0.0848 J-0.0852 F60.
G1 X67.2674 Y15.3624
X67.2641 Y15.3623
X67.2608 Y15.3616
X67.2577 Y15.3604
X67.2548 Y15.3588
X67.2523 Y15.3567
X67.25 Y15.3542
X67.2482 Y15.3514
X67.2469 Y15.3483
X67.246 Y15.345
G3 X67.3157 Y15.2018 I0.0944 J-0.0427
G1 X67.352 Y15.1629
X67.3621 Y15.1514
X67.3656 Y15.1461
G3 X67.3912 Y15.148 I0.0123 J0.0087
G1 X67.3925 Y15.1506 Z-0.1297
X67.3938 Y15.1531 Z-0.1289
X67.395 Y15.1555 Z-0.1275
X67.396 Y15.1575 Z-0.1256
X67.3968 Y15.1591 Z-0.1233
X67.3975 Y15.1604 Z-0.1207
X67.3979 Y15.1612 Z-0.1179
X67.398 Y15.1614 Z-0.115
G0 Z0.4
X67.3589 Y14.6705
Z-0.1
G1 Z-0.115 F50.
X67.3586 Z-0.1179
X67.3578 Y14.6702 Z-0.1207
X67.3565 Y14.6698 Z-0.1233
X67.3547 Y14.6693 Z-0.1256
X67.3525 Y14.6687 Z-0.1275
X67.35 Y14.668 Z-0.1289
X67.3473 Y14.6672 Z-0.1297
X67.3445 Y14.6663 Z-0.13
G3 X67.3179 Y14.6506 I0.0174 J-0.0598
G1 X67.3157 Y14.6482 F60.
X67.304 Y14.6375
X67.2977 Y14.633
G3 X67.3002 Y14.4648 I0.1071 J-0.0825
X67.3235 Y14.4775 I0.0083 J0.0125
G1 X67.3208 Y14.6207
Y14.6217
G3 X67.2977 Y14.633 I-0.015 J-0.0013 F50.
X67.2464 Y14.5954 I0.0323 J-0.0979 F60.
X67.324 Y14.4431 I0.123 J-0.0333
G1 X67.3314 Y14.4332
X67.3393 Y14.4238
X67.3477 Y14.4148
X67.3565 Y14.4062
X67.3658 Y14.3981
X67.3672 Y14.398
X67.5437 Y14.4199
G3 X67.5534 Y14.4437 I-0.0024 J0.0148
G1 X67.5516 Y14.4461 Z-0.1297
X67.5499 Y14.4483 Z-0.1289
X67.5483 Y14.4504 Z-0.1275
X67.5469 Y14.4522 Z-0.1256
X67.5458 Y14.4537 Z-0.1233
X67.545 Y14.4548 Z-0.1207
X67.5445 Y14.4555 Z-0.1179
X67.5443 Y14.4557 Z-0.115
G0 Z-0.1
X68.0377 Y14.4976
G1 Z-0.115 F50.
X68.038 Y14.4974 Z-0.1179
X68.0388 Y14.4971 Z-0.1207
X68.0401 Y14.4965 Z-0.1233
X68.0418 Y14.4958 Z-0.1256
X68.0439 Y14.4949 Z-0.1275
X68.0462 Y14.4938 Z-0.1289
X68.0488 Y14.4927 Z-0.1297
X68.0515 Y14.4915 Z-0.13
G3 X68.082 Y14.4865 I0.025 J0.0571
G1 X68.1414 Y14.4939 F60.
X68.1529 Y14.4991
X68.1641 Y14.5048
X68.1751 Y14.5111
X68.1857 Y14.5179
X68.196 Y14.5252
X68.206 Y14.533
X68.2155 Y14.5413
X68.2247 Y14.55
X68.2334 Y14.5592
X68.2417 Y14.5687
X68.2495 Y14.5787
X68.2568 Y14.589
X68.2636 Y14.5997
X68.2698 Y14.6106
X68.2756 Y14.6219
X68.2808 Y14.6334
X68.2854 Y14.6452
X68.2894 Y14.6571
X68.2929 Y14.6693
X68.2958 Y14.6816
X68.2981 Y14.694
X68.2998 Y14.7065
X68.3009 Y14.7191
X68.3013 Y14.7317
X68.3012 Y14.7444
X68.3005 Y14.757
X68.2991 Y14.7696
X68.2972 Y14.782
X68.2946 Y14.7944
X68.2975 Y14.798
X68.2998 Y14.802
X68.3016 Y14.8062
X68.3028 Y14.8106
X68.3034 Y14.8152
Y14.8198
X68.3028 Y14.8243
X68.3016 Y14.8288
X68.2998 Y14.833
X68.2974 Y14.8369
X68.2946 Y14.8405
X68.2912 Y14.8437
X68.1402 Y14.9206
G3 X68.1253 Y14.9193 I-0.0063 J-0.0136
X68.1178 Y14.8637 I0.0218 J-0.0312
X68.2633 Y14.8345 I0.0908 J0.0755
X68.2763 Y14.8424 I-0.0547 J0.1047 F50.
G2 X68.2913 Y14.8437 I0.0086 J-0.0123
G1 X68.326 Y14.8261 F60.
X68.3338 Y14.8174
X68.3412 Y14.8084
X68.3481 Y14.799
X68.3544 Y14.7892
X68.3603 Y14.7791
X68.3655 Y14.7687
X68.3702 Y14.758
X68.3744 Y14.7471
X68.3779 Y14.736
X68.3808 Y14.7247
X68.3831 Y14.7133
X68.3849 Y14.7018
X68.3859 Y14.6901
X68.3864 Y14.6785
X68.3862 Y14.6668
X68.3855 Y14.6552
X68.384 Y14.6436
X68.382 Y14.6321
X68.3794 Y14.6208
X68.3761 Y14.6096
X68.3723 Y14.5986
X68.3679 Y14.5878
X68.3629 Y14.5773
X68.3573 Y14.567
X68.3512 Y14.5571
X68.3446 Y14.5475
X68.3375 Y14.5383
X68.3299 Y14.5294
X68.3218 Y14.521
X68.3229 Y14.5167
X68.3206 Y14.5161
X68.1414 Y14.4939
G2 X68.1278 Y14.5002 I-0.0013 J0.015
X68.1331 Y14.5438 I0.0268 J0.0188
X68.2975 Y14.5343 I0.0773 J-0.0893
X68.307 Y14.5224 I-0.0871 J-0.0798 F50.
G3 X68.3206 Y14.5161 I0.0123 J0.0086
G1 X68.3679 Y14.5219 F60.
G3 X68.4712 Y14.7522 I-0.0811 J0.1747
G1 X68.326 Y14.8261
G3 X68.3111 Y14.8248 I-0.0063 J-0.0136
X68.306 Y14.7632 I0.023 J-0.0329
X68.4433 Y14.743 I0.0825 J0.0845
X68.4563 Y14.7509 I-0.0547 J0.1047 F50.
G2 X68.4712 Y14.7522 I0.0086 J-0.0123
G1 X68.5066 Y14.7342 F60.
G2 X68.5246 Y14.5408 I-0.0922 J-0.1061
G1 X68.3679 Y14.5219
G2 X68.3543 Y14.5283 I-0.0013 J0.015
X68.3742 Y14.5909 I0.0338 J0.0238
X68.5009 Y14.5595 I0.0396 J-0.1113
X68.5104 Y14.5476 I-0.0871 J-0.0798 F50.
G3 X68.524 Y14.5413 I0.0123 J0.0086
G1 X68.5594 Y14.5457 F60.
G3 X68.633 Y14.6712 I-0.0318 J0.103
G1 X68.5066 Y14.7342
G3 X68.4917 Y14.7329 I-0.0063 J-0.0136
X68.4978 Y14.6597 I0.0244 J-0.0348
X68.5485 Y14.6482 I0.0507 J0.1067
X68.6032 Y14.6616 I0. J0.1181
X68.6162 Y14.6695 I-0.0547 J0.1047 F50.
G2 X68.6312 Y14.6708 I0.0086 J-0.0123
G1 X68.6576 Y14.6574 F60.
G2 X68.682 Y14.5595 I-0.044 J-0.063
G1 X68.5594 Y14.5457
G2 X68.5431 Y14.5606 I-0.0013 J0.015
G1 X68.5434 Y14.5636
X68.5443 Y14.5665
G2 X68.5481 Y14.5718 I0.0138 J-0.0059
G1 X68.6312 Y14.646
X68.6412 Y14.655 F50.
G2 X68.6576 Y14.6574 I0.01 J-0.0112
G1 X68.7137 Y14.6288 F60.
G2 X68.7437 Y14.5685 I-0.0108 J-0.0429
G1 X68.6799 Y14.5606
G2 X68.6663 Y14.5669 I-0.0013 J0.015
X68.6665 Y14.5759 I0.0063 J0.0044
X68.7191 Y14.5853 I0.0314 J-0.0238
X68.7301 Y14.5748 I-0.0213 J-0.0331 F50.
G3 X68.7437 Y14.5685 I0.0123 J0.0086
G1 X68.7557 Y14.57 F60.
X68.7616 Y14.571
X68.7671 Y14.5735
X68.7719 Y14.577
X68.7762 Y14.5813
X68.7788 Y14.5848
X68.7804 Y14.5893
X68.7793 Y14.5939
X68.7758 Y14.5972
G3 X68.7513 Y14.6001 I-0.0166 J-0.0357
X68.7401 Y14.5907 I0.0031 J-0.0149
X68.7557 Y14.57 I0.0142 J-0.0055 F50.
G1 X68.7886 Y14.5741 F60.
X68.7946 Y14.5751
X68.7973 Y14.5778
X68.7983 Y14.5815
X68.7972 Y14.5852
X68.7943 Y14.5878
X68.793 Y14.5884
X68.791 Y14.5893 F50.
G3 X68.7849 Y14.5746 I-0.003 J-0.0073
X68.7886 Y14.5741 I0.003 J0.0073
G1 X68.8022 Y14.5757 F60.
X68.8036 Y14.5759
X68.8054 Y14.5761
X68.8083 Y14.5767
X68.8092 Y14.5781
X68.8091 Y14.5797
X68.8079 Y14.5809
X68.8062 Y14.5817 F50.
X68.8023 Y14.579
X68.8054 Y14.5761
X68.8105 Y14.5768 F60.
X68.8116 Y14.5769
X68.8128 Y14.5771
X68.8134 Y14.5772
X68.8118 Y14.5787
X68.7835 Y14.5761
X68.7813 Y14.5759
X68.7794 Y14.5819
X68.7823 Y14.5821
G3 X68.8128 Y14.5771 I0.025 J0.0571 F50.
G1 X68.8134 F60.
X68.814 Y14.5778
X68.7137 Y14.6288
G3 X68.6986 Y14.6274 I-0.0063 J-0.0136
G1 X68.6971 Y14.6256 Z-0.1298
X68.6956 Y14.6239 Z-0.1293
X68.6942 Y14.6223 Z-0.1284
X68.6936 Y14.6203 Z-0.127
X68.6931 Y14.6185 Z-0.1254
X68.6927 Y14.6169 Z-0.1234
X68.6924 Y14.6158 Z-0.1212
Y14.6152 Z-0.1198
Y14.6146 Z-0.1174
Y14.6144 Z-0.115
G0 Z0.4
X68.622 Y9.0935
Z0.1
G3 X68.5007 Y9.0184 Z0.0605 I-0.0606 J-0.0375 F50.
X68.622 Y9.0935 Z0.021 I0.0606 J0.0375
X68.5007 Z-0.0045 I-0.0606 J-0.0375
X68.5296 Y8.9921 Z-0.0255 I0.0606 J-0.0375
X68.6278 Y9.0302 Z-0.0464 I0.0318 J0.0638
X68.5809 Y9.1245 Z-0.0673 I-0.0665 J0.0258
X68.4913 Y9.069 Z-0.0882 I-0.0195 J-0.0686
X68.5548 Y8.9849 Z-0.1091 I0.0701 J-0.0131
X68.6326 Y9.0559 Z-0.13 I0.0066 J0.071
X68.49 I-0.0713 J0.
X68.6326 I0.0713 J0.
X68.4843 Y9.1818 I-0.0778 J0.0587 F60.
G1 X68.476 Y9.1768
X68.468 Y9.1713
X68.4604 Y9.1653
X68.4532 Y9.1588
X68.4464 Y9.1519
X68.4401 Y9.1446
X68.4342 Y9.1369
X68.4288 Y9.1288
X68.424 Y9.1204
X68.4197 Y9.1117
X68.4159 Y9.1028
X68.4127 Y9.0936
X68.4101 Y9.0843
X68.4081 Y9.0748
X68.4067 Y9.0652
X68.4059 Y9.0556
X68.4057 Y9.0459
X68.4062 Y9.0362
X68.4072 Y9.0265
X68.4089 Y9.017
X68.4111 Y9.0076
X68.4139 Y8.9983
X68.4173 Y8.9892
X68.4213 Y8.9804
X68.4258 Y8.9718
X68.4309 Y8.9636
X68.4365 Y8.9556
X68.4425 Y8.9481
X68.449 Y8.9409
X68.456 Y8.9342
X68.4634 Y8.9279
X68.4711 Y8.9221
X68.4792 Y8.9167
X68.4877 Y8.912
X68.4964 Y8.9077
X68.5053 Y8.904
X68.5145 Y8.9009
X68.5239 Y8.8984
X68.5334 Y8.8964
X68.5429 Y8.8951
X68.5526 Y8.8944
X68.5623 Y8.8943
X68.572 Y8.8948
X68.5816 Y8.8959
X68.5911 Y8.8976
X68.6005 Y8.8999
X68.6098 Y8.9028
X68.6188 Y8.9062
X68.6276 Y8.9103
X68.6362 Y8.9149
X68.6444 Y8.92
X68.6523 Y8.9256
X68.6598 Y8.9317
X68.6669 Y8.9383
X68.6736 Y8.9453
X68.6799 Y8.9527
X68.6856 Y8.9605
X68.6909 Y8.9686
X68.6956 Y8.9771
X68.6998 Y8.9858
X68.7034 Y8.9948
X68.7065 Y9.004
X68.7125 Y9.013
X68.718 Y9.0223
X68.723 Y9.0319
X68.7274 Y9.0418
X68.7312 Y9.0519
X68.7345 Y9.0622
X68.7371 Y9.0727
X68.7392 Y9.0833
X68.7407 Y9.0941
X68.7415 Y9.1048
X68.7418 Y9.1157
X68.7414 Y9.1265
X68.7404 Y9.1373
X68.7388 Y9.148
X68.7366 Y9.1585
X68.7338 Y9.169
X68.7304 Y9.1793
X68.7264 Y9.1893
X68.7219 Y9.1992
X68.7168 Y9.2087
X68.7112 Y9.2179
X68.7051 Y9.2269
X68.6984 Y9.2354
X68.6913 Y9.2436
X68.6838 Y9.2513
X68.6758 Y9.2586
X68.6674 Y9.2654
X68.6586 Y9.2718
X68.6495 Y9.2776
X68.6401 Y9.2829
X68.6304 Y9.2877
X68.6204 Y9.2919
X68.6102 Y9.2955
X68.5998 Y9.2985
X68.5893 Y9.301
X68.5786 Y9.3028
X68.5679 Y9.3041
X68.5571 Y9.3047
X68.5463
X68.5355 Y9.3041
X68.5247 Y9.3029
X68.5141 Y9.3011
X68.5035 Y9.2986
X68.4931 Y9.2956
X68.4829 Y9.292
X68.473 Y9.2878
X68.4632 Y9.2831
X68.4538 Y9.2778
X68.4447 Y9.272
X68.4359 Y9.2657
X68.4275 Y9.2588
X68.4195 Y9.2516
X68.4119 Y9.2439
X68.4021 Y9.2368
X68.3926 Y9.2293
X68.3835 Y9.2213
X68.3748 Y9.2128
X68.3666 Y9.2039
X68.3589 Y9.1946
X68.3516 Y9.1849
X68.3449 Y9.1748
X68.3386 Y9.1644
X68.333 Y9.1537
X68.3278 Y9.1428
X68.3233 Y9.1315
X68.3193 Y9.1201
X68.3159 Y9.1085
X68.3131 Y9.0967
X68.311 Y9.0848
X68.3094 Y9.0728
X68.3085 Y9.0607
X68.3081 Y9.0486
X68.3084 Y9.0365
X68.3094 Y9.0244
X68.3109 Y9.0124
X68.313 Y9.0005
X68.3158 Y8.9887
X68.3192 Y8.977
X68.3231 Y8.9656
X68.3277 Y8.9544
X68.3328 Y8.9434
X68.3384 Y8.9327
X68.3446 Y8.9223
X68.3514 Y8.9122
X68.3586 Y8.9025
X68.3663 Y8.8932
X68.3745 Y8.8843
X68.3832 Y8.8758
X68.3922 Y8.8678
X68.4017 Y8.8602
X68.4115 Y8.8531
X68.4217 Y8.8466
X68.4322 Y8.8406
X68.443 Y8.8351
X68.4541 Y8.8302
X68.4654 Y8.8259
G3 X68.6557 Y9.3727 I0.0894 J0.2754
G1 X68.3144 Y9.2354
X68.3046 Y9.2274
X68.2951 Y9.2189
X68.2861 Y9.2099
X68.2776 Y9.2005
X68.2695 Y9.1907
X68.2618 Y9.1805
X68.2547 Y9.17
X68.2481 Y9.1591
X68.242 Y9.148
X68.2365 Y9.1365
X68.2315 Y9.1248
X68.2271 Y9.1129
X68.2233 Y9.1008
X68.22 Y9.0885
X68.2174 Y9.0761
X68.2153 Y9.0635
X68.2139 Y9.0509
X68.2131 Y9.0382
X68.2128 Y9.0255
X68.2132 Y9.0128
X68.2142 Y9.0001
X68.2159 Y8.9875
X68.2181 Y8.975
X68.2209 Y8.9626
X68.2243 Y8.9504
X68.2283 Y8.9383
X68.2329 Y8.9265
X68.238 Y8.9148
X68.2437 Y8.9035
X68.25 Y8.8924
X68.2567 Y8.8816
X68.264 Y8.8712
X68.2718 Y8.8611
X68.28 Y8.8515
X68.2887 Y8.8422
X68.2978 Y8.8334
X68.3074 Y8.825
X68.3173 Y8.8171
X68.3276 Y8.8096
X68.3263 Y8.7995
X68.328 Y8.7984
X68.3298 Y8.7977
X68.3318 Y8.7975
X68.6396
G3 X68.7086 Y8.795 I0.0387 J0.1169
G1 X68.709 Y8.7955
X68.8951 Y9.1159
G3 X68.7699 Y9.4178 I-0.243 J0.0761
G1 X68.6555 Y9.372
G3 X68.6466 Y9.3599 I0.0061 J-0.0137
X68.6608 Y9.3386 I0.0198 J-0.0022
X68.758 Y9.3908 I0.022 J0.0756
X68.7611 Y9.4057 I-0.0752 J0.0234 F50.
G2 X68.7699 Y9.4178 I0.0149 J-0.0016
G1 X68.8022 Y9.4307 F60.
G2 X68.991 Y9.2811 I0.0137 J-0.1767
G1 X68.8951 Y9.1159
G2 X68.8818 Y9.1089 I-0.0127 J0.008
X68.8588 Y9.1275 I0.0009 J0.0246
X68.9626 Y9.2737 I0.1146 J0.0286
X68.9778 Y9.2741 I0.0109 J-0.1176 F50.
G3 X68.991 Y9.2811 I0.0005 J0.015
G1 X69.0112 Y9.3159 F60.
X69.0174 Y9.3265
G2 X68.8956 Y9.4681 I0.6161 J0.6529
G1 X68.8022 Y9.4307
G0 Z0.4
X68.36 Y9.2361
Z-0.1
G1 Z-0.115 F50.
X68.3597 Z-0.1179
X68.3589 Y9.2362 Z-0.1207
X68.3575 Y9.2365 Z-0.1233
X68.3557 Y9.2367 Z-0.1256
X68.3534 Y9.2371 Z-0.1275
X68.3509 Y9.2375 Z-0.1289
X68.3481 Y9.2379 Z-0.1297
X68.3452 Y9.2384 Z-0.13
G3 X68.3144 Y9.2354 I-0.0097 J-0.0616
G1 X68.2056 Y9.1919 F60.
G3 X68.193 Y8.8251 I0.1629 J-0.1893
G1 X68.1978 Y8.8011
X68.1997 Y8.7992
X68.2021 Y8.7979
X68.2048 Y8.7975
X68.3318
G3 X68.3445 Y8.8054 I-0.0005 J0.015
X68.3413 Y8.8254 I-0.0148 J0.0079
X68.2259 Y8.818 I-0.0543 J-0.057
X68.2175 Y8.8054 I0.0611 J-0.0497 F50.
G2 X68.2048 Y8.7975 I-0.0132 J0.0071
G1 X68.1623 F60.
X68.1513 Y8.8027
X68.1407 Y8.8085
X68.1303 Y8.8148
X68.1203 Y8.8216
X68.1106 Y8.8289
X68.1014 Y8.8367
X68.0925 Y8.845
X68.084 Y8.8537
X68.076 Y8.8628
X68.0685 Y8.8723
X68.0615 Y8.8821
X68.0549 Y8.8924
X68.0489 Y8.9029
X68.0434 Y8.9137
X68.0385 Y8.9248
X68.0342 Y8.9361
X68.0304 Y8.9476
X68.0272 Y8.9593
X68.0246 Y8.9711
X68.0226 Y8.9831
X68.0212 Y8.9951
X68.0204 Y9.0072
X68.0202 Y9.0193
X68.0207 Y9.0315
X68.0217 Y9.0435
X68.0234 Y9.0555
X68.0256 Y9.0674
X68.0285 Y9.0792
X68.0319 Y9.0908
X68.036 Y9.1023
X68.0406 Y9.1135
X68.0457 Y9.1245
X68.0446 Y9.1275
X68.1983 Y9.189
G2 X68.213 Y9.1863 I0.0051 J-0.0141
X68.2137 Y9.1266 I-0.0254 J-0.0301
X68.0716 Y9.1158 I-0.0782 J0.0885
X68.0594 Y9.1248 I0.0639 J0.0993 F50.
G3 X68.0446 Y9.1275 I-0.0097 J-0.0115
G1 X68.0054 Y9.1118 F60.
G3 X68.0038 Y8.7975 I0.1563 J-0.158
G1 X68.1623
G3 X68.175 Y8.8054 I-0.0005 J0.015
X68.1483 Y8.8647 I-0.0363 J0.0193
X68.0245 Y8.8183 I-0.0275 J-0.1149
X68.0165 Y8.8054 I0.0962 J-0.0685 F50.
G2 X68.0038 Y8.7975 I-0.0132 J0.0071
G1 X67.966 F60.
G2 X67.8578 Y9.0527 I0.0693 J0.1799
G1 X68.0054 Y9.1118
G2 X68.0202 Y9.1091 I0.0051 J-0.0141
X68.0177 Y9.0445 I-0.0264 J-0.0313
X67.8848 Y9.041 I-0.0691 J0.0958
X67.8726 Y9.05 I0.0639 J0.0993 F50.
G3 X67.8578 Y9.0527 I-0.0097 J-0.0115
G1 X67.8266 Y9.0402 F60.
G3 X67.8108 Y8.7975 I0.0976 J-0.1283
G1 X67.966
G3 X67.9787 Y8.8054 I-0.0005 J0.015
X67.9498 Y8.8659 I-0.0367 J0.0196
X67.8315 Y8.8183 I-0.0221 J-0.116
X67.8235 Y8.8054 I0.0962 J-0.0685 F50.
G2 X67.8108 Y8.7975 I-0.0132 J0.0071
G1 X67.7732 F60.
G2 X67.6833 Y8.9828 I0.0433 J0.1354
G1 X67.8266 Y9.0402
G2 X67.8414 Y9.0376 I0.0051 J-0.0141
X67.8365 Y8.9702 I-0.0269 J-0.0319
X67.7103 Y8.9712 I-0.0623 J0.1003
X67.6981 Y8.9802 I0.0639 J0.0993 F50.
G3 X67.6833 Y8.9828 I-0.0097 J-0.0115
G1 X67.6513 Y8.97 F60.
X67.6446 Y8.9647
X67.6383 Y8.959
X67.6324 Y8.9528
X67.627 Y8.9462
X67.6221 Y8.9392
X67.6177 Y8.9319
X67.6139 Y8.9243
X67.6106 Y8.9164
X67.6078 Y8.9084
X67.6057 Y8.9001
X67.6042 Y8.8917
X67.6032 Y8.8833
X67.6029 Y8.8747
X67.6032 Y8.8662
X67.6041 Y8.8577
X67.6056 Y8.8494
X67.6077 Y8.8411
X67.6104 Y8.833
X67.6137 Y8.8252
X67.6175 Y8.8175
X67.6219 Y8.8102
X67.6268 Y8.8032
X67.6322 Y8.7966
X67.7732 Y8.7975
G3 X67.7876 Y8.813 I-0.0005 J0.015
X67.7754 Y8.8307 I-0.0199 J-0.0007
X67.6577 Y8.8151 I-0.0454 J-0.109
X67.6436 Y8.8022 I0.0723 J-0.0934 F50.
G2 X67.6331 Y8.7975 I-0.011 J0.0102
G1 X67.6048 F60.
X67.5972 Y8.7992
X67.5897 Y8.8015
X67.5824 Y8.8045
X67.5754 Y8.808
X67.5687 Y8.812
X67.5624 Y8.8166
X67.5564 Y8.8217
X67.5508 Y8.8272
X67.5457 Y8.8332
X67.5411 Y8.8395
X67.537 Y8.8462
X67.5334 Y8.8532
X67.5305 Y8.8604
X67.5281 Y8.8679
X67.5263 Y8.8755
X67.5251 Y8.8832
X67.5245 Y8.8911
X67.5246 Y8.8989
X67.5253 Y8.9067
X67.5266 Y8.9144
X67.5285 Y8.922
X67.6513 Y8.97
G2 X67.666 Y8.9674 I0.0051 J-0.0141
X67.6702 Y8.9536 I-0.0085 J-0.01
X67.5575 Y8.9103 I-0.0745 J0.0255
X67.5449 Y8.9189 I0.0382 J0.0688 F50.
G3 X67.5302 Y8.9215 I-0.0097 J-0.0115
G1 X67.5092 Y8.9131 F60.
G3 X67.4819 Y8.7962 I0.039 J-0.0707
G1 X67.4849 Y8.7965
X67.4877 Y8.7972
X67.4904 Y8.7985
X67.4927 Y8.8003
X67.4947 Y8.8024
X67.4962 Y8.8048
X67.4972 Y8.8074
X67.5016 Y8.8197
X67.5284 Y8.8939
X67.5291 Y8.8968
G3 X67.5092 Y8.9131 I-0.0149 J0.0021 F50.
G1 X67.4436 Y8.8869 F60.
G3 X67.4277 Y8.8472 I0.0067 J-0.0257
G1 X67.4215 Y8.824
X67.419 Y8.817
X67.4185 Y8.8155
X67.4168 Y8.8097
X67.4166 Y8.8065
X67.4175 Y8.802
X67.4206 Y8.7987
X67.4249 Y8.7975
G3 X67.4343 Y8.7992 I-0.0011 J0.0312
X67.4421 Y8.8145 I-0.0042 J0.0117
X67.4185 Y8.8155 I-0.0119 J-0.0036 F50.
G1 X67.4124 Y8.7979 F60.
X67.4129 Y8.7975
X67.6048
G3 X67.6176 Y8.8056 I-0.0005 J0.015
G1 X67.6182 Y8.8078 Z-0.1298
X67.6188 Y8.81 Z-0.1293
X67.6193 Y8.8121 Z-0.1284
X67.6188 Y8.8144 Z-0.1269
X67.6184 Y8.8163 Z-0.1251
X67.618 Y8.8179 Z-0.1229
X67.6178 Y8.819 Z-0.1205
X67.6174 Y8.8197 Z-0.1178
X67.6173 Y8.82 Z-0.115
G0 Z0.4
X68.5768 Y10.9178
Z0.1
G3 X68.4732 Y10.9371 Z0.0791 I-0.0606 J-0.0375 F50.
X68.4634 Y10.8322 Z0.0582 I0.043 J-0.0569
X68.5688 Z0.0373 I0.0527 J0.048
X68.5591 Y10.9371 Z0.0164 I-0.0527 J0.048
X68.4555 Y10.9178 Z-0.0045 I-0.043 J-0.0569
X68.4844 Y10.8164 Z-0.0255 I0.0606 J-0.0375
X68.5826 Y10.8545 Z-0.0464 I0.0318 J0.0638
X68.5356 Y10.9488 Z-0.0673 I-0.0665 J0.0258
X68.4461 Y10.8933 Z-0.0882 I-0.0195 J-0.0686
X68.5096 Y10.8092 Z-0.1091 I0.0701 J-0.0131
X68.5874 Y10.8802 Z-0.13 I0.0066 J0.071
X68.4448 I-0.0713 J0.
X68.5874 I0.0713 J0.
X68.4391 Y11.0061 I-0.0778 J0.0587 F60.
G1 X68.4308 Y11.0011
X68.4228 Y10.9956
X68.4152 Y10.9896
X68.408 Y10.9831
X68.4012 Y10.9762
X68.3949 Y10.9689
X68.389 Y10.9612
X68.3836 Y10.9531
X68.3788 Y10.9447
X68.3745 Y10.936
X68.3707 Y10.9271
X68.3675 Y10.9179
X68.3649 Y10.9086
X68.3629 Y10.8991
X68.3615 Y10.8895
X68.3607 Y10.8799
X68.3605 Y10.8702
X68.361 Y10.8605
X68.362 Y10.8509
X68.3636 Y10.8413
X68.3659 Y10.8319
X68.3687 Y10.8226
X68.3721 Y10.8135
X68.3761 Y10.8047
X68.3806 Y10.7961
X68.3857 Y10.7879
X68.3913 Y10.7799
X68.3973 Y10.7724
X68.4038 Y10.7652
X68.4108 Y10.7585
X68.4182 Y10.7522
X68.4259 Y10.7464
X68.434 Y10.7411
X68.4425 Y10.7363
X68.4512 Y10.732
X68.4601 Y10.7283
X68.4693 Y10.7252
X68.4787 Y10.7227
X68.4881 Y10.7207
X68.4977 Y10.7194
X68.5074 Y10.7187
X68.5171 Y10.7186
X68.5268 Y10.7191
X68.5364 Y10.7202
X68.5459 Y10.7219
X68.5553 Y10.7242
X68.5646 Y10.7271
X68.5736 Y10.7306
X68.5824 Y10.7346
X68.591 Y10.7392
X68.5992 Y10.7443
X68.6071 Y10.7499
X68.6146 Y10.756
X68.6217 Y10.7626
X68.6284 Y10.7696
X68.6347 Y10.777
X68.6404 Y10.7848
X68.6457 Y10.793
X68.6504 Y10.8014
X68.6546 Y10.8101
X68.6582 Y10.8191
X68.6613 Y10.8283
X68.6673 Y10.8373
X68.6728 Y10.8466
X68.6778 Y10.8562
X68.6822 Y10.8661
X68.686 Y10.8762
X68.6893 Y10.8866
X68.6919 Y10.897
X68.694 Y10.9077
X68.6955 Y10.9184
X68.6963 Y10.9292
X68.6966 Y10.94
X68.6962 Y10.9508
X68.6952 Y10.9616
X68.6936 Y10.9723
X68.6914 Y10.9829
X68.6886 Y10.9933
X68.6852 Y11.0036
X68.6812 Y11.0136
X68.6767 Y11.0235
X68.6716 Y11.033
X68.666 Y11.0423
X68.6598 Y11.0512
X68.6532 Y11.0597
X68.6461 Y11.0679
X68.6385 Y11.0756
X68.6306 Y11.0829
X68.6222 Y11.0897
X68.6134 Y11.0961
X68.6043 Y11.1019
X68.5949 Y11.1072
X68.5851 Y11.112
X68.5752 Y11.1162
X68.565 Y11.1198
X68.5546 Y11.1229
X68.5441 Y11.1253
X68.5334 Y11.1271
X68.5227 Y11.1284
X68.5119 Y11.129
X68.5011
X68.4903 Y11.1284
X68.4795 Y11.1272
X68.4688 Y11.1254
X68.4583 Y11.123
X68.4479 Y11.1199
X68.4377 Y11.1163
X68.4277 Y11.1121
X68.418 Y11.1074
X68.4086 Y11.1021
X68.3995 Y11.0963
X68.3907 Y11.09
X68.3823 Y11.0832
X68.3743 Y11.0759
X68.3667 Y11.0682
X68.3569 Y11.0611
X68.3474 Y11.0536
X68.3383 Y11.0456
X68.3296 Y11.0371
X68.3214 Y11.0282
X68.3137 Y11.0189
X68.3064 Y11.0092
X68.2997 Y10.9991
X68.2934 Y10.9887
X68.2878 Y10.9781
X68.2826 Y10.9671
X68.2781 Y10.9559
X68.2741 Y10.9444
X68.2707 Y10.9328
X68.2679 Y10.921
X68.2658 Y10.9091
X68.2642 Y10.8971
X68.2632 Y10.885
X68.2629 Y10.8729
X68.2632 Y10.8608
X68.2641 Y10.8487
X68.2657 Y10.8367
X68.2678 Y10.8248
X68.2706 Y10.813
X68.274 Y10.8014
X68.2779 Y10.7899
X68.2825 Y10.7787
X68.2876 Y10.7677
X68.2932 Y10.757
X68.2994 Y10.7466
X68.3062 Y10.7365
X68.3134 Y10.7268
X68.3211 Y10.7175
X68.3293 Y10.7086
X68.338 Y10.7001
X68.347 Y10.6921
X68.3565 Y10.6845
X68.3663 Y10.6775
X68.3765 Y10.6709
X68.387 Y10.6649
X68.3978 Y10.6594
X68.4089 Y10.6545
X68.4202 Y10.6502
G3 X68.5956 Y11.205 I0.0877 J0.2774
X68.3861 Y11.1918 I-0.0877 J-0.2774
X68.4239 Y10.5476 I0.1196 J-0.3162
G1 X68.4392 Y10.5447
X68.4546 Y10.5425
X68.4701 Y10.5408
X68.4856 Y10.5397
X68.5012 Y10.5393
X68.5167 Y10.5395
X68.5323 Y10.5403
X68.5478 Y10.5418
X68.5632 Y10.5438
X68.5786 Y10.5465
X68.5938 Y10.5498
X68.6089 Y10.5537
X68.6238 Y10.5582
X68.6385 Y10.5633
X68.653 Y10.569
X68.6673 Y10.5752
X68.6813 Y10.582
X68.695 Y10.5894
X68.7084 Y10.5973
X68.7215 Y10.6057
X68.7342 Y10.6147
X68.7466 Y10.6242
X68.7585 Y10.6341
X68.7701 Y10.6445
X68.7813 Y10.6554
X68.792 Y10.6667
X68.8022 Y10.6784
X68.812 Y10.6906
X68.8212 Y10.7031
X68.83 Y10.7159
X68.8382 Y10.7292
X68.8459 Y10.7427
X68.8531 Y10.7565
X68.8597 Y10.7706
X68.8657 Y10.785
X68.8712 Y10.7996
X68.876 Y10.8143
X68.8803 Y10.8293
X68.884 Y10.8445
X68.887 Y10.8597
X68.8895 Y10.8751
X68.8913 Y10.8906
X68.8925 Y10.9061
X68.8931 Y10.9216
X68.893 Y10.9372
X68.8924 Y10.9528
X68.8911 Y10.9683
X68.8892 Y10.9837
X68.8867 Y10.9991
X68.8835 Y11.0144
X68.8798 Y11.0295
X68.8754 Y11.0444
X68.8705 Y11.0592
X68.865 Y11.0737
X68.8589 Y11.0881
X68.8522 Y11.1021
X68.845 Y11.1159
X68.8372 Y11.1294
X68.8289 Y11.1426
X68.8201 Y11.1554
X68.8107 Y11.1679
X68.8009 Y11.1799
X68.7906 Y11.1916
X68.7798 Y11.2029
X68.7686 Y11.2137
X68.757 Y11.2241
X68.745 Y11.2339
X68.7326 Y11.2433
X68.7198 Y11.2522
X68.7067 Y11.2606
X68.6932 Y11.2684
X68.6795 Y11.2757
X68.6654 Y11.2825
X68.6511 Y11.2886
X68.6366 Y11.2942
X68.6219 Y11.2993
X68.6069 Y11.3037
X68.5918 Y11.3075
X68.5766 Y11.3107
X68.5612 Y11.3133
X68.5458 Y11.3153
X68.5303 Y11.3166
X68.5147 Y11.3174
X68.4992 Y11.3175
X68.4836 Y11.317
X68.4681 Y11.3159
X68.4526 Y11.3141
X68.4372 Y11.3117
X68.4219 Y11.3088
X68.4068 Y11.3052
X68.3918 Y11.301
X68.377 Y11.2962
X68.3624 Y11.2908
X68.348 Y11.2849
X68.3339 Y11.2783
X68.32 Y11.2713
X68.3064 Y11.2636
X68.2932 Y11.2554
X68.2803 Y11.2467
X68.2677 Y11.2375
X68.2555 Y11.2278
X68.2437 Y11.2177
X68.2324 Y11.207
X68.2215 Y11.1959
G3 X68.0723 Y10.8748 I0.2386 J-0.306
X68.9619 Y10.8027 I0.4485 J0.0098
G1 X68.967 Y10.8183
X68.9715 Y10.8341
X68.9754 Y10.8501
X68.9788 Y10.8662
X68.9815 Y10.8824
X68.9837 Y10.8987
X68.9852 Y10.9151
X68.9861 Y10.9315
X68.9865 Y10.9479
X68.9862 Y10.9644
X68.9853 Y10.9808
X68.9839 Y10.9972
X68.9818 Y11.0135
X68.9791 Y11.0297
X68.9759 Y11.0458
X68.972 Y11.0618
X68.9676 Y11.0776
X68.9625 Y11.0933
X68.957 Y11.1088
X68.9508 Y11.124
X68.9441 Y11.139
X68.9368 Y11.1538
X68.929 Y11.1683
X68.9207 Y11.1824
X68.9119 Y11.1963
X68.9025 Y11.2098
X68.8927 Y11.223
X68.8824 Y11.2358
X68.8716 Y11.2483
X68.8604 Y11.2603
X68.8487 Y11.2719
X68.8367 Y11.283
X68.8242 Y11.2937
X68.8113 Y11.304
X68.7981 Y11.3137
X68.7845 Y11.323
X68.7706 Y11.3318
X68.7564 Y11.34
X68.7419 Y11.3478
X68.7271 Y11.3549
X68.712 Y11.3616
G3 X68.1186 Y11.2429 I-0.218 J-0.4529
G1 X68.046 Y11.1343
G3 X68.3201 Y10.3771 I0.4584 J-0.2623
G1 X68.477 Y10.3455
X68.4958 Y10.3446
X68.5146 Y10.3442
X68.5334 Y10.3445
X68.5522 Y10.3454
X68.571 Y10.3469
X68.5897 Y10.3491
X68.6083 Y10.3519
X68.6268 Y10.3553
X68.6452 Y10.3593
X68.6635 Y10.3639
X68.6816 Y10.3691
X68.6995 Y10.3749
X68.7172 Y10.3814
X68.7346 Y10.3884
X68.7519 Y10.3959
X68.7688 Y10.4041
X68.7855 Y10.4128
X68.8019 Y10.422
X68.818 Y10.4318
X68.8337 Y10.4421
X68.8491 Y10.453
X68.8642 Y10.4643
X68.8788 Y10.4761
X68.893 Y10.4885
X68.9069 Y10.5012
X68.9202 Y10.5145
X68.9332 Y10.5282
X68.9457 Y10.5422
X68.9577 Y10.5567
X68.9692 Y10.5716
X68.9802 Y10.5869
X68.9907 Y10.6025
X69.0007 Y10.6185
X69.0101 Y10.6348
X69.019 Y10.6514
X69.0273 Y10.6683
X69.0351 Y10.6854
X69.0423 Y10.7028
X69.0489 Y10.7204
X69.0549 Y10.7382
X69.0603 Y10.7563
X69.0652 Y10.7745
X69.0694 Y10.7928
X69.073 Y10.8113
X69.076 Y10.8299
X69.0784 Y10.8485
X69.0801 Y10.8673
X68.945 Y11.2748
G3 X68.7245 Y11.4629 I-0.3443 J-0.1803
G2 X68.4187 Y11.4584 I-0.1577 J0.3182
G3 X68.2564 Y11.4533 I-0.0756 J-0.1816
X68.2683 Y11.4305 I0.0128 J-0.0078
G1 X68.4115 Y11.4308
X68.4143 Y11.431
X68.417 Y11.4318
X68.4195 Y11.4331
G3 X68.4189 Y11.4588 I-0.008 J0.0127 F50.
G2 X68.3376 Y11.5112 I0.0854 J0.2218 F60.
G3 X68.303 Y11.524 I-0.0226 J-0.008
X68.3036 Y11.5074 I0.0128 J-0.0078
G1 X68.3114 Y11.4966
X68.315 Y11.4916
G3 X68.3319 Y11.4861 I0.0122 J0.0088
X68.3376 Y11.5112 I-0.0046 J0.0143 F50.
G1 X68.311 Y11.5351 F60.
X68.3105 Y11.5353
X68.118 Y11.2435
G3 X68.1299 Y11.2207 I0.0128 J-0.0078
G1 X68.1328 Y11.2205 Z-0.1297
X68.1356 Y11.2203 Z-0.1289
X68.1382 Y11.2202 Z-0.1275
X68.1405 Y11.22 Z-0.1256
X68.1424 Y11.2199 Z-0.1233
X68.1437 Y11.2198 Z-0.1207
X68.1446 Z-0.1179
X68.1449 Z-0.115
G0 Z-0.1
X68.9431 Y11.2292
G1 Z-0.115 F50.
Y11.2295 Z-0.1179
X68.9433 Y11.2303 Z-0.1207
X68.9436 Y11.2317 Z-0.1233
X68.944 Y11.2335 Z-0.1256
X68.9445 Y11.2357 Z-0.1275
X68.945 Y11.2383 Z-0.1289
X68.9456 Y11.241 Z-0.1297
X68.9462 Y11.2439 Z-0.13
G3 X68.945 Y11.2748 I-0.0609 J0.0131
G1 X68.8903 Y11.4373 F60.
G3 X68.809 Y11.5198 I-0.1085 J-0.0256
X68.8082 Y11.5012 I0.0114 J-0.0098
G1 X68.8146 Y11.4924
X68.8637 Y11.4243
G3 X68.8729 Y11.4183 I0.0122 J0.0088
X68.8903 Y11.4373 I0.003 J0.0147 F50.
G1 X68.8555 Y11.5407 F60.
X68.8533 Y11.5463
X68.8512 Y11.55
X68.8485 Y11.5529
X68.8447 Y11.5542
X68.8408 Y11.5537
X68.8376 Y11.5514
G3 X68.8321 Y11.5436 I0.0499 J-0.0411
X68.8366 Y11.5259 I0.0111 J-0.0066
X68.8555 Y11.5407 I0.0066 J0.0111 F50.
G1 X68.8492 Y11.5595 F60.
X68.8481 Y11.5626
X68.8479 Y11.563
G2 X68.7245 Y11.4629 I-0.2992 J0.2426
G3 X68.7218 Y11.4373 I0.0063 J-0.0136
G1 X68.7241 Y11.4355 Z-0.1297
X68.7263 Y11.4338 Z-0.1289
X68.7284 Y11.4323 Z-0.1275
X68.7302 Y11.4309 Z-0.1256
X68.7317 Y11.4298 Z-0.1233
X68.7328 Y11.4289 Z-0.1207
X68.7335 Y11.4284 Z-0.1179
X68.7337 Y11.4283 Z-0.115
G0 Z-0.1
X69.0532 Y10.9022
G1 Z-0.115 F50.
X69.0534 Y10.902 Z-0.1179
X69.054 Y10.9015 Z-0.1207
X69.0551 Y10.9006 Z-0.1233
X69.0565 Y10.8994 Z-0.1256
X69.0582 Y10.8979 Z-0.1275
X69.0602 Y10.8962 Z-0.1289
X69.0623 Y10.8944 Z-0.1297
X69.0646 Y10.8925 Z-0.13
G2 X69.0823 Y10.8671 I-0.0406 J-0.0473
G1 X69.1213 Y10.7512 F60.
G2 X69.107 Y10.6294 I-0.1347 J-0.0459
G3 X68.872 Y10.3802 I0.4562 J-0.6654
G2 X68.7553 Y10.291 I-0.2009 J0.1419
G1 X68.477 Y10.3455
G2 X68.4837 Y10.3748 I0.0034 J0.0146
X68.495 Y10.3567 I-0.0034 J-0.0146
X68.4768 Y10.3456 I-0.0146 J0.0035
G1 X68.3418 Y10.3785
G2 X68.3489 Y10.4076 I0.0036 J0.0146
X68.3505 Y10.3789 I-0.0036 J-0.0146
X68.3197 Y10.376 I-0.0211 J0.0586 F50.
G1 X68.1286 Y10.413 F60.
G2 X67.8959 Y10.7395 I0.2061 J0.3931
G3 X67.9732 Y11.024 I-0.4901 J0.286
G1 X68.046 Y11.1343
G3 X68.0434 Y11.1229 I0.0122 J-0.0087
G1 X68.0468 Y11.1043
X68.1691 Y10.4328
G2 X68.1594 Y10.4159 I-0.0148 J-0.0027
X68.1286 Y10.413 I-0.0211 J0.0586 F50.
G1 X67.9892 Y10.44 F60.
G2 X67.821 Y10.6575 I0.1146 J0.2625
G3 X67.8819 Y10.7185 I-0.5114 J0.5719
G2 X67.9075 Y10.708 I0.0107 J-0.0106
X67.8782 Y10.664 I-0.0474 J-0.0002
X67.8513 Y10.6581 I-0.03 J0.0728
X67.8323 Y10.6597 I-0.003 J0.0787 F50.
G3 X67.821 Y10.6575 I-0.003 J-0.0147
G1 X67.8034 Y10.6451 F60.
G3 X67.8035 Y10.476 I0.0965 J-0.0845
G1 X67.9892 Y10.44
G3 X68.0021 Y10.4656 I0.0023 J0.0148
G1 X67.8296 Y10.6349
X67.8215 Y10.6428 F50.
G3 X67.8034 Y10.6451 I-0.0105 J-0.0107
G1 X67.7507 Y10.6119 F60.
X67.7422 Y10.6072
G3 X67.7048 Y10.4938 I0.057 J-0.0817
G1 X67.8035 Y10.476
G3 X67.8175 Y10.4814 I0.0023 J0.0148
X67.8028 Y10.5266 I-0.022 J0.0178
X67.7321 Y10.5109 I-0.0202 J-0.0761
X67.7214 Y10.5 I0.0505 J-0.0604 F50.
G2 X67.7074 Y10.4947 I-0.0117 J0.0095
G1 X67.6873 Y10.4986 F60.
G2 X67.6438 Y10.5767 I0.018 J0.0611
G3 X67.7422 Y10.6072 I-0.107 J0.5187
G2 X67.7616 Y10.5985 I0.0053 J-0.014
X67.7513 Y10.5669 I-0.0247 J-0.0094
X67.674 Y10.5621 I-0.043 J0.066
X67.6579 Y10.5724 I0.0343 J0.0709 F50.
G3 X67.647 Y10.5758 I-0.0096 J-0.0115
G1 X67.6408 Y10.575 F60.
X67.6338 Y10.5743
G3 X67.5986 Y10.5143 I0.0084 J-0.0452
G1 X67.6873 Y10.4986
G3 X67.6993 Y10.5249 I0.0023 J0.0148
G1 X67.6594 Y10.5584
X67.6446 Y10.5708 F50.
G3 X67.6338 Y10.5743 I-0.0097 J-0.0115
G1 X67.5944 Y10.5698 F60.
X67.5874 Y10.5691
G3 X67.5507 Y10.525 I-0.0054 J-0.0328
G1 X67.6013 Y10.5152
G3 X67.6153 Y10.5206 I0.0023 J0.0148
X67.6094 Y10.5424 I-0.0108 J0.0088
X67.5763 Y10.5401 I-0.0141 J-0.0368
X67.5647 Y10.5304 I0.019 J-0.0345 F50.
G2 X67.5507 Y10.525 I-0.0117 J0.0095
G1 X67.5382 Y10.5274 F60.
X67.5345 Y10.5283
X67.5309 Y10.5298
X67.5276 Y10.5317
X67.5246 Y10.534
X67.522 Y10.5368
X67.5198 Y10.54
X67.5181 Y10.5434
X67.5169 Y10.547
X67.5162 Y10.5508
X67.5161 Y10.5546
X67.5165 Y10.5584
X67.5175 Y10.5621
X67.5189 Y10.5656
X67.5209 Y10.5689
X67.5479 Y10.5674
X67.5712
X67.5874 Y10.5691
G2 X67.592 Y10.5396 I0.001 J-0.015
G1 X67.5683 Y10.5337
X67.5442 Y10.5277 F50.
X67.5412 Y10.5273
X67.5382 Y10.5274
X67.5015 Y10.5346 F60.
X67.4956 Y10.536
X67.4905 Y10.539
X67.4859 Y10.5429
X67.4821 Y10.5476
X67.4791 Y10.5527
X67.4778 Y10.5558
X67.4772 Y10.5599
X67.4786 Y10.5637
X67.4816 Y10.5664
X67.4856 Y10.5674
X67.5231
G2 X67.5358 Y10.5594 I-0.0005 J-0.015
X67.5198 Y10.5409 I-0.0116 J-0.0062
X67.5078 Y10.5477 I0.0133 J0.0371
X67.4983 Y10.5594 I0.0252 J0.0303 F50.
G3 X67.4856 Y10.5674 I-0.0132 J-0.0071
G1 X67.4744 F60.
X67.4684 Y10.5671
X67.4629 Y10.5646
X67.4582 Y10.5608
X67.4544 Y10.5562
X67.4537 Y10.5551
X67.4527 Y10.5513
X67.4534 Y10.5474
X67.4559 Y10.5443
X67.4594 Y10.5427
G3 X67.4776 Y10.5441 I0.0061 J0.0389
X67.4798 Y10.5451 I-0.0036 J0.0113
X67.4744 Y10.5674 I-0.0058 J0.0104 F50.
G1 X67.448 F60.
X67.442 Y10.5671
X67.4363 Y10.565
X67.4314 Y10.5617
X67.431 Y10.5613
X67.429 Y10.5574
X67.4292 Y10.553
X67.4316 Y10.5493
X67.4355 Y10.5473
G3 X67.4476 I0.0061 J0.0389
G1 X67.4497 Y10.5477 F50.
G3 X67.448 Y10.5674 I-0.002 J0.0097
G1 X67.4244 F60.
X67.4225
X67.4211
X67.4151 Y10.5671
X67.4142 Y10.5661
X67.4138 Y10.5649
X67.414 Y10.5635
G3 X67.416 Y10.5592 I0.0494 J0.0209 F50.
X67.4258 Y10.5644 I0.0049 J0.0026
X67.4211 Y10.5674 I-0.0049 J-0.0026
G1 X67.4132 F60.
X67.4127 Y10.5669
X67.4162 Y10.5577
X67.4178 Y10.5538
X67.4191 Y10.5513
X67.4196 Y10.5507
X67.4208 Y10.5503
X67.4213 Y10.5501
X67.4318 Y10.5481
X67.5015 Y10.5346
G3 X67.5156 Y10.5401 I0.0023 J0.0148
G1 X67.5166 Y10.5422 Z-0.1298
X67.5176 Y10.5443 Z-0.1293
X67.5185 Y10.5462 Z-0.1284
X67.5187 Y10.5479 Z-0.1274
X67.5188 Y10.5494 Z-0.1262
X67.5185 Y10.5511 Z-0.1243
X67.5183 Y10.5525 Z-0.1222
X67.5181 Y10.5535 Z-0.1199
X67.518 Y10.5541 Z-0.1175
Y10.5543 Z-0.115
G0 Z0.4
X68.8821 Y10.4247
Z-0.1
G1 Z-0.115 F50.
Y10.4245 Z-0.1179
Y10.4236 Z-0.1207
X68.882 Y10.4222 Z-0.1233
X68.8819 Y10.4204 Z-0.1256
X68.8817 Y10.4181 Z-0.1275
X68.8816 Y10.4155 Z-0.1289
X68.8814 Y10.4127 Z-0.1297
X68.8812 Y10.4098 Z-0.13
G2 X68.8718 Y10.3803 I-0.0622 J0.0036
X68.818 Y10.2794 I-0.2204 J0.0528 F60.
G1 X68.755 Y10.2916
G2 X68.7439 Y10.3024 I0.0034 J0.0146
G1 X68.7432 Y10.3052 Z-0.1297
X68.7424 Y10.3079 Z-0.1289
X68.7418 Y10.3104 Z-0.1275
X68.7412 Y10.3126 Z-0.1256
X68.7407 Y10.3144 Z-0.1233
X68.7403 Y10.3158 Z-0.1207
X68.7401 Y10.3166 Z-0.1179
X68.74 Y10.3169 Z-0.115
G0 Z-0.1
X69.0922 Y10.7863
G1 Z-0.115 F50.
X69.0924 Y10.7861 Z-0.1179
X69.0931 Y10.7856 Z-0.1207
X69.0941 Y10.7847 Z-0.1233
X69.0955 Y10.7835 Z-0.1256
X69.0973 Y10.782 Z-0.1275
X69.0992 Y10.7803 Z-0.1289
X69.1014 Y10.7784 Z-0.1297
X69.1036 Y10.7765 Z-0.13
G2 X69.1213 Y10.7512 I-0.0406 J-0.0473
G1 X69.1518 Y10.6606 F60.
G2 X69.107 Y10.6294 I-0.1082 J0.1079
G1 X69.1059 Y10.6288
X69.1036 Y10.6282 Z-0.1298
X69.1014 Y10.6277 Z-0.1293
X69.0994 Y10.6271 Z-0.1284
X69.0971 Y10.6276 Z-0.1268
X69.0951 Y10.628 Z-0.1249
X69.0935 Y10.6284 Z-0.1227
X69.0923 Y10.6286 Z-0.1201
X69.0917 Y10.6289 Z-0.1176
X69.0915 Y10.6291 Z-0.115
G0 Z0.4
X69.3244 Y15.1975
Z0.1
G3 X69.2208 Y15.2169 Z0.0791 I-0.0606 J-0.0375 F50.
X69.2111 Y15.1119 Z0.0582 I0.043 J-0.0569
X69.3165 Y15.112 Z0.0373 I0.0527 J0.048
X69.3067 Y15.2169 Z0.0164 I-0.0527 J0.048
X69.2031 Y15.1975 Z-0.0045 I-0.043 J-0.0569
X69.232 Y15.0962 Z-0.0255 I0.0606 J-0.0375
X69.3303 Y15.1342 Z-0.0464 I0.0318 J0.0638
X69.2833 Y15.2286 Z-0.0673 I-0.0665 J0.0258
X69.1937 Y15.1731 Z-0.0882 I-0.0195 J-0.0686
X69.2572 Y15.089 Z-0.1091 I0.0701 J-0.0131
X69.3351 Y15.16 Z-0.13 I0.0066 J0.071
X69.1925 I-0.0713 J0.
X69.3351 I0.0713 J0.
X69.1867 Y15.2859 I-0.0778 J0.0587 F60.
G1 X69.1784 Y15.2809
X69.1704 Y15.2753
X69.1628 Y15.2693
X69.1556 Y15.2629
X69.1488 Y15.256
X69.1425 Y15.2486
X69.1366 Y15.2409
X69.1313 Y15.2328
X69.1264 Y15.2244
X69.1221 Y15.2158
X69.1183 Y15.2068
X69.1152 Y15.1977
X69.1126 Y15.1883
X69.1106 Y15.1789
X69.1092 Y15.1693
X69.1084 Y15.1596
X69.1082 Y15.1499
X69.1086 Y15.1402
X69.1096 Y15.1306
X69.1113 Y15.1211
X69.1135 Y15.1116
X69.1164 Y15.1024
X69.1198 Y15.0933
X69.1237 Y15.0844
X69.1283 Y15.0759
X69.1333 Y15.0676
X69.1389 Y15.0597
X69.1449 Y15.0521
X69.1515 Y15.045
X69.1584 Y15.0382
X69.1658 Y15.0319
X69.1736 Y15.0261
X69.1817 Y15.0208
X69.1901 Y15.016
X69.1988 Y15.0118
X69.2078 Y15.0081
X69.2169 Y15.005
X69.2263 Y15.0024
X69.2358 Y15.0005
X69.2454 Y14.9992
X69.255 Y14.9984
X69.2647 Y14.9983
X69.2744 Y14.9988
X69.284 Y14.9999
X69.2936 Y15.0016
X69.303 Y15.0039
X69.3122 Y15.0068
X69.3213 Y15.0103
X69.3301 Y15.0143
X69.3386 Y15.0189
X69.3468 Y15.024
X69.3547 Y15.0297
X69.3622 Y15.0358
X69.3694 Y15.0423
X69.3761 Y15.0493
X69.3823 Y15.0568
X69.388 Y15.0646
X69.3933 Y15.0727
X69.398 Y15.0812
X69.4022 Y15.0899
X69.4058 Y15.0989
X69.4089 Y15.1081
X69.4149 Y15.1171
X69.4204 Y15.1264
X69.4254 Y15.136
X69.4298 Y15.1459
X69.4336 Y15.156
X69.4369 Y15.1663
X69.4396 Y15.1768
X69.4416 Y15.1874
X69.4431 Y15.1981
X69.444 Y15.2089
X69.4442 Y15.2197
X69.4438 Y15.2305
X69.4428 Y15.2413
X69.4412 Y15.252
X69.439 Y15.2626
X69.4362 Y15.2731
X69.4328 Y15.2833
X69.4289 Y15.2934
X69.4243 Y15.3032
X69.4192 Y15.3128
X69.4136 Y15.322
X69.4075 Y15.3309
X69.4008 Y15.3395
X69.3937 Y15.3476
X69.3862 Y15.3553
X69.3782 Y15.3626
X69.3698 Y15.3695
X69.361 Y15.3758
X69.3519 Y15.3817
X69.3425 Y15.387
X69.3328 Y15.3917
X69.3228 Y15.3959
X69.3126 Y15.3996
X69.3022 Y15.4026
X69.2917 Y15.405
X69.281 Y15.4069
X69.2703 Y15.4081
X69.2595 Y15.4088
X69.2487
X69.2379 Y15.4082
X69.2271 Y15.4069
X69.2165 Y15.4051
X69.2059 Y15.4027
X69.1955 Y15.3997
X69.1854 Y15.3961
X69.1754 Y15.3919
X69.1657 Y15.3871
X69.1562 Y15.3819
X69.1471 Y15.376
X69.1383 Y15.3697
X69.1299 Y15.3629
X69.1219 Y15.3556
X69.1143 Y15.3479
X69.1045 Y15.3409
X69.095 Y15.3333
X69.0859 Y15.3253
X69.0773 Y15.3168
X69.0691 Y15.3079
X69.0613 Y15.2986
X69.054 Y15.2889
X69.0473 Y15.2789
X69.0411 Y15.2685
X69.0354 Y15.2578
X69.0303 Y15.2468
X69.0257 Y15.2356
X69.0217 Y15.2242
X69.0183 Y15.2125
X69.0156 Y15.2007
X69.0134 Y15.1888
X69.0118 Y15.1768
X69.0109 Y15.1647
X69.0106 Y15.1526
X69.0109 Y15.1405
X69.0118 Y15.1285
X69.0133 Y15.1164
X69.0155 Y15.1045
X69.0182 Y15.0927
X69.0216 Y15.0811
X69.0255 Y15.0697
X69.0301 Y15.0584
X69.0352 Y15.0474
X69.0409 Y15.0367
X69.0471 Y15.0263
X69.0538 Y15.0163
X69.061 Y15.0066
X69.0688 Y14.9972
X69.077 Y14.9883
X69.0856 Y14.9798
X69.0947 Y14.9718
X69.1041 Y14.9643
X69.114 Y14.9572
X69.1242 Y14.9507
X69.1347 Y14.9446
X69.1455 Y14.9392
X69.1565 Y14.9343
X69.1679 Y14.9299
G3 X69.3432 Y15.4847 I0.0877 J0.2774
X69.1337 Y15.4715 I-0.0877 J-0.2774
X69.1715 Y14.8274 I0.1196 J-0.3162
G1 X69.1867 Y14.8243
X69.202 Y14.8219
X69.2174 Y14.8201
X69.2329 Y14.8189
X69.2483 Y14.8183
X69.2638
X69.2793 Y14.819
X69.2947 Y14.8202
X69.3101 Y14.8221
X69.3254 Y14.8246
X69.3406 Y14.8277
X69.3556 Y14.8315
X69.3705 Y14.8358
X69.3852 Y14.8407
X69.3997 Y14.8462
X69.4139 Y14.8523
X69.4279 Y14.8589
X69.4417 Y14.8661
X69.4551 Y14.8738
X69.4682 Y14.8821
X69.4809 Y14.8909
X69.4933 Y14.9002
X69.5053 Y14.91
X69.517 Y14.9202
X69.5282 Y14.9309
X69.5389 Y14.9421
X69.5492 Y14.9537
X69.559 Y14.9656
X69.5684 Y14.978
X69.5772 Y14.9907
X69.5855 Y15.0038
X69.5933 Y15.0172
X69.6006 Y15.0309
X69.6072 Y15.0449
X69.6134 Y15.0591
X69.6189 Y15.0735
X69.6239 Y15.0882
X69.6283 Y15.1031
X69.632 Y15.1181
X69.6352 Y15.1333
X69.6378 Y15.1486
X69.6397 Y15.1639
X69.6411 Y15.1794
X69.6418 Y15.1948
X69.6419 Y15.2103
X69.6413 Y15.2258
X69.6402 Y15.2413
X69.6384 Y15.2566
X69.636 Y15.272
X69.633 Y15.2872
X69.6294 Y15.3022
X69.6252 Y15.3171
X69.6204 Y15.3319
X69.615 Y15.3464
X69.6091 Y15.3607
X69.6025 Y15.3747
X69.5955 Y15.3885
X69.5878 Y15.402
X69.5797 Y15.4152
X69.571 Y15.428
X69.5618 Y15.4405
X69.5521 Y15.4525
X69.5419 Y15.4642
X69.5313 Y15.4755
X69.5202 Y15.4863
X69.1145 Y15.5364
G3 X68.8251 Y15.2258 I0.046 J-0.3331
X68.867 Y14.9622 I0.4247 J-0.0676
G1 X69.242 Y14.7724
G2 X69.4758 Y14.823 I0.1953 J-0.3374
G1 X69.4789 Y14.8214
X69.4822 Y14.8204
X69.4856 Y14.8199
X69.4891 Y14.82
X69.4925 Y14.8206
X69.4957 Y14.8218
X69.4987 Y14.8234
X69.674 Y15.0236
G3 X69.6576 Y15.4693 I-0.339 J0.2107
G1 X69.5202 Y15.4863
G3 X69.5039 Y15.4727 I-0.0013 J-0.015
X69.5149 Y15.4524 I0.0209 J-0.0018
X69.631 Y15.4549 I0.0559 J0.104
X69.6466 Y15.4659 I-0.0603 J0.1016 F50.
G2 X69.6576 Y15.4693 I0.0096 J-0.0115
G1 X69.708 Y15.4631 F60.
G2 X69.8309 Y15.2033 I-0.1198 J-0.2156
G1 X69.674 Y15.0236
G2 X69.6596 Y15.0192 I-0.011 J0.0103
X69.6254 Y15.07 I0.0102 J0.0438
X69.8015 Y15.2016 I0.1556 J-0.0245
X69.8165 Y15.1989 I-0.0206 J-0.1561 F50.
G3 X69.8309 Y15.2033 I0.0034 J0.0146
G1 X69.8706 Y15.2488 F60.
X69.8762 Y15.257
X69.8813 Y15.2656
X69.8859 Y15.2745
X69.8899 Y15.2836
X69.8934 Y15.293
X69.8963 Y15.3025
X69.8985 Y15.3122
X69.9002 Y15.3221
X69.9013 Y15.332
X69.9018 Y15.342
X69.9017 Y15.352
X69.9009 Y15.3619
X69.8995 Y15.3718
X69.8976 Y15.3816
X69.895 Y15.3912
X69.8919 Y15.4007
X69.8882 Y15.41
X69.8839 Y15.419
X69.8791 Y15.4277
X69.8737 Y15.4362
X69.8679 Y15.4442
X69.8649 Y15.4443
X69.862 Y15.4438
X69.8593 Y15.4428
X69.8568 Y15.4413
X69.8547 Y15.4394
X69.853 Y15.4371
X69.8517 Y15.4346
X69.8509 Y15.4319
X69.8506 Y15.4291
X69.8504 Y15.4225
X69.8446 Y15.2596
X69.8448 Y15.2568
X69.8454 Y15.2542
G3 X69.8706 Y15.2488 I0.0142 J0.0049 F50.
G1 X69.945 Y15.3341 F60.
G3 X69.9604 Y15.432 I-0.0611 J0.0597
X69.9448 Y15.4219 I-0.0013 J-0.015
G1 X69.9413 Y15.4115
G3 X69.9199 Y15.3395 I0.0668 J-0.059
X69.945 Y15.3341 I0.0142 J0.0048 F50.
G1 X70.0047 Y15.4024 F60.
X70.0084 Y15.4071
X70.0116 Y15.4133
X70.0123 Y15.4153
X70.0128 Y15.419
X70.0116 Y15.4225
X70.009 Y15.4252
X70.0055 Y15.4264
X69.9945 Y15.4271
G3 X69.9799 Y15.4084 I-0.0005 J-0.0146
X70.0047 Y15.4024 I0.0141 J0.004 F50.
G1 X70.0202 Y15.4202 F60.
X70.021 Y15.4211
X70.0216 Y15.4218
X70.0232 Y15.4239
X70.0217 Y15.4235
X70.0013 Y15.4025
X69.9988 Y15.3999
X69.9933 Y15.4021
X69.9955 Y15.4052
G3 X70.0216 Y15.4218 I-0.0194 J0.0592 F50.
G1 X70.0233 Y15.4238 F60.
X70.0227 Y15.4243
X69.708 Y15.4631
G3 X69.6928 Y15.4423 I-0.0013 J-0.015
G1 X69.694 Y15.4396 Z-0.1297
X69.6951 Y15.437 Z-0.1289
X69.6961 Y15.4346 Z-0.1275
X69.697 Y15.4325 Z-0.1256
X69.6977 Y15.4308 Z-0.1233
X69.6983 Y15.4295 Z-0.1207
X69.6986 Y15.4288 Z-0.1179
X69.6987 Y15.4285 Z-0.115
G0 Z-0.1
X69.1548 Y15.5149
G1 Z-0.115 F50.
X69.1546 Y15.5151 Z-0.1179
X69.1539 Y15.5156 Z-0.1207
X69.1528 Y15.5164 Z-0.1233
X69.1513 Y15.5176 Z-0.1256
X69.1495 Y15.519 Z-0.1275
X69.1475 Y15.5206 Z-0.1289
X69.1452 Y15.5223 Z-0.1297
X69.1429 Y15.5241 Z-0.13
G3 X69.1145 Y15.5364 I-0.0382 J-0.0493
G1 X68.9752 Y15.5536 F60.
X68.9619 Y15.55
X68.9487 Y15.5459
X68.9358 Y15.5413
X68.923 Y15.536
X68.9105 Y15.5302
X68.8983 Y15.5239
X68.8864 Y15.517
X68.8748 Y15.5096
X68.8635 Y15.5016
X68.8526 Y15.4932
X68.842 Y15.4843
X68.8319 Y15.475
X68.8222 Y15.4652
X68.813 Y15.455
X68.8042 Y15.4444
X68.7958 Y15.4334
X68.788 Y15.4221
X68.7807 Y15.4104
X68.7739 Y15.3984
X68.7677 Y15.3861
X68.762 Y15.3736
X68.7568 Y15.3608
X68.7523 Y15.3478
X68.7483 Y15.3346
X68.7449 Y15.3213
X68.7421 Y15.3078
X68.7399 Y15.2942
X68.7383 Y15.2805
X68.7373 Y15.2668
X68.7369 Y15.253
X68.7371 Y15.2392
G3 X68.7424 Y15.0266 I0.3445 J-0.0979
G1 X68.8679 Y14.9627
G3 X68.8879 Y14.97 I0.0063 J0.0136
X68.8852 Y14.9906 I-0.0176 J0.0082
X68.7723 Y15.0312 I-0.0909 J-0.0755
X68.7539 Y15.0261 I0.022 J-0.116 F50.
G2 X68.7424 Y15.0266 I-0.0051 J0.0141
G1 X68.6935 Y15.0515 F60.
G2 X68.6973 Y15.4303 I0.2384 J0.1871
X68.7984 Y15.5754 I0.227 J-0.0504
G1 X68.9752 Y15.5536
G2 X68.9868 Y15.5441 I-0.0024 J-0.0148
X68.969 Y15.5007 I-0.0319 J-0.0123
X68.8164 Y15.5521 I-0.0487 J0.1076
X68.8101 Y15.5659 I0.1039 J0.0562 F50.
G3 X68.7984 Y15.5754 I-0.014 J-0.0054
G1 X68.7543 Y15.5808 F60.
G3 X68.5579 Y15.3309 I0.0487 J-0.2404
X68.5444 Y15.1262 I0.276 J-0.121
G1 X68.6935 Y15.0515
