%
(971-23-P-0078_BUTTERFLY FISH GEARBOX PLATE_1565)
(T1  D=0.1565 CR=0. - ZMIN=-0.2175 - FLAT END MILL)
G90 G94 G17 G91.1
G64 P0.001 Q0.001
G20
G53 G0 Z0.
(.3 CIRCLUAR THROUGH HOLE 2)
M9
T1 M6
S22000 M3
G4 P10.
G54
M7
G0 X74.9661 Y7.1889
G43 Z0.6 H1
G0 Z0.13
G1 Z0.0657 F40.
G18 G2 X74.9817 Z0.05 I0.0157 K0.
G1 X74.9896
G17 G3 X75.0007 Y7.2 I0. J0.0111
X74.9562 Z0.0323 I-0.0223 J0.
X75.0007 Z0.0146 I0.0223 J0.
X74.963 Y7.216 Z0.0014 I-0.0223 J0.
X74.9939 Y7.184 Z-0.0164 I0.0155 J-0.016
X74.963 Y7.216 Z-0.0341 I-0.0155 J0.016
X74.9777 Y7.1778 Z-0.0473 I0.0155 J-0.016
X74.9792 Y7.2222 Z-0.065 I0.0008 J0.0222
X74.9777 Y7.1778 Z-0.0827 I-0.0008 J-0.0222
X74.9949 Y7.2149 Z-0.0959 I0.0008 J0.0222
X74.9619 Y7.1851 Z-0.1136 I-0.0165 J-0.0149
X74.9949 Y7.2149 Z-0.1314 I0.0165 J0.0149
X74.9619 Y7.1851 Z-0.1491 I-0.0165 J-0.0149
X74.9949 Y7.2149 Z-0.1668 I0.0165 J0.0149
X74.9619 Y7.1851 Z-0.1845 I-0.0165 J-0.0149
X74.9928 Y7.183 Z-0.1932 I0.0165 J0.0149
X74.9641 Y7.217 Z-0.2109 I-0.0143 J0.017
X74.9572 Y7.1934 Z-0.2175 I0.0143 J-0.017
X74.9997 Y7.2066 I0.0213 J0.0066
X74.9572 Y7.1934 I-0.0213 J-0.0066
X74.9711 Y7.1861 I0.0106 J0.0033
G1 X74.9786 Y7.1884
X74.9815 Y7.1893 Z-0.2172
X74.9843 Y7.1902 Z-0.2163
X74.9869 Y7.191 Z-0.2149
X74.9891 Y7.1917 Z-0.2129
X74.991 Y7.1922 Z-0.2105
X74.9924 Y7.1927 Z-0.2078
X74.9932 Y7.1929 Z-0.2049
X74.9935 Y7.193 Z-0.2018
G0 Z0.4
X74.6999 Y11.0111
Z0.13
G1 Z0.0657 F40.
G18 G3 X74.6842 Z0.05 I-0.0157 K0.
G1 X74.6764
G17 G3 X74.6652 Y11. I0. J-0.0111
X74.7098 Z0.0323 I0.0223 J0.
X74.6652 Z0.0146 I-0.0223 J0.
X74.703 Y10.984 Z0.0014 I0.0223 J0.
X74.672 Y11.016 Z-0.0164 I-0.0155 J0.016
X74.703 Y10.984 Z-0.0341 I0.0155 J-0.016
X74.6883 Y11.0222 Z-0.0473 I-0.0155 J0.016
X74.6867 Y10.9778 Z-0.065 I-0.0008 J-0.0222
X74.7077 Y10.9906 Z-0.0716 I0.0008 J0.0222
X74.6673 Y11.0094 Z-0.0893 I-0.0202 J0.0094
X74.671 Y10.9851 Z-0.0959 I0.0202 J-0.0094
X74.704 Y11.0149 Z-0.1136 I0.0165 J0.0149
X74.6802 Y11.021 Z-0.1202 I-0.0165 J-0.0149
X74.6948 Y10.979 Z-0.1379 I0.0073 J-0.021
X74.6802 Y11.021 Z-0.1557 I-0.0073 J0.021
X74.6774 Y10.9802 Z-0.1689 I0.0073 J-0.021
X74.6976 Y11.0198 Z-0.1866 I0.0101 J0.0198
X74.6732 Y11.017 Z-0.1932 I-0.0101 J-0.0198
X74.7018 Y10.983 Z-0.2109 I0.0143 J-0.017
X74.7088 Y11.0066 Z-0.2175 I-0.0143 J0.017
X74.6662 Y10.9934 I-0.0213 J-0.0066
X74.7088 Y11.0066 I0.0213 J0.0066
X74.6949 Y11.0139 I-0.0106 J-0.0033
G1 X74.6874 Y11.0116
X74.6845 Y11.0107 Z-0.2172
X74.6817 Y11.0098 Z-0.2163
X74.6791 Y11.009 Z-0.2149
X74.6768 Y11.0083 Z-0.2129
X74.6749 Y11.0078 Z-0.2105
X74.6736 Y11.0073 Z-0.2078
X74.6727 Y11.0071 Z-0.2049
X74.6724 Y11.007 Z-0.2018
G0 Z0.4
X74.7982 Y11.9889
Z0.13
G1 Z0.0657 F40.
G18 G2 X74.8138 Z0.05 I0.0156 K0.
G1 X74.8217
G17 G3 X74.8328 Y12. I0. J0.0111
X74.7883 Z0.0323 I-0.0222 J0.
X74.8328 Z0.0146 I0.0222 J0.
X74.7951 Y12.016 Z0.0014 I-0.0223 J0.
X74.826 Y11.984 Z-0.0164 I0.0155 J-0.016
X74.7951 Y12.016 Z-0.0341 I-0.0155 J0.016
X74.8098 Y11.9778 Z-0.0473 I0.0155 J-0.016
X74.8113 Y12.0222 Z-0.065 I0.0008 J0.0222
X74.7904 Y12.0094 Z-0.0716 I-0.0008 J-0.0222
X74.8307 Y11.9906 Z-0.0893 I0.0202 J-0.0094
X74.827 Y12.0149 Z-0.0959 I-0.0202 J0.0094
X74.794 Y11.9851 Z-0.1136 I-0.0165 J-0.0149
X74.827 Y12.0149 Z-0.1314 I0.0165 J0.0149
X74.7883 Y12.0015 Z-0.1445 I-0.0165 J-0.0149
X74.8327 Y11.9985 Z-0.1623 I0.0222 J-0.0015
X74.8206 Y12.0198 Z-0.1689 I-0.0222 J0.0015
X74.8005 Y11.9802 Z-0.1866 I-0.0101 J-0.0198
X74.8249 Y11.983 Z-0.1932 I0.0101 J0.0198
X74.7962 Y12.017 Z-0.2109 I-0.0143 J0.017
X74.7893 Y11.9934 Z-0.2175 I0.0143 J-0.017
X74.8318 Y12.0066 I0.0213 J0.0066
X74.7893 Y11.9934 I-0.0213 J-0.0066
X74.8032 Y11.9861 I0.0106 J0.0033
G1 X74.8107 Y11.9884
X74.8136 Y11.9893 Z-0.2172
X74.8164 Y11.9902 Z-0.2163
X74.819 Y11.991 Z-0.2149
X74.8212 Y11.9917 Z-0.2129
X74.8231 Y11.9922 Z-0.2105
X74.8245 Y11.9927 Z-0.2078
X74.8253 Y11.9929 Z-0.2049
X74.8256 Y11.993 Z-0.2018
G0 Z0.4
X73.8355 Y14.6594
Z0.13
G1 Z0.0657 F40.
G18 G2 X73.8511 Z0.05 I0.0156 K0.
G1 X73.8589
G17 G3 X73.8701 Y14.6705 I0. J0.0111
X73.8256 Z0.0323 I-0.0222 J0.
X73.8701 Z0.0146 I0.0222 J0.
X73.8324 Y14.6865 Z0.0014 I-0.0223 J0.
X73.8633 Y14.6545 Z-0.0164 I0.0155 J-0.016
X73.8324 Y14.6865 Z-0.0341 I-0.0155 J0.016
X73.8471 Y14.6483 Z-0.0473 I0.0155 J-0.016
X73.8486 Y14.6927 Z-0.065 I0.0008 J0.0222
X73.8471 Y14.6483 Z-0.0827 I-0.0008 J-0.0222
X73.8643 Y14.6854 Z-0.0959 I0.0008 J0.0222
X73.8313 Y14.6556 Z-0.1136 I-0.0165 J-0.0149
X73.8643 Y14.6854 Z-0.1314 I0.0165 J0.0149
X73.8313 Y14.6556 Z-0.1491 I-0.0165 J-0.0149
X73.8643 Y14.6854 Z-0.1668 I0.0165 J0.0149
X73.8313 Y14.6556 Z-0.1845 I-0.0165 J-0.0149
X73.8622 Y14.6535 Z-0.1932 I0.0165 J0.0149
X73.8335 Y14.6875 Z-0.2109 I-0.0143 J0.017
X73.8266 Y14.664 Z-0.2175 I0.0143 J-0.017
X73.8691 Y14.6771 I0.0213 J0.0066
X73.8266 Y14.664 I-0.0213 J-0.0066
X73.8405 Y14.6566 I0.0106 J0.0033
G1 X73.8479 Y14.6589
X73.8509 Y14.6598 Z-0.2172
X73.8537 Y14.6607 Z-0.2163
X73.8563 Y14.6615 Z-0.2149
X73.8585 Y14.6622 Z-0.2129
X73.8604 Y14.6627 Z-0.2105
X73.8618 Y14.6632 Z-0.2078
X73.8626 Y14.6634 Z-0.2049
X73.8629 Y14.6635 Z-0.2018
G0 Z0.4
X73.4326 Y14.9556
Z0.13
G1 Z0.0657 F40.
G18 G2 X73.4483 Z0.05 I0.0156 K0.
G1 X73.4561
G17 G3 X73.4672 Y14.9667 I0. J0.0111
X73.4227 Z0.0323 I-0.0222 J0.
X73.4672 Z0.0146 I0.0222 J0.
X73.4295 Y14.9827 Z0.0014 I-0.0223 J0.
X73.4604 Y14.9507 Z-0.0164 I0.0155 J-0.016
X73.4295 Y14.9827 Z-0.0341 I-0.0155 J0.016
X73.4442 Y14.9444 Z-0.0473 I0.0155 J-0.016
X73.4457 Y14.9889 Z-0.065 I0.0008 J0.0222
X73.4442 Y14.9444 Z-0.0827 I-0.0008 J-0.0222
X73.4615 Y14.9816 Z-0.0959 I0.0008 J0.0222
X73.4285 Y14.9518 Z-0.1136 I-0.0165 J-0.0149
X73.4615 Y14.9816 Z-0.1314 I0.0165 J0.0149
X73.4285 Y14.9518 Z-0.1491 I-0.0165 J-0.0149
X73.4615 Y14.9816 Z-0.1668 I0.0165 J0.0149
X73.4285 Y14.9518 Z-0.1845 I-0.0165 J-0.0149
X73.4593 Y14.9497 Z-0.1932 I0.0165 J0.0149
X73.4306 Y14.9837 Z-0.2109 I-0.0143 J0.017
X73.4237 Y14.9601 Z-0.2175 I0.0143 J-0.017
X73.4662 Y14.9732 I0.0213 J0.0066
X73.4237 Y14.9601 I-0.0213 J-0.0066
X73.4376 Y14.9528 I0.0106 J0.0033
G1 X73.4451 Y14.9551
X73.448 Y14.956 Z-0.2172
X73.4508 Y14.9568 Z-0.2163
X73.4534 Y14.9576 Z-0.2149
X73.4557 Y14.9583 Z-0.2129
X73.4575 Y14.9589 Z-0.2105
X73.4589 Y14.9593 Z-0.2078
X73.4598 Y14.9596 Z-0.2049
X73.4601 Y14.9597 Z-0.2018
G0 Z0.4
X68.5675 Y11.7824
Z0.1143
G1 Z0.05 F40.
X68.5681 Y11.7818
G3 X68.5687 Y11.7824 I0. J0.0006
X68.5663 Z0.036 I-0.0012 J0.
X68.5674 Y11.7811 Z0.0294 I0.0012 J0.
X68.5676 Y11.7836 Z0.0154 I0.0001 J0.0012
X68.5663 Y11.7826 Z0.0088 I-0.0001 J-0.0012
X68.5687 Y11.7821 Z-0.0052 I0.0012 J-0.0002
X68.5679 Y11.7836 Z-0.0117 I-0.0012 J0.0002
X68.5671 Y11.7812 Z-0.0258 I-0.0004 J-0.0012
X68.5686 Y11.7819 Z-0.0323 I0.0004 J0.0012
X68.5664 Y11.7829 Z-0.0463 I-0.0011 J0.0005
X68.5669 Y11.7813 Z-0.0529 I0.0011 J-0.0005
X68.5681 Y11.7835 Z-0.0669 I0.0006 J0.0011
X68.5665 Y11.7831 Z-0.0735 I-0.0006 J-0.0011
X68.5685 Y11.7817 Z-0.0875 I0.001 J-0.0007
X68.5683 Y11.7833 Z-0.094 I-0.001 J0.0007
X68.5667 Y11.7814 Z-0.1081 I-0.0008 J-0.001
X68.5684 Y11.7815 Z-0.1146 I0.0008 J0.001
X68.5666 Y11.7833 Z-0.1286 I-0.0009 J0.0009
X68.5665 Y11.7816 Z-0.1352 I0.0009 J-0.0009
X68.5685 Y11.7832 Z-0.1492 I0.001 J0.0008
X68.5668 Y11.7834 Z-0.1558 I-0.001 J-0.0008
X68.5682 Y11.7813 Z-0.1698 I0.0007 J-0.0011
X68.5686 Y11.7829 Z-0.1763 I-0.0007 J0.0011
X68.5664 Y11.7818 Z-0.1904 I-0.0011 J-0.0006
X68.5679 Y11.7812 Z-0.1969 I0.0011 J0.0006
X68.5671 Y11.7836 Z-0.2109 I-0.0004 J0.0012
X68.5663 Y11.7821 Z-0.2175 I0.0004 J-0.0012
X68.5687 Y11.7827 I0.0012 J0.0003
X68.5663 Y11.7821 I-0.0012 J-0.0003
X68.5671 Y11.7816 I0.0006 J0.0002
G1 X68.5675 Y11.7824
G0 Z0.4
X67.0489 Y10.4225
Z0.13
G1 Z0.0657 F40.
G18 G2 X67.0646 Z0.05 I0.0156 K0.
G1 X67.0724
G17 G3 X67.0823 Y10.4324 I0. J0.0099
X67.0427 Z0.0327 I-0.0198 J0.
X67.0822 Z0.0154 I0.0198 J0.
X67.0427 Z-0.0018 I-0.0198 J0.
X67.0822 Z-0.0191 I0.0198 J0.
X67.0776 Y10.4451 Z-0.023 I-0.0198 J0.
X67.0474 Y10.4197 Z-0.0402 I-0.0151 J-0.0127
X67.0703 Y10.4142 Z-0.0473 I0.0151 J0.0127
X67.0547 Y10.4505 Z-0.0646 I-0.0078 J0.0181
X67.0429 Y10.4301 Z-0.0716 I0.0078 J-0.0181
X67.0821 Y10.4346 Z-0.0889 I0.0196 J0.0023
X67.0429 Y10.4301 Z-0.1062 I-0.0196 J-0.0023
X67.0821 Y10.4346 Z-0.1234 I0.0196 J0.0023
X67.0429 Y10.4301 Z-0.1407 I-0.0196 J-0.0023
X67.0489 Y10.4181 Z-0.1445 I0.0196 J0.0023
X67.0761 Y10.4467 Z-0.1618 I0.0136 J0.0143
X67.0527 Y10.4495 Z-0.1689 I-0.0136 J-0.0143
X67.0723 Y10.4153 Z-0.1861 I0.0098 J-0.0171
X67.0817 Y10.4369 Z-0.1932 I-0.0098 J0.0171
X67.0433 Y10.4279 Z-0.2105 I-0.0192 J-0.0045
X67.0613 Y10.4127 Z-0.2175 I0.0192 J0.0045
X67.0637 Y10.4521 I0.0012 J0.0197
X67.0613 Y10.4127 I-0.0012 J-0.0197
X67.0717 Y10.4219 I0.0006 J0.0099
G1 X67.0722 Y10.4297
X67.0724 Y10.4328 Z-0.2172
X67.0726 Y10.4357 Z-0.2163
X67.0728 Y10.4384 Z-0.2149
X67.0729 Y10.4408 Z-0.2129
X67.073 Y10.4427 Z-0.2105
X67.0731 Y10.4442 Z-0.2078
X67.0732 Y10.4451 Z-0.2049
Y10.4454 Z-0.2018
G0 Z0.4
X67.0489 Y9.6725
Z0.13
G1 Z0.0657 F40.
G18 G2 X67.0646 Z0.05 I0.0156 K0.
G1 X67.0724
G17 G3 X67.0823 Y9.6824 I0. J0.0099
X67.0427 Z0.0327 I-0.0198 J0.
X67.0822 Z0.0154 I0.0198 J0.
X67.046 Y9.6933 Z0.0014 I-0.0198 J0.
X67.079 Y9.6715 Z-0.0159 I0.0165 J-0.0109
X67.0776 Y9.6951 Z-0.023 I-0.0165 J0.0109
X67.0474 Y9.6697 Z-0.0402 I-0.0151 J-0.0127
X67.0703 Y9.6642 Z-0.0473 I0.0151 J0.0127
X67.0547 Y9.7005 Z-0.0646 I-0.0078 J0.0181
X67.0703 Y9.6642 Z-0.0818 I0.0078 J-0.0181
X67.066 Y9.7018 Z-0.0959 I-0.0078 J0.0181
X67.059 Y9.6629 Z-0.1132 I-0.0035 J-0.0194
X67.066 Y9.7018 Z-0.1305 I0.0035 J0.0194
X67.0489 Y9.6681 Z-0.1445 I-0.0035 J-0.0194
X67.0761 Y9.6967 Z-0.1618 I0.0136 J0.0143
X67.0527 Y9.6995 Z-0.1689 I-0.0136 J-0.0143
X67.0723 Y9.6653 Z-0.1861 I0.0098 J-0.0171
X67.0527 Y9.6995 Z-0.2034 I-0.0098 J0.0171
X67.0613 Y9.6627 Z-0.2175 I0.0098 J-0.0171
X67.0637 Y9.7021 I0.0012 J0.0197
X67.0613 Y9.6627 I-0.0012 J-0.0197
X67.0717 Y9.6719 I0.0006 J0.0099
G1 X67.0722 Y9.6797
X67.0724 Y9.6828 Z-0.2172
X67.0726 Y9.6857 Z-0.2163
X67.0728 Y9.6884 Z-0.2149
X67.0729 Y9.6908 Z-0.2129
X67.073 Y9.6927 Z-0.2105
X67.0731 Y9.6942 Z-0.2078
X67.0732 Y9.6951 Z-0.2049
Y9.6954 Z-0.2018
G0 Z0.4
X67.0489 Y8.9225
Z0.13
G1 Z0.0657 F40.
G18 G2 X67.0646 Z0.05 I0.0156 K0.
G1 X67.0724
G17 G3 X67.0823 Y8.9324 I0. J0.0099
X67.0427 Z0.0327 I-0.0198 J0.
X67.0822 Z0.0154 I0.0198 J0.
X67.0427 Z-0.0018 I-0.0198 J0.
X67.0822 Z-0.0191 I0.0198 J0.
X67.0776 Y8.9451 Z-0.023 I-0.0198 J0.
X67.0474 Y8.9197 Z-0.0402 I-0.0151 J-0.0127
X67.0703 Y8.9142 Z-0.0473 I0.0151 J0.0127
X67.0547 Y8.9505 Z-0.0646 I-0.0078 J0.0181
X67.0703 Y8.9142 Z-0.0818 I0.0078 J-0.0181
X67.066 Y8.9518 Z-0.0959 I-0.0078 J0.0181
X67.059 Y8.9129 Z-0.1132 I-0.0035 J-0.0194
X67.066 Y8.9518 Z-0.1305 I0.0035 J0.0194
X67.0489 Y8.9181 Z-0.1445 I-0.0035 J-0.0194
X67.0761 Y8.9467 Z-0.1618 I0.0136 J0.0143
X67.0527 Y8.9495 Z-0.1689 I-0.0136 J-0.0143
X67.0723 Y8.9153 Z-0.1861 I0.0098 J-0.0171
X67.0527 Y8.9495 Z-0.2034 I-0.0098 J0.0171
X67.0613 Y8.9127 Z-0.2175 I0.0098 J-0.0171
X67.0637 Y8.9521 I0.0012 J0.0197
X67.0613 Y8.9127 I-0.0012 J-0.0197
X67.0717 Y8.9219 I0.0006 J0.0099
G1 X67.0722 Y8.9297
X67.0724 Y8.9328 Z-0.2172
X67.0726 Y8.9357 Z-0.2163
X67.0728 Y8.9384 Z-0.2149
X67.0729 Y8.9408 Z-0.2129
X67.073 Y8.9427 Z-0.2105
X67.0731 Y8.9442 Z-0.2078
X67.0732 Y8.9451 Z-0.2049
Y8.9454 Z-0.2018
G0 Z0.4
X69.1875 Y7.9179
Z0.1143
G1 Z0.05 F40.
X69.1881 Y7.9172
G3 X69.1888 Y7.9179 I0. J0.0006
X69.1863 Z0.036 I-0.0012 J0.
X69.1874 Y7.9166 Z0.0294 I0.0013 J0.
X69.1876 Y7.9191 Z0.0154 I0.0001 J0.0012
X69.1863 Y7.9181 Z0.0088 I-0.0001 J-0.0012
X69.1887 Y7.9176 Z-0.0052 I0.0012 J-0.0003
X69.1879 Y7.9191 Z-0.0117 I-0.0012 J0.0003
X69.1871 Y7.9167 Z-0.0258 I-0.0004 J-0.0012
X69.1887 Y7.9174 Z-0.0323 I0.0004 J0.0012
X69.1864 Y7.9184 Z-0.0463 I-0.0011 J0.0005
X69.1869 Y7.9168 Z-0.0529 I0.0011 J-0.0005
X69.1881 Y7.919 Z-0.0669 I0.0006 J0.0011
X69.1865 Y7.9186 Z-0.0735 I-0.0006 J-0.0011
X69.1885 Y7.9172 Z-0.0875 I0.001 J-0.0007
X69.1883 Y7.9188 Z-0.094 I-0.001 J0.0007
X69.1867 Y7.9169 Z-0.1081 I-0.0008 J-0.001
X69.1884 Y7.917 Z-0.1146 I0.0008 J0.001
X69.1866 Y7.9188 Z-0.1286 I-0.0009 J0.0009
X69.1865 Y7.9171 Z-0.1352 I0.0009 J-0.0009
X69.1885 Y7.9186 Z-0.1492 I0.001 J0.0008
X69.1868 Y7.9189 Z-0.1558 I-0.001 J-0.0008
X69.1882 Y7.9168 Z-0.1698 I0.0007 J-0.0011
X69.1886 Y7.9184 Z-0.1763 I-0.0007 J0.0011
X69.1864 Y7.9173 Z-0.1904 I-0.0011 J-0.0006
X69.1879 Y7.9167 Z-0.1969 I0.0011 J0.0006
X69.1871 Y7.919 Z-0.2109 I-0.0004 J0.0012
X69.1863 Y7.9175 Z-0.2175 I0.0004 J-0.0012
X69.1887 Y7.9182 I0.0012 J0.0003
X69.1863 Y7.9175 I-0.0012 J-0.0003
X69.1871 Y7.9171 I0.0006 J0.0002
G1 X69.1875 Y7.9179
G0 Z0.4
X67.0489 Y6.59
Z0.13
G1 Z0.0657 F40.
G18 G2 X67.0646 Z0.05 I0.0156 K0.
G1 X67.0724
G17 G3 X67.0823 Y6.5999 I0. J0.0099
X67.0427 Z0.0327 I-0.0198 J0.
X67.0822 Z0.0154 I0.0198 J0.
X67.0427 Z-0.0018 I-0.0198 J0.
X67.0822 Z-0.0191 I0.0198 J0.
X67.0776 Y6.6125 Z-0.023 I-0.0198 J0.
X67.0474 Y6.5872 Z-0.0402 I-0.0151 J-0.0127
X67.0703 Y6.5817 Z-0.0473 I0.0151 J0.0127
X67.0547 Y6.618 Z-0.0646 I-0.0078 J0.0181
X67.0703 Y6.5817 Z-0.0818 I0.0078 J-0.0181
X67.066 Y6.6193 Z-0.0959 I-0.0078 J0.0181
X67.059 Y6.5804 Z-0.1132 I-0.0035 J-0.0194
X67.066 Y6.6193 Z-0.1305 I0.0035 J0.0194
X67.0489 Y6.5855 Z-0.1445 I-0.0035 J-0.0194
X67.0761 Y6.6142 Z-0.1618 I0.0136 J0.0143
X67.0527 Y6.617 Z-0.1689 I-0.0136 J-0.0143
X67.0723 Y6.5827 Z-0.1861 I0.0098 J-0.0171
X67.0817 Y6.6043 Z-0.1932 I-0.0098 J0.0171
X67.0433 Y6.5954 Z-0.2105 I-0.0192 J-0.0045
X67.0613 Y6.5801 Z-0.2175 I0.0192 J0.0045
X67.0637 Y6.6196 I0.0012 J0.0197
X67.0613 Y6.5801 I-0.0012 J-0.0197
X67.0717 Y6.5894 I0.0006 J0.0099
G1 X67.0722 Y6.5972
X67.0724 Y6.6002 Z-0.2172
X67.0726 Y6.6032 Z-0.2163
X67.0728 Y6.6059 Z-0.2149
X67.0729 Y6.6082 Z-0.2129
X67.073 Y6.6102 Z-0.2105
X67.0731 Y6.6116 Z-0.2078
X67.0732 Y6.6125 Z-0.2049
Y6.6128 Z-0.2018
G0 Z0.4
X67.0489 Y6.04
Z0.13
G1 Z0.0657 F40.
G18 G2 X67.0646 Z0.05 I0.0156 K0.
G1 X67.0724
G17 G3 X67.0823 Y6.0499 I0. J0.0099
X67.0427 Z0.0327 I-0.0198 J0.
X67.0822 Z0.0154 I0.0198 J0.
X67.0427 Z-0.0018 I-0.0198 J0.
X67.0822 Z-0.0191 I0.0198 J0.
X67.0776 Y6.0625 Z-0.023 I-0.0198 J0.
X67.0474 Y6.0372 Z-0.0402 I-0.0151 J-0.0127
X67.0703 Y6.0317 Z-0.0473 I0.0151 J0.0127
X67.0547 Y6.068 Z-0.0646 I-0.0078 J0.0181
X67.0429 Y6.0476 Z-0.0716 I0.0078 J-0.0181
X67.0821 Y6.0521 Z-0.0889 I0.0196 J0.0023
X67.0429 Y6.0476 Z-0.1062 I-0.0196 J-0.0023
X67.0821 Y6.0521 Z-0.1234 I0.0196 J0.0023
X67.0429 Y6.0476 Z-0.1407 I-0.0196 J-0.0023
X67.0489 Y6.0355 Z-0.1445 I0.0196 J0.0023
X67.0761 Y6.0642 Z-0.1618 I0.0136 J0.0143
X67.0527 Y6.067 Z-0.1689 I-0.0136 J-0.0143
X67.0723 Y6.0327 Z-0.1861 I0.0098 J-0.0171
X67.0817 Y6.0543 Z-0.1932 I-0.0098 J0.0171
X67.0433 Y6.0454 Z-0.2105 I-0.0192 J-0.0045
X67.0613 Y6.0301 Z-0.2175 I0.0192 J0.0045
X67.0637 Y6.0696 I0.0012 J0.0197
X67.0613 Y6.0301 I-0.0012 J-0.0197
X67.0717 Y6.0394 I0.0006 J0.0099
G1 X67.0722 Y6.0472
X67.0724 Y6.0502 Z-0.2172
X67.0726 Y6.0532 Z-0.2163
X67.0728 Y6.0559 Z-0.2149
X67.0729 Y6.0582 Z-0.2129
X67.073 Y6.0602 Z-0.2105
X67.0731 Y6.0616 Z-0.2078
X67.0732 Y6.0625 Z-0.2049
Y6.0628 Z-0.2018
G0 Z0.4
X67.0489 Y5.49
Z0.13
G1 Z0.0657 F40.
G18 G2 X67.0646 Z0.05 I0.0156 K0.
G1 X67.0724
G17 G3 X67.0823 Y5.4999 I0. J0.0099
X67.0427 Z0.0327 I-0.0198 J0.
X67.0822 Z0.0154 I0.0198 J0.
X67.046 Y5.5107 Z0.0014 I-0.0198 J0.
X67.079 Y5.489 Z-0.0159 I0.0165 J-0.0109
X67.0776 Y5.5125 Z-0.023 I-0.0165 J0.0109
X67.0474 Y5.4872 Z-0.0402 I-0.0151 J-0.0127
X67.0703 Y5.4817 Z-0.0473 I0.0151 J0.0127
X67.0547 Y5.518 Z-0.0646 I-0.0078 J0.0181
X67.0703 Y5.4817 Z-0.0818 I0.0078 J-0.0181
X67.0547 Y5.518 Z-0.0991 I-0.0078 J0.0181
X67.0703 Y5.4817 Z-0.1164 I0.0078 J-0.0181
X67.0801 Y5.4909 Z-0.1202 I-0.0078 J0.0181
X67.0449 Y5.5088 Z-0.1375 I-0.0176 J0.0089
X67.0489 Y5.4855 Z-0.1445 I0.0176 J-0.0089
X67.0761 Y5.5142 Z-0.1618 I0.0136 J0.0143
X67.0527 Y5.517 Z-0.1689 I-0.0136 J-0.0143
X67.0723 Y5.4827 Z-0.1861 I0.0098 J-0.0171
X67.0527 Y5.517 Z-0.2034 I-0.0098 J0.0171
X67.0613 Y5.4801 Z-0.2175 I0.0098 J-0.0171
X67.0637 Y5.5196 I0.0012 J0.0197
X67.0613 Y5.4801 I-0.0012 J-0.0197
X67.0717 Y5.4894 I0.0006 J0.0099
G1 X67.0722 Y5.4972
X67.0724 Y5.5002 Z-0.2172
X67.0726 Y5.5032 Z-0.2163
X67.0728 Y5.5059 Z-0.2149
X67.0729 Y5.5082 Z-0.2129
X67.073 Y5.5102 Z-0.2105
X67.0731 Y5.5116 Z-0.2078
X67.0732 Y5.5125 Z-0.2049
Y5.5128 Z-0.2018
G0 Z0.4
X68.3785 Y4.8802
Z0.13
G1 Z0.0657 F40.
G18 G2 X68.3942 Z0.05 I0.0157 K0.
G1 X68.402
G17 G3 X68.4131 Y4.8913 I0. J0.0111
X68.3686 Z0.0323 I-0.0223 J0.
X68.3822 Y4.8708 Z0.0257 I0.0223 J0.
X68.3996 Y4.9118 Z0.008 I0.0087 J0.0205
X68.3754 Y4.9073 Z0.0014 I-0.0087 J-0.0205
X68.4063 Y4.8753 Z-0.0164 I0.0155 J-0.016
X68.4116 Y4.8993 Z-0.023 I-0.0155 J0.016
X68.3701 Y4.8833 Z-0.0407 I-0.0208 J-0.008
X68.3901 Y4.8691 Z-0.0473 I0.0208 J0.008
X68.3916 Y4.9135 Z-0.065 I0.0008 J0.0222
X68.3707 Y4.9007 Z-0.0716 I-0.0008 J-0.0222
X68.411 Y4.8819 Z-0.0893 I0.0202 J-0.0094
X68.4074 Y4.9062 Z-0.0959 I-0.0202 J0.0094
X68.3743 Y4.8764 Z-0.1136 I-0.0165 J-0.0149
X68.3981 Y4.8703 Z-0.1202 I0.0165 J0.0149
X68.3836 Y4.9123 Z-0.1379 I-0.0073 J0.021
X68.3981 Y4.8703 Z-0.1557 I0.0073 J-0.021
X68.4009 Y4.9111 Z-0.1689 I-0.0073 J0.021
X68.3808 Y4.8715 Z-0.1866 I-0.0101 J-0.0198
X68.4052 Y4.8743 Z-0.1932 I0.0101 J0.0198
X68.3765 Y4.9083 Z-0.2109 I-0.0143 J0.017
X68.3696 Y4.8847 Z-0.2175 I0.0143 J-0.017
X68.4121 Y4.8979 I0.0213 J0.0066
X68.3696 Y4.8847 I-0.0213 J-0.0066
X68.3835 Y4.8774 I0.0106 J0.0033
G1 X68.391 Y4.8797
X68.3939 Y4.8806 Z-0.2172
X68.3967 Y4.8815 Z-0.2163
X68.3993 Y4.8823 Z-0.2149
X68.4016 Y4.883 Z-0.2129
X68.4034 Y4.8835 Z-0.2105
X68.4048 Y4.884 Z-0.2078
X68.4057 Y4.8842 Z-0.2049
X68.4059 Y4.8843 Z-0.2018
G0 Z0.4
X68.875 Y3.125
Z0.1143
G1 Z0.05 F40.
X68.8744 Y3.1256
G3 X68.8738 Y3.125 I0. J-0.0006
X68.8763 Z0.036 I0.0012 J0.
X68.8751 Y3.1262 Z0.0294 I-0.0012 J0.
X68.8749 Y3.1238 Z0.0154 I-0.0001 J-0.0012
X68.8762 Y3.1247 Z0.0088 I0.0001 J0.0012
X68.8738 Y3.1253 Z-0.0052 I-0.0012 J0.0003
X68.8746 Y3.1238 Z-0.0117 I0.0012 J-0.0003
X68.8754 Y3.1262 Z-0.0257 I0.0004 J0.0012
X68.8738 Y3.1255 Z-0.0323 I-0.0004 J-0.0012
X68.8762 Y3.1245 Z-0.0463 I0.0012 J-0.0005
X68.8756 Y3.1261 Z-0.0529 I-0.0012 J0.0005
X68.8744 Y3.1239 Z-0.0669 I-0.0006 J-0.0011
X68.876 Y3.1243 Z-0.0735 I0.0006 J0.0011
X68.874 Y3.1257 Z-0.0875 I-0.001 J0.0007
X68.8742 Y3.124 Z-0.094 I0.001 J-0.0007
X68.8758 Y3.126 Z-0.1081 I0.0008 J0.001
X68.8741 Y3.1259 Z-0.1146 I-0.0008 J-0.001
X68.8759 Y3.1241 Z-0.1286 I0.0009 J-0.0009
X68.876 Y3.1258 Z-0.1352 I-0.0009 J0.0009
X68.874 Y3.1242 Z-0.1492 I-0.001 J-0.0008
X68.8757 Y3.1239 Z-0.1558 I0.001 J0.0008
X68.8743 Y3.1261 Z-0.1698 I-0.0007 J0.0011
X68.8739 Y3.1244 Z-0.1763 I0.0007 J-0.0011
X68.8761 Y3.1256 Z-0.1904 I0.0011 J0.0006
X68.8746 Y3.1262 Z-0.1969 I-0.0011 J-0.0006
X68.8754 Y3.1238 Z-0.2109 I0.0004 J-0.0012
X68.8762 Y3.1253 Z-0.2175 I-0.0004 J0.0012
X68.8738 Y3.1247 I-0.0012 J-0.0003
X68.8762 Y3.1253 I0.0012 J0.0003
X68.8754 Y3.1258 I-0.0006 J-0.0002
G1 X68.875 Y3.125
G0 Z0.4
Y1.875
Z0.1143
G1 Z0.05 F40.
X68.8744 Y1.8756
G3 X68.8738 Y1.875 I0. J-0.0006
X68.8763 Z0.036 I0.0012 J0.
X68.8751 Y1.8762 Z0.0294 I-0.0012 J0.
X68.8749 Y1.8738 Z0.0154 I-0.0001 J-0.0012
X68.8762 Y1.8747 Z0.0088 I0.0001 J0.0012
X68.8738 Y1.8753 Z-0.0052 I-0.0012 J0.0003
X68.8746 Y1.8738 Z-0.0117 I0.0012 J-0.0003
X68.8754 Y1.8762 Z-0.0257 I0.0004 J0.0012
X68.8738 Y1.8755 Z-0.0323 I-0.0004 J-0.0012
X68.8762 Y1.8745 Z-0.0463 I0.0012 J-0.0005
X68.8756 Y1.8761 Z-0.0529 I-0.0012 J0.0005
X68.8744 Y1.8739 Z-0.0669 I-0.0006 J-0.0011
X68.876 Y1.8743 Z-0.0735 I0.0006 J0.0011
X68.874 Y1.8757 Z-0.0875 I-0.001 J0.0007
X68.8742 Y1.874 Z-0.094 I0.001 J-0.0007
X68.8758 Y1.876 Z-0.1081 I0.0008 J0.001
X68.8741 Y1.8759 Z-0.1146 I-0.0008 J-0.001
X68.8759 Y1.8741 Z-0.1286 I0.0009 J-0.0009
X68.876 Y1.8758 Z-0.1352 I-0.0009 J0.0009
X68.874 Y1.8742 Z-0.1492 I-0.001 J-0.0008
X68.8757 Y1.8739 Z-0.1558 I0.001 J0.0008
X68.8743 Y1.8761 Z-0.1698 I-0.0007 J0.0011
X68.8739 Y1.8744 Z-0.1763 I0.0007 J-0.0011
X68.8761 Y1.8756 Z-0.1904 I0.0011 J0.0006
X68.8746 Y1.8762 Z-0.1969 I-0.0011 J-0.0006
X68.8754 Y1.8738 Z-0.2109 I0.0004 J-0.0012
X68.8762 Y1.8753 Z-0.2175 I-0.0004 J0.0012
X68.8738 Y1.8747 I-0.0012 J-0.0003
X68.8762 Y1.8753 I0.0012 J0.0003
X68.8754 Y1.8758 I-0.0006 J-0.0002
G1 X68.875 Y1.875
G0 Z0.4
X70.375
Z0.1143
G1 Z0.05 F40.
X70.3756 Y1.8744
G3 X70.3763 Y1.875 I0. J0.0006
X70.3738 Z0.036 I-0.0012 J0.
X70.3749 Y1.8738 Z0.0294 I0.0012 J0.
X70.3751 Y1.8762 Z0.0154 I0.0001 J0.0012
X70.3738 Y1.8753 Z0.0088 I-0.0001 J-0.0012
X70.3762 Y1.8747 Z-0.0052 I0.0012 J-0.0003
X70.3754 Y1.8762 Z-0.0117 I-0.0012 J0.0003
X70.3746 Y1.8738 Z-0.0258 I-0.0004 J-0.0012
X70.3761 Y1.8745 Z-0.0323 I0.0004 J0.0012
X70.3739 Y1.8755 Z-0.0463 I-0.0011 J0.0005
X70.3744 Y1.8739 Z-0.0529 I0.0011 J-0.0005
X70.3756 Y1.8761 Z-0.0669 I0.0006 J0.0011
X70.374 Y1.8757 Z-0.0735 I-0.0006 J-0.0011
X70.376 Y1.8743 Z-0.0875 I0.001 J-0.0007
X70.3758 Y1.876 Z-0.094 I-0.001 J0.0007
X70.3742 Y1.874 Z-0.1081 I-0.0008 J-0.001
X70.3759 Y1.8741 Z-0.1146 I0.0008 J0.001
X70.3741 Y1.8759 Z-0.1286 I-0.0009 J0.0009
X70.374 Y1.8742 Z-0.1352 I0.0009 J-0.0009
X70.376 Y1.8758 Z-0.1492 I0.001 J0.0008
X70.3743 Y1.8761 Z-0.1558 I-0.001 J-0.0008
X70.3757 Y1.8739 Z-0.1698 I0.0007 J-0.0011
X70.3761 Y1.8756 Z-0.1763 I-0.0007 J0.0011
X70.3739 Y1.8744 Z-0.1904 I-0.0011 J-0.0006
X70.3754 Y1.8738 Z-0.1969 I0.0011 J0.0006
X70.3746 Y1.8762 Z-0.2109 I-0.0004 J0.0012
X70.3738 Y1.8747 Z-0.2175 I0.0004 J-0.0012
X70.3762 Y1.8753 I0.0012 J0.0003
X70.3738 Y1.8747 I-0.0012 J-0.0003
X70.3746 Y1.8742 I0.0006 J0.0002
G1 X70.375 Y1.875
G0 Z0.4
Y3.125
Z0.1143
G1 Z0.05 F40.
X70.3756 Y3.1244
G3 X70.3763 Y3.125 I0. J0.0006
X70.3738 Z0.036 I-0.0012 J0.
X70.3749 Y3.1238 Z0.0294 I0.0012 J0.
X70.3751 Y3.1262 Z0.0154 I0.0001 J0.0012
X70.3738 Y3.1253 Z0.0088 I-0.0001 J-0.0012
X70.3762 Y3.1247 Z-0.0052 I0.0012 J-0.0003
X70.3754 Y3.1262 Z-0.0117 I-0.0012 J0.0003
X70.3746 Y3.1238 Z-0.0258 I-0.0004 J-0.0012
X70.3761 Y3.1245 Z-0.0323 I0.0004 J0.0012
X70.3739 Y3.1255 Z-0.0463 I-0.0011 J0.0005
X70.3744 Y3.1239 Z-0.0529 I0.0011 J-0.0005
X70.3756 Y3.1261 Z-0.0669 I0.0006 J0.0011
X70.374 Y3.1257 Z-0.0735 I-0.0006 J-0.0011
X70.376 Y3.1243 Z-0.0875 I0.001 J-0.0007
X70.3758 Y3.126 Z-0.094 I-0.001 J0.0007
X70.3742 Y3.124 Z-0.1081 I-0.0008 J-0.001
X70.3759 Y3.1241 Z-0.1146 I0.0008 J0.001
X70.3741 Y3.1259 Z-0.1286 I-0.0009 J0.0009
X70.374 Y3.1242 Z-0.1352 I0.0009 J-0.0009
X70.376 Y3.1258 Z-0.1492 I0.001 J0.0008
X70.3743 Y3.1261 Z-0.1558 I-0.001 J-0.0008
X70.3757 Y3.1239 Z-0.1698 I0.0007 J-0.0011
X70.3761 Y3.1256 Z-0.1763 I-0.0007 J0.0011
X70.3739 Y3.1244 Z-0.1904 I-0.0011 J-0.0006
X70.3754 Y3.1238 Z-0.1969 I0.0011 J0.0006
X70.3746 Y3.1262 Z-0.2109 I-0.0004 J0.0012
X70.3738 Y3.1247 Z-0.2175 I0.0004 J-0.0012
X70.3762 Y3.1253 I0.0012 J0.0003
X70.3738 Y3.1247 I-0.0012 J-0.0003
X70.3746 Y3.1242 I0.0006 J0.0002
G1 X70.375 Y3.125
G0 Z0.4
X70.3338 Y4.4596
Z0.13
G1 Z0.0657 F40.
G18 G2 X70.3494 Z0.05 I0.0157 K0.
G1 X70.3573
G17 G3 X70.3684 Y4.4707 I0. J0.0111
X70.3239 Z0.0323 I-0.0223 J0.
X70.3684 Z0.0146 I0.0223 J0.
X70.3307 Y4.4867 Z0.0014 I-0.0223 J0.
X70.3616 Y4.4547 Z-0.0164 I0.0155 J-0.016
X70.3307 Y4.4867 Z-0.0341 I-0.0155 J0.016
X70.3454 Y4.4485 Z-0.0473 I0.0155 J-0.016
X70.3469 Y4.4929 Z-0.065 I0.0008 J0.0222
X70.3454 Y4.4485 Z-0.0827 I-0.0008 J-0.0222
X70.3626 Y4.4856 Z-0.0959 I0.0008 J0.0222
X70.3296 Y4.4558 Z-0.1136 I-0.0165 J-0.0149
X70.3627 Y4.4856 Z-0.1314 I0.0165 J0.0149
X70.3296 Y4.4558 Z-0.1491 I-0.0165 J-0.0149
X70.3627 Y4.4856 Z-0.1668 I0.0165 J0.0149
X70.3562 Y4.4905 Z-0.1689 I-0.0165 J-0.0149
X70.3361 Y4.4509 Z-0.1866 I-0.0101 J-0.0198
X70.3605 Y4.4537 Z-0.1932 I0.0101 J0.0198
X70.3318 Y4.4877 Z-0.2109 I-0.0143 J0.017
X70.3249 Y4.4641 Z-0.2175 I0.0143 J-0.017
X70.3674 Y4.4773 I0.0213 J0.0066
X70.3249 Y4.4641 I-0.0213 J-0.0066
X70.3388 Y4.4568 I0.0106 J0.0033
G1 X70.3463 Y4.4591
X70.3492 Y4.46 Z-0.2172
X70.352 Y4.4609 Z-0.2163
X70.3546 Y4.4617 Z-0.2149
X70.3568 Y4.4624 Z-0.2129
X70.3587 Y4.4629 Z-0.2105
X70.3601 Y4.4634 Z-0.2078
X70.3609 Y4.4636 Z-0.2049
X70.3612 Y4.4637 Z-0.2018
G0 Z0.4
X70.2587 Y5.7207
Z0.1143
G1 Z0.05 F40.
X70.2594 Y5.7201
G3 X70.26 Y5.7207 I0. J0.0006
X70.2575 Z0.036 I-0.0012 J0.
X70.2586 Y5.7194 Z0.0294 I0.0012 J0.
X70.2589 Y5.7219 Z0.0154 I0.0001 J0.0012
X70.2575 Y5.7209 Z0.0088 I-0.0001 J-0.0012
X70.26 Y5.7204 Z-0.0052 I0.0012 J-0.0003
X70.2591 Y5.7219 Z-0.0117 I-0.0012 J0.0003
X70.2584 Y5.7195 Z-0.0258 I-0.0004 J-0.0012
X70.2599 Y5.7202 Z-0.0323 I0.0004 J0.0012
X70.2576 Y5.7212 Z-0.0463 I-0.0011 J0.0005
X70.2581 Y5.7196 Z-0.0529 I0.0011 J-0.0005
X70.2593 Y5.7218 Z-0.0669 I0.0006 J0.0011
X70.2577 Y5.7214 Z-0.0735 I-0.0006 J-0.0011
X70.2598 Y5.72 Z-0.0875 I0.001 J-0.0007
X70.2595 Y5.7216 Z-0.094 I-0.001 J0.0007
X70.2579 Y5.7197 Z-0.1081 I-0.0008 J-0.001
X70.2596 Y5.7198 Z-0.1146 I0.0008 J0.001
X70.2579 Y5.7216 Z-0.1286 I-0.0009 J0.0009
X70.2577 Y5.7199 Z-0.1352 I0.0009 J-0.0009
X70.2597 Y5.7215 Z-0.1492 I0.001 J0.0008
X70.2581 Y5.7217 Z-0.1558 I-0.001 J-0.0008
X70.2594 Y5.7196 Z-0.1698 I0.0007 J-0.0011
X70.2599 Y5.7212 Z-0.1763 I-0.0007 J0.0011
X70.2576 Y5.7201 Z-0.1904 I-0.0011 J-0.0006
X70.2592 Y5.7195 Z-0.1969 I0.0011 J0.0006
X70.2583 Y5.7219 Z-0.2109 I-0.0004 J0.0012
X70.2575 Y5.7204 Z-0.2175 I0.0004 J-0.0012
X70.2599 Y5.721 I0.0012 J0.0003
X70.2575 Y5.7204 I-0.0012 J-0.0003
X70.2583 Y5.7199 I0.0006 J0.0002
G1 X70.2587 Y5.7207
G0 Z0.4
X71.2605 Y5.4189
Z0.13
G1 Z0.0657 F40.
G18 G2 X71.2761 Z0.05 I0.0156 K0.
G1 X71.2839
G17 G3 X71.2951 Y5.43 I0. J0.0111
X71.2506 Z0.0323 I-0.0223 J0.
X71.2951 Z0.0146 I0.0223 J0.
X71.2573 Y5.446 Z0.0014 I-0.0223 J0.
X71.2883 Y5.414 Z-0.0164 I0.0155 J-0.016
X71.2573 Y5.446 Z-0.0341 I-0.0155 J0.016
X71.272 Y5.4078 Z-0.0473 I0.0155 J-0.016
X71.2736 Y5.4522 Z-0.065 I0.0008 J0.0222
X71.272 Y5.4078 Z-0.0827 I-0.0008 J-0.0222
X71.2893 Y5.4449 Z-0.0959 I0.0008 J0.0222
X71.2563 Y5.4151 Z-0.1136 I-0.0165 J-0.0149
X71.2893 Y5.4449 Z-0.1314 I0.0165 J0.0149
X71.2563 Y5.4151 Z-0.1491 I-0.0165 J-0.0149
X71.2893 Y5.4449 Z-0.1668 I0.0165 J0.0149
X71.2563 Y5.4151 Z-0.1845 I-0.0165 J-0.0149
X71.2871 Y5.413 Z-0.1932 I0.0165 J0.0149
X71.2585 Y5.447 Z-0.2109 I-0.0143 J0.017
X71.2515 Y5.4234 Z-0.2175 I0.0143 J-0.017
X71.2941 Y5.4366 I0.0213 J0.0066
X71.2515 Y5.4234 I-0.0213 J-0.0066
X71.2655 Y5.4161 I0.0106 J0.0033
G1 X71.2729 Y5.4184
X71.2759 Y5.4193 Z-0.2172
X71.2787 Y5.4202 Z-0.2163
X71.2812 Y5.421 Z-0.2149
X71.2835 Y5.4217 Z-0.2129
X71.2854 Y5.4222 Z-0.2105
X71.2868 Y5.4227 Z-0.2078
X71.2876 Y5.4229 Z-0.2049
X71.2879 Y5.423 Z-0.2018
G0 Z0.4
X71.5898 Y7.3916
Z0.13
G1 Z0.0657 F40.
G18 G2 X71.6055 Z0.05 I0.0157 K0.
G1 X71.6133
G17 G3 X71.6244 Y7.4027 I0. J0.0111
X71.5799 Z0.0323 I-0.0223 J0.
X71.6244 Z0.0146 I0.0223 J0.
X71.5867 Y7.4187 Z0.0014 I-0.0223 J0.
X71.6177 Y7.3867 Z-0.0164 I0.0155 J-0.016
X71.5867 Y7.4187 Z-0.0341 I-0.0155 J0.016
X71.6014 Y7.3805 Z-0.0473 I0.0155 J-0.016
X71.603 Y7.4249 Z-0.065 I0.0008 J0.0222
X71.6014 Y7.3805 Z-0.0827 I-0.0008 J-0.0222
X71.6187 Y7.4176 Z-0.0959 I0.0008 J0.0222
X71.5857 Y7.3878 Z-0.1136 I-0.0165 J-0.0149
X71.6187 Y7.4176 Z-0.1314 I0.0165 J0.0149
X71.5857 Y7.3878 Z-0.1491 I-0.0165 J-0.0149
X71.6187 Y7.4176 Z-0.1668 I0.0165 J0.0149
X71.6123 Y7.4225 Z-0.1689 I-0.0165 J-0.0149
X71.5921 Y7.3828 Z-0.1866 I-0.0101 J-0.0198
X71.6165 Y7.3857 Z-0.1932 I0.0101 J0.0198
X71.5879 Y7.4197 Z-0.2109 I-0.0143 J0.017
X71.5809 Y7.3961 Z-0.2175 I0.0143 J-0.017
X71.6235 Y7.4092 I0.0213 J0.0066
X71.5809 Y7.3961 I-0.0213 J-0.0066
X71.5948 Y7.3888 I0.0106 J0.0033
G1 X71.6023 Y7.3911
X71.6052 Y7.392 Z-0.2172
X71.608 Y7.3929 Z-0.2163
X71.6106 Y7.3936 Z-0.2149
X71.6129 Y7.3943 Z-0.2129
X71.6148 Y7.3949 Z-0.2105
X71.6161 Y7.3953 Z-0.2078
X71.617 Y7.3956 Z-0.2049
X71.6173 Y7.3957 Z-0.2018
G0 Z0.4
X71.6126 Y9.4889
Z0.13
G1 Z0.0657 F40.
G18 G2 X71.6283 Z0.05 I0.0156 K0.
G1 X71.6361
G17 G3 X71.6473 Y9.5 I0. J0.0111
X71.6027 Z0.0323 I-0.0223 J0.
X71.6473 Z0.0146 I0.0223 J0.
X71.6095 Y9.516 Z0.0014 I-0.0223 J0.
X71.6405 Y9.484 Z-0.0164 I0.0155 J-0.016
X71.6095 Y9.516 Z-0.0341 I-0.0155 J0.016
X71.6242 Y9.4778 Z-0.0473 I0.0155 J-0.016
X71.6258 Y9.5222 Z-0.065 I0.0008 J0.0222
X71.6242 Y9.4778 Z-0.0827 I-0.0008 J-0.0222
X71.6415 Y9.5149 Z-0.0959 I0.0008 J0.0222
X71.6085 Y9.4851 Z-0.1136 I-0.0165 J-0.0149
X71.6323 Y9.479 Z-0.1202 I0.0165 J0.0149
X71.6177 Y9.521 Z-0.1379 I-0.0073 J0.021
X71.6323 Y9.479 Z-0.1557 I0.0073 J-0.021
X71.6177 Y9.521 Z-0.1734 I-0.0073 J0.021
X71.6323 Y9.479 Z-0.1911 I0.0073 J-0.021
X71.6393 Y9.483 Z-0.1932 I-0.0073 J0.021
X71.6107 Y9.517 Z-0.2109 I-0.0143 J0.017
X71.6037 Y9.4934 Z-0.2175 I0.0143 J-0.017
X71.6463 Y9.5066 I0.0213 J0.0066
X71.6037 Y9.4934 I-0.0213 J-0.0066
X71.6176 Y9.4861 I0.0106 J0.0033
G1 X71.6251 Y9.4884
X71.628 Y9.4893 Z-0.2172
X71.6308 Y9.4902 Z-0.2163
X71.6334 Y9.491 Z-0.2149
X71.6357 Y9.4917 Z-0.2129
X71.6376 Y9.4922 Z-0.2105
X71.6389 Y9.4927 Z-0.2078
X71.6398 Y9.4929 Z-0.2049
X71.6401 Y9.493 Z-0.2018
G0 Z0.4
X71.4182 Y11.9889
Z0.13
G1 Z0.0657 F40.
G18 G2 X71.4339 Z0.05 I0.0157 K0.
G1 X71.4417
G17 G3 X71.4528 Y12. I0. J0.0111
X71.4083 Z0.0323 I-0.0223 J0.
X71.4219 Y11.9795 Z0.0257 I0.0223 J0.
X71.4392 Y12.0205 Z0.008 I0.0087 J0.0205
X71.4151 Y12.016 Z0.0014 I-0.0087 J-0.0205
X71.446 Y11.984 Z-0.0164 I0.0155 J-0.016
X71.4513 Y12.008 Z-0.023 I-0.0155 J0.016
X71.4098 Y11.992 Z-0.0407 I-0.0208 J-0.008
X71.4298 Y11.9778 Z-0.0473 I0.0208 J0.008
X71.4313 Y12.0222 Z-0.065 I0.0008 J0.0222
X71.4298 Y11.9778 Z-0.0827 I-0.0008 J-0.0222
X71.4313 Y12.0222 Z-0.1004 I0.0008 J0.0222
X71.4298 Y11.9778 Z-0.1182 I-0.0008 J-0.0222
X71.4378 Y11.979 Z-0.1202 I0.0008 J0.0222
X71.4233 Y12.021 Z-0.1379 I-0.0073 J0.021
X71.4378 Y11.979 Z-0.1557 I0.0073 J-0.021
X71.4406 Y12.0198 Z-0.1689 I-0.0073 J0.021
X71.4205 Y11.9802 Z-0.1866 I-0.0101 J-0.0198
X71.4449 Y11.983 Z-0.1932 I0.0101 J0.0198
X71.4162 Y12.017 Z-0.2109 I-0.0143 J0.017
X71.4093 Y11.9934 Z-0.2175 I0.0143 J-0.017
X71.4518 Y12.0066 I0.0213 J0.0066
X71.4093 Y11.9934 I-0.0213 J-0.0066
X71.4232 Y11.9861 I0.0106 J0.0033
G1 X71.4307 Y11.9884
X71.4336 Y11.9893 Z-0.2172
X71.4364 Y11.9902 Z-0.2163
X71.439 Y11.991 Z-0.2149
X71.4412 Y11.9917 Z-0.2129
X71.4431 Y11.9922 Z-0.2105
X71.4445 Y11.9927 Z-0.2078
X71.4453 Y11.9929 Z-0.2049
X71.4456 Y11.993 Z-0.2018
G0 Z0.4
X71.1875 Y13.5
Z0.1143
G1 Z0.05 F40.
X71.1881 Y13.4994
G3 X71.1887 Y13.5 I0. J0.0006
X71.1862 Z0.036 I-0.0012 J0.
X71.1874 Y13.4988 Z0.0294 I0.0012 J0.
X71.1876 Y13.5012 Z0.0154 I0.0001 J0.0012
X71.1863 Y13.5003 Z0.0088 I-0.0001 J-0.0012
X71.1887 Y13.4997 Z-0.0052 I0.0012 J-0.0003
X71.1879 Y13.5012 Z-0.0117 I-0.0012 J0.0003
X71.1871 Y13.4988 Z-0.0257 I-0.0004 J-0.0012
X71.1886 Y13.4995 Z-0.0323 I0.0004 J0.0012
X71.1864 Y13.5005 Z-0.0463 I-0.0011 J0.0005
X71.1869 Y13.4989 Z-0.0529 I0.0011 J-0.0005
X71.1881 Y13.5011 Z-0.0669 I0.0006 J0.0011
X71.1865 Y13.5007 Z-0.0735 I-0.0006 J-0.0011
X71.1885 Y13.4993 Z-0.0875 I0.001 J-0.0007
X71.1883 Y13.501 Z-0.094 I-0.001 J0.0007
X71.1867 Y13.499 Z-0.1081 I-0.0008 J-0.001
X71.1884 Y13.4991 Z-0.1146 I0.0008 J0.001
X71.1866 Y13.5009 Z-0.1286 I-0.0009 J0.0009
X71.1865 Y13.4992 Z-0.1352 I0.0009 J-0.0009
X71.1885 Y13.5008 Z-0.1492 I0.001 J0.0008
X71.1868 Y13.5011 Z-0.1558 I-0.001 J-0.0008
X71.1882 Y13.4989 Z-0.1698 I0.0007 J-0.0011
X71.1886 Y13.5006 Z-0.1763 I-0.0007 J0.0011
X71.1864 Y13.4994 Z-0.1904 I-0.0011 J-0.0006
X71.1879 Y13.4988 Z-0.1969 I0.0011 J0.0006
X71.1871 Y13.5012 Z-0.2109 I-0.0004 J0.0012
X71.1863 Y13.4997 Z-0.2175 I0.0004 J-0.0012
X71.1887 Y13.5003 I0.0012 J0.0003
X71.1863 Y13.4997 I-0.0012 J-0.0003
X71.1871 Y13.4992 I0.0006 J0.0002
G1 X71.1875 Y13.5
G0 Z0.4
X69.8646 Y14.2152
Z0.1143
G1 Z0.05 F40.
X69.8652 Y14.2146
G3 X69.8658 Y14.2152 I0. J0.0006
X69.8633 Z0.036 I-0.0012 J0.
X69.8645 Y14.214 Z0.0294 I0.0012 J0.
X69.8647 Y14.2165 Z0.0154 I0.0001 J0.0012
X69.8634 Y14.2155 Z0.0088 I-0.0001 J-0.0012
X69.8658 Y14.215 Z-0.0052 I0.0012 J-0.0002
X69.865 Y14.2164 Z-0.0117 I-0.0012 J0.0002
X69.8642 Y14.214 Z-0.0257 I-0.0004 J-0.0012
X69.8657 Y14.2147 Z-0.0323 I0.0004 J0.0012
X69.8634 Y14.2157 Z-0.0463 I-0.0011 J0.0005
X69.864 Y14.2141 Z-0.0529 I0.0011 J-0.0005
X69.8652 Y14.2163 Z-0.0669 I0.0006 J0.0011
X69.8636 Y14.2159 Z-0.0735 I-0.0006 J-0.0011
X69.8656 Y14.2145 Z-0.0875 I0.001 J-0.0007
X69.8654 Y14.2162 Z-0.094 I-0.001 J0.0007
X69.8638 Y14.2143 Z-0.1081 I-0.0008 J-0.001
X69.8655 Z-0.1146 I0.0008 J0.001
X69.8637 Y14.2161 Z-0.1286 I-0.0009 J0.0009
X69.8636 Y14.2144 Z-0.1352 I0.0009 J-0.0009
X69.8656 Y14.216 Z-0.1492 I0.001 J0.0008
X69.8639 Y14.2163 Z-0.1558 I-0.001 J-0.0008
X69.8653 Y14.2142 Z-0.1698 I0.0007 J-0.0011
X69.8657 Y14.2158 Z-0.1763 I-0.0007 J0.0011
X69.8635 Y14.2147 Z-0.1904 I-0.0011 J-0.0006
X69.865 Y14.214 Z-0.1969 I0.0011 J0.0006
X69.8642 Y14.2164 Z-0.2109 I-0.0004 J0.0012
X69.8634 Y14.2149 Z-0.2175 I0.0004 J-0.0012
X69.8658 Y14.2155 I0.0012 J0.0003
X69.8634 Y14.2149 I-0.0012 J-0.0003
X69.8642 Y14.2144 I0.0006 J0.0002
G1 X69.8646 Y14.2152
G0 Z0.4
X69.4337 Y14.4688
Z0.1143
G1 Z0.05 F40.
X69.4343 Y14.4682
G3 X69.4349 Y14.4688 I0. J0.0006
X69.4324 Z0.036 I-0.0012 J0.
X69.4335 Y14.4676 Z0.0294 I0.0012 J0.
X69.4338 Y14.47 Z0.0154 I0.0001 J0.0012
X69.4335 Y14.4676 Z0.0014 I-0.0001 J-0.0012
X69.434 Y14.47 Z-0.0117 I0.0001 J0.0012
X69.4333 Y14.4676 Z-0.0257 I-0.0004 J-0.0012
X69.4348 Y14.4683 Z-0.0323 I0.0004 J0.0012
X69.4325 Y14.4693 Z-0.0463 I-0.0011 J0.0005
X69.4331 Y14.4677 Z-0.0529 I0.0011 J-0.0005
X69.4343 Y14.4699 Z-0.0669 I0.0006 J0.0011
X69.4326 Y14.4695 Z-0.0735 I-0.0006 J-0.0011
X69.4347 Y14.4681 Z-0.0875 I0.001 J-0.0007
X69.4345 Y14.4698 Z-0.094 I-0.001 J0.0007
X69.4329 Y14.4678 Z-0.1081 I-0.0008 J-0.001
X69.4345 Y14.4679 Z-0.1146 I0.0008 J0.001
X69.4328 Y14.4697 Z-0.1286 I-0.0009 J0.0009
X69.4327 Y14.468 Z-0.1352 I0.0009 J-0.0009
X69.4347 Y14.4696 Z-0.1492 I0.001 J0.0008
X69.433 Y14.4699 Z-0.1558 I-0.001 J-0.0008
X69.4343 Y14.4677 Z-0.1698 I0.0007 J-0.0011
X69.4348 Y14.4694 Z-0.1763 I-0.0007 J0.0011
X69.4326 Y14.4682 Z-0.1904 I-0.0011 J-0.0006
X69.4341 Y14.4676 Z-0.1969 I0.0011 J0.0006
X69.4332 Y14.47 Z-0.2109 I-0.0004 J0.0012
X69.4325 Y14.4685 Z-0.2175 I0.0004 J-0.0012
X69.4349 Y14.4691 I0.0012 J0.0003
X69.4325 Y14.4685 I-0.0012 J-0.0003
X69.4332 Y14.468 I0.0006 J0.0002
G1 X69.4337 Y14.4688
G0 Z0.4
X67.0489 Y14.1651
Z0.13
G1 Z0.0657 F40.
G18 G2 X67.0646 Z0.05 I0.0156 K0.
G1 X67.0724
G17 G3 X67.0823 Y14.175 I0. J0.0099
X67.0427 Z0.0327 I-0.0198 J0.
X67.0822 Z0.0154 I0.0198 J0.
X67.046 Y14.1859 Z0.0014 I-0.0198 J0.
X67.079 Y14.1641 Z-0.0159 I0.0165 J-0.0109
X67.0776 Y14.1877 Z-0.023 I-0.0165 J0.0109
X67.0474 Y14.1623 Z-0.0402 I-0.0151 J-0.0127
X67.0703 Y14.1569 Z-0.0473 I0.0151 J0.0127
X67.0547 Y14.1931 Z-0.0646 I-0.0078 J0.0181
X67.0703 Y14.1569 Z-0.0818 I0.0078 J-0.0181
X67.0547 Y14.1931 Z-0.0991 I-0.0078 J0.0181
X67.0703 Y14.1569 Z-0.1164 I0.0078 J-0.0181
X67.0801 Y14.1661 Z-0.1202 I-0.0078 J0.0181
X67.0449 Y14.1839 Z-0.1375 I-0.0176 J0.0089
X67.0489 Y14.1607 Z-0.1445 I0.0176 J-0.0089
X67.0761 Y14.1893 Z-0.1618 I0.0136 J0.0143
X67.0527 Y14.1921 Z-0.1689 I-0.0136 J-0.0143
X67.0723 Y14.1579 Z-0.1861 I0.0098 J-0.0171
X67.0527 Y14.1921 Z-0.2034 I-0.0098 J0.0171
X67.0613 Y14.1553 Z-0.2175 I0.0098 J-0.0171
X67.0637 Y14.1947 I0.0012 J0.0197
X67.0613 Y14.1553 I-0.0012 J-0.0197
X67.0717 Y14.1645 I0.0006 J0.0099
G1 X67.0722 Y14.1723
X67.0724 Y14.1754 Z-0.2172
X67.0726 Y14.1783 Z-0.2163
X67.0728 Y14.181 Z-0.2149
X67.0729 Y14.1834 Z-0.2129
X67.073 Y14.1853 Z-0.2105
X67.0731 Y14.1868 Z-0.2078
X67.0732 Y14.1877 Z-0.2049
Y14.188 Z-0.2018
G0 Z0.4
X67.0489 Y14.9151
Z0.13
G1 Z0.0657 F40.
G18 G2 X67.0646 Z0.05 I0.0156 K0.
G1 X67.0724
G17 G3 X67.0823 Y14.925 I0. J0.0099
X67.0427 Z0.0327 I-0.0198 J0.
X67.0822 Z0.0154 I0.0198 J0.
X67.046 Y14.9359 Z0.0014 I-0.0198 J0.
X67.079 Y14.9141 Z-0.0159 I0.0165 J-0.0109
X67.0776 Y14.9377 Z-0.023 I-0.0165 J0.0109
X67.0474 Y14.9123 Z-0.0402 I-0.0151 J-0.0127
X67.0703 Y14.9069 Z-0.0473 I0.0151 J0.0127
X67.0547 Y14.9431 Z-0.0646 I-0.0078 J0.0181
X67.0429 Y14.9227 Z-0.0716 I0.0078 J-0.0181
X67.0821 Y14.9273 Z-0.0889 I0.0196 J0.0023
X67.0429 Y14.9227 Z-0.1062 I-0.0196 J-0.0023
X67.0801 Y14.9161 Z-0.1202 I0.0196 J0.0023
X67.0449 Y14.9339 Z-0.1375 I-0.0176 J0.0089
X67.0489 Y14.9107 Z-0.1445 I0.0176 J-0.0089
X67.0761 Y14.9393 Z-0.1618 I0.0136 J0.0143
X67.0527 Y14.9421 Z-0.1689 I-0.0136 J-0.0143
X67.0723 Y14.9079 Z-0.1861 I0.0098 J-0.0171
X67.0527 Y14.9421 Z-0.2034 I-0.0098 J0.0171
X67.0613 Y14.9053 Z-0.2175 I0.0098 J-0.0171
X67.0637 Y14.9447 I0.0012 J0.0197
X67.0613 Y14.9053 I-0.0012 J-0.0197
X67.0717 Y14.9145 I0.0006 J0.0099
G1 X67.0722 Y14.9223
X67.0724 Y14.9254 Z-0.2172
X67.0726 Y14.9283 Z-0.2163
X67.0728 Y14.931 Z-0.2149
X67.0729 Y14.9334 Z-0.2129
X67.073 Y14.9353 Z-0.2105
X67.0731 Y14.9368 Z-0.2078
X67.0732 Y14.9377 Z-0.2049
Y14.938 Z-0.2018
G0 Z0.4
X67.0489 Y15.6651
Z0.13
G1 Z0.0657 F40.
G18 G2 X67.0646 Z0.05 I0.0156 K0.
G1 X67.0724
G17 G3 X67.0823 Y15.675 I0. J0.0099
X67.0427 Z0.0327 I-0.0198 J0.
X67.0822 Z0.0154 I0.0198 J0.
X67.0427 Z-0.0018 I-0.0198 J0.
X67.0822 Z-0.0191 I0.0198 J0.
X67.0776 Y15.6877 Z-0.023 I-0.0198 J0.
X67.0474 Y15.6623 Z-0.0402 I-0.0151 J-0.0127
X67.0703 Y15.6569 Z-0.0473 I0.0151 J0.0127
X67.0547 Y15.6931 Z-0.0646 I-0.0078 J0.0181
X67.0429 Y15.6727 Z-0.0716 I0.0078 J-0.0181
X67.0821 Y15.6773 Z-0.0889 I0.0196 J0.0023
X67.0429 Y15.6727 Z-0.1062 I-0.0196 J-0.0023
X67.0821 Y15.6773 Z-0.1234 I0.0196 J0.0023
X67.0429 Y15.6727 Z-0.1407 I-0.0196 J-0.0023
X67.0489 Y15.6607 Z-0.1445 I0.0196 J0.0023
X67.0761 Y15.6893 Z-0.1618 I0.0136 J0.0143
X67.0527 Y15.6921 Z-0.1689 I-0.0136 J-0.0143
X67.0723 Y15.6579 Z-0.1861 I0.0098 J-0.0171
X67.0817 Y15.6795 Z-0.1932 I-0.0098 J0.0171
X67.0433 Y15.6705 Z-0.2105 I-0.0192 J-0.0045
X67.0613 Y15.6553 Z-0.2175 I0.0192 J0.0045
X67.0637 Y15.6947 I0.0012 J0.0197
X67.0613 Y15.6553 I-0.0012 J-0.0197
X67.0717 Y15.6645 I0.0006 J0.0099
G1 X67.0722 Y15.6723
X67.0724 Y15.6754 Z-0.2172
X67.0726 Y15.6783 Z-0.2163
X67.0728 Y15.681 Z-0.2149
X67.0729 Y15.6834 Z-0.2129
X67.073 Y15.6853 Z-0.2105
X67.0731 Y15.6868 Z-0.2078
X67.0732 Y15.6877 Z-0.2049
Y15.688 Z-0.2018
G0 Z0.6
(.3 CIRCULAR THROUGH HOLE)
M7
G0 X70.5382 Y7.9963
Z0.6
Z0.2
G1 Z0.1151 F13.333
G3 X70.5396 Y7.9959 Z0.1085 I0.0129 J0.0431 F55.
X70.5436 Y7.9951 Z0.1031 I0.0115 J0.0435
X70.5496 Y7.9945 Z0.1 I0.0075 J0.0444
X70.5781 Y8.0034 Z0.0918 I0.0015 J0.045
X70.5241 Y8.0754 Z0.054 I-0.027 J0.036
X70.5781 Y8.0034 Z0.0161 I0.027 J-0.036
X70.5241 Y8.0754 Z-0.0218 I-0.027 J0.036
X70.5781 Y8.0034 Z-0.0597 I0.027 J-0.036
X70.5241 Y8.0755 Z-0.0976 I-0.027 J0.036
X70.5061 Y8.0394 Z-0.1087 I0.027 J-0.036
X70.5565 I0.0252 J0. F60.
X70.4061 I-0.0752 J0.
X70.6565 I0.1252 J0.
X70.3061 I-0.1752 J0.
X70.7565 I0.2252 J0.
X70.2061 I-0.2752 J0.
X70.8565 I0.3252 J0.
X70.1061 I-0.3752 J0.
X70.8565 I0.3752 J0.
G2 X70.8998 Y8.109 I0.0774 J0.
G3 X70.9319 Y8.1844 I-0.0275 J0.0562
X70.0079 Y8.0394 I-0.4506 J-0.1451
X70.9547 I0.4734 J0.0002
X70.9319 Y8.1844 I-0.4734 J-0.0002
X70.9208 Y8.1889 I-0.0074 J-0.0024
G1 X70.8714 Y8.1631
X70.5925 Y8.0572
G3 X70.5781 Y8.0754 Z-0.115 I-0.0413 J-0.0178 F55.
X70.5241 Y8.0034 Z-0.1529 I-0.027 J-0.036
X70.5781 Y8.0755 Z-0.1908 I0.027 J0.036
X70.5061 Y8.0394 Z-0.2175 I-0.027 J-0.036
X70.5565 I0.0252 J0. F60.
X70.4061 I-0.0752 J0.
X70.6565 I0.1252 J0.
X70.3061 I-0.1752 J0.
X70.7565 I0.2252 J0.
X70.2061 I-0.2752 J0.
X70.8565 I0.3252 J0.
X70.1061 I-0.3752 J0.
X70.8565 I0.3752 J0.
G2 X70.8998 Y8.109 I0.0774 J0.
G3 X70.9319 Y8.1844 I-0.0275 J0.0562
X70.0079 Y8.0394 I-0.4506 J-0.1451
X70.9547 I0.4734 J0.0002
X70.9319 Y8.1844 I-0.4734 J-0.0002
G2 X70.9343 Y8.193 I0.0077 J0.0025
G3 X70.9366 Y8.2016 I-0.0052 J0.006
X69.9979 Y8.0394 I-0.4553 J-0.1624
X70.9647 I0.4834 J0.0002
X70.9366 Y8.2016 I-0.4834 J-0.0002
X70.9335 Y8.2068 Z-0.2163 I-0.0147 J-0.0053
X70.9296 Y8.21 Z-0.2129 I-0.0117 J-0.0104
X70.9265 Y8.2113 Z-0.2078 I-0.0078 J-0.0136
X70.9254 Y8.2116 Z-0.2019 I-0.0047 J-0.0149
G0 Z0.4
X69.6459 Y9.9
Z0.2
G1 Z0.1151 F13.333
G3 X69.6473 Y9.8996 Z0.1085 I0.0129 J0.0431 F55.
X69.6513 Y9.8987 Z0.1031 I0.0115 J0.0435
X69.6573 Y9.8981 Z0.1 I0.0075 J0.0444
X69.6858 Y9.9071 Z0.0918 I0.0015 J0.045
X69.6318 Y9.9791 Z0.054 I-0.027 J0.036
X69.6858 Y9.9071 Z0.0161 I0.027 J-0.036
X69.6318 Y9.9791 Z-0.0218 I-0.027 J0.036
X69.6858 Y9.9071 Z-0.0597 I0.027 J-0.036
X69.6318 Y9.9791 Z-0.0976 I-0.027 J0.036
X69.6138 Y9.9431 Z-0.1087 I0.027 J-0.036
X69.661 I0.0236 J0. F60.
X69.5138 I-0.0736 J0.
X69.761 I0.1236 J0.
X69.4138 I-0.1736 J0.
X69.861 I0.2236 J0.
X69.3138 I-0.2736 J0.
X69.961 I0.3236 J0.
X69.2138 I-0.3736 J0.
X70.061 I0.4236 J0.
X69.1138 I-0.4736 J0.
X70.061 I0.4736 J0.
X70.016 Y9.9881 Z-0.1242 I-0.045 J0. F55.
G1 X69.6588 Z-0.2021
G3 X69.6138 Y9.9431 Z-0.2175 I0. J-0.045
X69.661 I0.0236 J0. F60.
X69.5138 I-0.0736 J0.
X69.761 I0.1236 J0.
X69.4138 I-0.1736 J0.
X69.861 I0.2236 J0.
X69.3138 I-0.2736 J0.
X69.961 I0.3236 J0.
X69.2138 I-0.3736 J0.
X70.061 I0.4236 J0.
X69.1138 I-0.4736 J0.
X70.071 I0.4786 J0.
X69.1038 I-0.4836 J0.
X70.071 I0.4836 J0.
X70.0698 Y9.9489 Z-0.2163 I-0.0157 J0.
X70.0672 Y9.9532 Z-0.2129 I-0.0145 J-0.0058
X70.0647 Y9.9556 Z-0.2078 I-0.0119 J-0.0102
X70.0638 Y9.9562 Z-0.2019 I-0.0094 J-0.0125
G0 Z0.4
X73.5484 Y9.5099
Z0.2
G1 Z0.1151 F13.333
G3 X73.5498 Y9.5095 Z0.1085 I0.0129 J0.0431 F55.
X73.5539 Y9.5086 Z0.1031 I0.0115 J0.0435
X73.5598 Y9.508 Z0.1 I0.0075 J0.0444
X73.5884 Y9.517 Z0.0918 I0.0015 J0.045
X73.5344 Y9.589 Z0.054 I-0.027 J0.036
X73.5884 Y9.517 Z0.0161 I0.027 J-0.036
X73.5344 Y9.589 Z-0.0218 I-0.027 J0.036
X73.5884 Y9.517 Z-0.0597 I0.027 J-0.036
X73.5344 Y9.589 Z-0.0976 I-0.027 J0.036
X73.5164 Y9.553 Z-0.1087 I0.027 J-0.036
X73.5667 I0.0252 J0. F60.
X73.4164 I-0.0752 J0.
X73.6667 I0.1252 J0.
X73.3164 I-0.1752 J0.
X73.7667 I0.2252 J0.
X73.2164 I-0.2752 J0.
X73.8667 I0.3252 J0.
X73.1164 I-0.3752 J0.
X73.8667 I0.3752 J0.
G2 X73.9101 Y9.6225 I0.0774 J0.
G3 X73.9421 Y9.6979 I-0.0275 J0.0562
X73.0182 Y9.553 I-0.4506 J-0.1451
X73.9649 I0.4734 J0.0002
X73.9421 Y9.6979 I-0.4734 J-0.0002
X73.931 Y9.7024 I-0.0074 J-0.0024
G1 X73.8817 Y9.6766
X73.6027 Y9.5707
G3 X73.5884 Y9.589 Z-0.115 I-0.0414 J-0.0178 F55.
X73.5344 Y9.517 Z-0.1529 I-0.027 J-0.036
X73.5884 Y9.589 Z-0.1908 I0.027 J0.036
X73.5164 Y9.553 Z-0.2175 I-0.027 J-0.036
X73.5667 I0.0252 J0. F60.
X73.4164 I-0.0752 J0.
X73.6667 I0.1252 J0.
X73.3164 I-0.1752 J0.
X73.7667 I0.2252 J0.
X73.2164 I-0.2752 J0.
X73.8667 I0.3252 J0.
X73.1164 I-0.3752 J0.
X73.8667 I0.3752 J0.
G2 X73.9101 Y9.6225 I0.0774 J0.
G3 X73.9421 Y9.6979 I-0.0275 J0.0562
X73.0182 Y9.553 I-0.4506 J-0.1451
X73.9649 I0.4734 J0.0002
X73.9421 Y9.6979 I-0.4734 J-0.0002
G2 X73.9445 Y9.7065 I0.0077 J0.0025
G3 X73.9468 Y9.7151 I-0.0052 J0.006
X73.0082 Y9.553 I-0.4553 J-0.1624
X73.9749 I0.4834 J0.0002
X73.9468 Y9.7151 I-0.4834 J-0.0002
X73.9438 Y9.7203 Z-0.2163 I-0.0147 J-0.0053
X73.9399 Y9.7235 Z-0.2129 I-0.0117 J-0.0104
X73.9368 Y9.7248 Z-0.2078 I-0.0078 J-0.0136
X73.9356 Y9.7251 Z-0.2019 I-0.0047 J-0.0149
G0 Z0.4
X73.5644 Y7.4569
Z0.2
G1 Z0.1151 F13.333
G3 X73.5658 Y7.4565 Z0.1085 I0.0129 J0.0431 F55.
X73.5699 Y7.4556 Z0.1031 I0.0115 J0.0435
X73.5758 Y7.455 Z0.1 I0.0075 J0.0444
X73.6043 Y7.464 Z0.0918 I0.0015 J0.045
X73.5503 Y7.536 Z0.054 I-0.027 J0.036
X73.6043 Y7.464 Z0.0161 I0.027 J-0.036
X73.5503 Y7.536 Z-0.0218 I-0.027 J0.036
X73.6043 Y7.464 Z-0.0597 I0.027 J-0.036
X73.5503 Y7.536 Z-0.0976 I-0.027 J0.036
X73.5323 Y7.5 Z-0.1087 I0.027 J-0.036
X73.5795 I0.0236 J0. F60.
X73.4323 I-0.0736 J0.
X73.6795 I0.1236 J0.
X73.3323 I-0.1736 J0.
X73.7795 I0.2236 J0.
X73.2323 I-0.2736 J0.
X73.8795 I0.3236 J0.
X73.1323 I-0.3736 J0.
X73.9795 I0.4236 J0.
X73.0323 I-0.4736 J0.
X73.9795 I0.4736 J0.
X73.9345 Y7.545 Z-0.1242 I-0.045 J0. F55.
G1 X73.5773 Z-0.2021
G3 X73.5323 Y7.5 Z-0.2175 I0. J-0.045
X73.5795 I0.0236 J0. F60.
X73.4323 I-0.0736 J0.
X73.6795 I0.1236 J0.
X73.3323 I-0.1736 J0.
X73.7795 I0.2236 J0.
X73.2323 I-0.2736 J0.
X73.8795 I0.3236 J0.
X73.1323 I-0.3736 J0.
X73.9795 I0.4236 J0.
X73.0323 I-0.4736 J0.
X73.9895 I0.4786 J0.
X73.0224 I-0.4836 J0.
X73.9895 I0.4836 J0.
X73.9883 Y7.5058 Z-0.2163 I-0.0156 J0.
X73.9857 Y7.5102 Z-0.2129 I-0.0145 J-0.0058
X73.9833 Y7.5125 Z-0.2078 I-0.0119 J-0.0102
X73.9823 Y7.5132 Z-0.2019 I-0.0094 J-0.0125
G0 Z0.4
X69.7746 Y6.2539
Z0.2
G1 Z0.1151 F13.333
G3 X69.7761 Y6.2535 Z0.1085 I0.0129 J0.0431 F55.
X69.7801 Y6.2527 Z0.1031 I0.0115 J0.0435
X69.7861 Y6.2521 Z0.1 I0.0075 J0.0444
X69.8146 Y6.261 Z0.0918 I0.0015 J0.045
Y6.333 Z0.0695 I-0.027 J0.036
X69.7606 Y6.261 Z0.0316 I-0.027 J-0.036
X69.8146 Z0.0161 I0.027 J0.036
Y6.333 Z-0.0063 I-0.027 J0.036
X69.7606 Y6.261 Z-0.0442 I-0.027 J-0.036
X69.8146 Z-0.0597 I0.027 J0.036
Y6.333 Z-0.0821 I-0.027 J0.036
X69.7426 Y6.297 Z-0.1087 I-0.027 J-0.036
X69.7897 I0.0236 J0. F60.
X69.6426 I-0.0736 J0.
X69.8897 I0.1236 J0.
X69.5426 I-0.1736 J0.
X69.9897 I0.2236 J0.
X69.4426 I-0.2736 J0.
X70.0897 I0.3236 J0.
X69.3426 I-0.3736 J0.
X70.1897 I0.4236 J0.
X69.2426 I-0.4736 J0.
X70.1897 I0.4736 J0.
X70.1447 Y6.342 Z-0.1242 I-0.045 J0. F55.
G1 X69.7876 Z-0.2021
G3 X69.7426 Y6.297 Z-0.2175 I0. J-0.045
X69.7897 I0.0236 J0. F60.
X69.6426 I-0.0736 J0.
X69.8897 I0.1236 J0.
X69.5426 I-0.1736 J0.
X69.9897 I0.2236 J0.
X69.4426 I-0.2736 J0.
X70.0897 I0.3236 J0.
X69.3426 I-0.3736 J0.
X70.1897 I0.4236 J0.
X69.2426 I-0.4736 J0.
X70.1997 I0.4786 J0.
X69.2326 I-0.4836 J0.
X70.1997 I0.4836 J0.
X70.1986 Y6.3029 Z-0.2163 I-0.0157 J0.
X70.196 Y6.3072 Z-0.2129 I-0.0145 J-0.0058
X70.1935 Y6.3095 Z-0.2078 I-0.0119 J-0.0102
X70.1925 Y6.3102 Z-0.2019 I-0.0094 J-0.0125
G0 Z0.6
(SHAPE THROUGH HOLE)
M7
G0 X67.7838 Y9.8416
Z0.6
Z0.1
G3 X67.692 Y9.7878 Z0.0791 I-0.0197 J-0.0717 F50.
X67.7479 Y9.6974 Z0.0582 I0.0721 J-0.0179
X67.837 Y9.7555 Z0.0373 I0.0162 J0.0726
X67.7767 Y9.8432 Z0.0164 I-0.0729 J0.0144
X67.6905 Y9.7807 Z-0.0045 I-0.0126 J-0.0733
X67.7551 Y9.6961 Z-0.0255 I0.0735 J-0.0108
X67.8381 Y9.7627 Z-0.0464 I0.009 J0.0738
X67.7695 Y9.844 Z-0.0673 I-0.074 J0.0072
X67.6898 Y9.7735 Z-0.0882 I-0.0054 J-0.0741
X67.7623 Y9.6956 Z-0.1091 I0.0742 J-0.0036
X67.8384 Y9.7699 Z-0.13 I0.0018 J0.0743
X67.6898 I-0.0743 J0.
X67.8382 Y9.7637 I0.0743 J0.
G1 X67.8384 Y9.7699
G3 X67.6731 Y9.8882 I-0.0855 J0.0551 F60.
G1 X67.6653 Y9.8823
X67.6578 Y9.8759
X67.6508 Y9.8691
X67.6443 Y9.8619
X67.6382 Y9.8543
X67.6326 Y9.8463
X67.6275 Y9.8379
X67.623 Y9.8293
X67.619 Y9.8204
X67.6156 Y9.8112
X67.6127 Y9.8019
X67.6105 Y9.7924
X67.6089 Y9.7827
X67.6078 Y9.773
X67.6074 Y9.7633
X67.6077 Y9.7535
X67.6085 Y9.7438
X67.6099 Y9.7341
X67.612 Y9.7246
X67.6146 Y9.7152
X67.6178 Y9.7059
X67.6216 Y9.6969
X67.626 Y9.6882
X67.6309 Y9.6798
X67.6363 Y9.6717
X67.6423 Y9.6639
X67.6487 Y9.6565
X67.6556 Y9.6496
X67.6628 Y9.6431
X67.6705 Y9.6371
X67.6786 Y9.6315
X67.687 Y9.6265
X67.6956 Y9.6221
X67.7046 Y9.6181
X67.7138 Y9.6148
X67.7231 Y9.612
X67.7326 Y9.6099
X67.7423 Y9.6083
X67.752 Y9.6074
X67.7618 Y9.6071
X67.7715 Y9.6074
X67.7812 Y9.6083
X67.7909 Y9.6098
X67.8004 Y9.6119
X67.8098 Y9.6146
X67.819 Y9.6179
X67.8279 Y9.6218
X67.8366 Y9.6262
X67.845 Y9.6312
X67.8531 Y9.6367
X67.8608 Y9.6427
X67.8681 Y9.6492
X67.875 Y9.6561
X67.8814 Y9.6634
X67.8874 Y9.6711
X67.8929 Y9.6792
X67.8978 Y9.6877
X67.9022 Y9.6964
X67.906 Y9.7053
X67.9093 Y9.7145
X67.9153 Y9.7237
X67.9208 Y9.7332
X67.9257 Y9.7431
X67.93 Y9.7531
X67.9338 Y9.7634
X67.937 Y9.7739
X67.9395 Y9.7846
X67.9415 Y9.7954
X67.9429 Y9.8063
X67.9436 Y9.8172
X67.9437 Y9.8282
X67.9432 Y9.8392
X67.942 Y9.8501
X67.9403 Y9.8609
X67.9379 Y9.8716
X67.9349 Y9.8822
X67.9313 Y9.8925
X67.9272 Y9.9027
X67.9224 Y9.9126
X67.9171 Y9.9222
X67.9113 Y9.9315
X67.905 Y9.9405
X67.8981 Y9.949
X67.8908 Y9.9572
X67.883 Y9.9649
X67.8748 Y9.9722
X67.8662 Y9.979
X67.8573 Y9.9853
X67.8479 Y9.9911
X67.8383 Y9.9964
X67.8284 Y10.0011
X67.8182 Y10.0052
X67.8079 Y10.0087
X67.7973 Y10.0117
X67.7866 Y10.014
X67.7757 Y10.0157
X67.7648 Y10.0168
X67.7539 Y10.0173
X67.7429 Y10.0172
X67.732 Y10.0164
X67.7211 Y10.015
X67.7103 Y10.013
X67.6996 Y10.0104
X67.6891 Y10.0072
X67.6789 Y10.0034
X67.6688 Y9.999
X67.659 Y9.9941
X67.6495 Y9.9886
X67.6404 Y9.9825
X67.6316 Y9.976
X67.6231 Y9.969
X67.6151 Y9.9615
X67.6076 Y9.9535
X67.5979 Y9.9461
X67.5887 Y9.9382
X67.5799 Y9.9298
X67.5715 Y9.921
X67.5636 Y9.9117
X67.5562 Y9.9021
X67.5492 Y9.8921
X67.5428 Y9.8817
X67.537 Y9.8711
X67.5317 Y9.8601
X67.527 Y9.8489
X67.5228 Y9.8375
X67.5193 Y9.8258
X67.5163 Y9.814
X67.514 Y9.8021
X67.5123 Y9.79
X67.5112 Y9.7779
X67.5107 Y9.7657
X67.5108 Y9.7536
X67.5116 Y9.7414
X67.513 Y9.7294
X67.515 Y9.7174
X67.5177 Y9.7055
X67.5209 Y9.6937
X67.5247 Y9.6822
X67.5292 Y9.6709
X67.5342 Y9.6598
X67.5397 Y9.649
X67.5459 Y9.6384
X67.5525 Y9.6283
X67.5597 Y9.6184
X67.5673 Y9.609
X67.5755 Y9.5999
X67.5841 Y9.5913
X67.5931 Y9.5831
X67.6025 Y9.5755
X67.6123 Y9.5683
X67.6225 Y9.5616
X67.633 Y9.5555
X67.6438 Y9.5499
X67.6549 Y9.5448
X67.6675 Y9.5403
X67.6802 Y9.5364
X67.6932 Y9.5332
X67.7062 Y9.5305
X67.7194 Y9.5284
X67.7327 Y9.5269
X67.746 Y9.526
X67.7593 Y9.5258
X67.7726 Y9.5262
X67.7859 Y9.5272
X67.7992 Y9.5288
X67.8123 Y9.531
X67.8254 Y9.5338
X67.8383 Y9.5373
X67.851 Y9.5413
X67.8635 Y9.5459
X67.8758 Y9.5511
X67.8878 Y9.5568
X67.8996 Y9.5631
X67.911 Y9.57
X67.9222 Y9.5773
X67.9329 Y9.5852
X67.9433 Y9.5936
X67.9533 Y9.6024
X67.9629 Y9.6117
X67.972 Y9.6214
X67.9807 Y9.6316
X67.9889 Y9.6421
X67.9966 Y9.653
X68.0038 Y9.6642
X68.0104 Y9.6758
X68.0166 Y9.6876
X68.0221 Y9.6998
X68.0271 Y9.7121
X68.0315 Y9.7247
X68.0353 Y9.7375
X68.0386 Y9.7504
X68.0412 Y9.7635
X68.0432 Y9.7767
X68.0446 Y9.79
X68.0454 Y9.8033
X68.0456 Y9.8166
X68.0451 Y9.8299
X68.044 Y9.8432
X68.0424 Y9.8565
X68.0401 Y9.8696
X68.0372 Y9.8826
X68.0337 Y9.8955
X68.0296 Y9.9082
X68.0249 Y9.9207
X68.0196 Y9.933
X68.0138 Y9.945
X68.0075 Y9.9567
X68.0006 Y9.9681
X67.9931 Y9.9792
X67.9852 Y9.9899
X67.9768 Y10.0002
X67.9679 Y10.0102
X67.9586 Y10.0197
X67.9488 Y10.0288
X67.9386 Y10.0374
X67.928 Y10.0456
X67.9171 Y10.0532
X67.9058 Y10.0603
X67.8942 Y10.0669
X67.8824 Y10.073
X67.8702 Y10.0784
X67.8578 Y10.0834
X67.8452 Y10.0877
X67.8061 Y10.0978
G3 X67.4199 Y9.8021 I-0.0626 J-0.3183
G2 X67.4412 Y9.686 I-0.2975 J-0.1146
G1 X67.4437 Y9.6726
X67.4468 Y9.6592
X67.4505 Y9.6461
X67.4547 Y9.6331
X67.4595 Y9.6203
X67.4648 Y9.6077
X67.4707 Y9.5953
X67.4772 Y9.5833
X67.4841 Y9.5715
X67.4915 Y9.56
X67.4995 Y9.5489
X67.5079 Y9.5381
X67.5168 Y9.5277
X67.5261 Y9.5177
X67.5358 Y9.5081
X67.546 Y9.499
X67.5565 Y9.4902
X67.5674 Y9.482
X67.5787 Y9.4743
X67.5903 Y9.467
X67.6022 Y9.4602
X67.6143 Y9.454
X67.6268 Y9.4483
X67.6394 Y9.4432
X67.6523 Y9.4386
X67.6654 Y9.4346
X67.6786 Y9.4311
X67.692 Y9.4282
X67.7054 Y9.426
X67.719 Y9.4243
X67.7326 Y9.4231
X67.7463 Y9.4226
X67.76 Y9.4227
X67.7736 Y9.4234
X67.7872 Y9.4247
X67.9478 Y9.4881
G3 X68.0586 Y10.0505 I-0.1905 J0.3296
G1 X67.8459 Y10.0901
G3 X67.84 Y10.0593 I-0.003 J-0.0154
X67.8459 Y10.0901 I0.003 J0.0154
X67.8408 Y10.0902 I-0.003 J-0.0154
G1 X67.8209 Y10.0874
G3 X67.8253 Y10.0564 I0.0022 J-0.0155
X67.8335 Y10.0836 I-0.0022 J0.0155
X67.8061 Y10.0978 I-0.0415 J-0.0465 F50.
G1 X67.617 Y10.1344 F60.
G3 X67.3557 Y9.9209 I0.0046 J-0.2723
G2 X67.4201 Y9.8021 I-0.2558 J-0.2154
G3 X67.4321 Y9.7922 I0.0147 J0.0054
X67.463 Y9.8086 I0.0048 J0.0282
X67.3851 Y9.9193 I-0.0719 J0.0322
X67.3708 Y9.9169 I0.006 J-0.0785 F50.
G2 X67.3557 Y9.9209 I-0.004 J0.0151
G1 X67.3382 Y9.9397 F60.
G2 X67.4263 Y10.1714 I0.1636 J0.0704
G1 X67.617 Y10.1344
G2 X67.6285 Y10.1238 I-0.0035 J-0.0153
X67.6208 Y10.1005 I-0.0203 J-0.0062
X67.4428 Y10.1471 I-0.0702 J0.095
X67.4377 Y10.1607 I0.1078 J0.0483 F50.
G3 X67.4263 Y10.1714 I-0.015 J-0.0046
G1 X67.3807 Y10.1802 F60.
G3 X67.3391 Y10.1752 I-0.0158 J-0.0438
X67.3508 Y10.1488 I0.0114 J-0.0107
G1 X67.3775 Y10.1493
G3 X67.3898 Y10.1557 I-0.0003 J0.0156
X67.3807 Y10.1802 I-0.0126 J0.0092 F50.
X67.3055 Y10.1394 I-0.0223 J-0.0486 F60.
G1 X67.2961 Y10.1347
G3 X67.2495 Y10.0777 I0.0346 J-0.0758
X67.2768 Y10.0677 I0.0156 J0.0005
G1 X67.3159 Y10.1109
G3 X67.3198 Y10.1238 I-0.0116 J0.0105
X67.2961 Y10.1347 I-0.0155 J-0.0024 F50.
X67.2495 Y10.1022 I0.004 J-0.0553 F60.
X67.3225 Y9.9634 I0.0887 J-0.042
G1 X67.3382 Y9.9397
G3 X67.3638 Y9.945 I0.0111 J0.0111
G1 X67.3649 Y9.9478 Z-0.1297
X67.366 Y9.9505 Z-0.1288
X67.367 Y9.9531 Z-0.1274
X67.3679 Y9.9553 Z-0.1254
X67.3686 Y9.9571 Z-0.123
X67.3692 Y9.9584 Z-0.1203
X67.3695 Y9.9592 Z-0.1174
X67.3696 Y9.9595 Z-0.1143
G0 Z-0.0987
X67.8211 Y9.4554
G1 Z-0.1143 F50.
X67.821 Y9.4552 Z-0.1174
X67.8204 Y9.4545 Z-0.1203
X67.8195 Y9.4533 Z-0.123
X67.8184 Y9.4518 Z-0.1254
X67.8169 Y9.4499 Z-0.1274
X67.8153 Y9.4477 Z-0.1288
X67.8135 Y9.4454 Z-0.1297
X67.8116 Y9.443 Z-0.13
G2 X67.7873 Y9.4239 I-0.0495 J0.0379
G1 X67.6752 Y9.379 F60.
G2 X67.4055 Y9.5221 I-0.0346 J0.2604
G3 X67.4412 Y9.686 I-0.3435 J0.1606
G2 X67.4504 Y9.6987 I0.0156 J-0.0016
X67.5211 Y9.6559 I0.0206 J-0.0458
X67.4323 Y9.5343 I-0.1179 J-0.0072
X67.418 Y9.5316 I-0.029 J0.1145 F50.
G3 X67.4055 Y9.5221 I0.002 J-0.0155
G1 X67.405 Y9.5207 F60.
X67.4043 Y9.5195
X67.3911 Y9.4971
G3 X67.5062 Y9.3113 I0.157 J-0.0312
G1 X67.6752 Y9.379
G3 X67.6844 Y9.3916 I-0.0063 J0.0143
X67.6601 Y9.426 I-0.0316 J0.0035
X67.5179 Y9.3383 I-0.0273 J-0.1149
X67.5154 Y9.324 I0.1149 J-0.0272 F50.
G2 X67.5062 Y9.3113 I-0.0156 J0.0017
G1 X67.4681 Y9.2961 F60.
G2 X67.3108 Y9.3988 I-0.0295 J0.1266
G3 X67.3909 Y9.4972 I-0.189 J0.2356
G1 X67.3926 Y9.4993
X67.3947 Y9.5012
X67.397 Y9.5026
X67.3996 Y9.5036
X67.4022 Y9.5041
X67.405 Y9.5042
G2 X67.432 Y9.4747 I-0.0014 J-0.0285
X67.3433 Y9.3994 I-0.0787 J0.0028
X67.3291 Y9.4026 I0.0101 J0.0781 F50.
G3 X67.3138 Y9.3993 I-0.0048 J-0.0149
G1 X67.3098 Y9.3954 F60.
X67.2983 Y9.3872
G3 X67.3369 Y9.2424 I0.0765 J-0.0572
G1 X67.3396 Y9.2438
X67.3419 Y9.2456
X67.3439 Y9.2478
X67.3454 Y9.2503
X67.3464 Y9.253
X67.347 Y9.2558
Y9.2586
X67.3466 Y9.2614
X67.3446 Y9.2708
X67.3224 Y9.377
X67.3223 Y9.3774 F50.
G3 X67.2983 Y9.3872 I-0.0153 J-0.0032
X67.2496 Y9.3524 I0.0752 J-0.157 F60.
X67.2987 Y9.2286 I0.0782 J-0.0406
G1 X67.2995
X67.4681 Y9.2961
G3 X67.4724 Y9.3219 I-0.0063 J0.0143
G1 X67.4702 Y9.3239 Z-0.1297
X67.468 Y9.3259 Z-0.1288
X67.4661 Y9.3278 Z-0.1274
X67.4643 Y9.3294 Z-0.1254
X67.4629 Y9.3307 Z-0.123
X67.4619 Y9.3317 Z-0.1203
X67.4612 Y9.3323 Z-0.1174
X67.461 Y9.3325 Z-0.1143
G0 Z-0.0987
X67.9016 Y9.4876
G1 Z-0.1143 F50.
X67.9019 Z-0.1174
X67.9028 Y9.4874 Z-0.1203
X67.9042 Y9.4872 Z-0.123
X67.9061 Y9.4869 Z-0.1254
X67.9085 Y9.4865 Z-0.1274
X67.9112 Y9.4861 Z-0.1288
X67.9141 Y9.4857 Z-0.1297
X67.9171 Y9.4852 Z-0.13
G3 X67.9478 Y9.4881 I0.0097 J0.0616
G1 X68.1026 Y9.5501 F60.
G3 X68.2129 Y9.9601 I-0.2136 J0.2773
X68.1823 Y10.0249 I-0.0673 J0.0078
G1 X68.0569 Y10.0492
G3 X68.0423 Y10.0436 I-0.0024 J-0.0155
X68.0415 Y10.0244 I0.0124 J-0.0101
X68.1576 Y10.0089 I0.065 J0.0444
X68.1677 Y10.0193 I-0.051 J0.06 F50.
G2 X68.1823 Y10.0249 I0.0122 J-0.0099
G1 X68.2249 Y10.0166 F60.
G2 X68.2991 Y9.672 I-0.1484 J-0.2123
X68.2868 Y9.6238 I-0.0313 J-0.0177
G1 X68.1026 Y9.5501
G2 X68.0872 Y9.5528 I-0.0053 J0.0147
X68.0821 Y9.5701 I0.0106 J0.0125
X68.2597 Y9.6352 I0.1132 J-0.0339
X68.2714 Y9.6265 I-0.0644 J-0.099 F50.
G3 X68.2868 Y9.6238 I0.0101 J0.012
G1 X68.3389 Y9.6447 F60.
G3 X68.3806 Y9.9865 I-0.1828 J0.1957
G1 X68.2249 Y10.0166
G3 X68.2103 Y10.011 I-0.0024 J-0.0155
X68.225 Y9.9479 I0.0319 J-0.0259
X68.3562 Y9.9701 I0.0492 J0.1074
X68.366 Y9.9808 I-0.0819 J0.0851 F50.
G2 X68.3806 Y9.9865 I0.0122 J-0.0099
G1 X68.4205 Y9.9787 F60.
G2 X68.4942 Y9.7068 I-0.1104 J-0.1759
G1 X68.3389 Y9.6447
G2 X68.3235 Y9.6474 I-0.0053 J0.0147
X68.3221 Y9.7056 I0.0251 J0.0297
X68.4671 Y9.7182 I0.0806 J-0.0863
X68.4788 Y9.7096 I-0.0644 J-0.099 F50.
G3 X68.4942 Y9.7068 I0.0101 J0.012
G1 X68.5338 Y9.7227 F60.
X68.5417 Y9.7286
X68.5491 Y9.7351
X68.5562 Y9.7419
X68.5628 Y9.7492
X68.569 Y9.7568
X68.5747 Y9.7648
X68.5799 Y9.7732
X68.5847 Y9.7818
X68.5888 Y9.7907
X68.5925 Y9.7999
X68.5956 Y9.8092
X68.5981 Y9.8187
X68.6001 Y9.8283
X68.6014 Y9.8381
X68.6022 Y9.8479
X68.6024 Y9.8577
X68.602 Y9.8676
X68.601 Y9.8773
X68.5994 Y9.8871
X68.5973 Y9.8967
X68.5945 Y9.9061
X68.5913 Y9.9154
X68.5874 Y9.9244
X68.583 Y9.9332
X68.5781 Y9.9418
X68.5727 Y9.95
X68.4205 Y9.9787
G3 X68.4059 Y9.9731 I-0.0024 J-0.0155
X68.4234 Y9.9078 I0.0324 J-0.0263
X68.5474 Y9.9331 I0.0421 J0.1104
X68.5573 Y9.9438 I-0.0819 J0.0851 F50.
G2 X68.5719 Y9.9494 I0.0122 J-0.0099
G1 X68.6095 Y9.9421 F60.
X68.6174 Y9.9381
X68.6251 Y9.9335
X68.6324 Y9.9285
X68.6393 Y9.9229
X68.6458 Y9.9169
X68.6519 Y9.9104
X68.6575 Y9.9035
X68.6626 Y9.8963
X68.6673 Y9.8887
X68.6713 Y9.8808
X68.6749 Y9.8726
X68.6778 Y9.8643
X68.6802 Y9.8557
X68.6819 Y9.847
X68.6831 Y9.8382
X68.6836 Y9.8293
X68.6835 Y9.8205
X68.6829 Y9.8116
X68.6816 Y9.8028
X68.6796 Y9.7941
X68.6771 Y9.7856
X68.674 Y9.7773
X68.5338 Y9.7227
G2 X68.5184 Y9.7254 I-0.0053 J0.0147
X68.5262 Y9.7953 I0.0273 J0.0323
X68.6451 Y9.7895 I0.0545 J-0.1048
X68.6568 Y9.7808 I-0.0644 J-0.099 F50.
G3 X68.6722 Y9.7781 I0.0101 J0.012
G1 X68.6993 Y9.7889 F60.
G3 X68.737 Y9.9191 I-0.0455 J0.0838
G1 X68.7339 Y9.9194
X68.7308 Y9.9192
X68.7278 Y9.9184
X68.725 Y9.9171
X68.7225 Y9.9153
X68.7205 Y9.9132
X68.7189 Y9.9107
X68.7178 Y9.908
X68.7143 Y9.899
X68.6794 Y9.8093
X68.6787 Y9.807
X68.6783 Y9.8045
G3 X68.6993 Y9.7889 I0.0156 J-0.0009 F50.
X68.7452 Y9.8719 I0.0115 J0.0478 F60.
G1 X68.7459 Y9.9151
X68.7454 Y9.9158
X68.6095 Y9.9421
G3 X68.5956 Y9.9373 I-0.0024 J-0.0155
G1 X68.5944 Y9.9353 Z-0.1298
X68.5933 Y9.9333 Z-0.1293
X68.5921 Y9.9313 Z-0.1284
X68.5918 Y9.9288 Z-0.1267
X68.5914 Y9.9266 Z-0.1247
X68.5916 Y9.925 Z-0.1224
X68.5918 Y9.9238 Z-0.1199
X68.5919 Y9.923 Z-0.1172
Y9.9228 Z-0.1144
G0 Z0.4
X67.7587 Y14.8378
Z0.1
G3 X67.6668 Y14.784 Z0.0791 I-0.0197 J-0.0717 F50.
X67.7228 Y14.6935 Z0.0582 I0.0721 J-0.0179
X67.8119 Y14.7517 Z0.0373 I0.0162 J0.0726
X67.7516 Y14.8394 Z0.0164 I-0.0729 J0.0144
X67.6654 Y14.7769 Z-0.0045 I-0.0126 J-0.0733
X67.7299 Y14.6923 Z-0.0255 I0.0735 J-0.0108
X67.748 Y14.8399 Z-0.0666 I0.009 J0.0738
X67.7299 Y14.6923 Z-0.1078 I-0.009 J-0.0738
X67.8133 Y14.7661 Z-0.13 I0.009 J0.0738
X67.6646 I-0.0743 J0.
X67.813 Y14.7599 I0.0743 J0.
G1 X67.8133 Y14.7661
G3 X67.6479 Y14.8844 I-0.0855 J0.0551 F60.
G1 X67.6401 Y14.8785
X67.6327 Y14.8721
X67.6257 Y14.8653
X67.6192 Y14.8581
X67.6131 Y14.8505
X67.6075 Y14.8425
X67.6024 Y14.8341
X67.5978 Y14.8255
X67.5939 Y14.8165
X67.5904 Y14.8074
X67.5876 Y14.7981
X67.5854 Y14.7885
X67.5837 Y14.7789
X67.5827 Y14.7692
X67.5823 Y14.7595
X67.5825 Y14.7497
X67.5834 Y14.74
X67.5848 Y14.7303
X67.5868 Y14.7208
X67.5895 Y14.7114
X67.5927 Y14.7021
X67.5965 Y14.6931
X67.6009 Y14.6844
X67.6058 Y14.676
X67.6112 Y14.6679
X67.6172 Y14.6601
X67.6236 Y14.6527
X67.6304 Y14.6458
X67.6377 Y14.6393
X67.6454 Y14.6333
X67.6534 Y14.6277
X67.6618 Y14.6227
X67.6705 Y14.6183
X67.6795 Y14.6143
X67.6886 Y14.611
X67.698 Y14.6082
X67.7075 Y14.6061
X67.7172 Y14.6045
X67.7269 Y14.6036
X67.7366 Y14.6033
X67.7464 Y14.6035
X67.7561 Y14.6045
X67.7658 Y14.606
X67.7753 Y14.6081
X67.7847 Y14.6108
X67.7938 Y14.6141
X67.8028 Y14.618
X67.8115 Y14.6224
X67.8199 Y14.6274
X67.828 Y14.6329
X67.8357 Y14.6389
X67.843 Y14.6454
X67.8499 Y14.6523
X67.8563 Y14.6596
X67.8623 Y14.6673
X67.8677 Y14.6754
X67.8727 Y14.6839
X67.8771 Y14.6926
X67.8809 Y14.7015
X67.8842 Y14.7107
X67.8902 Y14.7199
X67.8956 Y14.7294
X67.9006 Y14.7393
X67.9049 Y14.7493
X67.9087 Y14.7596
X67.9118 Y14.7701
X67.9144 Y14.7808
X67.9164 Y14.7916
X67.9177 Y14.8025
X67.9185 Y14.8134
X67.9186 Y14.8244
X67.918 Y14.8354
X67.9169 Y14.8463
X67.9151 Y14.8571
X67.9128 Y14.8678
X67.9098 Y14.8784
X67.9062 Y14.8887
X67.902 Y14.8989
X67.8973 Y14.9088
X67.892 Y14.9184
X67.8862 Y14.9277
X67.8798 Y14.9366
X67.873 Y14.9452
X67.8657 Y14.9534
X67.8579 Y14.9611
X67.8497 Y14.9684
X67.8411 Y14.9752
X67.8321 Y14.9815
X67.8228 Y14.9873
X67.8132 Y14.9926
X67.8033 Y14.9973
X67.7931 Y15.0014
X67.7827 Y15.0049
X67.7722 Y15.0079
X67.7614 Y15.0102
X67.7506 Y15.0119
X67.7397 Y15.013
X67.7287 Y15.0135
X67.7178 Y15.0134
X67.7068 Y15.0126
X67.6959 Y15.0112
X67.6852 Y15.0092
X67.6745 Y15.0066
X67.664 Y15.0034
X67.6537 Y14.9996
X67.6437 Y14.9952
X67.6339 Y14.9903
X67.6244 Y14.9848
X67.6152 Y14.9787
X67.6064 Y14.9722
X67.598 Y14.9652
X67.59 Y14.9577
X67.5824 Y14.9497
X67.5728 Y14.9423
X67.5636 Y14.9344
X67.5547 Y14.926
X67.5464 Y14.9172
X67.5385 Y14.9079
X67.531 Y14.8983
X67.5241 Y14.8883
X67.5177 Y14.8779
X67.5119 Y14.8673
X67.5066 Y14.8563
X67.5018 Y14.8451
X67.4977 Y14.8337
X67.4941 Y14.822
X67.4912 Y14.8102
X67.4889 Y14.7983
X67.4871 Y14.7862
X67.486 Y14.7741
X67.4856 Y14.7619
X67.4857 Y14.7498
X67.4865 Y14.7376
X67.4879 Y14.7255
X67.4899 Y14.7136
X67.4925 Y14.7017
X67.4958 Y14.6899
X67.4996 Y14.6784
X67.504 Y14.6671
X67.5091 Y14.656
X67.5146 Y14.6452
X67.5207 Y14.6346
X67.5274 Y14.6245
X67.5346 Y14.6146
X67.5422 Y14.6052
X67.5504 Y14.5961
X67.559 Y14.5875
X67.568 Y14.5793
X67.5774 Y14.5717
X67.5872 Y14.5645
X67.5974 Y14.5578
X67.6079 Y14.5516
X67.6187 Y14.5461
X67.6298 Y14.541
X67.6424 Y14.5365
X67.6552 Y14.5325
X67.6682 Y14.5291
X67.6813 Y14.5264
X67.6946 Y14.5242
X67.7079 Y14.5227
X67.7213 Y14.5218
X67.7347 Y14.5216
X67.7481 Y14.5219
X67.7615 Y14.5229
X67.7748 Y14.5245
X67.788 Y14.5268
X67.8012 Y14.5296
X67.8141 Y14.5331
X67.8269 Y14.5372
X67.8395 Y14.5418
X67.8518 Y14.5471
X67.8639 Y14.5529
X67.8757 Y14.5592
X67.8872 Y14.5662
X67.8984 Y14.5736
X67.9092 Y14.5816
X67.9196 Y14.59
X67.9296 Y14.599
X67.9392 Y14.6084
X67.9483 Y14.6182
X67.9569 Y14.6284
X67.9651 Y14.6391
X67.9728 Y14.6501
X67.9799 Y14.6615
X67.9865 Y14.6731
X67.9926 Y14.6851
X67.998 Y14.6974
X68.0029 Y14.7098
X68.0072 Y14.7225
X68.011 Y14.7354
X68.0141 Y14.7485
X68.0165 Y14.7617
X68.0184 Y14.7749
X68.0197 Y14.7883
X68.0203 Y14.8017
Y14.8151
X68.0197 Y14.8285
X68.0184 Y14.8419
X68.0165 Y14.8551
X68.014 Y14.8683
X68.0109 Y14.8814
X68.0072 Y14.8943
X68.0029 Y14.907
X67.9979 Y14.9194
X67.9925 Y14.9317
X67.9864 Y14.9436
X67.9798 Y14.9553
X67.9726 Y14.9667
X67.965 Y14.9777
X67.9568 Y14.9883
X67.9481 Y14.9985
X67.939 Y15.0084
X67.9294 Y15.0177
X67.9194 Y15.0267
X67.8383 Y15.0706
G3 X67.4399 Y14.9363 I-0.1297 J-0.2734
G2 X67.4141 Y14.7872 I-0.3608 J-0.0143
G3 X67.638 Y14.4348 I0.3017 J-0.0557
G1 X67.8533 Y14.4614
X67.8674 Y14.4658
X67.8814 Y14.4707
X67.8951 Y14.4761
X67.9086 Y14.4822
X67.9218 Y14.4888
X67.9348 Y14.4959
X67.9474 Y14.5035
X67.9597 Y14.5117
X67.9717 Y14.5203
X67.9833 Y14.5295
X67.9945 Y14.5391
X68.0053 Y14.5492
X68.0157 Y14.5597
X68.0256 Y14.5706
X68.0351 Y14.5819
X68.0441 Y14.5936
X68.0527 Y14.6057
X68.0607 Y14.6181
X68.0682 Y14.6308
X68.0752 Y14.6438
X68.0816 Y14.6571
X68.0875 Y14.6707
X68.0928 Y14.6845
X68.0976 Y14.6984
X68.1018 Y14.7126
X68.1053 Y14.7269
X68.1083 Y14.7414
X68.1107 Y14.756
X68.1125 Y14.7706
X68.1137 Y14.7854
X68.1143 Y14.8001
Y14.8149
X68.1137 Y14.8296
X68.1124 Y14.8444
X68.1106 Y14.859
X68.1081 Y14.8736
X68.1051 Y14.888
X68.1015 Y14.9024
X68.0973 Y14.9165
X68.0925 Y14.9305
X68.0871 Y14.9443
X67.921 Y15.0285
G3 X67.9054 Y15.0271 I-0.0066 J-0.0142
X67.8955 Y14.9918 I0.0166 J-0.0237
X68.0589 Y14.9352 I0.108 J0.0478
X68.0713 Y14.9428 I-0.0553 J0.1044 F50.
G2 X68.0868 Y14.9441 I0.009 J-0.0128
G1 X68.1369 Y14.9187 F60.
G2 X68.1244 Y14.5575 I-0.1976 J-0.174
X68.0814 Y14.4897 I-0.0739 J-0.0007
G1 X67.8533 Y14.4614
G2 X67.8448 Y14.4909 I-0.0014 J0.0156
G3 X67.8313 Y14.5192 I-0.0072 J0.0139
G1 X67.6697 Y14.449
X67.668 Y14.4481
X67.6664 Y14.447
G2 X67.638 Y14.4348 I-0.0382 J0.0492 F50.
G1 X67.5461 Y14.4234 F60.
G2 X67.3217 Y14.65 I0.0253 J0.2495
G3 X67.4141 Y14.7872 I-0.2794 J0.2879
G2 X67.4442 Y14.781 I0.0144 J-0.0061
G3 X67.4611 Y14.7653 I0.0157 J-0.0001
X67.4752 Y14.7835 I-0.0013 J0.0156
X67.4521 Y14.9074 I-0.206 J0.0257
G2 X67.4405 Y14.9361 I0.0501 J0.0371 F50.
G1 X67.4388 Y14.9525 F60.
X67.4362 Y14.9761
X67.4336 Y14.9997
G2 X67.6203 Y15.1815 I0.2108 J-0.0298
G1 X67.8383 Y15.0706
G2 X67.8463 Y15.0572 I-0.0076 J-0.0137
X67.812 Y15.0158 I-0.0412 J-0.0008
X67.6293 Y15.1536 I-0.0262 J0.1553
X67.6283 Y15.1681 I0.1565 J0.0175 F50.
G3 X67.6203 Y15.1815 I-0.0156 J-0.0003
G1 X67.5698 Y15.2072 F60.
G3 X67.3814 Y15.1233 I-0.0468 J-0.1485
G2 X67.4336 Y14.9997 I-0.2537 J-0.18
G3 X67.4449 Y14.989 I0.015 J0.0045
X67.4729 Y15.0024 I0.0057 J0.024
X67.4125 Y15.1143 I-0.0711 J0.0339
X67.3979 Y15.115 I-0.0106 J-0.078 F50.
G2 X67.384 Y15.1221 I-0.0008 J0.0156
G1 X67.3724 Y15.1414 F60.
X67.3698 Y15.149
X67.3677 Y15.1567
X67.3662 Y15.1645
X67.3653 Y15.1725
X67.3651 Y15.1805
X67.3655 Y15.1884
X67.3666 Y15.1964
X67.3682 Y15.2042
X67.3705 Y15.2118
X67.3733 Y15.2193
X67.3768 Y15.2265
X67.3808 Y15.2334
X67.3853 Y15.24
X67.3903 Y15.2462
X67.3958 Y15.252
X67.4017 Y15.2574
X67.4081 Y15.2622
X67.4148 Y15.2666
X67.4218 Y15.2704
X67.4291 Y15.2736
X67.4366 Y15.2763
X67.5698 Y15.2072
G2 X67.5778 Y15.1938 I-0.0076 J-0.0137
X67.52 Y15.1536 I-0.0423 J-0.0008
X67.4464 Y15.2468 I0.0433 J0.1099
X67.4452 Y15.2613 I0.1169 J0.0168 F50.
G3 X67.4371 Y15.2747 I-0.0156 J-0.0003
G1 X67.4116 Y15.2877 F60.
G3 X67.2967 Y15.2191 I-0.0288 J-0.0824
G1 X67.2992 Y15.2173
X67.3019 Y15.216
X67.3048 Y15.2153
X67.3077 Y15.215
X67.3106 Y15.2153
X67.3133 Y15.216
X67.3158 Y15.2172
X67.3297 Y15.2234
X67.4104 Y15.2597
X67.4121 Y15.2605
X67.4136 Y15.2616
G3 X67.4116 Y15.2877 I-0.0096 J0.0124 F50.
G1 X67.3506 Y15.3187 F60.
G3 X67.2482 Y15.2908 I-0.0333 J-0.0795
G1 X67.2486 Y15.2878
X67.2494 Y15.285
X67.2507 Y15.2823
X67.2525 Y15.28
X67.2546 Y15.278
X67.2571 Y15.2764
X67.2597 Y15.2753
X67.2625 Y15.2747
X67.2653 Y15.2746
X67.2681 Y15.275
X67.272 Y15.2757
G3 X67.3526 Y15.2926 I0.0143 J0.1325
X67.3506 Y15.3187 I-0.0096 J0.0124 F50.
G1 X67.2862 Y15.3514 F60.
G3 X67.2496 Y15.3451 I-0.0156 J-0.0189
G1 X67.2495 Y15.255
G2 X67.3724 Y15.1414 I-0.1875 J-0.3262
G3 X67.3986 Y15.1421 I0.0129 J0.0089
G1 X67.4002 Y15.1447 Z-0.1297
X67.4017 Y15.1471 Z-0.1288
X67.4032 Y15.1494 Z-0.1274
X67.4044 Y15.1514 Z-0.1254
X67.4055 Y15.1531 Z-0.123
X67.4062 Y15.1543 Z-0.1203
X67.4067 Y15.1551 Z-0.1174
X67.4069 Y15.1553 Z-0.1143
G0 Z0.4
X67.3633 Y14.6701
Z-0.0987
G1 Z-0.1143 F50.
X67.363 Y14.67 Z-0.1174
X67.3622 Y14.6698 Z-0.1203
X67.3608 Y14.6694 Z-0.123
X67.3589 Y14.6688 Z-0.1254
X67.3566 Y14.6682 Z-0.1274
X67.354 Y14.6674 Z-0.1288
X67.3512 Y14.6666 Z-0.1297
X67.3483 Y14.6657 Z-0.13
G3 X67.3217 Y14.65 I0.0174 J-0.0598
G1 X67.3175 Y14.6455 F60.
X67.3098 Y14.638
X67.3036 Y14.6336
G3 X67.3041 Y14.4666 I0.0971 J-0.0832
G1 X67.3067 Y14.4652
X67.3096 Y14.4643
X67.3125 Y14.464
X67.3155 Y14.4643
X67.3184 Y14.4652
X67.321 Y14.4666
X67.3234 Y14.4685
X67.3253 Y14.4709
X67.3267 Y14.4736
X67.3276 Y14.4765
G3 X67.3279 Y14.4792 I-0.0154 J0.0027
G1 Y14.6206
X67.3277 Y14.6234
G3 X67.3036 Y14.6336 I-0.0154 J-0.0028 F50.
X67.2495 Y14.5946 I0.0576 J-0.1367 F60.
X67.3158 Y14.4566 I0.0979 J-0.0379
G1 X67.3232 Y14.4464
X67.3312 Y14.4366
X67.3395 Y14.4271
X67.3483 Y14.418
X67.3575 Y14.4094
X67.367 Y14.4012
X67.5461 Y14.4234
G3 X67.5569 Y14.4472 I-0.0025 J0.0155
G1 X67.5553 Y14.4498 Z-0.1297
X67.5537 Y14.4522 Z-0.1288
X67.5522 Y14.4545 Z-0.1274
X67.551 Y14.4565 Z-0.1254
X67.5499 Y14.4582 Z-0.123
X67.5492 Y14.4594 Z-0.1203
X67.5487 Y14.4602 Z-0.1174
X67.5485 Y14.4604 Z-0.1143
G0 Z-0.0987
X68.0365 Y14.501
G1 Z-0.1143 F50.
X68.0368 Y14.5008 Z-0.1174
X68.0376 Y14.5005 Z-0.1203
X68.0389 Y14.4999 Z-0.123
X68.0407 Y14.4991 Z-0.1254
X68.0429 Y14.4982 Z-0.1274
X68.0454 Y14.4971 Z-0.1288
X68.048 Y14.4959 Z-0.1297
X68.0508 Y14.4947 Z-0.13
G3 X68.0814 Y14.4897 I0.025 J0.0571
G1 X68.1369 Y14.4966 F60.
X68.1487 Y14.5021
X68.1603 Y14.5082
X68.1715 Y14.5148
X68.1824 Y14.522
X68.1929 Y14.5297
X68.2031 Y14.5379
X68.2129 Y14.5466
X68.2222 Y14.5557
X68.2311 Y14.5653
X68.2395 Y14.5752
X68.2474 Y14.5856
X68.2549 Y14.5963
X68.2618 Y14.6074
X68.2681 Y14.6188
X68.2739 Y14.6305
X68.2792 Y14.6424
X68.2839 Y14.6546
X68.2879 Y14.667
X68.2914 Y14.6796
X68.2943 Y14.6924
X68.2965 Y14.7052
X68.2982 Y14.7182
X68.2992 Y14.7312
X68.2996 Y14.7442
X68.2994 Y14.7573
X68.2985 Y14.7703
X68.297 Y14.7833
X68.2949 Y14.7961
X68.2922 Y14.8089
X68.2889 Y14.8215
X68.285 Y14.834
X68.2891 Y14.839
X68.287 Y14.8417
X68.2842 Y14.8437
X68.1369 Y14.9187
G3 X68.1213 Y14.9173 I-0.0066 J-0.0142
X68.1153 Y14.8577 I0.0226 J-0.0324
X68.2562 Y14.8348 I0.0856 J0.0814
X68.2686 Y14.8424 I-0.0553 J0.1044 F50.
G2 X68.2842 Y14.8437 I0.009 J-0.0128
G1 X68.3207 Y14.8252 F60.
G2 X68.3145 Y14.5186 I-0.1706 J-0.15
G1 X68.1369 Y14.4966
G2 X68.1227 Y14.5031 I-0.0014 J0.0156
X68.1289 Y14.5486 I0.0276 J0.0194
X68.2913 Y14.5365 I0.0748 J-0.0914
X68.3004 Y14.5251 I-0.0875 J-0.0793 F50.
G3 X68.3145 Y14.5186 I0.0128 J0.009
G1 X68.3626 Y14.5245 F60.
X68.3722 Y14.529
X68.3815 Y14.534
X68.3905 Y14.5396
X68.3992 Y14.5457
X68.4075 Y14.5522
X68.4154 Y14.5592
X68.4229 Y14.5667
X68.43 Y14.5746
X68.4366 Y14.5829
X68.4427 Y14.5915
X68.4483 Y14.6005
X68.4534 Y14.6098
X68.4579 Y14.6194
X68.4619 Y14.6292
X68.4653 Y14.6392
X68.4681 Y14.6494
X68.4703 Y14.6598
X68.4719 Y14.6703
X68.473 Y14.6808
X68.4734 Y14.6914
X68.4732 Y14.702
X68.4724 Y14.7125
X68.4709 Y14.723
X68.4689 Y14.7334
X68.4663 Y14.7437
X68.4631 Y14.7538
X68.3207 Y14.8252
G3 X68.3051 Y14.8238 I-0.0066 J-0.0142
X68.302 Y14.7589 I0.0236 J-0.0337
X68.4339 Y14.7444 I0.0766 J0.0899
X68.4463 Y14.752 I-0.0553 J0.1044 F50.
G2 X68.4619 Y14.7533 I0.009 J-0.0128
G1 X68.4914 Y14.7384 F60.
G2 X68.5126 Y14.5431 I-0.0871 J-0.1083
G1 X68.3626 Y14.5245
G2 X68.3484 Y14.5311 I-0.0014 J0.0156
X68.3723 Y14.5961 I0.0344 J0.0242
X68.4893 Y14.561 I0.0295 J-0.1144
X68.4984 Y14.5497 I-0.0875 J-0.0793 F50.
G3 X68.5126 Y14.5431 I0.0128 J0.009
G1 X68.5458 Y14.5472 F60.
G3 X68.6191 Y14.6751 I-0.029 J0.1016
G1 X68.4914 Y14.7384
G3 X68.4758 Y14.737 I-0.0066 J-0.0142
X68.4813 Y14.664 I0.0244 J-0.0349
X68.5889 Y14.6656 I0.0522 J0.1059
X68.6013 Y14.6731 I-0.0553 J0.1044 F50.
G2 X68.6169 Y14.6745 I0.009 J-0.0128
G1 X68.6396 Y14.6629 F60.
G2 X68.6655 Y14.5602 I-0.0396 J-0.0646
G1 X68.5458 Y14.5472
G2 X68.5316 Y14.5538 I-0.0014 J0.0156
X68.5365 Y14.5856 I0.019 J0.0133
X68.6393 Y14.5794 I0.0478 J-0.0626
X68.6487 Y14.5683 I-0.055 J-0.0564 F50.
G3 X68.6629 Y14.5617 I0.0128 J0.009
G1 X68.6843 Y14.5644 F60.
X68.6895 Y14.5654
X68.6945 Y14.5669
X68.6993 Y14.5689
X68.7039 Y14.5715
X68.7081 Y14.5745
X68.7121 Y14.578
X68.7156 Y14.5819
X68.7187 Y14.5861
X68.7213 Y14.5907
X68.7234 Y14.5954
X68.725 Y14.6004
X68.726 Y14.6056
X68.7265 Y14.6108
X68.7264 Y14.616
X68.7258 Y14.6212
X68.7229 Y14.6224
X68.7199 Y14.6231
X68.7169 Y14.6232
X68.7139 Y14.6228
X68.7111 Y14.6219
X68.7086 Y14.6205
X68.7064 Y14.6187
X68.6958 Y14.6102
X68.6908 Y14.608
X68.686 Y14.6053
X68.6816 Y14.602
X68.6775 Y14.5983
X68.6739 Y14.5942
X68.6707 Y14.5897
X68.668 Y14.5849
X68.6673 Y14.5818 F50.
Y14.5787
X68.6678 Y14.5757
X68.669 Y14.5728
X68.6707 Y14.5702
X68.6728 Y14.568
X68.6754 Y14.5662
X68.6782 Y14.565
X68.6812 Y14.5644
X68.6843
X68.7348 Y14.5706 F60.
G3 X68.7595 Y14.6019 I0.0084 J0.0188
X68.7294 Y14.6032 I-0.0166 J-0.0357
G1 X68.7265 Y14.602
G3 X68.7173 Y14.5906 I0.0069 J-0.015
X68.7348 Y14.5706 I0.0161 J-0.0035 F50.
G1 X68.7715 Y14.5752 F60.
X68.7774 Y14.5762
X68.7812 Y14.5795
X68.7827 Y14.5844
X68.7813 Y14.5893
X68.7776 Y14.5927
G3 X68.7739 Y14.5943 I-0.0175 J-0.0376
X68.7697 Y14.5948 I-0.0033 J-0.0093
X68.7715 Y14.5752 I0.0009 J-0.0098 F50.
G1 X68.7871 Y14.5771 F60.
X68.789 Y14.5773
X68.7906 Y14.5775
X68.7935 Y14.5781
X68.795 Y14.5803
X68.7948 Y14.583
X68.7929 Y14.585
G3 X68.7914 Y14.5855 I-0.005 J-0.0108 F50.
G1 X68.7868 Y14.5793
X68.7906 Y14.5775
X68.7972 Y14.5784 F60.
X68.7986 Y14.5785
X68.8003 Y14.5787
X68.8017 Y14.579
X68.802 Y14.5795
X68.8019 Y14.5802
X68.8015 Y14.5806
X68.8007 Y14.581 F50.
X68.7999
X68.7993 Y14.5806
X68.799 Y14.5799
X68.7994 Y14.579
X68.8003 Y14.5787
X68.8029 Y14.5791 F60.
X68.8035 Y14.5796
X68.6396 Y14.6629
G3 X68.625 Y14.6622 I-0.0066 J-0.0142
G1 X68.6233 Y14.6605 Z-0.1298
X68.6216 Y14.6589 Z-0.1293
X68.62 Y14.6574 Z-0.1284
X68.6192 Y14.6554 Z-0.1271
X68.6186 Y14.6536 Z-0.1255
X68.618 Y14.6521 Z-0.1236
X68.6175 Y14.6509 Z-0.1214
Y14.65 Z-0.1192
X68.6174 Y14.6494 Z-0.1168
Y14.6492 Z-0.1144
G0 Z0.4
X67.5998 Y6.5204
Z0.1
G3 X67.5079 Y6.4667 Z0.0791 I-0.0197 J-0.0717 F50.
X67.5639 Y6.3762 Z0.0582 I0.0721 J-0.0179
X67.653 Y6.4344 Z0.0373 I0.0162 J0.0726
X67.5927 Y6.522 Z0.0164 I-0.0729 J0.0144
X67.5065 Y6.4596 Z-0.0045 I-0.0126 J-0.0733
X67.571 Y6.375 Z-0.0255 I0.0735 J-0.0108
X67.5891 Y6.5226 Z-0.0666 I0.009 J0.0738
X67.571 Y6.375 Z-0.1078 I-0.009 J-0.0738
X67.6544 Y6.4488 Z-0.13 I0.009 J0.0738
X67.5057 I-0.0743 J0.
X67.6541 Y6.4425 I0.0743 J0.
G1 X67.6544 Y6.4488
G3 X67.489 Y6.567 I-0.0855 J0.0551 F60.
G1 X67.4812 Y6.5611
X67.4738 Y6.5548
X67.4668 Y6.548
X67.4602 Y6.5408
X67.4542 Y6.5331
X67.4486 Y6.5251
X67.4435 Y6.5168
X67.4389 Y6.5081
X67.435 Y6.4992
X67.4315 Y6.4901
X67.4287 Y6.4807
X67.4265 Y6.4712
X67.4248 Y6.4616
X67.4238 Y6.4519
X67.4234 Y6.4421
X67.4236 Y6.4324
X67.4244 Y6.4226
X67.4259 Y6.413
X67.4279 Y6.4034
X67.4306 Y6.394
X67.4338 Y6.3848
X67.4376 Y6.3758
X67.442 Y6.3671
X67.4469 Y6.3586
X67.4523 Y6.3505
X67.4583 Y6.3428
X67.4647 Y6.3354
X67.4715 Y6.3285
X67.4788 Y6.322
X67.4865 Y6.3159
X67.4945 Y6.3104
X67.5029 Y6.3054
X67.5116 Y6.3009
X67.5205 Y6.297
X67.5297 Y6.2937
X67.5391 Y6.2909
X67.5486 Y6.2887
X67.5582 Y6.2872
X67.568 Y6.2863
X67.5777 Y6.2859
X67.5875 Y6.2862
X67.5972 Y6.2871
X67.6068 Y6.2886
X67.6164 Y6.2908
X67.6258 Y6.2935
X67.6349 Y6.2968
X67.6439 Y6.3007
X67.6526 Y6.3051
X67.661 Y6.3101
X67.6691 Y6.3156
X67.6768 Y6.3216
X67.6841 Y6.328
X67.691 Y6.3349
X67.6974 Y6.3423
X67.7034 Y6.35
X67.7088 Y6.3581
X67.7138 Y6.3665
X67.7182 Y6.3752
X67.722 Y6.3842
X67.7253 Y6.3934
X67.7315 Y6.4012
X67.7372 Y6.4093
X67.7425 Y6.4177
X67.7472 Y6.4265
X67.7514 Y6.4355
X67.7551 Y6.4447
X67.7582 Y6.4542
X67.7608 Y6.4638
X67.7628 Y6.4735
X67.7642 Y6.4834
X67.7651 Y6.4933
X67.7653 Y6.5032
X67.765 Y6.5131
X67.7641 Y6.523
X67.7626 Y6.5329
X67.7605 Y6.5426
X67.7579 Y6.5522
X67.7547 Y6.5616
X67.7509 Y6.5708
X67.7466 Y6.5798
X67.7418 Y6.5885
X67.7365 Y6.5969
X67.7307 Y6.605
X67.7245 Y6.6127
X67.4622 Y6.611
X67.4408
G2 X67.3844 Y6.4033 I-0.3657 J-0.0122
G3 X67.4182 Y6.2693 I0.1084 J-0.0439
G1 X67.4214 Y6.2699
X67.4244 Y6.2711
X67.4271 Y6.2728
X67.4294 Y6.2749
X67.4312 Y6.2775
X67.4325 Y6.2803
X67.4332 Y6.2833
X67.4334 Y6.2863
X67.433 Y6.2892
X67.432 Y6.2947
X67.4132 Y6.398
X67.4122 Y6.4013
X67.4105 Y6.4043
G3 X67.3844 Y6.4033 I-0.0127 J-0.0091 F50.
G2 X67.3451 Y6.3505 I-0.1553 J0.0748 F60.
G3 X67.3338 Y6.3132 I0.0141 J-0.0246
X67.3567 Y6.315 I0.0106 J0.0115
G1 X67.3599 Y6.319
X67.3685 Y6.3298
G3 X67.3707 Y6.3456 I-0.0123 J0.0097
X67.3451 Y6.3505 I-0.0145 J-0.006 F50.
X67.3383 Y6.3088 I-0.0021 J-0.0211 F60.
G1 X67.3411 Y6.3024
X67.3444 Y6.2962
X67.3482 Y6.2903
X67.3525 Y6.2847
X67.3572 Y6.2796
X67.3623 Y6.2748
X67.3679 Y6.2705
X67.3737 Y6.2666
X67.7187 Y6.2988
X67.7294 Y6.303
X67.7399 Y6.3077
X67.7501 Y6.3131
X67.7601 Y6.3189
X67.7697 Y6.3253
X67.7789 Y6.3322
X67.7878 Y6.3396
X67.7962 Y6.3474
X67.8042 Y6.3557
X67.8118 Y6.3644
X67.8189 Y6.3735
X67.8254 Y6.3829
X67.8315 Y6.3927
X67.837 Y6.4028
X67.842 Y6.4132
X67.8464 Y6.4238
X67.8503 Y6.4347
X67.8535 Y6.4458
X67.8562 Y6.457
X67.8582 Y6.4683
X67.8597 Y6.4797
X67.8605 Y6.4912
X67.8607 Y6.5028
X67.8603 Y6.5143
X67.8593 Y6.5257
X67.8576 Y6.5372
X67.8554 Y6.5485
X67.8525 Y6.5596
X67.8491 Y6.5706
X67.845 Y6.5814
X67.8404 Y6.592
X67.8353 Y6.6023
X67.8295 Y6.6123
X67.7224 Y6.611
G3 X67.7092 Y6.6027 I0.0005 J-0.0156
X67.7275 Y6.5629 I0.0243 J-0.0129
X67.8061 Y6.5905 I0.0172 J0.0768
X67.8141 Y6.6027 I-0.0615 J0.0492 F50.
G2 X67.8274 Y6.611 I0.0138 J-0.0074
G1 X67.8533 F60.
G2 X67.8869 Y6.3164 I-0.081 J-0.1584
G1 X67.7187 Y6.2988
G2 X67.7047 Y6.3058 I-0.0009 J0.0156
X67.7177 Y6.3594 I0.0315 J0.0208
X67.8657 Y6.3332 I0.0581 J-0.1028
X67.8744 Y6.3216 I-0.0899 J-0.0766 F50.
G3 X67.8884 Y6.3146 I0.0131 J0.0086
G1 X67.9314 Y6.3186 F60.
G3 X67.9926 Y6.611 I-0.0864 J0.1707
G1 X67.8533
G3 X67.8401 Y6.6027 I0.0005 J-0.0156
X67.879 Y6.5402 I0.0375 J-0.02
X67.9717 Y6.5903 I-0.0039 J0.118
X67.9793 Y6.6027 I-0.0966 J0.0679 F50.
G2 X67.9926 Y6.611 I0.0138 J-0.0074
G1 X68.0259 F60.
G2 X68.0828 Y6.3327 I-0.0768 J-0.1607
G1 X67.9314 Y6.3186
G2 X67.9174 Y6.3256 I-0.0009 J0.0156
X67.9427 Y6.3896 I0.0351 J0.0231
X68.0601 Y6.3513 I0.0275 J-0.1149
X68.0688 Y6.3397 I-0.0899 J-0.0766 F50.
G3 X68.0828 Y6.3327 I0.0131 J0.0086
G1 X68.1204 Y6.3362 F60.
G3 X68.1683 Y6.6111 I-0.0767 J0.155
G1 X68.0259 Y6.611
G3 X68.0126 Y6.6027 I0.0005 J-0.0156
X68.0499 Y6.5401 I0.0375 J-0.02
X68.1473 Y6.5903 I0.0008 J0.1181
X68.1549 Y6.6027 I-0.0966 J0.0679 F50.
G2 X68.1681 Y6.611 I0.0138 J-0.0074
G1 X68.1972 F60.
G2 X68.2655 Y6.3497 I-0.0603 J-0.1553
G1 X68.1204 Y6.3362
G2 X68.1064 Y6.3432 I-0.0009 J0.0156
X68.1358 Y6.4086 I0.0355 J0.0234
X68.2427 Y6.3683 I0.0171 J-0.1169
X68.2515 Y6.3567 I-0.0899 J-0.0766 F50.
G3 X68.2655 Y6.3497 I0.0131 J0.0086
G1 X68.2975 Y6.3527 F60.
G3 X68.3438 Y6.611 I-0.0734 J0.1464
G1 X68.1972
G3 X68.1839 Y6.6027 I0.0005 J-0.0156
X68.2185 Y6.5404 I0.0374 J-0.02
X68.323 Y6.5903 I0.0078 J0.1179
X68.3306 Y6.6027 I-0.0966 J0.0679 F50.
G2 X68.3438 Y6.611 I0.0138 J-0.0074
G1 X68.3732 F60.
G2 X68.442 Y6.3662 I-0.0548 J-0.1475
G1 X68.2975 Y6.3527
G2 X68.2836 Y6.3597 I-0.0009 J0.0156
X68.3132 Y6.4252 I0.0355 J0.0234
X68.4193 Y6.3848 I0.0162 J-0.117
X68.428 Y6.3732 I-0.0899 J-0.0766 F50.
G3 X68.442 Y6.3662 I0.0131 J0.0086
G1 X68.4749 Y6.3692 F60.
G3 X68.5179 Y6.6113 I-0.0644 J0.1363
G1 X68.3732 Y6.611
G3 X68.3599 Y6.6027 I0.0005 J-0.0156
X68.396 Y6.5402 I0.0375 J-0.02
X68.4967 Y6.5903 I0.0041 J0.118
X68.5043 Y6.6027 I-0.0966 J0.0679 F50.
G2 X68.5175 Y6.611 I0.0138 J-0.0074
G1 X68.5516 F60.
G2 X68.6144 Y6.3816 I-0.0514 J-0.1373
G1 X68.4749 Y6.3692
G2 X68.4623 Y6.3952 I-0.0009 J0.0156
X68.4792 Y6.4072 I0.0343 J-0.0305
X68.5876 Y6.3973 I0.0446 J-0.1094
X68.6024 Y6.3861 I-0.0637 J-0.0995 F50.
G3 X68.6137 Y6.3821 I0.0104 J0.0117
G1 X68.6461 Y6.3852 F60.
G3 X68.6869 Y6.6141 I-0.0593 J0.1287
G1 X68.6568 Y6.6111
X68.6331 Y6.611
X68.5516
G3 X68.5384 Y6.6027 I0.0005 J-0.0156
X68.5398 Y6.5865 I0.013 J-0.0069
X68.6665 Y6.5913 I0.0615 J0.0491
X68.6735 Y6.604 I-0.0651 J0.0443 F50.
G2 X68.6861 Y6.6133 I0.0143 J-0.0063
G1 X68.704 Y6.6147 F60.
X68.7148 Y6.6158
G2 X68.7828 Y6.3979 I-0.0432 J-0.1331
G1 X68.6461 Y6.3852
G2 X68.6296 Y6.3999 I-0.0009 J0.0156
X68.6413 Y6.4198 I0.0208 J0.0012
X68.7566 Y6.4131 I0.0516 J-0.1062
X68.7715 Y6.4018 I-0.0637 J-0.0995 F50.
G3 X68.7828 Y6.3979 I0.0104 J0.0117
G1 X68.8116 Y6.4006 F60.
G3 X68.848 Y6.636 I-0.0651 J0.1306
X68.84 Y6.6382 I-0.008 J-0.0134
X68.8245 Y6.6247 I0. J-0.0156
G1 Y6.6246
X68.7956 Y6.4216
X68.7952 Y6.4184 F50.
G3 X68.8116 Y6.4006 I0.0155 J-0.0022
G1 X68.8808 Y6.407 F60.
G2 X68.9246 Y6.5863 I0.8762 J-0.1188
G1 X68.8267 Y6.6498
G2 X68.7148 Y6.6158 I-0.1809 J0.3947
G3 X68.7039 Y6.606 I0.0038 J-0.0152
G1 X68.7034 Y6.6033 Z-0.1298
X68.703 Y6.6007 Z-0.129
X68.7035 Y6.5981 Z-0.1277
X68.704 Y6.5958 Z-0.126
X68.7045 Y6.5939 Z-0.1239
X68.7052 Y6.5927 Z-0.1217
X68.7057 Y6.5919 Z-0.1194
X68.7061 Y6.5913 Z-0.1169
X68.7062 Y6.5912 Z-0.1144
G0 Z0.4
X68.581 Y9.1276
Z0.1
G3 X68.4892 Y9.0738 Z0.0791 I-0.0197 J-0.0717 F50.
X68.5451 Y8.9833 Z0.0582 I0.0721 J-0.0179
X68.6342 Y9.0415 Z0.0373 I0.0162 J0.0726
X68.5739 Y9.1292 Z0.0164 I-0.0729 J0.0144
X68.4878 Y9.0667 Z-0.0045 I-0.0126 J-0.0733
X68.5523 Y8.9821 Z-0.0255 I0.0735 J-0.0108
X68.6353 Y9.0487 Z-0.0464 I0.009 J0.0738
X68.5667 Y9.13 Z-0.0673 I-0.074 J0.0072
X68.4871 Y9.0595 Z-0.0882 I-0.0054 J-0.0741
X68.5595 Y8.9816 Z-0.1091 I0.0742 J-0.0036
X68.6356 Y9.0559 Z-0.13 I0.0018 J0.0743
X68.487 I-0.0743 J0.
X68.6354 Y9.0497 I0.0743 J0.
G1 X68.6356 Y9.0559
G3 X68.4703 Y9.1742 I-0.0855 J0.0551 F60.
G1 X68.4625 Y9.1683
X68.4551 Y9.1619
X68.4481 Y9.1551
X68.4415 Y9.1479
X68.4354 Y9.1403
X68.4298 Y9.1323
X68.4247 Y9.1239
X68.4202 Y9.1153
X68.4162 Y9.1063
X68.4128 Y9.0972
X68.41 Y9.0879
X68.4077 Y9.0783
X68.4061 Y9.0687
X68.4051 Y9.059
X68.4047 Y9.0493
X68.4049 Y9.0395
X68.4057 Y9.0298
X68.4071 Y9.0201
X68.4092 Y9.0106
X68.4118 Y9.0012
X68.4151 Y8.9919
X68.4189 Y8.9829
X68.4232 Y8.9742
X68.4281 Y8.9658
X68.4336 Y8.9577
X68.4395 Y8.9499
X68.4459 Y8.9425
X68.4528 Y8.9356
X68.4601 Y8.9291
X68.4677 Y8.9231
X68.4758 Y8.9175
X68.4842 Y8.9125
X68.4929 Y8.9081
X68.5018 Y8.9041
X68.511 Y8.9008
X68.5203 Y8.898
X68.5299 Y8.8959
X68.5395 Y8.8943
X68.5492 Y8.8934
X68.559 Y8.8931
X68.5687 Y8.8933
X68.5785 Y8.8943
X68.5881 Y8.8958
X68.5976 Y8.8979
X68.607 Y8.9006
X68.6162 Y8.9039
X68.6251 Y8.9078
X68.6338 Y8.9122
X68.6422 Y8.9172
X68.6503 Y8.9227
X68.658 Y8.9287
X68.6653 Y8.9352
X68.6722 Y8.9421
X68.6787 Y8.9494
X68.6846 Y8.9571
X68.6901 Y8.9652
X68.695 Y8.9737
X68.6994 Y8.9824
X68.7033 Y8.9913
X68.7065 Y9.0005
X68.7125 Y9.0097
X68.718 Y9.0192
X68.7229 Y9.0291
X68.7273 Y9.0391
X68.731 Y9.0494
X68.7342 Y9.0599
X68.7368 Y9.0706
X68.7387 Y9.0814
X68.7401 Y9.0923
X68.7408 Y9.1032
X68.7409 Y9.1142
X68.7404 Y9.1252
X68.7392 Y9.1361
X68.7375 Y9.1469
X68.7351 Y9.1576
X68.7321 Y9.1682
X68.7285 Y9.1785
X68.7244 Y9.1887
X68.7196 Y9.1986
X68.7144 Y9.2082
X68.7085 Y9.2175
X68.7022 Y9.2264
X68.6953 Y9.235
X68.688 Y9.2432
X68.6803 Y9.2509
X68.6721 Y9.2582
X68.6635 Y9.265
X68.6545 Y9.2713
X68.6452 Y9.2771
X68.6355 Y9.2824
X68.6256 Y9.2871
X68.6155 Y9.2912
X68.6051 Y9.2947
X68.5945 Y9.2977
X68.5838 Y9.3
X68.573 Y9.3017
X68.562 Y9.3028
X68.5511 Y9.3033
X68.5401 Y9.3032
X68.5292 Y9.3024
X68.5183 Y9.301
X68.5075 Y9.299
X68.4969 Y9.2964
X68.4864 Y9.2932
X68.4761 Y9.2894
X68.466 Y9.285
X68.4562 Y9.2801
X68.4467 Y9.2746
X68.4376 Y9.2685
X68.4288 Y9.262
X68.4204 Y9.255
X68.4124 Y9.2475
X68.4048 Y9.2395
X68.3952 Y9.2321
X68.3859 Y9.2242
X68.3771 Y9.2158
X68.3687 Y9.207
X68.3608 Y9.1977
X68.3534 Y9.1881
X68.3465 Y9.1781
X68.3401 Y9.1677
X68.3342 Y9.1571
X68.3289 Y9.1461
X68.3242 Y9.1349
X68.32 Y9.1235
X68.3165 Y9.1118
X68.3135 Y9.1
X68.3112 Y9.0881
X68.3095 Y9.076
X68.3084 Y9.0639
X68.3079 Y9.0517
X68.3081 Y9.0396
X68.3088 Y9.0274
X68.3102 Y9.0153
X68.3122 Y9.0033
X68.3149 Y8.9915
X68.3181 Y8.9797
X68.322 Y8.9682
X68.3264 Y8.9569
X68.3314 Y8.9458
X68.337 Y8.935
X68.3431 Y8.9244
X68.3497 Y8.9143
X68.3569 Y8.9044
X68.3646 Y8.895
X68.3727 Y8.8859
X68.3813 Y8.8773
X68.3903 Y8.8691
X68.3998 Y8.8615
X68.4096 Y8.8543
X68.4197 Y8.8476
X68.4302 Y8.8414
X68.441 Y8.8359
X68.4521 Y8.8308
X68.4647 Y8.8263
X68.4774 Y8.8224
X68.4903 Y8.8191
X68.5034 Y8.8164
X68.5165 Y8.8143
X68.5298 Y8.8128
X68.5431 Y8.812
X68.5564 Y8.8117
X68.5697 Y8.8121
X68.583 Y8.8131
X68.5963 Y8.8147
X68.6094 Y8.8169
X68.6224 Y8.8197
X68.6353 Y8.8231
X68.648 Y8.8271
X68.6606 Y8.8317
X68.6728 Y8.8369
X68.6849 Y8.8426
X68.6966 Y8.8489
X68.7081 Y8.8557
X68.7192 Y8.8631
X68.73 Y8.8709
X68.7404 Y8.8793
X68.7504 Y8.8881
X68.7599 Y8.8974
X68.7691 Y8.9071
X68.7778 Y8.9172
X68.786 Y8.9277
X68.7937 Y8.9386
X68.8008 Y8.9498
X68.8075 Y8.9613
X68.8136 Y8.9732
X68.8192 Y8.9853
X68.8242 Y8.9976
X68.8286 Y9.0102
X68.8325 Y9.023
X68.8357 Y9.0359
X68.8383 Y9.049
X68.8404 Y9.0621
X68.8418 Y9.0754
X68.8426 Y9.0887
X68.8428 Y9.102
X68.8423 Y9.1153
X68.8413 Y9.1286
X68.8396 Y9.1419
X68.8373 Y9.155
X68.8345 Y9.168
X68.831 Y9.1809
X68.8269 Y9.1936
X68.8222 Y9.206
X68.817 Y9.2183
X68.8112 Y9.2303
X68.8049 Y9.242
X68.798 Y9.2534
X68.7906 Y9.2645
X68.7827 Y9.2753
X68.7743 Y9.2856
X68.7654 Y9.2956
X68.7561 Y9.3051
X68.7464 Y9.3142
X68.7362 Y9.3228
X68.7257 Y9.3309
X68.7147 Y9.3386
X68.7035 Y9.3457
X68.6919 Y9.3523
X68.68 Y9.3584
X68.6679 Y9.3639
X68.6555 Y9.3688
X68.3129 Y9.2314
X68.3033 Y9.2234
X68.2941 Y9.2149
X68.2853 Y9.206
X68.2769 Y9.1966
X68.2689 Y9.1869
X68.2615 Y9.1768
X68.2545 Y9.1664
X68.2481 Y9.1556
X68.2421 Y9.1446
X68.2367 Y9.1332
X68.2319 Y9.1217
X68.2276 Y9.1099
X68.2239 Y9.0979
X68.2207 Y9.0858
X68.2181 Y9.0735
X68.2162 Y9.0611
X68.2148 Y9.0486
X68.214 Y9.0361
X68.2138 Y9.0235
X68.2142 Y9.011
X68.2152 Y8.9985
X68.2168 Y8.9861
X68.219 Y8.9737
X68.2218 Y8.9615
X68.2252 Y8.9494
X68.2291 Y8.9375
X68.2336 Y8.9258
X68.2387 Y8.9143
X68.2443 Y8.9031
X68.2504 Y8.8921
X68.2571 Y8.8815
X68.2642 Y8.8712
X68.2719 Y8.8612
X68.2799 Y8.8516
X68.2885 Y8.8424
X68.2975 Y8.8337
X68.3069 Y8.8254
X68.3166 Y8.8175
X68.3268 Y8.8101
X68.3244 Y8.8019
X68.327 Y8.801
X68.3297 Y8.8007
X68.6331
G2 X68.7062 Y8.7972 I-0.0541 J-1.8955
G1 X68.8931 Y9.1189
G3 X68.7676 Y9.4134 I-0.2394 J0.072
G1 X68.6554 Y9.3685
G3 X68.6462 Y9.3559 I0.0063 J-0.0143
X68.6628 Y9.3325 I0.0214 J-0.0023
X68.7554 Y9.3866 I0.0172 J0.0768
X68.7583 Y9.4008 I-0.0754 J0.0228 F50.
G2 X68.7676 Y9.4134 I0.0156 J-0.0017
G1 X68.7986 Y9.4258 F60.
G2 X68.9849 Y9.277 I0.0169 J-0.1699
G1 X68.8931 Y9.1189
G2 X68.8793 Y9.1116 I-0.0132 J0.0083
X68.8493 Y9.1397 I0.0011 J0.0313
X68.9565 Y9.2693 I0.1175 J0.0119
X68.9711 Y9.2697 I0.0102 J-0.1177 F50.
G3 X68.9849 Y9.277 I0.0006 J0.0156
G1 X69.0075 Y9.316 F60.
X69.0137 Y9.3266
G2 X68.8945 Y9.4642 I0.6355 J0.6708
G1 X68.7986 Y9.4258
G3 X68.7942 Y9.4 I0.0063 J-0.0143
G1 X68.7964 Y9.398 Z-0.1297
X68.7986 Y9.396 Z-0.1288
X68.8006 Y9.3941 Z-0.1274
X68.8023 Y9.3925 Z-0.1254
X68.8037 Y9.3912 Z-0.123
X68.8048 Y9.3902 Z-0.1203
X68.8054 Y9.3896 Z-0.1174
X68.8057 Y9.3894 Z-0.1143
G0 Z-0.0987
X68.3592 Y9.2319
G1 Z-0.1143 F50.
X68.3589 Y9.232 Z-0.1174
X68.358 Y9.2321 Z-0.1203
X68.3566 Y9.2323 Z-0.123
X68.3547 Y9.2326 Z-0.1254
X68.3523 Y9.233 Z-0.1274
X68.3496 Y9.2334 Z-0.1288
X68.3467 Y9.2339 Z-0.1297
X68.3437 Y9.2344 Z-0.13
G3 X68.3129 Y9.2314 I-0.0097 J-0.0616
G1 X68.2096 Y9.1901 F60.
X68.2003 Y9.1815
X68.1914 Y9.1725
X68.1829 Y9.163
X68.175 Y9.1532
X68.1675 Y9.143
X68.1605 Y9.1324
X68.1541 Y9.1215
X68.1482 Y9.1103
X68.1428 Y9.0988
X68.1381 Y9.0871
X68.1339 Y9.0752
X68.1303 Y9.063
X68.1273 Y9.0507
X68.1249 Y9.0383
X68.1231 Y9.0257
X68.1219 Y9.0131
X68.1214 Y9.0005
X68.1215 Y8.9878
X68.1222 Y8.9752
X68.1235 Y8.9626
X68.1254 Y8.9501
X68.128 Y8.9377
X68.1311 Y8.9254
X68.1349 Y8.9133
X68.1392 Y8.9014
X68.1441 Y8.8898
X68.1496 Y8.8784
X68.1557 Y8.8672
X68.1622 Y8.8564
X68.1694 Y8.8459
X68.177 Y8.8358
X68.1851 Y8.8261
X68.1936 Y8.8168
X68.2026 Y8.8079
X68.2014 Y8.8013
X68.2052 Y8.8007
X68.3297
G3 X68.343 Y8.8089 I-0.0005 J0.0156
X68.3385 Y8.8323 I-0.0166 J0.0089
X68.2264 Y8.8211 I-0.0505 J-0.0604
X68.2184 Y8.8089 I0.0615 J-0.0492 F50.
G2 X68.2052 Y8.8007 I-0.0138 J0.0074
G1 X68.1653 F60.
G2 X68.0496 Y9.1225 I0.0909 J0.2144
G1 Y9.126
X68.2096 Y9.1901
G2 X68.225 Y9.1873 I0.0053 J-0.0147
X68.2285 Y9.1341 I-0.0238 J-0.0283
X68.0767 Y9.1146 I-0.0874 J0.0794
X68.065 Y9.1233 I0.0644 J0.099 F50.
G3 X68.0496 Y9.126 I-0.0101 J-0.012
G1 X68.0116 Y9.1108 F60.
G3 X68.0088 Y8.8007 I0.1441 J-0.1564
G1 X68.1653
G3 X68.1786 Y8.8089 I-0.0005 J0.0156
X68.1505 Y8.869 I-0.0366 J0.0195
X68.0297 Y8.8213 I-0.0242 J-0.1156
X68.0221 Y8.8089 I0.0966 J-0.0679 F50.
G2 X68.0088 Y8.8007 I-0.0138 J0.0074
G1 X67.9715 F60.
G2 X67.8653 Y9.0522 I0.0625 J0.1746
G1 X68.0116 Y9.1108
G2 X68.027 Y9.108 I0.0053 J-0.0147
X68.0238 Y9.0425 I-0.0266 J-0.0315
X67.8924 Y9.0408 I-0.067 J0.0973
X67.8807 Y9.0495 I0.0644 J0.099 F50.
G3 X67.8653 Y9.0522 I-0.0101 J-0.012
G1 X67.8297 Y9.038 F60.
G3 X67.8193 Y8.8007 I0.1071 J-0.1236
G1 X67.9715
G3 X67.9847 Y8.8089 I-0.0005 J0.0156
X67.9537 Y8.8703 I-0.0371 J0.0198
X67.8402 Y8.8213 I-0.0169 J-0.1169
X67.8326 Y8.8089 I0.0966 J-0.0679 F50.
G2 X67.8193 Y8.8007 I-0.0138 J0.0074
G1 X67.7872 F60.
G2 X67.6949 Y8.9849 I0.0317 J0.1311
G1 X67.8297 Y9.038
G2 X67.8451 Y9.0352 I0.0053 J-0.0147
X67.8347 Y8.9637 I-0.0274 J-0.0325
X67.723 Y8.973 I-0.0472 J0.1083
X67.7114 Y8.9817 I0.0644 J0.099 F50.
G3 X67.696 Y8.9845 I-0.0101 J-0.012
G1 X67.6643 Y8.9718 F60.
G3 X67.6466 Y8.7992 I0.0696 J-0.0944
G1 X67.7872 Y8.8007
G3 X67.8005 Y8.8089 I-0.0005 J0.0156
X67.7614 Y8.8714 I-0.0375 J0.02
X67.6691 Y8.8213 I0.0043 J-0.118
X67.6615 Y8.8089 I0.0966 J-0.0679 F50.
G2 X67.6482 Y8.8007 I-0.0138 J0.0074
G1 X67.6218 F60.
G2 X67.5455 Y8.926 I0.0163 J0.0958
G1 X67.6643 Y8.9718
G2 X67.6797 Y8.969 I0.0053 J-0.0147
X67.6841 Y8.9466 I-0.0118 J-0.014
X67.5754 Y8.9142 I-0.07 J0.0361
X67.5634 Y8.9225 I0.0388 J0.0685 F50.
G3 X67.548 Y8.9252 I-0.0101 J-0.012
G1 X67.5273 Y8.9169 F60.
G3 X67.5024 Y8.7988 I0.0381 J-0.0697
G1 X67.6218 Y8.8007
G3 X67.6351 Y8.8089 I-0.0005 J0.0156
X67.6256 Y8.8408 I-0.0209 J0.0111
X67.526 Y8.8211 I-0.0381 J-0.0689
X67.518 Y8.8089 I0.0615 J-0.0492 F50.
G2 X67.5048 Y8.8007 I-0.0138 J0.0074
G1 X67.4826 F60.
G2 X67.4301 Y8.8468 I0.0055 J0.0593
X67.4426 Y8.883 I0.0207 J0.0132
G1 X67.5273 Y8.9169
G2 X67.5461 Y8.8943 I0.0053 J-0.0147
G1 X67.5033 Y8.8215
X67.4956 Y8.8084 F50.
G2 X67.4826 Y8.8007 I-0.0135 J0.0079
G1 X67.428 F60.
X67.422 Y8.801
X67.4198 Y8.8021
X67.4187 Y8.8042
X67.4188 Y8.8066
G3 X67.4308 Y8.8469 I-0.1586 J0.0692
G2 X67.4415 Y8.8445 I0.0053 J-0.0012
G1 X67.4386 Y8.8309
X67.438 Y8.8281
X67.4331 Y8.805 F50.
G2 X67.428 Y8.8007 I-0.0053 J0.0011
G1 X67.4175 F60.
X67.417 Y8.8014
X67.4188 Y8.8066
G2 X67.4199 Y8.8089 I0.0146 J-0.0057
G1 X67.4216 Y8.8106 Z-0.1298
X67.4232 Y8.8123 Z-0.1293
X67.4247 Y8.8139 Z-0.1284
X67.4267 Y8.8147 Z-0.1271
X67.4284 Y8.8153 Z-0.1255
X67.4299 Y8.8159 Z-0.1236
X67.4311 Y8.8164 Z-0.1214
X67.4321 Y8.8165 Z-0.1192
X67.4326 Z-0.1168
X67.4328 Z-0.1144
G0 Z0.4
X68.5358 Y10.9519
Z0.1
G3 X68.444 Y10.8982 Z0.0791 I-0.0197 J-0.0717 F50.
X68.4999 Y10.8077 Z0.0582 I0.0721 J-0.0179
X68.589 Y10.8658 Z0.0373 I0.0162 J0.0726
X68.5287 Y10.9535 Z0.0164 I-0.0729 J0.0144
X68.4426 Y10.8911 Z-0.0045 I-0.0126 J-0.0733
X68.5071 Y10.8064 Z-0.0255 I0.0735 J-0.0108
X68.5901 Y10.873 Z-0.0464 I0.009 J0.0738
X68.4421 Y10.8875 Z-0.0875 I-0.074 J0.0072
X68.5125 Y10.806 Z-0.1088 I0.074 J-0.0072
X68.5905 Y10.8802 Z-0.13 I0.0036 J0.0743
X68.4418 I-0.0743 J0.
X68.5902 Y10.874 I0.0743 J0.
G1 X68.5905 Y10.8802
G3 X68.4251 Y10.9985 I-0.0855 J0.0551 F60.
G1 X68.4173 Y10.9926
X68.4099 Y10.9862
X68.4029 Y10.9794
X68.3963 Y10.9722
X68.3902 Y10.9646
X68.3846 Y10.9566
X68.3795 Y10.9482
X68.375 Y10.9396
X68.371 Y10.9307
X68.3676 Y10.9215
X68.3648 Y10.9122
X68.3625 Y10.9027
X68.3609 Y10.893
X68.3599 Y10.8833
X68.3595 Y10.8736
X68.3597 Y10.8638
X68.3605 Y10.8541
X68.3619 Y10.8444
X68.364 Y10.8349
X68.3666 Y10.8255
X68.3699 Y10.8163
X68.3737 Y10.8073
X68.378 Y10.7985
X68.3829 Y10.7901
X68.3884 Y10.782
X68.3943 Y10.7742
X68.4007 Y10.7669
X68.4076 Y10.7599
X68.4149 Y10.7534
X68.4226 Y10.7474
X68.4306 Y10.7419
X68.439 Y10.7368
X68.4477 Y10.7324
X68.4566 Y10.7285
X68.4658 Y10.7251
X68.4751 Y10.7224
X68.4847 Y10.7202
X68.4943 Y10.7186
X68.504 Y10.7177
X68.5138 Y10.7174
X68.5235 Y10.7177
X68.5333 Y10.7186
X68.5429 Y10.7201
X68.5524 Y10.7222
X68.5618 Y10.7249
X68.571 Y10.7282
X68.58 Y10.7321
X68.5887 Y10.7365
X68.5971 Y10.7415
X68.6051 Y10.747
X68.6128 Y10.753
X68.6201 Y10.7595
X68.627 Y10.7664
X68.6335 Y10.7737
X68.6394 Y10.7815
X68.6449 Y10.7895
X68.6498 Y10.798
X68.6542 Y10.8067
X68.6581 Y10.8157
X68.6613 Y10.8249
X68.6673 Y10.834
X68.6728 Y10.8436
X68.6777 Y10.8534
X68.6821 Y10.8634
X68.6858 Y10.8737
X68.689 Y10.8842
X68.6916 Y10.8949
X68.6935 Y10.9057
X68.6949 Y10.9166
X68.6956 Y10.9275
X68.6957 Y10.9385
X68.6952 Y10.9495
X68.694 Y10.9604
X68.6923 Y10.9712
X68.6899 Y10.9819
X68.6869 Y10.9925
X68.6833 Y11.0029
X68.6792 Y11.013
X68.6745 Y11.0229
X68.6692 Y11.0325
X68.6633 Y11.0418
X68.657 Y11.0508
X68.6502 Y11.0593
X68.6428 Y11.0675
X68.6351 Y11.0752
X68.6269 Y11.0825
X68.6183 Y11.0893
X68.6093 Y11.0957
X68.6 Y11.1014
X68.5903 Y11.1067
X68.5804 Y11.1114
X68.5703 Y11.1155
X68.5599 Y11.1191
X68.5493 Y11.122
X68.5386 Y11.1243
X68.5278 Y11.1261
X68.5169 Y11.1272
X68.5059 Y11.1276
X68.4949 Y11.1275
X68.484 Y11.1267
X68.4731 Y11.1253
X68.4623 Y11.1233
X68.4517 Y11.1207
X68.4412 Y11.1175
X68.4309 Y11.1137
X68.4208 Y11.1093
X68.411 Y11.1044
X68.4016 Y11.0989
X68.3924 Y11.0929
X68.3836 Y11.0863
X68.3752 Y11.0793
X68.3672 Y11.0718
X68.3596 Y11.0638
X68.35 Y11.0564
X68.3407 Y11.0485
X68.3319 Y11.0401
X68.3235 Y11.0313
X68.3156 Y11.022
X68.3082 Y11.0124
X68.3013 Y11.0024
X68.2949 Y10.992
X68.289 Y10.9814
X68.2837 Y10.9704
X68.279 Y10.9592
X68.2748 Y10.9478
X68.2713 Y10.9361
X68.2683 Y10.9243
X68.266 Y10.9124
X68.2643 Y10.9003
X68.2632 Y10.8882
X68.2627 Y10.8761
X68.2629 Y10.8639
X68.2636 Y10.8517
X68.265 Y10.8397
X68.2671 Y10.8277
X68.2697 Y10.8158
X68.2729 Y10.8041
X68.2768 Y10.7925
X68.2812 Y10.7812
X68.2862 Y10.7701
X68.2918 Y10.7593
X68.2979 Y10.7488
X68.3045 Y10.7386
X68.3117 Y10.7287
X68.3194 Y10.7193
X68.3275 Y10.7102
X68.3361 Y10.7016
X68.3451 Y10.6935
X68.3546 Y10.6858
X68.3644 Y10.6786
X68.3745 Y10.6719
X68.385 Y10.6658
X68.3959 Y10.6602
X68.4069 Y10.6551
X68.4196 Y10.6507
X68.4325 Y10.6468
X68.4456 Y10.6435
X68.4588 Y10.6409
X68.4721 Y10.6388
X68.4856 Y10.6374
X68.499 Y10.6366
X68.5125 Y10.6365
X68.5259 Y10.6369
X68.5394 Y10.6381
X68.5527 Y10.6398
X68.566 Y10.6421
X68.5791 Y10.6451
X68.5921 Y10.6487
X68.6049 Y10.6529
X68.6175 Y10.6576
X68.6299 Y10.663
X68.642 Y10.6689
X68.6538 Y10.6754
X68.6653 Y10.6824
X68.6765 Y10.69
X68.6873 Y10.6981
X68.6977 Y10.7066
X68.7076 Y10.7157
X68.7172 Y10.7252
X68.7263 Y10.7351
X68.7349 Y10.7455
X68.7431 Y10.7562
X68.7507 Y10.7673
X68.7578 Y10.7788
X68.7643 Y10.7906
X68.7703 Y10.8026
X68.7757 Y10.815
X68.7806 Y10.8275
X68.7848 Y10.8403
X68.7885 Y10.8533
X68.7915 Y10.8664
X68.794 Y10.8797
X68.7958 Y10.893
X68.7969 Y10.9065
X68.7975 Y10.9199
X68.7974 Y10.9334
X68.7967 Y10.9468
X68.7954 Y10.9603
X68.7934 Y10.9736
X68.7908 Y10.9868
X68.7876 Y10.9999
X68.7838 Y11.0128
X68.7794 Y11.0256
X68.7744 Y11.0381
X68.7688 Y11.0503
X68.7627 Y11.0623
X68.756 Y11.074
X68.7488 Y11.0854
X68.741 Y11.0964
X68.7328 Y11.1071
X68.724 Y11.1173
X68.7148 Y11.1271
X68.7051 Y11.1365
X68.695 Y11.1454
X68.6845 Y11.1539
X68.6736 Y11.1618
X68.6624 Y11.1693
X68.6508 Y11.1761
X68.6389 Y11.1825
X68.6268 Y11.1883
X68.6143 Y11.1935
X68.6017 Y11.1981
X68.5888 Y11.2021
X68.5758 Y11.2056
X68.5626 Y11.2084
X68.5493 Y11.2106
X68.536 Y11.2121
X68.5225 Y11.2131
X68.509 Y11.2134
X68.4956 Y11.2131
X68.4812 Y11.2124
X68.4668 Y11.2111
X68.4526 Y11.2092
X68.4384 Y11.2067
X68.4243 Y11.2036
X68.4104 Y11.1998
X68.3966 Y11.1955
X68.3831 Y11.1906
X68.3697 Y11.1852
X68.3567 Y11.1791
X68.3438 Y11.1726
X68.3313 Y11.1654
X68.3191 Y11.1578
X68.3073 Y11.1496
X68.2957 Y11.1409
X68.2846 Y11.1318
X68.2739 Y11.1222
X68.2636 Y11.1121
X68.2537 Y11.1016
X68.2443 Y11.0907
X68.2354 Y11.0794
X68.2269 Y11.0677
X68.219 Y11.0557
X68.2116 Y11.0433
X68.2047 Y11.0307
X68.1984 Y11.0177
X68.1926 Y11.0045
X68.1874 Y10.9911
X68.1828 Y10.9774
X68.1788 Y10.9636
X68.1753 Y10.9496
X68.1725 Y10.9355
X68.1703 Y10.9213
X68.1686 Y10.9069
X68.1676 Y10.8926
X68.1672 Y10.8782
X68.1675 Y10.8638
X68.1683 Y10.8494
X68.1697 Y10.835
X68.1718 Y10.8208
X68.1745 Y10.8066
X68.1778 Y10.7926
X68.1816 Y10.7787
X68.1861 Y10.765
X68.1911 Y10.7515
X68.1967 Y10.7383
X68.2029 Y10.7252
X68.2096 Y10.7125
X68.2169 Y10.7001
X68.2247 Y10.6879
X68.233 Y10.6762
X68.2418 Y10.6648
X68.2511 Y10.6537
X68.2608 Y10.6431
X68.271 Y10.6329
X68.2816 Y10.6232
X68.2926 Y10.6139
X68.304 Y10.6051
X68.3158 Y10.5968
X68.3279 Y10.589
X68.3403 Y10.5817
X68.3531 Y10.575
X68.3661 Y10.5688
X68.3794 Y10.5632
X68.3928 Y10.5581
X68.4065 Y10.5536
X68.4204 Y10.5498
X68.4357 Y10.5467
X68.451 Y10.5443
X68.4664 Y10.5425
X68.4819 Y10.5413
X68.4975 Y10.5407
X68.513
X68.5285 Y10.5414
X68.544 Y10.5427
X68.5594 Y10.5446
X68.5747 Y10.5472
X68.59 Y10.5503
X68.605 Y10.5541
X68.62 Y10.5584
X68.6347 Y10.5634
X68.6492 Y10.5689
X68.6635 Y10.575
X68.6775 Y10.5817
X68.6912 Y10.589
X68.7047 Y10.5968
X68.7178 Y10.6051
X68.7306 Y10.6139
X68.743 Y10.6233
X68.755 Y10.6331
X68.7666 Y10.6435
X68.7778 Y10.6542
X68.7886 Y10.6654
X68.7989 Y10.6771
X68.8087 Y10.6891
X68.818 Y10.7016
X68.8268 Y10.7143
X68.8351 Y10.7275
X68.8429 Y10.7409
X68.8501 Y10.7547
X68.8568 Y10.7687
X68.8629 Y10.783
X68.8684 Y10.7976
X68.8733 Y10.8123
X68.8776 Y10.8272
X68.8813 Y10.8423
X68.8845 Y10.8575
X68.887 Y10.8729
X68.8889 Y10.8883
X68.8901 Y10.9038
X68.8908 Y10.9193
Y10.9348
X68.8902 Y10.9504
X68.8889 Y10.9659
X68.8871 Y10.9813
X68.8846 Y10.9966
X68.8815 Y11.0118
X68.8778 Y11.0269
X68.8735 Y11.0419
X68.8687 Y11.0566
X68.8632 Y11.0712
X68.8571 Y11.0855
X68.8505 Y11.0995
X68.8433 Y11.1133
X68.8356 Y11.1268
X68.8273 Y11.1399
X68.8185 Y11.1527
X68.8092 Y11.1652
X68.7994 Y11.1772
X68.7892 Y11.1889
X68.7784 Y11.2001
X68.7673 Y11.2109
X68.7557 Y11.2213
X68.7437 Y11.2312
X68.7313 Y11.2405
X68.7185 Y11.2494
X68.7054 Y11.2578
X68.692 Y11.2656
X68.6783 Y11.2729
X68.6643 Y11.2796
X68.65 Y11.2857
X68.6355 Y11.2913
X68.6208 Y11.2963
X68.6059 Y11.3007
X68.5908 Y11.3045
X68.5756 Y11.3077
X68.5603 Y11.3102
X68.5449 Y11.3122
X68.5294 Y11.3135
X68.5139 Y11.3142
X68.4983 Y11.3143
X68.4828 Y11.3138
X68.4673 Y11.3126
X68.4519 Y11.3108
X68.4365 Y11.3084
X68.4213 Y11.3054
X68.4062 Y11.3018
X68.3912 Y11.2975
X68.3764 Y11.2927
X68.3619 Y11.2873
X68.3475 Y11.2813
X68.3335 Y11.2747
X68.3197 Y11.2676
X68.3062 Y11.2599
X68.293 Y11.2517
X68.2801 Y11.243
X68.2676 Y11.2337
X68.2555 Y11.224
X68.2438 Y11.2138
G3 X68.0734 Y10.8655 I0.228 J-0.3274
G1 X68.0745 Y10.8488
X68.0761 Y10.8321
X68.0784 Y10.8155
X68.0813 Y10.799
X68.0849 Y10.7826
X68.089 Y10.7664
X68.0937 Y10.7503
X68.0991 Y10.7344
X68.105 Y10.7188
X68.1115 Y10.7033
X68.1186 Y10.6881
X68.1262 Y10.6732
X68.1344 Y10.6586
X68.1431 Y10.6443
X68.1524 Y10.6303
X68.1622 Y10.6167
X68.1725 Y10.6035
X68.1832 Y10.5907
X68.1945 Y10.5782
X68.2062 Y10.5662
X68.2183 Y10.5547
X68.2309 Y10.5436
X68.2438 Y10.533
X68.2572 Y10.5229
X68.2709 Y10.5133
X68.285 Y10.5042
X68.2994 Y10.4956
X68.3141 Y10.4876
X68.3291 Y10.4801
X68.3444 Y10.4732
X68.3599 Y10.4669
X68.3756 Y10.4612
X68.3916 Y10.456
X68.4077 Y10.4515
X68.424 Y10.4476
X68.4404 Y10.4442
X68.4569 Y10.4415
X68.4736 Y10.4394
X68.4902 Y10.438
X68.507 Y10.4371
X68.5237 Y10.4369
X68.5405 Y10.4373
X68.5572 Y10.4384
X68.5739 Y10.44
X68.5905 Y10.4423
X68.607 Y10.4452
X68.6234 Y10.4487
X68.6396 Y10.4529
X68.6557 Y10.4576
X68.6716 Y10.4629
X68.6872 Y10.4689
X68.7027 Y10.4754
X68.7179 Y10.4824
X68.7328 Y10.4901
X68.7474 Y10.4983
X68.7617 Y10.507
X68.7756 Y10.5162
X68.7893 Y10.526
X68.8025 Y10.5363
X68.8153 Y10.5471
X68.8277 Y10.5583
X68.8397 Y10.57
X68.8513 Y10.5821
X68.8624 Y10.5947
X68.873 Y10.6077
X68.8831 Y10.621
X68.8927 Y10.6347
X68.9018 Y10.6488
X68.9104 Y10.6632
X68.9184 Y10.6779
X68.9259 Y10.6929
X68.9328 Y10.7082
X68.9391 Y10.7237
X68.9448 Y10.7394
X68.95 Y10.7554
X68.9545 Y10.7715
X68.9585 Y10.7878
X68.9618 Y10.8042
X68.9645 Y10.8207
X68.9666 Y10.8374
X68.9705 Y10.8533
X68.9738 Y10.8693
X68.9765 Y10.8855
X68.9786 Y10.9017
X68.9801 Y10.918
X68.981 Y10.9344
X68.9813 Y10.9507
X68.981 Y10.9671
X68.9801 Y10.9835
X68.9785 Y10.9998
X68.9764 Y11.016
X68.9737 Y11.0322
X68.9704 Y11.0482
X68.9665 Y11.0641
X68.962 Y11.0798
X68.957 Y11.0954
X68.9513 Y11.1108
X68.9451 Y11.126
X68.9384 Y11.1409
X68.9311 Y11.1555
X68.9233 Y11.1699
X68.9149 Y11.184
X68.906 Y11.1978
X68.8966 Y11.2112
X68.8868 Y11.2243
X68.8764 Y11.2369
X68.8656 Y11.2493
X68.8544 Y11.2612
X68.8427 Y11.2726
X68.8306 Y11.2837
X68.8181 Y11.2943
X68.8053 Y11.3044
X68.792 Y11.314
X68.7784 Y11.3231
X68.7645 Y11.3318
X68.7503 Y11.3399
X68.7358 Y11.3475
X68.721 Y11.3545
X68.706 Y11.361
X68.6907 Y11.3669
G3 X68.125 Y11.2475 I-0.199 J-0.4566
G1 X68.0525 Y11.1384
G3 X68.3109 Y10.3821 I0.4485 J-0.2691
G1 X68.4677 Y10.3506
X68.4863 Y10.349
X68.5048 Y10.3481
X68.5234 Y10.3479
X68.542 Y10.3482
X68.5606 Y10.3492
X68.5791 Y10.3507
X68.5976 Y10.353
X68.616 Y10.3558
X68.6342 Y10.3592
X68.6524 Y10.3633
X68.6704 Y10.3679
X68.6882 Y10.3732
X68.7059 Y10.379
X68.7233 Y10.3855
X68.7405 Y10.3925
X68.7575 Y10.4001
X68.7742 Y10.4083
X68.7906 Y10.417
X68.8068 Y10.4263
X68.8226 Y10.4361
X68.838 Y10.4464
X68.8531 Y10.4572
X68.8679 Y10.4686
X68.8822 Y10.4804
X68.8962 Y10.4927
X68.9097 Y10.5054
X68.9228 Y10.5187
X68.9354 Y10.5323
X68.9476 Y10.5463
X68.9593 Y10.5608
X68.9705 Y10.5756
X68.9812 Y10.5909
X68.9914 Y10.6064
X69.001 Y10.6223
X69.0101 Y10.6385
X69.0187 Y10.655
X69.0267 Y10.6718
X69.0342 Y10.6888
X69.041 Y10.7061
X69.0473 Y10.7236
X69.053 Y10.7413
X69.0581 Y10.7592
X69.0626 Y10.7772
X69.0665 Y10.7954
X69.0698 Y10.8137
X69.0724 Y10.8321
X69.0744 Y10.8506
X69.0759 Y10.8692
X68.9438 Y11.2683
G3 X68.722 Y11.4584 I-0.3373 J-0.1692
G1 X68.7089 Y11.4523
X68.6955 Y11.4468
X68.6819 Y11.4419
X68.6681 Y11.4375
X68.6542 Y11.4336
X68.6401 Y11.4304
X68.6259 Y11.4277
X68.6116 Y11.4256
X68.5973 Y11.424
X68.5828 Y11.4231
X68.5684 Y11.4227
X68.5539 Y11.423
X68.5395 Y11.4238
X68.5251 Y11.4252
X68.5108 Y11.4272
X68.4966 Y11.4297
X68.4825 Y11.4329
X68.4685 Y11.4366
X68.4547 Y11.4409
X68.4411 Y11.4457
X68.4277 Y11.4511
X68.4145 Y11.457
G3 X68.2575 Y11.4506 I-0.0714 J-0.1772
G1 X68.2562 Y11.4479
X68.2554 Y11.4451
X68.2551 Y11.4421
X68.2553 Y11.4392
X68.2561 Y11.4364
X68.2574 Y11.4337
X68.2591 Y11.4314
X68.2612 Y11.4294
X68.2636 Y11.4278
X68.2662 Y11.4267
X68.269 Y11.4262
G3 X68.2715 Y11.426 I0.0022 J0.0155
G1 X68.4068 Y11.4282
X68.41 Y11.4285
X68.413 Y11.4295
X68.4158 Y11.4311
G3 X68.4146 Y11.4573 I-0.0092 J0.0127 F50.
G2 X68.3403 Y11.5045 I0.0851 J0.216 F60.
G3 X68.3019 Y11.5165 I-0.0241 J-0.0098
X68.3038 Y11.4976 I0.0134 J-0.0082
G1 X68.3111 Y11.4899
X68.318 Y11.4825
G3 X68.3355 Y11.4788 I0.0114 J0.0107
X68.3403 Y11.5045 I-0.0061 J0.0144 F50.
G1 X68.3112 Y11.5306 F60.
X68.1247 Y11.2478
G3 X68.1358 Y11.2242 I0.0134 J-0.0082
G1 X68.1388 Y11.2237 Z-0.1297
X68.1417 Y11.2233 Z-0.1288
X68.1444 Y11.2229 Z-0.1274
X68.1468 Y11.2226 Z-0.1254
X68.1487 Y11.2223 Z-0.123
