%
(971-23-P-0078_BUTTERFLY FISH GEARBOX PLATE_1540)
(T1  D=0.154 CR=0. - ZMIN=-0.2175 - FLAT END MILL)
G90 G94 G17 G91.1
G64 P0.001 Q0.001
G20
G53 G0 Z0.
(.3 CIRCLUAR THROUGH HOLE 2)
M9
T1 M6
S22000 M3
G4 P10.
G54
M7
G0 X67.0499 Y15.6645
G43 Z0.6 H1
G0 Z0.13
G1 Z0.0654 F40.
G18 G2 X67.0653 Z0.05 I0.0154 K0.
G1 X67.073
G17 G3 X67.0835 Y15.675 I0. J0.0105
X67.0415 Z0.0327 I-0.021 J0.
X67.0565 Y15.6549 Z0.0257 I0.021 J0.
X67.0685 Y15.6951 Z0.0084 I0.006 J0.0201
X67.045 Y15.6866 Z0.0014 I-0.006 J-0.0201
X67.08 Y15.6634 Z-0.0159 I0.0175 J-0.0116
X67.0786 Y15.6885 Z-0.023 I-0.0175 J0.0116
X67.0464 Y15.6615 Z-0.0402 I-0.0161 J-0.0135
X67.0708 Y15.6557 Z-0.0473 I0.0161 J0.0135
X67.0542 Y15.6943 Z-0.0646 I-0.0083 J0.0193
X67.0416 Y15.6726 Z-0.0716 I0.0083 J-0.0193
X67.0834 Y15.6774 Z-0.0889 I0.0209 J0.0024
X67.0662 Y15.6957 Z-0.0959 I-0.0209 J-0.0024
X67.0588 Y15.6543 Z-0.1132 I-0.0037 J-0.0207
X67.0812 Y15.6655 Z-0.1202 I0.0037 J0.0207
X67.0438 Y15.6845 Z-0.1375 I-0.0187 J0.0095
X67.0812 Y15.6655 Z-0.1548 I0.0187 J-0.0095
X67.0521 Y15.6932 Z-0.1689 I-0.0187 J0.0095
X67.0729 Y15.6568 Z-0.1861 I0.0104 J-0.0182
X67.083 Y15.6798 Z-0.1932 I-0.0104 J0.0182
X67.042 Y15.6702 Z-0.2105 I-0.0205 J-0.0048
X67.0612 Y15.654 Z-0.2175 I0.0205 J0.0048
X67.0638 Y15.696 I0.0013 J0.021
X67.0612 Y15.654 I-0.0013 J-0.021
X67.0723 Y15.6639 I0.0006 J0.0105
G1 X67.0728 Y15.6716
X67.073 Y15.6746 Z-0.2172
X67.0732 Y15.6774 Z-0.2163
X67.0733 Y15.6801 Z-0.2149
X67.0735 Y15.6824 Z-0.213
X67.0736 Y15.6843 Z-0.2107
X67.0737 Y15.6858 Z-0.208
Y15.6866 Z-0.2051
X67.0738 Y15.6869 Z-0.2021
G0 Z0.4
X67.0499 Y14.9145
Z0.13
G1 Z0.0654 F40.
G18 G2 X67.0653 Z0.05 I0.0154 K0.
G1 X67.073
G17 G3 X67.0835 Y14.925 I0. J0.0105
X67.0415 Z0.0327 I-0.021 J0.
X67.0565 Y14.9049 Z0.0257 I0.021 J0.
X67.0685 Y14.9451 Z0.0084 I0.006 J0.0201
X67.045 Y14.9366 Z0.0014 I-0.006 J-0.0201
X67.08 Y14.9134 Z-0.0159 I0.0175 J-0.0116
X67.0786 Y14.9385 Z-0.023 I-0.0175 J0.0116
X67.0464 Y14.9115 Z-0.0402 I-0.0161 J-0.0135
X67.0708 Y14.9057 Z-0.0473 I0.0161 J0.0135
X67.0542 Y14.9443 Z-0.0646 I-0.0083 J0.0193
X67.0416 Y14.9226 Z-0.0716 I0.0083 J-0.0193
X67.0834 Y14.9274 Z-0.0889 I0.0209 J0.0024
X67.0662 Y14.9457 Z-0.0959 I-0.0209 J-0.0024
X67.0588 Y14.9043 Z-0.1132 I-0.0037 J-0.0207
X67.0812 Y14.9155 Z-0.1202 I0.0037 J0.0207
X67.0438 Y14.9345 Z-0.1375 I-0.0187 J0.0095
X67.048 Y14.9098 Z-0.1445 I0.0187 J-0.0095
X67.0769 Y14.9402 Z-0.1618 I0.0145 J0.0152
X67.0521 Y14.9432 Z-0.1689 I-0.0145 J-0.0152
X67.0729 Y14.9068 Z-0.1861 I0.0104 J-0.0182
X67.083 Y14.9298 Z-0.1932 I-0.0104 J0.0182
X67.042 Y14.9202 Z-0.2105 I-0.0205 J-0.0048
X67.0612 Y14.904 Z-0.2175 I0.0205 J0.0048
X67.0638 Y14.946 I0.0013 J0.021
X67.0612 Y14.904 I-0.0013 J-0.021
X67.0723 Y14.9139 I0.0006 J0.0105
G1 X67.0728 Y14.9216
X67.073 Y14.9246 Z-0.2172
X67.0732 Y14.9274 Z-0.2163
X67.0733 Y14.9301 Z-0.2149
X67.0735 Y14.9324 Z-0.213
X67.0736 Y14.9343 Z-0.2107
X67.0737 Y14.9358 Z-0.208
Y14.9366 Z-0.2051
X67.0738 Y14.9369 Z-0.2021
G0 Z0.4
X67.0499 Y14.1645
Z0.13
G1 Z0.0654 F40.
G18 G2 X67.0653 Z0.05 I0.0154 K0.
G1 X67.073
G17 G3 X67.0835 Y14.175 I0. J0.0105
X67.0415 Z0.0327 I-0.021 J0.
X67.0565 Y14.1549 Z0.0257 I0.021 J0.
X67.0685 Y14.1951 Z0.0084 I0.006 J0.0201
X67.0565 Y14.1549 Z-0.0089 I-0.006 J-0.0201
X67.0786 Y14.1885 Z-0.023 I0.006 J0.0201
X67.0464 Y14.1615 Z-0.0402 I-0.0161 J-0.0135
X67.0708 Y14.1557 Z-0.0473 I0.0161 J0.0135
X67.0542 Y14.1943 Z-0.0646 I-0.0083 J0.0193
X67.0708 Y14.1557 Z-0.0818 I0.0083 J-0.0193
X67.0662 Y14.1957 Z-0.0959 I-0.0083 J0.0193
X67.0588 Y14.1543 Z-0.1132 I-0.0037 J-0.0207
X67.0812 Y14.1655 Z-0.1202 I0.0037 J0.0207
X67.0438 Y14.1845 Z-0.1375 I-0.0187 J0.0095
X67.048 Y14.1598 Z-0.1445 I0.0187 J-0.0095
X67.077 Y14.1902 Z-0.1618 I0.0145 J0.0152
X67.048 Y14.1598 Z-0.1791 I-0.0145 J-0.0152
X67.083 Y14.1798 Z-0.1932 I0.0145 J0.0152
X67.042 Y14.1702 Z-0.2105 I-0.0205 J-0.0048
X67.0612 Y14.154 Z-0.2175 I0.0205 J0.0048
X67.0638 Y14.196 I0.0013 J0.021
X67.0612 Y14.154 I-0.0013 J-0.021
X67.0723 Y14.1639 I0.0006 J0.0105
G1 X67.0728 Y14.1716
X67.073 Y14.1746 Z-0.2172
X67.0732 Y14.1774 Z-0.2163
X67.0733 Y14.1801 Z-0.2149
X67.0735 Y14.1824 Z-0.213
X67.0736 Y14.1843 Z-0.2107
X67.0737 Y14.1858 Z-0.208
Y14.1866 Z-0.2051
X67.0738 Y14.1869 Z-0.2021
G0 Z0.4
X69.4337 Y14.4688
Z0.1146
G1 Z0.05 F40.
X69.4349 Y14.4676
G3 X69.4362 Y14.4688 I0. J0.0012
X69.4312 Z0.036 I-0.0025 J0.
X69.4334 Y14.4663 Z0.0294 I0.0025 J0.
X69.4339 Y14.4713 Z0.0154 I0.0002 J0.0025
X69.4312 Y14.4693 Z0.0088 I-0.0003 J-0.0025
X69.4361 Y14.4683 Z-0.0052 I0.0025 J-0.0005
X69.4344 Y14.4712 Z-0.0117 I-0.0025 J0.0005
X69.4329 Y14.4664 Z-0.0257 I-0.0007 J-0.0024
X69.436 Y14.4678 Z-0.0323 I0.0007 J0.0024
X69.4314 Y14.4698 Z-0.0463 I-0.0023 J0.001
X69.436 Y14.4678 Z-0.0603 I0.0023 J-0.001
X69.4316 Y14.4702 Z-0.0735 I-0.0023 J0.001
X69.4357 Y14.4674 Z-0.0875 I0.0021 J-0.0014
X69.4353 Y14.4707 Z-0.094 I-0.0021 J0.0014
X69.432 Y14.4669 Z-0.1081 I-0.0016 J-0.0019
X69.4354 Y14.467 Z-0.1146 I0.0016 J0.0019
X69.4319 Y14.4706 Z-0.1286 I-0.0017 J0.0018
X69.4317 Y14.4673 Z-0.1352 I0.0017 J-0.0018
X69.4356 Y14.4703 Z-0.1492 I0.002 J0.0015
X69.4323 Y14.4709 Z-0.1558 I-0.002 J-0.0015
X69.435 Y14.4667 Z-0.1698 I0.0013 J-0.0021
X69.4323 Y14.4709 Z-0.1838 I-0.0013 J0.0021
X69.4346 Y14.4665 Z-0.1969 I0.0013 J-0.0021
X69.4328 Y14.4711 Z-0.2109 I-0.0009 J0.0023
X69.4313 Y14.4682 Z-0.2175 I0.0009 J-0.0023
X69.4361 Y14.4694 I0.0024 J0.0006
X69.4313 Y14.4682 I-0.0024 J-0.0006
X69.4328 Y14.4673 I0.0012 J0.0003
G1 X69.4337 Y14.4688
G0 Z0.4
X69.8646 Y14.2152
Z0.1146
G1 Z0.05 F40.
X69.8658 Y14.214
G3 X69.8671 Y14.2152 I0. J0.0013
X69.8621 Z0.036 I-0.0025 J0.
X69.8643 Y14.2127 Z0.0294 I0.0025 J0.
X69.8648 Y14.2177 Z0.0154 I0.0002 J0.0025
X69.8621 Y14.2157 Z0.0088 I-0.0003 J-0.0025
X69.867 Y14.2147 Z-0.0052 I0.0025 J-0.0005
X69.8653 Y14.2176 Z-0.0117 I-0.0024 J0.0005
X69.8638 Y14.2128 Z-0.0257 I-0.0007 J-0.0024
X69.8669 Y14.2142 Z-0.0323 I0.0007 J0.0024
X69.8623 Y14.2162 Z-0.0463 I-0.0023 J0.001
X69.8634 Y14.213 Z-0.0529 I0.0023 J-0.001
X69.8658 Y14.2174 Z-0.0669 I0.0012 J0.0022
X69.8625 Y14.2166 Z-0.0735 I-0.0012 J-0.0022
X69.8667 Y14.2138 Z-0.0875 I0.0021 J-0.0014
X69.8662 Y14.2171 Z-0.094 I-0.0021 J0.0014
X69.863 Y14.2133 Z-0.1081 I-0.0016 J-0.0019
X69.8663 Y14.2134 Z-0.1146 I0.0016 J0.0019
X69.8629 Y14.217 Z-0.1286 I-0.0017 J0.0018
X69.8626 Y14.2137 Z-0.1352 I0.0017 J-0.0018
X69.8666 Y14.2168 Z-0.1492 I0.002 J0.0015
X69.8633 Y14.2173 Z-0.1558 I-0.002 J-0.0015
X69.8659 Y14.2131 Z-0.1698 I0.0013 J-0.0021
X69.8668 Y14.2163 Z-0.1763 I-0.0013 J0.0021
X69.8624 Y14.2141 Z-0.1904 I-0.0022 J-0.0011
X69.8655 Y14.2129 Z-0.1969 I0.0022 J0.0011
X69.8637 Y14.2176 Z-0.2109 I-0.0009 J0.0023
X69.8622 Y14.2146 Z-0.2175 I0.0009 J-0.0023
X69.867 Y14.2159 I0.0024 J0.0006
X69.8622 Y14.2146 I-0.0024 J-0.0006
X69.8637 Y14.2137 I0.0012 J0.0003
G1 X69.8646 Y14.2152
G0 Z0.4
X71.1875 Y13.5
Z0.1146
G1 Z0.05 F40.
X71.1887 Y13.4988
G3 X71.19 Y13.5 I0. J0.0012
X71.185 Z0.036 I-0.0025 J0.
X71.1872 Y13.4975 Z0.0294 I0.0025 J0.
X71.1877 Y13.5025 Z0.0154 I0.0002 J0.0025
X71.1851 Y13.5005 Z0.0088 I-0.0002 J-0.0025
X71.1899 Y13.4995 Z-0.0052 I0.0024 J-0.0005
X71.1882 Y13.5024 Z-0.0117 I-0.0024 J0.0005
X71.1868 Y13.4976 Z-0.0257 I-0.0007 J-0.0024
X71.1898 Y13.499 Z-0.0323 I0.0007 J0.0024
X71.1852 Y13.501 Z-0.0463 I-0.0023 J0.001
X71.1863 Y13.4978 Z-0.0529 I0.0023 J-0.001
X71.1887 Y13.5022 Z-0.0669 I0.0012 J0.0022
X71.1863 Y13.4978 Z-0.0809 I-0.0012 J-0.0022
X71.1891 Y13.5019 Z-0.094 I0.0012 J0.0022
X71.1859 Y13.4981 Z-0.1081 I-0.0016 J-0.0019
X71.1892 Y13.4982 Z-0.1146 I0.0016 J0.0019
X71.1858 Y13.5018 Z-0.1286 I-0.0017 J0.0018
X71.1855 Y13.4985 Z-0.1352 I0.0017 J-0.0018
X71.1895 Y13.5015 Z-0.1492 I0.002 J0.0015
X71.1862 Y13.5021 Z-0.1558 I-0.002 J-0.0015
X71.1888 Y13.4979 Z-0.1698 I0.0013 J-0.0021
X71.1897 Y13.5011 Z-0.1763 I-0.0013 J0.0021
X71.1853 Y13.4989 Z-0.1904 I-0.0022 J-0.0011
X71.1884 Y13.4977 Z-0.1969 I0.0022 J0.0011
X71.1866 Y13.5023 Z-0.2109 I-0.0009 J0.0023
X71.1851 Y13.4994 Z-0.2175 I0.0009 J-0.0023
X71.1899 Y13.5006 I0.0024 J0.0006
X71.1851 Y13.4994 I-0.0024 J-0.0006
X71.1866 Y13.4985 I0.0012 J0.0003
G1 X71.1875 Y13.5
G0 Z0.4
X71.4192 Y11.9883
Z0.13
G1 Z0.0654 F40.
G18 G2 X71.4346 Z0.05 I0.0154 K0.
G1 X71.4423
G17 G3 X71.454 Y12. I0. J0.0117
X71.407 Z0.0323 I-0.0235 J0.
X71.4214 Y11.9784 Z0.0257 I0.0235 J0.
X71.4397 Y12.0216 Z0.008 I0.0092 J0.0216
X71.4214 Y11.9784 Z-0.0098 I-0.0092 J-0.0216
X71.4397 Y12.0216 Z-0.0275 I0.0092 J0.0216
X71.4214 Y11.9784 Z-0.0452 I-0.0092 J-0.0216
X71.4298 Y11.9765 Z-0.0473 I0.0092 J0.0216
X71.4313 Y12.0235 Z-0.065 I0.0008 J0.0235
X71.4298 Y11.9765 Z-0.0827 I-0.0008 J-0.0235
X71.448 Y12.0157 Z-0.0959 I0.0008 J0.0235
X71.4131 Y11.9843 Z-0.1136 I-0.0174 J-0.0157
X71.4382 Y11.9778 Z-0.1202 I0.0174 J0.0157
X71.4229 Y12.0222 Z-0.1379 I-0.0077 J0.0222
X71.4071 Y12.0016 Z-0.1445 I0.0077 J-0.0222
X71.454 Y11.9984 Z-0.1623 I0.0234 J-0.0016
X71.4412 Y12.021 Z-0.1689 I-0.0234 J0.0016
X71.4199 Y11.979 Z-0.1866 I-0.0106 J-0.021
X71.4457 Y11.982 Z-0.1932 I0.0106 J0.021
X71.4154 Y12.018 Z-0.2109 I-0.0151 J0.018
X71.4081 Y11.9931 Z-0.2175 I0.0151 J-0.018
X71.453 Y12.0069 I0.0225 J0.0069
X71.4081 Y11.9931 I-0.0225 J-0.0069
X71.4228 Y11.9853 I0.0112 J0.0035
G1 X71.4301 Y11.9876
X71.433 Y11.9885 Z-0.2172
X71.4358 Y11.9893 Z-0.2163
X71.4383 Y11.9901 Z-0.2149
X71.4405 Y11.9908 Z-0.213
X71.4424 Y11.9914 Z-0.2107
X71.4437 Y11.9918 Z-0.208
X71.4446 Y11.992 Z-0.2051
X71.4449 Y11.9921 Z-0.2021
G0 Z0.4
X71.6136 Y9.4883
Z0.13
G1 Z0.0654 F40.
G18 G2 X71.6291 Z0.05 I0.0154 K0.
G1 X71.6368
G17 G3 X71.6485 Y9.5 I0. J0.0117
X71.6015 Z0.0323 I-0.0235 J0.
X71.6158 Y9.4784 Z0.0257 I0.0235 J0.
X71.6342 Y9.5216 Z0.008 I0.0092 J0.0216
X71.6158 Y9.4784 Z-0.0098 I-0.0092 J-0.0216
X71.6469 Y9.5084 Z-0.023 I0.0092 J0.0216
X71.6031 Y9.4916 Z-0.0407 I-0.0219 J-0.0084
X71.6242 Y9.4765 Z-0.0473 I0.0219 J0.0084
X71.6258 Y9.5235 Z-0.065 I0.0008 J0.0235
X71.6242 Y9.4765 Z-0.0827 I-0.0008 J-0.0235
X71.6424 Y9.5157 Z-0.0959 I0.0008 J0.0235
X71.6076 Y9.4843 Z-0.1136 I-0.0174 J-0.0157
X71.6327 Y9.4778 Z-0.1202 I0.0174 J0.0157
X71.6173 Y9.5222 Z-0.1379 I-0.0077 J0.0222
X71.6327 Y9.4778 Z-0.1557 I0.0077 J-0.0222
X71.6356 Y9.521 Z-0.1689 I-0.0077 J0.0222
X71.6144 Y9.479 Z-0.1866 I-0.0106 J-0.021
X71.6401 Y9.482 Z-0.1932 I0.0106 J0.021
X71.6099 Y9.518 Z-0.2109 I-0.0151 J0.018
X71.6025 Y9.4931 Z-0.2175 I0.0151 J-0.018
X71.6475 Y9.5069 I0.0225 J0.0069
X71.6025 Y9.4931 I-0.0225 J-0.0069
X71.6172 Y9.4853 I0.0112 J0.0035
G1 X71.6246 Y9.4876
X71.6275 Y9.4885 Z-0.2172
X71.6302 Y9.4893 Z-0.2163
X71.6328 Y9.4901 Z-0.2149
X71.635 Y9.4908 Z-0.213
X71.6368 Y9.4914 Z-0.2107
X71.6382 Y9.4918 Z-0.208
X71.639 Y9.492 Z-0.2051
X71.6393 Y9.4921 Z-0.2021
G0 Z0.4
X71.5908 Y7.3909
Z0.13
G1 Z0.0654 F40.
G18 G2 X71.6062 Z0.05 I0.0154 K0.
G1 X71.6139
G17 G3 X71.6257 Y7.4027 I0. J0.0118
X71.5787 Z0.0323 I-0.0235 J0.
X71.593 Y7.3811 Z0.0257 I0.0235 J0.
X71.6114 Y7.4243 Z0.008 I0.0092 J0.0216
X71.593 Y7.3811 Z-0.0098 I-0.0092 J-0.0216
X71.6241 Y7.4111 Z-0.023 I0.0092 J0.0216
X71.5803 Y7.3943 Z-0.0407 I-0.0219 J-0.0084
X71.6014 Y7.3792 Z-0.0473 I0.0219 J0.0084
X71.603 Y7.4262 Z-0.065 I0.0008 J0.0235
X71.6014 Y7.3792 Z-0.0827 I-0.0008 J-0.0235
X71.6196 Y7.4184 Z-0.0959 I0.0008 J0.0235
X71.5847 Y7.3869 Z-0.1136 I-0.0174 J-0.0157
X71.6099 Y7.3805 Z-0.1202 I0.0174 J0.0157
X71.5945 Y7.4249 Z-0.1379 I-0.0077 J0.0222
X71.5787 Y7.4043 Z-0.1445 I0.0077 J-0.0222
X71.6256 Y7.4011 Z-0.1623 I0.0234 J-0.0016
X71.6128 Y7.4236 Z-0.1689 I-0.0234 J0.0016
X71.5916 Y7.3817 Z-0.1866 I-0.0106 J-0.021
X71.6173 Y7.3847 Z-0.1932 I0.0106 J0.021
X71.587 Y7.4207 Z-0.2109 I-0.0151 J0.018
X71.5797 Y7.3958 Z-0.2175 I0.0151 J-0.018
X71.6247 Y7.4096 I0.0225 J0.0069
X71.5797 Y7.3958 I-0.0225 J-0.0069
X71.5944 Y7.388 I0.0112 J0.0035
G1 X71.6018 Y7.3903
X71.6047 Y7.3912 Z-0.2172
X71.6074 Y7.392 Z-0.2163
X71.61 Y7.3928 Z-0.2149
X71.6122 Y7.3935 Z-0.213
X71.614 Y7.394 Z-0.2107
X71.6154 Y7.3945 Z-0.208
X71.6162 Y7.3947 Z-0.2051
X71.6165 Y7.3948 Z-0.2021
G0 Z0.4
X71.2615 Y5.4183
Z0.13
G1 Z0.0654 F40.
G18 G2 X71.2769 Z0.05 I0.0154 K0.
G1 X71.2846
G17 G3 X71.2963 Y5.43 I0. J0.0117
X71.2493 Z0.0323 I-0.0235 J0.
X71.2636 Y5.4084 Z0.0257 I0.0235 J0.
X71.282 Y5.4516 Z0.008 I0.0092 J0.0216
X71.2636 Y5.4084 Z-0.0098 I-0.0092 J-0.0216
X71.2947 Y5.4384 Z-0.023 I0.0092 J0.0216
X71.2509 Y5.4216 Z-0.0407 I-0.0219 J-0.0084
X71.272 Y5.4065 Z-0.0473 I0.0219 J0.0084
X71.2736 Y5.4535 Z-0.065 I0.0008 J0.0235
X71.272 Y5.4065 Z-0.0827 I-0.0008 J-0.0235
X71.2902 Y5.4457 Z-0.0959 I0.0008 J0.0235
X71.2554 Y5.4143 Z-0.1136 I-0.0174 J-0.0157
X71.2805 Y5.4078 Z-0.1202 I0.0174 J0.0157
X71.2651 Y5.4522 Z-0.1379 I-0.0077 J0.0222
X71.2805 Y5.4078 Z-0.1557 I0.0077 J-0.0222
X71.2834 Y5.451 Z-0.1689 I-0.0077 J0.0222
X71.2622 Y5.409 Z-0.1866 I-0.0106 J-0.021
X71.288 Y5.412 Z-0.1932 I0.0106 J0.021
X71.2577 Y5.448 Z-0.2109 I-0.0151 J0.018
X71.2504 Y5.4231 Z-0.2175 I0.0151 J-0.018
X71.2953 Y5.4369 I0.0225 J0.0069
X71.2504 Y5.4231 I-0.0225 J-0.0069
X71.265 Y5.4153 I0.0112 J0.0035
G1 X71.2724 Y5.4176
X71.2753 Y5.4185 Z-0.2172
X71.278 Y5.4193 Z-0.2163
X71.2806 Y5.4201 Z-0.2149
X71.2828 Y5.4208 Z-0.213
X71.2846 Y5.4214 Z-0.2107
X71.286 Y5.4218 Z-0.208
X71.2868 Y5.422 Z-0.2051
X71.2871 Y5.4221 Z-0.2021
G0 Z0.4
X70.2587 Y5.7207
Z0.1146
G1 Z0.05 F40.
X70.26 Y5.7194
G3 X70.2612 Y5.7207 I0. J0.0013
X70.2562 Z0.036 I-0.0025 J0.
X70.2585 Y5.7182 Z0.0294 I0.0025 J0.
X70.259 Y5.7232 Z0.0154 I0.0003 J0.0025
X70.2563 Y5.7212 Z0.0088 I-0.0003 J-0.0025
X70.2612 Y5.7202 Z-0.0052 I0.0025 J-0.0005
X70.2595 Y5.7231 Z-0.0117 I-0.0025 J0.0005
X70.258 Y5.7183 Z-0.0258 I-0.0007 J-0.0024
X70.261 Y5.7197 Z-0.0323 I0.0007 J0.0024
X70.2564 Y5.7217 Z-0.0463 I-0.0023 J0.001
X70.2575 Y5.7185 Z-0.0529 I0.0023 J-0.001
X70.2599 Y5.7229 Z-0.0669 I0.0012 J0.0022
X70.2567 Y5.7221 Z-0.0735 I-0.0012 J-0.0022
X70.2608 Y5.7193 Z-0.0875 I0.0021 J-0.0014
X70.2604 Y5.7226 Z-0.094 I-0.0021 J0.0014
X70.2571 Y5.7188 Z-0.1081 I-0.0016 J-0.0019
X70.2605 Y5.7189 Z-0.1146 I0.0016 J0.0019
X70.257 Y5.7225 Z-0.1286 I-0.0017 J0.0018
X70.2568 Y5.7191 Z-0.1352 I0.0017 J-0.0018
X70.2607 Y5.7222 Z-0.1492 I0.002 J0.0015
X70.2574 Y5.7228 Z-0.1558 I-0.002 J-0.0015
X70.2601 Y5.7186 Z-0.1698 I0.0013 J-0.0021
X70.261 Y5.7218 Z-0.1763 I-0.0013 J0.0021
X70.2565 Y5.7196 Z-0.1904 I-0.0022 J-0.0011
X70.2596 Y5.7183 Z-0.1969 I0.0022 J0.0011
X70.2579 Y5.723 Z-0.2109 I-0.0009 J0.0023
X70.2563 Y5.72 Z-0.2175 I0.0009 J-0.0023
X70.2611 Y5.7213 I0.0024 J0.0006
X70.2563 Y5.72 I-0.0024 J-0.0006
X70.2578 Y5.7192 I0.0012 J0.0003
G1 X70.2587 Y5.7207
G0 Z0.4
X70.3348 Y4.4589
Z0.13
G1 Z0.0654 F40.
G18 G2 X70.3502 Z0.05 I0.0154 K0.
G1 X70.3579
G17 G3 X70.3696 Y4.4707 I0. J0.0118
X70.3226 Z0.0323 I-0.0235 J0.
X70.337 Y4.4491 Z0.0257 I0.0235 J0.
X70.3553 Y4.4923 Z0.008 I0.0092 J0.0216
X70.337 Y4.4491 Z-0.0098 I-0.0092 J-0.0216
X70.3553 Y4.4923 Z-0.0275 I0.0092 J0.0216
X70.337 Y4.4491 Z-0.0452 I-0.0092 J-0.0216
X70.3453 Y4.4472 Z-0.0473 I0.0092 J0.0216
X70.3469 Y4.4942 Z-0.065 I0.0008 J0.0235
X70.3453 Y4.4472 Z-0.0827 I-0.0008 J-0.0235
X70.3636 Y4.4864 Z-0.0959 I0.0008 J0.0235
X70.3287 Y4.455 Z-0.1136 I-0.0174 J-0.0157
X70.3636 Y4.4864 Z-0.1314 I0.0174 J0.0157
X70.3287 Y4.455 Z-0.1491 I-0.0174 J-0.0157
X70.3636 Y4.4864 Z-0.1668 I0.0174 J0.0157
X70.3568 Y4.4917 Z-0.1689 I-0.0174 J-0.0157
X70.3355 Y4.4497 Z-0.1866 I-0.0106 J-0.021
X70.3613 Y4.4527 Z-0.1932 I0.0106 J0.021
X70.331 Y4.4887 Z-0.2109 I-0.0151 J0.018
X70.3237 Y4.4638 Z-0.2175 I0.0151 J-0.018
X70.3686 Y4.4776 I0.0225 J0.0069
X70.3237 Y4.4638 I-0.0225 J-0.0069
X70.3384 Y4.456 I0.0112 J0.0035
G1 X70.3457 Y4.4583
X70.3486 Y4.4592 Z-0.2172
X70.3514 Y4.46 Z-0.2163
X70.3539 Y4.4608 Z-0.2149
X70.3561 Y4.4615 Z-0.213
X70.358 Y4.462 Z-0.2107
X70.3593 Y4.4625 Z-0.208
X70.3602 Y4.4627 Z-0.2051
X70.3604 Y4.4628 Z-0.2021
G0 Z0.4
X70.375 Y3.125
Z0.1146
G1 Z0.05 F40.
X70.3763 Y3.1237
G3 X70.3775 Y3.125 I0. J0.0013
X70.3725 Z0.036 I-0.0025 J0.
X70.3747 Y3.1225 Z0.0294 I0.0025 J0.
X70.3753 Y3.1275 Z0.0154 I0.0003 J0.0025
X70.3725 Y3.1255 Z0.0088 I-0.0003 J-0.0025
X70.3775 Y3.1245 Z-0.0052 I0.0025 J-0.0005
X70.3757 Y3.1274 Z-0.0117 I-0.0024 J0.0005
X70.3743 Y3.1226 Z-0.0257 I-0.0007 J-0.0024
X70.3773 Y3.124 Z-0.0323 I0.0007 J0.0024
X70.3727 Y3.126 Z-0.0463 I-0.0023 J0.001
X70.3738 Y3.1228 Z-0.0529 I0.0023 J-0.001
X70.3762 Y3.1272 Z-0.0669 I0.0012 J0.0022
X70.3729 Y3.1264 Z-0.0735 I-0.0012 J-0.0022
X70.3771 Y3.1236 Z-0.0875 I0.0021 J-0.0014
X70.3766 Y3.1269 Z-0.094 I-0.0021 J0.0014
X70.3734 Y3.1231 Z-0.1081 I-0.0016 J-0.0019
X70.3767 Y3.1232 Z-0.1146 I0.0016 J0.0019
X70.3733 Y3.1268 Z-0.1286 I-0.0017 J0.0018
X70.373 Y3.1235 Z-0.1352 I0.0017 J-0.0018
X70.377 Y3.1265 Z-0.1492 I0.002 J0.0015
X70.3737 Y3.1271 Z-0.1558 I-0.002 J-0.0015
X70.3763 Y3.1229 Z-0.1698 I0.0013 J-0.0021
X70.3772 Y3.1261 Z-0.1763 I-0.0013 J0.0021
X70.3728 Y3.1239 Z-0.1904 I-0.0022 J-0.0011
X70.3759 Y3.1227 Z-0.1969 I0.0022 J0.0011
X70.3741 Y3.1273 Z-0.2109 I-0.0009 J0.0023
X70.3726 Y3.1244 Z-0.2175 I0.0009 J-0.0023
X70.3774 Y3.1256 I0.0024 J0.0006
X70.3726 Y3.1244 I-0.0024 J-0.0006
X70.3741 Y3.1235 I0.0012 J0.0003
G1 X70.375 Y3.125
G0 Z0.4
Y1.875
Z0.1146
G1 Z0.05 F40.
X70.3763 Y1.8738
G3 X70.3775 Y1.875 I0. J0.0012
X70.3725 Z0.036 I-0.0025 J0.
X70.3747 Y1.8725 Z0.0294 I0.0025 J0.
X70.3753 Y1.8775 Z0.0154 I0.0003 J0.0025
X70.3725 Y1.8755 Z0.0088 I-0.0003 J-0.0025
X70.3775 Y1.8745 Z-0.0052 I0.0025 J-0.0005
X70.3757 Y1.8774 Z-0.0117 I-0.0024 J0.0005
X70.3743 Y1.8726 Z-0.0257 I-0.0007 J-0.0024
X70.3773 Y1.874 Z-0.0323 I0.0007 J0.0024
X70.3727 Y1.876 Z-0.0463 I-0.0023 J0.001
X70.3738 Y1.8728 Z-0.0529 I0.0023 J-0.001
X70.3762 Y1.8772 Z-0.0669 I0.0012 J0.0022
X70.3729 Y1.8764 Z-0.0735 I-0.0012 J-0.0022
X70.3771 Y1.8736 Z-0.0875 I0.0021 J-0.0014
X70.3766 Y1.8769 Z-0.094 I-0.0021 J0.0014
X70.3734 Y1.8731 Z-0.1081 I-0.0016 J-0.0019
X70.3767 Y1.8732 Z-0.1146 I0.0016 J0.0019
X70.3733 Y1.8768 Z-0.1286 I-0.0017 J0.0018
X70.373 Y1.8735 Z-0.1352 I0.0017 J-0.0018
X70.377 Y1.8765 Z-0.1492 I0.002 J0.0015
X70.3737 Y1.8771 Z-0.1558 I-0.002 J-0.0015
X70.3763 Y1.8729 Z-0.1698 I0.0013 J-0.0021
X70.3772 Y1.8761 Z-0.1763 I-0.0013 J0.0021
X70.3728 Y1.8739 Z-0.1904 I-0.0022 J-0.0011
X70.3759 Y1.8727 Z-0.1969 I0.0022 J0.0011
X70.3741 Y1.8773 Z-0.2109 I-0.0009 J0.0023
X70.3726 Y1.8744 Z-0.2175 I0.0009 J-0.0023
X70.3774 Y1.8756 I0.0024 J0.0006
X70.3726 Y1.8744 I-0.0024 J-0.0006
X70.3741 Y1.8735 I0.0012 J0.0003
G1 X70.375 Y1.875
G0 Z0.4
X68.875
Z0.1146
G1 Z0.05 F40.
X68.8738 Y1.8762
G3 X68.8725 Y1.875 I0. J-0.0012
X68.8775 Z0.036 I0.0025 J0.
X68.8753 Y1.8775 Z0.0294 I-0.0025 J0.
X68.8748 Y1.8725 Z0.0154 I-0.0002 J-0.0025
X68.8774 Y1.8745 Z0.0088 I0.0002 J0.0025
X68.8726 Y1.8755 Z-0.0052 I-0.0024 J0.0005
X68.8743 Y1.8726 Z-0.0117 I0.0024 J-0.0005
X68.8757 Y1.8774 Z-0.0257 I0.0007 J0.0024
X68.8727 Y1.876 Z-0.0323 I-0.0007 J-0.0024
X68.8773 Y1.874 Z-0.0463 I0.0023 J-0.001
X68.8762 Y1.8772 Z-0.0529 I-0.0023 J0.001
X68.8738 Y1.8728 Z-0.0669 I-0.0012 J-0.0022
X68.8771 Y1.8736 Z-0.0735 I0.0012 J0.0022
X68.8729 Y1.8764 Z-0.0875 I-0.0021 J0.0014
X68.8734 Y1.8731 Z-0.094 I0.0021 J-0.0014
X68.8766 Y1.8769 Z-0.1081 I0.0016 J0.0019
X68.8733 Y1.8768 Z-0.1146 I-0.0016 J-0.0019
X68.8767 Y1.8732 Z-0.1286 I0.0017 J-0.0018
X68.877 Y1.8765 Z-0.1352 I-0.0017 J0.0018
X68.873 Y1.8735 Z-0.1492 I-0.002 J-0.0015
X68.8763 Y1.8729 Z-0.1558 I0.002 J0.0015
X68.8737 Y1.8771 Z-0.1698 I-0.0013 J0.0021
X68.8728 Y1.8739 Z-0.1763 I0.0013 J-0.0021
X68.8772 Y1.8761 Z-0.1904 I0.0022 J0.0011
X68.8741 Y1.8773 Z-0.1969 I-0.0022 J-0.0011
X68.8759 Y1.8727 Z-0.2109 I0.0009 J-0.0023
X68.8774 Y1.8756 Z-0.2175 I-0.0009 J0.0023
X68.8726 Y1.8744 I-0.0024 J-0.0006
X68.8774 Y1.8756 I0.0024 J0.0006
X68.8759 Y1.8765 I-0.0012 J-0.0003
G1 X68.875 Y1.875
G0 Z0.4
Y3.125
Z0.1146
G1 Z0.05 F40.
X68.8738 Y3.1263
G3 X68.8725 Y3.125 I0. J-0.0013
X68.8775 Z0.036 I0.0025 J0.
X68.8753 Y3.1275 Z0.0294 I-0.0025 J0.
X68.8748 Y3.1225 Z0.0154 I-0.0002 J-0.0025
X68.8774 Y3.1245 Z0.0088 I0.0002 J0.0025
X68.8726 Y3.1255 Z-0.0052 I-0.0024 J0.0005
X68.8775 Y3.1245 Z-0.0192 I0.0024 J-0.0005
X68.8727 Y3.126 Z-0.0323 I-0.0024 J0.0005
X68.8773 Y3.124 Z-0.0463 I0.0023 J-0.001
X68.8762 Y3.1272 Z-0.0529 I-0.0023 J0.001
X68.8738 Y3.1228 Z-0.0669 I-0.0012 J-0.0022
X68.8771 Y3.1236 Z-0.0735 I0.0012 J0.0022
X68.8729 Y3.1264 Z-0.0875 I-0.0021 J0.0014
X68.8734 Y3.1231 Z-0.094 I0.0021 J-0.0014
X68.8766 Y3.1269 Z-0.1081 I0.0016 J0.0019
X68.8733 Y3.1268 Z-0.1146 I-0.0016 J-0.0019
X68.8767 Y3.1232 Z-0.1286 I0.0017 J-0.0018
X68.877 Y3.1265 Z-0.1352 I-0.0017 J0.0018
X68.873 Y3.1235 Z-0.1492 I-0.002 J-0.0015
X68.8763 Y3.1229 Z-0.1558 I0.002 J0.0015
X68.8737 Y3.1271 Z-0.1698 I-0.0013 J0.0021
X68.8728 Y3.1239 Z-0.1763 I0.0013 J-0.0021
X68.8772 Y3.1261 Z-0.1904 I0.0022 J0.0011
X68.8741 Y3.1273 Z-0.1969 I-0.0022 J-0.0011
X68.8759 Y3.1227 Z-0.2109 I0.0009 J-0.0023
X68.8774 Y3.1256 Z-0.2175 I-0.0009 J0.0023
X68.8726 Y3.1244 I-0.0024 J-0.0006
X68.8774 Y3.1256 I0.0024 J0.0006
X68.8759 Y3.1265 I-0.0012 J-0.0003
G1 X68.875 Y3.125
G0 Z0.4
X68.3795 Y4.8796
Z0.13
G1 Z0.0654 F40.
G18 G2 X68.3949 Z0.05 I0.0154 K0.
G1 X68.4026
G17 G3 X68.4144 Y4.8913 I0. J0.0117
X68.3674 Z0.0323 I-0.0235 J0.
X68.3817 Y4.8697 Z0.0257 I0.0235 J0.
X68.4 Y4.9129 Z0.008 I0.0092 J0.0216
X68.3817 Y4.8697 Z-0.0098 I-0.0092 J-0.0216
X68.4 Y4.9129 Z-0.0275 I0.0092 J0.0216
X68.3817 Y4.8697 Z-0.0452 I-0.0092 J-0.0216
X68.3901 Y4.8678 Z-0.0473 I0.0092 J0.0216
X68.3917 Y4.9148 Z-0.065 I0.0008 J0.0235
X68.3901 Y4.8678 Z-0.0827 I-0.0008 J-0.0235
X68.4083 Y4.907 Z-0.0959 I0.0008 J0.0235
X68.3734 Y4.8756 Z-0.1136 I-0.0174 J-0.0157
X68.3985 Y4.8691 Z-0.1202 I0.0174 J0.0157
X68.3832 Y4.9135 Z-0.1379 I-0.0077 J0.0222
X68.3674 Y4.8929 Z-0.1445 I0.0077 J-0.0222
X68.4143 Y4.8897 Z-0.1623 I0.0234 J-0.0016
X68.4015 Y4.9123 Z-0.1689 I-0.0234 J0.0016
X68.3802 Y4.8703 Z-0.1866 I-0.0106 J-0.021
X68.406 Y4.8733 Z-0.1932 I0.0106 J0.021
X68.3757 Y4.9093 Z-0.2109 I-0.0151 J0.018
X68.3684 Y4.8844 Z-0.2175 I0.0151 J-0.018
X68.4133 Y4.8982 I0.0225 J0.0069
X68.3684 Y4.8844 I-0.0225 J-0.0069
X68.3831 Y4.8766 I0.0112 J0.0035
G1 X68.3905 Y4.8789
X68.3933 Y4.8798 Z-0.2172
X68.3961 Y4.8806 Z-0.2163
X68.3986 Y4.8814 Z-0.2149
X68.4009 Y4.8821 Z-0.213
X68.4027 Y4.8827 Z-0.2107
X68.4041 Y4.8831 Z-0.208
X68.4049 Y4.8833 Z-0.2051
X68.4052 Y4.8834 Z-0.2021
G0 Z0.4
X67.0499 Y5.4894
Z0.13
G1 Z0.0654 F40.
G18 G2 X67.0653 Z0.05 I0.0154 K0.
G1 X67.073
G17 G3 X67.0835 Y5.4999 I0. J0.0105
X67.0415 Z0.0327 I-0.021 J0.
X67.0565 Y5.4797 Z0.0257 I0.021 J0.
X67.0685 Y5.52 Z0.0084 I0.006 J0.0201
X67.0565 Y5.4797 Z-0.0089 I-0.006 J-0.0201
X67.0786 Y5.5133 Z-0.023 I0.006 J0.0201
X67.0464 Y5.4864 Z-0.0402 I-0.0161 J-0.0135
X67.0708 Y5.4806 Z-0.0473 I0.0161 J0.0135
X67.0542 Y5.5191 Z-0.0646 I-0.0083 J0.0193
X67.0708 Y5.4806 Z-0.0818 I0.0083 J-0.0193
X67.0662 Y5.5205 Z-0.0959 I-0.0083 J0.0193
X67.0588 Y5.4792 Z-0.1132 I-0.0037 J-0.0207
X67.0812 Y5.4904 Z-0.1202 I0.0037 J0.0207
X67.0438 Y5.5093 Z-0.1375 I-0.0187 J0.0095
X67.048 Y5.4846 Z-0.1445 I0.0187 J-0.0095
X67.0769 Y5.5151 Z-0.1618 I0.0145 J0.0152
X67.0521 Y5.5181 Z-0.1689 I-0.0145 J-0.0152
X67.0729 Y5.4816 Z-0.1861 I0.0104 J-0.0182
X67.083 Y5.5046 Z-0.1932 I-0.0104 J0.0182
X67.042 Y5.4951 Z-0.2105 I-0.0205 J-0.0048
X67.0612 Y5.4789 Z-0.2175 I0.0205 J0.0048
X67.0638 Y5.5208 I0.0013 J0.021
X67.0612 Y5.4789 I-0.0013 J-0.021
X67.0723 Y5.4887 I0.0006 J0.0105
G1 X67.0728 Y5.4964
X67.073 Y5.4994 Z-0.2172
X67.0732 Y5.5023 Z-0.2163
X67.0733 Y5.5049 Z-0.2149
X67.0735 Y5.5073 Z-0.213
X67.0736 Y5.5092 Z-0.2107
X67.0737 Y5.5106 Z-0.208
Y5.5115 Z-0.2051
X67.0738 Y5.5118 Z-0.2021
G0 Z0.4
X67.0499 Y6.0394
Z0.13
G1 Z0.0654 F40.
G18 G2 X67.0653 Z0.05 I0.0154 K0.
G1 X67.073
G17 G3 X67.0835 Y6.0499 I0. J0.0105
X67.0415 Z0.0327 I-0.021 J0.
X67.0565 Y6.0297 Z0.0257 I0.021 J0.
X67.0685 Y6.07 Z0.0084 I0.006 J0.0201
X67.045 Y6.0614 Z0.0014 I-0.006 J-0.0201
X67.08 Y6.0383 Z-0.0159 I0.0175 J-0.0116
X67.0786 Y6.0633 Z-0.023 I-0.0175 J0.0116
X67.0464 Y6.0364 Z-0.0402 I-0.0161 J-0.0135
X67.0708 Y6.0306 Z-0.0473 I0.0161 J0.0135
X67.0542 Y6.0691 Z-0.0646 I-0.0083 J0.0193
X67.0416 Y6.0475 Z-0.0716 I0.0083 J-0.0193
X67.0834 Y6.0523 Z-0.0889 I0.0209 J0.0024
X67.0662 Y6.0705 Z-0.0959 I-0.0209 J-0.0024
X67.0588 Y6.0292 Z-0.1132 I-0.0037 J-0.0207
X67.0812 Y6.0404 Z-0.1202 I0.0037 J0.0207
X67.0438 Y6.0593 Z-0.1375 I-0.0187 J0.0095
X67.0812 Y6.0404 Z-0.1548 I0.0187 J-0.0095
X67.0521 Y6.0681 Z-0.1689 I-0.0187 J0.0095
X67.0729 Y6.0316 Z-0.1861 I0.0104 J-0.0182
X67.083 Y6.0546 Z-0.1932 I-0.0104 J0.0182
X67.042 Y6.0451 Z-0.2105 I-0.0205 J-0.0048
X67.0612 Y6.0289 Z-0.2175 I0.0205 J0.0048
X67.0638 Y6.0708 I0.0013 J0.021
X67.0612 Y6.0289 I-0.0013 J-0.021
X67.0723 Y6.0387 I0.0006 J0.0105
G1 X67.0728 Y6.0464
X67.073 Y6.0494 Z-0.2172
X67.0732 Y6.0523 Z-0.2163
X67.0733 Y6.0549 Z-0.2149
X67.0735 Y6.0573 Z-0.213
X67.0736 Y6.0592 Z-0.2107
X67.0737 Y6.0606 Z-0.208
Y6.0615 Z-0.2051
X67.0738 Y6.0618 Z-0.2021
G0 Z0.4
X67.0499 Y6.5894
Z0.13
G1 Z0.0654 F40.
G18 G2 X67.0653 Z0.05 I0.0154 K0.
G1 X67.073
G17 G3 X67.0835 Y6.5999 I0. J0.0105
X67.0415 Z0.0327 I-0.021 J0.
X67.0565 Y6.5797 Z0.0257 I0.021 J0.
X67.0685 Y6.62 Z0.0084 I0.006 J0.0201
X67.0565 Y6.5797 Z-0.0089 I-0.006 J-0.0201
X67.0786 Y6.6133 Z-0.023 I0.006 J0.0201
X67.0464 Y6.5864 Z-0.0402 I-0.0161 J-0.0135
X67.0708 Y6.5806 Z-0.0473 I0.0161 J0.0135
X67.0542 Y6.6191 Z-0.0646 I-0.0083 J0.0193
X67.0416 Y6.5975 Z-0.0716 I0.0083 J-0.0193
X67.0834 Y6.6023 Z-0.0889 I0.0209 J0.0024
X67.0662 Y6.6205 Z-0.0959 I-0.0209 J-0.0024
X67.0588 Y6.5792 Z-0.1132 I-0.0037 J-0.0207
X67.0812 Y6.5904 Z-0.1202 I0.0037 J0.0207
X67.0438 Y6.6093 Z-0.1375 I-0.0187 J0.0095
X67.0812 Y6.5904 Z-0.1548 I0.0187 J-0.0095
X67.0521 Y6.6181 Z-0.1689 I-0.0187 J0.0095
X67.0729 Y6.5816 Z-0.1861 I0.0104 J-0.0182
X67.083 Y6.6046 Z-0.1932 I-0.0104 J0.0182
X67.042 Y6.5951 Z-0.2105 I-0.0205 J-0.0048
X67.0612 Y6.5789 Z-0.2175 I0.0205 J0.0048
X67.0638 Y6.6208 I0.0013 J0.021
X67.0612 Y6.5789 I-0.0013 J-0.021
X67.0723 Y6.5887 I0.0006 J0.0105
G1 X67.0728 Y6.5964
X67.073 Y6.5994 Z-0.2172
X67.0732 Y6.6023 Z-0.2163
X67.0733 Y6.6049 Z-0.2149
X67.0735 Y6.6073 Z-0.213
X67.0736 Y6.6092 Z-0.2107
X67.0737 Y6.6106 Z-0.208
Y6.6115 Z-0.2051
X67.0738 Y6.6118 Z-0.2021
G0 Z0.4
X69.1875 Y7.9179
Z0.1146
G1 Z0.05 F40.
X69.1888 Y7.9166
G3 X69.19 Y7.9179 I0. J0.0013
X69.185 Z0.036 I-0.0025 J0.
X69.1872 Y7.9154 Z0.0294 I0.0025 J0.
X69.1878 Y7.9204 Z0.0154 I0.0003 J0.0025
X69.1851 Y7.9184 Z0.0088 I-0.0003 J-0.0025
X69.19 Y7.9174 Z-0.0052 I0.0025 J-0.0005
X69.1882 Y7.9203 Z-0.0117 I-0.0024 J0.0005
X69.1868 Y7.9155 Z-0.0257 I-0.0007 J-0.0024
X69.1898 Y7.9169 Z-0.0323 I0.0007 J0.0024
X69.1852 Y7.9188 Z-0.0463 I-0.0023 J0.001
X69.1863 Y7.9157 Z-0.0529 I0.0023 J-0.001
X69.1887 Y7.9201 Z-0.0669 I0.0012 J0.0022
X69.1854 Y7.9193 Z-0.0735 I-0.0012 J-0.0022
X69.1896 Y7.9164 Z-0.0875 I0.0021 J-0.0014
X69.1891 Y7.9198 Z-0.094 I-0.0021 J0.0014
X69.1859 Y7.916 Z-0.1081 I-0.0016 J-0.0019
X69.1892 Y7.9161 Z-0.1146 I0.0016 J0.0019
X69.1858 Y7.9197 Z-0.1286 I-0.0017 J0.0018
X69.1855 Y7.9163 Z-0.1352 I0.0017 J-0.0018
X69.1895 Y7.9194 Z-0.1492 I0.002 J0.0015
X69.1862 Y7.92 Z-0.1558 I-0.002 J-0.0015
X69.1888 Y7.9158 Z-0.1698 I0.0013 J-0.0021
X69.1897 Y7.919 Z-0.1763 I-0.0013 J0.0021
X69.1853 Y7.9168 Z-0.1904 I-0.0022 J-0.0011
X69.1884 Y7.9155 Z-0.1969 I0.0022 J0.0011
X69.1866 Y7.9202 Z-0.2109 I-0.0009 J0.0023
X69.1851 Y7.9172 Z-0.2175 I0.0009 J-0.0023
X69.1899 Y7.9185 I0.0024 J0.0006
X69.1851 Y7.9172 I-0.0024 J-0.0006
X69.1866 Y7.9163 I0.0012 J0.0003
G1 X69.1875 Y7.9179
G0 Z0.4
X67.0499 Y8.9219
Z0.13
G1 Z0.0654 F40.
G18 G2 X67.0653 Z0.05 I0.0154 K0.
G1 X67.073
G17 G3 X67.0835 Y8.9324 I0. J0.0105
X67.0415 Z0.0327 I-0.021 J0.
X67.0565 Y8.9123 Z0.0257 I0.021 J0.
X67.0685 Y8.9525 Z0.0084 I0.006 J0.0201
X67.0565 Y8.9123 Z-0.0089 I-0.006 J-0.0201
X67.0786 Y8.9459 Z-0.023 I0.006 J0.0201
X67.0464 Y8.9189 Z-0.0402 I-0.0161 J-0.0135
X67.0708 Y8.9131 Z-0.0473 I0.0161 J0.0135
X67.0542 Y8.9517 Z-0.0646 I-0.0083 J0.0193
X67.0708 Y8.9131 Z-0.0818 I0.0083 J-0.0193
X67.0662 Y8.9531 Z-0.0959 I-0.0083 J0.0193
X67.0588 Y8.9117 Z-0.1132 I-0.0037 J-0.0207
X67.0812 Y8.9229 Z-0.1202 I0.0037 J0.0207
X67.0438 Y8.9419 Z-0.1375 I-0.0187 J0.0095
X67.0812 Y8.9229 Z-0.1548 I0.0187 J-0.0095
X67.0438 Y8.9419 Z-0.1721 I-0.0187 J0.0095
X67.0812 Y8.9229 Z-0.1893 I0.0187 J-0.0095
X67.083 Y8.9372 Z-0.1932 I-0.0187 J0.0095
X67.042 Y8.9276 Z-0.2105 I-0.0205 J-0.0048
X67.0612 Y8.9114 Z-0.2175 I0.0205 J0.0048
X67.0638 Y8.9533 I0.0013 J0.021
X67.0612 Y8.9114 I-0.0013 J-0.021
X67.0723 Y8.9213 I0.0006 J0.0105
G1 X67.0728 Y8.9289
X67.073 Y8.9319 Z-0.2172
X67.0732 Y8.9348 Z-0.2163
X67.0733 Y8.9375 Z-0.2149
X67.0735 Y8.9398 Z-0.213
X67.0736 Y8.9417 Z-0.2107
X67.0737 Y8.9431 Z-0.208
Y8.944 Z-0.2051
X67.0738 Y8.9443 Z-0.2021
G0 Z0.4
X67.0499 Y9.6719
Z0.13
G1 Z0.0654 F40.
G18 G2 X67.0653 Z0.05 I0.0154 K0.
G1 X67.073
G17 G3 X67.0835 Y9.6824 I0. J0.0105
X67.0415 Z0.0327 I-0.021 J0.
X67.0565 Y9.6623 Z0.0257 I0.021 J0.
X67.0685 Y9.7025 Z0.0084 I0.006 J0.0201
X67.0565 Y9.6623 Z-0.0089 I-0.006 J-0.0201
X67.0786 Y9.6959 Z-0.023 I0.006 J0.0201
X67.0464 Y9.6689 Z-0.0402 I-0.0161 J-0.0135
X67.0708 Y9.6631 Z-0.0473 I0.0161 J0.0135
X67.0542 Y9.7017 Z-0.0646 I-0.0083 J0.0193
X67.0708 Y9.6631 Z-0.0818 I0.0083 J-0.0193
X67.0662 Y9.7031 Z-0.0959 I-0.0083 J0.0193
X67.0588 Y9.6617 Z-0.1132 I-0.0037 J-0.0207
X67.0812 Y9.6729 Z-0.1202 I0.0037 J0.0207
X67.0438 Y9.6919 Z-0.1375 I-0.0187 J0.0095
X67.0812 Y9.6729 Z-0.1548 I0.0187 J-0.0095
X67.0438 Y9.6919 Z-0.1721 I-0.0187 J0.0095
X67.0812 Y9.6729 Z-0.1893 I0.0187 J-0.0095
X67.083 Y9.6872 Z-0.1932 I-0.0187 J0.0095
X67.042 Y9.6776 Z-0.2105 I-0.0205 J-0.0048
X67.0612 Y9.6614 Z-0.2175 I0.0205 J0.0048
X67.0638 Y9.7033 I0.0013 J0.021
X67.0612 Y9.6614 I-0.0013 J-0.021
X67.0723 Y9.6713 I0.0006 J0.0105
G1 X67.0728 Y9.6789
X67.073 Y9.6819 Z-0.2172
X67.0732 Y9.6848 Z-0.2163
X67.0733 Y9.6875 Z-0.2149
X67.0735 Y9.6898 Z-0.213
X67.0736 Y9.6917 Z-0.2107
X67.0737 Y9.6931 Z-0.208
Y9.694 Z-0.2051
X67.0738 Y9.6943 Z-0.2021
G0 Z0.4
X67.0499 Y10.4219
Z0.13
G1 Z0.0654 F40.
G18 G2 X67.0653 Z0.05 I0.0154 K0.
G1 X67.073
G17 G3 X67.0835 Y10.4324 I0. J0.0105
X67.0415 Z0.0327 I-0.021 J0.
X67.0565 Y10.4123 Z0.0257 I0.021 J0.
X67.0685 Y10.4525 Z0.0084 I0.006 J0.0201
X67.045 Y10.4439 Z0.0014 I-0.006 J-0.0201
X67.08 Y10.4208 Z-0.0159 I0.0175 J-0.0116
X67.0786 Y10.4459 Z-0.023 I-0.0175 J0.0116
X67.0464 Y10.4189 Z-0.0402 I-0.0161 J-0.0135
X67.0708 Y10.4131 Z-0.0473 I0.0161 J0.0135
X67.0542 Y10.4517 Z-0.0646 I-0.0083 J0.0193
X67.0416 Y10.43 Z-0.0716 I0.0083 J-0.0193
X67.0834 Y10.4348 Z-0.0889 I0.0209 J0.0024
X67.0662 Y10.4531 Z-0.0959 I-0.0209 J-0.0024
X67.0588 Y10.4117 Z-0.1132 I-0.0037 J-0.0207
X67.0812 Y10.4229 Z-0.1202 I0.0037 J0.0207
X67.0438 Y10.4419 Z-0.1375 I-0.0187 J0.0095
X67.0812 Y10.4229 Z-0.1548 I0.0187 J-0.0095
X67.0521 Y10.4506 Z-0.1689 I-0.0187 J0.0095
X67.0729 Y10.4142 Z-0.1861 I0.0104 J-0.0182
X67.083 Y10.4372 Z-0.1932 I-0.0104 J0.0182
X67.042 Y10.4276 Z-0.2105 I-0.0205 J-0.0048
X67.0612 Y10.4114 Z-0.2175 I0.0205 J0.0048
X67.0638 Y10.4533 I0.0013 J0.021
X67.0612 Y10.4114 I-0.0013 J-0.021
X67.0723 Y10.4213 I0.0006 J0.0105
G1 X67.0728 Y10.4289
X67.073 Y10.4319 Z-0.2172
X67.0732 Y10.4348 Z-0.2163
X67.0733 Y10.4375 Z-0.2149
X67.0735 Y10.4398 Z-0.213
X67.0736 Y10.4417 Z-0.2107
X67.0737 Y10.4431 Z-0.208
Y10.444 Z-0.2051
X67.0738 Y10.4443 Z-0.2021
G0 Z0.4
X68.5675 Y11.7824
Z0.1146
G1 Z0.05 F40.
X68.5687 Y11.7811
G3 X68.57 Y11.7824 I0. J0.0013
X68.565 Z0.036 I-0.0025 J0.
X68.5673 Y11.7799 Z0.0294 I0.0025 J0.
X68.5678 Y11.7849 Z0.0154 I0.0002 J0.0025
X68.565 Y11.7829 Z0.0088 I-0.0002 J-0.0025
X68.5699 Y11.7819 Z-0.0052 I0.0025 J-0.0005
X68.5682 Y11.7848 Z-0.0117 I-0.0024 J0.0005
X68.5668 Y11.78 Z-0.0257 I-0.0007 J-0.0024
X68.5698 Y11.7814 Z-0.0323 I0.0007 J0.0024
X68.5652 Y11.7834 Z-0.0463 I-0.0023 J0.001
X68.5663 Y11.7802 Z-0.0529 I0.0023 J-0.001
X68.5687 Y11.7846 Z-0.0669 I0.0012 J0.0022
X68.5654 Y11.7838 Z-0.0735 I-0.0012 J-0.0022
X68.5696 Y11.781 Z-0.0875 I0.0021 J-0.0014
X68.5691 Y11.7843 Z-0.094 I-0.0021 J0.0014
X68.5659 Y11.7805 Z-0.1081 I-0.0016 J-0.0019
X68.5692 Y11.7806 Z-0.1146 I0.0016 J0.0019
X68.5658 Y11.7842 Z-0.1286 I-0.0017 J0.0018
X68.5655 Y11.7808 Z-0.1352 I0.0017 J-0.0018
X68.5695 Y11.7839 Z-0.1492 I0.002 J0.0015
X68.5662 Y11.7845 Z-0.1558 I-0.002 J-0.0015
X68.5688 Y11.7803 Z-0.1698 I0.0013 J-0.0021
X68.5697 Y11.7835 Z-0.1763 I-0.0013 J0.0021
X68.5653 Y11.7813 Z-0.1904 I-0.0022 J-0.0011
X68.5684 Y11.78 Z-0.1969 I0.0022 J0.0011
X68.5666 Y11.7847 Z-0.2109 I-0.0009 J0.0023
X68.5651 Y11.7817 Z-0.2175 I0.0009 J-0.0023
X68.5699 Y11.783 I0.0024 J0.0006
X68.5651 Y11.7817 I-0.0024 J-0.0006
X68.5666 Y11.7809 I0.0012 J0.0003
G1 X68.5675 Y11.7824
G0 Z0.4
X73.4336 Y14.9549
Z0.13
G1 Z0.0654 F40.
G18 G2 X73.449 Z0.05 I0.0154 K0.
G1 X73.4567
G17 G3 X73.4685 Y14.9667 I0. J0.0117
X73.4215 Z0.0323 I-0.0235 J0.
X73.4358 Y14.9451 Z0.0257 I0.0235 J0.
X73.4542 Y14.9883 Z0.008 I0.0092 J0.0216
X73.4286 Y14.9836 Z0.0014 I-0.0092 J-0.0216
X73.4613 Y14.9498 Z-0.0164 I0.0163 J-0.0169
X73.4286 Y14.9836 Z-0.0341 I-0.0163 J0.0169
X73.4442 Y14.9432 Z-0.0473 I0.0163 J-0.0169
X73.4458 Y14.9902 Z-0.065 I0.0008 J0.0235
X73.4442 Y14.9432 Z-0.0827 I-0.0008 J-0.0235
X73.4624 Y14.9824 Z-0.0959 I0.0008 J0.0235
X73.4275 Y14.9509 Z-0.1136 I-0.0174 J-0.0157
X73.4527 Y14.9445 Z-0.1202 I0.0174 J0.0157
X73.4373 Y14.9889 Z-0.1379 I-0.0077 J0.0222
X73.4215 Y14.9683 Z-0.1445 I0.0077 J-0.0222
X73.4684 Y14.9651 Z-0.1623 I0.0234 J-0.0016
X73.4556 Y14.9876 Z-0.1689 I-0.0234 J0.0016
X73.4344 Y14.9457 Z-0.1866 I-0.0106 J-0.021
X73.4601 Y14.9487 Z-0.1932 I0.0106 J0.021
X73.4298 Y14.9847 Z-0.2109 I-0.0151 J0.018
X73.4225 Y14.9598 Z-0.2175 I0.0151 J-0.018
X73.4674 Y14.9736 I0.0225 J0.0069
X73.4225 Y14.9598 I-0.0225 J-0.0069
X73.4372 Y14.952 I0.0112 J0.0035
G1 X73.4446 Y14.9543
X73.4474 Y14.9551 Z-0.2172
X73.4502 Y14.956 Z-0.2163
X73.4527 Y14.9568 Z-0.2149
X73.455 Y14.9575 Z-0.213
X73.4568 Y14.958 Z-0.2107
X73.4582 Y14.9585 Z-0.208
X73.459 Y14.9587 Z-0.2051
X73.4593 Y14.9588 Z-0.2021
G0 Z0.4
X73.8365 Y14.6588
Z0.13
G1 Z0.0654 F40.
G18 G2 X73.8519 Z0.05 I0.0154 K0.
G1 X73.8596
G17 G3 X73.8713 Y14.6705 I0. J0.0117
X73.8243 Z0.0323 I-0.0235 J0.
X73.8386 Y14.6489 Z0.0257 I0.0235 J0.
X73.857 Y14.6921 Z0.008 I0.0092 J0.0216
X73.8386 Y14.6489 Z-0.0098 I-0.0092 J-0.0216
X73.8698 Y14.6789 Z-0.023 I0.0092 J0.0216
X73.8259 Y14.6621 Z-0.0407 I-0.0219 J-0.0084
X73.847 Y14.647 Z-0.0473 I0.0219 J0.0084
X73.8486 Y14.694 Z-0.065 I0.0008 J0.0235
X73.847 Y14.647 Z-0.0827 I-0.0008 J-0.0235
X73.8653 Y14.6863 Z-0.0959 I0.0008 J0.0235
X73.8304 Y14.6548 Z-0.1136 I-0.0174 J-0.0157
X73.8555 Y14.6483 Z-0.1202 I0.0174 J0.0157
X73.8401 Y14.6927 Z-0.1379 I-0.0077 J0.0222
X73.8244 Y14.6721 Z-0.1445 I0.0077 J-0.0222
X73.8713 Y14.6689 Z-0.1623 I0.0234 J-0.0016
X73.8584 Y14.6915 Z-0.1689 I-0.0234 J0.0016
X73.8372 Y14.6496 Z-0.1866 I-0.0106 J-0.021
X73.863 Y14.6525 Z-0.1932 I0.0106 J0.021
X73.8327 Y14.6885 Z-0.2109 I-0.0151 J0.018
X73.8254 Y14.6636 Z-0.2175 I0.0151 J-0.018
X73.8703 Y14.6774 I0.0225 J0.0069
X73.8254 Y14.6636 I-0.0225 J-0.0069
X73.8401 Y14.6558 I0.0112 J0.0035
G1 X73.8474 Y14.6581
X73.8503 Y14.659 Z-0.2172
X73.853 Y14.6598 Z-0.2163
X73.8556 Y14.6606 Z-0.2149
X73.8578 Y14.6613 Z-0.213
X73.8596 Y14.6619 Z-0.2107
X73.861 Y14.6623 Z-0.208
X73.8618 Y14.6625 Z-0.2051
X73.8621 Y14.6626 Z-0.2021
G0 Z0.4
X74.7992 Y11.9883
Z0.13
G1 Z0.0654 F40.
G18 G2 X74.8146 Z0.05 I0.0154 K0.
G1 X74.8223
G17 G3 X74.834 Y12. I0. J0.0117
X74.787 Z0.0323 I-0.0235 J0.
X74.8014 Y11.9784 Z0.0257 I0.0235 J0.
X74.8197 Y12.0216 Z0.008 I0.0092 J0.0216
X74.7942 Y12.0169 Z0.0014 I-0.0092 J-0.0216
X74.8269 Y11.9831 Z-0.0164 I0.0163 J-0.0169
X74.8325 Y12.0084 Z-0.023 I-0.0163 J0.0169
X74.7886 Y11.9916 Z-0.0407 I-0.0219 J-0.0084
X74.8097 Y11.9765 Z-0.0473 I0.0219 J0.0084
X74.8113 Y12.0235 Z-0.065 I0.0008 J0.0235
X74.8097 Y11.9765 Z-0.0827 I-0.0008 J-0.0235
X74.828 Y12.0157 Z-0.0959 I0.0008 J0.0235
X74.7931 Y11.9843 Z-0.1136 I-0.0174 J-0.0157
X74.8182 Y11.9778 Z-0.1202 I0.0174 J0.0157
X74.8028 Y12.0222 Z-0.1379 I-0.0077 J0.0222
X74.7871 Y12.0016 Z-0.1445 I0.0077 J-0.0222
X74.834 Y11.9984 Z-0.1623 I0.0234 J-0.0016
X74.8212 Y12.021 Z-0.1689 I-0.0234 J0.0016
X74.7999 Y11.979 Z-0.1866 I-0.0106 J-0.021
X74.8257 Y11.982 Z-0.1932 I0.0106 J0.021
X74.7954 Y12.018 Z-0.2109 I-0.0151 J0.018
X74.7881 Y11.9931 Z-0.2175 I0.0151 J-0.018
X74.833 Y12.0069 I0.0225 J0.0069
X74.7881 Y11.9931 I-0.0225 J-0.0069
X74.8028 Y11.9853 I0.0112 J0.0035
G1 X74.8101 Y11.9876
X74.813 Y11.9885 Z-0.2172
X74.8158 Y11.9893 Z-0.2163
X74.8183 Y11.9901 Z-0.2149
X74.8205 Y11.9908 Z-0.213
X74.8224 Y11.9914 Z-0.2107
X74.8237 Y11.9918 Z-0.208
X74.8246 Y11.992 Z-0.2051
X74.8248 Y11.9921 Z-0.2021
G0 Z0.4
X74.6989 Y11.0118
Z0.13
G1 Z0.0654 F40.
G18 G3 X74.6834 Z0.05 I-0.0154 K0.
G1 X74.6757
G17 G3 X74.664 Y11. I0. J-0.0118
X74.711 Z0.0323 I0.0235 J0.
X74.6967 Y11.0216 Z0.0257 I-0.0235 J0.
X74.6783 Y10.9784 Z0.008 I-0.0092 J-0.0216
X74.6967 Y11.0216 Z-0.0098 I0.0092 J0.0216
X74.6656 Y10.9916 Z-0.023 I-0.0092 J-0.0216
X74.7094 Y11.0084 Z-0.0407 I0.0219 J0.0084
X74.6883 Y11.0235 Z-0.0473 I-0.0219 J-0.0084
X74.6867 Y10.9765 Z-0.065 I-0.0008 J-0.0235
X74.6883 Y11.0235 Z-0.0827 I0.0008 J0.0235
X74.6701 Y10.9843 Z-0.0959 I-0.0008 J-0.0235
X74.7049 Y11.0157 Z-0.1136 I0.0174 J0.0157
X74.6701 Y10.9843 Z-0.1314 I-0.0174 J-0.0157
X74.7049 Y11.0157 Z-0.1491 I0.0174 J0.0157
X74.6701 Y10.9843 Z-0.1668 I-0.0174 J-0.0157
X74.6769 Y10.979 Z-0.1689 I0.0174 J0.0157
X74.6981 Y11.021 Z-0.1866 I0.0106 J0.021
X74.6724 Y11.018 Z-0.1932 I-0.0106 J-0.021
X74.7026 Y10.982 Z-0.2109 I0.0151 J-0.018
X74.71 Y11.0069 Z-0.2175 I-0.0151 J0.018
X74.665 Y10.9931 I-0.0225 J-0.0069
X74.71 Y11.0069 I0.0225 J0.0069
X74.6953 Y11.0147 I-0.0112 J-0.0035
G1 X74.6879 Y11.0124
X74.685 Y11.0115 Z-0.2172
X74.6823 Y11.0107 Z-0.2163
X74.6797 Y11.0099 Z-0.2149
X74.6775 Y11.0092 Z-0.213
X74.6757 Y11.0086 Z-0.2107
X74.6743 Y11.0082 Z-0.208
X74.6735 Y11.008 Z-0.2051
X74.6732 Y11.0079 Z-0.2021
G0 Z0.4
X74.9671 Y7.1882
Z0.13
G1 Z0.0654 F40.
G18 G2 X74.9825 Z0.05 I0.0154 K0.
G1 X74.9902
G17 G3 X75.0019 Y7.2 I0. J0.0118
X74.9549 Z0.0323 I-0.0235 J0.
X74.9693 Y7.1784 Z0.0257 I0.0235 J0.
X74.9876 Y7.2216 Z0.008 I0.0092 J0.0216
X74.9693 Y7.1784 Z-0.0098 I-0.0092 J-0.0216
X75.0004 Y7.2084 Z-0.023 I0.0092 J0.0216
X74.9565 Y7.1916 Z-0.0407 I-0.0219 J-0.0084
X74.9776 Y7.1765 Z-0.0473 I0.0219 J0.0084
X74.9792 Y7.2235 Z-0.065 I0.0008 J0.0235
X74.9571 Y7.2099 Z-0.0716 I-0.0008 J-0.0235
X74.9997 Y7.1901 Z-0.0893 I0.0213 J-0.0099
X74.9959 Y7.2157 Z-0.0959 I-0.0213 J0.0099
X74.961 Y7.1843 Z-0.1136 I-0.0174 J-0.0157
X74.9861 Y7.1778 Z-0.1202 I0.0174 J0.0157
X74.9708 Y7.2222 Z-0.1379 I-0.0077 J0.0222
X74.9861 Y7.1778 Z-0.1557 I0.0077 J-0.0222
X74.9891 Y7.221 Z-0.1689 I-0.0077 J0.0222
X74.9678 Y7.179 Z-0.1866 I-0.0106 J-0.021
X74.9936 Y7.182 Z-0.1932 I0.0106 J0.021
X74.9633 Y7.218 Z-0.2109 I-0.0151 J0.018
X74.956 Y7.1931 Z-0.2175 I0.0151 J-0.018
X75.0009 Y7.2069 I0.0225 J0.0069
X74.956 Y7.1931 I-0.0225 J-0.0069
X74.9707 Y7.1853 I0.0112 J0.0035
G1 X74.978 Y7.1876
X74.9809 Y7.1885 Z-0.2172
X74.9837 Y7.1893 Z-0.2163
X74.9862 Y7.1901 Z-0.2149
X74.9884 Y7.1908 Z-0.213
X74.9903 Y7.1914 Z-0.2107
X74.9916 Y7.1918 Z-0.208
X74.9925 Y7.192 Z-0.2051
X74.9927 Y7.1921 Z-0.2021
G0 Z0.6
(.3 CIRCULAR THROUGH HOLE)
M7
G0 X70.5371 Y7.9963
Z0.6
Z0.2
G1 Z0.1149 F13.333
G3 X70.5385 Y7.9959 Z0.1084 I0.0128 J0.0432 F55.
X70.5425 Y7.9951 Z0.1031 I0.0114 J0.0435
X70.5484 Y7.9945 Z0.1 I0.0074 J0.0444
X70.5769 Y8.0034 Z0.0918 I0.0015 J0.045
X70.5229 Y8.0754 Z0.054 I-0.027 J0.036
X70.5769 Y8.0034 Z0.0161 I0.027 J-0.036
X70.5229 Y8.0754 Z-0.0218 I-0.027 J0.036
X70.5769 Y8.0034 Z-0.0597 I0.027 J-0.036
X70.5229 Y8.0755 Z-0.0976 I-0.027 J0.036
X70.5049 Y8.0394 Z-0.1087 I0.027 J-0.036
X70.5577 I0.0264 J0. F60.
X70.4049 I-0.0764 J0.
X70.6577 I0.1264 J0.
X70.3049 I-0.1764 J0.
X70.7577 I0.2264 J0.
X70.2049 I-0.2764 J0.
X70.8577 I0.3264 J0.
X70.1049 I-0.3764 J0.
X70.8577 I0.3764 J0.
G2 X70.9011 Y8.109 I0.0774 J0.
G3 X70.9332 Y8.1844 I-0.0275 J0.0563
X70.0067 Y8.0394 I-0.4519 J-0.1451
X70.9559 I0.4746 J0.0002
X70.9332 Y8.1844 I-0.4746 J-0.0002
X70.9223 Y8.1889 I-0.0073 J-0.0024
G1 X70.8727 Y8.1633
X70.5912 Y8.0572
G3 X70.5769 Y8.0754 Z-0.115 I-0.0413 J-0.0178 F55.
X70.5229 Y8.0034 Z-0.1529 I-0.027 J-0.036
X70.5769 Y8.0755 Z-0.1908 I0.027 J0.036
X70.5049 Y8.0394 Z-0.2175 I-0.027 J-0.036
X70.5577 I0.0264 J0. F60.
X70.4049 I-0.0764 J0.
X70.6577 I0.1264 J0.
X70.3049 I-0.1764 J0.
X70.7577 I0.2264 J0.
X70.2049 I-0.2764 J0.
X70.8577 I0.3264 J0.
X70.1049 I-0.3764 J0.
X70.8577 I0.3764 J0.
G2 X70.9011 Y8.109 I0.0774 J0.
G3 X70.9332 Y8.1844 I-0.0275 J0.0563
X70.0067 Y8.0394 I-0.4519 J-0.1451
X70.9559 I0.4746 J0.0002
X70.9332 Y8.1844 I-0.4746 J-0.0002
G2 X70.9356 Y8.193 I0.0077 J0.0025
G3 X70.9379 Y8.2016 I-0.0052 J0.006
X69.9967 Y8.0394 I-0.4566 J-0.1624
X70.9659 I0.4846 J0.0002
X70.9379 Y8.2016 I-0.4846 J-0.0002
X70.9349 Y8.2067 Z-0.2163 I-0.0145 J-0.0052
X70.9311 Y8.2098 Z-0.213 I-0.0115 J-0.0102
X70.928 Y8.2112 Z-0.208 I-0.0077 J-0.0133
X70.9269 Y8.2115 Z-0.2021 I-0.0046 J-0.0147
G0 Z0.4
X69.6448 Y9.8999
Z0.2
G1 Z0.1149 F13.333
G3 X69.6462 Y9.8995 Z0.1084 I0.0128 J0.0432 F55.
X69.6502 Y9.8987 Z0.1031 I0.0114 J0.0435
X69.6561 Y9.8981 Z0.1 I0.0074 J0.0444
X69.6846 Y9.9071 Z0.0918 I0.0015 J0.045
X69.6306 Y9.9791 Z0.054 I-0.027 J0.036
X69.6846 Y9.9071 Z0.0161 I0.027 J-0.036
X69.6306 Y9.9791 Z-0.0218 I-0.027 J0.036
X69.6846 Y9.9071 Z-0.0597 I0.027 J-0.036
X69.6306 Y9.9791 Z-0.0976 I-0.027 J0.036
X69.6126 Y9.9431 Z-0.1087 I0.027 J-0.036
X69.6622 I0.0248 J0. F60.
X69.5126 I-0.0748 J0.
X69.7622 I0.1248 J0.
X69.4126 I-0.1748 J0.
X69.8622 I0.2248 J0.
X69.3126 I-0.2748 J0.
X69.9622 I0.3248 J0.
X69.2126 I-0.3748 J0.
X70.0622 I0.4248 J0.
X69.1126 I-0.4748 J0.
X70.0622 I0.4748 J0.
X70.0172 Y9.9881 Z-0.1241 I-0.045 J0. F55.
G1 X69.6576 Z-0.2022
G3 X69.6126 Y9.9431 Z-0.2175 I0. J-0.045
X69.6622 I0.0248 J0. F60.
X69.5126 I-0.0748 J0.
X69.7622 I0.1248 J0.
X69.4126 I-0.1748 J0.
X69.8622 I0.2248 J0.
X69.3126 I-0.2748 J0.
X69.9622 I0.3248 J0.
X69.2126 I-0.3748 J0.
X70.0622 I0.4248 J0.
X69.1126 I-0.4748 J0.
X70.0722 I0.4798 J0.
X69.1026 I-0.4848 J0.
X70.0722 I0.4848 J0.
X70.0711 Y9.9488 Z-0.2163 I-0.0154 J0.
X70.0685 Y9.9531 Z-0.213 I-0.0143 J-0.0058
X70.0661 Y9.9554 Z-0.208 I-0.0117 J-0.01
X70.0651 Y9.956 Z-0.2021 I-0.0093 J-0.0123
G0 Z0.4
X73.5474 Y9.5098
Z0.2
G1 Z0.1149 F13.333
G3 X73.5488 Y9.5094 Z0.1084 I0.0128 J0.0432 F55.
X73.5527 Y9.5086 Z0.1031 I0.0114 J0.0435
X73.5586 Y9.508 Z0.1 I0.0074 J0.0444
X73.5871 Y9.517 Z0.0918 I0.0015 J0.045
X73.5331 Y9.589 Z0.054 I-0.027 J0.036
X73.5871 Y9.517 Z0.0161 I0.027 J-0.036
X73.5331 Y9.589 Z-0.0218 I-0.027 J0.036
X73.5871 Y9.517 Z-0.0597 I0.027 J-0.036
X73.5331 Y9.589 Z-0.0976 I-0.027 J0.036
X73.5151 Y9.553 Z-0.1087 I0.027 J-0.036
X73.568 I0.0264 J0. F60.
X73.4151 I-0.0764 J0.
X73.668 I0.1264 J0.
X73.3151 I-0.1764 J0.
X73.768 I0.2264 J0.
X73.2151 I-0.2764 J0.
X73.868 I0.3264 J0.
X73.1151 I-0.3764 J0.
X73.868 I0.3764 J0.
G2 X73.9113 Y9.6225 I0.0774 J0.
G3 X73.9434 Y9.6979 I-0.0275 J0.0563
X73.0169 Y9.553 I-0.4519 J-0.1451
X73.9662 I0.4746 J0.0002
X73.9434 Y9.6979 I-0.4746 J-0.0002
X73.9325 Y9.7024 I-0.0073 J-0.0024
G1 X73.8829 Y9.6768
X73.6015 Y9.5707
G3 X73.5871 Y9.589 Z-0.115 I-0.0414 J-0.0178 F55.
X73.5331 Y9.517 Z-0.1529 I-0.027 J-0.036
X73.5871 Y9.589 Z-0.1908 I0.027 J0.036
X73.5151 Y9.553 Z-0.2175 I-0.027 J-0.036
X73.568 I0.0264 J0. F60.
X73.4151 I-0.0764 J0.
X73.668 I0.1264 J0.
X73.3151 I-0.1764 J0.
X73.768 I0.2264 J0.
X73.2151 I-0.2764 J0.
X73.868 I0.3264 J0.
X73.1151 I-0.3764 J0.
X73.868 I0.3764 J0.
G2 X73.9113 Y9.6225 I0.0774 J0.
G3 X73.9434 Y9.6979 I-0.0275 J0.0563
X73.0169 Y9.553 I-0.4519 J-0.1451
X73.9662 I0.4746 J0.0002
X73.9434 Y9.6979 I-0.4746 J-0.0002
G2 X73.9458 Y9.7065 I0.0077 J0.0025
G3 X73.9481 Y9.7152 I-0.0052 J0.006
X73.0069 Y9.553 I-0.4566 J-0.1624
X73.9761 I0.4846 J0.0002
X73.9481 Y9.7152 I-0.4846 J-0.0002
X73.9452 Y9.7202 Z-0.2163 I-0.0145 J-0.0052
X73.9413 Y9.7233 Z-0.213 I-0.0115 J-0.0102
X73.9382 Y9.7247 Z-0.208 I-0.0077 J-0.0133
X73.9371 Y9.725 Z-0.2021 I-0.0046 J-0.0147
G0 Z0.4
X73.5633 Y7.4568
Z0.2
G1 Z0.1149 F13.333
G3 X73.5647 Y7.4565 Z0.1084 I0.0128 J0.0432 F55.
X73.5687 Y7.4556 Z0.1031 I0.0114 J0.0435
X73.5746 Y7.455 Z0.1 I0.0074 J0.0444
X73.6031 Y7.464 Z0.0918 I0.0015 J0.045
X73.5491 Y7.536 Z0.054 I-0.027 J0.036
X73.6031 Y7.464 Z0.0161 I0.027 J-0.036
X73.5491 Y7.536 Z-0.0218 I-0.027 J0.036
X73.6031 Y7.464 Z-0.0597 I0.027 J-0.036
X73.5491 Y7.536 Z-0.0976 I-0.027 J0.036
X73.5311 Y7.5 Z-0.1087 I0.027 J-0.036
X73.5807 I0.0248 J0. F60.
X73.4311 I-0.0748 J0.
X73.6807 I0.1248 J0.
X73.3311 I-0.1748 J0.
X73.7807 I0.2248 J0.
X73.2311 I-0.2748 J0.
X73.8807 I0.3248 J0.
X73.1311 I-0.3748 J0.
X73.9807 I0.4248 J0.
X73.0311 I-0.4748 J0.
X73.9807 I0.4748 J0.
X73.9357 Y7.545 Z-0.1241 I-0.045 J0. F55.
G1 X73.5761 Z-0.2022
G3 X73.5311 Y7.5 Z-0.2175 I0. J-0.045
X73.5807 I0.0248 J0. F60.
X73.4311 I-0.0748 J0.
X73.6807 I0.1248 J0.
X73.3311 I-0.1748 J0.
X73.7807 I0.2248 J0.
X73.2311 I-0.2748 J0.
X73.8807 I0.3248 J0.
X73.1311 I-0.3748 J0.
X73.9807 I0.4248 J0.
X73.0311 I-0.4748 J0.
X73.9907 I0.4798 J0.
X73.0211 I-0.4848 J0.
X73.9907 I0.4848 J0.
X73.9896 Y7.5058 Z-0.2163 I-0.0154 J0.
X73.987 Y7.51 Z-0.213 I-0.0143 J-0.0058
X73.9846 Y7.5123 Z-0.208 I-0.0117 J-0.01
X73.9836 Y7.513 Z-0.2021 I-0.0093 J-0.0123
G0 Z0.4
X69.7736 Y6.2539
Z0.2
G1 Z0.1149 F13.333
G3 X69.775 Y6.2535 Z0.1084 I0.0128 J0.0432 F55.
X69.7789 Y6.2527 Z0.1031 I0.0114 J0.0435
X69.7848 Y6.2521 Z0.1 I0.0074 J0.0444
X69.8133 Y6.261 Z0.0918 I0.0015 J0.045
X69.7593 Y6.333 Z0.054 I-0.027 J0.036
X69.8133 Y6.261 Z0.0161 I0.027 J-0.036
X69.7593 Y6.333 Z-0.0218 I-0.027 J0.036
X69.8133 Y6.261 Z-0.0597 I0.027 J-0.036
X69.7593 Y6.333 Z-0.0976 I-0.027 J0.036
X69.7413 Y6.297 Z-0.1087 I0.027 J-0.036
X69.791 I0.0248 J0. F60.
X69.6413 I-0.0748 J0.
X69.891 I0.1248 J0.
X69.5413 I-0.1748 J0.
X69.991 I0.2248 J0.
X69.4413 I-0.2748 J0.
X70.091 I0.3248 J0.
X69.3413 I-0.3748 J0.
X70.191 I0.4248 J0.
X69.2413 I-0.4748 J0.
X70.191 I0.4748 J0.
X70.146 Y6.342 Z-0.1241 I-0.045 J0. F55.
G1 X69.7863 Z-0.2022
G3 X69.7413 Y6.297 Z-0.2175 I0. J-0.045
X69.791 I0.0248 J0. F60.
X69.6413 I-0.0748 J0.
X69.891 I0.1248 J0.
X69.5413 I-0.1748 J0.
X69.991 I0.2248 J0.
X69.4413 I-0.2748 J0.
X70.091 I0.3248 J0.
X69.3413 I-0.3748 J0.
X70.191 I0.4248 J0.
X69.2413 I-0.4748 J0.
X70.201 I0.4798 J0.
X69.2313 I-0.4848 J0.
X70.201 I0.4848 J0.
X70.1998 Y6.3028 Z-0.2163 I-0.0154 J0.
X70.1973 Y6.3071 Z-0.213 I-0.0143 J-0.0058
X70.1948 Y6.3093 Z-0.208 I-0.0117 J-0.01
X70.1939 Y6.31 Z-0.2021 I-0.0093 J-0.0123
G0 Z0.6
(SHAPE THROUGH HOLE)
M7
G0 X67.8025 Y9.8321
Z0.6
Z0.1
G3 X67.7 Y9.8051 Z0.0791 I-0.0384 J-0.0622 F50.
X67.7321 Y9.7041 Z0.0582 I0.0641 J-0.0352
X67.8314 Y9.7413 Z0.0373 I0.032 J0.0658
X67.7893 Y9.8386 Z0.0164 I-0.0673 J0.0286
X67.6942 Y9.7916 Z-0.0045 I-0.0252 J-0.0687
X67.8339 Y9.7482 Z-0.0451 I0.0698 J-0.0217
X67.6942 Y9.7916 Z-0.0856 I-0.0698 J0.0217
X67.7531 Y9.6976 Z-0.1078 I0.0698 J-0.0217
X67.8372 Y9.7699 Z-0.13 I0.011 J0.0723
X67.6909 I-0.0732 J0.
X67.837 Y9.764 I0.0732 J0.
G1 X67.8372 Y9.7699
G3 X67.6814 Y9.8935 I-0.0819 J0.0568 F60.
G1 X67.6733 Y9.8882
X67.6655 Y9.8823
X67.6581 Y9.8759
X67.6512 Y9.8691
X67.6446 Y9.8619
X67.6386 Y9.8543
X67.633 Y9.8463
X67.6279 Y9.838
X67.6234 Y9.8294
X67.6195 Y9.8205
X67.6161 Y9.8114
X67.6132 Y9.802
X67.611 Y9.7926
X67.6094 Y9.783
X67.6084 Y9.7733
X67.6079 Y9.7635
X67.6082 Y9.7538
X67.609 Y9.7441
X67.6104 Y9.7345
X67.6124 Y9.725
X67.6151 Y9.7156
X67.6183 Y9.7064
X67.6221 Y9.6974
X67.6264 Y9.6887
X67.6313 Y9.6803
X67.6367 Y9.6722
X67.6426 Y9.6644
X67.649 Y9.6571
X67.6558 Y9.6501
X67.663 Y9.6436
X67.6707 Y9.6376
X67.6787 Y9.6321
X67.687 Y9.6271
X67.6957 Y9.6226
X67.7046 Y9.6187
X67.7137 Y9.6153
X67.7231 Y9.6125
X67.7325 Y9.6103
X67.7421 Y9.6088
X67.7518 Y9.6078
X67.7616 Y9.6074
X67.7713 Y9.6077
X67.781 Y9.6085
X67.7906 Y9.61
X67.8001 Y9.6121
X67.8095 Y9.6147
X67.8187 Y9.618
X67.8276 Y9.6218
X67.8363 Y9.6262
X67.8447 Y9.6311
X67.8528 Y9.6366
X67.8605 Y9.6425
X67.8678 Y9.6489
X67.8747 Y9.6558
X67.8812 Y9.663
X67.8872 Y9.6707
X67.8927 Y9.6788
X67.8976 Y9.6871
X67.9021 Y9.6958
X67.906 Y9.7047
X67.9093 Y9.7138
X67.912 Y9.7232
X67.9177 Y9.7324
X67.9229 Y9.7418
X67.9275 Y9.7516
X67.9315 Y9.7616
X67.935 Y9.7718
X67.9379 Y9.7822
X67.9402 Y9.7927
X67.9419 Y9.8034
X67.943 Y9.8141
X67.9434 Y9.8249
X67.9433 Y9.8357
X67.9425 Y9.8464
X67.9412 Y9.8571
X67.9392 Y9.8677
X67.9367 Y9.8782
X67.9335 Y9.8885
X67.9298 Y9.8986
X67.9255 Y9.9085
X67.9206 Y9.9182
X67.9152 Y9.9275
X67.9093 Y9.9365
X67.9029 Y9.9452
X67.896 Y9.9535
X67.8887 Y9.9614
X67.8809 Y9.9688
X67.8727 Y9.9758
X67.8641 Y9.9824
X67.8551 Y9.9884
X67.8459 Y9.9939
X67.8363 Y9.9989
X67.8265 Y10.0033
X67.8164 Y10.0072
X67.8061 Y10.0105
X67.7957 Y10.0131
X67.7851 Y10.0152
X67.7744 Y10.0167
X67.7637 Y10.0176
X67.7529 Y10.0179
X67.7421 Y10.0176
X67.7314 Y10.0166
X67.7207 Y10.0151
X67.7101 Y10.0129
X67.6997 Y10.0101
X67.6895 Y10.0068
X67.6794 Y10.0029
X67.6696 Y9.9984
X67.6601 Y9.9934
X67.6508 Y9.9878
X67.6419 Y9.9817
X67.6334 Y9.9751
X67.6252 Y9.9681
X67.6175 Y9.9606
X67.6076 Y9.9538
X67.5982 Y9.9465
X67.5891 Y9.9387
X67.5804 Y9.9305
X67.5721 Y9.9218
X67.5643 Y9.9127
X67.557 Y9.9033
X67.5501 Y9.8935
X67.5438 Y9.8834
X67.5379 Y9.8729
X67.5326 Y9.8622
X67.5279 Y9.8512
X67.5237 Y9.84
X67.5201 Y9.8286
X67.517 Y9.817
X67.5146 Y9.8053
X67.5127 Y9.7935
X67.5115 Y9.7816
X67.5108 Y9.7697
X67.5107 Y9.7577
X67.5113 Y9.7457
X67.5124 Y9.7338
X67.5142 Y9.722
X67.5166 Y9.7103
X67.5195 Y9.6987
X67.523 Y9.6872
X67.5271 Y9.676
X67.5318 Y9.665
X67.537 Y9.6542
X67.5427 Y9.6437
X67.549 Y9.6335
X67.5557 Y9.6237
X67.563 Y9.6142
X67.5707 Y9.605
X67.5789 Y9.5963
X67.5875 Y9.588
X67.5965 Y9.5801
X67.606 Y9.5727
X67.6157 Y9.5658
X67.6258 Y9.5594
X67.6362 Y9.5535
X67.6469 Y9.5482
X67.6579 Y9.5434
X67.6691 Y9.5391
X67.6819 Y9.5354
X67.6949 Y9.5322
X67.7081 Y9.5296
X67.7213 Y9.5276
X67.7346 Y9.5263
X67.748 Y9.5255
X67.7614 Y9.5254
X67.7748 Y9.5259
X67.7881 Y9.5271
X67.8014 Y9.5288
X67.8146 Y9.5312
X67.8277 Y9.5342
X67.8406 Y9.5377
X67.8533 Y9.5419
X67.8658 Y9.5466
X67.8781 Y9.552
X67.8901 Y9.5579
X67.9019 Y9.5643
X67.9133 Y9.5713
X67.9244 Y9.5788
X67.9352 Y9.5868
X67.9455 Y9.5953
X67.9555 Y9.6042
X67.965 Y9.6137
X67.9741 Y9.6235
X67.9827 Y9.6338
X67.9908 Y9.6444
X67.9984 Y9.6554
X68.0055 Y9.6668
X68.0121 Y9.6785
X68.0181 Y9.6904
X68.0236 Y9.7026
X68.0285 Y9.7151
X68.0328 Y9.7278
X68.0365 Y9.7407
X68.0396 Y9.7537
X68.0421 Y9.7668
X68.044 Y9.7801
X68.0453 Y9.7934
X68.046 Y9.8068
Y9.8202
X68.0454 Y9.8336
X68.0442 Y9.8469
X68.0424 Y9.8602
X68.04 Y9.8734
X68.0369 Y9.8864
X68.0333 Y9.8993
X68.0291 Y9.912
X68.0242 Y9.9245
X68.0188 Y9.9368
X68.0129 Y9.9488
X68.0064 Y9.9605
X67.9994 Y9.9719
X67.9918 Y9.9829
X67.9837 Y9.9936
X67.9752 Y10.0039
X67.9662 Y10.0138
X67.9567 Y10.0233
X67.9468 Y10.0323
X67.9365 Y10.0409
X67.9258 Y10.0489
X67.9148 Y10.0565
X67.9034 Y10.0635
X67.8917 Y10.0701
X67.8797 Y10.076
X67.8674 Y10.0814
X67.8549 Y10.0862
X67.8422 Y10.0905
X67.7948 Y10.1012
G3 X67.4194 Y9.7998 I-0.0497 J-0.3226
G2 X67.44 Y9.6807 I-0.3298 J-0.1183
G1 X67.443 Y9.667
X67.4466 Y9.6534
X67.4508 Y9.6401
X67.4555 Y9.6269
X67.4609 Y9.614
X67.4668 Y9.6012
X67.4732 Y9.5888
X67.4802 Y9.5767
X67.4877 Y9.5648
X67.4957 Y9.5534
X67.5042 Y9.5422
X67.5132 Y9.5315
X67.5226 Y9.5212
X67.5325 Y9.5112
X67.5428 Y9.5018
X67.5536 Y9.4928
X67.5647 Y9.4842
X67.5761 Y9.4762
X67.588 Y9.4687
X67.6001 Y9.4616
X67.6125 Y9.4552
X67.6252 Y9.4493
X67.6381 Y9.4439
X67.6513 Y9.4391
X67.6647 Y9.4349
X67.6782 Y9.4313
X67.6919 Y9.4283
X67.7057 Y9.4259
X67.7195 Y9.424
X67.7335 Y9.4228
X67.7475 Y9.4222
X67.7615 Y9.4223
X67.7755 Y9.4229
X67.7894 Y9.4241
X67.9356 Y9.4819
G3 X68.0595 Y10.0514 I-0.1753 J0.3364
G1 X67.8427 Y10.092
G3 X67.8368 Y10.0617 I-0.0029 J-0.0151
X67.8551 Y10.0757 I0.0029 J0.0151
X67.839 Y10.0922 I-0.0154 J0.0011
G1 X67.8113 Y10.0909
G3 X67.8128 Y10.0602 I0.0007 J-0.0154
X67.8223 Y10.087 I-0.0007 J0.0154
X67.7948 Y10.1012 I-0.0415 J-0.0465 F50.
G1 X67.6072 Y10.1376 F60.
G3 X67.3543 Y9.9206 I0.0214 J-0.2808
G2 X67.4195 Y9.7998 I-0.28 J-0.2291
G3 X67.4314 Y9.79 I0.0144 J0.0054
X67.4589 Y9.8034 I0.0044 J0.0258
X67.3838 Y9.919 I-0.0695 J0.037
X67.3692 Y9.9166 I0.0056 J-0.0785 F50.
G2 X67.3543 Y9.9206 I-0.004 J0.0149
G1 X67.3338 Y9.9426 F60.
G2 X67.4248 Y10.173 I0.1727 J0.0649
G1 X67.6072 Y10.1376
G2 X67.6185 Y10.1271 I-0.0035 J-0.015
X67.6043 Y10.0928 I-0.0278 J-0.0086
X67.4413 Y10.1486 I-0.0553 J0.1044
X67.436 Y10.1625 I0.1077 J0.0486 F50.
G3 X67.4248 Y10.173 I-0.0147 J-0.0045
G1 X67.3832 Y10.181 F60.
G3 X67.3399 Y10.1776 I-0.0185 J-0.0415
X67.3505 Y10.1515 I0.0111 J-0.0107
G1 X67.3792 Y10.1506
G3 X67.3919 Y10.1565 I0.0005 J0.0154
X67.3832 Y10.181 I-0.0121 J0.0095 F50.
X67.3122 Y10.1501 I-0.0246 J-0.0404 F60.
G1 X67.3023 Y10.1408
X67.291 Y10.133
G3 X67.2483 Y10.0805 I0.0308 J-0.0686
X67.2751 Y10.0706 I0.0154 J0.0005
G1 X67.3107 Y10.1097
G3 X67.3146 Y10.1221 I-0.0114 J0.0104
X67.291 Y10.133 I-0.0153 J-0.0021 F50.
X67.2483 Y10.1024 I0.0388 J-0.0992 F60.
G1 Y10.0122
G3 X67.3338 Y9.9426 I0.6665 J0.7314
X67.3592 Y9.9482 I0.0109 J0.0109
G1 X67.3602 Y9.9511 Z-0.1297
X67.3612 Y9.9538 Z-0.1288
X67.3621 Y9.9563 Z-0.1274
X67.3629 Y9.9585 Z-0.1255
X67.3635 Y9.9603 Z-0.1232
X67.364 Y9.9616 Z-0.1205
X67.3643 Y9.9624 Z-0.1176
X67.3644 Y9.9627 Z-0.1146
G0 Z-0.0992
X67.8232 Y9.4548
G1 Z-0.1146 F50.
X67.823 Y9.4545 Z-0.1176
X67.8225 Y9.4538 Z-0.1205
X67.8216 Y9.4527 Z-0.1232
X67.8204 Y9.4512 Z-0.1255
X67.819 Y9.4493 Z-0.1274
X67.8174 Y9.4472 Z-0.1288
X67.8156 Y9.4449 Z-0.1297
X67.8138 Y9.4425 Z-0.13
G2 X67.7895 Y9.4234 I-0.0495 J0.0379
G1 X67.6776 Y9.3786 F60.
G2 X67.4046 Y9.5232 I-0.0364 J0.2612
G3 X67.44 Y9.6807 I-0.3435 J0.1601
G2 X67.4573 Y9.694 I0.0153 J-0.002
X67.4984 Y9.6493 I-0.006 J-0.0468
X67.4313 Y9.5373 I-0.118 J-0.0054
X67.4137 Y9.5306 I-0.0509 J0.1066 F50.
G3 X67.4046 Y9.5232 I0.0043 J-0.0148
G1 X67.4012 Y9.5164 F60.
X67.3912 Y9.4997
G3 X67.5058 Y9.3099 I0.1548 J-0.036
G1 X67.6776 Y9.3786
G3 X67.6866 Y9.391 I-0.0062 J0.0141
X67.6654 Y9.4228 I-0.0296 J0.0032
X67.5174 Y9.3369 I-0.0331 J-0.1134
X67.5149 Y9.3223 I0.1149 J-0.0274 F50.
G2 X67.5058 Y9.3099 I-0.0153 J0.0017
G1 X67.4665 Y9.2941 F60.
G2 X67.3082 Y9.398 I-0.029 J0.1283
G3 X67.3912 Y9.4997 I-0.205 J0.2519
G2 X67.4048 Y9.5067 I0.0129 J-0.0084
X67.4356 Y9.4751 I-0.0016 J-0.0323
X67.3408 Y9.3962 I-0.0787 J-0.0018
X67.3267 Y9.4006 I0.016 J0.0771 F50.
G3 X67.3114 Y9.3986 I-0.0059 J-0.0142
G1 X67.3023 Y9.3911 F60.
X67.296 Y9.3868
G3 X67.3336 Y9.24 I0.0762 J-0.0587
G1 X67.3362 Y9.2413
X67.3384 Y9.2431
X67.3403 Y9.2451
X67.3418 Y9.2475
X67.3428 Y9.2501
X67.3434 Y9.2528
Y9.2556
X67.343 Y9.2582
X67.3411 Y9.2682
X67.3196 Y9.3758
X67.3194 Y9.3768 F50.
G3 X67.296 Y9.3868 I-0.0151 J-0.003
X67.2483 Y9.3526 I0.0525 J-0.1235 F60.
X67.2485 Y9.2611 I0.332 J-0.0451
X67.2998 Y9.2274 I0.2031 J0.2534
G1 X67.4665 Y9.2941
G3 X67.4704 Y9.3198 I-0.0062 J0.0141
G1 X67.4681 Y9.3218 Z-0.1297
X67.4659 Y9.3237 Z-0.1288
X67.4639 Y9.3254 Z-0.1274
X67.4622 Y9.327 Z-0.1255
X67.4607 Y9.3282 Z-0.1232
X67.4597 Y9.3291 Z-0.1205
X67.459 Y9.3297 Z-0.1176
X67.4588 Y9.3299 Z-0.1146
G0 Z-0.0992
X67.8896 Y9.4813
G1 Z-0.1146 F50.
X67.8899 Z-0.1176
X67.8907 Y9.4811 Z-0.1205
X67.8921 Y9.4809 Z-0.1232
X67.894 Y9.4806 Z-0.1255
X67.8963 Y9.4803 Z-0.1274
X67.899 Y9.4799 Z-0.1288
X67.9018 Y9.4794 Z-0.1297
X67.9048 Y9.4789 Z-0.13
G3 X67.9356 Y9.4819 I0.0097 J0.0616
G1 X68.0998 Y9.5476 F60.
G3 X68.2148 Y9.9595 I-0.2074 J0.2799
X68.1843 Y10.0258 I-0.0685 J0.0087
G1 X68.058 Y10.0502
G3 X68.0437 Y10.0447 I-0.0024 J-0.0152
X68.0427 Y10.027 I0.0117 J-0.0095
X68.1596 Y10.0097 I0.0661 J0.0428
X68.17 Y10.0202 I-0.0508 J0.0601 F50.
G2 X68.1843 Y10.0258 I0.012 J-0.0097
G1 X68.2241 Y10.018 F60.
G2 X68.3004 Y9.6725 I-0.1416 J-0.2124
X68.2888 Y9.6232 I-0.0311 J-0.0187
G1 X68.0998 Y9.5476
G2 X68.0801 Y9.5569 I-0.0052 J0.0145
X68.0824 Y9.5736 I0.017 J0.0061
X68.2595 Y9.6308 I0.1276 J-0.0923
X68.277 Y9.6238 I-0.0495 J-0.1495 F50.
G3 X68.2888 Y9.6233 I0.0066 J0.0139
G1 X68.3414 Y9.6443 F60.
G3 X68.3838 Y9.9871 I-0.1865 J0.1971
G1 X68.2241 Y10.018
G3 X68.2098 Y10.0125 I-0.0024 J-0.0152
X68.2221 Y9.9518 I0.0312 J-0.0253
X68.3594 Y9.9707 I0.0556 J0.1042
X68.3694 Y9.9816 I-0.0817 J0.0853 F50.
G2 X68.3838 Y9.9871 I0.012 J-0.0097
G1 X68.4234 Y9.9794 F60.
G2 X68.4977 Y9.7069 I-0.1131 J-0.1772
G1 X68.3414 Y9.6443
G2 X68.3263 Y9.647 I-0.0052 J0.0145
X68.3243 Y9.7042 I0.0248 J0.0294
X68.4707 Y9.7184 I0.0821 J-0.0849
X68.4826 Y9.7096 I-0.0642 J-0.0991 F50.
G3 X68.4977 Y9.7069 I0.0099 J0.0118
G1 X68.5349 Y9.7218 F60.
G3 X68.5758 Y9.9499 I-0.0978 J0.1353
G1 X68.4234 Y9.9794
G3 X68.409 Y9.9739 I-0.0024 J-0.0152
X68.426 Y9.909 I0.0323 J-0.0262
X68.5514 Y9.9335 I0.0438 J0.1097
X68.5615 Y9.9444 I-0.0817 J0.0853 F50.
G2 X68.5758 Y9.9499 I0.012 J-0.0097
G1 X68.6111 Y9.9431 F60.
X68.6189 Y9.9395
X68.6264 Y9.9353
X68.6337 Y9.9307
X68.6406 Y9.9256
X68.6471 Y9.92
X68.6533 Y9.914
X68.659 Y9.9076
X68.6643 Y9.9008
X68.6691 Y9.8937
X68.6734 Y9.8862
X68.6772 Y9.8785
X68.6805 Y9.8706
X68.6832 Y9.8624
X68.6854 Y9.8541
X68.687 Y9.8456
X68.688 Y9.8371
X68.6884 Y9.8285
X68.6882 Y9.8199
X68.6875 Y9.8113
X68.6862 Y9.8028
X68.6843 Y9.7945
X68.6818 Y9.7862
X68.6788 Y9.7782
X68.5349 Y9.7218
G2 X68.5197 Y9.7245 I-0.0052 J0.0145
X68.5251 Y9.7923 I0.027 J0.032
X68.6503 Y9.7903 I0.0609 J-0.1012
X68.6622 Y9.7815 I-0.0642 J-0.0991 F50.
G3 X68.6773 Y9.7788 I0.0099 J0.0118
G1 X68.7049 Y9.7898 F60.
G3 X68.7511 Y9.8573 I-0.0377 J0.0754
X68.7233 Y9.864 I-0.0152 J-0.0023
X68.6843 Y9.8057 I0.0607 J-0.0828
X68.7049 Y9.7898 I0.0154 J-0.0014 F50.
X68.7472 Y9.8658 I0.0106 J0.0439 F60.
G1 X68.7485 Y9.8919
X68.7471 Y9.9161
X68.7467 Y9.9168
X68.6111 Y9.9431
G3 X68.5971 Y9.938 I-0.0024 J-0.0152
G1 X68.5959 Y9.9359 Z-0.1298
X68.5948 Y9.9339 Z-0.1293
X68.5938 Y9.932 Z-0.1284
X68.5935 Y9.9298 Z-0.127
X68.5933 Y9.9279 Z-0.1253
X68.5935 Y9.926 Z-0.123
X68.5937 Y9.9247 Z-0.1204
X68.5938 Y9.9239 Z-0.1175
X68.5939 Y9.9236 Z-0.1146
G0 Z0.4
X67.7775 Y14.8283
Z0.1
G3 X67.675 Y14.8013 Z0.0791 I-0.0384 J-0.0622 F50.
X67.7071 Y14.7003 Z0.0582 I0.0641 J-0.0352
X67.8064 Y14.7374 Z0.0373 I0.032 J0.0658
X67.7643 Y14.8347 Z0.0164 I-0.0673 J0.0286
X67.7139 Y14.6974 Z-0.0242 I-0.0252 J-0.0687
X67.7643 Y14.8347 Z-0.0647 I0.0252 J0.0687
X67.7139 Y14.6974 Z-0.1052 I-0.0252 J-0.0687
X67.8122 Y14.7661 Z-0.13 I0.0252 J0.0687
X67.6659 I-0.0732 J0.
X67.812 Y14.7601 I0.0732 J0.
G1 X67.8122 Y14.7661
G3 X67.6564 Y14.8897 I-0.0819 J0.0568 F60.
G1 X67.6483 Y14.8843
X67.6405 Y14.8785
X67.6331 Y14.8721
X67.6262 Y14.8653
X67.6196 Y14.8581
X67.6136 Y14.8505
X67.608 Y14.8425
X67.6029 Y14.8342
X67.5984 Y14.8256
X67.5945 Y14.8167
X67.591 Y14.8075
X67.5882 Y14.7982
X67.586 Y14.7887
X67.5844 Y14.7791
X67.5834 Y14.7695
X67.5829 Y14.7597
X67.5832 Y14.75
X67.584 Y14.7403
X67.5854 Y14.7307
X67.5874 Y14.7211
X67.5901 Y14.7118
X67.5933 Y14.7026
X67.5971 Y14.6936
X67.6014 Y14.6849
X67.6063 Y14.6765
X67.6117 Y14.6684
X67.6176 Y14.6606
X67.624 Y14.6533
X67.6308 Y14.6463
X67.638 Y14.6398
X67.6457 Y14.6338
X67.6537 Y14.6283
X67.662 Y14.6233
X67.6707 Y14.6188
X67.6796 Y14.6148
X67.6887 Y14.6115
X67.6981 Y14.6087
X67.7075 Y14.6065
X67.7171 Y14.6049
X67.7268 Y14.604
X67.7366 Y14.6036
X67.7463 Y14.6039
X67.756 Y14.6047
X67.7656 Y14.6062
X67.7751 Y14.6083
X67.7845 Y14.6109
X67.7937 Y14.6142
X67.8026 Y14.618
X67.8113 Y14.6224
X67.8197 Y14.6273
X67.8278 Y14.6328
X67.8355 Y14.6387
X67.8428 Y14.6451
X67.8497 Y14.652
X67.8562 Y14.6592
X67.8622 Y14.6669
X67.8677 Y14.6749
X67.8726 Y14.6833
X67.8771 Y14.692
X67.881 Y14.7009
X67.8843 Y14.71
X67.887 Y14.7194
X67.8927 Y14.7285
X67.8978 Y14.738
X67.9025 Y14.7478
X67.9065 Y14.7578
X67.91 Y14.768
X67.9129 Y14.7784
X67.9152 Y14.7889
X67.9169 Y14.7996
X67.918 Y14.8103
X67.9184 Y14.8211
X67.9183 Y14.8319
X67.9175 Y14.8426
X67.9162 Y14.8533
X67.9142 Y14.8639
X67.9117 Y14.8744
X67.9085 Y14.8847
X67.9048 Y14.8948
X67.9005 Y14.9047
X67.8956 Y14.9144
X67.8902 Y14.9237
X67.8843 Y14.9327
X67.8779 Y14.9414
X67.871 Y14.9497
X67.8637 Y14.9576
X67.8559 Y14.965
X67.8477 Y14.972
X67.8391 Y14.9786
X67.8301 Y14.9846
X67.8209 Y14.9901
X67.8113 Y14.9951
X67.8015 Y14.9995
X67.7914 Y15.0034
X67.7811 Y15.0066
X67.7707 Y15.0093
X67.7601 Y15.0114
X67.7494 Y15.0129
X67.7387 Y15.0138
X67.7279 Y15.0141
X67.7171 Y15.0137
X67.7064 Y15.0128
X67.6957 Y15.0112
X67.6851 Y15.0091
X67.6747 Y15.0063
X67.6645 Y15.003
X67.6544 Y14.9991
X67.6446 Y14.9946
X67.6351 Y14.9896
X67.6258 Y14.984
X67.6169 Y14.9779
X67.6084 Y14.9713
X67.6002 Y14.9643
X67.5925 Y14.9568
X67.5826 Y14.95
X67.5732 Y14.9426
X67.5641 Y14.9349
X67.5554 Y14.9266
X67.5471 Y14.918
X67.5393 Y14.9089
X67.532 Y14.8995
X67.5251 Y14.8897
X67.5188 Y14.8795
X67.5129 Y14.8691
X67.5076 Y14.8584
X67.5029 Y14.8474
X67.4987 Y14.8362
X67.4951 Y14.8248
X67.492 Y14.8132
X67.4896 Y14.8015
X67.4877 Y14.7897
X67.4864 Y14.7778
X67.4858 Y14.7658
X67.4857 Y14.7539
X67.4863 Y14.7419
X67.4874 Y14.73
X67.4892 Y14.7182
X67.4915 Y14.7065
X67.4945 Y14.6949
X67.498 Y14.6834
X67.5021 Y14.6722
X67.5068 Y14.6612
X67.512 Y14.6504
X67.5177 Y14.6399
X67.524 Y14.6297
X67.5307 Y14.6198
X67.538 Y14.6103
X67.5457 Y14.6012
X67.5539 Y14.5925
X67.5625 Y14.5842
X67.5715 Y14.5763
X67.5809 Y14.5689
X67.5907 Y14.562
X67.6008 Y14.5556
X67.6112 Y14.5497
X67.6219 Y14.5444
X67.6329 Y14.5396
X67.6441 Y14.5353
X67.6569 Y14.5315
X67.67 Y14.5282
X67.6831 Y14.5256
X67.6964 Y14.5236
X67.7098 Y14.5222
X67.7232 Y14.5215
X67.7366 Y14.5213
X67.75 Y14.5218
X67.7634 Y14.5229
X67.7767 Y14.5247
X67.7899 Y14.527
X67.803 Y14.53
X67.816 Y14.5335
X67.8287 Y14.5377
X67.8413 Y14.5425
X67.8536 Y14.5478
X67.8657 Y14.5537
X67.8774 Y14.5602
X67.8889 Y14.5672
X67.9 Y14.5747
X67.9108 Y14.5828
X67.9211 Y14.5913
X67.9311 Y14.6003
X67.9406 Y14.6098
X67.9497 Y14.6197
X67.9583 Y14.63
X67.9664 Y14.6407
X67.974 Y14.6517
X67.9811 Y14.6631
X67.9877 Y14.6749
X67.9936 Y14.6869
X67.9991 Y14.6991
X68.0039 Y14.7117
X68.0082 Y14.7244
X68.0118 Y14.7373
X68.0149 Y14.7504
X68.0173 Y14.7636
X68.0192 Y14.7769
X68.0204 Y14.7903
X68.021 Y14.8037
X68.0209 Y14.8171
X68.0202 Y14.8305
X68.0189 Y14.8439
X68.017 Y14.8572
X68.0145 Y14.8703
X68.0114 Y14.8834
X68.0076 Y14.8963
X68.0033 Y14.909
X67.9983 Y14.9215
X67.9928 Y14.9337
X67.9868 Y14.9457
X67.9801 Y14.9574
X67.973 Y14.9687
X67.9653 Y14.9797
X67.9571 Y14.9904
X67.9484 Y15.0006
X67.9393 Y15.0105
X67.9297 Y15.0198
X67.9197 Y15.0288
X67.8417 Y15.0702
G3 X67.4392 Y14.9357 I-0.1322 J-0.2741
G2 X67.4082 Y14.7738 I-0.3649 J-0.0142
G3 X67.6404 Y14.4338 I0.3117 J-0.0364
G1 X67.8652 Y14.4616
X67.8792 Y14.4667
X67.8931 Y14.4723
X67.9066 Y14.4784
X67.9199 Y14.4851
X67.933 Y14.4923
X67.9457 Y14.5001
X67.9581 Y14.5084
X67.9702 Y14.5171
X67.9818 Y14.5264
X67.9931 Y14.5361
X68.004 Y14.5463
X68.0145 Y14.5569
X68.0246 Y14.5679
X68.0341 Y14.5793
X68.0432 Y14.5911
X68.0519 Y14.6032
X68.06 Y14.6157
X68.0676 Y14.6286
X68.0747 Y14.6417
X68.0812 Y14.6551
X68.0872 Y14.6687
X68.0926 Y14.6826
X68.0975 Y14.6967
X68.1018 Y14.7109
X68.1055 Y14.7254
X68.1086 Y14.7399
X68.1111 Y14.7546
X68.1131 Y14.7694
X68.1144 Y14.7843
X68.1151 Y14.7991
X68.1152 Y14.814
X68.1147 Y14.8289
X68.1136 Y14.8438
X68.1119 Y14.8586
X68.1096 Y14.8733
X68.1067 Y14.8879
X68.1032 Y14.9024
X68.0991 Y14.9168
X68.0945 Y14.9309
X68.0892 Y14.9449
X67.9208 Y15.03
G3 X67.9054 Y15.0287 I-0.0065 J-0.014
X67.8958 Y14.9966 I0.0155 J-0.0222
X68.0607 Y14.9356 I0.1098 J0.0435
X68.0733 Y14.9433 I-0.0551 J0.1045 F50.
G2 X68.0886 Y14.9446 I0.0088 J-0.0126
G1 X68.135 Y14.9211 F60.
X68.1433 Y14.9123
X68.1511 Y14.9031
X68.1585 Y14.8935
X68.1655 Y14.8836
X68.1719 Y14.8733
X68.1778 Y14.8628
X68.1831 Y14.8519
X68.188 Y14.8408
X68.1922 Y14.8295
X68.1959 Y14.818
X68.1991 Y14.8063
X68.2016 Y14.7945
X68.2036 Y14.7825
X68.2049 Y14.7705
X68.2057 Y14.7584
X68.2059 Y14.7463
X68.2054 Y14.7342
X68.2044 Y14.7222
X68.2028 Y14.7102
X68.2005 Y14.6983
X68.1977 Y14.6865
X68.1944 Y14.6749
X68.1904 Y14.6635
X68.1859 Y14.6523
X68.1808 Y14.6413
X68.1752 Y14.6306
X68.1691 Y14.6201
X68.1624 Y14.61
X68.1553 Y14.6002
X68.1477 Y14.5908
X68.1396 Y14.5818
G2 X68.0821 Y14.4885 I-0.1018 J-0.0016
G1 X67.8652 Y14.4616
G2 X67.8513 Y14.4681 I-0.0014 J0.0153
X67.872 Y14.5468 I0.0435 J0.0306
X68.059 Y14.5067 I0.0673 J-0.1424
X68.0681 Y14.495 I-0.1197 J-0.1023 F50.
G3 X68.0821 Y14.4885 I0.0126 J0.0089
G1 X68.1467 Y14.4965 F60.
G3 X68.2896 Y14.8419 I-0.1486 J0.2638
G1 X68.2871 Y14.8437
X68.135 Y14.9211
G3 X68.1196 Y14.9197 I-0.0065 J-0.014
X68.1118 Y14.8654 I0.0216 J-0.0308
X68.2592 Y14.8346 I0.0923 J0.0737
X68.2718 Y14.8423 I-0.0551 J0.1045 F50.
G2 X68.2871 Y14.8437 I0.0088 J-0.0126
G1 X68.3226 Y14.8256 F60.
G2 X68.3174 Y14.5177 I-0.1729 J-0.1511
G1 X68.1467 Y14.4965
G2 X68.1327 Y14.503 I-0.0014 J0.0153
X68.143 Y14.5556 I0.0304 J0.0214
X68.2942 Y14.5357 I0.0638 J-0.0994
X68.3035 Y14.5241 I-0.0873 J-0.0795 F50.
G3 X68.3174 Y14.5177 I0.0126 J0.0089
G1 X68.3649 Y14.5235 F60.
G3 X68.4658 Y14.7528 I-0.079 J0.1716
G1 X68.3226 Y14.8256
G3 X68.3073 Y14.8243 I-0.0065 J-0.014
X68.3032 Y14.7609 I0.0233 J-0.0333
X68.4379 Y14.7437 I0.0796 J0.0873
X68.4505 Y14.7514 I-0.0551 J0.1045 F50.
G2 X68.4658 Y14.7528 I0.0088 J-0.0126
G1 X68.4985 Y14.7361 F60.
G2 X68.5173 Y14.5424 I-0.0928 J-0.1068
G1 X68.3649 Y14.5235
G2 X68.3509 Y14.53 I-0.0014 J0.0153
X68.3733 Y14.5942 I0.0342 J0.0241
X68.4941 Y14.5605 I0.0335 J-0.1133
X68.5034 Y14.5489 I-0.0874 J-0.0795 F50.
G3 X68.5173 Y14.5424 I0.0126 J0.0089
G1 X68.5525 Y14.5468 F60.
G3 X68.6247 Y14.6735 I-0.0313 J0.1018
G1 X68.4985 Y14.7361
G3 X68.4776 Y14.7169 I-0.0065 J-0.014
X68.4907 Y14.6973 I0.0466 J0.017
X68.5927 Y14.6685 I0.0797 J0.0872
X68.6108 Y14.6735 I-0.0223 J0.116 F50.
G2 X68.6226 Y14.673 I0.0053 J-0.0145
G1 X68.648 Y14.6601 F60.
G2 X68.6724 Y14.5599 I-0.0423 J-0.0633
G1 X68.5525 Y14.5468
G2 X68.5407 Y14.5734 I-0.0014 J0.0153
G1 X68.6217 Y14.6488
X68.631 Y14.6574 F50.
G2 X68.648 Y14.6601 I0.0105 J-0.0113
G1 X68.7059 Y14.6306 F60.
G2 X68.7324 Y14.5691 I-0.0058 J-0.039
G1 X68.6699 Y14.5613
G2 X68.6559 Y14.5678 I-0.0014 J0.0153
X68.6565 Y14.5787 I0.0072 J0.0051
G1 X68.6586 Y14.5809
G2 X68.7079 Y14.5858 I0.0277 J-0.028
X68.7184 Y14.5755 I-0.0216 J-0.0329 F50.
G3 X68.7324 Y14.5691 I0.0126 J0.0089
G1 X68.746 Y14.5708 F60.
X68.7519 Y14.5718
X68.7573 Y14.5743
X68.7622 Y14.5778
X68.7664 Y14.5821
X68.7687 Y14.5851
X68.7705 Y14.5892
Y14.5937
X68.7685 Y14.5977
X68.7651 Y14.6005
G3 X68.7416 Y14.6036 I-0.0166 J-0.0357
X68.7283 Y14.5907 I0.0029 J-0.0163
X68.746 Y14.5708 I0.0162 J-0.0034 F50.
G1 X68.7779 Y14.5747 F60.
X68.7838 Y14.5757
X68.7872 Y14.5789
X68.7884 Y14.5834
X68.7871 Y14.5879
X68.7837 Y14.591
G3 X68.7801 Y14.5925 I-0.0178 J-0.0383
X68.7783 Y14.593 I-0.0031 J-0.0087
X68.7679 Y14.5841 I-0.0012 J-0.0091 F50.
X68.7779 Y14.5747 I0.0092 J-0.0002
G1 X68.7929 Y14.5766 F60.
X68.7947 Y14.5768
X68.7961 Y14.577
X68.7991 Y14.5775
X68.8004 Y14.5795
X68.8001 Y14.5818
X68.7985 Y14.5835
X68.7971 Y14.5841 F50.
X68.7928 Y14.5784
X68.7961 Y14.577
X68.8022 Y14.5777 F60.
X68.8035 Y14.5779
X68.805 Y14.5781
X68.8062 Y14.5783
X68.8065 Y14.5788
X68.8064 Y14.5793
X68.806 Y14.5797
X68.8053 Y14.58 F50.
X68.8046 Y14.5801
X68.8041 Y14.5797
X68.8039 Y14.5791
X68.8042 Y14.5783
X68.805 Y14.5781
X68.8073 Y14.5783 F60.
X68.8078 Y14.5788
X68.7059 Y14.6306
G0 Z-0.0992
X67.681 Y14.4555
G1 Z-0.1146 F50.
X67.6807 Y14.4553 Z-0.1176
X67.68 Y14.4548 Z-0.1205
X67.6789 Y14.4539 Z-0.1232
X67.6774 Y14.4528 Z-0.1255
X67.6756 Y14.4513 Z-0.1274
X67.6735 Y14.4497 Z-0.1288
X67.6712 Y14.4479 Z-0.1297
X67.6688 Y14.4461 Z-0.13
G2 X67.6404 Y14.4338 I-0.0382 J0.0492
G1 X67.543 Y14.4217 F60.
G2 X67.3201 Y14.6502 I0.0329 J0.255
G3 X67.4082 Y14.7738 I-0.2744 J0.2889
G2 X67.4366 Y14.7718 I0.0138 J-0.0069
X67.4239 Y14.6994 I-0.0731 J-0.0245
X67.3498 Y14.6561 I-0.0925 J0.0734
X67.331 Y14.6547 I-0.0184 J0.1167 F50.
G3 X67.3201 Y14.6502 I0. J-0.0154
G1 X67.314 Y14.6436 F60.
X67.3023 Y14.6337
X67.3012 Y14.633
G3 X67.3023 Y14.4657 I0.1029 J-0.083
X67.3267 Y14.4784 I0.009 J0.0125
G1 X67.3249 Y14.6202
X67.3247 Y14.6219
G3 X67.3012 Y14.633 I-0.0153 J-0.002 F50.
X67.2483 Y14.5952 I0.0044 J-0.0622 F60.
X67.3257 Y14.452 I0.0913 J-0.0432
G1 X67.3292 Y14.4444
X67.3333 Y14.437
X67.3378 Y14.43
X67.3428 Y14.4232
X67.3482 Y14.4168
X67.354 Y14.4108
X67.3602 Y14.4051
X67.3667 Y14.3999
X67.543 Y14.4217
G3 X67.5496 Y14.4494 I-0.0024 J0.0152
X67.5436 Y14.4411 I-0.003 J-0.0041
X67.5511 Y14.443 I0.003 J0.0041
X67.4594 Y14.9131 I-0.3526 J0.1752
G1 X67.445 Y14.9253 F50.
G2 X67.4393 Y14.9356 I0.0096 J0.012
G1 X67.4391 Y14.9381 F60.
X67.434 Y14.985
X67.4321 Y14.9979
G2 X67.6208 Y15.1826 I0.2141 J-0.03
G1 X67.8417 Y15.0702
G2 X67.8497 Y15.057 I-0.0075 J-0.0135
X67.8191 Y15.0185 I-0.0387 J-0.0007
X67.6297 Y15.1547 I-0.033 J0.154
X67.6287 Y15.1695 I0.1565 J0.0178 F50.
G3 X67.6208 Y15.1826 I-0.0154 J-0.0003
G1 X67.572 Y15.2074 F60.
X67.5629 Y15.2103
X67.5535 Y15.2125
X67.5441 Y15.2142
X67.5346 Y15.2153
X67.525 Y15.2159
X67.5155 Y15.2158
X67.5059 Y15.2151
X67.4964 Y15.2139
X67.487 Y15.2121
X67.4777 Y15.2097
X67.4686 Y15.2067
X67.4597 Y15.2032
X67.451 Y15.1992
X67.4426 Y15.1946
X67.4345 Y15.1895
X67.4267 Y15.1839
X67.4193 Y15.1779
X67.4122 Y15.1714
X67.4056 Y15.1645
X67.3994 Y15.1572
X67.3936 Y15.1495
X67.3884 Y15.1415
X67.3836 Y15.1332
X67.3794 Y15.1246
G2 X67.4321 Y14.9979 I-0.2988 J-0.1987
G3 X67.4421 Y14.9862 I0.0151 J0.0028
X67.4642 Y14.9934 I0.0064 J0.0179
X67.4101 Y15.1159 I-0.0649 J0.0446
X67.3954 Y15.1166 I-0.0109 J-0.078 F50.
G2 X67.3817 Y15.1236 I-0.0008 J0.0154
G1 X67.3726 Y15.1387 F60.
X67.369 Y15.1445
X67.3665 Y15.1521
X67.3646 Y15.1598
X67.3633 Y15.1676
X67.3627 Y15.1755
X67.3626 Y15.1835
X67.3631 Y15.1914
X67.3642 Y15.1993
X67.366 Y15.207
X67.3683 Y15.2146
X67.3712 Y15.222
X67.3747 Y15.2291
X67.3787 Y15.236
X67.3832 Y15.2425
X67.3882 Y15.2487
X67.3936 Y15.2545
X67.3995 Y15.2598
X67.4058 Y15.2647
X67.4124 Y15.269
X67.4194 Y15.2729
X67.4266 Y15.2762
X67.434 Y15.2789
X67.572 Y15.2074
G2 X67.5799 Y15.1943 I-0.0075 J-0.0135
X67.526 Y15.1535 I-0.0418 J-0.0008
X67.4437 Y15.2494 I0.0346 J0.1129
X67.4425 Y15.2642 I0.1169 J0.017 F50.
G3 X67.4345 Y15.2774 I-0.0154 J-0.0003
G1 X67.4095 Y15.2901 F60.
G3 X67.2923 Y15.2212 I-0.0297 J-0.0835
G1 X67.2947 Y15.2195
X67.2974 Y15.2184
X67.3001 Y15.2177
X67.3028 Y15.2174
X67.3056 Y15.2177
X67.3082 Y15.2184
X67.3106 Y15.2195
X67.325 Y15.2258
X67.4082 Y15.2626
X67.4111 Y15.2642
G3 X67.4095 Y15.2901 I-0.009 J0.0125 F50.
G1 X67.3492 Y15.3208 F60.
G3 X67.2471 Y15.2975 I-0.036 J-0.0774
G1 X67.2474 Y15.2944
X67.2484 Y15.2914
X67.2499 Y15.2886
X67.2518 Y15.2862
X67.2542 Y15.2842
X67.2569 Y15.2828
X67.2598 Y15.2819
X67.2627 Y15.2815
X67.2657 Y15.2818
X67.2709 Y15.2825
G3 X67.3508 Y15.2949 I0.0218 J0.1232
X67.3492 Y15.3208 I-0.0091 J0.0125 F50.
G1 X67.2788 Y15.3566 F60.
G3 X67.2483 Y15.344 I-0.0089 J-0.0217
X67.3267 Y15.2017 I0.0903 J-0.043
G1 X67.3492 Y15.1687
X67.366 Y15.1493
X67.369 Y15.1445
G3 X67.3822 Y15.1377 I0.0128 J0.0086
G1 X67.3845 Y15.1383 Z-0.1298
X67.3867 Y15.1389 Z-0.1293
X67.3889 Y15.1395 Z-0.1284
X67.3905 Y15.1408 Z-0.127
X67.3919 Y15.142 Z-0.1254
X67.3931 Y15.1431 Z-0.1235
X67.3941 Y15.1439 Z-0.1214
X67.3946 Y15.1446 Z-0.1192
X67.3949 Y15.145 Z-0.1169
X67.395 Y15.1452 Z-0.1146
G0 Z0.4
X67.6184 Y6.511
Z0.1
G3 X67.5159 Y6.484 Z0.0791 I-0.0384 J-0.0622 F50.
X67.548 Y6.383 Z0.0582 I0.0641 J-0.0352
X67.6473 Y6.4201 Z0.0373 I0.032 J0.0658
X67.6052 Y6.5174 Z0.0164 I-0.0673 J0.0286
X67.5101 Y6.4705 Z-0.0045 I-0.0252 J-0.0687
X67.6498 Y6.427 Z-0.0451 I0.0698 J-0.0217
X67.5101 Y6.4705 Z-0.0856 I-0.0698 J0.0217
X67.569 Y6.3765 Z-0.1078 I0.0698 J-0.0217
X67.6531 Y6.4488 Z-0.13 I0.011 J0.0723
X67.5068 I-0.0731 J0.
X67.6529 Y6.4428 I0.0731 J0.
G1 X67.6531 Y6.4488
G3 X67.4973 Y6.5724 I-0.0819 J0.0568 F60.
G1 X67.4892 Y6.567
X67.4814 Y6.5612
X67.474 Y6.5548
X67.4671 Y6.548
X67.4605 Y6.5408
X67.4545 Y6.5332
X67.4489 Y6.5252
X67.4439 Y6.5169
X67.4393 Y6.5082
X67.4354 Y6.4994
X67.432 Y6.4902
X67.4291 Y6.4809
X67.4269 Y6.4714
X67.4253 Y6.4618
X67.4243 Y6.4522
X67.4239 Y6.4424
X67.4241 Y6.4327
X67.4249 Y6.423
X67.4263 Y6.4134
X67.4283 Y6.4038
X67.431 Y6.3945
X67.4342 Y6.3853
X67.438 Y6.3763
X67.4423 Y6.3676
X67.4472 Y6.3592
X67.4526 Y6.3511
X67.4585 Y6.3433
X67.4649 Y6.336
X67.4717 Y6.329
X67.479 Y6.3225
X67.4866 Y6.3165
X67.4946 Y6.311
X67.503 Y6.306
X67.5116 Y6.3015
X67.5205 Y6.2975
X67.5296 Y6.2942
X67.539 Y6.2914
X67.5485 Y6.2892
X67.5581 Y6.2876
X67.5677 Y6.2867
X67.5775 Y6.2863
X67.5872 Y6.2865
X67.5969 Y6.2874
X67.6065 Y6.2889
X67.616 Y6.291
X67.6254 Y6.2936
X67.6346 Y6.2969
X67.6435 Y6.3007
X67.6522 Y6.3051
X67.6606 Y6.31
X67.6687 Y6.3154
X67.6764 Y6.3214
X67.6837 Y6.3278
X67.6906 Y6.3346
X67.6971 Y6.3419
X67.7031 Y6.3496
X67.7086 Y6.3576
X67.7135 Y6.366
X67.718 Y6.3747
X67.7219 Y6.3836
X67.7252 Y6.3927
X67.7279 Y6.4021
G3 X67.7248 Y6.6137 I-0.1215 J0.104
G1 X67.4594 Y6.6122
X67.4544
X67.4525
X67.4465 Y6.6119
X67.4425 Y6.61
X67.4397 Y6.6067
X67.4386 Y6.6024
G3 X67.4417 Y6.5922 I0.0172 J-0.0002
X67.4595 Y6.5893 I0.0104 J0.0073
X67.4525 Y6.6122 I-0.0075 J0.0103 F50.
G1 X67.4396 F60.
G2 X67.3848 Y6.4065 I-0.362 J-0.0138
G3 X67.4181 Y6.2682 I0.1086 J-0.047
G1 X67.4211 Y6.2688
X67.424 Y6.27
X67.4266 Y6.2716
X67.4288 Y6.2737
X67.4306 Y6.2761
X67.4319 Y6.2788
X67.4326 Y6.2817
X67.4328 Y6.2846
X67.4324 Y6.2875
X67.4314 Y6.2935
X67.4132 Y6.4011
X67.4123 Y6.4043
X67.4108 Y6.4071
G3 X67.3848 Y6.4065 I-0.0128 J-0.0086 F50.
G2 X67.3447 Y6.3519 I-0.1602 J0.0757 F60.
G3 X67.3316 Y6.3137 I0.0133 J-0.0259
X67.3539 Y6.315 I0.0105 J0.0113
G1 X67.3577 Y6.3196
X67.3675 Y6.3313
G3 X67.3701 Y6.3466 I-0.0118 J0.0099
X67.3447 Y6.3519 I-0.0144 J-0.0054 F50.
X67.3491 Y6.2978 I0.0039 J-0.0269 F60.
G1 X67.3484 Y6.2939
Y6.29
X67.3489 Y6.2861
X67.3499 Y6.2824
X67.3516 Y6.2788
X67.3537 Y6.2755
X67.3563 Y6.2726
X67.3594 Y6.2701
X67.3627 Y6.2681
X67.3664 Y6.2666
X67.3702 Y6.2657
X67.3741 Y6.2654
X67.7139 Y6.2971
X67.7247 Y6.3009
X67.7352 Y6.3052
X67.7455 Y6.3101
X67.7555 Y6.3156
X67.7653 Y6.3215
X67.7747 Y6.328
X67.7837 Y6.335
X67.7923 Y6.3424
X67.8006 Y6.3503
X67.8084 Y6.3586
X67.8157 Y6.3674
X67.8226 Y6.3765
X67.829 Y6.3859
X67.8348 Y6.3957
X67.8402 Y6.4058
X67.8449 Y6.4161
X67.8492 Y6.4267
X67.8528 Y6.4375
X67.8559 Y6.4485
X67.8584 Y6.4597
X67.8603 Y6.4709
X67.8616 Y6.4822
X67.8623 Y6.4936
Y6.505
X67.8618 Y6.5164
X67.8607 Y6.5278
X67.8589 Y6.539
X67.8566 Y6.5502
X67.8537 Y6.5612
X67.8502 Y6.5721
X67.8461 Y6.5827
X67.8414 Y6.5931
X67.8362 Y6.6033
X67.8305 Y6.6131
X67.7232 Y6.6122
G3 X67.7102 Y6.6041 I0.0005 J-0.0154
X67.7279 Y6.5646 I0.0242 J-0.0129
X67.8078 Y6.5917 I0.0186 J0.0765
X67.8159 Y6.6041 I-0.0613 J0.0494 F50.
G2 X67.829 Y6.6122 I0.0136 J-0.0072
G1 X67.8547 F60.
G2 X67.8885 Y6.3155 I-0.0812 J-0.1595
G1 X67.7139 Y6.2971
G2 X67.7002 Y6.304 I-0.0009 J0.0154
X67.7089 Y6.3513 I0.029 J0.0191
X67.8676 Y6.3322 I0.0689 J-0.0959
X67.8765 Y6.3204 I-0.0897 J-0.0768 F50.
G3 X67.8902 Y6.3135 I0.0129 J0.0085
G1 X67.9356 Y6.3177 F60.
X67.9452 Y6.3228
X67.9545 Y6.3283
X67.9635 Y6.3344
X67.9721 Y6.341
X67.9804 Y6.3481
X67.9882 Y6.3556
X67.9956 Y6.3636
X68.0025 Y6.3719
X68.0089 Y6.3807
X68.0148 Y6.3898
X68.0202 Y6.3992
X68.025 Y6.409
X68.0293 Y6.4189
X68.0329 Y6.4292
X68.036 Y6.4396
X68.0385 Y6.4501
X68.0404 Y6.4608
X68.0417 Y6.4716
X68.0424 Y6.4824
Y6.4933
X68.0418 Y6.5041
X68.0406 Y6.5149
X68.0388 Y6.5256
X68.0364 Y6.5362
X68.0334 Y6.5466
X68.0298 Y6.5569
X68.0256 Y6.5669
X68.0208 Y6.5766
X68.0155 Y6.5861
X68.0097 Y6.5952
X68.0033 Y6.604
X67.9965 Y6.6125
X67.8547 Y6.6122
G3 X67.8398 Y6.5963 I0.0005 J-0.0154
X67.8506 Y6.5802 I0.0184 J0.0006
X67.9716 Y6.5946 I0.0484 J0.1077
X67.9855 Y6.6073 I-0.0725 J0.0932 F50.
G2 X67.9962 Y6.6122 I0.0113 J-0.0105
G1 X68.0294 F60.
G2 X68.0869 Y6.3318 I-0.0793 J-0.1624
G1 X67.9356 Y6.3177
G2 X67.9218 Y6.3246 I-0.0009 J0.0154
X67.9472 Y6.3886 I0.0351 J0.0231
X68.0642 Y6.3506 I0.0273 J-0.1149
X68.0731 Y6.3387 I-0.0897 J-0.0768 F50.
G3 X68.0869 Y6.3318 I0.0129 J0.0085
G1 X68.1232 Y6.3352 F60.
G3 X68.1732 Y6.6122 I-0.0849 J0.1583
G1 X68.0294
G3 X68.0145 Y6.5963 I0.0005 J-0.0154
X68.0238 Y6.582 I0.0166 J0.0006
X68.1486 Y6.5946 I0.0524 J0.1059
X68.1625 Y6.6073 I-0.0725 J0.0932 F50.
G2 X68.1732 Y6.6122 I0.0113 J-0.0105
G1 X68.2065 F60.
G2 X68.271 Y6.3493 I-0.0621 J-0.1546
G1 X68.1232 Y6.3352
G2 X68.1095 Y6.3421 I-0.0009 J0.0154
X68.1369 Y6.4069 I0.0353 J0.0233
X68.2487 Y6.3677 I0.0221 J-0.116
X68.2576 Y6.3559 I-0.0897 J-0.0768 F50.
G3 X68.2714 Y6.349 I0.0129 J0.0085
G1 X68.3003 Y6.3517 F60.
G3 X68.3501 Y6.6119 I-0.0618 J0.1467
G1 X68.2065 Y6.6122
G3 X68.1916 Y6.5963 I0.0005 J-0.0154
X68.2008 Y6.5821 I0.0165 J0.0006
X68.3258 Y6.5946 I0.0525 J0.1058
X68.3397 Y6.6073 I-0.0725 J0.0932 F50.
G2 X68.3504 Y6.6122 I0.0113 J-0.0105
G1 X68.3812 F60.
G2 X68.4491 Y6.3657 I-0.0506 J-0.1465
G1 X68.3003 Y6.3517
G2 X68.2866 Y6.3586 I-0.0009 J0.0154
X68.3135 Y6.4233 I0.0353 J0.0232
X68.4265 Y6.3843 I0.0233 J-0.1158
X68.4354 Y6.3725 I-0.0897 J-0.0768 F50.
G3 X68.4492 Y6.3656 I0.0129 J0.0085
G1 X68.4822 Y6.3686 F60.
G3 X68.5261 Y6.6124 I-0.0643 J0.1374
G1 X68.3812 Y6.6122
G3 X68.3664 Y6.5963 I0.0005 J-0.0154
X68.375 Y6.5827 I0.0159 J0.0006
X68.5013 Y6.5946 I0.0537 J0.1052
X68.5151 Y6.6073 I-0.0725 J0.0932 F50.
G2 X68.5259 Y6.6122 I0.0113 J-0.0105
G1 X68.5583 F60.
G2 X68.6236 Y6.3815 I-0.0486 J-0.1384
G1 X68.4822 Y6.3686
G2 X68.4684 Y6.3755 I-0.0009 J0.0154
X68.5 Y6.4413 I0.0355 J0.0234
X68.6006 Y6.4005 I0.0109 J-0.1176
X68.6095 Y6.3887 I-0.0897 J-0.0768 F50.
G3 X68.6233 Y6.3818 I0.0129 J0.0085
G1 X68.6522 Y6.3845 F60.
G3 X68.6964 Y6.6157 I-0.054 J0.1302
G1 X68.6627 Y6.6128
X68.6393 Y6.6122
X68.5583
G3 X68.5435 Y6.5963 I0.0005 J-0.0154
X68.5667 Y6.5681 I0.03 J0.001
X68.6729 Y6.5959 I0.0266 J0.1151
X68.6858 Y6.6096 I-0.0796 J0.0873 F50.
G2 X68.6961 Y6.6154 I0.0121 J-0.0096
G1 X68.7096 Y6.6164 F60.
X68.7167 Y6.6179
G2 X68.794 Y6.3981 I-0.0248 J-0.1322
G1 X68.6522 Y6.3845
G2 X68.6384 Y6.3914 I-0.0009 J0.0154
X68.6693 Y6.4571 I0.0355 J0.0234
X68.7718 Y6.4165 I0.0127 J-0.1174
X68.7807 Y6.4046 I-0.0897 J-0.0768 F50.
G3 X68.7944 Y6.3977 I0.0129 J0.0085
G1 X68.8269 Y6.4007 F60.
G3 X68.8939 Y6.4694 I-0.0239 J0.0903
X68.8675 Y6.4823 I-0.0152 J0.0022
G1 X68.8148 Y6.4267
X68.813 Y6.4244
X68.8117 Y6.4218
G3 X68.8269 Y6.4007 I0.0143 J-0.0057 F50.
G1 X68.882 Y6.4059 F60.
X68.8824 Y6.4065
X68.8973 Y6.4878
G3 X68.8689 Y6.6239 I-0.149 J0.04
X68.8458 Y6.608 I-0.0079 J-0.0132
G1 X68.8671 Y6.4884
G3 X68.8729 Y6.4788 I0.0152 J0.0027
X68.8973 Y6.4878 I0.0094 J0.0122 F50.
X68.9258 Y6.587 I-0.2258 J0.1186 F60.
G1 X68.8386 Y6.6435
G3 X68.78 Y6.6331 I-0.0246 J-0.0317
G1 X68.7686 Y6.6295
X68.7331 Y6.6212
X68.7167 Y6.6179
G3 X68.7057 Y6.6078 I0.0036 J-0.015
G1 X68.7053 Y6.6053 Z-0.1298
X68.7049 Y6.6029 Z-0.1291
X68.7055 Y6.6004 Z-0.128
X68.706 Y6.5981 Z-0.1263
X68.7064 Y6.5962 Z-0.1243
X68.7072 Y6.595 Z-0.1221
X68.7078 Y6.594 Z-0.1197
X68.7081 Y6.5935 Z-0.1172
X68.7083 Y6.5933 Z-0.1146
G0 Z0.4
X68.5997 Y9.1182
Z0.1
G3 X68.4972 Y9.0912 Z0.0791 I-0.0384 J-0.0622 F50.
X68.5293 Y8.9901 Z0.0582 I0.0641 J-0.0352
X68.6286 Y9.0273 Z0.0373 I0.032 J0.0658
X68.5865 Y9.1246 Z0.0164 I-0.0673 J0.0286
X68.5361 Y8.9872 Z-0.0242 I-0.0252 J-0.0687
X68.5865 Y9.1246 Z-0.0647 I0.0252 J0.0687
X68.5361 Y8.9872 Z-0.1052 I-0.0252 J-0.0687
X68.6345 Y9.0559 Z-0.13 I0.0252 J0.0687
X68.4882 I-0.0732 J0.
X68.6342 Y9.05 I0.0732 J0.
G1 X68.6345 Y9.0559
G3 X68.4786 Y9.1795 I-0.0819 J0.0568 F60.
G1 X68.4705 Y9.1742
X68.4627 Y9.1683
X68.4554 Y9.162
X68.4484 Y9.1552
X68.4419 Y9.1479
X68.4358 Y9.1403
X68.4302 Y9.1323
X68.4252 Y9.124
X68.4206 Y9.1154
X68.4167 Y9.1065
X68.4133 Y9.0974
X68.4105 Y9.0881
X68.4082 Y9.0786
X68.4066 Y9.069
X68.4056 Y9.0593
X68.4052 Y9.0496
X68.4054 Y9.0398
X68.4062 Y9.0301
X68.4076 Y9.0205
X68.4097 Y9.011
X68.4123 Y9.0016
X68.4155 Y8.9924
X68.4193 Y8.9834
X68.4236 Y8.9747
X68.4285 Y8.9663
X68.4339 Y8.9582
X68.4398 Y8.9505
X68.4462 Y8.9431
X68.453 Y8.9362
X68.4603 Y8.9297
X68.4679 Y8.9236
X68.4759 Y8.9181
X68.4843 Y8.9131
X68.4929 Y8.9086
X68.5018 Y8.9047
X68.511 Y8.9013
X68.5203 Y8.8985
X68.5298 Y8.8964
X68.5394 Y8.8948
X68.5491 Y8.8938
X68.5588 Y8.8934
X68.5685 Y8.8937
X68.5782 Y8.8946
X68.5878 Y8.896
X68.5973 Y8.8981
X68.6067 Y8.9008
X68.6159 Y8.904
X68.6248 Y8.9078
X68.6335 Y8.9122
X68.6419 Y8.9171
X68.65 Y8.9226
X68.6577 Y8.9285
X68.665 Y8.9349
X68.6719 Y8.9418
X68.6784 Y8.9491
X68.6844 Y8.9567
X68.6899 Y8.9648
X68.6949 Y8.9731
X68.6993 Y8.9818
X68.7032 Y8.9907
X68.7065 Y8.9999
X68.7092 Y9.0092
X68.7149 Y9.0184
X68.7201 Y9.0278
X68.7247 Y9.0376
X68.7287 Y9.0476
X68.7322 Y9.0578
X68.7351 Y9.0682
X68.7374 Y9.0787
X68.7391 Y9.0894
X68.7402 Y9.1001
X68.7407 Y9.1109
X68.7405 Y9.1217
X68.7398 Y9.1324
X68.7384 Y9.1431
X68.7365 Y9.1538
X68.7339 Y9.1642
X68.7307 Y9.1745
X68.727 Y9.1847
X68.7227 Y9.1946
X68.7179 Y9.2042
X68.7125 Y9.2135
X68.7066 Y9.2226
X68.7001 Y9.2312
X68.6932 Y9.2395
X68.6859 Y9.2474
X68.6781 Y9.2549
X68.6699 Y9.2619
X68.6613 Y9.2684
X68.6524 Y9.2744
X68.6431 Y9.2799
X68.6335 Y9.2849
X68.6237 Y9.2893
X68.6136 Y9.2932
X68.6033 Y9.2965
X68.5929 Y9.2992
X68.5823 Y9.3013
X68.5716 Y9.3028
X68.5609 Y9.3036
X68.5501 Y9.3039
X68.5393 Y9.3036
X68.5286 Y9.3026
X68.5179 Y9.3011
X68.5074 Y9.2989
X68.4969 Y9.2962
X68.4867 Y9.2928
X68.4766 Y9.2889
X68.4668 Y9.2844
X68.4573 Y9.2794
X68.4481 Y9.2738
X68.4391 Y9.2677
X68.4306 Y9.2612
X68.4224 Y9.2541
X68.4147 Y9.2466
X68.4049 Y9.2398
X68.3954 Y9.2325
X68.3863 Y9.2247
X68.3776 Y9.2165
X68.3694 Y9.2078
X68.3615 Y9.1988
X68.3542 Y9.1893
X68.3473 Y9.1795
X68.341 Y9.1694
X68.3351 Y9.1589
X68.3298 Y9.1482
X68.3251 Y9.1372
X68.3209 Y9.126
X68.3173 Y9.1146
X68.3142 Y9.103
X68.3118 Y9.0913
X68.3099 Y9.0795
X68.3087 Y9.0676
X68.308 Y9.0557
Y9.0437
X68.3085 Y9.0318
X68.3097 Y9.0199
X68.3114 Y9.008
X68.3138 Y8.9963
X68.3167 Y8.9847
X68.3202 Y8.9733
X68.3243 Y8.962
X68.329 Y8.951
X68.3342 Y8.9402
X68.3399 Y8.9297
X68.3462 Y8.9195
X68.353 Y8.9097
X68.3602 Y8.9002
X68.368 Y8.891
X68.3761 Y8.8823
X68.3847 Y8.874
X68.3938 Y8.8662
X68.4032 Y8.8588
X68.4129 Y8.8519
X68.423 Y8.8455
X68.4335 Y8.8396
X68.4442 Y8.8342
X68.4551 Y8.8294
X68.4663 Y8.8252
X68.4791 Y8.8214
X68.492 Y8.8182
X68.5051 Y8.8156
X68.5183 Y8.8136
X68.5316 Y8.8123
X68.5449 Y8.8115
X68.5582 Y8.8114
X68.5715 Y8.8119
X68.5848 Y8.8129
X68.5981 Y8.8147
X68.6112 Y8.817
X68.6242 Y8.8199
X68.6371 Y8.8234
X68.6498 Y8.8275
X68.6623 Y8.8322
X68.6745 Y8.8375
X68.6865 Y8.8433
X68.6982 Y8.8497
X68.7096 Y8.8566
X68.7207 Y8.864
X68.7314 Y8.8719
X68.7418 Y8.8803
X68.7517 Y8.8892
X68.7613 Y8.8985
X68.7703 Y8.9083
X68.779 Y8.9185
X68.7871 Y8.929
X68.7948 Y8.9399
X68.8019 Y8.9512
X68.8085 Y8.9628
X68.8146 Y8.9747
X68.8201 Y8.9868
X68.8251 Y8.9992
X68.8294 Y9.0118
X68.8332 Y9.0246
X68.8364 Y9.0375
X68.839 Y9.0506
X68.841 Y9.0638
X68.8423 Y9.0771
X68.8431 Y9.0904
X68.8432 Y9.1037
X68.8428 Y9.117
X68.8417 Y9.1303
X68.84 Y9.1436
X68.8377 Y9.1567
X68.8347 Y9.1697
X68.8312 Y9.1826
X68.8271 Y9.1953
X68.8224 Y9.2077
X68.8172 Y9.22
X68.8114 Y9.232
X68.805 Y9.2437
X68.7981 Y9.2551
X68.7907 Y9.2662
X68.7828 Y9.2769
X68.7744 Y9.2873
X68.7655 Y9.2972
X68.7561 Y9.3068
X68.7464 Y9.3159
X68.7362 Y9.3245
X68.7257 Y9.3326
X68.7147 Y9.3403
X68.7035 Y9.3474
X68.6919 Y9.3541
X68.68 Y9.3601
X68.6679 Y9.3656
X68.6555 Y9.3706
X68.3178 Y9.2347
X68.3078 Y9.2269
X68.2982 Y9.2185
X68.289 Y9.2097
X68.2802 Y9.2005
X68.2719 Y9.1908
X68.2641 Y9.1808
X68.2567 Y9.1703
X68.2499 Y9.1595
X68.2437 Y9.1484
X68.2379 Y9.1371
X68.2328 Y9.1254
X68.2282 Y9.1135
X68.2242 Y9.1014
X68.2208 Y9.0891
X68.218 Y9.0767
X68.2159 Y9.0641
X68.2143 Y9.0515
X68.2134 Y9.0388
X68.213 Y9.026
X68.2133 Y9.0133
X68.2143 Y9.0006
X68.2158 Y8.9879
X68.218 Y8.9754
X68.2208 Y8.9629
X68.2242 Y8.9507
X68.2281 Y8.9386
X68.2327 Y8.9267
X68.2379 Y8.915
X68.2436 Y8.9036
X68.2498 Y8.8925
X68.2566 Y8.8817
X68.264 Y8.8713
X68.2718 Y8.8612
X68.2801 Y8.8516
X68.2888 Y8.8423
X68.2981 Y8.8335
X68.3077 Y8.8252
X68.3177 Y8.8173
X68.3281 Y8.8099
X68.3239 Y8.8019
X68.326 Y8.8005
X68.3282 Y8.7997
X68.3307 Y8.7994
X68.6393
G3 X68.7073 Y8.7965 I0.0396 J0.1306
G1 X68.8936 Y9.1174
G3 X68.7685 Y9.4151 I-0.2394 J0.0746
G1 X68.6552 Y9.3698
G3 X68.6461 Y9.3574 I0.0062 J-0.0141
X68.6615 Y9.335 I0.0206 J-0.0023
X68.7565 Y9.3882 I0.0196 J0.0763
X68.7595 Y9.4027 I-0.0753 J0.023 F50.
G2 X68.7685 Y9.4151 I0.0153 J-0.0017
G1 X68.8035 Y9.4291 F60.
G2 X68.9873 Y9.2786 I0.0101 J-0.1752
G1 X68.8936 Y9.1174
G2 X68.88 Y9.1102 I-0.013 J0.0082
X68.8529 Y9.1341 I0.001 J0.0286
X68.9589 Y9.271 I0.1165 J0.0193
X68.9737 Y9.2714 I0.0105 J-0.1176 F50.
G3 X68.9873 Y9.2786 I0.0006 J0.0154
G1 X69.0092 Y9.3164 F60.
X69.0151 Y9.3265
G2 X68.8952 Y9.4658 I0.6009 J0.6387
G1 X68.8035 Y9.4291
G3 X68.7995 Y9.4034 I0.0062 J-0.0141
G1 X68.8018 Y9.4015 Z-0.1297
X68.804 Y9.3996 Z-0.1288
X68.806 Y9.3978 Z-0.1274
X68.8077 Y9.3963 Z-0.1255
X68.8092 Y9.395 Z-0.1232
X68.8102 Y9.3941 Z-0.1205
X68.8109 Y9.3935 Z-0.1176
X68.8111 Y9.3933 Z-0.1146
G0 Z-0.0992
X68.3638 Y9.2353
G1 Z-0.1146 F50.
X68.3636 Z-0.1176
X68.3627 Y9.2355 Z-0.1205
X68.3613 Y9.2357 Z-0.1232
X68.3594 Y9.236 Z-0.1255
X68.3571 Y9.2363 Z-0.1274
X68.3545 Y9.2368 Z-0.1288
X68.3516 Y9.2372 Z-0.1297
X68.3486 Y9.2377 Z-0.13
G3 X68.3178 Y9.2347 I-0.0097 J-0.0616
G1 X68.208 Y9.1908 F60.
G3 X68.1925 Y8.8263 I0.1594 J-0.1893
G1 X68.1965 Y8.804
X68.1988 Y8.8015
X68.2018 Y8.7999
X68.2051 Y8.7994
X68.3307
G3 X68.3437 Y8.8075 I-0.0005 J0.0154
X68.3397 Y8.8295 I-0.0159 J0.0085
X68.2263 Y8.8199 I-0.0521 J-0.059
X68.2182 Y8.8075 I0.0613 J-0.0494 F50.
G2 X68.2051 Y8.7994 I-0.0136 J0.0072
G1 X68.163 F60.
X68.1522 Y8.8045
X68.1416 Y8.8102
X68.1313 Y8.8165
X68.1213 Y8.8232
X68.1117 Y8.8304
X68.1025 Y8.8381
X68.0937 Y8.8463
X68.0853 Y8.8549
X68.0773 Y8.8639
X68.0698 Y8.8734
X68.0628 Y8.8832
X68.0564 Y8.8933
X68.0504 Y8.9037
X68.045 Y8.9145
X68.0401 Y8.9254
X68.0358 Y8.9367
X68.0321 Y8.9481
X68.0289 Y8.9597
X68.0263 Y8.9715
X68.0244 Y8.9833
X68.023 Y8.9953
X68.0223 Y9.0073
X68.0222 Y9.0193
X68.0227 Y9.0313
X68.0237 Y9.0433
X68.0254 Y9.0552
X68.0277 Y9.067
X68.0306 Y9.0787
X68.0341 Y9.0902
X68.0382 Y9.1015
X68.0428 Y9.1126
X68.048 Y9.1234
X68.0478 Y9.1266
X68.208 Y9.1908
G2 X68.2231 Y9.188 I0.0052 J-0.0145
X68.2268 Y9.1352 I-0.0238 J-0.0282
X68.0748 Y9.1151 I-0.0877 J0.0791
X68.0629 Y9.1239 I0.0642 J0.0991 F50.
G3 X68.0478 Y9.1266 I-0.0099 J-0.0118
G1 X68.0059 Y9.1099 F60.
G3 X68.0068 Y8.7994 I0.1551 J-0.1548
G1 X68.163
G3 X68.1761 Y8.8075 I-0.0005 J0.0154
X68.1478 Y8.8677 I-0.0366 J0.0195
X68.0276 Y8.8201 I-0.0237 J-0.1157
X68.0199 Y8.8075 I0.0965 J-0.0682 F50.
G2 X68.0068 Y8.7994 I-0.0136 J0.0072
G1 X67.9696 F60.
G2 X67.8623 Y9.0524 I0.0641 J0.1764
G1 X68.0059 Y9.1099
G2 X68.0211 Y9.1072 I0.0052 J-0.0145
X68.0359 Y9.0753 I-0.0269 J-0.0319
X68.0164 Y9.04 I-0.0417 J0.
X67.8894 Y9.0409 I-0.0628 J0.1
X67.8775 Y9.0497 I0.0642 J0.0991 F50.
G3 X67.8623 Y9.0524 I-0.0099 J-0.0118
G1 X67.8288 Y9.039 F60.
G3 X67.8156 Y8.7994 I0.1048 J-0.126
G1 X67.9696
G3 X67.9826 Y8.8075 I-0.0005 J0.0154
X67.9528 Y8.8684 I-0.0369 J0.0197
X67.8364 Y8.8201 I-0.0199 J-0.1164
X67.8287 Y8.8075 I0.0965 J-0.0682 F50.
G2 X67.8156 Y8.7994 I-0.0136 J0.0072
G1 X67.7819 F60.
G2 X67.6903 Y8.9843 I0.0337 J0.1319
G1 X67.8288 Y9.039
G2 X67.844 Y9.0363 I0.0052 J-0.0145
X67.8358 Y8.9661 I-0.0273 J-0.0324
X67.7183 Y8.9724 I-0.0533 J0.1054
X67.7064 Y8.9812 I0.0642 J0.0991 F50.
G3 X67.6913 Y8.9839 I-0.0099 J-0.0118
G1 X67.6626 Y8.9724 F60.
G3 X67.6411 Y8.7982 I0.0647 J-0.0964
G1 X67.7819 Y8.7994
G3 X67.7919 Y8.8261 I-0.0005 J0.0154
X67.772 Y8.8373 I-0.0333 J-0.0357
X67.667 Y8.817 I-0.0325 J-0.1135
X67.6532 Y8.8043 I0.0725 J-0.0932 F50.
G2 X67.6424 Y8.7994 I-0.0113 J0.0105
G1 X67.6177 F60.
G2 X67.5395 Y8.9246 I0.0134 J0.0954
G1 X67.6626 Y8.9724
G2 X67.6777 Y8.9697 I0.0052 J-0.0145
X67.6819 Y8.9563 I-0.0085 J-0.01
G1 X67.6816 Y8.9553
G2 X67.5687 Y8.9128 I-0.0743 J0.0261
X67.5566 Y8.9212 I0.0386 J0.0686 F50.
G3 X67.5415 Y8.9239 I-0.0099 J-0.0118
G1 X67.5181 Y8.9146 F60.
G3 X67.4944 Y8.7979 I0.0413 J-0.0692
G1 X67.4973 Y8.798
X67.5 Y8.7987
X67.5026 Y8.7998
X67.5049 Y8.8013
X67.5069 Y8.8031
X67.5086 Y8.8052
X67.5098 Y8.8076
X67.5107 Y8.8101
X67.5143 Y8.8216
X67.538 Y8.8954
X67.5387 Y8.8987
G3 X67.5181 Y8.9146 I-0.0153 J0.0014 F50.
G1 X67.4594 Y8.8911 F60.
X67.4566 Y8.89
X67.4554 Y8.8895
G3 X67.4342 Y8.8709 I0.0086 J-0.0311
X67.4571 Y8.8552 I0.0152 J-0.0024
G1 X67.4683 Y8.8617
G3 X67.4759 Y8.8736 I-0.0077 J0.0133
X67.4554 Y8.8895 I-0.0153 J0.0014 F50.
X67.425 Y8.8287 I0.0096 J-0.0428 F60.
G1 X67.4231 Y8.8257
X67.4218 Y8.8225
X67.421 Y8.819
X67.4209 Y8.8155
X67.4214 Y8.812
X67.4225 Y8.8087
X67.4241 Y8.8056
X67.4262 Y8.8028
X67.4288 Y8.8004
X67.4318 Y8.7985
X67.4376 Y8.7992
X67.4434 Y8.8003
X67.449 Y8.8018
G3 X67.4501 Y8.8411 I-0.0049 J0.0198
X67.425 Y8.8287 I-0.0061 J-0.0195 F50.
G1 X67.4195 Y8.8123 F60.
X67.4151 Y8.7998
X67.4155 Y8.7994
X67.6177
G3 X67.6305 Y8.807 I-0.0005 J0.0154
G1 X67.6312 Y8.8093 Z-0.1298
X67.6319 Y8.8115 Z-0.1293
X67.6326 Y8.8136 Z-0.1284
Y8.8148 Z-0.1277
X67.6321 Y8.8171 Z-0.1258
X67.6316 Y8.8191 Z-0.1235
X67.6313 Y8.8206 Z-0.1208
X67.6311 Y8.8215 Z-0.1179
X67.631 Y8.8217 Z-0.1162
X67.6309 Y8.8218 Z-0.1146
G0 Z0.4
X68.5546 Y10.9425
Z0.1
G3 X68.452 Y10.9155 Z0.0791 I-0.0384 J-0.0622 F50.
X68.4842 Y10.8144 Z0.0582 I0.0641 J-0.0352
X68.5481 Y10.946 Z0.0177 I0.032 J0.0658
X68.4842 Y10.8144 Z-0.0229 I-0.032 J-0.0658
X68.5481 Y10.946 Z-0.0634 I0.032 J0.0658
X68.4842 Y10.8144 Z-0.1039 I-0.032 J-0.0658
X68.5893 Y10.8802 Z-0.13 I0.032 J0.0658
X68.443 I-0.0732 J0.
X68.5891 Y10.8743 I0.0732 J0.
G1 X68.5893 Y10.8802
G3 X68.4335 Y11.0038 I-0.0819 J0.0568 F60.
G1 X68.4254 Y10.9985
X68.4176 Y10.9926
X68.4102 Y10.9863
X68.4032 Y10.9795
X68.3967 Y10.9722
X68.3906 Y10.9646
X68.3851 Y10.9566
X68.38 Y10.9483
X68.3755 Y10.9397
X68.3715 Y10.9308
X68.3681 Y10.9217
X68.3653 Y10.9124
X68.3631 Y10.9029
X68.3614 Y10.8933
X68.3604 Y10.8836
X68.36 Y10.8739
X68.3602 Y10.8641
X68.361 Y10.8544
X68.3625 Y10.8448
X68.3645 Y10.8353
X68.3671 Y10.8259
X68.3703 Y10.8167
X68.3741 Y10.8077
X68.3785 Y10.799
X68.3833 Y10.7906
X68.3887 Y10.7825
X68.3946 Y10.7748
X68.401 Y10.7674
X68.4078 Y10.7605
X68.4151 Y10.754
X68.4227 Y10.7479
X68.4308 Y10.7424
X68.4391 Y10.7374
X68.4477 Y10.7329
X68.4566 Y10.729
X68.4658 Y10.7256
X68.4751 Y10.7228
X68.4846 Y10.7207
X68.4942 Y10.7191
X68.5039 Y10.7181
X68.5136 Y10.7177
X68.5233 Y10.718
X68.533 Y10.7189
X68.5427 Y10.7203
X68.5522 Y10.7224
X68.5615 Y10.7251
X68.5707 Y10.7283
X68.5797 Y10.7321
X68.5884 Y10.7365
X68.5968 Y10.7414
X68.6048 Y10.7469
X68.6125 Y10.7528
X68.6199 Y10.7592
X68.6268 Y10.7661
X68.6332 Y10.7734
X68.6392 Y10.781
X68.6447 Y10.7891
X68.6497 Y10.7974
X68.6541 Y10.8061
X68.658 Y10.815
X68.6613 Y10.8242
X68.6641 Y10.8335
X68.6698 Y10.8427
X68.6749 Y10.8521
X68.6795 Y10.8619
X68.6836 Y10.8719
X68.687 Y10.8821
X68.6899 Y10.8925
X68.6922 Y10.903
X68.6939 Y10.9137
X68.695 Y10.9244
X68.6955 Y10.9352
X68.6954 Y10.946
X68.6946 Y10.9567
X68.6933 Y10.9674
X68.6913 Y10.978
X68.6887 Y10.9885
X68.6856 Y10.9988
X68.6818 Y11.009
X68.6776 Y11.0189
X68.6727 Y11.0285
X68.6673 Y11.0378
X68.6614 Y11.0468
X68.655 Y11.0555
X68.6481 Y11.0638
X68.6407 Y11.0717
X68.6329 Y11.0792
X68.6247 Y11.0862
X68.6161 Y11.0927
X68.6072 Y11.0987
X68.5979 Y11.1042
X68.5884 Y11.1092
X68.5785 Y11.1136
X68.5685 Y11.1175
X68.5582 Y11.1208
X68.5477 Y11.1235
X68.5372 Y11.1256
X68.5265 Y11.1271
X68.5157 Y11.1279
X68.505 Y11.1282
X68.4942 Y11.1279
X68.4834 Y11.1269
X68.4728 Y11.1254
X68.4622 Y11.1232
X68.4518 Y11.1205
X68.4415 Y11.1171
X68.4315 Y11.1132
X68.4217 Y11.1087
X68.4121 Y11.1037
X68.4029 Y11.0981
X68.394 Y11.092
X68.3854 Y11.0855
X68.3773 Y11.0784
X68.3695 Y11.0709
X68.3597 Y11.0641
X68.3502 Y11.0568
X68.3411 Y11.049
X68.3325 Y11.0408
X68.3242 Y11.0321
X68.3164 Y11.0231
X68.309 Y11.0136
X68.3022 Y11.0038
X68.2958 Y10.9937
X68.29 Y10.9832
X68.2847 Y10.9725
X68.2799 Y10.9615
X68.2757 Y10.9503
X68.2721 Y10.9389
X68.2691 Y10.9273
X68.2666 Y10.9156
X68.2648 Y10.9038
X68.2635 Y10.8919
X68.2629 Y10.88
X68.2628 Y10.868
X68.2634 Y10.8561
X68.2645 Y10.8442
X68.2663 Y10.8323
X68.2686 Y10.8206
X68.2715 Y10.809
X68.2751 Y10.7976
X68.2792 Y10.7863
X68.2838 Y10.7753
X68.289 Y10.7645
X68.2948 Y10.754
X68.301 Y10.7438
X68.3078 Y10.734
X68.3151 Y10.7245
X68.3228 Y10.7153
X68.331 Y10.7066
X68.3396 Y10.6983
X68.3486 Y10.6905
X68.358 Y10.6831
X68.3678 Y10.6762
X68.3779 Y10.6698
X68.3883 Y10.6639
X68.399 Y10.6585
X68.4099 Y10.6537
X68.4211 Y10.6495
X68.434 Y10.6458
X68.447 Y10.6427
X68.4601 Y10.6402
X68.4734 Y10.6383
X68.4867 Y10.6371
X68.5 Y10.6364
X68.5134
X68.5268 Y10.637
X68.5401 Y10.6382
X68.5533 Y10.64
X68.5665 Y10.6424
X68.5795 Y10.6454
X68.5924 Y10.649
X68.6051 Y10.6532
X68.6176 Y10.658
X68.6298 Y10.6634
X68.6418 Y10.6693
X68.6535 Y10.6758
X68.6649 Y10.6827
X68.676 Y10.6903
X68.6867 Y10.6983
X68.697 Y10.7068
X68.7069 Y10.7157
X68.7164 Y10.7251
X68.7255 Y10.735
X68.7341 Y10.7452
X68.7422 Y10.7559
X68.7498 Y10.7669
X68.7569 Y10.7782
X68.7635 Y10.7898
X68.7695 Y10.8018
X68.775 Y10.814
X68.7799 Y10.8264
X68.7842 Y10.8391
X68.788 Y10.8519
X68.7911 Y10.8649
X68.7936 Y10.878
X68.7956 Y10.8913
X68.7969 Y10.9046
X68.7976 Y10.9179
X68.7977 Y10.9313
X68.7972 Y10.9447
X68.796 Y10.958
X68.7943 Y10.9712
X68.7919 Y10.9844
X68.789 Y10.9974
X68.7854 Y11.0103
X68.7812 Y11.023
X68.7765 Y11.0355
X68.7712 Y11.0478
X68.7653 Y11.0598
X68.7589 Y11.0716
X68.752 Y11.083
X68.7445 Y11.0941
X68.7366 Y11.1048
X68.7281 Y11.1152
X68.7192 Y11.1252
X68.7098 Y11.1347
X68.7 Y11.1438
X68.6898 Y11.1524
X68.6792 Y11.1606
X68.6683 Y11.1683
X68.657 Y11.1754
X68.6453 Y11.182
X68.6334 Y11.1881
X68.6212 Y11.1936
X68.6088 Y11.1986
X68.5962 Y11.203
X68.5834 Y11.2068
X68.5704 Y11.21
X68.5573 Y11.2126
X68.5441 Y11.2145
X68.5308 Y11.2159
X68.5174 Y11.2167
X68.504 Y11.2168
X68.4907 Y11.2164
X68.4773 Y11.2153
X68.4641 Y11.2136
X68.4509 Y11.2113
X68.4379 Y11.2084
X68.4249 Y11.2049
X68.4122 Y11.2008
X68.3997 Y11.1961
G3 X68.4196 Y10.5491 I0.1055 J-0.3206
G1 X68.4349 Y10.546
X68.4503 Y10.5436
X68.4658 Y10.5417
X68.4813 Y10.5405
X68.4969 Y10.5399
X68.5125 Y10.54
X68.528 Y10.5406
X68.5436 Y10.5419
X68.5591 Y10.5438
X68.5744 Y10.5463
X68.5897 Y10.5495
X68.6048 Y10.5532
X68.6198 Y10.5576
X68.6346 Y10.5626
X68.6491 Y10.5681
X68.6635 Y10.5742
X68.6776 Y10.5809
X68.6913 Y10.5882
X68.7048 Y10.596
X68.718 Y10.6043
X68.7308 Y10.6132
X68.7433 Y10.6226
X68.7554 Y10.6324
X68.767 Y10.6428
X68.7783 Y10.6536
X68.789 Y10.6648
X68.7994 Y10.6765
X68.8092 Y10.6886
X68.8186 Y10.701
X68.8275 Y10.7139
X68.8358 Y10.727
X68.8436 Y10.7405
X68.8508 Y10.7543
X68.8575 Y10.7684
X68.8636 Y10.7827
X68.8692 Y10.7973
X68.8741 Y10.8121
X68.8785 Y10.8271
X68.8822 Y10.8422
X68.8854 Y10.8575
X68.8879 Y10.8728
X68.8898 Y10.8883
X68.891 Y10.9039
X68.8917 Y10.9194
Y10.935
X68.8911 Y10.9506
X68.8899 Y10.9661
X68.888 Y10.9816
X68.8856 Y10.997
X68.8825 Y11.0123
X68.8788 Y11.0274
X68.8745 Y11.0424
X68.8696 Y11.0572
X68.8641 Y11.0718
X68.858 Y11.0861
X68.8513 Y11.1002
X68.8441 Y11.1141
X68.8364 Y11.1276
X68.8281 Y11.1408
X68.8193 Y11.1536
X68.8099 Y11.1661
X68.8001 Y11.1782
X68.7898 Y11.1899
X68.779 Y11.2012
X68.7678 Y11.212
X68.7562 Y11.2224
X68.7442 Y11.2323
X68.7317 Y11.2417
X68.7189 Y11.2506
X68.7058 Y11.259
X68.6923 Y11.2668
X68.6786 Y11.2741
X68.6645 Y11.2809
X68.6502 Y11.287
X68.6356 Y11.2926
X68.6209 Y11.2976
X68.6059 Y11.302
X68.5908 Y11.3058
X68.5755 Y11.309
X68.5602 Y11.3116
X68.5447 Y11.3135
X68.5292 Y11.3149
X68.5136 Y11.3156
X68.498
X68.4824 Y11.3151
X68.4669 Y11.3139
X68.4514 Y11.3121
X68.436 Y11.3097
X68.4207 Y11.3067
X68.4056 Y11.303
X68.3906 Y11.2988
X68.3758 Y11.2939
X68.3612 Y11.2885
X68.3468 Y11.2824
X68.3327 Y11.2758
X68.3188 Y11.2687
X68.3053 Y11.261
X68.292 Y11.2527
X68.2792 Y11.244
X68.2666 Y11.2347
X68.2545 Y11.2249
X68.2428 Y11.2146
X68.2315 Y11.2039
G3 X68.0729 Y10.8834 I0.2298 J-0.3132
X68.9624 Y10.8101 I0.4479 J0.0009
G1 X68.9673 Y10.826
X68.9716 Y10.8422
X68.9752 Y10.8584
X68.9783 Y10.8748
X68.9807 Y10.8913
X68.9825 Y10.9079
X68.9837 Y10.9246
X68.9843 Y10.9412
Y10.9579
X68.9836 Y10.9746
X68.9823 Y10.9912
X68.9804 Y11.0078
X68.9778 Y11.0243
X68.9747 Y11.0407
X68.9709 Y11.0569
X68.9665 Y11.073
X68.9616 Y11.0889
X68.956 Y11.1047
X68.9498 Y11.1202
X68.9431 Y11.1354
X68.9358 Y11.1504
X68.928 Y11.1652
X68.9196 Y11.1796
X68.9106 Y11.1937
X68.9012 Y11.2074
X68.8912 Y11.2208
X68.8808 Y11.2338
X68.8699 Y11.2464
X68.8585 Y11.2586
X68.8466 Y11.2703
X68.8343 Y11.2816
X68.8216 Y11.2925
X68.8086 Y11.3028
X68.7951 Y11.3126
X68.7813 Y11.322
X68.7671 Y11.3308
X68.7526 Y11.3391
X68.7378 Y11.3468
X68.7228 Y11.354
G3 X68.1229 Y11.2461 I-0.2296 J-0.445
G1 X68.0493 Y11.1358
G3 X68.314 Y10.3804 I0.453 J-0.2654
G1 X68.4751 Y10.3479
X68.4935 Y10.3467
X68.5119 Y10.3462
X68.5304 Y10.3463
X68.5488 Y10.3469
X68.5672 Y10.3482
X68.5856 Y10.3501
X68.6039 Y10.3526
X68.622 Y10.3557
X68.6401 Y10.3594
X68.6581 Y10.3637
X68.6759 Y10.3686
X68.6935 Y10.374
X68.7109 Y10.3801
X68.7281 Y10.3867
X68.7451 Y10.3938
X68.7619 Y10.4016
X68.7784 Y10.4098
X68.7946 Y10.4187
X68.8105 Y10.428
X68.8261 Y10.4379
X68.8414 Y10.4482
X68.8563 Y10.4591
X68.8708 Y10.4704
X68.885 Y10.4823
X68.8988 Y10.4945
X68.9121 Y10.5073
X68.925 Y10.5204
X68.9375 Y10.534
X68.9496 Y10.548
X68.9611 Y10.5624
X68.9722 Y10.5771
X68.9828 Y10.5922
X68.9929 Y10.6077
X69.0025 Y10.6235
X69.0115 Y10.6395
X69.02 Y10.6559
X69.028 Y10.6725
X69.0354 Y10.6894
X69.0423 Y10.7066
X69.0486 Y10.7239
X69.0543 Y10.7414
X69.0594 Y10.7592
X69.064 Y10.777
X69.068 Y10.7951
X69.0713 Y10.8132
X69.0741 Y10.8314
X69.0763 Y10.8498
X69.0778 Y10.8681
X68.9442 Y11.2712
G3 X68.7228 Y11.4601 I-0.3387 J-0.1728
G2 X68.4163 Y11.4576 I-0.1559 J0.3185
G3 X68.2574 Y11.4513 I-0.0724 J-0.1819
X68.2707 Y11.4279 I0.0131 J-0.008
G1 X68.4088 Y11.4291
X68.4119 Y11.4295
X68.4148 Y11.4304
X68.4175 Y11.4319
G3 X68.4164 Y11.4579 I-0.0088 J0.0126 F50.
G2 X68.3345 Y11.5114 I0.0911 J0.2289 F60.
G1 X68.3327 Y11.5143
X68.3306 Y11.5169
X68.328 Y11.5191
X68.3251 Y11.521
X68.322 Y11.5223
X68.3187 Y11.5232
X68.3153 Y11.5235
X68.3119 Y11.5233
X68.3086 Y11.5226
X68.3054 Y11.5214
X68.3025 Y11.5197
X68.3012 Y11.517
X68.3004 Y11.5141
X68.3002 Y11.5111
X68.3006 Y11.5081
X68.3016 Y11.5053
X68.3031 Y11.5027
X68.3106 Y11.4922
X68.3113 Y11.4913
G3 X68.3293 Y11.4859 I0.0125 J0.009
X68.3345 Y11.5114 I-0.0055 J0.0144 F50.
G1 X68.3116 Y11.5319 F60.
X68.3109 Y11.5324
X68.1224 Y11.2466
G3 X68.1338 Y11.2233 I0.0131 J-0.008
G1 X68.1368 Y11.2229 Z-0.1297
X68.1397 Y11.2226 Z-0.1288
X68.1423 Y11.2223 Z-0.1274
X68.1446 Y11.2221 Z-0.1255
X68.1465 Y11.2219 Z-0.1232
X68.1479 Y11.2217 Z-0.1205
X68.1488 Y11.2216 Z-0.1176
X68.1491 Z-0.1146
G0 Z-0.0992
X68.9422 Y11.2252
G1 Z-0.1146 F50.
Y11.2255 Z-0.1176
X68.9424 Y11.2264 Z-0.1205
X68.9427 Y11.2278 Z-0.1232
X68.9431 Y11.2296 Z-0.1255
X68.9436 Y11.2319 Z-0.1274
X68.9442 Y11.2345 Z-0.1288
X68.9448 Y11.2373 Z-0.1297
X68.9454 Y11.2403 Z-0.13
G3 X68.9442 Y11.2712 I-0.0609 J0.0131
G1 X68.8906 Y11.4304 F60.
G3 X68.8079 Y11.5159 I-0.1105 J-0.0241
X68.8059 Y11.4955 I0.0105 J-0.0113
G1 X68.8109 Y11.4886
X68.8634 Y11.4169
G3 X68.8736 Y11.4108 I0.0124 J0.0091
X68.8906 Y11.4304 I0.0023 J0.0152 F50.
G1 X68.8554 Y11.5348 F60.
X68.8531 Y11.5408
X68.8515 Y11.5435
X68.8482 Y11.5471
X68.8436 Y11.5487
X68.8388 Y11.5481
X68.8348 Y11.5453
G3 X68.8295 Y11.5372 I0.0341 J-0.0281
X68.8372 Y11.5177 I0.0125 J-0.0063
X68.8554 Y11.5348 I0.0048 J0.0132 F50.
G1 X68.8488 Y11.5545 F60.
X68.8475 Y11.5583
X68.8469 Y11.559
G2 X68.7228 Y11.4601 I-0.2918 J0.2387
G3 X68.7194 Y11.4343 I0.0065 J-0.014
G1 X68.7217 Y11.4324 Z-0.1297
X68.7239 Y11.4305 Z-0.1288
X68.7259 Y11.4288 Z-0.1274
X68.7277 Y11.4273 Z-0.1255
X68.7291 Y11.4261 Z-0.1232
X68.7302 Y11.4252 Z-0.1205
X68.7309 Y11.4246 Z-0.1176
X68.7311 Y11.4244 Z-0.1146
G0 Z-0.0992
X69.0505 Y10.9034
G1 Z-0.1146 F50.
X69.0507 Y10.9032 Z-0.1176
X69.0514 Y10.9026 Z-0.1205
X69.0525 Y10.9017 Z-0.1232
X69.0539 Y10.9004 Z-0.1255
X69.0557 Y10.8989 Z-0.1274
X69.0577 Y10.8972 Z-0.1288
X69.0599 Y10.8953 Z-0.1297
X69.0622 Y10.8933 Z-0.13
G2 X69.0799 Y10.868 I-0.0406 J-0.0473
G1 X69.1162 Y10.7603 F60.
G2 X69.1045 Y10.6301 I-0.1313 J-0.0538
G3 X68.8738 Y10.3867 I0.4625 J-0.6694
G2 X68.7549 Y10.2937 I-0.1929 J0.1239
G1 X68.4751 Y10.3479
G2 X68.482 Y10.3779 I0.0035 J0.015
X68.4935 Y10.3594 I-0.0035 J-0.015
X68.4749 Y10.3479 I-0.015 J0.0035
G1 X68.3355 Y10.3816
G2 X68.3427 Y10.4116 I0.0036 J0.015
X68.3443 Y10.3821 I-0.0036 J-0.015
X68.3135 Y10.3792 I-0.0211 J0.0586 F50.
G1 X68.1338 Y10.414 F60.
G2 X67.8976 Y10.7387 I0.1913 J0.3873
G3 X67.9825 Y11.0345 I-0.7275 J0.3687
G1 X68.0493 Y11.1358
G2 X68.0772 Y11.1286 I0.0125 J-0.0089
G1 X68.1512 Y10.4335
X68.1515 Y10.4309 F50.
G2 X68.1338 Y10.414 I-0.0153 J-0.0016
G1 X67.9825 Y10.4433 F60.
G2 X67.8227 Y10.6567 I0.1259 J0.2607
G1 X67.8332 Y10.6664
X67.8652 Y10.6984
X67.8801 Y10.7134
X67.8887 Y10.7245
X67.8976 Y10.7387
G2 X67.9115 Y10.7453 I0.0127 J-0.0087
X67.9368 Y10.7049 I-0.0022 J-0.0295
X67.8522 Y10.6561 I-0.0731 J0.0292
X67.8379 Y10.6596 I0.0115 J0.0779 F50.
G3 X67.8227 Y10.6567 I-0.0051 J-0.0145
G1 X67.8183 Y10.6526 F60.
X67.8037 Y10.643
G3 X67.8068 Y10.4774 I0.1009 J-0.0809
G1 X67.9825 Y10.4433
G3 X67.9969 Y10.4489 I0.0024 J0.0152
