%
(971-23-P-0078_BUTTERFLY FISH GEARBOX PLATE_1565 ONE PASS)
(T1  D=0.1565 CR=0. - ZMIN=-0.2175 - FLAT END MILL)
G90 G94 G17 G91.1
G64 P0.001 Q0.001
G20
G53 G0 Z0.
(.3 CIRCLUAR THROUGH HOLE 3)
M9
T1 M6
S22000 M3
G4 P10.
G54
M7
G0 X74.9661 Y7.1889
G43 Z0.6 H1
G0 Z0.13
G1 Z0.0657 F40.
G18 G2 X74.9817 Z0.05 I0.0157 K0.
G1 X74.9896
G17 G3 X75.0007 Y7.2 I0. J0.0111
X74.9562 Z0.0323 I-0.0223 J0.
X75.0007 Z0.0146 I0.0223 J0.
X74.963 Y7.216 Z0.0014 I-0.0223 J0.
X74.9939 Y7.184 Z-0.0164 I0.0155 J-0.016
X74.963 Y7.216 Z-0.0341 I-0.0155 J0.016
X74.9777 Y7.1778 Z-0.0473 I0.0155 J-0.016
X74.9792 Y7.2222 Z-0.065 I0.0008 J0.0222
X74.9777 Y7.1778 Z-0.0827 I-0.0008 J-0.0222
X74.9949 Y7.2149 Z-0.0959 I0.0008 J0.0222
X74.9619 Y7.1851 Z-0.1136 I-0.0165 J-0.0149
X74.9949 Y7.2149 Z-0.1314 I0.0165 J0.0149
X74.9619 Y7.1851 Z-0.1491 I-0.0165 J-0.0149
X74.9949 Y7.2149 Z-0.1668 I0.0165 J0.0149
X74.9619 Y7.1851 Z-0.1845 I-0.0165 J-0.0149
X74.9928 Y7.183 Z-0.1932 I0.0165 J0.0149
X74.9641 Y7.217 Z-0.2109 I-0.0143 J0.017
X74.9572 Y7.1934 Z-0.2175 I0.0143 J-0.017
X74.9997 Y7.2066 I0.0213 J0.0066
X74.9572 Y7.1934 I-0.0213 J-0.0066
X74.9711 Y7.1861 I0.0106 J0.0033
G1 X74.9786 Y7.1884
X74.9815 Y7.1893 Z-0.2172
X74.9843 Y7.1902 Z-0.2163
X74.9869 Y7.191 Z-0.2149
X74.9891 Y7.1917 Z-0.2129
X74.991 Y7.1922 Z-0.2105
X74.9924 Y7.1927 Z-0.2078
X74.9932 Y7.1929 Z-0.2049
X74.9935 Y7.193 Z-0.2018
G0 Z0.4
X74.6999 Y11.0111
Z0.13
G1 Z0.0657 F40.
G18 G3 X74.6842 Z0.05 I-0.0157 K0.
G1 X74.6764
G17 G3 X74.6652 Y11. I0. J-0.0111
X74.7098 Z0.0323 I0.0223 J0.
X74.6652 Z0.0146 I-0.0223 J0.
X74.703 Y10.984 Z0.0014 I0.0223 J0.
X74.672 Y11.016 Z-0.0164 I-0.0155 J0.016
X74.703 Y10.984 Z-0.0341 I0.0155 J-0.016
X74.6883 Y11.0222 Z-0.0473 I-0.0155 J0.016
X74.6867 Y10.9778 Z-0.065 I-0.0008 J-0.0222
X74.7077 Y10.9906 Z-0.0716 I0.0008 J0.0222
X74.6673 Y11.0094 Z-0.0893 I-0.0202 J0.0094
X74.671 Y10.9851 Z-0.0959 I0.0202 J-0.0094
X74.704 Y11.0149 Z-0.1136 I0.0165 J0.0149
X74.6802 Y11.021 Z-0.1202 I-0.0165 J-0.0149
X74.6948 Y10.979 Z-0.1379 I0.0073 J-0.021
X74.6802 Y11.021 Z-0.1557 I-0.0073 J0.021
X74.6774 Y10.9802 Z-0.1689 I0.0073 J-0.021
X74.6976 Y11.0198 Z-0.1866 I0.0101 J0.0198
X74.6732 Y11.017 Z-0.1932 I-0.0101 J-0.0198
X74.7018 Y10.983 Z-0.2109 I0.0143 J-0.017
X74.7088 Y11.0066 Z-0.2175 I-0.0143 J0.017
X74.6662 Y10.9934 I-0.0213 J-0.0066
X74.7088 Y11.0066 I0.0213 J0.0066
X74.6949 Y11.0139 I-0.0106 J-0.0033
G1 X74.6874 Y11.0116
X74.6845 Y11.0107 Z-0.2172
X74.6817 Y11.0098 Z-0.2163
X74.6791 Y11.009 Z-0.2149
X74.6768 Y11.0083 Z-0.2129
X74.6749 Y11.0078 Z-0.2105
X74.6736 Y11.0073 Z-0.2078
X74.6727 Y11.0071 Z-0.2049
X74.6724 Y11.007 Z-0.2018
G0 Z0.4
X74.7982 Y11.9889
Z0.13
G1 Z0.0657 F40.
G18 G2 X74.8138 Z0.05 I0.0156 K0.
G1 X74.8217
G17 G3 X74.8328 Y12. I0. J0.0111
X74.7883 Z0.0323 I-0.0222 J0.
X74.8328 Z0.0146 I0.0222 J0.
X74.7951 Y12.016 Z0.0014 I-0.0223 J0.
X74.826 Y11.984 Z-0.0164 I0.0155 J-0.016
X74.7951 Y12.016 Z-0.0341 I-0.0155 J0.016
X74.8098 Y11.9778 Z-0.0473 I0.0155 J-0.016
X74.8113 Y12.0222 Z-0.065 I0.0008 J0.0222
X74.7904 Y12.0094 Z-0.0716 I-0.0008 J-0.0222
X74.8307 Y11.9906 Z-0.0893 I0.0202 J-0.0094
X74.827 Y12.0149 Z-0.0959 I-0.0202 J0.0094
X74.794 Y11.9851 Z-0.1136 I-0.0165 J-0.0149
X74.827 Y12.0149 Z-0.1314 I0.0165 J0.0149
X74.7883 Y12.0015 Z-0.1445 I-0.0165 J-0.0149
X74.8327 Y11.9985 Z-0.1623 I0.0222 J-0.0015
X74.8206 Y12.0198 Z-0.1689 I-0.0222 J0.0015
X74.8005 Y11.9802 Z-0.1866 I-0.0101 J-0.0198
X74.8249 Y11.983 Z-0.1932 I0.0101 J0.0198
X74.7962 Y12.017 Z-0.2109 I-0.0143 J0.017
X74.7893 Y11.9934 Z-0.2175 I0.0143 J-0.017
X74.8318 Y12.0066 I0.0213 J0.0066
X74.7893 Y11.9934 I-0.0213 J-0.0066
X74.8032 Y11.9861 I0.0106 J0.0033
G1 X74.8107 Y11.9884
X74.8136 Y11.9893 Z-0.2172
X74.8164 Y11.9902 Z-0.2163
X74.819 Y11.991 Z-0.2149
X74.8212 Y11.9917 Z-0.2129
X74.8231 Y11.9922 Z-0.2105
X74.8245 Y11.9927 Z-0.2078
X74.8253 Y11.9929 Z-0.2049
X74.8256 Y11.993 Z-0.2018
G0 Z0.4
X73.8355 Y14.6594
Z0.13
G1 Z0.0657 F40.
G18 G2 X73.8511 Z0.05 I0.0156 K0.
G1 X73.8589
G17 G3 X73.8701 Y14.6705 I0. J0.0111
X73.8256 Z0.0323 I-0.0222 J0.
X73.8701 Z0.0146 I0.0222 J0.
X73.8324 Y14.6865 Z0.0014 I-0.0223 J0.
X73.8633 Y14.6545 Z-0.0164 I0.0155 J-0.016
X73.8324 Y14.6865 Z-0.0341 I-0.0155 J0.016
X73.8471 Y14.6483 Z-0.0473 I0.0155 J-0.016
X73.8486 Y14.6927 Z-0.065 I0.0008 J0.0222
X73.8471 Y14.6483 Z-0.0827 I-0.0008 J-0.0222
X73.8643 Y14.6854 Z-0.0959 I0.0008 J0.0222
X73.8313 Y14.6556 Z-0.1136 I-0.0165 J-0.0149
X73.8643 Y14.6854 Z-0.1314 I0.0165 J0.0149
X73.8313 Y14.6556 Z-0.1491 I-0.0165 J-0.0149
X73.8643 Y14.6854 Z-0.1668 I0.0165 J0.0149
X73.8313 Y14.6556 Z-0.1845 I-0.0165 J-0.0149
X73.8622 Y14.6535 Z-0.1932 I0.0165 J0.0149
X73.8335 Y14.6875 Z-0.2109 I-0.0143 J0.017
X73.8266 Y14.664 Z-0.2175 I0.0143 J-0.017
X73.8691 Y14.6771 I0.0213 J0.0066
X73.8266 Y14.664 I-0.0213 J-0.0066
X73.8405 Y14.6566 I0.0106 J0.0033
G1 X73.8479 Y14.6589
X73.8509 Y14.6598 Z-0.2172
X73.8537 Y14.6607 Z-0.2163
X73.8563 Y14.6615 Z-0.2149
X73.8585 Y14.6622 Z-0.2129
X73.8604 Y14.6627 Z-0.2105
X73.8618 Y14.6632 Z-0.2078
X73.8626 Y14.6634 Z-0.2049
X73.8629 Y14.6635 Z-0.2018
G0 Z0.4
X73.4326 Y14.9556
Z0.13
G1 Z0.0657 F40.
G18 G2 X73.4483 Z0.05 I0.0156 K0.
G1 X73.4561
G17 G3 X73.4672 Y14.9667 I0. J0.0111
X73.4227 Z0.0323 I-0.0222 J0.
X73.4672 Z0.0146 I0.0222 J0.
X73.4295 Y14.9827 Z0.0014 I-0.0223 J0.
X73.4604 Y14.9507 Z-0.0164 I0.0155 J-0.016
X73.4295 Y14.9827 Z-0.0341 I-0.0155 J0.016
X73.4442 Y14.9444 Z-0.0473 I0.0155 J-0.016
X73.4457 Y14.9889 Z-0.065 I0.0008 J0.0222
X73.4442 Y14.9444 Z-0.0827 I-0.0008 J-0.0222
X73.4615 Y14.9816 Z-0.0959 I0.0008 J0.0222
X73.4285 Y14.9518 Z-0.1136 I-0.0165 J-0.0149
X73.4615 Y14.9816 Z-0.1314 I0.0165 J0.0149
X73.4285 Y14.9518 Z-0.1491 I-0.0165 J-0.0149
X73.4615 Y14.9816 Z-0.1668 I0.0165 J0.0149
X73.4285 Y14.9518 Z-0.1845 I-0.0165 J-0.0149
X73.4593 Y14.9497 Z-0.1932 I0.0165 J0.0149
X73.4306 Y14.9837 Z-0.2109 I-0.0143 J0.017
X73.4237 Y14.9601 Z-0.2175 I0.0143 J-0.017
X73.4662 Y14.9732 I0.0213 J0.0066
X73.4237 Y14.9601 I-0.0213 J-0.0066
X73.4376 Y14.9528 I0.0106 J0.0033
G1 X73.4451 Y14.9551
X73.448 Y14.956 Z-0.2172
X73.4508 Y14.9568 Z-0.2163
X73.4534 Y14.9576 Z-0.2149
X73.4557 Y14.9583 Z-0.2129
X73.4575 Y14.9589 Z-0.2105
X73.4589 Y14.9593 Z-0.2078
X73.4598 Y14.9596 Z-0.2049
X73.4601 Y14.9597 Z-0.2018
G0 Z0.4
X68.5675 Y11.7824
Z0.1143
G1 Z0.05 F40.
X68.5681 Y11.7818
G3 X68.5687 Y11.7824 I0. J0.0006
X68.5663 Z0.036 I-0.0012 J0.
X68.5674 Y11.7811 Z0.0294 I0.0012 J0.
X68.5676 Y11.7836 Z0.0154 I0.0001 J0.0012
X68.5663 Y11.7826 Z0.0088 I-0.0001 J-0.0012
X68.5687 Y11.7821 Z-0.0052 I0.0012 J-0.0002
X68.5679 Y11.7836 Z-0.0117 I-0.0012 J0.0002
X68.5671 Y11.7812 Z-0.0258 I-0.0004 J-0.0012
X68.5686 Y11.7819 Z-0.0323 I0.0004 J0.0012
X68.5664 Y11.7829 Z-0.0463 I-0.0011 J0.0005
X68.5669 Y11.7813 Z-0.0529 I0.0011 J-0.0005
X68.5681 Y11.7835 Z-0.0669 I0.0006 J0.0011
X68.5665 Y11.7831 Z-0.0735 I-0.0006 J-0.0011
X68.5685 Y11.7817 Z-0.0875 I0.001 J-0.0007
X68.5683 Y11.7833 Z-0.094 I-0.001 J0.0007
X68.5667 Y11.7814 Z-0.1081 I-0.0008 J-0.001
X68.5684 Y11.7815 Z-0.1146 I0.0008 J0.001
X68.5666 Y11.7833 Z-0.1286 I-0.0009 J0.0009
X68.5665 Y11.7816 Z-0.1352 I0.0009 J-0.0009
X68.5685 Y11.7832 Z-0.1492 I0.001 J0.0008
X68.5668 Y11.7834 Z-0.1558 I-0.001 J-0.0008
X68.5682 Y11.7813 Z-0.1698 I0.0007 J-0.0011
X68.5686 Y11.7829 Z-0.1763 I-0.0007 J0.0011
X68.5664 Y11.7818 Z-0.1904 I-0.0011 J-0.0006
X68.5679 Y11.7812 Z-0.1969 I0.0011 J0.0006
X68.5671 Y11.7836 Z-0.2109 I-0.0004 J0.0012
X68.5663 Y11.7821 Z-0.2175 I0.0004 J-0.0012
X68.5687 Y11.7827 I0.0012 J0.0003
X68.5663 Y11.7821 I-0.0012 J-0.0003
X68.5671 Y11.7816 I0.0006 J0.0002
G1 X68.5675 Y11.7824
G0 Z0.4
X67.0489 Y10.4225
Z0.13
G1 Z0.0657 F40.
G18 G2 X67.0646 Z0.05 I0.0156 K0.
G1 X67.0724
G17 G3 X67.0823 Y10.4324 I0. J0.0099
X67.0427 Z0.0327 I-0.0198 J0.
X67.0822 Z0.0154 I0.0198 J0.
X67.0427 Z-0.0018 I-0.0198 J0.
X67.0822 Z-0.0191 I0.0198 J0.
X67.0776 Y10.4451 Z-0.023 I-0.0198 J0.
X67.0474 Y10.4197 Z-0.0402 I-0.0151 J-0.0127
X67.0703 Y10.4142 Z-0.0473 I0.0151 J0.0127
X67.0547 Y10.4505 Z-0.0646 I-0.0078 J0.0181
X67.0429 Y10.4301 Z-0.0716 I0.0078 J-0.0181
X67.0821 Y10.4346 Z-0.0889 I0.0196 J0.0023
X67.0429 Y10.4301 Z-0.1062 I-0.0196 J-0.0023
X67.0821 Y10.4346 Z-0.1234 I0.0196 J0.0023
X67.0429 Y10.4301 Z-0.1407 I-0.0196 J-0.0023
X67.0489 Y10.4181 Z-0.1445 I0.0196 J0.0023
X67.0761 Y10.4467 Z-0.1618 I0.0136 J0.0143
X67.0527 Y10.4495 Z-0.1689 I-0.0136 J-0.0143
X67.0723 Y10.4153 Z-0.1861 I0.0098 J-0.0171
X67.0817 Y10.4369 Z-0.1932 I-0.0098 J0.0171
X67.0433 Y10.4279 Z-0.2105 I-0.0192 J-0.0045
X67.0613 Y10.4127 Z-0.2175 I0.0192 J0.0045
X67.0637 Y10.4521 I0.0012 J0.0197
X67.0613 Y10.4127 I-0.0012 J-0.0197
X67.0717 Y10.4219 I0.0006 J0.0099
G1 X67.0722 Y10.4297
X67.0724 Y10.4328 Z-0.2172
X67.0726 Y10.4357 Z-0.2163
X67.0728 Y10.4384 Z-0.2149
X67.0729 Y10.4408 Z-0.2129
X67.073 Y10.4427 Z-0.2105
X67.0731 Y10.4442 Z-0.2078
X67.0732 Y10.4451 Z-0.2049
Y10.4454 Z-0.2018
G0 Z0.4
X67.0489 Y9.6725
Z0.13
G1 Z0.0657 F40.
G18 G2 X67.0646 Z0.05 I0.0156 K0.
G1 X67.0724
G17 G3 X67.0823 Y9.6824 I0. J0.0099
X67.0427 Z0.0327 I-0.0198 J0.
X67.0822 Z0.0154 I0.0198 J0.
X67.046 Y9.6933 Z0.0014 I-0.0198 J0.
X67.079 Y9.6715 Z-0.0159 I0.0165 J-0.0109
X67.0776 Y9.6951 Z-0.023 I-0.0165 J0.0109
X67.0474 Y9.6697 Z-0.0402 I-0.0151 J-0.0127
X67.0703 Y9.6642 Z-0.0473 I0.0151 J0.0127
X67.0547 Y9.7005 Z-0.0646 I-0.0078 J0.0181
X67.0703 Y9.6642 Z-0.0818 I0.0078 J-0.0181
X67.066 Y9.7018 Z-0.0959 I-0.0078 J0.0181
X67.059 Y9.6629 Z-0.1132 I-0.0035 J-0.0194
X67.066 Y9.7018 Z-0.1305 I0.0035 J0.0194
X67.0489 Y9.6681 Z-0.1445 I-0.0035 J-0.0194
X67.0761 Y9.6967 Z-0.1618 I0.0136 J0.0143
X67.0527 Y9.6995 Z-0.1689 I-0.0136 J-0.0143
X67.0723 Y9.6653 Z-0.1861 I0.0098 J-0.0171
X67.0527 Y9.6995 Z-0.2034 I-0.0098 J0.0171
X67.0613 Y9.6627 Z-0.2175 I0.0098 J-0.0171
X67.0637 Y9.7021 I0.0012 J0.0197
X67.0613 Y9.6627 I-0.0012 J-0.0197
X67.0717 Y9.6719 I0.0006 J0.0099
G1 X67.0722 Y9.6797
X67.0724 Y9.6828 Z-0.2172
X67.0726 Y9.6857 Z-0.2163
X67.0728 Y9.6884 Z-0.2149
X67.0729 Y9.6908 Z-0.2129
X67.073 Y9.6927 Z-0.2105
X67.0731 Y9.6942 Z-0.2078
X67.0732 Y9.6951 Z-0.2049
Y9.6954 Z-0.2018
G0 Z0.4
X67.0489 Y8.9225
Z0.13
G1 Z0.0657 F40.
G18 G2 X67.0646 Z0.05 I0.0156 K0.
G1 X67.0724
G17 G3 X67.0823 Y8.9324 I0. J0.0099
X67.0427 Z0.0327 I-0.0198 J0.
X67.0822 Z0.0154 I0.0198 J0.
X67.0427 Z-0.0018 I-0.0198 J0.
X67.0822 Z-0.0191 I0.0198 J0.
X67.0776 Y8.9451 Z-0.023 I-0.0198 J0.
X67.0474 Y8.9197 Z-0.0402 I-0.0151 J-0.0127
X67.0703 Y8.9142 Z-0.0473 I0.0151 J0.0127
X67.0547 Y8.9505 Z-0.0646 I-0.0078 J0.0181
X67.0703 Y8.9142 Z-0.0818 I0.0078 J-0.0181
X67.066 Y8.9518 Z-0.0959 I-0.0078 J0.0181
X67.059 Y8.9129 Z-0.1132 I-0.0035 J-0.0194
X67.066 Y8.9518 Z-0.1305 I0.0035 J0.0194
X67.0489 Y8.9181 Z-0.1445 I-0.0035 J-0.0194
X67.0761 Y8.9467 Z-0.1618 I0.0136 J0.0143
X67.0527 Y8.9495 Z-0.1689 I-0.0136 J-0.0143
X67.0723 Y8.9153 Z-0.1861 I0.0098 J-0.0171
X67.0527 Y8.9495 Z-0.2034 I-0.0098 J0.0171
X67.0613 Y8.9127 Z-0.2175 I0.0098 J-0.0171
X67.0637 Y8.9521 I0.0012 J0.0197
X67.0613 Y8.9127 I-0.0012 J-0.0197
X67.0717 Y8.9219 I0.0006 J0.0099
G1 X67.0722 Y8.9297
X67.0724 Y8.9328 Z-0.2172
X67.0726 Y8.9357 Z-0.2163
X67.0728 Y8.9384 Z-0.2149
X67.0729 Y8.9408 Z-0.2129
X67.073 Y8.9427 Z-0.2105
X67.0731 Y8.9442 Z-0.2078
X67.0732 Y8.9451 Z-0.2049
Y8.9454 Z-0.2018
G0 Z0.4
X69.1875 Y7.9179
Z0.1143
G1 Z0.05 F40.
X69.1881 Y7.9172
G3 X69.1888 Y7.9179 I0. J0.0006
X69.1863 Z0.036 I-0.0012 J0.
X69.1874 Y7.9166 Z0.0294 I0.0013 J0.
X69.1876 Y7.9191 Z0.0154 I0.0001 J0.0012
X69.1863 Y7.9181 Z0.0088 I-0.0001 J-0.0012
X69.1887 Y7.9176 Z-0.0052 I0.0012 J-0.0003
X69.1879 Y7.9191 Z-0.0117 I-0.0012 J0.0003
X69.1871 Y7.9167 Z-0.0258 I-0.0004 J-0.0012
X69.1887 Y7.9174 Z-0.0323 I0.0004 J0.0012
X69.1864 Y7.9184 Z-0.0463 I-0.0011 J0.0005
X69.1869 Y7.9168 Z-0.0529 I0.0011 J-0.0005
X69.1881 Y7.919 Z-0.0669 I0.0006 J0.0011
X69.1865 Y7.9186 Z-0.0735 I-0.0006 J-0.0011
X69.1885 Y7.9172 Z-0.0875 I0.001 J-0.0007
X69.1883 Y7.9188 Z-0.094 I-0.001 J0.0007
X69.1867 Y7.9169 Z-0.1081 I-0.0008 J-0.001
X69.1884 Y7.917 Z-0.1146 I0.0008 J0.001
X69.1866 Y7.9188 Z-0.1286 I-0.0009 J0.0009
X69.1865 Y7.9171 Z-0.1352 I0.0009 J-0.0009
X69.1885 Y7.9186 Z-0.1492 I0.001 J0.0008
X69.1868 Y7.9189 Z-0.1558 I-0.001 J-0.0008
X69.1882 Y7.9168 Z-0.1698 I0.0007 J-0.0011
X69.1886 Y7.9184 Z-0.1763 I-0.0007 J0.0011
X69.1864 Y7.9173 Z-0.1904 I-0.0011 J-0.0006
X69.1879 Y7.9167 Z-0.1969 I0.0011 J0.0006
X69.1871 Y7.919 Z-0.2109 I-0.0004 J0.0012
X69.1863 Y7.9175 Z-0.2175 I0.0004 J-0.0012
X69.1887 Y7.9182 I0.0012 J0.0003
X69.1863 Y7.9175 I-0.0012 J-0.0003
X69.1871 Y7.9171 I0.0006 J0.0002
G1 X69.1875 Y7.9179
G0 Z0.4
X67.0489 Y6.59
Z0.13
G1 Z0.0657 F40.
G18 G2 X67.0646 Z0.05 I0.0156 K0.
G1 X67.0724
G17 G3 X67.0823 Y6.5999 I0. J0.0099
X67.0427 Z0.0327 I-0.0198 J0.
X67.0822 Z0.0154 I0.0198 J0.
X67.0427 Z-0.0018 I-0.0198 J0.
X67.0822 Z-0.0191 I0.0198 J0.
X67.0776 Y6.6125 Z-0.023 I-0.0198 J0.
X67.0474 Y6.5872 Z-0.0402 I-0.0151 J-0.0127
X67.0703 Y6.5817 Z-0.0473 I0.0151 J0.0127
X67.0547 Y6.618 Z-0.0646 I-0.0078 J0.0181
X67.0703 Y6.5817 Z-0.0818 I0.0078 J-0.0181
X67.066 Y6.6193 Z-0.0959 I-0.0078 J0.0181
X67.059 Y6.5804 Z-0.1132 I-0.0035 J-0.0194
X67.066 Y6.6193 Z-0.1305 I0.0035 J0.0194
X67.0489 Y6.5855 Z-0.1445 I-0.0035 J-0.0194
X67.0761 Y6.6142 Z-0.1618 I0.0136 J0.0143
X67.0527 Y6.617 Z-0.1689 I-0.0136 J-0.0143
X67.0723 Y6.5827 Z-0.1861 I0.0098 J-0.0171
X67.0817 Y6.6043 Z-0.1932 I-0.0098 J0.0171
X67.0433 Y6.5954 Z-0.2105 I-0.0192 J-0.0045
X67.0613 Y6.5801 Z-0.2175 I0.0192 J0.0045
X67.0637 Y6.6196 I0.0012 J0.0197
X67.0613 Y6.5801 I-0.0012 J-0.0197
X67.0717 Y6.5894 I0.0006 J0.0099
G1 X67.0722 Y6.5972
X67.0724 Y6.6002 Z-0.2172
X67.0726 Y6.6032 Z-0.2163
X67.0728 Y6.6059 Z-0.2149
X67.0729 Y6.6082 Z-0.2129
X67.073 Y6.6102 Z-0.2105
X67.0731 Y6.6116 Z-0.2078
X67.0732 Y6.6125 Z-0.2049
Y6.6128 Z-0.2018
G0 Z0.4
X67.0489 Y6.04
Z0.13
G1 Z0.0657 F40.
G18 G2 X67.0646 Z0.05 I0.0156 K0.
G1 X67.0724
G17 G3 X67.0823 Y6.0499 I0. J0.0099
X67.0427 Z0.0327 I-0.0198 J0.
X67.0822 Z0.0154 I0.0198 J0.
X67.0427 Z-0.0018 I-0.0198 J0.
X67.0822 Z-0.0191 I0.0198 J0.
X67.0776 Y6.0625 Z-0.023 I-0.0198 J0.
X67.0474 Y6.0372 Z-0.0402 I-0.0151 J-0.0127
X67.0703 Y6.0317 Z-0.0473 I0.0151 J0.0127
X67.0547 Y6.068 Z-0.0646 I-0.0078 J0.0181
X67.0429 Y6.0476 Z-0.0716 I0.0078 J-0.0181
X67.0821 Y6.0521 Z-0.0889 I0.0196 J0.0023
X67.0429 Y6.0476 Z-0.1062 I-0.0196 J-0.0023
X67.0821 Y6.0521 Z-0.1234 I0.0196 J0.0023
X67.0429 Y6.0476 Z-0.1407 I-0.0196 J-0.0023
X67.0489 Y6.0355 Z-0.1445 I0.0196 J0.0023
X67.0761 Y6.0642 Z-0.1618 I0.0136 J0.0143
X67.0527 Y6.067 Z-0.1689 I-0.0136 J-0.0143
X67.0723 Y6.0327 Z-0.1861 I0.0098 J-0.0171
X67.0817 Y6.0543 Z-0.1932 I-0.0098 J0.0171
X67.0433 Y6.0454 Z-0.2105 I-0.0192 J-0.0045
X67.0613 Y6.0301 Z-0.2175 I0.0192 J0.0045
X67.0637 Y6.0696 I0.0012 J0.0197
X67.0613 Y6.0301 I-0.0012 J-0.0197
X67.0717 Y6.0394 I0.0006 J0.0099
G1 X67.0722 Y6.0472
X67.0724 Y6.0502 Z-0.2172
X67.0726 Y6.0532 Z-0.2163
X67.0728 Y6.0559 Z-0.2149
X67.0729 Y6.0582 Z-0.2129
X67.073 Y6.0602 Z-0.2105
X67.0731 Y6.0616 Z-0.2078
X67.0732 Y6.0625 Z-0.2049
Y6.0628 Z-0.2018
G0 Z0.4
X67.0489 Y5.49
Z0.13
G1 Z0.0657 F40.
G18 G2 X67.0646 Z0.05 I0.0156 K0.
G1 X67.0724
G17 G3 X67.0823 Y5.4999 I0. J0.0099
X67.0427 Z0.0327 I-0.0198 J0.
X67.0822 Z0.0154 I0.0198 J0.
X67.046 Y5.5107 Z0.0014 I-0.0198 J0.
X67.079 Y5.489 Z-0.0159 I0.0165 J-0.0109
X67.0776 Y5.5125 Z-0.023 I-0.0165 J0.0109
X67.0474 Y5.4872 Z-0.0402 I-0.0151 J-0.0127
X67.0703 Y5.4817 Z-0.0473 I0.0151 J0.0127
X67.0547 Y5.518 Z-0.0646 I-0.0078 J0.0181
X67.0703 Y5.4817 Z-0.0818 I0.0078 J-0.0181
X67.0547 Y5.518 Z-0.0991 I-0.0078 J0.0181
X67.0703 Y5.4817 Z-0.1164 I0.0078 J-0.0181
X67.0801 Y5.4909 Z-0.1202 I-0.0078 J0.0181
X67.0449 Y5.5088 Z-0.1375 I-0.0176 J0.0089
X67.0489 Y5.4855 Z-0.1445 I0.0176 J-0.0089
X67.0761 Y5.5142 Z-0.1618 I0.0136 J0.0143
X67.0527 Y5.517 Z-0.1689 I-0.0136 J-0.0143
X67.0723 Y5.4827 Z-0.1861 I0.0098 J-0.0171
X67.0527 Y5.517 Z-0.2034 I-0.0098 J0.0171
X67.0613 Y5.4801 Z-0.2175 I0.0098 J-0.0171
X67.0637 Y5.5196 I0.0012 J0.0197
X67.0613 Y5.4801 I-0.0012 J-0.0197
X67.0717 Y5.4894 I0.0006 J0.0099
G1 X67.0722 Y5.4972
X67.0724 Y5.5002 Z-0.2172
X67.0726 Y5.5032 Z-0.2163
X67.0728 Y5.5059 Z-0.2149
X67.0729 Y5.5082 Z-0.2129
X67.073 Y5.5102 Z-0.2105
X67.0731 Y5.5116 Z-0.2078
X67.0732 Y5.5125 Z-0.2049
Y5.5128 Z-0.2018
G0 Z0.4
X68.3785 Y4.8802
Z0.13
G1 Z0.0657 F40.
G18 G2 X68.3942 Z0.05 I0.0157 K0.
G1 X68.402
G17 G3 X68.4131 Y4.8913 I0. J0.0111
X68.3686 Z0.0323 I-0.0223 J0.
X68.3822 Y4.8708 Z0.0257 I0.0223 J0.
X68.3996 Y4.9118 Z0.008 I0.0087 J0.0205
X68.3754 Y4.9073 Z0.0014 I-0.0087 J-0.0205
X68.4063 Y4.8753 Z-0.0164 I0.0155 J-0.016
X68.4116 Y4.8993 Z-0.023 I-0.0155 J0.016
X68.3701 Y4.8833 Z-0.0407 I-0.0208 J-0.008
X68.3901 Y4.8691 Z-0.0473 I0.0208 J0.008
X68.3916 Y4.9135 Z-0.065 I0.0008 J0.0222
X68.3707 Y4.9007 Z-0.0716 I-0.0008 J-0.0222
X68.411 Y4.8819 Z-0.0893 I0.0202 J-0.0094
X68.4074 Y4.9062 Z-0.0959 I-0.0202 J0.0094
X68.3743 Y4.8764 Z-0.1136 I-0.0165 J-0.0149
X68.3981 Y4.8703 Z-0.1202 I0.0165 J0.0149
X68.3836 Y4.9123 Z-0.1379 I-0.0073 J0.021
X68.3981 Y4.8703 Z-0.1557 I0.0073 J-0.021
X68.4009 Y4.9111 Z-0.1689 I-0.0073 J0.021
X68.3808 Y4.8715 Z-0.1866 I-0.0101 J-0.0198
X68.4052 Y4.8743 Z-0.1932 I0.0101 J0.0198
X68.3765 Y4.9083 Z-0.2109 I-0.0143 J0.017
X68.3696 Y4.8847 Z-0.2175 I0.0143 J-0.017
X68.4121 Y4.8979 I0.0213 J0.0066
X68.3696 Y4.8847 I-0.0213 J-0.0066
X68.3835 Y4.8774 I0.0106 J0.0033
G1 X68.391 Y4.8797
X68.3939 Y4.8806 Z-0.2172
X68.3967 Y4.8815 Z-0.2163
X68.3993 Y4.8823 Z-0.2149
X68.4016 Y4.883 Z-0.2129
X68.4034 Y4.8835 Z-0.2105
X68.4048 Y4.884 Z-0.2078
X68.4057 Y4.8842 Z-0.2049
X68.4059 Y4.8843 Z-0.2018
G0 Z0.4
X68.875 Y3.125
Z0.1143
G1 Z0.05 F40.
X68.8744 Y3.1256
G3 X68.8738 Y3.125 I0. J-0.0006
X68.8763 Z0.036 I0.0012 J0.
X68.8751 Y3.1262 Z0.0294 I-0.0012 J0.
X68.8749 Y3.1238 Z0.0154 I-0.0001 J-0.0012
X68.8762 Y3.1247 Z0.0088 I0.0001 J0.0012
X68.8738 Y3.1253 Z-0.0052 I-0.0012 J0.0003
X68.8746 Y3.1238 Z-0.0117 I0.0012 J-0.0003
X68.8754 Y3.1262 Z-0.0257 I0.0004 J0.0012
X68.8738 Y3.1255 Z-0.0323 I-0.0004 J-0.0012
X68.8762 Y3.1245 Z-0.0463 I0.0012 J-0.0005
X68.8756 Y3.1261 Z-0.0529 I-0.0012 J0.0005
X68.8744 Y3.1239 Z-0.0669 I-0.0006 J-0.0011
X68.876 Y3.1243 Z-0.0735 I0.0006 J0.0011
X68.874 Y3.1257 Z-0.0875 I-0.001 J0.0007
X68.8742 Y3.124 Z-0.094 I0.001 J-0.0007
X68.8758 Y3.126 Z-0.1081 I0.0008 J0.001
X68.8741 Y3.1259 Z-0.1146 I-0.0008 J-0.001
X68.8759 Y3.1241 Z-0.1286 I0.0009 J-0.0009
X68.876 Y3.1258 Z-0.1352 I-0.0009 J0.0009
X68.874 Y3.1242 Z-0.1492 I-0.001 J-0.0008
X68.8757 Y3.1239 Z-0.1558 I0.001 J0.0008
X68.8743 Y3.1261 Z-0.1698 I-0.0007 J0.0011
X68.8739 Y3.1244 Z-0.1763 I0.0007 J-0.0011
X68.8761 Y3.1256 Z-0.1904 I0.0011 J0.0006
X68.8746 Y3.1262 Z-0.1969 I-0.0011 J-0.0006
X68.8754 Y3.1238 Z-0.2109 I0.0004 J-0.0012
X68.8762 Y3.1253 Z-0.2175 I-0.0004 J0.0012
X68.8738 Y3.1247 I-0.0012 J-0.0003
X68.8762 Y3.1253 I0.0012 J0.0003
X68.8754 Y3.1258 I-0.0006 J-0.0002
G1 X68.875 Y3.125
G0 Z0.4
Y1.875
Z0.1143
G1 Z0.05 F40.
X68.8744 Y1.8756
G3 X68.8738 Y1.875 I0. J-0.0006
X68.8763 Z0.036 I0.0012 J0.
X68.8751 Y1.8762 Z0.0294 I-0.0012 J0.
X68.8749 Y1.8738 Z0.0154 I-0.0001 J-0.0012
X68.8762 Y1.8747 Z0.0088 I0.0001 J0.0012
X68.8738 Y1.8753 Z-0.0052 I-0.0012 J0.0003
X68.8746 Y1.8738 Z-0.0117 I0.0012 J-0.0003
X68.8754 Y1.8762 Z-0.0257 I0.0004 J0.0012
X68.8738 Y1.8755 Z-0.0323 I-0.0004 J-0.0012
X68.8762 Y1.8745 Z-0.0463 I0.0012 J-0.0005
X68.8756 Y1.8761 Z-0.0529 I-0.0012 J0.0005
X68.8744 Y1.8739 Z-0.0669 I-0.0006 J-0.0011
X68.876 Y1.8743 Z-0.0735 I0.0006 J0.0011
X68.874 Y1.8757 Z-0.0875 I-0.001 J0.0007
X68.8742 Y1.874 Z-0.094 I0.001 J-0.0007
X68.8758 Y1.876 Z-0.1081 I0.0008 J0.001
X68.8741 Y1.8759 Z-0.1146 I-0.0008 J-0.001
X68.8759 Y1.8741 Z-0.1286 I0.0009 J-0.0009
X68.876 Y1.8758 Z-0.1352 I-0.0009 J0.0009
X68.874 Y1.8742 Z-0.1492 I-0.001 J-0.0008
X68.8757 Y1.8739 Z-0.1558 I0.001 J0.0008
X68.8743 Y1.8761 Z-0.1698 I-0.0007 J0.0011
X68.8739 Y1.8744 Z-0.1763 I0.0007 J-0.0011
X68.8761 Y1.8756 Z-0.1904 I0.0011 J0.0006
X68.8746 Y1.8762 Z-0.1969 I-0.0011 J-0.0006
X68.8754 Y1.8738 Z-0.2109 I0.0004 J-0.0012
X68.8762 Y1.8753 Z-0.2175 I-0.0004 J0.0012
X68.8738 Y1.8747 I-0.0012 J-0.0003
X68.8762 Y1.8753 I0.0012 J0.0003
X68.8754 Y1.8758 I-0.0006 J-0.0002
G1 X68.875 Y1.875
G0 Z0.4
X70.375
Z0.1143
G1 Z0.05 F40.
X70.3756 Y1.8744
G3 X70.3763 Y1.875 I0. J0.0006
X70.3738 Z0.036 I-0.0012 J0.
X70.3749 Y1.8738 Z0.0294 I0.0012 J0.
X70.3751 Y1.8762 Z0.0154 I0.0001 J0.0012
X70.3738 Y1.8753 Z0.0088 I-0.0001 J-0.0012
X70.3762 Y1.8747 Z-0.0052 I0.0012 J-0.0003
X70.3754 Y1.8762 Z-0.0117 I-0.0012 J0.0003
X70.3746 Y1.8738 Z-0.0258 I-0.0004 J-0.0012
X70.3761 Y1.8745 Z-0.0323 I0.0004 J0.0012
X70.3739 Y1.8755 Z-0.0463 I-0.0011 J0.0005
X70.3744 Y1.8739 Z-0.0529 I0.0011 J-0.0005
X70.3756 Y1.8761 Z-0.0669 I0.0006 J0.0011
X70.374 Y1.8757 Z-0.0735 I-0.0006 J-0.0011
X70.376 Y1.8743 Z-0.0875 I0.001 J-0.0007
X70.3758 Y1.876 Z-0.094 I-0.001 J0.0007
X70.3742 Y1.874 Z-0.1081 I-0.0008 J-0.001
X70.3759 Y1.8741 Z-0.1146 I0.0008 J0.001
X70.3741 Y1.8759 Z-0.1286 I-0.0009 J0.0009
X70.374 Y1.8742 Z-0.1352 I0.0009 J-0.0009
X70.376 Y1.8758 Z-0.1492 I0.001 J0.0008
X70.3743 Y1.8761 Z-0.1558 I-0.001 J-0.0008
X70.3757 Y1.8739 Z-0.1698 I0.0007 J-0.0011
X70.3761 Y1.8756 Z-0.1763 I-0.0007 J0.0011
X70.3739 Y1.8744 Z-0.1904 I-0.0011 J-0.0006
X70.3754 Y1.8738 Z-0.1969 I0.0011 J0.0006
X70.3746 Y1.8762 Z-0.2109 I-0.0004 J0.0012
X70.3738 Y1.8747 Z-0.2175 I0.0004 J-0.0012
X70.3762 Y1.8753 I0.0012 J0.0003
X70.3738 Y1.8747 I-0.0012 J-0.0003
X70.3746 Y1.8742 I0.0006 J0.0002
G1 X70.375 Y1.875
G0 Z0.4
Y3.125
Z0.1143
G1 Z0.05 F40.
X70.3756 Y3.1244
G3 X70.3763 Y3.125 I0. J0.0006
X70.3738 Z0.036 I-0.0012 J0.
X70.3749 Y3.1238 Z0.0294 I0.0012 J0.
X70.3751 Y3.1262 Z0.0154 I0.0001 J0.0012
X70.3738 Y3.1253 Z0.0088 I-0.0001 J-0.0012
X70.3762 Y3.1247 Z-0.0052 I0.0012 J-0.0003
X70.3754 Y3.1262 Z-0.0117 I-0.0012 J0.0003
X70.3746 Y3.1238 Z-0.0258 I-0.0004 J-0.0012
X70.3761 Y3.1245 Z-0.0323 I0.0004 J0.0012
X70.3739 Y3.1255 Z-0.0463 I-0.0011 J0.0005
X70.3744 Y3.1239 Z-0.0529 I0.0011 J-0.0005
X70.3756 Y3.1261 Z-0.0669 I0.0006 J0.0011
X70.374 Y3.1257 Z-0.0735 I-0.0006 J-0.0011
X70.376 Y3.1243 Z-0.0875 I0.001 J-0.0007
X70.3758 Y3.126 Z-0.094 I-0.001 J0.0007
X70.3742 Y3.124 Z-0.1081 I-0.0008 J-0.001
X70.3759 Y3.1241 Z-0.1146 I0.0008 J0.001
X70.3741 Y3.1259 Z-0.1286 I-0.0009 J0.0009
X70.374 Y3.1242 Z-0.1352 I0.0009 J-0.0009
X70.376 Y3.1258 Z-0.1492 I0.001 J0.0008
X70.3743 Y3.1261 Z-0.1558 I-0.001 J-0.0008
X70.3757 Y3.1239 Z-0.1698 I0.0007 J-0.0011
X70.3761 Y3.1256 Z-0.1763 I-0.0007 J0.0011
X70.3739 Y3.1244 Z-0.1904 I-0.0011 J-0.0006
X70.3754 Y3.1238 Z-0.1969 I0.0011 J0.0006
X70.3746 Y3.1262 Z-0.2109 I-0.0004 J0.0012
X70.3738 Y3.1247 Z-0.2175 I0.0004 J-0.0012
X70.3762 Y3.1253 I0.0012 J0.0003
X70.3738 Y3.1247 I-0.0012 J-0.0003
X70.3746 Y3.1242 I0.0006 J0.0002
G1 X70.375 Y3.125
G0 Z0.4
X70.3338 Y4.4596
Z0.13
G1 Z0.0657 F40.
G18 G2 X70.3494 Z0.05 I0.0157 K0.
G1 X70.3573
G17 G3 X70.3684 Y4.4707 I0. J0.0111
X70.3239 Z0.0323 I-0.0223 J0.
X70.3684 Z0.0146 I0.0223 J0.
X70.3307 Y4.4867 Z0.0014 I-0.0223 J0.
X70.3616 Y4.4547 Z-0.0164 I0.0155 J-0.016
X70.3307 Y4.4867 Z-0.0341 I-0.0155 J0.016
X70.3454 Y4.4485 Z-0.0473 I0.0155 J-0.016
X70.3469 Y4.4929 Z-0.065 I0.0008 J0.0222
X70.3454 Y4.4485 Z-0.0827 I-0.0008 J-0.0222
X70.3626 Y4.4856 Z-0.0959 I0.0008 J0.0222
X70.3296 Y4.4558 Z-0.1136 I-0.0165 J-0.0149
X70.3627 Y4.4856 Z-0.1314 I0.0165 J0.0149
X70.3296 Y4.4558 Z-0.1491 I-0.0165 J-0.0149
X70.3627 Y4.4856 Z-0.1668 I0.0165 J0.0149
X70.3562 Y4.4905 Z-0.1689 I-0.0165 J-0.0149
X70.3361 Y4.4509 Z-0.1866 I-0.0101 J-0.0198
X70.3605 Y4.4537 Z-0.1932 I0.0101 J0.0198
X70.3318 Y4.4877 Z-0.2109 I-0.0143 J0.017
X70.3249 Y4.4641 Z-0.2175 I0.0143 J-0.017
X70.3674 Y4.4773 I0.0213 J0.0066
X70.3249 Y4.4641 I-0.0213 J-0.0066
X70.3388 Y4.4568 I0.0106 J0.0033
G1 X70.3463 Y4.4591
X70.3492 Y4.46 Z-0.2172
X70.352 Y4.4609 Z-0.2163
X70.3546 Y4.4617 Z-0.2149
X70.3568 Y4.4624 Z-0.2129
X70.3587 Y4.4629 Z-0.2105
X70.3601 Y4.4634 Z-0.2078
X70.3609 Y4.4636 Z-0.2049
X70.3612 Y4.4637 Z-0.2018
G0 Z0.4
X70.2587 Y5.7207
Z0.1143
G1 Z0.05 F40.
X70.2594 Y5.7201
G3 X70.26 Y5.7207 I0. J0.0006
X70.2575 Z0.036 I-0.0012 J0.
X70.2586 Y5.7194 Z0.0294 I0.0012 J0.
X70.2589 Y5.7219 Z0.0154 I0.0001 J0.0012
X70.2575 Y5.7209 Z0.0088 I-0.0001 J-0.0012
X70.26 Y5.7204 Z-0.0052 I0.0012 J-0.0003
X70.2591 Y5.7219 Z-0.0117 I-0.0012 J0.0003
X70.2584 Y5.7195 Z-0.0258 I-0.0004 J-0.0012
X70.2599 Y5.7202 Z-0.0323 I0.0004 J0.0012
X70.2576 Y5.7212 Z-0.0463 I-0.0011 J0.0005
X70.2581 Y5.7196 Z-0.0529 I0.0011 J-0.0005
X70.2593 Y5.7218 Z-0.0669 I0.0006 J0.0011
X70.2577 Y5.7214 Z-0.0735 I-0.0006 J-0.0011
X70.2598 Y5.72 Z-0.0875 I0.001 J-0.0007
X70.2595 Y5.7216 Z-0.094 I-0.001 J0.0007
X70.2579 Y5.7197 Z-0.1081 I-0.0008 J-0.001
X70.2596 Y5.7198 Z-0.1146 I0.0008 J0.001
X70.2579 Y5.7216 Z-0.1286 I-0.0009 J0.0009
X70.2577 Y5.7199 Z-0.1352 I0.0009 J-0.0009
X70.2597 Y5.7215 Z-0.1492 I0.001 J0.0008
X70.2581 Y5.7217 Z-0.1558 I-0.001 J-0.0008
X70.2594 Y5.7196 Z-0.1698 I0.0007 J-0.0011
X70.2599 Y5.7212 Z-0.1763 I-0.0007 J0.0011
X70.2576 Y5.7201 Z-0.1904 I-0.0011 J-0.0006
X70.2592 Y5.7195 Z-0.1969 I0.0011 J0.0006
X70.2583 Y5.7219 Z-0.2109 I-0.0004 J0.0012
X70.2575 Y5.7204 Z-0.2175 I0.0004 J-0.0012
X70.2599 Y5.721 I0.0012 J0.0003
X70.2575 Y5.7204 I-0.0012 J-0.0003
X70.2583 Y5.7199 I0.0006 J0.0002
G1 X70.2587 Y5.7207
G0 Z0.4
X71.2605 Y5.4189
Z0.13
G1 Z0.0657 F40.
G18 G2 X71.2761 Z0.05 I0.0156 K0.
G1 X71.2839
G17 G3 X71.2951 Y5.43 I0. J0.0111
X71.2506 Z0.0323 I-0.0223 J0.
X71.2951 Z0.0146 I0.0223 J0.
X71.2573 Y5.446 Z0.0014 I-0.0223 J0.
X71.2883 Y5.414 Z-0.0164 I0.0155 J-0.016
X71.2573 Y5.446 Z-0.0341 I-0.0155 J0.016
X71.272 Y5.4078 Z-0.0473 I0.0155 J-0.016
X71.2736 Y5.4522 Z-0.065 I0.0008 J0.0222
X71.272 Y5.4078 Z-0.0827 I-0.0008 J-0.0222
X71.2893 Y5.4449 Z-0.0959 I0.0008 J0.0222
X71.2563 Y5.4151 Z-0.1136 I-0.0165 J-0.0149
X71.2893 Y5.4449 Z-0.1314 I0.0165 J0.0149
X71.2563 Y5.4151 Z-0.1491 I-0.0165 J-0.0149
X71.2893 Y5.4449 Z-0.1668 I0.0165 J0.0149
X71.2563 Y5.4151 Z-0.1845 I-0.0165 J-0.0149
X71.2871 Y5.413 Z-0.1932 I0.0165 J0.0149
X71.2585 Y5.447 Z-0.2109 I-0.0143 J0.017
X71.2515 Y5.4234 Z-0.2175 I0.0143 J-0.017
X71.2941 Y5.4366 I0.0213 J0.0066
X71.2515 Y5.4234 I-0.0213 J-0.0066
X71.2655 Y5.4161 I0.0106 J0.0033
G1 X71.2729 Y5.4184
X71.2759 Y5.4193 Z-0.2172
X71.2787 Y5.4202 Z-0.2163
X71.2812 Y5.421 Z-0.2149
X71.2835 Y5.4217 Z-0.2129
X71.2854 Y5.4222 Z-0.2105
X71.2868 Y5.4227 Z-0.2078
X71.2876 Y5.4229 Z-0.2049
X71.2879 Y5.423 Z-0.2018
G0 Z0.4
X71.5898 Y7.3916
Z0.13
G1 Z0.0657 F40.
G18 G2 X71.6055 Z0.05 I0.0157 K0.
G1 X71.6133
G17 G3 X71.6244 Y7.4027 I0. J0.0111
X71.5799 Z0.0323 I-0.0223 J0.
X71.6244 Z0.0146 I0.0223 J0.
X71.5867 Y7.4187 Z0.0014 I-0.0223 J0.
X71.6177 Y7.3867 Z-0.0164 I0.0155 J-0.016
X71.5867 Y7.4187 Z-0.0341 I-0.0155 J0.016
X71.6014 Y7.3805 Z-0.0473 I0.0155 J-0.016
X71.603 Y7.4249 Z-0.065 I0.0008 J0.0222
X71.6014 Y7.3805 Z-0.0827 I-0.0008 J-0.0222
X71.6187 Y7.4176 Z-0.0959 I0.0008 J0.0222
X71.5857 Y7.3878 Z-0.1136 I-0.0165 J-0.0149
X71.6187 Y7.4176 Z-0.1314 I0.0165 J0.0149
X71.5857 Y7.3878 Z-0.1491 I-0.0165 J-0.0149
X71.6187 Y7.4176 Z-0.1668 I0.0165 J0.0149
X71.6123 Y7.4225 Z-0.1689 I-0.0165 J-0.0149
X71.5921 Y7.3828 Z-0.1866 I-0.0101 J-0.0198
X71.6165 Y7.3857 Z-0.1932 I0.0101 J0.0198
X71.5879 Y7.4197 Z-0.2109 I-0.0143 J0.017
X71.5809 Y7.3961 Z-0.2175 I0.0143 J-0.017
X71.6235 Y7.4092 I0.0213 J0.0066
X71.5809 Y7.3961 I-0.0213 J-0.0066
X71.5948 Y7.3888 I0.0106 J0.0033
G1 X71.6023 Y7.3911
X71.6052 Y7.392 Z-0.2172
X71.608 Y7.3929 Z-0.2163
X71.6106 Y7.3936 Z-0.2149
X71.6129 Y7.3943 Z-0.2129
X71.6148 Y7.3949 Z-0.2105
X71.6161 Y7.3953 Z-0.2078
X71.617 Y7.3956 Z-0.2049
X71.6173 Y7.3957 Z-0.2018
G0 Z0.4
X71.6126 Y9.4889
Z0.13
G1 Z0.0657 F40.
G18 G2 X71.6283 Z0.05 I0.0156 K0.
G1 X71.6361
G17 G3 X71.6473 Y9.5 I0. J0.0111
X71.6027 Z0.0323 I-0.0223 J0.
X71.6473 Z0.0146 I0.0223 J0.
X71.6095 Y9.516 Z0.0014 I-0.0223 J0.
X71.6405 Y9.484 Z-0.0164 I0.0155 J-0.016
X71.6095 Y9.516 Z-0.0341 I-0.0155 J0.016
X71.6242 Y9.4778 Z-0.0473 I0.0155 J-0.016
X71.6258 Y9.5222 Z-0.065 I0.0008 J0.0222
X71.6242 Y9.4778 Z-0.0827 I-0.0008 J-0.0222
X71.6415 Y9.5149 Z-0.0959 I0.0008 J0.0222
X71.6085 Y9.4851 Z-0.1136 I-0.0165 J-0.0149
X71.6323 Y9.479 Z-0.1202 I0.0165 J0.0149
X71.6177 Y9.521 Z-0.1379 I-0.0073 J0.021
X71.6323 Y9.479 Z-0.1557 I0.0073 J-0.021
X71.6177 Y9.521 Z-0.1734 I-0.0073 J0.021
X71.6323 Y9.479 Z-0.1911 I0.0073 J-0.021
X71.6393 Y9.483 Z-0.1932 I-0.0073 J0.021
X71.6107 Y9.517 Z-0.2109 I-0.0143 J0.017
X71.6037 Y9.4934 Z-0.2175 I0.0143 J-0.017
X71.6463 Y9.5066 I0.0213 J0.0066
X71.6037 Y9.4934 I-0.0213 J-0.0066
X71.6176 Y9.4861 I0.0106 J0.0033
G1 X71.6251 Y9.4884
X71.628 Y9.4893 Z-0.2172
X71.6308 Y9.4902 Z-0.2163
X71.6334 Y9.491 Z-0.2149
X71.6357 Y9.4917 Z-0.2129
X71.6376 Y9.4922 Z-0.2105
X71.6389 Y9.4927 Z-0.2078
X71.6398 Y9.4929 Z-0.2049
X71.6401 Y9.493 Z-0.2018
G0 Z0.4
X71.4182 Y11.9889
Z0.13
G1 Z0.0657 F40.
G18 G2 X71.4339 Z0.05 I0.0157 K0.
G1 X71.4417
G17 G3 X71.4528 Y12. I0. J0.0111
X71.4083 Z0.0323 I-0.0223 J0.
X71.4219 Y11.9795 Z0.0257 I0.0223 J0.
X71.4392 Y12.0205 Z0.008 I0.0087 J0.0205
X71.4151 Y12.016 Z0.0014 I-0.0087 J-0.0205
X71.446 Y11.984 Z-0.0164 I0.0155 J-0.016
X71.4513 Y12.008 Z-0.023 I-0.0155 J0.016
X71.4098 Y11.992 Z-0.0407 I-0.0208 J-0.008
X71.4298 Y11.9778 Z-0.0473 I0.0208 J0.008
X71.4313 Y12.0222 Z-0.065 I0.0008 J0.0222
X71.4298 Y11.9778 Z-0.0827 I-0.0008 J-0.0222
X71.4313 Y12.0222 Z-0.1004 I0.0008 J0.0222
X71.4298 Y11.9778 Z-0.1182 I-0.0008 J-0.0222
X71.4378 Y11.979 Z-0.1202 I0.0008 J0.0222
X71.4233 Y12.021 Z-0.1379 I-0.0073 J0.021
X71.4378 Y11.979 Z-0.1557 I0.0073 J-0.021
X71.4406 Y12.0198 Z-0.1689 I-0.0073 J0.021
X71.4205 Y11.9802 Z-0.1866 I-0.0101 J-0.0198
X71.4449 Y11.983 Z-0.1932 I0.0101 J0.0198
X71.4162 Y12.017 Z-0.2109 I-0.0143 J0.017
X71.4093 Y11.9934 Z-0.2175 I0.0143 J-0.017
X71.4518 Y12.0066 I0.0213 J0.0066
X71.4093 Y11.9934 I-0.0213 J-0.0066
X71.4232 Y11.9861 I0.0106 J0.0033
G1 X71.4307 Y11.9884
X71.4336 Y11.9893 Z-0.2172
X71.4364 Y11.9902 Z-0.2163
X71.439 Y11.991 Z-0.2149
X71.4412 Y11.9917 Z-0.2129
X71.4431 Y11.9922 Z-0.2105
X71.4445 Y11.9927 Z-0.2078
X71.4453 Y11.9929 Z-0.2049
X71.4456 Y11.993 Z-0.2018
G0 Z0.4
X71.1875 Y13.5
Z0.1143
G1 Z0.05 F40.
X71.1881 Y13.4994
G3 X71.1887 Y13.5 I0. J0.0006
X71.1862 Z0.036 I-0.0012 J0.
X71.1874 Y13.4988 Z0.0294 I0.0012 J0.
X71.1876 Y13.5012 Z0.0154 I0.0001 J0.0012
X71.1863 Y13.5003 Z0.0088 I-0.0001 J-0.0012
X71.1887 Y13.4997 Z-0.0052 I0.0012 J-0.0003
X71.1879 Y13.5012 Z-0.0117 I-0.0012 J0.0003
X71.1871 Y13.4988 Z-0.0257 I-0.0004 J-0.0012
X71.1886 Y13.4995 Z-0.0323 I0.0004 J0.0012
X71.1864 Y13.5005 Z-0.0463 I-0.0011 J0.0005
X71.1869 Y13.4989 Z-0.0529 I0.0011 J-0.0005
X71.1881 Y13.5011 Z-0.0669 I0.0006 J0.0011
X71.1865 Y13.5007 Z-0.0735 I-0.0006 J-0.0011
X71.1885 Y13.4993 Z-0.0875 I0.001 J-0.0007
X71.1883 Y13.501 Z-0.094 I-0.001 J0.0007
X71.1867 Y13.499 Z-0.1081 I-0.0008 J-0.001
X71.1884 Y13.4991 Z-0.1146 I0.0008 J0.001
X71.1866 Y13.5009 Z-0.1286 I-0.0009 J0.0009
X71.1865 Y13.4992 Z-0.1352 I0.0009 J-0.0009
X71.1885 Y13.5008 Z-0.1492 I0.001 J0.0008
X71.1868 Y13.5011 Z-0.1558 I-0.001 J-0.0008
X71.1882 Y13.4989 Z-0.1698 I0.0007 J-0.0011
X71.1886 Y13.5006 Z-0.1763 I-0.0007 J0.0011
X71.1864 Y13.4994 Z-0.1904 I-0.0011 J-0.0006
X71.1879 Y13.4988 Z-0.1969 I0.0011 J0.0006
X71.1871 Y13.5012 Z-0.2109 I-0.0004 J0.0012
X71.1863 Y13.4997 Z-0.2175 I0.0004 J-0.0012
X71.1887 Y13.5003 I0.0012 J0.0003
X71.1863 Y13.4997 I-0.0012 J-0.0003
X71.1871 Y13.4992 I0.0006 J0.0002
G1 X71.1875 Y13.5
G0 Z0.4
X69.8646 Y14.2152
Z0.1143
G1 Z0.05 F40.
X69.8652 Y14.2146
G3 X69.8658 Y14.2152 I0. J0.0006
X69.8633 Z0.036 I-0.0012 J0.
X69.8645 Y14.214 Z0.0294 I0.0012 J0.
X69.8647 Y14.2165 Z0.0154 I0.0001 J0.0012
X69.8634 Y14.2155 Z0.0088 I-0.0001 J-0.0012
X69.8658 Y14.215 Z-0.0052 I0.0012 J-0.0002
X69.865 Y14.2164 Z-0.0117 I-0.0012 J0.0002
X69.8642 Y14.214 Z-0.0257 I-0.0004 J-0.0012
X69.8657 Y14.2147 Z-0.0323 I0.0004 J0.0012
X69.8634 Y14.2157 Z-0.0463 I-0.0011 J0.0005
X69.864 Y14.2141 Z-0.0529 I0.0011 J-0.0005
X69.8652 Y14.2163 Z-0.0669 I0.0006 J0.0011
X69.8636 Y14.2159 Z-0.0735 I-0.0006 J-0.0011
X69.8656 Y14.2145 Z-0.0875 I0.001 J-0.0007
X69.8654 Y14.2162 Z-0.094 I-0.001 J0.0007
X69.8638 Y14.2143 Z-0.1081 I-0.0008 J-0.001
X69.8655 Z-0.1146 I0.0008 J0.001
X69.8637 Y14.2161 Z-0.1286 I-0.0009 J0.0009
X69.8636 Y14.2144 Z-0.1352 I0.0009 J-0.0009
X69.8656 Y14.216 Z-0.1492 I0.001 J0.0008
X69.8639 Y14.2163 Z-0.1558 I-0.001 J-0.0008
X69.8653 Y14.2142 Z-0.1698 I0.0007 J-0.0011
X69.8657 Y14.2158 Z-0.1763 I-0.0007 J0.0011
X69.8635 Y14.2147 Z-0.1904 I-0.0011 J-0.0006
X69.865 Y14.214 Z-0.1969 I0.0011 J0.0006
X69.8642 Y14.2164 Z-0.2109 I-0.0004 J0.0012
X69.8634 Y14.2149 Z-0.2175 I0.0004 J-0.0012
X69.8658 Y14.2155 I0.0012 J0.0003
X69.8634 Y14.2149 I-0.0012 J-0.0003
X69.8642 Y14.2144 I0.0006 J0.0002
G1 X69.8646 Y14.2152
G0 Z0.4
X69.4337 Y14.4688
Z0.1143
G1 Z0.05 F40.
X69.4343 Y14.4682
G3 X69.4349 Y14.4688 I0. J0.0006
X69.4324 Z0.036 I-0.0012 J0.
X69.4335 Y14.4676 Z0.0294 I0.0012 J0.
X69.4338 Y14.47 Z0.0154 I0.0001 J0.0012
X69.4335 Y14.4676 Z0.0014 I-0.0001 J-0.0012
X69.434 Y14.47 Z-0.0117 I0.0001 J0.0012
X69.4333 Y14.4676 Z-0.0257 I-0.0004 J-0.0012
X69.4348 Y14.4683 Z-0.0323 I0.0004 J0.0012
X69.4325 Y14.4693 Z-0.0463 I-0.0011 J0.0005
X69.4331 Y14.4677 Z-0.0529 I0.0011 J-0.0005
X69.4343 Y14.4699 Z-0.0669 I0.0006 J0.0011
X69.4326 Y14.4695 Z-0.0735 I-0.0006 J-0.0011
X69.4347 Y14.4681 Z-0.0875 I0.001 J-0.0007
X69.4345 Y14.4698 Z-0.094 I-0.001 J0.0007
X69.4329 Y14.4678 Z-0.1081 I-0.0008 J-0.001
X69.4345 Y14.4679 Z-0.1146 I0.0008 J0.001
X69.4328 Y14.4697 Z-0.1286 I-0.0009 J0.0009
X69.4327 Y14.468 Z-0.1352 I0.0009 J-0.0009
X69.4347 Y14.4696 Z-0.1492 I0.001 J0.0008
X69.433 Y14.4699 Z-0.1558 I-0.001 J-0.0008
X69.4343 Y14.4677 Z-0.1698 I0.0007 J-0.0011
X69.4348 Y14.4694 Z-0.1763 I-0.0007 J0.0011
X69.4326 Y14.4682 Z-0.1904 I-0.0011 J-0.0006
X69.4341 Y14.4676 Z-0.1969 I0.0011 J0.0006
X69.4332 Y14.47 Z-0.2109 I-0.0004 J0.0012
X69.4325 Y14.4685 Z-0.2175 I0.0004 J-0.0012
X69.4349 Y14.4691 I0.0012 J0.0003
X69.4325 Y14.4685 I-0.0012 J-0.0003
X69.4332 Y14.468 I0.0006 J0.0002
G1 X69.4337 Y14.4688
G0 Z0.4
X67.0489 Y14.1651
Z0.13
G1 Z0.0657 F40.
G18 G2 X67.0646 Z0.05 I0.0156 K0.
G1 X67.0724
G17 G3 X67.0823 Y14.175 I0. J0.0099
X67.0427 Z0.0327 I-0.0198 J0.
X67.0822 Z0.0154 I0.0198 J0.
X67.046 Y14.1859 Z0.0014 I-0.0198 J0.
X67.079 Y14.1641 Z-0.0159 I0.0165 J-0.0109
X67.0776 Y14.1877 Z-0.023 I-0.0165 J0.0109
X67.0474 Y14.1623 Z-0.0402 I-0.0151 J-0.0127
X67.0703 Y14.1569 Z-0.0473 I0.0151 J0.0127
X67.0547 Y14.1931 Z-0.0646 I-0.0078 J0.0181
X67.0703 Y14.1569 Z-0.0818 I0.0078 J-0.0181
X67.0547 Y14.1931 Z-0.0991 I-0.0078 J0.0181
X67.0703 Y14.1569 Z-0.1164 I0.0078 J-0.0181
X67.0801 Y14.1661 Z-0.1202 I-0.0078 J0.0181
X67.0449 Y14.1839 Z-0.1375 I-0.0176 J0.0089
X67.0489 Y14.1607 Z-0.1445 I0.0176 J-0.0089
X67.0761 Y14.1893 Z-0.1618 I0.0136 J0.0143
X67.0527 Y14.1921 Z-0.1689 I-0.0136 J-0.0143
X67.0723 Y14.1579 Z-0.1861 I0.0098 J-0.0171
X67.0527 Y14.1921 Z-0.2034 I-0.0098 J0.0171
X67.0613 Y14.1553 Z-0.2175 I0.0098 J-0.0171
X67.0637 Y14.1947 I0.0012 J0.0197
X67.0613 Y14.1553 I-0.0012 J-0.0197
X67.0717 Y14.1645 I0.0006 J0.0099
G1 X67.0722 Y14.1723
X67.0724 Y14.1754 Z-0.2172
X67.0726 Y14.1783 Z-0.2163
X67.0728 Y14.181 Z-0.2149
X67.0729 Y14.1834 Z-0.2129
X67.073 Y14.1853 Z-0.2105
X67.0731 Y14.1868 Z-0.2078
X67.0732 Y14.1877 Z-0.2049
Y14.188 Z-0.2018
G0 Z0.4
X67.0489 Y14.9151
Z0.13
G1 Z0.0657 F40.
G18 G2 X67.0646 Z0.05 I0.0156 K0.
G1 X67.0724
G17 G3 X67.0823 Y14.925 I0. J0.0099
X67.0427 Z0.0327 I-0.0198 J0.
X67.0822 Z0.0154 I0.0198 J0.
X67.046 Y14.9359 Z0.0014 I-0.0198 J0.
X67.079 Y14.9141 Z-0.0159 I0.0165 J-0.0109
X67.0776 Y14.9377 Z-0.023 I-0.0165 J0.0109
X67.0474 Y14.9123 Z-0.0402 I-0.0151 J-0.0127
X67.0703 Y14.9069 Z-0.0473 I0.0151 J0.0127
X67.0547 Y14.9431 Z-0.0646 I-0.0078 J0.0181
X67.0429 Y14.9227 Z-0.0716 I0.0078 J-0.0181
X67.0821 Y14.9273 Z-0.0889 I0.0196 J0.0023
X67.0429 Y14.9227 Z-0.1062 I-0.0196 J-0.0023
X67.0801 Y14.9161 Z-0.1202 I0.0196 J0.0023
X67.0449 Y14.9339 Z-0.1375 I-0.0176 J0.0089
X67.0489 Y14.9107 Z-0.1445 I0.0176 J-0.0089
X67.0761 Y14.9393 Z-0.1618 I0.0136 J0.0143
X67.0527 Y14.9421 Z-0.1689 I-0.0136 J-0.0143
X67.0723 Y14.9079 Z-0.1861 I0.0098 J-0.0171
X67.0527 Y14.9421 Z-0.2034 I-0.0098 J0.0171
X67.0613 Y14.9053 Z-0.2175 I0.0098 J-0.0171
X67.0637 Y14.9447 I0.0012 J0.0197
X67.0613 Y14.9053 I-0.0012 J-0.0197
X67.0717 Y14.9145 I0.0006 J0.0099
G1 X67.0722 Y14.9223
X67.0724 Y14.9254 Z-0.2172
X67.0726 Y14.9283 Z-0.2163
X67.0728 Y14.931 Z-0.2149
X67.0729 Y14.9334 Z-0.2129
X67.073 Y14.9353 Z-0.2105
X67.0731 Y14.9368 Z-0.2078
X67.0732 Y14.9377 Z-0.2049
Y14.938 Z-0.2018
G0 Z0.4
X67.0489 Y15.6651
Z0.13
G1 Z0.0657 F40.
G18 G2 X67.0646 Z0.05 I0.0156 K0.
G1 X67.0724
G17 G3 X67.0823 Y15.675 I0. J0.0099
X67.0427 Z0.0327 I-0.0198 J0.
X67.0822 Z0.0154 I0.0198 J0.
X67.0427 Z-0.0018 I-0.0198 J0.
X67.0822 Z-0.0191 I0.0198 J0.
X67.0776 Y15.6877 Z-0.023 I-0.0198 J0.
X67.0474 Y15.6623 Z-0.0402 I-0.0151 J-0.0127
X67.0703 Y15.6569 Z-0.0473 I0.0151 J0.0127
X67.0547 Y15.6931 Z-0.0646 I-0.0078 J0.0181
X67.0429 Y15.6727 Z-0.0716 I0.0078 J-0.0181
X67.0821 Y15.6773 Z-0.0889 I0.0196 J0.0023
X67.0429 Y15.6727 Z-0.1062 I-0.0196 J-0.0023
X67.0821 Y15.6773 Z-0.1234 I0.0196 J0.0023
X67.0429 Y15.6727 Z-0.1407 I-0.0196 J-0.0023
X67.0489 Y15.6607 Z-0.1445 I0.0196 J0.0023
X67.0761 Y15.6893 Z-0.1618 I0.0136 J0.0143
X67.0527 Y15.6921 Z-0.1689 I-0.0136 J-0.0143
X67.0723 Y15.6579 Z-0.1861 I0.0098 J-0.0171
X67.0817 Y15.6795 Z-0.1932 I-0.0098 J0.0171
X67.0433 Y15.6705 Z-0.2105 I-0.0192 J-0.0045
X67.0613 Y15.6553 Z-0.2175 I0.0192 J0.0045
X67.0637 Y15.6947 I0.0012 J0.0197
X67.0613 Y15.6553 I-0.0012 J-0.0197
X67.0717 Y15.6645 I0.0006 J0.0099
G1 X67.0722 Y15.6723
X67.0724 Y15.6754 Z-0.2172
X67.0726 Y15.6783 Z-0.2163
X67.0728 Y15.681 Z-0.2149
X67.0729 Y15.6834 Z-0.2129
X67.073 Y15.6853 Z-0.2105
X67.0731 Y15.6868 Z-0.2078
X67.0732 Y15.6877 Z-0.2049
Y15.688 Z-0.2018
G0 Z0.6
(.3 CIRCULAR THROUGH HOLE 2)
M7
G0 X70.546 Y8.0842
Z0.6
Z0.2
G1 Z0.1151 F13.333
G3 X70.5446 Y8.084 Z0.1085 I0.0051 J-0.0447 F55.
X70.5405 Y8.0832 Z0.1031 I0.0066 J-0.0445
X70.5348 Y8.0814 Z0.1 I0.0106 J-0.0437
X70.5675 Y7.9975 Z0.0621 I0.0163 J-0.0419
X70.5348 Y8.0814 Z0.0242 I-0.0163 J0.0419
X70.5675 Y7.9975 Z-0.0136 I0.0163 J-0.0419
X70.5348 Y8.0814 Z-0.0515 I-0.0164 J0.0419
X70.5675 Y7.9975 Z-0.0894 I0.0164 J-0.0419
X70.5348 Y8.0814 Z-0.1273 I-0.0164 J0.0419
X70.5675 Y7.9975 Z-0.1652 I0.0164 J-0.0419
X70.5348 Y8.0814 Z-0.203 I-0.0164 J0.0419
X70.5061 Y8.0394 Z-0.2175 I0.0164 J-0.0419
X70.5565 I0.0252 J0. F60.
X70.4061 I-0.0752 J0.
X70.6565 I0.1252 J0.
X70.3061 I-0.1752 J0.
X70.7565 I0.2252 J0.
X70.2061 I-0.2752 J0.
X70.8565 I0.3252 J0.
X70.1061 I-0.3752 J0.
X70.8565 I0.3752 J0.
G2 X70.8998 Y8.109 I0.0774 J0.
G3 X70.9319 Y8.1844 I-0.0275 J0.0562
X70.0079 Y8.0394 I-0.4506 J-0.1451
X70.9547 I0.4734 J0.0002
X70.9319 Y8.1844 I-0.4734 J-0.0002
G2 X70.9343 Y8.193 I0.0077 J0.0025
G3 X70.9366 Y8.2016 I-0.0052 J0.006
X69.9979 Y8.0394 I-0.4553 J-0.1624
X70.9647 I0.4834 J0.0002
X70.9366 Y8.2016 I-0.4834 J-0.0002
X70.9335 Y8.2068 Z-0.2163 I-0.0147 J-0.0053
X70.9296 Y8.21 Z-0.2129 I-0.0117 J-0.0104
X70.9265 Y8.2113 Z-0.2078 I-0.0078 J-0.0136
X70.9254 Y8.2116 Z-0.2019 I-0.0047 J-0.0149
G0 Z0.4
X69.6537 Y9.9878
Z0.2
G1 Z0.1151 F13.333
G3 X69.6523 Y9.9876 Z0.1085 I0.0051 J-0.0447 F55.
X69.6482 Y9.9868 Z0.1031 I0.0066 J-0.0445
X69.6425 Y9.985 Z0.1 I0.0106 J-0.0437
X69.6752 Y9.9011 Z0.0621 I0.0163 J-0.0419
X69.6425 Y9.985 Z0.0242 I-0.0163 J0.0419
X69.6752 Y9.9011 Z-0.0136 I0.0163 J-0.0419
X69.6425 Y9.985 Z-0.0515 I-0.0164 J0.0419
X69.6752 Y9.9011 Z-0.0894 I0.0164 J-0.0419
X69.6425 Y9.985 Z-0.1273 I-0.0164 J0.0419
X69.6752 Y9.9011 Z-0.1652 I0.0164 J-0.0419
X69.6425 Y9.985 Z-0.203 I-0.0164 J0.0419
X69.6138 Y9.9431 Z-0.2175 I0.0164 J-0.0419
X69.661 I0.0236 J0. F60.
X69.5138 I-0.0736 J0.
X69.761 I0.1236 J0.
X69.4138 I-0.1736 J0.
X69.861 I0.2236 J0.
X69.3138 I-0.2736 J0.
X69.961 I0.3236 J0.
X69.2138 I-0.3736 J0.
X70.061 I0.4236 J0.
X69.1138 I-0.4736 J0.
X70.071 I0.4786 J0.
X69.1038 I-0.4836 J0.
X70.071 I0.4836 J0.
X70.0698 Y9.9489 Z-0.2163 I-0.0157 J0.
X70.0672 Y9.9532 Z-0.2129 I-0.0145 J-0.0058
X70.0647 Y9.9556 Z-0.2078 I-0.0119 J-0.0102
X70.0638 Y9.9562 Z-0.2019 I-0.0094 J-0.0125
G0 Z0.4
X73.5562 Y9.5977
Z0.2
G1 Z0.1151 F13.333
G3 X73.5548 Y9.5975 Z0.1085 I0.0051 J-0.0447 F55.
X73.5507 Y9.5967 Z0.1031 I0.0066 J-0.0445
X73.545 Y9.5949 Z0.1 I0.0106 J-0.0437
X73.5777 Y9.511 Z0.0621 I0.0163 J-0.0419
X73.545 Y9.5949 Z0.0242 I-0.0163 J0.0419
X73.5777 Y9.511 Z-0.0136 I0.0163 J-0.0419
X73.545 Y9.5949 Z-0.0515 I-0.0163 J0.0419
X73.5777 Y9.511 Z-0.0894 I0.0163 J-0.0419
X73.545 Y9.5949 Z-0.1273 I-0.0163 J0.0419
X73.5777 Y9.511 Z-0.1652 I0.0163 J-0.0419
X73.545 Y9.5949 Z-0.203 I-0.0163 J0.0419
X73.5164 Y9.553 Z-0.2175 I0.0163 J-0.0419
X73.5667 I0.0252 J0. F60.
X73.4164 I-0.0752 J0.
X73.6667 I0.1252 J0.
X73.3164 I-0.1752 J0.
X73.7667 I0.2252 J0.
X73.2164 I-0.2752 J0.
X73.8667 I0.3252 J0.
X73.1164 I-0.3752 J0.
X73.8667 I0.3752 J0.
G2 X73.9101 Y9.6225 I0.0774 J0.
G3 X73.9421 Y9.6979 I-0.0275 J0.0562
X73.0182 Y9.553 I-0.4506 J-0.1451
X73.9649 I0.4734 J0.0002
X73.9421 Y9.6979 I-0.4734 J-0.0002
G2 X73.9445 Y9.7065 I0.0077 J0.0025
G3 X73.9468 Y9.7151 I-0.0052 J0.006
X73.0082 Y9.553 I-0.4553 J-0.1624
X73.9749 I0.4834 J0.0002
X73.9468 Y9.7151 I-0.4834 J-0.0002
X73.9438 Y9.7203 Z-0.2163 I-0.0147 J-0.0053
X73.9399 Y9.7235 Z-0.2129 I-0.0117 J-0.0104
X73.9368 Y9.7248 Z-0.2078 I-0.0078 J-0.0136
X73.9356 Y9.7251 Z-0.2019 I-0.0047 J-0.0149
G0 Z0.4
X73.5722 Y7.5447
Z0.2
G1 Z0.1151 F13.333
G3 X73.5708 Y7.5445 Z0.1085 I0.0051 J-0.0447 F55.
X73.5667 Y7.5437 Z0.1031 I0.0066 J-0.0445
X73.561 Y7.5419 Z0.1 I0.0106 J-0.0437
X73.5937 Y7.4581 Z0.0621 I0.0163 J-0.0419
X73.561 Y7.5419 Z0.0242 I-0.0163 J0.0419
X73.5937 Y7.4581 Z-0.0136 I0.0163 J-0.0419
X73.561 Y7.5419 Z-0.0515 I-0.0163 J0.0419
X73.5937 Y7.4581 Z-0.0894 I0.0163 J-0.0419
X73.561 Y7.5419 Z-0.1273 I-0.0163 J0.0419
X73.5937 Y7.4581 Z-0.1652 I0.0163 J-0.0419
X73.561 Y7.5419 Z-0.203 I-0.0163 J0.0419
X73.5323 Y7.5 Z-0.2175 I0.0163 J-0.0419
X73.5795 I0.0236 J0. F60.
X73.4323 I-0.0736 J0.
X73.6795 I0.1236 J0.
X73.3323 I-0.1736 J0.
X73.7795 I0.2236 J0.
X73.2323 I-0.2736 J0.
X73.8795 I0.3236 J0.
X73.1323 I-0.3736 J0.
X73.9795 I0.4236 J0.
X73.0323 I-0.4736 J0.
X73.9895 I0.4786 J0.
X73.0224 I-0.4836 J0.
X73.9895 I0.4836 J0.
X73.9883 Y7.5058 Z-0.2163 I-0.0156 J0.
X73.9857 Y7.5102 Z-0.2129 I-0.0145 J-0.0058
X73.9833 Y7.5125 Z-0.2078 I-0.0119 J-0.0102
X73.9823 Y7.5132 Z-0.2019 I-0.0094 J-0.0125
G0 Z0.4
X69.7825 Y6.3418
Z0.2
G1 Z0.1151 F13.333
G3 X69.781 Y6.3416 Z0.1085 I0.0051 J-0.0447 F55.
X69.777 Y6.3408 Z0.1031 I0.0066 J-0.0445
X69.7712 Y6.339 Z0.1 I0.0106 J-0.0437
X69.7426 Y6.297 Z0.0855 I0.0163 J-0.0419
X69.8146 Y6.261 Z0.0588 I0.045 J0.
Y6.333 Z0.0365 I-0.027 J0.036
X69.7606 Y6.261 Z-0.0014 I-0.027 J-0.036
X69.8146 Z-0.0169 I0.027 J0.036
Y6.333 Z-0.0393 I-0.027 J0.036
X69.7606 Y6.261 Z-0.0772 I-0.027 J-0.036
X69.8146 Z-0.0927 I0.027 J0.036
Y6.333 Z-0.115 I-0.027 J0.036
X69.7606 Y6.261 Z-0.1529 I-0.027 J-0.036
X69.8146 Z-0.1684 I0.027 J0.036
Y6.333 Z-0.1908 I-0.027 J0.036
X69.7426 Y6.297 Z-0.2175 I-0.027 J-0.036
X69.7897 I0.0236 J0. F60.
X69.6426 I-0.0736 J0.
X69.8897 I0.1236 J0.
X69.5426 I-0.1736 J0.
X69.9897 I0.2236 J0.
X69.4426 I-0.2736 J0.
X70.0897 I0.3236 J0.
X69.3426 I-0.3736 J0.
X70.1897 I0.4236 J0.
X69.2426 I-0.4736 J0.
X70.1997 I0.4786 J0.
X69.2326 I-0.4836 J0.
X70.1997 I0.4836 J0.
X70.1986 Y6.3029 Z-0.2163 I-0.0157 J0.
X70.196 Y6.3072 Z-0.2129 I-0.0145 J-0.0058
X70.1935 Y6.3095 Z-0.2078 I-0.0119 J-0.0102
X70.1925 Y6.3102 Z-0.2019 I-0.0094 J-0.0125
G0 Z0.6
(SHAPE THROUGH FINISHING PASS 2)
M7
G0 X71.3929 Y8.5824
Z0.6
Z0.2
G1 Z0.1 F13.333
Z-0.1675
Y8.5821 Z-0.1731 F40.
Y8.5812 Z-0.1786
Y8.5796 Z-0.184
X71.3928 Y8.5775 Z-0.1892
Y8.5748 Z-0.1941
Y8.5715 Z-0.1987
X71.3927 Y8.5678 Z-0.2029
Y8.5636 Z-0.2066
X71.3926 Y8.5591 Z-0.2098
Y8.5541 Z-0.2125
X71.3925 Y8.549 Z-0.2147
Y8.5436 Z-0.2162
X71.3924 Y8.538 Z-0.2172
X71.3923 Y8.5325 Z-0.2175
X71.3922 Y8.5168
G3 X71.4427 Y8.5663 I0.0005 J0.05
G1 X71.4473 Y8.9892
G3 X71.4443 Y8.9903 I-0.0017 J0.
G1 X71.1167 Y8.5718
G3 X71.1168 Y8.5696 I0.0014 J-0.0011
G1 Y8.5695
G2 X71.2703 Y7.7906 I-0.6357 J-0.5299
G3 X71.2711 Y7.7886 I0.0017 J-0.0005
G1 X71.2713 Y7.7885
X71.4051 Y7.7125
G3 X71.4068 Y7.7126 I0.0008 J0.0014
G1 X71.4069
G2 X71.4327 Y7.7274 I0.1946 J-0.3105
G3 X71.4336 Y7.7289 I-0.0008 J0.0015
G1 X71.4427 Y8.5663
G3 X71.3933 Y8.6168 I-0.05 J0.0005
G1 X71.3931 Y8.6011
X71.393 Y8.5955 Z-0.2172
Y8.59 Z-0.2162
X71.3929 Y8.5846 Z-0.2147
Y8.5795 Z-0.2125
X71.3928 Y8.5745 Z-0.2098
Y8.57 Z-0.2066
X71.3927 Y8.5658 Z-0.2029
Y8.5621 Z-0.1987
X71.3926 Y8.5588 Z-0.1941
Y8.5561 Z-0.1892
Y8.554 Z-0.184
Y8.5524 Z-0.1786
Y8.5515 Z-0.1731
Y8.5512 Z-0.1675
G0 Z0.4
X72.1666 Y8.3813
Z0.2
G1 Z0.1 F13.333
Z-0.1675
X72.1664 Y8.381 Z-0.1731 F40.
X72.1657 Y8.3803 Z-0.1786
X72.1647 Y8.3792 Z-0.184
X72.1633 Y8.3776 Z-0.1892
X72.1615 Y8.3755 Z-0.1941
X72.1594 Y8.3731 Z-0.1987
X72.1569 Y8.3703 Z-0.2029
X72.1541 Y8.3671 Z-0.2066
X72.1511 Y8.3637 Z-0.2098
X72.1479 Y8.36 Z-0.2125
X72.1445 Y8.3561 Z-0.2147
X72.1409 Y8.3521 Z-0.2162
X72.1372 Y8.3479 Z-0.2172
X72.1335 Y8.3437 Z-0.2175
X72.1232 Y8.332
G3 X72.1938 Y8.3365 I0.033 J0.0376
G1 X72.3325 Y8.4943
G3 X72.3324 Y8.4967 I-0.0014 J0.0012
G1 X71.7954 Y9.0678
G3 X71.7924 Y9.0666 I-0.0012 J-0.0012
G1 X71.7794 Y7.8695
G3 X71.7822 Y7.8684 I0.0016 J0.
G1 X72.1938 Y8.3365
G3 X72.1892 Y8.4071 I-0.0376 J0.033
G1 X72.1789 Y8.3953
X72.1752 Y8.3911 Z-0.2172
X72.1716 Y8.387 Z-0.2162
X72.168 Y8.3829 Z-0.2147
X72.1646 Y8.379 Z-0.2125
X72.1613 Y8.3753 Z-0.2098
X72.1583 Y8.3719 Z-0.2066
X72.1556 Y8.3688 Z-0.2029
X72.1531 Y8.366 Z-0.1987
X72.151 Y8.3635 Z-0.1941
X72.1492 Y8.3615 Z-0.1892
X72.1477 Y8.3599 Z-0.184
X72.1467 Y8.3587 Z-0.1786
X72.1461 Y8.358 Z-0.1731
X72.1459 Y8.3578 Z-0.1675
G0 Z0.4
X72.6818 Y7.8023
Z0.2
G1 Z0.1 F13.333
Z-0.1675
X72.6817 Y7.802 Z-0.1731 F40.
X72.6814 Y7.8011 Z-0.1786
X72.6809 Y7.7996 Z-0.184
X72.6802 Y7.7976 Z-0.1892
X72.6793 Y7.795 Z-0.1941
X72.6782 Y7.792 Z-0.1987
X72.677 Y7.7884 Z-0.2029
X72.6757 Y7.7845 Z-0.2066
X72.6742 Y7.7802 Z-0.2098
X72.6725 Y7.7755 Z-0.2125
X72.6709 Y7.7706 Z-0.2147
X72.6691 Y7.7655 Z-0.2162
X72.6673 Y7.7603 Z-0.2172
X72.6654 Y7.755 Z-0.2175
X72.6603 Y7.7402
G3 X72.7239 Y7.7711 I0.0164 J0.0472
G2 X72.825 Y7.9706 I0.7821 J-0.2708
G1 Y7.9707
G3 X72.8249 Y7.9729 I-0.0014 J0.001
G1 X72.5714 Y8.2424
G3 X72.569 Y8.2423 I-0.0012 J-0.0011
G1 X72.0033 Y7.5984
X72.0031 Y7.5982
G3 X72.0045 Y7.5955 I0.0012 J-0.0011
G1 X72.0047
X72.6872 Y7.6304
G3 X72.6889 Y7.6319 I-0.0001 J0.0018
G2 X72.7239 Y7.7711 I0.8171 J-0.1316
G3 X72.6931 Y7.8347 I-0.0472 J0.0164
G1 X72.6879 Y7.82
X72.6861 Y7.8147 Z-0.2172
X72.6843 Y7.8094 Z-0.2162
X72.6825 Y7.8043 Z-0.2147
X72.6808 Y7.7995 Z-0.2125
X72.6792 Y7.7948 Z-0.2098
X72.6777 Y7.7905 Z-0.2066
X72.6764 Y7.7865 Z-0.2029
X72.6751 Y7.783 Z-0.1987
X72.6741 Y7.7799 Z-0.1941
X72.6732 Y7.7774 Z-0.1892
X72.6725 Y7.7754 Z-0.184
X72.672 Y7.7739 Z-0.1786
X72.6717 Y7.773 Z-0.1731
X72.6716 Y7.7727 Z-0.1675
G0 Z0.4
X72.0885 Y7.008
Z0.2
G1 Z0.1 F13.333
Z-0.1675
X72.0882 Y7.0078 Z-0.1731 F40.
X72.0874 Y7.0074 Z-0.1786
X72.086 Y7.0067 Z-0.184
X72.0841 Y7.0057 Z-0.1892
X72.0817 Y7.0044 Z-0.1941
X72.0788 Y7.0029 Z-0.1987
X72.0755 Y7.0012 Z-0.2029
X72.0718 Y6.9992 Z-0.2066
X72.0678 Y6.9971 Z-0.2098
X72.0634 Y6.9948 Z-0.2125
X72.0588 Y6.9924 Z-0.2147
X72.054 Y6.9899 Z-0.2162
X72.0492 Y6.9874 Z-0.2172
X72.0442 Y6.9848 Z-0.2175
X72.0303 Y6.9775
G3 X72.0978 Y6.9564 I0.0443 J0.0232
G1 X72.7078 Y7.276
G3 X72.7085 Y7.2779 I-0.0007 J0.0014
G2 X72.7077 Y7.281 I0.0753 J0.0212
X72.7066 Y7.2858 I0.8052 J0.1912
G3 X72.7048 Y7.2868 I-0.0017 J-0.0009
G1 X71.9351 Y7.2475
X71.9349
G3 X71.9334 Y7.2464 I0.0001 J-0.0018
G2 X71.7196 Y7.0558 I-0.3312 J0.1561
G3 X71.7185 Y7.0545 I0.0005 J-0.0016
G1 Y7.0542
X71.7146 Y7.0311
G3 X71.7155 Y7.0293 I0.0016 J-0.0003
G2 X71.8471 Y6.9305 I-0.1358 J-0.318
G1 X71.8473 Y6.9303
G3 X71.8478 Y6.9299 I0.0014 J0.0011
G2 X71.9319 Y6.8709 I-0.1541 J-0.3093
G1 X71.932
G3 X71.934 Y6.8706 I0.0012 J0.0013
G1 X71.9342
X72.0978 Y6.9564
G3 X72.1189 Y7.0239 I-0.0232 J0.0443
G1 X72.105 Y7.0166
X72.1001 Y7.014 Z-0.2172
X72.0952 Y7.0115 Z-0.2162
X72.0904 Y7.009 Z-0.2147
X72.0858 Y7.0066 Z-0.2125
X72.0815 Y7.0043 Z-0.2098
X72.0774 Y7.0022 Z-0.2066
X72.0737 Y7.0002 Z-0.2029
X72.0704 Y6.9985 Z-0.1987
X72.0675 Y6.997 Z-0.1941
X72.0651 Y6.9957 Z-0.1892
X72.0632 Y6.9947 Z-0.184
X72.0619 Y6.994 Z-0.1786
X72.061 Y6.9936 Z-0.1731
X72.0608 Y6.9934 Z-0.1675
G0 Z0.4
X72.657 Y6.4064
Z0.2
G1 Z0.1 F13.333
Z-0.1675
X72.6569 Y6.4061 Z-0.1731 F40.
X72.6564 Y6.4053 Z-0.1786
X72.6557 Y6.4039 Z-0.184
X72.6546 Y6.402 Z-0.1892
X72.6533 Y6.3996 Z-0.1941
X72.6518 Y6.3968 Z-0.1987
X72.65 Y6.3935 Z-0.2029
X72.648 Y6.3898 Z-0.2066
X72.6458 Y6.3858 Z-0.2098
X72.6435 Y6.3815 Z-0.2125
X72.641 Y6.377 Z-0.2147
X72.6384 Y6.3722 Z-0.2162
X72.6358 Y6.3674 Z-0.2172
X72.6331 Y6.3625 Z-0.2175
X72.6256 Y6.3487
G3 X72.6934 Y6.3687 I0.0239 J0.0439
G1 X72.9667 Y6.8703
X72.9668 Y6.8705
G3 X72.9664 Y6.8725 I-0.0014 J0.0008
G1 X72.9662 Y6.8726
G2 X72.8697 Y6.9709 I0.5403 J0.6268
G3 X72.8675 Y6.9714 I-0.0014 J-0.0012
G1 X72.8674
X72.0951 Y6.5668
G3 X72.0941 Y6.5647 I0.0009 J-0.0017
G2 X72.0951 Y6.4169 I-0.3374 J-0.0761
G1 X72.095 Y6.4167
G3 Y6.416 I0.0015 J-0.0003
G1 X72.0951 Y6.4158
G2 X72.1022 Y6.3602 I-0.3385 J-0.0716
G3 X72.1033 Y6.3587 I0.0017 J0.0001
G1 X72.5355 Y6.2026
G3 X72.5371 Y6.2028 I0.0005 J0.0016
G2 X72.6437 Y6.2786 I0.9267 J-1.1914
X72.6443 Y6.279 I0.0425 J-0.0657
G3 X72.6449 Y6.2796 I-0.001 J0.0015
G1 X72.6934 Y6.3687
G3 X72.6734 Y6.4365 I-0.0439 J0.0239
G1 X72.666 Y6.4228
X72.6633 Y6.4179 Z-0.2172
X72.6606 Y6.413 Z-0.2162
X72.6581 Y6.4083 Z-0.2147
X72.6556 Y6.4037 Z-0.2125
X72.6532 Y6.3994 Z-0.2098
X72.651 Y6.3954 Z-0.2066
X72.649 Y6.3918 Z-0.2029
X72.6473 Y6.3885 Z-0.1987
X72.6457 Y6.3856 Z-0.1941
X72.6444 Y6.3832 Z-0.1892
X72.6434 Y6.3814 Z-0.184
X72.6426 Y6.38 Z-0.1786
X72.6422 Y6.3792 Z-0.1731
X72.642 Y6.3789 Z-0.1675
G0 Z0.4
X73.3071 Y6.6451
Z0.2
G1 Z0.1 F13.333
Z-0.1675
X73.3074 Z-0.1731 F40.
X73.3083 Y6.6449 Z-0.1786
X73.3099 Y6.6445 Z-0.184
X73.312 Y6.6441 Z-0.1892
X73.3146 Y6.6435 Z-0.1941
X73.3178 Y6.6428 Z-0.1987
X73.3214 Y6.6421 Z-0.2029
X73.3255 Y6.6412 Z-0.2066
X73.33 Y6.6402 Z-0.2098
X73.3348 Y6.6392 Z-0.2125
X73.3399 Y6.6381 Z-0.2147
X73.3451 Y6.637 Z-0.2162
X73.3505 Y6.6358 Z-0.2172
X73.356 Y6.6347 Z-0.2175
X73.3713 Y6.6314
G3 X73.3329 Y6.6907 I-0.0489 J0.0105
G2 X73.2708 Y6.7066 I0.1731 J0.8093
G3 X73.2687 Y6.7057 I-0.0005 J-0.0018
G1 X73.1518 Y6.491
X73.1517 Y6.4909
G3 X73.1536 Y6.4884 I0.0015 J-0.0008
G2 X73.2557 Y6.5063 I0.3108 J-1.4769
G1 X73.2558
X73.9358 Y6.6007
G3 X73.9365 Y6.601 I-0.0003 J0.0017
G1 X73.9366 Y6.6011
X74.6361 Y7.0662
G3 X74.6368 Y7.0683 I-0.0011 J0.0016
G2 X74.6277 Y7.094 I0.3403 J0.1353
X74.6274 Y7.0951 I0.0747 J0.0234
G3 X74.6262 Y7.0962 I-0.0015 J-0.0005
G1 X74.6261
X74.2661 Y7.1695
G3 X74.2642 Y7.1686 I-0.0003 J-0.0017
G2 X73.3329 Y6.6907 I-0.7583 J0.3314
G3 X73.2735 Y6.6523 I-0.0105 J-0.0489
G1 X73.2888 Y6.649
X73.2943 Y6.6479 Z-0.2172
X73.2997 Y6.6467 Z-0.2162
X73.305 Y6.6456 Z-0.2147
X73.31 Y6.6445 Z-0.2125
X73.3148 Y6.6435 Z-0.2098
X73.3193 Y6.6425 Z-0.2066
X73.3234 Y6.6416 Z-0.2029
X73.3271 Y6.6409 Z-0.1987
X73.3302 Y6.6402 Z-0.1941
X73.3329 Y6.6396 Z-0.1892
X73.335 Y6.6392 Z-0.184
X73.3365 Y6.6388 Z-0.1786
X73.3374 Y6.6386 Z-0.1731
X73.3377 Z-0.1675
G0 Z0.4
X72.0438 Y5.6557
Z0.2
G1 Z0.1 F13.333
Z-0.1675
X72.0436 Y5.6554 Z-0.1731 F40.
X72.0433 Y5.6546 Z-0.1786
X72.0426 Y5.6532 Z-0.184
X72.0418 Y5.6512 Z-0.1892
X72.0407 Y5.6487 Z-0.1941
X72.0394 Y5.6457 Z-0.1987
X72.0379 Y5.6423 Z-0.2029
X72.0362 Y5.6385 Z-0.2066
X72.0343 Y5.6343 Z-0.2098
X72.0323 Y5.6298 Z-0.2125
X72.0303 Y5.6251 Z-0.2147
X72.0281 Y5.6202 Z-0.2162
X72.0258 Y5.6151 Z-0.2172
X72.0236 Y5.61 Z-0.2175
X72.0173 Y5.5957
G3 X72.0832 Y5.6212 I0.0202 J0.0457
G2 X72.2671 Y5.9313 I1.3808 J-0.6094
G3 X72.2663 Y5.934 I-0.0014 J0.0011
G1 X71.9911 Y6.0334
G3 X71.9889 Y6.0327 I-0.0006 J-0.0017
G2 X71.8478 Y5.9028 I-0.2954 J0.1793
G3 X71.8473 Y5.9024 I0.0008 J-0.0015
G1 X71.8471 Y5.9022
G2 X71.5842 Y5.7756 I-0.2675 J0.2192
G3 X71.5834 Y5.7754 I0. J-0.0018
G2 X71.5017 Y5.7491 I-0.1459 J0.3135
G3 X71.5004 Y5.7478 I0.0004 J-0.0016
G1 Y5.7477
X71.4961 Y5.7217
Y5.7215
G3 X71.4967 Y5.7199 I0.0016 J-0.0003
G2 X71.6329 Y5.3639 I-0.2239 J-0.2897
G3 X71.6353 Y5.362 I0.0017 J-0.0003
G1 X72.0554 Y5.556
X72.0557 Y5.5561
G3 X72.0566 Y5.5571 I-0.0008 J0.0017
G2 X72.0832 Y5.6212 I1.4074 J-0.5453
G3 X72.0576 Y5.6872 I-0.0457 J0.0202
G1 X72.0513 Y5.6728
X72.0491 Y5.6677 Z-0.2172
X72.0468 Y5.6627 Z-0.2162
X72.0447 Y5.6577 Z-0.2147
X72.0426 Y5.653 Z-0.2125
X72.0406 Y5.6485 Z-0.2098
X72.0387 Y5.6443 Z-0.2066
X72.037 Y5.6405 Z-0.2029
X72.0355 Y5.6371 Z-0.1987
X72.0342 Y5.6341 Z-0.1941
X72.0331 Y5.6316 Z-0.1892
X72.0323 Y5.6297 Z-0.184
X72.0316 Y5.6282 Z-0.1786
X72.0313 Y5.6274 Z-0.1731
X72.0311 Y5.6271 Z-0.1675
G0 Z0.4
X71.6576 Y6.5287
Z0.2
G1 Z0.1 F13.333
Z-0.1675
X71.6577 Y6.5284 Z-0.1731 F40.
X71.6581 Y6.5275 Z-0.1786
X71.6587 Y6.5261 Z-0.184
X71.6595 Y6.5241 Z-0.1892
X71.6606 Y6.5216 Z-0.1941
X71.6619 Y6.5186 Z-0.1987
X71.6634 Y6.5152 Z-0.2029
X71.6651 Y6.5114 Z-0.2066
X71.6669 Y6.5072 Z-0.2098
X71.6688 Y6.5027 Z-0.2125
X71.6709 Y6.4979 Z-0.2147
X71.673 Y6.493 Z-0.2162
X71.6752 Y6.4879 Z-0.2172
X71.6774 Y6.4828 Z-0.2175
X71.6837 Y6.4684
G3 X71.7097 Y6.5342 I-0.0199 J0.0459
G2 X71.7095 Y6.5346 I0.0718 J0.0311
G3 X71.6992 Y6.5562 I-0.273 J-0.1164
G2 X71.6952 Y6.62 I0.0693 J0.0364
G3 X71.6934 Y6.6223 I-0.0016 J0.0006
G2 X71.6318 Y6.6408 I-0.0104 J0.0776
G3 X71.6131 Y6.6557 I-0.1947 J-0.2242
G2 X71.5815 Y6.7115 I0.0464 J0.063
G3 X71.5787 Y6.7128 I-0.0018 J-0.0002
G2 X71.5155 Y6.7027 I-0.0429 J0.0654
G3 X71.4919 Y6.708 I-0.0769 J-0.2866
G2 X71.4388 Y6.7447 I0.014 J0.077
G3 X71.436 I-0.0014 J-0.0009
G2 X71.3832 Y6.7081 I-0.0671 J0.0403
G3 X71.3598 Y6.7027 I0.0542 J-0.2917
G2 X71.2963 Y6.7129 I-0.0205 J0.0755
G3 X71.2937 Y6.7116 I-0.0009 J-0.0014
G2 X71.2621 Y6.6557 I-0.0779 J0.0071
G3 X71.2434 Y6.6408 I0.1758 J-0.2389
G2 X71.1817 Y6.6223 I-0.0513 J0.0591
G3 X71.1797 Y6.6198 I-0.0002 J-0.0018
G2 X71.1756 Y6.5562 I-0.0734 J-0.0272
G3 X71.1653 Y6.5346 I0.2627 J-0.138
G2 X71.1176 Y6.4909 I-0.072 J0.0307
G3 X71.117 Y6.4881 I0.0005 J-0.0016
G2 X71.1412 Y6.4283 I-0.054 J-0.0566
G3 Y6.4043 I0.2962 J-0.012
G2 X71.117 Y6.3446 I-0.0782 J-0.0032
G3 X71.1176 Y6.3418 I0.0011 J-0.0012
G2 X71.1653 Y6.2982 I-0.0243 J-0.0744
G3 X71.1756 Y6.2765 I0.2729 J0.1165
G2 X71.1797 Y6.2129 I-0.0693 J-0.0364
G3 X71.1817 Y6.2104 I0.0018 J-0.0007
G2 X71.2434 Y6.1919 I0.0104 J-0.0775
G3 X71.2621 Y6.177 I0.1945 J0.224
G2 X71.2937 Y6.121 I-0.0464 J-0.063
G3 X71.2963 Y6.1198 I0.0017 J0.0002
G2 X71.3598 Y6.1299 I0.043 J-0.0654
G3 X71.3832 Y6.1246 I0.0776 J0.2864
G2 X71.436 Y6.088 I-0.0143 J-0.0769
G3 X71.4388 I0.0014 J0.0009
G2 X71.4919 Y6.1247 I0.0671 J-0.0403
G3 X71.5155 Y6.13 I-0.0532 J0.292
G2 X71.5787 Y6.1198 I0.0203 J-0.0756
G3 X71.5815 Y6.1212 I0.001 J0.0015
G2 X71.6131 Y6.177 I0.0779 J-0.0073
G3 X71.6318 Y6.1919 I-0.176 J0.2391
G2 X71.6934 Y6.2104 I0.0513 J-0.0591
G3 X71.6952 Y6.2127 I0.0002 J0.0017
G2 X71.6992 Y6.2765 I0.0733 J0.0274
G3 X71.7095 Y6.2982 I-0.2626 J0.1381
G2 X71.7573 Y6.3418 I0.072 J-0.0307
G3 X71.7579 Y6.3448 I-0.0005 J0.0017
G2 X71.734 Y6.4043 I0.0543 J0.0564
G3 Y6.4283 I-0.2966 J0.012
G2 X71.7579 Y6.4879 I0.0782 J0.0032
G3 X71.7573 Y6.4908 I-0.0012 J0.0013
G2 X71.7097 Y6.5342 I0.0242 J0.0744
G3 X71.6439 Y6.5602 I-0.0459 J-0.0199
G1 X71.6502 Y6.5458
X71.6524 Y6.5407 Z-0.2172
X71.6546 Y6.5356 Z-0.2162
X71.6567 Y6.5307 Z-0.2147
X71.6588 Y6.5259 Z-0.2125
X71.6607 Y6.5214 Z-0.2098
X71.6625 Y6.5172 Z-0.2066
X71.6642 Y6.5134 Z-0.2029
X71.6657 Y6.5099 Z-0.1987
X71.667 Y6.507 Z-0.1941
X71.6681 Y6.5045 Z-0.1892
X71.6689 Y6.5025 Z-0.184
X71.6695 Y6.5011 Z-0.1786
X71.6699 Y6.5002 Z-0.1731
X71.67 Y6.4999 Z-0.1675
G0 Z0.4
X71.1859 Y7.3864
Z0.2
G1 Z0.1 F13.333
Z-0.1675
Y7.3861 Z-0.1731 F40.
X71.186 Y7.3852 Z-0.1786
X71.1861 Y7.3836 Z-0.184
X71.1863 Y7.3815 Z-0.1892
X71.1865 Y7.3788 Z-0.1941
X71.1867 Y7.3755 Z-0.1987
X71.187 Y7.3718 Z-0.2029
X71.1873 Y7.3677 Z-0.2066
X71.1877 Y7.3631 Z-0.2098
X71.1881 Y7.3582 Z-0.2125
X71.1885 Y7.353 Z-0.2147
X71.1889 Y7.3477 Z-0.2162
X71.1893 Y7.3422 Z-0.2172
X71.1897 Y7.3366 Z-0.2175
X71.1909 Y7.321
G3 X71.2369 Y7.3747 I-0.0039 J0.0499
G2 X71.2359 Y7.4117 I0.3653 J0.0283
G1 X71.236 Y7.412
G3 X71.2351 Y7.4135 I-0.0018 J0.
G1 X71.1015 Y7.4894
X71.1014 Y7.4895
G3 X71.0991 Y7.4891 I-0.0009 J-0.0016
G2 X71.0417 Y7.4305 I-0.6197 J0.5486
X71.0414 Y7.4302 I-0.0532 J0.0574
G3 X71.0411 Y7.4281 I0.0011 J-0.0012
G1 X71.2599 Y7.0564
G3 X71.2616 Y7.0555 I0.0015 J0.0009
G2 X71.2906 Y7.0571 I0.0339 J-0.3441
X71.2911 I0.0011 J-0.0782
G3 X71.2918 Y7.0573 I0. J0.0018
G2 X71.3731 Y7.0836 I0.1461 J-0.3133
G1 X71.3735
G3 X71.3748 Y7.085 I-0.0003 J0.0016
G1 X71.3791 Y7.111
Y7.1112
G3 X71.3785 Y7.1128 I-0.0016 J0.0003
G2 X71.2369 Y7.3747 I0.2237 J0.2902
G3 X71.1832 Y7.4207 I-0.0499 J-0.0039
G1 X71.1844 Y7.4051
X71.1849 Y7.3995 Z-0.2172
X71.1853 Y7.394 Z-0.2162
X71.1857 Y7.3886 Z-0.2147
X71.1861 Y7.3834 Z-0.2125
X71.1865 Y7.3785 Z-0.2098
X71.1868 Y7.374 Z-0.2066
X71.1872 Y7.3698 Z-0.2029
X71.1874 Y7.3661 Z-0.1987
X71.1877 Y7.3629 Z-0.1941
X71.1879 Y7.3602 Z-0.1892
X71.1881 Y7.358 Z-0.184
X71.1882 Y7.3565 Z-0.1786
X71.1883 Y7.3555 Z-0.1731
Y7.3552 Z-0.1675
G0 Z0.4
X70.7936 Y7.0721
Z0.2
G1 Z0.1 F13.333
Z-0.1675
X70.7938 Y7.0719 Z-0.1731 F40.
X70.7943 Y7.0711 Z-0.1786
X70.795 Y7.0697 Z-0.184
X70.7961 Y7.0679 Z-0.1892
X70.7975 Y7.0655 Z-0.1941
X70.7992 Y7.0627 Z-0.1987
X70.801 Y7.0595 Z-0.2029
X70.8032 Y7.0559 Z-0.2066
X70.8055 Y7.052 Z-0.2098
X70.808 Y7.0477 Z-0.2125
X70.8106 Y7.0433 Z-0.2147
X70.8133 Y7.0386 Z-0.2162
X70.8162 Y7.0339 Z-0.2172
X70.819 Y7.0291 Z-0.2175
X70.8269 Y7.0156
G3 X70.8446 Y7.084 I-0.0254 J0.0431
G1 X70.7448 Y7.2535
X70.7447 Y7.2536
G3 X70.7426 Y7.2544 I-0.0015 J-0.0009
G1 X70.7424 Y7.2543
G2 X70.3146 Y7.2289 I-0.2614 J0.7851
G1 X70.3145
G3 X70.3126 Y7.2279 I-0.0004 J-0.0017
G1 X70.1996 Y6.9703
G3 X70.2002 Y6.9681 I0.0016 J-0.0007
G2 X70.5114 Y6.526 I-0.4839 J-0.6713
G1 Y6.5259
G3 X70.5132 Y6.5247 I0.0016 J0.0005
G1 X70.7752 Y6.5429
G3 X70.7767 Y6.5442 I-0.0001 J0.0016
G1 Y6.5445
G2 X70.8453 Y6.7012 I0.3411 J-0.0559
G3 X70.8456 Y6.7019 I-0.0015 J0.0012
G2 X70.9596 Y6.8857 I0.336 J-0.0812
G1 X70.9598 Y6.8858
G3 X70.9601 Y6.888 I-0.0011 J0.0013
G1 X70.8446 Y7.084
G3 X70.7762 Y7.1017 I-0.0431 J-0.0254
G1 X70.7841 Y7.0882
X70.787 Y7.0834 Z-0.2172
X70.7898 Y7.0787 Z-0.2162
X70.7925 Y7.074 Z-0.2147
X70.7951 Y7.0696 Z-0.2125
X70.7976 Y7.0653 Z-0.2098
X70.7999 Y7.0614 Z-0.2066
X70.8021 Y7.0578 Z-0.2029
X70.804 Y7.0546 Z-0.1987
X70.8056 Y7.0518 Z-0.1941
X70.807 Y7.0494 Z-0.1892
X70.8081 Y7.0476 Z-0.184
X70.8089 Y7.0462 Z-0.1786
X70.8093 Y7.0454 Z-0.1731
X70.8095 Y7.0452 Z-0.1675
G0 Z0.4
X70.8097 Y6.076
Z0.2
G1 Z0.1 F13.333
Z-0.1675
X70.8098 Y6.0758 Z-0.1731 F40.
X70.8102 Y6.0749 Z-0.1786
X70.8108 Y6.0735 Z-0.184
X70.8116 Y6.0715 Z-0.1892
X70.8126 Y6.069 Z-0.1941
X70.8138 Y6.066 Z-0.1987
X70.8153 Y6.0625 Z-0.2029
X70.8168 Y6.0586 Z-0.2066
X70.8186 Y6.0544 Z-0.2098
X70.8204 Y6.0499 Z-0.2125
X70.8224 Y6.0451 Z-0.2147
X70.8245 Y6.0401 Z-0.2162
X70.8266 Y6.035 Z-0.2172
X70.8287 Y6.0298 Z-0.2175
X70.8346 Y6.0153
G3 X70.8619 Y6.0806 I-0.019 J0.0462
G2 X70.8456 Y6.1308 I0.3198 J0.1314
G3 X70.8453 Y6.1315 I-0.0019 J-0.0005
G2 X70.8042 Y6.1987 I0.2725 J0.2126
G1 X70.8041 Y6.1989
G3 X70.8023 Y6.1999 I-0.0017 J-0.0008
G1 X70.5369 Y6.1815
G3 X70.5353 Y6.18 I0.0001 J-0.0017
G2 X70.4827 Y5.9852 I-0.8193 J0.1166
G1 Y5.985
G3 X70.4832 Y5.9831 I0.0016 J-0.0006
G2 X70.5936 Y5.8045 I-0.2245 J-0.2624
G3 X70.5948 Y5.8032 I0.0017 J0.0004
G1 X71.0082 Y5.6847
G3 X71.01 Y5.6852 I0.0005 J0.0017
G2 X71.1552 Y5.7769 I0.2628 J-0.2552
G1 X71.1555 Y5.777
G3 X71.1567 Y5.7784 I-0.0006 J0.0018
G1 X71.1606 Y5.8014
G3 X71.1595 Y5.8034 I-0.0019 J0.0003
G1 X71.1593
G2 X71.0281 Y5.9021 I0.1362 J0.3177
G3 X71.0276 Y5.9025 I-0.0013 J-0.0011
G1 X71.0273 Y5.9027
G2 X70.8619 Y6.0806 I0.1544 J0.3093
G3 X70.7966 Y6.1078 I-0.0462 J-0.019
G1 X70.8026 Y6.0933
X70.8047 Y6.0882 Z-0.2172
X70.8068 Y6.0831 Z-0.2162
X70.8089 Y6.0781 Z-0.2147
X70.8108 Y6.0733 Z-0.2125
X70.8127 Y6.0687 Z-0.2098
X70.8144 Y6.0645 Z-0.2066
X70.816 Y6.0606 Z-0.2029
X70.8174 Y6.0572 Z-0.1987
X70.8187 Y6.0542 Z-0.1941
X70.8197 Y6.0517 Z-0.1892
X70.8205 Y6.0497 Z-0.184
X70.8211 Y6.0483 Z-0.1786
X70.8215 Y6.0474 Z-0.1731
X70.8216 Y6.0471 Z-0.1675
G0 Z0.4
X70.5535 Y4.9175
Z0.2
G1 Z0.1 F13.333
Z-0.1675
X70.5532 Y4.9173 Z-0.1731 F40.
X70.5524 Y4.9169 Z-0.1786
X70.551 Y4.9161 Z-0.184
X70.5491 Y4.9151 Z-0.1892
X70.5467 Y4.9138 Z-0.1941
X70.5439 Y4.9123 Z-0.1987
X70.5406 Y4.9105 Z-0.2029
X70.5369 Y4.9085 Z-0.2066
X70.5329 Y4.9063 Z-0.2098
X70.5286 Y4.904 Z-0.2125
X70.524 Y4.9015 Z-0.2147
X70.5193 Y4.8989 Z-0.2162
X70.5144 Y4.8963 Z-0.2172
X70.5095 Y4.8936 Z-0.2175
X70.4958 Y4.8862
G3 X70.5636 Y4.8661 I0.0439 J0.0239
G2 X70.5861 Y4.8774 I0.1865 J-0.3434
G1 X71.0892 Y5.1098
X71.0893
G3 X71.0895 Y5.1129 I-0.0007 J0.0016
G2 X70.9149 Y5.3526 I0.1834 J0.317
G3 X70.9136 Y5.354 I-0.0018 J-0.0004
G1 X70.9135
X70.5001 Y5.4726
G3 X70.4984 Y5.4722 I-0.0005 J-0.0017
G2 X69.9832 Y5.5125 I-0.2397 J0.2485
G3 X69.9813 Y5.5131 I-0.0014 J-0.001
G2 X69.7155 Y5.4695 I-0.2651 J0.7839
G3 X69.7139 Y5.4683 I0. J-0.0016
G1 Y5.4681
X69.6738 Y5.2824
G3 X69.6747 Y5.2803 I0.0018 J-0.0004
G2 X69.7782 Y5.1953 I-0.1636 J-0.3046
X69.7785 Y5.1949 I-0.0605 J-0.0497
G3 X69.779 Y5.1945 I0.0014 J0.0011
G2 X69.9607 Y4.9666 I-0.1544 J-0.3095
G1 Y4.9665
G3 X69.961 Y4.9659 I0.0015 J0.0004
G1 X69.9611 Y4.9658
G2 X70.0313 Y4.716 I-0.2734 J-0.2116
G3 X70.0327 Y4.7141 I0.0017 J-0.0002
G1 X70.033 Y4.714
X70.0651 Y4.7071
G3 X70.0668 Y4.7077 I0.0003 J0.0017
G2 X70.4838 Y4.8101 I0.2792 J-0.237
G3 X70.4856 Y4.8104 I0.0007 J0.0016
G2 X70.5636 Y4.8661 I0.2644 J-0.2878
G3 X70.5836 Y4.9339 I-0.0239 J0.0439
G1 X70.5699 Y4.9264
X70.565 Y4.9237 Z-0.2172
X70.5601 Y4.9211 Z-0.2162
X70.5554 Y4.9185 Z-0.2147
X70.5508 Y4.9161 Z-0.2125
X70.5465 Y4.9137 Z-0.2098
X70.5425 Y4.9115 Z-0.2066
X70.5388 Y4.9095 Z-0.2029
X70.5355 Y4.9078 Z-0.1987
X70.5327 Y4.9062 Z-0.1941
X70.5303 Y4.9049 Z-0.1892
X70.5284 Y4.9039 Z-0.184
X70.5271 Y4.9031 Z-0.1786
X70.5262 Y4.9027 Z-0.1731
X70.526 Y4.9025 Z-0.1675
G0 Z0.4
X70.3092 Y3.9888
Z0.2
G1 Z0.1 F13.333
Z-0.1675
G19 G2 Y3.9388 Z-0.2175 J-0.05 K0. F40.
G1 Y3.9232
G17 G3 X70.3592 Y3.9732 I0. J0.05
G1 Y4.1029
G3 X70.3574 Y4.1046 I-0.0017 J0.
G2 X69.9941 Y4.3695 I-0.0113 J0.3661
G1 Y4.3696
G3 X69.9928 Y4.3708 I-0.0016 J-0.0005
G1 X69.9577 Y4.3783
G3 X69.9556 Y4.3771 I-0.0004 J-0.0018
G2 X69.8668 Y4.2302 I-0.3311 J0.0999
G3 X69.8665 Y4.2278 I0.0014 J-0.0013
G1 X70.3559 Y3.471
G3 X70.3592 Y3.4719 I0.0015 J0.0009
G1 Y3.9732
G3 X70.3092 Y4.0232 I-0.05 J0.
G1 Y4.0075
G19 G2 Y3.9575 Z-0.1675 J0. K0.05
G0 Z0.4
X69.7127 Y3.74
Z0.2
G1 Z0.1 F13.333
Z-0.1675
X69.7129 Y3.7397 Z-0.1731 F40.
X69.7134 Y3.7389 Z-0.1786
X69.7143 Y3.7376 Z-0.184
X69.7154 Y3.7358 Z-0.1892
X69.7169 Y3.7335 Z-0.1941
X69.7187 Y3.7308 Z-0.1987
X69.7207 Y3.7277 Z-0.2029
X69.723 Y3.7241 Z-0.2066
X69.7255 Y3.7203 Z-0.2098
X69.7281 Y3.7162 Z-0.2125
X69.7309 Y3.7118 Z-0.2147
X69.7339 Y3.7073 Z-0.2162
X69.7369 Y3.7027 Z-0.2172
X69.7399 Y3.698 Z-0.2175
X69.7484 Y3.6848
G17 G3 X69.7632 Y3.754 I-0.0272 J0.042
G1 X69.5749 Y4.0451
G3 X69.5732 Y4.0459 I-0.0014 J-0.0009
G2 X69.5152 Y4.0402 I-0.0624 J0.3401
G3 X69.5146 Y4.0401 I0. J-0.0017
G1 X69.5145 Y4.04
G2 X69.3374 Y4.0092 I-0.1459 J0.3135
G3 X69.3356 Y4.008 I-0.0002 J-0.0016
G1 Y4.0079
X69.1297 Y3.3595
G3 X69.1301 Y3.3577 I0.0017 J-0.0005
G1 X69.1302 Y3.3576
G2 X69.174 Y3.2979 I-0.2552 J-0.233
G1 X69.1741 Y3.2978
G3 X69.1754 Y3.297 I0.0014 J0.0008
G1 X70.0555
G3 X70.0571 Y3.2998 I0. J0.0018
G1 X69.7632 Y3.754
G3 X69.6941 Y3.7688 I-0.042 J-0.0272
G1 X69.7026 Y3.7557
X69.7056 Y3.751 Z-0.2172
X69.7086 Y3.7463 Z-0.2162
X69.7116 Y3.7418 Z-0.2147
X69.7144 Y3.7374 Z-0.2125
X69.717 Y3.7333 Z-0.2098
X69.7195 Y3.7295 Z-0.2066
X69.7218 Y3.726 Z-0.2029
X69.7238 Y3.7228 Z-0.1987
X69.7256 Y3.7201 Z-0.1941
X69.7271 Y3.7178 Z-0.1892
X69.7282 Y3.716 Z-0.184
X69.7291 Y3.7147 Z-0.1786
X69.7296 Y3.7139 Z-0.1731
X69.7297 Y3.7137 Z-0.1675
G0 Z0.4
X69.21 Y4.8707
Z0.2
G1 Z0.1 F13.333
Z-0.1675
X69.2103 Y4.8709 Z-0.1731 F40.
X69.211 Y4.8714 Z-0.1786
X69.2123 Y4.8723 Z-0.184
X69.214 Y4.8736 Z-0.1892
X69.2162 Y4.8752 Z-0.1941
X69.2188 Y4.8771 Z-0.1987
X69.2219 Y4.8793 Z-0.2029
X69.2252 Y4.8818 Z-0.2066
X69.2289 Y4.8845 Z-0.2098
X69.2329 Y4.8874 Z-0.2125
X69.237 Y4.8905 Z-0.2147
X69.2414 Y4.8937 Z-0.2162
X69.2459 Y4.8969 Z-0.2172
X69.2504 Y4.9002 Z-0.2175
X69.263 Y4.9095
G3 X69.1931 Y4.9203 I-0.0403 J-0.0296
G2 X69.1927 Y4.92 I-0.0463 J0.0631
G3 X69.1737 Y4.905 I0.1739 J-0.2405
G2 X69.1127 Y4.8869 I-0.0509 J0.0595
G3 X69.1108 Y4.8844 I-0.0002 J-0.0018
G2 X69.1067 Y4.8208 I-0.0734 J-0.0272
G3 X69.0964 Y4.7992 I0.2627 J-0.1381
G2 X69.0487 Y4.7555 I-0.072 J0.0307
G3 X69.048 Y4.7526 I0.0006 J-0.0017
G2 X69.0719 Y4.693 I-0.0543 J-0.0564
G3 Y4.669 I0.2966 J-0.012
G2 X69.048 Y4.6095 I-0.0782 J-0.0032
G3 X69.0486 Y4.6065 I0.0012 J-0.0013
G2 X69.0964 Y4.5628 I-0.0242 J-0.0744
G3 X69.1067 Y4.5412 I0.2729 J0.1165
G2 X69.1108 Y4.4776 I-0.0693 J-0.0364
G3 X69.1127 Y4.4751 I0.0017 J-0.0006
G2 X69.1738 Y4.4569 I0.0101 J-0.0776
G3 X69.1928 Y4.442 I0.1931 J0.2254
G2 X69.2248 Y4.3857 I-0.0459 J-0.0634
G3 X69.2274 Y4.3844 I0.0017 J0.0002
G2 X69.291 Y4.3946 I0.043 J-0.0654
G3 X69.3144 Y4.3892 I0.078 J0.2863
G2 X69.3671 Y4.3526 I-0.0144 J-0.0769
G3 X69.3699 I0.0014 J0.0009
G2 X69.4226 Y4.3892 I0.0671 J-0.0403
G3 X69.446 Y4.3946 I-0.0546 J0.2916
G2 X69.5096 Y4.3844 I0.0206 J-0.0755
G3 X69.5122 Y4.3857 I0.001 J0.0014
G2 X69.5437 Y4.4416 I0.0779 J-0.0072
G3 X69.5624 Y4.4565 I-0.176 J0.2388
G2 X69.6242 Y4.4751 I0.0514 J-0.059
G3 X69.6262 Y4.4776 I0.0002 J0.0018
G2 X69.6304 Y4.5412 I0.0734 J0.0272
G3 X69.6406 Y4.5628 I-0.2626 J0.1381
G2 X69.6884 Y4.6065 I0.072 J-0.0307
G3 X69.689 Y4.6095 I-0.0006 J0.0017
G2 X69.6651 Y4.669 I0.0543 J0.0564
G3 Y4.693 I-0.2966 J0.012
G2 X69.689 Y4.7526 I0.0782 J0.0032
G3 X69.6884 Y4.7555 I-0.0012 J0.0013
G2 X69.6406 Y4.7992 I0.0242 J0.0744
G3 X69.6304 Y4.8208 I-0.2729 J-0.1165
G2 X69.6262 Y4.8844 I0.0693 J0.0364
G3 X69.6242 Y4.8869 I-0.0017 J0.0006
G2 X69.5625 Y4.9054 I-0.0105 J0.0775
G3 X69.5438 Y4.9204 I-0.1945 J-0.224
G2 X69.5122 Y4.9763 I0.0464 J0.063
G3 X69.5096 Y4.9776 I-0.0017 J-0.0002
G2 X69.446 Y4.9674 I-0.043 J0.0654
G3 X69.4226 Y4.9728 I-0.078 J-0.2863
G2 X69.3699 Y5.0094 I0.0144 J0.0769
G3 X69.3671 I-0.0014 J-0.0009
G2 X69.3144 Y4.9728 I-0.0671 J0.0403
G3 X69.291 Y4.9674 I0.0546 J-0.2917
G2 X69.2274 Y4.9776 I-0.0206 J0.0755
G3 X69.2248 Y4.9763 I-0.0009 J-0.0014
G2 X69.1931 Y4.9203 I-0.0779 J0.0071
G3 X69.1823 Y4.8504 I0.0296 J-0.0403
G1 X69.195 Y4.8596
X69.1995 Y4.8629 Z-0.2172
X69.2039 Y4.8662 Z-0.2162
X69.2083 Y4.8694 Z-0.2147
X69.2125 Y4.8725 Z-0.2125
X69.2164 Y4.8754 Z-0.2098
X69.2201 Y4.8781 Z-0.2066
X69.2235 Y4.8805 Z-0.2029
X69.2265 Y4.8827 Z-0.1987
X69.2291 Y4.8847 Z-0.1941
X69.2313 Y4.8863 Z-0.1892
X69.233 Y4.8875 Z-0.184
X69.2343 Y4.8885 Z-0.1786
X69.235 Y4.889 Z-0.1731
X69.2353 Y4.8892 Z-0.1675
G0 Z0.4
X68.9752 Y5.8265
Z0.2
G1 Z0.1 F13.333
Z-0.1675
X68.9754 Y5.8263 Z-0.1731 F40.
X68.9759 Y5.8255 Z-0.1786
X68.9768 Y5.8242 Z-0.184
X68.978 Y5.8224 Z-0.1892
X68.9795 Y5.8201 Z-0.1941
X68.9812 Y5.8174 Z-0.1987
X68.9833 Y5.8143 Z-0.2029
X68.9856 Y5.8108 Z-0.2066
X68.9881 Y5.807 Z-0.2098
X68.9908 Y5.8029 Z-0.2125
X68.9937 Y5.7986 Z-0.2147
X68.9967 Y5.7941 Z-0.2162
X68.9997 Y5.7895 Z-0.2172
X69.0028 Y5.7848 Z-0.2175
X69.0114 Y5.7718
G3 X69.0256 Y5.841 I-0.0276 J0.0417
G2 X68.9265 Y6.0493 I0.6905 J0.4561
G3 X68.9246 Y6.0506 I-0.0017 J-0.0005
G1 X67.4821 Y5.9162
G3 X67.4811 Y5.913 I0.0002 J-0.0018
G1 X67.9983 Y5.4619
G3 X67.999 Y5.4615 I0.0012 J0.0014
G2 X68.2618 Y5.2358 I-0.0969 J-0.3786
G3 X68.2639 Y5.2349 I0.0016 J0.0006
G2 X68.7429 Y4.9925 I0.127 J-0.3435
G1 Y4.9924
G3 X68.7442 Y4.9912 I0.0016 J0.0005
G1 X68.7793 Y4.9837
G3 X68.7814 Y4.9849 I0.0004 J0.0018
G2 X68.958 Y5.1945 I0.3311 J-0.0999
G3 X68.9586 Y5.1949 I-0.0008 J0.0015
G1 X68.9588 Y5.1952
G2 X69.2217 Y5.3218 I0.2675 J-0.2192
G3 X69.2225 Y5.322 I0. J0.0018
G2 X69.3358 Y5.3527 I0.1458 J-0.3135
G3 X69.3373 Y5.354 I-0.0002 J0.0016
G1 Y5.3541
X69.3774 Y5.5405
G3 X69.3764 Y5.5425 I-0.0018 J0.0004
G2 X69.0256 Y5.841 I0.3397 J0.7546
G3 X68.9563 Y5.8552 I-0.0417 J-0.0276
G1 X68.9649 Y5.8421
X68.968 Y5.8375 Z-0.2172
X68.9711 Y5.8329 Z-0.2162
X68.974 Y5.8284 Z-0.2147
X68.9769 Y5.824 Z-0.2125
X68.9796 Y5.8199 Z-0.2098
X68.9821 Y5.8161 Z-0.2066
X68.9844 Y5.8126 Z-0.2029
X68.9865 Y5.8095 Z-0.1987
X68.9883 Y5.8068 Z-0.1941
X68.9898 Y5.8046 Z-0.1892
X68.9909 Y5.8028 Z-0.184
X68.9918 Y5.8015 Z-0.1786
X68.9923 Y5.8007 Z-0.1731
X68.9925 Y5.8004 Z-0.1675
G0 Z0.4
X68.8648 Y6.5104
Z0.2
G1 Z0.1 F13.333
Z-0.1675
X68.8647 Y6.5101 Z-0.1731 F40.
X68.8645 Y6.5092 Z-0.1786
X68.8642 Y6.5077 Z-0.184
X68.8637 Y6.5056 Z-0.1892
X68.8631 Y6.5029 Z-0.1941
X68.8623 Y6.4998 Z-0.1987
X68.8615 Y6.4961 Z-0.2029
X68.8605 Y6.4921 Z-0.2066
X68.8595 Y6.4876 Z-0.2098
X68.8584 Y6.4828 Z-0.2125
X68.8572 Y6.4778 Z-0.2147
X68.856 Y6.4725 Z-0.2162
X68.8548 Y6.4671 Z-0.2172
X68.8535 Y6.4617 Z-0.2175
X68.85 Y6.4464
G3 X68.91 Y6.4838 I0.0113 J0.0487
G2 X68.9426 Y6.5909 I0.8061 J-0.1871
G3 X68.9419 Y6.593 I-0.0016 J0.0006
G1 X68.9417 Y6.5931
X68.828 Y6.6668
G3 X68.8262 Y6.6669 I-0.001 J-0.0015
G2 X68.652 Y6.626 I-0.1742 J0.3498
G1 X67.4272
X67.4271
G3 X67.4253 Y6.624 I0. J-0.0018
G2 X67.302 Y6.3262 I-0.3627 J-0.0242
G3 Y6.3235 I0.0012 J-0.0013
G2 X67.365 Y6.2518 I-0.2391 J-0.2739
G1 X67.3651 Y6.2517
G3 X67.3667 Y6.2509 I0.0015 J0.001
G1 X67.3668
X68.8927 Y6.3931
G3 X68.8943 Y6.3947 I-0.0002 J0.0018
G2 X68.91 Y6.4838 I0.8217 J-0.0979
G3 X68.8726 Y6.5439 I-0.0487 J0.0113
G1 X68.869 Y6.5286
X68.8678 Y6.5232 Z-0.2172
X68.8665 Y6.5178 Z-0.2162
X68.8653 Y6.5125 Z-0.2147
X68.8641 Y6.5075 Z-0.2125
X68.863 Y6.5027 Z-0.2098
X68.862 Y6.4982 Z-0.2066
X68.861 Y6.4942 Z-0.2029
X68.8602 Y6.4905 Z-0.1987
X68.8594 Y6.4874 Z-0.1941
X68.8588 Y6.4847 Z-0.1892
X68.8583 Y6.4826 Z-0.184
X68.858 Y6.4811 Z-0.1786
X68.8578 Y6.4802 Z-0.1731
X68.8577 Y6.4799 Z-0.1675
G0 Z0.4
X69.7503 Y7.5536
Z0.2
G1 Z0.1 F13.333
Z-0.1675
X69.7505 Y7.5533 Z-0.1731 F40.
X69.7511 Y7.5526 Z-0.1786
X69.7519 Y7.5513 Z-0.184
X69.7532 Y7.5495 Z-0.1892
X69.7547 Y7.5473 Z-0.1941
X69.7565 Y7.5446 Z-0.1987
X69.7587 Y7.5415 Z-0.2029
X69.761 Y7.5381 Z-0.2066
X69.7636 Y7.5343 Z-0.2098
X69.7664 Y7.5303 Z-0.2125
X69.7694 Y7.526 Z-0.2147
X69.7724 Y7.5216 Z-0.2162
X69.7756 Y7.5171 Z-0.2172
X69.7788 Y7.5125 Z-0.2175
X69.7877 Y7.4996
G3 X69.8004 Y7.5691 I-0.0284 J0.0411
G2 X69.6919 Y7.7911 I0.6808 J0.4702
G3 X69.69 Y7.7923 I-0.0017 J-0.0005
G1 X69.5026 Y7.7747
X69.5025
G3 X69.501 Y7.7737 I0.0002 J-0.0018
G2 X69.0454 Y7.6033 I-0.3136 J0.1442
G1 X69.0453
G3 X69.0428 Y7.6017 I-0.0007 J-0.0016
G1 Y7.0167
G2 X69.0359 Y6.9434 I-0.3909 J-0.0002
G1 Y6.9432
G3 X69.0366 Y6.9416 I0.0016 J-0.0003
G1 Y6.9415
X69.1287 Y6.8819
G3 X69.1309 Y6.8821 I0.0009 J0.0014
G2 X69.8827 Y7.1076 I0.5852 J-0.5851
G3 X69.8847 Y7.1086 I0.0004 J0.0017
G1 X69.9976 Y7.3662
X69.9977
G3 X69.9971 Y7.3683 I-0.0016 J0.0007
G2 X69.8004 Y7.5691 I0.4841 J0.671
G3 X69.7308 Y7.5819 I-0.0411 J-0.0284
G1 X69.7397 Y7.569
X69.7429 Y7.5644 Z-0.2172
X69.746 Y7.5598 Z-0.2162
X69.7491 Y7.5554 Z-0.2147
X69.752 Y7.5511 Z-0.2125
X69.7548 Y7.5471 Z-0.2098
X69.7574 Y7.5433 Z-0.2066
X69.7598 Y7.5399 Z-0.2029
X69.7619 Y7.5368 Z-0.1987
X69.7638 Y7.5341 Z-0.1941
X69.7653 Y7.5319 Z-0.1892
X69.7665 Y7.5302 Z-0.184
X69.7674 Y7.5289 Z-0.1786
X69.768 Y7.5281 Z-0.1731
X69.7681 Y7.5278 Z-0.1675
G0 Z0.4
X69.7844 Y8.573
Z0.2
G1 Z0.1 F13.333
Z-0.1675
X69.7843 Y8.5727 Z-0.1731 F40.
X69.7837 Y8.572 Z-0.1786
X69.7828 Y8.5707 Z-0.184
X69.7815 Y8.569 Z-0.1892
X69.7799 Y8.5668 Z-0.1941
X69.778 Y8.5642 Z-0.1987
X69.7757 Y8.5612 Z-0.2029
X69.7733 Y8.5578 Z-0.2066
X69.7705 Y8.5542 Z-0.2098
X69.7676 Y8.5502 Z-0.2125
X69.7646 Y8.5461 Z-0.2147
X69.7614 Y8.5417 Z-0.2162
X69.7581 Y8.5373 Z-0.2172
X69.7547 Y8.5328 Z-0.2175
X69.7454 Y8.5202
G3 X69.8154 Y8.5307 I0.0297 J0.0402
G2 X69.9806 Y8.6982 I0.6656 J-0.4915
G3 X69.9811 Y8.7003 I-0.0011 J0.0014
G1 X69.7764 Y9.136
G3 X69.7744 Y9.137 I-0.0016 J-0.0007
G2 X69.3313 Y9.1562 I-0.187 J0.8061
G1 X69.3312
G3 X69.3291 Y9.1554 I-0.0006 J-0.0017
G1 X68.9964 Y8.5815
G2 X68.9962 Y8.5812 I-0.0677 J0.0392
G3 Y8.5797 I0.0014 J-0.0008
G2 X69.0428 Y8.395 I-0.3441 J-0.1851
G1 Y8.3949
Y8.234
G3 X69.0453 Y8.2324 I0.0017 J0.
G2 X69.4689 Y8.118 I0.1422 J-0.3146
G3 X69.4705 Y8.1172 I0.0015 J0.001
G1 X69.4706
X69.6579 Y8.1348
G3 X69.6593 Y8.1362 I-0.0002 J0.0016
G1 Y8.1364
G2 X69.8154 Y8.5307 I0.8217 J-0.0972
G3 X69.8049 Y8.6006 I-0.0402 J0.0297
G1 X69.7956 Y8.588
X69.7922 Y8.5835 Z-0.2172
X69.7889 Y8.5791 Z-0.2162
X69.7857 Y8.5748 Z-0.2147
X69.7827 Y8.5706 Z-0.2125
X69.7797 Y8.5666 Z-0.2098
X69.777 Y8.563 Z-0.2066
X69.7745 Y8.5596 Z-0.2029
X69.7723 Y8.5566 Z-0.1987
X69.7704 Y8.554 Z-0.1941
X69.7688 Y8.5518 Z-0.1892
X69.7675 Y8.5501 Z-0.184
X69.7666 Y8.5488 Z-0.1786
X69.766 Y8.5481 Z-0.1731
X69.7659 Y8.5478 Z-0.1675
G0 Z0.4
X70.9876 Y9.046
Z0.2
G1 Z0.1 F13.333
Z-0.1675
X70.9874 Y9.0458 Z-0.1731 F40.
X70.9868 Y9.045 Z-0.1786
X70.9859 Y9.0438 Z-0.184
X70.9845 Y9.0421 Z-0.1892
X70.9829 Y9.04 Z-0.1941
X70.9809 Y9.0374 Z-0.1987
X70.9786 Y9.0345 Z-0.2029
X70.976 Y9.0312 Z-0.2066
X70.9732 Y9.0276 Z-0.2098
X70.9702 Y9.0237 Z-0.2125
X70.967 Y9.0197 Z-0.2147
X70.9636 Y9.0154 Z-0.2162
X70.9602 Y9.0111 Z-0.2172
X70.9568 Y9.0067 Z-0.2175
X70.9471 Y8.9943
G3 X71.0173 Y9.0029 I0.0308 J0.0394
G1 X71.2896 Y9.3506
G3 X71.2898 Y9.3524 I-0.0014 J0.0011
G1 Y9.3525
G2 X71.2727 Y9.5997 I0.3354 J0.1473
G3 X71.2711 Y9.602 I-0.0018 J0.0005
G1 X71.271
X70.3773 Y9.6913
X70.3772
G3 X70.3753 Y9.69 I-0.0002 J-0.0018
G2 X70.0883 Y9.2843 I-0.7879 J0.253
G3 X70.0878 Y9.2822 I0.0011 J-0.0014
G1 X70.2925 Y8.8465
G3 X70.2945 Y8.8455 I0.0016 J0.0007
G1 Y8.8456
G2 X70.8437 Y8.7834 I0.1868 J-0.8061
G3 X70.8459 Y8.7839 I0.0008 J0.0016
G1 X71.0173 Y9.0029
G3 X71.0088 Y9.0731 I-0.0394 J0.0308
G1 X70.9991 Y9.0608
X70.9957 Y9.0563 Z-0.2172
X70.9923 Y9.052 Z-0.2162
X70.9889 Y9.0477 Z-0.2147
X70.9858 Y9.0437 Z-0.2125
X70.9827 Y9.0398 Z-0.2098
X70.9799 Y9.0362 Z-0.2066
X70.9773 Y9.0329 Z-0.2029
X70.975 Y9.03 Z-0.1987
X70.973 Y9.0274 Z-0.1941
X70.9714 Y9.0253 Z-0.1892
X70.97 Y9.0236 Z-0.184
X70.9691 Y9.0224 Z-0.1786
X70.9685 Y9.0216 Z-0.1731
X70.9683 Y9.0214 Z-0.1675
G0 Z0.4
X71.336 Y10.5105
Z0.2
G1 Z0.1 F13.333
Z-0.1675
Y10.5102 Z-0.1731 F40.
X71.3361 Y10.5093 Z-0.1786
X71.3362 Y10.5077 Z-0.184
X71.3364 Y10.5056 Z-0.1892
X71.3366 Y10.5029 Z-0.1941
X71.3369 Y10.4997 Z-0.1987
X71.3372 Y10.496 Z-0.2029
X71.3376 Y10.4918 Z-0.2066
X71.338 Y10.4872 Z-0.2098
X71.3384 Y10.4823 Z-0.2125
X71.3388 Y10.4772 Z-0.2147
X71.3393 Y10.4718 Z-0.2162
X71.3398 Y10.4663 Z-0.2172
X71.3403 Y10.4607 Z-0.2175
X71.3416 Y10.4451
G3 X71.3871 Y10.4992 I-0.0043 J0.0498
G1 X71.2937 Y11.5849
G3 X71.2905 Y11.586 I-0.0018 J-0.0002
G1 X70.2567 Y10.4322
Y10.4321
G3 X70.2565 Y10.43 I0.0012 J-0.0011
G2 X70.41 Y10.0352 I-0.669 J-0.4873
G1 X70.4101 Y10.0349
G3 X70.4114 Y10.0336 I0.0016 J0.0002
G1 X71.4338 Y9.9314
G3 X71.4358 Y9.9334 I0.0002 J0.0018
G1 X71.3871 Y10.4992
G3 X71.333 Y10.5448 I-0.0498 J-0.0043
G1 X71.3344 Y10.5292
X71.3348 Y10.5236 Z-0.2172
X71.3353 Y10.5181 Z-0.2162
X71.3358 Y10.5127 Z-0.2147
X71.3362 Y10.5076 Z-0.2125
X71.3366 Y10.5027 Z-0.2098
X71.337 Y10.4981 Z-0.2066
X71.3374 Y10.4939 Z-0.2029
X71.3377 Y10.4902 Z-0.1987
X71.338 Y10.487 Z-0.1941
X71.3382 Y10.4843 Z-0.1892
X71.3384 Y10.4822 Z-0.184
X71.3385 Y10.4806 Z-0.1786
X71.3386 Y10.4797 Z-0.1731
Y10.4794 Z-0.1675
G0 Z0.4
X72.4077 Y10.4953
Z0.2
G1 Z0.1 F13.333
Z-0.1675
X72.4079 Y10.495 Z-0.1731 F40.
X72.4085 Y10.4943 Z-0.1786
X72.4095 Y10.4931 Z-0.184
X72.4109 Y10.4915 Z-0.1892
X72.4127 Y10.4894 Z-0.1941
X72.4148 Y10.4869 Z-0.1987
X72.4172 Y10.4841 Z-0.2029
X72.4199 Y10.4809 Z-0.2066
X72.4228 Y10.4774 Z-0.2098
X72.426 Y10.4736 Z-0.2125
X72.4293 Y10.4697 Z-0.2147
X72.4328 Y10.4655 Z-0.2162
X72.4363 Y10.4613 Z-0.2172
X72.44 Y10.457 Z-0.2175
X72.45 Y10.4451
G3 X72.4561 Y10.5155 I-0.0322 J0.0382
G1 X71.652 Y11.4701
G3 X71.6488 Y11.4688 I-0.0014 J-0.0012
G1 X71.7839 Y9.898
G3 X71.7855 Y9.8963 I0.0019 J0.0002
G1 X71.7857
X72.7019 Y9.8047
G3 X72.7039 Y9.806 I0.0002 J0.0018
G2 X72.8377 Y10.0601 I0.7877 J-0.2527
G3 Y10.0625 I-0.0015 J0.0012
G1 X72.4561 Y10.5155
G3 X72.3856 Y10.5215 I-0.0382 J-0.0322
G1 X72.3957 Y10.5096
X72.3993 Y10.5053 Z-0.2172
X72.4029 Y10.5011 Z-0.2162
X72.4063 Y10.4969 Z-0.2147
X72.4097 Y10.493 Z-0.2125
X72.4128 Y10.4892 Z-0.2098
X72.4158 Y10.4857 Z-0.2066
X72.4185 Y10.4825 Z-0.2029
X72.4209 Y10.4797 Z-0.1987
X72.423 Y10.4772 Z-0.1941
X72.4247 Y10.4751 Z-0.1892
X72.4261 Y10.4735 Z-0.184
X72.4271 Y10.4723 Z-0.1786
X72.4277 Y10.4716 Z-0.1731
X72.4279 Y10.4713 Z-0.1675
G0 Z0.4
X72.9987 Y12.0456
Z0.2
G1 Z0.1 F13.333
Z-0.1675
Y12.0453 Z-0.1731 F40.
X72.9988 Y12.0443 Z-0.1786
X72.999 Y12.0428 Z-0.184
X72.9992 Y12.0406 Z-0.1892
X72.9995 Y12.038 Z-0.1941
X72.9999 Y12.0347 Z-0.1987
X73.0003 Y12.031 Z-0.2029
X73.0007 Y12.0269 Z-0.2066
X73.0012 Y12.0223 Z-0.2098
X73.0017 Y12.0174 Z-0.2125
X73.0023 Y12.0123 Z-0.2147
X73.0029 Y12.0069 Z-0.2162
X73.0035 Y12.0014 Z-0.2172
X73.0041 Y11.9959 Z-0.2175
X73.0058 Y11.9803
G3 X73.0501 Y12.0354 I-0.0054 J0.0497
G1 X73.021 Y12.3044
G3 X73.0199 Y12.3059 I-0.0017 J-0.0002
G2 X72.7936 Y12.6017 I0.1373 J0.3395
G3 X72.7924 Y12.6032 I-0.0018 J-0.0002
G1 X72.579 Y12.6865
G3 X72.5771 Y12.6861 I-0.0006 J-0.0017
G2 X72.1167 Y12.5653 I-0.3283 J0.3139
G3 X72.1149 Y12.5648 I-0.0005 J-0.0017
G1 X71.7692 Y12.1422
X71.7691 Y12.142
G3 X71.7688 Y12.1402 I0.0014 J-0.0011
G2 X71.7708 Y11.8646 I-0.3381 J-0.1402
G3 X71.7711 Y11.8629 I0.0016 J-0.0006
G1 X71.7713 Y11.8627
X73.1008 Y10.2839
G3 X73.103 Y10.2835 I0.0014 J0.0011
G2 X73.2321 Y10.3387 I0.3887 J-0.7304
G3 X73.2332 Y10.3406 I-0.0006 J0.0017
G1 X73.0501 Y12.0354
G3 X72.995 Y12.0797 I-0.0497 J-0.0054
G1 X72.9967 Y12.0642
X72.9973 Y12.0586 Z-0.2172
X72.9979 Y12.0531 Z-0.2162
X72.9985 Y12.0477 Z-0.2147
X72.999 Y12.0426 Z-0.2125
X72.9996 Y12.0377 Z-0.2098
X73. Y12.0332 Z-0.2066
X73.0005 Y12.029 Z-0.2029
X73.0009 Y12.0253 Z-0.1987
X73.0012 Y12.0221 Z-0.1941
X73.0015 Y12.0194 Z-0.1892
X73.0018 Y12.0172 Z-0.184
X73.0019 Y12.0157 Z-0.1786
X73.002 Y12.0148 Z-0.1731
X73.0021 Y12.0145 Z-0.1675
G0 Z0.4
X74.3726 Y11.2727
Z0.2
G1 Z0.1 F13.333
Z-0.1675
X74.3724 Y11.2725 Z-0.1731 F40.
X74.3718 Y11.2718 Z-0.1786
X74.3708 Y11.2705 Z-0.184
X74.3695 Y11.2689 Z-0.1892
X74.3678 Y11.2668 Z-0.1941
X74.3657 Y11.2642 Z-0.1987
X74.3634 Y11.2613 Z-0.2029
X74.3608 Y11.258 Z-0.2066
X74.3579 Y11.2545 Z-0.2098
X74.3548 Y11.2507 Z-0.2125
X74.3516 Y11.2466 Z-0.2147
X74.3482 Y11.2424 Z-0.2162
X74.3448 Y11.2381 Z-0.2172
X74.3413 Y11.2337 Z-0.2175
X74.3315 Y11.2215
G3 X74.4018 Y11.2292 I0.0313 J0.039
G2 X74.9167 Y11.2856 I0.2857 J-0.2292
G3 X74.9196 Y11.2865 I0.0012 J0.0014
G1 X75.0629 Y11.7302
X75.063 Y11.7303
G3 X75.0601 Y11.7321 I-0.0017 J0.0005
G1 X75.06 Y11.732
G2 X74.4467 Y11.9563 I-0.2496 J0.2681
G1 Y11.9565
G3 X74.4457 Y11.9578 I-0.0016 J-0.0002
G1 X73.3967 Y12.3673
G3 X73.3949 Y12.367 I-0.0007 J-0.0016
G2 X73.364 Y12.3432 I-0.2384 J0.278
X73.3636 Y12.3429 I-0.0443 J0.0645
G3 X73.3628 Y12.3413 I0.0009 J-0.0014
G1 X73.5754 Y10.3776
G3 X73.577 Y10.376 I0.0018 J0.0002
G2 X73.8734 Y10.2871 I-0.0853 J-0.8232
G3 X73.8756 Y10.2876 I0.0008 J0.0016
G1 X74.3482 Y10.8594
G3 X74.3485 Y10.8612 I-0.0014 J0.0011
G1 X74.3484 Y10.8613
G2 X74.4018 Y11.2292 I0.339 J0.1387
G3 X74.3941 Y11.2995 I-0.039 J0.0313
G1 X74.3843 Y11.2873
X74.3808 Y11.283 Z-0.2172
X74.3773 Y11.2786 Z-0.2162
X74.3739 Y11.2744 Z-0.2147
X74.3707 Y11.2704 Z-0.2125
X74.3676 Y11.2666 Z-0.2098
X74.3648 Y11.263 Z-0.2066
X74.3621 Y11.2597 Z-0.2029
X74.3598 Y11.2568 Z-0.1987
X74.3578 Y11.2543 Z-0.1941
X74.3561 Y11.2522 Z-0.1892
X74.3547 Y11.2505 Z-0.184
X74.3538 Y11.2493 Z-0.1786
X74.3532 Y11.2486 Z-0.1731
X74.353 Y11.2483 Z-0.1675
G0 Z0.4
X74.4626 Y10.0368
Z0.2
G1 Z0.1 F13.333
Z-0.1675
X74.4625 Y10.0365 Z-0.1731 F40.
X74.4623 Y10.0356 Z-0.1786
X74.4618 Y10.0341 Z-0.184
X74.4611 Y10.0321 Z-0.1892
X74.4603 Y10.0295 Z-0.1941
X74.4593 Y10.0264 Z-0.1987
X74.4581 Y10.0229 Z-0.2029
X74.4568 Y10.0189 Z-0.2066
X74.4554 Y10.0145 Z-0.2098
X74.4539 Y10.0099 Z-0.2125
X74.4523 Y10.0049 Z-0.2147
X74.4507 Y9.9998 Z-0.2162
X74.449 Y9.9946 Z-0.2172
X74.4472 Y9.9892 Z-0.2175
X74.4424 Y9.9743
G3 X74.5054 Y10.0065 I0.0154 J0.0476
G1 X74.7078 Y10.6318
G3 X74.7059 Y10.6342 I-0.0018 J0.0006
G2 X74.6153 Y10.641 I-0.0183 J0.3658
G1 X74.6152
G3 X74.6134 Y10.6404 I-0.0004 J-0.0018
G1 X74.1407 Y10.0684
G3 X74.1406 Y10.066 I0.0015 J-0.0012
G2 X74.3149 Y9.4689 I-0.6492 J-0.5134
G1 X74.3148 Y9.4687
G3 X74.316 Y9.4669 I0.0017 J-0.0002
G1 X74.3274 Y9.4633
X74.3277 Y9.4632
G3 X74.3299 Y9.4643 I0.0005 J0.0016
G1 X74.5054 Y10.0065
G3 X74.4732 Y10.0695 I-0.0476 J0.0154
G1 X74.4684 Y10.0546
X74.4667 Y10.0493 Z-0.2172
X74.465 Y10.044 Z-0.2162
X74.4633 Y10.0389 Z-0.2147
X74.4617 Y10.034 Z-0.2125
X74.4602 Y10.0293 Z-0.2098
X74.4588 Y10.0249 Z-0.2066
X74.4575 Y10.021 Z-0.2029
X74.4564 Y10.0174 Z-0.1987
X74.4554 Y10.0143 Z-0.1941
X74.4545 Y10.0117 Z-0.1892
X74.4539 Y10.0097 Z-0.184
X74.4534 Y10.0082 Z-0.1786
X74.4531 Y10.0073 Z-0.1731
X74.453 Y10.007 Z-0.1675
G0 Z0.4
X74.1724 Y8.581
Z0.2
G1 Z0.1 F13.333
Z-0.1675
Y8.5807 Z-0.1731 F40.
X74.1726 Y8.5798 Z-0.1786
X74.173 Y8.5783 Z-0.184
X74.1735 Y8.5762 Z-0.1892
X74.1741 Y8.5735 Z-0.1941
X74.1748 Y8.5704 Z-0.1987
X74.1756 Y8.5667 Z-0.2029
X74.1766 Y8.5627 Z-0.2066
X74.1776 Y8.5582 Z-0.2098
X74.1787 Y8.5534 Z-0.2125
X74.1798 Y8.5484 Z-0.2147
X74.181 Y8.5431 Z-0.2162
X74.1823 Y8.5377 Z-0.2172
X74.1835 Y8.5323 Z-0.2175
X74.187 Y8.517
G3 X74.2246 Y8.5769 I-0.0111 J0.0487
G2 X74.2266 Y9.1326 I1.1974 J0.2735
G1 Y9.1328
G3 X74.2256 Y9.1346 I-0.0015 J0.0004
G2 X74.2252 Y9.1347 I0.024 J0.0745
G1 X74.21 Y9.1397
G3 X74.2079 Y9.1389 I-0.0005 J-0.0017
G2 X73.6705 Y8.7451 I-0.7165 J0.4141
G3 X73.6692 Y8.7434 I0.0004 J-0.0017
G1 X73.6723 Y8.312
G3 X73.6737 Y8.3103 I0.0017 J0.
G2 X74.3334 Y7.5084 I-0.1679 J-0.8103
G1 Y7.5083
G3 X74.3347 Y7.5066 I0.0017 J0.
G1 X74.5962 Y7.4534
G3 X74.5981 Y7.456 I0.0003 J0.0017
G2 X74.5643 Y7.5332 I0.3966 J0.2194
G1 X74.256 Y8.4643
G2 X74.2246 Y8.5769 I1.166 J0.3862
G3 X74.1647 Y8.6145 I-0.0487 J-0.0111
G1 X74.1682 Y8.5992
X74.1694 Y8.5938 Z-0.2172
X74.1707 Y8.5884 Z-0.2162
X74.1719 Y8.5831 Z-0.2147
X74.173 Y8.5781 Z-0.2125
X74.1741 Y8.5733 Z-0.2098
X74.1751 Y8.5689 Z-0.2066
X74.1761 Y8.5648 Z-0.2029
X74.1769 Y8.5611 Z-0.1987
X74.1776 Y8.558 Z-0.1941
X74.1782 Y8.5553 Z-0.1892
X74.1787 Y8.5532 Z-0.184
X74.1791 Y8.5517 Z-0.1786
X74.1793 Y8.5508 Z-0.1731
Y8.5505 Z-0.1675
G0 Z0.4
X73.2767 Y8.5253
Z0.2
G1 Z0.1 F13.333
Z-0.1675
Y8.525 Z-0.1731 F40.
Y8.5241 Z-0.1786
Y8.5225 Z-0.184
Y8.5204 Z-0.1892
Y8.5177 Z-0.1941
Y8.5144 Z-0.1987
X73.2768 Y8.5107 Z-0.2029
Y8.5065 Z-0.2066
Y8.5019 Z-0.2098
X73.2769 Y8.497 Z-0.2125
Y8.4918 Z-0.2147
Y8.4865 Z-0.2162
X73.277 Y8.4809 Z-0.2172
Y8.4753 Z-0.2175
X73.2771 Y8.4597
G3 X73.3268 Y8.51 I-0.0003 J0.05
G1 X73.3253 Y8.741
G3 X73.3239 Y8.7426 I-0.0017 J0.
G2 X73.0878 Y8.8307 I0.1677 J0.8102
G3 X73.0855 Y8.8303 I-0.0009 J-0.0016
G1 X72.7994 Y8.5047
G3 X72.7995 Y8.5023 I0.0014 J-0.0012
G1 Y8.5022
X73.0755 Y8.2085
G3 X73.0777 Y8.2082 I0.0013 J0.0012
G2 X73.3267 Y8.3079 I0.4279 J-0.7084
G3 X73.3281 Y8.3096 I-0.0004 J0.0017
G1 Y8.3097
X73.3268 Y8.51
G3 X73.2765 Y8.5597 I-0.05 J-0.0003
G1 X73.2766 Y8.544
Y8.5384 Z-0.2172
Y8.5329 Z-0.2162
X73.2767 Y8.5275 Z-0.2147
Y8.5223 Z-0.2125
Y8.5174 Z-0.2098
X73.2768 Y8.5129 Z-0.2066
Y8.5087 Z-0.2029
Y8.5049 Z-0.1987
Y8.5017 Z-0.1941
Y8.499 Z-0.1892
X73.2769 Y8.4968 Z-0.184
Y8.4953 Z-0.1786
Y8.4943 Z-0.1731
Y8.494 Z-0.1675
G0 Z0.4
X72.6496 Y9.3051
Z0.2
G1 Z0.1 F13.333
Z-0.1675
X72.6497 Y9.3048 Z-0.1731 F40.
X72.65 Y9.3039 Z-0.1786
X72.6504 Y9.3025 Z-0.184
X72.6511 Y9.3004 Z-0.1892
X72.6519 Y9.2978 Z-0.1941
X72.6528 Y9.2947 Z-0.1987
X72.654 Y9.2912 Z-0.2029
X72.6552 Y9.2872 Z-0.2066
X72.6566 Y9.2828 Z-0.2098
X72.6581 Y9.2781 Z-0.2125
X72.6596 Y9.2732 Z-0.2147
X72.6612 Y9.268 Z-0.2162
X72.6629 Y9.2628 Z-0.2172
X72.6646 Y9.2574 Z-0.2175
X72.6693 Y9.2425
G3 X72.702 Y9.3052 I-0.015 J0.0477
G2 X72.6691 Y9.4608 I0.7893 J0.248
G3 X72.6675 Y9.4624 I-0.0018 J-0.0002
G1 X72.6674
X71.9922 Y9.5299
X71.992 Y9.53
G3 X71.9902 Y9.5282 I-0.0002 J-0.0016
G1 Y9.528
G2 X71.9722 Y9.3833 I-0.365 J-0.028
G1 X71.9721 Y9.383
G3 X71.9725 Y9.3814 I0.0015 J-0.0005
G1 X72.5602 Y8.7566
Y8.7565
G3 X72.5628 Y8.7566 I0.0013 J0.0012
G1 X72.827 Y9.0573
X72.8272 Y9.0576
G3 X72.8273 Y9.0596 I-0.0012 J0.0011
G2 X72.702 Y9.3052 I0.6639 J0.4936
G3 X72.6393 Y9.3379 I-0.0477 J-0.015
G1 X72.644 Y9.323
X72.6456 Y9.3176 Z-0.2172
X72.6473 Y9.3124 Z-0.2162
X72.6489 Y9.3072 Z-0.2147
X72.6505 Y9.3023 Z-0.2125
X72.6519 Y9.2976 Z-0.2098
X72.6533 Y9.2932 Z-0.2066
X72.6546 Y9.2892 Z-0.2029
X72.6557 Y9.2857 Z-0.1987
X72.6567 Y9.2826 Z-0.1941
X72.6575 Y9.28 Z-0.1892
X72.6581 Y9.278 Z-0.184
X72.6586 Y9.2765 Z-0.1786
X72.6589 Y9.2756 Z-0.1731
X72.659 Y9.2753 Z-0.1675
G0 Z0.4
X70.5565 Y11.3573
Z0.2
G1 Z0.1 F13.333
Z-0.1675
X70.5563 Y11.3571 Z-0.1731 F40.
X70.5556 Y11.3564 Z-0.1786
X70.5546 Y11.3552 Z-0.184
X70.5532 Y11.3536 Z-0.1892
X70.5513 Y11.3516 Z-0.1941
X70.5492 Y11.3492 Z-0.1987
X70.5467 Y11.3464 Z-0.2029
X70.5439 Y11.3433 Z-0.2066
X70.5409 Y11.3399 Z-0.2098
X70.5376 Y11.3362 Z-0.2125
X70.5341 Y11.3324 Z-0.2147
X70.5305 Y11.3283 Z-0.2162
X70.5268 Y11.3242 Z-0.2172
X70.5231 Y11.3201 Z-0.2175
X70.5127 Y11.3084
G3 X70.5833 Y11.3123 I0.0334 J0.0372
G1 X71.0858 Y11.8732
X71.0859 Y11.8733
G3 X71.0863 Y11.875 I-0.0013 J0.0011
G2 X71.086 Y11.8758 I0.0736 J0.0266
X71.0817 Y11.8887 I0.3457 J0.1212
G3 X71.0803 Y11.8899 I-0.0017 J-0.0007
G1 X69.9729 Y12.0946
G3 X69.9713 Y12.094 I-0.0003 J-0.0016
G2 X69.8447 Y11.993 I-0.286 J0.2289
G1 X69.8445
G3 X69.8435 Y11.9915 I0.0007 J-0.0015
G1 X69.7927 Y10.7462
G3 X69.7941 Y10.7444 I0.0018 J-0.0001
G2 X69.9983 Y10.6614 I-0.2066 J-0.8013
G3 X70.0004 Y10.6618 I0.0008 J0.0015
G1 X70.5833 Y11.3123
G3 X70.5794 Y11.3829 I-0.0372 J0.0334
G1 X70.5689 Y11.3712
X70.5652 Y11.3671 Z-0.2172
X70.5615 Y11.3629 Z-0.2162
X70.5579 Y11.3589 Z-0.2147
X70.5545 Y11.3551 Z-0.2125
X70.5512 Y11.3514 Z-0.2098
X70.5481 Y11.348 Z-0.2066
X70.5453 Y11.3449 Z-0.2029
X70.5429 Y11.3421 Z-0.1987
X70.5407 Y11.3397 Z-0.1941
X70.5389 Y11.3377 Z-0.1892
X70.5374 Y11.3361 Z-0.184
X70.5364 Y11.3349 Z-0.1786
X70.5358 Y11.3342 Z-0.1731
X70.5356 Y11.334 Z-0.1675
G0 Z0.4
X70.2558 Y12.5645
Z0.2
G1 Z0.1 F13.333
Z-0.1675
X70.2561 Y12.5643 Z-0.1731 F40.
X70.2568 Y12.5638 Z-0.1786
X70.2581 Y12.5629 Z-0.184
X70.2598 Y12.5616 Z-0.1892
X70.262 Y12.5601 Z-0.1941
X70.2647 Y12.5582 Z-0.1987
X70.2677 Y12.556 Z-0.2029
X70.2711 Y12.5536 Z-0.2066
X70.2749 Y12.5509 Z-0.2098
X70.2788 Y12.5481 Z-0.2125
X70.2831 Y12.5451 Z-0.2147
X70.2875 Y12.5419 Z-0.2162
X70.292 Y12.5387 Z-0.2172
X70.2965 Y12.5355 Z-0.2175
X70.3093 Y12.5264
G3 X70.2976 Y12.5961 I-0.0407 J0.029
G1 X70.1936 Y12.6702
G3 X70.1913 Y12.6696 I-0.0009 J-0.0013
X70.0876 Y12.4253 I1.2393 J-0.67
X70.089 Y12.423 I0.0017 J-0.0005
G1 X70.691 Y12.3116
G3 X70.6924 Y12.3148 I0.0003 J0.0017
G1 X70.2976 Y12.5961
G3 X70.2278 Y12.5844 I-0.029 J-0.0407
G1 X70.2406 Y12.5754
X70.2451 Y12.5721 Z-0.2172
X70.2496 Y12.5689 Z-0.2162
X70.254 Y12.5658 Z-0.2147
X70.2582 Y12.5628 Z-0.2125
X70.2622 Y12.5599 Z-0.2098
X70.266 Y12.5573 Z-0.2066
X70.2694 Y12.5548 Z-0.2029
X70.2724 Y12.5527 Z-0.1987
X70.275 Y12.5508 Z-0.1941
X70.2773 Y12.5492 Z-0.1892
X70.279 Y12.548 Z-0.184
X70.2803 Y12.5471 Z-0.1786
X70.281 Y12.5465 Z-0.1731
X70.2813 Y12.5463 Z-0.1675
G0 Z0.4
X71.6054 Y12.5644
Z0.2
G1 Z0.1 F13.333
Z-0.1675
X71.6052 Y12.5641 Z-0.1731 F40.
X71.6046 Y12.5634 Z-0.1786
X71.6036 Y12.5622 Z-0.184
X71.6023 Y12.5605 Z-0.1892
X71.6006 Y12.5584 Z-0.1941
X71.5985 Y12.5559 Z-0.1987
X71.5961 Y12.553 Z-0.2029
X71.5935 Y12.5498 Z-0.2066
X71.5906 Y12.5463 Z-0.2098
X71.5875 Y12.5425 Z-0.2125
X71.5842 Y12.5385 Z-0.2147
X71.5808 Y12.5343 Z-0.2162
X71.5773 Y12.53 Z-0.2172
X71.5738 Y12.5257 Z-0.2175
X71.5638 Y12.5136
G3 X71.6342 Y12.5206 I0.0317 J0.0387
G1 X71.8485 Y12.7826
X71.8486 Y12.7827
G3 X71.8488 Y12.7847 I-0.0013 J0.0011
G2 X71.8255 Y13.1652 I0.4 J0.2154
G1 X71.8256
G2 X71.9639 Y13.4707 I2.984 J-1.1676
G3 X71.9619 Y13.4733 I-0.0016 J0.0008
G1 X71.515 Y13.3876
G3 X71.5137 Y13.3865 I0.0004 J-0.0017
G2 X70.972 Y13.2302 I-0.3261 J0.1136
G3 X70.9703 Y13.2305 I-0.0011 J-0.0014
G1 X70.9702
X70.3497 Y12.988
G3 X70.3489 Y12.9873 I0.0006 J-0.0017
G2 X70.3485 Y12.9834 I-0.078 J0.0062
G3 X70.3491 Y12.9818 I0.0016 J-0.0002
G1 X71.2663 Y12.3283
G3 X71.268 Y12.3282 I0.001 J0.0014
G2 X71.5012 Y12.3594 I0.1626 J-0.3282
G3 X71.5028 Y12.36 I0.0003 J0.0017
G1 X71.6342 Y12.5206
G3 X71.6271 Y12.591 I-0.0387 J0.0317
G1 X71.6172 Y12.5789
X71.6137 Y12.5745 Z-0.2172
X71.6102 Y12.5702 Z-0.2162
X71.6068 Y12.5661 Z-0.2147
X71.6035 Y12.5621 Z-0.2125
X71.6004 Y12.5583 Z-0.2098
X71.5975 Y12.5547 Z-0.2066
X71.5949 Y12.5515 Z-0.2029
X71.5925 Y12.5486 Z-0.1987
X71.5904 Y12.5461 Z-0.1941
X71.5887 Y12.544 Z-0.1892
X71.5874 Y12.5423 Z-0.184
X71.5864 Y12.5411 Z-0.1786
X71.5858 Y12.5404 Z-0.1731
X71.5856 Y12.5402 Z-0.1675
G0 Z0.4
X72.3106 Y12.9927
Z0.2
G1 Z0.1 F13.333
Z-0.1675
X72.3105 Y12.9924 Z-0.1731 F40.
X72.3102 Y12.9915 Z-0.1786
X72.3096 Y12.9901 Z-0.184
X72.3088 Y12.9881 Z-0.1892
X72.3078 Y12.9855 Z-0.1941
X72.3067 Y12.9825 Z-0.1987
X72.3053 Y12.979 Z-0.2029
X72.3038 Y12.9751 Z-0.2066
X72.3021 Y12.9709 Z-0.2098
X72.3003 Y12.9663 Z-0.2125
X72.2985 Y12.9615 Z-0.2147
X72.2965 Y12.9565 Z-0.2162
X72.2945 Y12.9513 Z-0.2172
X72.2924 Y12.9461 Z-0.2175
X72.2868 Y12.9315
G3 X72.3515 Y12.9599 I0.0182 J0.0466
G2 X73.1609 Y14.0608 I2.4591 J-0.96
G1 X73.161
G3 X73.1782 Y14.216 I-0.0689 J0.0862
X73.023 Y14.233 I-0.0861 J-0.069
G1 X73.0229
G3 X72.1461 Y13.0401 I1.7878 J-2.2328
X72.2087 Y12.8973 I0.1027 J-0.0401
X72.3515 Y12.9599 I0.0401 J0.1027
X72.3231 Y13.0247 I-0.0466 J0.0182
G1 X72.3174 Y13.0101
X72.3154 Y13.0049 Z-0.2172
X72.3134 Y12.9997 Z-0.2162
X72.3114 Y12.9947 Z-0.2147
X72.3095 Y12.9899 Z-0.2125
X72.3078 Y12.9853 Z-0.2098
X72.3061 Y12.9811 Z-0.2066
X72.3046 Y12.9772 Z-0.2029
X72.3032 Y12.9737 Z-0.1987
X72.302 Y12.9707 Z-0.1941
X72.301 Y12.9681 Z-0.1892
X72.3003 Y12.9661 Z-0.184
X72.2997 Y12.9647 Z-0.1786
X72.2994 Y12.9638 Z-0.1731
X72.2992 Y12.9635 Z-0.1675
G0 Z0.4
X72.879 Y13.0349
Z0.2
G1 Z0.1 F13.333
Z-0.1675
X72.8788 Y13.0346 Z-0.1731 F40.
X72.8784 Y13.0338 Z-0.1786
X72.8777 Y13.0324 Z-0.184
X72.8767 Y13.0305 Z-0.1892
X72.8754 Y13.0281 Z-0.1941
X72.8739 Y13.0253 Z-0.1987
X72.8722 Y13.022 Z-0.2029
X72.8702 Y13.0183 Z-0.2066
X72.8681 Y13.0142 Z-0.2098
X72.8658 Y13.0099 Z-0.2125
X72.8634 Y13.0053 Z-0.2147
X72.8609 Y13.0005 Z-0.2162
X72.8583 Y12.9956 Z-0.2172
X72.8557 Y12.9907 Z-0.2175
X72.8484 Y12.9768
G3 X72.9159 Y12.9978 I0.0233 J0.0442
G2 X73.3412 Y13.5577 I1.8948 J-0.9977
G3 X73.3414 Y13.5599 I-0.0011 J0.0012
G1 X73.3412 Y13.5601
X73.2468 Y13.6782
G3 X73.2443 Y13.6784 I-0.0013 J-0.0011
X72.7414 Y12.9944 I1.5663 J-1.6785
X72.7423 Y12.992 I0.0016 J-0.0007
G1 X72.8832 Y12.9369
X72.8833
G3 X72.8855 Y12.9378 I0.0007 J0.0017
G2 X72.9159 Y12.9978 I1.9252 J-0.9377
G3 X72.895 Y13.0653 I-0.0442 J0.0233
G1 X72.8877 Y13.0515
X72.8851 Y13.0465 Z-0.2172
X72.8825 Y13.0416 Z-0.2162
X72.88 Y13.0368 Z-0.2147
X72.8776 Y13.0323 Z-0.2125
X72.8753 Y13.0279 Z-0.2098
X72.8732 Y13.0239 Z-0.2066
X72.8712 Y13.0202 Z-0.2029
X72.8695 Y13.0169 Z-0.1987
X72.868 Y13.014 Z-0.1941
X72.8667 Y13.0116 Z-0.1892
X72.8657 Y13.0097 Z-0.184
X72.865 Y13.0083 Z-0.1786
X72.8646 Y13.0075 Z-0.1731
X72.8644 Y13.0072 Z-0.1675
G0 Z0.4
X73.8695 Y12.8205
Z0.2
G1 Z0.1 F13.333
Z-0.1675
X73.8697 Y12.8203 Z-0.1731 F40.
X73.8703 Y12.8195 Z-0.1786
X73.8713 Y12.8183 Z-0.184
X73.8726 Y12.8166 Z-0.1892
X73.8743 Y12.8145 Z-0.1941
X73.8763 Y12.812 Z-0.1987
X73.8787 Y12.8091 Z-0.2029
X73.8813 Y12.8058 Z-0.2066
X73.8841 Y12.8022 Z-0.2098
X73.8872 Y12.7984 Z-0.2125
X73.8905 Y12.7944 Z-0.2147
X73.8938 Y12.7901 Z-0.2162
X73.8973 Y12.7858 Z-0.2172
X73.9008 Y12.7815 Z-0.2175
X73.9106 Y12.7692
G3 X73.9183 Y12.8395 I-0.0312 J0.039
G1 X73.8039 Y12.9825
X73.8038 Y12.9826
G3 X73.801 Y12.9827 I-0.0014 J-0.0012
X73.5716 Y12.6705 I1.0099 J-0.9823
X73.5726 Y12.6679 I0.0016 J-0.0009
G1 X74.269 Y12.396
X74.2691
G3 X74.2711 Y12.3988 I0.0007 J0.0017
G1 X73.9183 Y12.8395
G3 X73.8481 Y12.8473 I-0.039 J-0.0312
G1 X73.8578 Y12.8351
X73.8613 Y12.8307 Z-0.2172
X73.8648 Y12.8264 Z-0.2162
X73.8682 Y12.8222 Z-0.2147
X73.8714 Y12.8182 Z-0.2125
X73.8745 Y12.8143 Z-0.2098
X73.8773 Y12.8108 Z-0.2066
X73.8799 Y12.8075 Z-0.2029
X73.8823 Y12.8046 Z-0.1987
X73.8843 Y12.802 Z-0.1941
X73.886 Y12.7999 Z-0.1892
X73.8873 Y12.7983 Z-0.184
X73.8883 Y12.797 Z-0.1786
X73.8889 Y12.7963 Z-0.1731
X73.8891 Y12.7961 Z-0.1675
G0 Z0.4
X74.4539 Y13.3873
Z0.2
G1 Z0.1 F13.333
Z-0.1675
X74.454 Y13.387 Z-0.1731 F40.
X74.4544 Y13.3862 Z-0.1786
X74.4551 Y13.3848 Z-0.184
X74.456 Y13.3828 Z-0.1892
X74.4572 Y13.3804 Z-0.1941
X74.4586 Y13.3774 Z-0.1987
X74.4602 Y13.3741 Z-0.2029
X74.462 Y13.3703 Z-0.2066
X74.4639 Y13.3662 Z-0.2098
X74.466 Y13.3617 Z-0.2125
X74.4683 Y13.357 Z-0.2147
X74.4706 Y13.3522 Z-0.2162
X74.4729 Y13.3472 Z-0.2172
X74.4753 Y13.3421 Z-0.2175
X74.4821 Y13.328
G3 X74.5058 Y13.3946 I-0.0215 J0.0452
G1 X74.0467 Y14.3607
G3 X74.0443 Y14.3614 I-0.0015 J-0.0007
G2 X73.9833 Y14.3302 I-0.1966 J0.3092
G1 X73.9832 Y14.3301
G3 X73.9821 Y14.3287 I0.0007 J-0.0017
G1 X73.9089 Y13.6887
G3 X73.9096 Y13.6871 I0.0017 J-0.0002
G2 X73.9099 Y13.6869 I-0.0442 J-0.0645
X74.0381 Y13.2417 I-0.2088 J-0.3011
G3 X74.0383 Y13.2399 I0.0017 J-0.0007
G1 X74.7422 Y12.3608
G3 X74.7438 Y12.3602 I0.0013 J0.001
G2 X75.023 Y12.2982 I0.0666 J-0.3601
G3 X75.0258 Y12.3004 I0.0011 J0.0015
G1 X74.5058 Y13.3946
G3 X74.4391 Y13.4183 I-0.0452 J-0.0215
G1 X74.4459 Y13.4042
X74.4483 Y13.3991 Z-0.2172
X74.4506 Y13.3941 Z-0.2162
X74.4529 Y13.3893 Z-0.2147
X74.4552 Y13.3846 Z-0.2125
X74.4573 Y13.3801 Z-0.2098
X74.4592 Y13.376 Z-0.2066
X74.461 Y13.3722 Z-0.2029
X74.4626 Y13.3689 Z-0.1987
X74.464 Y13.3659 Z-0.1941
X74.4652 Y13.3635 Z-0.1892
X74.4661 Y13.3615 Z-0.184
X74.4668 Y13.3601 Z-0.1786
X74.4672 Y13.3593 Z-0.1731
X74.4673 Y13.359 Z-0.1675
G0 Z0.4
X73.5884 Y14.3537
Z0.2
G1 Z0.1 F13.333
Z-0.1675
Y14.3533 Z-0.1731 F40.
X73.5883 Y14.3524 Z-0.1786
X73.5881 Y14.3509 Z-0.184
X73.5879 Y14.3487 Z-0.1892
X73.5876 Y14.346 Z-0.1941
X73.5872 Y14.3428 Z-0.1987
X73.5868 Y14.3391 Z-0.2029
X73.5863 Y14.3349 Z-0.2066
X73.5858 Y14.3304 Z-0.2098
X73.5852 Y14.3255 Z-0.2125
X73.5846 Y14.3204 Z-0.2147
X73.584 Y14.315 Z-0.2162
X73.5834 Y14.3095 Z-0.2172
X73.5828 Y14.304 Z-0.2175
X73.581 Y14.2884
G3 X73.6363 Y14.3324 I0.0057 J0.0497
G1 X73.6403 Y14.3675
G3 X73.6396 Y14.3691 I-0.0017 J0.0002
G1 X73.6393 Y14.3693
G2 X73.4881 Y14.6014 I0.2084 J0.3011
G3 X73.4863 Y14.6028 I-0.0016 J-0.0003
G1 X73.4861 Y14.6027
G2 X73.4761 Y14.6018 I-0.04 J0.3641
G3 X73.4746 Y14.6007 I0.0002 J-0.0018
G1 X73.4168 Y14.4661
G3 X73.4171 Y14.4641 I0.0017 J-0.0008
G2 X73.4898 Y13.9272 I-0.325 J-0.3173
G1 X73.4896 Y13.927
G3 X73.4898 Y13.9253 I0.0013 J-0.0007
G1 X73.4899 Y13.9252
X73.5745 Y13.8192
G3 X73.5778 Y13.8201 I0.0014 J0.0011
G1 X73.6363 Y14.3324
G3 X73.5923 Y14.3878 I-0.0497 J0.0057
G1 X73.5906 Y14.3722
X73.5899 Y14.3667 Z-0.2172
X73.5893 Y14.3612 Z-0.2162
X73.5887 Y14.3558 Z-0.2147
X73.5881 Y14.3507 Z-0.2125
X73.5875 Y14.3458 Z-0.2098
X73.587 Y14.3413 Z-0.2066
X73.5865 Y14.3371 Z-0.2029
X73.5861 Y14.3334 Z-0.1987
X73.5857 Y14.3302 Z-0.1941
X73.5854 Y14.3275 Z-0.1892
X73.5852 Y14.3253 Z-0.184
X73.585 Y14.3238 Z-0.1786
X73.5849 Y14.3229 Z-0.1731
Y14.3226 Z-0.1675
G0 Z0.4
X72.6269 Y14.4129
Z0.2
G1 Z0.1 F13.333
Z-0.1675
X72.6267 Y14.4127 Z-0.1731 F40.
X72.626 Y14.412 Z-0.1786
X72.6248 Y14.411 Z-0.184
X72.6233 Y14.4095 Z-0.1892
X72.6213 Y14.4077 Z-0.1941
X72.6189 Y14.4055 Z-0.1987
X72.6161 Y14.403 Z-0.2029
X72.613 Y14.4002 Z-0.2066
X72.6096 Y14.3971 Z-0.2098
X72.606 Y14.3938 Z-0.2125
X72.6022 Y14.3903 Z-0.2147
X72.5982 Y14.3866 Z-0.2162
X72.5941 Y14.3829 Z-0.2172
X72.59 Y14.3791 Z-0.2175
X72.5785 Y14.3686
G3 X72.6491 Y14.3654 I0.0369 J0.0337
G2 X72.8082 Y14.5015 I2.1615 J-2.3654
X73.099 Y14.6011 I0.2839 J-0.3547
G3 X73.1005 Y14.6021 I0. J0.0016
G1 X73.1006 Y14.6023
X73.1588 Y14.7366
G3 X73.1585 Y14.7385 I-0.0017 J0.0007
G1 Y14.7386
G2 X73.0898 Y15.0557 I0.2865 J0.228
G3 X73.0884 Y15.0578 I-0.0016 J0.0004
G1 X73.0881
X71.0719 Y15.3067
G3 X71.0704 Y15.3037 I-0.0002 J-0.0017
G1 X72.3563 Y14.0631
G3 X72.359 Y14.0632 I0.0013 J0.0013
G2 X72.6491 Y14.3654 I2.4516 J-2.0632
G3 X72.6523 Y14.436 I-0.0337 J0.0369
G1 X72.6407 Y14.4255
X72.6366 Y14.4217 Z-0.2172
X72.6325 Y14.418 Z-0.2162
X72.6285 Y14.4143 Z-0.2147
X72.6247 Y14.4109 Z-0.2125
X72.6211 Y14.4075 Z-0.2098
X72.6177 Y14.4045 Z-0.2066
X72.6146 Y14.4016 Z-0.2029
X72.6119 Y14.3991 Z-0.1987
X72.6095 Y14.3969 Z-0.1941
X72.6075 Y14.3951 Z-0.1892
X72.6059 Y14.3936 Z-0.184
X72.6047 Y14.3926 Z-0.1786
X72.604 Y14.392 Z-0.1731
X72.6038 Y14.3918 Z-0.1675
G0 Z0.4
X71.6212 Y14.2248
Z0.2
G1 Z0.1 F13.333
Z-0.1675
X71.6214 Y14.2246 Z-0.1731 F40.
X71.6221 Y14.2239 Z-0.1786
X71.6232 Y14.2229 Z-0.184
X71.6247 Y14.2214 Z-0.1892
X71.6267 Y14.2195 Z-0.1941
X71.629 Y14.2172 Z-0.1987
X71.6317 Y14.2146 Z-0.2029
X71.6347 Y14.2117 Z-0.2066
X71.638 Y14.2086 Z-0.2098
X71.6415 Y14.2052 Z-0.2125
X71.6453 Y14.2016 Z-0.2147
X71.6492 Y14.1978 Z-0.2162
X71.6531 Y14.194 Z-0.2172
X71.6572 Y14.1901 Z-0.2175
X71.6684 Y14.1792
G3 X71.6672 Y14.2499 I-0.036 J0.0347
G1 X70.8571 Y15.0314
G3 X70.8541 Y15.0295 I-0.0013 J-0.0013
G1 X71.2549 Y13.8395
G3 X71.2561 Y13.8384 I0.0015 J0.0005
G2 X71.4485 Y13.726 I-0.0686 J-0.3384
G3 X71.4501 Y13.7255 I0.0013 J0.0011
G1 X71.4502
X72.0815 Y13.8464
G3 X72.0823 Y13.8494 I-0.0004 J0.0017
G1 X71.6672 Y14.2499
G3 X71.5965 Y14.2487 I-0.0347 J-0.036
G1 X71.6077 Y14.2378
X71.6117 Y14.2339 Z-0.2172
X71.6157 Y14.2301 Z-0.2162
X71.6196 Y14.2263 Z-0.2147
X71.6233 Y14.2227 Z-0.2125
X71.6269 Y14.2193 Z-0.2098
X71.6302 Y14.2161 Z-0.2066
X71.6332 Y14.2132 Z-0.2029
X71.6359 Y14.2107 Z-0.1987
X71.6382 Y14.2084 Z-0.1941
X71.6401 Y14.2065 Z-0.1892
X71.6417 Y14.205 Z-0.184
X71.6428 Y14.2039 Z-0.1786
X71.6435 Y14.2033 Z-0.1731
X71.6437 Y14.2031 Z-0.1675
G0 Z0.4
X70.5127 Y14.8096
Z0.2
G1 Z0.1 F13.333
Z-0.1675
X70.5128 Y14.8093 Z-0.1731 F40.
X70.5131 Y14.8084 Z-0.1786
X70.5136 Y14.8069 Z-0.184
X70.5142 Y14.8049 Z-0.1892
X70.5151 Y14.8023 Z-0.1941
X70.5161 Y14.7992 Z-0.1987
X70.5173 Y14.7957 Z-0.2029
X70.5187 Y14.7917 Z-0.2066
X70.5201 Y14.7874 Z-0.2098
X70.5217 Y14.7827 Z-0.2125
X70.5233 Y14.7778 Z-0.2147
X70.5251 Y14.7727 Z-0.2162
X70.5268 Y14.7675 Z-0.2172
X70.5286 Y14.7622 Z-0.2175
X70.5336 Y14.7473
G3 X70.5651 Y14.8107 I-0.0159 J0.0474
G1 X70.3979 Y15.3077
G3 X70.3948 Y15.3083 I-0.0017 J-0.0006
G1 X69.7609 Y14.582
X69.7608 Y14.5818
G3 X69.7604 Y14.58 I0.0014 J-0.0012
G2 X69.7694 Y14.5493 I-0.3263 J-0.1121
G1 Y14.5491
G3 X69.7716 Y14.5478 I0.0017 J0.0004
G2 X70.2097 Y14.2252 I0.093 J-0.3326
G1 Y14.2251
G3 X70.2106 Y14.2236 I0.0018 J0.
G1 X70.8813 Y13.861
X70.8814
G3 X70.8838 Y13.863 I0.0008 J0.0015
G1 X70.8837 Y13.8632
X70.5651 Y14.8107
G3 X70.5017 Y14.8421 I-0.0474 J-0.0159
G1 X70.5067 Y14.8273
X70.5085 Y14.822 Z-0.2172
X70.5103 Y14.8167 Z-0.2162
X70.512 Y14.8116 Z-0.2147
X70.5136 Y14.8067 Z-0.2125
X70.5152 Y14.8021 Z-0.2098
X70.5166 Y14.7977 Z-0.2066
X70.518 Y14.7938 Z-0.2029
X70.5192 Y14.7902 Z-0.1987
X70.5202 Y14.7872 Z-0.1941
X70.5211 Y14.7846 Z-0.1892
X70.5218 Y14.7826 Z-0.184
X70.5222 Y14.7811 Z-0.1786
X70.5225 Y14.7802 Z-0.1731
X70.5226 Y14.7799 Z-0.1675
G0 Z0.4
X69.3541 Y14.8563
Z0.2
G1 Z0.1 F13.333
Z-0.1675
X69.3537 Y14.8562 Z-0.1731 F40.
X69.3528 Y14.856 Z-0.1786
X69.3513 Y14.8556 Z-0.184
X69.3492 Y14.8551 Z-0.1892
X69.3466 Y14.8545 Z-0.1941
X69.3435 Y14.8537 Z-0.1987
X69.3398 Y14.8528 Z-0.2029
X69.3358 Y14.8518 Z-0.2066
X69.3313 Y14.8507 Z-0.2098
X69.3266 Y14.8495 Z-0.2125
X69.3215 Y14.8483 Z-0.2147
X69.3163 Y14.847 Z-0.2162
X69.3109 Y14.8457 Z-0.2172
X69.3055 Y14.8443 Z-0.2175
X69.2903 Y14.8406
G3 X69.3508 Y14.804 I0.0485 J0.012
G2 X69.5 Y14.8076 I0.0828 J-0.3352
G3 X69.5017 Y14.8082 I0.0003 J0.0017
G1 X70.045 Y15.4307
G3 X70.0439 Y15.4336 I-0.0013 J0.0012
G1 X67.4211 Y15.7572
X67.4209
X67.4207 Y15.7573
X67.4189
G3 X67.4173 Y15.7552 I0. J-0.0017
G2 X67.4263 Y15.6843 I-0.3546 J-0.081
G1 Y15.684
G3 X67.4272 Y15.6825 I0.0017 J0.
G1 X69.2438 Y14.7583
G3 X69.2455 Y14.7584 I0.0008 J0.0016
G1 X69.2456
G2 X69.3508 Y14.804 I0.188 J-0.2896
G3 X69.3874 Y14.8645 I-0.012 J0.0485
G1 X69.3722 Y14.8608
X69.3668 Y14.8594 Z-0.2172
X69.3614 Y14.8581 Z-0.2162
X69.3562 Y14.8568 Z-0.2147
X69.3511 Y14.8556 Z-0.2125
X69.3464 Y14.8544 Z-0.2098
