%
(971-23-P-0078_BUTTERFLY FISH GEARBOX PLATE_1497 FIRST)
(T1  D=0.1497 CR=0. - ZMIN=-0.2175 - FLAT END MILL)
G90 G94 G17 G91.1
G64 P0.001 Q0.001
G20
G53 G0 Z0.
(SHAPE THROUGH FINISHING PASS)
M9
T1 M6
S22000 M3
G4 P10.
G54
M7
G0 X71.3963 Y8.5817
G43 Z0.6 H1
G0 Z0.2
G1 Z0.1 F13.333
Z-0.1675
Y8.5814 Z-0.1731 F40.
Y8.5805 Z-0.1786
Y8.5789 Z-0.184
X71.3962 Y8.5768 Z-0.1892
Y8.5741 Z-0.1941
Y8.5708 Z-0.1987
X71.3961 Y8.5671 Z-0.2029
Y8.5629 Z-0.2066
X71.396 Y8.5583 Z-0.2098
Y8.5534 Z-0.2125
X71.3959 Y8.5482 Z-0.2147
Y8.5429 Z-0.2162
X71.3958 Y8.5373 Z-0.2172
X71.3957 Y8.5317 Z-0.2175
X71.3956 Y8.5168
G3 X71.4461 Y8.5662 I0.0005 J0.05
G1 X71.4507 Y8.9891
G3 X71.4416 Y8.9924 I-0.0051 J0.0001
G1 X71.1141 Y8.5739
G3 X71.1142 Y8.5674 I0.0041 J-0.0032
G2 X71.2671 Y7.7917 I-0.6331 J-0.5277
G3 X71.2695 Y7.7857 I0.0049 J-0.0015
G1 X71.2696 Y7.7856
X71.4034 Y7.7096
G3 X71.4086 Y7.7097 I0.0025 J0.0044
G1 X71.4087 Y7.7098
G2 X71.4343 Y7.7244 I0.1928 J-0.3076
G3 X71.437 Y7.7288 I-0.0024 J0.0045
G1 Y7.7289
X71.4461 Y8.5662
G3 X71.3967 Y8.6168 I-0.05 J0.0005
G1 X71.3965 Y8.6018
X71.3964 Y8.5962 Z-0.2172
Y8.5907 Z-0.2162
X71.3963 Y8.5853 Z-0.2147
Y8.5801 Z-0.2125
X71.3962 Y8.5752 Z-0.2098
Y8.5706 Z-0.2066
X71.3961 Y8.5664 Z-0.2029
Y8.5627 Z-0.1987
X71.396 Y8.5595 Z-0.1941
Y8.5567 Z-0.1892
Y8.5546 Z-0.184
Y8.553 Z-0.1786
Y8.5521 Z-0.1731
Y8.5518 Z-0.1675
G0 Z0.4
X72.1687 Y8.3785
Z0.2
G1 Z0.1 F13.333
Z-0.1675
X72.1685 Y8.3783 Z-0.1731 F40.
X72.1678 Y8.3776 Z-0.1786
X72.1668 Y8.3764 Z-0.184
X72.1654 Y8.3748 Z-0.1892
X72.1636 Y8.3728 Z-0.1941
X72.1615 Y8.3703 Z-0.1987
X72.159 Y8.3675 Z-0.2029
X72.1562 Y8.3644 Z-0.2066
X72.1532 Y8.361 Z-0.2098
X72.15 Y8.3573 Z-0.2125
X72.1466 Y8.3534 Z-0.2147
X72.143 Y8.3493 Z-0.2162
X72.1393 Y8.3452 Z-0.2172
X72.1357 Y8.341 Z-0.2175
X72.1258 Y8.3297
G3 X72.1963 Y8.3343 I0.033 J0.0376
G1 X72.335 Y8.492
G3 X72.3349 Y8.499 I-0.0039 J0.0034
G1 X72.3348
X71.7978 Y9.0701
G3 X71.789 Y9.0667 I-0.0037 J-0.0035
G1 X71.776 Y7.8695
G3 X71.7848 Y7.8661 I0.005 J0.
G1 X72.1963 Y8.3343
G3 X72.1918 Y8.4048 I-0.0375 J0.033
G1 X72.1819 Y8.3936
X72.1782 Y8.3894 Z-0.2172
X72.1746 Y8.3852 Z-0.2162
X72.171 Y8.3812 Z-0.2147
X72.1676 Y8.3773 Z-0.2125
X72.1643 Y8.3736 Z-0.2098
X72.1613 Y8.3702 Z-0.2066
X72.1586 Y8.367 Z-0.2029
X72.1561 Y8.3642 Z-0.1987
X72.154 Y8.3618 Z-0.1941
X72.1522 Y8.3598 Z-0.1892
X72.1508 Y8.3581 Z-0.184
X72.1497 Y8.357 Z-0.1786
X72.1491 Y8.3563 Z-0.1731
X72.1489 Y8.356 Z-0.1675
G0 Z0.4
X72.6848 Y7.8005
Z0.2
G1 Z0.1 F13.333
Z-0.1675
X72.6847 Y7.8002 Z-0.1731 F40.
X72.6844 Y7.7993 Z-0.1786
X72.6839 Y7.7979 Z-0.184
X72.6832 Y7.7958 Z-0.1892
X72.6823 Y7.7933 Z-0.1941
X72.6812 Y7.7902 Z-0.1987
X72.68 Y7.7867 Z-0.2029
X72.6786 Y7.7827 Z-0.2066
X72.6771 Y7.7784 Z-0.2098
X72.6755 Y7.7738 Z-0.2125
X72.6738 Y7.7689 Z-0.2147
X72.6721 Y7.7638 Z-0.2162
X72.6703 Y7.7586 Z-0.2172
X72.6684 Y7.7533 Z-0.2175
X72.6635 Y7.7391
G3 X72.7272 Y7.77 I0.0164 J0.0472
G2 X72.8278 Y7.9687 I0.7789 J-0.2697
G1 Y7.9688
G3 X72.8274 Y7.9752 I-0.0042 J0.0029
G1 X72.5739 Y8.2447
G3 X72.5664 Y8.2446 I-0.0037 J-0.0035
G1 X72.0007 Y7.6006
X72.0006 Y7.6005
G3 X72.0047 Y7.5921 I0.0038 J-0.0034
G1 X72.0048
X72.6874 Y7.627
G3 X72.6923 Y7.6313 I-0.0003 J0.0052
G2 X72.7272 Y7.77 I0.8138 J-0.1311
G3 X72.6963 Y7.8336 I-0.0472 J0.0164
G1 X72.6914 Y7.8195
X72.6895 Y7.8142 Z-0.2172
X72.6877 Y7.809 Z-0.2162
X72.686 Y7.8039 Z-0.2147
X72.6843 Y7.799 Z-0.2125
X72.6827 Y7.7943 Z-0.2098
X72.6812 Y7.79 Z-0.2066
X72.6798 Y7.7861 Z-0.2029
X72.6786 Y7.7825 Z-0.1987
X72.6775 Y7.7795 Z-0.1941
X72.6766 Y7.7769 Z-0.1892
X72.6759 Y7.7749 Z-0.184
X72.6754 Y7.7734 Z-0.1786
X72.6751 Y7.7725 Z-0.1731
X72.675 Y7.7722 Z-0.1675
G0 Z0.4
X72.0895 Y7.0046
Z0.2
G1 Z0.1 F13.333
Z-0.1675
X72.0892 Y7.0045 Z-0.1731 F40.
X72.0883 Y7.0041 Z-0.1786
X72.087 Y7.0033 Z-0.184
X72.0851 Y7.0023 Z-0.1892
X72.0827 Y7.0011 Z-0.1941
X72.0798 Y6.9996 Z-0.1987
X72.0765 Y6.9978 Z-0.2029
X72.0728 Y6.9959 Z-0.2066
X72.0687 Y6.9938 Z-0.2098
X72.0644 Y6.9915 Z-0.2125
X72.0598 Y6.9891 Z-0.2147
X72.055 Y6.9866 Z-0.2162
X72.0501 Y6.984 Z-0.2172
X72.0452 Y6.9814 Z-0.2175
X72.0319 Y6.9745
G3 X72.0994 Y6.9534 I0.0443 J0.0232
G1 X72.7093 Y7.273
G3 X72.7118 Y7.2788 I-0.0023 J0.0044
G2 X72.711 Y7.2818 I0.0721 J0.0203
X72.7098 Y7.2869 I0.8019 J0.1904
G3 X72.7047 Y7.2902 I-0.0049 J-0.0019
G1 X72.7046
X71.9349 Y7.2509
X71.9347
G3 X71.9303 Y7.2479 I0.0002 J-0.0052
G2 X71.7185 Y7.059 I-0.3281 J0.1546
G3 X71.7152 Y7.055 I0.0016 J-0.0048
G1 X71.7151 Y7.0548
X71.7112 Y7.0316
G3 X71.7142 Y7.0261 I0.005 J-0.0008
G2 X71.8445 Y6.9284 I-0.1344 J-0.3149
G1 X71.8447 Y6.9282
G3 X71.8463 Y6.9269 I0.004 J0.0033
G2 X71.9295 Y6.8685 I-0.1526 J-0.3063
G1 X71.9296 Y6.8684
G3 X71.9356 Y6.8676 I0.0036 J0.0038
G1 X71.9357
X72.0994 Y6.9534
G3 X72.1205 Y7.0209 I-0.0232 J0.0443
G1 X72.1072 Y7.014
X72.1023 Y7.0114 Z-0.2172
X72.0974 Y7.0088 Z-0.2162
X72.0926 Y7.0063 Z-0.2147
X72.088 Y7.0039 Z-0.2125
X72.0837 Y7.0016 Z-0.2098
X72.0796 Y6.9995 Z-0.2066
X72.0759 Y6.9975 Z-0.2029
X72.0726 Y6.9958 Z-0.1987
X72.0697 Y6.9943 Z-0.1941
X72.0673 Y6.993 Z-0.1892
X72.0654 Y6.992 Z-0.184
X72.064 Y6.9913 Z-0.1786
X72.0632 Y6.9909 Z-0.1731
X72.0629 Y6.9907 Z-0.1675
G0 Z0.4
X72.6597 Y6.4042
Z0.2
G1 Z0.1 F13.333
Z-0.1675
X72.6595 Y6.4039 Z-0.1731 F40.
X72.6591 Y6.4031 Z-0.1786
X72.6583 Y6.4017 Z-0.184
X72.6573 Y6.3998 Z-0.1892
X72.656 Y6.3974 Z-0.1941
X72.6545 Y6.3946 Z-0.1987
X72.6527 Y6.3913 Z-0.2029
X72.6507 Y6.3876 Z-0.2066
X72.6485 Y6.3836 Z-0.2098
X72.6461 Y6.3793 Z-0.2125
X72.6437 Y6.3747 Z-0.2147
X72.6411 Y6.37 Z-0.2162
X72.6384 Y6.3652 Z-0.2172
X72.6358 Y6.3602 Z-0.2175
X72.6286 Y6.3471
G3 X72.6964 Y6.3671 I0.0239 J0.0439
G1 X72.9697 Y6.8687
X72.9698 Y6.8688
G3 X72.9686 Y6.8751 I-0.0044 J0.0024
G1 X72.9685 Y6.8752
G2 X72.8723 Y6.9731 I0.538 J0.6242
G3 X72.8659 Y6.9744 I-0.004 J-0.0034
G1 X72.8658
X72.0935 Y6.5698
G3 X72.0908 Y6.5639 I0.0025 J-0.0047
G2 X72.0917 Y6.4176 I-0.3341 J-0.0754
G1 Y6.4174
G3 Y6.4153 I0.0048 J-0.001
G1 Y6.4151
G2 X72.0988 Y6.36 I-0.3351 J-0.0709
G3 X72.1022 Y6.3555 I0.0051 J0.0003
G1 X72.5344 Y6.1994
G3 X72.5391 Y6.2001 I0.0017 J0.0048
G2 X72.6456 Y6.2758 I0.9246 J-1.1888
X72.6461 Y6.2761 I0.0407 J-0.0628
G3 X72.6478 Y6.2779 I-0.0028 J0.0044
G1 X72.6964 Y6.3671
G3 X72.6764 Y6.4349 I-0.0439 J0.0239
G1 X72.6693 Y6.4218
X72.6666 Y6.4169 Z-0.2172
X72.664 Y6.412 Z-0.2162
X72.6614 Y6.4073 Z-0.2147
X72.6589 Y6.4027 Z-0.2125
X72.6565 Y6.3984 Z-0.2098
X72.6544 Y6.3944 Z-0.2066
X72.6524 Y6.3907 Z-0.2029
X72.6506 Y6.3874 Z-0.1987
X72.649 Y6.3846 Z-0.1941
X72.6477 Y6.3822 Z-0.1892
X72.6467 Y6.3803 Z-0.184
X72.646 Y6.379 Z-0.1786
X72.6455 Y6.3781 Z-0.1731
X72.6454 Y6.3779 Z-0.1675
G0 Z0.4
X73.3085 Y6.6483
Z0.2
G1 Z0.1 F13.333
Z-0.1675
X73.3088 Y6.6482 Z-0.1731 F40.
X73.3097 Y6.648 Z-0.1786
X73.3112 Y6.6477 Z-0.184
X73.3133 Y6.6473 Z-0.1892
X73.316 Y6.6467 Z-0.1941
X73.3192 Y6.646 Z-0.1987
X73.3228 Y6.6452 Z-0.2029
X73.3269 Y6.6444 Z-0.2066
X73.3314 Y6.6434 Z-0.2098
X73.3362 Y6.6424 Z-0.2125
X73.3412 Y6.6413 Z-0.2147
X73.3465 Y6.6402 Z-0.2162
X73.3519 Y6.639 Z-0.2172
X73.3574 Y6.6378 Z-0.2175
X73.372 Y6.6347
G3 X73.3336 Y6.6941 I-0.0489 J0.0105
G2 X73.2717 Y6.7098 I0.1723 J0.8059
G3 X73.2657 Y6.7073 I-0.0015 J-0.005
G1 X73.1488 Y6.4926
X73.1487 Y6.4925
G3 X73.1543 Y6.4851 I0.0045 J-0.0024
G2 X73.2562 Y6.5029 I0.3101 J-1.4736
G1 X73.9363 Y6.5974
G3 X73.9384 Y6.5982 I-0.0008 J0.005
G1 X73.9385
X74.638 Y7.0633
G3 X74.64 Y7.0694 I-0.003 J0.0044
G2 X74.6309 Y7.0951 I0.3371 J0.1341
X74.6306 Y7.096 I0.0714 J0.0224
G3 X74.6268 Y7.0995 I-0.0048 J-0.0014
G1 X74.2667 Y7.1729
G3 X74.2611 Y7.1699 I-0.001 J-0.005
G2 X73.3336 Y6.6941 I-0.7552 J0.3301
G3 X73.2742 Y6.6556 I-0.0105 J-0.0489
G1 X73.2889 Y6.6525
X73.2944 Y6.6513 Z-0.2172
X73.2998 Y6.6502 Z-0.2162
X73.305 Y6.649 Z-0.2147
X73.3101 Y6.648 Z-0.2125
X73.3149 Y6.6469 Z-0.2098
X73.3194 Y6.646 Z-0.2066
X73.3234 Y6.6451 Z-0.2029
X73.3271 Y6.6443 Z-0.1987
X73.3303 Y6.6436 Z-0.1941
X73.3329 Y6.6431 Z-0.1892
X73.335 Y6.6426 Z-0.184
X73.3365 Y6.6423 Z-0.1786
X73.3375 Y6.6421 Z-0.1731
X73.3378 Y6.642 Z-0.1675
G0 Z0.4
X72.0466 Y5.6537
Z0.2
G1 Z0.1 F13.333
Z-0.1675
X72.0465 Y5.6534 Z-0.1731 F40.
X72.0461 Y5.6526 Z-0.1786
X72.0455 Y5.6512 Z-0.184
X72.0446 Y5.6492 Z-0.1892
X72.0435 Y5.6467 Z-0.1941
X72.0422 Y5.6438 Z-0.1987
X72.0407 Y5.6403 Z-0.2029
X72.039 Y5.6365 Z-0.2066
X72.0372 Y5.6323 Z-0.2098
X72.0352 Y5.6278 Z-0.2125
X72.0331 Y5.6231 Z-0.2147
X72.0309 Y5.6182 Z-0.2162
X72.0287 Y5.6131 Z-0.2172
X72.0264 Y5.608 Z-0.2175
X72.0204 Y5.5943
G3 X72.0863 Y5.6198 I0.0202 J0.0457
G2 X72.2698 Y5.9292 I1.3777 J-0.608
G3 X72.2675 Y5.9372 I-0.0041 J0.0031
G1 X71.9923 Y6.0366
X71.9922
G3 X71.986 Y6.0344 I-0.0018 J-0.0049
G2 X71.8463 Y5.9058 I-0.2925 J0.1776
G3 X71.8447 Y5.9045 I0.0024 J-0.0046
G1 X71.8445 Y5.9043
G2 X71.5841 Y5.779 I-0.2648 J0.217
G3 X71.582 Y5.7785 I0.0001 J-0.0052
G2 X71.5011 Y5.7525 I-0.1444 J0.3104
G3 X71.4971 Y5.7483 I0.001 J-0.005
G1 X71.4927 Y5.7222
Y5.7221
G3 X71.4946 Y5.7173 I0.005 J-0.0008
G2 X71.6295 Y5.3645 I-0.2218 J-0.287
G3 X71.6368 Y5.3589 I0.0051 J-0.0009
G1 X72.0568 Y5.5529
X72.0571 Y5.553
G3 X72.0598 Y5.5558 I-0.0022 J0.0048
G2 X72.0863 Y5.6198 I1.4042 J-0.544
G3 X72.0608 Y5.6858 I-0.0457 J0.0202
G1 X72.0547 Y5.6721
X72.0524 Y5.667 Z-0.2172
X72.0502 Y5.6619 Z-0.2162
X72.048 Y5.657 Z-0.2147
X72.0459 Y5.6522 Z-0.2125
X72.044 Y5.6477 Z-0.2098
X72.0421 Y5.6436 Z-0.2066
X72.0404 Y5.6397 Z-0.2029
X72.0389 Y5.6363 Z-0.1987
X72.0376 Y5.6334 Z-0.1941
X72.0365 Y5.6309 Z-0.1892
X72.0357 Y5.6289 Z-0.184
X72.035 Y5.6275 Z-0.1786
X72.0346 Y5.6266 Z-0.1731
X72.0345 Y5.6263 Z-0.1675
G0 Z0.4
X71.6877 Y6.3512
Z0.2
G1 Z0.1 F13.333
Z-0.1675
X71.6875 Y6.3509 Z-0.1731 F40.
X71.6869 Y6.3501 Z-0.1786
X71.6861 Y6.3488 Z-0.184
X71.6848 Y6.3471 Z-0.1892
X71.6833 Y6.3449 Z-0.1941
X71.6814 Y6.3422 Z-0.1987
X71.6793 Y6.3391 Z-0.2029
X71.6769 Y6.3357 Z-0.2066
X71.6743 Y6.332 Z-0.2098
X71.6715 Y6.3279 Z-0.2125
X71.6685 Y6.3237 Z-0.2147
X71.6654 Y6.3193 Z-0.2162
X71.6623 Y6.3147 Z-0.2172
X71.6591 Y6.3101 Z-0.2175
X71.6505 Y6.2979
G3 X71.7201 Y6.3103 I0.0286 J0.041
G2 X71.7583 Y6.3386 I0.0614 J-0.0428
G3 X71.7603 Y6.3473 I-0.0016 J0.0049
G2 X71.7374 Y6.4042 I0.0519 J0.0539
G3 Y6.4285 I-0.3 J0.0121
G2 X71.7603 Y6.4854 I0.0748 J0.003
G3 X71.7583 Y6.4941 I-0.0036 J0.0037
G2 X71.7126 Y6.5359 I0.0232 J0.0712
G3 X71.7022 Y6.5578 I-0.2761 J-0.1177
G2 X71.6984 Y6.6188 I0.0663 J0.0348
G3 X71.693 Y6.6257 I-0.0048 J0.0018
G2 X71.634 Y6.6433 I-0.0099 J0.0742
G3 X71.6151 Y6.6585 I-0.1969 J-0.2267
G2 X71.5849 Y6.7118 I0.0444 J0.0603
G3 X71.5769 Y6.7157 I-0.0052 J-0.0005
G2 X71.5164 Y6.706 I-0.041 J0.0626
G3 X71.4925 Y6.7114 I-0.0778 J-0.2899
G2 X71.4417 Y6.7465 I0.0134 J0.0736
G3 X71.4331 I-0.0043 J-0.0026
G2 X71.3826 Y6.7114 I-0.0642 J0.0385
G3 X71.3589 Y6.706 I0.0548 J-0.2951
G2 X71.2982 Y6.7158 I-0.0196 J0.0722
G3 X71.2903 Y6.7119 I-0.0028 J-0.0043
G2 X71.2601 Y6.6585 I-0.0745 J0.0068
G3 X71.2412 Y6.6433 I0.1778 J-0.2417
G2 X71.1821 Y6.6257 I-0.0491 J0.0565
G3 X71.1765 Y6.6186 I-0.0007 J-0.0052
G2 X71.1726 Y6.5578 I-0.0702 J-0.026
G3 X71.1622 Y6.5359 I0.2657 J-0.1396
G2 X71.1166 Y6.4941 I-0.0689 J0.0293
G3 X71.1147 Y6.4857 I0.0016 J-0.0048
G2 X71.1378 Y6.4285 I-0.0517 J-0.0542
G3 Y6.4042 I0.2996 J-0.0121
G2 X71.1147 Y6.347 I-0.0748 J-0.003
G3 X71.1166 Y6.3386 I0.0035 J-0.0036
G2 X71.1621 Y6.2968 I-0.0233 J-0.0711
G3 X71.1725 Y6.275 I0.276 J0.1179
G2 X71.1765 Y6.2141 I-0.0662 J-0.0348
G3 X71.1821 Y6.207 I0.005 J-0.0018
G2 X71.2412 Y6.1893 I0.01 J-0.0742
G3 X71.2601 Y6.1742 I0.1967 J0.2266
G2 X71.2903 Y6.1207 I-0.0444 J-0.0603
G3 X71.2982 Y6.1169 I0.0051 J0.0005
G2 X71.3589 Y6.1267 I0.0412 J-0.0625
G3 X71.3826 Y6.1213 I0.0785 J0.2897
G2 X71.433 Y6.0862 I-0.0137 J-0.0736
G3 X71.4418 I0.0044 J0.0026
G2 X71.4925 Y6.1213 I0.0641 J-0.0386
G3 X71.5164 Y6.1267 I-0.0539 J0.2953
G2 X71.5769 Y6.117 I0.0194 J-0.0723
G3 X71.5849 Y6.1209 I0.0029 J0.0044
G2 X71.6151 Y6.1742 I0.0745 J-0.0069
G3 X71.634 Y6.1893 I-0.178 J0.2419
G2 X71.693 Y6.207 I0.0491 J-0.0565
G3 X71.6984 Y6.2139 I0.0007 J0.0051
G2 X71.7023 Y6.275 I0.0701 J0.0262
G3 X71.7127 Y6.2968 I-0.2656 J0.1397
G2 X71.7201 Y6.3103 I0.0688 J-0.0294
G3 X71.7077 Y6.3799 I-0.041 J0.0286
G1 X71.6991 Y6.3676
X71.6959 Y6.363 Z-0.2172
X71.6928 Y6.3585 Z-0.2162
X71.6897 Y6.3541 Z-0.2147
X71.6867 Y6.3498 Z-0.2125
X71.6839 Y6.3458 Z-0.2098
X71.6813 Y6.342 Z-0.2066
X71.6789 Y6.3386 Z-0.2029
X71.6768 Y6.3355 Z-0.1987
X71.6749 Y6.3329 Z-0.1941
X71.6734 Y6.3307 Z-0.1892
X71.6721 Y6.3289 Z-0.184
X71.6713 Y6.3276 Z-0.1786
X71.6707 Y6.3269 Z-0.1731
X71.6705 Y6.3266 Z-0.1675
G0 Z0.4
X70.8131 Y6.0767
Z0.2
G1 Z0.1 F13.333
Z-0.1675
X70.8132 Y6.0764 Z-0.1731 F40.
X70.8136 Y6.0756 Z-0.1786
X70.8142 Y6.0741 Z-0.184
X70.815 Y6.0721 Z-0.1892
X70.816 Y6.0696 Z-0.1941
X70.8172 Y6.0666 Z-0.1987
X70.8187 Y6.0632 Z-0.2029
X70.8202 Y6.0593 Z-0.2066
X70.822 Y6.0551 Z-0.2098
X70.8238 Y6.0505 Z-0.2125
X70.8258 Y6.0457 Z-0.2147
X70.8279 Y6.0408 Z-0.2162
X70.83 Y6.0356 Z-0.2172
X70.8321 Y6.0305 Z-0.2175
X70.8378 Y6.0166
G3 X70.865 Y6.0819 I-0.019 J0.0462
G2 X70.8489 Y6.1316 I0.3166 J0.1301
G3 X70.848 Y6.1335 I-0.0052 J-0.0013
G2 X70.8073 Y6.2001 I0.2698 J0.2105
G1 X70.8072 Y6.2003
G3 X70.8021 Y6.2033 I-0.0048 J-0.0022
G1 X70.802
X70.5367 Y6.1849
G3 X70.532 Y6.1805 I0.0004 J-0.0051
G2 X70.4796 Y5.9864 I-0.8159 J0.1162
G1 X70.4795 Y5.9863
G3 X70.4809 Y5.9805 I0.0047 J-0.0019
G2 X70.5903 Y5.8037 I-0.2223 J-0.2598
G3 X70.5939 Y5.8 I0.005 J0.0012
G1 X71.0072 Y5.6815
X71.0073
G3 X71.0125 Y5.6828 I0.0014 J0.005
G2 X71.1563 Y5.7737 I0.2603 J-0.2529
G1 X71.1565 Y5.7738
G3 X71.1601 Y5.7779 I-0.0017 J0.005
G1 X71.164 Y5.8009
G3 X71.1608 Y5.8065 I-0.0052 J0.0008
G1 X71.1607 Y5.8066
G2 X71.0308 Y5.9042 I0.1348 J0.3145
G3 X71.0291 Y5.9055 I-0.0039 J-0.0033
G1 X71.0288 Y5.9057
G2 X70.865 Y6.0819 I0.1529 J0.3063
G3 X70.7998 Y6.1091 I-0.0462 J-0.019
G1 X70.8055 Y6.0953
X70.8076 Y6.0901 Z-0.2172
X70.8097 Y6.085 Z-0.2162
X70.8117 Y6.08 Z-0.2147
X70.8137 Y6.0752 Z-0.2125
X70.8156 Y6.0707 Z-0.2098
X70.8173 Y6.0664 Z-0.2066
X70.8189 Y6.0626 Z-0.2029
X70.8203 Y6.0591 Z-0.1987
X70.8216 Y6.0561 Z-0.1941
X70.8226 Y6.0536 Z-0.1892
X70.8234 Y6.0516 Z-0.184
X70.824 Y6.0502 Z-0.1786
X70.8243 Y6.0493 Z-0.1731
X70.8245 Y6.049 Z-0.1675
G0 Z0.4
X70.7969 Y7.0733
Z0.2
G1 Z0.1 F13.333
Z-0.1675
X70.797 Y7.073 Z-0.1731 F40.
X70.7975 Y7.0722 Z-0.1786
X70.7983 Y7.0709 Z-0.184
X70.7994 Y7.069 Z-0.1892
X70.8008 Y7.0667 Z-0.1941
X70.8024 Y7.0639 Z-0.1987
X70.8043 Y7.0607 Z-0.2029
X70.8064 Y7.0571 Z-0.2066
X70.8088 Y7.0531 Z-0.2098
X70.8113 Y7.0489 Z-0.2125
X70.8139 Y7.0444 Z-0.2147
X70.8166 Y7.0398 Z-0.2162
X70.8194 Y7.035 Z-0.2172
X70.8223 Y7.0302 Z-0.2175
X70.8299 Y7.0173
G3 X70.8476 Y7.0858 I-0.0254 J0.0431
G1 X70.7477 Y7.2552
Y7.2553
G3 X70.7416 Y7.2576 I-0.0045 J-0.0026
G1 X70.7414 Y7.2575
G2 X70.3153 Y7.2322 I-0.2603 J0.7819
G3 X70.3095 Y7.2292 I-0.0011 J-0.005
G1 X70.1965 Y6.9717
Y6.9716
G3 X70.1982 Y6.9654 I0.0047 J-0.0021
G2 X70.5081 Y6.525 I-0.4819 J-0.6685
G1 X70.5082
G3 X70.5134 Y6.5213 I0.0049 J0.0014
G1 X70.7754 Y6.5395
G3 X70.78 Y6.5437 I-0.0004 J0.005
G1 X70.7801 Y6.544
G2 X70.848 Y6.6991 I0.3378 J-0.0553
G3 X70.8489 Y6.7011 I-0.0042 J0.0032
G2 X70.9618 Y6.8831 I0.3327 J-0.0803
G1 X70.9619 Y6.8832
G3 X70.9631 Y6.8897 I-0.0033 J0.0039
G1 X70.8476 Y7.0858
G3 X70.7791 Y7.1035 I-0.0431 J-0.0254
G1 X70.7867 Y7.0906
X70.7895 Y7.0857 Z-0.2172
X70.7924 Y7.081 Z-0.2162
X70.7951 Y7.0763 Z-0.2147
X70.7977 Y7.0719 Z-0.2125
X70.8002 Y7.0676 Z-0.2098
X70.8025 Y7.0637 Z-0.2066
X70.8047 Y7.0601 Z-0.2029
X70.8066 Y7.0569 Z-0.1987
X70.8082 Y7.0541 Z-0.1941
X70.8096 Y7.0517 Z-0.1892
X70.8107 Y7.0499 Z-0.184
X70.8115 Y7.0486 Z-0.1786
X70.8119 Y7.0478 Z-0.1731
X70.8121 Y7.0475 Z-0.1675
G0 Z0.4
X71.1893 Y7.386
Z0.2
G1 Z0.1 F13.333
Z-0.1675
Y7.3857 Z-0.1731 F40.
X71.1894 Y7.3848 Z-0.1786
X71.1895 Y7.3832 Z-0.184
X71.1897 Y7.3811 Z-0.1892
X71.1899 Y7.3784 Z-0.1941
X71.1902 Y7.3751 Z-0.1987
X71.1904 Y7.3714 Z-0.2029
X71.1908 Y7.3672 Z-0.2066
X71.1911 Y7.3627 Z-0.2098
X71.1915 Y7.3578 Z-0.2125
X71.1919 Y7.3526 Z-0.2147
X71.1923 Y7.3472 Z-0.2162
X71.1927 Y7.3417 Z-0.2172
X71.1932 Y7.3362 Z-0.2175
X71.1943 Y7.3212
G3 X71.2403 Y7.3749 I-0.0039 J0.0499
G2 X71.2393 Y7.4116 I0.3619 J0.028
G1 X71.2394 Y7.4119
G3 X71.2368 Y7.4165 I-0.0052 J0.0001
G1 X71.1032 Y7.4924
X71.103
G3 X71.0965 Y7.4914 I-0.0026 J-0.0046
G2 X71.0394 Y7.433 I-0.6171 J0.5464
X71.0391 Y7.4327 I-0.0509 J0.0549
G3 X71.0381 Y7.4264 I0.0034 J-0.0037
G1 X71.257 Y7.0546
G3 X71.2619 Y7.0521 I0.0044 J0.0026
G2 X71.2907 Y7.0537 I0.0336 J-0.3407
X71.2911 I0.0011 J-0.0748
G3 X71.2933 Y7.0542 I0. J0.0052
G2 X71.3738 Y7.0802 I0.1446 J-0.3102
G1 X71.3741 Y7.0803
G3 X71.3781 Y7.0844 I-0.0009 J0.005
G1 X71.3825 Y7.1104
Y7.1106
G3 X71.3806 Y7.1155 I-0.005 J0.0008
G2 X71.2403 Y7.3749 I0.2216 J0.2875
G3 X71.1866 Y7.4209 I-0.0498 J-0.0039
G1 X71.1878 Y7.406
X71.1882 Y7.4004 Z-0.2172
X71.1886 Y7.3949 Z-0.2162
X71.189 Y7.3895 Z-0.2147
X71.1894 Y7.3844 Z-0.2125
X71.1898 Y7.3795 Z-0.2098
X71.1902 Y7.3749 Z-0.2066
X71.1905 Y7.3708 Z-0.2029
X71.1908 Y7.367 Z-0.1987
X71.191 Y7.3638 Z-0.1941
X71.1912 Y7.3611 Z-0.1892
X71.1914 Y7.359 Z-0.184
X71.1915 Y7.3574 Z-0.1786
X71.1916 Y7.3565 Z-0.1731
Y7.3562 Z-0.1675
G0 Z0.4
X69.7695 Y7.5318
Z0.2
G1 Z0.1 F13.333
Z-0.1675
X69.7696 Y7.5316 Z-0.1731 F40.
X69.7702 Y7.5308 Z-0.1786
X69.7711 Y7.5296 Z-0.184
X69.7724 Y7.5279 Z-0.1892
X69.774 Y7.5257 Z-0.1941
X69.7759 Y7.5231 Z-0.1987
X69.7782 Y7.5201 Z-0.2029
X69.7807 Y7.5167 Z-0.2066
X69.7834 Y7.513 Z-0.2098
X69.7863 Y7.5091 Z-0.2125
X69.7894 Y7.5049 Z-0.2147
X69.7926 Y7.5006 Z-0.2162
X69.7959 Y7.4961 Z-0.2172
X69.7992 Y7.4916 Z-0.2175
X69.8081 Y7.4796
G3 X69.8186 Y7.5495 I-0.0297 J0.0402
G2 X69.6951 Y7.7921 I0.6626 J0.4898
G3 X69.6897 Y7.7957 I-0.0049 J-0.0016
G1 X69.5023 Y7.7781
X69.5022
G3 X69.4979 Y7.7751 I0.0005 J-0.0052
G2 X69.1859 Y7.576 I-0.3106 J0.1427
G3 X69.1814 Y7.5684 I-0.0001 J-0.0051
G1 X69.1815 Y7.5683
X69.459 Y7.0843
G3 X69.465 Y7.082 I0.0044 J0.0025
G2 X69.882 Y7.1043 I0.2511 J-0.7849
G3 X69.8878 Y7.1072 I0.0011 J0.005
G1 X70.0007 Y7.3648
X70.0008 Y7.3649
G3 X69.9991 Y7.3711 I-0.0047 J0.0021
G2 X69.8186 Y7.5495 I0.4821 J0.6682
G3 X69.7486 Y7.56 I-0.0402 J-0.0297
G1 X69.7575 Y7.548
X69.7609 Y7.5435 Z-0.2172
X69.7642 Y7.539 Z-0.2162
X69.7674 Y7.5347 Z-0.2147
X69.7704 Y7.5305 Z-0.2125
X69.7733 Y7.5266 Z-0.2098
X69.7761 Y7.5229 Z-0.2066
X69.7786 Y7.5195 Z-0.2029
X69.7808 Y7.5165 Z-0.1987
X69.7827 Y7.5139 Z-0.1941
X69.7843 Y7.5118 Z-0.1892
X69.7856 Y7.51 Z-0.184
X69.7865 Y7.5088 Z-0.1786
X69.7871 Y7.508 Z-0.1731
X69.7873 Y7.5078 Z-0.1675
G0 Z0.4
X69.7868 Y8.5704
Z0.2
G1 Z0.1 F13.333
Z-0.1675
X69.7866 Y8.5702 Z-0.1731 F40.
X69.786 Y8.5694 Z-0.1786
X69.7851 Y8.5682 Z-0.184
X69.7838 Y8.5664 Z-0.1892
X69.7822 Y8.5643 Z-0.1941
X69.7803 Y8.5617 Z-0.1987
X69.7781 Y8.5586 Z-0.2029
X69.7756 Y8.5553 Z-0.2066
X69.7729 Y8.5516 Z-0.2098
X69.77 Y8.5477 Z-0.2125
X69.7669 Y8.5435 Z-0.2147
X69.7637 Y8.5392 Z-0.2162
X69.7604 Y8.5347 Z-0.2172
X69.7571 Y8.5302 Z-0.2175
X69.7482 Y8.5182
G3 X69.8181 Y8.5287 I0.0297 J0.0402
G2 X69.9827 Y8.6955 I0.6629 J-0.4895
G3 X69.9842 Y8.7017 I-0.0031 J0.0041
G1 X69.7795 Y9.1374
G3 X69.7736 Y9.1403 I-0.0047 J-0.0022
G2 X69.3323 Y9.1594 I-0.1862 J0.8028
G3 X69.3262 Y9.1571 I-0.0016 J-0.0049
G1 X68.9935 Y8.5832
X68.9933 Y8.5829
G3 X68.9932 Y8.5781 I0.0043 J-0.0025
G2 X69.0394 Y8.395 I-0.3411 J-0.1835
G1 Y8.3949
Y8.234
G3 X69.0467 Y8.2293 I0.0051 J0.
G2 X69.4661 Y8.116 I0.1408 J-0.3115
G3 X69.4709 Y8.1138 I0.0043 J0.003
G1 X69.6582 Y8.1314
G3 X69.6627 Y8.1358 I-0.0005 J0.005
G1 Y8.136
G2 X69.8181 Y8.5287 I0.8183 J-0.0968
G3 X69.8076 Y8.5986 I-0.0402 J0.0297
G1 X69.7987 Y8.5866
X69.7954 Y8.5821 Z-0.2172
X69.7921 Y8.5776 Z-0.2162
X69.7889 Y8.5733 Z-0.2147
X69.7858 Y8.5691 Z-0.2125
X69.7829 Y8.5652 Z-0.2098
X69.7802 Y8.5615 Z-0.2066
X69.7777 Y8.5581 Z-0.2029
X69.7755 Y8.5551 Z-0.1987
X69.7735 Y8.5525 Z-0.1941
X69.7719 Y8.5503 Z-0.1892
X69.7707 Y8.5486 Z-0.184
X69.7697 Y8.5474 Z-0.1786
X69.7692 Y8.5466 Z-0.1731
X69.769 Y8.5463 Z-0.1675
G0 Z0.4
X70.9899 Y9.0434
Z0.2
G1 Z0.1 F13.333
Z-0.1675
X70.9897 Y9.0431 Z-0.1731 F40.
X70.9891 Y9.0424 Z-0.1786
X70.9881 Y9.0412 Z-0.184
X70.9868 Y9.0395 Z-0.1892
X70.9851 Y9.0374 Z-0.1941
X70.9831 Y9.0348 Z-0.1987
X70.9808 Y9.0319 Z-0.2029
X70.9783 Y9.0286 Z-0.2066
X70.9754 Y9.025 Z-0.2098
X70.9724 Y9.0211 Z-0.2125
X70.9692 Y9.017 Z-0.2147
X70.9659 Y9.0128 Z-0.2162
X70.9625 Y9.0084 Z-0.2172
X70.959 Y9.004 Z-0.2175
X70.9498 Y8.9922
G3 X71.02 Y9.0008 I0.0308 J0.0394
G1 X71.2922 Y9.3485
G3 X71.2929 Y9.3538 I-0.0041 J0.0032
G2 X71.276 Y9.5987 I0.3323 J0.146
G3 X71.2714 Y9.6053 I-0.0051 J0.0014
G1 X71.2713 Y9.6054
X70.3776 Y9.6947
X70.3775
G3 X70.372 Y9.6911 I-0.0005 J-0.0052
G2 X70.0863 Y9.287 I-0.7847 J0.2519
G3 X70.0847 Y9.2807 I0.0031 J-0.0041
G1 X70.2894 Y8.8451
G3 X70.2952 Y8.8422 I0.0047 J0.0022
G1 X70.2953
G2 X70.8422 Y8.7803 I0.1861 J-0.8028
G3 X70.8485 Y8.7818 I0.0023 J0.0046
G1 X71.02 Y9.0008
G3 X71.0115 Y9.071 I-0.0394 J0.0308
G1 X71.0022 Y9.0592
X70.9988 Y9.0548 Z-0.2172
X70.9954 Y9.0504 Z-0.2162
X70.992 Y9.0462 Z-0.2147
X70.9889 Y9.0421 Z-0.2125
X70.9858 Y9.0382 Z-0.2098
X70.983 Y9.0346 Z-0.2066
X70.9804 Y9.0314 Z-0.2029
X70.9781 Y9.0284 Z-0.1987
X70.9761 Y9.0259 Z-0.1941
X70.9745 Y9.0237 Z-0.1892
X70.9731 Y9.022 Z-0.184
X70.9722 Y9.0208 Z-0.1786
X70.9716 Y9.0201 Z-0.1731
X70.9714 Y9.0198 Z-0.1675
G0 Z0.4
X71.3394 Y10.5102
Z0.2
G1 Z0.1 F13.333
Z-0.1675
Y10.5098 Z-0.1731 F40.
X71.3395 Y10.5089 Z-0.1786
X71.3396 Y10.5074 Z-0.184
X71.3398 Y10.5052 Z-0.1892
X71.3401 Y10.5025 Z-0.1941
X71.3403 Y10.4993 Z-0.1987
X71.3407 Y10.4956 Z-0.2029
X71.341 Y10.4914 Z-0.2066
X71.3414 Y10.4868 Z-0.2098
X71.3418 Y10.482 Z-0.2125
X71.3423 Y10.4768 Z-0.2147
X71.3427 Y10.4714 Z-0.2162
X71.3432 Y10.4659 Z-0.2172
X71.3437 Y10.4603 Z-0.2175
X71.345 Y10.4454
G3 X71.3905 Y10.4995 I-0.0043 J0.0498
G1 X71.2971 Y11.5852
G3 X71.288 Y11.5883 I-0.0052 J-0.0005
G1 X70.2542 Y10.4344
X70.2541
G3 X70.2538 Y10.428 I0.0038 J-0.0034
G2 X70.4067 Y10.0348 I-0.6662 J-0.4853
G1 Y10.0346
G3 X70.4111 Y10.0302 I0.0049 J0.0005
G1 X71.4334 Y9.9281
G3 X71.4392 Y9.9337 I0.0006 J0.0052
G1 X71.3905 Y10.4995
G3 X71.3364 Y10.5451 I-0.0498 J-0.0043
G1 X71.3377 Y10.5301
X71.3382 Y10.5246 Z-0.2172
X71.3386 Y10.5191 Z-0.2162
X71.3391 Y10.5137 Z-0.2147
X71.3395 Y10.5085 Z-0.2125
X71.34 Y10.5036 Z-0.2098
X71.3404 Y10.4991 Z-0.2066
X71.3407 Y10.4949 Z-0.2029
X71.341 Y10.4912 Z-0.1987
X71.3413 Y10.488 Z-0.1941
X71.3416 Y10.4853 Z-0.1892
X71.3417 Y10.4831 Z-0.184
X71.3419 Y10.4816 Z-0.1786
Y10.4806 Z-0.1731
X71.342 Y10.4803 Z-0.1675
G0 Z0.4
X72.4108 Y10.4969
Z0.2
G1 Z0.1 F13.333
Z-0.1675
X72.411 Y10.4967 Z-0.1731 F40.
X72.4116 Y10.496 Z-0.1786
X72.4126 Y10.4948 Z-0.184
X72.414 Y10.4932 Z-0.1892
X72.4157 Y10.4911 Z-0.1941
X72.4178 Y10.4886 Z-0.1987
X72.4202 Y10.4857 Z-0.2029
X72.4229 Y10.4825 Z-0.2066
X72.4258 Y10.479 Z-0.2098
X72.429 Y10.4753 Z-0.2125
X72.4323 Y10.4713 Z-0.2147
X72.4358 Y10.4672 Z-0.2162
X72.4394 Y10.463 Z-0.2172
X72.443 Y10.4587 Z-0.2175
X72.4526 Y10.4473
G3 X72.4587 Y10.5177 I-0.0322 J0.0382
G1 X71.6546 Y11.4723
G3 X71.6454 Y11.4685 I-0.004 J-0.0034
G1 X71.7805 Y9.8977
G3 X71.7852 Y9.8929 I0.0052 J0.0005
G1 X71.7854
X72.7015 Y9.8013
G3 X72.7071 Y9.8049 I0.0006 J0.0052
G2 X72.8404 Y10.058 I0.7844 J-0.2516
G3 X72.8403 Y10.0646 I-0.0042 J0.0032
G1 X72.4587 Y10.5177
G3 X72.3882 Y10.5237 I-0.0382 J-0.0322
G1 X72.3979 Y10.5123
X72.4015 Y10.508 Z-0.2172
X72.405 Y10.5038 Z-0.2162
X72.4085 Y10.4997 Z-0.2147
X72.4118 Y10.4957 Z-0.2125
X72.415 Y10.4919 Z-0.2098
X72.4179 Y10.4884 Z-0.2066
X72.4206 Y10.4852 Z-0.2029
X72.423 Y10.4824 Z-0.1987
X72.4251 Y10.4799 Z-0.1941
X72.4269 Y10.4778 Z-0.1892
X72.4283 Y10.4762 Z-0.184
X72.4293 Y10.475 Z-0.1786
X72.4299 Y10.4743 Z-0.1731
X72.4301 Y10.474 Z-0.1675
G0 Z0.4
X73.0022 Y12.0453
Z0.2
G1 Z0.1 F13.333
Z-0.1675
Y12.0449 Z-0.1731 F40.
X73.0023 Y12.044 Z-0.1786
X73.0025 Y12.0425 Z-0.184
X73.0027 Y12.0403 Z-0.1892
X73.003 Y12.0376 Z-0.1941
X73.0033 Y12.0344 Z-0.1987
X73.0037 Y12.0307 Z-0.2029
X73.0042 Y12.0265 Z-0.2066
X73.0047 Y12.022 Z-0.2098
X73.0052 Y12.0171 Z-0.2125
X73.0058 Y12.012 Z-0.2147
X73.0063 Y12.0066 Z-0.2162
X73.0069 Y12.0011 Z-0.2172
X73.0075 Y11.9955 Z-0.2175
X73.0091 Y11.9807
G3 X73.0535 Y12.0357 I-0.0054 J0.0497
G1 X73.0244 Y12.3048
G3 X73.0212 Y12.309 I-0.0051 J-0.0006
G2 X72.7969 Y12.6021 I0.136 J0.3363
G3 X72.7937 Y12.6064 I-0.0052 J-0.0006
G1 X72.5803 Y12.6896
X72.5802 Y12.6897
G3 X72.5746 Y12.6884 I-0.0019 J-0.0048
G2 X72.1177 Y12.5686 I-0.3259 J0.3116
G3 X72.1123 Y12.5669 I-0.0015 J-0.0049
G1 X71.7666 Y12.1443
X71.7665 Y12.1441
G3 X71.7657 Y12.1389 I0.004 J-0.0033
G2 X71.7676 Y11.8659 I-0.3349 J-0.139
G3 X71.7685 Y11.8607 I0.0048 J-0.0019
G1 X71.7687 Y11.8605
X73.0982 Y10.2818
G3 X73.1046 Y10.2805 I0.004 J0.0033
G2 X73.2331 Y10.3355 I0.3871 J-0.7274
G3 X73.2366 Y10.3409 I-0.0016 J0.0049
G1 X73.0535 Y12.0357
G3 X72.9984 Y12.0801 I-0.0497 J-0.0054
G1 X73. Y12.0652
X73.0006 Y12.0596 Z-0.2172
X73.0012 Y12.0541 Z-0.2162
X73.0018 Y12.0488 Z-0.2147
X73.0023 Y12.0436 Z-0.2125
X73.0029 Y12.0388 Z-0.2098
X73.0034 Y12.0342 Z-0.2066
X73.0038 Y12.0301 Z-0.2029
X73.0042 Y12.0263 Z-0.1987
X73.0046 Y12.0231 Z-0.1941
X73.0048 Y12.0204 Z-0.1892
X73.0051 Y12.0183 Z-0.184
X73.0052 Y12.0167 Z-0.1786
X73.0053 Y12.0158 Z-0.1731
X73.0054 Y12.0155 Z-0.1675
G0 Z0.4
X74.3748 Y11.2701
Z0.2
G1 Z0.1 F13.333
Z-0.1675
X74.3746 Y11.2698 Z-0.1731 F40.
X74.374 Y11.2691 Z-0.1786
X74.373 Y11.2679 Z-0.184
X74.3717 Y11.2662 Z-0.1892
X74.37 Y11.2641 Z-0.1941
X74.368 Y11.2616 Z-0.1987
X74.3656 Y11.2587 Z-0.2029
X74.363 Y11.2554 Z-0.2066
X74.3601 Y11.2518 Z-0.2098
X74.3571 Y11.248 Z-0.2125
X74.3538 Y11.244 Z-0.2147
X74.3505 Y11.2398 Z-0.2162
X74.347 Y11.2354 Z-0.2172
X74.3435 Y11.2311 Z-0.2175
X74.3341 Y11.2194
G3 X74.4044 Y11.2271 I0.0313 J0.039
G2 X74.9146 Y11.283 I0.283 J-0.2271
G3 X74.9229 Y11.2854 I0.0033 J0.0041
G1 X75.0662 Y11.7291
Y11.7292
G3 X75.0578 Y11.7346 I-0.0049 J0.0016
G1 X75.0577 Y11.7345
G2 X74.4501 Y11.9567 I-0.2473 J0.2656
G1 Y11.9569
G3 X74.447 Y11.961 I-0.005 J-0.0006
G1 X73.398 Y12.3704
G3 X73.3927 Y12.3696 I-0.0019 J-0.0048
G2 X73.3621 Y12.346 I-0.2362 J0.2755
X73.3617 Y12.3457 I-0.0424 J0.0617
G3 X73.3595 Y12.341 I0.0028 J-0.0042
G1 X73.5721 Y10.3772
G3 X73.5766 Y10.3726 I0.0051 J0.0005
G2 X73.8719 Y10.2841 I-0.0849 J-0.8198
G3 X73.8782 Y10.2854 I0.0024 J0.0046
G1 X74.3509 Y10.8573
G3 X74.3516 Y10.8625 I-0.004 J0.0033
G1 Y10.8626
G2 X74.4044 Y11.2271 I0.3358 J0.1374
G3 X74.3967 Y11.2974 I-0.039 J0.0313
G1 X74.3873 Y11.2857
X74.3838 Y11.2814 Z-0.2172
X74.3804 Y11.277 Z-0.2162
X74.377 Y11.2728 Z-0.2147
X74.3738 Y11.2688 Z-0.2125
X74.3707 Y11.265 Z-0.2098
X74.3678 Y11.2614 Z-0.2066
X74.3652 Y11.2581 Z-0.2029
X74.3629 Y11.2552 Z-0.1987
X74.3608 Y11.2527 Z-0.1941
X74.3591 Y11.2506 Z-0.1892
X74.3578 Y11.2489 Z-0.184
X74.3568 Y11.2477 Z-0.1786
X74.3562 Y11.247 Z-0.1731
X74.356 Y11.2467 Z-0.1675
G0 Z0.4
X74.4657 Y10.0351
Z0.2
G1 Z0.1 F13.333
Z-0.1675
X74.4656 Y10.0348 Z-0.1731 F40.
X74.4653 Y10.0339 Z-0.1786
X74.4648 Y10.0324 Z-0.184
X74.4641 Y10.0304 Z-0.1892
X74.4633 Y10.0278 Z-0.1941
X74.4623 Y10.0247 Z-0.1987
X74.4612 Y10.0212 Z-0.2029
X74.4599 Y10.0172 Z-0.2066
X74.4585 Y10.0128 Z-0.2098
X74.4569 Y10.0082 Z-0.2125
X74.4554 Y10.0033 Z-0.2147
X74.4537 Y9.9981 Z-0.2162
X74.452 Y9.9929 Z-0.2172
X74.4503 Y9.9875 Z-0.2175
X74.4457 Y9.9733
G3 X74.5086 Y10.0055 I0.0154 J0.0476
G1 X74.711 Y10.6308
G3 X74.7057 Y10.6376 I-0.005 J0.0016
G2 X74.6159 Y10.6443 I-0.0182 J0.3624
G3 X74.6108 Y10.6425 I-0.001 J-0.0051
G1 X74.138 Y10.0706
G3 X74.1379 Y10.064 I0.0041 J-0.0034
G2 X74.3115 Y9.4692 I-0.6465 J-0.5113
G1 Y9.4691
G3 X74.3149 Y9.4637 I0.0051 J-0.0005
G1 X74.3264 Y9.46
X74.3267 Y9.4599
G3 X74.3331 Y9.4632 I0.0016 J0.0049
G1 Y9.4633
X74.5086 Y10.0055
G3 X74.4765 Y10.0684 I-0.0476 J0.0154
G1 X74.4718 Y10.0542
X74.4701 Y10.0489 Z-0.2172
X74.4684 Y10.0436 Z-0.2162
X74.4668 Y10.0385 Z-0.2147
X74.4652 Y10.0336 Z-0.2125
X74.4637 Y10.0289 Z-0.2098
X74.4622 Y10.0245 Z-0.2066
X74.461 Y10.0206 Z-0.2029
X74.4598 Y10.017 Z-0.1987
X74.4588 Y10.0139 Z-0.1941
X74.458 Y10.0113 Z-0.1892
X74.4573 Y10.0093 Z-0.184
X74.4568 Y10.0078 Z-0.1786
X74.4565 Y10.0069 Z-0.1731
X74.4564 Y10.0066 Z-0.1675
G0 Z0.4
X74.1758 Y8.5811
Z0.2
G1 Z0.1 F13.333
Z-0.1675
X74.1759 Y8.5808 Z-0.1731 F40.
X74.1761 Y8.5799 Z-0.1786
X74.1765 Y8.5784 Z-0.184
X74.1769 Y8.5763 Z-0.1892
X74.1775 Y8.5736 Z-0.1941
X74.1783 Y8.5705 Z-0.1987
X74.1791 Y8.5668 Z-0.2029
X74.18 Y8.5628 Z-0.2066
X74.181 Y8.5583 Z-0.2098
X74.1821 Y8.5535 Z-0.2125
X74.1833 Y8.5485 Z-0.2147
X74.1845 Y8.5432 Z-0.2162
X74.1857 Y8.5378 Z-0.2172
X74.187 Y8.5324 Z-0.2175
X74.1903 Y8.5178
G3 X74.2279 Y8.5776 I-0.0111 J0.0487
G2 X74.2299 Y9.1318 I1.1941 J0.2728
G1 Y9.132
G3 X74.2266 Y9.1379 I-0.0048 J0.0012
G2 X74.2263 Y9.138 I0.023 J0.0712
G1 X74.211 Y9.143
G3 X74.205 Y9.1406 I-0.0016 J-0.0049
G2 X73.6698 Y8.7484 I-0.7135 J0.4124
G3 X73.6658 Y8.7434 I0.0011 J-0.005
G1 X73.6689 Y8.312
G3 X73.673 Y8.307 I0.0051 J0.
G1 X73.6731
G2 X74.33 Y7.5084 I-0.1672 J-0.807
G1 Y7.5083
G3 X74.334 Y7.5033 I0.0051 J0.
G1 X74.5955 Y7.4501
G3 X74.601 Y7.4576 I0.001 J0.0051
G2 X74.5675 Y7.5343 I0.3936 J0.2177
G1 X74.2593 Y8.4653
G2 X74.2279 Y8.5776 I1.1628 J0.3851
G3 X74.168 Y8.6153 I-0.0487 J-0.0111
G1 X74.1714 Y8.6007
X74.1726 Y8.5952 Z-0.2172
X74.1738 Y8.5898 Z-0.2162
X74.175 Y8.5846 Z-0.2147
X74.1762 Y8.5795 Z-0.2125
X74.1773 Y8.5747 Z-0.2098
X74.1783 Y8.5703 Z-0.2066
X74.1792 Y8.5662 Z-0.2029
X74.1801 Y8.5626 Z-0.1987
X74.1808 Y8.5594 Z-0.1941
X74.1814 Y8.5567 Z-0.1892
X74.1819 Y8.5547 Z-0.184
X74.1822 Y8.5531 Z-0.1786
X74.1824 Y8.5522 Z-0.1731
X74.1825 Y8.5519 Z-0.1675
G0 Z0.4
X73.2801 Y8.5247
Z0.2
G1 Z0.1 F13.333
Z-0.1675
Y8.5244 Z-0.1731 F40.
Y8.5234 Z-0.1786
Y8.5219 Z-0.184
Y8.5197 Z-0.1892
Y8.517 Z-0.1941
Y8.5138 Z-0.1987
X73.2802 Y8.51 Z-0.2029
Y8.5058 Z-0.2066
Y8.5013 Z-0.2098
X73.2803 Y8.4964 Z-0.2125
Y8.4912 Z-0.2147
Y8.4858 Z-0.2162
X73.2804 Y8.4803 Z-0.2172
Y8.4747 Z-0.2175
X73.2805 Y8.4597
G3 X73.3302 Y8.51 I-0.0003 J0.05
G1 X73.3287 Y8.741
G3 X73.3246 Y8.7459 I-0.0051 J0.
G2 X73.0895 Y8.8336 I0.167 J0.8069
G3 X73.083 Y8.8326 I-0.0026 J-0.0045
G1 X72.7969 Y8.5069
G3 X72.797 Y8.5 I0.0039 J-0.0034
G1 X72.7971 Y8.4999
X73.073 Y8.2062
G3 X73.0794 Y8.2053 I0.0037 J0.0035
G2 X73.3275 Y8.3046 I0.4261 J-0.7055
G3 X73.3315 Y8.3096 I-0.0011 J0.005
G1 Y8.3097
X73.3302 Y8.51
G3 X73.2799 Y8.5597 I-0.05 J-0.0003
G1 Y8.5447
X73.28 Y8.5391 Z-0.2172
Y8.5336 Z-0.2162
X73.2801 Y8.5282 Z-0.2147
Y8.523 Z-0.2125
Y8.5181 Z-0.2098
Y8.5136 Z-0.2066
X73.2802 Y8.5094 Z-0.2029
Y8.5056 Z-0.1987
Y8.5024 Z-0.1941
Y8.4997 Z-0.1892
X73.2803 Y8.4975 Z-0.184
Y8.496 Z-0.1786
Y8.495 Z-0.1731
Y8.4947 Z-0.1675
G0 Z0.4
X72.653 Y9.3055
Z0.2
G1 Z0.1 F13.333
Z-0.1675
X72.6531 Y9.3052 Z-0.1731 F40.
X72.6534 Y9.3043 Z-0.1786
X72.6539 Y9.3028 Z-0.184
X72.6545 Y9.3008 Z-0.1892
X72.6553 Y9.2982 Z-0.1941
X72.6563 Y9.2951 Z-0.1987
X72.6574 Y9.2915 Z-0.2029
X72.6587 Y9.2875 Z-0.2066
X72.66 Y9.2832 Z-0.2098
X72.6615 Y9.2785 Z-0.2125
X72.6631 Y9.2736 Z-0.2147
X72.6647 Y9.2684 Z-0.2162
X72.6663 Y9.2631 Z-0.2172
X72.668 Y9.2578 Z-0.2175
X72.6725 Y9.2435
G3 X72.7052 Y9.3062 I-0.015 J0.0477
G2 X72.6725 Y9.4612 I0.786 J0.247
G3 X72.6678 Y9.4658 I-0.0051 J-0.0006
G1 X71.9926 Y9.5333
X71.9924
G3 X71.9868 Y9.5279 I-0.0005 J-0.005
G1 Y9.5278
G2 X71.969 Y9.3844 I-0.3616 J-0.0278
G1 X71.9689 Y9.3841
G3 X71.97 Y9.3791 I0.0048 J-0.0016
G1 X72.5577 Y8.7542
G3 X72.5654 Y8.7543 I0.0038 J0.0036
G1 X72.8296 Y9.0551
X72.8298 Y9.0553
G3 X72.83 Y9.0616 I-0.0038 J0.0033
G2 X72.7052 Y9.3062 I0.6612 J0.4916
G3 X72.6425 Y9.3389 I-0.0477 J-0.015
G1 X72.647 Y9.3246
X72.6487 Y9.3193 Z-0.2172
X72.6503 Y9.314 Z-0.2162
X72.652 Y9.3089 Z-0.2147
X72.6535 Y9.3039 Z-0.2125
X72.655 Y9.2993 Z-0.2098
X72.6564 Y9.2949 Z-0.2066
X72.6576 Y9.2909 Z-0.2029
X72.6587 Y9.2873 Z-0.1987
X72.6597 Y9.2843 Z-0.1941
X72.6605 Y9.2817 Z-0.1892
X72.6612 Y9.2796 Z-0.184
X72.6616 Y9.2781 Z-0.1786
X72.6619 Y9.2772 Z-0.1731
X72.662 Y9.2769 Z-0.1675
G0 Z0.4
X70.5585 Y11.3545
Z0.2
G1 Z0.1 F13.333
Z-0.1675
X70.5583 Y11.3543 Z-0.1731 F40.
X70.5577 Y11.3536 Z-0.1786
X70.5567 Y11.3524 Z-0.184
X70.5552 Y11.3508 Z-0.1892
X70.5534 Y11.3488 Z-0.1941
X70.5513 Y11.3464 Z-0.1987
X70.5488 Y11.3436 Z-0.2029
X70.546 Y11.3405 Z-0.2066
X70.5429 Y11.3371 Z-0.2098
X70.5397 Y11.3334 Z-0.2125
X70.5362 Y11.3296 Z-0.2147
X70.5326 Y11.3256 Z-0.2162
X70.5289 Y11.3215 Z-0.2172
X70.5252 Y11.3173 Z-0.2175
X70.5152 Y11.3061
G3 X70.5858 Y11.31 I0.0334 J0.0372
G1 X71.0883 Y11.8709
X71.0885 Y11.871
G3 X71.0895 Y11.8762 I-0.0038 J0.0034
G2 X71.0892 Y11.8769 I0.0704 J0.0255
X71.085 Y11.8898 I0.3425 J0.12
G3 X71.081 Y11.8932 I-0.0049 J-0.0018
G1 X71.0809
X69.9735 Y12.0979
G3 X69.9687 Y12.0961 I-0.0009 J-0.005
G2 X69.8432 Y11.9961 I-0.2834 J0.2268
G1 X69.843 Y11.996
G3 X69.8401 Y11.9917 I0.0022 J-0.0046
G1 X69.7894 Y10.7463
G3 X69.7932 Y10.7411 I0.0052 J-0.0003
G2 X69.9966 Y10.6585 I-0.2057 J-0.798
G3 X70.0029 Y10.6595 I0.0025 J0.0044
G1 X70.5858 Y11.31
G3 X70.5819 Y11.3806 I-0.0372 J0.0334
G1 X70.5719 Y11.3695
X70.5682 Y11.3653 Z-0.2172
X70.5645 Y11.3612 Z-0.2162
X70.5609 Y11.3572 Z-0.2147
X70.5575 Y11.3533 Z-0.2125
X70.5542 Y11.3496 Z-0.2098
X70.5511 Y11.3462 Z-0.2066
X70.5483 Y11.3431 Z-0.2029
X70.5458 Y11.3403 Z-0.1987
X70.5437 Y11.3379 Z-0.1941
X70.5419 Y11.3359 Z-0.1892
X70.5404 Y11.3343 Z-0.184
X70.5394 Y11.3332 Z-0.1786
X70.5388 Y11.3325 Z-0.1731
X70.5386 Y11.3322 Z-0.1675
G0 Z0.4
X70.2583 Y12.5669
Z0.2
G1 Z0.1 F13.333
Z-0.1675
X70.2586 Y12.5667 Z-0.1731 F40.
X70.2593 Y12.5662 Z-0.1786
X70.2606 Y12.5653 Z-0.184
X70.2624 Y12.564 Z-0.1892
X70.2646 Y12.5624 Z-0.1941
X70.2672 Y12.5605 Z-0.1987
X70.2703 Y12.5584 Z-0.2029
X70.2737 Y12.556 Z-0.2066
X70.2774 Y12.5533 Z-0.2098
X70.2814 Y12.5505 Z-0.2125
X70.2856 Y12.5474 Z-0.2147
X70.29 Y12.5443 Z-0.2162
X70.2945 Y12.5411 Z-0.2172
X70.299 Y12.5379 Z-0.2175
X70.3112 Y12.5292
G3 X70.2995 Y12.5989 I-0.0407 J0.029
G1 X70.1956 Y12.673
G3 X70.1883 Y12.6713 I-0.0029 J-0.0041
X70.0844 Y12.4263 I1.2423 J-0.6716
X70.0884 Y12.4197 I0.005 J-0.0015
G1 X70.6904 Y12.3083
G3 X70.6943 Y12.3176 I0.001 J0.0051
G1 X70.2995 Y12.5989
G3 X70.2298 Y12.5872 I-0.029 J-0.0407
G1 X70.242 Y12.5785
X70.2465 Y12.5753 Z-0.2172
X70.251 Y12.5721 Z-0.2162
X70.2554 Y12.5689 Z-0.2147
X70.2597 Y12.5659 Z-0.2125
X70.2637 Y12.5631 Z-0.2098
X70.2674 Y12.5604 Z-0.2066
X70.2708 Y12.558 Z-0.2029
X70.2738 Y12.5558 Z-0.1987
X70.2765 Y12.554 Z-0.1941
X70.2787 Y12.5524 Z-0.1892
X70.2804 Y12.5511 Z-0.184
X70.2817 Y12.5502 Z-0.1786
X70.2825 Y12.5497 Z-0.1731
X70.2827 Y12.5495 Z-0.1675
G0 Z0.4
X71.6076 Y12.5617
Z0.2
G1 Z0.1 F13.333
Z-0.1675
X71.6074 Y12.5615 Z-0.1731 F40.
X71.6068 Y12.5607 Z-0.1786
X71.6058 Y12.5595 Z-0.184
X71.6045 Y12.5579 Z-0.1892
X71.6028 Y12.5558 Z-0.1941
X71.6007 Y12.5533 Z-0.1987
X71.5983 Y12.5504 Z-0.2029
X71.5957 Y12.5471 Z-0.2066
X71.5928 Y12.5436 Z-0.2098
X71.5897 Y12.5398 Z-0.2125
X71.5864 Y12.5358 Z-0.2147
X71.583 Y12.5316 Z-0.2162
X71.5795 Y12.5273 Z-0.2172
X71.576 Y12.523 Z-0.2175
X71.5665 Y12.5114
G3 X71.6368 Y12.5185 I0.0317 J0.0387
G1 X71.8511 Y12.7805
X71.8512 Y12.7806
G3 X71.8518 Y12.7863 I-0.004 J0.0033
G2 X71.8287 Y13.1639 I0.397 J0.2138
G1 Y13.164
G2 X71.9669 Y13.4691 I2.9809 J-1.1663
G3 X71.9613 Y13.4766 I-0.0047 J0.0024
G1 X71.5143 Y13.391
G3 X71.5105 Y13.3876 I0.001 J-0.0051
G2 X70.9742 Y13.2329 I-0.3229 J0.1124
G3 X70.9691 Y13.2337 I-0.0032 J-0.004
G1 X70.969 Y13.2336
X70.3485 Y12.9912
X70.3484 Y12.9911
G3 X70.3455 Y12.9883 I0.0019 J-0.0048
G2 X70.3451 Y12.9838 I-0.0747 J0.0053
G3 X70.3471 Y12.9791 I0.005 J-0.0007
G1 X71.2643 Y12.3256
G3 X71.2696 Y12.3252 I0.003 J0.0042
G2 X71.5006 Y12.3561 I0.1611 J-0.3252
G3 X71.5055 Y12.3578 I0.001 J0.005
G1 X71.6368 Y12.5185
G3 X71.6298 Y12.5888 I-0.0387 J0.0317
G1 X71.6203 Y12.5772
X71.6168 Y12.5729 Z-0.2172
X71.6133 Y12.5686 Z-0.2162
X71.6099 Y12.5644 Z-0.2147
X71.6066 Y12.5604 Z-0.2125
X71.6035 Y12.5566 Z-0.2098
X71.6006 Y12.5531 Z-0.2066
X71.5979 Y12.5499 Z-0.2029
X71.5956 Y12.547 Z-0.1987
X71.5935 Y12.5445 Z-0.1941
X71.5918 Y12.5424 Z-0.1892
X71.5904 Y12.5407 Z-0.184
X71.5894 Y12.5395 Z-0.1786
X71.5888 Y12.5388 Z-0.1731
X71.5886 Y12.5385 Z-0.1675
G0 Z0.4
X73.1558 Y14.162
Z0.2
G1 Z0.1 F13.333
Z-0.1675
G19 G2 Y14.112 Z-0.2175 J-0.05 K0. F40.
G1 Y14.097
G17 G3 X73.2058 Y14.147 I0. J0.05
X73.0209 Y14.2357 I-0.1137 J0.
G1 X73.0208 Y14.2356
G3 X72.143 Y13.0413 I1.79 J-2.2354
X72.2075 Y12.8941 I0.1059 J-0.0413
X72.3547 Y12.9587 I0.0413 J0.1059
G2 X73.1631 Y14.0582 I2.4559 J-0.9587
G3 X73.2058 Y14.147 I-0.071 J0.0888
X73.1558 Y14.197 I-0.05 J0.
G1 Y14.182
G19 G2 Y14.132 Z-0.1675 J0. K0.05
G0 Z0.4
X73.5917 Y14.3526
Z0.2
G1 Z0.1 F13.333
Z-0.1675
Y14.3523 Z-0.1731 F40.
X73.5916 Y14.3513 Z-0.1786
X73.5914 Y14.3498 Z-0.184
X73.5912 Y14.3477 Z-0.1892
X73.5909 Y14.345 Z-0.1941
X73.5905 Y14.3418 Z-0.1987
X73.5901 Y14.338 Z-0.2029
X73.5896 Y14.3339 Z-0.2066
X73.5891 Y14.3293 Z-0.2098
X73.5885 Y14.3245 Z-0.2125
X73.5879 Y14.3193 Z-0.2147
X73.5873 Y14.314 Z-0.2162
X73.5867 Y14.3085 Z-0.2172
X73.5861 Y14.3029 Z-0.2175
X73.5844 Y14.288
G17 G3 X73.6397 Y14.332 I0.0057 J0.0497
G1 X73.6437 Y14.3672
G3 X73.6415 Y14.3719 I-0.0051 J0.0005
G1 X73.6413 Y14.3721
G2 X73.4915 Y14.602 I0.2065 J0.2983
G3 X73.4859 Y14.6061 I-0.005 J-0.0009
G1 X73.4857
G2 X73.4757 Y14.6052 I-0.0396 J0.3607
G3 X73.4715 Y14.602 I0.0006 J-0.0052
G1 X73.4136 Y14.4675
G3 X73.4147 Y14.4617 I0.0049 J-0.0021
G2 X73.4868 Y13.9289 I-0.3225 J-0.315
G1 X73.4867 Y13.9286
G3 X73.4871 Y13.9232 I0.0043 J-0.0024
G1 X73.4872 Y13.923
X73.5719 Y13.817
G3 X73.5811 Y13.8197 I0.0041 J0.0033
G1 Y13.8198
X73.6397 Y14.332
G3 X73.5957 Y14.3874 I-0.0497 J0.0057
G1 X73.594 Y14.3725
X73.5934 Y14.367 Z-0.2172
X73.5928 Y14.3615 Z-0.2162
X73.5921 Y14.3561 Z-0.2147
X73.5915 Y14.351 Z-0.2125
X73.591 Y14.3461 Z-0.2098
X73.5905 Y14.3415 Z-0.2066
X73.59 Y14.3374 Z-0.2029
X73.5896 Y14.3337 Z-0.1987
X73.5892 Y14.3305 Z-0.1941
X73.5889 Y14.3278 Z-0.1892
X73.5887 Y14.3256 Z-0.184
X73.5885 Y14.3241 Z-0.1786
X73.5884 Y14.3232 Z-0.1731
X73.5883 Y14.3228 Z-0.1675
G0 Z0.4
X74.4572 Y13.3881
Z0.2
G1 Z0.1 F13.333
Z-0.1675
X74.4574 Y13.3878 Z-0.1731 F40.
X74.4578 Y13.387 Z-0.1786
X74.4584 Y13.3856 Z-0.184
X74.4594 Y13.3837 Z-0.1892
X74.4605 Y13.3812 Z-0.1941
X74.4619 Y13.3783 Z-0.1987
X74.4635 Y13.3749 Z-0.2029
X74.4653 Y13.3711 Z-0.2066
X74.4673 Y13.367 Z-0.2098
X74.4694 Y13.3626 Z-0.2125
X74.4716 Y13.3579 Z-0.2147
X74.4739 Y13.353 Z-0.2162
X74.4763 Y13.348 Z-0.2172
X74.4787 Y13.343 Z-0.2175
X74.4851 Y13.3294
G3 X74.5088 Y13.3961 I-0.0215 J0.0452
G1 X74.0497 Y14.3621
G3 X74.0425 Y14.3642 I-0.0046 J-0.0022
G2 X73.982 Y14.3333 I-0.1947 J0.3063
G1 X73.9819
G3 X73.9787 Y14.3291 I0.0019 J-0.0048
G1 X73.9055 Y13.689
G3 X73.9077 Y13.6843 I0.0051 J-0.0005
G2 X73.908 Y13.6841 I-0.0423 J-0.0617
X74.035 Y13.2431 I-0.2068 J-0.2983
G3 X74.0357 Y13.2378 I0.0048 J-0.0021
G1 X74.7395 Y12.3586
G3 X74.7444 Y12.3568 I0.0039 J0.0032
G2 X75.021 Y12.2954 I0.066 J-0.3567
G3 X75.0288 Y12.3019 I0.0031 J0.0042
G1 X74.5088 Y13.3961
G3 X74.4422 Y13.4198 I-0.0452 J-0.0215
G1 X74.4486 Y13.4062
X74.451 Y13.4012 Z-0.2172
X74.4534 Y13.3962 Z-0.2162
X74.4557 Y13.3913 Z-0.2147
X74.4579 Y13.3867 Z-0.2125
X74.4601 Y13.3822 Z-0.2098
X74.462 Y13.3781 Z-0.2066
X74.4638 Y13.3743 Z-0.2029
X74.4654 Y13.3709 Z-0.1987
X74.4668 Y13.368 Z-0.1941
X74.468 Y13.3656 Z-0.1892
X74.4689 Y13.3636 Z-0.184
X74.4696 Y13.3622 Z-0.1786
X74.47 Y13.3614 Z-0.1731
X74.4701 Y13.3611 Z-0.1675
G0 Z0.4
X73.8726 Y12.8221
Z0.2
G1 Z0.1 F13.333
Z-0.1675
X73.8728 Y12.8218 Z-0.1731 F40.
X73.8734 Y12.8211 Z-0.1786
X73.8744 Y12.8199 Z-0.184
X73.8757 Y12.8182 Z-0.1892
X73.8774 Y12.8161 Z-0.1941
X73.8794 Y12.8136 Z-0.1987
X73.8818 Y12.8107 Z-0.2029
X73.8844 Y12.8074 Z-0.2066
X73.8872 Y12.8038 Z-0.2098
X73.8903 Y12.8 Z-0.2125
X73.8935 Y12.7959 Z-0.2147
X73.8969 Y12.7917 Z-0.2162
X73.9004 Y12.7874 Z-0.2172
X73.9039 Y12.7831 Z-0.2175
X73.9132 Y12.7714
G3 X73.921 Y12.8417 I-0.0312 J0.039
G1 X73.8065 Y12.9846
Y12.9847
G3 X73.7986 Y12.9851 I-0.0041 J-0.0033
G1 X73.7985
G3 X73.5686 Y12.6721 I1.0124 J-0.9847
X73.5713 Y12.6648 I0.0046 J-0.0025
G1 X74.2678 Y12.3928
G3 X74.2738 Y12.4009 I0.0019 J0.0049
G1 X73.921 Y12.8417
G3 X73.8507 Y12.8494 I-0.039 J-0.0312
G1 X73.8601 Y12.8378
X73.8636 Y12.8334 Z-0.2172
X73.867 Y12.8291 Z-0.2162
X73.8704 Y12.8249 Z-0.2147
X73.8736 Y12.8208 Z-0.2125
X73.8767 Y12.817 Z-0.2098
X73.8795 Y12.8134 Z-0.2066
X73.8822 Y12.8102 Z-0.2029
X73.8845 Y12.8072 Z-0.1987
X73.8865 Y12.8047 Z-0.1941
X73.8882 Y12.8026 Z-0.1892
X73.8896 Y12.8009 Z-0.184
X73.8905 Y12.7997 Z-0.1786
X73.8911 Y12.799 Z-0.1731
X73.8913 Y12.7987 Z-0.1675
G0 Z0.4
X72.8817 Y13.0327
Z0.2
G1 Z0.1 F13.333
Z-0.1675
X72.8815 Y13.0324 Z-0.1731 F40.
X72.8811 Y13.0316 Z-0.1786
X72.8804 Y13.0302 Z-0.184
X72.8794 Y13.0283 Z-0.1892
X72.8781 Y13.0259 Z-0.1941
X72.8766 Y13.0231 Z-0.1987
X72.8749 Y13.0198 Z-0.2029
X72.8729 Y13.0161 Z-0.2066
X72.8708 Y13.012 Z-0.2098
X72.8685 Y13.0077 Z-0.2125
X72.8661 Y13.0031 Z-0.2147
X72.8636 Y12.9983 Z-0.2162
X72.861 Y12.9934 Z-0.2172
X72.8584 Y12.9885 Z-0.2175
X72.8514 Y12.9752
G3 X72.9189 Y12.9962 I0.0233 J0.0442
G2 X73.3435 Y13.5552 I1.8918 J-0.9961
G1 X73.3436
G3 X73.344 Y13.562 I-0.0034 J0.0036
G1 X73.3439 Y13.5622
X73.2495 Y13.6804
G3 X73.242 Y13.6809 I-0.004 J-0.0032
X72.7383 Y12.9959 I1.5686 J-1.6809
G1 Y12.9958
G3 X72.741 Y12.9888 I0.0046 J-0.0022
G1 X72.882 Y12.9338
Y12.9337
G3 X72.8886 Y12.9363 I0.0019 J0.0048
G2 X72.9189 Y12.9962 I1.9221 J-0.9362
G3 X72.898 Y13.0637 I-0.0442 J0.0233
G1 X72.891 Y13.0505
X72.8884 Y13.0455 Z-0.2172
X72.8858 Y13.0406 Z-0.2162
X72.8833 Y13.0359 Z-0.2147
X72.8809 Y13.0313 Z-0.2125
X72.8786 Y13.0269 Z-0.2098
X72.8765 Y13.0229 Z-0.2066
X72.8746 Y13.0192 Z-0.2029
X72.8728 Y13.0159 Z-0.1987
X72.8713 Y13.013 Z-0.1941
X72.87 Y13.0106 Z-0.1892
X72.869 Y13.0087 Z-0.184
X72.8683 Y13.0073 Z-0.1786
X72.8679 Y13.0065 Z-0.1731
X72.8677 Y13.0062 Z-0.1675
G0 Z0.4
X71.624 Y14.2268
Z0.2
G1 Z0.1 F13.333
Z-0.1675
X71.6243 Y14.2266 Z-0.1731 F40.
X71.6249 Y14.2259 Z-0.1786
X71.626 Y14.2248 Z-0.184
X71.6276 Y14.2233 Z-0.1892
X71.6295 Y14.2215 Z-0.1941
X71.6319 Y14.2192 Z-0.1987
X71.6346 Y14.2166 Z-0.2029
X71.6376 Y14.2137 Z-0.2066
X71.6409 Y14.2105 Z-0.2098
X71.6444 Y14.2071 Z-0.2125
X71.6481 Y14.2035 Z-0.2147
X71.652 Y14.1998 Z-0.2162
X71.656 Y14.196 Z-0.2172
X71.66 Y14.1921 Z-0.2175
X71.6708 Y14.1817
G3 X71.6695 Y14.2524 I-0.036 J0.0347
G1 X70.8595 Y15.0339
G3 X70.8509 Y15.0285 I-0.0036 J-0.0038
G1 X71.2516 Y13.8385
X71.2517 Y13.8384
G3 X71.2554 Y13.835 I0.0048 J0.0016
G2 X71.4459 Y13.7238 I-0.0679 J-0.3351
G1 X71.446
G3 X71.4508 Y13.7221 I0.0038 J0.0033
G1 X71.4509
X72.0821 Y13.8431
G3 X72.0847 Y13.8519 I-0.0011 J0.0051
G1 X71.6695 Y14.2524
G3 X71.5988 Y14.2511 I-0.0347 J-0.036
G1 X71.6096 Y14.2407
X71.6136 Y14.2368 Z-0.2172
X71.6176 Y14.233 Z-0.2162
X71.6215 Y14.2292 Z-0.2147
X71.6252 Y14.2256 Z-0.2125
X71.6287 Y14.2222 Z-0.2098
X71.632 Y14.2191 Z-0.2066
X71.635 Y14.2162 Z-0.2029
X71.6377 Y14.2136 Z-0.1987
X71.6401 Y14.2113 Z-0.1941
X71.642 Y14.2094 Z-0.1892
X71.6436 Y14.2079 Z-0.184
X71.6447 Y14.2069 Z-0.1786
X71.6453 Y14.2062 Z-0.1731
X71.6456 Y14.206 Z-0.1675
G0 Z0.4
X72.6287 Y14.4099
Z0.2
G1 Z0.1 F13.333
Z-0.1675
X72.6285 Y14.4097 Z-0.1731 F40.
X72.6278 Y14.4091 Z-0.1786
X72.6266 Y14.408 Z-0.184
X72.6251 Y14.4066 Z-0.1892
X72.6231 Y14.4047 Z-0.1941
X72.6207 Y14.4025 Z-0.1987
X72.6179 Y14.4 Z-0.2029
X72.6148 Y14.3972 Z-0.2066
X72.6114 Y14.3941 Z-0.2098
X72.6078 Y14.3908 Z-0.2125
X72.604 Y14.3873 Z-0.2147
X72.6 Y14.3837 Z-0.2162
X72.5959 Y14.38 Z-0.2172
X72.5918 Y14.3762 Z-0.2175
X72.5807 Y14.3661
G3 X72.6514 Y14.3629 I0.0369 J0.0337
G2 X72.8103 Y14.4989 I2.1592 J-2.3629
X73.099 Y14.5977 I0.2817 J-0.352
G3 X73.1037 Y14.6007 I0. J0.005
G1 Y14.6009
X73.1619 Y14.7353
G3 X73.1612 Y14.7406 I-0.0048 J0.002
G1 X73.1611 Y14.7407
G2 X73.0931 Y15.0549 I0.2838 J0.2258
G3 X73.0888 Y15.0611 I-0.0049 J0.0012
G1 X73.0885 Y15.0612
X71.0723 Y15.31
Y15.3101
G3 X71.0681 Y15.3013 I-0.0006 J-0.0051
G1 X72.3539 Y14.0607
G3 X72.3616 Y14.061 I0.0037 J0.0037
G2 X72.6514 Y14.3629 I2.449 J-2.061
G3 X72.6546 Y14.4335 I-0.0337 J0.0369
G1 X72.6435 Y14.4234
X72.6394 Y14.4197 Z-0.2172
X72.6353 Y14.4159 Z-0.2162
X72.6313 Y14.4123 Z-0.2147
X72.6275 Y14.4088 Z-0.2125
X72.6239 Y14.4055 Z-0.2098
X72.6205 Y14.4024 Z-0.2066
X72.6174 Y14.3996 Z-0.2029
X72.6147 Y14.3971 Z-0.1987
X72.6123 Y14.3949 Z-0.1941
X72.6103 Y14.393 Z-0.1892
X72.6087 Y14.3916 Z-0.184
X72.6075 Y14.3906 Z-0.1786
X72.6068 Y14.3899 Z-0.1731
X72.6066 Y14.3897 Z-0.1675
G0 Z0.4
X70.5161 Y14.81
Z0.2
G1 Z0.1 F13.333
Z-0.1675
X70.5162 Y14.8097 Z-0.1731 F40.
X70.5165 Y14.8088 Z-0.1786
X70.517 Y14.8073 Z-0.184
X70.5177 Y14.8053 Z-0.1892
X70.5186 Y14.8027 Z-0.1941
X70.5196 Y14.7997 Z-0.1987
X70.5208 Y14.7961 Z-0.2029
X70.5221 Y14.7922 Z-0.2066
X70.5236 Y14.7878 Z-0.2098
X70.5251 Y14.7832 Z-0.2125
X70.5268 Y14.7783 Z-0.2147
X70.5285 Y14.7732 Z-0.2162
X70.5303 Y14.7679 Z-0.2172
X70.532 Y14.7626 Z-0.2175
X70.5368 Y14.7484
G3 X70.5683 Y14.8117 I-0.0159 J0.0474
G1 X70.4011 Y15.3088
G3 X70.3922 Y15.3106 I-0.0049 J-0.0017
G1 X69.7584 Y14.5842
X69.7582 Y14.584
G3 X69.7571 Y14.579 I0.004 J-0.0035
G2 X69.766 Y14.5485 I-0.323 J-0.111
G1 X69.7661 Y14.5483
G3 X69.7725 Y14.5445 I0.005 J0.0012
G2 X70.2063 Y14.2251 I0.0921 J-0.3293
G1 Y14.225
G3 X70.209 Y14.2206 I0.0052 J0.0001
G1 X70.8797 Y13.8581
Y13.858
G3 X70.887 Y13.8641 I0.0024 J0.0045
G1 X70.8869 Y13.8642
X70.5683 Y14.8117
G3 X70.5049 Y14.8432 I-0.0474 J-0.0159
G1 X70.5097 Y14.829
X70.5115 Y14.8237 Z-0.2172
X70.5133 Y14.8185 Z-0.2162
X70.515 Y14.8134 Z-0.2147
X70.5166 Y14.8085 Z-0.2125
X70.5182 Y14.8038 Z-0.2098
X70.5197 Y14.7995 Z-0.2066
X70.521 Y14.7955 Z-0.2029
X70.5222 Y14.792 Z-0.1987
X70.5232 Y14.7889 Z-0.1941
X70.5241 Y14.7863 Z-0.1892
X70.5248 Y14.7843 Z-0.184
X70.5253 Y14.7828 Z-0.1786
X70.5256 Y14.7819 Z-0.1731
X70.5257 Y14.7816 Z-0.1675
G0 Z0.4
X69.3542 Y14.8528
Z0.2
G1 Z0.1 F13.333
Z-0.1675
X69.3539 Z-0.1731 F40.
X69.353 Y14.8525 Z-0.1786
X69.3515 Y14.8522 Z-0.184
X69.3494 Y14.8517 Z-0.1892
X69.3468 Y14.851 Z-0.1941
X69.3436 Y14.8502 Z-0.1987
X69.34 Y14.8493 Z-0.2029
X69.3359 Y14.8483 Z-0.2066
X69.3315 Y14.8472 Z-0.2098
X69.3267 Y14.8461 Z-0.2125
X69.3217 Y14.8448 Z-0.2147
X69.3165 Y14.8435 Z-0.2162
X69.3111 Y14.8422 Z-0.2172
X69.3057 Y14.8409 Z-0.2175
X69.2911 Y14.8373
G3 X69.3517 Y14.8007 I0.0485 J0.012
G2 X69.4994 Y14.8043 I0.082 J-0.3319
G3 X69.5042 Y14.806 I0.001 J0.005
G1 X70.0475 Y15.4284
G3 X70.0443 Y15.4369 I-0.0039 J0.0034
G1 X67.4215 Y15.7606
X67.4213
G3 X67.4207 Y15.7607 I-0.0006 J-0.0051
G1 X67.4189
G3 X67.4139 Y15.7544 I0. J-0.0051
G2 X67.4229 Y15.6842 I-0.3512 J-0.0803
G1 Y15.6839
G3 X67.4257 Y15.6795 I0.0051 J0.0001
G1 X69.2422 Y14.7553
G3 X69.2474 Y14.7555 I0.0024 J0.0046
G2 X69.3517 Y14.8007 I0.1862 J-0.2868
G3 X69.3882 Y14.8612 I-0.012 J0.0485
G1 X69.3737 Y14.8576
X69.3682 Y14.8563 Z-0.2172
X69.3629 Y14.855 Z-0.2162
X69.3576 Y14.8537 Z-0.2147
X69.3526 Y14.8524 Z-0.2125
X69.3479 Y14.8513 Z-0.2098
X69.3434 Y14.8502 Z-0.2066
X69.3394 Y14.8492 Z-0.2029
X69.3357 Y14.8483 Z-0.1987
X69.3326 Y14.8475 Z-0.1941
X69.3299 Y14.8468 Z-0.1892
X69.3279 Y14.8463 Z-0.184
X69.3264 Y14.846 Z-0.1786
X69.3254 Y14.8457 Z-0.1731
X69.3251 Z-0.1675
G0 Z0.4
X67.8549 Y15.0267
Z0.2
G1 Z0.1 F13.333
Z-0.1675
X67.8552 Y15.0265 Z-0.1731 F40.
X67.856 Y15.0261 Z-0.1786
X67.8574 Y15.0254 Z-0.184
X67.8593 Y15.0244 Z-0.1892
X67.8618 Y15.0232 Z-0.1941
X67.8647 Y15.0217 Z-0.1987
X67.868 Y15.02 Z-0.2029
X67.8717 Y15.0181 Z-0.2066
X67.8758 Y15.0161 Z-0.2098
X67.8802 Y15.0138 Z-0.2125
X67.8848 Y15.0115 Z-0.2147
X67.8896 Y15.009 Z-0.2162
X67.8945 Y15.0065 Z-0.2172
X67.8995 Y15.004 Z-0.2175
X67.9128 Y14.9972
G3 X67.8909 Y15.0644 I-0.0446 J0.0227
G1 X67.2728 Y15.3789
X67.2727
G3 X67.2674 Y15.3786 I-0.0024 J-0.0046
G1 X67.2672 Y15.3785
G2 X67.2338 Y15.358 I-0.2043 J0.2967
G3 X67.2311 Y15.3536 I0.0025 J-0.0045
G1 Y15.3534
Y15.2466
Y15.2464
G3 X67.2338 Y15.2419 I0.0052 J0.
G2 Y14.6081 I-0.1712 J-0.3169
G3 X67.2311 Y14.6036 I0.0025 J-0.0045
G1 Y14.6034
Y14.4966
Y14.4964
G3 X67.2338 Y14.492 I0.0052 J0.
G2 X67.3562 Y14.3841 I-0.1708 J-0.3173
G1 X67.3563 Y14.384
G3 X67.361 Y14.3819 I0.0041 J0.0029
G1 X68.8494 Y14.5663
G3 X68.8511 Y14.576 I-0.0006 J0.0051
G1 X67.8909 Y15.0644
G3 X67.8237 Y15.0425 I-0.0227 J-0.0446
G1 X67.8371 Y15.0358
X67.842 Y15.0332 Z-0.2172
X67.847 Y15.0307 Z-0.2162
X67.8518 Y15.0283 Z-0.2147
X67.8564 Y15.0259 Z-0.2125
X67.8608 Y15.0237 Z-0.2098
X67.8648 Y15.0216 Z-0.2066
X67.8686 Y15.0197 Z-0.2029
X67.8719 Y15.018 Z-0.1987
X67.8748 Y15.0166 Z-0.1941
X67.8772 Y15.0153 Z-0.1892
X67.8791 Y15.0144 Z-0.184
X67.8805 Y15.0137 Z-0.1786
X67.8813 Y15.0132 Z-0.1731
X67.8816 Y15.0131 Z-0.1675
G0 Z0.4
X68.6814 Y13.7348
Z0.2
G1 Z0.1 F13.333
Z-0.1675
X68.6812 Y13.7346 Z-0.1731 F40.
X68.6807 Y13.7338 Z-0.1786
X68.6799 Y13.7324 Z-0.184
X68.6788 Y13.7306 Z-0.1892
X68.6773 Y13.7283 Z-0.1941
X68.6756 Y13.7256 Z-0.1987
X68.6736 Y13.7224 Z-0.2029
X68.6714 Y13.7189 Z-0.2066
X68.669 Y13.715 Z-0.2098
X68.6664 Y13.7108 Z-0.2125
X68.6636 Y13.7064 Z-0.2147
X68.6608 Y13.7019 Z-0.2162
X68.6579 Y13.6972 Z-0.2172
X68.6549 Y13.6924 Z-0.2175
X68.647 Y13.6797
G3 X68.7159 Y13.6956 I0.0265 J0.0424
G2 X68.8241 Y13.8577 I2.7145 J-1.6962
X69.1371 Y14.0436 I0.3671 J-0.2615
G1 X69.1373
G3 X69.1417 Y14.0474 I-0.0006 J0.0051
G1 X69.1908 Y14.2245
G3 X69.1895 Y14.2294 I-0.005 J0.0014
G2 X69.1892 Y14.2298 I0.0534 J0.0525
X69.1612 Y14.2626 I0.2453 J0.2383
G3 X69.1565 Y14.2645 I-0.0041 J-0.0031
G1 X67.5974 Y14.0714
G3 X67.5977 Y14.0612 I0.0006 J-0.0051
G1 X67.598
G2 X67.9347 Y13.7989 I-0.0305 J-0.3863
G1 Y13.7988
G3 X67.937 Y13.7961 I0.0047 J0.0016
G1 X68.5633 Y13.435
G3 X68.5705 Y13.4371 I0.0026 J0.0045
G2 X68.7159 Y13.6956 I2.8599 J-1.4376
G3 X68.6999 Y13.7645 I-0.0424 J0.0265
G1 X68.692 Y13.7518
X68.689 Y13.7471 Z-0.2172
X68.6861 Y13.7424 Z-0.2162
X68.6833 Y13.7378 Z-0.2147
X68.6805 Y13.7334 Z-0.2125
X68.6779 Y13.7293 Z-0.2098
X68.6755 Y13.7254 Z-0.2066
X68.6733 Y13.7218 Z-0.2029
X68.6713 Y13.7187 Z-0.1987
X68.6696 Y13.7159 Z-0.1941
X68.6681 Y13.7136 Z-0.1892
X68.667 Y13.7118 Z-0.184
X68.6662 Y13.7105 Z-0.1786
X68.6657 Y13.7097 Z-0.1731
X68.6655 Y13.7094 Z-0.1675
G0 Z0.4
X68.7947 Y12.5185
Z0.2
G1 Z0.1 F13.333
Z-0.1675
Y12.5182 Z-0.1731 F40.
X68.7945 Y12.5173 Z-0.1786
X68.7942 Y12.5158 Z-0.184
X68.7938 Y12.5137 Z-0.1892
X68.7933 Y12.511 Z-0.1941
X68.7927 Y12.5078 Z-0.1987
X68.792 Y12.5042 Z-0.2029
X68.7912 Y12.5001 Z-0.2066
X68.7904 Y12.4956 Z-0.2098
X68.7894 Y12.4907 Z-0.2125
X68.7885 Y12.4857 Z-0.2147
X68.7875 Y12.4804 Z-0.2162
X68.7864 Y12.4749 Z-0.2172
X68.7854 Y12.4694 Z-0.2175
X68.7826 Y12.4547
G3 X68.8411 Y12.4945 I0.0094 J0.0491
G2 X69.2835 Y13.53 I2.5897 J-0.4943
G3 X69.2569 Y13.6886 I-0.0926 J0.066
X69.0984 Y13.662 I-0.066 J-0.0926
X68.6145 Y12.5207 I2.3324 J-1.6619
X68.8382 Y12.4793 I0.1118 J-0.0207
G2 X68.8411 Y12.4945 I2.5926 J-0.4791
G3 X68.8013 Y12.553 I-0.0491 J0.0094
G1 X68.7985 Y12.5383
X68.7975 Y12.5328 Z-0.2172
X68.7964 Y12.5273 Z-0.2162
X68.7954 Y12.522 Z-0.2147
X68.7944 Y12.5169 Z-0.2125
X68.7935 Y12.5121 Z-0.2098
X68.7927 Y12.5076 Z-0.2066
X68.7919 Y12.5035 Z-0.2029
X68.7912 Y12.4999 Z-0.1987
X68.7906 Y12.4967 Z-0.1941
X68.7901 Y12.494 Z-0.1892
X68.7897 Y12.4919 Z-0.184
X68.7894 Y12.4904 Z-0.1786
X68.7892 Y12.4894 Z-0.1731
X68.7891 Y12.4891 Z-0.1675
G0 Z0.4
X69.4502 Y11.9243
Z0.2
G1 Z0.1 F13.333
Z-0.1675
Y11.9239 Z-0.1731 F40.
X69.4501 Y11.923 Z-0.1786
X69.45 Y11.9214 Z-0.184
Y11.9193 Z-0.1892
X69.4498 Y11.9166 Z-0.1941
X69.4497 Y11.9134 Z-0.1987
X69.4496 Y11.9096 Z-0.2029
X69.4494 Y11.9054 Z-0.2066
X69.4492 Y11.9009 Z-0.2098
X69.449 Y11.896 Z-0.2125
X69.4488 Y11.8908 Z-0.2147
X69.4486 Y11.8854 Z-0.2162
X69.4483 Y11.8799 Z-0.2172
X69.4481 Y11.8743 Z-0.2175
X69.4475 Y11.8593
G3 X69.4995 Y11.9072 I0.0021 J0.05
G1 X69.5036 Y12.0055
G3 X69.501 Y12.0101 I-0.0051 J0.0002
G2 X69.3393 Y12.2124 I0.1839 J0.3128
G1 Y12.2125
G3 X69.3355 Y12.216 I-0.0048 J-0.0015
G1 X69.1104 Y12.2575
X69.1103 Y12.2576
G3 X69.105 Y12.2553 I-0.001 J-0.0051
G2 X69.0224 Y12.1598 I-0.3789 J0.2444
G1 X69.0221 Y12.1596
G3 X69.0206 Y12.1541 I0.0034 J-0.0039
G1 X69.4477 Y10.887
G3 X69.4575 Y10.8884 I0.0048 J0.0016
G1 X69.4995 Y11.9072
G3 X69.4516 Y11.9593 I-0.05 J0.0021
G1 X69.451 Y11.9443
X69.4508 Y11.9387 Z-0.2172
X69.4505 Y11.9332 Z-0.2162
X69.4503 Y11.9278 Z-0.2147
X69.4501 Y11.9226 Z-0.2125
X69.4499 Y11.9177 Z-0.2098
X69.4497 Y11.9131 Z-0.2066
X69.4495 Y11.909 Z-0.2029
X69.4494 Y11.9052 Z-0.1987
X69.4492 Y11.902 Z-0.1941
X69.4491 Y11.8993 Z-0.1892
X69.449 Y11.8971 Z-0.184
Y11.8956 Z-0.1786
X69.4489 Y11.8946 Z-0.1731
Y11.8943 Z-0.1675
G0 Z0.4
X69.5248 Y13.0745
Z0.2
G1 Z0.1 F13.333
Z-0.1675
X69.5246 Y13.0743 Z-0.1731 F40.
X69.5241 Y13.0734 Z-0.1786
X69.5234 Y13.0721 Z-0.184
X69.5223 Y13.0702 Z-0.1892
X69.521 Y13.0678 Z-0.1941
X69.5195 Y13.065 Z-0.1987
X69.5176 Y13.0617 Z-0.2029
X69.5156 Y13.0581 Z-0.2066
X69.5134 Y13.0541 Z-0.2098
X69.511 Y13.0498 Z-0.2125
X69.5085 Y13.0453 Z-0.2147
X69.5059 Y13.0405 Z-0.2162
X69.5032 Y13.0357 Z-0.2172
X69.5005 Y13.0308 Z-0.2175
X69.4932 Y13.0177
G3 X69.5612 Y13.0372 I0.0243 J0.0437
G2 X69.5947 Y13.0954 I1.8693 J-1.0376
G3 X69.5932 Y13.1023 I-0.0045 J0.0026
G1 X69.5931
X69.4699 Y13.1902
G3 X69.4625 Y13.1887 I-0.003 J-0.0042
X69.2078 Y12.5882 I1.9681 J-1.1889
X69.212 Y12.5817 I0.0051 J-0.0013
G1 X69.3608 Y12.5542
G3 X69.3667 Y12.5579 I0.0009 J0.005
G2 X69.5612 Y13.0372 I2.0638 J-0.5583
G3 X69.5418 Y13.1052 I-0.0437 J0.0243
G1 X69.5345 Y13.0921
X69.5318 Y13.0872 Z-0.2172
X69.5291 Y13.0823 Z-0.2162
X69.5265 Y13.0776 Z-0.2147
X69.524 Y13.0731 Z-0.2125
X69.5216 Y13.0688 Z-0.2098
X69.5194 Y13.0648 Z-0.2066
X69.5173 Y13.0612 Z-0.2029
X69.5155 Y13.0579 Z-0.1987
X69.5139 Y13.0551 Z-0.1941
X69.5126 Y13.0527 Z-0.1892
X69.5116 Y13.0508 Z-0.184
X69.5108 Y13.0494 Z-0.1786
X69.5104 Y13.0486 Z-0.1731
X69.5102 Y13.0484 Z-0.1675
G0 Z0.4
X69.6798 Y13.8701
Z0.2
G1 Z0.1 F13.333
Z-0.1675
X69.6799 Y13.8698 Z-0.1731 F40.
X69.68 Y13.8689 Z-0.1786
X69.6801 Y13.8673 Z-0.184
X69.6803 Y13.8652 Z-0.1892
X69.6806 Y13.8625 Z-0.1941
X69.6809 Y13.8593 Z-0.1987
X69.6813 Y13.8555 Z-0.2029
X69.6817 Y13.8514 Z-0.2066
X69.6822 Y13.8468 Z-0.2098
X69.6827 Y13.8419 Z-0.2125
X69.6832 Y13.8368 Z-0.2147
X69.6838 Y13.8314 Z-0.2162
X69.6843 Y13.8259 Z-0.2172
X69.6849 Y13.8204 Z-0.2175
X69.6864 Y13.8055
G3 X69.7311 Y13.8603 I-0.0051 J0.0497
G1 X69.7271 Y13.8993
Y13.8995
G3 X69.7242 Y13.9036 I-0.0051 J-0.0005
G2 X69.5319 Y14.1357 I0.1402 J0.3118
G1 Y14.1359
G3 X69.5256 Y14.1396 I-0.0049 J-0.0012
G2 X69.5252 Y14.1394 I-0.0201 J0.0721
X69.5193 Y14.1379 I-0.0898 J0.3298
G3 X69.5159 Y14.1344 I0.0014 J-0.0048
G1 X69.5158 Y14.1341
X69.4662 Y13.9571
G3 X69.468 Y13.9516 I0.005 J-0.0013
G2 X69.6304 Y13.494 I-0.277 J-0.3559
G1 X69.6303 Y13.4938
G3 X69.6323 Y13.4887 I0.0047 J-0.0011
G1 X69.6325 Y13.4885
X69.7703 Y13.3901
G3 X69.7787 Y13.3949 I0.0031 J0.0043
G1 X69.7311 Y13.8603
G3 X69.6763 Y13.905 I-0.0497 J-0.0051
G1 X69.6778 Y13.8901
X69.6784 Y13.8845 Z-0.2172
X69.6789 Y13.879 Z-0.2162
X69.6795 Y13.8736 Z-0.2147
X69.68 Y13.8685 Z-0.2125
X69.6805 Y13.8636 Z-0.2098
X69.681 Y13.859 Z-0.2066
X69.6814 Y13.8549 Z-0.2029
X69.6818 Y13.8512 Z-0.1987
X69.6821 Y13.8479 Z-0.1941
X69.6824 Y13.8452 Z-0.1892
X69.6826 Y13.8431 Z-0.184
X69.6828 Y13.8416 Z-0.1786
Y13.8406 Z-0.1731
X69.6829 Y13.8403 Z-0.1675
G0 Z0.4
X70.3651 Y13.6962
Z0.2
G1 Z0.1 F13.333
Z-0.1675
X70.3654 Y13.696 Z-0.1731 F40.
X70.3662 Y13.6956 Z-0.1786
X70.3676 Y13.6948 Z-0.184
X70.3694 Y13.6938 Z-0.1892
X70.3718 Y13.6925 Z-0.1941
X70.3747 Y13.691 Z-0.1987
X70.378 Y13.6892 Z-0.2029
X70.3816 Y13.6872 Z-0.2066
X70.3857 Y13.685 Z-0.2098
X70.39 Y13.6827 Z-0.2125
X70.3945 Y13.6803 Z-0.2147
X70.3993 Y13.6777 Z-0.2162
X70.4041 Y13.6751 Z-0.2172
X70.4091 Y13.6724 Z-0.2175
X70.4222 Y13.6653
G3 X70.402 Y13.733 I-0.044 J0.0238
G1 X70.0731 Y13.9108
X70.073 Y13.9109
G3 X70.0654 Y13.9058 I-0.0025 J-0.0045
G1 X70.1201 Y13.37
Y13.3698
G3 X70.1232 Y13.3656 I0.0051 J0.0005
G2 X70.2206 Y13.3061 I-0.138 J-0.3356
G3 X70.2259 Y13.3052 I0.0034 J0.0039
G1 X70.7771 Y13.5206
G3 X70.7777 Y13.53 I-0.0019 J0.0048
G1 X70.402 Y13.733
G3 X70.3343 Y13.7128 I-0.0238 J-0.044
G1 X70.3474 Y13.7057
X70.3524 Y13.7031 Z-0.2172
X70.3572 Y13.7004 Z-0.2162
X70.362 Y13.6979 Z-0.2147
X70.3665 Y13.6954 Z-0.2125
X70.3708 Y13.6931 Z-0.2098
X70.3749 Y13.6909 Z-0.2066
X70.3785 Y13.6889 Z-0.2029
X70.3818 Y13.6871 Z-0.1987
X70.3847 Y13.6856 Z-0.1941
X70.3871 Y13.6843 Z-0.1892
X70.389 Y13.6833 Z-0.184
X70.3903 Y13.6825 Z-0.1786
X70.3911 Y13.6821 Z-0.1731
X70.3914 Y13.6819 Z-0.1675
G0 Z0.4
X68.3334 Y12.9875
Z0.2
G1 Z0.1 F13.333
Z-0.1675
X68.3333 Y12.9872 Z-0.1731 F40.
X68.333 Y12.9864 Z-0.1786
X68.3325 Y12.9849 Z-0.184
X68.3319 Y12.9828 Z-0.1892
X68.3311 Y12.9802 Z-0.1941
X68.3301 Y12.9771 Z-0.1987
X68.329 Y12.9736 Z-0.2029
X68.3277 Y12.9696 Z-0.2066
X68.3264 Y12.9652 Z-0.2098
X68.3249 Y12.9605 Z-0.2125
X68.3233 Y12.9556 Z-0.2147
X68.3217 Y12.9505 Z-0.2162
X68.3201 Y12.9452 Z-0.2172
X68.3184 Y12.9398 Z-0.2175
X68.3139 Y12.9256
G3 X68.3766 Y12.9583 I0.015 J0.0477
G2 X68.431 Y13.117 I3.054 J-0.9586
G3 X68.4287 Y13.1233 I-0.005 J0.0018
G1 X67.9626 Y13.392
X67.9625 Y13.3921
G3 X67.9548 Y13.3876 I-0.0026 J-0.0045
G1 Y13.3875
Y11.6535
G3 X67.9642 Y11.6507 I0.0052 J0.
G1 X67.9643
X68.3536 Y12.2408
G3 X68.3535 Y12.2465 I-0.0044 J0.0028
G1 X68.3534 Y12.2466
G2 X68.2831 Y12.582 I0.373 J0.2533
X68.3766 Y12.9583 I3.1475 J-0.5822
G3 X68.3439 Y13.021 I-0.0477 J0.015
G1 X68.3394 Y13.0067
X68.3377 Y13.0013 Z-0.2172
X68.336 Y12.9961 Z-0.2162
X68.3344 Y12.9909 Z-0.2147
X68.3329 Y12.986 Z-0.2125
X68.3314 Y12.9813 Z-0.2098
X68.33 Y12.9769 Z-0.2066
X68.3288 Y12.973 Z-0.2029
X68.3277 Y12.9694 Z-0.1987
X68.3267 Y12.9663 Z-0.1941
X68.3259 Y12.9637 Z-0.1892
X68.3252 Y12.9617 Z-0.184
X68.3248 Y12.9602 Z-0.1786
X68.3245 Y12.9593 Z-0.1731
X68.3244 Y12.959 Z-0.1675
G0 Z0.4
X68.9829 Y11.0532
Z0.2
G1 Z0.1 F13.333
Z-0.1675
X68.983 Y11.0529 Z-0.1731 F40.
X68.9833 Y11.052 Z-0.1786
X68.9838 Y11.0505 Z-0.184
X68.9845 Y11.0485 Z-0.1892
X68.9854 Y11.0459 Z-0.1941
X68.9864 Y11.0428 Z-0.1987
X68.9876 Y11.0393 Z-0.2029
X68.9889 Y11.0353 Z-0.2066
X68.9904 Y11.031 Z-0.2098
X68.992 Y11.0263 Z-0.2125
X68.9936 Y11.0214 Z-0.2147
X68.9953 Y11.0163 Z-0.2162
X68.9971 Y11.0111 Z-0.2172
X68.9989 Y11.0058 Z-0.2175
X69.0037 Y10.9916
G3 X69.0351 Y11.0549 I-0.016 J0.0474
G1 X68.8566 Y11.585
G3 X68.8475 Y11.5863 I-0.0049 J-0.0017
G2 X68.3127 Y11.5546 I-0.28 J0.1961
G3 X68.3046 Y11.554 I-0.0038 J-0.0034
G1 X67.9558 Y11.0252
X67.9556 Y11.0249
G3 X67.9548 Y11.0222 I0.0042 J-0.0028
G1 Y10.9699
G2 X67.5673 Y10.5826 I-0.3874 J0.0001
G1 X67.398
G3 X67.3931 Y10.5754 I0. J-0.0052
G2 X67.4063 Y10.5409 I-0.3296 J-0.1454
X67.4065 Y10.5403 I-0.0712 J-0.0231
G3 X67.4104 Y10.5367 I0.0049 J0.0015
G1 X68.8235 Y10.2629
G3 X68.8292 Y10.2659 I0.0009 J0.0051
G2 X69.1665 Y10.6516 I0.7582 J-0.3228
G1 X69.1667 Y10.6517
G3 X69.1689 Y10.6576 I-0.0025 J0.0043
G1 X69.1688 Y10.6577
X69.0351 Y11.0549
G3 X68.9717 Y11.0864 I-0.0474 J-0.016
G1 X68.9765 Y11.0722
X68.9783 Y11.0669 Z-0.2172
X68.9801 Y11.0616 Z-0.2162
X68.9818 Y11.0565 Z-0.2147
X68.9834 Y11.0516 Z-0.2125
X68.985 Y11.047 Z-0.2098
X68.9865 Y11.0426 Z-0.2066
X68.9878 Y11.0387 Z-0.2029
X68.989 Y11.0351 Z-0.1987
X68.99 Y11.0321 Z-0.1941
X68.9909 Y11.0295 Z-0.1892
X68.9916 Y11.0275 Z-0.184
X68.9921 Y11.026 Z-0.1786
X68.9924 Y11.0251 Z-0.1731
X68.9925 Y11.0248 Z-0.1675
G0 Z0.4
X67.8899 Y9.499
Z0.2
G1 Z0.1 F13.333
Z-0.1675
X67.8896 Y9.4989 Z-0.1731 F40.
X67.8888 Y9.4985 Z-0.1786
X67.8873 Y9.4979 Z-0.184
X67.8853 Y9.4971 Z-0.1892
X67.8828 Y9.4961 Z-0.1941
X67.8798 Y9.4949 Z-0.1987
X67.8763 Y9.4935 Z-0.2029
X67.8724 Y9.492 Z-0.2066
X67.8682 Y9.4903 Z-0.2098
X67.8636 Y9.4885 Z-0.2125
X67.8588 Y9.4865 Z-0.2147
X67.8538 Y9.4845 Z-0.2162
X67.8487 Y9.4825 Z-0.2172
X67.8435 Y9.4804 Z-0.2175
X67.8296 Y9.4748
G3 X67.8946 Y9.447 I0.0464 J0.0186
G1 X68.772 Y9.7982
G3 X68.7751 Y9.8038 I-0.002 J0.0047
G1 X68.775 Y9.8042
G2 X68.7637 Y9.9267 I0.8126 J0.1364
G3 X68.7594 Y9.9318 I-0.0053 J-0.0002
G1 X67.3462 Y10.2057
G3 X67.3413 Y10.2039 I-0.0009 J-0.005
G1 Y10.2038
G2 X67.2338 Y10.1154 I-0.2783 J0.2289
G3 X67.2311 Y10.111 I0.0025 J-0.0045
G1 Y10.1108
Y10.0039
Y10.0038
G3 X67.2338 Y9.9993 I0.0051 J0.
G2 Y9.3655 I-0.1712 J-0.3169
G3 X67.2311 Y9.361 I0.0025 J-0.0045
G1 Y9.3608
Y9.2539
Y9.2538
G3 X67.2338 Y9.2494 I0.0051 J0.
G2 X67.2931 Y9.2093 I-0.1709 J-0.3172
G1 X67.2932 Y9.2092
G3 X67.2985 Y9.2084 I0.0033 J0.004
G1 X67.2986
X67.8946 Y9.447
G3 X67.9224 Y9.512 I-0.0186 J0.0464
G1 X67.9085 Y9.5064
X67.9033 Y9.5044 Z-0.2172
X67.8982 Y9.5023 Z-0.2162
X67.8932 Y9.5003 Z-0.2147
X67.8884 Y9.4984 Z-0.2125
X67.8838 Y9.4966 Z-0.2098
X67.8796 Y9.4949 Z-0.2066
X67.8757 Y9.4933 Z-0.2029
X67.8723 Y9.4919 Z-0.1987
X67.8692 Y9.4907 Z-0.1941
X67.8667 Y9.4897 Z-0.1892
X67.8647 Y9.4889 Z-0.184
X67.8633 Y9.4883 Z-0.1786
X67.8624 Y9.488 Z-0.1731
X67.8621 Y9.4879 Z-0.1675
G0 Z0.4
X68.7622 Y8.9565
Z0.2
G1 Z0.1 F13.333
Z-0.1675
X68.7621 Y8.9563 Z-0.1731 F40.
X68.7616 Y8.9554 Z-0.1786
X68.7608 Y8.9541 Z-0.184
X68.7598 Y8.9522 Z-0.1892
X68.7584 Y8.9499 Z-0.1941
X68.7568 Y8.9471 Z-0.1987
X68.7549 Y8.9439 Z-0.2029
X68.7528 Y8.9402 Z-0.2066
X68.7505 Y8.9363 Z-0.2098
X68.748 Y8.932 Z-0.2125
X68.7454 Y8.9276 Z-0.2147
X68.7427 Y8.9229 Z-0.2162
X68.7399 Y8.9181 Z-0.2172
X68.7371 Y8.9133 Z-0.2175
X68.7296 Y8.9003
G3 X68.798 Y8.9185 I0.0251 J0.0432
G1 X69.0348 Y9.3263
G3 X69.0338 Y9.3326 I-0.0045 J0.0025
G1 X69.0335 Y9.3328
G2 X68.9036 Y9.4833 I0.5544 J0.6097
G3 X68.8974 Y9.4852 I-0.0043 J-0.0029
G1 X67.4239 Y8.8954
X67.4236 Y8.8952
G3 X67.4204 Y8.8911 I0.0019 J-0.0048
G2 X67.3932 Y8.7895 I-0.3577 J0.0416
G3 X67.398 Y8.7823 I0.0048 J-0.002
G1 X68.652
G2 X68.7124 Y8.7775 I0.0001 J-0.3874
G3 X68.7175 Y8.78 I0.0008 J0.005
G1 X68.7176
X68.798 Y8.9185
G3 X68.7798 Y8.9868 I-0.0432 J0.0251
G1 X68.7723 Y8.9739
X68.7695 Y8.969 Z-0.2172
X68.7667 Y8.9643 Z-0.2162
X68.764 Y8.9596 Z-0.2147
X68.7614 Y8.9551 Z-0.2125
X68.759 Y8.9509 Z-0.2098
X68.7567 Y8.9469 Z-0.2066
X68.7546 Y8.9433 Z-0.2029
X68.7527 Y8.9401 Z-0.1987
X68.7511 Y8.9373 Z-0.1941
X68.7497 Y8.9349 Z-0.1892
X68.7486 Y8.9331 Z-0.184
X68.7478 Y8.9317 Z-0.1786
X68.7474 Y8.9309 Z-0.1731
X68.7472 Y8.9306 Z-0.1675
G0 Z0.4
X69.0953 Y6.9402
Z0.2
G1 Z0.1 F13.333
Z-0.1675
X69.0954 Y6.94 Z-0.1731 F40.
X69.0959 Y6.9392 Z-0.1786
X69.0967 Y6.9378 Z-0.184
X69.0977 Y6.9359 Z-0.1892
X69.0991 Y6.9336 Z-0.1941
X69.1007 Y6.9308 Z-0.1987
X69.1026 Y6.9275 Z-0.2029
X69.1046 Y6.9239 Z-0.2066
X69.1069 Y6.92 Z-0.2098
X69.1094 Y6.9157 Z-0.2125
X69.1119 Y6.9112 Z-0.2147
X69.1146 Y6.9065 Z-0.2162
X69.1174 Y6.9017 Z-0.2172
X69.1202 Y6.8969 Z-0.2175
X69.1276 Y6.8839
G3 X69.1461 Y6.9522 I-0.0249 J0.0434
G1 X69.0489 Y7.1213
G3 X69.0394 Y7.1188 I-0.0044 J-0.0025
G1 Y6.7834
G3 X69.0488 Y6.7803 I0.0052 J0.
G2 X69.1653 Y6.9101 I0.668 J-0.4826
G1 X69.1654 Y6.9102
G3 X69.1665 Y6.9167 I-0.0035 J0.0039
G1 X69.1461 Y6.9522
G3 X69.0778 Y6.9706 I-0.0434 J-0.0249
G1 X69.0853 Y6.9576
X69.0881 Y6.9528 Z-0.2172
X69.0908 Y6.948 Z-0.2162
X69.0935 Y6.9433 Z-0.2147
X69.0961 Y6.9388 Z-0.2125
X69.0985 Y6.9346 Z-0.2098
X69.1008 Y6.9306 Z-0.2066
X69.1029 Y6.927 Z-0.2029
X69.1047 Y6.9237 Z-0.1987
X69.1064 Y6.9209 Z-0.1941
X69.1077 Y6.9186 Z-0.1892
X69.1088 Y6.9167 Z-0.184
X69.1096 Y6.9154 Z-0.1786
X69.11 Y6.9146 Z-0.1731
X69.1102 Y6.9143 Z-0.1675
G0 Z0.4
X69.1402 Y5.6393
Z0.2
G1 Z0.1 F13.333
Z-0.1675
X69.1404 Y5.6391 Z-0.1731 F40.
X69.1412 Y5.6385 Z-0.1786
X69.1423 Y5.6375 Z-0.184
X69.144 Y5.6361 Z-0.1892
X69.146 Y5.6344 Z-0.1941
X69.1485 Y5.6323 Z-0.1987
X69.1514 Y5.6299 Z-0.2029
X69.1546 Y5.6272 Z-0.2066
X69.1581 Y5.6242 Z-0.2098
X69.1618 Y5.6211 Z-0.2125
X69.1658 Y5.6177 Z-0.2147
X69.1699 Y5.6142 Z-0.2162
X69.1741 Y5.6107 Z-0.2172
X69.1784 Y5.6071 Z-0.2175
X69.1898 Y5.5974
G3 X69.1839 Y5.6679 I-0.0382 J0.0323
G2 X69.0294 Y5.8415 I0.5321 J0.6293
G3 X69.0204 Y5.8402 I-0.0042 J-0.0028
G2 X68.8413 Y5.6226 I-0.3683 J0.1205
G3 X68.4551 Y5.2556 I0.5272 J-0.9416
X68.4585 Y5.2478 I0.0044 J-0.0028
G2 X68.7397 Y4.9915 I-0.0675 J-0.3565
G1 Y4.9914
G3 X68.7434 Y4.9879 I0.0049 J0.0014
G1 X68.7786 Y4.9804
G3 X68.7846 Y4.984 I0.0011 J0.0051
G2 X68.9596 Y5.1915 I0.3278 J-0.0989
G3 X68.9612 Y5.1928 I-0.0024 J0.0046
G1 X68.9614 Y5.193
G2 X69.2218 Y5.3184 I0.2648 J-0.217
G3 X69.2239 Y5.3189 I-0.0001 J0.0052
G2 X69.3362 Y5.3493 I0.1444 J-0.3104
G3 X69.3406 Y5.3533 I-0.0005 J0.005
G1 Y5.3534
X69.3808 Y5.5398
G3 X69.3778 Y5.5456 I-0.0052 J0.0011
G2 X69.1839 Y5.6679 I0.3383 J0.7515
G3 X69.1135 Y5.662 I-0.0323 J-0.0382
G1 X69.1249 Y5.6523
X69.1292 Y5.6487 Z-0.2172
X69.1334 Y5.6451 Z-0.2162
X69.1375 Y5.6416 Z-0.2147
X69.1414 Y5.6383 Z-0.2125
X69.1452 Y5.6351 Z-0.2098
X69.1487 Y5.6322 Z-0.2066
X69.1519 Y5.6295 Z-0.2029
X69.1547 Y5.6271 Z-0.1987
X69.1572 Y5.625 Z-0.1941
X69.1593 Y5.6232 Z-0.1892
X69.1609 Y5.6218 Z-0.184
X69.1621 Y5.6208 Z-0.1786
X69.1628 Y5.6202 Z-0.1731
X69.1631 Y5.62 Z-0.1675
G0 Z0.4
X70.2732 Y4.8774
Z0.2
G1 Z0.1 F13.333
Z-0.1675
X70.2729 Y4.8773 Z-0.1731 F40.
X70.272 Y4.8771 Z-0.1786
X70.2705 Y4.8768 Z-0.184
X70.2684 Y4.8763 Z-0.1892
X70.2658 Y4.8757 Z-0.1941
X70.2626 Y4.8751 Z-0.1987
X70.2589 Y4.8743 Z-0.2029
X70.2548 Y4.8734 Z-0.2066
X70.2504 Y4.8724 Z-0.2098
X70.2456 Y4.8714 Z-0.2125
X70.2405 Y4.8703 Z-0.2147
X70.2352 Y4.8691 Z-0.2162
X70.2298 Y4.868 Z-0.2172
X70.2244 Y4.8668 Z-0.2175
X70.2097 Y4.8636
G3 X70.2692 Y4.8253 I0.0489 J0.0106
G2 X70.4825 Y4.8069 I0.0768 J-0.3546
G3 X70.4879 Y4.8079 I0.002 J0.0047
G2 X70.5875 Y4.8743 I0.2621 J-0.2853
G1 X71.0907 Y5.1067
G3 X71.0912 Y5.1159 I-0.0022 J0.0047
G2 X70.9182 Y5.3534 I0.1817 J0.3141
G3 X70.9145 Y5.3573 I-0.0051 J-0.0011
G1 X70.9144
X70.501 Y5.4758
G3 X70.4961 Y5.4746 I-0.0014 J-0.0049
G2 X69.986 Y5.5146 I-0.2373 J0.2461
G3 X69.9802 Y5.5164 I-0.0041 J-0.0031
G2 X69.7155 Y5.4729 I-0.264 J0.7807
G3 X69.7106 Y5.469 I0.0001 J-0.005
G1 Y5.4688
X69.6704 Y5.2831
G3 X69.673 Y5.2774 I0.0052 J-0.0011
G2 X69.7755 Y5.1931 I-0.162 J-0.3016
X69.7758 Y5.1928 I-0.0578 J-0.0475
G3 X69.7774 Y5.1915 I0.004 J0.0032
G2 X69.9574 Y4.9658 I-0.1528 J-0.3065
G1 Y4.9657
G3 X69.9583 Y4.9639 I0.0048 J0.0012
G1 X69.9584 Y4.9637
G2 X70.0279 Y4.7163 I-0.2707 J-0.2096
G3 X70.032 Y4.7108 I0.0051 J-0.0005
G1 X70.0322 Y4.7107
X70.0644 Y4.7038
G3 X70.0693 Y4.7055 I0.001 J0.005
G2 X70.2692 Y4.8253 I0.2767 J-0.2348
G3 X70.3075 Y4.8848 I-0.0106 J0.0489
G1 X70.2928 Y4.8816
X70.2874 Y4.8804 Z-0.2172
X70.282 Y4.8793 Z-0.2162
X70.2767 Y4.8781 Z-0.2147
X70.2716 Y4.877 Z-0.2125
X70.2668 Y4.876 Z-0.2098
X70.2624 Y4.875 Z-0.2066
X70.2583 Y4.8741 Z-0.2029
X70.2546 Y4.8733 Z-0.1987
X70.2515 Y4.8727 Z-0.1941
X70.2488 Y4.8721 Z-0.1892
X70.2467 Y4.8716 Z-0.184
X70.2452 Y4.8713 Z-0.1786
X70.2443 Y4.8711 Z-0.1731
X70.244 Y4.871 Z-0.1675
G0 Z0.4
X70.3126 Y3.9881
Z0.2
G1 Z0.1 F13.333
Z-0.1675
G19 G2 Y3.9381 Z-0.2175 J-0.05 K0. F40.
G1 Y3.9232
G17 G3 X70.3626 Y3.9732 I0. J0.05
G1 Y4.1029
G3 X70.3573 Y4.108 I-0.0051 J0.
G2 X69.9974 Y4.3705 I-0.0112 J0.3627
G1 X69.9973 Y4.3706
G3 X69.9936 Y4.3741 I-0.0049 J-0.0014
G1 X69.9584 Y4.3816
G3 X69.9524 Y4.378 I-0.0011 J-0.0051
G2 X69.8644 Y4.2326 I-0.3278 J0.099
G3 X69.8637 Y4.226 I0.0038 J-0.0037
G1 X70.353 Y3.4692
G3 X70.3626 Y3.4719 I0.0044 J0.0028
G1 Y3.9732
G3 X70.3126 Y4.0232 I-0.05 J0.
G1 Y4.0082
G19 G2 Y3.9582 Z-0.1675 J0. K0.05
G0 Z0.4
X69.716 Y3.7412
Z0.2
G1 Z0.1 F13.333
Z-0.1675
X69.7161 Y3.741 Z-0.1731 F40.
X69.7167 Y3.7402 Z-0.1786
X69.7175 Y3.7389 Z-0.184
X69.7187 Y3.7371 Z-0.1892
X69.7201 Y3.7348 Z-0.1941
X69.7219 Y3.7321 Z-0.1987
X69.7239 Y3.7289 Z-0.2029
X69.7262 Y3.7254 Z-0.2066
X69.7287 Y3.7216 Z-0.2098
X69.7313 Y3.7175 Z-0.2125
X69.7342 Y3.7131 Z-0.2147
X69.7371 Y3.7086 Z-0.2162
X69.7401 Y3.7039 Z-0.2172
X69.7431 Y3.6992 Z-0.2175
X69.7513 Y3.6867
G17 G3 X69.7661 Y3.7558 I-0.0272 J0.042
G1 X69.5777 Y4.047
G3 X69.5726 Y4.0492 I-0.0042 J-0.0027
G2 X69.5152 Y4.0436 I-0.0618 J0.3367
G3 X69.5131 Y4.0431 I0.0001 J-0.0051
G2 X69.3377 Y4.0125 I-0.1445 J0.3104
G3 X69.3324 Y4.009 I-0.0005 J-0.005
G1 X69.1265 Y3.3605
G3 X69.1276 Y3.3554 I0.005 J-0.0015
G1 X69.1277 Y3.3553
G2 X69.1711 Y3.2962 I-0.2527 J-0.2307
G1 Y3.2961
G3 X69.1754 Y3.2936 I0.0043 J0.0025
G1 X70.0555
G3 X70.0599 Y3.3016 I0. J0.0052
G1 X69.7661 Y3.7558
G3 X69.6969 Y3.7706 I-0.042 J-0.0272
G1 X69.7051 Y3.7581
X69.7081 Y3.7534 Z-0.2172
X69.7111 Y3.7487 Z-0.2162
X69.714 Y3.7442 Z-0.2147
X69.7169 Y3.7399 Z-0.2125
X69.7195 Y3.7357 Z-0.2098
X69.722 Y3.7319 Z-0.2066
X69.7243 Y3.7284 Z-0.2029
X69.7263 Y3.7252 Z-0.1987
X69.7281 Y3.7225 Z-0.1941
X69.7295 Y3.7202 Z-0.1892
X69.7307 Y3.7184 Z-0.184
X69.7316 Y3.7171 Z-0.1786
X69.7321 Y3.7164 Z-0.1731
X69.7322 Y3.7161 Z-0.1675
G0 Z0.4
X69.2086 Y4.8738
Z0.2
G1 Z0.1 F13.333
Z-0.1675
X69.2088 Y4.874 Z-0.1731 F40.
X69.2096 Y4.8746 Z-0.1786
X69.2108 Y4.8755 Z-0.184
X69.2126 Y4.8768 Z-0.1892
X69.2148 Y4.8784 Z-0.1941
X69.2174 Y4.8803 Z-0.1987
X69.2204 Y4.8825 Z-0.2029
X69.2238 Y4.885 Z-0.2066
X69.2275 Y4.8877 Z-0.2098
X69.2314 Y4.8906 Z-0.2125
X69.2356 Y4.8936 Z-0.2147
X69.2399 Y4.8968 Z-0.2162
X69.2444 Y4.9001 Z-0.2172
X69.2489 Y4.9034 Z-0.2175
X69.261 Y4.9122
G3 X69.1911 Y4.923 I-0.0403 J-0.0296
G2 X69.1907 Y4.9227 I-0.0442 J0.0604
G3 X69.1715 Y4.9076 I0.1759 J-0.2433
G2 X69.1132 Y4.8903 I-0.0486 J0.0569
G3 X69.1076 Y4.8833 I-0.0007 J-0.0052
G2 X69.1036 Y4.8224 I-0.0702 J-0.026
G3 X69.0932 Y4.8005 I0.2657 J-0.1397
G2 X69.0476 Y4.7588 I-0.0688 J0.0294
G3 X69.0456 Y4.7501 I0.0016 J-0.0049
G2 X69.0685 Y4.6932 I-0.0519 J-0.0539
G3 Y4.6689 I0.3 J-0.0121
G2 X69.0456 Y4.6119 I-0.0748 J-0.003
G3 X69.0476 Y4.6033 I0.0036 J-0.0037
G2 X69.0932 Y4.5615 I-0.0232 J-0.0712
G3 X69.1036 Y4.5396 I0.276 J0.1179
G2 X69.1076 Y4.4788 I-0.0662 J-0.0348
G3 X69.1132 Y4.4717 I0.0049 J-0.0018
G2 X69.1715 Y4.4544 I0.0097 J-0.0742
G3 X69.1908 Y4.4392 I0.1953 J0.2279
G2 X69.2214 Y4.3854 I-0.0439 J-0.0606
G3 X69.2293 Y4.3816 I0.0051 J0.0005
G2 X69.2901 Y4.3913 I0.0412 J-0.0625
G3 X69.3138 Y4.3859 I0.0788 J0.2896
G2 X69.3642 Y4.3509 I-0.0138 J-0.0736
G3 X69.3729 I0.0043 J0.0026
G2 X69.4232 Y4.3859 I0.0641 J-0.0386
G3 X69.4469 Y4.3913 I-0.0552 J0.295
G2 X69.5077 Y4.3816 I0.0197 J-0.0722
G3 X69.5156 Y4.3854 I0.0028 J0.0043
G2 X69.5457 Y4.4388 I0.0745 J-0.0068
G3 X69.5646 Y4.454 I-0.1781 J0.2415
G2 X69.6238 Y4.4717 I0.0491 J-0.0565
G3 X69.6294 Y4.4787 I0.0007 J0.0052
G2 X69.6334 Y4.5396 I0.0702 J0.026
G3 X69.6438 Y4.5615 I-0.2656 J0.1397
G2 X69.6894 Y4.6033 I0.0688 J-0.0294
G3 X69.6914 Y4.6119 I-0.0016 J0.0049
G2 X69.6685 Y4.6689 I0.0519 J0.0539
G3 Y4.6932 I-0.3 J0.0121
G2 X69.6914 Y4.7501 I0.0748 J0.003
G3 X69.6894 Y4.7588 I-0.0036 J0.0037
G2 X69.6438 Y4.8005 I0.0232 J0.0712
G3 X69.6334 Y4.8224 I-0.2761 J-0.1179
G2 X69.6294 Y4.8833 I0.0662 J0.0348
G3 X69.6238 Y4.8903 I-0.0049 J0.0018
G2 X69.5647 Y4.908 I-0.01 J0.0742
G3 X69.5458 Y4.9231 I-0.1967 J-0.2266
G2 X69.5156 Y4.9766 I0.0444 J0.0603
G3 X69.5077 Y4.9804 I-0.0051 J-0.0005
G2 X69.4469 Y4.9707 I-0.0412 J0.0625
G3 X69.4232 Y4.9761 I-0.0789 J-0.2896
G2 X69.3729 Y5.0111 I0.0138 J0.0736
G3 X69.3642 I-0.0044 J-0.0026
G2 X69.3138 Y4.9761 I-0.0642 J0.0386
G3 X69.2901 Y4.9707 I0.0552 J-0.295
G2 X69.2293 Y4.9804 I-0.0197 J0.0722
G3 X69.2214 Y4.9766 I-0.0028 J-0.0043
G2 X69.1911 Y4.923 I-0.0745 J0.0068
G3 X69.1803 Y4.8531 I0.0296 J-0.0403
G1 X69.1924 Y4.862
X69.1969 Y4.8653 Z-0.2172
X69.2014 Y4.8686 Z-0.2162
X69.2057 Y4.8717 Z-0.2147
X69.2099 Y4.8748 Z-0.2125
X69.2139 Y4.8777 Z-0.2098
X69.2175 Y4.8804 Z-0.2066
X69.2209 Y4.8829 Z-0.2029
X69.2239 Y4.8851 Z-0.1987
X69.2265 Y4.887 Z-0.1941
X69.2287 Y4.8886 Z-0.1892
X69.2305 Y4.8899 Z-0.184
X69.2317 Y4.8908 Z-0.1786
X69.2325 Y4.8913 Z-0.1731
X69.2327 Y4.8915 Z-0.1675
G0 Z0.4
X68.9251 Y4.0057
Z0.2
G1 Z0.1 F13.333
Z-0.1675
X68.925 Y4.0054 Z-0.1731 F40.
X68.9247 Y4.0045 Z-0.1786
X68.9242 Y4.0031 Z-0.184
X68.9236 Y4.001 Z-0.1892
X68.9228 Y3.9984 Z-0.1941
X68.9218 Y3.9953 Z-0.1987
X68.9207 Y3.9918 Z-0.2029
X68.9194 Y3.9878 Z-0.2066
X68.918 Y3.9834 Z-0.2098
X68.9165 Y3.9787 Z-0.2125
X68.915 Y3.9738 Z-0.2147
X68.9133 Y3.9687 Z-0.2162
X68.9117 Y3.9634 Z-0.2172
X68.91 Y3.9581 Z-0.2175
X68.9054 Y3.9438
G3 X68.9682 Y3.9763 I0.0151 J0.0477
G1 X69.0121 Y4.1147
G3 X69.0104 Y4.1202 I-0.005 J0.0015
G1 X69.0103 Y4.1203
G2 X68.9614 Y4.1689 I0.2159 J0.2658
G1 X68.9612 Y4.1692
G3 X68.9596 Y4.1705 I-0.004 J-0.0033
G2 X68.7796 Y4.3962 I0.1528 J0.3065
G1 Y4.3963
G3 X68.7787 Y4.3982 I-0.0048 J-0.0012
G1 X68.7786 Y4.3983
G2 X68.7091 Y4.6457 I0.2707 J0.2096
G3 X68.705 Y4.6513 I-0.0051 J0.0005
G1 X68.7048
X68.6726 Y4.6582
G3 X68.6677 Y4.6565 I-0.001 J-0.005
G2 X68.3059 Y4.5385 I-0.2767 J0.2348
G3 X68.2997 Y4.5329 I-0.0011 J-0.0049
X68.4823 Y4.0653 I1.0688 J0.148
G1 X68.8292 Y3.5658
G3 X68.8385 Y3.5672 I0.0043 J0.003
G1 X68.9682 Y3.9763
G3 X68.9357 Y4.0391 I-0.0477 J0.0151
G1 X68.9311 Y4.0248
X68.9295 Y4.0195 Z-0.2172
X68.9278 Y4.0142 Z-0.2162
X68.9262 Y4.0091 Z-0.2147
X68.9246 Y4.0042 Z-0.2125
X68.9231 Y3.9995 Z-0.2098
X68.9217 Y3.9951 Z-0.2066
X68.9205 Y3.9911 Z-0.2029
X68.9193 Y3.9876 Z-0.1987
X68.9183 Y3.9845 Z-0.1941
X68.9175 Y3.9819 Z-0.1892
X68.9169 Y3.9799 Z-0.184
X68.9164 Y3.9784 Z-0.1786
X68.9161 Y3.9775 Z-0.1731
X68.916 Y3.9772 Z-0.1675
G0 Z0.4
X70.0781 Y2.1312
Z0.2
G1 Z0.1 F13.333
Z-0.1675
X70.0779 Y2.1309 Z-0.1731 F40.
X70.0773 Y2.1302 Z-0.1786
X70.0764 Y2.129 Z-0.184
X70.075 Y2.1273 Z-0.1892
X70.0733 Y2.1252 Z-0.1941
X70.0713 Y2.1227 Z-0.1987
X70.069 Y2.1198 Z-0.2029
X70.0664 Y2.1165 Z-0.2066
X70.0635 Y2.1129 Z-0.2098
X70.0604 Y2.1091 Z-0.2125
X70.0572 Y2.105 Z-0.2147
X70.0539 Y2.1008 Z-0.2162
X70.0504 Y2.0965 Z-0.2172
X70.0469 Y2.0921 Z-0.2175
X70.0376 Y2.0804
G3 X70.1078 Y2.0883 I0.0312 J0.0391
G2 X70.3576 Y2.2164 I0.2672 J-0.2134
G1 X70.3577
G3 X70.3626 Y2.2215 I-0.0003 J0.0051
G1 Y2.7784
G3 X70.3577 Y2.7836 I-0.0051 J0.
G1 X70.3576
G2 X70.0789 Y2.9538 I0.0173 J0.3416
G1 Y2.9539
G3 X70.0746 Y2.9564 I-0.0043 J-0.0025
G1 X69.1754
G3 X69.1711 Y2.9539 I0.0001 J-0.005
G1 Y2.9538
G2 X68.8924 Y2.7836 I-0.296 J0.1714
G1 X68.8923
G3 X68.8874 Y2.7785 I0.0003 J-0.0051
G1 Y2.2216
G3 X68.8923 Y2.2164 I0.0051 J0.
G1 X68.8924
G2 X69.2165 Y1.8923 I-0.0175 J-0.3415
G3 X69.2216 Y1.8874 I0.0052 J0.0002
G1 X70.0283
G3 X70.0335 Y1.8923 I0. J0.0052
G2 X70.1078 Y2.0883 I0.3416 J-0.0174
G3 X70.1 Y2.1586 I-0.0391 J0.0312
G1 X70.0906 Y2.1469
X70.0871 Y2.1425 Z-0.2172
X70.0837 Y2.1382 Z-0.2162
X70.0803 Y2.134 Z-0.2147
X70.0771 Y2.1299 Z-0.2125
X70.074 Y2.1261 Z-0.2098
X70.0712 Y2.1225 Z-0.2066
X70.0686 Y2.1192 Z-0.2029
X70.0662 Y2.1163 Z-0.1987
X70.0642 Y2.1138 Z-0.1941
X70.0625 Y2.1117 Z-0.1892
X70.0612 Y2.11 Z-0.184
X70.0602 Y2.1088 Z-0.1786
X70.0596 Y2.108 Z-0.1731
X70.0594 Y2.1078 Z-0.1675
G0 Z0.6
(2D SLOT CUT)
M7
G0 X67.3153 Y8.4001
Z0.6
Z0.2
G1 Z0.1152 F13.333
G19 G3 Y8.4151 Z0.1002 J0.015 K0. F40.
G1 Y8.4301
G17 G3 X67.3003 Y8.445 I-0.015 J0.
G1 X66.8126 Z0.0142
G2 X66.6126 Y8.6448 Z-0.0411 I-0.0001 J0.1999
G1 Y8.6449
Y8.8214 Z-0.0723
G19 G3 Y8.824 Z-0.0725 J0.0026 K0.0147
G1 Y10.7199 F30.
G17 G2 X66.8126 Y10.9197 I0.1999 J-0.0002
G1 X67.5673
X67.5674
G3 X67.6177 Y10.9699 I0. J0.0502
G1 Y13.675
G3 X67.5674 Y13.7251 I-0.0502 J-0.0001
G1 X67.5673
X66.8126
G2 X66.6126 Y13.9249 I-0.0001 J0.1999
G1 Y13.925
Y15.898
Y15.8981
G2 X66.8126 Y16.0978 I0.1999 J-0.0002
G1 X67.4299
G2 X67.4544 Y16.0963 I0. J-0.1999
G1 X73.4922 Y15.3511
G2 X73.6742 Y15.2788 I-0.0474 J-0.3844
G1 X74.0774 Y14.9826
X74.0775 Y14.9825
G2 X74.1975 Y14.8367 I-0.2301 J-0.3117
G1 X75.4101 Y12.2849
G2 X75.4421 Y11.7956 I-0.5995 J-0.2848
G1 X74.5775 Y9.1235
G3 X74.5793 Y8.5713 I0.8445 J-0.2733
G1 X74.8876 Y7.6403
Y7.6402
G3 X74.9221 Y7.5893 I0.107 J0.0353
G1 X75.1469 Y7.4011
G2 X75.1238 Y6.9816 I-0.1686 J-0.2011
G1 X74.0981 Y6.2994
G2 X74.0151 Y6.2679 I-0.1107 J0.1664
G1 X73.3028 Y6.1689
G3 X72.3575 Y5.3886 I0.1608 J-1.1576
G2 X72.2523 Y5.2716 I-0.1891 J0.0643
G1 X72.2522
X70.7291 Y4.5682
G3 X70.7 Y4.5227 I0.021 J-0.0454
G1 Y4.5226
Y1.75
Y1.7499
G2 X70.5 Y1.5501 I-0.2 J0.0002
G1 X68.75
X68.7499
G2 X68.5503 Y1.75 I0.0002 J0.1998
G1 Y3.3765
X68.2055 Y3.8729
G2 X68.6764 Y5.9168 I1.1631 J0.8082
G1 X68.6765 Y5.9169
G3 X68.7023 Y5.9606 I-0.0245 J0.0439
G1 Y8.3948
G3 X68.652 Y8.445 I-0.0503 J-0.0001
G1 X66.8126
G2 X66.6126 Y8.6448 I-0.0001 J0.1999
G1 Y8.6449
Y8.824
Y9.8031 Z-0.1375 F40.
Y9.9161
Y10.1017 F30.
Z-0.145 F13.333
Y10.7199 F30.
G2 X66.8126 Y10.9197 I0.1999 J-0.0002
G1 X67.5673
X67.5674
G3 X67.6177 Y10.9699 I0. J0.0502
G1 Y12.1638
Z-0.1375
Y12.9135
Z-0.145 F13.333
Y13.675 F30.
G3 X67.5674 Y13.7251 I-0.0502 J-0.0001
G1 X67.5673
X66.8126
G2 X66.6126 Y13.9249 I-0.0001 J0.1999
G1 Y13.925
Y14.6679
Z-0.1375
Y15.4176
Z-0.145 F13.333
Y15.898 F30.
Y15.8981
G2 X66.8126 Y16.0978 I0.1999 J-0.0002
G1 X67.4299
G2 X67.4544 Y16.0963 I0. J-0.1999
G1 X68.6883 Y15.944
Z-0.1375
X69.4324 Y15.8522
Z-0.145 F13.333
X71.8186 Y15.5577 F30.
Z-0.1375
X72.5627 Y15.4659
Z-0.145 F13.333
X73.4922 Y15.3511 F30.
G2 X73.6742 Y15.2788 I-0.0474 J-0.3844
G1 X74.0774 Y14.9826
X74.0775 Y14.9825
G2 X74.1975 Y14.8367 I-0.2301 J-0.3117
G1 X74.6937 Y13.7927
Z-0.1375
X75.0154 Y13.1156
Z-0.145 F13.333
X75.4101 Y12.2849 F30.
G2 X75.4421 Y11.7956 I-0.5995 J-0.2848
G1 X75.1041 Y10.751
Z-0.1375
X74.8733 Y10.0377
Z-0.145 F13.333
X74.5775 Y9.1235 F30.
G3 X74.5793 Y8.5713 I0.8445 J-0.2733
G1 X74.8876 Y7.6403
Y7.6402
G3 X74.9221 Y7.5893 I0.107 J0.0353
G1 X75.1469 Y7.4011
G2 X75.1238 Y6.9816 I-0.1686 J-0.2011
G1 X74.8976 Y6.8312
Z-0.1375
X74.2734 Y6.416
Z-0.145 F13.333
X74.0981 Y6.2994 F30.
G2 X74.0151 Y6.2679 I-0.1107 J0.1664
G1 X73.3028 Y6.1689
G3 X72.3575 Y5.3886 I0.1608 J-1.1576
G2 X72.2523 Y5.2716 I-0.1891 J0.0643
G1 X72.2522
X70.7291 Y4.5682
G3 X70.7 Y4.5227 I0.021 J-0.0454
G1 Y4.5226
Y3.6044
Z-0.1375
Y2.8547
Z-0.145 F13.333
Y1.75 F30.
Y1.7499
G2 X70.5 Y1.5501 I-0.2 J0.0002
G1 X68.75
X68.7499
G2 X68.5503 Y1.75 I0.0002 J0.1998
G1 Y2.0237
Z-0.1375
Y2.7734
Z-0.145 F13.333
Y3.3765 F30.
X68.2055 Y3.8729
G2 X68.6764 Y5.9168 I1.1631 J0.8082
G1 X68.6765 Y5.9169
G3 X68.7023 Y5.9606 I-0.0245 J0.0439
G1 Y6.7634
Z-0.1375
Y7.5131
Z-0.145 F13.333
Y8.3948 F30.
G3 X68.652 Y8.445 I-0.0503 J-0.0001
G1 X66.8126
G2 X66.6126 Y8.6448 I-0.0001 J0.1999
G1 Y8.6449
Y9.352
Z-0.1375
Y9.9161
Y10.1017 F40.
Z-0.1573 F13.333
Y10.7199 Z-0.1984 F40.
G2 X66.7868 Y10.9181 I0.1999 J-0.0002
G1 Z-0.2175 F13.333
G2 X66.8126 Y10.9197 I0.0257 J-0.1983 F30.
G1 X67.5673
X67.5674
G3 X67.6177 Y10.9699 I0. J0.0502
G1 Y12.1638
Z-0.1375
Y12.9135
Z-0.2175 F13.333
Y13.675 F30.
G3 X67.5674 Y13.7251 I-0.0502 J-0.0001
G1 X67.5673
X66.8126
G2 X66.6126 Y13.9249 I-0.0001 J0.1999
G1 Y13.925
Y14.6679
Z-0.1375
Y15.4176
Z-0.2175 F13.333
Y15.898 F30.
Y15.8981
G2 X66.8126 Y16.0978 I0.1999 J-0.0002
G1 X67.4299
G2 X67.4544 Y16.0963 I0. J-0.1999
G1 X68.6883 Y15.944
Z-0.1375
X69.4324 Y15.8522
Z-0.2175 F13.333
X71.8186 Y15.5577 F30.
Z-0.1375
X72.5627 Y15.4659
Z-0.2175 F13.333
X73.4922 Y15.3511 F30.
G2 X73.6742 Y15.2788 I-0.0474 J-0.3844
G1 X74.0774 Y14.9826
X74.0775 Y14.9825
G2 X74.1975 Y14.8367 I-0.2301 J-0.3117
G1 X74.6937 Y13.7927
Z-0.1375
X75.0154 Y13.1156
Z-0.2175 F13.333
X75.4101 Y12.2849 F30.
G2 X75.4421 Y11.7956 I-0.5995 J-0.2848
G1 X75.1041 Y10.751
Z-0.1375
X74.8733 Y10.0377
Z-0.2175 F13.333
X74.5775 Y9.1235 F30.
G3 X74.5793 Y8.5713 I0.8445 J-0.2733
G1 X74.8876 Y7.6403
Y7.6402
G3 X74.9221 Y7.5893 I0.107 J0.0353
G1 X75.1469 Y7.4011
G2 X75.1238 Y6.9816 I-0.1686 J-0.2011
G1 X74.8976 Y6.8312
Z-0.1375
X74.2734 Y6.416
Z-0.2175 F13.333
X74.0981 Y6.2994 F30.
G2 X74.0151 Y6.2679 I-0.1107 J0.1664
G1 X73.3028 Y6.1689
G3 X72.3575 Y5.3886 I0.1608 J-1.1576
G2 X72.2523 Y5.2716 I-0.1891 J0.0643
G1 X72.2522
X70.7291 Y4.5682
G3 X70.7 Y4.5227 I0.021 J-0.0454
G1 Y4.5226
Y3.6044
Z-0.1375
Y2.8547
Z-0.2175 F13.333
Y1.75 F30.
Y1.7499
G2 X70.5 Y1.5501 I-0.2 J0.0002
G1 X68.75
X68.7499
G2 X68.5503 Y1.75 I0.0002 J0.1998
G1 Y2.0237
Z-0.1375
Y2.7734
Z-0.2175 F13.333
Y3.3765 F30.
X68.2055 Y3.8729
G2 X68.6764 Y5.9168 I1.1631 J0.8082
G1 X68.6765 Y5.9169
G3 X68.7023 Y5.9606 I-0.0245 J0.0439
G1 Y6.7634
Z-0.1375
Y7.5131
Z-0.2175 F13.333
Y8.3948 F30.
G3 X68.652 Y8.445 I-0.0503 J-0.0001
G1 X66.8126
G2 X66.6126 Y8.6448 I-0.0001 J0.1999
G1 Y8.6449
Y9.352
Z-0.1375
Y10.1017
Z-0.2175 F13.333
Y10.7199 F30.
G2 X66.7868 Y10.9181 I0.1999 J-0.0002
G3 X66.7998 Y10.9348 I-0.0019 J0.0148
G1 X66.7978 Y10.9497
X66.7975 Y10.9526 Z-0.2172
X66.7971 Y10.9554 Z-0.2164
X66.7968 Y10.9579 Z-0.215
X66.7965 Y10.9602 Z-0.2131
X66.7962 Y10.962 Z-0.2108
X66.7961 Y10.9634 Z-0.2083
X66.796 Y10.9643 Z-0.2055
X66.7959 Y10.9645 Z-0.2025
G0 Z0.4
X69.7271 Y12.4259
Z0.2
G1 Z0.1152 F13.333
X69.7268 Y12.426 Z0.1123 F40.
X69.726 Y12.4262 Z0.1095
X69.7247 Y12.4265 Z0.1069
X69.7228 Y12.427 Z0.1046
X69.7206 Y12.4275 Z0.1028
X69.7181 Y12.4281 Z0.1014
X69.7154 Y12.4288 Z0.1005
X69.7126 Y12.4294 Z0.1002
X69.698 Y12.433
G3 X69.6799 Y12.4219 I-0.0035 J-0.0146
X69.6598 Y12.3274 Z0.0832 I1.7507 J-0.422
X69.7103 Y12.3181 Z0.069 I0.0252 J-0.0047
G2 X70.006 Y13.0152 Z-0.0656 I1.7203 J-0.3184
G3 X70.002 Y13.0494 Z-0.0723 I-0.0209 J0.0149
X70.001 Y13.0503 Z-0.0724 I-0.0169 J-0.0193
X69.9999 Y13.051 Z-0.0725 I-0.0159 J-0.0201
X69.9641 Y13.045 I-0.0149 J-0.0209 F30.
X69.6598 Y12.3274 I1.4665 J-1.0452
X69.7103 Y12.3181 I0.0252 J-0.0047
G2 X70.006 Y13.0152 I1.7203 J-0.3184
G3 X69.9999 Y13.051 I-0.0209 J0.0149
X69.9641 Y13.045 Z-0.0796 I-0.0149 J-0.0209 F40.
X69.7814 Y12.7231 Z-0.145 I1.4665 J-1.0452
X69.6598 Y12.3274 I1.6493 J-0.7232 F30.
X69.7103 Y12.3181 I0.0252 J-0.0047
G2 X70.006 Y13.0152 I1.7203 J-0.3184
G3 X69.9641 Y13.045 I-0.0209 J0.0149
X69.7814 Y12.7231 I1.4665 J-1.0452
X69.6605 Y12.331 Z-0.2175 I1.6493 J-0.7232 F40.
X69.6598 Y12.3274 I1.7702 J-0.3312 F30.
X69.7103 Y12.3181 I0.0252 J-0.0047
G2 X70.006 Y13.0152 I1.7203 J-0.3184
G3 X69.9641 Y13.045 I-0.0209 J0.0149
X69.6605 Y12.331 I1.4665 J-1.0452
X69.6725 Y12.3136 I0.0147 J-0.0028
G1 X69.6872 Y12.3108
X69.69 Y12.3103 Z-0.2172
X69.6928 Y12.3098 Z-0.2164
X69.6954 Y12.3093 Z-0.215
X69.6976 Y12.3089 Z-0.2131
X69.6994 Y12.3085 Z-0.2108
X69.7008 Y12.3083 Z-0.2083
X69.7016 Y12.3081 Z-0.2055
X69.7019 Z-0.2025
G0 Z0.4
X73.6926 Y13.3539
Z0.2
G1 Z0.1152 F13.333
X73.6924 Y13.3541 Z0.1123 F40.
X73.6919 Y13.3547 Z0.1095
X73.691 Y13.3558 Z0.1069
X73.6898 Y13.3572 Z0.1046
X73.6883 Y13.359 Z0.1028
X73.6867 Y13.3609 Z0.1014
X73.6849 Y13.3631 Z0.1005
X73.683 Y13.3653 Z0.1002
X73.6734 Y13.3768
G3 X73.6523 Y13.3786 I-0.0115 J-0.0096
X73.1331 Y12.6548 Z-0.0585 I1.1582 J-1.3788
X73.18 Y12.6337 Z-0.0723 I0.024 J-0.0093
X73.1806 Y12.6349 Z-0.0724 I-0.0229 J0.0117
X73.1811 Y12.6361 Z-0.0725 I-0.0235 J0.0106
G2 X73.7173 Y13.3656 I1.6296 J-0.6361 F30.
G3 X73.6853 Y13.4057 I-0.0161 J0.02
X73.1331 Y12.6548 I1.1252 J-1.4059
X73.1811 Y12.6361 I0.024 J-0.0093
G2 X73.374 Y12.9981 Z-0.145 I1.6296 J-0.6361 F40.
X73.7173 Y13.3656 I1.4367 J-0.9981 F30.
G3 X73.6853 Y13.4057 I-0.0161 J0.02
X73.1331 Y12.6548 I1.1252 J-1.4059
X73.1811 Y12.6361 I0.024 J-0.0093
G2 X73.374 Y12.9981 I1.6296 J-0.6361
X73.6459 Y13.3053 Z-0.2175 I1.4367 J-0.9981 F40.
X73.7173 Y13.3656 I1.1647 J-1.3052 F30.
G3 X73.6853 Y13.4057 I-0.0161 J0.02
X73.1331 Y12.6548 I1.1252 J-1.4059
X73.1811 Y12.6361 I0.024 J-0.0093
G2 X73.6459 Y13.3053 I1.6296 J-0.6361
G3 X73.6471 Y13.3264 I-0.01 J0.0112
G1 X73.6372 Y13.3376
X73.6352 Y13.3398 Z-0.2172
X73.6334 Y13.3418 Z-0.2164
X73.6316 Y13.3438 Z-0.215
X73.6301 Y13.3455 Z-0.2131
X73.6289 Y13.3469 Z-0.2108
X73.628 Y13.3479 Z-0.2083
X73.6274 Y13.3485 Z-0.2055
X73.6272 Y13.3487 Z-0.2025
G0 Z0.6
M9
G53 Z0.
M30
%
