%
(971-23-P-0059_INNER BEARING CLAMP_1563)
(T1  D=0.1563 CR=0. - ZMIN=-0.28 - FLAT END MILL)
G90 G94 G17 G91.1
G64 P0.001 Q0.001
G20
G53 G0 Z0.
(.3 CIRCLUAR THROUGH HOLE 2)
M9
T1 M6
S22000 M3
G4 P10.
G54
M7
G0 X-1.941 Y1.121
G43 Z0.6 H1
G0 Z0.0947
G1 Z0.0303 F40.
Y1.1288
G3 X-1.9461 Y1.134 I-0.0052 J0.
Y1.1133 Z0.0147 I0. J-0.0103
Y1.134 Z-0.0009 I0. J0.0103
Y1.1133 Z-0.0165 I0. J-0.0103
Y1.134 Z-0.0321 I0. J0.0103
Y1.1133 Z-0.0477 I0. J-0.0104
Y1.134 Z-0.0633 I0. J0.0104
Y1.1133 Z-0.0789 I0. J-0.0104
Y1.134 Z-0.0945 I0. J0.0104
Y1.1133 Z-0.1101 I0. J-0.0104
Y1.134 Z-0.1257 I0. J0.0104
Y1.1133 Z-0.1413 I0. J-0.0104
Y1.134 Z-0.1569 I0. J0.0104
Y1.1133 Z-0.1725 I0. J-0.0104
Y1.134 Z-0.1882 I0. J0.0104
Y1.1133 Z-0.2038 I0. J-0.0104
Y1.134 Z-0.2194 I0. J0.0104
Y1.1133 Z-0.235 I0. J-0.0104
Y1.134 Z-0.2506 I0. J0.0104
Y1.1133 Z-0.2662 I0. J-0.0104
X-1.9425 Y1.1333 Z-0.28 I0. J0.0104
X-1.9498 Y1.1139 I-0.0036 J-0.0097
X-1.9425 Y1.1333 I0.0036 J0.0097
X-1.9492 Y1.1303 I-0.0018 J-0.0048
G1 X-1.9519 Y1.1229
G0 Z0.4
X-1.1184 Y1.9435
Z0.0947
G1 Z0.0303 F40.
Y1.9513
G3 X-1.1236 Y1.9565 I-0.0052 J0.
Y1.9358 Z0.0147 I0. J-0.0103
Y1.9565 Z-0.0009 I0. J0.0103
Y1.9358 Z-0.0165 I0. J-0.0103
Y1.9565 Z-0.0321 I0. J0.0103
Y1.9358 Z-0.0477 I0. J-0.0103
Y1.9565 Z-0.0633 I0. J0.0103
Y1.9358 Z-0.0789 I0. J-0.0103
Y1.9565 Z-0.0945 I0. J0.0103
Y1.9358 Z-0.1101 I0. J-0.0103
Y1.9565 Z-0.1257 I0. J0.0103
Y1.9358 Z-0.1413 I0. J-0.0103
Y1.9565 Z-0.1569 I0. J0.0103
Y1.9358 Z-0.1725 I0. J-0.0103
Y1.9565 Z-0.1882 I0. J0.0103
Y1.9358 Z-0.2038 I0. J-0.0103
Y1.9565 Z-0.2194 I0. J0.0103
Y1.9358 Z-0.235 I0. J-0.0103
Y1.9565 Z-0.2506 I0. J0.0103
Y1.9358 Z-0.2662 I0. J-0.0103
X-1.12 Y1.9558 Z-0.28 I0. J0.0103
X-1.1272 Y1.9364 I-0.0036 J-0.0097
X-1.12 Y1.9558 I0.0036 J0.0097
X-1.1266 Y1.9528 I-0.0018 J-0.0048
G1 X-1.1294 Y1.9455
G0 Z0.4
X0.0052 Y2.2446
Z0.0947
G1 Z0.0303 F40.
Y2.2524
G3 X0. Y2.2576 I-0.0052 J0.
Y2.2369 Z0.0147 I0. J-0.0103
Y2.2576 Z-0.0009 I0. J0.0103
Y2.2369 Z-0.0165 I0. J-0.0103
Y2.2576 Z-0.0321 I0. J0.0103
Y2.2369 Z-0.0477 I0. J-0.0104
Y2.2576 Z-0.0633 I0. J0.0104
Y2.2369 Z-0.0789 I0. J-0.0104
Y2.2576 Z-0.0945 I0. J0.0104
Y2.2369 Z-0.1101 I0. J-0.0104
Y2.2576 Z-0.1257 I0. J0.0104
Y2.2369 Z-0.1413 I0. J-0.0104
Y2.2576 Z-0.1569 I0. J0.0104
Y2.2369 Z-0.1725 I0. J-0.0104
Y2.2576 Z-0.1882 I0. J0.0104
Y2.2369 Z-0.2038 I0. J-0.0104
Y2.2576 Z-0.2194 I0. J0.0104
Y2.2369 Z-0.235 I0. J-0.0104
Y2.2576 Z-0.2506 I0. J0.0104
Y2.2369 Z-0.2662 I0. J-0.0104
X0.0036 Y2.2569 Z-0.28 I0. J0.0104
X-0.0036 Y2.2375 I-0.0036 J-0.0097
X0.0036 Y2.2569 I0.0036 J0.0097
X-0.003 Y2.2539 I-0.0018 J-0.0048
G1 X-0.0058 Y2.2466
G0 Z0.4
X1.1288 Y1.9435
Z0.0947
G1 Z0.0303 F40.
Y1.9513
G3 X1.1236 Y1.9565 I-0.0052 J0.
Y1.9358 Z0.0147 I0. J-0.0103
Y1.9565 Z-0.0009 I0. J0.0103
Y1.9358 Z-0.0165 I0. J-0.0103
Y1.9565 Z-0.0321 I0. J0.0103
Y1.9358 Z-0.0477 I0. J-0.0103
Y1.9565 Z-0.0633 I0. J0.0103
Y1.9358 Z-0.0789 I0. J-0.0103
Y1.9565 Z-0.0945 I0. J0.0103
Y1.9358 Z-0.1101 I0. J-0.0103
Y1.9565 Z-0.1257 I0. J0.0103
Y1.9358 Z-0.1413 I0. J-0.0103
Y1.9565 Z-0.1569 I0. J0.0103
Y1.9358 Z-0.1725 I0. J-0.0103
Y1.9565 Z-0.1882 I0. J0.0103
Y1.9358 Z-0.2038 I0. J-0.0103
Y1.9565 Z-0.2194 I0. J0.0103
Y1.9358 Z-0.235 I0. J-0.0103
Y1.9565 Z-0.2506 I0. J0.0103
Y1.9358 Z-0.2662 I0. J-0.0103
X1.1272 Y1.9558 Z-0.28 I0. J0.0103
X1.12 Y1.9364 I-0.0036 J-0.0097
X1.1272 Y1.9558 I0.0036 J0.0097
X1.1206 Y1.9528 I-0.0018 J-0.0048
G1 X1.1178 Y1.9455
G0 Z0.4
X1.9513 Y1.121
Z0.0947
G1 Z0.0303 F40.
Y1.1288
G3 X1.9461 Y1.134 I-0.0052 J0.
Y1.1133 Z0.0147 I0. J-0.0103
Y1.134 Z-0.0009 I0. J0.0103
Y1.1133 Z-0.0165 I0. J-0.0103
Y1.134 Z-0.0321 I0. J0.0103
Y1.1133 Z-0.0477 I0. J-0.0103
Y1.134 Z-0.0633 I0. J0.0103
Y1.1133 Z-0.0789 I0. J-0.0103
Y1.134 Z-0.0945 I0. J0.0103
Y1.1133 Z-0.1101 I0. J-0.0103
Y1.134 Z-0.1257 I0. J0.0103
Y1.1133 Z-0.1413 I0. J-0.0103
Y1.134 Z-0.1569 I0. J0.0103
Y1.1133 Z-0.1725 I0. J-0.0103
Y1.134 Z-0.1882 I0. J0.0103
Y1.1133 Z-0.2038 I0. J-0.0103
Y1.134 Z-0.2194 I0. J0.0103
Y1.1133 Z-0.235 I0. J-0.0103
Y1.134 Z-0.2506 I0. J0.0103
Y1.1133 Z-0.2662 I0. J-0.0103
X1.9498 Y1.1333 Z-0.28 I0. J0.0103
X1.9425 Y1.1139 I-0.0036 J-0.0097
X1.9498 Y1.1333 I0.0036 J0.0097
X1.9431 Y1.1303 I-0.0018 J-0.0048
G1 X1.9404 Y1.1229
G0 Z0.4
X2.2524 Y-0.0026
Z0.0947
G1 Z0.0303 F40.
Y0.0052
G3 X2.2472 Y0.0104 I-0.0052 J0.
Y-0.0104 Z0.0147 I0. J-0.0104
Y0.0104 Z-0.0009 I0. J0.0104
Y-0.0104 Z-0.0165 I0. J-0.0104
Y0.0104 Z-0.0321 I0. J0.0104
Y-0.0104 Z-0.0477 I0. J-0.0104
Y0.0104 Z-0.0633 I0. J0.0104
Y-0.0104 Z-0.0789 I0. J-0.0104
Y0.0104 Z-0.0945 I0. J0.0104
Y-0.0104 Z-0.1101 I0. J-0.0104
Y0.0104 Z-0.1257 I0. J0.0104
Y-0.0104 Z-0.1413 I0. J-0.0104
Y0.0104 Z-0.1569 I0. J0.0104
Y-0.0104 Z-0.1725 I0. J-0.0104
Y0.0104 Z-0.1882 I0. J0.0104
Y-0.0104 Z-0.2038 I0. J-0.0104
Y0.0104 Z-0.2194 I0. J0.0104
Y-0.0104 Z-0.235 I0. J-0.0104
Y0.0104 Z-0.2506 I0. J0.0104
Y-0.0104 Z-0.2662 I0. J-0.0104
X2.2508 Y0.0097 Z-0.28 I0. J0.0104
X2.2436 Y-0.0097 I-0.0036 J-0.0097
X2.2508 Y0.0097 I0.0036 J0.0097
X2.2442 Y0.0067 I-0.0018 J-0.0048
G1 X2.2414 Y-0.0007
G0 Z0.4
X1.9513 Y-1.1262
Z0.0947
G1 Z0.0303 F40.
Y-1.1184
G3 X1.9461 Y-1.1133 I-0.0052 J0.
Y-1.134 Z0.0147 I0. J-0.0103
Y-1.1133 Z-0.0009 I0. J0.0103
Y-1.134 Z-0.0165 I0. J-0.0103
Y-1.1133 Z-0.0321 I0. J0.0103
Y-1.134 Z-0.0477 I0. J-0.0103
Y-1.1133 Z-0.0633 I0. J0.0103
Y-1.134 Z-0.0789 I0. J-0.0103
Y-1.1133 Z-0.0945 I0. J0.0103
Y-1.134 Z-0.1101 I0. J-0.0103
Y-1.1133 Z-0.1257 I0. J0.0103
Y-1.134 Z-0.1413 I0. J-0.0103
Y-1.1133 Z-0.1569 I0. J0.0103
Y-1.134 Z-0.1725 I0. J-0.0103
Y-1.1133 Z-0.1882 I0. J0.0103
Y-1.134 Z-0.2038 I0. J-0.0103
Y-1.1133 Z-0.2194 I0. J0.0103
Y-1.134 Z-0.235 I0. J-0.0103
Y-1.1133 Z-0.2506 I0. J0.0103
Y-1.134 Z-0.2662 I0. J-0.0103
X1.9498 Y-1.1139 Z-0.28 I0. J0.0103
X1.9425 Y-1.1333 I-0.0036 J-0.0097
X1.9498 Y-1.1139 I0.0036 J0.0097
X1.9431 Y-1.1169 I-0.0018 J-0.0048
G1 X1.9404 Y-1.1243
G0 Z0.4
X1.1288 Y-1.9488
Z0.0947
G1 Z0.0303 F40.
Y-1.941
G3 X1.1236 Y-1.9358 I-0.0052 J0.
Y-1.9565 Z0.0147 I0. J-0.0103
Y-1.9358 Z-0.0009 I0. J0.0103
Y-1.9565 Z-0.0165 I0. J-0.0103
Y-1.9358 Z-0.0321 I0. J0.0103
Y-1.9565 Z-0.0477 I0. J-0.0104
Y-1.9358 Z-0.0633 I0. J0.0104
Y-1.9565 Z-0.0789 I0. J-0.0104
Y-1.9358 Z-0.0945 I0. J0.0104
Y-1.9565 Z-0.1101 I0. J-0.0104
Y-1.9358 Z-0.1257 I0. J0.0104
Y-1.9565 Z-0.1413 I0. J-0.0104
Y-1.9358 Z-0.1569 I0. J0.0104
Y-1.9565 Z-0.1725 I0. J-0.0104
Y-1.9358 Z-0.1882 I0. J0.0104
Y-1.9565 Z-0.2038 I0. J-0.0104
Y-1.9358 Z-0.2194 I0. J0.0104
Y-1.9565 Z-0.235 I0. J-0.0104
Y-1.9358 Z-0.2506 I0. J0.0104
Y-1.9565 Z-0.2662 I0. J-0.0104
X1.1272 Y-1.9364 Z-0.28 I0. J0.0104
X1.12 Y-1.9558 I-0.0036 J-0.0097
X1.1272 Y-1.9364 I0.0036 J0.0097
X1.1206 Y-1.9395 I-0.0018 J-0.0048
G1 X1.1178 Y-1.9468
G0 Z0.4
X0.0052 Y-2.2498
Z0.0947
G1 Z0.0303 F40.
Y-2.242
G3 X0. Y-2.2369 I-0.0052 J0.
Y-2.2576 Z0.0147 I0. J-0.0103
Y-2.2369 Z-0.0009 I0. J0.0103
Y-2.2576 Z-0.0165 I0. J-0.0103
Y-2.2369 Z-0.0321 I0. J0.0103
Y-2.2576 Z-0.0477 I0. J-0.0103
Y-2.2369 Z-0.0633 I0. J0.0103
Y-2.2576 Z-0.0789 I0. J-0.0103
Y-2.2369 Z-0.0945 I0. J0.0103
Y-2.2576 Z-0.1101 I0. J-0.0103
Y-2.2369 Z-0.1257 I0. J0.0103
Y-2.2576 Z-0.1413 I0. J-0.0103
Y-2.2369 Z-0.1569 I0. J0.0103
Y-2.2576 Z-0.1725 I0. J-0.0103
Y-2.2369 Z-0.1882 I0. J0.0103
Y-2.2576 Z-0.2038 I0. J-0.0103
Y-2.2369 Z-0.2194 I0. J0.0103
Y-2.2576 Z-0.235 I0. J-0.0103
Y-2.2369 Z-0.2506 I0. J0.0103
Y-2.2576 Z-0.2662 I0. J-0.0103
X0.0036 Y-2.2375 Z-0.28 I0. J0.0103
X-0.0036 Y-2.2569 I-0.0036 J-0.0097
X0.0036 Y-2.2375 I0.0036 J0.0097
X-0.003 Y-2.2405 I-0.0018 J-0.0048
G1 X-0.0058 Y-2.2479
G0 Z0.4
X-1.1184 Y-1.9488
Z0.0947
G1 Z0.0303 F40.
Y-1.941
G3 X-1.1236 Y-1.9358 I-0.0052 J0.
Y-1.9565 Z0.0147 I0. J-0.0103
Y-1.9358 Z-0.0009 I0. J0.0103
Y-1.9565 Z-0.0165 I0. J-0.0103
Y-1.9358 Z-0.0321 I0. J0.0103
Y-1.9565 Z-0.0477 I0. J-0.0103
Y-1.9358 Z-0.0633 I0. J0.0103
Y-1.9565 Z-0.0789 I0. J-0.0103
Y-1.9358 Z-0.0945 I0. J0.0103
Y-1.9565 Z-0.1101 I0. J-0.0103
Y-1.9358 Z-0.1257 I0. J0.0103
Y-1.9565 Z-0.1413 I0. J-0.0103
Y-1.9358 Z-0.1569 I0. J0.0103
Y-1.9565 Z-0.1725 I0. J-0.0104
Y-1.9358 Z-0.1882 I0. J0.0104
Y-1.9565 Z-0.2038 I0. J-0.0104
Y-1.9358 Z-0.2194 I0. J0.0104
Y-1.9565 Z-0.235 I0. J-0.0104
Y-1.9358 Z-0.2506 I0. J0.0104
Y-1.9565 Z-0.2662 I0. J-0.0104
X-1.12 Y-1.9364 Z-0.28 I0. J0.0104
X-1.1272 Y-1.9558 I-0.0036 J-0.0097
X-1.12 Y-1.9364 I0.0036 J0.0097
X-1.1266 Y-1.9395 I-0.0018 J-0.0048
G1 X-1.1294 Y-1.9468
G0 Z0.4
X-1.941 Y-1.1262
Z0.0947
G1 Z0.0303 F40.
Y-1.1184
G3 X-1.9461 Y-1.1133 I-0.0052 J0.
Y-1.134 Z0.0147 I0. J-0.0103
Y-1.1133 Z-0.0009 I0. J0.0103
Y-1.134 Z-0.0165 I0. J-0.0103
Y-1.1133 Z-0.0321 I0. J0.0103
Y-1.134 Z-0.0477 I0. J-0.0103
Y-1.1133 Z-0.0633 I0. J0.0103
Y-1.134 Z-0.0789 I0. J-0.0103
Y-1.1133 Z-0.0945 I0. J0.0103
Y-1.134 Z-0.1101 I0. J-0.0103
Y-1.1133 Z-0.1257 I0. J0.0103
Y-1.134 Z-0.1413 I0. J-0.0103
Y-1.1133 Z-0.1569 I0. J0.0103
Y-1.134 Z-0.1725 I0. J-0.0103
Y-1.1133 Z-0.1882 I0. J0.0103
Y-1.134 Z-0.2038 I0. J-0.0103
Y-1.1133 Z-0.2194 I0. J0.0103
Y-1.134 Z-0.235 I0. J-0.0103
Y-1.1133 Z-0.2506 I0. J0.0103
Y-1.134 Z-0.2662 I0. J-0.0103
X-1.9425 Y-1.1139 Z-0.28 I0. J0.0103
X-1.9498 Y-1.1333 I-0.0036 J-0.0097
X-1.9425 Y-1.1139 I0.0036 J0.0097
X-1.9492 Y-1.1169 I-0.0018 J-0.0048
G1 X-1.9519 Y-1.1243
G0 Z0.4
X-2.242 Y-0.0026
Z0.0947
G1 Z0.0303 F40.
Y0.0052
G3 X-2.2472 Y0.0104 I-0.0052 J0.
Y-0.0103 Z0.0147 I0. J-0.0104
Y0.0103 Z-0.0009 I0. J0.0103
Y-0.0103 Z-0.0165 I0. J-0.0103
Y0.0103 Z-0.0321 I0. J0.0103
Y-0.0103 Z-0.0477 I0. J-0.0103
Y0.0103 Z-0.0633 I0. J0.0103
Y-0.0103 Z-0.0789 I0. J-0.0103
Y0.0103 Z-0.0945 I0. J0.0103
Y-0.0103 Z-0.1101 I0. J-0.0103
Y0.0103 Z-0.1257 I0. J0.0103
Y-0.0103 Z-0.1413 I0. J-0.0103
Y0.0103 Z-0.1569 I0. J0.0103
Y-0.0103 Z-0.1725 I0. J-0.0103
Y0.0103 Z-0.1882 I0. J0.0103
Y-0.0103 Z-0.2038 I0. J-0.0103
Y0.0103 Z-0.2194 I0. J0.0103
Y-0.0103 Z-0.235 I0. J-0.0103
Y0.0103 Z-0.2506 I0. J0.0103
Y-0.0103 Z-0.2662 I0. J-0.0103
X-2.2436 Y0.0097 Z-0.28 I0. J0.0103
X-2.2508 Y-0.0097 I-0.0036 J-0.0097
X-2.2436 Y0.0097 I0.0036 J0.0097
X-2.2502 Y0.0067 I-0.0018 J-0.0048
G1 X-2.253 Y-0.0007
G0 Z0.6
(2D SLOT CUT)
M7
G0 X2.1356 Y0.6998
Z0.6
Z0.2
G1 Z0.1159 F13.333
X2.1353 Y0.6997 Z0.1128 F40.
X2.1344 Y0.6995 Z0.1099
X2.133 Y0.699 Z0.1072
X2.1312 Y0.6984 Z0.1048
X2.1289 Y0.6977 Z0.1029
X2.1264 Y0.6969 Z0.1014
X2.1236 Y0.696 Z0.1005
X2.1207 Y0.6951 Z0.1002
X2.1058 Y0.6903
G3 X2.0957 Y0.6706 I0.0048 J-0.0149
G2 X2.2004 Y0.0027 Z-0.0194 I-2.0957 J-0.6706
Y0.0014 Z-0.0196 I-2.2004 J-0.0027
Y0. Z-0.0197 I-2.2004 J-0.0014
X-2.2004 I-2.2004 J0. F30.
X2.2004 I2.2004 J0.
G3 X2.216 Y-0.0156 I0.0156 J0.
G1 X2.2316
G18 G2 X2.2472 Z-0.0041 I0. K0.0156
G0 Z0.4
X-2.1442 Y0.6727
Z0.2
G1 Z0.1159 F13.333
X-2.1445 Y0.6728 Z0.1128 F40.
X-2.1453 Y0.6731 Z0.1099
X-2.1467 Y0.6735 Z0.1072
X-2.1485 Y0.6741 Z0.1048
X-2.1508 Y0.6748 Z0.1029
X-2.1534 Y0.6755 Z0.1014
X-2.1562 Y0.6764 Z0.1005
X-2.1591 Y0.6773 Z0.1002
X-2.1741 Y0.6819
G17 G3 X-2.1936 Y0.6715 I-0.0046 J-0.0149
X-2.2941 Y0.0027 Z-0.0194 I2.1936 J-0.6715
Y0.0014 Z-0.0196 I2.2941 J-0.0027
Y0. Z-0.0197 I2.2941 J-0.0014
X2.2941 I2.2941 J0. F30.
X-2.2941 I-2.2941 J0.
X-2.2784 Y-0.0156 I0.0156 J0.
G1 X-2.2628
G18 G2 X-2.2472 Z-0.0041 I0. K0.0156
G0 Z0.6
G17
(2D SLOT CUT 2)
M7
G0 X0.9188 Y1.6599
Z0.6
Z0.2
G1 Z0.1159 F13.333
X0.919 Y1.6602 Z0.1128 F40.
X0.9194 Y1.6609 Z0.1099
X0.9201 Y1.6622 Z0.1072
X0.921 Y1.6639 Z0.1048
X0.9221 Y1.666 Z0.1029
X0.9234 Y1.6684 Z0.1014
X0.9248 Y1.6709 Z0.1005
X0.9263 Y1.6736 Z0.1002
X0.9337 Y1.6874
G3 X0.9275 Y1.7086 I-0.0137 J0.0075
X0.0027 Y1.9441 Z-0.0698 I-0.9275 J-1.7086
X0.0014 Z-0.0699 I-0.0027 J-1.9441
X0. Z-0.07 I-0.0014 J-1.9441
Y-1.9441 I0. J-1.9441 F30.
Y1.9441 I0. J1.9441
X-0.3942 Y1.9037 Z-0.14 I0. J-1.9441 F40.
X0.3942 Y-1.9037 I0.3942 J-1.9037 F30.
X-0.3942 Y1.9037 I-0.3942 J1.9037
X-0.7721 Y1.7842 Z-0.21 I0.3942 J-1.9037 F40.
X0.7721 Y-1.7842 I0.7721 J-1.7842 F30.
X-0.7721 Y1.7842 I-0.7721 J1.7842
X-1.1179 Y1.5905 Z-0.28 I0.7721 J-1.7842 F40.
X1.1179 Y-1.5905 I1.1179 J-1.5905 F30.
X-1.1179 Y1.5905 I-1.1179 J1.5905
X-1.1217 Y1.5687 I0.009 J-0.0128
G1 X-1.1127 Y1.556
X-1.1109 Y1.5535 Z-0.2797
X-1.1092 Y1.5511 Z-0.2788
X-1.1077 Y1.5488 Z-0.2774
X-1.1063 Y1.5469 Z-0.2754
X-1.1052 Y1.5453 Z-0.2731
X-1.1044 Y1.5441 Z-0.2704
X-1.1039 Y1.5434 Z-0.2674
X-1.1037 Y1.5432 Z-0.2644
G0 Z0.4
X0.9752 Y-2.3629
Z0.2
G1 Z0.1159 F13.333
X0.9751 Y-2.3626 Z0.1128 F40.
X0.9747 Y-2.3618 Z0.1099
X0.9742 Y-2.3604 Z0.1072
X0.9735 Y-2.3586 Z0.1048
X0.9726 Y-2.3564 Z0.1029
X0.9716 Y-2.3539 Z0.1014
X0.9705 Y-2.3512 Z0.1005
X0.9693 Y-2.3484 Z0.1002
X0.9634 Y-2.3339
G3 X0.9431 Y-2.3253 I-0.0145 J-0.0059
G2 X0.0027 Y-2.5093 Z-0.0698 I-0.9431 J2.3253
X0.0014 Z-0.0699 I-0.0027 J2.5093
X0. Z-0.07 I-0.0014 J2.5093
Y2.5093 I0. J2.5093 F30.
Y-2.5093 I0. J-2.5093
X-0.3953 Y-2.4779 Z-0.14 I0. J2.5093 F40.
X0.3953 Y2.4779 I0.3953 J2.4779 F30.
X-0.3953 Y-2.4779 I-0.3953 J-2.4779
X-0.7808 Y-2.3847 Z-0.21 I0.3953 J2.4779 F40.
X-2.4685 Y-0.4503 I0.7808 J2.3847 F30.
G1 Z-0.2
G2 X-2.4906 Y0.3056 I2.4685 J0.4503
G1 Z-0.21 F13.333
G2 X-0.4622 Y2.4663 I2.4906 J-0.3056 F30.
G1 Z-0.2
G2 X0.2937 Y2.492 I0.4622 J-2.4663
G1 Z-0.21 F13.333
G2 X2.4514 Y0.5359 I-0.2937 J-2.492 F30.
G1 Z-0.2
G2 X2.4997 Y-0.2188 I-2.4514 J-0.5359
G1 Z-0.21 F13.333
G2 X1.0009 Y-2.301 I-2.4997 J0.2188 F30.
G1 Z-0.2
G2 X0.2699 Y-2.4947 I-1.0009 J2.301
G1 Z-0.21 F13.333
G2 X-0.7808 Y-2.3847 I-0.2699 J2.4947 F30.
X-1.1468 Y-2.2319 Z-0.28 I0.7808 J2.3847 F40.
X-2.4685 Y-0.4503 I1.1468 J2.2319 F30.
G1 Z-0.2
G2 X-2.4906 Y0.3056 I2.4685 J0.4503
G1 Z-0.28 F13.333
G2 X-0.4622 Y2.4663 I2.4906 J-0.3056 F30.
G1 Z-0.2
G2 X0.2937 Y2.492 I0.4622 J-2.4663
G1 Z-0.28 F13.333
G2 X2.4514 Y0.5359 I-0.2937 J-2.492 F30.
G1 Z-0.2
G2 X2.4997 Y-0.2188 I-2.4514 J-0.5359
G1 Z-0.28 F13.333
G2 X1.0009 Y-2.301 I-2.4997 J0.2188 F30.
G1 Z-0.2
G2 X0.2699 Y-2.4947 I-1.0009 J2.301
G1 Z-0.28 F13.333
G2 X-1.1468 Y-2.2319 I-0.2699 J2.4947 F30.
G3 X-1.1678 Y-2.2386 I-0.0071 J-0.0139
G1 X-1.1749 Y-2.2525
X-1.1763 Y-2.2553 Z-0.2797
X-1.1777 Y-2.2579 Z-0.2788
X-1.1789 Y-2.2603 Z-0.2774
X-1.18 Y-2.2624 Z-0.2754
X-1.1809 Y-2.2641 Z-0.2731
X-1.1815 Y-2.2654 Z-0.2704
X-1.1819 Y-2.2662 Z-0.2674
X-1.1821 Y-2.2664 Z-0.2644
G0 Z0.6
M9
G53 Z0.
M30
%
