%
(971-23-P-0045_ROLL BEARING CLAMP_CENTER)
(T1  D=0.1875 CR=0. TAPER=118DEG - ZMIN=-0.05 - CENTER DRILL)
G90 G94 G17 G91.1
G64 P0.001 Q0.001
G20
G53 G0 Z0.
(DRILL3 2)
M9
T1 M6
S13000 M3
G4 P10.
G54
M7
G0 X-1.5219 Y0.25
G43 Z0.6 H1
G0 Z0.2
G98 G83 X-1.5219 Y0.25 Z-0.05 R0.2 Q0.0469 F13.333
X-0.9983 Y1.1757
X0. Y1.5423
X0.9983 Y1.1757
X1.5219 Y0.25
G80
G0 Z0.6
M9
G53 Z0.
M30
%
