%
(971-23-P-0045_ROLL BEARING CLAMP_1523)
(T1  D=0.1523 CR=0. - ZMIN=-0.2175 - FLAT END MILL)
G90 G94 G17 G91.1
G64 P0.001 Q0.001
G20
G53 G0 Z0.
(2D SLOT CUT)
M9
T1 M6
S22000 M3
G4 P10.
G54
M7
G0 X-0.9673 Y1.5052
G43 Z0.6 H1
G0 Z0.2
G1 Z0.1155 F13.333
X-0.9671 Y1.505 Z0.1125 F40.
X-0.9666 Y1.5043 Z0.1096
X-0.9659 Y1.5031 Z0.107
X-0.9649 Y1.5015 Z0.1047
X-0.9636 Y1.4995 Z0.1028
X-0.9622 Y1.4973 Z0.1014
X-0.9607 Y1.4949 Z0.1005
X-0.9591 Y1.4924 Z0.1002
X-0.951 Y1.4795
G3 X-0.93 Y1.4747 I0.0129 J0.0081
G2 X-0.0026 Y1.7435 Z-0.0723 I0.93 J-1.4747
X-0.0013 Z-0.0724 I0.0026 J-1.7435
X0. Z-0.0725 I0.0013 J-1.7435
X1.7355 Y0.1669 I0. J-1.7435 F30.
X1.5601 Y-0.0262 I-0.1753 J-0.0169
G1 X1.4422
G2 X1.267 Y0.1318 I0. J0.1762
G3 X-1.267 I-1.267 J-0.1318
G2 X-1.4422 Y-0.0262 I-0.1752 J0.0182
G1 X-1.5601
G2 X-1.7355 Y0.1669 I0. J0.1761
X0. Y1.7435 I1.7355 J-0.1669
X0.4074 Y1.6952 I0. J-1.7435 F40.
G1 Z-0.1375 F13.333
G2 X0.5633 Y1.65 I-0.4074 J-1.6952 F30.
G1 Z-0.145 F13.333
G2 X1.403 Y1.035 I-0.5633 J-1.65 F30.
G1 Z-0.1375
G2 X1.7085 Y0.3475 I-1.403 J-1.035
G1 Z-0.145 F13.333
G2 X1.7355 Y0.1669 I-1.7085 J-0.3475 F30.
X1.5601 Y-0.0262 I-0.1753 J-0.0169
G1 X1.4422
G2 X1.267 Y0.1318 I0. J0.1762
G3 X-1.267 I-1.267 J-0.1318
G2 X-1.4422 Y-0.0262 I-0.1752 J0.0182
G1 X-1.5601
G2 X-1.7355 Y0.1669 I0. J0.1761
X-1.6524 Y0.556 I1.7355 J-0.1669
G1 Z-0.1375
G2 X-1.2643 Y1.2005 I1.6524 J-0.556
G1 Z-0.145 F13.333
G2 X-0.1843 Y1.7337 I1.2643 J-1.2005 F30.
G1 Z-0.1375
G2 X0.4074 Y1.6952 I0.1843 J-1.7337
X0.5633 Y1.65 I-0.4074 J-1.6952 F40.
G1 Z-0.1736 F13.333
G2 X0.7922 Y1.5531 I-0.5633 J-1.65 F40.
G1 Z-0.2175 F13.333
G2 X1.403 Y1.035 I-0.7922 J-1.5531 F30.
G1 Z-0.1375
G2 X1.7085 Y0.3475 I-1.403 J-1.035
G1 Z-0.2175 F13.333
G2 X1.7355 Y0.1669 I-1.7085 J-0.3475 F30.
X1.5601 Y-0.0262 I-0.1753 J-0.0169
G1 X1.4422
G2 X1.267 Y0.1318 I0. J0.1762
G3 X-1.267 I-1.267 J-0.1318
G2 X-1.4422 Y-0.0262 I-0.1752 J0.0182
G1 X-1.5601
G2 X-1.7355 Y0.1669 I0. J0.1761
X-1.6524 Y0.556 I1.7355 J-0.1669
G1 Z-0.1375
G2 X-1.2643 Y1.2005 I1.6524 J-0.556
G1 Z-0.2175 F13.333
G2 X-0.1843 Y1.7337 I1.2643 J-1.2005 F30.
G1 Z-0.1375
G2 X0.5633 Y1.65 I0.1843 J-1.7337
G1 Z-0.2175 F13.333
G2 X0.7922 Y1.5531 I-0.5633 J-1.65 F30.
G3 X0.8127 Y1.5598 I0.0069 J0.0136
G1 X0.8196 Y1.5733
X0.8209 Y1.576 Z-0.2172
X0.8222 Y1.5785 Z-0.2163
X0.8234 Y1.5809 Z-0.2149
X0.8245 Y1.5829 Z-0.213
X0.8253 Y1.5846 Z-0.2107
X0.826 Y1.5859 Z-0.2081
X0.8264 Y1.5866 Z-0.2052
X0.8265 Y1.5869 Z-0.2023
G0 Z0.6
M9
G53 Z0.
M30
%
