%
(_PART 4_1508)
(T1  D=0.1508 CR=0. - ZMIN=-0.3 - FLAT END MILL)
G90 G94 G17 G91.1
G64 P0.001 Q0.001
G20
G53 G0 Z0.
(SMALL HOLE BORE)
M9
T1 M6
S13000 M3
G4 P10.
G54
M7
G0 X-5.5101 Y1.9999
G43 Z0.6 H1
G0 Z0.13
G1 Z0.0651 F35.
G18 G2 X-5.495 Z0.05 I0.0151 K0.
G1 X-5.4874
G17 G3 X-5.4749 Y2.0125 I0. J0.0126
X-5.5251 Z0. I-0.0251 J0.
X-5.4749 Z-0.05 I0.0251 J0.
X-5.5251 Z-0.1 I-0.0251 J0.
X-5.4749 Z-0.15 I0.0251 J0.
X-5.5251 Z-0.2 I-0.0251 J0.
X-5.4749 Z-0.25 I0.0251 J0.
X-5.5251 Z-0.3 I-0.0251 J0.
X-5.4749 I0.0251 J0.
X-5.5251 I-0.0251 J0.
X-5.5125 Y1.9999 I0.0126 J0.
G1 X-5.505
G18 G2 X-5.4899 Z-0.2849 I0. K0.0151
G0 Z0.4
X-6.0101
Z0.13
G1 Z0.0651 F35.
G2 X-5.995 Z0.05 I0.0151 K0.
G1 X-5.9874
G17 G3 X-5.9749 Y2.0125 I0. J0.0126
X-6.0251 Z0. I-0.0251 J0.
X-6.0078 Y1.9886 Z-0.02 I0.0251 J0.
X-5.9922 Y2.0364 Z-0.07 I0.0078 J0.0239
X-6.0203 Y2.0273 Z-0.09 I-0.0078 J-0.0239
X-5.9797 Y1.9977 Z-0.14 I0.0203 J-0.0148
X-6.0203 Y2.0273 Z-0.19 I-0.0203 J0.0148
X-5.9797 Y1.9977 Z-0.24 I0.0203 J-0.0148
X-6.0203 Y2.0273 Z-0.29 I-0.0203 J0.0148
X-6.0251 Y2.0125 Z-0.3 I0.0203 J-0.0148
X-5.9749 I0.0251 J0.
X-6.0251 I-0.0251 J0.
X-6.0125 Y1.9999 I0.0126 J0.
G1 X-6.005
G18 G2 X-5.9899 Z-0.2849 I0. K0.0151
G0 Z0.4
X-6.5101
Z0.13
G1 Z0.0651 F35.
G2 X-6.495 Z0.05 I0.0151 K0.
G1 X-6.4875
G17 G3 X-6.4749 Y2.0125 I0. J0.0126
X-6.5251 Z0. I-0.0251 J0.
X-6.4749 Z-0.05 I0.0251 J0.
X-6.5251 Z-0.1 I-0.0251 J0.
X-6.4749 Z-0.15 I0.0251 J0.
X-6.4797 Y2.0273 Z-0.16 I-0.0251 J0.
X-6.5203 Y1.9977 Z-0.21 I-0.0203 J-0.0148
X-6.4922 Y1.9886 Z-0.23 I0.0203 J0.0148
X-6.5078 Y2.0364 Z-0.28 I-0.0078 J0.0239
X-6.5251 Y2.0125 Z-0.3 I0.0078 J-0.0239
X-6.4749 I0.0251 J0.
X-6.5251 I-0.0251 J0.
X-6.5126 Y1.9999 I0.0125 J0.
G1 X-6.505
G18 G2 X-6.4899 Z-0.2849 I0. K0.0151
G0 Z0.4
X-6.5101 Y1.4999
Z0.13
G1 Z0.0651 F35.
G2 X-6.495 Z0.05 I0.0151 K0.
G1 X-6.4875
G17 G3 X-6.4749 Y1.5125 I0. J0.0126
X-6.5251 Z0. I-0.0251 J0.
X-6.4749 Z-0.05 I0.0251 J0.
X-6.5251 Z-0.1 I-0.0251 J0.
X-6.4749 Z-0.15 I0.0251 J0.
X-6.4797 Y1.5273 Z-0.16 I-0.0251 J0.
X-6.5203 Y1.4977 Z-0.21 I-0.0203 J-0.0148
X-6.4922 Y1.4886 Z-0.23 I0.0203 J0.0148
X-6.5078 Y1.5364 Z-0.28 I-0.0078 J0.0239
X-6.5251 Y1.5125 Z-0.3 I0.0078 J-0.0239
X-6.4749 I0.0251 J0.
X-6.5251 I-0.0251 J0.
X-6.5126 Y1.4999 I0.0125 J0.
G1 X-6.505
G18 G2 X-6.4899 Z-0.2849 I0. K0.0151
G0 Z0.4
X-6.0101
Z0.13
G1 Z0.0651 F35.
G2 X-5.995 Z0.05 I0.0151 K0.
G1 X-5.9874
G17 G3 X-5.9749 Y1.5125 I0. J0.0126
X-6.0251 Z0. I-0.0251 J0.
X-6.0078 Y1.4886 Z-0.02 I0.0251 J0.
X-5.9922 Y1.5364 Z-0.07 I0.0078 J0.0239
X-6.0203 Y1.5273 Z-0.09 I-0.0078 J-0.0239
X-5.9797 Y1.4977 Z-0.14 I0.0203 J-0.0148
X-6.0203 Y1.5273 Z-0.19 I-0.0203 J0.0148
X-5.9797 Y1.4977 Z-0.24 I0.0203 J-0.0148
X-6.0203 Y1.5273 Z-0.29 I-0.0203 J0.0148
X-6.0251 Y1.5125 Z-0.3 I0.0203 J-0.0148
X-5.9749 I0.0251 J0.
X-6.0251 I-0.0251 J0.
X-6.0125 Y1.4999 I0.0126 J0.
G1 X-6.005
G18 G2 X-5.9899 Z-0.2849 I0. K0.0151
G0 Z0.4
X-5.5101
Z0.13
G1 Z0.0651 F35.
G2 X-5.495 Z0.05 I0.0151 K0.
G1 X-5.4874
G17 G3 X-5.4749 Y1.5125 I0. J0.0126
X-5.5251 Z0. I-0.0251 J0.
X-5.4749 Z-0.05 I0.0251 J0.
X-5.5251 Z-0.1 I-0.0251 J0.
X-5.4749 Z-0.15 I0.0251 J0.
X-5.5251 Z-0.2 I-0.0251 J0.
X-5.4749 Z-0.25 I0.0251 J0.
X-5.5251 Z-0.3 I-0.0251 J0.
X-5.4749 I0.0251 J0.
X-5.5251 I-0.0251 J0.
X-5.5125 Y1.4999 I0.0126 J0.
G1 X-5.505
G18 G2 X-5.4899 Z-0.2849 I0. K0.0151
G0 Z0.4
X-5.5101 Y0.9999
Z0.13
G1 Z0.0651 F35.
G2 X-5.495 Z0.05 I0.0151 K0.
G1 X-5.4874
G17 G3 X-5.4749 Y1.0125 I0. J0.0126
X-5.5251 Z0. I-0.0251 J0.
X-5.4749 Z-0.05 I0.0251 J0.
X-5.5251 Z-0.1 I-0.0251 J0.
X-5.4749 Z-0.15 I0.0251 J0.
X-5.5251 Z-0.2 I-0.0251 J0.
X-5.4749 Z-0.25 I0.0251 J0.
X-5.5251 Z-0.3 I-0.0251 J0.
X-5.4749 I0.0251 J0.
X-5.5251 I-0.0251 J0.
X-5.5125 Y0.9999 I0.0126 J0.
G1 X-5.505
G18 G2 X-5.4899 Z-0.2849 I0. K0.0151
G0 Z0.4
X-6.0101
Z0.13
G1 Z0.0651 F35.
G2 X-5.995 Z0.05 I0.0151 K0.
G1 X-5.9874
G17 G3 X-5.9749 Y1.0125 I0. J0.0126
X-6.0251 Z0. I-0.0251 J0.
X-6.0078 Y0.9886 Z-0.02 I0.0251 J0.
X-5.9922 Y1.0364 Z-0.07 I0.0078 J0.0239
X-6.0203 Y1.0273 Z-0.09 I-0.0078 J-0.0239
X-5.9797 Y0.9977 Z-0.14 I0.0203 J-0.0148
X-6.0203 Y1.0273 Z-0.19 I-0.0203 J0.0148
X-5.9797 Y0.9977 Z-0.24 I0.0203 J-0.0148
X-6.0203 Y1.0273 Z-0.29 I-0.0203 J0.0148
X-6.0251 Y1.0125 Z-0.3 I0.0203 J-0.0148
X-5.9749 I0.0251 J0.
X-6.0251 I-0.0251 J0.
X-6.0125 Y0.9999 I0.0126 J0.
G1 X-6.005
G18 G2 X-5.9899 Z-0.2849 I0. K0.0151
G0 Z0.4
X-6.5101
Z0.13
G1 Z0.0651 F35.
G2 X-6.495 Z0.05 I0.0151 K0.
G1 X-6.4875
G17 G3 X-6.4749 Y1.0125 I0. J0.0126
X-6.5251 Z0. I-0.0251 J0.
X-6.4749 Z-0.05 I0.0251 J0.
X-6.5251 Z-0.1 I-0.0251 J0.
X-6.4749 Z-0.15 I0.0251 J0.
X-6.4797 Y1.0273 Z-0.16 I-0.0251 J0.
X-6.5203 Y0.9977 Z-0.21 I-0.0203 J-0.0148
X-6.4922 Y0.9886 Z-0.23 I0.0203 J0.0148
X-6.5078 Y1.0364 Z-0.28 I-0.0078 J0.0239
X-6.5251 Y1.0125 Z-0.3 I0.0078 J-0.0239
X-6.4749 I0.0251 J0.
X-6.5251 I-0.0251 J0.
X-6.5126 Y0.9999 I0.0125 J0.
G1 X-6.505
G18 G2 X-6.4899 Z-0.2849 I0. K0.0151
G0 Z0.4
X-6.5101 Y0.5
Z0.13
G1 Z0.0651 F35.
G2 X-6.495 Z0.05 I0.0151 K0.
G1 X-6.4875
G17 G3 X-6.4749 Y0.5125 I0. J0.0125
X-6.5251 Z0. I-0.0251 J0.
X-6.4749 Z-0.05 I0.0251 J0.
X-6.5251 Z-0.1 I-0.0251 J0.
X-6.4749 Z-0.15 I0.0251 J0.
X-6.4797 Y0.5273 Z-0.16 I-0.0251 J0.
X-6.5203 Y0.4977 Z-0.21 I-0.0203 J-0.0148
X-6.4922 Y0.4886 Z-0.23 I0.0203 J0.0148
X-6.5078 Y0.5364 Z-0.28 I-0.0078 J0.0239
X-6.5251 Y0.5125 Z-0.3 I0.0078 J-0.0239
X-6.4749 I0.0251 J0.
X-6.5251 I-0.0251 J0.
X-6.5126 Y0.5 I0.0125 J0.
G1 X-6.505
G18 G2 X-6.4899 Z-0.2849 I0. K0.0151
G0 Z0.4
X-6.0101
Z0.13
G1 Z0.0651 F35.
G2 X-5.995 Z0.05 I0.0151 K0.
G1 X-5.9874
G17 G3 X-5.9749 Y0.5125 I0. J0.0125
X-6.0251 Z0. I-0.0251 J0.
X-6.0078 Y0.4886 Z-0.02 I0.0251 J0.
X-5.9922 Y0.5364 Z-0.07 I0.0078 J0.0239
X-6.0203 Y0.5273 Z-0.09 I-0.0078 J-0.0239
X-5.9797 Y0.4977 Z-0.14 I0.0203 J-0.0148
X-6.0203 Y0.5273 Z-0.19 I-0.0203 J0.0148
X-5.9797 Y0.4977 Z-0.24 I0.0203 J-0.0148
X-6.0203 Y0.5273 Z-0.29 I-0.0203 J0.0148
X-6.0251 Y0.5125 Z-0.3 I0.0203 J-0.0148
X-5.9749 I0.0251 J0.
X-6.0251 I-0.0251 J0.
X-6.0125 Y0.5 I0.0126 J0.
G1 X-6.005
G18 G2 X-5.9899 Z-0.2849 I0. K0.0151
G0 Z0.4
X-5.5101
Z0.13
G1 Z0.0651 F35.
G2 X-5.495 Z0.05 I0.0151 K0.
G1 X-5.4874
G17 G3 X-5.4749 Y0.5125 I0. J0.0125
X-5.5251 Z0. I-0.0251 J0.
X-5.4749 Z-0.05 I0.0251 J0.
X-5.5251 Z-0.1 I-0.0251 J0.
X-5.4749 Z-0.15 I0.0251 J0.
X-5.5251 Z-0.2 I-0.0251 J0.
X-5.4749 Z-0.25 I0.0251 J0.
X-5.5251 Z-0.3 I-0.0251 J0.
X-5.4749 I0.0251 J0.
X-5.5251 I-0.0251 J0.
X-5.5125 Y0.5 I0.0126 J0.
G1 X-5.505
G18 G2 X-5.4899 Z-0.2849 I0. K0.0151
G0 Z0.4
X-5.5101 Y-0.0001
Z0.13
G1 Z0.0651 F35.
G2 X-5.495 Z0.05 I0.0151 K0.
G1 X-5.4874
G17 G3 X-5.4749 Y0.0125 I0. J0.0125
X-5.5251 Z0. I-0.0251 J0.
X-5.4749 Z-0.05 I0.0251 J0.
X-5.5251 Z-0.1 I-0.0251 J0.
X-5.4749 Z-0.15 I0.0251 J0.
X-5.5251 Z-0.2 I-0.0251 J0.
X-5.4749 Z-0.25 I0.0251 J0.
X-5.5251 Z-0.3 I-0.0251 J0.
X-5.4749 I0.0251 J0.
X-5.5251 I-0.0251 J0.
X-5.5125 Y-0.0001 I0.0126 J0.
G1 X-5.505
G18 G2 X-5.4899 Z-0.2849 I0. K0.0151
G0 Z0.4
X-6.0101
Z0.13
G1 Z0.0651 F35.
G2 X-5.995 Z0.05 I0.0151 K0.
G1 X-5.9874
G17 G3 X-5.9749 Y0.0125 I0. J0.0125
X-6.0251 Z0. I-0.0251 J0.
X-6.0078 Y-0.0114 Z-0.02 I0.0251 J0.
X-5.9922 Y0.0364 Z-0.07 I0.0078 J0.0239
X-6.0203 Y0.0273 Z-0.09 I-0.0078 J-0.0239
X-5.9797 Y-0.0023 Z-0.14 I0.0203 J-0.0148
X-6.0203 Y0.0273 Z-0.19 I-0.0203 J0.0148
X-5.9797 Y-0.0023 Z-0.24 I0.0203 J-0.0148
X-6.0203 Y0.0273 Z-0.29 I-0.0203 J0.0148
X-6.0251 Y0.0125 Z-0.3 I0.0203 J-0.0148
X-5.9749 I0.0251 J0.
X-6.0251 I-0.0251 J0.
X-6.0125 Y-0.0001 I0.0126 J0.
G1 X-6.005
G18 G2 X-5.9899 Z-0.2849 I0. K0.0151
G0 Z0.4
X-6.5101 Y-0.0125
Z0.13
G1 Z0.0651 F35.
G2 X-6.495 Z0.05 I0.0151 K0.
G1 X-6.4875
G17 G3 X-6.4749 Y0. I0. J0.0125
X-6.5251 Z0. I-0.0251 J0.
X-6.4749 Z-0.05 I0.0251 J0.
X-6.5251 Z-0.1 I-0.0251 J0.
X-6.4749 Z-0.15 I0.0251 J0.
X-6.4797 Y0.0148 Z-0.16 I-0.0251 J0.
X-6.5203 Y-0.0148 Z-0.21 I-0.0203 J-0.0148
X-6.4922 Y-0.0239 Z-0.23 I0.0203 J0.0148
X-6.5078 Y0.0239 Z-0.28 I-0.0078 J0.0239
X-6.5251 Y0. Z-0.3 I0.0078 J-0.0239
X-6.4749 I0.0251 J0.
X-6.5251 I-0.0251 J0.
X-6.5126 Y-0.0125 I0.0125 J0.
G1 X-6.505
G18 G2 X-6.4899 Z-0.2849 I0. K0.0151
G0 Z0.4
X-6.5101 Y-0.5001
Z0.13
G1 Z0.0651 F35.
G2 X-6.495 Z0.05 I0.0151 K0.
G1 X-6.4875
G17 G3 X-6.4749 Y-0.4875 I0. J0.0126
X-6.5251 Z0. I-0.0251 J0.
X-6.4749 Z-0.05 I0.0251 J0.
X-6.5251 Z-0.1 I-0.0251 J0.
X-6.4749 Z-0.15 I0.0251 J0.
X-6.4797 Y-0.4727 Z-0.16 I-0.0251 J0.
X-6.5203 Y-0.5023 Z-0.21 I-0.0203 J-0.0148
X-6.4922 Y-0.5114 Z-0.23 I0.0203 J0.0148
X-6.5078 Y-0.4636 Z-0.28 I-0.0078 J0.0239
X-6.5251 Y-0.4875 Z-0.3 I0.0078 J-0.0239
X-6.4749 I0.0251 J0.
X-6.5251 I-0.0251 J0.
X-6.5126 Y-0.5001 I0.0125 J0.
G1 X-6.505
G18 G2 X-6.4899 Z-0.2849 I0. K0.0151
G0 Z0.4
X-6.0101
Z0.13
G1 Z0.0651 F35.
G2 X-5.995 Z0.05 I0.0151 K0.
G1 X-5.9874
G17 G3 X-5.9749 Y-0.4875 I0. J0.0126
X-6.0251 Z0. I-0.0251 J0.
X-6.0078 Y-0.5114 Z-0.02 I0.0251 J0.
X-5.9922 Y-0.4636 Z-0.07 I0.0078 J0.0239
X-6.0203 Y-0.4727 Z-0.09 I-0.0078 J-0.0239
X-5.9797 Y-0.5023 Z-0.14 I0.0203 J-0.0148
X-6.0203 Y-0.4727 Z-0.19 I-0.0203 J0.0148
X-5.9797 Y-0.5023 Z-0.24 I0.0203 J-0.0148
X-6.0203 Y-0.4727 Z-0.29 I-0.0203 J0.0148
X-6.0251 Y-0.4875 Z-0.3 I0.0203 J-0.0148
X-5.9749 I0.0251 J0.
X-6.0251 I-0.0251 J0.
X-6.0125 Y-0.5001 I0.0126 J0.
G1 X-6.005
G18 G2 X-5.9899 Z-0.2849 I0. K0.0151
G0 Z0.4
X-5.5101
Z0.13
G1 Z0.0651 F35.
G2 X-5.495 Z0.05 I0.0151 K0.
G1 X-5.4874
G17 G3 X-5.4749 Y-0.4875 I0. J0.0126
X-5.5251 Z0. I-0.0251 J0.
X-5.4749 Z-0.05 I0.0251 J0.
X-5.5251 Z-0.1 I-0.0251 J0.
X-5.4749 Z-0.15 I0.0251 J0.
X-5.5251 Z-0.2 I-0.0251 J0.
X-5.4749 Z-0.25 I0.0251 J0.
X-5.5251 Z-0.3 I-0.0251 J0.
X-5.4749 I0.0251 J0.
X-5.5251 I-0.0251 J0.
X-5.5125 Y-0.5001 I0.0126 J0.
G1 X-5.505
G18 G2 X-5.4899 Z-0.2849 I0. K0.0151
G0 Z0.4
X-5.5101 Y-1.
Z0.13
G1 Z0.0651 F35.
G2 X-5.495 Z0.05 I0.0151 K0.
G1 X-5.4874
G17 G3 X-5.4749 Y-0.9875 I0. J0.0125
X-5.5251 Z0. I-0.0251 J0.
X-5.4749 Z-0.05 I0.0251 J0.
X-5.5251 Z-0.1 I-0.0251 J0.
X-5.4749 Z-0.15 I0.0251 J0.
X-5.5251 Z-0.2 I-0.0251 J0.
X-5.4749 Z-0.25 I0.0251 J0.
X-5.5251 Z-0.3 I-0.0251 J0.
X-5.4749 I0.0251 J0.
X-5.5251 I-0.0251 J0.
X-5.5125 Y-1. I0.0126 J0.
G1 X-5.505
G18 G2 X-5.4899 Z-0.2849 I0. K0.0151
G0 Z0.4
X-6.0101
Z0.13
G1 Z0.0651 F35.
G2 X-5.995 Z0.05 I0.0151 K0.
G1 X-5.9874
G17 G3 X-5.9749 Y-0.9875 I0. J0.0125
X-6.0251 Z0. I-0.0251 J0.
X-6.0078 Y-1.0114 Z-0.02 I0.0251 J0.
X-5.9922 Y-0.9636 Z-0.07 I0.0078 J0.0239
X-6.0203 Y-0.9727 Z-0.09 I-0.0078 J-0.0239
X-5.9797 Y-1.0023 Z-0.14 I0.0203 J-0.0148
X-6.0203 Y-0.9727 Z-0.19 I-0.0203 J0.0148
X-5.9797 Y-1.0023 Z-0.24 I0.0203 J-0.0148
X-6.0203 Y-0.9727 Z-0.29 I-0.0203 J0.0148
X-6.0251 Y-0.9875 Z-0.3 I0.0203 J-0.0148
X-5.9749 I0.0251 J0.
X-6.0251 I-0.0251 J0.
X-6.0125 Y-1. I0.0126 J0.
G1 X-6.005
G18 G2 X-5.9899 Z-0.2849 I0. K0.0151
G0 Z0.4
X-6.5101
Z0.13
G1 Z0.0651 F35.
G2 X-6.495 Z0.05 I0.0151 K0.
G1 X-6.4875
G17 G3 X-6.4749 Y-0.9875 I0. J0.0125
X-6.5251 Z0. I-0.0251 J0.
X-6.4749 Z-0.05 I0.0251 J0.
X-6.5251 Z-0.1 I-0.0251 J0.
X-6.4749 Z-0.15 I0.0251 J0.
X-6.4797 Y-0.9727 Z-0.16 I-0.0251 J0.
X-6.5203 Y-1.0023 Z-0.21 I-0.0203 J-0.0148
X-6.4922 Y-1.0114 Z-0.23 I0.0203 J0.0148
X-6.5078 Y-0.9636 Z-0.28 I-0.0078 J0.0239
X-6.5251 Y-0.9875 Z-0.3 I0.0078 J-0.0239
X-6.4749 I0.0251 J0.
X-6.5251 I-0.0251 J0.
X-6.5126 Y-1. I0.0125 J0.
G1 X-6.505
G18 G2 X-6.4899 Z-0.2849 I0. K0.0151
G0 Z0.4
X-7.2001 Y-1.7701
Z0.1149
G1 Z0.05 F35.
X-7.2017 Y-1.7684
G17 G3 X-7.2034 Y-1.7701 I0. J-0.0017
X-7.1967 Z0. I0.0033 J0.
X-7.199 Y-1.7669 Z-0.02 I-0.0033 J0.
X-7.2011 Y-1.7733 Z-0.07 I-0.001 J-0.0032
X-7.199 Y-1.7669 Z-0.12 I0.001 J0.0032
X-7.2028 Y-1.7721 Z-0.16 I-0.001 J-0.0032
X-7.1974 Y-1.7681 Z-0.21 I0.0027 J0.002
X-7.2011 Y-1.7669 Z-0.23 I-0.0027 J-0.002
X-7.199 Y-1.7733 Z-0.28 I0.001 J-0.0032
X-7.1967 Y-1.7701 Z-0.3 I-0.001 J0.0032
X-7.2034 I-0.0033 J0.
X-7.1967 I0.0033 J0.
X-7.1984 Y-1.7684 I-0.0017 J0.
G1 X-7.2001 Y-1.7701
G0 Z0.4
X-6.5101 Y-2.5001
Z0.13
G1 Z0.0651 F35.
G18 G2 X-6.495 Z0.05 I0.0151 K0.
G1 X-6.4875
G17 G3 X-6.4749 Y-2.4875 I0. J0.0126
X-6.5251 Z0. I-0.0251 J0.
X-6.4749 Z-0.05 I0.0251 J0.
X-6.5251 Z-0.1 I-0.0251 J0.
X-6.4749 Z-0.15 I0.0251 J0.
X-6.4797 Y-2.4727 Z-0.16 I-0.0251 J0.
X-6.5203 Y-2.5023 Z-0.21 I-0.0203 J-0.0148
X-6.4922 Y-2.5114 Z-0.23 I0.0203 J0.0148
X-6.5078 Y-2.4636 Z-0.28 I-0.0078 J0.0239
X-6.5251 Y-2.4875 Z-0.3 I0.0078 J-0.0239
X-6.4749 I0.0251 J0.
X-6.5251 I-0.0251 J0.
X-6.5126 Y-2.5001 I0.0125 J0.
G1 X-6.505
G18 G2 X-6.4899 Z-0.2849 I0. K0.0151
G0 Z0.4
X-6.0101
Z0.13
G1 Z0.0651 F35.
G2 X-5.995 Z0.05 I0.0151 K0.
G1 X-5.9874
G17 G3 X-5.9749 Y-2.4875 I0. J0.0126
X-6.0251 Z0. I-0.0251 J0.
X-6.0078 Y-2.5114 Z-0.02 I0.0251 J0.
X-5.9922 Y-2.4636 Z-0.07 I0.0078 J0.0239
X-6.0203 Y-2.4727 Z-0.09 I-0.0078 J-0.0239
X-5.9797 Y-2.5023 Z-0.14 I0.0203 J-0.0148
X-6.0203 Y-2.4727 Z-0.19 I-0.0203 J0.0148
X-5.9797 Y-2.5023 Z-0.24 I0.0203 J-0.0148
X-6.0203 Y-2.4727 Z-0.29 I-0.0203 J0.0148
X-6.0251 Y-2.4875 Z-0.3 I0.0203 J-0.0148
X-5.9749 I0.0251 J0.
X-6.0251 I-0.0251 J0.
X-6.0125 Y-2.5001 I0.0126 J0.
G1 X-6.005
G18 G2 X-5.9899 Z-0.2849 I0. K0.0151
G0 Z0.4
X-5.5101
Z0.13
G1 Z0.0651 F35.
G2 X-5.495 Z0.05 I0.0151 K0.
G1 X-5.4874
G17 G3 X-5.4749 Y-2.4875 I0. J0.0126
X-5.5251 Z0. I-0.0251 J0.
X-5.4749 Z-0.05 I0.0251 J0.
X-5.5251 Z-0.1 I-0.0251 J0.
X-5.4749 Z-0.15 I0.0251 J0.
X-5.5251 Z-0.2 I-0.0251 J0.
X-5.4749 Z-0.25 I0.0251 J0.
X-5.5251 Z-0.3 I-0.0251 J0.
X-5.4749 I0.0251 J0.
X-5.5251 I-0.0251 J0.
X-5.5125 Y-2.5001 I0.0126 J0.
G1 X-5.505
G18 G2 X-5.4899 Z-0.2849 I0. K0.0151
G0 Z0.4
X-5.5101 Y-2.
Z0.13
G1 Z0.0651 F35.
G2 X-5.495 Z0.05 I0.0151 K0.
G1 X-5.4874
G17 G3 X-5.4749 Y-1.9875 I0. J0.0126
X-5.5251 Z0. I-0.0251 J0.
X-5.4749 Z-0.05 I0.0251 J0.
X-5.5251 Z-0.1 I-0.0251 J0.
X-5.4749 Z-0.15 I0.0251 J0.
X-5.5251 Z-0.2 I-0.0251 J0.
X-5.4749 Z-0.25 I0.0251 J0.
X-5.5251 Z-0.3 I-0.0251 J0.
X-5.4749 I0.0251 J0.
X-5.5251 I-0.0251 J0.
X-5.5125 Y-2. I0.0126 J0.
G1 X-5.505
G18 G2 X-5.4899 Z-0.2849 I0. K0.0151
G0 Z0.4
X-6.0101
Z0.13
G1 Z0.0651 F35.
G2 X-5.995 Z0.05 I0.0151 K0.
G1 X-5.9874
G17 G3 X-5.9749 Y-1.9875 I0. J0.0126
X-6.0251 Z0. I-0.0251 J0.
X-6.0078 Y-2.0114 Z-0.02 I0.0251 J0.
X-5.9922 Y-1.9636 Z-0.07 I0.0078 J0.0239
X-6.0203 Y-1.9727 Z-0.09 I-0.0078 J-0.0239
X-5.9797 Y-2.0023 Z-0.14 I0.0203 J-0.0148
X-6.0203 Y-1.9727 Z-0.19 I-0.0203 J0.0148
X-5.9797 Y-2.0023 Z-0.24 I0.0203 J-0.0148
X-6.0203 Y-1.9727 Z-0.29 I-0.0203 J0.0148
X-6.0251 Y-1.9875 Z-0.3 I0.0203 J-0.0148
X-5.9749 I0.0251 J0.
X-6.0251 I-0.0251 J0.
X-6.0125 Y-2. I0.0126 J0.
G1 X-6.005
G18 G2 X-5.9899 Z-0.2849 I0. K0.0151
G0 Z0.4
X-6.5101
Z0.13
G1 Z0.0651 F35.
G2 X-6.495 Z0.05 I0.0151 K0.
G1 X-6.4875
G17 G3 X-6.4749 Y-1.9875 I0. J0.0126
X-6.5251 Z0. I-0.0251 J0.
X-6.4749 Z-0.05 I0.0251 J0.
X-6.5251 Z-0.1 I-0.0251 J0.
X-6.4749 Z-0.15 I0.0251 J0.
X-6.4797 Y-1.9727 Z-0.16 I-0.0251 J0.
X-6.5203 Y-2.0023 Z-0.21 I-0.0203 J-0.0148
X-6.4922 Y-2.0114 Z-0.23 I0.0203 J0.0148
X-6.5078 Y-1.9636 Z-0.28 I-0.0078 J0.0239
X-6.5251 Y-1.9875 Z-0.3 I0.0078 J-0.0239
X-6.4749 I0.0251 J0.
X-6.5251 I-0.0251 J0.
X-6.5126 Y-2. I0.0125 J0.
G1 X-6.505
G18 G2 X-6.4899 Z-0.2849 I0. K0.0151
G0 Z0.4
X-6.5101 Y-1.5
Z0.13
G1 Z0.0651 F35.
G2 X-6.495 Z0.05 I0.0151 K0.
G1 X-6.4875
G17 G3 X-6.4749 Y-1.4875 I0. J0.0125
X-6.5251 Z0. I-0.0251 J0.
X-6.4749 Z-0.05 I0.0251 J0.
X-6.5251 Z-0.1 I-0.0251 J0.
X-6.4749 Z-0.15 I0.0251 J0.
X-6.4797 Y-1.4727 Z-0.16 I-0.0251 J0.
X-6.5203 Y-1.5023 Z-0.21 I-0.0203 J-0.0148
X-6.4922 Y-1.5114 Z-0.23 I0.0203 J0.0148
X-6.5078 Y-1.4636 Z-0.28 I-0.0078 J0.0239
X-6.5251 Y-1.4875 Z-0.3 I0.0078 J-0.0239
X-6.4749 I0.0251 J0.
X-6.5251 I-0.0251 J0.
X-6.5126 Y-1.5 I0.0125 J0.
G1 X-6.505
G18 G2 X-6.4899 Z-0.2849 I0. K0.0151
G0 Z0.4
X-6.0101
Z0.13
G1 Z0.0651 F35.
G2 X-5.995 Z0.05 I0.0151 K0.
G1 X-5.9874
G17 G3 X-5.9749 Y-1.4875 I0. J0.0125
X-6.0251 Z0. I-0.0251 J0.
X-6.0078 Y-1.5114 Z-0.02 I0.0251 J0.
X-5.9922 Y-1.4636 Z-0.07 I0.0078 J0.0239
X-6.0203 Y-1.4727 Z-0.09 I-0.0078 J-0.0239
X-5.9797 Y-1.5023 Z-0.14 I0.0203 J-0.0148
X-6.0203 Y-1.4727 Z-0.19 I-0.0203 J0.0148
X-5.9797 Y-1.5023 Z-0.24 I0.0203 J-0.0148
X-6.0203 Y-1.4727 Z-0.29 I-0.0203 J0.0148
X-6.0251 Y-1.4875 Z-0.3 I0.0203 J-0.0148
X-5.9749 I0.0251 J0.
X-6.0251 I-0.0251 J0.
X-6.0125 Y-1.5 I0.0126 J0.
G1 X-6.005
G18 G2 X-5.9899 Z-0.2849 I0. K0.0151
G0 Z0.4
X-5.5101
Z0.13
G1 Z0.0651 F35.
G2 X-5.495 Z0.05 I0.0151 K0.
G1 X-5.4874
G17 G3 X-5.4749 Y-1.4875 I0. J0.0125
X-5.5251 Z0. I-0.0251 J0.
X-5.4749 Z-0.05 I0.0251 J0.
X-5.5251 Z-0.1 I-0.0251 J0.
X-5.4749 Z-0.15 I0.0251 J0.
X-5.5251 Z-0.2 I-0.0251 J0.
X-5.4749 Z-0.25 I0.0251 J0.
X-5.5251 Z-0.3 I-0.0251 J0.
X-5.4749 I0.0251 J0.
X-5.5251 I-0.0251 J0.
X-5.5125 Y-1.5 I0.0126 J0.
G1 X-5.505
G18 G2 X-5.4899 Z-0.2849 I0. K0.0151
G0 Z0.4
X-7.5153 Y-3.1487
Z0.1149
G1 Z0.05 F35.
X-7.5136 Y-3.1504
G17 G3 X-7.512 Y-3.1487 I0. J0.0017
X-7.5187 Z0. I-0.0033 J0.
X-7.5163 Y-3.1519 Z-0.02 I0.0033 J0.
X-7.5143 Y-3.1455 Z-0.07 I0.001 J0.0032
X-7.518 Y-3.1468 Z-0.09 I-0.001 J-0.0032
X-7.5126 Y-3.1507 Z-0.14 I0.0027 J-0.002
Y-3.1468 Z-0.16 I-0.0027 J0.002
X-7.518 Y-3.1507 Z-0.21 I-0.0027 J-0.002
X-7.5143 Y-3.1519 Z-0.23 I0.0027 J0.002
X-7.5163 Y-3.1455 Z-0.28 I-0.001 J0.0032
X-7.5187 Y-3.1487 Z-0.3 I0.001 J-0.0032
X-7.512 I0.0033 J0.
X-7.5187 I-0.0033 J0.
X-7.517 Y-3.1504 I0.0017 J0.
G1 X-7.5153 Y-3.1487
G0 Z0.4
X-8.8939 Y-2.8335
Z0.1149
G1 Z0.05 F35.
X-8.8956 Y-2.8318
G3 X-8.8973 Y-2.8335 I0. J-0.0017
X-8.8906 Z0. I0.0033 J0.
X-8.8929 Y-2.8303 Z-0.02 I-0.0033 J0.
X-8.895 Y-2.8366 Z-0.07 I-0.001 J-0.0032
X-8.8912 Y-2.8354 Z-0.09 I0.001 J0.0032
X-8.8966 Y-2.8315 Z-0.14 I-0.0027 J0.002
Y-2.8354 Z-0.16 I0.0027 J-0.002
X-8.8912 Y-2.8315 Z-0.21 I0.0027 J0.002
X-8.895 Y-2.8303 Z-0.23 I-0.0027 J-0.002
X-8.8929 Y-2.8366 Z-0.28 I0.001 J-0.0032
X-8.8906 Y-2.8335 Z-0.3 I-0.001 J0.0032
X-8.8973 I-0.0033 J0.
X-8.8906 I0.0033 J0.
X-8.8923 Y-2.8318 I-0.0017 J0.
G1 X-8.8939 Y-2.8335
G0 Z0.4
X-8.5787 Y-1.4548
Z0.1149
G1 Z0.05 F35.
X-8.5804 Y-1.4532
G3 X-8.582 Y-1.4548 I0. J-0.0017
X-8.5753 Z0. I0.0033 J0.
X-8.5777 Y-1.4517 Z-0.02 I-0.0033 J0.
X-8.5797 Y-1.458 Z-0.07 I-0.001 J-0.0032
X-8.576 Y-1.4568 Z-0.09 I0.001 J0.0032
X-8.5814 Y-1.4529 Z-0.14 I-0.0027 J0.002
Y-1.4568 Z-0.16 I0.0027 J-0.002
X-8.576 Y-1.4529 Z-0.21 I0.0027 J0.002
X-8.5797 Y-1.4517 Z-0.23 I-0.0027 J-0.002
X-8.5777 Y-1.458 Z-0.28 I0.001 J-0.0032
X-8.5753 Y-1.4548 Z-0.3 I-0.001 J0.0032
X-8.582 I-0.0033 J0.
X-8.5753 I0.0033 J0.
X-8.577 Y-1.4532 I-0.0017 J0.
G1 X-8.5787 Y-1.4548
G0 Z0.4
X-5.4351 Y-5.
Z0.13
G1 Z0.0651 F35.
G18 G2 X-5.42 Z0.05 I0.0151 K0.
G1 X-5.4124
G17 G3 X-5.3999 Y-4.9875 I0. J0.0125
X-5.4501 Z0. I-0.0251 J0.
X-5.3999 Z-0.05 I0.0251 J0.
X-5.4501 Z-0.1 I-0.0251 J0.
X-5.3999 Z-0.15 I0.0251 J0.
X-5.4501 Z-0.2 I-0.0251 J0.
X-5.3999 Z-0.25 I0.0251 J0.
X-5.4501 Z-0.3 I-0.0251 J0.
X-5.3999 I0.0251 J0.
X-5.4501 I-0.0251 J0.
X-5.4375 Y-5. I0.0126 J0.
G1 X-5.43
G18 G2 X-5.4149 Z-0.2849 I0. K0.0151
G0 Z0.4
X-6.5851
Z0.13
G1 Z0.0651 F35.
G2 X-6.57 Z0.05 I0.0151 K0.
G1 X-6.5625
G17 G3 X-6.5499 Y-4.9875 I0. J0.0125
X-6.6001 Z0. I-0.0251 J0.
X-6.5499 Z-0.05 I0.0251 J0.
X-6.6001 Z-0.1 I-0.0251 J0.
X-6.5499 Z-0.15 I0.0251 J0.
X-6.5547 Y-4.9727 Z-0.16 I-0.0251 J0.
X-6.5953 Y-5.0023 Z-0.21 I-0.0203 J-0.0148
X-6.5672 Y-5.0114 Z-0.23 I0.0203 J0.0148
X-6.5828 Y-4.9636 Z-0.28 I-0.0078 J0.0239
X-6.6001 Y-4.9875 Z-0.3 I0.0078 J-0.0239
X-6.5499 I0.0251 J0.
X-6.6001 I-0.0251 J0.
X-6.5876 Y-5. I0.0126 J0.
G1 X-6.58
G18 G2 X-6.5649 Z-0.2849 I0. K0.0151
G0 Z0.4
X-6.5851 Y-6.1501
Z0.13
G1 Z0.0651 F35.
G2 X-6.57 Z0.05 I0.0151 K0.
G1 X-6.5625
G17 G3 X-6.5499 Y-6.1375 I0. J0.0126
X-6.6001 Z0. I-0.0251 J0.
X-6.5499 Z-0.05 I0.0251 J0.
X-6.6001 Z-0.1 I-0.0251 J0.
X-6.5499 Z-0.15 I0.0251 J0.
X-6.6001 Z-0.2 I-0.0251 J0.
X-6.5499 Z-0.25 I0.0251 J0.
X-6.6001 Z-0.3 I-0.0251 J0.
X-6.5499 I0.0251 J0.
X-6.6001 I-0.0251 J0.
X-6.5876 Y-6.1501 I0.0126 J0.
G1 X-6.58
G18 G2 X-6.5649 Z-0.2849 I0. K0.0151
G0 Z0.4
X-5.4351
Z0.13
G1 Z0.0651 F35.
G2 X-5.42 Z0.05 I0.0151 K0.
G1 X-5.4124
G17 G3 X-5.3999 Y-6.1375 I0. J0.0126
X-5.4501 Z0. I-0.0251 J0.
X-5.3999 Z-0.05 I0.0251 J0.
X-5.4501 Z-0.1 I-0.0251 J0.
X-5.3999 Z-0.15 I0.0251 J0.
X-5.4501 Z-0.2 I-0.0251 J0.
X-5.3999 Z-0.25 I0.0251 J0.
X-5.4501 Z-0.3 I-0.0251 J0.
X-5.3999 I0.0251 J0.
X-5.4501 I-0.0251 J0.
X-5.4375 Y-6.1501 I0.0126 J0.
G1 X-5.43
G18 G2 X-5.4149 Z-0.2849 I0. K0.0151
G0 Z0.6
G17
(.3 CIRCULAR THROUGH HOLE)
M7
G0 X-5.9432 Y-5.5191
Z0.6
Z0.2
G1 Z0.1146 F13.333
G3 X-5.9446 Y-5.5195 Z0.1082 I0.0119 J-0.0434 F55.
X-5.9483 Y-5.5208 Z0.103 I0.0133 J-0.043
X-5.9535 Y-5.5233 Z0.1 I0.017 J-0.0417
X-5.9091 Y-5.6016 Z0.0621 I0.0222 J-0.0391
X-5.9535 Y-5.5233 Z0.0242 I-0.0222 J0.0391
X-5.9091 Y-5.6016 Z-0.0136 I0.0222 J-0.0391
X-5.9535 Y-5.5233 Z-0.0515 I-0.0222 J0.0391
X-5.9091 Y-5.6016 Z-0.0894 I0.0222 J-0.0391
X-5.9535 Y-5.5233 Z-0.1273 I-0.0222 J0.0391
X-5.9763 Y-5.5625 Z-0.14 I0.0222 J-0.0391
X-5.9237 I0.0263 J0. F60.
X-6.0763 I-0.0763 J0.
X-5.8237 I0.1263 J0.
X-6.1763 I-0.1763 J0.
X-5.7237 I0.2263 J0.
X-6.2763 I-0.2763 J0.
X-5.6237 I0.3263 J0.
X-6.3763 I-0.3763 J0.
X-5.5237 I0.4263 J0.
X-6.4763 I-0.4763 J0.
X-5.5237 I0.4763 J0.
X-5.5325 Y-5.5551 I-0.0075 J0.
G1 X-5.5876 Y-5.5649
X-5.9447 Y-5.5921
X-5.9563 Y-5.5944
G3 X-5.9573 Y-5.5992 I0.0005 J-0.0026
X-5.9054 Y-5.5257 Z-0.1779 I0.026 J0.0367 F55.
X-5.9573 Y-5.5992 Z-0.2158 I-0.026 J-0.0367
X-5.9054 Y-5.5257 Z-0.2536 I0.026 J0.0367
X-5.9763 Y-5.5625 Z-0.28 I-0.026 J-0.0367
X-5.9237 I0.0263 J0. F60.
X-6.0763 I-0.0763 J0.
X-5.8237 I0.1263 J0.
X-6.1763 I-0.1763 J0.
X-5.7237 I0.2263 J0.
X-6.2763 I-0.2763 J0.
X-5.6237 I0.3263 J0.
X-6.3763 I-0.3763 J0.
X-5.5237 I0.4263 J0.
X-6.4763 I-0.4763 J0.
X-5.5137 I0.4813 J0.
X-6.4863 I-0.4863 J0.
X-5.5137 I0.4863 J0.
X-5.5148 Y-5.5568 Z-0.2789 I-0.0151 J0.
X-5.5173 Y-5.5527 Z-0.2756 I-0.014 J-0.0056
X-5.5197 Y-5.5504 Z-0.2707 I-0.0115 J-0.0098
X-5.5206 Y-5.5498 Z-0.2649 I-0.0091 J-0.012
G0 Z0.4
X-8.0655 Y-2.3452
Z0.2
G1 Z0.1146 F13.333
G3 X-8.0641 Y-2.3448 Z0.1082 I-0.0119 J0.0434 F55.
X-8.0604 Y-2.3434 Z0.103 I-0.0133 J0.043
X-8.0552 Y-2.3409 Z0.1 I-0.017 J0.0417
X-8.0996 Y-2.2626 Z0.0621 I-0.0222 J0.0391
X-8.0552 Y-2.3409 Z0.0242 I0.0222 J-0.0391
X-8.0996 Y-2.2626 Z-0.0136 I-0.0222 J0.0391
X-8.0552 Y-2.3409 Z-0.0515 I0.0222 J-0.0391
X-8.0996 Y-2.2626 Z-0.0894 I-0.0222 J0.0391
X-8.0552 Y-2.3409 Z-0.1273 I0.0222 J-0.0391
X-8.0324 Y-2.3018 Z-0.14 I-0.0222 J0.0391
X-8.0616 I-0.0146 J0. F60.
X-7.9324 I0.0646 J0.
X-8.1616 I-0.1146 J0.
X-7.8324 I0.1646 J0.
X-8.2616 I-0.2146 J0.
X-7.7324 I0.2646 J0.
X-8.3616 I-0.3146 J0.
X-7.6324 I0.3646 J0.
X-8.4616 I-0.4146 J0.
X-7.6324 I0.4146 J0.
X-7.6406 Y-2.2943 I-0.0075 J0.
G1 X-7.6964 Y-2.2993
X-8.0481 Y-2.2722
G2 X-8.0505 Y-2.2692 I0.0002 J0.0027
G1 X-8.0503 Y-2.2675
G3 X-8.0514 Y-2.265 I-0.0027 J0.0003
X-8.1034 Y-2.3385 Z-0.1779 I-0.026 J-0.0367 F55.
X-8.0514 Y-2.265 Z-0.2158 I0.026 J0.0367
X-8.1034 Y-2.3385 Z-0.2536 I-0.026 J-0.0367
X-8.0324 Y-2.3018 Z-0.28 I0.026 J0.0367
X-8.0616 I-0.0146 J0. F60.
X-7.9324 I0.0646 J0.
X-8.1616 I-0.1146 J0.
X-7.8324 I0.1646 J0.
X-8.2616 I-0.2146 J0.
X-7.7324 I0.2646 J0.
X-8.3616 I-0.3146 J0.
X-7.6324 I0.3646 J0.
X-8.4616 I-0.4146 J0.
X-7.6224 I0.4196 J0.
X-8.4716 I-0.4246 J0.
X-7.6224 I0.4246 J0.
X-7.6235 Y-2.2961 Z-0.2789 I-0.0151 J0.
X-7.626 Y-2.292 Z-0.2756 I-0.014 J-0.0056
X-7.6284 Y-2.2897 Z-0.2707 I-0.0115 J-0.0098
X-7.6293 Y-2.2891 Z-0.2649 I-0.0091 J-0.012
G0 Z0.6
(2D CONTOUR)
M7
G0 X-8.0795 Y-3.8272
Z0.6
Z0.2
G1 Z0.1 F13.333
G3 X-8.3593 Y-3.7151 Z0.0466 I-0.4793 J-0.7907
G2 X-9.4944 Y-2.2948 Z-0.3 I0.3123 J1.4133
X-8.047 Y-0.8544 I1.4474 J-0.007 F60.
G1 X-8.
G3 X-7.0754 Y0.0702 I0. J0.9246
G1 Y0.5638
Z-0.175
Y1.7146
Z-0.3 F13.333
Y2.0625 F60.
G2 X-6.75 Y2.3879 I0.3254 J0.
G1 X-5.45
G2 X-5.1246 Y2.0625 I0. J-0.3254
G1 Y-0.8774
Z-0.175
Y-2.0282
Z-0.3 F13.333
Y-4.4331 F60.
G3 X-4.9832 Y-4.9245 I0.9246 J0.
G2 X-5.4863 Y-6.6474 I-1.0168 J-0.638
X-7.1379 Y-5.9446 I-0.5137 J1.0849
G1 X-7.2593 Y-5.5833
Z-0.175
X-7.6256 Y-4.4924
Z-0.3 F13.333
X-7.6823 Y-4.3236 F60.
G3 X-8.3593 Y-3.7151 I-0.8765 J-0.2943
G2 X-9.4944 Y-2.2948 I0.3123 J1.4133
G0 Z0.6
M9
G53 Z0.
M30
%
