%
(971-23-P-0206_ELECTRONICS GUARD 1)
(T1  D=0.1537 CR=0. - ZMIN=-0.0512 - FLAT END MILL)
G90 G94 G17 G91.1
G64 P0.001 Q0.001
G20
G53 G0 Z0.
(2D SLOT CUT)
M9
T1 M6
S13000 M3
G4 P10.
G54
M7
G0 X-12.0151 Y-7.9018
G43 Z0.6 H1
G0 Z0.2
G1 Z0.1 F13.333
X-12.7339 Z-0.0268
G2 X-12.859 Y-7.8501 Z-0.0512 I0. J0.1768
X-12.9108 Y-7.725 I0.1251 J0.1251 F20.
G1 Y-1.775
G2 X-12.7339 Y-1.5981 I0.1769 J0.
G1 X-5.5858
Y-1.5769
X-12.7339
X-12.9089
G3 X-12.9321 Y-1.6 I0. J-0.0231
G1 Y-7.9
G3 X-12.9089 Y-7.9232 I0.0232 J0.
G1 X-5.5858
Y-7.9018
X-12.7339
G2 X-12.859 Y-7.8501 I0. J0.1768
G0 Z0.6
(2D SLOT CUT 2)
M7
G0 X3.3269 Y-0.6269
Z0.6
Z0.2
G1 Z0.1 F13.333
Y-1.4847 Z-0.0512
Y-2.1914 F20.
Z0.0488
Y-2.9451
Z-0.0512 F13.333
Y-7.2372 F20.
Z0.0488
Y-7.9909
Z-0.0512 F13.333
Y-12.283 F20.
Z0.0488
Y-13.0367
Z-0.0512 F13.333
Y-15.0256 F20.
G2 X3.15 Y-15.2025 I-0.1768 J0.
G1 X1.004
Z0.0488
X0.2503
Z-0.0512 F13.333
X-4.0809 F20.
Z0.0488
X-4.1731
Y-15.684
Z-0.0512 F13.333
Y-16.495 F20.
G2 X-4.35 Y-16.6719 I-0.1768 J0.
G1 X-5.725
G2 X-5.9018 Y-16.495 I0. J0.1769
G1 Y-15.3802
G2 X-5.85 Y-15.2551 I0.1768 J0.
G1 X-5.4268 Y-14.8319
Z0.0488
X-4.8939 Y-14.299
Z-0.0512 F13.333
X-3.0769 Y-12.4819 F20.
Y-12.3894
X-4.5029
Z0.0488
X-5.2566
Z-0.0512 F13.333
X-6.4114 F20.
Y-14.995
G2 X-6.5882 Y-15.1719 I-0.1768 J0.
G1 X-6.8219
Z0.0488
X-7.5756
Z-0.0512 F13.333
X-9.2632 F20.
G2 X-9.4401 Y-14.995 I0. J0.1769
G1 Y-13.7025
X-10.4541
Z0.0488
X-11.2078
Z-0.0512 F13.333
X-15.4999 F20.
Z0.0488
X-16.1382
G2 X-16.2536 Y-13.6597 I0. J0.1769
G1 Z-0.0512 F13.333
G2 X-16.3151 Y-13.5256 I0.1154 J0.1341 F20.
G1 Y-12.3894
X-17.4513
G2 X-17.6282 Y-12.2125 I0. J0.1769
G1 Y-10.5326
Z0.0488
Y-9.7789
Z-0.0512 F13.333
Y-5.4869 F20.
Z0.0488
Y-4.7331
Z-0.0512 F13.333
Y-0.4411 F20.
Z0.0488
Y0.3126
Z-0.0512 F13.333
Y4.6047 F20.
Z0.0488
Y5.3584
Z-0.0512 F13.333
Y9.6505 F20.
Z0.0488
Y10.4042
Z-0.0512 F13.333
Y12.2125 F20.
G2 X-17.4514 Y12.3894 I0.1769 J0.
G1 X-17.3586
Z0.0488
X-16.6049
Z-0.0512 F13.333
X-16.3826 F20.
X-16.3151
Y12.5633
Z0.0488
Y13.317
Z-0.0512 F13.333
Y13.5256 F20.
G2 X-16.3136 Y13.5488 I0.1768 J0.
G1 Z0.0488
G2 X-16.1382 Y13.7025 I0.1753 J-0.0232
G1 X-15.6283
Z-0.0512 F13.333
X-13.2708 F20.
Z0.0488
X-12.5171
Z-0.0512 F13.333
X-12.2132 F20.
G2 X-12.0364 Y13.5256 I0. J-0.1769
G1 Y12.8057
Z0.0488
Y12.052
Z-0.0512 F13.333
Y7.76 F20.
Z0.0488
Y7.0063
Z-0.0512 F13.333
Y3.85 F20.
G3 X-12.0132 Y3.8268 I0.0232 J0.
G1 X-11.0345
Z0.0488
X-10.2808
Z-0.0512 F13.333
X-5.9888 F20.
Z0.0488
X-5.2351
Z-0.0512 F13.333
X-0.943 F20.
Z0.0488
X-0.1893
Z-0.0512 F13.333
X3.15 F20.
G2 X3.3269 Y3.65 I0. J-0.1768
G1 Y2.8543
Z0.0488
Y2.1006
Z-0.0512 F13.333
Y-1.4847 F20.
G0 Z0.6
M9
G53 Z0.
M30
%
