%
(971-23-P-0072_BACK BRACE BLOCK BACKING PLATE_1492)
(T1  D=0.1575 CR=0. - ZMIN=-0.155 - FLAT END MILL)
G90 G94 G17 G91.1
G64 P0.001 Q0.001
G20
G53 G0 Z0.
(.3 CIRCLUAR THROUGH HOLE 2)
M9
T1 M6
S22000 M3
G4 P10.
G54
M7
G0 X-4.4891 Y3.1122
G43 Z0.6 H1
G0 Z0.13
G1 Z0.0658 F40.
G19 G3 Y3.128 Z0.05 J0.0158 K0.
G1 Y3.1359
G17 G3 X-4.5 Y3.1468 I-0.0109 J0.
Y3.1032 Z0.0323 I0. J-0.0218
Y3.1468 Z0.0146 I0. J0.0218
Y3.1032 Z-0.0032 I0. J-0.0218
Y3.1468 Z-0.0209 I0. J0.0218
Y3.1032 Z-0.0386 I0. J-0.0218
Y3.1468 Z-0.0563 I0. J0.0218
Y3.1032 Z-0.074 I0. J-0.0218
Y3.1468 Z-0.0918 I0. J0.0218
Y3.1032 Z-0.1095 I0. J-0.0218
Y3.1468 Z-0.1272 I0. J0.0218
Y3.1032 Z-0.1449 I0. J-0.0218
X-4.4787 Y3.1296 Z-0.155 I0. J0.0218
X-4.5213 Y3.1204 I-0.0213 J-0.0046
X-4.4787 Y3.1296 I0.0213 J0.0046
X-4.4917 Y3.1379 I-0.0106 J-0.0023
G1 X-4.4994 Y3.1363
X-4.5024 Y3.1356 Z-0.1547
X-4.5053 Y3.135 Z-0.1538
X-4.5079 Y3.1344 Z-0.1523
X-4.5103 Y3.1339 Z-0.1504
X-4.5122 Y3.1335 Z-0.148
X-4.5136 Y3.1332 Z-0.1453
X-4.5145 Y3.133 Z-0.1423
X-4.5148 Y3.1329 Z-0.1393
G0 Z0.4
X-4.4891 Y1.8623
Z0.13
G1 Z0.0658 F40.
G19 G3 Y1.878 Z0.05 J0.0157 K0.
G1 Y1.8859
G17 G3 X-4.5 Y1.8967 I-0.0109 J0.
Y1.8533 Z0.0323 I0. J-0.0217
Y1.8967 Z0.0146 I0. J0.0217
Y1.8533 Z-0.0032 I0. J-0.0217
Y1.8967 Z-0.0209 I0. J0.0217
Y1.8533 Z-0.0386 I0. J-0.0217
Y1.8967 Z-0.0563 I0. J0.0217
Y1.8533 Z-0.074 I0. J-0.0217
Y1.8967 Z-0.0918 I0. J0.0217
Y1.8532 Z-0.1095 I0. J-0.0217
Y1.8968 Z-0.1272 I0. J0.0218
Y1.8532 Z-0.1449 I0. J-0.0218
X-4.4787 Y1.8796 Z-0.155 I0. J0.0218
X-4.5213 Y1.8704 I-0.0213 J-0.0046
X-4.4787 Y1.8796 I0.0213 J0.0046
X-4.4917 Y1.8879 I-0.0106 J-0.0023
G1 X-4.4994 Y1.8863
X-4.5024 Y1.8856 Z-0.1547
X-4.5053 Y1.885 Z-0.1538
X-4.5079 Y1.8844 Z-0.1523
X-4.5103 Y1.8839 Z-0.1504
X-4.5122 Y1.8835 Z-0.148
X-4.5136 Y1.8832 Z-0.1453
X-4.5145 Y1.883 Z-0.1423
X-4.5148 Y1.8829 Z-0.1393
G0 Z0.4
X-6.2391 Y1.8623
Z0.13
G1 Z0.0658 F40.
G19 G3 Y1.878 Z0.05 J0.0157 K0.
G1 Y1.8859
G17 G3 X-6.25 Y1.8967 I-0.0109 J0.
Y1.8533 Z0.0323 I0. J-0.0217
Y1.8967 Z0.0146 I0. J0.0217
Y1.8533 Z-0.0032 I0. J-0.0217
Y1.8967 Z-0.0209 I0. J0.0217
Y1.8533 Z-0.0386 I0. J-0.0217
Y1.8967 Z-0.0563 I0. J0.0217
Y1.8533 Z-0.074 I0. J-0.0217
Y1.8967 Z-0.0918 I0. J0.0217
Y1.8533 Z-0.1095 I0. J-0.0217
Y1.8967 Z-0.1272 I0. J0.0217
Y1.8533 Z-0.1449 I0. J-0.0217
X-6.2287 Y1.8796 Z-0.155 I0. J0.0217
X-6.2713 Y1.8704 I-0.0213 J-0.0046
X-6.2287 Y1.8796 I0.0213 J0.0046
X-6.2417 Y1.8879 I-0.0106 J-0.0023
G1 X-6.2494 Y1.8863
X-6.2524 Y1.8856 Z-0.1547
X-6.2553 Y1.885 Z-0.1538
X-6.2579 Y1.8844 Z-0.1523
X-6.2603 Y1.8839 Z-0.1504
X-6.2622 Y1.8835 Z-0.148
X-6.2636 Y1.8832 Z-0.1453
X-6.2645 Y1.883 Z-0.1423
X-6.2648 Y1.8829 Z-0.1393
G0 Z0.4
X-6.2391 Y3.1122
Z0.13
G1 Z0.0658 F40.
G19 G3 Y3.128 Z0.05 J0.0158 K0.
G1 Y3.1359
G17 G3 X-6.25 Y3.1468 I-0.0109 J0.
Y3.1032 Z0.0323 I0. J-0.0218
Y3.1468 Z0.0146 I0. J0.0218
Y3.1033 Z-0.0032 I0. J-0.0218
Y3.1467 Z-0.0209 I0. J0.0217
Y3.1033 Z-0.0386 I0. J-0.0217
Y3.1467 Z-0.0563 I0. J0.0217
Y3.1033 Z-0.074 I0. J-0.0217
Y3.1467 Z-0.0918 I0. J0.0217
Y3.1033 Z-0.1095 I0. J-0.0217
Y3.1467 Z-0.1272 I0. J0.0217
Y3.1033 Z-0.1449 I0. J-0.0217
X-6.2287 Y3.1296 Z-0.155 I0. J0.0217
X-6.2713 Y3.1204 I-0.0213 J-0.0046
X-6.2287 Y3.1296 I0.0213 J0.0046
X-6.2417 Y3.1379 I-0.0106 J-0.0023
G1 X-6.2494 Y3.1363
X-6.2524 Y3.1356 Z-0.1547
X-6.2553 Y3.135 Z-0.1538
X-6.2579 Y3.1344 Z-0.1523
X-6.2603 Y3.1339 Z-0.1504
X-6.2622 Y3.1335 Z-0.148
X-6.2636 Y3.1332 Z-0.1453
X-6.2645 Y3.133 Z-0.1423
X-6.2648 Y3.1329 Z-0.1393
G0 Z0.6
(2D SLOT CUT)
M7
G0 X-4.2758 Y1.4213
Z0.6
Z0.2
G1 Z0.1 F13.333
X-5.2683 Z-0.075 F40.
X-5.2825
X-5.6621 F55.
Z-0.0775 F13.333
X-6.49 F55.
G2 X-6.6938 Y1.625 I0. J0.2038
G1 Y2.1946
Z-0.075
Y2.9521
Z-0.0775 F13.333
Y3.2 F55.
G2 X-6.49 Y3.4038 I0.2038 J0.
G1 X-5.5113
G2 X-5.4025 Y3.295 I0. J-0.1088
G1 Y2.2
G3 X-5.3563 Y2.1537 I0.0463 J0.
G1 X-4.9187
G3 X-4.8725 Y2.2 I0. J0.0463
G1 Y3.295
G2 X-4.7637 Y3.4038 I0.1088 J0.
G1 X-4.075
G2 X-3.8713 Y3.2 I0. J-0.2038
G1 Y2.7994
Z-0.075
Y2.0419
Z-0.0775 F13.333
Y1.625 F55.
G2 X-4.075 Y1.4213 I-0.2037 J0.
G1 X-4.9046
Z-0.075
X-5.2825
X-5.6621 F40.
Z-0.1444 F13.333
X-5.722 Z-0.155 F40.
X-6.49 F55.
G2 X-6.6938 Y1.625 I0. J0.2038
G1 Y2.1946
Z-0.075
Y2.9521
Z-0.155 F13.333
Y3.2 F55.
G2 X-6.49 Y3.4038 I0.2038 J0.
G1 X-5.5113
G2 X-5.4025 Y3.295 I0. J-0.1088
G1 Y2.2
G3 X-5.3563 Y2.1537 I0.0463 J0.
G1 X-4.9187
G3 X-4.8725 Y2.2 I0. J0.0463
G1 Y3.295
G2 X-4.7637 Y3.4038 I0.1088 J0.
G1 X-4.075
G2 X-3.8713 Y3.2 I0. J-0.2038
G1 Y2.7994
Z-0.075
Y2.0419
Z-0.155 F13.333
Y1.625 F55.
G2 X-4.075 Y1.4213 I-0.2037 J0.
G1 X-4.9046
Z-0.075
X-5.6621
Z-0.155 F13.333
X-5.722 F55.
G0 Z0.6
M9
G53 Z0.
M30
%
