%
(CUBEMEASURINGTOOLSUPPORT_250)
(T1  D=0.25 CR=0. - ZMIN=-0.55 - FLAT END MILL)
G90 G94 G17 G91.1
G64 P0.001 Q0.001
G20
G53 G0 Z0.
(SMALL HOLE BORE)
M9
T1 M6
S13000 M3
G4 P10.
G54
M7
G0 X2.6677 Y14.4546
G43 Z0.6 H1
G0 Z0.105
G1 Z0.05 F60.
X2.6638 Y14.4507
G3 X2.6677 Y14.4468 I0.0039 J0.
Y14.4624 Z0. I0. J0.0078 F35.
X2.661 Y14.4585 Z-0.0167 I0. J-0.0078
X2.6745 Y14.4507 Z-0.0667 I0.0068 J-0.0039
Y14.4585 Z-0.0833 I-0.0068 J0.0039
X2.661 Y14.4507 Z-0.1333 I-0.0068 J-0.0039
X2.6745 Y14.4585 Z-0.1833 I0.0068 J0.0039
X2.661 Z-0.2167 I-0.0068 J-0.0039
X2.6745 Y14.4507 Z-0.2667 I0.0068 J-0.0039
Y14.4585 Z-0.2833 I-0.0068 J0.0039
X2.661 Y14.4507 Z-0.3333 I-0.0068 J-0.0039
X2.6745 Y14.4585 Z-0.3833 I0.0068 J0.0039
X2.661 Z-0.4167 I-0.0068 J-0.0039
X2.6745 Y14.4507 Z-0.4667 I0.0068 J-0.0039
Y14.4585 Z-0.4833 I-0.0068 J0.0039
X2.661 Y14.4507 Z-0.5333 I-0.0068 J-0.0039
X2.6677 Y14.4468 Z-0.55 I0.0068 J0.0039
Y14.4624 I0. J0.0078
Y14.4468 I0. J-0.0078
X2.6716 Y14.4507 I0. J0.0039 F60.
G1 X2.6677 Y14.4546
G0 Z0.4
X7.4177
Z0.105
G1 Z0.05 F60.
X7.4138 Y14.4507
G3 X7.4177 Y14.4468 I0.0039 J0.
Y14.4624 Z0. I0. J0.0078 F35.
X7.411 Y14.4585 Z-0.0167 I0. J-0.0078
X7.4245 Y14.4507 Z-0.0667 I0.0068 J-0.0039
Y14.4585 Z-0.0833 I-0.0068 J0.0039
X7.411 Y14.4507 Z-0.1333 I-0.0068 J-0.0039
X7.4245 Y14.4585 Z-0.1833 I0.0068 J0.0039
X7.411 Z-0.2167 I-0.0068 J-0.0039
X7.4245 Y14.4507 Z-0.2667 I0.0068 J-0.0039
Y14.4585 Z-0.2833 I-0.0068 J0.0039
X7.411 Y14.4507 Z-0.3333 I-0.0068 J-0.0039
X7.4245 Y14.4585 Z-0.3833 I0.0068 J0.0039
X7.411 Z-0.4167 I-0.0068 J-0.0039
X7.4245 Y14.4507 Z-0.4667 I0.0068 J-0.0039
Y14.4585 Z-0.4833 I-0.0068 J0.0039
X7.411 Y14.4507 Z-0.5333 I-0.0068 J-0.0039
X7.4177 Y14.4468 Z-0.55 I0.0068 J0.0039
Y14.4624 I0. J0.0078
Y14.4468 I0. J-0.0078
X7.4216 Y14.4507 I0. J0.0039 F60.
G1 X7.4177 Y14.4546
G0 Z0.6
(2D CONTOUR)
M7
G0 X7.1695 Y13.7046
Z0.6
Z0.2
G1 Z0.1 F13.333
X5.0427 Z-0.275
X2.2927 F60.
G2 X1.9177 Y14.0796 I0. J0.375
G1 Y14.8296
G2 X2.2927 Y15.2046 I0.375 J0.
G1 X7.7927
G2 X8.1677 Y14.8296 I0. J-0.375
G1 Y14.0796
G2 X7.7927 Y13.7046 I-0.375 J0.
G1 X5.0427
X4.571 Z-0.3 F13.333
X3.9612
Z-0.3323
X2.2927 Z-0.4208
G2 X1.9177 Y14.0796 Z-0.452 I0. J0.375
G1 Y14.8296 Z-0.4917
G2 X2.2927 Y15.2046 Z-0.5229 I0.375 J0.
G1 X2.8032 Z-0.55
X3.945 F60.
Z-0.3
X6.195
Z-0.55 F13.333
X7.7927 F60.
G2 X8.1677 Y14.8296 I0. J-0.375
G1 Y14.0796
G2 X7.7927 Y13.7046 I-0.375 J0.
G1 X6.2112
Z-0.3
X3.9612
Z-0.55 F13.333
X2.2927 F60.
G2 X1.9177 Y14.0796 I0. J0.375
G1 Y14.8296
G2 X2.2927 Y15.2046 I0.375 J0.
G1 X2.8032
G0 Z0.6
M9
G53 Z0.
M30
%
