%
(971-23-P-0087_LATERAL UPRIGHT_1492)
(T1  D=0.1492 CR=0. - ZMIN=-0.28 - FLAT END MILL)
G90 G94 G17 G91.1
G64 P0.001 Q0.001
G20
G53 G0 Z0.
(.3 CIRCLUAR THROUGH HOLE 2)
M9
T1 M6
S22000 M3
G4 P10.
G54
M7
G0 X-11.187 Y3.8656
G43 Z0.6 H1
G0 Z0.13
G1 Z0.0649 F40.
G19 G3 Y3.8805 Z0.05 J0.0149 K0.
G1 Y3.8879
G17 G3 X-11.2 Y3.9009 I-0.013 J0.
Y3.8491 Z0.0323 I0. J-0.0259
Y3.9009 Z0.0146 I0. J0.0259
Y3.8491 Z-0.0032 I0. J-0.0259
Y3.9009 Z-0.0209 I0. J0.0259
Y3.8491 Z-0.0386 I0. J-0.0259
Y3.9009 Z-0.0563 I0. J0.0259
Y3.8491 Z-0.074 I0. J-0.0259
Y3.9009 Z-0.0918 I0. J0.0259
Y3.8491 Z-0.1095 I0. J-0.0259
Y3.9009 Z-0.1272 I0. J0.0259
Y3.8491 Z-0.1449 I0. J-0.0259
Y3.9009 Z-0.1627 I0. J0.0259
Y3.8491 Z-0.1804 I0. J-0.0259
Y3.9009 Z-0.1981 I0. J0.0259
Y3.8491 Z-0.2158 I0. J-0.0259
Y3.9009 Z-0.2335 I0. J0.0259
Y3.8491 Z-0.2513 I0. J-0.0259
Y3.9009 Z-0.269 I0. J0.0259
X-11.224 Y3.8653 Z-0.28 I0. J-0.0259
X-11.176 Y3.8847 I0.024 J0.0097
X-11.224 Y3.8653 I-0.024 J-0.0097
X-11.2072 Y3.8581 I0.012 J0.0048
G1 X-11.2002 Y3.8609
X-11.1975 Y3.862 Z-0.2797
X-11.1949 Y3.8631 Z-0.2789
X-11.1926 Y3.864 Z-0.2775
X-11.1905 Y3.8649 Z-0.2756
X-11.1887 Y3.8656 Z-0.2734
X-11.1875 Y3.8661 Z-0.2708
X-11.1867 Y3.8664 Z-0.268
X-11.1864 Y3.8665 Z-0.2651
G0 Z0.4
X-10.187 Y3.8656
Z0.13
G1 Z0.0649 F40.
G19 G3 Y3.8805 Z0.05 J0.0149 K0.
G1 Y3.8879
G17 G3 X-10.2 Y3.9009 I-0.0129 J0.
Y3.8491 Z0.0323 I0. J-0.0259
Y3.9009 Z0.0146 I0. J0.0259
Y3.8491 Z-0.0032 I0. J-0.0259
Y3.9009 Z-0.0209 I0. J0.0259
Y3.8491 Z-0.0386 I0. J-0.0259
Y3.9009 Z-0.0563 I0. J0.0259
Y3.8491 Z-0.074 I0. J-0.0259
Y3.9009 Z-0.0918 I0. J0.0259
Y3.8491 Z-0.1095 I0. J-0.0259
Y3.9009 Z-0.1272 I0. J0.0259
Y3.8491 Z-0.1449 I0. J-0.0259
Y3.9009 Z-0.1627 I0. J0.0259
Y3.8491 Z-0.1804 I0. J-0.0259
Y3.9009 Z-0.1981 I0. J0.0259
Y3.8491 Z-0.2158 I0. J-0.0259
Y3.9009 Z-0.2335 I0. J0.0259
Y3.8491 Z-0.2513 I0. J-0.0259
Y3.9009 Z-0.269 I0. J0.0259
X-10.224 Y3.8653 Z-0.28 I0. J-0.0259
X-10.176 Y3.8847 I0.024 J0.0097
X-10.224 Y3.8653 I-0.024 J-0.0097
X-10.2072 Y3.8581 I0.012 J0.0048
G1 X-10.2002 Y3.8609
X-10.1975 Y3.862 Z-0.2797
X-10.1949 Y3.8631 Z-0.2789
X-10.1926 Y3.864 Z-0.2775
X-10.1905 Y3.8649 Z-0.2756
X-10.1887 Y3.8656 Z-0.2734
X-10.1875 Y3.8661 Z-0.2708
X-10.1867 Y3.8664 Z-0.268
X-10.1864 Y3.8665 Z-0.2651
G0 Z0.4
X-9.1871 Y3.8656
Z0.13
G1 Z0.0649 F40.
G19 G3 Y3.8805 Z0.05 J0.0149 K0.
G1 Y3.8879
G17 G3 X-9.2 Y3.9009 I-0.0129 J0.
Y3.8491 Z0.0323 I0. J-0.0259
Y3.9009 Z0.0146 I0. J0.0259
Y3.8491 Z-0.0032 I0. J-0.0259
Y3.9009 Z-0.0209 I0. J0.0259
Y3.8491 Z-0.0386 I0. J-0.0259
Y3.9009 Z-0.0563 I0. J0.0259
Y3.8491 Z-0.074 I0. J-0.0259
Y3.9009 Z-0.0918 I0. J0.0259
Y3.8491 Z-0.1095 I0. J-0.0259
Y3.9009 Z-0.1272 I0. J0.0259
Y3.8491 Z-0.1449 I0. J-0.0259
Y3.9009 Z-0.1627 I0. J0.0259
Y3.8491 Z-0.1804 I0. J-0.0259
Y3.9009 Z-0.1981 I0. J0.0259
Y3.8491 Z-0.2158 I0. J-0.0259
Y3.9009 Z-0.2335 I0. J0.0259
Y3.8491 Z-0.2513 I0. J-0.0259
Y3.9009 Z-0.269 I0. J0.0259
X-9.224 Y3.8653 Z-0.28 I0. J-0.0259
X-9.176 Y3.8847 I0.024 J0.0097
X-9.224 Y3.8653 I-0.024 J-0.0097
X-9.2072 Y3.8581 I0.012 J0.0048
G1 X-9.2002 Y3.8609
X-9.1975 Y3.862 Z-0.2797
X-9.1949 Y3.8631 Z-0.2789
X-9.1926 Y3.864 Z-0.2775
X-9.1905 Y3.8649 Z-0.2756
X-9.1887 Y3.8656 Z-0.2734
X-9.1875 Y3.8661 Z-0.2708
X-9.1867 Y3.8664 Z-0.268
X-9.1864 Y3.8665 Z-0.2651
G0 Z0.4
X-8.5643 Y4.4883
Z0.13
G1 Z0.0649 F40.
G19 G3 Y4.5032 Z0.05 J0.0149 K0.
G1 Y4.5107
G17 G3 X-8.575 Y4.5214 I-0.0107 J0.
Y4.4786 Z0.0331 I0. J-0.0214
Y4.5214 Z0.0161 I0. J0.0214
Y4.4786 Z-0.0008 I0. J-0.0214
Y4.5214 Z-0.0177 I0. J0.0214
Y4.4786 Z-0.0346 I0. J-0.0214
Y4.5214 Z-0.0516 I0. J0.0214
Y4.4786 Z-0.0685 I0. J-0.0214
Y4.5214 Z-0.0854 I0. J0.0214
Y4.4786 Z-0.1023 I0. J-0.0214
Y4.5214 Z-0.1193 I0. J0.0214
Y4.4786 Z-0.1362 I0. J-0.0214
Y4.5214 Z-0.1531 I0. J0.0214
Y4.4786 Z-0.1701 I0. J-0.0214
Y4.5214 Z-0.187 I0. J0.0214
Y4.4786 Z-0.2039 I0. J-0.0214
Y4.5214 Z-0.2208 I0. J0.0214
Y4.4786 Z-0.2378 I0. J-0.0214
Y4.5214 Z-0.2547 I0. J0.0214
Y4.4786 Z-0.2716 I0. J-0.0214
X-8.5536 Y4.4997 Z-0.28 I0. J0.0214
X-8.5964 Y4.5003 I-0.0214 J0.0003
X-8.5536 Y4.4997 I0.0214 J-0.0003
X-8.5641 Y4.5105 I-0.0107 J0.0002
G1 X-8.5716 Y4.5106
X-8.5745 Y4.5107 Z-0.2797
X-8.5773 Z-0.2789
X-8.5799 Y4.5108 Z-0.2775
X-8.5821 Z-0.2756
X-8.584 Z-0.2734
X-8.5854 Y4.5109 Z-0.2708
X-8.5862 Z-0.268
X-8.5865 Z-0.2651
G0 Z0.4
X-8.0643 Y4.4883
Z0.13
G1 Z0.0649 F40.
G19 G3 Y4.5032 Z0.05 J0.0149 K0.
G1 Y4.5107
G17 G3 X-8.075 Y4.5214 I-0.0107 J0.
Y4.4786 Z0.0331 I0. J-0.0214
Y4.5214 Z0.0161 I0. J0.0214
Y4.4786 Z-0.0008 I0. J-0.0214
Y4.5214 Z-0.0177 I0. J0.0214
Y4.4786 Z-0.0346 I0. J-0.0214
Y4.5214 Z-0.0516 I0. J0.0214
Y4.4786 Z-0.0685 I0. J-0.0214
Y4.5214 Z-0.0854 I0. J0.0214
Y4.4786 Z-0.1023 I0. J-0.0214
Y4.5214 Z-0.1193 I0. J0.0214
Y4.4786 Z-0.1362 I0. J-0.0214
Y4.5214 Z-0.1531 I0. J0.0214
Y4.4786 Z-0.1701 I0. J-0.0214
Y4.5214 Z-0.187 I0. J0.0214
Y4.4786 Z-0.2039 I0. J-0.0214
Y4.5214 Z-0.2208 I0. J0.0214
Y4.4786 Z-0.2378 I0. J-0.0214
Y4.5214 Z-0.2547 I0. J0.0214
Y4.4786 Z-0.2716 I0. J-0.0214
X-8.0536 Y4.4997 Z-0.28 I0. J0.0214
X-8.0964 Y4.5003 I-0.0214 J0.0003
X-8.0536 Y4.4997 I0.0214 J-0.0003
X-8.0641 Y4.5105 I-0.0107 J0.0002
G1 X-8.0716 Y4.5106
X-8.0745 Y4.5107 Z-0.2797
X-8.0773 Z-0.2789
X-8.0799 Y4.5108 Z-0.2775
X-8.0821 Z-0.2756
X-8.084 Z-0.2734
X-8.0854 Y4.5109 Z-0.2708
X-8.0862 Z-0.268
X-8.0865 Z-0.2651
G0 Z0.4
X-8.187 Y3.8656
Z0.13
G1 Z0.0649 F40.
G19 G3 Y3.8805 Z0.05 J0.0149 K0.
G1 Y3.8879
G17 G3 X-8.2 Y3.9009 I-0.013 J0.
Y3.8491 Z0.0323 I0. J-0.0259
Y3.9009 Z0.0146 I0. J0.0259
Y3.8491 Z-0.0032 I0. J-0.0259
Y3.9009 Z-0.0209 I0. J0.0259
Y3.8491 Z-0.0386 I0. J-0.0259
Y3.9009 Z-0.0563 I0. J0.0259
Y3.8491 Z-0.074 I0. J-0.0259
Y3.9009 Z-0.0918 I0. J0.0259
Y3.8491 Z-0.1095 I0. J-0.0259
Y3.9009 Z-0.1272 I0. J0.0259
Y3.8491 Z-0.1449 I0. J-0.0259
Y3.9009 Z-0.1627 I0. J0.0259
Y3.8491 Z-0.1804 I0. J-0.0259
Y3.9009 Z-0.1981 I0. J0.0259
Y3.8491 Z-0.2158 I0. J-0.0259
Y3.9009 Z-0.2335 I0. J0.0259
Y3.8491 Z-0.2513 I0. J-0.0259
Y3.9009 Z-0.269 I0. J0.0259
X-8.224 Y3.8653 Z-0.28 I0. J-0.0259
X-8.176 Y3.8847 I0.024 J0.0097
X-8.224 Y3.8653 I-0.024 J-0.0097
X-8.2072 Y3.8581 I0.012 J0.0048
G1 X-8.2002 Y3.8609
X-8.1975 Y3.862 Z-0.2797
X-8.1949 Y3.8631 Z-0.2789
X-8.1926 Y3.864 Z-0.2775
X-8.1905 Y3.8649 Z-0.2756
X-8.1887 Y3.8656 Z-0.2734
X-8.1875 Y3.8661 Z-0.2708
X-8.1867 Y3.8664 Z-0.268
X-8.1864 Y3.8665 Z-0.2651
G0 Z0.4
X-8.0857 Y5.5117
Z0.13
G1 Z0.0649 F40.
G19 G2 Y5.4968 Z0.05 J-0.0149 K0.
G1 Y5.4893
G17 G3 X-8.075 Y5.4786 I0.0107 J0.
Y5.5214 Z0.0331 I0. J0.0214
Y5.4786 Z0.0161 I0. J-0.0214
Y5.5214 Z-0.0008 I0. J0.0214
Y5.4786 Z-0.0177 I0. J-0.0214
Y5.5214 Z-0.0346 I0. J0.0214
Y5.4786 Z-0.0516 I0. J-0.0214
Y5.5214 Z-0.0685 I0. J0.0214
Y5.4786 Z-0.0854 I0. J-0.0214
Y5.5214 Z-0.1023 I0. J0.0214
Y5.4786 Z-0.1193 I0. J-0.0214
Y5.5214 Z-0.1362 I0. J0.0214
Y5.4786 Z-0.1531 I0. J-0.0214
Y5.5214 Z-0.1701 I0. J0.0214
Y5.4786 Z-0.187 I0. J-0.0214
Y5.5214 Z-0.2039 I0. J0.0214
Y5.4786 Z-0.2208 I0. J-0.0214
Y5.5214 Z-0.2378 I0. J0.0214
Y5.4786 Z-0.2547 I0. J-0.0214
Y5.5214 Z-0.2716 I0. J0.0214
X-8.0964 Y5.5003 Z-0.28 I0. J-0.0214
X-8.0536 Y5.4997 I0.0214 J-0.0003
X-8.0964 Y5.5003 I-0.0214 J0.0003
X-8.0859 Y5.4895 I0.0107 J-0.0002
G1 X-8.0784 Y5.4894
X-8.0755 Y5.4893 Z-0.2797
X-8.0727 Z-0.2789
X-8.0701 Y5.4892 Z-0.2775
X-8.0679 Z-0.2756
X-8.066 Z-0.2734
X-8.0646 Y5.4891 Z-0.2708
X-8.0638 Z-0.268
X-8.0635 Z-0.2651
G0 Z0.4
X-8.5857 Y5.5117
Z0.13
G1 Z0.0649 F40.
G19 G2 Y5.4968 Z0.05 J-0.0149 K0.
G1 Y5.4893
G17 G3 X-8.575 Y5.4786 I0.0107 J0.
Y5.5214 Z0.0331 I0. J0.0214
Y5.4786 Z0.0161 I0. J-0.0214
Y5.5214 Z-0.0008 I0. J0.0214
Y5.4786 Z-0.0177 I0. J-0.0214
Y5.5214 Z-0.0346 I0. J0.0214
Y5.4786 Z-0.0516 I0. J-0.0214
Y5.5214 Z-0.0685 I0. J0.0214
Y5.4786 Z-0.0854 I0. J-0.0214
Y5.5214 Z-0.1023 I0. J0.0214
Y5.4786 Z-0.1193 I0. J-0.0214
Y5.5214 Z-0.1362 I0. J0.0214
Y5.4786 Z-0.1531 I0. J-0.0214
Y5.5214 Z-0.1701 I0. J0.0214
Y5.4786 Z-0.187 I0. J-0.0214
Y5.5214 Z-0.2039 I0. J0.0214
Y5.4786 Z-0.2208 I0. J-0.0214
Y5.5214 Z-0.2378 I0. J0.0214
Y5.4786 Z-0.2547 I0. J-0.0214
Y5.5214 Z-0.2716 I0. J0.0214
X-8.5964 Y5.5003 Z-0.28 I0. J-0.0214
X-8.5536 Y5.4997 I0.0214 J-0.0003
X-8.5964 Y5.5003 I-0.0214 J0.0003
X-8.5859 Y5.4895 I0.0107 J-0.0002
G1 X-8.5784 Y5.4894
X-8.5755 Y5.4893 Z-0.2797
X-8.5727 Z-0.2789
X-8.5701 Y5.4892 Z-0.2775
X-8.5679 Z-0.2756
X-8.566 Z-0.2734
X-8.5646 Y5.4891 Z-0.2708
X-8.5638 Z-0.268
X-8.5635 Z-0.2651
G0 Z0.4
X-8.5857 Y6.5117
Z0.13
G1 Z0.0649 F40.
G19 G2 Y6.4968 Z0.05 J-0.0149 K0.
G1 Y6.4893
G17 G3 X-8.575 Y6.4786 I0.0107 J0.
Y6.5214 Z0.0331 I0. J0.0214
Y6.4786 Z0.0161 I0. J-0.0214
Y6.5214 Z-0.0008 I0. J0.0214
Y6.4786 Z-0.0177 I0. J-0.0214
Y6.5214 Z-0.0346 I0. J0.0214
Y6.4786 Z-0.0516 I0. J-0.0214
Y6.5214 Z-0.0685 I0. J0.0214
Y6.4786 Z-0.0854 I0. J-0.0214
Y6.5214 Z-0.1023 I0. J0.0214
Y6.4786 Z-0.1193 I0. J-0.0214
Y6.5214 Z-0.1362 I0. J0.0214
Y6.4786 Z-0.1531 I0. J-0.0214
Y6.5214 Z-0.1701 I0. J0.0214
Y6.4786 Z-0.187 I0. J-0.0214
Y6.5214 Z-0.2039 I0. J0.0214
Y6.4786 Z-0.2208 I0. J-0.0214
Y6.5214 Z-0.2378 I0. J0.0214
Y6.4786 Z-0.2547 I0. J-0.0214
Y6.5214 Z-0.2716 I0. J0.0214
X-8.5964 Y6.5003 Z-0.28 I0. J-0.0214
X-8.5536 Y6.4997 I0.0214 J-0.0003
X-8.5964 Y6.5003 I-0.0214 J0.0003
X-8.5859 Y6.4895 I0.0107 J-0.0002
G1 X-8.5784 Y6.4894
X-8.5755 Y6.4893 Z-0.2797
X-8.5727 Z-0.2789
X-8.5701 Y6.4892 Z-0.2775
X-8.5679 Z-0.2756
X-8.566 Z-0.2734
X-8.5646 Y6.4891 Z-0.2708
X-8.5638 Z-0.268
X-8.5635 Z-0.2651
G0 Z0.4
X-8.0857 Y6.5117
Z0.13
G1 Z0.0649 F40.
G19 G2 Y6.4968 Z0.05 J-0.0149 K0.
G1 Y6.4893
G17 G3 X-8.075 Y6.4786 I0.0107 J0.
Y6.5214 Z0.0331 I0. J0.0214
Y6.4786 Z0.0161 I0. J-0.0214
Y6.5214 Z-0.0008 I0. J0.0214
Y6.4786 Z-0.0177 I0. J-0.0214
Y6.5214 Z-0.0346 I0. J0.0214
Y6.4786 Z-0.0516 I0. J-0.0214
Y6.5214 Z-0.0685 I0. J0.0214
Y6.4786 Z-0.0854 I0. J-0.0214
Y6.5214 Z-0.1023 I0. J0.0214
Y6.4786 Z-0.1193 I0. J-0.0214
Y6.5214 Z-0.1362 I0. J0.0214
Y6.4786 Z-0.1531 I0. J-0.0214
Y6.5214 Z-0.1701 I0. J0.0214
Y6.4786 Z-0.187 I0. J-0.0214
Y6.5214 Z-0.2039 I0. J0.0214
Y6.4786 Z-0.2208 I0. J-0.0214
Y6.5214 Z-0.2378 I0. J0.0214
Y6.4786 Z-0.2547 I0. J-0.0214
Y6.5214 Z-0.2716 I0. J0.0214
X-8.0964 Y6.5003 Z-0.28 I0. J-0.0214
X-8.0536 Y6.4997 I0.0214 J-0.0003
X-8.0964 Y6.5003 I-0.0214 J0.0003
X-8.0859 Y6.4895 I0.0107 J-0.0002
G1 X-8.0784 Y6.4894
X-8.0755 Y6.4893 Z-0.2797
X-8.0727 Z-0.2789
X-8.0701 Y6.4892 Z-0.2775
X-8.0679 Z-0.2756
X-8.066 Z-0.2734
X-8.0646 Y6.4891 Z-0.2708
X-8.0638 Z-0.268
X-8.0635 Z-0.2651
G0 Z0.4
X-8.5857 Y13.5117
Z0.13
G1 Z0.0649 F40.
G19 G2 Y13.4968 Z0.05 J-0.0149 K0.
G1 Y13.4893
G17 G3 X-8.575 Y13.4786 I0.0107 J0.
Y13.5214 Z0.0331 I0. J0.0214
X-8.5964 Y13.5 Z0.0246 I0. J-0.0214
X-8.5536 Z0.0077 I0.0214 J0.
X-8.5964 Z-0.0092 I-0.0214 J0.
X-8.5536 Z-0.0262 I0.0214 J0.
X-8.5964 Z-0.0431 I-0.0214 J0.
X-8.5536 Z-0.06 I0.0214 J0.
X-8.5964 Z-0.0769 I-0.0214 J0.
X-8.5536 Z-0.0939 I0.0214 J0.
X-8.5964 Z-0.1108 I-0.0214 J0.
X-8.5536 Z-0.1277 I0.0214 J0.
X-8.5964 Z-0.1447 I-0.0214 J0.
X-8.5536 Z-0.1616 I0.0214 J0.
X-8.5964 Z-0.1785 I-0.0214 J0.
X-8.5536 Z-0.1954 I0.0214 J0.
X-8.5964 Z-0.2124 I-0.0214 J0.
X-8.5536 Z-0.2293 I0.0214 J0.
X-8.5964 Z-0.2462 I-0.0214 J0.
X-8.5536 Z-0.2632 I0.0214 J0.
X-8.5964 Y13.5003 Z-0.28 I-0.0214 J0.
X-8.5536 Y13.4997 I0.0214 J-0.0003
X-8.5964 Y13.5003 I-0.0214 J0.0003
X-8.5859 Y13.4895 I0.0107 J-0.0002
G1 X-8.5784 Y13.4894
X-8.5755 Y13.4893 Z-0.2797
X-8.5727 Z-0.2789
X-8.5701 Y13.4892 Z-0.2775
X-8.5679 Z-0.2756
X-8.566 Z-0.2734
X-8.5646 Y13.4891 Z-0.2708
X-8.5638 Z-0.268
X-8.5635 Z-0.2651
G0 Z0.4
X-8.0857 Y13.5117
Z0.13
G1 Z0.0649 F40.
G19 G2 Y13.4968 Z0.05 J-0.0149 K0.
G1 Y13.4893
G17 G3 X-8.075 Y13.4786 I0.0107 J0.
Y13.5214 Z0.0331 I0. J0.0214
X-8.0964 Y13.5 Z0.0246 I0. J-0.0214
X-8.0536 Z0.0077 I0.0214 J0.
X-8.0964 Z-0.0092 I-0.0214 J0.
X-8.0536 Z-0.0262 I0.0214 J0.
X-8.0964 Z-0.0431 I-0.0214 J0.
X-8.0536 Z-0.06 I0.0214 J0.
X-8.0964 Z-0.0769 I-0.0214 J0.
X-8.0536 Z-0.0939 I0.0214 J0.
X-8.0964 Z-0.1108 I-0.0214 J0.
X-8.0536 Z-0.1277 I0.0214 J0.
X-8.0964 Z-0.1447 I-0.0214 J0.
X-8.0536 Z-0.1616 I0.0214 J0.
X-8.0964 Z-0.1785 I-0.0214 J0.
X-8.0536 Z-0.1954 I0.0214 J0.
X-8.0964 Z-0.2124 I-0.0214 J0.
X-8.0536 Z-0.2293 I0.0214 J0.
X-8.0964 Z-0.2462 I-0.0214 J0.
X-8.0536 Z-0.2632 I0.0214 J0.
X-8.0964 Y13.5003 Z-0.28 I-0.0214 J0.
X-8.0536 Y13.4997 I0.0214 J-0.0003
X-8.0964 Y13.5003 I-0.0214 J0.0003
X-8.0859 Y13.4895 I0.0107 J-0.0002
G1 X-8.0784 Y13.4894
X-8.0755 Y13.4893 Z-0.2797
X-8.0727 Z-0.2789
X-8.0701 Y13.4892 Z-0.2775
X-8.0679 Z-0.2756
X-8.066 Z-0.2734
X-8.0646 Y13.4891 Z-0.2708
X-8.0638 Z-0.268
X-8.0635 Z-0.2651
G0 Z0.4
X-8.0857 Y12.5117
Z0.13
G1 Z0.0649 F40.
G19 G2 Y12.4968 Z0.05 J-0.0149 K0.
G1 Y12.4893
G17 G3 X-8.075 Y12.4786 I0.0107 J0.
Y12.5214 Z0.0331 I0. J0.0214
Y12.4786 Z0.0161 I0. J-0.0214
Y12.5214 Z-0.0008 I0. J0.0214
Y12.4786 Z-0.0177 I0. J-0.0214
Y12.5214 Z-0.0346 I0. J0.0214
Y12.4786 Z-0.0516 I0. J-0.0214
Y12.5214 Z-0.0685 I0. J0.0214
Y12.4786 Z-0.0854 I0. J-0.0214
Y12.5214 Z-0.1023 I0. J0.0214
Y12.4786 Z-0.1193 I0. J-0.0214
Y12.5214 Z-0.1362 I0. J0.0214
Y12.4786 Z-0.1531 I0. J-0.0214
Y12.5214 Z-0.1701 I0. J0.0214
Y12.4786 Z-0.187 I0. J-0.0214
Y12.5214 Z-0.2039 I0. J0.0214
Y12.4786 Z-0.2208 I0. J-0.0214
Y12.5214 Z-0.2378 I0. J0.0214
Y12.4786 Z-0.2547 I0. J-0.0214
Y12.5214 Z-0.2716 I0. J0.0214
X-8.0964 Y12.5003 Z-0.28 I0. J-0.0214
X-8.0536 Y12.4997 I0.0214 J-0.0003
X-8.0964 Y12.5003 I-0.0214 J0.0003
X-8.0859 Y12.4895 I0.0107 J-0.0002
G1 X-8.0784 Y12.4894
X-8.0755 Y12.4893 Z-0.2797
X-8.0727 Z-0.2789
X-8.0701 Y12.4892 Z-0.2775
X-8.0679 Z-0.2756
X-8.066 Z-0.2734
X-8.0646 Y12.4891 Z-0.2708
X-8.0638 Z-0.268
X-8.0635 Z-0.2651
G0 Z0.4
X-8.5857 Y12.5117
Z0.13
G1 Z0.0649 F40.
G19 G2 Y12.4968 Z0.05 J-0.0149 K0.
G1 Y12.4893
G17 G3 X-8.575 Y12.4786 I0.0107 J0.
Y12.5214 Z0.0331 I0. J0.0214
Y12.4786 Z0.0161 I0. J-0.0214
Y12.5214 Z-0.0008 I0. J0.0214
Y12.4786 Z-0.0177 I0. J-0.0214
Y12.5214 Z-0.0346 I0. J0.0214
Y12.4786 Z-0.0516 I0. J-0.0214
Y12.5214 Z-0.0685 I0. J0.0214
Y12.4786 Z-0.0854 I0. J-0.0214
Y12.5214 Z-0.1023 I0. J0.0214
Y12.4786 Z-0.1193 I0. J-0.0214
Y12.5214 Z-0.1362 I0. J0.0214
Y12.4786 Z-0.1531 I0. J-0.0214
Y12.5214 Z-0.1701 I0. J0.0214
Y12.4786 Z-0.187 I0. J-0.0214
Y12.5214 Z-0.2039 I0. J0.0214
Y12.4786 Z-0.2208 I0. J-0.0214
Y12.5214 Z-0.2378 I0. J0.0214
Y12.4786 Z-0.2547 I0. J-0.0214
Y12.5214 Z-0.2716 I0. J0.0214
X-8.5964 Y12.5003 Z-0.28 I0. J-0.0214
X-8.5536 Y12.4997 I0.0214 J-0.0003
X-8.5964 Y12.5003 I-0.0214 J0.0003
X-8.5859 Y12.4895 I0.0107 J-0.0002
G1 X-8.5784 Y12.4894
X-8.5755 Y12.4893 Z-0.2797
X-8.5727 Z-0.2789
X-8.5701 Y12.4892 Z-0.2775
X-8.5679 Z-0.2756
X-8.566 Z-0.2734
X-8.5646 Y12.4891 Z-0.2708
X-8.5638 Z-0.268
X-8.5635 Z-0.2651
G0 Z0.4
X-8.5857 Y11.5117
Z0.13
G1 Z0.0649 F40.
G19 G2 Y11.4968 Z0.05 J-0.0149 K0.
G1 Y11.4893
G17 G3 X-8.575 Y11.4786 I0.0107 J0.
Y11.5214 Z0.0331 I0. J0.0214
Y11.4786 Z0.0161 I0. J-0.0214
Y11.5214 Z-0.0008 I0. J0.0214
Y11.4786 Z-0.0177 I0. J-0.0214
Y11.5214 Z-0.0346 I0. J0.0214
Y11.4786 Z-0.0516 I0. J-0.0214
Y11.5214 Z-0.0685 I0. J0.0214
Y11.4786 Z-0.0854 I0. J-0.0214
Y11.5214 Z-0.1023 I0. J0.0214
Y11.4786 Z-0.1193 I0. J-0.0214
Y11.5214 Z-0.1362 I0. J0.0214
Y11.4786 Z-0.1531 I0. J-0.0214
Y11.5214 Z-0.1701 I0. J0.0214
Y11.4786 Z-0.187 I0. J-0.0214
Y11.5214 Z-0.2039 I0. J0.0214
Y11.4786 Z-0.2208 I0. J-0.0214
Y11.5214 Z-0.2378 I0. J0.0214
Y11.4786 Z-0.2547 I0. J-0.0214
Y11.5214 Z-0.2716 I0. J0.0214
X-8.5964 Y11.5003 Z-0.28 I0. J-0.0214
X-8.5536 Y11.4997 I0.0214 J-0.0003
X-8.5964 Y11.5003 I-0.0214 J0.0003
X-8.5859 Y11.4895 I0.0107 J-0.0002
G1 X-8.5784 Y11.4894
X-8.5755 Y11.4893 Z-0.2797
X-8.5727 Z-0.2789
X-8.5701 Y11.4892 Z-0.2775
X-8.5679 Z-0.2756
X-8.566 Z-0.2734
X-8.5646 Y11.4891 Z-0.2708
X-8.5638 Z-0.268
X-8.5635 Z-0.2651
G0 Z0.4
X-8.0857 Y11.5117
Z0.13
G1 Z0.0649 F40.
G19 G2 Y11.4968 Z0.05 J-0.0149 K0.
G1 Y11.4893
G17 G3 X-8.075 Y11.4786 I0.0107 J0.
Y11.5214 Z0.0331 I0. J0.0214
Y11.4786 Z0.0161 I0. J-0.0214
Y11.5214 Z-0.0008 I0. J0.0214
Y11.4786 Z-0.0177 I0. J-0.0214
Y11.5214 Z-0.0346 I0. J0.0214
Y11.4786 Z-0.0516 I0. J-0.0214
Y11.5214 Z-0.0685 I0. J0.0214
Y11.4786 Z-0.0854 I0. J-0.0214
Y11.5214 Z-0.1023 I0. J0.0214
Y11.4786 Z-0.1193 I0. J-0.0214
Y11.5214 Z-0.1362 I0. J0.0214
Y11.4786 Z-0.1531 I0. J-0.0214
Y11.5214 Z-0.1701 I0. J0.0214
Y11.4786 Z-0.187 I0. J-0.0214
Y11.5214 Z-0.2039 I0. J0.0214
Y11.4786 Z-0.2208 I0. J-0.0214
Y11.5214 Z-0.2378 I0. J0.0214
Y11.4786 Z-0.2547 I0. J-0.0214
Y11.5214 Z-0.2716 I0. J0.0214
X-8.0964 Y11.5003 Z-0.28 I0. J-0.0214
X-8.0536 Y11.4997 I0.0214 J-0.0003
X-8.0964 Y11.5003 I-0.0214 J0.0003
X-8.0859 Y11.4895 I0.0107 J-0.0002
G1 X-8.0784 Y11.4894
X-8.0755 Y11.4893 Z-0.2797
X-8.0727 Z-0.2789
X-8.0701 Y11.4892 Z-0.2775
X-8.0679 Z-0.2756
X-8.066 Z-0.2734
X-8.0646 Y11.4891 Z-0.2708
X-8.0638 Z-0.268
X-8.0635 Z-0.2651
G0 Z0.4
X-8.0857 Y10.5117
Z0.13
G1 Z0.0649 F40.
G19 G2 Y10.4968 Z0.05 J-0.0149 K0.
G1 Y10.4893
G17 G3 X-8.075 Y10.4786 I0.0107 J0.
Y10.5214 Z0.0331 I0. J0.0214
Y10.4786 Z0.0161 I0. J-0.0214
Y10.5214 Z-0.0008 I0. J0.0214
Y10.4786 Z-0.0177 I0. J-0.0214
Y10.5214 Z-0.0346 I0. J0.0214
Y10.4786 Z-0.0516 I0. J-0.0214
Y10.5214 Z-0.0685 I0. J0.0214
Y10.4786 Z-0.0854 I0. J-0.0214
Y10.5214 Z-0.1023 I0. J0.0214
Y10.4786 Z-0.1193 I0. J-0.0214
Y10.5214 Z-0.1362 I0. J0.0214
Y10.4786 Z-0.1531 I0. J-0.0214
Y10.5214 Z-0.1701 I0. J0.0214
Y10.4786 Z-0.187 I0. J-0.0214
Y10.5214 Z-0.2039 I0. J0.0214
Y10.4786 Z-0.2208 I0. J-0.0214
Y10.5214 Z-0.2378 I0. J0.0214
Y10.4786 Z-0.2547 I0. J-0.0214
Y10.5214 Z-0.2716 I0. J0.0214
X-8.0964 Y10.5003 Z-0.28 I0. J-0.0214
X-8.0536 Y10.4997 I0.0214 J-0.0003
X-8.0964 Y10.5003 I-0.0214 J0.0003
X-8.0859 Y10.4895 I0.0107 J-0.0002
G1 X-8.0784 Y10.4894
X-8.0755 Y10.4893 Z-0.2797
X-8.0727 Z-0.2789
X-8.0701 Y10.4892 Z-0.2775
X-8.0679 Z-0.2756
X-8.066 Z-0.2734
X-8.0646 Y10.4891 Z-0.2708
X-8.0638 Z-0.268
X-8.0635 Z-0.2651
G0 Z0.4
X-8.5857 Y10.5117
Z0.13
G1 Z0.0649 F40.
G19 G2 Y10.4968 Z0.05 J-0.0149 K0.
G1 Y10.4893
G17 G3 X-8.575 Y10.4786 I0.0107 J0.
Y10.5214 Z0.0331 I0. J0.0214
Y10.4786 Z0.0161 I0. J-0.0214
Y10.5214 Z-0.0008 I0. J0.0214
Y10.4786 Z-0.0177 I0. J-0.0214
Y10.5214 Z-0.0346 I0. J0.0214
Y10.4786 Z-0.0516 I0. J-0.0214
Y10.5214 Z-0.0685 I0. J0.0214
Y10.4786 Z-0.0854 I0. J-0.0214
Y10.5214 Z-0.1023 I0. J0.0214
Y10.4786 Z-0.1193 I0. J-0.0214
Y10.5214 Z-0.1362 I0. J0.0214
Y10.4786 Z-0.1531 I0. J-0.0214
Y10.5214 Z-0.1701 I0. J0.0214
Y10.4786 Z-0.187 I0. J-0.0214
Y10.5214 Z-0.2039 I0. J0.0214
Y10.4786 Z-0.2208 I0. J-0.0214
Y10.5214 Z-0.2378 I0. J0.0214
Y10.4786 Z-0.2547 I0. J-0.0214
Y10.5214 Z-0.2716 I0. J0.0214
X-8.5964 Y10.5003 Z-0.28 I0. J-0.0214
X-8.5536 Y10.4997 I0.0214 J-0.0003
X-8.5964 Y10.5003 I-0.0214 J0.0003
X-8.5859 Y10.4895 I0.0107 J-0.0002
G1 X-8.5784 Y10.4894
X-8.5755 Y10.4893 Z-0.2797
X-8.5727 Z-0.2789
X-8.5701 Y10.4892 Z-0.2775
X-8.5679 Z-0.2756
X-8.566 Z-0.2734
X-8.5646 Y10.4891 Z-0.2708
X-8.5638 Z-0.268
X-8.5635 Z-0.2651
G0 Z0.4
X-8.5643 Y9.4883
Z0.13
G1 Z0.0649 F40.
G19 G3 Y9.5032 Z0.05 J0.0149 K0.
G1 Y9.5107
G17 G3 X-8.575 Y9.5214 I-0.0107 J0.
Y9.4786 Z0.0331 I0. J-0.0214
Y9.5214 Z0.0161 I0. J0.0214
Y9.4786 Z-0.0008 I0. J-0.0214
Y9.5214 Z-0.0177 I0. J0.0214
Y9.4786 Z-0.0346 I0. J-0.0214
Y9.5214 Z-0.0516 I0. J0.0214
Y9.4786 Z-0.0685 I0. J-0.0214
Y9.5214 Z-0.0854 I0. J0.0214
Y9.4786 Z-0.1023 I0. J-0.0214
Y9.5214 Z-0.1193 I0. J0.0214
Y9.4786 Z-0.1362 I0. J-0.0214
Y9.5214 Z-0.1531 I0. J0.0214
Y9.4786 Z-0.1701 I0. J-0.0214
Y9.5214 Z-0.187 I0. J0.0214
Y9.4786 Z-0.2039 I0. J-0.0214
Y9.5214 Z-0.2208 I0. J0.0214
Y9.4786 Z-0.2378 I0. J-0.0214
Y9.5214 Z-0.2547 I0. J0.0214
Y9.4786 Z-0.2716 I0. J-0.0214
X-8.5536 Y9.4997 Z-0.28 I0. J0.0214
X-8.5964 Y9.5003 I-0.0214 J0.0003
X-8.5536 Y9.4997 I0.0214 J-0.0003
X-8.5641 Y9.5105 I-0.0107 J0.0002
G1 X-8.5716 Y9.5106
X-8.5745 Y9.5107 Z-0.2797
X-8.5773 Z-0.2789
X-8.5799 Y9.5108 Z-0.2775
X-8.5821 Z-0.2756
X-8.584 Z-0.2734
X-8.5854 Y9.5109 Z-0.2708
X-8.5862 Z-0.268
X-8.5865 Z-0.2651
G0 Z0.4
X-8.0643 Y9.4883
Z0.13
G1 Z0.0649 F40.
G19 G3 Y9.5032 Z0.05 J0.0149 K0.
G1 Y9.5107
G17 G3 X-8.075 Y9.5214 I-0.0107 J0.
Y9.4786 Z0.0331 I0. J-0.0214
Y9.5214 Z0.0161 I0. J0.0214
Y9.4786 Z-0.0008 I0. J-0.0214
Y9.5214 Z-0.0177 I0. J0.0214
Y9.4786 Z-0.0346 I0. J-0.0214
Y9.5214 Z-0.0516 I0. J0.0214
Y9.4786 Z-0.0685 I0. J-0.0214
Y9.5214 Z-0.0854 I0. J0.0214
Y9.4786 Z-0.1023 I0. J-0.0214
Y9.5214 Z-0.1193 I0. J0.0214
Y9.4786 Z-0.1362 I0. J-0.0214
Y9.5214 Z-0.1531 I0. J0.0214
Y9.4786 Z-0.1701 I0. J-0.0214
Y9.5214 Z-0.187 I0. J0.0214
Y9.4786 Z-0.2039 I0. J-0.0214
Y9.5214 Z-0.2208 I0. J0.0214
Y9.4786 Z-0.2378 I0. J-0.0214
Y9.5214 Z-0.2547 I0. J0.0214
Y9.4786 Z-0.2716 I0. J-0.0214
X-8.0536 Y9.4997 Z-0.28 I0. J0.0214
X-8.0964 Y9.5003 I-0.0214 J0.0003
X-8.0536 Y9.4997 I0.0214 J-0.0003
X-8.0641 Y9.5105 I-0.0107 J0.0002
G1 X-8.0716 Y9.5106
X-8.0745 Y9.5107 Z-0.2797
X-8.0773 Z-0.2789
X-8.0799 Y9.5108 Z-0.2775
X-8.0821 Z-0.2756
X-8.084 Z-0.2734
X-8.0854 Y9.5109 Z-0.2708
X-8.0862 Z-0.268
X-8.0865 Z-0.2651
G0 Z0.4
X-8.075 Y8.
Z0.1151
G1 Z0.05 F40.
X-8.0726 Y8.0025
G3 X-8.075 Y8.0049 I-0.0024 J0.
Y7.9951 Z0.036 I0. J-0.0049
Y8.0049 Z0.022 I0. J0.0049
Y7.9951 Z0.0079 I0. J-0.0049
Y8.0049 Z-0.0061 I0. J0.0049
Y7.9951 Z-0.0201 I0. J-0.0049
Y8.0049 Z-0.0341 I0. J0.0049
Y7.9951 Z-0.0481 I0. J-0.0049
Y8.0049 Z-0.0621 I0. J0.0049
Y7.9951 Z-0.0762 I0. J-0.0049
Y8.0049 Z-0.0902 I0. J0.0049
Y7.9951 Z-0.1042 I0. J-0.0049
Y8.0049 Z-0.1182 I0. J0.0049
Y7.9951 Z-0.1322 I0. J-0.0049
Y8.0049 Z-0.1463 I0. J0.0049
Y7.9951 Z-0.1603 I0. J-0.0049
Y8.0049 Z-0.1743 I0. J0.0049
Y7.9951 Z-0.1883 I0. J-0.0049
X-8.0707 Y8.0023 Z-0.1975 I0. J0.0049
X-8.0793 Y7.9977 Z-0.2115 I-0.0043 J-0.0023
X-8.0707 Y8.0023 Z-0.2255 I0.0043 J0.0023
X-8.0797 Y7.9985 Z-0.2387 I-0.0043 J-0.0023
X-8.0703 Y8.0015 Z-0.2528 I0.0047 J0.0015
X-8.0761 Y8.0048 Z-0.2594 I-0.0047 J-0.0015
X-8.0739 Y7.9952 Z-0.2734 I0.0011 J-0.0048
X-8.0701 Y8.0006 Z-0.28 I-0.0011 J0.0048
X-8.0799 Y7.9994 I-0.0049 J-0.0006
X-8.0701 Y8.0006 I0.0049 J0.0006
X-8.0729 Y8.0027 I-0.0024 J-0.0003
G1 X-8.075 Y8.
G0 Z0.4
X-7.2188 Y7.3995
Z0.13
G1 Z0.0649 F40.
G19 G3 Y7.4144 Z0.05 J0.0149 K0.
G1 Y7.4219
G17 G3 X-7.2295 Y7.4326 I-0.0107 J0.
Y7.3898 Z0.0331 I0. J-0.0214
Y7.4326 Z0.0161 I0. J0.0214
Y7.3898 Z-0.0008 I0. J-0.0214
Y7.4326 Z-0.0177 I0. J0.0214
Y7.3898 Z-0.0346 I0. J-0.0214
Y7.4326 Z-0.0516 I0. J0.0214
Y7.3898 Z-0.0685 I0. J-0.0214
Y7.4326 Z-0.0854 I0. J0.0214
Y7.3898 Z-0.1023 I0. J-0.0214
Y7.4326 Z-0.1193 I0. J0.0214
Y7.3898 Z-0.1362 I0. J-0.0214
Y7.4326 Z-0.1531 I0. J0.0214
Y7.3898 Z-0.1701 I0. J-0.0214
Y7.4326 Z-0.187 I0. J0.0214
Y7.3898 Z-0.2039 I0. J-0.0214
Y7.4326 Z-0.2208 I0. J0.0214
Y7.3898 Z-0.2378 I0. J-0.0214
Y7.4326 Z-0.2547 I0. J0.0214
Y7.3898 Z-0.2716 I0. J-0.0214
X-7.2082 Y7.4109 Z-0.28 I0. J0.0214
X-7.2509 Y7.4115 I-0.0214 J0.0003
X-7.2082 Y7.4109 I0.0214 J-0.0003
X-7.2187 Y7.4217 I-0.0107 J0.0002
G1 X-7.2261 Y7.4219
X-7.2291 Z-0.2797
X-7.2319 Z-0.2789
X-7.2344 Y7.422 Z-0.2775
X-7.2367 Z-0.2756
X-7.2385 Z-0.2734
X-7.2399 Y7.4221 Z-0.2708
X-7.2408 Z-0.268
X-7.2411 Z-0.2651
G0 Z0.4
X-6.3982 Y6.828
Z0.13
G1 Z0.0649 F40.
G19 G3 Y6.8429 Z0.05 J0.0149 K0.
G1 Y6.8504
G17 G3 X-6.4089 Y6.8611 I-0.0107 J0.
Y6.8183 Z0.0331 I0. J-0.0214
Y6.8611 Z0.0161 I0. J0.0214
Y6.8183 Z-0.0008 I0. J-0.0214
Y6.8611 Z-0.0177 I0. J0.0214
Y6.8183 Z-0.0346 I0. J-0.0214
Y6.8611 Z-0.0516 I0. J0.0214
Y6.8183 Z-0.0685 I0. J-0.0214
Y6.8611 Z-0.0854 I0. J0.0214
Y6.8183 Z-0.1023 I0. J-0.0214
Y6.8611 Z-0.1193 I0. J0.0214
Y6.8183 Z-0.1362 I0. J-0.0214
Y6.8611 Z-0.1531 I0. J0.0214
Y6.8183 Z-0.1701 I0. J-0.0214
Y6.8611 Z-0.187 I0. J0.0214
Y6.8183 Z-0.2039 I0. J-0.0214
Y6.8611 Z-0.2208 I0. J0.0214
Y6.8183 Z-0.2378 I0. J-0.0214
Y6.8611 Z-0.2547 I0. J0.0214
Y6.8183 Z-0.2716 I0. J-0.0214
X-6.3875 Y6.8394 Z-0.28 I0. J0.0214
X-6.4303 Y6.84 I-0.0214 J0.0003
X-6.3875 Y6.8394 I0.0214 J-0.0003
X-6.3981 Y6.8502 I-0.0107 J0.0002
G1 X-6.4055 Y6.8504
X-6.4084 Z-0.2797
X-6.4112 Z-0.2789
X-6.4138 Y6.8505 Z-0.2775
X-6.4161 Z-0.2756
X-6.4179 Y6.8506 Z-0.2734
X-6.4193 Z-0.2708
X-6.4202 Z-0.268
X-6.4205 Z-0.2651
G0 Z0.4
X-5.5776 Y6.2565
Z0.13
G1 Z0.0649 F40.
G19 G3 Y6.2715 Z0.05 J0.0149 K0.
G1 Y6.2789
G17 G3 X-5.5883 Y6.2896 I-0.0107 J0.
Y6.2468 Z0.0331 I0. J-0.0214
Y6.2896 Z0.0161 I0. J0.0214
Y6.2468 Z-0.0008 I0. J-0.0214
Y6.2896 Z-0.0177 I0. J0.0214
Y6.2468 Z-0.0346 I0. J-0.0214
Y6.2896 Z-0.0516 I0. J0.0214
Y6.2468 Z-0.0685 I0. J-0.0214
Y6.2896 Z-0.0854 I0. J0.0214
Y6.2468 Z-0.1023 I0. J-0.0214
Y6.2896 Z-0.1193 I0. J0.0214
Y6.2468 Z-0.1362 I0. J-0.0214
Y6.2896 Z-0.1531 I0. J0.0214
Y6.2468 Z-0.1701 I0. J-0.0214
Y6.2896 Z-0.187 I0. J0.0214
Y6.2468 Z-0.2039 I0. J-0.0214
Y6.2896 Z-0.2208 I0. J0.0214
Y6.2468 Z-0.2378 I0. J-0.0214
Y6.2896 Z-0.2547 I0. J0.0214
Y6.2468 Z-0.2716 I0. J-0.0214
X-5.5669 Y6.2679 Z-0.28 I0. J0.0214
X-5.6097 Y6.2685 I-0.0214 J0.0003
X-5.5669 Y6.2679 I0.0214 J-0.0003
X-5.5775 Y6.2787 I-0.0107 J0.0002
G1 X-5.5849 Y6.2789
X-5.5878 Z-0.2797
X-5.5906 Y6.279 Z-0.2789
X-5.5932 Z-0.2775
X-5.5955 Z-0.2756
X-5.5973 Y6.2791 Z-0.2734
X-5.5987 Z-0.2708
X-5.5996 Z-0.268
X-5.5998 Z-0.2651
G0 Z0.4
X-4.757 Y5.685
Z0.13
G1 Z0.0649 F40.
G19 G3 Y5.7 Z0.05 J0.0149 K0.
G1 Y5.7074
G17 G3 X-4.7677 Y5.7181 I-0.0107 J0.
Y5.6753 Z0.0331 I0. J-0.0214
Y5.7181 Z0.0161 I0. J0.0214
Y5.6753 Z-0.0008 I0. J-0.0214
Y5.7181 Z-0.0177 I0. J0.0214
Y5.6753 Z-0.0346 I0. J-0.0214
Y5.7181 Z-0.0516 I0. J0.0214
Y5.6753 Z-0.0685 I0. J-0.0214
Y5.7181 Z-0.0854 I0. J0.0214
Y5.6753 Z-0.1023 I0. J-0.0214
Y5.7181 Z-0.1193 I0. J0.0214
Y5.6753 Z-0.1362 I0. J-0.0214
Y5.7181 Z-0.1531 I0. J0.0214
Y5.6753 Z-0.1701 I0. J-0.0214
Y5.7181 Z-0.187 I0. J0.0214
Y5.6753 Z-0.2039 I0. J-0.0214
Y5.7181 Z-0.2208 I0. J0.0214
Y5.6753 Z-0.2378 I0. J-0.0214
Y5.7181 Z-0.2547 I0. J0.0214
Y5.6753 Z-0.2716 I0. J-0.0214
X-4.7463 Y5.6964 Z-0.28 I0. J0.0214
X-4.7891 Y5.6971 I-0.0214 J0.0003
X-4.7463 Y5.6964 I0.0214 J-0.0003
X-4.7569 Y5.7073 I-0.0107 J0.0002
G1 X-4.7643 Y5.7074
X-4.7672 Z-0.2797
X-4.77 Y5.7075 Z-0.2789
X-4.7726 Z-0.2775
X-4.7749 Z-0.2756
X-4.7767 Y5.7076 Z-0.2734
X-4.7781 Z-0.2708
X-4.779 Z-0.268
X-4.7792 Z-0.2651
G0 Z0.4
X-3.9364 Y5.1135
Z0.13
G1 Z0.0649 F40.
G19 G3 Y5.1285 Z0.05 J0.0149 K0.
G1 Y5.1359
G17 G3 X-3.9471 Y5.1466 I-0.0107 J0.
Y5.1038 Z0.0331 I0. J-0.0214
Y5.1466 Z0.0161 I0. J0.0214
Y5.1038 Z-0.0008 I0. J-0.0214
Y5.1466 Z-0.0177 I0. J0.0214
Y5.1038 Z-0.0346 I0. J-0.0214
Y5.1466 Z-0.0516 I0. J0.0214
Y5.1038 Z-0.0685 I0. J-0.0214
Y5.1466 Z-0.0854 I0. J0.0214
Y5.1038 Z-0.1023 I0. J-0.0214
Y5.1466 Z-0.1193 I0. J0.0214
Y5.1038 Z-0.1362 I0. J-0.0214
Y5.1466 Z-0.1531 I0. J0.0214
Y5.1038 Z-0.1701 I0. J-0.0214
Y5.1466 Z-0.187 I0. J0.0214
Y5.1038 Z-0.2039 I0. J-0.0214
Y5.1466 Z-0.2208 I0. J0.0214
Y5.1038 Z-0.2378 I0. J-0.0214
Y5.1466 Z-0.2547 I0. J0.0214
Y5.1038 Z-0.2716 I0. J-0.0214
X-3.9257 Y5.1249 Z-0.28 I0. J0.0214
X-3.9685 Y5.1256 I-0.0214 J0.0003
X-3.9257 Y5.1249 I0.0214 J-0.0003
X-3.9363 Y5.1358 I-0.0107 J0.0002
G1 X-3.9437 Y5.1359
X-3.9466 Z-0.2797
X-3.9494 Y5.136 Z-0.2789
X-3.952 Z-0.2775
X-3.9543 Z-0.2756
X-3.9561 Y5.1361 Z-0.2734
X-3.9575 Z-0.2708
X-3.9583 Z-0.268
X-3.9586 Z-0.2651
G0 Z0.4
X-3.1158 Y4.5421
Z0.13
G1 Z0.0649 F40.
G19 G3 Y4.557 Z0.05 J0.0149 K0.
G1 Y4.5644
G17 G3 X-3.1265 Y4.5751 I-0.0107 J0.
Y4.5323 Z0.0331 I0. J-0.0214
Y4.5751 Z0.0161 I0. J0.0214
Y4.5323 Z-0.0008 I0. J-0.0214
Y4.5751 Z-0.0177 I0. J0.0214
Y4.5323 Z-0.0346 I0. J-0.0214
Y4.5751 Z-0.0516 I0. J0.0214
Y4.5323 Z-0.0685 I0. J-0.0214
Y4.5751 Z-0.0854 I0. J0.0214
Y4.5323 Z-0.1023 I0. J-0.0214
Y4.5751 Z-0.1193 I0. J0.0214
Y4.5323 Z-0.1362 I0. J-0.0214
Y4.5751 Z-0.1531 I0. J0.0214
Y4.5323 Z-0.1701 I0. J-0.0214
Y4.5751 Z-0.187 I0. J0.0214
Y4.5323 Z-0.2039 I0. J-0.0214
Y4.5751 Z-0.2208 I0. J0.0214
Y4.5323 Z-0.2378 I0. J-0.0214
Y4.5751 Z-0.2547 I0. J0.0214
Y4.5323 Z-0.2716 I0. J-0.0214
X-3.1051 Y4.5534 Z-0.28 I0. J0.0214
X-3.1479 Y4.5541 I-0.0214 J0.0003
X-3.1051 Y4.5534 I0.0214 J-0.0003
X-3.1157 Y4.5643 I-0.0107 J0.0002
G1 X-3.1231 Y4.5644
X-3.126 Z-0.2797
X-3.1288 Y4.5645 Z-0.2789
X-3.1314 Z-0.2775
X-3.1337 Z-0.2756
X-3.1355 Y4.5646 Z-0.2734
X-3.1369 Z-0.2708
X-3.1377 Z-0.268
X-3.138 Z-0.2651
G0 Z0.4
X-2.2952 Y3.9706
Z0.13
G1 Z0.0649 F40.
G19 G3 Y3.9855 Z0.05 J0.0149 K0.
G1 Y3.9929
G17 G3 X-2.3059 Y4.0036 I-0.0107 J0.
Y3.9608 Z0.0331 I0. J-0.0214
Y4.0036 Z0.0161 I0. J0.0214
Y3.9608 Z-0.0008 I0. J-0.0214
Y4.0036 Z-0.0177 I0. J0.0214
Y3.9608 Z-0.0346 I0. J-0.0214
Y4.0036 Z-0.0516 I0. J0.0214
Y3.9608 Z-0.0685 I0. J-0.0214
Y4.0036 Z-0.0854 I0. J0.0214
Y3.9608 Z-0.1023 I0. J-0.0214
Y4.0036 Z-0.1193 I0. J0.0214
Y3.9608 Z-0.1362 I0. J-0.0214
Y4.0036 Z-0.1531 I0. J0.0214
Y3.9608 Z-0.1701 I0. J-0.0214
Y4.0036 Z-0.187 I0. J0.0214
Y3.9608 Z-0.2039 I0. J-0.0214
Y4.0036 Z-0.2208 I0. J0.0214
Y3.9608 Z-0.2378 I0. J-0.0214
Y4.0036 Z-0.2547 I0. J0.0214
Y3.9608 Z-0.2716 I0. J-0.0214
X-2.2845 Y3.9819 Z-0.28 I0. J0.0214
X-2.3273 Y3.9826 I-0.0214 J0.0003
X-2.2845 Y3.9819 I0.0214 J-0.0003
X-2.295 Y3.9928 I-0.0107 J0.0002
G1 X-2.3025 Y3.9929
X-2.3054 Z-0.2797
X-2.3082 Y3.993 Z-0.2789
X-2.3108 Z-0.2775
X-2.3131 Y3.9931 Z-0.2756
X-2.3149 Z-0.2734
X-2.3163 Z-0.2708
X-2.3171 Z-0.268
X-2.3174 Z-0.2651
G0 Z0.4
X-2.5107 Y3.1367
Z0.13
G1 Z0.0649 F40.
G19 G2 Y3.1218 Z0.05 J-0.0149 K0.
G1 Y3.1143
G17 G3 X-2.5 Y3.1036 I0.0107 J0.
Y3.1464 Z0.0331 I0. J0.0214
Y3.1036 Z0.0161 I0. J-0.0214
Y3.1464 Z-0.0008 I0. J0.0214
Y3.1036 Z-0.0177 I0. J-0.0214
Y3.1464 Z-0.0346 I0. J0.0214
Y3.1036 Z-0.0516 I0. J-0.0214
Y3.1464 Z-0.0685 I0. J0.0214
Y3.1036 Z-0.0854 I0. J-0.0214
Y3.1464 Z-0.1023 I0. J0.0214
Y3.1036 Z-0.1193 I0. J-0.0214
Y3.1464 Z-0.1362 I0. J0.0214
Y3.1036 Z-0.1531 I0. J-0.0214
Y3.1464 Z-0.1701 I0. J0.0214
Y3.1036 Z-0.187 I0. J-0.0214
Y3.1464 Z-0.2039 I0. J0.0214
Y3.1036 Z-0.2208 I0. J-0.0214
Y3.1464 Z-0.2378 I0. J0.0214
Y3.1036 Z-0.2547 I0. J-0.0214
Y3.1464 Z-0.2716 I0. J0.0214
X-2.5214 Y3.1253 Z-0.28 I0. J-0.0214
X-2.4786 Y3.1247 I0.0214 J-0.0003
X-2.5214 Y3.1253 I-0.0214 J0.0003
X-2.5109 Y3.1145 I0.0107 J-0.0002
G1 X-2.5034 Y3.1144
X-2.5005 Y3.1143 Z-0.2797
X-2.4977 Z-0.2789
X-2.4951 Y3.1142 Z-0.2775
X-2.4929 Z-0.2756
X-2.491 Z-0.2734
X-2.4896 Y3.1141 Z-0.2708
X-2.4888 Z-0.268
X-2.4885 Z-0.2651
G0 Z0.4
X-3.5107 Y3.1367
Z0.13
G1 Z0.0649 F40.
G19 G2 Y3.1218 Z0.05 J-0.0149 K0.
G1 Y3.1143
G17 G3 X-3.5 Y3.1036 I0.0107 J0.
Y3.1464 Z0.0331 I0. J0.0214
Y3.1036 Z0.0161 I0. J-0.0214
Y3.1464 Z-0.0008 I0. J0.0214
Y3.1036 Z-0.0177 I0. J-0.0214
Y3.1464 Z-0.0346 I0. J0.0214
Y3.1036 Z-0.0516 I0. J-0.0214
Y3.1464 Z-0.0685 I0. J0.0214
Y3.1036 Z-0.0854 I0. J-0.0214
Y3.1464 Z-0.1023 I0. J0.0214
Y3.1036 Z-0.1193 I0. J-0.0214
Y3.1464 Z-0.1362 I0. J0.0214
Y3.1036 Z-0.1531 I0. J-0.0214
Y3.1464 Z-0.1701 I0. J0.0214
Y3.1036 Z-0.187 I0. J-0.0214
Y3.1464 Z-0.2039 I0. J0.0214
Y3.1036 Z-0.2208 I0. J-0.0214
Y3.1464 Z-0.2378 I0. J0.0214
Y3.1036 Z-0.2547 I0. J-0.0214
Y3.1464 Z-0.2716 I0. J0.0214
X-3.5214 Y3.1253 Z-0.28 I0. J-0.0214
X-3.4786 Y3.1247 I0.0214 J-0.0003
X-3.5214 Y3.1253 I-0.0214 J0.0003
X-3.5109 Y3.1145 I0.0107 J-0.0002
G1 X-3.5034 Y3.1144
X-3.5005 Y3.1143 Z-0.2797
X-3.4977 Z-0.2789
X-3.4951 Y3.1142 Z-0.2775
X-3.4929 Z-0.2756
X-3.491 Z-0.2734
X-3.4896 Y3.1141 Z-0.2708
X-3.4888 Z-0.268
X-3.4885 Z-0.2651
G0 Z0.4
X-4.5107 Y3.1367
Z0.13
G1 Z0.0649 F40.
G19 G2 Y3.1218 Z0.05 J-0.0149 K0.
G1 Y3.1143
G17 G3 X-4.5 Y3.1036 I0.0107 J0.
Y3.1464 Z0.0331 I0. J0.0214
Y3.1036 Z0.0161 I0. J-0.0214
Y3.1464 Z-0.0008 I0. J0.0214
Y3.1036 Z-0.0177 I0. J-0.0214
Y3.1464 Z-0.0346 I0. J0.0214
Y3.1036 Z-0.0516 I0. J-0.0214
Y3.1464 Z-0.0685 I0. J0.0214
Y3.1036 Z-0.0854 I0. J-0.0214
Y3.1464 Z-0.1023 I0. J0.0214
Y3.1036 Z-0.1193 I0. J-0.0214
Y3.1464 Z-0.1362 I0. J0.0214
Y3.1036 Z-0.1531 I0. J-0.0214
Y3.1464 Z-0.1701 I0. J0.0214
Y3.1036 Z-0.187 I0. J-0.0214
Y3.1464 Z-0.2039 I0. J0.0214
Y3.1036 Z-0.2208 I0. J-0.0214
Y3.1464 Z-0.2378 I0. J0.0214
Y3.1036 Z-0.2547 I0. J-0.0214
Y3.1464 Z-0.2716 I0. J0.0214
X-4.5214 Y3.1253 Z-0.28 I0. J-0.0214
X-4.4786 Y3.1247 I0.0214 J-0.0003
X-4.5214 Y3.1253 I-0.0214 J0.0003
X-4.5109 Y3.1145 I0.0107 J-0.0002
G1 X-4.5034 Y3.1144
X-4.5005 Y3.1143 Z-0.2797
X-4.4977 Z-0.2789
X-4.4951 Y3.1142 Z-0.2775
X-4.4929 Z-0.2756
X-4.491 Z-0.2734
X-4.4896 Y3.1141 Z-0.2708
X-4.4888 Z-0.268
X-4.4885 Z-0.2651
G0 Z0.4
X-5.5107 Y3.1367
Z0.13
G1 Z0.0649 F40.
G19 G2 Y3.1218 Z0.05 J-0.0149 K0.
G1 Y3.1143
G17 G3 X-5.5 Y3.1036 I0.0107 J0.
Y3.1464 Z0.0331 I0. J0.0214
Y3.1036 Z0.0161 I0. J-0.0214
Y3.1464 Z-0.0008 I0. J0.0214
Y3.1036 Z-0.0177 I0. J-0.0214
Y3.1464 Z-0.0346 I0. J0.0214
Y3.1036 Z-0.0516 I0. J-0.0214
Y3.1464 Z-0.0685 I0. J0.0214
Y3.1036 Z-0.0854 I0. J-0.0214
Y3.1464 Z-0.1023 I0. J0.0214
Y3.1036 Z-0.1193 I0. J-0.0214
Y3.1464 Z-0.1362 I0. J0.0214
Y3.1036 Z-0.1531 I0. J-0.0214
Y3.1464 Z-0.1701 I0. J0.0214
Y3.1036 Z-0.187 I0. J-0.0214
Y3.1464 Z-0.2039 I0. J0.0214
Y3.1036 Z-0.2208 I0. J-0.0214
Y3.1464 Z-0.2378 I0. J0.0214
Y3.1036 Z-0.2547 I0. J-0.0214
Y3.1464 Z-0.2716 I0. J0.0214
X-5.5214 Y3.1253 Z-0.28 I0. J-0.0214
X-5.4786 Y3.1247 I0.0214 J-0.0003
X-5.5214 Y3.1253 I-0.0214 J0.0003
X-5.5109 Y3.1145 I0.0107 J-0.0002
G1 X-5.5034 Y3.1144
X-5.5005 Y3.1143 Z-0.2797
X-5.4977 Z-0.2789
X-5.4951 Y3.1142 Z-0.2775
X-5.4929 Z-0.2756
X-5.491 Z-0.2734
X-5.4896 Y3.1141 Z-0.2708
X-5.4888 Z-0.268
X-5.4885 Z-0.2651
G0 Z0.4
X-6.5107 Y3.1367
Z0.13
G1 Z0.0649 F40.
G19 G2 Y3.1218 Z0.05 J-0.0149 K0.
G1 Y3.1143
G17 G3 X-6.5 Y3.1036 I0.0107 J0.
Y3.1464 Z0.0331 I0. J0.0214
Y3.1036 Z0.0161 I0. J-0.0214
Y3.1464 Z-0.0008 I0. J0.0214
Y3.1036 Z-0.0177 I0. J-0.0214
Y3.1464 Z-0.0346 I0. J0.0214
Y3.1036 Z-0.0516 I0. J-0.0214
Y3.1464 Z-0.0685 I0. J0.0214
Y3.1036 Z-0.0854 I0. J-0.0214
Y3.1464 Z-0.1023 I0. J0.0214
Y3.1036 Z-0.1193 I0. J-0.0214
Y3.1464 Z-0.1362 I0. J0.0214
Y3.1036 Z-0.1531 I0. J-0.0214
Y3.1464 Z-0.1701 I0. J0.0214
Y3.1036 Z-0.187 I0. J-0.0214
Y3.1464 Z-0.2039 I0. J0.0214
Y3.1036 Z-0.2208 I0. J-0.0214
Y3.1464 Z-0.2378 I0. J0.0214
Y3.1036 Z-0.2547 I0. J-0.0214
Y3.1464 Z-0.2716 I0. J0.0214
X-6.5214 Y3.1253 Z-0.28 I0. J-0.0214
X-6.4786 Y3.1247 I0.0214 J-0.0003
X-6.5214 Y3.1253 I-0.0214 J0.0003
X-6.5109 Y3.1145 I0.0107 J-0.0002
G1 X-6.5034 Y3.1144
X-6.5005 Y3.1143 Z-0.2797
X-6.4977 Z-0.2789
X-6.4951 Y3.1142 Z-0.2775
X-6.4929 Z-0.2756
X-6.491 Z-0.2734
X-6.4896 Y3.1141 Z-0.2708
X-6.4888 Z-0.268
X-6.4885 Z-0.2651
G0 Z0.4
X-7.5107 Y3.1367
Z0.13
G1 Z0.0649 F40.
G19 G2 Y3.1218 Z0.05 J-0.0149 K0.
G1 Y3.1143
G17 G3 X-7.5 Y3.1036 I0.0107 J0.
Y3.1464 Z0.0331 I0. J0.0214
Y3.1036 Z0.0161 I0. J-0.0214
Y3.1464 Z-0.0008 I0. J0.0214
Y3.1036 Z-0.0177 I0. J-0.0214
Y3.1464 Z-0.0346 I0. J0.0214
Y3.1036 Z-0.0516 I0. J-0.0214
Y3.1464 Z-0.0685 I0. J0.0214
Y3.1036 Z-0.0854 I0. J-0.0214
Y3.1464 Z-0.1023 I0. J0.0214
Y3.1036 Z-0.1193 I0. J-0.0214
Y3.1464 Z-0.1362 I0. J0.0214
Y3.1036 Z-0.1531 I0. J-0.0214
Y3.1464 Z-0.1701 I0. J0.0214
Y3.1036 Z-0.187 I0. J-0.0214
Y3.1464 Z-0.2039 I0. J0.0214
Y3.1036 Z-0.2208 I0. J-0.0214
Y3.1464 Z-0.2378 I0. J0.0214
Y3.1036 Z-0.2547 I0. J-0.0214
Y3.1464 Z-0.2716 I0. J0.0214
X-7.5214 Y3.1253 Z-0.28 I0. J-0.0214
X-7.4786 Y3.1247 I0.0214 J-0.0003
X-7.5214 Y3.1253 I-0.0214 J0.0003
X-7.5109 Y3.1145 I0.0107 J-0.0002
G1 X-7.5034 Y3.1144
X-7.5005 Y3.1143 Z-0.2797
X-7.4977 Z-0.2789
X-7.4951 Y3.1142 Z-0.2775
X-7.4929 Z-0.2756
X-7.491 Z-0.2734
X-7.4896 Y3.1141 Z-0.2708
X-7.4888 Z-0.268
X-7.4885 Z-0.2651
G0 Z0.4
X-7.987 Y2.9906
Z0.13
G1 Z0.0649 F40.
G19 G3 Y3.0055 Z0.05 J0.0149 K0.
G1 Y3.013
G17 G3 X-8. Y3.0259 I-0.013 J0.
Y2.9741 Z0.0323 I0. J-0.0259
Y3.0259 Z0.0146 I0. J0.0259
Y2.9741 Z-0.0032 I0. J-0.0259
Y3.0259 Z-0.0209 I0. J0.0259
Y2.9741 Z-0.0386 I0. J-0.0259
Y3.0259 Z-0.0563 I0. J0.0259
Y2.9741 Z-0.074 I0. J-0.0259
Y3.0259 Z-0.0918 I0. J0.0259
Y2.9741 Z-0.1095 I0. J-0.0259
Y3.0259 Z-0.1272 I0. J0.0259
Y2.9741 Z-0.1449 I0. J-0.0259
Y3.0259 Z-0.1627 I0. J0.0259
Y2.9741 Z-0.1804 I0. J-0.0259
Y3.0259 Z-0.1981 I0. J0.0259
Y2.9741 Z-0.2158 I0. J-0.0259
Y3.0259 Z-0.2335 I0. J0.0259
Y2.9741 Z-0.2513 I0. J-0.0259
Y3.0259 Z-0.269 I0. J0.0259
X-8.024 Y2.9903 Z-0.28 I0. J-0.0259
X-7.976 Y3.0097 I0.024 J0.0097
X-8.024 Y2.9903 I-0.024 J-0.0097
X-8.0072 Y2.9831 I0.012 J0.0048
G1 X-8.0002 Y2.9859
X-7.9975 Y2.987 Z-0.2797
X-7.9949 Y2.9881 Z-0.2789
X-7.9926 Y2.989 Z-0.2775
X-7.9905 Y2.9899 Z-0.2756
X-7.9887 Y2.9906 Z-0.2734
X-7.9875 Y2.9911 Z-0.2708
X-7.9867 Y2.9914 Z-0.268
X-7.9864 Y2.9915 Z-0.2651
G0 Z0.4
X-7.987 Y2.4906
Z0.13
G1 Z0.0649 F40.
G19 G3 Y2.5055 Z0.05 J0.0149 K0.
G1 Y2.5129
G17 G3 X-8. Y2.5259 I-0.013 J0.
Y2.4741 Z0.0323 I0. J-0.0259
Y2.5259 Z0.0146 I0. J0.0259
Y2.4741 Z-0.0032 I0. J-0.0259
Y2.5259 Z-0.0209 I0. J0.0259
Y2.4741 Z-0.0386 I0. J-0.0259
Y2.5259 Z-0.0563 I0. J0.0259
Y2.4741 Z-0.074 I0. J-0.0259
Y2.5259 Z-0.0918 I0. J0.0259
Y2.4741 Z-0.1095 I0. J-0.0259
Y2.5259 Z-0.1272 I0. J0.0259
Y2.4741 Z-0.1449 I0. J-0.0259
Y2.5259 Z-0.1627 I0. J0.0259
Y2.4741 Z-0.1804 I0. J-0.0259
Y2.5259 Z-0.1981 I0. J0.0259
Y2.4741 Z-0.2158 I0. J-0.0259
Y2.5259 Z-0.2335 I0. J0.0259
Y2.4741 Z-0.2513 I0. J-0.0259
Y2.5259 Z-0.269 I0. J0.0259
X-8.024 Y2.4903 Z-0.28 I0. J-0.0259
X-7.976 Y2.5097 I0.024 J0.0097
X-8.024 Y2.4903 I-0.024 J-0.0097
X-8.0072 Y2.4831 I0.012 J0.0048
G1 X-8.0002 Y2.4859
X-7.9975 Y2.487 Z-0.2797
X-7.9949 Y2.4881 Z-0.2789
X-7.9926 Y2.489 Z-0.2775
X-7.9905 Y2.4899 Z-0.2756
X-7.9887 Y2.4906 Z-0.2734
X-7.9875 Y2.4911 Z-0.2708
X-7.9867 Y2.4914 Z-0.268
X-7.9864 Y2.4915 Z-0.2651
G0 Z0.4
X-7.987 Y1.9906
Z0.13
G1 Z0.0649 F40.
G19 G3 Y2.0055 Z0.05 J0.0149 K0.
G1 Y2.0129
G17 G3 X-8. Y2.0259 I-0.013 J0.
Y1.9741 Z0.0323 I0. J-0.0259
Y2.0259 Z0.0146 I0. J0.0259
Y1.9741 Z-0.0032 I0. J-0.0259
Y2.0259 Z-0.0209 I0. J0.0259
Y1.9741 Z-0.0386 I0. J-0.0259
Y2.0259 Z-0.0563 I0. J0.0259
Y1.9741 Z-0.074 I0. J-0.0259
Y2.0259 Z-0.0918 I0. J0.0259
Y1.9741 Z-0.1095 I0. J-0.0259
Y2.0259 Z-0.1272 I0. J0.0259
Y1.9741 Z-0.1449 I0. J-0.0259
Y2.0259 Z-0.1627 I0. J0.0259
Y1.9741 Z-0.1804 I0. J-0.0259
Y2.0259 Z-0.1981 I0. J0.0259
Y1.9741 Z-0.2158 I0. J-0.0259
Y2.0259 Z-0.2335 I0. J0.0259
Y1.9741 Z-0.2513 I0. J-0.0259
Y2.0259 Z-0.269 I0. J0.0259
X-8.024 Y1.9903 Z-0.28 I0. J-0.0259
X-7.976 Y2.0097 I0.024 J0.0097
X-8.024 Y1.9903 I-0.024 J-0.0097
X-8.0072 Y1.9831 I0.012 J0.0048
G1 X-8.0002 Y1.9859
X-7.9975 Y1.987 Z-0.2797
X-7.9949 Y1.9881 Z-0.2789
X-7.9926 Y1.989 Z-0.2775
X-7.9905 Y1.9899 Z-0.2756
X-7.9887 Y1.9906 Z-0.2734
X-7.9875 Y1.9911 Z-0.2708
X-7.9867 Y1.9914 Z-0.268
X-7.9864 Y1.9915 Z-0.2651
G0 Z0.4
X-7.5107 Y1.8867
Z0.13
G1 Z0.0649 F40.
G19 G2 Y1.8718 Z0.05 J-0.0149 K0.
G1 Y1.8643
G17 G3 X-7.5 Y1.8536 I0.0107 J0.
Y1.8964 Z0.0331 I0. J0.0214
Y1.8536 Z0.0161 I0. J-0.0214
Y1.8964 Z-0.0008 I0. J0.0214
Y1.8536 Z-0.0177 I0. J-0.0214
Y1.8964 Z-0.0346 I0. J0.0214
Y1.8536 Z-0.0516 I0. J-0.0214
Y1.8964 Z-0.0685 I0. J0.0214
Y1.8536 Z-0.0854 I0. J-0.0214
Y1.8964 Z-0.1023 I0. J0.0214
Y1.8536 Z-0.1193 I0. J-0.0214
Y1.8964 Z-0.1362 I0. J0.0214
Y1.8536 Z-0.1531 I0. J-0.0214
Y1.8964 Z-0.1701 I0. J0.0214
Y1.8536 Z-0.187 I0. J-0.0214
Y1.8964 Z-0.2039 I0. J0.0214
Y1.8536 Z-0.2208 I0. J-0.0214
Y1.8964 Z-0.2378 I0. J0.0214
Y1.8536 Z-0.2547 I0. J-0.0214
Y1.8964 Z-0.2716 I0. J0.0214
X-7.5214 Y1.8753 Z-0.28 I0. J-0.0214
X-7.4786 Y1.8747 I0.0214 J-0.0003
X-7.5214 Y1.8753 I-0.0214 J0.0003
X-7.5109 Y1.8645 I0.0107 J-0.0002
G1 X-7.5034 Y1.8644
X-7.5005 Y1.8643 Z-0.2797
X-7.4977 Z-0.2789
X-7.4951 Y1.8642 Z-0.2775
X-7.4929 Z-0.2756
X-7.491 Z-0.2734
X-7.4896 Y1.8641 Z-0.2708
X-7.4888 Z-0.268
X-7.4885 Z-0.2651
G0 Z0.4
X-6.5107 Y1.8867
Z0.13
G1 Z0.0649 F40.
G19 G2 Y1.8718 Z0.05 J-0.0149 K0.
G1 Y1.8643
G17 G3 X-6.5 Y1.8536 I0.0107 J0.
Y1.8964 Z0.0331 I0. J0.0214
Y1.8536 Z0.0161 I0. J-0.0214
Y1.8964 Z-0.0008 I0. J0.0214
Y1.8536 Z-0.0177 I0. J-0.0214
Y1.8964 Z-0.0346 I0. J0.0214
Y1.8536 Z-0.0516 I0. J-0.0214
Y1.8964 Z-0.0685 I0. J0.0214
Y1.8536 Z-0.0854 I0. J-0.0214
Y1.8964 Z-0.1023 I0. J0.0214
Y1.8536 Z-0.1193 I0. J-0.0214
Y1.8964 Z-0.1362 I0. J0.0214
Y1.8536 Z-0.1531 I0. J-0.0214
Y1.8964 Z-0.1701 I0. J0.0214
Y1.8536 Z-0.187 I0. J-0.0214
Y1.8964 Z-0.2039 I0. J0.0214
Y1.8536 Z-0.2208 I0. J-0.0214
Y1.8964 Z-0.2378 I0. J0.0214
Y1.8536 Z-0.2547 I0. J-0.0214
Y1.8964 Z-0.2716 I0. J0.0214
X-6.5214 Y1.8753 Z-0.28 I0. J-0.0214
X-6.4786 Y1.8747 I0.0214 J-0.0003
X-6.5214 Y1.8753 I-0.0214 J0.0003
X-6.5109 Y1.8645 I0.0107 J-0.0002
G1 X-6.5034 Y1.8644
X-6.5005 Y1.8643 Z-0.2797
X-6.4977 Z-0.2789
X-6.4951 Y1.8642 Z-0.2775
X-6.4929 Z-0.2756
X-6.491 Z-0.2734
X-6.4896 Y1.8641 Z-0.2708
X-6.4888 Z-0.268
X-6.4885 Z-0.2651
G0 Z0.4
X-5.5107 Y1.8867
Z0.13
G1 Z0.0649 F40.
G19 G2 Y1.8718 Z0.05 J-0.0149 K0.
G1 Y1.8643
G17 G3 X-5.5 Y1.8536 I0.0107 J0.
Y1.8964 Z0.0331 I0. J0.0214
Y1.8536 Z0.0161 I0. J-0.0214
Y1.8964 Z-0.0008 I0. J0.0214
Y1.8536 Z-0.0177 I0. J-0.0214
Y1.8964 Z-0.0346 I0. J0.0214
Y1.8536 Z-0.0516 I0. J-0.0214
Y1.8964 Z-0.0685 I0. J0.0214
Y1.8536 Z-0.0854 I0. J-0.0214
Y1.8964 Z-0.1023 I0. J0.0214
Y1.8536 Z-0.1193 I0. J-0.0214
Y1.8964 Z-0.1362 I0. J0.0214
Y1.8536 Z-0.1531 I0. J-0.0214
Y1.8964 Z-0.1701 I0. J0.0214
Y1.8536 Z-0.187 I0. J-0.0214
Y1.8964 Z-0.2039 I0. J0.0214
Y1.8536 Z-0.2208 I0. J-0.0214
Y1.8964 Z-0.2378 I0. J0.0214
Y1.8536 Z-0.2547 I0. J-0.0214
Y1.8964 Z-0.2716 I0. J0.0214
X-5.5214 Y1.8753 Z-0.28 I0. J-0.0214
X-5.4786 Y1.8747 I0.0214 J-0.0003
X-5.5214 Y1.8753 I-0.0214 J0.0003
X-5.5109 Y1.8645 I0.0107 J-0.0002
G1 X-5.5034 Y1.8644
X-5.5005 Y1.8643 Z-0.2797
X-5.4977 Z-0.2789
X-5.4951 Y1.8642 Z-0.2775
X-5.4929 Z-0.2756
X-5.491 Z-0.2734
X-5.4896 Y1.8641 Z-0.2708
X-5.4888 Z-0.268
X-5.4885 Z-0.2651
G0 Z0.4
X-4.5107 Y1.8867
Z0.13
G1 Z0.0649 F40.
G19 G2 Y1.8718 Z0.05 J-0.0149 K0.
G1 Y1.8643
G17 G3 X-4.5 Y1.8536 I0.0107 J0.
Y1.8964 Z0.0331 I0. J0.0214
Y1.8536 Z0.0161 I0. J-0.0214
Y1.8964 Z-0.0008 I0. J0.0214
Y1.8536 Z-0.0177 I0. J-0.0214
Y1.8964 Z-0.0346 I0. J0.0214
Y1.8536 Z-0.0516 I0. J-0.0214
Y1.8964 Z-0.0685 I0. J0.0214
Y1.8536 Z-0.0854 I0. J-0.0214
Y1.8964 Z-0.1023 I0. J0.0214
Y1.8536 Z-0.1193 I0. J-0.0214
Y1.8964 Z-0.1362 I0. J0.0214
Y1.8536 Z-0.1531 I0. J-0.0214
Y1.8964 Z-0.1701 I0. J0.0214
Y1.8536 Z-0.187 I0. J-0.0214
Y1.8964 Z-0.2039 I0. J0.0214
Y1.8536 Z-0.2208 I0. J-0.0214
Y1.8964 Z-0.2378 I0. J0.0214
Y1.8536 Z-0.2547 I0. J-0.0214
Y1.8964 Z-0.2716 I0. J0.0214
X-4.5214 Y1.8753 Z-0.28 I0. J-0.0214
X-4.4786 Y1.8747 I0.0214 J-0.0003
X-4.5214 Y1.8753 I-0.0214 J0.0003
X-4.5109 Y1.8645 I0.0107 J-0.0002
G1 X-4.5034 Y1.8644
X-4.5005 Y1.8643 Z-0.2797
X-4.4977 Z-0.2789
X-4.4951 Y1.8642 Z-0.2775
X-4.4929 Z-0.2756
X-4.491 Z-0.2734
X-4.4896 Y1.8641 Z-0.2708
X-4.4888 Z-0.268
X-4.4885 Z-0.2651
G0 Z0.4
X-3.5107 Y1.8867
Z0.13
G1 Z0.0649 F40.
G19 G2 Y1.8718 Z0.05 J-0.0149 K0.
G1 Y1.8643
G17 G3 X-3.5 Y1.8536 I0.0107 J0.
Y1.8964 Z0.0331 I0. J0.0214
Y1.8536 Z0.0161 I0. J-0.0214
Y1.8964 Z-0.0008 I0. J0.0214
Y1.8536 Z-0.0177 I0. J-0.0214
Y1.8964 Z-0.0346 I0. J0.0214
Y1.8536 Z-0.0516 I0. J-0.0214
Y1.8964 Z-0.0685 I0. J0.0214
Y1.8536 Z-0.0854 I0. J-0.0214
Y1.8964 Z-0.1023 I0. J0.0214
Y1.8536 Z-0.1193 I0. J-0.0214
Y1.8964 Z-0.1362 I0. J0.0214
Y1.8536 Z-0.1531 I0. J-0.0214
Y1.8964 Z-0.1701 I0. J0.0214
Y1.8536 Z-0.187 I0. J-0.0214
Y1.8964 Z-0.2039 I0. J0.0214
Y1.8536 Z-0.2208 I0. J-0.0214
Y1.8964 Z-0.2378 I0. J0.0214
Y1.8536 Z-0.2547 I0. J-0.0214
Y1.8964 Z-0.2716 I0. J0.0214
X-3.5214 Y1.8753 Z-0.28 I0. J-0.0214
X-3.4786 Y1.8747 I0.0214 J-0.0003
X-3.5214 Y1.8753 I-0.0214 J0.0003
X-3.5109 Y1.8645 I0.0107 J-0.0002
G1 X-3.5034 Y1.8644
X-3.5005 Y1.8643 Z-0.2797
X-3.4977 Z-0.2789
X-3.4951 Y1.8642 Z-0.2775
X-3.4929 Z-0.2756
X-3.491 Z-0.2734
X-3.4896 Y1.8641 Z-0.2708
X-3.4888 Z-0.268
X-3.4885 Z-0.2651
G0 Z0.4
X-2.5107 Y1.8867
Z0.13
G1 Z0.0649 F40.
G19 G2 Y1.8718 Z0.05 J-0.0149 K0.
G1 Y1.8643
G17 G3 X-2.5 Y1.8536 I0.0107 J0.
Y1.8964 Z0.0331 I0. J0.0214
Y1.8536 Z0.0161 I0. J-0.0214
Y1.8964 Z-0.0008 I0. J0.0214
Y1.8536 Z-0.0177 I0. J-0.0214
Y1.8964 Z-0.0346 I0. J0.0214
Y1.8536 Z-0.0516 I0. J-0.0214
Y1.8964 Z-0.0685 I0. J0.0214
Y1.8536 Z-0.0854 I0. J-0.0214
Y1.8964 Z-0.1023 I0. J0.0214
Y1.8536 Z-0.1193 I0. J-0.0214
Y1.8964 Z-0.1362 I0. J0.0214
Y1.8536 Z-0.1531 I0. J-0.0214
Y1.8964 Z-0.1701 I0. J0.0214
Y1.8536 Z-0.187 I0. J-0.0214
Y1.8964 Z-0.2039 I0. J0.0214
Y1.8536 Z-0.2208 I0. J-0.0214
Y1.8964 Z-0.2378 I0. J0.0214
Y1.8536 Z-0.2547 I0. J-0.0214
Y1.8964 Z-0.2716 I0. J0.0214
X-2.5214 Y1.8753 Z-0.28 I0. J-0.0214
X-2.4786 Y1.8747 I0.0214 J-0.0003
X-2.5214 Y1.8753 I-0.0214 J0.0003
X-2.5109 Y1.8645 I0.0107 J-0.0002
G1 X-2.5034 Y1.8644
X-2.5005 Y1.8643 Z-0.2797
X-2.4977 Z-0.2789
X-2.4951 Y1.8642 Z-0.2775
X-2.4929 Z-0.2756
X-2.491 Z-0.2734
X-2.4896 Y1.8641 Z-0.2708
X-2.4888 Z-0.268
X-2.4885 Z-0.2651
G0 Z0.4
X-1.5107 Y1.8867
Z0.13
G1 Z0.0649 F40.
G19 G2 Y1.8718 Z0.05 J-0.0149 K0.
G1 Y1.8643
G17 G3 X-1.5 Y1.8536 I0.0107 J0.
Y1.8964 Z0.0331 I0. J0.0214
Y1.8536 Z0.0161 I0. J-0.0214
Y1.8964 Z-0.0008 I0. J0.0214
Y1.8536 Z-0.0177 I0. J-0.0214
Y1.8964 Z-0.0346 I0. J0.0214
Y1.8536 Z-0.0516 I0. J-0.0214
Y1.8964 Z-0.0685 I0. J0.0214
Y1.8536 Z-0.0854 I0. J-0.0214
Y1.8964 Z-0.1023 I0. J0.0214
Y1.8536 Z-0.1193 I0. J-0.0214
Y1.8964 Z-0.1362 I0. J0.0214
Y1.8536 Z-0.1531 I0. J-0.0214
Y1.8964 Z-0.1701 I0. J0.0214
Y1.8536 Z-0.187 I0. J-0.0214
Y1.8964 Z-0.2039 I0. J0.0214
Y1.8536 Z-0.2208 I0. J-0.0214
Y1.8964 Z-0.2378 I0. J0.0214
Y1.8536 Z-0.2547 I0. J-0.0214
Y1.8964 Z-0.2716 I0. J0.0214
X-1.5214 Y1.8753 Z-0.28 I0. J-0.0214
X-1.4786 Y1.8747 I0.0214 J-0.0003
X-1.5214 Y1.8753 I-0.0214 J0.0003
X-1.5109 Y1.8645 I0.0107 J-0.0002
G1 X-1.5034 Y1.8644
X-1.5005 Y1.8643 Z-0.2797
X-1.4977 Z-0.2789
X-1.4951 Y1.8642 Z-0.2775
X-1.4929 Z-0.2756
X-1.491 Z-0.2734
X-1.4896 Y1.8641 Z-0.2708
X-1.4888 Z-0.268
X-1.4885 Z-0.2651
G0 Z0.4
X-0.5107 Y1.8867
Z0.13
G1 Z0.0649 F40.
G19 G2 Y1.8718 Z0.05 J-0.0149 K0.
G1 Y1.8643
G17 G3 X-0.5 Y1.8536 I0.0107 J0.
Y1.8964 Z0.0331 I0. J0.0214
Y1.8536 Z0.0161 I0. J-0.0214
Y1.8964 Z-0.0008 I0. J0.0214
Y1.8536 Z-0.0177 I0. J-0.0214
Y1.8964 Z-0.0346 I0. J0.0214
Y1.8536 Z-0.0516 I0. J-0.0214
Y1.8964 Z-0.0685 I0. J0.0214
Y1.8536 Z-0.0854 I0. J-0.0214
Y1.8964 Z-0.1023 I0. J0.0214
Y1.8536 Z-0.1193 I0. J-0.0214
Y1.8964 Z-0.1362 I0. J0.0214
Y1.8536 Z-0.1531 I0. J-0.0214
Y1.8964 Z-0.1701 I0. J0.0214
Y1.8536 Z-0.187 I0. J-0.0214
Y1.8964 Z-0.2039 I0. J0.0214
Y1.8536 Z-0.2208 I0. J-0.0214
Y1.8964 Z-0.2378 I0. J0.0214
Y1.8536 Z-0.2547 I0. J-0.0214
Y1.8964 Z-0.2716 I0. J0.0214
X-0.5214 Y1.8753 Z-0.28 I0. J-0.0214
X-0.4786 Y1.8747 I0.0214 J-0.0003
X-0.5214 Y1.8753 I-0.0214 J0.0003
X-0.5109 Y1.8645 I0.0107 J-0.0002
G1 X-0.5034 Y1.8644
X-0.5005 Y1.8643 Z-0.2797
X-0.4977 Z-0.2789
X-0.4951 Y1.8642 Z-0.2775
X-0.4929 Z-0.2756
X-0.491 Z-0.2734
X-0.4896 Y1.8641 Z-0.2708
X-0.4888 Z-0.268
X-0.4885 Z-0.2651
G0 Z0.4
X0.4893 Y1.8867
Z0.13
G1 Z0.0649 F40.
G19 G2 Y1.8718 Z0.05 J-0.0149 K0.
G1 Y1.8643
G17 G3 X0.5 Y1.8536 I0.0107 J0.
Y1.8964 Z0.0331 I0. J0.0214
Y1.8536 Z0.0161 I0. J-0.0214
Y1.8964 Z-0.0008 I0. J0.0214
Y1.8536 Z-0.0177 I0. J-0.0214
Y1.8964 Z-0.0346 I0. J0.0214
Y1.8536 Z-0.0516 I0. J-0.0214
Y1.8964 Z-0.0685 I0. J0.0214
Y1.8536 Z-0.0854 I0. J-0.0214
Y1.8964 Z-0.1023 I0. J0.0214
Y1.8536 Z-0.1193 I0. J-0.0214
Y1.8964 Z-0.1362 I0. J0.0214
Y1.8536 Z-0.1531 I0. J-0.0214
Y1.8964 Z-0.1701 I0. J0.0214
Y1.8536 Z-0.187 I0. J-0.0214
Y1.8964 Z-0.2039 I0. J0.0214
Y1.8536 Z-0.2208 I0. J-0.0214
Y1.8964 Z-0.2378 I0. J0.0214
Y1.8536 Z-0.2547 I0. J-0.0214
Y1.8964 Z-0.2716 I0. J0.0214
X0.4786 Y1.8753 Z-0.28 I0. J-0.0214
X0.5214 Y1.8747 I0.0214 J-0.0003
X0.4786 Y1.8753 I-0.0214 J0.0003
X0.4891 Y1.8645 I0.0107 J-0.0002
G1 X0.4966 Y1.8644
X0.4995 Y1.8643 Z-0.2797
X0.5023 Z-0.2789
X0.5049 Y1.8642 Z-0.2775
X0.5071 Z-0.2756
X0.509 Z-0.2734
X0.5104 Y1.8641 Z-0.2708
X0.5112 Z-0.268
X0.5115 Z-0.2651
G0 Z0.4
X1.4893 Y1.8867
Z0.13
G1 Z0.0649 F40.
G19 G2 Y1.8718 Z0.05 J-0.0149 K0.
G1 Y1.8643
G17 G3 X1.5 Y1.8536 I0.0107 J0.
Y1.8964 Z0.0331 I0. J0.0214
Y1.8536 Z0.0161 I0. J-0.0214
Y1.8964 Z-0.0008 I0. J0.0214
Y1.8536 Z-0.0177 I0. J-0.0214
Y1.8964 Z-0.0346 I0. J0.0214
Y1.8536 Z-0.0516 I0. J-0.0214
Y1.8964 Z-0.0685 I0. J0.0214
Y1.8536 Z-0.0854 I0. J-0.0214
Y1.8964 Z-0.1023 I0. J0.0214
Y1.8536 Z-0.1193 I0. J-0.0214
Y1.8964 Z-0.1362 I0. J0.0214
Y1.8536 Z-0.1531 I0. J-0.0214
Y1.8964 Z-0.1701 I0. J0.0214
Y1.8536 Z-0.187 I0. J-0.0214
Y1.8964 Z-0.2039 I0. J0.0214
Y1.8536 Z-0.2208 I0. J-0.0214
Y1.8964 Z-0.2378 I0. J0.0214
Y1.8536 Z-0.2547 I0. J-0.0214
Y1.8964 Z-0.2716 I0. J0.0214
X1.4786 Y1.8753 Z-0.28 I0. J-0.0214
X1.5214 Y1.8747 I0.0214 J-0.0003
X1.4786 Y1.8753 I-0.0214 J0.0003
X1.4891 Y1.8645 I0.0107 J-0.0002
G1 X1.4966 Y1.8644
X1.4995 Y1.8643 Z-0.2797
X1.5023 Z-0.2789
X1.5049 Y1.8642 Z-0.2775
X1.5071 Z-0.2756
X1.509 Z-0.2734
X1.5104 Y1.8641 Z-0.2708
X1.5112 Z-0.268
X1.5115 Z-0.2651
G0 Z0.4
X1.4893 Y3.1367
Z0.13
G1 Z0.0649 F40.
G19 G2 Y3.1218 Z0.05 J-0.0149 K0.
G1 Y3.1143
G17 G3 X1.5 Y3.1036 I0.0107 J0.
Y3.1464 Z0.0331 I0. J0.0214
Y3.1036 Z0.0161 I0. J-0.0214
Y3.1464 Z-0.0008 I0. J0.0214
Y3.1036 Z-0.0177 I0. J-0.0214
Y3.1464 Z-0.0346 I0. J0.0214
Y3.1036 Z-0.0516 I0. J-0.0214
Y3.1464 Z-0.0685 I0. J0.0214
Y3.1036 Z-0.0854 I0. J-0.0214
Y3.1464 Z-0.1023 I0. J0.0214
Y3.1036 Z-0.1193 I0. J-0.0214
Y3.1464 Z-0.1362 I0. J0.0214
Y3.1036 Z-0.1531 I0. J-0.0214
Y3.1464 Z-0.1701 I0. J0.0214
Y3.1036 Z-0.187 I0. J-0.0214
Y3.1464 Z-0.2039 I0. J0.0214
Y3.1036 Z-0.2208 I0. J-0.0214
Y3.1464 Z-0.2378 I0. J0.0214
Y3.1036 Z-0.2547 I0. J-0.0214
Y3.1464 Z-0.2716 I0. J0.0214
X1.4786 Y3.1253 Z-0.28 I0. J-0.0214
X1.5214 Y3.1247 I0.0214 J-0.0003
X1.4786 Y3.1253 I-0.0214 J0.0003
X1.4891 Y3.1145 I0.0107 J-0.0002
G1 X1.4966 Y3.1144
X1.4995 Y3.1143 Z-0.2797
X1.5023 Z-0.2789
X1.5049 Y3.1142 Z-0.2775
X1.5071 Z-0.2756
X1.509 Z-0.2734
X1.5104 Y3.1141 Z-0.2708
X1.5112 Z-0.268
X1.5115 Z-0.2651
G0 Z0.4
X0.4893 Y3.1367
Z0.13
G1 Z0.0649 F40.
G19 G2 Y3.1218 Z0.05 J-0.0149 K0.
G1 Y3.1143
G17 G3 X0.5 Y3.1036 I0.0107 J0.
Y3.1464 Z0.0331 I0. J0.0214
Y3.1036 Z0.0161 I0. J-0.0214
Y3.1464 Z-0.0008 I0. J0.0214
Y3.1036 Z-0.0177 I0. J-0.0214
Y3.1464 Z-0.0346 I0. J0.0214
Y3.1036 Z-0.0516 I0. J-0.0214
Y3.1464 Z-0.0685 I0. J0.0214
Y3.1036 Z-0.0854 I0. J-0.0214
Y3.1464 Z-0.1023 I0. J0.0214
Y3.1036 Z-0.1193 I0. J-0.0214
Y3.1464 Z-0.1362 I0. J0.0214
Y3.1036 Z-0.1531 I0. J-0.0214
Y3.1464 Z-0.1701 I0. J0.0214
Y3.1036 Z-0.187 I0. J-0.0214
Y3.1464 Z-0.2039 I0. J0.0214
Y3.1036 Z-0.2208 I0. J-0.0214
Y3.1464 Z-0.2378 I0. J0.0214
Y3.1036 Z-0.2547 I0. J-0.0214
Y3.1464 Z-0.2716 I0. J0.0214
X0.4786 Y3.1253 Z-0.28 I0. J-0.0214
X0.5214 Y3.1247 I0.0214 J-0.0003
X0.4786 Y3.1253 I-0.0214 J0.0003
X0.4891 Y3.1145 I0.0107 J-0.0002
G1 X0.4966 Y3.1144
X0.4995 Y3.1143 Z-0.2797
X0.5023 Z-0.2789
X0.5049 Y3.1142 Z-0.2775
X0.5071 Z-0.2756
X0.509 Z-0.2734
X0.5104 Y3.1141 Z-0.2708
X0.5112 Z-0.268
X0.5115 Z-0.2651
G0 Z0.4
X-1.075 Y3.125
Z0.1151
G1 Z0.05 F40.
X-1.0774 Y3.1275
G3 X-1.0799 Y3.125 I0. J-0.0025
X-1.0701 Z0.036 I0.0049 J0.
X-1.0799 Z0.022 I-0.0049 J0.
X-1.0701 Z0.0079 I0.0049 J0.
X-1.0799 Z-0.0061 I-0.0049 J0.
X-1.0701 Z-0.0201 I0.0049 J0.
X-1.0799 Z-0.0341 I-0.0049 J0.
X-1.0701 Z-0.0481 I0.0049 J0.
X-1.0799 Z-0.0621 I-0.0049 J0.
X-1.0701 Z-0.0762 I0.0049 J0.
X-1.0799 Z-0.0902 I-0.0049 J0.
X-1.0701 Z-0.1042 I0.0049 J0.
X-1.0799 Z-0.1182 I-0.0049 J0.
X-1.0701 Z-0.1322 I0.0049 J0.
X-1.0799 Z-0.1463 I-0.0049 J0.
X-1.0701 Z-0.1603 I0.0049 J0.
X-1.0799 Z-0.1743 I-0.0049 J0.
X-1.0701 Z-0.1883 I0.0049 J0.
X-1.0799 Z-0.2023 I-0.0049 J0.
X-1.0701 Z-0.2163 I0.0049 J0.
X-1.0799 Z-0.2304 I-0.0049 J0.
X-1.0701 Z-0.2444 I0.0049 J0.
X-1.0799 Z-0.2584 I-0.0049 J0.
X-1.0701 Z-0.2724 I0.0049 J0.
X-1.0756 Y3.1299 Z-0.28 I-0.0049 J0.
X-1.0744 Y3.1201 I0.0006 J-0.0049
X-1.0756 Y3.1299 I-0.0006 J0.0049
X-1.0777 Y3.1271 I0.0003 J-0.0024
G1 X-1.075 Y3.125
G0 Z0.6
(SHAPE THROUGH HOLE)
M7
G0 X-9.6444 Y5.0266
Z0.6
Z0.1
G3 X-9.7705 Y5.0914 Z0.0607 I-0.063 J0.0324 F50.
X-9.6444 Y5.0266 Z0.0215 I0.063 J-0.0324
X-9.7705 Y5.0914 Z-0.0178 I-0.063 J0.0324
X-9.6444 Y5.0266 Z-0.057 I0.063 J-0.0324
X-9.7705 Y5.0914 Z-0.0963 I-0.063 J0.0324
X-9.6444 Y5.0266 Z-0.1355 I0.063 J-0.0324
X-9.7705 Y5.0914 Z-0.1748 I-0.063 J0.0324
X-9.6444 Y5.0266 Z-0.2141 I0.063 J-0.0324
X-9.6366 Y5.059 Z-0.22 I-0.063 J0.0324
X-9.7783 I-0.0709 J0.
X-9.6366 I0.0709 J0.
X-9.7556 Y5.201 I-0.0725 J0.0601 F60.
G2 X-9.8032 Y5.059 I-0.3385 J0.0344
G3 X-9.6977 Y4.9074 I0.0818 J-0.0556
X-9.5874 Y5.1053 I-0.1276 J0.2008
G1 X-9.5757 Y5.1516
X-9.5738 Y5.1596
G3 X-9.7335 Y5.2957 I-0.1309 J0.0082
G1 X-9.7452 Y5.2442
X-9.7548 Y5.2044
X-9.7556 Y5.201
G3 X-9.7509 Y5.1869 I0.0146 J-0.003
X-9.7049 Y5.2006 I0.0188 J0.021
X-9.7181 Y5.2683 I-0.0761 J0.0203
X-9.7284 Y5.2796 I-0.0629 J-0.0474 F50.
G2 X-9.733 Y5.2937 I0.01 J0.0111
G1 X-9.7279 Y5.3147 F60.
G2 X-9.5379 Y5.3056 I0.0918 J-0.0709
G1 X-9.5418 Y5.2905
X-9.5646 Y5.1979
X-9.5738 Y5.1596
G2 X-9.5844 Y5.1492 I-0.0144 J0.004
X-9.6375 Y5.1963 I-0.0107 J0.0414
X-9.5633 Y5.2907 I0.1171 J-0.0156
X-9.5487 Y5.2953 I0.0428 J-0.1101 F50.
G3 X-9.5379 Y5.3056 I-0.0036 J0.0145
G1 X-9.53 Y5.3368 F60.
X-9.5309 Y5.3453
X-9.5324 Y5.3537
X-9.5344 Y5.3619
X-9.5371 Y5.37
X-9.5403 Y5.3779
X-9.5441 Y5.3856
X-9.5484 Y5.3929
X-9.5532 Y5.4
X-9.5585 Y5.4066
X-9.5643 Y5.4129
X-9.5704 Y5.4187
X-9.577 Y5.4241
X-9.584 Y5.429
X-9.5913 Y5.4334
X-9.5989 Y5.4373
X-9.6067 Y5.4406
X-9.6148 Y5.4434
X-9.623 Y5.4455
X-9.6314 Y5.4471
X-9.6399 Y5.4481
X-9.6484 Y5.4485
X-9.6569 Y5.4483
X-9.6653 Y5.4474
X-9.6737 Y5.446
X-9.682 Y5.444
X-9.6901 Y5.4413
X-9.698 Y5.4382
G2 X-9.7279 Y5.3147 I-2.8835 J0.6325
G3 X-9.7232 Y5.3006 I0.0146 J-0.0031
X-9.7017 Y5.2991 I0.0118 J0.0131
X-9.6826 Y5.4119 I-0.0438 J0.0654
X-9.693 Y5.4231 I-0.0629 J-0.0474 F50.
G2 X-9.6976 Y5.4373 I0.01 J0.0111
G1 X-9.6913 Y5.4629 F60.
X-9.6865 Y5.4699
X-9.6813 Y5.4765
X-9.6755 Y5.4828
X-9.6694 Y5.4886
X-9.6628 Y5.4939
X-9.6558 Y5.4987
X-9.6485 Y5.503
X-9.641 Y5.5068
X-9.6331 Y5.51
X-9.6251 Y5.5126
X-9.6168 Y5.5147
X-9.6085 Y5.5161
X-9.6001 Y5.5169
X-9.5916 Y5.5171
X-9.5832 Y5.5167
X-9.5747 Y5.5157
X-9.5664 Y5.514
X-9.5583 Y5.5118
X-9.5503 Y5.5089
X-9.5426 Y5.5055
X-9.5351 Y5.5016
X-9.5279 Y5.4971
X-9.5211 Y5.492
X-9.5146 Y5.4865
X-9.5086 Y5.4806
X-9.503 Y5.4742
X-9.498 Y5.4675
X-9.5189 Y5.3831
X-9.53 Y5.3368
G2 X-9.5574 Y5.3338 I-0.0143 J0.0042
X-9.5644 Y5.3732 I0.0545 J0.0299
X-9.5212 Y5.4476 I0.1167 J-0.018
X-9.5053 Y5.4583 I0.0736 J-0.0924 F50.
G3 X-9.4982 Y5.4673 I-0.0073 J0.013
G1 X-9.4918 Y5.4935 F60.
X-9.4926 Y5.502
X-9.494 Y5.5104
X-9.496 Y5.5187
X-9.4986 Y5.5269
X-9.5018 Y5.5348
X-9.5056 Y5.5424
X-9.5099 Y5.5498
X-9.5148 Y5.5568
X-9.5201 Y5.5634
X-9.5259 Y5.5697
X-9.5322 Y5.5755
X-9.5389 Y5.5808
X-9.5459 Y5.5856
X-9.5533 Y5.5899
X-9.5609 Y5.5937
X-9.5688 Y5.5969
X-9.577 Y5.5994
X-9.5853 Y5.6014
X-9.5937 Y5.6028
X-9.6022 Y5.6036
X-9.6107 Y5.6037
X-9.6192 Y5.6032
X-9.6277 Y5.6021
X-9.636 Y5.6004
X-9.6443 Y5.5981
X-9.6523 Y5.5952
X-9.66 Y5.5917
X-9.6768 Y5.522
X-9.6913 Y5.4629
G3 X-9.6867 Y5.4488 I0.0146 J-0.0031
X-9.6746 Y5.4469 I0.0074 J0.0083
G1 X-9.6724 Y5.448
G3 X-9.6448 Y5.5659 I-0.0352 J0.0704
X-9.6552 Y5.5771 I-0.0628 J-0.0475 F50.
G2 X-9.6599 Y5.5913 I0.0099 J0.0111
G1 X-9.6542 Y5.6146 F60.
X-9.6498 Y5.6217
X-9.645 Y5.6284
X-9.6396 Y5.6348
X-9.6339 Y5.6408
X-9.6277 Y5.6463
X-9.6211 Y5.6514
X-9.6142 Y5.656
X-9.607 Y5.6601
X-9.5995 Y5.6636
X-9.5918 Y5.6667
X-9.5838 Y5.6691
X-9.5757 Y5.671
X-9.5675 Y5.6723
X-9.5593 Y5.673
X-9.551 Y5.6731
X-9.5427 Y5.6727
X-9.5345 Y5.6716
X-9.5263 Y5.6699
X-9.5183 Y5.6677
X-9.5105 Y5.6649
X-9.5029 Y5.6615
X-9.4956 Y5.6576
X-9.4886 Y5.6532
X-9.4819 Y5.6483
X-9.4755 Y5.6429
X-9.4696 Y5.6371
X-9.4641 Y5.6309
X-9.4591 Y5.6243
G3 X-9.4918 Y5.4935 I5.2816 J-1.3902
G2 X-9.5061 Y5.4827 I-0.0144 J0.0041
X-9.5192 Y5.4903 I0. J0.0149
X-9.5262 Y5.5263 I0.0515 J0.0288
X-9.4826 Y5.6043 I0.1172 J-0.0144
X-9.4666 Y5.615 I0.0736 J-0.0924 F50.
G3 X-9.4595 Y5.624 I-0.0073 J0.013
G1 X-9.4535 Y5.6486 F60.
X-9.4542 Y5.6569
X-9.4554 Y5.665
X-9.4573 Y5.6731
X-9.4597 Y5.681
X-9.4626 Y5.6887
X-9.4661 Y5.6962
X-9.4701 Y5.7034
X-9.4746 Y5.7103
X-9.4796 Y5.7169
X-9.4851 Y5.7231
X-9.491 Y5.7289
X-9.4972 Y5.7343
X-9.5039 Y5.7392
X-9.5108 Y5.7437
X-9.5181 Y5.7476
X-9.5256 Y5.751
X-9.5334 Y5.7539
X-9.5413 Y5.7562
X-9.5494 Y5.7579
X-9.5576 Y5.7591
X-9.5658 Y5.7596
X-9.5741
X-9.5823 Y5.759
X-9.5905 Y5.7579
X-9.5986 Y5.7561
X-9.6065 Y5.7538
X-9.6142 Y5.7509
X-9.6218 Y5.7475
X-9.6425 Y5.6609
X-9.6542 Y5.6146
G3 X-9.6426 Y5.597 I0.0146 J-0.003
X-9.6188 Y5.607 I0.0046 J0.0223
X-9.6101 Y5.7188 I-0.0993 J0.0639
X-9.6193 Y5.7356 I-0.108 J-0.0479 F50.
G2 X-9.6214 Y5.7469 I0.0125 J0.0082
G1 X-9.615 Y5.7734 F60.
X-9.6102 Y5.7805
X-9.605 Y5.7872
X-9.5993 Y5.7935
X-9.5932 Y5.7993
X-9.5866 Y5.8047
X-9.5797 Y5.8097
X-9.5724 Y5.8141
X-9.5648 Y5.8179
X-9.557 Y5.8212
X-9.5489 Y5.8239
X-9.5407 Y5.826
X-9.5324 Y5.8276
X-9.5239 Y5.8285
X-9.5154 Y5.8287
X-9.5069 Y5.8284
X-9.4985 Y5.8275
X-9.4902 Y5.8259
X-9.4819 Y5.8238
X-9.4739 Y5.821
X-9.4661 Y5.8177
X-9.4585 Y5.8138
X-9.4513 Y5.8093
X-9.4444 Y5.8044
X-9.4379 Y5.799
X-9.4318 Y5.7931
X-9.4261 Y5.7868
X-9.4209 Y5.78
G3 X-9.4535 Y5.6486 I4.38 J-1.1566
G2 X-9.4678 Y5.6378 I-0.0144 J0.0041
G1 X-9.4679
G2 X-9.4809 Y5.6454 I0. J0.0149
X-9.4881 Y5.686 I0.0549 J0.0307
X-9.4444 Y5.7603 I0.1166 J-0.0186
X-9.4284 Y5.7709 I0.0729 J-0.0929 F50.
G3 X-9.4213 Y5.7798 I-0.0072 J0.0131
G1 X-9.4162 Y5.7998 F60.
X-9.4145 Y5.8068
X-9.4154 Y5.8153
X-9.4169 Y5.8236
X-9.4191 Y5.8318
X-9.4218 Y5.8399
X-9.4251 Y5.8477
X-9.4289 Y5.8553
X-9.4333 Y5.8625
X-9.4382 Y5.8694
X-9.4436 Y5.876
X-9.4495 Y5.8821
X-9.4558 Y5.8878
X-9.4625 Y5.8931
X-9.4695 Y5.8978
X-9.4769 Y5.902
X-9.4846 Y5.9056
X-9.4925 Y5.9087
X-9.5006 Y5.9112
X-9.5089 Y5.9132
X-9.5173 Y5.9145
X-9.5257 Y5.9152
X-9.5342
X-9.5427 Y5.9147
X-9.5511 Y5.9136
X-9.5594 Y5.9118
X-9.5675 Y5.9094
X-9.5755 Y5.9065
X-9.5832 Y5.903
X-9.5969 Y5.8461
X-9.6085 Y5.7998
X-9.615 Y5.7734
G3 X-9.6103 Y5.7593 I0.0146 J-0.003
X-9.5994 Y5.7575 I0.0068 J0.0076
G1 X-9.5961 Y5.7591
G3 X-9.568 Y5.8771 I-0.0348 J0.0706
X-9.5784 Y5.8884 I-0.0629 J-0.0474 F50.
G2 X-9.583 Y5.9026 I0.0099 J0.0111
G1 X-9.5761 Y5.931 F60.
G2 X-9.3829 Y5.936 I0.0984 J-0.0679
G1 X-9.3935 Y5.8924
X-9.4145 Y5.8068
G2 X-9.4251 Y5.7964 I-0.0144 J0.0041
X-9.4359 Y5.8 I-0.0026 J0.0101
G1 X-9.4379 Y5.8027
G2 X-9.408 Y5.9204 I0.0635 J0.0465
X-9.3936 Y5.9256 I0.0336 J-0.0712 F50.
G3 X-9.3829 Y5.936 I-0.0036 J0.0145
G1 X-9.3764 Y5.9619 F60.
X-9.3772 Y5.9703
X-9.3786 Y5.9787
X-9.3807 Y5.987
X-9.3833 Y5.9951
X-9.3865 Y6.003
X-9.3903 Y6.0106
X-9.3947 Y6.0179
X-9.3995 Y6.0249
X-9.4049 Y6.0315
X-9.4107 Y6.0377
X-9.417 Y6.0435
X-9.4237 Y6.0488
X-9.4307 Y6.0536
X-9.4381 Y6.0579
X-9.4457 Y6.0616
X-9.4536 Y6.0647
X-9.4618 Y6.0673
X-9.47 Y6.0692
X-9.4784 Y6.0706
X-9.4869 Y6.0713
X-9.4954 Y6.0714
X-9.5039 Y6.0709
X-9.5124 Y6.0698
X-9.5207 Y6.068
X-9.5289 Y6.0657
X-9.5369 Y6.0627
X-9.5446 Y6.0592
X-9.5512 Y6.0313
X-9.5628 Y5.985
X-9.5761 Y5.931
G3 X-9.5714 Y5.9168 I0.0146 J-0.003
X-9.5585 Y5.9149 I0.0078 J0.0088
G1 X-9.5572 Y5.9156
G3 X-9.5295 Y6.0334 I-0.0352 J0.0704
X-9.5398 Y6.0447 I-0.0629 J-0.0474 F50.
G2 X-9.5445 Y6.0588 I0.01 J0.0111
G1 X-9.5381 Y6.0846 F60.
X-9.5335 Y6.0917
X-9.5283 Y6.0985
X-9.5226 Y6.1048
X-9.5165 Y6.1108
X-9.51 Y6.1162
X-9.5031 Y6.1212
X-9.4958 Y6.1257
X-9.4883 Y6.1296
X-9.4804 Y6.1329
X-9.4724 Y6.1357
X-9.4642 Y6.1379
X-9.4558 Y6.1394
X-9.4474 Y6.1404
X-9.4389 Y6.1407
X-9.4304 Y6.1404
X-9.4219 Y6.1395
X-9.4135 Y6.138
X-9.4053 Y6.1358
X-9.3972 Y6.1331
X-9.3894 Y6.1298
X-9.3818 Y6.1259
X-9.3746 Y6.1215
X-9.3676 Y6.1166
X-9.3611 Y6.1111
X-9.355 Y6.1053
X-9.3493 Y6.0989
X-9.3441 Y6.0922
X-9.3592 Y6.0313
X-9.3705 Y5.985
X-9.3764 Y5.9619
G2 X-9.4038 Y5.9588 I-0.0143 J0.0042
X-9.4107 Y5.9952 I0.0522 J0.0287
X-9.3673 Y6.0723 I0.1171 J-0.0151
X-9.3514 Y6.083 I0.0738 J-0.0922 F50.
G3 X-9.3443 Y6.092 I-0.0073 J0.013
G1 X-9.3374 Y6.1206 F60.
G3 X-9.5061 Y6.2144 I-0.1186 J-0.0148
G1 X-9.5172 Y6.1702
X-9.5381 Y6.0846
G3 X-9.5266 Y6.067 I0.0146 J-0.003
X-9.5024 Y6.0775 I0.0047 J0.0224
X-9.495 Y6.1862 I-0.1008 J0.0615
X-9.504 Y6.2031 I-0.1082 J-0.0473 F50.
G2 X-9.5061 Y6.2144 I0.0125 J0.0081
G1 X-9.4999 Y6.2397 F60.
X-9.4952 Y6.2468
X-9.4901 Y6.2537
X-9.4844 Y6.2601
X-9.4784 Y6.2661
X-9.4719 Y6.2716
X-9.465 Y6.2766
X-9.4577 Y6.2812
X-9.4502 Y6.2851
X-9.4423 Y6.2886
X-9.4343 Y6.2914
X-9.426 Y6.2936
X-9.4177 Y6.2953
X-9.4092 Y6.2963
X-9.4007 Y6.2967
X-9.3921 Y6.2965
X-9.3836 Y6.2956
X-9.3752 Y6.2941
X-9.3669 Y6.292
X-9.3588 Y6.2894
X-9.3509 Y6.2861
X-9.3433 Y6.2823
X-9.336 Y6.2779
X-9.329 Y6.273
X-9.3224 Y6.2676
X-9.3162 Y6.2617
X-9.3104 Y6.2554
X-9.3051 Y6.2487
X-9.3249 Y6.1702
X-9.3374 Y6.1206
G2 X-9.3481 Y6.1103 I-0.0143 J0.0041
X-9.3602 Y6.1146 I-0.0028 J0.0112
G1 X-9.3612 Y6.116
G2 X-9.3308 Y6.2327 I0.0642 J0.0455
X-9.3164 Y6.2379 I0.0338 J-0.0711 F50.
G3 X-9.3057 Y6.2483 I-0.0037 J0.0145
G1 X-9.2991 Y6.2753 F60.
X-9.3001 Y6.2837
X-9.3017 Y6.292
X-9.3039 Y6.3002
X-9.3066 Y6.3082
X-9.31 Y6.316
X-9.3139 Y6.3235
X-9.3183 Y6.3307
X-9.3232 Y6.3376
X-9.3286 Y6.3441
X-9.3345 Y6.3502
X-9.3408 Y6.3559
X-9.3475 Y6.3611
X-9.3546 Y6.3658
X-9.3619 Y6.3699
X-9.3696 Y6.3735
X-9.3775 Y6.3766
X-9.3856 Y6.3791
X-9.3939 Y6.3809
X-9.4022 Y6.3822
X-9.4107 Y6.3829
X-9.4191
X-9.4276 Y6.3824
X-9.436 Y6.3812
X-9.4442 Y6.3794
X-9.4524 Y6.3771
X-9.4603 Y6.3741
X-9.468 Y6.3706
X-9.4715 Y6.3554
X-9.4999 Y6.2397
G3 X-9.4771 Y6.2241 I0.0146 J-0.0031
X-9.4552 Y6.2509 I-0.0315 J0.0481
X-9.4566 Y6.3421 I-0.1097 J0.0438
X-9.4657 Y6.3589 I-0.1082 J-0.0473 F50.
G2 X-9.4678 Y6.3702 I0.0125 J0.0081
G1 X-9.4616 Y6.395 F60.
X-9.4572 Y6.4019
X-9.4523 Y6.4086
X-9.4469 Y6.4149
X-9.4411 Y6.4207
X-9.4349 Y6.4262
X-9.4283 Y6.4312
X-9.4214 Y6.4357
X-9.4142 Y6.4398
X-9.4067 Y6.4433
X-9.399 Y6.4462
X-9.3911 Y6.4486
X-9.3831 Y6.4505
X-9.3749 Y6.4518
X-9.3667 Y6.4524
X-9.3584 Y6.4525
X-9.3502 Y6.4521
X-9.342 Y6.451
X-9.3339 Y6.4494
X-9.326 Y6.4471
X-9.3182 Y6.4444
X-9.3106 Y6.4411
X-9.3033 Y6.4372
X-9.2963 Y6.4329
X-9.2896 Y6.428
X-9.2833 Y6.4227
X-9.2773 Y6.417
X-9.2718 Y6.4108
X-9.2668 Y6.4043
X-9.2792 Y6.3554
X-9.2911 Y6.3082
X-9.2991 Y6.2753
G2 X-9.3098 Y6.2649 I-0.0144 J0.004
X-9.3204 Y6.2684 I-0.0025 J0.0099
G1 X-9.3225 Y6.2713
G2 X-9.2924 Y6.3883 I0.064 J0.0459
X-9.278 Y6.3935 I0.0339 J-0.0711 F50.
G3 X-9.2673 Y6.4039 I-0.0037 J0.0145
G1 X-9.2618 Y6.4265 F60.
X-9.2623 Y6.4348
X-9.2634 Y6.4431
X-9.265 Y6.4512
X-9.2673 Y6.4593
X-9.2701 Y6.4671
X-9.2735 Y6.4747
X-9.2775 Y6.482
X-9.2819 Y6.4891
X-9.2868 Y6.4958
X-9.2923 Y6.5021
X-9.2981 Y6.508
X-9.3044 Y6.5135
X-9.311 Y6.5185
X-9.318 Y6.523
X-9.3253 Y6.527
X-9.3329 Y6.5305
X-9.3407 Y6.5334
X-9.3487 Y6.5358
X-9.3568 Y6.5375
X-9.365 Y6.5387
X-9.3733 Y6.5393
X-9.3817 Y6.5392
X-9.39 Y6.5386
X-9.3982 Y6.5374
X-9.4063 Y6.5356
X-9.4143 Y6.5332
X-9.4221 Y6.5302
X-9.4296 Y6.5267
G2 X-9.4616 Y6.395 I-13.6111 J3.2335
G3 X-9.4389 Y6.3793 I0.0146 J-0.0031
X-9.4164 Y6.4068 I-0.0318 J0.049
X-9.4181 Y6.4981 I-0.1098 J0.0436
X-9.4272 Y6.515 I-0.108 J-0.0478 F50.
G2 X-9.4294 Y6.5262 I0.0125 J0.0082
G1 X-9.4258 Y6.5406 F60.
X-9.4226 Y6.5534
X-9.4179 Y6.5604
X-9.4126 Y6.567
X-9.4069 Y6.5733
X-9.4007 Y6.5791
X-9.3941 Y6.5845
X-9.3872 Y6.5894
X-9.3799 Y6.5937
X-9.3724 Y6.5975
X-9.3645 Y6.6008
X-9.3565 Y6.6035
X-9.3483 Y6.6056
X-9.3399 Y6.6071
X-9.3315 Y6.6079
X-9.323 Y6.6082
X-9.3145 Y6.6079
X-9.3061 Y6.6069
X-9.2978 Y6.6053
X-9.2896 Y6.6032
X-9.2816 Y6.6004
X-9.2738 Y6.5971
X-9.2662 Y6.5932
X-9.259 Y6.5888
X-9.2521 Y6.5838
X-9.2456 Y6.5784
X-9.2395 Y6.5725
X-9.2338 Y6.5662
X-9.2286 Y6.5595
X-9.2336 Y6.5406
X-9.2452 Y6.4943
X-9.2618 Y6.4265
G2 X-9.2892 Y6.4233 I-0.0144 J0.004
X-9.2963 Y6.4545 I0.0494 J0.0277
X-9.252 Y6.5396 I0.1179 J-0.0073
X-9.2361 Y6.5503 I0.0736 J-0.0924 F50.
G3 X-9.229 Y6.5592 I-0.0073 J0.013
G1 X-9.2222 Y6.5869 F60.
X-9.2232 Y6.5954
X-9.2248 Y6.6037
X-9.2269 Y6.6119
X-9.2297 Y6.6199
X-9.233 Y6.6277
X-9.2369 Y6.6352
X-9.2414 Y6.6424
X-9.2463 Y6.6493
X-9.2517 Y6.6558
X-9.2576 Y6.6619
X-9.2639 Y6.6676
X-9.2706 Y6.6728
X-9.2777 Y6.6775
X-9.285 Y6.6816
X-9.2927 Y6.6853
X-9.3006 Y6.6883
X-9.3087 Y6.6908
X-9.317 Y6.6927
X-9.3253 Y6.694
X-9.3338 Y6.6947
X-9.3422
X-9.3507 Y6.6942
X-9.3591 Y6.693
X-9.3674 Y6.6913
X-9.3755 Y6.6889
X-9.3835 Y6.686
X-9.3912 Y6.6825
X-9.4086 Y6.6101
X-9.4142 Y6.5869
X-9.4226 Y6.5534
G3 X-9.418 Y6.5392 I0.0146 J-0.0031
X-9.4069 Y6.5374 I0.0069 J0.0077
G1 X-9.4038 Y6.5388
G3 X-9.376 Y6.6566 I-0.0351 J0.0705
X-9.3863 Y6.6679 I-0.063 J-0.0473 F50.
G2 X-9.3909 Y6.682 I0.01 J0.0111
G1 X-9.3852 Y6.7052 F60.
X-9.3809 Y6.7123
X-9.3761 Y6.7191
X-9.3708 Y6.7255
X-9.365 Y6.7316
X-9.3589 Y6.7371
X-9.3524 Y6.7423
X-9.3455 Y6.7469
X-9.3382 Y6.7511
X-9.3308 Y6.7547
X-9.323 Y6.7578
X-9.3151 Y6.7603
X-9.307 Y6.7622
X-9.2988 Y6.7636
X-9.2905 Y6.7643
X-9.2822 Y6.7645
X-9.2739 Y6.764
X-9.2656 Y6.763
X-9.2575 Y6.7614
X-9.2495 Y6.7591
X-9.2416 Y6.7564
X-9.234 Y6.753
X-9.2267 Y6.7492
X-9.2196 Y6.7448
X-9.2129 Y6.7399
X-9.2065 Y6.7345
X-9.2006 Y6.7287
X-9.195 Y6.7225
X-9.19 Y6.7159
X-9.1995 Y6.6795
X-9.2109 Y6.6332
X-9.2222 Y6.5869
G2 X-9.2329 Y6.5765 I-0.0144 J0.0041
X-9.2442 Y6.5804 I-0.0027 J0.0106
G1 X-9.2458 Y6.5825
G2 X-9.2156 Y6.7001 I0.0637 J0.0463
X-9.2012 Y6.7052 I0.0335 J-0.0713 F50.
G3 X-9.1905 Y6.7155 I-0.0036 J0.0145
G1 X-9.1879 Y6.7258 F60.
X-9.1848 Y6.7386
X-9.1853 Y6.7469
X-9.1864 Y6.7551
X-9.1881 Y6.7632
X-9.1904 Y6.7712
X-9.1933 Y6.779
X-9.1967 Y6.7866
X-9.2006 Y6.7939
X-9.2051 Y6.801
X-9.21 Y6.8076
X-9.2155 Y6.8139
X-9.2213 Y6.8198
X-9.2276 Y6.8253
X-9.2342 Y6.8303
X-9.2412 Y6.8348
X-9.2485 Y6.8388
X-9.2561 Y6.8423
X-9.2639 Y6.8452
X-9.2718 Y6.8475
X-9.28 Y6.8493
X-9.2882 Y6.8504
X-9.2965 Y6.851
X-9.3048
X-9.3131 Y6.8504
X-9.3213 Y6.8491
X-9.3294 Y6.8473
X-9.3374 Y6.845
X-9.3452 Y6.842
X-9.3527 Y6.8385
X-9.3686 Y6.7721
X-9.3852 Y6.7052
G3 X-9.3737 Y6.6875 I0.0146 J-0.0031
X-9.3503 Y6.6972 I0.0046 J0.022
X-9.3411 Y6.8099 I-0.0988 J0.0647
X-9.3503 Y6.8268 I-0.1079 J-0.048 F50.
G2 X-9.3524 Y6.838 I0.0125 J0.0082
G1 X-9.3459 Y6.8647 F60.
X-9.3412 Y6.8718
X-9.336 Y6.8785
X-9.3302 Y6.8848
X-9.3241 Y6.8906
X-9.3175 Y6.896
X-9.3106 Y6.9009
X-9.3033 Y6.9053
X-9.2958 Y6.9092
X-9.2879 Y6.9125
X-9.2799 Y6.9152
X-9.2717 Y6.9173
X-9.2633 Y6.9188
X-9.2549 Y6.9197
X-9.2464 Y6.92
X-9.2379 Y6.9197
X-9.2294 Y6.9187
X-9.2211 Y6.9172
X-9.2129 Y6.915
X-9.2048 Y6.9123
X-9.197 Y6.9089
X-9.1895 Y6.9051
X-9.1822 Y6.9006
X-9.1753 Y6.8957
X-9.1688 Y6.8903
X-9.1627 Y6.8844
X-9.157 Y6.8781
X-9.1518 Y6.8713
X-9.1652 Y6.8184
X-9.1848 Y6.7386
G2 X-9.1991 Y6.7277 I-0.0144 J0.0041
X-9.2122 Y6.7353 I0. J0.0149
X-9.2195 Y6.77 I0.0519 J0.0291
X-9.1752 Y6.8515 I0.1176 J-0.0111
X-9.1593 Y6.8621 I0.0733 J-0.0926 F50.
G3 X-9.1522 Y6.8711 I-0.0072 J0.013
G1 X-9.1455 Y6.8977 F60.
X-9.1464 Y6.9062
X-9.1479 Y6.9146
X-9.15 Y6.9228
X-9.1527 Y6.9309
X-9.156 Y6.9387
X-9.1598 Y6.9463
X-9.1642 Y6.9536
X-9.1691 Y6.9605
X-9.1745 Y6.9671
X-9.1803 Y6.9733
X-9.1866 Y6.979
X-9.1933 Y6.9842
X-9.2004 Y6.989
X-9.2077 Y6.9932
X-9.2154 Y6.9969
X-9.2233 Y7.
X-9.2314 Y7.0025
X-9.2397 Y7.0044
X-9.2481 Y7.0058
X-9.2566 Y7.0065
X-9.2651
X-9.2736 Y7.006
X-9.282 Y7.0049
X-9.2903 Y7.0031
X-9.2985 Y7.0007
X-9.3064 Y6.9978
X-9.3142 Y6.9943
X-9.3229 Y6.9573
X-9.3374 Y6.899
X-9.3459 Y6.8647
G3 X-9.3413 Y6.8506 I0.0146 J-0.003
X-9.3304 Y6.8488 I0.0068 J0.0076
G1 X-9.327 Y6.8504
G3 X-9.299 Y6.9685 I-0.0348 J0.0706
X-9.3093 Y6.9797 I-0.0629 J-0.0474 F50.
G2 X-9.314 Y6.9939 I0.0099 J0.0111
G1 X-9.3085 Y7.0164 F60.
X-9.3042 Y7.0235
X-9.2994 Y7.0304
X-9.2942 Y7.0368
X-9.2885 Y7.0429
X-9.2823 Y7.0486
X-9.2758 Y7.0538
X-9.2689 Y7.0585
X-9.2617 Y7.0627
X-9.2542 Y7.0663
X-9.2465 Y7.0694
X-9.2386 Y7.072
X-9.2305 Y7.074
X-9.2222 Y7.0753
X-9.2139 Y7.0761
X-9.2056 Y7.0763
X-9.1973 Y7.0759
X-9.189 Y7.0748
X-9.1808 Y7.0732
X-9.1728 Y7.071
X-9.1649 Y7.0682
X-9.1573 Y7.0649
X-9.1499 Y7.061
X-9.1428 Y7.0565
X-9.1361 Y7.0516
X-9.1297 Y7.0463
X-9.1238 Y7.0404
X-9.1183 Y7.0342
X-9.1132 Y7.0275
X-9.1196 Y7.0036
X-9.1422 Y6.911
X-9.1455 Y6.8977
G2 X-9.1562 Y6.8874 I-0.0143 J0.0041
X-9.1665 Y6.8908 I-0.0025 J0.0097
G1 X-9.1689 Y6.8939
G2 X-9.1388 Y7.0118 I0.0635 J0.0466
X-9.1244 Y7.0169 I0.0334 J-0.0713 F50.
G3 X-9.1137 Y7.0272 I-0.0036 J0.0145
G1 X-9.108 Y7.0499 F60.
X-9.1085 Y7.0583
X-9.1095 Y7.0665
X-9.1112 Y7.0747
X-9.1135 Y7.0827
X-9.1163 Y7.0905
X-9.1197 Y7.0981
X-9.1236 Y7.1054
X-9.1281 Y7.1125
X-9.133 Y7.1192
X-9.1384 Y7.1255
X-9.1443 Y7.1314
X-9.1505 Y7.1369
X-9.1572 Y7.1419
X-9.1641 Y7.1465
X-9.1714 Y7.1505
X-9.179 Y7.1539
X-9.1868 Y7.1569
X-9.1948 Y7.1592
X-9.2029 Y7.161
X-9.2111 Y7.1622
X-9.2194 Y7.1628
X-9.2278 Y7.1627
X-9.2361 Y7.1621
X-9.2443 Y7.1609
X-9.2524 Y7.1591
X-9.2604 Y7.1567
X-9.2682 Y7.1538
X-9.2757 Y7.1503
X-9.2886 Y7.0962
X-9.3003 Y7.0499
X-9.3085 Y7.0164
G3 X-9.2969 Y6.9987 I0.0146 J-0.003
X-9.2739 Y7.0081 I0.0045 J0.0217
X-9.2642 Y7.1217 I-0.0982 J0.0657
X-9.2733 Y7.1386 I-0.1079 J-0.0479 F50.
G2 X-9.2755 Y7.1498 I0.0125 J0.0082
G1 X-9.2691 Y7.1758 F60.
X-9.2644 Y7.1829
X-9.2592 Y7.1897
X-9.2535 Y7.196
X-9.2474 Y7.2019
X-9.2409 Y7.2074
X-9.234 Y7.2123
X-9.2267 Y7.2168
X-9.2191 Y7.2207
X-9.2113 Y7.224
X-9.2033 Y7.2268
X-9.195 Y7.2289
X-9.1867 Y7.2305
X-9.1782 Y7.2314
X-9.1697 Y7.2317
X-9.1612 Y7.2314
X-9.1528 Y7.2305
X-9.1444 Y7.229
X-9.1362 Y7.2268
X-9.1281 Y7.2241
X-9.1203 Y7.2208
X-9.1127 Y7.2169
X-9.1054 Y7.2125
X-9.0985 Y7.2075
X-9.092 Y7.2021
X-9.0858 Y7.1962
X-9.0801 Y7.1899
X-9.0749 Y7.1831
X-9.0852 Y7.1425
X-9.1013 Y7.0769
X-9.108 Y7.0499
G2 X-9.1264 Y7.0397 I-0.0143 J0.0041
X-9.1424 Y7.0589 I0.0062 J0.0214
X-9.0983 Y7.1633 I0.1175 J0.0118
X-9.0823 Y7.174 I0.0734 J-0.0925 F50.
G3 X-9.0752 Y7.1829 I-0.0073 J0.013
G1 X-9.0684 Y7.2108 F60.
G3 X-9.2233 Y7.3104 I-0.1179 J-0.0131
X-9.2191 Y7.2902 I0.0127 J-0.0079
G1 X-9.2124 Y7.2856
X-9.0934 Y7.204
X-9.0912 Y7.2026 F50.
G3 X-9.0684 Y7.2108 I0.0084 J0.0123
X-9.2412 Y7.2959 I-0.0864 J0.0425 F60.
X-9.2496 Y7.236 I0.0864 J-0.0425
G1 X-9.2659 Y7.1888
X-9.2691 Y7.1758
G3 X-9.2501 Y7.1585 I0.0146 J-0.003
G1 X-9.2474 Y7.1594 Z-0.2197
X-9.2447 Y7.1602 Z-0.2189
X-9.2422 Y7.161 Z-0.2175
X-9.24 Y7.1616 Z-0.2156
X-9.2383 Y7.1622 Z-0.2134
X-9.237 Y7.1626 Z-0.2108
X-9.2361 Y7.1628 Z-0.208
X-9.2359 Y7.1629 Z-0.2051
G0 Z-0.1902
X-9.7583 Y5.0669
G1 Z-0.2051 F50.
X-9.7586 Z-0.208
X-9.7595 Z-0.2108
X-9.7608 Z-0.2134
X-9.7627 Z-0.2156
X-9.765 Z-0.2175
X-9.7675 Z-0.2189
X-9.7703 Z-0.2197
X-9.7732 Y5.0668 Z-0.22
G3 X-9.8032 Y5.059 I0.0003 J-0.0623
G1 X-9.8463 Y5.0328 F60.
X-9.8514 Y5.0297
G3 X-9.8006 Y4.8425 I0.0831 J-0.078
G1 X-9.7486 Y4.8738
X-9.7075 Y4.8989
X-9.6972 Y4.9051
G3 X-9.6904 Y4.9184 I-0.0081 J0.0125
X-9.712 Y4.9398 I-0.0225 J-0.0011
X-9.7933 Y4.8716 I-0.0033 J-0.0787
X-9.7939 Y4.8563 I0.078 J-0.0105 F50.
G2 X-9.8005 Y4.843 I-0.0149 J-0.0009
G1 X-9.8257 Y4.8275 F60.
X-9.834 Y4.8259
X-9.8424 Y4.8249
X-9.8509 Y4.8245
X-9.8594 Y4.8247
X-9.8678 Y4.8255
X-9.8761 Y4.8269
X-9.8844 Y4.829
X-9.8924 Y4.8316
X-9.9003 Y4.8348
X-9.9079 Y4.8385
X-9.9152 Y4.8428
X-9.9222 Y4.8476
X-9.9288 Y4.853
X-9.935 Y4.8587
X-9.9408 Y4.8649
X-9.9461 Y4.8715
X-9.9509 Y4.8785
X-9.9552 Y4.8858
X-9.9589 Y4.8934
X-9.9621 Y4.9013
X-9.9648 Y4.9093
X-9.9668 Y4.9175
X-9.9682 Y4.9259
X-9.9691 Y4.9343
X-9.9693 Y4.9428
X-9.9689 Y4.9513
X-9.9679 Y4.9597
X-9.9388 Y4.9769
X-9.8925 Y5.0052
X-9.8514 Y5.0297
G2 X-9.8298 Y5.0125 I0.0072 J-0.0131
X-9.8494 Y4.983 I-0.0571 J0.0166
X-9.9371 Y4.9573 I-0.0745 J0.0917
X-9.956 Y4.9609 I0.0132 J0.1174 F50.
G3 X-9.9673 Y4.9596 I-0.004 J-0.0144
G1 X-9.985 Y4.9488 F60.
X-9.9897 Y4.946
X-9.9952 Y4.9395
X-10.0001 Y4.9325
X-10.0045 Y4.9252
X-10.0084 Y4.9176
X-10.0117 Y4.9098
X-10.0145 Y4.9017
X-10.0166 Y4.8935
X-10.0181 Y4.8851
X-10.019 Y4.8766
X-10.0193 Y4.8681
X-10.019 Y4.8596
X-10.018 Y4.8511
X-10.0164 Y4.8427
X-10.0142 Y4.8345
X-10.0115 Y4.8264
X-10.0081 Y4.8186
X-10.0042 Y4.811
X-9.9997 Y4.8038
X-9.9947 Y4.7968
X-9.9892 Y4.7903
X-9.9833 Y4.7842
X-9.9769 Y4.7786
X-9.9701 Y4.7734
X-9.963 Y4.7687
X-9.9555 Y4.7646
X-9.9478 Y4.761
X-9.9398 Y4.758
X-9.9017 Y4.7812
X-9.8925 Y4.7866
X-9.8257 Y4.8275
G3 X-9.819 Y4.8408 I-0.0082 J0.0124
X-9.8259 Y4.8502 I-0.0107 J-0.0007
G1 X-9.8287 Y4.8513
G3 X-9.9323 Y4.7873 I-0.0255 J-0.0745
X-9.9329 Y4.7721 I0.078 J-0.0106 F50.
G2 X-9.9396 Y4.7587 I-0.0149 J-0.0009
G1 X-9.9595 Y4.7465 F60.
X-9.9676 Y4.7445
X-9.9758 Y4.7431
X-9.9841 Y4.7422
X-9.9924 Y4.742
X-10.0008 Y4.7424
X-10.009 Y4.7434
X-10.0172 Y4.7449
X-10.0253 Y4.7471
X-10.0331 Y4.7498
X-10.0408 Y4.7531
X-10.0482 Y4.7569
X-10.0553 Y4.7613
X-10.0621 Y4.7661
X-10.0685 Y4.7715
X-10.0745 Y4.7773
X-10.08 Y4.7835
X-10.0852 Y4.7901
X-10.0898 Y4.797
X-10.0939 Y4.8042
X-10.0974 Y4.8118
X-10.1005 Y4.8195
X-10.1029 Y4.8275
X-10.1048 Y4.8356
X-10.1061 Y4.8439
X-10.1067 Y4.8522
X-10.1068 Y4.8605
X-10.1063 Y4.8688
X-10.1052 Y4.8771
X-10.0776 Y4.893
X-10.0313 Y4.9212
X-9.9897 Y4.946
G2 X-9.9694 Y4.9402 I0.0072 J-0.0131
X-9.9728 Y4.912 I-0.0214 J-0.0118
X-10.0745 Y4.8743 I-0.0873 J0.0796
X-10.0933 Y4.8782 I0.0144 J0.1172 F50.
G3 X-10.1046 Y4.877 I-0.0042 J-0.0143
G1 X-10.1238 Y4.8656 F60.
X-10.1295 Y4.8594
X-10.1347 Y4.8528
X-10.1394 Y4.8459
X-10.1435 Y4.8386
X-10.1472 Y4.8311
X-10.1503 Y4.8233
X-10.1528 Y4.8153
X-10.1547 Y4.8071
X-10.156 Y4.7989
X-10.1568 Y4.7905
X-10.1569 Y4.7821
X-10.1564 Y4.7738
X-10.1553 Y4.7655
X-10.1536 Y4.7573
X-10.1513 Y4.7492
X-10.1484 Y4.7413
X-10.145 Y4.7337
X-10.141 Y4.7263
X-10.1365 Y4.7193
X-10.1315 Y4.7125
X-10.126 Y4.7062
X-10.12 Y4.7003
X-10.1137 Y4.6948
X-10.107 Y4.6898
X-10.0999 Y4.6853
X-10.0925 Y4.6814
X-10.0849 Y4.6779
X-10.077 Y4.6751
X-9.9595 Y4.7465
G3 X-9.9553 Y4.7672 I-0.0082 J0.0124
X-9.9795 Y4.7771 I-0.0193 J-0.0128
X-10.0651 Y4.7035 I0.0248 J-0.1155
X-10.0705 Y4.6851 I0.1104 J-0.0419 F50.
G2 X-10.0768 Y4.6756 I-0.0146 J0.003
G1 X-10.1015 Y4.6605 F60.
X-10.1098 Y4.659
X-10.1182 Y4.6581
X-10.1267 Y4.6578
X-10.1351 Y4.6581
X-10.1435 Y4.6591
X-10.1519 Y4.6606
X-10.1601 Y4.6627
X-10.1681 Y4.6654
X-10.1759 Y4.6687
X-10.1834 Y4.6725
X-10.1907 Y4.6769
X-10.1976 Y4.6818
X-10.2041 Y4.6871
X-10.2103 Y4.693
X-10.216 Y4.6992
X-10.2212 Y4.7058
X-10.226 Y4.7128
X-10.2302 Y4.7202
X-10.2339 Y4.7278
X-10.237 Y4.7356
X-10.2396 Y4.7437
X-10.2416 Y4.7519
X-10.243 Y4.7603
X-10.2437 Y4.7687
X-10.2439 Y4.7772
X-10.2434 Y4.7856
X-10.2424 Y4.794
X-10.2164 Y4.809
X-10.186 Y4.8275
X-10.1238 Y4.8656
G2 X-10.1024 Y4.8483 I0.0072 J-0.0131
X-10.1247 Y4.8154 I-0.0623 J0.0183
X-10.2117 Y4.7913 I-0.0727 J0.0931
X-10.2304 Y4.7951 I0.0143 J0.1172 F50.
G3 X-10.2418 Y4.7939 I-0.0042 J-0.0143
G1 X-10.2626 Y4.7815 F60.
X-10.2681 Y4.7753
X-10.2732 Y4.7687
X-10.2777 Y4.7617
X-10.2817 Y4.7544
X-10.2852 Y4.7469
X-10.2882 Y4.7391
X-10.2906 Y4.7311
X-10.2924 Y4.723
X-10.2936 Y4.7148
X-10.2942 Y4.7065
X-10.2943 Y4.6981
X-10.2937 Y4.6898
X-10.2926 Y4.6816
X-10.2908 Y4.6735
X-10.2885 Y4.6655
X-10.2856 Y4.6577
X-10.2821 Y4.6501
X-10.2782 Y4.6428
X-10.2737 Y4.6358
X-10.2687 Y4.6291
X-10.2632 Y4.6229
X-10.2574 Y4.617
X-10.2511 Y4.6115
X-10.2444 Y4.6066
X-10.2374 Y4.6021
X-10.2301 Y4.5981
X-10.2225 Y4.5947
X-10.2147 Y4.5918
G2 X-10.1015 Y4.6605 I16.3917 J-26.8765
G3 X-10.0948 Y4.6738 I-0.0082 J0.0124
X-10.1019 Y4.6833 I-0.0108 J-0.0006
G1 X-10.1045 Y4.6843
G3 X-10.207 Y4.6209 I-0.0246 J-0.0748
X-10.2077 Y4.6056 I0.0779 J-0.0114 F50.
G2 X-10.2145 Y4.5923 I-0.0149 J-0.0007
G1 X-10.2364 Y4.5793 F60.
X-10.2448 Y4.5775
X-10.2533 Y4.5763
X-10.2618 Y4.5757
X-10.2704 Y4.5758
X-10.2789 Y4.5765
X-10.2874 Y4.5778
X-10.2957 Y4.5797
X-10.3039 Y4.5822
X-10.3119 Y4.5854
X-10.3196 Y4.5891
X-10.327 Y4.5933
X-10.3341 Y4.5981
X-10.3408 Y4.6034
X-10.3471 Y4.6092
X-10.353 Y4.6154
X-10.3584 Y4.6221
X-10.3633 Y4.6291
X-10.3677 Y4.6364
X-10.3715 Y4.6441
X-10.3747 Y4.652
X-10.3774 Y4.6601
X-10.3795 Y4.6685
X-10.3809 Y4.6769
X-10.3817 Y4.6854
X-10.3819 Y4.694
X-10.3815 Y4.7025
X-10.3804 Y4.711
X-10.3551 Y4.7261
X-10.3089 Y4.7533
X-10.2626 Y4.7815
G2 X-10.2424 Y4.7756 I0.0072 J-0.0131
X-10.2442 Y4.7533 I-0.0178 J-0.0098
X-10.3496 Y4.7088 I-0.0929 J0.0729
X-10.3684 Y4.7123 I0.0124 J0.1175 F50.
G3 X-10.3797 Y4.7109 I-0.004 J-0.0144
G1 X-10.4014 Y4.6976 F60.
X-10.4067 Y4.6912
X-10.4116 Y4.6845
X-10.416 Y4.6775
X-10.4199 Y4.6702
X-10.4232 Y4.6627
X-10.426 Y4.6549
X-10.4282 Y4.6469
X-10.4299 Y4.6388
X-10.431 Y4.6306
X-10.4315 Y4.6224
X-10.4314 Y4.6141
X-10.4308 Y4.6058
X-10.4295 Y4.5977
X-10.4277 Y4.5896
X-10.4253 Y4.5817
X-10.4224 Y4.574
X-10.4189 Y4.5665
X-10.4149 Y4.5592
X-10.4104 Y4.5523
X-10.4054 Y4.5457
X-10.4 Y4.5395
X-10.3941 Y4.5336
X-10.3878 Y4.5283
X-10.3812 Y4.5233
X-10.3742 Y4.5189
X-10.3669 Y4.5149
X-10.3594 Y4.5115
X-10.3517 Y4.5086
X-10.3089 Y4.5355
X-10.2626 Y4.5637
X-10.2364 Y4.5793
G3 X-10.232 Y4.5999 I-0.0081 J0.0126
X-10.2575 Y4.6101 I-0.0199 J-0.0128
X-10.3397 Y4.5372 I0.0282 J-0.1147
X-10.3451 Y4.5188 I0.1105 J-0.0418 F50.
G2 X-10.3514 Y4.5093 I-0.0146 J0.003
G1 X-10.3551 Y4.507 F60.
X-10.3614 Y4.5034
X-10.3724 Y4.497
X-10.3805 Y4.495
X-10.3887 Y4.4937
X-10.397 Y4.4929
X-10.4053 Y4.4928
X-10.4135 Y4.4932
X-10.4218 Y4.4942
X-10.4299 Y4.4958
X-10.4379 Y4.498
X-10.4457 Y4.5008
X-10.4534 Y4.5041
X-10.4607 Y4.508
X-10.4678 Y4.5124
X-10.4745 Y4.5173
X-10.4808 Y4.5226
X-10.4868 Y4.5284
X-10.4923 Y4.5346
X-10.4974 Y4.5412
X-10.5019 Y4.5481
X-10.506 Y4.5553
X-10.5095 Y4.5628
X-10.5125 Y4.5706
X-10.5149 Y4.5785
X-10.5168 Y4.5866
X-10.518 Y4.5948
X-10.5187 Y4.6031
X-10.5188 Y4.6114
X-10.5183 Y4.6197
X-10.5171 Y4.6279
G3 X-10.4014 Y4.6976 I-2.9352 J5.0065
G2 X-10.3796 Y4.6806 I0.0074 J-0.013
X-10.3961 Y4.6543 I-0.0522 J0.0144
X-10.4868 Y4.6256 I-0.078 J0.0887
X-10.5056 Y4.6292 I0.0127 J0.1174 F50.
G3 X-10.517 Y4.6278 I-0.004 J-0.0144
G1 X-10.5402 Y4.6136 F60.
X-10.5455 Y4.607
X-10.5504 Y4.6001
X-10.5548 Y4.5928
X-10.5586 Y4.5852
X-10.5618 Y4.5773
X-10.5645 Y4.5693
X-10.5665 Y4.561
X-10.568 Y4.5527
X-10.5688 Y4.5442
X-10.5691 Y4.5357
X-10.5687 Y4.5273
X-10.5677 Y4.5188
X-10.566 Y4.5105
X-10.5638 Y4.5023
X-10.561 Y4.4943
X-10.5576 Y4.4865
X-10.5537 Y4.479
X-10.5492 Y4.4718
X-10.5442 Y4.4649
X-10.5387 Y4.4584
X-10.5327 Y4.4524
X-10.5264 Y4.4468
X-10.5196 Y4.4416
X-10.5125 Y4.437
X-10.505 Y4.4329
X-10.4973 Y4.4294
X-10.4894 Y4.4264
G3 X-10.3724 Y4.497 I-18.589 J30.9453
X-10.3678 Y4.5175 I-0.008 J0.0126
X-10.3899 Y4.5271 I-0.018 J-0.0114
X-10.4772 Y4.4545 I0.0226 J-0.1159
X-10.4828 Y4.4361 I0.1099 J-0.0434 F50.
G2 X-10.4893 Y4.4268 I-0.0146 J0.0032
G1 X-10.4939 Y4.424 F60.
X-10.5113 Y4.4135
X-10.5195 Y4.4116
X-10.5279 Y4.4104
X-10.5363 Y4.4098
X-10.5447
X-10.5532 Y4.4104
X-10.5615 Y4.4117
X-10.5698 Y4.4135
X-10.5779 Y4.416
X-10.5857 Y4.419
X-10.5934 Y4.4226
X-10.6008 Y4.4267
X-10.6078 Y4.4314
X-10.6145 Y4.4365
X-10.6208 Y4.4422
X-10.6266 Y4.4483
X-10.632 Y4.4548
X-10.6369 Y4.4616
X-10.6413 Y4.4689
X-10.6452 Y4.4764
X-10.6485 Y4.4841
X-10.6512 Y4.4921
X-10.6533 Y4.5003
X-10.6549 Y4.5086
X-10.6558 Y4.517
X-10.6561 Y4.5255
X-10.6558 Y4.5339
X-10.6548 Y4.5423
G2 X-10.5402 Y4.6136 I0.7511 J-1.0794
X-10.5253 Y4.6132 I0.007 J-0.0132
X-10.5246 Y4.5511 I-0.0194 J-0.0312
X-10.6257 Y4.5378 I-0.0645 J0.0989
X-10.64 Y4.5435 I0.0367 J0.1123 F50.
G3 X-10.6548 Y4.5423 I-0.0064 J-0.0135
G1 X-10.679 Y4.5245 F60.
G3 X-10.6853 Y4.3981 I0.0786 J-0.0673
X-10.6593 Y4.4075 I0.0111 J0.01
G1 X-10.6556 Y4.5116
X-10.6557 Y4.5136
G3 X-10.679 Y4.5245 I-0.0148 J-0.0015 F50.
G1 X-10.684 Y4.5185 F60.
X-10.6886 Y4.5122
X-10.6927 Y4.5056
X-10.6962 Y4.4986
X-10.6992 Y4.4914
X-10.7015 Y4.4839
X-10.7033 Y4.4763
X-10.7044 Y4.4686
X-10.7049 Y4.4608
X-10.7048 Y4.453
X-10.7041 Y4.4452
X-10.7027 Y4.4375
X-10.7007 Y4.43
X-10.6981 Y4.4226
X-10.695 Y4.4155
X-10.6913 Y4.4086
X-10.687 Y4.4021
X-10.6822 Y4.3959
X-10.677 Y4.3901
X-10.6713 Y4.3848
X-10.6652 Y4.3799
X-10.6587 Y4.3756
X-10.6519 Y4.3718
X-10.6448 Y4.3685
X-10.6375 Y4.3658
X-10.6299 Y4.3637
X-10.6223 Y4.3623
X-10.6145 Y4.3614
X-10.6067 Y4.3612
X-10.5989 Y4.3616
X-10.5912 Y4.3626
X-10.5836 Y4.3642
X-10.5761 Y4.3665
X-10.5688 Y4.3693
X-10.5618 Y4.3727
X-10.5551 Y4.3767
X-10.5487 Y4.3812
X-10.5427 Y4.3862
X-10.5371 Y4.3916
X-10.532 Y4.3975
X-10.5274 Y4.4038
X-10.5233 Y4.4104
X-10.5197 Y4.4174
X-10.518 Y4.417
X-10.5161 Y4.4171
X-10.5143 Y4.4175
X-10.5125 Y4.4183
X-10.5108 Y4.4195
X-10.5093 Y4.421
X-10.5081 Y4.4229
X-10.5073 Y4.4251
X-10.5069 Y4.4275
X-10.507 Y4.43
X-10.5076 Y4.4325
X-10.5087 Y4.435
X-10.5103 Y4.4372
X-10.5124 Y4.4391
X-10.515 Y4.4405 Z-0.2197
X-10.5175 Y4.4418 Z-0.2189
X-10.5197 Y4.443 Z-0.2175
X-10.5217 Y4.4441 Z-0.2156
X-10.5234 Y4.4449 Z-0.2134
X-10.5246 Y4.4456 Z-0.2108
X-10.5253 Y4.446 Z-0.208
X-10.5256 Y4.4461 Z-0.2051
G0 Z0.4
X-5.4346 Y3.6839
Z0.1
G3 X-5.5607 Y3.7487 Z0.0607 I-0.063 J0.0324 F50.
X-5.4346 Y3.6839 Z0.0215 I0.063 J-0.0324
X-5.5607 Y3.7487 Z-0.0178 I-0.063 J0.0324
X-5.4346 Y3.6839 Z-0.057 I0.063 J-0.0324
X-5.5607 Y3.7487 Z-0.0963 I-0.063 J0.0324
X-5.4346 Y3.6839 Z-0.1355 I0.063 J-0.0324
X-5.5607 Y3.7487 Z-0.1748 I-0.063 J0.0324
X-5.4346 Y3.6839 Z-0.2141 I0.063 J-0.0324
X-5.4268 Y3.7163 Z-0.22 I-0.063 J0.0324
X-5.5685 I-0.0709 J0.
X-5.4268 I0.0709 J0.
X-5.41 Y3.7521 I-0.0382 J0.0398 F60.
G1 X-5.4113 Y3.7626
X-5.449 Y3.8089
X-5.4822 Y3.8322
G3 X-5.6511 Y3.7234 I-0.0546 J-0.1006
X-5.4977 Y3.6359 I0.2882 J0.327
X-5.4092 Y3.7523 I-0.001 J0.0926
G1 X-5.4102 Y3.7552
X-5.4118 Y3.7578
X-5.4138 Y3.76
X-5.429 Y3.776
X-5.4609 Y3.8098
X-5.4804 Y3.8305 F50.
X-5.4822 Y3.8322
X-5.4977 Y3.843 F60.
X-5.5145 Y3.8552
X-5.5529 Y3.8839
G3 X-5.7302 Y3.7819 I-0.0496 J-0.1189
G1 X-5.7025 Y3.7626
X-5.65 Y3.7235
G3 X-5.6352 Y3.7223 I0.0085 J0.0123
X-5.6291 Y3.7701 I-0.0122 J0.0259
X-5.6993 Y3.7858 I-0.0504 J-0.0605
X-5.7137 Y3.7806 I0.0199 J-0.0762 F50.
G2 X-5.7285 Y3.7816 I-0.0065 J0.0134
G1 X-5.7432 Y3.7923 F60.
G2 X-5.6685 Y3.9685 I0.0922 J0.0648
X-5.5529 Y3.8839 I-4.2346 J-5.9067
X-5.5475 Y3.87 I-0.0093 J-0.0117
X-5.6113 Y3.8418 I-0.0409 J0.0062
X-5.6637 Y3.9395 I0.0657 J0.0981
X-5.6628 Y3.9548 I0.1181 J0.0004 F50.
G3 X-5.6685 Y3.9685 I-0.0148 J0.0019
G1 X-5.6827 Y3.9786 F60.
X-5.6933 Y3.9863
X-5.7014 Y3.9888
X-5.7097 Y3.9907
X-5.7181 Y3.9919
X-5.7266 Y3.9926
X-5.7351
X-5.7436 Y3.9921
X-5.752 Y3.9909
X-5.7603 Y3.9891
X-5.7685 Y3.9868
X-5.7765 Y3.9838
X-5.7842 Y3.9803
X-5.7917 Y3.9762
X-5.7989 Y3.9716
X-5.8057 Y3.9665
X-5.8121 Y3.9609
X-5.8181 Y3.9549
X-5.8237 Y3.9485
X-5.8287 Y3.9416
X-5.8333 Y3.9345
X-5.8374 Y3.927
X-5.8409 Y3.9192
X-5.8438 Y3.9112
X-5.8461 Y3.9031
X-5.8479 Y3.8947
X-5.849 Y3.8863
X-5.8496 Y3.8778
X-5.8495 Y3.8693
G3 X-5.7432 Y3.7923 I7.3314 J10.0101
X-5.7283 Y3.7913 I0.0084 J0.0124
X-5.7216 Y3.803 I-0.0053 J0.0108
X-5.8195 Y3.8734 I-0.0785 J-0.006
X-5.8339 Y3.8682 I0.0194 J-0.0763 F50.
G2 X-5.8488 Y3.8693 I-0.0064 J0.0135
G1 X-5.8678 Y3.8834 F60.
X-5.8726 Y3.8902
X-5.8769 Y3.8972
X-5.8807 Y3.9046
X-5.884 Y3.9122
X-5.8867 Y3.92
X-5.8889 Y3.9281
X-5.8904 Y3.9362
X-5.8914 Y3.9444
X-5.8918 Y3.9527
X-5.8916 Y3.961
X-5.8908 Y3.9693
X-5.8894 Y3.9774
X-5.8874 Y3.9855
X-5.8848 Y3.9934
X-5.8817 Y4.001
X-5.878 Y4.0085
X-5.8738 Y4.0156
X-5.8691 Y4.0225
X-5.8639 Y4.0289
X-5.8583 Y4.035
X-5.8522 Y4.0407
X-5.8458 Y4.0459
X-5.839 Y4.0506
X-5.8318 Y4.0549
X-5.8244 Y4.0586
X-5.8168 Y4.0617
X-5.8089 Y4.0643
X-5.8009 Y4.0664
G3 X-5.6933 Y3.9863 I6.4401 J8.5465
G2 X-5.6908 Y3.9654 I-0.0093 J-0.0117
X-5.7173 Y3.9578 I-0.0186 J0.0147
X-5.7915 Y4.0371 I0.0394 J0.1113
X-5.7952 Y4.0559 I0.1137 J0.032 F50.
G3 X-5.8007 Y4.0659 I-0.0148 J-0.0017
G1 X-5.8215 Y4.0813 F60.
X-5.8294 Y4.0838
X-5.8374 Y4.0858
X-5.8456 Y4.0872
X-5.8538 Y4.0881
X-5.8621 Y4.0883
X-5.8704 Y4.088
X-5.8787 Y4.087
X-5.8868 Y4.0855
X-5.8948 Y4.0834
X-5.9027 Y4.0807
X-5.9103 Y4.0775
X-5.9177 Y4.0738
X-5.9248 Y4.0695
X-5.9316 Y4.0647
X-5.938 Y4.0595
X-5.9441 Y4.0538
X-5.9497 Y4.0477
X-5.9549 Y4.0412
X-5.9595 Y4.0344
X-5.9637 Y4.0272
X-5.9674 Y4.0198
X-5.9706 Y4.0121
X-5.9731 Y4.0043
X-5.9752 Y3.9962
X-5.9766 Y3.9881
X-5.9774 Y3.9798
X-5.9777 Y3.9715
X-5.9774 Y3.9632
X-5.8678 Y3.8834
G3 X-5.8447 Y3.8985 I0.0084 J0.0123
X-5.8624 Y3.931 I-0.0588 J-0.0111
X-5.9468 Y3.9631 I-0.081 J-0.0859
X-5.9659 Y3.961 I0.0033 J-0.1181 F50.
G2 X-5.9771 Y3.9633 I-0.0028 J0.0146
G1 X-6.0002 Y3.9801 F60.
X-6.0048 Y3.9872
X-6.0089 Y3.9946
X-6.0124 Y4.0023
X-6.0154 Y4.0103
X-6.0178 Y4.0184
X-6.0196 Y4.0267
X-6.0208 Y4.035
X-6.0214 Y4.0435
Y4.052
X-6.0208 Y4.0604
X-6.0195 Y4.0688
X-6.0177 Y4.077
X-6.0153 Y4.0852
X-6.0123 Y4.0931
X-6.0087 Y4.1007
X-6.0046 Y4.1081
X-5.9999 Y4.1152
X-5.9948 Y4.122
X-5.9892 Y4.1283
X-5.9832 Y4.1342
X-5.9767 Y4.1397
X-5.9699 Y4.1447
X-5.9627 Y4.1492
X-5.9552 Y4.1531
X-5.9474 Y4.1565
X-5.9395 Y4.1593
X-5.9313 Y4.1616
X-5.8678 Y4.1142
X-5.8215 Y4.0813
G2 X-5.8191 Y4.0603 I-0.0093 J-0.0117
X-5.8458 Y4.0524 I-0.0189 J0.0151
X-5.9219 Y4.1322 I0.0375 J0.112
X-5.9256 Y4.1511 I0.1136 J0.0322 F50.
G3 X-5.9312 Y4.161 I-0.0148 J-0.0017
G1 X-5.9505 Y4.1754 F60.
X-5.9584 Y4.1781
X-5.9665 Y4.1802
X-5.9747 Y4.1817
X-5.9829 Y4.1826
X-5.9912 Y4.183
X-5.9996 Y4.1827
X-6.0078 Y4.1819
X-6.016 Y4.1804
X-6.0241 Y4.1784
X-6.032 Y4.1758
X-6.0397 Y4.1726
X-6.0472 Y4.1689
X-6.0543 Y4.1647
X-6.0612 Y4.1599
X-6.0677 Y4.1547
X-6.0737 Y4.1491
X-6.0794 Y4.143
X-6.0846 Y4.1365
X-6.0894 Y4.1296
X-6.0936 Y4.1225
X-6.0973 Y4.115
X-6.1005 Y4.1073
X-6.1031 Y4.0994
X-6.1051 Y4.0913
X-6.1066 Y4.0832
X-6.1074 Y4.0749
X-6.1077 Y4.0666
X-6.1073 Y4.0582
G2 X-6.0002 Y3.9801 I-3.2166 J-4.5232
G3 X-5.9853 Y3.9791 I0.0084 J0.0124
X-5.9791 Y3.9895 I-0.0048 J0.01
G1 X-5.9792 Y3.9919
G3 X-6.0775 Y4.0624 I-0.0785 J-0.0057
X-6.0919 Y4.0572 I0.0197 J-0.0762 F50.
G2 X-6.1067 Y4.0583 I-0.0065 J0.0134
G1 X-6.1265 Y4.0728 F60.
X-6.1313 Y4.0795
X-6.1357 Y4.0866
X-6.1395 Y4.0939
X-6.1428 Y4.1015
X-6.1455 Y4.1093
X-6.1477 Y4.1173
X-6.1493 Y4.1254
X-6.1503 Y4.1336
X-6.1508 Y4.1419
X-6.1506 Y4.1502
X-6.1499 Y4.1584
X-6.1485 Y4.1666
X-6.1466 Y4.1746
X-6.1441 Y4.1825
X-6.1411 Y4.1902
X-6.1375 Y4.1977
X-6.1334 Y4.2049
X-6.1288 Y4.2117
X-6.1237 Y4.2183
X-6.1182 Y4.2244
X-6.1123 Y4.2302
X-6.1059 Y4.2355
X-6.0992 Y4.2403
X-6.0921 Y4.2446
X-6.0848 Y4.2485
X-6.0772 Y4.2518
X-6.0694 Y4.2545
X-6.0614 Y4.2567
G2 X-5.9505 Y4.1754 I-5.312 J-7.36
X-5.9581 Y4.1489 I-0.0093 J-0.0117
X-5.9962 Y4.1565 I-0.0072 J0.0627
X-6.052 Y4.2273 I0.0578 J0.103
X-6.0557 Y4.2461 I0.1136 J0.0323 F50.
G3 X-6.0613 Y4.256 I-0.0148 J-0.0017
G1 X-6.0828 Y4.2719 F60.
X-6.0909 Y4.2743
X-6.0992 Y4.2762
X-6.1076 Y4.2774
X-6.1161 Y4.278
X-6.1246
X-6.1331 Y4.2774
X-6.1415 Y4.2762
X-6.1498 Y4.2743
X-6.1579 Y4.2718
X-6.1659 Y4.2688
X-6.1736 Y4.2652
X-6.181 Y4.261
X-6.1881 Y4.2563
X-6.1948 Y4.2511
X-6.2011 Y4.2454
X-6.207 Y4.2393
X-6.2125 Y4.2328
X-6.2174 Y4.2259
X-6.2218 Y4.2186
X-6.2257 Y4.211
X-6.229 Y4.2032
X-6.2318 Y4.1951
X-6.2339 Y4.1869
X-6.2354 Y4.1786
X-6.2364 Y4.1701
X-6.2367 Y4.1616
X-6.2364 Y4.1531
X-6.1916 Y4.1204
X-6.1453 Y4.0866
X-6.1265 Y4.0728
G3 X-6.1058 Y4.0767 I0.0084 J0.0123
X-6.1059 Y4.1018 I-0.0183 J0.0125
X-6.2057 Y4.1528 I-0.0972 J-0.0671
X-6.2248 Y4.1508 I0.0027 J-0.1181 F50.
G2 X-6.2276 Y4.1505 I-0.0028 J0.0147
G1 X-6.2305 Y4.1508
X-6.2334 Y4.1517
X-6.236 Y4.1531
X-6.2549 Y4.1669 F60.
X-6.2599 Y4.1737
X-6.2644 Y4.1809
X-6.2684 Y4.1883
X-6.2718 Y4.196
X-6.2747 Y4.204
X-6.2769 Y4.2121
X-6.2786 Y4.2204
X-6.2796 Y4.2288
X-6.2801 Y4.2373
X-6.2799 Y4.2457
X-6.2791 Y4.2541
X-6.2777 Y4.2625
X-6.2757 Y4.2707
X-6.2731 Y4.2787
X-6.2699 Y4.2866
X-6.2662 Y4.2941
X-6.2619 Y4.3014
X-6.2571 Y4.3084
X-6.2518 Y4.315
X-6.246 Y4.3212
X-6.2398 Y4.3269
X-6.2332 Y4.3322
X-6.2262 Y4.337
X-6.2189 Y4.3412
X-6.2114 Y4.3449
X-6.2035 Y4.3481
X-6.1955 Y4.3507
X-6.1872 Y4.3526
X-6.1451 Y4.3182
X-6.0991 Y4.284
X-6.0828 Y4.2719
G2 X-6.0773 Y4.258 I-0.0093 J-0.0117
X-6.0883 Y4.2462 I-0.014 J0.0021
X-6.1837 Y4.3228 I-0.0166 J0.077
G1 Y4.3232 F50.
G2 X-6.1822 Y4.338 I0.0787 J0.
G3 X-6.1871 Y4.3521 I-0.0147 J0.0028
G1 X-6.1916 Y4.3557 F60.
X-6.1992 Y4.3645
G3 X-6.3616 Y4.2707 I-0.0531 J-0.0955
X-6.2549 Y4.1669 I0.3003 J0.2021
X-6.24 Y4.1658 I0.0084 J0.0124
X-6.2267 Y4.2122 I-0.0141 J0.0292
X-6.3329 Y4.2675 I-0.1001 J-0.0627
X-6.3481 Y4.2657 I0.0062 J-0.1179 F50.
G2 X-6.3621 Y4.2707 I-0.0027 J0.0147
G1 X-6.3631 Y4.2719 F60.
X-6.3766 Y4.2958
X-6.3828 Y4.307
X-6.3851 Y4.3154
X-6.3868 Y4.3241
X-6.3879 Y4.3328
X-6.3884 Y4.3415
X-6.3883 Y4.3503
X-6.3875 Y4.359
X-6.3862 Y4.3677
X-6.3842 Y4.3763
X-6.3816 Y4.3846
X-6.3784 Y4.3928
X-6.3746 Y4.4008
X-6.3703 Y4.4084
X-6.3654 Y4.4157
X-6.3601 Y4.4227
X-6.3542 Y4.4292
X-6.3479 Y4.4353
X-6.3412 Y4.441
X-6.3341 Y4.4461
X-6.3267 Y4.4508
X-6.3189 Y4.4549
X-6.3109 Y4.4584
X-6.3026 Y4.4614
X-6.2942 Y4.4637
X-6.2856 Y4.4655
X-6.2769 Y4.4666
X-6.2681 Y4.4671
X-6.2593 Y4.467
X-6.2506 Y4.4663
G3 X-6.1992 Y4.3645 I0.5132 J0.195
G2 X-6.1996 Y4.3496 I-0.0131 J-0.0071
X-6.2429 Y4.3432 I-0.0243 J0.0149
X-6.2609 Y4.4371 I0.0525 J0.0587
X-6.2528 Y4.4501 I0.0704 J-0.0352 F50.
G3 X-6.2508 Y4.4648 I-0.0118 J0.0091
G1 X-6.2598 Y4.485 F60.
X-6.266 Y4.4908
X-6.2725 Y4.4961
X-6.2794 Y4.5009
X-6.2866 Y4.5052
X-6.2941 Y4.5089
X-6.3019 Y4.5121
X-6.3099 Y4.5146
X-6.3181 Y4.5166
X-6.3264 Y4.518
X-6.3347 Y4.5188
X-6.3431 Y4.5189
X-6.3515 Y4.5184
X-6.3598 Y4.5173
X-6.3681 Y4.5156
X-6.3761 Y4.5132
X-6.384 Y4.5103
X-6.3917 Y4.5068
X-6.399 Y4.5028
X-6.4061 Y4.4982
X-6.4127 Y4.4931
X-6.419 Y4.4875
X-6.4249 Y4.4815
X-6.4303 Y4.4751
X-6.4352 Y4.4683
X-6.4396 Y4.4611
X-6.4434 Y4.4536
X-6.4467 Y4.4459
G3 X-6.3828 Y4.307 I2.2261 J0.9403
X-6.3698 Y4.2997 I0.0128 J0.0076
X-6.3299 Y4.3542 I-0.0005 J0.0422
X-6.4191 Y4.4354 I-0.113 J-0.0345
X-6.4342 Y4.4375 I-0.0238 J-0.1157 F50.
G2 X-6.4466 Y4.4459 I0.0011 J0.0149
G1 X-6.4583 Y4.4725 F60.
X-6.4592 Y4.481
X-6.4595 Y4.4896
X-6.4592 Y4.4982
X-6.4582 Y4.5067
X-6.4566 Y4.5152
X-6.4544 Y4.5235
X-6.4516 Y4.5316
X-6.4482 Y4.5395
X-6.4443 Y4.5471
X-6.4398 Y4.5544
X-6.4348 Y4.5614
X-6.4292 Y4.568
X-6.4233 Y4.5742
X-6.4169 Y4.5799
X-6.41 Y4.5851
X-6.4029 Y4.5899
X-6.3954 Y4.5941
X-6.3876 Y4.5977
X-6.3796 Y4.6008
X-6.3713 Y4.6032
X-6.3629 Y4.6051
X-6.3544 Y4.6063
X-6.3459 Y4.607
X-6.3373
X-6.3287 Y4.6063
X-6.3202 Y4.6051
X-6.3118 Y4.6032
G3 X-6.2598 Y4.485 I9.9671 J4.3118
G2 X-6.2618 Y4.4702 I-0.0138 J-0.0056
X-6.2791 Y4.4652 I-0.0121 J0.0093
X-6.3223 Y4.575 I0.027 J0.074
X-6.3141 Y4.5878 I0.0702 J-0.0357 F50.
G3 X-6.312 Y4.6026 I-0.0117 J0.0092
G1 X-6.3211 Y4.6234 F60.
X-6.3267 Y4.6296
X-6.3326 Y4.6353
X-6.339 Y4.6407
X-6.3457 Y4.6455
X-6.3527 Y4.6499
X-6.3601 Y4.6537
X-6.3677 Y4.657
X-6.3755 Y4.6598
X-6.3835 Y4.6619
X-6.3917 Y4.6635
X-6.3999 Y4.6645
X-6.4082 Y4.6649
X-6.4165 Y4.6647
X-6.4247 Y4.6639
X-6.4329 Y4.6625
X-6.441 Y4.6605
X-6.4488 Y4.658
X-6.4565 Y4.6548
X-6.464 Y4.6512
X-6.4711 Y4.647
X-6.4779 Y4.6423
X-6.4844 Y4.6371
X-6.4905 Y4.6314
X-6.4961 Y4.6254
X-6.5013 Y4.6189
X-6.5061 Y4.6121
X-6.5103 Y4.605
X-6.514 Y4.5975
X-6.4637 Y4.4847
X-6.4583 Y4.4725
G3 X-6.4384 Y4.4655 I0.0134 J0.0065
X-6.4261 Y4.4868 I-0.0095 J0.0197
X-6.4875 Y4.582 I-0.1178 J-0.0086
X-6.5051 Y4.5898 I-0.0564 J-0.1038 F50.
G2 X-6.5136 Y4.5974 I0.0049 J0.0141
G1 X-6.5244 Y4.6219 F60.
X-6.5251 Y4.6304
X-6.5252 Y4.6389
X-6.5247 Y4.6475
X-6.5236 Y4.6559
X-6.5218 Y4.6643
X-6.5194 Y4.6725
X-6.5165 Y4.6805
X-6.5129 Y4.6882
X-6.5088 Y4.6957
X-6.5042 Y4.7029
X-6.4991 Y4.7097
X-6.4934 Y4.7161
X-6.4873 Y4.7221
X-6.4808 Y4.7276
X-6.4739 Y4.7326
X-6.4667 Y4.7372
X-6.4592 Y4.7411
X-6.4513 Y4.7445
X-6.4433 Y4.7474
X-6.435 Y4.7496
X-6.4267 Y4.7512
X-6.4182 Y4.7522
X-6.4097 Y4.7526
X-6.4011 Y4.7524
X-6.3927 Y4.7515
X-6.3842 Y4.75
X-6.376 Y4.748
X-6.3602 Y4.7118
X-6.3211 Y4.6234
G2 X-6.3294 Y4.604 I-0.0139 J-0.0055
X-6.354 Y4.6095 I-0.0083 J0.0206
X-6.3822 Y4.718 I0.0865 J0.0805
X-6.3762 Y4.7362 I0.1147 J-0.028 F50.
G3 X-6.3761 Y4.7476 I-0.0137 J0.0058
G1 X-6.3877 Y4.7739 F60.
G3 X-6.5787 Y4.7448 I-0.085 J-0.0837
X-6.5244 Y4.6219 I9.8059 J4.2544
X-6.4969 Y4.6235 I0.0134 J0.0065
X-6.4962 Y4.6603 I-0.0559 J0.0195
X-6.5526 Y4.7295 I-0.1129 J-0.0346
X-6.5702 Y4.7372 I-0.0565 J-0.1037 F50.
G2 X-6.5787 Y4.7448 I0.0049 J0.0141
G1 X-6.5893 Y4.7691 F60.
X-6.5901 Y4.7776
Y4.7862
X-6.5896 Y4.7947
X-6.5884 Y4.8031
X-6.5867 Y4.8115
X-6.5843 Y4.8197
X-6.5813 Y4.8277
X-6.5777 Y4.8354
X-6.5736 Y4.8429
X-6.569 Y4.8501
X-6.5638 Y4.8569
X-6.5581 Y4.8633
X-6.552 Y4.8692
X-6.5455 Y4.8748
X-6.5386 Y4.8798
X-6.5313 Y4.8843
X-6.5238 Y4.8882
X-6.5159 Y4.8916
X-6.5079 Y4.8944
X-6.4996 Y4.8966
X-6.4912 Y4.8982
X-6.4827 Y4.8992
X-6.4742 Y4.8995
X-6.4657 Y4.8992
X-6.4572 Y4.8983
X-6.4488 Y4.8968
X-6.4405 Y4.8947
X-6.4314 Y4.8738
X-6.4113 Y4.8275
X-6.3909 Y4.7812
G2 X-6.3931 Y4.7665 I-0.0139 J-0.0055
X-6.4164 Y4.7614 I-0.0147 J0.0116
X-6.4508 Y4.8667 I0.036 J0.07
X-6.4426 Y4.8796 I0.0704 J-0.0353 F50.
G3 X-6.4406 Y4.8944 I-0.0118 J0.0091
G1 X-6.4522 Y4.9201 F60.
X-6.4581 Y4.9262
X-6.4644 Y4.9318
X-6.4712 Y4.9369
X-6.4782 Y4.9415
X-6.4856 Y4.9456
X-6.4933 Y4.9492
X-6.5012 Y4.9522
X-6.5094 Y4.9546
X-6.5176 Y4.9564
X-6.526 Y4.9576
X-6.5344 Y4.9583
X-6.5429
X-6.5513 Y4.9576
X-6.5597 Y4.9564
X-6.568 Y4.9546
X-6.5761 Y4.9522
X-6.584 Y4.9492
X-6.5917 Y4.9456
X-6.5991 Y4.9415
X-6.6062 Y4.9369
X-6.6129 Y4.9317
X-6.6192 Y4.9261
X-6.6252 Y4.9201
X-6.6306 Y4.9136
X-6.6356 Y4.9068
X-6.6401 Y4.8996
X-6.644 Y4.8921
X-6.6079 Y4.8114
X-6.5893 Y4.7691
G3 X-6.5618 Y4.7707 I0.0134 J0.0065
X-6.5613 Y4.8085 I-0.0565 J0.0197
X-6.6175 Y4.8766 I-0.1126 J-0.0357
X-6.635 Y4.8843 I-0.0564 J-0.1038 F50.
G2 X-6.6436 Y4.8919 I0.0049 J0.0141
G1 X-6.6542 Y4.916 F60.
X-6.6549 Y4.9245
X-6.655 Y4.933
X-6.6545 Y4.9415
X-6.6533 Y4.95
X-6.6516 Y4.9583
X-6.6492 Y4.9665
X-6.6462 Y4.9745
X-6.6427 Y4.9823
X-6.6386 Y4.9898
X-6.6339 Y4.9969
X-6.6288 Y5.0037
X-6.6231 Y5.0101
X-6.617 Y5.0161
X-6.6105 Y5.0216
X-6.6036 Y5.0266
X-6.5963 Y5.0311
X-6.5888 Y5.0351
X-6.5809 Y5.0384
X-6.5729 Y5.0412
X-6.5646 Y5.0434
X-6.5563 Y5.045
X-6.5478 Y5.046
X-6.5393 Y5.0464
X-6.5307 Y5.0461
X-6.5222 Y5.0452
X-6.5138 Y5.0437
X-6.5056 Y5.0415
X-6.4931 Y5.0127
X-6.4725 Y4.9664
X-6.4522 Y4.9201
G2 X-6.4543 Y4.9054 I-0.0139 J-0.0055
X-6.4655 Y4.9016 I-0.0085 J0.0067
G1 X-6.4682 Y4.9023
G2 X-6.516 Y5.0136 I0.0224 J0.0755
X-6.5078 Y5.0264 I0.0702 J-0.0357 F50.
G3 X-6.5057 Y5.0412 I-0.0117 J0.0092
G1 X-6.5154 Y5.0632 F60.
X-6.5209 Y5.0694
X-6.5269 Y5.0752
X-6.5332 Y5.0806
X-6.5399 Y5.0855
X-6.547 Y5.0899
X-6.5543 Y5.0937
X-6.5619 Y5.0971
X-6.5697 Y5.0998
X-6.5777 Y5.1021
X-6.5858 Y5.1037
X-6.594 Y5.1048
X-6.6023 Y5.1052
X-6.6106 Y5.1051
X-6.6189 Y5.1044
X-6.6271 Y5.1031
X-6.6351 Y5.1012
X-6.6431 Y5.0987
X-6.6508 Y5.0957
X-6.6583 Y5.0921
X-6.6655 Y5.088
X-6.6724 Y5.0834
X-6.6789 Y5.0783
X-6.6851 Y5.0727
X-6.6908 Y5.0668
X-6.6962 Y5.0604
X-6.701 Y5.0537
X-6.7053 Y5.0466
X-6.7092 Y5.0393
X-6.697 Y5.0127
X-6.6765 Y4.9664
X-6.6542 Y4.916
G3 X-6.6342 Y4.9091 I0.0134 J0.0065
X-6.6215 Y4.9321 I-0.0101 J0.0206
X-6.6826 Y5.0236 I-0.1175 J-0.0122
X-6.7001 Y5.0314 I-0.0564 J-0.1038 F50.
G2 X-6.7086 Y5.039 I0.0049 J0.0141
G1 X-6.7192 Y5.0629 F60.
X-6.7199 Y5.0714
Y5.0799
X-6.7194 Y5.0884
X-6.7182 Y5.0969
X-6.7164 Y5.1052
X-6.714 Y5.1134
X-6.711 Y5.1214
X-6.7074 Y5.1292
X-6.7033 Y5.1366
X-6.6987 Y5.1438
X-6.6935 Y5.1506
X-6.6879 Y5.157
X-6.6818 Y5.1629
X-6.6752 Y5.1685
X-6.6683 Y5.1735
X-6.6611 Y5.178
X-6.6535 Y5.1819
X-6.6457 Y5.1853
X-6.6376 Y5.1881
X-6.6294 Y5.1903
X-6.621 Y5.192
X-6.6125 Y5.1929
X-6.604 Y5.1933
X-6.5955 Y5.1931
X-6.587 Y5.1922
X-6.5786 Y5.1907
X-6.5703 Y5.1886
X-6.5154 Y5.0632
G2 X-6.5237 Y5.0438 I-0.0138 J-0.0056
X-6.5484 Y5.0493 I-0.0083 J0.0207
X-6.5768 Y5.1583 I0.0863 J0.0807
X-6.5707 Y5.1765 I0.1147 J-0.0283 F50.
G3 X-6.5705 Y5.1879 I-0.0137 J0.0059
G1 X-6.5806 Y5.2106 F60.
X-6.5861 Y5.2168
X-6.5921 Y5.2225
X-6.5984 Y5.2278
X-6.6052 Y5.2326
X-6.6122 Y5.2369
X-6.6195 Y5.2407
X-6.6271 Y5.244
X-6.6349 Y5.2467
X-6.6429 Y5.2489
X-6.651 Y5.2505
X-6.6592 Y5.2515
X-6.6675 Y5.2519
X-6.6757 Y5.2518
X-6.6839 Y5.251
X-6.6921 Y5.2497
X-6.7001 Y5.2478
X-6.708 Y5.2453
X-6.7157 Y5.2423
X-6.7232 Y5.2387
X-6.7304 Y5.2347
X-6.7372 Y5.2301
X-6.7438 Y5.225
X-6.7499 Y5.2195
X-6.7557 Y5.2136
X-6.761 Y5.2072
X-6.7658 Y5.2005
X-6.7702 Y5.1935
X-6.774 Y5.1862
X-6.7583 Y5.1516
X-6.7381 Y5.1053
X-6.7192 Y5.0629
G3 X-6.6916 Y5.0646 I0.0134 J0.0066
X-6.6911 Y5.102 I-0.0569 J0.0195
X-6.7474 Y5.1705 I-0.1127 J-0.0352
X-6.7649 Y5.1783 I-0.0565 J-0.1037 F50.
G2 X-6.7734 Y5.1859 I0.0049 J0.0141
G1 X-6.7826 Y5.2068 F60.
X-6.7836 Y5.2151
X-6.784 Y5.2234
X-6.7839 Y5.2318
X-6.7831 Y5.2401
X-6.7817 Y5.2483
X-6.7797 Y5.2564
X-6.7771 Y5.2643
X-6.774 Y5.272
X-6.7703 Y5.2795
X-6.7661 Y5.2867
X-6.7614 Y5.2936
X-6.7562 Y5.3001
X-6.7505 Y5.3062
X-6.7444 Y5.3119
X-6.7379 Y5.3171
X-6.7311 Y5.3219
X-6.7239 Y5.3261
X-6.7164 Y5.3299
X-6.7087 Y5.333
X-6.7008 Y5.3356
X-6.6927 Y5.3376
X-6.6845 Y5.3391
X-6.6762 Y5.3399
X-6.6679 Y5.3401
X-6.6596 Y5.3398
X-6.6513 Y5.3388
X-6.6431 Y5.3372
X-6.635 Y5.3351
X-6.6154 Y5.2905
X-6.5953 Y5.2442
X-6.5806 Y5.2106
G2 X-6.5889 Y5.1913 I-0.0139 J-0.0055
X-6.6127 Y5.1966 I-0.008 J0.0201
X-6.6413 Y5.3049 I0.0862 J0.0807
X-6.6353 Y5.3232 I0.1148 J-0.0277 F50.
G3 X-6.6352 Y5.3346 I-0.0137 J0.0058
G1 X-6.6362 Y5.3368 F60.
X-6.6452 Y5.3587
G3 X-6.8425 Y5.3265 I-0.0886 J-0.0778
G2 X-6.7826 Y5.2068 I-0.8267 J-0.4889
G3 X-6.7703 Y5.1984 I0.0134 J0.0065
X-6.7463 Y5.2137 I0.0018 J0.0237
X-6.8126 Y5.32 I-0.0737 J0.0278
X-6.8279 Y5.3199 I-0.0073 J-0.0784 F50.
G2 X-6.8415 Y5.326 I-0.0015 J0.0148
G1 X-6.8488 Y5.3368 F60.
X-6.852 Y5.3415
G2 X-6.7185 Y5.4827 I0.1079 J0.0317
X-6.6452 Y5.3587 I-0.6667 J-0.4775
X-6.6654 Y5.3399 I-0.014 J-0.0052
X-6.7238 Y5.4231 I0.0419 J0.0915
X-6.7225 Y5.4527 I0.1177 J0.0098
X-6.7178 Y5.4713 I0.1164 J-0.0199 F50.
G3 X-6.7184 Y5.4827 I-0.0141 J0.0049
G1 X-6.7292 Y5.5029 F60.
X-6.7351 Y5.5087
X-6.7414 Y5.514
X-6.7481 Y5.5189
X-6.7552 Y5.5233
X-6.7625 Y5.5272
X-6.7701 Y5.5306
X-6.778 Y5.5333
X-6.786 Y5.5356
X-6.7941 Y5.5372
X-6.8024 Y5.5382
X-6.8107 Y5.5386
X-6.819 Y5.5385
X-6.8272 Y5.5377
X-6.8354 Y5.5363
X-6.8435 Y5.5344
X-6.8514 Y5.5318
X-6.8591 Y5.5288
X-6.8666 Y5.5251
X-6.8738 Y5.5209
X-6.8806 Y5.5162
X-6.8871 Y5.5111
X-6.8932 Y5.5054
X-6.8989 Y5.4994
X-6.9042 Y5.4929
X-6.9089 Y5.4861
X-6.9132 Y5.479
X-6.9169 Y5.4716
X-6.9201 Y5.4639
G3 X-6.852 Y5.3415 I0.6066 J0.257
X-6.8311 Y5.3385 I0.0119 J0.009
X-6.8238 Y5.3553 I-0.0111 J0.0148
X-6.8925 Y5.4503 I-0.1174 J-0.0126
X-6.9106 Y5.4568 I-0.0488 J-0.1076 F50.
G2 X-6.9196 Y5.4637 I0.0039 J0.0144
G1 X-6.926 Y5.4757 F60.
X-6.9318 Y5.4871
X-6.9331 Y5.4953
X-6.9339 Y5.5035
X-6.934 Y5.5118
X-6.9336 Y5.52
X-6.9326 Y5.5282
X-6.931 Y5.5363
X-6.9288 Y5.5443
X-6.9261 Y5.5521
X-6.9228 Y5.5597
X-6.919 Y5.5671
X-6.9147 Y5.5741
X-6.9099 Y5.5808
X-6.9047 Y5.5872
X-6.899 Y5.5932
X-6.8929 Y5.5988
X-6.8864 Y5.6039
X-6.8795 Y5.6085
X-6.8724 Y5.6127
X-6.865 Y5.6163
X-6.8573 Y5.6194
X-6.8494 Y5.6219
X-6.8414 Y5.6239
X-6.8333 Y5.6253
X-6.825 Y5.6261
X-6.8168 Y5.6263
X-6.8085 Y5.626
X-6.8003 Y5.625
X-6.7922 Y5.6235
G3 X-6.7292 Y5.5029 I7.1137 J3.6386
G2 X-6.7474 Y5.4822 I-0.0134 J-0.0065
X-6.7738 Y5.5012 I0.0183 J0.0532
X-6.7964 Y5.5933 I0.0937 J0.0719
X-6.7916 Y5.6118 I0.1164 J-0.0202 F50.
G3 X-6.7922 Y5.6232 I-0.0141 J0.0049
G1 X-6.8053 Y5.6483 F60.
X-6.8117 Y5.6539
X-6.8184 Y5.659
X-6.8254 Y5.6637
X-6.8328 Y5.6678
X-6.8405 Y5.6714
X-6.8484 Y5.6744
X-6.8564 Y5.6769
X-6.8647 Y5.6787
X-6.873 Y5.68
X-6.8815 Y5.6806
X-6.8899
X-6.8984 Y5.6801
X-6.9067 Y5.6789
X-6.915 Y5.6771
X-6.9231 Y5.6747
X-6.931 Y5.6718
X-6.9387 Y5.6683
X-6.9461 Y5.6642
X-6.9532 Y5.6596
X-6.9599 Y5.6545
X-6.9663 Y5.649
X-6.9723 Y5.643
X-6.9778 Y5.6365
X-6.9828 Y5.6297
X-6.9873 Y5.6226
X-6.9913 Y5.6152
X-6.9947 Y5.6074
X-6.9318 Y5.4871
G3 X-6.9044 Y5.4904 I0.013 J0.0073
X-6.9051 Y5.5236 I-0.0546 J0.0154
X-6.9673 Y5.5935 I-0.1121 J-0.0371
X-6.9853 Y5.6002 I-0.05 J-0.107 F50.
G2 X-6.9942 Y5.6072 I0.004 J0.0144
G1 X-6.998 Y5.6146 F60.
X-7.0062 Y5.6301
X-7.0075 Y5.6385
X-7.0082 Y5.647
X-7.0083 Y5.6556
X-7.0077 Y5.6642
X-7.0066 Y5.6726
X-7.0048 Y5.681
X-7.0023 Y5.6892
X-6.9993 Y5.6972
X-6.9958 Y5.705
X-6.9916 Y5.7125
X-6.9869 Y5.7197
X-6.9817 Y5.7265
X-6.976 Y5.7329
X-6.9699 Y5.7388
X-6.9633 Y5.7443
X-6.9564 Y5.7493
X-6.9491 Y5.7538
X-6.9415 Y5.7577
X-6.9336 Y5.7611
X-6.9255 Y5.7638
X-6.9172 Y5.766
X-6.9088 Y5.7676
X-6.9003 Y5.7685
X-6.8917 Y5.7688
X-6.8831 Y5.7685
X-6.8746 Y5.7675
X-6.8662 Y5.7659
G3 X-6.8053 Y5.6483 I11.8977 J6.0816
G2 X-6.8065 Y5.6334 I-0.0135 J-0.0064
X-6.8183 Y5.6286 I-0.0095 J0.0065
G1 X-6.8201 Y5.629
G2 X-6.8749 Y5.737 I0.0174 J0.0768
X-6.8676 Y5.7504 I0.0723 J-0.0312 F50.
G3 X-6.8664 Y5.7652 I-0.0123 J0.0084
G1 X-6.8784 Y5.7883 F60.
X-6.8846 Y5.7942
X-6.8912 Y5.7995
X-6.8982 Y5.8044
X-6.9056 Y5.8088
X-6.9132 Y5.8126
X-6.9212 Y5.8158
X-6.9293 Y5.8184
X-6.9376 Y5.8205
X-6.946 Y5.8219
X-6.9545 Y5.8227
X-6.963 Y5.8229
X-6.9716 Y5.8225
X-6.98 Y5.8214
X-6.9884 Y5.8198
X-6.9966 Y5.8175
X-7.0047 Y5.8146
X-7.0125 Y5.8111
X-7.02 Y5.8071
X-7.0272 Y5.8026
X-7.0341 Y5.7975
X-7.0406 Y5.7919
X-7.0466 Y5.7859
X-7.0522 Y5.7794
X-7.0574 Y5.7726
X-7.062 Y5.7654
X-7.066 Y5.7579
X-7.0695 Y5.7501
X-7.0463 Y5.7072
X-7.0225 Y5.6609
X-7.0062 Y5.6301
G3 X-6.9788 Y5.6336 I0.0129 J0.0074
X-6.9812 Y5.6729 I-0.0598 J0.0162
X-7.0417 Y5.7363 I-0.1096 J-0.0441
X-7.0598 Y5.7428 I-0.049 J-0.1075 F50.
G2 X-7.0688 Y5.7498 I0.0039 J0.0144
G1 X-7.0708 Y5.7535 F60.
X-7.0811 Y5.7736
X-7.0823 Y5.7821
X-7.0829 Y5.7905
X-7.0828 Y5.7991
X-7.0822 Y5.8075
X-7.0809 Y5.816
X-7.079 Y5.8243
X-7.0765 Y5.8324
X-7.0734 Y5.8403
X-7.0697 Y5.848
X-7.0655 Y5.8554
X-7.0608 Y5.8625
X-7.0556 Y5.8692
X-7.0498 Y5.8755
X-7.0437 Y5.8814
X-7.0371 Y5.8868
X-7.0302 Y5.8917
X-7.0229 Y5.8961
X-7.0153 Y5.8999
X-7.0074 Y5.9032
X-6.9993 Y5.9059
X-6.9911 Y5.908
X-6.9827 Y5.9095
X-6.9743 Y5.9104
X-6.9657 Y5.9107
X-6.9572 Y5.9103
X-6.9488 Y5.9093
X-6.9404 Y5.9078
G3 X-6.8784 Y5.7883 I10.5988 J5.431
G2 X-6.8968 Y5.7678 I-0.0135 J-0.0064
X-6.9259 Y5.7902 I0.0198 J0.0559
X-6.9447 Y5.8774 I0.0975 J0.0666
X-6.9399 Y5.896 I0.1163 J-0.0205 F50.
G3 X-6.9405 Y5.9074 I-0.0141 J0.0049
