%
(971-23-P-0087_LATERAL UPRIGHT_1540)
(T1  D=0.154 CR=0. - ZMIN=-0.28 - FLAT END MILL)
G90 G94 G17 G91.1
G64 P0.001 Q0.001
G20
G53 G0 Z0.
(.3 CIRCLUAR THROUGH HOLE 2)
M9
T1 M6
S22000 M3
G4 P10.
G54
M7
G0 X-1.075 Y3.125
G43 Z0.6 H1
G0 Z0.1146
G1 Z0.05 F40.
X-1.0763 Y3.1263
G3 X-1.0775 Y3.125 I0. J-0.0013
X-1.0725 Z0.036 I0.0025 J0.
X-1.0775 Z0.022 I-0.0025 J0.
X-1.0725 Z0.0079 I0.0025 J0.
X-1.0775 Z-0.0061 I-0.0025 J0.
X-1.0725 Z-0.0201 I0.0025 J0.
X-1.0775 Z-0.0341 I-0.0025 J0.
X-1.0725 Z-0.0481 I0.0025 J0.
X-1.0775 Z-0.0621 I-0.0025 J0.
X-1.0725 Z-0.0762 I0.0025 J0.
X-1.0775 Z-0.0902 I-0.0025 J0.
X-1.0725 Z-0.1042 I0.0025 J0.
X-1.0775 Z-0.1182 I-0.0025 J0.
X-1.0725 Z-0.1322 I0.0025 J0.
X-1.0775 Z-0.1463 I-0.0025 J0.
X-1.0725 Z-0.1603 I0.0025 J0.
X-1.0775 Z-0.1743 I-0.0025 J0.
X-1.0725 Z-0.1883 I0.0025 J0.
X-1.0775 Z-0.2023 I-0.0025 J0.
X-1.0725 Z-0.2163 I0.0025 J0.
X-1.0775 Z-0.2304 I-0.0025 J0.
X-1.0725 Z-0.2444 I0.0025 J0.
X-1.0775 Z-0.2584 I-0.0025 J0.
X-1.0725 Z-0.2724 I0.0025 J0.
X-1.0753 Y3.1275 Z-0.28 I-0.0025 J0.
X-1.0747 Y3.1225 I0.0003 J-0.0025
X-1.0753 Y3.1275 I-0.0003 J0.0025
X-1.0764 Y3.1261 I0.0002 J-0.0012
G1 X-1.075 Y3.125
G0 Z0.4
X0.4905 Y3.1386
Z0.13
G1 Z0.0654 F40.
G19 G2 Y3.1232 Z0.05 J-0.0154 K0.
G1 Y3.1155
G17 G3 X0.5 Y3.106 I0.0095 J0.
Y3.144 Z0.0331 I0. J0.019
Y3.106 Z0.0161 I0. J-0.019
Y3.144 Z-0.0008 I0. J0.019
Y3.106 Z-0.0177 I0. J-0.019
Y3.144 Z-0.0346 I0. J0.019
Y3.106 Z-0.0516 I0. J-0.019
Y3.144 Z-0.0685 I0. J0.019
Y3.106 Z-0.0854 I0. J-0.019
Y3.144 Z-0.1023 I0. J0.019
Y3.106 Z-0.1193 I0. J-0.019
Y3.144 Z-0.1362 I0. J0.019
Y3.106 Z-0.1531 I0. J-0.019
Y3.144 Z-0.1701 I0. J0.019
Y3.106 Z-0.187 I0. J-0.019
Y3.144 Z-0.2039 I0. J0.019
Y3.106 Z-0.2208 I0. J-0.019
Y3.144 Z-0.2378 I0. J0.019
Y3.106 Z-0.2547 I0. J-0.019
Y3.144 Z-0.2716 I0. J0.019
X0.481 Y3.1253 Z-0.28 I0. J-0.019
X0.519 Y3.1247 I0.019 J-0.0003
X0.481 Y3.1253 I-0.019 J0.0003
X0.4904 Y3.1156 I0.0095 J-0.0001
G1 X0.4981 Y3.1155
X0.5011 Z-0.2797
X0.5039 Y3.1154 Z-0.2788
X0.5066 Z-0.2774
X0.5089 Z-0.2755
X0.5109 Y3.1153 Z-0.2732
X0.5123 Z-0.2705
X0.5132 Z-0.2676
X0.5135 Z-0.2646
G0 Z0.4
X1.4905 Y3.1386
Z0.13
G1 Z0.0654 F40.
G19 G2 Y3.1232 Z0.05 J-0.0154 K0.
G1 Y3.1155
G17 G3 X1.5 Y3.106 I0.0095 J0.
Y3.144 Z0.0331 I0. J0.019
Y3.106 Z0.0161 I0. J-0.019
Y3.144 Z-0.0008 I0. J0.019
Y3.106 Z-0.0177 I0. J-0.019
Y3.144 Z-0.0346 I0. J0.019
Y3.106 Z-0.0516 I0. J-0.019
Y3.144 Z-0.0685 I0. J0.019
Y3.106 Z-0.0854 I0. J-0.019
Y3.144 Z-0.1023 I0. J0.019
Y3.106 Z-0.1193 I0. J-0.019
Y3.144 Z-0.1362 I0. J0.019
Y3.106 Z-0.1531 I0. J-0.019
Y3.144 Z-0.1701 I0. J0.019
Y3.106 Z-0.187 I0. J-0.019
Y3.144 Z-0.2039 I0. J0.019
Y3.106 Z-0.2208 I0. J-0.019
Y3.144 Z-0.2378 I0. J0.019
Y3.106 Z-0.2547 I0. J-0.019
Y3.144 Z-0.2716 I0. J0.019
X1.481 Y3.1253 Z-0.28 I0. J-0.019
X1.519 Y3.1247 I0.019 J-0.0003
X1.481 Y3.1253 I-0.019 J0.0003
X1.4904 Y3.1156 I0.0095 J-0.0001
G1 X1.4981 Y3.1155
X1.5011 Z-0.2797
X1.5039 Y3.1154 Z-0.2788
X1.5066 Z-0.2774
X1.5089 Z-0.2755
X1.5109 Y3.1153 Z-0.2732
X1.5123 Z-0.2705
X1.5132 Z-0.2676
X1.5135 Z-0.2646
G0 Z0.4
X1.4905 Y1.8886
Z0.13
G1 Z0.0654 F40.
G19 G2 Y1.8732 Z0.05 J-0.0154 K0.
G1 Y1.8655
G17 G3 X1.5 Y1.856 I0.0095 J0.
Y1.894 Z0.0331 I0. J0.019
Y1.856 Z0.0161 I0. J-0.019
Y1.894 Z-0.0008 I0. J0.019
Y1.856 Z-0.0177 I0. J-0.019
Y1.894 Z-0.0346 I0. J0.019
Y1.856 Z-0.0516 I0. J-0.019
Y1.894 Z-0.0685 I0. J0.019
Y1.856 Z-0.0854 I0. J-0.019
Y1.894 Z-0.1023 I0. J0.019
Y1.856 Z-0.1193 I0. J-0.019
Y1.894 Z-0.1362 I0. J0.019
Y1.856 Z-0.1531 I0. J-0.019
Y1.894 Z-0.1701 I0. J0.019
Y1.856 Z-0.187 I0. J-0.019
Y1.894 Z-0.2039 I0. J0.019
Y1.856 Z-0.2208 I0. J-0.019
Y1.894 Z-0.2378 I0. J0.019
Y1.856 Z-0.2547 I0. J-0.019
Y1.894 Z-0.2716 I0. J0.019
X1.481 Y1.8753 Z-0.28 I0. J-0.019
X1.519 Y1.8747 I0.019 J-0.0003
X1.481 Y1.8753 I-0.019 J0.0003
X1.4904 Y1.8656 I0.0095 J-0.0001
G1 X1.4981 Y1.8655
X1.5011 Z-0.2797
X1.5039 Y1.8654 Z-0.2788
X1.5066 Z-0.2774
X1.5089 Z-0.2755
X1.5109 Y1.8653 Z-0.2732
X1.5123 Z-0.2705
X1.5132 Z-0.2676
X1.5135 Z-0.2646
G0 Z0.4
X0.4905 Y1.8886
Z0.13
G1 Z0.0654 F40.
G19 G2 Y1.8732 Z0.05 J-0.0154 K0.
G1 Y1.8655
G17 G3 X0.5 Y1.856 I0.0095 J0.
Y1.894 Z0.0331 I0. J0.019
Y1.856 Z0.0161 I0. J-0.019
Y1.894 Z-0.0008 I0. J0.019
Y1.856 Z-0.0177 I0. J-0.019
Y1.894 Z-0.0346 I0. J0.019
Y1.856 Z-0.0516 I0. J-0.019
Y1.894 Z-0.0685 I0. J0.019
Y1.856 Z-0.0854 I0. J-0.019
Y1.894 Z-0.1023 I0. J0.019
Y1.856 Z-0.1193 I0. J-0.019
Y1.894 Z-0.1362 I0. J0.019
Y1.856 Z-0.1531 I0. J-0.019
Y1.894 Z-0.1701 I0. J0.019
Y1.856 Z-0.187 I0. J-0.019
Y1.894 Z-0.2039 I0. J0.019
Y1.856 Z-0.2208 I0. J-0.019
Y1.894 Z-0.2378 I0. J0.019
Y1.856 Z-0.2547 I0. J-0.019
Y1.894 Z-0.2716 I0. J0.019
X0.481 Y1.8753 Z-0.28 I0. J-0.019
X0.519 Y1.8747 I0.019 J-0.0003
X0.481 Y1.8753 I-0.019 J0.0003
X0.4904 Y1.8656 I0.0095 J-0.0001
G1 X0.4981 Y1.8655
X0.5011 Z-0.2797
X0.5039 Y1.8654 Z-0.2788
X0.5066 Z-0.2774
X0.5089 Z-0.2755
X0.5109 Y1.8653 Z-0.2732
X0.5123 Z-0.2705
X0.5132 Z-0.2676
X0.5135 Z-0.2646
G0 Z0.4
X-0.5095 Y1.8886
Z0.13
G1 Z0.0654 F40.
G19 G2 Y1.8732 Z0.05 J-0.0154 K0.
G1 Y1.8655
G17 G3 X-0.5 Y1.856 I0.0095 J0.
Y1.894 Z0.0331 I0. J0.019
Y1.856 Z0.0161 I0. J-0.019
Y1.894 Z-0.0008 I0. J0.019
Y1.856 Z-0.0177 I0. J-0.019
Y1.894 Z-0.0346 I0. J0.019
Y1.856 Z-0.0516 I0. J-0.019
Y1.894 Z-0.0685 I0. J0.019
Y1.856 Z-0.0854 I0. J-0.019
Y1.894 Z-0.1023 I0. J0.019
Y1.856 Z-0.1193 I0. J-0.019
Y1.894 Z-0.1362 I0. J0.019
Y1.856 Z-0.1531 I0. J-0.019
Y1.894 Z-0.1701 I0. J0.019
Y1.856 Z-0.187 I0. J-0.019
Y1.894 Z-0.2039 I0. J0.019
Y1.856 Z-0.2208 I0. J-0.019
Y1.894 Z-0.2378 I0. J0.019
Y1.856 Z-0.2547 I0. J-0.019
Y1.894 Z-0.2716 I0. J0.019
X-0.519 Y1.8753 Z-0.28 I0. J-0.019
X-0.481 Y1.8747 I0.019 J-0.0003
X-0.519 Y1.8753 I-0.019 J0.0003
X-0.5096 Y1.8656 I0.0095 J-0.0001
G1 X-0.5019 Y1.8655
X-0.4989 Z-0.2797
X-0.4961 Y1.8654 Z-0.2788
X-0.4934 Z-0.2774
X-0.4911 Z-0.2755
X-0.4891 Y1.8653 Z-0.2732
X-0.4877 Z-0.2705
X-0.4868 Z-0.2676
X-0.4865 Z-0.2646
G0 Z0.4
X-1.5095 Y1.8886
Z0.13
G1 Z0.0654 F40.
G19 G2 Y1.8732 Z0.05 J-0.0154 K0.
G1 Y1.8655
G17 G3 X-1.5 Y1.856 I0.0095 J0.
Y1.894 Z0.0331 I0. J0.019
Y1.856 Z0.0161 I0. J-0.019
Y1.894 Z-0.0008 I0. J0.019
Y1.856 Z-0.0177 I0. J-0.019
Y1.894 Z-0.0346 I0. J0.019
Y1.856 Z-0.0516 I0. J-0.019
Y1.894 Z-0.0685 I0. J0.019
Y1.856 Z-0.0854 I0. J-0.019
Y1.894 Z-0.1023 I0. J0.019
Y1.856 Z-0.1193 I0. J-0.019
Y1.894 Z-0.1362 I0. J0.019
Y1.856 Z-0.1531 I0. J-0.019
Y1.894 Z-0.1701 I0. J0.019
Y1.856 Z-0.187 I0. J-0.019
Y1.894 Z-0.2039 I0. J0.019
Y1.856 Z-0.2208 I0. J-0.019
Y1.894 Z-0.2378 I0. J0.019
Y1.856 Z-0.2547 I0. J-0.019
Y1.894 Z-0.2716 I0. J0.019
X-1.519 Y1.8753 Z-0.28 I0. J-0.019
X-1.481 Y1.8747 I0.019 J-0.0003
X-1.519 Y1.8753 I-0.019 J0.0003
X-1.5096 Y1.8656 I0.0095 J-0.0001
G1 X-1.5019 Y1.8655
X-1.4989 Z-0.2797
X-1.4961 Y1.8654 Z-0.2788
X-1.4934 Z-0.2774
X-1.4911 Z-0.2755
X-1.4891 Y1.8653 Z-0.2732
X-1.4877 Z-0.2705
X-1.4868 Z-0.2676
X-1.4865 Z-0.2646
G0 Z0.4
X-2.5095 Y1.8886
Z0.13
G1 Z0.0654 F40.
G19 G2 Y1.8732 Z0.05 J-0.0154 K0.
G1 Y1.8655
G17 G3 X-2.5 Y1.856 I0.0095 J0.
Y1.894 Z0.0331 I0. J0.019
Y1.856 Z0.0161 I0. J-0.019
Y1.894 Z-0.0008 I0. J0.019
Y1.856 Z-0.0177 I0. J-0.019
Y1.894 Z-0.0346 I0. J0.019
Y1.856 Z-0.0516 I0. J-0.019
Y1.894 Z-0.0685 I0. J0.019
Y1.856 Z-0.0854 I0. J-0.019
Y1.894 Z-0.1023 I0. J0.019
Y1.856 Z-0.1193 I0. J-0.019
Y1.894 Z-0.1362 I0. J0.019
Y1.856 Z-0.1531 I0. J-0.019
Y1.894 Z-0.1701 I0. J0.019
Y1.856 Z-0.187 I0. J-0.019
Y1.894 Z-0.2039 I0. J0.019
Y1.856 Z-0.2208 I0. J-0.019
Y1.894 Z-0.2378 I0. J0.019
Y1.856 Z-0.2547 I0. J-0.019
Y1.894 Z-0.2716 I0. J0.019
X-2.519 Y1.8753 Z-0.28 I0. J-0.019
X-2.481 Y1.8747 I0.019 J-0.0003
X-2.519 Y1.8753 I-0.019 J0.0003
X-2.5096 Y1.8656 I0.0095 J-0.0001
G1 X-2.5019 Y1.8655
X-2.4989 Z-0.2797
X-2.4961 Y1.8654 Z-0.2788
X-2.4934 Z-0.2774
X-2.4911 Z-0.2755
X-2.4891 Y1.8653 Z-0.2732
X-2.4877 Z-0.2705
X-2.4868 Z-0.2676
X-2.4865 Z-0.2646
G0 Z0.4
X-3.5095 Y1.8886
Z0.13
G1 Z0.0654 F40.
G19 G2 Y1.8732 Z0.05 J-0.0154 K0.
G1 Y1.8655
G17 G3 X-3.5 Y1.856 I0.0095 J0.
Y1.894 Z0.0331 I0. J0.019
Y1.856 Z0.0161 I0. J-0.019
Y1.894 Z-0.0008 I0. J0.019
Y1.856 Z-0.0177 I0. J-0.019
Y1.894 Z-0.0346 I0. J0.019
Y1.856 Z-0.0516 I0. J-0.019
Y1.894 Z-0.0685 I0. J0.019
Y1.856 Z-0.0854 I0. J-0.019
Y1.894 Z-0.1023 I0. J0.019
Y1.856 Z-0.1193 I0. J-0.019
Y1.894 Z-0.1362 I0. J0.019
Y1.856 Z-0.1531 I0. J-0.019
Y1.894 Z-0.1701 I0. J0.019
Y1.856 Z-0.187 I0. J-0.019
Y1.894 Z-0.2039 I0. J0.019
Y1.856 Z-0.2208 I0. J-0.019
Y1.894 Z-0.2378 I0. J0.019
Y1.856 Z-0.2547 I0. J-0.019
Y1.894 Z-0.2716 I0. J0.019
X-3.519 Y1.8753 Z-0.28 I0. J-0.019
X-3.481 Y1.8747 I0.019 J-0.0003
X-3.519 Y1.8753 I-0.019 J0.0003
X-3.5096 Y1.8656 I0.0095 J-0.0001
G1 X-3.5019 Y1.8655
X-3.4989 Z-0.2797
X-3.4961 Y1.8654 Z-0.2788
X-3.4934 Z-0.2774
X-3.4911 Z-0.2755
X-3.4891 Y1.8653 Z-0.2732
X-3.4877 Z-0.2705
X-3.4868 Z-0.2676
X-3.4865 Z-0.2646
G0 Z0.4
X-4.5095 Y1.8886
Z0.13
G1 Z0.0654 F40.
G19 G2 Y1.8732 Z0.05 J-0.0154 K0.
G1 Y1.8655
G17 G3 X-4.5 Y1.856 I0.0095 J0.
Y1.894 Z0.0331 I0. J0.019
Y1.856 Z0.0161 I0. J-0.019
Y1.894 Z-0.0008 I0. J0.019
Y1.856 Z-0.0177 I0. J-0.019
Y1.894 Z-0.0346 I0. J0.019
Y1.856 Z-0.0516 I0. J-0.019
Y1.894 Z-0.0685 I0. J0.019
Y1.856 Z-0.0854 I0. J-0.019
Y1.894 Z-0.1023 I0. J0.019
Y1.856 Z-0.1193 I0. J-0.019
Y1.894 Z-0.1362 I0. J0.019
Y1.856 Z-0.1531 I0. J-0.019
Y1.894 Z-0.1701 I0. J0.019
Y1.856 Z-0.187 I0. J-0.019
Y1.894 Z-0.2039 I0. J0.019
Y1.856 Z-0.2208 I0. J-0.019
Y1.894 Z-0.2378 I0. J0.019
Y1.856 Z-0.2547 I0. J-0.019
Y1.894 Z-0.2716 I0. J0.019
X-4.519 Y1.8753 Z-0.28 I0. J-0.019
X-4.481 Y1.8747 I0.019 J-0.0003
X-4.519 Y1.8753 I-0.019 J0.0003
X-4.5096 Y1.8656 I0.0095 J-0.0001
G1 X-4.5019 Y1.8655
X-4.4989 Z-0.2797
X-4.4961 Y1.8654 Z-0.2788
X-4.4934 Z-0.2774
X-4.4911 Z-0.2755
X-4.4891 Y1.8653 Z-0.2732
X-4.4877 Z-0.2705
X-4.4868 Z-0.2676
X-4.4865 Z-0.2646
G0 Z0.4
X-5.5095 Y1.8886
Z0.13
G1 Z0.0654 F40.
G19 G2 Y1.8732 Z0.05 J-0.0154 K0.
G1 Y1.8655
G17 G3 X-5.5 Y1.856 I0.0095 J0.
Y1.894 Z0.0331 I0. J0.019
Y1.856 Z0.0161 I0. J-0.019
Y1.894 Z-0.0008 I0. J0.019
Y1.856 Z-0.0177 I0. J-0.019
Y1.894 Z-0.0346 I0. J0.019
Y1.856 Z-0.0516 I0. J-0.019
Y1.894 Z-0.0685 I0. J0.019
Y1.856 Z-0.0854 I0. J-0.019
Y1.894 Z-0.1023 I0. J0.019
Y1.856 Z-0.1193 I0. J-0.019
Y1.894 Z-0.1362 I0. J0.019
Y1.856 Z-0.1531 I0. J-0.019
Y1.894 Z-0.1701 I0. J0.019
Y1.856 Z-0.187 I0. J-0.019
Y1.894 Z-0.2039 I0. J0.019
Y1.856 Z-0.2208 I0. J-0.019
Y1.894 Z-0.2378 I0. J0.019
Y1.856 Z-0.2547 I0. J-0.019
Y1.894 Z-0.2716 I0. J0.019
X-5.519 Y1.8753 Z-0.28 I0. J-0.019
X-5.481 Y1.8747 I0.019 J-0.0003
X-5.519 Y1.8753 I-0.019 J0.0003
X-5.5096 Y1.8656 I0.0095 J-0.0001
G1 X-5.5019 Y1.8655
X-5.4989 Z-0.2797
X-5.4961 Y1.8654 Z-0.2788
X-5.4934 Z-0.2774
X-5.4911 Z-0.2755
X-5.4891 Y1.8653 Z-0.2732
X-5.4877 Z-0.2705
X-5.4868 Z-0.2676
X-5.4865 Z-0.2646
G0 Z0.4
X-6.5095 Y1.8886
Z0.13
G1 Z0.0654 F40.
G19 G2 Y1.8732 Z0.05 J-0.0154 K0.
G1 Y1.8655
G17 G3 X-6.5 Y1.856 I0.0095 J0.
Y1.894 Z0.0331 I0. J0.019
Y1.856 Z0.0161 I0. J-0.019
Y1.894 Z-0.0008 I0. J0.019
Y1.856 Z-0.0177 I0. J-0.019
Y1.894 Z-0.0346 I0. J0.019
Y1.856 Z-0.0516 I0. J-0.019
Y1.894 Z-0.0685 I0. J0.019
Y1.856 Z-0.0854 I0. J-0.019
Y1.894 Z-0.1023 I0. J0.019
Y1.856 Z-0.1193 I0. J-0.019
Y1.894 Z-0.1362 I0. J0.019
Y1.856 Z-0.1531 I0. J-0.019
Y1.894 Z-0.1701 I0. J0.019
Y1.856 Z-0.187 I0. J-0.019
Y1.894 Z-0.2039 I0. J0.019
Y1.856 Z-0.2208 I0. J-0.019
Y1.894 Z-0.2378 I0. J0.019
Y1.856 Z-0.2547 I0. J-0.019
Y1.894 Z-0.2716 I0. J0.019
X-6.519 Y1.8753 Z-0.28 I0. J-0.019
X-6.481 Y1.8747 I0.019 J-0.0003
X-6.519 Y1.8753 I-0.019 J0.0003
X-6.5096 Y1.8656 I0.0095 J-0.0001
G1 X-6.5019 Y1.8655
X-6.4989 Z-0.2797
X-6.4961 Y1.8654 Z-0.2788
X-6.4934 Z-0.2774
X-6.4911 Z-0.2755
X-6.4891 Y1.8653 Z-0.2732
X-6.4877 Z-0.2705
X-6.4868 Z-0.2676
X-6.4865 Z-0.2646
G0 Z0.4
X-7.5095 Y1.8886
Z0.13
G1 Z0.0654 F40.
G19 G2 Y1.8732 Z0.05 J-0.0154 K0.
G1 Y1.8655
G17 G3 X-7.5 Y1.856 I0.0095 J0.
Y1.894 Z0.0331 I0. J0.019
Y1.856 Z0.0161 I0. J-0.019
Y1.894 Z-0.0008 I0. J0.019
Y1.856 Z-0.0177 I0. J-0.019
Y1.894 Z-0.0346 I0. J0.019
Y1.856 Z-0.0516 I0. J-0.019
Y1.894 Z-0.0685 I0. J0.019
Y1.856 Z-0.0854 I0. J-0.019
Y1.894 Z-0.1023 I0. J0.019
Y1.856 Z-0.1193 I0. J-0.019
Y1.894 Z-0.1362 I0. J0.019
Y1.856 Z-0.1531 I0. J-0.019
Y1.894 Z-0.1701 I0. J0.019
Y1.856 Z-0.187 I0. J-0.019
Y1.894 Z-0.2039 I0. J0.019
Y1.856 Z-0.2208 I0. J-0.019
Y1.894 Z-0.2378 I0. J0.019
Y1.856 Z-0.2547 I0. J-0.019
Y1.894 Z-0.2716 I0. J0.019
X-7.519 Y1.8753 Z-0.28 I0. J-0.019
X-7.481 Y1.8747 I0.019 J-0.0003
X-7.519 Y1.8753 I-0.019 J0.0003
X-7.5096 Y1.8656 I0.0095 J-0.0001
G1 X-7.5019 Y1.8655
X-7.4989 Z-0.2797
X-7.4961 Y1.8654 Z-0.2788
X-7.4934 Z-0.2774
X-7.4911 Z-0.2755
X-7.4891 Y1.8653 Z-0.2732
X-7.4877 Z-0.2705
X-7.4868 Z-0.2676
X-7.4866 Z-0.2646
G0 Z0.4
X-7.9883 Y1.9887
Z0.13
G1 Z0.0654 F40.
G19 G3 Y2.0041 Z0.05 J0.0154 K0.
G1 Y2.0117
G17 G3 X-8. Y2.0235 I-0.0117 J0.
Y1.9765 Z0.0323 I0. J-0.0235
Y2.0235 Z0.0146 I0. J0.0235
Y1.9765 Z-0.0032 I0. J-0.0235
Y2.0235 Z-0.0209 I0. J0.0235
Y1.9765 Z-0.0386 I0. J-0.0235
Y2.0235 Z-0.0563 I0. J0.0235
Y1.9765 Z-0.074 I0. J-0.0235
Y2.0235 Z-0.0918 I0. J0.0235
Y1.9765 Z-0.1095 I0. J-0.0235
Y2.0235 Z-0.1272 I0. J0.0235
Y1.9765 Z-0.1449 I0. J-0.0235
Y2.0235 Z-0.1627 I0. J0.0235
Y1.9765 Z-0.1804 I0. J-0.0235
Y2.0235 Z-0.1981 I0. J0.0235
Y1.9765 Z-0.2158 I0. J-0.0235
Y2.0235 Z-0.2335 I0. J0.0235
Y1.9765 Z-0.2513 I0. J-0.0235
Y2.0235 Z-0.269 I0. J0.0235
X-8.0218 Y1.9912 Z-0.28 I0. J-0.0235
X-7.9782 Y2.0088 I0.0218 J0.0088
X-8.0218 Y1.9912 I-0.0218 J-0.0088
X-8.0065 Y1.9847 I0.0109 J0.0044
G1 X-7.9994 Y1.9876
X-7.9966 Y1.9887 Z-0.2797
X-7.9939 Y1.9898 Z-0.2788
X-7.9914 Y1.9908 Z-0.2774
X-7.9893 Y1.9917 Z-0.2755
X-7.9875 Y1.9924 Z-0.2732
X-7.9862 Y1.9929 Z-0.2705
X-7.9854 Y1.9932 Z-0.2676
X-7.9851 Y1.9934 Z-0.2646
G0 Z0.4
X-7.9883 Y2.4887
Z0.13
G1 Z0.0654 F40.
G19 G3 Y2.5041 Z0.05 J0.0154 K0.
G1 Y2.5118
G17 G3 X-8. Y2.5235 I-0.0117 J0.
Y2.4765 Z0.0323 I0. J-0.0235
Y2.5235 Z0.0146 I0. J0.0235
Y2.4765 Z-0.0032 I0. J-0.0235
Y2.5235 Z-0.0209 I0. J0.0235
Y2.4765 Z-0.0386 I0. J-0.0235
Y2.5235 Z-0.0563 I0. J0.0235
Y2.4765 Z-0.074 I0. J-0.0235
Y2.5235 Z-0.0918 I0. J0.0235
Y2.4765 Z-0.1095 I0. J-0.0235
Y2.5235 Z-0.1272 I0. J0.0235
Y2.4765 Z-0.1449 I0. J-0.0235
Y2.5235 Z-0.1627 I0. J0.0235
Y2.4765 Z-0.1804 I0. J-0.0235
Y2.5235 Z-0.1981 I0. J0.0235
Y2.4765 Z-0.2158 I0. J-0.0235
Y2.5235 Z-0.2335 I0. J0.0235
Y2.4765 Z-0.2513 I0. J-0.0235
Y2.5235 Z-0.269 I0. J0.0235
X-8.0218 Y2.4912 Z-0.28 I0. J-0.0235
X-7.9782 Y2.5088 I0.0218 J0.0088
X-8.0218 Y2.4912 I-0.0218 J-0.0088
X-8.0065 Y2.4847 I0.0109 J0.0044
G1 X-7.9994 Y2.4876
X-7.9966 Y2.4887 Z-0.2797
X-7.9939 Y2.4898 Z-0.2788
X-7.9914 Y2.4908 Z-0.2774
X-7.9893 Y2.4917 Z-0.2755
X-7.9875 Y2.4924 Z-0.2732
X-7.9862 Y2.4929 Z-0.2705
X-7.9854 Y2.4932 Z-0.2676
X-7.9851 Y2.4934 Z-0.2646
G0 Z0.4
X-7.9883 Y2.9887
Z0.13
G1 Z0.0654 F40.
G19 G3 Y3.0041 Z0.05 J0.0154 K0.
G1 Y3.0118
G17 G3 X-8. Y3.0235 I-0.0117 J0.
Y2.9765 Z0.0323 I0. J-0.0235
Y3.0235 Z0.0146 I0. J0.0235
Y2.9765 Z-0.0032 I0. J-0.0235
Y3.0235 Z-0.0209 I0. J0.0235
Y2.9765 Z-0.0386 I0. J-0.0235
Y3.0235 Z-0.0563 I0. J0.0235
Y2.9765 Z-0.074 I0. J-0.0235
Y3.0235 Z-0.0918 I0. J0.0235
Y2.9765 Z-0.1095 I0. J-0.0235
Y3.0235 Z-0.1272 I0. J0.0235
Y2.9765 Z-0.1449 I0. J-0.0235
Y3.0235 Z-0.1627 I0. J0.0235
Y2.9765 Z-0.1804 I0. J-0.0235
Y3.0235 Z-0.1981 I0. J0.0235
Y2.9765 Z-0.2158 I0. J-0.0235
Y3.0235 Z-0.2335 I0. J0.0235
Y2.9765 Z-0.2513 I0. J-0.0235
Y3.0235 Z-0.269 I0. J0.0235
X-8.0218 Y2.9912 Z-0.28 I0. J-0.0235
X-7.9782 Y3.0088 I0.0218 J0.0088
X-8.0218 Y2.9912 I-0.0218 J-0.0088
X-8.0065 Y2.9847 I0.0109 J0.0044
G1 X-7.9994 Y2.9876
X-7.9966 Y2.9887 Z-0.2797
X-7.9939 Y2.9898 Z-0.2788
X-7.9914 Y2.9908 Z-0.2774
X-7.9893 Y2.9917 Z-0.2755
X-7.9875 Y2.9924 Z-0.2732
X-7.9862 Y2.9929 Z-0.2705
X-7.9854 Y2.9932 Z-0.2676
X-7.9851 Y2.9934 Z-0.2646
G0 Z0.4
X-7.5095 Y3.1386
Z0.13
G1 Z0.0654 F40.
G19 G2 Y3.1232 Z0.05 J-0.0154 K0.
G1 Y3.1155
G17 G3 X-7.5 Y3.106 I0.0095 J0.
Y3.144 Z0.0331 I0. J0.019
Y3.106 Z0.0161 I0. J-0.019
Y3.144 Z-0.0008 I0. J0.019
Y3.106 Z-0.0177 I0. J-0.019
Y3.144 Z-0.0346 I0. J0.019
Y3.106 Z-0.0516 I0. J-0.019
Y3.144 Z-0.0685 I0. J0.019
Y3.106 Z-0.0854 I0. J-0.019
Y3.144 Z-0.1023 I0. J0.019
Y3.106 Z-0.1193 I0. J-0.019
Y3.144 Z-0.1362 I0. J0.019
Y3.106 Z-0.1531 I0. J-0.019
Y3.144 Z-0.1701 I0. J0.019
Y3.106 Z-0.187 I0. J-0.019
Y3.144 Z-0.2039 I0. J0.019
Y3.106 Z-0.2208 I0. J-0.019
Y3.144 Z-0.2378 I0. J0.019
Y3.106 Z-0.2547 I0. J-0.019
Y3.144 Z-0.2716 I0. J0.019
X-7.519 Y3.1253 Z-0.28 I0. J-0.019
X-7.481 Y3.1247 I0.019 J-0.0003
X-7.519 Y3.1253 I-0.019 J0.0003
X-7.5096 Y3.1156 I0.0095 J-0.0001
G1 X-7.5019 Y3.1155
X-7.4989 Z-0.2797
X-7.4961 Y3.1154 Z-0.2788
X-7.4934 Z-0.2774
X-7.4911 Z-0.2755
X-7.4891 Y3.1153 Z-0.2732
X-7.4877 Z-0.2705
X-7.4868 Z-0.2676
X-7.4866 Z-0.2646
G0 Z0.4
X-6.5095 Y3.1386
Z0.13
G1 Z0.0654 F40.
G19 G2 Y3.1232 Z0.05 J-0.0154 K0.
G1 Y3.1155
G17 G3 X-6.5 Y3.106 I0.0095 J0.
Y3.144 Z0.0331 I0. J0.019
Y3.106 Z0.0161 I0. J-0.019
Y3.144 Z-0.0008 I0. J0.019
Y3.106 Z-0.0177 I0. J-0.019
Y3.144 Z-0.0346 I0. J0.019
Y3.106 Z-0.0516 I0. J-0.019
Y3.144 Z-0.0685 I0. J0.019
Y3.106 Z-0.0854 I0. J-0.019
Y3.144 Z-0.1023 I0. J0.019
Y3.106 Z-0.1193 I0. J-0.019
Y3.144 Z-0.1362 I0. J0.019
Y3.106 Z-0.1531 I0. J-0.019
Y3.144 Z-0.1701 I0. J0.019
Y3.106 Z-0.187 I0. J-0.019
Y3.144 Z-0.2039 I0. J0.019
Y3.106 Z-0.2208 I0. J-0.019
Y3.144 Z-0.2378 I0. J0.019
Y3.106 Z-0.2547 I0. J-0.019
Y3.144 Z-0.2716 I0. J0.019
X-6.519 Y3.1253 Z-0.28 I0. J-0.019
X-6.481 Y3.1247 I0.019 J-0.0003
X-6.519 Y3.1253 I-0.019 J0.0003
X-6.5096 Y3.1156 I0.0095 J-0.0001
G1 X-6.5019 Y3.1155
X-6.4989 Z-0.2797
X-6.4961 Y3.1154 Z-0.2788
X-6.4934 Z-0.2774
X-6.4911 Z-0.2755
X-6.4891 Y3.1153 Z-0.2732
X-6.4877 Z-0.2705
X-6.4868 Z-0.2676
X-6.4865 Z-0.2646
G0 Z0.4
X-5.5095 Y3.1386
Z0.13
G1 Z0.0654 F40.
G19 G2 Y3.1232 Z0.05 J-0.0154 K0.
G1 Y3.1155
G17 G3 X-5.5 Y3.106 I0.0095 J0.
Y3.144 Z0.0331 I0. J0.019
Y3.106 Z0.0161 I0. J-0.019
Y3.144 Z-0.0008 I0. J0.019
Y3.106 Z-0.0177 I0. J-0.019
Y3.144 Z-0.0346 I0. J0.019
Y3.106 Z-0.0516 I0. J-0.019
Y3.144 Z-0.0685 I0. J0.019
Y3.106 Z-0.0854 I0. J-0.019
Y3.144 Z-0.1023 I0. J0.019
Y3.106 Z-0.1193 I0. J-0.019
Y3.144 Z-0.1362 I0. J0.019
Y3.106 Z-0.1531 I0. J-0.019
Y3.144 Z-0.1701 I0. J0.019
Y3.106 Z-0.187 I0. J-0.019
Y3.144 Z-0.2039 I0. J0.019
Y3.106 Z-0.2208 I0. J-0.019
Y3.144 Z-0.2378 I0. J0.019
Y3.106 Z-0.2547 I0. J-0.019
Y3.144 Z-0.2716 I0. J0.019
X-5.519 Y3.1253 Z-0.28 I0. J-0.019
X-5.481 Y3.1247 I0.019 J-0.0003
X-5.519 Y3.1253 I-0.019 J0.0003
X-5.5096 Y3.1156 I0.0095 J-0.0001
G1 X-5.5019 Y3.1155
X-5.4989 Z-0.2797
X-5.4961 Y3.1154 Z-0.2788
X-5.4934 Z-0.2774
X-5.4911 Z-0.2755
X-5.4891 Y3.1153 Z-0.2732
X-5.4877 Z-0.2705
X-5.4868 Z-0.2676
X-5.4865 Z-0.2646
G0 Z0.4
X-4.5095 Y3.1386
Z0.13
G1 Z0.0654 F40.
G19 G2 Y3.1232 Z0.05 J-0.0154 K0.
G1 Y3.1155
G17 G3 X-4.5 Y3.106 I0.0095 J0.
Y3.144 Z0.0331 I0. J0.019
Y3.106 Z0.0161 I0. J-0.019
Y3.144 Z-0.0008 I0. J0.019
Y3.106 Z-0.0177 I0. J-0.019
Y3.144 Z-0.0346 I0. J0.019
Y3.106 Z-0.0516 I0. J-0.019
Y3.144 Z-0.0685 I0. J0.019
Y3.106 Z-0.0854 I0. J-0.019
Y3.144 Z-0.1023 I0. J0.019
Y3.106 Z-0.1193 I0. J-0.019
Y3.144 Z-0.1362 I0. J0.019
Y3.106 Z-0.1531 I0. J-0.019
Y3.144 Z-0.1701 I0. J0.019
Y3.106 Z-0.187 I0. J-0.019
Y3.144 Z-0.2039 I0. J0.019
Y3.106 Z-0.2208 I0. J-0.019
Y3.144 Z-0.2378 I0. J0.019
Y3.106 Z-0.2547 I0. J-0.019
Y3.144 Z-0.2716 I0. J0.019
X-4.519 Y3.1253 Z-0.28 I0. J-0.019
X-4.481 Y3.1247 I0.019 J-0.0003
X-4.519 Y3.1253 I-0.019 J0.0003
X-4.5096 Y3.1156 I0.0095 J-0.0001
G1 X-4.5019 Y3.1155
X-4.4989 Z-0.2797
X-4.4961 Y3.1154 Z-0.2788
X-4.4934 Z-0.2774
X-4.4911 Z-0.2755
X-4.4891 Y3.1153 Z-0.2732
X-4.4877 Z-0.2705
X-4.4868 Z-0.2676
X-4.4865 Z-0.2646
G0 Z0.4
X-3.5095 Y3.1386
Z0.13
G1 Z0.0654 F40.
G19 G2 Y3.1232 Z0.05 J-0.0154 K0.
G1 Y3.1155
G17 G3 X-3.5 Y3.106 I0.0095 J0.
Y3.144 Z0.0331 I0. J0.019
Y3.106 Z0.0161 I0. J-0.019
Y3.144 Z-0.0008 I0. J0.019
Y3.106 Z-0.0177 I0. J-0.019
Y3.144 Z-0.0346 I0. J0.019
Y3.106 Z-0.0516 I0. J-0.019
Y3.144 Z-0.0685 I0. J0.019
Y3.106 Z-0.0854 I0. J-0.019
Y3.144 Z-0.1023 I0. J0.019
Y3.106 Z-0.1193 I0. J-0.019
Y3.144 Z-0.1362 I0. J0.019
Y3.106 Z-0.1531 I0. J-0.019
Y3.144 Z-0.1701 I0. J0.019
Y3.106 Z-0.187 I0. J-0.019
Y3.144 Z-0.2039 I0. J0.019
Y3.106 Z-0.2208 I0. J-0.019
Y3.144 Z-0.2378 I0. J0.019
Y3.106 Z-0.2547 I0. J-0.019
Y3.144 Z-0.2716 I0. J0.019
X-3.519 Y3.1253 Z-0.28 I0. J-0.019
X-3.481 Y3.1247 I0.019 J-0.0003
X-3.519 Y3.1253 I-0.019 J0.0003
X-3.5096 Y3.1156 I0.0095 J-0.0001
G1 X-3.5019 Y3.1155
X-3.4989 Z-0.2797
X-3.4961 Y3.1154 Z-0.2788
X-3.4934 Z-0.2774
X-3.4911 Z-0.2755
X-3.4891 Y3.1153 Z-0.2732
X-3.4877 Z-0.2705
X-3.4868 Z-0.2676
X-3.4865 Z-0.2646
G0 Z0.4
X-2.5095 Y3.1386
Z0.13
G1 Z0.0654 F40.
G19 G2 Y3.1232 Z0.05 J-0.0154 K0.
G1 Y3.1155
G17 G3 X-2.5 Y3.106 I0.0095 J0.
Y3.144 Z0.0331 I0. J0.019
Y3.106 Z0.0161 I0. J-0.019
Y3.144 Z-0.0008 I0. J0.019
Y3.106 Z-0.0177 I0. J-0.019
Y3.144 Z-0.0346 I0. J0.019
Y3.106 Z-0.0516 I0. J-0.019
Y3.144 Z-0.0685 I0. J0.019
Y3.106 Z-0.0854 I0. J-0.019
Y3.144 Z-0.1023 I0. J0.019
Y3.106 Z-0.1193 I0. J-0.019
Y3.144 Z-0.1362 I0. J0.019
Y3.106 Z-0.1531 I0. J-0.019
Y3.144 Z-0.1701 I0. J0.019
Y3.106 Z-0.187 I0. J-0.019
Y3.144 Z-0.2039 I0. J0.019
Y3.106 Z-0.2208 I0. J-0.019
Y3.144 Z-0.2378 I0. J0.019
Y3.106 Z-0.2547 I0. J-0.019
Y3.144 Z-0.2716 I0. J0.019
X-2.519 Y3.1253 Z-0.28 I0. J-0.019
X-2.481 Y3.1247 I0.019 J-0.0003
X-2.519 Y3.1253 I-0.019 J0.0003
X-2.5096 Y3.1156 I0.0095 J-0.0001
G1 X-2.5019 Y3.1155
X-2.4989 Z-0.2797
X-2.4961 Y3.1154 Z-0.2788
X-2.4934 Z-0.2774
X-2.4911 Z-0.2755
X-2.4891 Y3.1153 Z-0.2732
X-2.4877 Z-0.2705
X-2.4868 Z-0.2676
X-2.4865 Z-0.2646
G0 Z0.4
X-2.2964 Y3.9686
Z0.13
G1 Z0.0654 F40.
G19 G3 Y3.984 Z0.05 J0.0154 K0.
G1 Y3.9917
G17 G3 X-2.3059 Y4.0012 I-0.0095 J0.
Y3.9632 Z0.0331 I0. J-0.019
Y4.0012 Z0.0161 I0. J0.019
Y3.9632 Z-0.0008 I0. J-0.019
Y4.0012 Z-0.0177 I0. J0.019
Y3.9632 Z-0.0346 I0. J-0.019
Y4.0012 Z-0.0516 I0. J0.019
Y3.9632 Z-0.0685 I0. J-0.019
Y4.0012 Z-0.0854 I0. J0.019
Y3.9632 Z-0.1023 I0. J-0.019
Y4.0012 Z-0.1193 I0. J0.019
Y3.9632 Z-0.1362 I0. J-0.019
Y4.0012 Z-0.1531 I0. J0.019
Y3.9632 Z-0.1701 I0. J-0.019
Y4.0012 Z-0.187 I0. J0.019
Y3.9632 Z-0.2039 I0. J-0.019
Y4.0012 Z-0.2208 I0. J0.019
Y3.9632 Z-0.2378 I0. J-0.019
Y4.0012 Z-0.2547 I0. J0.019
Y3.9632 Z-0.2716 I0. J-0.019
X-2.2869 Y3.9819 Z-0.28 I0. J0.019
X-2.3249 Y3.9825 I-0.019 J0.0003
X-2.2869 Y3.9819 I0.019 J-0.0003
X-2.2963 Y3.9916 I-0.0095 J0.0001
G1 X-2.304 Y3.9917
X-2.307 Y3.9918 Z-0.2797
X-2.3099 Z-0.2788
X-2.3125 Z-0.2774
X-2.3148 Y3.9919 Z-0.2755
X-2.3168 Z-0.2732
X-2.3182 Z-0.2705
X-2.3191 Z-0.2676
X-2.3194 Y3.992 Z-0.2646
G0 Z0.4
X-3.117 Y4.5401
Z0.13
G1 Z0.0654 F40.
G19 G3 Y4.5555 Z0.05 J0.0154 K0.
G1 Y4.5632
G17 G3 X-3.1265 Y4.5727 I-0.0095 J0.
Y4.5347 Z0.0331 I0. J-0.019
Y4.5727 Z0.0161 I0. J0.019
Y4.5347 Z-0.0008 I0. J-0.019
Y4.5727 Z-0.0177 I0. J0.019
Y4.5347 Z-0.0346 I0. J-0.019
Y4.5727 Z-0.0516 I0. J0.019
Y4.5347 Z-0.0685 I0. J-0.019
Y4.5727 Z-0.0854 I0. J0.019
Y4.5347 Z-0.1023 I0. J-0.019
Y4.5727 Z-0.1193 I0. J0.019
Y4.5347 Z-0.1362 I0. J-0.019
Y4.5727 Z-0.1531 I0. J0.019
Y4.5347 Z-0.1701 I0. J-0.019
Y4.5727 Z-0.187 I0. J0.019
Y4.5347 Z-0.2039 I0. J-0.019
Y4.5727 Z-0.2208 I0. J0.019
Y4.5347 Z-0.2378 I0. J-0.019
Y4.5727 Z-0.2547 I0. J0.019
Y4.5347 Z-0.2716 I0. J-0.019
X-3.1075 Y4.5534 Z-0.28 I0. J0.019
X-3.1455 Y4.554 I-0.019 J0.0003
X-3.1075 Y4.5534 I0.019 J-0.0003
X-3.1169 Y4.5631 I-0.0095 J0.0001
G1 X-3.1246 Y4.5632
X-3.1276 Y4.5633 Z-0.2797
X-3.1305 Z-0.2788
X-3.1331 Z-0.2774
X-3.1355 Y4.5634 Z-0.2755
X-3.1374 Z-0.2732
X-3.1388 Z-0.2705
X-3.1397 Z-0.2676
X-3.14 Z-0.2646
G0 Z0.4
X-3.9376 Y5.1116
Z0.13
G1 Z0.0654 F40.
G19 G3 Y5.127 Z0.05 J0.0154 K0.
G1 Y5.1347
G17 G3 X-3.9471 Y5.1442 I-0.0095 J0.
Y5.1062 Z0.0331 I0. J-0.019
Y5.1442 Z0.0161 I0. J0.019
Y5.1062 Z-0.0008 I0. J-0.019
Y5.1442 Z-0.0177 I0. J0.019
Y5.1062 Z-0.0346 I0. J-0.019
Y5.1442 Z-0.0516 I0. J0.019
Y5.1062 Z-0.0685 I0. J-0.019
Y5.1442 Z-0.0854 I0. J0.019
Y5.1062 Z-0.1023 I0. J-0.019
Y5.1442 Z-0.1193 I0. J0.019
Y5.1062 Z-0.1362 I0. J-0.019
Y5.1442 Z-0.1531 I0. J0.019
Y5.1062 Z-0.1701 I0. J-0.019
Y5.1442 Z-0.187 I0. J0.019
Y5.1062 Z-0.2039 I0. J-0.019
Y5.1442 Z-0.2208 I0. J0.019
Y5.1062 Z-0.2378 I0. J-0.019
Y5.1442 Z-0.2547 I0. J0.019
Y5.1062 Z-0.2716 I0. J-0.019
X-3.9281 Y5.1249 Z-0.28 I0. J0.019
X-3.9661 Y5.1255 I-0.019 J0.0003
X-3.9281 Y5.1249 I0.019 J-0.0003
X-3.9375 Y5.1346 I-0.0095 J0.0001
G1 X-3.9452 Y5.1347
X-3.9482 Z-0.2797
X-3.9511 Y5.1348 Z-0.2788
X-3.9537 Z-0.2774
X-3.9561 Y5.1349 Z-0.2755
X-3.958 Z-0.2732
X-3.9594 Z-0.2705
X-3.9603 Z-0.2676
X-3.9606 Z-0.2646
G0 Z0.4
X-4.7582 Y5.6831
Z0.13
G1 Z0.0654 F40.
G19 G3 Y5.6985 Z0.05 J0.0154 K0.
G1 Y5.7062
G17 G3 X-4.7677 Y5.7157 I-0.0095 J0.
Y5.6777 Z0.0331 I0. J-0.019
Y5.7157 Z0.0161 I0. J0.019
Y5.6777 Z-0.0008 I0. J-0.019
Y5.7157 Z-0.0177 I0. J0.019
Y5.6777 Z-0.0346 I0. J-0.019
Y5.7157 Z-0.0516 I0. J0.019
Y5.6777 Z-0.0685 I0. J-0.019
Y5.7157 Z-0.0854 I0. J0.019
Y5.6777 Z-0.1023 I0. J-0.019
Y5.7157 Z-0.1193 I0. J0.019
Y5.6777 Z-0.1362 I0. J-0.019
Y5.7157 Z-0.1531 I0. J0.019
Y5.6777 Z-0.1701 I0. J-0.019
Y5.7157 Z-0.187 I0. J0.019
Y5.6777 Z-0.2039 I0. J-0.019
Y5.7157 Z-0.2208 I0. J0.019
Y5.6777 Z-0.2378 I0. J-0.019
Y5.7157 Z-0.2547 I0. J0.019
Y5.6777 Z-0.2716 I0. J-0.019
X-4.7487 Y5.6964 Z-0.28 I0. J0.019
X-4.7867 Y5.697 I-0.019 J0.0003
X-4.7487 Y5.6964 I0.019 J-0.0003
X-4.7581 Y5.7061 I-0.0095 J0.0001
G1 X-4.7658 Y5.7062
X-4.7688 Z-0.2797
X-4.7717 Y5.7063 Z-0.2788
X-4.7743 Z-0.2774
X-4.7767 Y5.7064 Z-0.2755
X-4.7786 Z-0.2732
X-4.78 Z-0.2705
X-4.7809 Z-0.2676
X-4.7812 Z-0.2646
G0 Z0.4
X-5.5788 Y6.2546
Z0.13
G1 Z0.0654 F40.
G19 G3 Y6.27 Z0.05 J0.0154 K0.
G1 Y6.2777
G17 G3 X-5.5883 Y6.2872 I-0.0095 J0.
Y6.2492 Z0.0331 I0. J-0.019
Y6.2872 Z0.0161 I0. J0.019
Y6.2492 Z-0.0008 I0. J-0.019
Y6.2872 Z-0.0177 I0. J0.019
Y6.2492 Z-0.0346 I0. J-0.019
Y6.2872 Z-0.0516 I0. J0.019
Y6.2492 Z-0.0685 I0. J-0.019
Y6.2872 Z-0.0854 I0. J0.019
Y6.2492 Z-0.1023 I0. J-0.019
Y6.2872 Z-0.1193 I0. J0.019
Y6.2492 Z-0.1362 I0. J-0.019
Y6.2872 Z-0.1531 I0. J0.019
Y6.2492 Z-0.1701 I0. J-0.019
Y6.2872 Z-0.187 I0. J0.019
Y6.2492 Z-0.2039 I0. J-0.019
Y6.2872 Z-0.2208 I0. J0.019
Y6.2492 Z-0.2378 I0. J-0.019
Y6.2872 Z-0.2547 I0. J0.019
Y6.2492 Z-0.2716 I0. J-0.019
X-5.5693 Y6.2679 Z-0.28 I0. J0.019
X-5.6073 Y6.2685 I-0.019 J0.0003
X-5.5693 Y6.2679 I0.019 J-0.0003
X-5.5787 Y6.2776 I-0.0095 J0.0001
G1 X-5.5864 Y6.2777
X-5.5894 Z-0.2797
X-5.5923 Y6.2778 Z-0.2788
X-5.5949 Z-0.2774
X-5.5973 Y6.2779 Z-0.2755
X-5.5992 Z-0.2732
X-5.6006 Z-0.2705
X-5.6015 Z-0.2676
X-5.6018 Z-0.2646
G0 Z0.4
X-6.3994 Y6.8261
Z0.13
G1 Z0.0654 F40.
G19 G3 Y6.8415 Z0.05 J0.0154 K0.
G1 Y6.8492
G17 G3 X-6.4089 Y6.8587 I-0.0095 J0.
Y6.8207 Z0.0331 I0. J-0.019
Y6.8587 Z0.0161 I0. J0.019
Y6.8207 Z-0.0008 I0. J-0.019
Y6.8587 Z-0.0177 I0. J0.019
Y6.8207 Z-0.0346 I0. J-0.019
Y6.8587 Z-0.0516 I0. J0.019
Y6.8207 Z-0.0685 I0. J-0.019
Y6.8587 Z-0.0854 I0. J0.019
Y6.8207 Z-0.1023 I0. J-0.019
Y6.8587 Z-0.1193 I0. J0.019
Y6.8207 Z-0.1362 I0. J-0.019
Y6.8587 Z-0.1531 I0. J0.019
Y6.8207 Z-0.1701 I0. J-0.019
Y6.8587 Z-0.187 I0. J0.019
Y6.8207 Z-0.2039 I0. J-0.019
Y6.8587 Z-0.2208 I0. J0.019
Y6.8207 Z-0.2378 I0. J-0.019
Y6.8587 Z-0.2547 I0. J0.019
Y6.8207 Z-0.2716 I0. J-0.019
X-6.3899 Y6.8394 Z-0.28 I0. J0.019
X-6.4279 Y6.84 I-0.019 J0.0003
X-6.3899 Y6.8394 I0.019 J-0.0003
X-6.3993 Y6.8491 I-0.0095 J0.0001
G1 X-6.407 Y6.8492
X-6.41 Z-0.2797
X-6.4129 Y6.8493 Z-0.2788
X-6.4155 Z-0.2774
X-6.4179 Y6.8494 Z-0.2755
X-6.4198 Z-0.2732
X-6.4212 Z-0.2705
X-6.4221 Z-0.2676
X-6.4224 Z-0.2646
G0 Z0.4
X-7.22 Y7.3976
Z0.13
G1 Z0.0654 F40.
G19 G3 Y7.413 Z0.05 J0.0154 K0.
G1 Y7.4207
G17 G3 X-7.2295 Y7.4302 I-0.0095 J0.
Y7.3922 Z0.0331 I0. J-0.019
Y7.4302 Z0.0161 I0. J0.019
Y7.3922 Z-0.0008 I0. J-0.019
Y7.4302 Z-0.0177 I0. J0.019
Y7.3922 Z-0.0346 I0. J-0.019
Y7.4302 Z-0.0516 I0. J0.019
Y7.3922 Z-0.0685 I0. J-0.019
Y7.4302 Z-0.0854 I0. J0.019
Y7.3922 Z-0.1023 I0. J-0.019
Y7.4302 Z-0.1193 I0. J0.019
Y7.3922 Z-0.1362 I0. J-0.019
Y7.4302 Z-0.1531 I0. J0.019
Y7.3922 Z-0.1701 I0. J-0.019
Y7.4302 Z-0.187 I0. J0.019
Y7.3922 Z-0.2039 I0. J-0.019
Y7.4302 Z-0.2208 I0. J0.019
Y7.3922 Z-0.2378 I0. J-0.019
Y7.4302 Z-0.2547 I0. J0.019
Y7.3922 Z-0.2716 I0. J-0.019
X-7.2106 Y7.4109 Z-0.28 I0. J0.019
X-7.2485 Y7.4115 I-0.019 J0.0003
X-7.2106 Y7.4109 I0.019 J-0.0003
X-7.2199 Y7.4206 I-0.0095 J0.0001
G1 X-7.2276 Y7.4207
X-7.2306 Z-0.2797
X-7.2335 Y7.4208 Z-0.2788
X-7.2362 Z-0.2774
X-7.2385 Z-0.2755
X-7.2404 Y7.4209 Z-0.2732
X-7.2418 Z-0.2705
X-7.2427 Z-0.2676
X-7.243 Z-0.2646
G0 Z0.4
X-8.075 Y8.
Z0.1146
G1 Z0.05 F40.
X-8.0738 Y8.0013
G3 X-8.075 Y8.0025 I-0.0012 J0.
Y7.9975 Z0.036 I0. J-0.0025
X-8.0725 Y7.9998 Z0.0294 I0. J0.0025
X-8.0775 Y8.0002 Z0.0154 I-0.0025 J0.0002
X-8.0754 Y7.9975 Z0.0087 I0.0025 J-0.0002
X-8.0746 Y8.0025 Z-0.0053 I0.0004 J0.0025
X-8.0774 Y8.0007 Z-0.0119 I-0.0004 J-0.0025
X-8.0726 Y7.9993 Z-0.0259 I0.0024 J-0.0007
X-8.0741 Y8.0023 Z-0.0325 I-0.0024 J0.0007
X-8.0759 Y7.9977 Z-0.0465 I-0.0009 J-0.0023
X-8.0727 Y7.9989 Z-0.0531 I0.0009 J0.0023
X-8.0773 Y8.0011 Z-0.0671 I-0.0023 J0.0011
X-8.0763 Y7.9979 Z-0.0738 I0.0023 J-0.0011
X-8.0737 Y8.0021 Z-0.0878 I0.0013 J0.0021
X-8.0763 Y7.9979 Z-0.1018 I-0.0013 J-0.0021
X-8.0734 Y8.0019 Z-0.115 I0.0013 J0.0021
X-8.0766 Y7.9981 Z-0.129 I-0.0016 J-0.0019
X-8.0734 Y8.0019 Z-0.143 I0.0016 J0.0019
X-8.0766 Y7.9981 Z-0.1571 I-0.0016 J-0.0019
X-8.0734 Y8.0019 Z-0.1711 I0.0016 J0.0019
X-8.0764 Y8.0021 Z-0.1769 I-0.0016 J-0.0019
X-8.0736 Y7.9979 Z-0.1909 I0.0014 J-0.0021
X-8.0728 Y8.0012 Z-0.1975 I-0.0014 J0.0021
X-8.0772 Y7.9988 Z-0.2115 I-0.0022 J-0.0012
X-8.0728 Y8.0012 Z-0.2255 I0.0022 J0.0012
X-8.0774 Y7.9992 Z-0.2387 I-0.0022 J-0.0012
X-8.0726 Y8.0008 Z-0.2528 I0.0024 J0.0008
X-8.0755 Y8.0024 Z-0.2594 I-0.0024 J-0.0008
X-8.0745 Y7.9976 Z-0.2734 I0.0005 J-0.0024
X-8.0725 Y8.0003 Z-0.28 I-0.0005 J0.0024
X-8.0775 Y7.9997 I-0.0025 J-0.0003
X-8.0725 Y8.0003 I0.0025 J0.0003
X-8.0739 Y8.0014 I-0.0012 J-0.0002
G1 X-8.075 Y8.
G0 Z0.4
X-8.5655 Y9.4864
Z0.13
G1 Z0.0654 F40.
G19 G3 Y9.5018 Z0.05 J0.0154 K0.
G1 Y9.5095
G17 G3 X-8.575 Y9.519 I-0.0095 J0.
Y9.481 Z0.0331 I0. J-0.019
Y9.519 Z0.0161 I0. J0.019
Y9.481 Z-0.0008 I0. J-0.019
Y9.519 Z-0.0177 I0. J0.019
Y9.481 Z-0.0346 I0. J-0.019
Y9.519 Z-0.0516 I0. J0.019
Y9.481 Z-0.0685 I0. J-0.019
Y9.519 Z-0.0854 I0. J0.019
Y9.481 Z-0.1023 I0. J-0.019
Y9.519 Z-0.1193 I0. J0.019
Y9.481 Z-0.1362 I0. J-0.019
Y9.519 Z-0.1531 I0. J0.019
Y9.481 Z-0.1701 I0. J-0.019
Y9.519 Z-0.187 I0. J0.019
Y9.481 Z-0.2039 I0. J-0.019
Y9.519 Z-0.2208 I0. J0.019
Y9.481 Z-0.2378 I0. J-0.019
Y9.519 Z-0.2547 I0. J0.019
Y9.481 Z-0.2716 I0. J-0.019
X-8.556 Y9.4997 Z-0.28 I0. J0.019
X-8.594 Y9.5003 I-0.019 J0.0003
X-8.556 Y9.4997 I0.019 J-0.0003
X-8.5654 Y9.5094 I-0.0095 J0.0001
G1 X-8.5731 Y9.5095
X-8.5761 Z-0.2797
X-8.5789 Y9.5096 Z-0.2788
X-8.5816 Z-0.2774
X-8.5839 Z-0.2755
X-8.5859 Y9.5097 Z-0.2732
X-8.5873 Z-0.2705
X-8.5882 Z-0.2676
X-8.5885 Z-0.2646
G0 Z0.4
X-8.0655 Y9.4864
Z0.13
G1 Z0.0654 F40.
G19 G3 Y9.5018 Z0.05 J0.0154 K0.
G1 Y9.5095
G17 G3 X-8.075 Y9.519 I-0.0095 J0.
Y9.481 Z0.0331 I0. J-0.019
Y9.519 Z0.0161 I0. J0.019
Y9.481 Z-0.0008 I0. J-0.019
Y9.519 Z-0.0177 I0. J0.019
Y9.481 Z-0.0346 I0. J-0.019
Y9.519 Z-0.0516 I0. J0.019
Y9.481 Z-0.0685 I0. J-0.019
Y9.519 Z-0.0854 I0. J0.019
Y9.481 Z-0.1023 I0. J-0.019
Y9.519 Z-0.1193 I0. J0.019
Y9.481 Z-0.1362 I0. J-0.019
Y9.519 Z-0.1531 I0. J0.019
Y9.481 Z-0.1701 I0. J-0.019
Y9.519 Z-0.187 I0. J0.019
Y9.481 Z-0.2039 I0. J-0.019
Y9.519 Z-0.2208 I0. J0.019
Y9.481 Z-0.2378 I0. J-0.019
Y9.519 Z-0.2547 I0. J0.019
Y9.481 Z-0.2716 I0. J-0.019
X-8.056 Y9.4997 Z-0.28 I0. J0.019
X-8.094 Y9.5003 I-0.019 J0.0003
X-8.056 Y9.4997 I0.019 J-0.0003
X-8.0654 Y9.5094 I-0.0095 J0.0001
G1 X-8.0731 Y9.5095
X-8.0761 Z-0.2797
X-8.0789 Y9.5096 Z-0.2788
X-8.0816 Z-0.2774
X-8.0839 Z-0.2755
X-8.0859 Y9.5097 Z-0.2732
X-8.0873 Z-0.2705
X-8.0882 Z-0.2676
X-8.0884 Z-0.2646
G0 Z0.4
X-8.0845 Y10.5136
Z0.13
G1 Z0.0654 F40.
G19 G2 Y10.4982 Z0.05 J-0.0154 K0.
G1 Y10.4905
G17 G3 X-8.075 Y10.481 I0.0095 J0.
Y10.519 Z0.0331 I0. J0.019
Y10.481 Z0.0161 I0. J-0.019
Y10.519 Z-0.0008 I0. J0.019
Y10.481 Z-0.0177 I0. J-0.019
Y10.519 Z-0.0346 I0. J0.019
Y10.481 Z-0.0516 I0. J-0.019
Y10.519 Z-0.0685 I0. J0.019
Y10.481 Z-0.0854 I0. J-0.019
Y10.519 Z-0.1023 I0. J0.019
Y10.481 Z-0.1193 I0. J-0.019
Y10.519 Z-0.1362 I0. J0.019
Y10.481 Z-0.1531 I0. J-0.019
Y10.519 Z-0.1701 I0. J0.019
Y10.481 Z-0.187 I0. J-0.019
Y10.519 Z-0.2039 I0. J0.019
Y10.481 Z-0.2208 I0. J-0.019
Y10.519 Z-0.2378 I0. J0.019
Y10.481 Z-0.2547 I0. J-0.019
Y10.519 Z-0.2716 I0. J0.019
X-8.094 Y10.5003 Z-0.28 I0. J-0.019
X-8.056 Y10.4997 I0.019 J-0.0003
X-8.094 Y10.5003 I-0.019 J0.0003
X-8.0846 Y10.4906 I0.0095 J-0.0001
G1 X-8.0769 Y10.4905
X-8.0739 Z-0.2797
X-8.0711 Y10.4904 Z-0.2788
X-8.0684 Z-0.2774
X-8.0661 Z-0.2755
X-8.0641 Y10.4903 Z-0.2732
X-8.0627 Z-0.2705
X-8.0618 Z-0.2676
X-8.0615 Z-0.2646
G0 Z0.4
X-8.5845 Y10.5136
Z0.13
G1 Z0.0654 F40.
G19 G2 Y10.4982 Z0.05 J-0.0154 K0.
G1 Y10.4905
G17 G3 X-8.575 Y10.481 I0.0095 J0.
Y10.519 Z0.0331 I0. J0.019
Y10.481 Z0.0161 I0. J-0.019
Y10.519 Z-0.0008 I0. J0.019
Y10.481 Z-0.0177 I0. J-0.019
Y10.519 Z-0.0346 I0. J0.019
Y10.481 Z-0.0516 I0. J-0.019
Y10.519 Z-0.0685 I0. J0.019
Y10.481 Z-0.0854 I0. J-0.019
Y10.519 Z-0.1023 I0. J0.019
Y10.481 Z-0.1193 I0. J-0.019
Y10.519 Z-0.1362 I0. J0.019
Y10.481 Z-0.1531 I0. J-0.019
Y10.519 Z-0.1701 I0. J0.019
Y10.481 Z-0.187 I0. J-0.019
Y10.519 Z-0.2039 I0. J0.019
Y10.481 Z-0.2208 I0. J-0.019
Y10.519 Z-0.2378 I0. J0.019
Y10.481 Z-0.2547 I0. J-0.019
Y10.519 Z-0.2716 I0. J0.019
X-8.594 Y10.5003 Z-0.28 I0. J-0.019
X-8.556 Y10.4997 I0.019 J-0.0003
X-8.594 Y10.5003 I-0.019 J0.0003
X-8.5846 Y10.4906 I0.0095 J-0.0001
G1 X-8.5769 Y10.4905
X-8.5739 Z-0.2797
X-8.5711 Y10.4904 Z-0.2788
X-8.5684 Z-0.2774
X-8.5661 Z-0.2755
X-8.5641 Y10.4903 Z-0.2732
X-8.5627 Z-0.2705
X-8.5618 Z-0.2676
X-8.5615 Z-0.2646
G0 Z0.4
X-8.5845 Y11.5136
Z0.13
G1 Z0.0654 F40.
G19 G2 Y11.4982 Z0.05 J-0.0154 K0.
G1 Y11.4905
G17 G3 X-8.575 Y11.481 I0.0095 J0.
Y11.519 Z0.0331 I0. J0.019
Y11.481 Z0.0161 I0. J-0.019
Y11.519 Z-0.0008 I0. J0.019
Y11.481 Z-0.0177 I0. J-0.019
Y11.519 Z-0.0346 I0. J0.019
Y11.481 Z-0.0516 I0. J-0.019
Y11.519 Z-0.0685 I0. J0.019
Y11.481 Z-0.0854 I0. J-0.019
Y11.519 Z-0.1023 I0. J0.019
Y11.481 Z-0.1193 I0. J-0.019
Y11.519 Z-0.1362 I0. J0.019
Y11.481 Z-0.1531 I0. J-0.019
Y11.519 Z-0.1701 I0. J0.019
Y11.481 Z-0.187 I0. J-0.019
Y11.519 Z-0.2039 I0. J0.019
Y11.481 Z-0.2208 I0. J-0.019
Y11.519 Z-0.2378 I0. J0.019
Y11.481 Z-0.2547 I0. J-0.019
Y11.519 Z-0.2716 I0. J0.019
X-8.594 Y11.5003 Z-0.28 I0. J-0.019
X-8.556 Y11.4997 I0.019 J-0.0003
X-8.594 Y11.5003 I-0.019 J0.0003
X-8.5846 Y11.4906 I0.0095 J-0.0001
G1 X-8.5769 Y11.4905
X-8.5739 Z-0.2797
X-8.5711 Y11.4904 Z-0.2788
X-8.5684 Z-0.2774
X-8.5661 Z-0.2755
X-8.5641 Y11.4903 Z-0.2732
X-8.5627 Z-0.2705
X-8.5618 Z-0.2676
X-8.5615 Z-0.2646
G0 Z0.4
X-8.0845 Y11.5136
Z0.13
G1 Z0.0654 F40.
G19 G2 Y11.4982 Z0.05 J-0.0154 K0.
G1 Y11.4905
G17 G3 X-8.075 Y11.481 I0.0095 J0.
Y11.519 Z0.0331 I0. J0.019
Y11.481 Z0.0161 I0. J-0.019
Y11.519 Z-0.0008 I0. J0.019
Y11.481 Z-0.0177 I0. J-0.019
Y11.519 Z-0.0346 I0. J0.019
Y11.481 Z-0.0516 I0. J-0.019
Y11.519 Z-0.0685 I0. J0.019
Y11.481 Z-0.0854 I0. J-0.019
Y11.519 Z-0.1023 I0. J0.019
Y11.481 Z-0.1193 I0. J-0.019
Y11.519 Z-0.1362 I0. J0.019
Y11.481 Z-0.1531 I0. J-0.019
Y11.519 Z-0.1701 I0. J0.019
Y11.481 Z-0.187 I0. J-0.019
Y11.519 Z-0.2039 I0. J0.019
Y11.481 Z-0.2208 I0. J-0.019
Y11.519 Z-0.2378 I0. J0.019
Y11.481 Z-0.2547 I0. J-0.019
Y11.519 Z-0.2716 I0. J0.019
X-8.094 Y11.5003 Z-0.28 I0. J-0.019
X-8.056 Y11.4997 I0.019 J-0.0003
X-8.094 Y11.5003 I-0.019 J0.0003
X-8.0846 Y11.4906 I0.0095 J-0.0001
G1 X-8.0769 Y11.4905
X-8.0739 Z-0.2797
X-8.0711 Y11.4904 Z-0.2788
X-8.0684 Z-0.2774
X-8.0661 Z-0.2755
X-8.0641 Y11.4903 Z-0.2732
X-8.0627 Z-0.2705
X-8.0618 Z-0.2676
X-8.0615 Z-0.2646
G0 Z0.4
X-8.0845 Y12.5136
Z0.13
G1 Z0.0654 F40.
G19 G2 Y12.4982 Z0.05 J-0.0154 K0.
G1 Y12.4905
G17 G3 X-8.075 Y12.481 I0.0095 J0.
Y12.519 Z0.0331 I0. J0.019
Y12.481 Z0.0161 I0. J-0.019
Y12.519 Z-0.0008 I0. J0.019
Y12.481 Z-0.0177 I0. J-0.019
Y12.519 Z-0.0346 I0. J0.019
Y12.481 Z-0.0516 I0. J-0.019
Y12.519 Z-0.0685 I0. J0.019
Y12.481 Z-0.0854 I0. J-0.019
Y12.519 Z-0.1023 I0. J0.019
Y12.481 Z-0.1193 I0. J-0.019
Y12.519 Z-0.1362 I0. J0.019
Y12.481 Z-0.1531 I0. J-0.019
Y12.519 Z-0.1701 I0. J0.019
Y12.481 Z-0.187 I0. J-0.019
Y12.519 Z-0.2039 I0. J0.019
Y12.481 Z-0.2208 I0. J-0.019
Y12.519 Z-0.2378 I0. J0.019
Y12.481 Z-0.2547 I0. J-0.019
Y12.519 Z-0.2716 I0. J0.019
X-8.094 Y12.5003 Z-0.28 I0. J-0.019
X-8.056 Y12.4997 I0.019 J-0.0003
X-8.094 Y12.5003 I-0.019 J0.0003
X-8.0846 Y12.4906 I0.0095 J-0.0001
G1 X-8.0769 Y12.4905
X-8.0739 Z-0.2797
X-8.0711 Y12.4904 Z-0.2788
X-8.0684 Z-0.2774
X-8.0661 Z-0.2755
X-8.0641 Y12.4903 Z-0.2732
X-8.0627 Z-0.2705
X-8.0618 Z-0.2676
X-8.0615 Z-0.2646
G0 Z0.4
X-8.5845 Y12.5136
Z0.13
G1 Z0.0654 F40.
G19 G2 Y12.4982 Z0.05 J-0.0154 K0.
G1 Y12.4905
G17 G3 X-8.575 Y12.481 I0.0095 J0.
Y12.519 Z0.0331 I0. J0.019
Y12.481 Z0.0161 I0. J-0.019
Y12.519 Z-0.0008 I0. J0.019
Y12.481 Z-0.0177 I0. J-0.019
Y12.519 Z-0.0346 I0. J0.019
Y12.481 Z-0.0516 I0. J-0.019
Y12.519 Z-0.0685 I0. J0.019
Y12.481 Z-0.0854 I0. J-0.019
Y12.519 Z-0.1023 I0. J0.019
Y12.481 Z-0.1193 I0. J-0.019
Y12.519 Z-0.1362 I0. J0.019
Y12.481 Z-0.1531 I0. J-0.019
Y12.519 Z-0.1701 I0. J0.019
Y12.481 Z-0.187 I0. J-0.019
Y12.519 Z-0.2039 I0. J0.019
Y12.481 Z-0.2208 I0. J-0.019
Y12.519 Z-0.2378 I0. J0.019
Y12.481 Z-0.2547 I0. J-0.019
Y12.519 Z-0.2716 I0. J0.019
X-8.594 Y12.5003 Z-0.28 I0. J-0.019
X-8.556 Y12.4997 I0.019 J-0.0003
X-8.594 Y12.5003 I-0.019 J0.0003
X-8.5846 Y12.4906 I0.0095 J-0.0001
G1 X-8.5769 Y12.4905
X-8.5739 Z-0.2797
X-8.5711 Y12.4904 Z-0.2788
X-8.5684 Z-0.2774
X-8.5661 Z-0.2755
X-8.5641 Y12.4903 Z-0.2732
X-8.5627 Z-0.2705
X-8.5618 Z-0.2676
X-8.5615 Z-0.2646
G0 Z0.4
X-8.5845 Y13.5136
Z0.13
G1 Z0.0654 F40.
G19 G2 Y13.4982 Z0.05 J-0.0154 K0.
G1 Y13.4905
G17 G3 X-8.575 Y13.481 I0.0095 J0.
Y13.519 Z0.0331 I0. J0.019
Y13.481 Z0.0161 I0. J-0.019
Y13.519 Z-0.0008 I0. J0.019
Y13.481 Z-0.0177 I0. J-0.019
Y13.519 Z-0.0346 I0. J0.019
Y13.481 Z-0.0516 I0. J-0.019
Y13.519 Z-0.0685 I0. J0.019
Y13.481 Z-0.0854 I0. J-0.019
Y13.519 Z-0.1023 I0. J0.019
Y13.481 Z-0.1193 I0. J-0.019
Y13.519 Z-0.1362 I0. J0.019
Y13.481 Z-0.1531 I0. J-0.019
Y13.519 Z-0.1701 I0. J0.019
Y13.481 Z-0.187 I0. J-0.019
Y13.519 Z-0.2039 I0. J0.019
Y13.481 Z-0.2208 I0. J-0.019
Y13.519 Z-0.2378 I0. J0.019
Y13.481 Z-0.2547 I0. J-0.019
Y13.519 Z-0.2716 I0. J0.019
X-8.594 Y13.5003 Z-0.28 I0. J-0.019
X-8.556 Y13.4997 I0.019 J-0.0003
X-8.594 Y13.5003 I-0.019 J0.0003
X-8.5846 Y13.4906 I0.0095 J-0.0001
G1 X-8.5769 Y13.4905
X-8.5739 Z-0.2797
X-8.5711 Y13.4904 Z-0.2788
X-8.5684 Z-0.2774
X-8.5661 Z-0.2755
X-8.5641 Y13.4903 Z-0.2732
X-8.5627 Z-0.2705
X-8.5618 Z-0.2676
X-8.5615 Z-0.2646
G0 Z0.4
X-8.0845 Y13.5136
Z0.13
G1 Z0.0654 F40.
G19 G2 Y13.4982 Z0.05 J-0.0154 K0.
G1 Y13.4905
G17 G3 X-8.075 Y13.481 I0.0095 J0.
Y13.519 Z0.0331 I0. J0.019
Y13.481 Z0.0161 I0. J-0.019
Y13.519 Z-0.0008 I0. J0.019
Y13.481 Z-0.0177 I0. J-0.019
Y13.519 Z-0.0346 I0. J0.019
Y13.481 Z-0.0516 I0. J-0.019
Y13.519 Z-0.0685 I0. J0.019
Y13.481 Z-0.0854 I0. J-0.019
Y13.519 Z-0.1023 I0. J0.019
Y13.481 Z-0.1193 I0. J-0.019
Y13.519 Z-0.1362 I0. J0.019
Y13.481 Z-0.1531 I0. J-0.019
Y13.519 Z-0.1701 I0. J0.019
Y13.481 Z-0.187 I0. J-0.019
Y13.519 Z-0.2039 I0. J0.019
Y13.481 Z-0.2208 I0. J-0.019
Y13.519 Z-0.2378 I0. J0.019
Y13.481 Z-0.2547 I0. J-0.019
Y13.519 Z-0.2716 I0. J0.019
X-8.094 Y13.5003 Z-0.28 I0. J-0.019
X-8.056 Y13.4997 I0.019 J-0.0003
X-8.094 Y13.5003 I-0.019 J0.0003
X-8.0846 Y13.4906 I0.0095 J-0.0001
G1 X-8.0769 Y13.4905
X-8.0739 Z-0.2797
X-8.0711 Y13.4904 Z-0.2788
X-8.0684 Z-0.2774
X-8.0661 Z-0.2755
X-8.0641 Y13.4903 Z-0.2732
X-8.0627 Z-0.2705
X-8.0618 Z-0.2676
X-8.0615 Z-0.2646
G0 Z0.4
X-8.5845 Y6.5136
Z0.13
G1 Z0.0654 F40.
G19 G2 Y6.4982 Z0.05 J-0.0154 K0.
G1 Y6.4905
G17 G3 X-8.575 Y6.481 I0.0095 J0.
Y6.519 Z0.0331 I0. J0.019
Y6.481 Z0.0161 I0. J-0.019
Y6.519 Z-0.0008 I0. J0.019
Y6.481 Z-0.0177 I0. J-0.019
Y6.519 Z-0.0346 I0. J0.019
Y6.481 Z-0.0516 I0. J-0.019
Y6.519 Z-0.0685 I0. J0.019
Y6.481 Z-0.0854 I0. J-0.019
Y6.519 Z-0.1023 I0. J0.019
Y6.481 Z-0.1193 I0. J-0.019
Y6.519 Z-0.1362 I0. J0.019
Y6.481 Z-0.1531 I0. J-0.019
Y6.519 Z-0.1701 I0. J0.019
Y6.481 Z-0.187 I0. J-0.019
Y6.519 Z-0.2039 I0. J0.019
Y6.481 Z-0.2208 I0. J-0.019
Y6.519 Z-0.2378 I0. J0.019
Y6.481 Z-0.2547 I0. J-0.019
Y6.519 Z-0.2716 I0. J0.019
X-8.594 Y6.5003 Z-0.28 I0. J-0.019
X-8.556 Y6.4997 I0.019 J-0.0003
X-8.594 Y6.5003 I-0.019 J0.0003
X-8.5846 Y6.4906 I0.0095 J-0.0001
G1 X-8.5769 Y6.4905
X-8.5739 Z-0.2797
X-8.5711 Y6.4904 Z-0.2788
X-8.5684 Z-0.2774
X-8.5661 Z-0.2755
X-8.5641 Y6.4903 Z-0.2732
X-8.5627 Z-0.2705
X-8.5618 Z-0.2676
X-8.5615 Z-0.2646
G0 Z0.4
X-8.0845 Y6.5136
Z0.13
G1 Z0.0654 F40.
G19 G2 Y6.4982 Z0.05 J-0.0154 K0.
G1 Y6.4905
G17 G3 X-8.075 Y6.481 I0.0095 J0.
Y6.519 Z0.0331 I0. J0.019
Y6.481 Z0.0161 I0. J-0.019
Y6.519 Z-0.0008 I0. J0.019
Y6.481 Z-0.0177 I0. J-0.019
Y6.519 Z-0.0346 I0. J0.019
Y6.481 Z-0.0516 I0. J-0.019
Y6.519 Z-0.0685 I0. J0.019
Y6.481 Z-0.0854 I0. J-0.019
Y6.519 Z-0.1023 I0. J0.019
Y6.481 Z-0.1193 I0. J-0.019
Y6.519 Z-0.1362 I0. J0.019
Y6.481 Z-0.1531 I0. J-0.019
Y6.519 Z-0.1701 I0. J0.019
Y6.481 Z-0.187 I0. J-0.019
Y6.519 Z-0.2039 I0. J0.019
Y6.481 Z-0.2208 I0. J-0.019
Y6.519 Z-0.2378 I0. J0.019
Y6.481 Z-0.2547 I0. J-0.019
Y6.519 Z-0.2716 I0. J0.019
X-8.094 Y6.5003 Z-0.28 I0. J-0.019
X-8.056 Y6.4997 I0.019 J-0.0003
X-8.094 Y6.5003 I-0.019 J0.0003
X-8.0846 Y6.4906 I0.0095 J-0.0001
G1 X-8.0769 Y6.4905
X-8.0739 Z-0.2797
X-8.0711 Y6.4904 Z-0.2788
X-8.0684 Z-0.2774
X-8.0661 Z-0.2755
X-8.0641 Y6.4903 Z-0.2732
X-8.0627 Z-0.2705
X-8.0618 Z-0.2676
X-8.0615 Z-0.2646
G0 Z0.4
X-8.0845 Y5.5136
Z0.13
G1 Z0.0654 F40.
G19 G2 Y5.4982 Z0.05 J-0.0154 K0.
G1 Y5.4905
G17 G3 X-8.075 Y5.481 I0.0095 J0.
Y5.519 Z0.0331 I0. J0.019
Y5.481 Z0.0161 I0. J-0.019
Y5.519 Z-0.0008 I0. J0.019
Y5.481 Z-0.0177 I0. J-0.019
Y5.519 Z-0.0346 I0. J0.019
Y5.481 Z-0.0516 I0. J-0.019
Y5.519 Z-0.0685 I0. J0.019
Y5.481 Z-0.0854 I0. J-0.019
Y5.519 Z-0.1023 I0. J0.019
Y5.481 Z-0.1193 I0. J-0.019
Y5.519 Z-0.1362 I0. J0.019
Y5.481 Z-0.1531 I0. J-0.019
Y5.519 Z-0.1701 I0. J0.019
Y5.481 Z-0.187 I0. J-0.019
Y5.519 Z-0.2039 I0. J0.019
Y5.481 Z-0.2208 I0. J-0.019
Y5.519 Z-0.2378 I0. J0.019
Y5.481 Z-0.2547 I0. J-0.019
Y5.519 Z-0.2716 I0. J0.019
X-8.094 Y5.5003 Z-0.28 I0. J-0.019
X-8.056 Y5.4997 I0.019 J-0.0003
X-8.094 Y5.5003 I-0.019 J0.0003
X-8.0846 Y5.4906 I0.0095 J-0.0001
G1 X-8.0769 Y5.4905
X-8.0739 Z-0.2797
X-8.0711 Y5.4904 Z-0.2788
X-8.0684 Z-0.2774
X-8.0661 Z-0.2755
X-8.0641 Y5.4903 Z-0.2732
X-8.0627 Z-0.2705
X-8.0618 Z-0.2676
X-8.0615 Z-0.2646
G0 Z0.4
X-8.5845 Y5.5136
Z0.13
G1 Z0.0654 F40.
G19 G2 Y5.4982 Z0.05 J-0.0154 K0.
G1 Y5.4905
G17 G3 X-8.575 Y5.481 I0.0095 J0.
Y5.519 Z0.0331 I0. J0.019
Y5.481 Z0.0161 I0. J-0.019
Y5.519 Z-0.0008 I0. J0.019
Y5.481 Z-0.0177 I0. J-0.019
Y5.519 Z-0.0346 I0. J0.019
Y5.481 Z-0.0516 I0. J-0.019
Y5.519 Z-0.0685 I0. J0.019
Y5.481 Z-0.0854 I0. J-0.019
Y5.519 Z-0.1023 I0. J0.019
Y5.481 Z-0.1193 I0. J-0.019
Y5.519 Z-0.1362 I0. J0.019
Y5.481 Z-0.1531 I0. J-0.019
Y5.519 Z-0.1701 I0. J0.019
Y5.481 Z-0.187 I0. J-0.019
Y5.519 Z-0.2039 I0. J0.019
Y5.481 Z-0.2208 I0. J-0.019
Y5.519 Z-0.2378 I0. J0.019
Y5.481 Z-0.2547 I0. J-0.019
Y5.519 Z-0.2716 I0. J0.019
X-8.594 Y5.5003 Z-0.28 I0. J-0.019
X-8.556 Y5.4997 I0.019 J-0.0003
X-8.594 Y5.5003 I-0.019 J0.0003
X-8.5846 Y5.4906 I0.0095 J-0.0001
G1 X-8.5769 Y5.4905
X-8.5739 Z-0.2797
X-8.5711 Y5.4904 Z-0.2788
X-8.5684 Z-0.2774
X-8.5661 Z-0.2755
X-8.5641 Y5.4903 Z-0.2732
X-8.5627 Z-0.2705
X-8.5618 Z-0.2676
X-8.5615 Z-0.2646
G0 Z0.4
X-8.1883 Y3.8637
Z0.13
G1 Z0.0654 F40.
G19 G3 Y3.8791 Z0.05 J0.0154 K0.
G1 Y3.8867
G17 G3 X-8.2 Y3.8985 I-0.0117 J0.
Y3.8515 Z0.0323 I0. J-0.0235
Y3.8985 Z0.0146 I0. J0.0235
Y3.8515 Z-0.0032 I0. J-0.0235
Y3.8985 Z-0.0209 I0. J0.0235
Y3.8515 Z-0.0386 I0. J-0.0235
Y3.8985 Z-0.0563 I0. J0.0235
Y3.8515 Z-0.074 I0. J-0.0235
Y3.8985 Z-0.0918 I0. J0.0235
Y3.8515 Z-0.1095 I0. J-0.0235
Y3.8985 Z-0.1272 I0. J0.0235
Y3.8515 Z-0.1449 I0. J-0.0235
Y3.8985 Z-0.1627 I0. J0.0235
Y3.8515 Z-0.1804 I0. J-0.0235
Y3.8985 Z-0.1981 I0. J0.0235
Y3.8515 Z-0.2158 I0. J-0.0235
Y3.8985 Z-0.2335 I0. J0.0235
Y3.8515 Z-0.2513 I0. J-0.0235
Y3.8985 Z-0.269 I0. J0.0235
X-8.2218 Y3.8662 Z-0.28 I0. J-0.0235
X-8.1782 Y3.8838 I0.0218 J0.0088
X-8.2218 Y3.8662 I-0.0218 J-0.0088
X-8.2065 Y3.8597 I0.0109 J0.0044
G1 X-8.1994 Y3.8626
X-8.1966 Y3.8637 Z-0.2797
X-8.1939 Y3.8648 Z-0.2788
X-8.1914 Y3.8658 Z-0.2774
X-8.1893 Y3.8667 Z-0.2755
X-8.1875 Y3.8674 Z-0.2732
X-8.1862 Y3.8679 Z-0.2705
X-8.1854 Y3.8682 Z-0.2676
X-8.1851 Y3.8684 Z-0.2646
G0 Z0.4
X-8.0655 Y4.4864
Z0.13
G1 Z0.0654 F40.
G19 G3 Y4.5018 Z0.05 J0.0154 K0.
G1 Y4.5095
G17 G3 X-8.075 Y4.519 I-0.0095 J0.
Y4.481 Z0.0331 I0. J-0.019
Y4.519 Z0.0161 I0. J0.019
Y4.481 Z-0.0008 I0. J-0.019
Y4.519 Z-0.0177 I0. J0.019
Y4.481 Z-0.0346 I0. J-0.019
Y4.519 Z-0.0516 I0. J0.019
Y4.481 Z-0.0685 I0. J-0.019
Y4.519 Z-0.0854 I0. J0.019
Y4.481 Z-0.1023 I0. J-0.019
Y4.519 Z-0.1193 I0. J0.019
Y4.481 Z-0.1362 I0. J-0.019
Y4.519 Z-0.1531 I0. J0.019
Y4.481 Z-0.1701 I0. J-0.019
Y4.519 Z-0.187 I0. J0.019
Y4.481 Z-0.2039 I0. J-0.019
Y4.519 Z-0.2208 I0. J0.019
Y4.481 Z-0.2378 I0. J-0.019
Y4.519 Z-0.2547 I0. J0.019
Y4.481 Z-0.2716 I0. J-0.019
X-8.056 Y4.4997 Z-0.28 I0. J0.019
X-8.094 Y4.5003 I-0.019 J0.0003
X-8.056 Y4.4997 I0.019 J-0.0003
X-8.0654 Y4.5094 I-0.0095 J0.0001
G1 X-8.0731 Y4.5095
X-8.0761 Z-0.2797
X-8.0789 Y4.5096 Z-0.2788
X-8.0816 Z-0.2774
X-8.0839 Z-0.2755
X-8.0859 Y4.5097 Z-0.2732
X-8.0873 Z-0.2705
X-8.0882 Z-0.2676
X-8.0884 Z-0.2646
G0 Z0.4
X-8.5655 Y4.4864
Z0.13
G1 Z0.0654 F40.
G19 G3 Y4.5018 Z0.05 J0.0154 K0.
G1 Y4.5095
G17 G3 X-8.575 Y4.519 I-0.0095 J0.
Y4.481 Z0.0331 I0. J-0.019
Y4.519 Z0.0161 I0. J0.019
Y4.481 Z-0.0008 I0. J-0.019
Y4.519 Z-0.0177 I0. J0.019
Y4.481 Z-0.0346 I0. J-0.019
Y4.519 Z-0.0516 I0. J0.019
Y4.481 Z-0.0685 I0. J-0.019
Y4.519 Z-0.0854 I0. J0.019
Y4.481 Z-0.1023 I0. J-0.019
Y4.519 Z-0.1193 I0. J0.019
Y4.481 Z-0.1362 I0. J-0.019
Y4.519 Z-0.1531 I0. J0.019
Y4.481 Z-0.1701 I0. J-0.019
Y4.519 Z-0.187 I0. J0.019
Y4.481 Z-0.2039 I0. J-0.019
Y4.519 Z-0.2208 I0. J0.019
Y4.481 Z-0.2378 I0. J-0.019
Y4.519 Z-0.2547 I0. J0.019
Y4.481 Z-0.2716 I0. J-0.019
X-8.556 Y4.4997 Z-0.28 I0. J0.019
X-8.594 Y4.5003 I-0.019 J0.0003
X-8.556 Y4.4997 I0.019 J-0.0003
X-8.5654 Y4.5094 I-0.0095 J0.0001
G1 X-8.5731 Y4.5095
X-8.5761 Z-0.2797
X-8.5789 Y4.5096 Z-0.2788
X-8.5816 Z-0.2774
X-8.5839 Z-0.2755
X-8.5859 Y4.5097 Z-0.2732
X-8.5873 Z-0.2705
X-8.5882 Z-0.2676
X-8.5885 Z-0.2646
G0 Z0.4
X-9.1882 Y3.8637
Z0.13
G1 Z0.0654 F40.
G19 G3 Y3.8791 Z0.05 J0.0154 K0.
G1 Y3.8867
G17 G3 X-9.2 Y3.8985 I-0.0117 J0.
Y3.8515 Z0.0323 I0. J-0.0235
Y3.8985 Z0.0146 I0. J0.0235
Y3.8515 Z-0.0032 I0. J-0.0235
Y3.8985 Z-0.0209 I0. J0.0235
Y3.8515 Z-0.0386 I0. J-0.0235
Y3.8985 Z-0.0563 I0. J0.0235
Y3.8515 Z-0.074 I0. J-0.0235
Y3.8985 Z-0.0918 I0. J0.0235
Y3.8515 Z-0.1095 I0. J-0.0235
Y3.8985 Z-0.1272 I0. J0.0235
Y3.8515 Z-0.1449 I0. J-0.0235
Y3.8985 Z-0.1627 I0. J0.0235
Y3.8515 Z-0.1804 I0. J-0.0235
Y3.8985 Z-0.1981 I0. J0.0235
Y3.8515 Z-0.2158 I0. J-0.0235
Y3.8985 Z-0.2335 I0. J0.0235
Y3.8515 Z-0.2513 I0. J-0.0235
Y3.8985 Z-0.269 I0. J0.0235
X-9.2218 Y3.8662 Z-0.28 I0. J-0.0235
X-9.1782 Y3.8838 I0.0218 J0.0088
X-9.2218 Y3.8662 I-0.0218 J-0.0088
X-9.2065 Y3.8597 I0.0109 J0.0044
G1 X-9.1994 Y3.8626
X-9.1966 Y3.8637 Z-0.2797
X-9.1939 Y3.8648 Z-0.2788
X-9.1914 Y3.8658 Z-0.2774
X-9.1893 Y3.8667 Z-0.2755
X-9.1875 Y3.8674 Z-0.2732
X-9.1862 Y3.8679 Z-0.2705
X-9.1854 Y3.8682 Z-0.2676
X-9.1851 Y3.8684 Z-0.2646
G0 Z0.4
X-10.1883 Y3.8637
Z0.13
G1 Z0.0654 F40.
G19 G3 Y3.8791 Z0.05 J0.0154 K0.
G1 Y3.8867
G17 G3 X-10.2 Y3.8985 I-0.0117 J0.
Y3.8515 Z0.0323 I0. J-0.0235
Y3.8985 Z0.0146 I0. J0.0235
Y3.8515 Z-0.0032 I0. J-0.0235
Y3.8985 Z-0.0209 I0. J0.0235
Y3.8515 Z-0.0386 I0. J-0.0235
Y3.8985 Z-0.0563 I0. J0.0235
Y3.8515 Z-0.074 I0. J-0.0235
Y3.8985 Z-0.0918 I0. J0.0235
Y3.8515 Z-0.1095 I0. J-0.0235
Y3.8985 Z-0.1272 I0. J0.0235
Y3.8515 Z-0.1449 I0. J-0.0235
Y3.8985 Z-0.1627 I0. J0.0235
Y3.8515 Z-0.1804 I0. J-0.0235
Y3.8985 Z-0.1981 I0. J0.0235
Y3.8515 Z-0.2158 I0. J-0.0235
Y3.8985 Z-0.2335 I0. J0.0235
Y3.8515 Z-0.2513 I0. J-0.0235
Y3.8985 Z-0.269 I0. J0.0235
X-10.2218 Y3.8662 Z-0.28 I0. J-0.0235
X-10.1782 Y3.8838 I0.0218 J0.0088
X-10.2218 Y3.8662 I-0.0218 J-0.0088
X-10.2065 Y3.8597 I0.0109 J0.0044
G1 X-10.1994 Y3.8626
X-10.1966 Y3.8637 Z-0.2797
X-10.1939 Y3.8648 Z-0.2788
X-10.1914 Y3.8658 Z-0.2774
X-10.1893 Y3.8667 Z-0.2755
X-10.1875 Y3.8674 Z-0.2732
X-10.1862 Y3.8679 Z-0.2705
X-10.1854 Y3.8682 Z-0.2676
X-10.1851 Y3.8684 Z-0.2646
G0 Z0.4
X-11.1882 Y3.8637
Z0.13
G1 Z0.0654 F40.
G19 G3 Y3.8791 Z0.05 J0.0154 K0.
G1 Y3.8867
G17 G3 X-11.2 Y3.8985 I-0.0118 J0.
Y3.8515 Z0.0323 I0. J-0.0235
Y3.8985 Z0.0146 I0. J0.0235
Y3.8515 Z-0.0032 I0. J-0.0235
Y3.8985 Z-0.0209 I0. J0.0235
Y3.8515 Z-0.0386 I0. J-0.0235
Y3.8985 Z-0.0563 I0. J0.0235
Y3.8515 Z-0.074 I0. J-0.0235
Y3.8985 Z-0.0918 I0. J0.0235
Y3.8515 Z-0.1095 I0. J-0.0235
Y3.8985 Z-0.1272 I0. J0.0235
Y3.8515 Z-0.1449 I0. J-0.0235
Y3.8985 Z-0.1627 I0. J0.0235
Y3.8515 Z-0.1804 I0. J-0.0235
Y3.8985 Z-0.1981 I0. J0.0235
Y3.8515 Z-0.2158 I0. J-0.0235
Y3.8985 Z-0.2335 I0. J0.0235
Y3.8515 Z-0.2513 I0. J-0.0235
Y3.8985 Z-0.269 I0. J0.0235
X-11.2218 Y3.8662 Z-0.28 I0. J-0.0235
X-11.1782 Y3.8838 I0.0218 J0.0088
X-11.2218 Y3.8662 I-0.0218 J-0.0088
X-11.2065 Y3.8597 I0.0109 J0.0044
G1 X-11.1994 Y3.8626
X-11.1966 Y3.8637 Z-0.2797
X-11.1939 Y3.8648 Z-0.2788
X-11.1914 Y3.8658 Z-0.2774
X-11.1893 Y3.8667 Z-0.2755
X-11.1875 Y3.8674 Z-0.2732
X-11.1862 Y3.8679 Z-0.2705
X-11.1854 Y3.8682 Z-0.2676
X-11.1851 Y3.8684 Z-0.2646
G0 Z0.6
(SHAPE THROUGH HOLE)
M7
G0 X-9.4895 Y5.6272
Z0.6
Z0.1
G3 X-9.6343 Y5.6484 Z0.0595 I-0.0724 J0.0106 F50.
X-9.4895 Y5.6272 Z0.019 I0.0724 J-0.0106
X-9.6343 Y5.6484 Z-0.0216 I-0.0724 J0.0106
X-9.4895 Y5.6272 Z-0.0621 I0.0724 J-0.0106
X-9.6343 Y5.6484 Z-0.1026 I-0.0724 J0.0106
X-9.5672 Y5.5648 Z-0.1238 I0.0724 J-0.0106
X-9.4887 Y5.6378 Z-0.145 I0.0053 J0.073
X-9.635 I-0.0731 J0.
X-9.489 Y5.6318 I0.0731 J0.
G1 X-9.4887 Y5.6378
G3 X-9.617 Y5.7773 I-0.0773 J0.0577 F60.
G1 X-9.6398 Y5.6846
X-9.6515 Y5.6378
X-9.663 Y5.591
G3 X-9.4857 Y5.5043 I0.1103 J0.0008
G2 X-9.4287 Y5.7369 I17.7187 J-4.2119
G3 X-9.5949 Y5.8726 I-0.1325 J0.0073
G1 X-9.6053 Y5.8251
X-9.617 Y5.7773
G3 X-9.6122 Y5.7627 I0.0151 J-0.0031
X-9.5661 Y5.7765 I0.0188 J0.021
X-9.5794 Y5.8443 I-0.0761 J0.0203
X-9.5894 Y5.8552 I-0.0628 J-0.0475 F50.
G2 X-9.5941 Y5.8698 I0.0103 J0.0114
G1 X-9.5892 Y5.89 F60.
G2 X-9.3933 Y5.8802 I0.0948 J-0.0664
G3 X-9.4287 Y5.7369 I18.437 J-4.6352
G2 X-9.4397 Y5.7262 I-0.0148 J0.0042
X-9.4918 Y5.7737 I-0.0105 J0.0408
X-9.4185 Y5.8648 I0.1166 J-0.0188
X-9.4044 Y5.8694 I0.0433 J-0.1099 F50.
G3 X-9.3934 Y5.8801 I-0.0038 J0.0149
G1 X-9.3859 Y5.9105 F60.
G3 X-9.5598 Y6.0136 I-0.1217 J-0.007
G1 X-9.5892 Y5.89
G3 X-9.5844 Y5.8753 I0.0151 J-0.0032
X-9.5625 Y5.8739 I0.0118 J0.0132
X-9.5443 Y5.9867 I-0.0444 J0.065
X-9.5544 Y5.9976 I-0.0626 J-0.0478 F50.
G2 X-9.5592 Y6.0122 I0.0103 J0.0115
G1 X-9.5533 Y6.0359 F60.
G2 X-9.3535 Y6.0398 I0.1011 J-0.0602
G1 X-9.3607 Y6.0124
X-9.3724 Y5.9656
X-9.3859 Y5.9105
G2 X-9.4142 Y5.9071 I-0.0148 J0.0042
X-9.4209 Y5.9414 I0.0491 J0.0275
X-9.377 Y6.0198 I0.1172 J-0.0143
X-9.3613 Y6.0303 I0.0733 J-0.0926 F50.
G3 X-9.354 Y6.0395 I-0.0075 J0.0134
G1 X-9.3474 Y6.0664 F60.
G3 X-9.5222 Y6.165 I-0.1193 J-0.0072
G1 X-9.5474 Y6.0593
X-9.5533 Y6.0359
G3 X-9.5485 Y6.0212 I0.0151 J-0.0032
X-9.5364 Y6.0194 I0.0074 J0.0082
G1 X-9.5348 Y6.0202
G3 X-9.5069 Y6.1386 I-0.0347 J0.0707
X-9.5169 Y6.1495 I-0.0626 J-0.0477 F50.
G2 X-9.5217 Y6.1641 I0.0103 J0.0115
G1 X-9.515 Y6.1912 F60.
G2 X-9.315 Y6.1951 I0.1013 J-0.0634
G1 X-9.3275 Y6.1478
X-9.3474 Y6.0664
G2 X-9.3585 Y6.0556 I-0.0148 J0.0042
X-9.3706 Y6.0599 I-0.0029 J0.0112
G1 X-9.3713 Y6.0608
G2 X-9.3408 Y6.1789 I0.0635 J0.0466
X-9.3269 Y6.1838 I0.033 J-0.0715 F50.
G3 X-9.3158 Y6.1945 I-0.0037 J0.0149
G1 X-9.3087 Y6.2232 F60.
G3 X-9.4842 Y6.3193 I-0.12 J-0.0108
G1 X-9.5012 Y6.2466
X-9.515 Y6.1912
G3 X-9.5102 Y6.1766 I0.0151 J-0.0032
X-9.4964 Y6.1744 I0.0086 J0.0096
X-9.4688 Y6.2928 I-0.035 J0.0705
X-9.4788 Y6.3036 I-0.0625 J-0.0478 F50.
G2 X-9.4837 Y6.3182 I0.0103 J0.0115
G1 X-9.4767 Y6.3465 F60.
G2 X-9.2767 Y6.3499 I0.1012 J-0.0651
G1 X-9.2915 Y6.2934
X-9.3087 Y6.2232
G2 X-9.3198 Y6.2125 I-0.0148 J0.0042
X-9.335 Y6.2183 I-0.0035 J0.0137
X-9.3027 Y6.3336 I0.0654 J0.0439
X-9.2888 Y6.3385 I0.0331 J-0.0714 F50.
G3 X-9.2777 Y6.3492 I-0.0038 J0.0149
G1 X-9.2714 Y6.3745 F60.
G3 X-9.4459 Y6.4734 I-0.1186 J-0.0059
G1 X-9.455 Y6.4339
X-9.4767 Y6.3465
G3 X-9.472 Y6.3318 I0.0151 J-0.0032
X-9.4562 Y6.3299 I0.0093 J0.0103
X-9.4307 Y6.4472 I-0.0371 J0.0695
X-9.4407 Y6.458 I-0.0626 J-0.0478 F50.
G2 X-9.4455 Y6.4727 I0.0103 J0.0115
G1 X-9.4391 Y6.4988 F60.
G2 X-9.239 Y6.5039 I0.1017 J-0.0618
G1 X-9.2454 Y6.4808
X-9.2683 Y6.3871
X-9.2714 Y6.3745
G2 X-9.2825 Y6.3638 I-0.0148 J0.0042
X-9.2936 Y6.3676 I-0.0026 J0.0104
G1 X-9.295 Y6.3695
G2 X-9.2647 Y6.4877 I0.0634 J0.0467
X-9.2508 Y6.4926 I0.0331 J-0.0715 F50.
G3 X-9.2397 Y6.5033 I-0.0037 J0.0149
G1 X-9.2337 Y6.5275 F60.
G3 X-9.4079 Y6.6274 I-0.118 J-0.004
G1 X-9.4212 Y6.5711
X-9.4321 Y6.5276
X-9.4391 Y6.4988
G3 X-9.4343 Y6.4842 I0.0151 J-0.0031
X-9.4214 Y6.4823 I0.0078 J0.0088
G1 X-9.4205 Y6.4828
G3 X-9.3927 Y6.6012 I-0.0347 J0.0707
X-9.4027 Y6.6121 I-0.0626 J-0.0478 F50.
G2 X-9.4075 Y6.6267 I0.0103 J0.0115
G1 X-9.4007 Y6.6543 F60.
G2 X-9.2008 Y6.6582 I0.1012 J-0.0638
G1 X-9.2221 Y6.5744
X-9.2337 Y6.5275
G2 X-9.2527 Y6.5169 I-0.0148 J0.0042
X-9.2692 Y6.5373 I0.0063 J0.0219
X-9.2247 Y6.6379 I0.1178 J0.0081
X-9.209 Y6.6484 I0.0733 J-0.0926 F50.
G3 X-9.2017 Y6.6576 I-0.0075 J0.0134
G1 X-9.1992 Y6.6681 F60.
X-9.1959 Y6.681
G3 X-9.3697 Y6.7817 I-0.1177 J-0.0028
G1 X-9.3743 Y6.7608
X-9.3859 Y6.7149
X-9.4007 Y6.6543
G3 X-9.3959 Y6.6397 I0.0151 J-0.0031
X-9.3809 Y6.6378 I0.0089 J0.01
X-9.3545 Y6.7556 I-0.0362 J0.0699
X-9.3646 Y6.7665 I-0.0625 J-0.0479 F50.
G2 X-9.3694 Y6.7811 I0.0103 J0.0115
G1 X-9.3627 Y6.8086 F60.
G2 X-9.1628 Y6.8124 I0.1012 J-0.0639
G1 X-9.1874 Y6.7149
X-9.1959 Y6.681
G2 X-9.2242 Y6.6778 I-0.0148 J0.0043
X-9.2309 Y6.7095 I0.0489 J0.027
X-9.1866 Y6.792 I0.1177 J-0.0101
X-9.171 Y6.8025 I0.0733 J-0.0926 F50.
G3 X-9.1637 Y6.8118 I-0.0075 J0.0134
G1 X-9.1566 Y6.8406 F60.
G3 X-9.3318 Y6.9365 I-0.1199 J-0.0111
G1 X-9.3398 Y6.9023
X-9.3569 Y6.832
X-9.3627 Y6.8086
G3 X-9.3578 Y6.794 I0.0151 J-0.0031
X-9.3445 Y6.7922 I0.008 J0.0089
X-9.3167 Y6.9098 I-0.0352 J0.0704
X-9.3266 Y6.9207 I-0.0631 J-0.0472 F50.
G2 X-9.3313 Y6.9354 I0.0104 J0.0114
G1 X-9.3275 Y6.9502 F60.
X-9.3244 Y6.9628
G2 X-9.1246 Y6.9669 I0.1013 J-0.0638
G3 X-9.1566 Y6.8406 I25.5548 J-6.5395
G2 X-9.1677 Y6.8298 I-0.0148 J0.0042
X-9.1827 Y6.8356 I-0.0034 J0.0135
X-9.1505 Y6.9506 I0.0655 J0.0436
X-9.1366 Y6.9556 I0.0334 J-0.0713 F50.
G3 X-9.1255 Y6.9663 I-0.0038 J0.0149
G1 X-9.1198 Y6.9896 F60.
G3 X-9.294 Y7.09 I-0.1177 J-0.0029
G1 X-9.3107 Y7.0193
X-9.3165 Y6.9959
X-9.3244 Y6.9628
G3 X-9.3196 Y6.9482 I0.0151 J-0.0031
X-9.3046 Y6.9464 I0.0088 J0.0099
X-9.2788 Y7.064 I-0.0367 J0.0697
X-9.2888 Y7.0748 I-0.0625 J-0.0479 F50.
G2 X-9.2936 Y7.0894 I0.0103 J0.0115
G1 X-9.2875 Y7.113 F60.
X-9.2833 Y7.1201
X-9.2785 Y7.1269
X-9.2733 Y7.1333
X-9.2677 Y7.1393
X-9.2616 Y7.1449
X-9.2552 Y7.1501
X-9.2484 Y7.1548
X-9.2412 Y7.159
X-9.2338 Y7.1627
X-9.2262 Y7.1659
X-9.2183 Y7.1685
X-9.2103 Y7.1705
X-9.2022 Y7.172
X-9.194 Y7.1728
X-9.1857 Y7.1731
X-9.1775 Y7.1728
X-9.1692 Y7.172
X-9.1611 Y7.1705
X-9.1531 Y7.1685
X-9.1452 Y7.1659
X-9.1376 Y7.1627
X-9.1302 Y7.159
X-9.1231 Y7.1548
X-9.1163 Y7.1501
X-9.1098 Y7.145
X-9.1038 Y7.1393
X-9.0981 Y7.1333
X-9.0929 Y7.1269
X-9.095 Y7.0896
X-9.1068 Y7.0428
X-9.1198 Y6.9896
G2 X-9.1309 Y6.9788 I-0.0148 J0.0042
X-9.1699 Y7.0099 I-0.0077 J0.0304
X-9.1149 Y7.107 I0.1181 J-0.0028
X-9.1019 Y7.1141 I0.0631 J-0.0999 F50.
G3 X-9.0931 Y7.1267 I-0.0065 J0.0139
X-9.2843 Y7.1131 I-0.0954 J-0.0101 F60.
G0 X-9.2875 Y7.113 Z0.4
X-9.6366 Y5.6287
Z-0.1142
G1 Z-0.1296 F50.
X-9.6369 Y5.6285 Z-0.1326
X-9.6375 Y5.6278 Z-0.1355
X-9.6385 Y5.6268 Z-0.1382
X-9.6398 Y5.6255 Z-0.1405
X-9.6414 Y5.6238 Z-0.1424
X-9.6433 Y5.6219 Z-0.1438
X-9.6453 Y5.6198 Z-0.1447
X-9.6474 Y5.6177 Z-0.145
G3 X-9.663 Y5.591 I0.0444 J-0.0437
G1 X-9.6802 Y5.5207 F60.
G3 X-9.5099 Y5.4044 I0.1255 J0.0009
G1 X-9.4992 Y5.4505
X-9.4859 Y5.5046
G3 X-9.4907 Y5.5192 I-0.0151 J0.0031
X-9.5349 Y5.5092 I-0.0185 J-0.0207
X-9.5251 Y5.4315 I0.0727 J-0.0303
X-9.5152 Y5.4206 I0.0629 J0.0474 F50.
G2 X-9.5104 Y5.4059 I-0.0103 J-0.0114
G1 X-9.5161 Y5.3828 F60.
G2 X-9.714 Y5.3858 I-0.0979 J0.0655
G1 X-9.6977 Y5.4505
X-9.686 Y5.4973
X-9.6802 Y5.5207
G2 X-9.6519 Y5.524 I0.0148 J-0.0042
X-9.6457 Y5.5012 I-0.0429 J-0.024
X-9.6905 Y5.4059 I-0.1181 J-0.0027
X-9.7061 Y5.3954 I-0.0733 J0.0926 F50.
G3 X-9.7134 Y5.3862 I0.0075 J-0.0134
G1 X-9.7206 Y5.3568 F60.
G3 X-9.546 Y5.2574 I0.1207 J0.0089
G1 X-9.5454 Y5.2631
X-9.5224 Y5.3568
X-9.5161 Y5.3828
G3 X-9.521 Y5.3974 I-0.0151 J0.0031
X-9.5389 Y5.3991 I-0.0101 J-0.0113
X-9.5612 Y5.2841 I0.0405 J-0.0675
X-9.5513 Y5.2732 I0.0629 J0.0474 F50.
G2 X-9.5466 Y5.2586 I-0.0103 J-0.0114
G1 X-9.5537 Y5.2304 F60.
G2 X-9.7531 Y5.2287 I-0.1003 J0.0662
G1 X-9.7439 Y5.2631
X-9.7321 Y5.31
X-9.7206 Y5.3568
G2 X-9.7096 Y5.3675 I0.0148 J-0.0042
X-9.6973 Y5.3631 I0.0029 J-0.0113
X-9.7272 Y5.2451 I-0.0633 J-0.0468
X-9.7411 Y5.2401 I-0.0334 J0.0713 F50.
G3 X-9.7522 Y5.2293 I0.0038 J-0.0149
G1 X-9.7585 Y5.2034 F60.
G3 X-9.5839 Y5.1044 I0.119 J0.0063
G2 X-9.5537 Y5.2304 I6.6625 J-1.5344
G3 X-9.5584 Y5.245 I-0.0151 J0.0032
X-9.5756 Y5.2469 I-0.0099 J-0.0109
X-9.5992 Y5.1307 I0.0389 J-0.0684
X-9.5892 Y5.1198 I0.0626 J0.0478 F50.
G2 X-9.5844 Y5.1052 I-0.0103 J-0.0115
G1 X-9.59 Y5.0821 F60.
G2 X-9.7927 Y5.0763 I-0.1031 J0.058
G1 X-9.7783 Y5.1226
X-9.7585 Y5.2034
G2 X-9.7475 Y5.2142 I0.0148 J-0.0042
X-9.7304 Y5.2076 I0.0039 J-0.0153
X-9.7664 Y5.0911 I-0.0656 J-0.0435
X-9.7805 Y5.0869 I-0.0297 J0.0729 F50.
G3 X-9.7921 Y5.0767 I0.003 J-0.0151
G1 X-9.7924 Y5.0758 F60.
X-9.7963 Y5.071
X-9.7977 Y5.07
X-9.7994 Y5.062
X-9.8004 Y5.054
X-9.8009 Y5.0458
X-9.8007 Y5.0377
X-9.8 Y5.0296
X-9.7987 Y5.0216
X-9.7967 Y5.0137
X-9.7942 Y5.0059
X-9.7912 Y4.9984
X-9.7875 Y4.9911
X-9.7834 Y4.9841
X-9.7787 Y4.9774
X-9.7736 Y4.9711
X-9.768 Y4.9652
X-9.762 Y4.9597
X-9.7556 Y4.9547
X-9.7489 Y4.9502
X-9.7418 Y4.9461
X-9.7345 Y4.9426
X-9.7269 Y4.9397
X-9.7191 Y4.9373
X-9.7112 Y4.9355
X-9.7031 Y4.9343
X-9.695 Y4.9337
X-9.6869
X-9.6788 Y4.9343
X-9.6707 Y4.9355
X-9.6628 Y4.9372
X-9.655 Y4.9396
X-9.6474 Y4.9425
X-9.6401 Y4.946
G3 X-9.59 Y5.0821 I-0.1618 J0.1367
X-9.5948 Y5.0967 I-0.0151 J0.0032
X-9.6122 Y5.0965 I-0.0086 J-0.0096
X-9.6434 Y4.973 I0.0809 J-0.0861
X-9.6379 Y4.9593 I0.112 J0.0374 F50.
G2 X-9.639 Y4.944 I-0.0139 J-0.0067
G1 X-9.6454 Y4.9353 F60.
X-9.6557 Y4.9266
X-9.7025 Y4.8984
G2 X-9.8886 Y5.0125 I-0.0516 J0.1246
G1 X-9.8432 Y5.0383
X-9.7977 Y5.07
G2 X-9.7824 Y5.0708 I0.0084 J-0.0129
X-9.7755 Y5.0231 I-0.0134 J-0.0262
X-9.8563 Y5.0063 I-0.0541 J0.0572
X-9.8697 Y5.0126 I0.0267 J0.0741 F50.
G3 X-9.8851 Y5.0128 I-0.0078 J-0.0133
G1 X-9.8901 Y5.0097 F60.
X-9.9043 Y5.0013
G3 X-9.8328 Y4.8199 I0.0925 J-0.0684
G1 X-9.796 Y4.8416
X-9.7494 Y4.87
X-9.7025 Y4.8984
G3 X-9.6956 Y4.9121 I-0.0084 J0.0129
X-9.7527 Y4.9481 I-0.0414 J-0.0022
X-9.8255 Y4.8482 I0.045 J-0.1092
X-9.8257 Y4.8334 I0.1177 J-0.0093 F50.
G2 X-9.8328 Y4.8197 I-0.0154 J-0.0007
G1 X-9.8432 Y4.8136 F60.
X-9.8585 Y4.8042
G2 X-10.0119 Y4.937 I-0.0333 J0.1165
G1 X-9.9682 Y4.9627
X-9.9364 Y4.9821
X-9.9043 Y5.0013
G2 X-9.8889 Y5.001 I0.0074 J-0.0135
X-9.8809 Y4.9787 I-0.0097 J-0.0161
X-9.9817 Y4.9304 I-0.0744 J0.0259
X-9.9951 Y4.9367 I0.0265 J0.0742 F50.
G3 X-10.0105 Y4.9368 I-0.0078 J-0.0133
G1 X-10.013 Y4.9353 F60.
X-10.0307 Y4.9246
G3 X-9.9749 Y4.7333 I0.0871 J-0.0784
X-9.8585 Y4.8042 I-1.4484 J2.509
X-9.8639 Y4.8321 I-0.0085 J0.0128
X-9.8836 Y4.8315 I-0.0085 J-0.0418
X-9.9624 Y4.7613 I0.0309 J-0.114
X-9.968 Y4.7433 I0.1097 J-0.0438 F50.
G2 X-9.9747 Y4.7337 I-0.015 J0.0034
G1 X-9.9838 Y4.7284 F60.
X-9.9987 Y4.7193
G2 X-10.1448 Y4.8569 I-0.0283 J0.1163
G1 X-10.1245 Y4.8681
X-10.0776 Y4.8967
X-10.0307 Y4.9246
G2 X-10.0153 Y4.9243 I0.0074 J-0.0135
X-10.0096 Y4.912 I-0.0063 J-0.0105
X-10.115 Y4.8499 I-0.0779 J0.0117
X-10.1283 Y4.8564 I0.0276 J0.0738 F50.
G3 X-10.1363 Y4.8586 I-0.008 J-0.0132
G1 X-10.1388 Y4.8584
X-10.1413 Y4.8578
X-10.1437 Y4.8567
X-10.1666 Y4.8431 F60.
G3 X-10.1117 Y4.6503 I0.0889 J-0.0789
G1 X-10.0776 Y4.672
X-10.0284 Y4.7011
X-9.9987 Y4.7193
G3 X-9.9918 Y4.7331 I-0.0085 J0.0129
X-10.0001 Y4.7444 I-0.0129 J-0.0008
X-10.1042 Y4.6798 I-0.026 J-0.0743
X-10.1047 Y4.665 I0.0781 J-0.0097 F50.
G2 X-10.1115 Y4.6512 I-0.0154 J-0.001
G1 X-10.1245 Y4.6431 F60.
X-10.1331 Y4.6378
G2 X-10.2804 Y4.7745 I-0.0308 J0.1145
G3 X-10.1666 Y4.8431 I-4.1689 J7.0431
G2 X-10.1513 Y4.8427 I0.0074 J-0.0135
X-10.1454 Y4.8305 I-0.0064 J-0.0105
X-10.2509 Y4.7676 I-0.078 J0.0109
X-10.2642 Y4.774 I0.0275 J0.0738 F50.
G3 X-10.2722 Y4.7763 I-0.008 J-0.0132
G1 X-10.2748 Y4.776
X-10.2773 Y4.7754
X-10.2796 Y4.7744
X-10.3012 Y4.7615 F60.
G3 X-10.248 Y4.5679 I0.0872 J-0.0801
X-10.1331 Y4.6378 I-13.84 J22.9118
X-10.1289 Y4.6591 I-0.0086 J0.0128
X-10.1557 Y4.6692 I-0.0205 J-0.0138
X-10.236 Y4.5965 I0.0303 J-0.1142
X-10.2412 Y4.5784 I0.1106 J-0.0415 F50.
G2 X-10.2478 Y4.5687 I-0.0151 J0.0031
G1 X-10.2609 Y4.5606 F60.
X-10.2737 Y4.5531
G2 X-10.4169 Y4.693 I-0.0238 J0.1189
G3 X-10.3012 Y4.7615 I-3.9489 J6.8007
G2 X-10.2791 Y4.7437 I0.0074 J-0.0135
X-10.2939 Y4.7202 I-0.0486 J0.0142
X-10.3855 Y4.6907 I-0.0788 J0.088
X-10.404 Y4.6943 I0.0128 J0.1174 F50.
G3 X-10.4157 Y4.6928 I-0.0041 J-0.0148
G1 X-10.4404 Y4.6776 F60.
G3 X-10.3836 Y4.4851 I0.0923 J-0.0774
G2 X-10.2737 Y4.5531 I1.1267 J-1.6976
G3 X-10.2666 Y4.5667 I-0.0083 J0.013
X-10.2791 Y4.582 I-0.0164 J-0.0007
X-10.3762 Y4.5149 I-0.0189 J-0.0764
X-10.3766 Y4.5001 I0.0782 J-0.0093 F50.
G2 X-10.3833 Y4.4862 I-0.0154 J-0.0011
G1 X-10.4058 Y4.4721 F60.
G2 X-10.5527 Y4.6106 I-0.0292 J0.1162
G3 X-10.4404 Y4.6776 I-1.2332 J2.1973
G2 X-10.425 Y4.6775 I0.0076 J-0.0134
X-10.4187 Y4.6638 I-0.0066 J-0.0113
X-10.523 Y4.6039 I-0.0775 J0.0141
X-10.5364 Y4.6103 I0.0268 J0.074 F50.
G3 X-10.5518 Y4.6105 I-0.0079 J-0.0132
G1 X-10.5567 Y4.6075 F60.
X-10.575 Y4.5962
G3 X-10.5218 Y4.4037 I0.0896 J-0.0789
G1 X-10.5194 Y4.4054
X-10.5174 Y4.4075
X-10.5158 Y4.4099
X-10.5147 Y4.4126
X-10.5141 Y4.4154
X-10.514 Y4.4183
X-10.5144 Y4.4211
X-10.517 Y4.4324
X-10.5519 Y4.5841
X-10.5524 Y4.5862 F50.
G3 X-10.575 Y4.5962 I-0.015 J-0.0034
G1 X-10.5933 Y4.5849 F60.
X-10.6352 Y4.5606
X-10.6367 Y4.5598
X-10.6378 Y4.5592
X-10.6395 Y4.5581
X-10.6402 Y4.5576
X-10.6409 Y4.557
X-10.6415 Y4.5563
G3 X-10.6419 Y4.5404 I0.0098 J-0.0082
X-10.6202 Y4.5432 I0.01 J0.0076
X-10.6378 Y4.5592 I-0.0117 J0.0048 F50.
G1 X-10.6402 Y4.5577 F60.
X-10.6475 Y4.5497
G3 X-10.6474 Y4.3976 I0.1119 J-0.076
X-10.6219 Y4.4091 I0.0101 J0.0116
G1 X-10.6211 Y4.5389
X-10.6213 Y4.5417
X-10.6221 Y4.5444
G3 X-10.6475 Y4.5497 I-0.0144 J-0.0055 F50.
G1 X-10.6535 Y4.5448 F60.
X-10.6591 Y4.5394
X-10.6642 Y4.5335
X-10.6689 Y4.5273
X-10.673 Y4.5208
X-10.6766 Y4.5139
X-10.6797 Y4.5068
X-10.6822 Y4.4994
X-10.6841 Y4.4919
X-10.6853 Y4.4842
X-10.686 Y4.4765
Y4.4687
X-10.6855 Y4.461
X-10.6843 Y4.4533
X-10.6825 Y4.4458
X-10.6801 Y4.4384
X-10.6771 Y4.4312
X-10.6736 Y4.4243
X-10.6695 Y4.4177
X-10.6649 Y4.4114
X-10.6599 Y4.4056
X-10.6543 Y4.4001
X-10.6484 Y4.3951
X-10.6421 Y4.3906
X-10.6354 Y4.3866
X-10.6285 Y4.3832
X-10.6213 Y4.3803
X-10.6139 Y4.378
X-10.6063 Y4.3763
X-10.5986 Y4.3752
X-10.5909 Y4.3747
X-10.5831 Y4.3748
X-10.5754 Y4.3756
X-10.5677 Y4.3769
X-10.5602 Y4.3789
X-10.5529 Y4.3815
X-10.5458 Y4.3846
X-10.539 Y4.3883
X-10.5325 Y4.3925
X-10.5263 Y4.3973
X-10.5206 Y4.4025
X-10.5152 Y4.4081
X-10.5104 Y4.4142
X-10.506 Y4.4206
G3 X-10.4058 Y4.4721 I-0.2573 J0.6234
X-10.4065 Y4.4981 I-0.0086 J0.0128
G1 X-10.4091 Y4.4996 Z-0.1447
X-10.4116 Y4.5011 Z-0.1438
X-10.4139 Y4.5025 Z-0.1424
X-10.4159 Y4.5037 Z-0.1405
X-10.4175 Y4.5047 Z-0.1382
X-10.4187 Y4.5054 Z-0.1355
X-10.4195 Y4.5059 Z-0.1326
X-10.4197 Y4.506 Z-0.1296
G0 Z0.4
X-5.5043 Y3.7539
Z0.1
G3 X-5.6491 Y3.7751 Z0.0595 I-0.0724 J0.0106 F50.
X-5.5043 Y3.7539 Z0.019 I0.0724 J-0.0106
X-5.6491 Y3.7751 Z-0.0216 I-0.0724 J0.0106
X-5.5043 Y3.7539 Z-0.0621 I0.0724 J-0.0106
X-5.6491 Y3.7751 Z-0.1026 I-0.0724 J0.0106
X-5.582 Y3.6915 Z-0.1238 I0.0724 J-0.0106
X-5.5036 Y3.7645 Z-0.145 I0.0053 J0.073
X-5.6499 I-0.0732 J0.
X-5.5038 Y3.7585 I0.0732 J0.
G1 X-5.5036 Y3.7645
G3 X-5.4855 Y3.8347 I-0.053 J0.051 F60.
G1 X-5.5135 Y3.8582
X-5.5298 Y3.8712
X-5.5534 Y3.8886
G3 X-5.7308 Y3.7774 I-0.0555 J-0.1085
X-5.5767 Y3.6726 I1.9248 J2.6651
X-5.4853 Y3.8349 I0.027 J0.0917
G1 X-5.4875 Y3.8363
X-5.4899 Y3.8374
X-5.4924 Y3.8381
X-5.495 Y3.8383
G2 X-5.5036 Y3.8412 I0.0004 J0.0154
G1 X-5.5128 Y3.8479
X-5.5343 Y3.8636
G2 X-5.5394 Y3.8701 I0.0091 J0.0124 F50.
G3 X-5.5534 Y3.8886 I-0.0431 J-0.018
G1 X-5.5754 Y3.905 F60.
X-5.6236 Y3.9389
X-5.6321 Y3.9422
X-5.6407 Y3.9449
X-5.6496 Y3.9471
X-5.6585 Y3.9486
X-5.6676 Y3.9495
X-5.6767 Y3.9497
X-5.6858 Y3.9494
X-5.6948 Y3.9484
X-5.7037 Y3.9468
X-5.7126 Y3.9447
X-5.7212 Y3.9419
X-5.7297 Y3.9385
X-5.7379 Y3.9346
X-5.7458 Y3.9301
X-5.7533 Y3.9251
X-5.7606 Y3.9195
X-5.7674 Y3.9135
X-5.7738 Y3.9071
X-5.7797 Y3.9002
X-5.7852 Y3.893
X-5.7901 Y3.8853
X-5.7946 Y3.8774
X-5.7984 Y3.8692
X-5.8017 Y3.8607
X-5.8044 Y3.852
X-5.8066 Y3.8432
X-5.8081 Y3.8342
X-5.7749 Y3.8113
X-5.7642 Y3.8032
X-5.7287 Y3.7774
G3 X-5.7133 Y3.7763 I0.0086 J0.0128
X-5.7086 Y3.8242 I-0.0124 J0.0254
X-5.776 Y3.8377 I-0.0476 J-0.0628
X-5.7899 Y3.8326 I0.0199 J-0.0762 F50.
G2 X-5.8053 Y3.8338 I-0.0066 J0.0139
G1 X-5.8219 Y3.8461 F60.
G2 X-5.7384 Y4.0241 I0.0981 J0.0626
G1 X-5.6236 Y3.9389
G2 X-5.6179 Y3.9246 I-0.0095 J-0.0121
X-5.6847 Y3.8962 I-0.042 J0.0061
X-5.734 Y3.9949 I0.0688 J0.096
X-5.7327 Y4.0096 I0.1181 J-0.0027 F50.
G3 X-5.7384 Y4.0239 I-0.0152 J0.0023
G1 X-5.7642 Y4.0431 F60.
G3 X-5.9252 Y3.9203 I-0.0382 J-0.1169
G2 X-5.8219 Y3.8461 I-3.3945 J-4.8376
G3 X-5.8065 Y3.8449 I0.0087 J0.0127
X-5.7968 Y3.8647 I-0.0077 J0.0161
X-5.8944 Y3.9245 I-0.0771 J-0.0162
X-5.9082 Y3.9193 I0.0205 J-0.076 F50.
G2 X-5.9236 Y3.9204 I-0.0067 J0.0139
G1 X-5.9457 Y3.9365 F60.
G2 X-5.8713 Y4.1217 I0.0981 J0.0681
G1 X-5.8111 Y4.0763
X-5.7642 Y4.0431
G2 X-5.7586 Y4.0288 I-0.0096 J-0.012
X-5.7678 Y4.0185 I-0.0123 J0.0018
X-5.8662 Y4.0916 I-0.0197 J0.0762
X-5.8654 Y4.1064 I0.0787 J0.0032 F50.
G3 X-5.8711 Y4.1207 I-0.0152 J0.0023
G1 X-5.8906 Y4.1352 F60.
G3 X-6.051 Y4.0131 I-0.0427 J-0.1102
G2 X-5.9457 Y3.9365 I-2.8976 J-4.091
G3 X-5.9304 Y3.9354 I0.0086 J0.0128
X-5.9226 Y3.9495 I-0.0061 J0.0126
X-6.0211 Y4.0172 I-0.0783 J-0.0084
X-6.0349 Y4.0121 I0.0202 J-0.0761 F50.
G2 X-6.0503 Y4.0132 I-0.0067 J0.0139
G1 X-6.072 Y4.0292 F60.
G2 X-6.0002 Y4.2157 I0.096 J0.0701
G1 X-5.8906 Y4.1352
G2 X-5.8985 Y4.1078 I-0.0096 J-0.012
X-5.9368 Y4.116 I-0.007 J0.0615
X-5.9907 Y4.186 I0.0599 J0.1018
X-5.9943 Y4.2045 I0.1138 J0.0318 F50.
G3 X-6. Y4.2148 I-0.0153 J-0.0017
G1 X-6.0191 Y4.2289 F60.
G3 X-6.1786 Y4.1068 I-0.0427 J-0.1095
G2 X-6.072 Y4.0292 I-11.8405 J-16.3673
G3 X-6.0567 Y4.028 I0.0087 J0.0127
X-6.0501 Y4.0392 I-0.005 J0.0105
G1 Y4.0402
G3 X-6.1488 Y4.1108 I-0.0785 J-0.0055
X-6.1627 Y4.1057 I0.0201 J-0.0761 F50.
G2 X-6.178 Y4.1069 I-0.0066 J0.0139
G1 X-6.1862 Y4.1129 F60.
X-6.2002 Y4.123
G2 X-6.1283 Y4.3097 I0.0964 J0.0701
G1 X-6.0878 Y4.2796
X-6.0191 Y4.2289
G2 X-6.0167 Y4.2073 I-0.0096 J-0.012
X-6.0394 Y4.2002 I-0.0166 J0.0132
X-6.1185 Y4.2801 I0.0343 J0.113
X-6.1223 Y4.2985 I0.1134 J0.0331 F50.
G3 X-6.1281 Y4.3088 I-0.0153 J-0.0019
G1 X-6.1393 Y4.3169 F60.
X-6.1493 Y4.3245
G3 X-6.3067 Y4.2044 I-0.0396 J-0.1112
X-6.2002 Y4.123 I0.8497 J1.0016
X-6.1789 Y4.1273 I0.0086 J0.0128
X-6.1783 Y4.1392 I-0.0097 J0.0065
X-6.276 Y4.2016 I-0.1042 J-0.0556
X-6.2948 Y4.2011 I-0.0065 J-0.1179 F50.
G2 X-6.3061 Y4.2044 I-0.0016 J0.0153
G1 X-6.3269 Y4.2225 F60.
G2 X-6.2234 Y4.4133 I0.1047 J0.0667
G3 X-6.1493 Y4.3245 I0.1734 J0.0694
G2 X-6.1439 Y4.3101 I-0.0098 J-0.0119
X-6.2001 Y4.2842 I-0.0368 J0.0061
X-6.2317 Y4.3829 I0.0407 J0.0674
X-6.2245 Y4.3959 I0.0723 J-0.0313 F50.
G3 X-6.2234 Y4.4112 I-0.0127 J0.0086
G1 X-6.2281 Y4.4201 F60.
X-6.2308 Y4.4263
G3 X-6.4142 Y4.3648 I-0.0727 J-0.0873
X-6.3269 Y4.2225 I0.3225 J0.0999
X-6.3117 Y4.2201 I0.0097 J0.012
X-6.2918 Y4.2532 I-0.0111 J0.0292
X-6.3867 Y4.3544 I-0.1172 J-0.0148
X-6.4014 Y4.3563 I-0.0223 J-0.116 F50.
G2 X-6.4142 Y4.3648 I0.001 J0.0154
G1 X-6.418 Y4.3733 F60.
X-6.4296 Y4.3997
G2 X-6.2792 Y4.5385 I0.1233 J0.0173
G1 X-6.2313 Y4.4273
X-6.2308 Y4.4263
G2 X-6.233 Y4.411 I-0.0143 J-0.0058
X-6.2616 Y4.406 I-0.0171 J0.0133
X-6.2898 Y4.5088 I0.0418 J0.0667
X-6.2818 Y4.5213 I0.07 J-0.0361 F50.
G3 X-6.2796 Y4.5365 I-0.0121 J0.0095
G1 X-6.2903 Y4.5606 F60.
G3 X-6.4851 Y4.5241 I-0.0855 J-0.0816
G1 X-6.4296 Y4.3997
G3 X-6.4012 Y4.4013 I0.0139 J0.0067
X-6.3996 Y4.4317 I-0.0512 J0.0179
X-6.4584 Y4.5084 I-0.115 J-0.0271
X-6.4756 Y4.516 I-0.0562 J-0.1039 F50.
G2 X-6.4844 Y4.5239 I0.0051 J0.0145
G1 X-6.4952 Y4.5484 F60.
G2 X-6.3415 Y4.6788 I0.1182 J0.0164
G3 X-6.2903 Y4.5606 I5.0811 J2.1322
G2 X-6.2925 Y4.5454 I-0.0143 J-0.0057
X-6.3094 Y4.5407 I-0.0117 J0.0092
X-6.3518 Y4.6502 I0.0278 J0.0737
X-6.3439 Y4.6626 I0.0701 J-0.0358 F50.
G3 X-6.3418 Y4.6779 I-0.0122 J0.0094
G1 X-6.3522 Y4.7011 F60.
G3 X-6.55 Y4.6714 I-0.0895 J-0.0772
G1 X-6.5212 Y4.6075
X-6.5144 Y4.5921
X-6.4952 Y4.5484
G3 X-6.4668 Y4.55 I0.0139 J0.0067
X-6.4658 Y4.5845 I-0.0536 J0.0187
X-6.5233 Y4.6557 I-0.1135 J-0.0328
X-6.5406 Y4.6633 I-0.0559 J-0.104 F50.
G2 X-6.5494 Y4.6711 I0.005 J0.0145
G1 X-6.5613 Y4.698 F60.
G2 X-6.4053 Y4.8234 I0.12 J0.0105
G1 X-6.3936 Y4.7948
X-6.3728 Y4.748
X-6.3522 Y4.7011
G2 X-6.3544 Y4.6859 I-0.0143 J-0.0057
X-6.3657 Y4.6821 I-0.0085 J0.0067
G1 X-6.3678 Y4.6827
G2 X-6.4159 Y4.7945 I0.0219 J0.0756
X-6.4079 Y4.8069 I0.0699 J-0.0362 F50.
G3 X-6.4057 Y4.8222 I-0.0121 J0.0095
G1 X-6.4162 Y4.846 F60.
G3 X-6.6146 Y4.8173 I-0.0901 J-0.0773
G1 X-6.6042 Y4.7948
X-6.5833 Y4.748
X-6.5613 Y4.698
G3 X-6.5485 Y4.6894 I0.0138 J0.0067
X-6.5362 Y4.696 I0.0009 J0.0131
G1 X-6.5357 Y4.697
G3 X-6.5866 Y4.8058 I-0.0716 J0.0327
X-6.6012 Y4.8083 I-0.0206 J-0.076 F50.
G2 X-6.6139 Y4.817 I0.0012 J0.0154
G1 X-6.6247 Y4.8416 F60.
G2 X-6.4691 Y4.968 I0.1183 J0.0133
G1 X-6.4556 Y4.9353
X-6.435 Y4.8885
X-6.4162 Y4.846
G2 X-6.4183 Y4.8307 I-0.0143 J-0.0058
X-6.4303 Y4.8267 I-0.009 J0.0071
G1 X-6.4317 Y4.8271
G2 X-6.4798 Y4.9395 I0.0215 J0.0757
X-6.4717 Y4.9519 I0.0696 J-0.0367 F50.
G3 X-6.4694 Y4.9671 I-0.012 J0.0096
G1 X-6.4759 Y4.9821 F60.
X-6.4806 Y4.9925
G3 X-6.6788 Y4.9626 I-0.0894 J-0.0792
G1 X-6.6605 Y4.923
X-6.6247 Y4.8416
G3 X-6.612 Y4.833 I0.0139 J0.0067
X-6.6006 Y4.8394 I0.0009 J0.0117
X-6.6505 Y4.9511 I-0.0702 J0.0357
X-6.6651 Y4.9536 I-0.0203 J-0.0761 F50.
G2 X-6.6779 Y4.9622 I0.0011 J0.0154
G1 X-6.689 Y4.9874 F60.
G2 X-6.5337 Y5.1137 I0.1187 J0.0128
G1 X-6.5174 Y5.0758
X-6.4969 Y5.029
X-6.4806 Y4.9925
G2 X-6.4826 Y4.9773 I-0.0143 J-0.0058
X-6.4947 Y4.9732 I-0.0091 J0.007
G1 X-6.496 Y4.9736
G2 X-6.544 Y5.0851 I0.022 J0.0756
X-6.5361 Y5.0975 I0.0701 J-0.0359 F50.
G3 X-6.534 Y5.1128 I-0.0122 J0.0095
G1 X-6.5384 Y5.1226 F60.
X-6.544 Y5.1355
G3 X-6.7428 Y5.1078 I-0.0908 J-0.0755
G1 X-6.7074 Y5.029
X-6.7019 Y5.0167
X-6.689 Y4.9874
G3 X-6.6763 Y4.9787 I0.0139 J0.0067
X-6.6646 Y4.9853 I0.0009 J0.012
X-6.7148 Y5.0965 I-0.0705 J0.035
X-6.7294 Y5.0989 I-0.0203 J-0.0761 F50.
G2 X-6.7421 Y5.1075 I0.0011 J0.0154
G1 X-6.752 Y5.1297 F60.
G2 X-6.5979 Y5.2585 I0.1165 J0.0172
G1 X-6.5798 Y5.2163
X-6.559 Y5.1695
X-6.544 Y5.1355
G2 X-6.5526 Y5.1155 I-0.0143 J-0.0057
X-6.5784 Y5.1217 I-0.0085 J0.0214
X-6.6043 Y5.2283 I0.0887 J0.0779
X-6.5983 Y5.2461 I0.1146 J-0.0287 F50.
G3 X-6.5981 Y5.2579 I-0.0142 J0.0061
G1 X-6.6082 Y5.2806 F60.
G3 X-6.8069 Y5.253 I-0.0909 J-0.0753
G1 X-6.7904 Y5.2163
X-6.7695 Y5.1695
X-6.752 Y5.1297
G3 X-6.7235 Y5.1314 I0.0139 J0.0067
X-6.7222 Y5.1624 I-0.051 J0.0178
X-6.7803 Y5.2372 I-0.1145 J-0.0289
X-6.7975 Y5.2448 I-0.0564 J-0.1038 F50.
G2 X-6.8063 Y5.2527 I0.0051 J0.0145
G1 X-6.8109 Y5.2631 F60.
X-6.8168 Y5.276
G2 X-6.6622 Y5.4048 I0.1186 J0.0148
G3 X-6.6082 Y5.2806 I5.2276 J2.2004
G2 X-6.6103 Y5.2653 I-0.0143 J-0.0057
X-6.6468 Y5.2652 I-0.0183 J0.0143
X-6.6665 Y5.3761 I0.0924 J0.0736
X-6.6609 Y5.3898 I0.1121 J-0.0373 F50.
G3 X-6.6621 Y5.4052 I-0.0139 J0.0067
G1 X-6.6847 Y5.4358 F60.
X-6.6916 Y5.4412
X-6.699 Y5.446
X-6.7067 Y5.4504
X-6.7146 Y5.4542
X-6.7228 Y5.4574
X-6.7312 Y5.46
X-6.7398 Y5.462
X-6.7485 Y5.4635
X-6.7573 Y5.4643
X-6.7661 Y5.4645
X-6.7749 Y5.4641
X-6.7836 Y5.463
X-6.7923 Y5.4614
X-6.8008 Y5.4591
X-6.8091 Y5.4563
X-6.8172 Y5.4529
X-6.8251 Y5.4489
X-6.8326 Y5.4443
X-6.8399 Y5.4393
X-6.8467 Y5.4338
X-6.8532 Y5.4278
X-6.8592 Y5.4213
X-6.8647 Y5.4145
X-6.8698 Y5.4073
X-6.8743 Y5.3997
X-6.8783 Y5.3918
X-6.8817 Y5.3837
G2 X-6.8168 Y5.276 I-0.5526 J-0.406
G3 X-6.804 Y5.2676 I0.0137 J0.007
X-6.7895 Y5.2783 I0.0008 J0.0141
X-6.8523 Y5.3745 I-0.0765 J0.0187
X-6.867 Y5.3757 I-0.0137 J-0.0775 F50.
G2 X-6.8804 Y5.3833 I-0.0002 J0.0154
G1 X-6.8895 Y5.3997 F60.
X-6.8939 Y5.4083
G2 X-6.7488 Y5.5484 I0.119 J0.0219
G3 X-6.6847 Y5.4358 I0.3979 J0.1521
G2 X-6.6835 Y5.4205 I-0.0127 J-0.0087
X-6.7035 Y5.4109 I-0.0159 J0.0076
X-6.7573 Y5.5189 I0.0184 J0.0766
X-6.7502 Y5.5318 I0.0722 J-0.0314 F50.
G3 X-6.749 Y5.5472 I-0.0127 J0.0087
G1 X-6.7608 Y5.5696 F60.
G3 X-6.9559 Y5.5264 I-0.0839 J-0.0836
G2 X-6.8939 Y5.4083 I-6.5211 J-3.4998
G3 X-6.873 Y5.4024 I0.0134 J0.0075
X-6.8617 Y5.4264 I-0.0111 J0.0199
X-6.9283 Y5.5124 I-0.1162 J-0.0212
X-6.946 Y5.5189 I-0.0496 J-0.1072 F50.
G2 X-6.9553 Y5.5262 I0.0042 J0.0148
G1 X-6.9645 Y5.5441 F60.
X-6.9673 Y5.5495
G2 X-6.8216 Y5.6872 I0.1165 J0.0226
G1 X-6.7957 Y5.6366
X-6.772 Y5.591
X-6.7608 Y5.5696
G2 X-6.762 Y5.5543 I-0.0139 J-0.0067
X-6.7743 Y5.5493 I-0.0099 J0.0067
X-6.8302 Y5.6581 I0.0161 J0.0771
X-6.823 Y5.671 I0.0721 J-0.0317 F50.
G3 X-6.8218 Y5.6863 I-0.0127 J0.0087
G1 X-6.8341 Y5.7102 F60.
G3 X-7.0297 Y5.6674 I-0.0841 J-0.084
G2 X-6.9673 Y5.5495 I-25.588 J-13.6075
G3 X-6.9541 Y5.5417 I0.0134 J0.0077
X-6.9442 Y5.5481 I0. J0.0108
G1 X-6.9432 Y5.5503
G3 X-7.0009 Y5.6579 I-0.0726 J0.0304
X-7.0156 Y5.6594 I-0.015 J-0.0773 F50.
G2 X-7.0289 Y5.6671 I0.0001 J0.0154
G1 X-7.0381 Y5.6846 F60.
X-7.0425 Y5.6932
G2 X-6.8948 Y5.8282 I0.1191 J0.0181
G3 X-6.8341 Y5.7102 I3.4683 J1.7076
G2 X-6.8354 Y5.6948 I-0.0139 J-0.0066
X-6.8468 Y5.6902 I-0.0092 J0.0063
G1 X-6.8485 Y5.6906
G2 X-6.9034 Y5.7988 I0.0173 J0.0768
X-6.8962 Y5.8117 I0.0722 J-0.0314 F50.
G3 X-6.8951 Y5.8271 I-0.0127 J0.0087
G1 X-6.9072 Y5.8501 F60.
G3 X-7.1033 Y5.8089 I-0.085 J-0.0829
G2 X-7.0425 Y5.6932 I-6.0832 J-3.2707
G3 X-7.0293 Y5.6853 I0.0134 J0.0075
X-7.0174 Y5.6928 I0.0002 J0.0129
G1 X-7.0151 Y5.6993
X-7.0134 Y5.7059
X-7.0123 Y5.7127
X-7.0118 Y5.7196
X-7.0119 Y5.7265
X-7.0126 Y5.7333
X-7.0138 Y5.7401
X-7.0157 Y5.7467
X-7.0182 Y5.7531
X-7.0212 Y5.7593
X-7.0247 Y5.7653
X-7.0287 Y5.7708
X-7.0332 Y5.7761
X-7.0381 Y5.7808
X-7.0435 Y5.7852
X-7.0492 Y5.7891
X-7.0552 Y5.7924
X-7.0615 Y5.7952
X-7.068 Y5.7975
X-7.0747 Y5.7992
G3 X-7.0894 Y5.8008 I-0.0158 J-0.0771 F50.
G2 X-7.1026 Y5.8086 I0.0002 J0.0154
G1 X-7.1111 Y5.8251 F60.
X-7.1146 Y5.8318
G2 X-6.9684 Y5.9685 I0.1165 J0.0219
G1 X-6.9364 Y5.9061
X-6.9186 Y5.8719
X-6.9072 Y5.8501
G2 X-6.9083 Y5.8347 I-0.0139 J-0.0067
X-6.9189 Y5.8303 I-0.0087 J0.006
G1 X-6.9215 Y5.8308
G2 X-6.977 Y5.9394 I0.0166 J0.077
X-6.9698 Y5.9524 I0.0721 J-0.0317 F50.
G3 X-6.9686 Y5.9677 I-0.0127 J0.0087
G1 X-6.9801 Y5.9899 F60.
G3 X-7.1766 Y5.9492 I-0.0857 J-0.0813
G1 X-7.1146 Y5.8318
G3 X-7.1013 Y5.8241 I0.0133 J0.0077
G1 X-7.1012
G3 X-7.0904 Y5.8312 I0. J0.0118
G1 X-7.09 Y5.8321
G3 X-7.1479 Y5.9399 I-0.0726 J0.0304
X-7.1626 Y5.9413 I-0.0147 J-0.0773 F50.
G2 X-7.1759 Y5.949 I0. J0.0154
G1 X-7.1848 Y5.9656 F60.
X-7.1895 Y5.9742
G2 X-7.042 Y6.1095 I0.1183 J0.0191
G3 X-6.9801 Y5.9899 I7.663 J3.8901
G2 X-6.9874 Y5.9694 I-0.0139 J-0.0066
X-7.0141 Y5.974 I-0.0101 J0.0212
X-7.0465 Y6.0785 I0.0837 J0.0833
X-7.0417 Y6.0967 I0.1162 J-0.0212 F50.
G3 X-7.0423 Y6.1084 I-0.0145 J0.0051
G1 X-7.0542 Y6.1312 F60.
G3 X-7.2508 Y6.0898 I-0.0853 J-0.0825
G2 X-7.1895 Y5.9742 I-12.6915 J-6.8105
G3 X-7.1761 Y5.9666 I0.0133 J0.0078
X-7.1622 Y5.9764 I-0.0001 J0.0149
X-7.2219 Y6.0806 I-0.0741 J0.0267
X-7.2367 Y6.0819 I-0.0143 J-0.0774 F50.
G2 X-7.25 Y6.0895 I-0.0001 J0.0154
G1 X-7.259 Y6.1061 F60.
X-7.262 Y6.1123
G2 X-7.1154 Y6.25 I0.1166 J0.0227
G1 X-7.09 Y6.1998
X-7.0542 Y6.1312
G2 X-7.0732 Y6.1101 I-0.0139 J-0.0066
X-7.0995 Y6.1299 I0.0183 J0.0517
X-7.1197 Y6.2193 I0.0961 J0.0687
X-7.115 Y6.2375 I0.1163 J-0.0207 F50.
G3 X-7.1157 Y6.2492 I-0.0145 J0.0051
G1 X-7.128 Y6.2727 F60.
G3 X-7.3241 Y6.2311 I-0.0848 J-0.0834
G2 X-7.262 Y6.1123 I-2.7471 J-1.5106
G3 X-7.2337 Y6.1151 I0.0136 J0.0073
Y6.1442 I-0.048 J0.0146
X-7.2965 Y6.2169 I-0.113 J-0.0342
X-7.3141 Y6.2235 I-0.0502 J-0.1069 F50.
G2 X-7.3233 Y6.2309 I0.0043 J0.0148
G1 X-7.3314 Y6.2466 F60.
X-7.3359 Y6.2552
G2 X-7.189 Y6.391 I0.1174 J0.0204
G3 X-7.128 Y6.2727 I11.3148 J5.7599
G2 X-7.1292 Y6.2574 I-0.0139 J-0.0067
X-7.1408 Y6.2526 I-0.0094 J0.0064
G1 X-7.1423 Y6.2529
G2 X-7.1977 Y6.3618 I0.0166 J0.077
X-7.1905 Y6.3747 I0.072 J-0.0318 F50.
G3 X-7.1892 Y6.39 I-0.0127 J0.0088
G1 X-7.2009 Y6.4125 F60.
G3 X-7.3975 Y6.3717 I-0.0856 J-0.0817
X-7.3359 Y6.2552 I25.7575 J13.5321
X-7.3226 Y6.2475 I0.0133 J0.0077
X-7.3107 Y6.255 I0. J0.0132
G1 X-7.3084 Y6.2616
X-7.3066 Y6.2683
X-7.3054 Y6.2752
X-7.3048 Y6.2821
X-7.3049 Y6.2891
X-7.3055 Y6.2961
X-7.3068 Y6.3029
X-7.3087 Y6.3097
X-7.3112 Y6.3162
X-7.3142 Y6.3225
X-7.3178 Y6.3284
X-7.3219 Y6.3341
X-7.3265 Y6.3394
X-7.3315 Y6.3442
X-7.337 Y6.3486
X-7.3428 Y6.3524
X-7.3489 Y6.3558
X-7.3553 Y6.3586
X-7.3619 Y6.3608
X-7.3687 Y6.3624
G3 X-7.3835 Y6.3638 I-0.0148 J-0.0773 F50.
G2 X-7.3968 Y6.3715 I0. J0.0154
G1 X-7.4052 Y6.3873 F60.
X-7.4096 Y6.3959
G2 X-7.2623 Y6.5319 I0.1177 J0.0203
G3 X-7.2009 Y6.4125 I8.1644 J4.1277
G2 X-7.2082 Y6.392 I-0.0139 J-0.0066
X-7.2325 Y6.3961 I-0.0093 J0.0196
X-7.2665 Y6.501 I0.0824 J0.0846
X-7.2618 Y6.5192 I0.1164 J-0.0203 F50.
G3 X-7.2625 Y6.531 I-0.0146 J0.005
G1 X-7.275 Y6.5546 F60.
G3 X-7.4709 Y6.513 I-0.0846 J-0.0836
G1 X-7.4521 Y6.4772
X-7.429 Y6.4339
X-7.4096 Y6.3959
G3 X-7.3964 Y6.3879 I0.0135 J0.0075
X-7.3864 Y6.3943 I0.0002 J0.0107
G1 X-7.3855 Y6.3964
G3 X-7.4423 Y6.5031 I-0.073 J0.0296
X-7.4569 Y6.5047 I-0.0162 J-0.0771 F50.
G2 X-7.4701 Y6.5127 I0.0003 J0.0154
G1 X-7.4777 Y6.5276 F60.
X-7.4836 Y6.5385
G2 X-7.3359 Y6.673 I0.1187 J0.018
G3 X-7.275 Y6.5546 I8.5817 J4.3364
G2 X-7.2761 Y6.5393 I-0.0139 J-0.0067
X-7.2882 Y6.5343 I-0.0098 J0.0066
X-7.3447 Y6.6436 I0.0154 J0.0772
X-7.3375 Y6.6565 I0.0719 J-0.0321 F50.
G3 X-7.3362 Y6.6718 I-0.0126 J0.0088
G1 X-7.3475 Y6.6939 F60.
G3 X-7.5427 Y6.6565 I-0.0858 J-0.0804
X-7.4836 Y6.5385 I1.6801 J0.7689
X-7.4625 Y6.5329 I0.0133 J0.0078
X-7.4532 Y6.5518 I-0.0096 J0.0164
X-7.5159 Y6.6412 I-0.1171 J-0.0154
X-7.5332 Y6.6486 I-0.0544 J-0.1048 F50.
G2 X-7.5422 Y6.6563 I0.0048 J0.0146
X-7.4674 Y6.7793 I0.0934 J0.0275 F60.
X-7.3518 Y6.6935 I0.0187 J-0.0956
G1 X-7.3504 Y6.6919
X-7.3492 Y6.6899
X-7.3483 Y6.6877
X-7.3479 Y6.6853
X-7.348 Y6.6827
X-7.3485 Y6.6801
X-7.3496 Y6.6775
X-7.3515 Y6.6752 Z-0.1447
X-7.3534 Y6.673 Z-0.1438
X-7.3551 Y6.671 Z-0.1424
X-7.3566 Y6.6692 Z-0.1405
X-7.3578 Y6.6677 Z-0.1382
X-7.3587 Y6.6666 Z-0.1355
X-7.3593 Y6.6659 Z-0.1326
X-7.3595 Y6.6657 Z-0.1296
G0 Z0.4
X-7.3328 Y9.5611
Z0.1
G3 X-7.4776 Y9.5823 Z0.0595 I-0.0724 J0.0106 F50.
X-7.3328 Y9.5611 Z0.019 I0.0724 J-0.0106
X-7.4776 Y9.5823 Z-0.0216 I-0.0724 J0.0106
X-7.3328 Y9.5611 Z-0.0621 I0.0724 J-0.0106
X-7.4776 Y9.5823 Z-0.1026 I-0.0724 J0.0106
X-7.4105 Y9.4988 Z-0.1238 I0.0724 J-0.0106
X-7.3321 Y9.5717 Z-0.145 I0.0053 J0.073
X-7.4784 I-0.0732 J0.
X-7.3323 Y9.5658 I0.0732 J0.
G1 X-7.3321 Y9.5717
G3 X-7.3191 Y9.6085 I-0.0458 J0.0368 F60.
G1 X-7.3207 Y9.6185
X-7.3254 Y9.649
G3 X-7.5238 Y9.6695 I-0.1041 J-0.0376
G1 X-7.5083 Y9.5717
X-7.5005 Y9.5249
X-7.4963 Y9.4963
G3 X-7.2958 Y9.4635 I0.1091 J0.0376
G1 X-7.3061 Y9.5249
X-7.3132 Y9.5717
X-7.3191 Y9.6085
G3 X-7.3292 Y9.6201 I-0.0151 J-0.003
X-7.3853 Y9.5758 I-0.0138 J-0.0402
X-7.3205 Y9.4817 I0.1175 J0.0116
X-7.3069 Y9.4759 I0.0527 J0.1057 F50.
G2 X-7.2968 Y9.4643 I-0.0051 J-0.0145
G1 X-7.2928 Y9.4383 F60.
X-7.294 Y9.43
X-7.2957 Y9.4219
X-7.298 Y9.4139
X-7.3009 Y9.406
X-7.3043 Y9.3984
X-7.3083 Y9.3911
X-7.3128 Y9.384
X-7.3178 Y9.3774
X-7.3233 Y9.371
X-7.3292 Y9.3651
X-7.3355 Y9.3597
X-7.3422 Y9.3547
X-7.3492 Y9.3502
X-7.3565 Y9.3462
X-7.3641 Y9.3427
X-7.372 Y9.3398
X-7.38 Y9.3375
X-7.3881 Y9.3358
X-7.3964 Y9.3346
X-7.4047 Y9.3341
X-7.4131
X-7.4214 Y9.3348
X-7.4296 Y9.336
X-7.4378 Y9.3378
X-7.4458 Y9.3403
X-7.4536 Y9.3433
X-7.4611 Y9.3468
X-7.4684 Y9.3509
X-7.4754 Y9.3554
X-7.4937 Y9.4781
X-7.4963 Y9.4963
G2 X-7.4827 Y9.5133 I0.0153 J0.0017
X-7.4657 Y9.5053 I0.002 J-0.0178
X-7.4613 Y9.383 I-0.0988 J-0.0648
X-7.4717 Y9.3674 I-0.1032 J0.0575 F50.
G3 X-7.4749 Y9.3561 I0.0121 J-0.0095
G1 X-7.471 Y9.3305 F60.
G3 X-7.2716 Y9.304 I0.1079 J0.0484
G1 X-7.2928 Y9.4383
G3 X-7.3108 Y9.4506 I-0.0151 J-0.0029
X-7.3285 Y9.4327 I0.0041 J-0.0218
X-7.2934 Y9.3262 I0.1163 J-0.0207
X-7.2787 Y9.3144 I0.0811 J0.0858 F50.
G2 X-7.2722 Y9.3045 I-0.0087 J-0.0127
G1 X-7.2701 Y9.2907 F60.
X-7.2686 Y9.2802
G2 X-7.4511 Y9.197 I-0.1168 J0.0145
G1 X-7.4577 Y9.2439
X-7.471 Y9.3305
G2 X-7.4462 Y9.3444 I0.0153 J0.0018
X-7.4265 Y9.3151 I-0.0357 J-0.0453
X-7.437 Y9.2245 I-0.1135 J-0.0328
X-7.4474 Y9.2089 I-0.103 J0.0578 F50.
G3 X-7.4507 Y9.1976 I0.0121 J-0.0096
G1 X-7.4469 Y9.1736 F60.
G3 X-7.2475 Y9.1477 I0.1076 J0.0478
G2 X-7.2686 Y9.2802 I4.005 J0.7051
G3 X-7.2865 Y9.2926 I-0.0152 J-0.0028
X-7.3047 Y9.274 I0.004 J-0.0221
X-7.2691 Y9.1698 I0.1167 J-0.0184
X-7.2545 Y9.158 I0.0811 J0.0858 F50.
G2 X-7.248 Y9.1481 I-0.0087 J-0.0127
G1 X-7.2435 Y9.1186 F60.
G2 X-7.4269 Y9.0391 I-0.1186 J0.0222
G1 X-7.4431 Y9.1502
X-7.4469 Y9.1736
G2 X-7.4221 Y9.1877 I0.0153 J0.0019
X-7.4033 Y9.1607 I-0.0343 J-0.044
X-7.4126 Y9.0672 I-0.1125 J-0.036
X-7.423 Y9.0516 I-0.1032 J0.0575 F50.
G3 X-7.4262 Y9.0402 I0.0121 J-0.0095
G1 X-7.4225 Y9.0163 F60.
G3 X-7.2232 Y8.9904 I0.1076 J0.0484
G1 X-7.2267 Y9.0097
X-7.2435 Y9.1186
G3 X-7.2535 Y9.1303 I-0.0151 J-0.0029
X-7.2701 Y9.1254 I-0.0049 J-0.014
X-7.2473 Y9.0086 I0.062 J-0.0486
X-7.2338 Y9.0024 I0.0392 J0.0683 F50.
G2 X-7.2237 Y8.9908 I-0.005 J-0.0146
G1 X-7.2193 Y8.9629 F60.
G2 X-7.4024 Y8.8824 I-0.1181 J0.02
G1 X-7.4066 Y8.9161
X-7.4143 Y8.9629
X-7.4225 Y9.0163
G2 X-7.409 Y9.0334 I0.0153 J0.0018
X-7.3846 Y9.02 I0.0028 J-0.0239
X-7.388 Y8.9103 I-0.1062 J-0.0516
X-7.3985 Y8.8947 I-0.1028 J0.0581 F50.
G3 X-7.4018 Y8.8834 I0.012 J-0.0096
G1 X-7.3997 Y8.8692 F60.
X-7.3977 Y8.8563
G3 X-7.1988 Y8.8332 I0.107 J0.0527
G1 X-7.2149 Y8.9341
X-7.2193 Y8.9629
G3 X-7.2294 Y8.9745 I-0.0151 J-0.0029
X-7.2431 Y8.9713 I-0.0043 J-0.0124
G1 X-7.2437 Y8.9706
G3 X-7.223 Y8.8517 I0.0602 J-0.0507
X-7.2096 Y8.8455 I0.0395 J0.0681 F50.
G2 X-7.1995 Y8.8339 I-0.0051 J-0.0145
G1 X-7.1958 Y8.8095 F60.
G2 X-7.3781 Y8.7256 I-0.1171 J0.0144
G1 X-7.3977 Y8.8563
G2 X-7.3917 Y8.8705 I0.0153 J0.0018
X-7.3789 Y8.8712 I0.0069 J-0.0093
G1 X-7.3778 Y8.8706
G2 X-7.3607 Y8.7503 I-0.041 J-0.0672
X-7.3717 Y8.7403 I-0.0581 J0.0531 F50.
G3 X-7.3777 Y8.7262 I0.0092 J-0.0123
G1 X-7.3732 Y8.697 F60.
G3 X-7.1745 Y8.6761 I0.1064 J0.0565
G1 X-7.1761 Y8.6819
X-7.1958 Y8.8095
G3 X-7.2138 Y8.8218 I-0.0151 J-0.0029
X-7.2308 Y8.8045 I0.004 J-0.021
X-7.1963 Y8.6987 I0.1163 J-0.0207
X-7.1818 Y8.6868 I0.0818 J0.0852 F50.
G2 X-7.1754 Y8.6769 I-0.0088 J-0.0127
G1 X-7.1718 Y8.652 F60.
G2 X-7.3522 Y8.5674 I-0.1171 J0.015
G1 X-7.3566 Y8.5882
X-7.3637 Y8.6351
X-7.3732 Y8.697
G2 X-7.3597 Y8.7141 I0.0153 J0.0018
X-7.3468 Y8.7078 I0.0016 J-0.0133
X-7.3403 Y8.5957 I-0.1005 J-0.062
X-7.3496 Y8.5794 I-0.107 J0.05 F50.
G3 X-7.352 Y8.5679 I0.0127 J-0.0087
G1 X-7.3459 Y8.5414 F60.
G3 X-7.1273 Y8.5439 I0.1086 J0.0615
G1 X-7.1578 Y8.5882
X-7.1692 Y8.6351
G3 X-7.1882 Y8.6457 I-0.0148 J-0.0042
X-7.2045 Y8.6223 I0.0061 J-0.0216
X-7.1571 Y8.5564 I0.0785 J0.0064
X-7.1391 Y8.5511 I0.0311 J0.0723 F50.
G2 X-7.1291 Y8.5448 I-0.0026 J-0.0152
G1 X-7.1269 Y8.5414 F60.
X-7.1239 Y8.5373
X-7.1182 Y8.5294
G2 X-7.26 Y8.3969 I-0.1144 J-0.0197
X-7.3459 Y8.5414 I0.3339 J0.2963
X-7.3409 Y8.5559 I0.0151 J0.0029
X-7.2972 Y8.5575 I0.0228 J-0.0264
X-7.2558 Y8.426 I-0.0708 J-0.0946
X-7.2613 Y8.4122 I-0.1122 J0.0369 F50.
G3 X-7.26 Y8.3969 I0.0139 J-0.0066
G1 X-7.2386 Y8.3679 F60.
G3 X-7.0444 Y8.4314 I0.0751 J0.0988
G1 X-7.077 Y8.4732
X-7.0928 Y8.4946
X-7.1182 Y8.5294
G3 X-7.1325 Y8.5352 I-0.0121 J-0.0095
X-7.1511 Y8.5131 I0.003 J-0.0215
X-7.0754 Y8.4368 I0.0787 J0.0024
X-7.0607 Y8.4376 I0.003 J0.0787 F50.
G2 X-7.0463 Y8.432 I0.0023 J-0.0152
G1 X-7.0301 Y8.4102 F60.
G2 X-7.1582 Y8.2587 I-0.1138 J-0.0337
G3 X-7.2386 Y8.3679 I-7.3261 J-5.3075
G2 X-7.2346 Y8.3893 I0.0127 J0.0087
X-7.2045 Y8.3886 I0.0145 J-0.0211
X-7.1581 Y8.2899 I-0.0716 J-0.0939
X-7.1603 Y8.2712 I-0.118 J0.0048 F50.
G3 X-7.1581 Y8.2596 I0.0151 J-0.0031
G1 X-7.1432 Y8.2388 F60.
G3 X-6.9535 Y8.3062 I0.0738 J0.093
G1 X-7.0301 Y8.4102
G3 X-7.0445 Y8.4157 I-0.0119 J-0.0097
X-7.0582 Y8.4019 I0.0026 J-0.0163
X-6.9835 Y8.3113 I0.0778 J-0.012
X-6.9687 Y8.3121 I0.0032 J0.0787 F50.
G2 X-6.9544 Y8.3064 I0.0023 J-0.0152
G1 X-6.9402 Y8.2873 F60.
G2 X-7.0631 Y8.1294 I-0.11 J-0.0412
G1 X-7.0905 Y8.1667
X-7.1239 Y8.2118
X-7.1432 Y8.2388
G2 X-7.1273 Y8.2624 I0.0128 J0.0085
X-7.1018 Y8.2494 I-0.0106 J-0.0523
X-7.0637 Y8.1625 I-0.08 J-0.0869
G1 Y8.1602
G2 X-7.0656 Y8.1415 I-0.1181 J0.0023 F50.
G3 X-7.0631 Y8.13 I0.0152 J-0.0027
G1 X-7.0485 Y8.1106 F60.
G3 X-6.8598 Y8.1806 I0.073 J0.0926
G2 X-6.9402 Y8.2873 I10.4147 J7.9358
G3 X-6.9676 Y8.2794 I-0.012 J-0.0096
X-6.9605 Y8.2453 I0.0558 J-0.0063
X-6.8893 Y8.19 I0.1026 J0.0586
X-6.8708 Y8.1864 I0.0313 J0.1139 F50.
G2 X-6.8605 Y8.1808 I-0.0017 J-0.0153
G1 X-6.85 Y8.1667 F60.
X-6.8426 Y8.1556
X-6.8405 Y8.1473
X-6.8389 Y8.1388
X-6.838 Y8.1303
X-6.8377 Y8.1217
X-6.838 Y8.1131
X-6.8389 Y8.1046
X-6.8404 Y8.0961
X-6.8425 Y8.0878
X-6.8452 Y8.0796
X-6.8484 Y8.0717
X-6.8522 Y8.064
X-6.8565 Y8.0566
X-6.8614 Y8.0495
X-6.8667 Y8.0428
X-6.8725 Y8.0364
X-6.8788 Y8.0305
X-6.8854 Y8.0251
X-6.8924 Y8.0201
X-6.8998 Y8.0157
X-6.9074 Y8.0118
X-6.9153 Y8.0084
X-6.9234 Y8.0056
X-6.9317 Y8.0034
X-6.9402 Y8.0017
X-6.9487 Y8.0007
X-6.9573 Y8.0003
X-6.9658 Y8.0005
G2 X-7.0485 Y8.1106 I7.055 J5.385
X-7.0498 Y8.1259 I0.0126 J0.0088
X-6.9919 Y8.1344 I0.0318 J-0.0149
X-6.9646 Y8.0308 I-0.0881 J-0.0786
X-6.9686 Y8.0166 I-0.1154 J0.0249 F50.
G3 X-6.9658 Y8.0014 I0.0145 J-0.0051
G1 X-6.9456 Y7.9794 F60.
X-6.9364 Y7.9725
G3 X-6.8725 Y7.9647 I0.0457 J0.1083
X-6.8754 Y7.9947 I-0.0044 J0.0148
X-6.9335 Y7.9983 I-0.0337 J-0.0738
X-6.9364 Y7.9725 I0.0068 J-0.0138 F50.
G1 X-6.8895 Y7.9602 F60.
X-6.8531 Y7.9698
G3 X-6.8426 Y8.1556 I-0.0516 J0.0961
X-6.8685 Y8.1539 I-0.0124 J-0.0091
G1 X-6.87 Y8.1512 Z-0.1447
X-6.8713 Y8.1487 Z-0.1438
X-6.8726 Y8.1464 Z-0.1424
X-6.8737 Y8.1443 Z-0.1405
X-6.8747 Y8.1426 Z-0.1382
X-6.8753 Y8.1414 Z-0.1355
X-6.8758 Y8.1406 Z-0.1326
X-6.8759 Y8.1404 Z-0.1296
G0 Z0.4
X-7.3353 Y9.6041
Z-0.1142
G1 Z-0.1296 F50.
X-7.3351 Y9.6044 Z-0.1326
X-7.3348 Y9.6052 Z-0.1355
X-7.3343 Y9.6065 Z-0.1382
X-7.3336 Y9.6083 Z-0.1405
X-7.3327 Y9.6105 Z-0.1424
X-7.3317 Y9.6129 Z-0.1438
X-7.3306 Y9.6156 Z-0.1447
X-7.3295 Y9.6184 Z-0.145
G3 X-7.3254 Y9.649 I-0.0578 J0.0233
G1 X-7.3371 Y9.7251 F60.
G3 X-7.54 Y9.7696 I-0.1169 J-0.0481
G1 X-7.5372 Y9.759
X-7.5299 Y9.7122
X-7.5233 Y9.6692
G3 X-7.5133 Y9.6576 I0.0151 J0.0029
X-7.4755 Y9.6856 I0.0094 J0.0268
X-7.5151 Y9.7506 I-0.0787 J-0.0034
X-7.5286 Y9.7567 I-0.039 J-0.0684 F50.
G2 X-7.5387 Y9.7683 I0.005 J0.0146
G1 X-7.5419 Y9.7879 F60.
G2 X-7.3663 Y9.8682 I0.1139 J-0.0169
X-7.3371 Y9.7251 I-0.6821 J-0.2137
X-7.3432 Y9.711 I-0.0153 J-0.0018
X-7.354 Y9.712 I-0.0048 J0.0065
G1 X-7.3559 Y9.7142
G2 X-7.3734 Y9.8407 I0.0897 J0.0768
X-7.3663 Y9.8537 I0.1072 J-0.0497 F50.
G3 X-7.3657 Y9.8691 I-0.0131 J0.0082
X-7.4947 Y9.9173 I-0.0884 J-0.0398 F60.
X-7.5419 Y9.7879 I0.0406 J-0.0881
X-7.5177 Y9.7785 I0.0151 J0.003
G1 X-7.5152 Y9.7803 Z-0.1447
X-7.5129 Y9.782 Z-0.1438
X-7.5108 Y9.7835 Z-0.1424
X-7.5089 Y9.7849 Z-0.1405
X-7.5073 Y9.786 Z-0.1382
X-7.5062 Y9.7869 Z-0.1355
X-7.5055 Y9.7874 Z-0.1326
X-7.5052 Y9.7876 Z-0.1296
G0 Z0.4
X-6.2076 Y2.4894
Z0.1
G3 X-6.3524 Y2.5106 Z0.0595 I-0.0724 J0.0106 F50.
X-6.2076 Y2.4894 Z0.019 I0.0724 J-0.0106
X-6.3524 Y2.5106 Z-0.0216 I-0.0724 J0.0106
X-6.2076 Y2.4894 Z-0.0621 I0.0724 J-0.0106
X-6.3524 Y2.5106 Z-0.1026 I-0.0724 J0.0106
X-6.2853 Y2.4271 Z-0.1238 I0.0724 J-0.0106
X-6.2068 Y2.5 Z-0.145 I0.0053 J0.073
X-6.3531 I-0.0731 J0.
X-6.2071 Y2.4941 I0.0731 J0.
G1 X-6.2068 Y2.5
G3 X-6.2002 Y2.5961 I-0.0441 J0.0513 F60.
G2 X-6.3398 Y2.5963 I-0.0551 J10.7084
G1 X-6.348 Y2.5947
X-6.356 Y2.5925
X-6.3639 Y2.5897
X-6.3716 Y2.5863
X-6.379 Y2.5824
X-6.386 Y2.5779
X-6.3927 Y2.5729
X-6.3991 Y2.5675
X-6.405 Y2.5615
X-6.4104 Y2.5552
X-6.4154 Y2.5484
X-6.4198 Y2.5413
X-6.4237 Y2.5339
X-6.427 Y2.5263
X-6.4298 Y2.5184
X-6.432 Y2.5103
X-6.4335 Y2.5021
X-6.4345 Y2.4938
X-6.4348 Y2.4854
X-6.4345 Y2.477
X-6.4335 Y2.4687
X-6.432 Y2.4605
X-6.4299 Y2.4524
X-6.4271 Y2.4445
X-6.4238 Y2.4368
X-6.4199 Y2.4294
X-6.4155 Y2.4223
X-6.4105 Y2.4156
X-6.4051 Y2.4092
X-6.3992 Y2.4033
X-6.2202 Y2.4035
G3 X-6.1063 Y2.5978 I-0.0279 J0.1469
G1 X-6.1393 Y2.5962
X-6.2002 Y2.5961
G3 X-6.2132 Y2.5879 I0.0006 J-0.0154
X-6.1856 Y2.5468 I0.0249 J-0.0131
X-6.132 Y2.5758 I-0.0078 J0.0784
X-6.1239 Y2.5881 I-0.0613 J0.0494 F50.
G2 X-6.1108 Y2.5962 I0.0136 J-0.0072
G1 X-6.0924 F60.
X-6.085 Y2.5926
X-6.0778 Y2.5884
X-6.071 Y2.5837
X-6.0645 Y2.5785
X-6.0584 Y2.5729
X-6.0527 Y2.5668
X-6.0475 Y2.5604
X-6.0428 Y2.5535
X-6.0386 Y2.5464
X-6.0349 Y2.5389
X-6.0318 Y2.5312
X-6.0293 Y2.5233
X-6.0273 Y2.5152
X-6.026 Y2.507
X-6.0252 Y2.4988
X-6.0251 Y2.4905
X-6.0255 Y2.4822
X-6.0266 Y2.474
X-6.0282 Y2.4658
X-6.0305 Y2.4578
X-6.0333 Y2.45
X-6.0367 Y2.4425
X-6.0407 Y2.4351
X-6.0451 Y2.4281
X-6.0501 Y2.4215
X-6.0555 Y2.4152
X-6.0614 Y2.4094
X-6.0677 Y2.404
X-6.2202 Y2.4035
G2 X-6.2333 Y2.4116 I0.0005 J0.0154
X-6.2025 Y2.4731 I0.037 J0.0199
X-6.0884 Y2.4245 I0.0177 J-0.1168
X-6.0806 Y2.4119 I-0.0965 J-0.0682 F50.
G3 X-6.0676 Y2.4037 I0.0136 J0.0072
G1 X-6.0327 F60.
G3 X-5.9686 Y2.5975 I-0.0354 J0.1192
G1 X-6.0924 Y2.5962
G3 X-6.1055 Y2.5881 I0.0005 J-0.0154
X-6.0995 Y2.5618 I0.0182 J-0.0097
X-5.9914 Y2.5758 I0.0468 J0.0633
X-5.9833 Y2.5881 I-0.0613 J0.0494 F50.
G2 X-5.9702 Y2.5962 I0.0136 J-0.0072
G1 X-5.9447 F60.
G2 X-5.8977 Y2.4033 I-0.0383 J-0.1115
G1 X-6.0327 Y2.4037
G2 X-6.0426 Y2.4304 I0.0005 J0.0154
X-6.0113 Y2.4453 I0.039 J-0.0418
X-5.9228 Y2.4214 I0.0159 J-0.117
X-5.9089 Y2.4086 I-0.0726 J-0.0931 F50.
G3 X-5.8982 Y2.4037 I0.0113 J0.0105
G1 X-5.8714 F60.
G3 X-5.8147 Y2.5968 I-0.033 J0.1146
G1 X-5.9248 Y2.5962
X-5.9447
G3 X-5.9577 Y2.5881 I0.0005 J-0.0154
X-5.9556 Y2.5715 I0.0127 J-0.0068
X-5.8366 Y2.5757 I0.0577 J0.0536
X-5.8285 Y2.588 I-0.0613 J0.0494 F50.
G2 X-5.8154 Y2.5962 I0.0136 J-0.0073
G1 X-5.7877 Y2.5961 F60.
G2 X-5.7371 Y2.4028 I-0.0376 J-0.1131
G1 X-5.7642 Y2.4035
X-5.8111 Y2.4036
X-5.8714 Y2.4037
G2 X-5.8813 Y2.4304 I0.0006 J0.0154
X-5.8499 Y2.4451 I0.0386 J-0.0415
X-5.7624 Y2.4211 I0.0149 J-0.1172
X-5.7485 Y2.4084 I-0.0726 J-0.0932 F50.
G3 X-5.7378 Y2.4035 I0.0113 J0.0105
G1 X-5.7174 F60.
X-5.7103
G3 X-5.6567 Y2.597 I-0.0357 J0.114
G2 X-5.7877 Y2.5961 I-0.09 J3.661
G3 X-5.8008 Y2.588 I0.0005 J-0.0154
X-5.7995 Y2.574 I0.0112 J-0.006
X-5.6787 Y2.5759 I0.0596 J0.0514
X-5.6705 Y2.5882 I-0.0612 J0.0496 F50.
G2 X-5.6574 Y2.5963 I0.0136 J-0.0073
G1 X-5.6309 Y2.5962 F60.
G2 X-5.5776 Y2.4031 I-0.0351 J-0.1136
G1 X-5.6236 Y2.4037
X-5.6705 Y2.4038
X-5.7103 Y2.4035
G2 X-5.7234 Y2.4116 I0.0004 J0.0154
X-5.7247 Y2.4169 I0.0099 J0.0054
G1 X-5.7245 Y2.4195
X-5.7236 Y2.4219
X-5.7223 Y2.424
X-5.7213 Y2.4252
G2 X-5.5995 Y2.4242 I0.0605 J-0.0504
X-5.5913 Y2.4119 I-0.0613 J-0.0494 F50.
G3 X-5.5783 Y2.4037 I0.0136 J0.0072
G1 X-5.5533 F60.
G3 X-5.4982 Y2.5967 I-0.0324 J0.1136
G1 X-5.6294 Y2.5962
X-5.6309
G3 X-5.6439 Y2.5881 I0.0005 J-0.0154
X-5.6428 Y2.576 I0.0097 J-0.0052
G1 X-5.6416 Y2.5745
G3 X-5.52 Y2.5758 I0.0603 J0.0506
X-5.5118 Y2.5881 I-0.0613 J0.0494 F50.
G2 X-5.4988 Y2.5962 I0.0136 J-0.0072
G1 X-5.47 F60.
G2 X-5.4187 Y2.403 I-0.0382 J-0.1136
G1 X-5.5533 Y2.4037
G2 X-5.5632 Y2.4304 I0.0005 J0.0154
X-5.5322 Y2.4451 I0.0385 J-0.0413
X-5.4441 Y2.4213 I0.0156 J-0.1171
X-5.4302 Y2.4086 I-0.0724 J-0.0933 F50.
G3 X-5.4195 Y2.4037 I0.0113 J0.0105
G1 X-5.3957 F60.
G3 X-5.3393 Y2.5967 I-0.0305 J0.1136
G1 X-5.4531 Y2.5962
X-5.47
G3 X-5.4831 Y2.5881 I0.0005 J-0.0154
X-5.4813 Y2.5731 I0.0117 J-0.0062
X-5.361 Y2.5758 I0.059 J0.0521
X-5.3528 Y2.5881 I-0.0613 J0.0494 F50.
G2 X-5.3398 Y2.5963 I0.0136 J-0.0073
G1 X-5.3105 F60.
G2 X-5.2598 Y2.4028 I-0.0394 J-0.1137
G1 X-5.2954 Y2.4038
X-5.3957 Y2.4037
G2 X-5.4105 Y2.4197 I0.0005 J0.0154
X-5.3947 Y2.4407 I0.0229 J-0.0008
X-5.2853 Y2.4213 I0.0365 J-0.1123
X-5.2714 Y2.4085 I-0.0729 J-0.0929 F50.
G3 X-5.2607 Y2.4036 I0.0113 J0.0104
G1 X-5.2356 Y2.4035 F60.
G3 X-5.1965 Y2.6177 I-0.0369 J0.1174
G1 X-5.2016 Y2.6135
X-5.2485 Y2.5962
X-5.3105 Y2.5963
G3 X-5.315 Y2.5935 I0.0002 J-0.0053
X-5.2711 Y2.5282 I0.0393 J-0.021
X-5.2032 Y2.5858 I-0.0081 J0.0783
X-5.2006 Y2.6109 I-0.076 J0.0207 F50.
G2 X-5.1982 Y2.6156 I0.0053 J0.0003
G1 X-5.1862 Y2.6229 F60.
X-5.1778 Y2.623
X-5.1694 Y2.6226
X-5.1611 Y2.6215
X-5.1528 Y2.6198
X-5.1447 Y2.6176
X-5.1368 Y2.6148
X-5.1291 Y2.6115
X-5.1217 Y2.6076
X-5.1146 Y2.6032
X-5.1078 Y2.5983
X-5.1013 Y2.5929
X-5.0953 Y2.5871
X-5.0897 Y2.5808
X-5.0845 Y2.5742
X-5.0798 Y2.5673
X-5.0756 Y2.56
X-5.072 Y2.5524
X-5.0689 Y2.5446
X-5.0664 Y2.5366
X-5.0644 Y2.5285
X-5.063 Y2.5202
X-5.0622 Y2.5119
X-5.062 Y2.5035
X-5.0624 Y2.4951
X-5.0634 Y2.4868
X-5.065 Y2.4785
X-5.0671 Y2.4704
X-5.0699 Y2.4625
X-5.0732 Y2.4548
X-5.077 Y2.4473
X-5.0813 Y2.4402
X-5.0862 Y2.4333
X-5.0915 Y2.4268
G2 X-5.1356 Y2.364 I-0.0414 J-0.0179
G1 X-5.1547 Y2.378
X-5.1858 Y2.3948
G2 X-5.1934 Y2.4081 I0.0078 J0.0133
X-5.1772 Y2.4231 I0.0151 J-0.0001
X-5.142 Y2.393 I-0.0032 J-0.0392
X-5.1413 Y2.3783 I-0.0383 J-0.0091 F50.
G3 X-5.1356 Y2.364 I0.0152 J-0.0022
G1 X-5.1295 Y2.3595 F60.
X-5.121 Y2.3531
G3 X-4.9843 Y2.4912 I0.0242 J0.1127
G2 X-5.0581 Y2.6055 I0.1113 J0.1529
G3 X-5.1862 Y2.6229 I-0.0714 J-0.0455
X-5.1926 Y2.606 I0.0084 J-0.0129
G1 X-5.1895 Y2.5948
X-5.1317 Y2.3816
G3 X-5.121 Y2.3531 I0.0385 J-0.0017 F50.
G1 X-5.1079 Y2.3433 F60.
X-5.0759 Y2.3196
X-5.0676 Y2.3166
X-5.0592 Y2.3141
X-5.0506 Y2.3123
X-5.0419 Y2.311
X-5.0332 Y2.3104
X-5.0244
X-5.0156 Y2.311
X-5.0069 Y2.3122
X-4.9984 Y2.314
X-4.9899 Y2.3164
X-4.9817 Y2.3195
X-4.9737 Y2.323
X-4.9659 Y2.3272
X-4.9585 Y2.3318
X-4.9514 Y2.337
X-4.9447 Y2.3426
X-4.9384 Y2.3488
X-4.9325 Y2.3553
X-4.9271 Y2.3622
X-4.9222 Y2.3695
X-4.9179 Y2.3771
X-4.9141 Y2.385
X-4.9108 Y2.3932
X-4.9081 Y2.4015
X-4.906 Y2.4101
X-4.9046 Y2.4187
X-4.9037 Y2.4275
X-4.906 Y2.4294
X-4.9086 Y2.4308
X-4.9115 Y2.4318
X-4.9144 Y2.4321
X-4.9174 Y2.4319
X-4.9202 Y2.4312
X-4.9229 Y2.4299
X-4.9325 Y2.4245
X-5.0731 Y2.3454
X-5.0738 Y2.345 F50.
G3 X-5.0759 Y2.3196 I0.0075 J-0.0134
X-4.9871 Y2.2678 I0.215 J0.2668 F60.
G1 X-4.9795 Y2.2665
X-4.9718 Y2.2659
X-4.964 Y2.2658
X-4.9563 Y2.2664
X-4.9487 Y2.2676
X-4.9412 Y2.2694
X-4.9338 Y2.2719
X-4.9267 Y2.2749
X-4.9198 Y2.2784
X-4.9133 Y2.2826
X-4.9071 Y2.2872
X-4.9013 Y2.2923
X-4.8959 Y2.2978
X-4.891 Y2.3038
X-4.8866 Y2.3102
X-4.8828 Y2.3169
X-4.8794 Y2.3238
X-4.8767 Y2.3311
X-4.8745 Y2.3385
X-4.873 Y2.3461
X-4.872 Y2.3537
X-4.8717 Y2.3615
X-4.872 Y2.3692
X-4.873 Y2.3768
X-4.8745 Y2.3844
X-4.8767 Y2.3918
X-4.8794 Y2.3991
X-4.8827 Y2.406
X-4.8866 Y2.4127
X-4.891 Y2.4191
X-4.8959 Y2.4251
X-4.9013 Y2.4306
X-4.9071 Y2.4357
X-4.9132 Y2.4404
X-4.9198 Y2.4445
X-4.9266 Y2.4481
X-4.9338 Y2.4511
X-4.984 Y2.4913
G3 X-5.008 Y2.4812 I-0.0088 J-0.0127
G1 X-5.0085 Y2.4782 Z-0.1447
X-5.009 Y2.4754 Z-0.1438
X-5.0094 Y2.4728 Z-0.1424
X-5.0098 Y2.4705 Z-0.1405
X-5.0101 Y2.4686 Z-0.1382
X-5.0104 Y2.4672 Z-0.1355
X-5.0105 Y2.4663 Z-0.1326
X-5.0106 Y2.466 Z-0.1296
G0 Z-0.1142
X-6.2969 Y2.5796
G1 Z-0.1296 F50.
X-6.2971 Y2.5798 Z-0.1326
X-6.2979 Y2.5802 Z-0.1355
X-6.2991 Y2.581 Z-0.1382
X-6.3007 Y2.5819 Z-0.1405
X-6.3028 Y2.5831 Z-0.1424
X-6.305 Y2.5845 Z-0.1438
X-6.3075 Y2.586 Z-0.1447
X-6.3101 Y2.5875 Z-0.145
G3 X-6.3398 Y2.5963 I-0.0319 J-0.0535
G1 X-6.3737 Y2.5964 F60.
X-6.4206 Y2.5962
X-6.4291 Y2.594
X-6.4373 Y2.5911
X-6.4454 Y2.5878
X-6.4532 Y2.5838
X-6.4607 Y2.5794
X-6.4679 Y2.5744
X-6.4748 Y2.569
X-6.4812 Y2.5631
X-6.4872 Y2.5568
X-6.4928 Y2.55
X-6.4979 Y2.543
X-6.5026 Y2.5355
X-6.5067 Y2.5278
X-6.5102 Y2.5198
X-6.5132 Y2.5116
X-6.5157 Y2.5033
X-6.5175 Y2.4947
X-6.5188 Y2.4861
X-6.5195 Y2.4774
X-6.5196 Y2.4686
X-6.519 Y2.4599
X-6.5179 Y2.4512
X-6.5162 Y2.4427
X-6.5139 Y2.4342
X-6.5111 Y2.426
X-6.5077 Y2.4179
X-6.5037 Y2.4101
X-6.4992 Y2.4026
X-6.4206 Y2.4037
X-6.3987 Y2.4038
G3 X-6.3857 Y2.412 I-0.0006 J0.0154
X-6.4082 Y2.4533 I-0.025 J0.0132
X-6.4763 Y2.4242 I-0.0067 J-0.0785
X-6.4845 Y2.4119 I0.0613 J-0.0494 F50.
G2 X-6.4975 Y2.4037 I-0.0136 J0.0072
G1 X-6.5215 F60.
G2 X-6.5625 Y2.5967 I0.0428 J0.1099
G1 X-6.4675 Y2.5962
X-6.4206
G2 X-6.4058 Y2.5803 I-0.0005 J-0.0154
X-6.4168 Y2.564 I-0.0186 J0.0007
X-6.5375 Y2.5786 I-0.0481 J0.1079
X-6.5513 Y2.5913 I0.0726 J0.0932 F50.
G3 X-6.5621 Y2.5962 I-0.0113 J-0.0105
G1 X-6.5925 F60.
G3 X-6.6484 Y2.4025 I0.0368 J-0.1156
G1 X-6.6082 Y2.4037
X-6.5414
X-6.5215
G3 X-6.5084 Y2.4119 I-0.0005 J0.0154
X-6.5126 Y2.4345 I-0.0163 J0.0087
X-6.6262 Y2.4241 I-0.0519 J-0.0592
X-6.6343 Y2.4116 I0.0618 J-0.0488 F50.
G2 X-6.6473 Y2.4034 I-0.0137 J0.0071
G1 X-6.6551 Y2.4033 F60.
X-6.6731 Y2.4035
G2 X-6.7251 Y2.5966 I0.0354 J0.1131
G3 X-6.5925 Y2.5962 I0.0769 J3.5696
G2 X-6.5794 Y2.5881 I-0.0005 J-0.0154
X-6.5805 Y2.5762 I-0.0096 J-0.0051
G1 X-6.5819 Y2.5745
G2 X-6.7033 Y2.5757 I-0.0602 J0.0507
X-6.7115 Y2.588 I0.0612 J0.0495 F50.
G3 X-6.7246 Y2.5961 I-0.0136 J-0.0073
G1 X-6.7488 F60.
G3 X-6.8054 Y2.4031 I0.0308 J-0.1138
G2 X-6.6731 Y2.4035 I0.0848 J-6.2671
G3 X-6.66 Y2.4115 I-0.0004 J0.0154
X-6.6612 Y2.425 I-0.0106 J0.0058
X-6.7837 Y2.4241 I-0.0609 J-0.0499
X-6.7918 Y2.4118 I0.0616 J-0.0491 F50.
G2 X-6.8048 Y2.4036 I-0.0136 J0.0072
G1 X-6.83 Y2.4034 F60.
G2 X-6.8856 Y2.5945 I0.0326 J0.1131
G1 X-6.8426 Y2.5959
X-6.7957 Y2.5961
X-6.7488
G2 X-6.7389 Y2.5694 I-0.0005 J-0.0154
X-6.7467 Y2.5644 I-0.0175 J0.0188
X-6.8598 Y2.5776 I-0.0447 J0.1093
X-6.8742 Y2.5896 I0.0685 J0.0962 F50.
G3 X-6.8851 Y2.5941 I-0.0108 J-0.011
G1 X-6.8926 Y2.5922 F60.
X-6.8999 Y2.5898
X-6.9069 Y2.5869
X-6.9137 Y2.5834
X-6.9203 Y2.5793
X-6.9264 Y2.5748
X-6.9322 Y2.5698
X-6.9376 Y2.5643
X-6.9426 Y2.5585
X-6.947 Y2.5522
X-6.951 Y2.5457
X-6.9544 Y2.5388
X-6.9573 Y2.5317
X-6.9597 Y2.5244
X-6.9614 Y2.517
X-6.9626 Y2.5094
X-6.9631 Y2.5018
Y2.4941
X-6.9625 Y2.4865
X-6.9612 Y2.4789
X-6.9594 Y2.4715
X-6.957 Y2.4642
X-6.954 Y2.4571
X-6.9505 Y2.4503
X-6.9465 Y2.4438
X-6.9419 Y2.4376
X-6.9369 Y2.4318
X-6.9315 Y2.4264
X-6.9256 Y2.4215
X-6.9194 Y2.417
X-6.9129 Y2.413
X-6.906 Y2.4096
X-6.8989 Y2.4067
X-6.8916 Y2.4044
X-6.8842 Y2.4026
X-6.8766 Y2.4014
X-6.8689 Y2.4009
X-6.8613
X-6.8536 Y2.4015
X-6.8461 Y2.4028
X-6.8386 Y2.4046
X-6.8314 Y2.407
X-6.8291 Y2.4068
X-6.8267 Y2.407
X-6.8243 Y2.4077
X-6.8221 Y2.4088
X-6.8201 Y2.4104
X-6.8184 Y2.4124
X-6.8171 Y2.4148
X-6.8163 Y2.4174
X-6.8159 Y2.4202
X-6.8162 Y2.4231
X-6.817 Y2.4259
X-6.8183 Y2.4286 Z-0.1447
X-6.8197 Y2.4311 Z-0.1438
X-6.8209 Y2.4335 Z-0.1424
X-6.822 Y2.4356 Z-0.1405
X-6.8228 Y2.4373 Z-0.1382
X-6.8235 Y2.4385 Z-0.1355
X-6.8239 Y2.4393 Z-0.1326
X-6.824 Y2.4396 Z-0.1296
G0 Z0.4
X-3.4883 Y3.8476
Z0.1
G3 X-3.6331 Y3.8687 Z0.0595 I-0.0724 J0.0106 F50.
X-3.4883 Y3.8476 Z0.019 I0.0724 J-0.0106
X-3.6331 Y3.8687 Z-0.0216 I-0.0724 J0.0106
X-3.4883 Y3.8476 Z-0.0621 I0.0724 J-0.0106
X-3.6331 Y3.8687 Z-0.1026 I-0.0724 J0.0106
X-3.566 Y3.7852 Z-0.1238 I0.0724 J-0.0106
X-3.4875 Y3.8582 Z-0.145 I0.0053 J0.073
X-3.6338 I-0.0731 J0.
X-3.4878 Y3.8522 I0.0732 J0.
G1 X-3.4875 Y3.8582
G3 X-3.4735 Y3.924 I-0.0261 J0.04 F60.
G1 X-3.5138 Y3.9366
X-3.5625 Y3.9518
X-3.5974 Y3.9629
G3 X-3.6996 Y3.7928 I-0.0099 J-0.1098
G1 X-3.6544 Y3.7791
X-3.6076 Y3.7641
X-3.5372 Y3.7423
G3 X-3.3885 Y3.8971 I0.0051 J0.144
G1 X-3.4141 Y3.905
X-3.4669 Y3.922
X-3.4735 Y3.924
G3 X-3.4883 Y3.9201 I-0.004 J-0.0149
X-3.4735 Y3.8716 I0.0202 J-0.0204
X-3.4148 Y3.8837 I0.0147 J0.0774
X-3.4033 Y3.8931 I-0.0441 J0.0652 F50.
G2 X-3.3885 Y3.8971 I0.0109 J-0.0109
G1 X-3.3692 Y3.8912 F60.
G2 X-3.397 Y3.698 I-0.0796 J-0.0871
X-3.5372 Y3.7423 I1.7377 J5.7508
X-3.5473 Y3.7539 I0.0051 J0.0145
X-3.4962 Y3.8029 I0.0414 J0.0079
X-3.4109 Y3.7243 I-0.0271 J-0.115
X-3.4072 Y3.7099 I-0.1124 J-0.0364 F50.
