%
(971-23-P-0087_LATERAL UPRIGHT_1494)
(T1  D=0.1494 CR=0. - ZMIN=-0.28 - FLAT END MILL)
G90 G94 G17 G91.1
G64 P0.001 Q0.001
G20
G53 G0 Z0.
(.3 CIRCLUAR THROUGH HOLE 2)
M9
T1 M6
S22000 M3
G4 P10.
G54
M7
G0 X-1.075 Y3.125
G43 Z0.6 H1
G0 Z0.1151
G1 Z0.05 F40.
X-1.0774 Y3.1274
G3 X-1.0798 Y3.125 I0. J-0.0024
X-1.0702 Z0.036 I0.0048 J0.
X-1.0798 Z0.022 I-0.0048 J0.
X-1.0702 Z0.0079 I0.0048 J0.
X-1.0798 Z-0.0061 I-0.0048 J0.
X-1.0702 Z-0.0201 I0.0048 J0.
X-1.0798 Z-0.0341 I-0.0048 J0.
X-1.0702 Z-0.0481 I0.0048 J0.
X-1.0798 Z-0.0621 I-0.0048 J0.
X-1.0702 Z-0.0762 I0.0048 J0.
X-1.0798 Z-0.0902 I-0.0048 J0.
X-1.0702 Z-0.1042 I0.0048 J0.
X-1.0798 Z-0.1182 I-0.0048 J0.
X-1.0702 Z-0.1322 I0.0048 J0.
X-1.0798 Z-0.1463 I-0.0048 J0.
X-1.0702 Z-0.1603 I0.0048 J0.
X-1.0798 Z-0.1743 I-0.0048 J0.
X-1.0702 Z-0.1883 I0.0048 J0.
X-1.0798 Z-0.2023 I-0.0048 J0.
X-1.0702 Z-0.2163 I0.0048 J0.
X-1.0798 Z-0.2304 I-0.0048 J0.
X-1.0702 Z-0.2444 I0.0048 J0.
X-1.0798 Z-0.2584 I-0.0048 J0.
X-1.0702 Z-0.2724 I0.0048 J0.
X-1.0756 Y3.1298 Z-0.28 I-0.0048 J0.
X-1.0744 Y3.1202 I0.0006 J-0.0048
X-1.0756 Y3.1298 I-0.0006 J0.0048
X-1.0777 Y3.1271 I0.0003 J-0.0024
G1 X-1.075 Y3.125
G0 Z0.4
X0.4894 Y3.1368
Z0.13
G1 Z0.0649 F40.
G19 G2 Y3.1218 Z0.05 J-0.0149 K0.
G1 Y3.1144
G17 G3 X0.5 Y3.1037 I0.0106 J0.
Y3.1463 Z0.0331 I0. J0.0213
Y3.1037 Z0.0161 I0. J-0.0213
Y3.1463 Z-0.0008 I0. J0.0213
Y3.1037 Z-0.0177 I0. J-0.0213
Y3.1463 Z-0.0346 I0. J0.0213
Y3.1037 Z-0.0516 I0. J-0.0213
Y3.1463 Z-0.0685 I0. J0.0213
Y3.1037 Z-0.0854 I0. J-0.0213
Y3.1463 Z-0.1023 I0. J0.0213
Y3.1037 Z-0.1193 I0. J-0.0213
Y3.1463 Z-0.1362 I0. J0.0213
Y3.1037 Z-0.1531 I0. J-0.0213
Y3.1463 Z-0.1701 I0. J0.0213
Y3.1037 Z-0.187 I0. J-0.0213
Y3.1463 Z-0.2039 I0. J0.0213
Y3.1037 Z-0.2208 I0. J-0.0213
Y3.1463 Z-0.2378 I0. J0.0213
Y3.1037 Z-0.2547 I0. J-0.0213
Y3.1463 Z-0.2716 I0. J0.0213
X0.4787 Y3.1253 Z-0.28 I0. J-0.0213
X0.5213 Y3.1247 I0.0213 J-0.0003
X0.4787 Y3.1253 I-0.0213 J0.0003
X0.4892 Y3.1145 I0.0106 J-0.0002
G1 X0.4967 Y3.1144
X0.4996 Z-0.2797
X0.5024 Y3.1143 Z-0.2789
X0.505 Z-0.2775
X0.5072 Y3.1142 Z-0.2756
X0.5091 Z-0.2734
X0.5105 Z-0.2708
X0.5113 Z-0.268
X0.5116 Z-0.2651
G0 Z0.4
X1.4894 Y3.1368
Z0.13
G1 Z0.0649 F40.
G19 G2 Y3.1218 Z0.05 J-0.0149 K0.
G1 Y3.1144
G17 G3 X1.5 Y3.1037 I0.0106 J0.
Y3.1463 Z0.0331 I0. J0.0213
Y3.1037 Z0.0161 I0. J-0.0213
Y3.1463 Z-0.0008 I0. J0.0213
Y3.1037 Z-0.0177 I0. J-0.0213
Y3.1463 Z-0.0346 I0. J0.0213
Y3.1037 Z-0.0516 I0. J-0.0213
Y3.1463 Z-0.0685 I0. J0.0213
Y3.1037 Z-0.0854 I0. J-0.0213
Y3.1463 Z-0.1023 I0. J0.0213
Y3.1037 Z-0.1193 I0. J-0.0213
Y3.1463 Z-0.1362 I0. J0.0213
Y3.1037 Z-0.1531 I0. J-0.0213
Y3.1463 Z-0.1701 I0. J0.0213
Y3.1037 Z-0.187 I0. J-0.0213
Y3.1463 Z-0.2039 I0. J0.0213
Y3.1037 Z-0.2208 I0. J-0.0213
Y3.1463 Z-0.2378 I0. J0.0213
Y3.1037 Z-0.2547 I0. J-0.0213
Y3.1463 Z-0.2716 I0. J0.0213
X1.4787 Y3.1253 Z-0.28 I0. J-0.0213
X1.5213 Y3.1247 I0.0213 J-0.0003
X1.4787 Y3.1253 I-0.0213 J0.0003
X1.4892 Y3.1145 I0.0106 J-0.0002
G1 X1.4967 Y3.1144
X1.4996 Z-0.2797
X1.5024 Y3.1143 Z-0.2789
X1.505 Z-0.2775
X1.5072 Y3.1142 Z-0.2756
X1.5091 Z-0.2734
X1.5105 Z-0.2708
X1.5113 Z-0.268
X1.5116 Z-0.2651
G0 Z0.4
X1.4894 Y1.8868
Z0.13
G1 Z0.0649 F40.
G19 G2 Y1.8718 Z0.05 J-0.0149 K0.
G1 Y1.8643
G17 G3 X1.5 Y1.8537 I0.0106 J0.
Y1.8963 Z0.0331 I0. J0.0213
Y1.8537 Z0.0161 I0. J-0.0213
Y1.8963 Z-0.0008 I0. J0.0213
Y1.8537 Z-0.0177 I0. J-0.0213
Y1.8963 Z-0.0346 I0. J0.0213
Y1.8537 Z-0.0516 I0. J-0.0213
Y1.8963 Z-0.0685 I0. J0.0213
Y1.8537 Z-0.0854 I0. J-0.0213
Y1.8963 Z-0.1023 I0. J0.0213
Y1.8537 Z-0.1193 I0. J-0.0213
Y1.8963 Z-0.1362 I0. J0.0213
Y1.8537 Z-0.1531 I0. J-0.0213
Y1.8963 Z-0.1701 I0. J0.0213
Y1.8537 Z-0.187 I0. J-0.0213
Y1.8963 Z-0.2039 I0. J0.0213
Y1.8537 Z-0.2208 I0. J-0.0213
Y1.8963 Z-0.2378 I0. J0.0213
Y1.8537 Z-0.2547 I0. J-0.0213
Y1.8963 Z-0.2716 I0. J0.0213
X1.4787 Y1.8753 Z-0.28 I0. J-0.0213
X1.5213 Y1.8747 I0.0213 J-0.0003
X1.4787 Y1.8753 I-0.0213 J0.0003
X1.4892 Y1.8645 I0.0106 J-0.0002
G1 X1.4967 Y1.8644
X1.4996 Z-0.2797
X1.5024 Y1.8643 Z-0.2789
X1.505 Z-0.2775
X1.5072 Y1.8642 Z-0.2756
X1.5091 Z-0.2734
X1.5105 Z-0.2708
X1.5113 Z-0.268
X1.5116 Z-0.2651
G0 Z0.4
X0.4894 Y1.8868
Z0.13
G1 Z0.0649 F40.
G19 G2 Y1.8718 Z0.05 J-0.0149 K0.
G1 Y1.8643
G17 G3 X0.5 Y1.8537 I0.0106 J0.
Y1.8963 Z0.0331 I0. J0.0213
Y1.8537 Z0.0161 I0. J-0.0213
Y1.8963 Z-0.0008 I0. J0.0213
Y1.8537 Z-0.0177 I0. J-0.0213
Y1.8963 Z-0.0346 I0. J0.0213
Y1.8537 Z-0.0516 I0. J-0.0213
Y1.8963 Z-0.0685 I0. J0.0213
Y1.8537 Z-0.0854 I0. J-0.0213
Y1.8963 Z-0.1023 I0. J0.0213
Y1.8537 Z-0.1193 I0. J-0.0213
Y1.8963 Z-0.1362 I0. J0.0213
Y1.8537 Z-0.1531 I0. J-0.0213
Y1.8963 Z-0.1701 I0. J0.0213
Y1.8537 Z-0.187 I0. J-0.0213
Y1.8963 Z-0.2039 I0. J0.0213
Y1.8537 Z-0.2208 I0. J-0.0213
Y1.8963 Z-0.2378 I0. J0.0213
Y1.8537 Z-0.2547 I0. J-0.0213
Y1.8963 Z-0.2716 I0. J0.0213
X0.4787 Y1.8753 Z-0.28 I0. J-0.0213
X0.5213 Y1.8747 I0.0213 J-0.0003
X0.4787 Y1.8753 I-0.0213 J0.0003
X0.4892 Y1.8645 I0.0106 J-0.0002
G1 X0.4967 Y1.8644
X0.4996 Z-0.2797
X0.5024 Y1.8643 Z-0.2789
X0.505 Z-0.2775
X0.5072 Y1.8642 Z-0.2756
X0.5091 Z-0.2734
X0.5105 Z-0.2708
X0.5113 Z-0.268
X0.5116 Z-0.2651
G0 Z0.4
X-0.5106 Y1.8868
Z0.13
G1 Z0.0649 F40.
G19 G2 Y1.8718 Z0.05 J-0.0149 K0.
G1 Y1.8643
G17 G3 X-0.5 Y1.8537 I0.0106 J0.
Y1.8963 Z0.0331 I0. J0.0213
Y1.8537 Z0.0161 I0. J-0.0213
Y1.8963 Z-0.0008 I0. J0.0213
Y1.8537 Z-0.0177 I0. J-0.0213
Y1.8963 Z-0.0346 I0. J0.0213
Y1.8537 Z-0.0516 I0. J-0.0213
Y1.8963 Z-0.0685 I0. J0.0213
Y1.8537 Z-0.0854 I0. J-0.0213
Y1.8963 Z-0.1023 I0. J0.0213
Y1.8537 Z-0.1193 I0. J-0.0213
Y1.8963 Z-0.1362 I0. J0.0213
Y1.8537 Z-0.1531 I0. J-0.0213
Y1.8963 Z-0.1701 I0. J0.0213
Y1.8537 Z-0.187 I0. J-0.0213
Y1.8963 Z-0.2039 I0. J0.0213
Y1.8537 Z-0.2208 I0. J-0.0213
Y1.8963 Z-0.2378 I0. J0.0213
Y1.8537 Z-0.2547 I0. J-0.0213
Y1.8963 Z-0.2716 I0. J0.0213
X-0.5213 Y1.8753 Z-0.28 I0. J-0.0213
X-0.4787 Y1.8747 I0.0213 J-0.0003
X-0.5213 Y1.8753 I-0.0213 J0.0003
X-0.5108 Y1.8645 I0.0106 J-0.0002
G1 X-0.5033 Y1.8644
X-0.5004 Z-0.2797
X-0.4976 Y1.8643 Z-0.2789
X-0.495 Z-0.2775
X-0.4928 Y1.8642 Z-0.2756
X-0.4909 Z-0.2734
X-0.4895 Z-0.2708
X-0.4887 Z-0.268
X-0.4884 Z-0.2651
G0 Z0.4
X-1.5107 Y1.8868
Z0.13
G1 Z0.0649 F40.
G19 G2 Y1.8718 Z0.05 J-0.0149 K0.
G1 Y1.8643
G17 G3 X-1.5 Y1.8537 I0.0107 J0.
Y1.8963 Z0.0331 I0. J0.0213
Y1.8537 Z0.0161 I0. J-0.0213
Y1.8963 Z-0.0008 I0. J0.0213
Y1.8537 Z-0.0177 I0. J-0.0213
Y1.8963 Z-0.0346 I0. J0.0213
Y1.8537 Z-0.0516 I0. J-0.0213
Y1.8963 Z-0.0685 I0. J0.0213
Y1.8537 Z-0.0854 I0. J-0.0213
Y1.8963 Z-0.1023 I0. J0.0213
Y1.8537 Z-0.1193 I0. J-0.0213
Y1.8963 Z-0.1362 I0. J0.0213
Y1.8537 Z-0.1531 I0. J-0.0213
Y1.8963 Z-0.1701 I0. J0.0213
Y1.8537 Z-0.187 I0. J-0.0213
Y1.8963 Z-0.2039 I0. J0.0213
Y1.8537 Z-0.2208 I0. J-0.0213
Y1.8963 Z-0.2378 I0. J0.0213
Y1.8537 Z-0.2547 I0. J-0.0213
Y1.8963 Z-0.2716 I0. J0.0213
X-1.5213 Y1.8753 Z-0.28 I0. J-0.0213
X-1.4787 Y1.8747 I0.0213 J-0.0003
X-1.5213 Y1.8753 I-0.0213 J0.0003
X-1.5108 Y1.8645 I0.0106 J-0.0002
G1 X-1.5033 Y1.8644
X-1.5004 Z-0.2797
X-1.4976 Y1.8643 Z-0.2789
X-1.495 Z-0.2775
X-1.4928 Y1.8642 Z-0.2756
X-1.4909 Z-0.2734
X-1.4895 Z-0.2708
X-1.4887 Z-0.268
X-1.4884 Z-0.2651
G0 Z0.4
X-2.5107 Y1.8868
Z0.13
G1 Z0.0649 F40.
G19 G2 Y1.8718 Z0.05 J-0.0149 K0.
G1 Y1.8643
G17 G3 X-2.5 Y1.8537 I0.0107 J0.
Y1.8963 Z0.0331 I0. J0.0213
Y1.8537 Z0.0161 I0. J-0.0213
Y1.8963 Z-0.0008 I0. J0.0213
Y1.8537 Z-0.0177 I0. J-0.0213
Y1.8963 Z-0.0346 I0. J0.0213
Y1.8537 Z-0.0516 I0. J-0.0213
Y1.8963 Z-0.0685 I0. J0.0213
Y1.8537 Z-0.0854 I0. J-0.0213
Y1.8963 Z-0.1023 I0. J0.0213
Y1.8537 Z-0.1193 I0. J-0.0213
Y1.8963 Z-0.1362 I0. J0.0213
Y1.8537 Z-0.1531 I0. J-0.0213
Y1.8963 Z-0.1701 I0. J0.0213
Y1.8537 Z-0.187 I0. J-0.0213
Y1.8963 Z-0.2039 I0. J0.0213
Y1.8537 Z-0.2208 I0. J-0.0213
Y1.8963 Z-0.2378 I0. J0.0213
Y1.8537 Z-0.2547 I0. J-0.0213
Y1.8963 Z-0.2716 I0. J0.0213
X-2.5213 Y1.8753 Z-0.28 I0. J-0.0213
X-2.4787 Y1.8747 I0.0213 J-0.0003
X-2.5213 Y1.8753 I-0.0213 J0.0003
X-2.5108 Y1.8645 I0.0106 J-0.0002
G1 X-2.5033 Y1.8644
X-2.5004 Z-0.2797
X-2.4976 Y1.8643 Z-0.2789
X-2.495 Z-0.2775
X-2.4928 Y1.8642 Z-0.2756
X-2.4909 Z-0.2734
X-2.4895 Z-0.2708
X-2.4887 Z-0.268
X-2.4884 Z-0.2651
G0 Z0.4
X-3.5106 Y1.8868
Z0.13
G1 Z0.0649 F40.
G19 G2 Y1.8718 Z0.05 J-0.0149 K0.
G1 Y1.8643
G17 G3 X-3.5 Y1.8537 I0.0106 J0.
Y1.8963 Z0.0331 I0. J0.0213
Y1.8537 Z0.0161 I0. J-0.0213
Y1.8963 Z-0.0008 I0. J0.0213
Y1.8537 Z-0.0177 I0. J-0.0213
Y1.8963 Z-0.0346 I0. J0.0213
Y1.8537 Z-0.0516 I0. J-0.0213
Y1.8963 Z-0.0685 I0. J0.0213
Y1.8537 Z-0.0854 I0. J-0.0213
Y1.8963 Z-0.1023 I0. J0.0213
Y1.8537 Z-0.1193 I0. J-0.0213
Y1.8963 Z-0.1362 I0. J0.0213
Y1.8537 Z-0.1531 I0. J-0.0213
Y1.8963 Z-0.1701 I0. J0.0213
Y1.8537 Z-0.187 I0. J-0.0213
Y1.8963 Z-0.2039 I0. J0.0213
Y1.8537 Z-0.2208 I0. J-0.0213
Y1.8963 Z-0.2378 I0. J0.0213
Y1.8537 Z-0.2547 I0. J-0.0213
Y1.8963 Z-0.2716 I0. J0.0213
X-3.5213 Y1.8753 Z-0.28 I0. J-0.0213
X-3.4787 Y1.8747 I0.0213 J-0.0003
X-3.5213 Y1.8753 I-0.0213 J0.0003
X-3.5108 Y1.8645 I0.0106 J-0.0002
G1 X-3.5033 Y1.8644
X-3.5004 Z-0.2797
X-3.4976 Y1.8643 Z-0.2789
X-3.495 Z-0.2775
X-3.4928 Y1.8642 Z-0.2756
X-3.4909 Z-0.2734
X-3.4895 Z-0.2708
X-3.4887 Z-0.268
X-3.4884 Z-0.2651
G0 Z0.4
X-4.5107 Y1.8868
Z0.13
G1 Z0.0649 F40.
G19 G2 Y1.8718 Z0.05 J-0.0149 K0.
G1 Y1.8643
G17 G3 X-4.5 Y1.8537 I0.0106 J0.
Y1.8963 Z0.0331 I0. J0.0213
Y1.8537 Z0.0161 I0. J-0.0213
Y1.8963 Z-0.0008 I0. J0.0213
Y1.8537 Z-0.0177 I0. J-0.0213
Y1.8963 Z-0.0346 I0. J0.0213
Y1.8537 Z-0.0516 I0. J-0.0213
Y1.8963 Z-0.0685 I0. J0.0213
Y1.8537 Z-0.0854 I0. J-0.0213
Y1.8963 Z-0.1023 I0. J0.0213
Y1.8537 Z-0.1193 I0. J-0.0213
Y1.8963 Z-0.1362 I0. J0.0213
Y1.8537 Z-0.1531 I0. J-0.0213
Y1.8963 Z-0.1701 I0. J0.0213
Y1.8537 Z-0.187 I0. J-0.0213
Y1.8963 Z-0.2039 I0. J0.0213
Y1.8537 Z-0.2208 I0. J-0.0213
Y1.8963 Z-0.2378 I0. J0.0213
Y1.8537 Z-0.2547 I0. J-0.0213
Y1.8963 Z-0.2716 I0. J0.0213
X-4.5213 Y1.8753 Z-0.28 I0. J-0.0213
X-4.4787 Y1.8747 I0.0213 J-0.0003
X-4.5213 Y1.8753 I-0.0213 J0.0003
X-4.5108 Y1.8645 I0.0106 J-0.0002
G1 X-4.5033 Y1.8644
X-4.5004 Z-0.2797
X-4.4976 Y1.8643 Z-0.2789
X-4.495 Z-0.2775
X-4.4928 Y1.8642 Z-0.2756
X-4.4909 Z-0.2734
X-4.4895 Z-0.2708
X-4.4887 Z-0.268
X-4.4884 Z-0.2651
G0 Z0.4
X-5.5106 Y1.8868
Z0.13
G1 Z0.0649 F40.
G19 G2 Y1.8718 Z0.05 J-0.0149 K0.
G1 Y1.8643
G17 G3 X-5.5 Y1.8537 I0.0106 J0.
Y1.8963 Z0.0331 I0. J0.0213
Y1.8537 Z0.0161 I0. J-0.0213
Y1.8963 Z-0.0008 I0. J0.0213
Y1.8537 Z-0.0177 I0. J-0.0213
Y1.8963 Z-0.0346 I0. J0.0213
Y1.8537 Z-0.0516 I0. J-0.0213
Y1.8963 Z-0.0685 I0. J0.0213
Y1.8537 Z-0.0854 I0. J-0.0213
Y1.8963 Z-0.1023 I0. J0.0213
Y1.8537 Z-0.1193 I0. J-0.0213
Y1.8963 Z-0.1362 I0. J0.0213
Y1.8537 Z-0.1531 I0. J-0.0213
Y1.8963 Z-0.1701 I0. J0.0213
Y1.8537 Z-0.187 I0. J-0.0213
Y1.8963 Z-0.2039 I0. J0.0213
Y1.8537 Z-0.2208 I0. J-0.0213
Y1.8963 Z-0.2378 I0. J0.0213
Y1.8537 Z-0.2547 I0. J-0.0213
Y1.8963 Z-0.2716 I0. J0.0213
X-5.5213 Y1.8753 Z-0.28 I0. J-0.0213
X-5.4787 Y1.8747 I0.0213 J-0.0003
X-5.5213 Y1.8753 I-0.0213 J0.0003
X-5.5108 Y1.8645 I0.0106 J-0.0002
G1 X-5.5033 Y1.8644
X-5.5004 Z-0.2797
X-5.4976 Y1.8643 Z-0.2789
X-5.495 Z-0.2775
X-5.4928 Y1.8642 Z-0.2756
X-5.4909 Z-0.2734
X-5.4895 Z-0.2708
X-5.4887 Z-0.268
X-5.4884 Z-0.2651
G0 Z0.4
X-6.5107 Y1.8868
Z0.13
G1 Z0.0649 F40.
G19 G2 Y1.8718 Z0.05 J-0.0149 K0.
G1 Y1.8643
G17 G3 X-6.5 Y1.8537 I0.0106 J0.
Y1.8963 Z0.0331 I0. J0.0213
Y1.8537 Z0.0161 I0. J-0.0213
Y1.8963 Z-0.0008 I0. J0.0213
Y1.8537 Z-0.0177 I0. J-0.0213
Y1.8963 Z-0.0346 I0. J0.0213
Y1.8537 Z-0.0516 I0. J-0.0213
Y1.8963 Z-0.0685 I0. J0.0213
Y1.8537 Z-0.0854 I0. J-0.0213
Y1.8963 Z-0.1023 I0. J0.0213
Y1.8537 Z-0.1193 I0. J-0.0213
Y1.8963 Z-0.1362 I0. J0.0213
Y1.8537 Z-0.1531 I0. J-0.0213
Y1.8963 Z-0.1701 I0. J0.0213
Y1.8537 Z-0.187 I0. J-0.0213
Y1.8963 Z-0.2039 I0. J0.0213
Y1.8537 Z-0.2208 I0. J-0.0213
Y1.8963 Z-0.2378 I0. J0.0213
Y1.8537 Z-0.2547 I0. J-0.0213
Y1.8963 Z-0.2716 I0. J0.0213
X-6.5213 Y1.8753 Z-0.28 I0. J-0.0213
X-6.4787 Y1.8747 I0.0213 J-0.0003
X-6.5213 Y1.8753 I-0.0213 J0.0003
X-6.5108 Y1.8645 I0.0106 J-0.0002
G1 X-6.5033 Y1.8644
X-6.5004 Z-0.2797
X-6.4976 Y1.8643 Z-0.2789
X-6.495 Z-0.2775
X-6.4928 Y1.8642 Z-0.2756
X-6.4909 Z-0.2734
X-6.4895 Z-0.2708
X-6.4887 Z-0.268
X-6.4884 Z-0.2651
G0 Z0.4
X-7.5106 Y1.8868
Z0.13
G1 Z0.0649 F40.
G19 G2 Y1.8718 Z0.05 J-0.0149 K0.
G1 Y1.8643
G17 G3 X-7.5 Y1.8537 I0.0106 J0.
Y1.8963 Z0.0331 I0. J0.0213
Y1.8537 Z0.0161 I0. J-0.0213
Y1.8963 Z-0.0008 I0. J0.0213
Y1.8537 Z-0.0177 I0. J-0.0213
Y1.8963 Z-0.0346 I0. J0.0213
Y1.8537 Z-0.0516 I0. J-0.0213
Y1.8963 Z-0.0685 I0. J0.0213
Y1.8537 Z-0.0854 I0. J-0.0213
Y1.8963 Z-0.1023 I0. J0.0213
Y1.8537 Z-0.1193 I0. J-0.0213
Y1.8963 Z-0.1362 I0. J0.0213
Y1.8537 Z-0.1531 I0. J-0.0213
Y1.8963 Z-0.1701 I0. J0.0213
Y1.8537 Z-0.187 I0. J-0.0213
Y1.8963 Z-0.2039 I0. J0.0213
Y1.8537 Z-0.2208 I0. J-0.0213
Y1.8963 Z-0.2378 I0. J0.0213
Y1.8537 Z-0.2547 I0. J-0.0213
Y1.8963 Z-0.2716 I0. J0.0213
X-7.5213 Y1.8753 Z-0.28 I0. J-0.0213
X-7.4787 Y1.8747 I0.0213 J-0.0003
X-7.5213 Y1.8753 I-0.0213 J0.0003
X-7.5108 Y1.8645 I0.0106 J-0.0002
G1 X-7.5033 Y1.8644
X-7.5004 Z-0.2797
X-7.4976 Y1.8643 Z-0.2789
X-7.495 Z-0.2775
X-7.4928 Y1.8642 Z-0.2756
X-7.4909 Z-0.2734
X-7.4895 Z-0.2708
X-7.4887 Z-0.268
X-7.4884 Z-0.2651
G0 Z0.4
X-7.9871 Y1.9905
Z0.13
G1 Z0.0649 F40.
G19 G3 Y2.0054 Z0.05 J0.0149 K0.
G1 Y2.0129
G17 G3 X-8. Y2.0258 I-0.0129 J0.
Y1.9742 Z0.0323 I0. J-0.0258
Y2.0258 Z0.0146 I0. J0.0258
Y1.9742 Z-0.0032 I0. J-0.0258
Y2.0258 Z-0.0209 I0. J0.0258
Y1.9742 Z-0.0386 I0. J-0.0258
Y2.0258 Z-0.0563 I0. J0.0258
Y1.9742 Z-0.074 I0. J-0.0258
Y2.0258 Z-0.0918 I0. J0.0258
Y1.9742 Z-0.1095 I0. J-0.0258
Y2.0258 Z-0.1272 I0. J0.0258
Y1.9742 Z-0.1449 I0. J-0.0258
Y2.0258 Z-0.1627 I0. J0.0258
Y1.9742 Z-0.1804 I0. J-0.0258
Y2.0258 Z-0.1981 I0. J0.0258
Y1.9742 Z-0.2158 I0. J-0.0258
Y2.0258 Z-0.2335 I0. J0.0258
Y1.9742 Z-0.2513 I0. J-0.0258
Y2.0258 Z-0.269 I0. J0.0258
X-8.0239 Y1.9903 Z-0.28 I0. J-0.0258
X-7.9761 Y2.0097 I0.0239 J0.0097
X-8.0239 Y1.9903 I-0.0239 J-0.0097
X-8.0071 Y1.9832 I0.012 J0.0048
G1 X-8.0002 Y1.986
X-7.9975 Y1.9871 Z-0.2797
X-7.9949 Y1.9881 Z-0.2789
X-7.9925 Y1.9891 Z-0.2775
X-7.9904 Y1.99 Z-0.2756
X-7.9887 Y1.9907 Z-0.2734
X-7.9874 Y1.9912 Z-0.2708
X-7.9866 Y1.9915 Z-0.268
X-7.9864 Y1.9916 Z-0.2651
G0 Z0.4
X-7.9871 Y2.4905
Z0.13
G1 Z0.0649 F40.
G19 G3 Y2.5054 Z0.05 J0.0149 K0.
G1 Y2.5129
G17 G3 X-8. Y2.5258 I-0.0129 J0.
Y2.4742 Z0.0323 I0. J-0.0258
Y2.5258 Z0.0146 I0. J0.0258
Y2.4742 Z-0.0032 I0. J-0.0258
Y2.5258 Z-0.0209 I0. J0.0258
Y2.4742 Z-0.0386 I0. J-0.0258
Y2.5258 Z-0.0563 I0. J0.0258
Y2.4742 Z-0.074 I0. J-0.0258
Y2.5258 Z-0.0918 I0. J0.0258
Y2.4742 Z-0.1095 I0. J-0.0258
Y2.5258 Z-0.1272 I0. J0.0258
Y2.4742 Z-0.1449 I0. J-0.0258
Y2.5258 Z-0.1627 I0. J0.0258
Y2.4742 Z-0.1804 I0. J-0.0258
Y2.5258 Z-0.1981 I0. J0.0258
Y2.4742 Z-0.2158 I0. J-0.0258
Y2.5258 Z-0.2335 I0. J0.0258
Y2.4742 Z-0.2513 I0. J-0.0258
Y2.5258 Z-0.269 I0. J0.0258
X-8.0239 Y2.4903 Z-0.28 I0. J-0.0258
X-7.9761 Y2.5097 I0.0239 J0.0097
X-8.0239 Y2.4903 I-0.0239 J-0.0097
X-8.0071 Y2.4832 I0.012 J0.0048
G1 X-8.0002 Y2.486
X-7.9975 Y2.4871 Z-0.2797
X-7.9949 Y2.4881 Z-0.2789
X-7.9925 Y2.4891 Z-0.2775
X-7.9904 Y2.49 Z-0.2756
X-7.9887 Y2.4907 Z-0.2734
X-7.9874 Y2.4912 Z-0.2708
X-7.9866 Y2.4915 Z-0.268
X-7.9864 Y2.4916 Z-0.2651
G0 Z0.4
X-7.9871 Y2.9905
Z0.13
G1 Z0.0649 F40.
G19 G3 Y3.0054 Z0.05 J0.0149 K0.
G1 Y3.0129
G17 G3 X-8. Y3.0258 I-0.0129 J0.
Y2.9742 Z0.0323 I0. J-0.0258
Y3.0258 Z0.0146 I0. J0.0258
Y2.9742 Z-0.0032 I0. J-0.0258
Y3.0258 Z-0.0209 I0. J0.0258
Y2.9742 Z-0.0386 I0. J-0.0258
Y3.0258 Z-0.0563 I0. J0.0258
Y2.9742 Z-0.074 I0. J-0.0258
Y3.0258 Z-0.0918 I0. J0.0258
Y2.9742 Z-0.1095 I0. J-0.0258
Y3.0258 Z-0.1272 I0. J0.0258
Y2.9742 Z-0.1449 I0. J-0.0258
Y3.0258 Z-0.1627 I0. J0.0258
Y2.9742 Z-0.1804 I0. J-0.0258
Y3.0258 Z-0.1981 I0. J0.0258
Y2.9742 Z-0.2158 I0. J-0.0258
Y3.0258 Z-0.2335 I0. J0.0258
Y2.9742 Z-0.2513 I0. J-0.0258
Y3.0258 Z-0.269 I0. J0.0258
X-8.0239 Y2.9903 Z-0.28 I0. J-0.0258
X-7.9761 Y3.0097 I0.0239 J0.0097
X-8.0239 Y2.9903 I-0.0239 J-0.0097
X-8.0071 Y2.9832 I0.012 J0.0048
G1 X-8.0002 Y2.986
X-7.9975 Y2.9871 Z-0.2797
X-7.9949 Y2.9881 Z-0.2789
X-7.9925 Y2.9891 Z-0.2775
X-7.9904 Y2.99 Z-0.2756
X-7.9887 Y2.9907 Z-0.2734
X-7.9874 Y2.9912 Z-0.2708
X-7.9866 Y2.9915 Z-0.268
X-7.9864 Y2.9916 Z-0.2651
G0 Z0.4
X-7.5106 Y3.1368
Z0.13
G1 Z0.0649 F40.
G19 G2 Y3.1218 Z0.05 J-0.0149 K0.
G1 Y3.1144
G17 G3 X-7.5 Y3.1037 I0.0106 J0.
Y3.1463 Z0.0331 I0. J0.0213
Y3.1037 Z0.0161 I0. J-0.0213
Y3.1463 Z-0.0008 I0. J0.0213
Y3.1037 Z-0.0177 I0. J-0.0213
Y3.1463 Z-0.0346 I0. J0.0213
Y3.1037 Z-0.0516 I0. J-0.0213
Y3.1463 Z-0.0685 I0. J0.0213
Y3.1037 Z-0.0854 I0. J-0.0213
Y3.1463 Z-0.1023 I0. J0.0213
Y3.1037 Z-0.1193 I0. J-0.0213
Y3.1463 Z-0.1362 I0. J0.0213
Y3.1037 Z-0.1531 I0. J-0.0213
Y3.1463 Z-0.1701 I0. J0.0213
Y3.1037 Z-0.187 I0. J-0.0213
Y3.1463 Z-0.2039 I0. J0.0213
Y3.1037 Z-0.2208 I0. J-0.0213
Y3.1463 Z-0.2378 I0. J0.0213
Y3.1037 Z-0.2547 I0. J-0.0213
Y3.1463 Z-0.2716 I0. J0.0213
X-7.5213 Y3.1253 Z-0.28 I0. J-0.0213
X-7.4787 Y3.1247 I0.0213 J-0.0003
X-7.5213 Y3.1253 I-0.0213 J0.0003
X-7.5108 Y3.1145 I0.0106 J-0.0002
G1 X-7.5033 Y3.1144
X-7.5004 Z-0.2797
X-7.4976 Y3.1143 Z-0.2789
X-7.495 Z-0.2775
X-7.4928 Y3.1142 Z-0.2756
X-7.4909 Z-0.2734
X-7.4895 Z-0.2708
X-7.4887 Z-0.268
X-7.4884 Z-0.2651
G0 Z0.4
X-6.5107 Y3.1368
Z0.13
G1 Z0.0649 F40.
G19 G2 Y3.1218 Z0.05 J-0.0149 K0.
G1 Y3.1144
G17 G3 X-6.5 Y3.1037 I0.0106 J0.
Y3.1463 Z0.0331 I0. J0.0213
Y3.1037 Z0.0161 I0. J-0.0213
Y3.1463 Z-0.0008 I0. J0.0213
Y3.1037 Z-0.0177 I0. J-0.0213
Y3.1463 Z-0.0346 I0. J0.0213
Y3.1037 Z-0.0516 I0. J-0.0213
Y3.1463 Z-0.0685 I0. J0.0213
Y3.1037 Z-0.0854 I0. J-0.0213
Y3.1463 Z-0.1023 I0. J0.0213
Y3.1037 Z-0.1193 I0. J-0.0213
Y3.1463 Z-0.1362 I0. J0.0213
Y3.1037 Z-0.1531 I0. J-0.0213
Y3.1463 Z-0.1701 I0. J0.0213
Y3.1037 Z-0.187 I0. J-0.0213
Y3.1463 Z-0.2039 I0. J0.0213
Y3.1037 Z-0.2208 I0. J-0.0213
Y3.1463 Z-0.2378 I0. J0.0213
Y3.1037 Z-0.2547 I0. J-0.0213
Y3.1463 Z-0.2716 I0. J0.0213
X-6.5213 Y3.1253 Z-0.28 I0. J-0.0213
X-6.4787 Y3.1247 I0.0213 J-0.0003
X-6.5213 Y3.1253 I-0.0213 J0.0003
X-6.5108 Y3.1145 I0.0106 J-0.0002
G1 X-6.5033 Y3.1144
X-6.5004 Z-0.2797
X-6.4976 Y3.1143 Z-0.2789
X-6.495 Z-0.2775
X-6.4928 Y3.1142 Z-0.2756
X-6.4909 Z-0.2734
X-6.4895 Z-0.2708
X-6.4887 Z-0.268
X-6.4884 Z-0.2651
G0 Z0.4
X-5.5106 Y3.1368
Z0.13
G1 Z0.0649 F40.
G19 G2 Y3.1218 Z0.05 J-0.0149 K0.
G1 Y3.1144
G17 G3 X-5.5 Y3.1037 I0.0106 J0.
Y3.1463 Z0.0331 I0. J0.0213
Y3.1037 Z0.0161 I0. J-0.0213
Y3.1463 Z-0.0008 I0. J0.0213
Y3.1037 Z-0.0177 I0. J-0.0213
Y3.1463 Z-0.0346 I0. J0.0213
Y3.1037 Z-0.0516 I0. J-0.0213
Y3.1463 Z-0.0685 I0. J0.0213
Y3.1037 Z-0.0854 I0. J-0.0213
Y3.1463 Z-0.1023 I0. J0.0213
Y3.1037 Z-0.1193 I0. J-0.0213
Y3.1463 Z-0.1362 I0. J0.0213
Y3.1037 Z-0.1531 I0. J-0.0213
Y3.1463 Z-0.1701 I0. J0.0213
Y3.1037 Z-0.187 I0. J-0.0213
Y3.1463 Z-0.2039 I0. J0.0213
Y3.1037 Z-0.2208 I0. J-0.0213
Y3.1463 Z-0.2378 I0. J0.0213
Y3.1037 Z-0.2547 I0. J-0.0213
Y3.1463 Z-0.2716 I0. J0.0213
X-5.5213 Y3.1253 Z-0.28 I0. J-0.0213
X-5.4787 Y3.1247 I0.0213 J-0.0003
X-5.5213 Y3.1253 I-0.0213 J0.0003
X-5.5108 Y3.1145 I0.0106 J-0.0002
G1 X-5.5033 Y3.1144
X-5.5004 Z-0.2797
X-5.4976 Y3.1143 Z-0.2789
X-5.495 Z-0.2775
X-5.4928 Y3.1142 Z-0.2756
X-5.4909 Z-0.2734
X-5.4895 Z-0.2708
X-5.4887 Z-0.268
X-5.4884 Z-0.2651
G0 Z0.4
X-4.5107 Y3.1368
Z0.13
G1 Z0.0649 F40.
G19 G2 Y3.1218 Z0.05 J-0.0149 K0.
G1 Y3.1144
G17 G3 X-4.5 Y3.1037 I0.0106 J0.
Y3.1463 Z0.0331 I0. J0.0213
Y3.1037 Z0.0161 I0. J-0.0213
Y3.1463 Z-0.0008 I0. J0.0213
Y3.1037 Z-0.0177 I0. J-0.0213
Y3.1463 Z-0.0346 I0. J0.0213
Y3.1037 Z-0.0516 I0. J-0.0213
Y3.1463 Z-0.0685 I0. J0.0213
Y3.1037 Z-0.0854 I0. J-0.0213
Y3.1463 Z-0.1023 I0. J0.0213
Y3.1037 Z-0.1193 I0. J-0.0213
Y3.1463 Z-0.1362 I0. J0.0213
Y3.1037 Z-0.1531 I0. J-0.0213
Y3.1463 Z-0.1701 I0. J0.0213
Y3.1037 Z-0.187 I0. J-0.0213
Y3.1463 Z-0.2039 I0. J0.0213
Y3.1037 Z-0.2208 I0. J-0.0213
Y3.1463 Z-0.2378 I0. J0.0213
Y3.1037 Z-0.2547 I0. J-0.0213
Y3.1463 Z-0.2716 I0. J0.0213
X-4.5213 Y3.1253 Z-0.28 I0. J-0.0213
X-4.4787 Y3.1247 I0.0213 J-0.0003
X-4.5213 Y3.1253 I-0.0213 J0.0003
X-4.5108 Y3.1145 I0.0106 J-0.0002
G1 X-4.5033 Y3.1144
X-4.5004 Z-0.2797
X-4.4976 Y3.1143 Z-0.2789
X-4.495 Z-0.2775
X-4.4928 Y3.1142 Z-0.2756
X-4.4909 Z-0.2734
X-4.4895 Z-0.2708
X-4.4887 Z-0.268
X-4.4884 Z-0.2651
G0 Z0.4
X-3.5106 Y3.1368
Z0.13
G1 Z0.0649 F40.
G19 G2 Y3.1218 Z0.05 J-0.0149 K0.
G1 Y3.1144
G17 G3 X-3.5 Y3.1037 I0.0106 J0.
Y3.1463 Z0.0331 I0. J0.0213
Y3.1037 Z0.0161 I0. J-0.0213
Y3.1463 Z-0.0008 I0. J0.0213
Y3.1037 Z-0.0177 I0. J-0.0213
Y3.1463 Z-0.0346 I0. J0.0213
Y3.1037 Z-0.0516 I0. J-0.0213
Y3.1463 Z-0.0685 I0. J0.0213
Y3.1037 Z-0.0854 I0. J-0.0213
Y3.1463 Z-0.1023 I0. J0.0213
Y3.1037 Z-0.1193 I0. J-0.0213
Y3.1463 Z-0.1362 I0. J0.0213
Y3.1037 Z-0.1531 I0. J-0.0213
Y3.1463 Z-0.1701 I0. J0.0213
Y3.1037 Z-0.187 I0. J-0.0213
Y3.1463 Z-0.2039 I0. J0.0213
Y3.1037 Z-0.2208 I0. J-0.0213
Y3.1463 Z-0.2378 I0. J0.0213
Y3.1037 Z-0.2547 I0. J-0.0213
Y3.1463 Z-0.2716 I0. J0.0213
X-3.5213 Y3.1253 Z-0.28 I0. J-0.0213
X-3.4787 Y3.1247 I0.0213 J-0.0003
X-3.5213 Y3.1253 I-0.0213 J0.0003
X-3.5108 Y3.1145 I0.0106 J-0.0002
G1 X-3.5033 Y3.1144
X-3.5004 Z-0.2797
X-3.4976 Y3.1143 Z-0.2789
X-3.495 Z-0.2775
X-3.4928 Y3.1142 Z-0.2756
X-3.4909 Z-0.2734
X-3.4895 Z-0.2708
X-3.4887 Z-0.268
X-3.4884 Z-0.2651
G0 Z0.4
X-2.5107 Y3.1368
Z0.13
G1 Z0.0649 F40.
G19 G2 Y3.1218 Z0.05 J-0.0149 K0.
G1 Y3.1144
G17 G3 X-2.5 Y3.1037 I0.0107 J0.
Y3.1463 Z0.0331 I0. J0.0213
Y3.1037 Z0.0161 I0. J-0.0213
Y3.1463 Z-0.0008 I0. J0.0213
Y3.1037 Z-0.0177 I0. J-0.0213
Y3.1463 Z-0.0346 I0. J0.0213
Y3.1037 Z-0.0516 I0. J-0.0213
Y3.1463 Z-0.0685 I0. J0.0213
Y3.1037 Z-0.0854 I0. J-0.0213
Y3.1463 Z-0.1023 I0. J0.0213
Y3.1037 Z-0.1193 I0. J-0.0213
Y3.1463 Z-0.1362 I0. J0.0213
Y3.1037 Z-0.1531 I0. J-0.0213
Y3.1463 Z-0.1701 I0. J0.0213
Y3.1037 Z-0.187 I0. J-0.0213
Y3.1463 Z-0.2039 I0. J0.0213
Y3.1037 Z-0.2208 I0. J-0.0213
Y3.1463 Z-0.2378 I0. J0.0213
Y3.1037 Z-0.2547 I0. J-0.0213
Y3.1463 Z-0.2716 I0. J0.0213
X-2.5213 Y3.1253 Z-0.28 I0. J-0.0213
X-2.4787 Y3.1247 I0.0213 J-0.0003
X-2.5213 Y3.1253 I-0.0213 J0.0003
X-2.5108 Y3.1145 I0.0106 J-0.0002
G1 X-2.5033 Y3.1144
X-2.5004 Z-0.2797
X-2.4976 Y3.1143 Z-0.2789
X-2.495 Z-0.2775
X-2.4928 Y3.1142 Z-0.2756
X-2.4909 Z-0.2734
X-2.4895 Z-0.2708
X-2.4887 Z-0.268
X-2.4884 Z-0.2651
G0 Z0.4
X-2.2953 Y3.9705
Z0.13
G1 Z0.0649 F40.
G19 G3 Y3.9854 Z0.05 J0.0149 K0.
G1 Y3.9929
G17 G3 X-2.3059 Y4.0035 I-0.0106 J0.
Y3.9609 Z0.0331 I0. J-0.0213
Y4.0035 Z0.0161 I0. J0.0213
Y3.9609 Z-0.0008 I0. J-0.0213
Y4.0035 Z-0.0177 I0. J0.0213
Y3.9609 Z-0.0346 I0. J-0.0213
Y4.0035 Z-0.0516 I0. J0.0213
Y3.9609 Z-0.0685 I0. J-0.0213
Y4.0035 Z-0.0854 I0. J0.0213
Y3.9609 Z-0.1023 I0. J-0.0213
Y4.0035 Z-0.1193 I0. J0.0213
Y3.9609 Z-0.1362 I0. J-0.0213
Y4.0035 Z-0.1531 I0. J0.0213
Y3.9609 Z-0.1701 I0. J-0.0213
Y4.0035 Z-0.187 I0. J0.0213
Y3.9609 Z-0.2039 I0. J-0.0213
Y4.0035 Z-0.2208 I0. J0.0213
Y3.9609 Z-0.2378 I0. J-0.0213
Y4.0035 Z-0.2547 I0. J0.0213
Y3.9609 Z-0.2716 I0. J-0.0213
X-2.2846 Y3.9819 Z-0.28 I0. J0.0213
X-2.3272 Y3.9826 I-0.0213 J0.0003
X-2.2846 Y3.9819 I0.0213 J-0.0003
X-2.2951 Y3.9927 I-0.0106 J0.0002
G1 X-2.3026 Y3.9928
X-2.3055 Y3.9929 Z-0.2797
X-2.3083 Z-0.2789
X-2.3109 Y3.993 Z-0.2775
X-2.3131 Z-0.2756
X-2.315 Z-0.2734
X-2.3164 Y3.9931 Z-0.2708
X-2.3172 Z-0.268
X-2.3175 Z-0.2651
G0 Z0.4
X-3.1159 Y4.542
Z0.13
G1 Z0.0649 F40.
G19 G3 Y4.5569 Z0.05 J0.0149 K0.
G1 Y4.5644
G17 G3 X-3.1265 Y4.575 I-0.0106 J0.
Y4.5324 Z0.0331 I0. J-0.0213
Y4.575 Z0.0161 I0. J0.0213
Y4.5324 Z-0.0008 I0. J-0.0213
Y4.575 Z-0.0177 I0. J0.0213
Y4.5324 Z-0.0346 I0. J-0.0213
Y4.575 Z-0.0516 I0. J0.0213
Y4.5324 Z-0.0685 I0. J-0.0213
Y4.575 Z-0.0854 I0. J0.0213
Y4.5324 Z-0.1023 I0. J-0.0213
Y4.575 Z-0.1193 I0. J0.0213
Y4.5324 Z-0.1362 I0. J-0.0213
Y4.575 Z-0.1531 I0. J0.0213
Y4.5324 Z-0.1701 I0. J-0.0213
Y4.575 Z-0.187 I0. J0.0213
Y4.5324 Z-0.2039 I0. J-0.0213
Y4.575 Z-0.2208 I0. J0.0213
Y4.5324 Z-0.2378 I0. J-0.0213
Y4.575 Z-0.2547 I0. J0.0213
Y4.5324 Z-0.2716 I0. J-0.0213
X-3.1052 Y4.5534 Z-0.28 I0. J0.0213
X-3.1478 Y4.5541 I-0.0213 J0.0003
X-3.1052 Y4.5534 I0.0213 J-0.0003
X-3.1157 Y4.5642 I-0.0106 J0.0002
G1 X-3.1232 Y4.5643
X-3.1261 Y4.5644 Z-0.2797
X-3.1289 Z-0.2789
X-3.1315 Y4.5645 Z-0.2775
X-3.1337 Z-0.2756
X-3.1356 Z-0.2734
X-3.137 Z-0.2708
X-3.1378 Y4.5646 Z-0.268
X-3.1381 Z-0.2651
G0 Z0.4
X-3.9365 Y5.1135
Z0.13
G1 Z0.0649 F40.
G19 G3 Y5.1284 Z0.05 J0.0149 K0.
G1 Y5.1359
G17 G3 X-3.9471 Y5.1465 I-0.0107 J0.
Y5.1039 Z0.0331 I0. J-0.0213
Y5.1465 Z0.0161 I0. J0.0213
Y5.1039 Z-0.0008 I0. J-0.0213
Y5.1465 Z-0.0177 I0. J0.0213
Y5.1039 Z-0.0346 I0. J-0.0213
Y5.1465 Z-0.0516 I0. J0.0213
Y5.1039 Z-0.0685 I0. J-0.0213
Y5.1465 Z-0.0854 I0. J0.0213
Y5.1039 Z-0.1023 I0. J-0.0213
Y5.1465 Z-0.1193 I0. J0.0213
Y5.1039 Z-0.1362 I0. J-0.0213
Y5.1465 Z-0.1531 I0. J0.0213
Y5.1039 Z-0.1701 I0. J-0.0213
Y5.1465 Z-0.187 I0. J0.0213
Y5.1039 Z-0.2039 I0. J-0.0213
Y5.1465 Z-0.2208 I0. J0.0213
Y5.1039 Z-0.2378 I0. J-0.0213
Y5.1465 Z-0.2547 I0. J0.0213
Y5.1039 Z-0.2716 I0. J-0.0213
X-3.9258 Y5.1249 Z-0.28 I0. J0.0213
X-3.9684 Y5.1256 I-0.0213 J0.0003
X-3.9258 Y5.1249 I0.0213 J-0.0003
X-3.9363 Y5.1357 I-0.0106 J0.0002
G1 X-3.9438 Y5.1358
X-3.9467 Y5.1359 Z-0.2797
X-3.9495 Z-0.2789
X-3.9521 Y5.136 Z-0.2775
X-3.9543 Z-0.2756
X-3.9562 Z-0.2734
X-3.9576 Z-0.2708
X-3.9584 Y5.1361 Z-0.268
X-3.9587 Z-0.2651
G0 Z0.4
X-4.7571 Y5.685
Z0.13
G1 Z0.0649 F40.
G19 G3 Y5.6999 Z0.05 J0.0149 K0.
G1 Y5.7074
G17 G3 X-4.7677 Y5.718 I-0.0106 J0.
Y5.6754 Z0.0331 I0. J-0.0213
Y5.718 Z0.0161 I0. J0.0213
Y5.6754 Z-0.0008 I0. J-0.0213
Y5.718 Z-0.0177 I0. J0.0213
Y5.6754 Z-0.0346 I0. J-0.0213
Y5.718 Z-0.0516 I0. J0.0213
Y5.6754 Z-0.0685 I0. J-0.0213
Y5.718 Z-0.0854 I0. J0.0213
Y5.6754 Z-0.1023 I0. J-0.0213
Y5.718 Z-0.1193 I0. J0.0213
Y5.6754 Z-0.1362 I0. J-0.0213
Y5.718 Z-0.1531 I0. J0.0213
Y5.6754 Z-0.1701 I0. J-0.0213
Y5.718 Z-0.187 I0. J0.0213
Y5.6754 Z-0.2039 I0. J-0.0213
Y5.718 Z-0.2208 I0. J0.0213
Y5.6754 Z-0.2378 I0. J-0.0213
Y5.718 Z-0.2547 I0. J0.0213
Y5.6754 Z-0.2716 I0. J-0.0213
X-4.7464 Y5.6964 Z-0.28 I0. J0.0213
X-4.789 Y5.6971 I-0.0213 J0.0003
X-4.7464 Y5.6964 I0.0213 J-0.0003
X-4.7569 Y5.7072 I-0.0106 J0.0002
G1 X-4.7644 Y5.7073
X-4.7673 Y5.7074 Z-0.2797
X-4.7701 Z-0.2789
X-4.7727 Y5.7075 Z-0.2775
X-4.7749 Z-0.2756
X-4.7768 Z-0.2734
X-4.7782 Z-0.2708
X-4.779 Z-0.268
X-4.7793 Y5.7076 Z-0.2651
G0 Z0.4
X-5.5777 Y6.2565
Z0.13
G1 Z0.0649 F40.
G19 G3 Y6.2714 Z0.05 J0.0149 K0.
G1 Y6.2789
G17 G3 X-5.5883 Y6.2895 I-0.0106 J0.
Y6.2469 Z0.0331 I0. J-0.0213
Y6.2895 Z0.0161 I0. J0.0213
Y6.2469 Z-0.0008 I0. J-0.0213
Y6.2895 Z-0.0177 I0. J0.0213
Y6.2469 Z-0.0346 I0. J-0.0213
Y6.2895 Z-0.0516 I0. J0.0213
Y6.2469 Z-0.0685 I0. J-0.0213
Y6.2895 Z-0.0854 I0. J0.0213
Y6.2469 Z-0.1023 I0. J-0.0213
Y6.2895 Z-0.1193 I0. J0.0213
Y6.2469 Z-0.1362 I0. J-0.0213
Y6.2895 Z-0.1531 I0. J0.0213
Y6.2469 Z-0.1701 I0. J-0.0213
Y6.2895 Z-0.187 I0. J0.0213
Y6.2469 Z-0.2039 I0. J-0.0213
Y6.2895 Z-0.2208 I0. J0.0213
Y6.2469 Z-0.2378 I0. J-0.0213
Y6.2895 Z-0.2547 I0. J0.0213
Y6.2469 Z-0.2716 I0. J-0.0213
X-5.567 Y6.2679 Z-0.28 I0. J0.0213
X-5.6096 Y6.2685 I-0.0213 J0.0003
X-5.567 Y6.2679 I0.0213 J-0.0003
X-5.5775 Y6.2787 I-0.0106 J0.0002
G1 X-5.585 Y6.2788
X-5.5879 Y6.2789 Z-0.2797
X-5.5907 Z-0.2789
X-5.5933 Z-0.2775
X-5.5956 Y6.279 Z-0.2756
X-5.5974 Z-0.2734
X-5.5988 Z-0.2708
X-5.5996 Z-0.268
X-5.5999 Z-0.2651
G0 Z0.4
X-6.3983 Y6.8279
Z0.13
G1 Z0.0649 F40.
G19 G3 Y6.8429 Z0.05 J0.0149 K0.
G1 Y6.8504
G17 G3 X-6.4089 Y6.861 I-0.0106 J0.
Y6.8184 Z0.0331 I0. J-0.0213
Y6.861 Z0.0161 I0. J0.0213
Y6.8184 Z-0.0008 I0. J-0.0213
Y6.861 Z-0.0177 I0. J0.0213
Y6.8184 Z-0.0346 I0. J-0.0213
Y6.861 Z-0.0516 I0. J0.0213
Y6.8184 Z-0.0685 I0. J-0.0213
Y6.861 Z-0.0854 I0. J0.0213
Y6.8184 Z-0.1023 I0. J-0.0213
Y6.861 Z-0.1193 I0. J0.0213
Y6.8184 Z-0.1362 I0. J-0.0213
Y6.861 Z-0.1531 I0. J0.0213
Y6.8184 Z-0.1701 I0. J-0.0213
Y6.861 Z-0.187 I0. J0.0213
Y6.8184 Z-0.2039 I0. J-0.0213
Y6.861 Z-0.2208 I0. J0.0213
Y6.8184 Z-0.2378 I0. J-0.0213
Y6.861 Z-0.2547 I0. J0.0213
Y6.8184 Z-0.2716 I0. J-0.0213
X-6.3876 Y6.8394 Z-0.28 I0. J0.0213
X-6.4302 Y6.84 I-0.0213 J0.0003
X-6.3876 Y6.8394 I0.0213 J-0.0003
X-6.3981 Y6.8502 I-0.0106 J0.0002
G1 X-6.4056 Y6.8503
X-6.4085 Y6.8504 Z-0.2797
X-6.4113 Z-0.2789
X-6.4139 Z-0.2775
X-6.4162 Y6.8505 Z-0.2756
X-6.418 Z-0.2734
X-6.4194 Z-0.2708
X-6.4202 Z-0.268
X-6.4205 Z-0.2651
G0 Z0.4
X-7.2189 Y7.3994
Z0.13
G1 Z0.0649 F40.
G19 G3 Y7.4144 Z0.05 J0.0149 K0.
G1 Y7.4219
G17 G3 X-7.2295 Y7.4325 I-0.0106 J0.
Y7.3899 Z0.0331 I0. J-0.0213
Y7.4325 Z0.0161 I0. J0.0213
Y7.3899 Z-0.0008 I0. J-0.0213
Y7.4325 Z-0.0177 I0. J0.0213
Y7.3899 Z-0.0346 I0. J-0.0213
Y7.4325 Z-0.0516 I0. J0.0213
Y7.3899 Z-0.0685 I0. J-0.0213
Y7.4325 Z-0.0854 I0. J0.0213
Y7.3899 Z-0.1023 I0. J-0.0213
Y7.4325 Z-0.1193 I0. J0.0213
Y7.3899 Z-0.1362 I0. J-0.0213
Y7.4325 Z-0.1531 I0. J0.0213
Y7.3899 Z-0.1701 I0. J-0.0213
Y7.4325 Z-0.187 I0. J0.0213
Y7.3899 Z-0.2039 I0. J-0.0213
Y7.4325 Z-0.2208 I0. J0.0213
Y7.3899 Z-0.2378 I0. J-0.0213
Y7.4325 Z-0.2547 I0. J0.0213
Y7.3899 Z-0.2716 I0. J-0.0213
X-7.2083 Y7.4109 Z-0.28 I0. J0.0213
X-7.2508 Y7.4115 I-0.0213 J0.0003
X-7.2083 Y7.4109 I0.0213 J-0.0003
X-7.2187 Y7.4217 I-0.0106 J0.0002
G1 X-7.2262 Y7.4218
X-7.2291 Z-0.2797
X-7.2319 Y7.4219 Z-0.2789
X-7.2345 Z-0.2775
X-7.2368 Y7.422 Z-0.2756
X-7.2386 Z-0.2734
X-7.24 Z-0.2708
X-7.2409 Z-0.268
X-7.2411 Z-0.2651
G0 Z0.4
X-8.075 Y8.
Z0.1151
G1 Z0.05 F40.
X-8.0726 Y8.0024
G3 X-8.075 Y8.0048 I-0.0024 J0.
Y7.9952 Z0.036 I0. J-0.0048
Y8.0048 Z0.022 I0. J0.0048
Y7.9952 Z0.0079 I0. J-0.0048
Y8.0048 Z-0.0061 I0. J0.0048
X-8.0796 Y8.0013 Z-0.0119 I0. J-0.0048
X-8.0704 Y7.9987 Z-0.0259 I0.0046 J-0.0013
X-8.0733 Y8.0045 Z-0.0325 I-0.0046 J0.0013
X-8.0767 Y7.9955 Z-0.0465 I-0.0017 J-0.0045
X-8.0707 Y7.9979 Z-0.0531 I0.0017 J0.0045
X-8.0793 Y8.0021 Z-0.0671 I-0.0043 J0.0021
X-8.0707 Y7.9979 Z-0.0812 I0.0043 J-0.0021
X-8.0793 Y8.0021 Z-0.0952 I-0.0043 J0.0021
X-8.0707 Y7.9979 Z-0.1092 I0.0043 J-0.0021
X-8.0793 Y8.0021 Z-0.1232 I-0.0043 J0.0021
X-8.0707 Y7.9979 Z-0.1372 I0.0043 J-0.0021
X-8.0793 Y8.0021 Z-0.1513 I-0.0043 J0.0021
X-8.0707 Y7.9979 Z-0.1653 I0.0043 J-0.0021
X-8.0793 Y8.0021 Z-0.1793 I-0.0043 J0.0021
X-8.0707 Y7.9979 Z-0.1933 I0.0043 J-0.0021
X-8.0793 Y8.0021 Z-0.2073 I-0.0043 J0.0021
X-8.0707 Y7.9979 Z-0.2213 I0.0043 J-0.0021
X-8.0793 Y8.0021 Z-0.2354 I-0.0043 J0.0021
X-8.0707 Y7.9979 Z-0.2494 I0.0043 J-0.0021
X-8.0793 Y8.0021 Z-0.2634 I-0.0043 J0.0021
X-8.0707 Y7.9979 Z-0.2774 I0.0043 J-0.0021
X-8.0702 Y8.0006 Z-0.28 I-0.0043 J0.0021
X-8.0798 Y7.9994 I-0.0048 J-0.0006
X-8.0702 Y8.0006 I0.0048 J0.0006
X-8.0729 Y8.0027 I-0.0024 J-0.0003
G1 X-8.075 Y8.
G0 Z0.4
X-8.0856 Y6.5118
Z0.13
G1 Z0.0649 F40.
G19 G2 Y6.4968 Z0.05 J-0.0149 K0.
G1 Y6.4893
G17 G3 X-8.075 Y6.4787 I0.0106 J0.
Y6.5213 Z0.0331 I0. J0.0213
Y6.4787 Z0.0161 I0. J-0.0213
Y6.5213 Z-0.0008 I0. J0.0213
Y6.4787 Z-0.0177 I0. J-0.0213
Y6.5213 Z-0.0346 I0. J0.0213
Y6.4787 Z-0.0516 I0. J-0.0213
Y6.5213 Z-0.0685 I0. J0.0213
Y6.4787 Z-0.0854 I0. J-0.0213
Y6.5213 Z-0.1023 I0. J0.0213
Y6.4787 Z-0.1193 I0. J-0.0213
Y6.5213 Z-0.1362 I0. J0.0213
Y6.4787 Z-0.1531 I0. J-0.0213
Y6.5213 Z-0.1701 I0. J0.0213
Y6.4787 Z-0.187 I0. J-0.0213
Y6.5213 Z-0.2039 I0. J0.0213
Y6.4787 Z-0.2208 I0. J-0.0213
Y6.5213 Z-0.2378 I0. J0.0213
Y6.4787 Z-0.2547 I0. J-0.0213
Y6.5213 Z-0.2716 I0. J0.0213
X-8.0963 Y6.5003 Z-0.28 I0. J-0.0213
X-8.0537 Y6.4997 I0.0213 J-0.0003
X-8.0963 Y6.5003 I-0.0213 J0.0003
X-8.0858 Y6.4895 I0.0106 J-0.0002
G1 X-8.0783 Y6.4894
X-8.0754 Z-0.2797
X-8.0726 Y6.4893 Z-0.2789
X-8.07 Z-0.2775
X-8.0678 Y6.4892 Z-0.2756
X-8.0659 Z-0.2734
X-8.0645 Z-0.2708
X-8.0637 Z-0.268
X-8.0634 Z-0.2651
G0 Z0.4
X-8.5857 Y6.5118
Z0.13
G1 Z0.0649 F40.
G19 G2 Y6.4968 Z0.05 J-0.0149 K0.
G1 Y6.4893
G17 G3 X-8.575 Y6.4787 I0.0107 J0.
Y6.5213 Z0.0331 I0. J0.0213
Y6.4787 Z0.0161 I0. J-0.0213
Y6.5213 Z-0.0008 I0. J0.0213
Y6.4787 Z-0.0177 I0. J-0.0213
Y6.5213 Z-0.0346 I0. J0.0213
Y6.4787 Z-0.0516 I0. J-0.0213
Y6.5213 Z-0.0685 I0. J0.0213
Y6.4787 Z-0.0854 I0. J-0.0213
Y6.5213 Z-0.1023 I0. J0.0213
Y6.4787 Z-0.1193 I0. J-0.0213
Y6.5213 Z-0.1362 I0. J0.0213
Y6.4787 Z-0.1531 I0. J-0.0213
Y6.5213 Z-0.1701 I0. J0.0213
Y6.4787 Z-0.187 I0. J-0.0213
Y6.5213 Z-0.2039 I0. J0.0213
Y6.4787 Z-0.2208 I0. J-0.0213
Y6.5213 Z-0.2378 I0. J0.0213
Y6.4787 Z-0.2547 I0. J-0.0213
Y6.5213 Z-0.2716 I0. J0.0213
X-8.5963 Y6.5003 Z-0.28 I0. J-0.0213
X-8.5537 Y6.4997 I0.0213 J-0.0003
X-8.5963 Y6.5003 I-0.0213 J0.0003
X-8.5858 Y6.4895 I0.0106 J-0.0002
G1 X-8.5783 Y6.4894
X-8.5754 Z-0.2797
X-8.5726 Y6.4893 Z-0.2789
X-8.57 Z-0.2775
X-8.5678 Y6.4892 Z-0.2756
X-8.5659 Z-0.2734
X-8.5645 Z-0.2708
X-8.5637 Z-0.268
X-8.5634 Z-0.2651
G0 Z0.4
X-8.5857 Y5.5118
Z0.13
G1 Z0.0649 F40.
G19 G2 Y5.4968 Z0.05 J-0.0149 K0.
G1 Y5.4893
G17 G3 X-8.575 Y5.4787 I0.0107 J0.
Y5.5213 Z0.0331 I0. J0.0213
Y5.4787 Z0.0161 I0. J-0.0213
Y5.5213 Z-0.0008 I0. J0.0213
Y5.4787 Z-0.0177 I0. J-0.0213
Y5.5213 Z-0.0346 I0. J0.0213
Y5.4787 Z-0.0516 I0. J-0.0213
Y5.5213 Z-0.0685 I0. J0.0213
Y5.4787 Z-0.0854 I0. J-0.0213
Y5.5213 Z-0.1023 I0. J0.0213
Y5.4787 Z-0.1193 I0. J-0.0213
Y5.5213 Z-0.1362 I0. J0.0213
Y5.4787 Z-0.1531 I0. J-0.0213
Y5.5213 Z-0.1701 I0. J0.0213
Y5.4787 Z-0.187 I0. J-0.0213
Y5.5213 Z-0.2039 I0. J0.0213
Y5.4787 Z-0.2208 I0. J-0.0213
Y5.5213 Z-0.2378 I0. J0.0213
Y5.4787 Z-0.2547 I0. J-0.0213
Y5.5213 Z-0.2716 I0. J0.0213
X-8.5963 Y5.5003 Z-0.28 I0. J-0.0213
X-8.5537 Y5.4997 I0.0213 J-0.0003
X-8.5963 Y5.5003 I-0.0213 J0.0003
X-8.5858 Y5.4895 I0.0106 J-0.0002
G1 X-8.5783 Y5.4894
X-8.5754 Z-0.2797
X-8.5726 Y5.4893 Z-0.2789
X-8.57 Z-0.2775
X-8.5678 Y5.4892 Z-0.2756
X-8.5659 Z-0.2734
X-8.5645 Z-0.2708
X-8.5637 Z-0.268
X-8.5634 Z-0.2651
G0 Z0.4
X-8.0856 Y5.5118
Z0.13
G1 Z0.0649 F40.
G19 G2 Y5.4968 Z0.05 J-0.0149 K0.
G1 Y5.4893
G17 G3 X-8.075 Y5.4787 I0.0106 J0.
Y5.5213 Z0.0331 I0. J0.0213
Y5.4787 Z0.0161 I0. J-0.0213
Y5.5213 Z-0.0008 I0. J0.0213
Y5.4787 Z-0.0177 I0. J-0.0213
Y5.5213 Z-0.0346 I0. J0.0213
Y5.4787 Z-0.0516 I0. J-0.0213
Y5.5213 Z-0.0685 I0. J0.0213
Y5.4787 Z-0.0854 I0. J-0.0213
Y5.5213 Z-0.1023 I0. J0.0213
Y5.4787 Z-0.1193 I0. J-0.0213
Y5.5213 Z-0.1362 I0. J0.0213
Y5.4787 Z-0.1531 I0. J-0.0213
Y5.5213 Z-0.1701 I0. J0.0213
Y5.4787 Z-0.187 I0. J-0.0213
Y5.5213 Z-0.2039 I0. J0.0213
Y5.4787 Z-0.2208 I0. J-0.0213
Y5.5213 Z-0.2378 I0. J0.0213
Y5.4787 Z-0.2547 I0. J-0.0213
Y5.5213 Z-0.2716 I0. J0.0213
X-8.0963 Y5.5003 Z-0.28 I0. J-0.0213
X-8.0537 Y5.4997 I0.0213 J-0.0003
X-8.0963 Y5.5003 I-0.0213 J0.0003
X-8.0858 Y5.4895 I0.0106 J-0.0002
G1 X-8.0783 Y5.4894
X-8.0754 Z-0.2797
X-8.0726 Y5.4893 Z-0.2789
X-8.07 Z-0.2775
X-8.0678 Y5.4892 Z-0.2756
X-8.0659 Z-0.2734
X-8.0645 Z-0.2708
X-8.0637 Z-0.268
X-8.0634 Z-0.2651
G0 Z0.4
X-8.1871 Y3.8655
Z0.13
G1 Z0.0649 F40.
G19 G3 Y3.8804 Z0.05 J0.0149 K0.
G1 Y3.8879
G17 G3 X-8.2 Y3.9008 I-0.0129 J0.
Y3.8492 Z0.0323 I0. J-0.0258
Y3.9008 Z0.0146 I0. J0.0258
Y3.8492 Z-0.0032 I0. J-0.0258
Y3.9008 Z-0.0209 I0. J0.0258
Y3.8492 Z-0.0386 I0. J-0.0258
Y3.9008 Z-0.0563 I0. J0.0258
Y3.8492 Z-0.074 I0. J-0.0258
Y3.9008 Z-0.0918 I0. J0.0258
Y3.8492 Z-0.1095 I0. J-0.0258
Y3.9008 Z-0.1272 I0. J0.0258
Y3.8492 Z-0.1449 I0. J-0.0258
Y3.9008 Z-0.1627 I0. J0.0258
Y3.8492 Z-0.1804 I0. J-0.0258
Y3.9008 Z-0.1981 I0. J0.0258
Y3.8492 Z-0.2158 I0. J-0.0258
Y3.9008 Z-0.2335 I0. J0.0258
Y3.8492 Z-0.2513 I0. J-0.0258
Y3.9008 Z-0.269 I0. J0.0258
X-8.2239 Y3.8653 Z-0.28 I0. J-0.0258
X-8.1761 Y3.8847 I0.0239 J0.0097
X-8.2239 Y3.8653 I-0.0239 J-0.0097
X-8.2071 Y3.8582 I0.012 J0.0048
G1 X-8.2002 Y3.861
X-8.1975 Y3.8621 Z-0.2797
X-8.1949 Y3.8631 Z-0.2789
X-8.1925 Y3.8641 Z-0.2775
X-8.1904 Y3.865 Z-0.2756
X-8.1887 Y3.8657 Z-0.2734
X-8.1874 Y3.8662 Z-0.2708
X-8.1866 Y3.8665 Z-0.268
X-8.1864 Y3.8666 Z-0.2651
G0 Z0.4
X-8.0643 Y4.4882
Z0.13
G1 Z0.0649 F40.
G19 G3 Y4.5032 Z0.05 J0.0149 K0.
G1 Y4.5107
G17 G3 X-8.075 Y4.5213 I-0.0106 J0.
Y4.4787 Z0.0331 I0. J-0.0213
Y4.5213 Z0.0161 I0. J0.0213
Y4.4787 Z-0.0008 I0. J-0.0213
Y4.5213 Z-0.0177 I0. J0.0213
Y4.4787 Z-0.0346 I0. J-0.0213
Y4.5213 Z-0.0516 I0. J0.0213
Y4.4787 Z-0.0685 I0. J-0.0213
Y4.5213 Z-0.0854 I0. J0.0213
Y4.4787 Z-0.1023 I0. J-0.0213
Y4.5213 Z-0.1193 I0. J0.0213
Y4.4787 Z-0.1362 I0. J-0.0213
Y4.5213 Z-0.1531 I0. J0.0213
Y4.4787 Z-0.1701 I0. J-0.0213
Y4.5213 Z-0.187 I0. J0.0213
Y4.4787 Z-0.2039 I0. J-0.0213
Y4.5213 Z-0.2208 I0. J0.0213
Y4.4787 Z-0.2378 I0. J-0.0213
Y4.5213 Z-0.2547 I0. J0.0213
Y4.4787 Z-0.2716 I0. J-0.0213
X-8.0537 Y4.4997 Z-0.28 I0. J0.0213
X-8.0963 Y4.5003 I-0.0213 J0.0003
X-8.0537 Y4.4997 I0.0213 J-0.0003
X-8.0642 Y4.5105 I-0.0106 J0.0002
G1 X-8.0717 Y4.5106
X-8.0746 Z-0.2797
X-8.0774 Y4.5107 Z-0.2789
X-8.08 Z-0.2775
X-8.0822 Y4.5108 Z-0.2756
X-8.0841 Z-0.2734
X-8.0855 Z-0.2708
X-8.0863 Z-0.268
X-8.0866 Z-0.2651
G0 Z0.4
X-8.5643 Y4.4882
Z0.13
G1 Z0.0649 F40.
G19 G3 Y4.5032 Z0.05 J0.0149 K0.
G1 Y4.5107
G17 G3 X-8.575 Y4.5213 I-0.0106 J0.
Y4.4787 Z0.0331 I0. J-0.0213
Y4.5213 Z0.0161 I0. J0.0213
Y4.4787 Z-0.0008 I0. J-0.0213
Y4.5213 Z-0.0177 I0. J0.0213
Y4.4787 Z-0.0346 I0. J-0.0213
Y4.5213 Z-0.0516 I0. J0.0213
Y4.4787 Z-0.0685 I0. J-0.0213
Y4.5213 Z-0.0854 I0. J0.0213
Y4.4787 Z-0.1023 I0. J-0.0213
Y4.5213 Z-0.1193 I0. J0.0213
Y4.4787 Z-0.1362 I0. J-0.0213
Y4.5213 Z-0.1531 I0. J0.0213
Y4.4787 Z-0.1701 I0. J-0.0213
Y4.5213 Z-0.187 I0. J0.0213
Y4.4787 Z-0.2039 I0. J-0.0213
Y4.5213 Z-0.2208 I0. J0.0213
Y4.4787 Z-0.2378 I0. J-0.0213
Y4.5213 Z-0.2547 I0. J0.0213
Y4.4787 Z-0.2716 I0. J-0.0213
X-8.5537 Y4.4997 Z-0.28 I0. J0.0213
X-8.5963 Y4.5003 I-0.0213 J0.0003
X-8.5537 Y4.4997 I0.0213 J-0.0003
X-8.5642 Y4.5105 I-0.0106 J0.0002
G1 X-8.5717 Y4.5106
X-8.5746 Z-0.2797
X-8.5774 Y4.5107 Z-0.2789
X-8.58 Z-0.2775
X-8.5822 Y4.5108 Z-0.2756
X-8.5841 Z-0.2734
X-8.5855 Z-0.2708
X-8.5863 Z-0.268
X-8.5866 Z-0.2651
G0 Z0.4
X-9.1871 Y3.8655
Z0.13
G1 Z0.0649 F40.
G19 G3 Y3.8804 Z0.05 J0.0149 K0.
G1 Y3.8879
G17 G3 X-9.2 Y3.9008 I-0.0129 J0.
Y3.8492 Z0.0323 I0. J-0.0258
Y3.9008 Z0.0146 I0. J0.0258
Y3.8492 Z-0.0032 I0. J-0.0258
Y3.9008 Z-0.0209 I0. J0.0258
Y3.8492 Z-0.0386 I0. J-0.0258
Y3.9008 Z-0.0563 I0. J0.0258
Y3.8492 Z-0.074 I0. J-0.0258
Y3.9008 Z-0.0918 I0. J0.0258
Y3.8492 Z-0.1095 I0. J-0.0258
Y3.9008 Z-0.1272 I0. J0.0258
Y3.8492 Z-0.1449 I0. J-0.0258
Y3.9008 Z-0.1627 I0. J0.0258
Y3.8492 Z-0.1804 I0. J-0.0258
Y3.9008 Z-0.1981 I0. J0.0258
Y3.8492 Z-0.2158 I0. J-0.0258
Y3.9008 Z-0.2335 I0. J0.0258
Y3.8492 Z-0.2513 I0. J-0.0258
Y3.9008 Z-0.269 I0. J0.0258
X-9.2239 Y3.8653 Z-0.28 I0. J-0.0258
X-9.1761 Y3.8847 I0.0239 J0.0097
X-9.2239 Y3.8653 I-0.0239 J-0.0097
X-9.2071 Y3.8582 I0.012 J0.0048
G1 X-9.2002 Y3.861
X-9.1975 Y3.8621 Z-0.2797
X-9.1949 Y3.8631 Z-0.2789
X-9.1925 Y3.8641 Z-0.2775
X-9.1904 Y3.865 Z-0.2756
X-9.1887 Y3.8657 Z-0.2734
X-9.1874 Y3.8662 Z-0.2708
X-9.1866 Y3.8665 Z-0.268
X-9.1864 Y3.8666 Z-0.2651
G0 Z0.4
X-10.1871 Y3.8655
Z0.13
G1 Z0.0649 F40.
G19 G3 Y3.8804 Z0.05 J0.0149 K0.
G1 Y3.8879
G17 G3 X-10.2 Y3.9008 I-0.0129 J0.
Y3.8492 Z0.0323 I0. J-0.0258
Y3.9008 Z0.0146 I0. J0.0258
X-10.2106 Y3.8515 Z-0.0008 I0. J-0.0258
X-10.1894 Y3.8985 Z-0.0185 I0.0106 J0.0235
X-10.2106 Y3.8515 Z-0.0362 I-0.0106 J-0.0235
X-10.1806 Y3.8921 Z-0.0515 I0.0106 J0.0235
X-10.2194 Y3.8579 Z-0.0693 I-0.0194 J-0.0171
X-10.1874 Y3.8525 Z-0.0769 I0.0194 J0.0171
X-10.2126 Y3.8975 Z-0.0946 I-0.0126 J0.0225
X-10.1874 Y3.8525 Z-0.1124 I0.0126 J-0.0225
X-10.2022 Y3.9007 Z-0.1277 I-0.0126 J0.0225
X-10.1978 Y3.8493 Z-0.1454 I0.0022 J-0.0257
X-10.2022 Y3.9007 Z-0.1631 I-0.0022 J0.0257
X-10.1978 Y3.8493 Z-0.1809 I0.0022 J-0.0257
X-10.2022 Y3.9007 Z-0.1986 I-0.0022 J0.0257
X-10.1978 Y3.8493 Z-0.2163 I0.0022 J-0.0257
X-10.2022 Y3.9007 Z-0.234 I-0.0022 J0.0257
X-10.1978 Y3.8493 Z-0.2517 I0.0022 J-0.0257
X-10.2022 Y3.9007 Z-0.2695 I-0.0022 J0.0257
X-10.2239 Y3.8653 Z-0.28 I0.0022 J-0.0257
X-10.1761 Y3.8847 I0.0239 J0.0097
X-10.2239 Y3.8653 I-0.0239 J-0.0097
X-10.2071 Y3.8582 I0.012 J0.0048
G1 X-10.2002 Y3.861
X-10.1975 Y3.8621 Z-0.2797
X-10.1949 Y3.8631 Z-0.2789
X-10.1925 Y3.8641 Z-0.2775
X-10.1904 Y3.865 Z-0.2756
X-10.1887 Y3.8657 Z-0.2734
X-10.1874 Y3.8662 Z-0.2708
X-10.1866 Y3.8665 Z-0.268
X-10.1864 Y3.8666 Z-0.2651
G0 Z0.4
X-11.1871 Y3.8655
Z0.13
G1 Z0.0649 F40.
G19 G3 Y3.8804 Z0.05 J0.0149 K0.
G1 Y3.8879
G17 G3 X-11.2 Y3.9008 I-0.0129 J0.
Y3.8492 Z0.0323 I0. J-0.0258
Y3.9008 Z0.0146 I0. J0.0258
Y3.8492 Z-0.0032 I0. J-0.0258
Y3.9008 Z-0.0209 I0. J0.0258
Y3.8492 Z-0.0386 I0. J-0.0258
Y3.9008 Z-0.0563 I0. J0.0258
Y3.8492 Z-0.074 I0. J-0.0258
Y3.9008 Z-0.0918 I0. J0.0258
Y3.8492 Z-0.1095 I0. J-0.0258
Y3.9008 Z-0.1272 I0. J0.0258
Y3.8492 Z-0.1449 I0. J-0.0258
Y3.9008 Z-0.1627 I0. J0.0258
Y3.8492 Z-0.1804 I0. J-0.0258
Y3.9008 Z-0.1981 I0. J0.0258
Y3.8492 Z-0.2158 I0. J-0.0258
Y3.9008 Z-0.2335 I0. J0.0258
Y3.8492 Z-0.2513 I0. J-0.0258
Y3.9008 Z-0.269 I0. J0.0258
X-11.2239 Y3.8653 Z-0.28 I0. J-0.0258
X-11.1761 Y3.8847 I0.0239 J0.0097
X-11.2239 Y3.8653 I-0.0239 J-0.0097
X-11.2071 Y3.8582 I0.012 J0.0048
G1 X-11.2002 Y3.861
X-11.1975 Y3.8621 Z-0.2797
X-11.1949 Y3.8631 Z-0.2789
X-11.1925 Y3.8641 Z-0.2775
X-11.1904 Y3.865 Z-0.2756
X-11.1887 Y3.8657 Z-0.2734
X-11.1874 Y3.8662 Z-0.2708
X-11.1866 Y3.8665 Z-0.268
X-11.1864 Y3.8666 Z-0.2651
G0 Z0.4
X-8.5643 Y9.4882
Z0.13
G1 Z0.0649 F40.
G19 G3 Y9.5032 Z0.05 J0.0149 K0.
G1 Y9.5107
G17 G3 X-8.575 Y9.5213 I-0.0106 J0.
Y9.4787 Z0.0331 I0. J-0.0213
Y9.5213 Z0.0161 I0. J0.0213
Y9.4787 Z-0.0008 I0. J-0.0213
Y9.5213 Z-0.0177 I0. J0.0213
Y9.4787 Z-0.0346 I0. J-0.0213
Y9.5213 Z-0.0516 I0. J0.0213
Y9.4787 Z-0.0685 I0. J-0.0213
Y9.5213 Z-0.0854 I0. J0.0213
Y9.4787 Z-0.1023 I0. J-0.0213
Y9.5213 Z-0.1193 I0. J0.0213
Y9.4787 Z-0.1362 I0. J-0.0213
Y9.5213 Z-0.1531 I0. J0.0213
Y9.4787 Z-0.1701 I0. J-0.0213
Y9.5213 Z-0.187 I0. J0.0213
Y9.4787 Z-0.2039 I0. J-0.0213
Y9.5213 Z-0.2208 I0. J0.0213
Y9.4787 Z-0.2378 I0. J-0.0213
Y9.5213 Z-0.2547 I0. J0.0213
Y9.4787 Z-0.2716 I0. J-0.0213
X-8.5537 Y9.4997 Z-0.28 I0. J0.0213
X-8.5963 Y9.5003 I-0.0213 J0.0003
X-8.5537 Y9.4997 I0.0213 J-0.0003
X-8.5642 Y9.5105 I-0.0106 J0.0002
G1 X-8.5717 Y9.5106
X-8.5746 Z-0.2797
X-8.5774 Y9.5107 Z-0.2789
X-8.58 Z-0.2775
X-8.5822 Y9.5108 Z-0.2756
X-8.5841 Z-0.2734
X-8.5855 Z-0.2708
X-8.5863 Z-0.268
X-8.5866 Z-0.2651
G0 Z0.4
X-8.0643 Y9.4882
Z0.13
G1 Z0.0649 F40.
G19 G3 Y9.5032 Z0.05 J0.0149 K0.
G1 Y9.5107
G17 G3 X-8.075 Y9.5213 I-0.0106 J0.
Y9.4787 Z0.0331 I0. J-0.0213
Y9.5213 Z0.0161 I0. J0.0213
Y9.4787 Z-0.0008 I0. J-0.0213
Y9.5213 Z-0.0177 I0. J0.0213
Y9.4787 Z-0.0346 I0. J-0.0213
Y9.5213 Z-0.0516 I0. J0.0213
Y9.4787 Z-0.0685 I0. J-0.0213
Y9.5213 Z-0.0854 I0. J0.0213
Y9.4787 Z-0.1023 I0. J-0.0213
Y9.5213 Z-0.1193 I0. J0.0213
Y9.4787 Z-0.1362 I0. J-0.0213
Y9.5213 Z-0.1531 I0. J0.0213
Y9.4787 Z-0.1701 I0. J-0.0213
Y9.5213 Z-0.187 I0. J0.0213
Y9.4787 Z-0.2039 I0. J-0.0213
Y9.5213 Z-0.2208 I0. J0.0213
Y9.4787 Z-0.2378 I0. J-0.0213
Y9.5213 Z-0.2547 I0. J0.0213
Y9.4787 Z-0.2716 I0. J-0.0213
X-8.0537 Y9.4997 Z-0.28 I0. J0.0213
X-8.0963 Y9.5003 I-0.0213 J0.0003
X-8.0537 Y9.4997 I0.0213 J-0.0003
X-8.0642 Y9.5105 I-0.0106 J0.0002
G1 X-8.0717 Y9.5106
X-8.0746 Z-0.2797
X-8.0774 Y9.5107 Z-0.2789
X-8.08 Z-0.2775
X-8.0822 Y9.5108 Z-0.2756
X-8.0841 Z-0.2734
X-8.0855 Z-0.2708
X-8.0863 Z-0.268
X-8.0866 Z-0.2651
G0 Z0.4
X-8.0856 Y10.5118
Z0.13
G1 Z0.0649 F40.
G19 G2 Y10.4968 Z0.05 J-0.0149 K0.
G1 Y10.4894
G17 G3 X-8.075 Y10.4787 I0.0106 J0.
Y10.5213 Z0.0331 I0. J0.0213
Y10.4787 Z0.0161 I0. J-0.0213
Y10.5213 Z-0.0008 I0. J0.0213
Y10.4787 Z-0.0177 I0. J-0.0213
Y10.5213 Z-0.0346 I0. J0.0213
Y10.4787 Z-0.0516 I0. J-0.0213
Y10.5213 Z-0.0685 I0. J0.0213
Y10.4787 Z-0.0854 I0. J-0.0213
Y10.5213 Z-0.1023 I0. J0.0213
Y10.4787 Z-0.1193 I0. J-0.0213
Y10.5213 Z-0.1362 I0. J0.0213
Y10.4787 Z-0.1531 I0. J-0.0213
Y10.5213 Z-0.1701 I0. J0.0213
Y10.4787 Z-0.187 I0. J-0.0213
Y10.5213 Z-0.2039 I0. J0.0213
Y10.4787 Z-0.2208 I0. J-0.0213
Y10.5213 Z-0.2378 I0. J0.0213
Y10.4787 Z-0.2547 I0. J-0.0213
Y10.5213 Z-0.2716 I0. J0.0213
X-8.0963 Y10.5003 Z-0.28 I0. J-0.0213
X-8.0537 Y10.4997 I0.0213 J-0.0003
X-8.0963 Y10.5003 I-0.0213 J0.0003
X-8.0858 Y10.4895 I0.0106 J-0.0002
G1 X-8.0783 Y10.4894
X-8.0754 Z-0.2797
X-8.0726 Y10.4893 Z-0.2789
X-8.07 Z-0.2775
X-8.0678 Y10.4892 Z-0.2756
X-8.0659 Z-0.2734
X-8.0645 Z-0.2708
X-8.0637 Z-0.268
X-8.0634 Z-0.2651
G0 Z0.4
X-8.5857 Y10.5118
Z0.13
G1 Z0.0649 F40.
G19 G2 Y10.4968 Z0.05 J-0.0149 K0.
G1 Y10.4894
G17 G3 X-8.575 Y10.4787 I0.0107 J0.
Y10.5213 Z0.0331 I0. J0.0213
Y10.4787 Z0.0161 I0. J-0.0213
Y10.5213 Z-0.0008 I0. J0.0213
Y10.4787 Z-0.0177 I0. J-0.0213
Y10.5213 Z-0.0346 I0. J0.0213
Y10.4787 Z-0.0516 I0. J-0.0213
Y10.5213 Z-0.0685 I0. J0.0213
Y10.4787 Z-0.0854 I0. J-0.0213
Y10.5213 Z-0.1023 I0. J0.0213
Y10.4787 Z-0.1193 I0. J-0.0213
Y10.5213 Z-0.1362 I0. J0.0213
Y10.4787 Z-0.1531 I0. J-0.0213
Y10.5213 Z-0.1701 I0. J0.0213
Y10.4787 Z-0.187 I0. J-0.0213
Y10.5213 Z-0.2039 I0. J0.0213
Y10.4787 Z-0.2208 I0. J-0.0213
Y10.5213 Z-0.2378 I0. J0.0213
Y10.4787 Z-0.2547 I0. J-0.0213
Y10.5213 Z-0.2716 I0. J0.0213
X-8.5963 Y10.5003 Z-0.28 I0. J-0.0213
X-8.5537 Y10.4997 I0.0213 J-0.0003
X-8.5963 Y10.5003 I-0.0213 J0.0003
X-8.5858 Y10.4895 I0.0106 J-0.0002
G1 X-8.5783 Y10.4894
X-8.5754 Z-0.2797
X-8.5726 Y10.4893 Z-0.2789
X-8.57 Z-0.2775
X-8.5678 Y10.4892 Z-0.2756
X-8.5659 Z-0.2734
X-8.5645 Z-0.2708
X-8.5637 Z-0.268
X-8.5634 Z-0.2651
G0 Z0.4
X-8.5857 Y11.5118
Z0.13
G1 Z0.0649 F40.
G19 G2 Y11.4968 Z0.05 J-0.0149 K0.
G1 Y11.4894
G17 G3 X-8.575 Y11.4787 I0.0107 J0.
Y11.5213 Z0.0331 I0. J0.0213
Y11.4787 Z0.0161 I0. J-0.0213
Y11.5213 Z-0.0008 I0. J0.0213
Y11.4787 Z-0.0177 I0. J-0.0213
Y11.5213 Z-0.0346 I0. J0.0213
Y11.4787 Z-0.0516 I0. J-0.0213
Y11.5213 Z-0.0685 I0. J0.0213
Y11.4787 Z-0.0854 I0. J-0.0213
Y11.5213 Z-0.1023 I0. J0.0213
Y11.4787 Z-0.1193 I0. J-0.0213
Y11.5213 Z-0.1362 I0. J0.0213
Y11.4787 Z-0.1531 I0. J-0.0213
Y11.5213 Z-0.1701 I0. J0.0213
Y11.4787 Z-0.187 I0. J-0.0213
Y11.5213 Z-0.2039 I0. J0.0213
Y11.4787 Z-0.2208 I0. J-0.0213
Y11.5213 Z-0.2378 I0. J0.0213
Y11.4787 Z-0.2547 I0. J-0.0213
Y11.5213 Z-0.2716 I0. J0.0213
X-8.5963 Y11.5003 Z-0.28 I0. J-0.0213
X-8.5537 Y11.4997 I0.0213 J-0.0003
X-8.5963 Y11.5003 I-0.0213 J0.0003
X-8.5858 Y11.4895 I0.0106 J-0.0002
G1 X-8.5783 Y11.4894
X-8.5754 Z-0.2797
X-8.5726 Y11.4893 Z-0.2789
X-8.57 Z-0.2775
X-8.5678 Y11.4892 Z-0.2756
X-8.5659 Z-0.2734
X-8.5645 Z-0.2708
X-8.5637 Z-0.268
X-8.5634 Z-0.2651
G0 Z0.4
X-8.0856 Y11.5118
Z0.13
G1 Z0.0649 F40.
G19 G2 Y11.4968 Z0.05 J-0.0149 K0.
G1 Y11.4894
G17 G3 X-8.075 Y11.4787 I0.0106 J0.
Y11.5213 Z0.0331 I0. J0.0213
Y11.4787 Z0.0161 I0. J-0.0213
Y11.5213 Z-0.0008 I0. J0.0213
Y11.4787 Z-0.0177 I0. J-0.0213
Y11.5213 Z-0.0346 I0. J0.0213
Y11.4787 Z-0.0516 I0. J-0.0213
Y11.5213 Z-0.0685 I0. J0.0213
Y11.4787 Z-0.0854 I0. J-0.0213
Y11.5213 Z-0.1023 I0. J0.0213
Y11.4787 Z-0.1193 I0. J-0.0213
Y11.5213 Z-0.1362 I0. J0.0213
Y11.4787 Z-0.1531 I0. J-0.0213
Y11.5213 Z-0.1701 I0. J0.0213
Y11.4787 Z-0.187 I0. J-0.0213
Y11.5213 Z-0.2039 I0. J0.0213
Y11.4787 Z-0.2208 I0. J-0.0213
Y11.5213 Z-0.2378 I0. J0.0213
Y11.4787 Z-0.2547 I0. J-0.0213
Y11.5213 Z-0.2716 I0. J0.0213
X-8.0963 Y11.5003 Z-0.28 I0. J-0.0213
X-8.0537 Y11.4997 I0.0213 J-0.0003
X-8.0963 Y11.5003 I-0.0213 J0.0003
X-8.0858 Y11.4895 I0.0106 J-0.0002
G1 X-8.0783 Y11.4894
X-8.0754 Z-0.2797
X-8.0726 Y11.4893 Z-0.2789
X-8.07 Z-0.2775
X-8.0678 Y11.4892 Z-0.2756
X-8.0659 Z-0.2734
X-8.0645 Z-0.2708
X-8.0637 Z-0.268
X-8.0634 Z-0.2651
G0 Z0.4
X-8.5857 Y12.5118
Z0.13
G1 Z0.0649 F40.
G19 G2 Y12.4968 Z0.05 J-0.0149 K0.
G1 Y12.4894
G17 G3 X-8.575 Y12.4787 I0.0107 J0.
Y12.5213 Z0.0331 I0. J0.0213
Y12.4787 Z0.0161 I0. J-0.0213
Y12.5213 Z-0.0008 I0. J0.0213
Y12.4787 Z-0.0177 I0. J-0.0213
Y12.5213 Z-0.0346 I0. J0.0213
Y12.4787 Z-0.0516 I0. J-0.0213
Y12.5213 Z-0.0685 I0. J0.0213
Y12.4787 Z-0.0854 I0. J-0.0213
Y12.5213 Z-0.1023 I0. J0.0213
Y12.4787 Z-0.1193 I0. J-0.0213
Y12.5213 Z-0.1362 I0. J0.0213
Y12.4787 Z-0.1531 I0. J-0.0213
Y12.5213 Z-0.1701 I0. J0.0213
Y12.4787 Z-0.187 I0. J-0.0213
Y12.5213 Z-0.2039 I0. J0.0213
Y12.4787 Z-0.2208 I0. J-0.0213
Y12.5213 Z-0.2378 I0. J0.0213
Y12.4787 Z-0.2547 I0. J-0.0213
Y12.5213 Z-0.2716 I0. J0.0213
X-8.5963 Y12.5003 Z-0.28 I0. J-0.0213
X-8.5537 Y12.4997 I0.0213 J-0.0003
X-8.5963 Y12.5003 I-0.0213 J0.0003
X-8.5858 Y12.4895 I0.0106 J-0.0002
G1 X-8.5783 Y12.4894
X-8.5754 Z-0.2797
X-8.5726 Y12.4893 Z-0.2789
X-8.57 Z-0.2775
X-8.5678 Y12.4892 Z-0.2756
X-8.5659 Z-0.2734
X-8.5645 Z-0.2708
X-8.5637 Z-0.268
X-8.5634 Z-0.2651
G0 Z0.4
X-8.0856 Y12.5118
Z0.13
G1 Z0.0649 F40.
G19 G2 Y12.4968 Z0.05 J-0.0149 K0.
G1 Y12.4894
G17 G3 X-8.075 Y12.4787 I0.0106 J0.
Y12.5213 Z0.0331 I0. J0.0213
Y12.4787 Z0.0161 I0. J-0.0213
Y12.5213 Z-0.0008 I0. J0.0213
Y12.4787 Z-0.0177 I0. J-0.0213
Y12.5213 Z-0.0346 I0. J0.0213
Y12.4787 Z-0.0516 I0. J-0.0213
Y12.5213 Z-0.0685 I0. J0.0213
Y12.4787 Z-0.0854 I0. J-0.0213
Y12.5213 Z-0.1023 I0. J0.0213
Y12.4787 Z-0.1193 I0. J-0.0213
Y12.5213 Z-0.1362 I0. J0.0213
Y12.4787 Z-0.1531 I0. J-0.0213
Y12.5213 Z-0.1701 I0. J0.0213
Y12.4787 Z-0.187 I0. J-0.0213
Y12.5213 Z-0.2039 I0. J0.0213
Y12.4787 Z-0.2208 I0. J-0.0213
Y12.5213 Z-0.2378 I0. J0.0213
Y12.4787 Z-0.2547 I0. J-0.0213
Y12.5213 Z-0.2716 I0. J0.0213
X-8.0963 Y12.5003 Z-0.28 I0. J-0.0213
X-8.0537 Y12.4997 I0.0213 J-0.0003
X-8.0963 Y12.5003 I-0.0213 J0.0003
X-8.0858 Y12.4895 I0.0106 J-0.0002
G1 X-8.0783 Y12.4894
X-8.0754 Z-0.2797
X-8.0726 Y12.4893 Z-0.2789
X-8.07 Z-0.2775
X-8.0678 Y12.4892 Z-0.2756
X-8.0659 Z-0.2734
X-8.0645 Z-0.2708
X-8.0637 Z-0.268
X-8.0634 Z-0.2651
G0 Z0.4
X-8.0856 Y13.5118
Z0.13
G1 Z0.0649 F40.
G19 G2 Y13.4968 Z0.05 J-0.0149 K0.
G1 Y13.4893
G17 G3 X-8.075 Y13.4787 I0.0106 J0.
Y13.5213 Z0.0331 I0. J0.0213
Y13.4787 Z0.0161 I0. J-0.0213
Y13.5213 Z-0.0008 I0. J0.0213
Y13.4787 Z-0.0177 I0. J-0.0213
Y13.5213 Z-0.0346 I0. J0.0213
Y13.4787 Z-0.0516 I0. J-0.0213
Y13.5213 Z-0.0685 I0. J0.0213
Y13.4787 Z-0.0854 I0. J-0.0213
Y13.5213 Z-0.1023 I0. J0.0213
Y13.4787 Z-0.1193 I0. J-0.0213
Y13.5213 Z-0.1362 I0. J0.0213
Y13.4787 Z-0.1531 I0. J-0.0213
Y13.5213 Z-0.1701 I0. J0.0213
Y13.4787 Z-0.187 I0. J-0.0213
Y13.5213 Z-0.2039 I0. J0.0213
Y13.4787 Z-0.2208 I0. J-0.0213
Y13.5213 Z-0.2378 I0. J0.0213
Y13.4787 Z-0.2547 I0. J-0.0213
Y13.5213 Z-0.2716 I0. J0.0213
X-8.0963 Y13.5003 Z-0.28 I0. J-0.0213
X-8.0537 Y13.4997 I0.0213 J-0.0003
X-8.0963 Y13.5003 I-0.0213 J0.0003
X-8.0858 Y13.4895 I0.0106 J-0.0002
G1 X-8.0783 Y13.4894
X-8.0754 Z-0.2797
X-8.0726 Y13.4893 Z-0.2789
X-8.07 Z-0.2775
X-8.0678 Y13.4892 Z-0.2756
X-8.0659 Z-0.2734
X-8.0645 Z-0.2708
X-8.0637 Z-0.268
X-8.0634 Z-0.2651
G0 Z0.4
X-8.5857 Y13.5118
Z0.13
G1 Z0.0649 F40.
G19 G2 Y13.4968 Z0.05 J-0.0149 K0.
G1 Y13.4893
G17 G3 X-8.575 Y13.4787 I0.0107 J0.
Y13.5213 Z0.0331 I0. J0.0213
Y13.4787 Z0.0161 I0. J-0.0213
Y13.5213 Z-0.0008 I0. J0.0213
Y13.4787 Z-0.0177 I0. J-0.0213
Y13.5213 Z-0.0346 I0. J0.0213
Y13.4787 Z-0.0516 I0. J-0.0213
Y13.5213 Z-0.0685 I0. J0.0213
Y13.4787 Z-0.0854 I0. J-0.0213
Y13.5213 Z-0.1023 I0. J0.0213
Y13.4787 Z-0.1193 I0. J-0.0213
Y13.5213 Z-0.1362 I0. J0.0213
Y13.4787 Z-0.1531 I0. J-0.0213
Y13.5213 Z-0.1701 I0. J0.0213
Y13.4787 Z-0.187 I0. J-0.0213
Y13.5213 Z-0.2039 I0. J0.0213
Y13.4787 Z-0.2208 I0. J-0.0213
Y13.5213 Z-0.2378 I0. J0.0213
Y13.4787 Z-0.2547 I0. J-0.0213
Y13.5213 Z-0.2716 I0. J0.0213
X-8.5963 Y13.5003 Z-0.28 I0. J-0.0213
X-8.5537 Y13.4997 I0.0213 J-0.0003
X-8.5963 Y13.5003 I-0.0213 J0.0003
X-8.5858 Y13.4895 I0.0106 J-0.0002
G1 X-8.5783 Y13.4894
X-8.5754 Z-0.2797
X-8.5726 Y13.4893 Z-0.2789
X-8.57 Z-0.2775
X-8.5678 Y13.4892 Z-0.2756
X-8.5659 Z-0.2734
X-8.5645 Z-0.2708
X-8.5637 Z-0.268
X-8.5634 Z-0.2651
G0 Z0.6
(SHAPE THROUGH HOLE)
M7
G0 X-9.6444 Y5.0281
Z0.6
Z0.1
G3 X-9.7728 Y5.0886 Z0.0607 I-0.0642 J0.0303 F50.
X-9.6444 Y5.0281 Z0.0214 I0.0642 J-0.0303
X-9.7728 Y5.0886 Z-0.0179 I-0.0642 J0.0303
X-9.6444 Y5.0281 Z-0.0572 I0.0642 J-0.0303
X-9.7728 Y5.0886 Z-0.0966 I-0.0642 J0.0303
X-9.6444 Y5.0281 Z-0.1359 I0.0642 J-0.0303
X-9.7728 Y5.0886 Z-0.1752 I-0.0642 J0.0303
X-9.6444 Y5.0281 Z-0.2145 I0.0642 J-0.0303
X-9.6376 Y5.0584 Z-0.22 I-0.0642 J0.0303
X-9.7796 I-0.071 J0.
X-9.6376 I0.071 J0.
X-9.7559 Y5.2005 I-0.0724 J0.06 F60.
G2 X-9.803 Y5.0593 I-0.3397 J0.0348
G3 X-9.6976 Y4.9047 I0.085 J-0.0553
X-9.5875 Y5.1047 I-0.1336 J0.2039
G1 X-9.5758 Y5.151
X-9.5728 Y5.1634
G3 X-9.7339 Y5.2954 I-0.1336 J0.0012
G1 X-9.7455 Y5.2436
X-9.7559 Y5.2005
G3 X-9.7512 Y5.1864 I0.0146 J-0.0031
X-9.7051 Y5.2002 I0.0188 J0.021
X-9.7184 Y5.2676 I-0.0762 J0.02
X-9.7287 Y5.2788 I-0.0629 J-0.0474 F50.
G2 X-9.7334 Y5.293 I0.01 J0.0111
G1 X-9.7282 Y5.3141 F60.
G2 X-9.5381 Y5.3046 I0.0917 J-0.0715
G1 X-9.5418 Y5.2899
X-9.5646 Y5.1973
X-9.5728 Y5.1634
G2 X-9.5834 Y5.153 I-0.0144 J0.004
X-9.6363 Y5.2032 I-0.0107 J0.0416
X-9.5634 Y5.2897 I0.1157 J-0.0235
X-9.5488 Y5.2943 I0.0429 J-0.1101 F50.
G3 X-9.5381 Y5.3046 I-0.0036 J0.0145
G1 X-9.5318 Y5.3295 F60.
X-9.532 Y5.3379
X-9.5328 Y5.3463
X-9.5342 Y5.3546
X-9.5362 Y5.3628
X-9.5388 Y5.3708
X-9.542 Y5.3786
X-9.5457 Y5.3862
X-9.55 Y5.3935
X-9.5547 Y5.4004
X-9.56 Y5.407
X-9.5657 Y5.4132
X-9.5718 Y5.419
X-9.5784 Y5.4243
X-9.5853 Y5.4292
X-9.5925 Y5.4335
X-9.6 Y5.4373
X-9.6078 Y5.4405
X-9.6158 Y5.4432
X-9.624 Y5.4453
X-9.6323 Y5.4468
X-9.6407 Y5.4477
X-9.6491 Y5.448
X-9.6575 Y5.4476
X-9.6659 Y5.4467
X-9.6742 Y5.4452
X-9.6823 Y5.4431
X-9.6903 Y5.4404
X-9.6981 Y5.4371
G2 X-9.7282 Y5.3141 I-3.9859 J0.9094
G3 X-9.7235 Y5.2999 I0.0146 J-0.0031
X-9.7021 Y5.2984 I0.0117 J0.0131
X-9.6829 Y5.4113 I-0.0437 J0.0655
X-9.6932 Y5.4225 I-0.0629 J-0.0474 F50.
G2 X-9.6979 Y5.4367 I0.01 J0.0111
G1 X-9.6916 Y5.4624 F60.
X-9.6868 Y5.4693
X-9.6815 Y5.4759
X-9.6757 Y5.4821
X-9.6695 Y5.4879
X-9.6629 Y5.4932
X-9.6559 Y5.4979
X-9.6486 Y5.5022
X-9.641 Y5.5059
X-9.6331 Y5.5091
X-9.6251 Y5.5117
X-9.6168 Y5.5137
X-9.6085 Y5.5151
X-9.6001 Y5.5158
X-9.5916 Y5.516
X-9.5831 Y5.5155
X-9.5748 Y5.5144
X-9.5665 Y5.5128
X-9.5583 Y5.5105
X-9.5503 Y5.5076
X-9.5426 Y5.5042
X-9.5352 Y5.5002
X-9.528 Y5.4956
X-9.5212 Y5.4906
X-9.5148 Y5.4851
X-9.5088 Y5.4791
X-9.5032 Y5.4727
X-9.4982 Y5.4659
X-9.5189 Y5.3826
X-9.5301 Y5.3362
X-9.5318 Y5.3295
G2 X-9.5426 Y5.3191 I-0.0143 J0.0042
X-9.5941 Y5.3718 I-0.0102 J0.0415
X-9.5237 Y5.4506 I0.114 J-0.031
X-9.5091 Y5.4553 I0.0436 J-0.1098 F50.
G3 X-9.4984 Y5.4658 I-0.0037 J0.0145
G1 X-9.4961 Y5.4752 F60.
X-9.4916 Y5.493
X-9.4925 Y5.5015
X-9.4939 Y5.5099
X-9.496 Y5.5181
X-9.4987 Y5.5262
X-9.5019 Y5.5341
X-9.5057 Y5.5417
X-9.5101 Y5.549
X-9.515 Y5.556
X-9.5203 Y5.5626
X-9.5262 Y5.5688
X-9.5324 Y5.5745
X-9.5391 Y5.5798
X-9.5461 Y5.5846
X-9.5535 Y5.5889
X-9.5612 Y5.5926
X-9.5691 Y5.5958
X-9.5772 Y5.5983
X-9.5855 Y5.6003
X-9.5939 Y5.6017
X-9.6023 Y5.6024
X-9.6109 Y5.6026
X-9.6194 Y5.6021
X-9.6278 Y5.601
X-9.6361 Y5.5993
X-9.6443 Y5.597
X-9.6523 Y5.5941
X-9.6601 Y5.5906
G2 X-9.6916 Y5.4624 I-2.6931 J0.5931
G3 X-9.6869 Y5.4482 I0.0146 J-0.0031
X-9.6727 Y5.4462 I0.0086 J0.0096
X-9.6447 Y5.5648 I-0.0345 J0.0708
X-9.6551 Y5.576 I-0.0625 J-0.0479 F50.
G2 X-9.6599 Y5.5901 I0.0099 J0.0112
G1 X-9.6541 Y5.6141 F60.
X-9.6497 Y5.6211
X-9.6449 Y5.6278
X-9.6395 Y5.6341
X-9.6337 Y5.64
X-9.6275 Y5.6455
X-9.6209 Y5.6506
X-9.614 Y5.6551
X-9.6068 Y5.6592
X-9.5993 Y5.6627
X-9.5916 Y5.6657
X-9.5836 Y5.6681
X-9.5756 Y5.6699
X-9.5674 Y5.6712
X-9.5591 Y5.6719
X-9.5509
X-9.5426 Y5.6714
X-9.5344 Y5.6703
X-9.5263 Y5.6687
X-9.5183 Y5.6664
X-9.5105 Y5.6636
X-9.5029 Y5.6602
X-9.4956 Y5.6563
X-9.4886 Y5.6519
X-9.482 Y5.647
X-9.4756 Y5.6417
X-9.4697 Y5.6359
X-9.4642 Y5.6297
X-9.4592 Y5.6231
X-9.4732 Y5.5678
X-9.4844 Y5.5215
X-9.4916 Y5.493
G2 X-9.5101 Y5.4828 I-0.0143 J0.0042
X-9.5271 Y5.5042 I0.0066 J0.0227
X-9.4827 Y5.6031 I0.1179 J0.0064
X-9.4668 Y5.6138 I0.0735 J-0.0924 F50.
G3 X-9.4597 Y5.6227 I-0.0073 J0.013
G1 X-9.4536 Y5.6479 F60.
X-9.4543 Y5.6564
X-9.4557 Y5.6649
X-9.4577 Y5.6732
X-9.4603 Y5.6814
X-9.4635 Y5.6893
X-9.4673 Y5.697
X-9.4716 Y5.7044
X-9.4765 Y5.7114
X-9.4818 Y5.7181
X-9.4876 Y5.7244
X-9.4939 Y5.7302
X-9.5006 Y5.7356
X-9.5077 Y5.7404
X-9.5151 Y5.7447
X-9.5228 Y5.7485
X-9.5307 Y5.7516
X-9.5389 Y5.7542
X-9.5472 Y5.7562
X-9.5557 Y5.7576
X-9.5642 Y5.7583
X-9.5728 Y5.7584
X-9.5813 Y5.7579
X-9.5898 Y5.7568
X-9.5982 Y5.755
X-9.6064 Y5.7527
X-9.6144 Y5.7497
X-9.6222 Y5.7462
X-9.6541 Y5.6141
G3 X-9.6425 Y5.5965 I0.0146 J-0.003
X-9.6185 Y5.6068 I0.0045 J0.0225
X-9.6106 Y5.7174 I-0.1001 J0.0627
X-9.6198 Y5.7343 I-0.108 J-0.0479 F50.
G2 X-9.6219 Y5.7455 I0.0125 J0.0082
G1 X-9.616 Y5.7695 F60.
X-9.6117 Y5.7766
X-9.6068 Y5.7833
X-9.6014 Y5.7896
X-9.5956 Y5.7956
X-9.5894 Y5.8011
X-9.5829 Y5.8061
X-9.576 Y5.8107
X-9.5687 Y5.8148
X-9.5612 Y5.8183
X-9.5535 Y5.8213
X-9.5456 Y5.8237
X-9.5375 Y5.8256
X-9.5293 Y5.8269
X-9.521 Y5.8276
X-9.5128 Y5.8277
X-9.5045 Y5.8272
X-9.4963 Y5.8261
X-9.4881 Y5.8245
X-9.4801 Y5.8222
X-9.4723 Y5.8194
X-9.4648 Y5.8161
X-9.4574 Y5.8122
X-9.4504 Y5.8078
X-9.4437 Y5.8029
X-9.4374 Y5.7976
X-9.4314 Y5.7918
X-9.4259 Y5.7856
X-9.4209 Y5.779
G3 X-9.4536 Y5.6479 I3.707 J-0.9935
G2 X-9.472 Y5.6376 I-0.0144 J0.0041
X-9.4896 Y5.6596 I0.0066 J0.0234
X-9.4446 Y5.7592 I0.1179 J0.0066
X-9.4286 Y5.7697 I0.0729 J-0.093 F50.
G3 X-9.4214 Y5.7786 I-0.0072 J0.0131
G1 X-9.4162 Y5.7994 F60.
X-9.4145 Y5.8064
X-9.4155 Y5.8148
X-9.4171 Y5.8231
X-9.4193 Y5.8313
X-9.4221 Y5.8393
X-9.4255 Y5.8471
X-9.4294 Y5.8546
X-9.4338 Y5.8618
X-9.4388 Y5.8687
X-9.4442 Y5.8751
X-9.4501 Y5.8812
X-9.4565 Y5.8869
X-9.4632 Y5.892
X-9.4702 Y5.8967
X-9.4776 Y5.9009
X-9.4853 Y5.9045
X-9.4932 Y5.9075
X-9.5013 Y5.91
X-9.5096 Y5.9118
X-9.518 Y5.9131
X-9.5264 Y5.9138
X-9.5349
X-9.5433 Y5.9133
X-9.5517 Y5.9121
X-9.56 Y5.9103
X-9.5681 Y5.9079
X-9.5761 Y5.905
X-9.5838 Y5.9015
X-9.5971 Y5.8457
X-9.6088 Y5.7994
X-9.616 Y5.7695
G3 X-9.6044 Y5.7519 I0.0146 J-0.003
X-9.5801 Y5.7623 I0.0047 J0.0227
X-9.5621 Y5.825 I-0.1001 J0.0627
X-9.5722 Y5.8729 I-0.1181 J0.
X-9.5814 Y5.8897 I-0.108 J-0.0479 F50.
G2 X-9.5835 Y5.901 I0.0125 J0.0082
G1 X-9.5774 Y5.9259 F60.
X-9.573 Y5.9329
X-9.5681 Y5.9395
X-9.5627 Y5.9458
X-9.5569 Y5.9517
X-9.5507 Y5.9571
X-9.5442 Y5.9622
X-9.5373 Y5.9667
X-9.5301 Y5.9707
X-9.5226 Y5.9742
X-9.5149 Y5.9772
X-9.507 Y5.9796
X-9.4989 Y5.9814
X-9.4907 Y5.9827
X-9.4825 Y5.9834
X-9.4742 Y5.9835
X-9.466 Y5.983
X-9.4578 Y5.982
X-9.4497 Y5.9803
X-9.4417 Y5.9781
X-9.434 Y5.9753
X-9.4264 Y5.972
X-9.4191 Y5.9681
X-9.4121 Y5.9638
X-9.4054 Y5.9589
X-9.399 Y5.9536
X-9.3931 Y5.9479
X-9.3876 Y5.9417
X-9.3825 Y5.9352
X-9.3891 Y5.9102
X-9.3935 Y5.892
X-9.4145 Y5.8064
G2 X-9.4252 Y5.796 I-0.0144 J0.0041
X-9.4279 Y5.7956 I-0.0028 J0.0108
X-9.4367 Y5.8 I0. J0.0112
G1 X-9.4381 Y5.8018
G2 X-9.4082 Y5.9192 I0.0637 J0.0463
X-9.3938 Y5.9244 I0.0337 J-0.0711 F50.
G3 X-9.3831 Y5.9348 I-0.0037 J0.0145
G1 X-9.3822 Y5.9383 F60.
X-9.3764 Y5.9615
X-9.3773 Y5.9699
X-9.3788 Y5.9783
X-9.381 Y5.9865
X-9.3837 Y5.9945
X-9.387 Y6.0023
X-9.3909 Y6.0099
X-9.3953 Y6.0172
X-9.4002 Y6.0241
X-9.4056 Y6.0306
X-9.4115 Y6.0368
X-9.4178 Y6.0425
X-9.4245 Y6.0477
X-9.4315 Y6.0524
X-9.4389 Y6.0566
X-9.4466 Y6.0602
X-9.4545 Y6.0633
X-9.4626 Y6.0658
X-9.4709 Y6.0677
X-9.4793 Y6.069
X-9.4878 Y6.0697
X-9.4963
X-9.5047 Y6.0692
X-9.5131 Y6.068
X-9.5214 Y6.0662
X-9.5296 Y6.0638
X-9.5375 Y6.0609
X-9.5453 Y6.0573
X-9.5514 Y6.0309
X-9.5631 Y5.9846
X-9.5774 Y5.9259
G3 X-9.5659 Y5.9082 I0.0146 J-0.003
X-9.5415 Y5.9187 I0.0047 J0.0227
X-9.5338 Y6.0288 I-0.1003 J0.0624
X-9.5429 Y6.0457 I-0.108 J-0.0478 F50.
G2 X-9.5451 Y6.0569 I0.0125 J0.0082
G1 X-9.5384 Y6.0842 F60.
X-9.5336 Y6.0913
X-9.5283 Y6.0979
X-9.5226 Y6.1042
X-9.5165 Y6.11
X-9.5099 Y6.1154
X-9.503 Y6.1203
X-9.4957 Y6.1247
X-9.4881 Y6.1285
X-9.4803 Y6.1317
X-9.4722 Y6.1344
X-9.464 Y6.1365
X-9.4557 Y6.138
X-9.4472 Y6.1389
X-9.4388 Y6.1392
X-9.4303 Y6.1389
X-9.4218 Y6.1379
X-9.4135 Y6.1364
X-9.4053 Y6.1342
X-9.3973 Y6.1315
X-9.3895 Y6.1282
X-9.3819 Y6.1243
X-9.3747 Y6.1199
X-9.3678 Y6.1149
X-9.3612 Y6.1095
X-9.3551 Y6.1037
X-9.3494 Y6.0974
X-9.3442 Y6.0907
X-9.3478 Y6.0772
X-9.3705 Y5.9846
X-9.3764 Y5.9615
G2 X-9.4038 Y5.9584 I-0.0143 J0.0042
X-9.4105 Y5.996 I0.0522 J0.0287
X-9.3676 Y6.0706 I0.1168 J-0.0175
X-9.3517 Y6.0814 I0.0739 J-0.0922 F50.
G3 X-9.3446 Y6.0904 I-0.0073 J0.013
G1 X-9.3384 Y6.1161 F60.
X-9.3392 Y6.1246
X-9.3406 Y6.133
X-9.3427 Y6.1413
X-9.3453 Y6.1494
X-9.3485 Y6.1573
X-9.3523 Y6.1649
X-9.3566 Y6.1722
X-9.3615 Y6.1792
X-9.3669 Y6.1859
X-9.3727 Y6.1921
X-9.379 Y6.1978
X-9.3856 Y6.2031
X-9.3927 Y6.2079
X-9.4 Y6.2122
X-9.4077 Y6.2159
X-9.4156 Y6.2191
X-9.4238 Y6.2216
X-9.4321 Y6.2236
X-9.4405 Y6.2249
X-9.449 Y6.2256
X-9.4575 Y6.2257
X-9.466 Y6.2252
X-9.4744 Y6.2241
X-9.4828 Y6.2223
X-9.491 Y6.2199
X-9.4989 Y6.217
X-9.5067 Y6.2135
X-9.5174 Y6.1699
X-9.5384 Y6.0842
G3 X-9.5155 Y6.0687 I0.0146 J-0.003
X-9.4926 Y6.0978 I-0.0321 J0.0489
X-9.4954 Y6.185 I-0.1111 J0.04
X-9.5045 Y6.2019 I-0.1083 J-0.0472 F50.
G2 X-9.5065 Y6.2131 I0.0126 J0.0081
G1 X-9.5001 Y6.2393 F60.
X-9.4954 Y6.2464
X-9.4902 Y6.2531
X-9.4845 Y6.2595
X-9.4783 Y6.2654
X-9.4718 Y6.2708
X-9.4649 Y6.2757
X-9.4576 Y6.2802
X-9.45 Y6.284
X-9.4422 Y6.2873
X-9.4341 Y6.2901
X-9.4259 Y6.2922
X-9.4175 Y6.2938
X-9.4091 Y6.2947
X-9.4006 Y6.295
X-9.3921 Y6.2947
X-9.3836 Y6.2937
X-9.3752 Y6.2922
X-9.367 Y6.29
X-9.359 Y6.2873
X-9.3511 Y6.2839
X-9.3436 Y6.2801
X-9.3363 Y6.2756
X-9.3294 Y6.2707
X-9.3229 Y6.2652
X-9.3167 Y6.2593
X-9.3111 Y6.253
X-9.3059 Y6.2463
X-9.3248 Y6.1699
X-9.3366 Y6.1235
X-9.3384 Y6.1161
G2 X-9.3528 Y6.1052 I-0.0144 J0.0041
X-9.3658 Y6.1129 I0. J0.0149
X-9.3728 Y6.1483 I0.0509 J0.0283
X-9.3292 Y6.2264 I0.1172 J-0.0143
X-9.3133 Y6.237 I0.0736 J-0.0923 F50.
G3 X-9.3062 Y6.246 I-0.0073 J0.013
G1 X-9.2994 Y6.2738 F60.
X-9.3004 Y6.2823
X-9.302 Y6.2906
X-9.3042 Y6.2988
X-9.307 Y6.3068
X-9.3104 Y6.3145
X-9.3143 Y6.322
X-9.3187 Y6.3293
X-9.3237 Y6.3361
X-9.3291 Y6.3426
X-9.335 Y6.3487
X-9.3413 Y6.3543
X-9.348 Y6.3595
X-9.3551 Y6.3642
X-9.3625 Y6.3683
X-9.3702 Y6.372
X-9.3781 Y6.375
X-9.3862 Y6.3775
X-9.3944 Y6.3793
X-9.4028 Y6.3806
X-9.4112 Y6.3813
X-9.4197
X-9.4282 Y6.3808
X-9.4365 Y6.3796
X-9.4448 Y6.3779
X-9.453 Y6.3755
X-9.4609 Y6.3726
X-9.4686 Y6.3691
X-9.4718 Y6.3551
X-9.5001 Y6.2393
G3 X-9.4773 Y6.2238 I0.0146 J-0.0031
X-9.455 Y6.2515 I-0.0314 J0.048
X-9.4573 Y6.3404 I-0.1105 J0.0417
X-9.4663 Y6.3573 I-0.1083 J-0.0472 F50.
G2 X-9.4684 Y6.3686 I0.0125 J0.0081
G1 X-9.4619 Y6.3944 F60.
X-9.4572 Y6.4015
X-9.452 Y6.4083
X-9.4464 Y6.4147
X-9.4403 Y6.4207
X-9.4338 Y6.4261
X-9.4268 Y6.4312
X-9.4196 Y6.4356
X-9.412 Y6.4396
X-9.4042 Y6.443
X-9.3961 Y6.4457
X-9.3879 Y6.4479
X-9.3795 Y6.4495
X-9.371 Y6.4505
X-9.3625 Y6.4509
X-9.354 Y6.4506
X-9.3455 Y6.4497
X-9.3371 Y6.4482
X-9.3288 Y6.446
X-9.3207 Y6.4433
X-9.3129 Y6.44
X-9.3053 Y6.4361
X-9.298 Y6.4317
X-9.291 Y6.4267
X-9.2844 Y6.4213
X-9.2783 Y6.4154
X-9.2726 Y6.4091
X-9.2673 Y6.4023
X-9.2792 Y6.3551
X-9.2921 Y6.3038
X-9.2994 Y6.2738
G2 X-9.3101 Y6.2634 I-0.0144 J0.004
X-9.3211 Y6.2672 I-0.0026 J0.0103
G1 X-9.3229 Y6.2695
G2 X-9.2927 Y6.3865 I0.064 J0.0458
X-9.2783 Y6.3917 I0.0338 J-0.0711 F50.
G3 X-9.2676 Y6.4021 I-0.0037 J0.0145
G1 X-9.2619 Y6.4255 F60.
X-9.2625 Y6.4338
X-9.2637 Y6.442
X-9.2654 Y6.4501
X-9.2677 Y6.4581
X-9.2706 Y6.4659
X-9.2741 Y6.4735
X-9.278 Y6.4808
X-9.2825 Y6.4878
X-9.2875 Y6.4944
X-9.2929 Y6.5007
X-9.2988 Y6.5066
X-9.3051 Y6.512
X-9.3118 Y6.517
X-9.3188 Y6.5215
X-9.3261 Y6.5255
X-9.3336 Y6.5289
X-9.3414 Y6.5318
X-9.3494 Y6.5341
X-9.3575 Y6.5358
X-9.3658 Y6.537
X-9.3741 Y6.5375
X-9.3824
X-9.3907 Y6.5369
X-9.3989 Y6.5356
X-9.407 Y6.5338
X-9.415 Y6.5314
X-9.4227 Y6.5285
X-9.4303 Y6.525
X-9.4544 Y6.4246
X-9.4601 Y6.4014
X-9.4619 Y6.3944
G3 X-9.4392 Y6.3787 I0.0146 J-0.0031
X-9.4154 Y6.4086 I-0.0323 J0.05
X-9.4187 Y6.4964 I-0.1112 J0.0399
X-9.4278 Y6.5132 I-0.1079 J-0.0479 F50.
G2 X-9.43 Y6.5244 I0.0125 J0.0082
G1 X-9.4261 Y6.5404 F60.
X-9.4229 Y6.5531
X-9.418 Y6.56
X-9.4127 Y6.5666
X-9.4069 Y6.5727
X-9.4006 Y6.5784
X-9.394 Y6.5837
X-9.387 Y6.5884
X-9.3797 Y6.5927
X-9.3721 Y6.5964
X-9.3643 Y6.5995
X-9.3562 Y6.6021
X-9.348 Y6.6041
X-9.3397 Y6.6055
X-9.3313 Y6.6063
X-9.3228 Y6.6065
X-9.3144 Y6.6061
X-9.306 Y6.6051
X-9.2977 Y6.6035
X-9.2895 Y6.6013
X-9.2816 Y6.5985
X-9.2738 Y6.5952
X-9.2663 Y6.5913
X-9.2591 Y6.5869
X-9.2522 Y6.5819
X-9.2458 Y6.5765
X-9.2397 Y6.5707
X-9.234 Y6.5644
X-9.2288 Y6.5577
G3 X-9.2619 Y6.4255 I5.0843 J-1.343
G2 X-9.2893 Y6.4222 I-0.0144 J0.0041
X-9.2965 Y6.4549 I0.05 J0.028
X-9.2523 Y6.5377 I0.1177 J-0.0096
X-9.2364 Y6.5484 I0.0736 J-0.0924 F50.
G3 X-9.2293 Y6.5573 I-0.0073 J0.013
G1 X-9.2237 Y6.5804 F60.
X-9.2242 Y6.5887
X-9.2252 Y6.597
X-9.2269 Y6.6052
X-9.2292 Y6.6132
X-9.232 Y6.621
X-9.2354 Y6.6287
X-9.2393 Y6.636
X-9.2437 Y6.6431
X-9.2487 Y6.6498
X-9.2541 Y6.6562
X-9.26 Y6.6621
X-9.2662 Y6.6676
X-9.2729 Y6.6726
X-9.2799 Y6.6772
X-9.2872 Y6.6812
X-9.2947 Y6.6847
X-9.3026 Y6.6876
X-9.3106 Y6.69
X-9.3187 Y6.6918
X-9.327 Y6.693
X-9.3353 Y6.6936
X-9.3436
X-9.3519 Y6.693
X-9.3602 Y6.6918
X-9.3683 Y6.69
X-9.3763 Y6.6876
X-9.3841 Y6.6846
X-9.3917 Y6.6811
X-9.4088 Y6.6098
X-9.4144 Y6.5867
X-9.4229 Y6.5531
G3 X-9.4183 Y6.5389 I0.0146 J-0.0031
X-9.4049 Y6.537 I0.0081 J0.009
X-9.3765 Y6.6552 I-0.0345 J0.0708
X-9.3868 Y6.6664 I-0.0629 J-0.0474 F50.
G2 X-9.3914 Y6.6806 I0.01 J0.0111
G1 X-9.3847 Y6.7081 F60.
X-9.3799 Y6.7151
X-9.3746 Y6.7217
X-9.3688 Y6.728
X-9.3626 Y6.7338
X-9.356 Y6.7391
X-9.3491 Y6.7439
X-9.3418 Y6.7482
X-9.3342 Y6.752
X-9.3263 Y6.7552
X-9.3183 Y6.7579
X-9.31 Y6.7599
X-9.3017 Y6.7614
X-9.2933 Y6.7622
X-9.2848 Y6.7625
X-9.2763 Y6.7621
X-9.2679 Y6.7611
X-9.2596 Y6.7595
X-9.2514 Y6.7573
X-9.2434 Y6.7545
X-9.2356 Y6.7512
X-9.2281 Y6.7473
X-9.2208 Y6.7428
X-9.214 Y6.7379
X-9.2074 Y6.7324
X-9.2014 Y6.7265
X-9.1957 Y6.7202
X-9.1905 Y6.7135
X-9.1996 Y6.679
X-9.2237 Y6.5804
G2 X-9.2421 Y6.5701 I-0.0144 J0.0041
X-9.2588 Y6.5901 I0.0062 J0.0221
X-9.2141 Y6.6937 I0.1176 J0.0107
X-9.1981 Y6.7043 I0.0729 J-0.0929 F50.
G3 X-9.191 Y6.7132 I-0.0072 J0.0131
G1 X-9.1878 Y6.7256 F60.
X-9.1847 Y6.7383
X-9.1854 Y6.7466
X-9.1867 Y6.7547
X-9.1885 Y6.7628
X-9.191 Y6.7707
X-9.1939 Y6.7784
X-9.1974 Y6.7859
X-9.2015 Y6.7931
X-9.206 Y6.8
X-9.211 Y6.8066
X-9.2165 Y6.8128
X-9.2224 Y6.8186
X-9.2287 Y6.824
X-9.2353 Y6.8289
X-9.2423 Y6.8333
X-9.2496 Y6.8373
X-9.2571 Y6.8407
X-9.2649 Y6.8435
X-9.2728 Y6.8458
X-9.2809 Y6.8475
X-9.2891 Y6.8487
X-9.2973 Y6.8493
X-9.3056
X-9.3138 Y6.8487
X-9.322 Y6.8475
X-9.3301 Y6.8457
X-9.338 Y6.8434
X-9.3458 Y6.8405
X-9.3533 Y6.8371
X-9.3688 Y6.7719
X-9.3804 Y6.7256
X-9.3847 Y6.7081
G3 X-9.38 Y6.694 I0.0146 J-0.0031
X-9.3676 Y6.6921 I0.0076 J0.0085
G1 X-9.3658 Y6.693
G3 X-9.3379 Y6.811 I-0.0349 J0.0706
X-9.3483 Y6.8222 I-0.0628 J-0.0475 F50.
G2 X-9.353 Y6.8364 I0.01 J0.0111
G1 X-9.3461 Y6.8645 F60.
X-9.3413 Y6.8715
X-9.336 Y6.8781
X-9.3302 Y6.8842
X-9.324 Y6.89
X-9.3174 Y6.8953
X-9.3104 Y6.9001
X-9.3031 Y6.9043
X-9.2955 Y6.9081
X-9.2877 Y6.9113
X-9.2796 Y6.9139
X-9.2714 Y6.9159
X-9.2631 Y6.9173
X-9.2547 Y6.9181
X-9.2462 Y6.9184
X-9.2378 Y6.918
X-9.2294 Y6.917
X-9.2211 Y6.9154
X-9.2129 Y6.9132
X-9.2049 Y6.9104
X-9.1971 Y6.907
X-9.1896 Y6.9032
X-9.1824 Y6.8987
X-9.1756 Y6.8938
X-9.1691 Y6.8884
X-9.163 Y6.8825
X-9.1573 Y6.8762
X-9.1521 Y6.8695
X-9.1538 Y6.8645
X-9.1652 Y6.8182
X-9.1847 Y6.7383
G2 X-9.2031 Y6.728 I-0.0144 J0.0041
X-9.2206 Y6.7497 I0.0065 J0.0231
X-9.1757 Y6.8497 I0.1179 J0.0071
X-9.1598 Y6.8602 I0.073 J-0.0928 F50.
G3 X-9.1526 Y6.8692 I-0.0072 J0.0131
G1 X-9.1456 Y6.897 F60.
X-9.1466 Y6.9054
X-9.1482 Y6.9137
X-9.1504 Y6.9219
X-9.1532 Y6.93
X-9.1565 Y6.9377
X-9.1604 Y6.9453
X-9.1648 Y6.9525
X-9.1698 Y6.9594
X-9.1752 Y6.9659
X-9.1811 Y6.972
X-9.1874 Y6.9777
X-9.1941 Y6.9829
X-9.2011 Y6.9876
X-9.2085 Y6.9918
X-9.2162 Y6.9954
X-9.2241 Y6.9985
X-9.2322 Y7.001
X-9.2405 Y7.0029
X-9.2488 Y7.0042
X-9.2573 Y7.0049
X-9.2658
X-9.2742 Y7.0044
X-9.2826 Y7.0032
X-9.2909 Y7.0015
X-9.2991 Y6.9992
X-9.307 Y6.9962
X-9.3148 Y6.9927
X-9.3231 Y6.9572
X-9.3347 Y6.9109
X-9.3461 Y6.8645
G3 X-9.3414 Y6.8504 I0.0146 J-0.003
X-9.3281 Y6.8485 I0.0081 J0.0091
X-9.2995 Y6.9668 I-0.0343 J0.0709
X-9.3098 Y6.978 I-0.0628 J-0.0474 F50.
G2 X-9.3145 Y6.9922 I0.01 J0.0111
G1 X-9.3086 Y7.0162 F60.
X-9.3043 Y7.0233
X-9.2994 Y7.03
X-9.2941 Y7.0363
X-9.2883 Y7.0423
X-9.2821 Y7.0478
X-9.2755 Y7.0528
X-9.2686 Y7.0574
X-9.2614 Y7.0615
X-9.2539 Y7.065
X-9.2462 Y7.0681
X-9.2383 Y7.0705
X-9.2302 Y7.0724
X-9.222 Y7.0737
X-9.2137 Y7.0744
X-9.2054 Y7.0745
X-9.1972 Y7.074
X-9.1889 Y7.073
X-9.1808 Y7.0713
X-9.1728 Y7.0691
X-9.165 Y7.0663
X-9.1574 Y7.063
X-9.1501 Y7.0591
X-9.1431 Y7.0547
X-9.1364 Y7.0498
X-9.13 Y7.0445
X-9.1241 Y7.0387
X-9.1186 Y7.0325
X-9.1135 Y7.0259
G3 X-9.1456 Y6.897 I26.775 J-6.7373
G2 X-9.1564 Y6.8866 I-0.0144 J0.0041
X-9.1678 Y6.8906 I-0.0027 J0.0107
G1 X-9.1693 Y6.8926
G2 X-9.1392 Y7.01 I0.0638 J0.0462
X-9.1248 Y7.0151 I0.0336 J-0.0712 F50.
G3 X-9.1141 Y7.0255 I-0.0037 J0.0145
G1 X-9.1081 Y7.0498 F60.
X-9.1087 Y7.058
X-9.1099 Y7.0662
X-9.1117 Y7.0743
X-9.1141 Y7.0822
X-9.117 Y7.09
X-9.1205 Y7.0975
X-9.1245 Y7.1047
X-9.129 Y7.1117
X-9.134 Y7.1183
X-9.1395 Y7.1245
X-9.1454 Y7.1303
X-9.1517 Y7.1357
X-9.1583 Y7.1406
X-9.1653 Y7.1451
X-9.1726 Y7.149
X-9.1801 Y7.1524
X-9.1879 Y7.1553
X-9.1958 Y7.1575
X-9.2039 Y7.1593
X-9.2121 Y7.1604
X-9.2204 Y7.161
X-9.2287 Y7.1609
X-9.2369 Y7.1603
X-9.2451 Y7.1591
X-9.2532 Y7.1573
X-9.2611 Y7.155
X-9.2688 Y7.152
X-9.2764 Y7.1486
X-9.2832 Y7.1193
X-9.3005 Y7.0498
X-9.3086 Y7.0162
G3 X-9.2858 Y7.0007 I0.0146 J-0.003
X-9.2623 Y7.0299 I-0.0335 J0.0509
X-9.2648 Y7.1199 I-0.1104 J0.042
X-9.2739 Y7.1367 I-0.1079 J-0.0479 F50.
G2 X-9.2761 Y7.148 I0.0125 J0.0082
G1 X-9.2694 Y7.1752 F60.
X-9.2646 Y7.1822
X-9.2594 Y7.1889
X-9.2537 Y7.1951
X-9.2475 Y7.2009
X-9.2409 Y7.2063
X-9.234 Y7.2112
X-9.2267 Y7.2155
X-9.2191 Y7.2194
X-9.2113 Y7.2226
X-9.2032 Y7.2253
X-9.195 Y7.2274
X-9.1866 Y7.2289
X-9.1782 Y7.2298
X-9.1697 Y7.23
X-9.1612 Y7.2297
X-9.1528 Y7.2287
X-9.1445 Y7.2271
X-9.1363 Y7.225
X-9.1282 Y7.2222
X-9.1204 Y7.2189
X-9.1129 Y7.215
X-9.1057 Y7.2105
X-9.0988 Y7.2056
X-9.0923 Y7.2002
X-9.0861 Y7.1943
X-9.0805 Y7.188
X-9.0753 Y7.1813
X-9.0908 Y7.1193
X-9.0965 Y7.0961
X-9.1081 Y7.0498
G2 X-9.1355 Y7.0467 I-0.0144 J0.0041
X-9.1425 Y7.0821 I0.052 J0.0288
X-9.0987 Y7.1613 I0.1174 J-0.0132
X-9.0828 Y7.172 I0.0735 J-0.0924 F50.
G3 X-9.0757 Y7.181 I-0.0073 J0.013
G1 X-9.0695 Y7.2065 F60.
G3 X-9.2237 Y7.3085 I-0.1163 J-0.0084
X-9.2198 Y7.288 I0.0125 J-0.0082
G1 X-9.2134 Y7.2835
X-9.0944 Y7.1997
X-9.0924 Y7.1983 F50.
G3 X-9.0695 Y7.2065 I0.0086 J0.0122
X-9.2412 Y7.2949 I-0.0859 J0.0442 F60.
X-9.2508 Y7.2357 I0.0859 J-0.0442
G1 X-9.2694 Y7.1752
G3 X-9.2505 Y7.1578 I0.0146 J-0.003
G1 X-9.2477 Y7.1587 Z-0.2197
X-9.245 Y7.1595 Z-0.2189
X-9.2425 Y7.1602 Z-0.2175
X-9.2403 Y7.1609 Z-0.2156
X-9.2386 Y7.1614 Z-0.2134
X-9.2372 Y7.1618 Z-0.2108
X-9.2364 Y7.1621 Z-0.208
X-9.2362 Y7.1622 Z-0.2051
G0 Z-0.1901
X-9.7581 Y5.0672
G1 Z-0.2051 F50.
X-9.7584 Z-0.208
X-9.7592 Z-0.2108
X-9.7606 Z-0.2134
X-9.7625 Z-0.2156
X-9.7648 Y5.0671 Z-0.2175
X-9.7673 Z-0.2189
X-9.7701 Z-0.2197
X-9.7731 Z-0.22
G3 X-9.803 Y5.0593 I0.0003 J-0.0623
G1 X-9.8474 Y5.0322 F60.
X-9.8525 Y5.0292
G3 X-9.8015 Y4.8418 I0.0835 J-0.0779
G1 X-9.7495 Y4.8731
X-9.7086 Y4.8981
X-9.6976 Y4.9047
G3 X-9.6908 Y4.918 I-0.0081 J0.0125
X-9.7118 Y4.9391 I-0.0222 J-0.0011
X-9.7941 Y4.8709 I-0.0042 J-0.0786
X-9.7947 Y4.8557 I0.078 J-0.0105 F50.
G2 X-9.8013 Y4.8423 I-0.0149 J-0.0009
G1 X-9.8266 Y4.8268 F60.
X-9.8349 Y4.8252
X-9.8433 Y4.8242
X-9.8518 Y4.8238
X-9.8603 Y4.824
X-9.8687 Y4.8248
X-9.8771 Y4.8263
X-9.8853 Y4.8283
X-9.8934 Y4.8309
X-9.9013 Y4.8342
X-9.9089 Y4.8379
X-9.9162 Y4.8422
X-9.9232 Y4.8471
X-9.9298 Y4.8524
X-9.936 Y4.8582
X-9.9418 Y4.8644
X-9.9471 Y4.871
X-9.9519 Y4.878
X-9.9562 Y4.8853
X-9.96 Y4.8929
X-9.9632 Y4.9008
X-9.9658 Y4.9088
X-9.9678 Y4.9171
X-9.9692 Y4.9254
X-9.9701 Y4.9339
X-9.9703 Y4.9424
X-9.9699 Y4.9508
X-9.9688 Y4.9593
X-9.9399 Y4.9764
X-9.8937 Y5.0047
X-9.8525 Y5.0292
G2 X-9.8322 Y5.0233 I0.0072 J-0.0131
X-9.8348 Y4.9978 I-0.0198 J-0.0109
X-9.9381 Y4.9568 I-0.0901 J0.0764
X-9.9569 Y4.9605 I0.0132 J0.1174 F50.
G3 X-9.9683 Y4.9592 I-0.0041 J-0.0144
G1 X-9.9862 Y4.9482 F60.
X-9.9909 Y4.9455
X-9.9963 Y4.9389
X-10.0012 Y4.9319
X-10.0056 Y4.9246
X-10.0095 Y4.917
X-10.0128 Y4.9091
X-10.0155 Y4.9011
X-10.0176 Y4.8928
X-10.0191 Y4.8844
X-10.02 Y4.8759
X-10.0203 Y4.8674
X-10.0199 Y4.8589
X-10.019 Y4.8504
X-10.0174 Y4.842
X-10.0152 Y4.8338
X-10.0124 Y4.8257
X-10.009 Y4.8179
X-10.005 Y4.8103
X-10.0006 Y4.8031
X-9.9956 Y4.7962
X-9.9901 Y4.7896
X-9.9841 Y4.7835
X-9.9777 Y4.7779
X-9.9709 Y4.7727
X-9.9638 Y4.7681
X-9.9563 Y4.7639
X-9.9486 Y4.7604
X-9.9406 Y4.7574
X-9.9027 Y4.7805
X-9.8937 Y4.7858
X-9.8266 Y4.8268
G3 X-9.8199 Y4.8402 I-0.0083 J0.0125
X-9.8269 Y4.8497 I-0.0109 J-0.0007
G1 X-9.8296 Y4.8506
G3 X-9.9331 Y4.7867 I-0.0255 J-0.0745
X-9.9337 Y4.7715 I0.078 J-0.0106 F50.
G2 X-9.9404 Y4.7581 I-0.0149 J-0.0009
G1 X-9.9604 Y4.7458 F60.
X-9.9685 Y4.7438
X-9.9767 Y4.7424
X-9.985 Y4.7416
X-9.9933 Y4.7414
X-10.0017 Y4.7418
X-10.01 Y4.7427
X-10.0182 Y4.7443
X-10.0262 Y4.7465
X-10.0341 Y4.7492
X-10.0418 Y4.7525
X-10.0492 Y4.7564
X-10.0563 Y4.7607
X-10.063 Y4.7656
X-10.0694 Y4.771
X-10.0754 Y4.7768
X-10.081 Y4.783
X-10.0861 Y4.7896
X-10.0907 Y4.7965
X-10.0948 Y4.8038
X-10.0984 Y4.8113
X-10.1014 Y4.8191
X-10.1038 Y4.8271
X-10.1057 Y4.8352
X-10.107 Y4.8435
X-10.1076 Y4.8518
X-10.1077 Y4.8601
X-10.1072 Y4.8684
X-10.106 Y4.8767
X-10.0788 Y4.8924
X-10.0325 Y4.9206
X-9.9909 Y4.9455
G2 X-9.9706 Y4.9396 I0.0072 J-0.0131
X-9.974 Y4.9111 I-0.0215 J-0.0118
X-10.0753 Y4.874 I-0.0868 J0.0801
X-10.0941 Y4.8778 I0.0144 J0.1172 F50.
G3 X-10.1055 Y4.8766 I-0.0042 J-0.0143
G1 X-10.125 Y4.865 F60.
X-10.1307 Y4.8588
X-10.1358 Y4.8522
X-10.1405 Y4.8452
X-10.1446 Y4.838
X-10.1483 Y4.8304
X-10.1513 Y4.8226
X-10.1538 Y4.8146
X-10.1557 Y4.8064
X-10.157 Y4.7982
X-10.1577 Y4.7898
X-10.1578 Y4.7814
X-10.1573 Y4.7731
X-10.1561 Y4.7648
X-10.1544 Y4.7566
X-10.1521 Y4.7485
X-10.1492 Y4.7407
X-10.1457 Y4.733
X-10.1417 Y4.7257
X-10.1372 Y4.7186
X-10.1322 Y4.7119
X-10.1267 Y4.7056
X-10.1208 Y4.6997
X-10.1144 Y4.6942
X-10.1077 Y4.6892
X-10.1006 Y4.6847
X-10.0932 Y4.6808
X-10.0856 Y4.6773
X-10.0777 Y4.6745
X-9.9604 Y4.7458
G3 X-9.9656 Y4.7729 I-0.0082 J0.0125
X-10.0041 Y4.7686 I-0.0125 J-0.0616
X-10.0658 Y4.7029 I0.0487 J-0.1076
X-10.0712 Y4.6845 I0.1104 J-0.0419 F50.
G2 X-10.0775 Y4.675 I-0.0146 J0.003
G1 X-10.0989 Y4.662 F60.
X-10.1069 Y4.6601
X-10.1151 Y4.6589
X-10.1234 Y4.6582
X-10.1317 Y4.6581
X-10.14 Y4.6586
X-10.1482 Y4.6597
X-10.1563 Y4.6614
X-10.1643 Y4.6636
X-10.1721 Y4.6664
X-10.1797 Y4.6698
X-10.187 Y4.6737
X-10.194 Y4.6781
X-10.2007 Y4.683
X-10.207 Y4.6883
X-10.213 Y4.6941
X-10.2185 Y4.7003
X-10.2235 Y4.7069
X-10.2281 Y4.7138
X-10.2321 Y4.7211
X-10.2357 Y4.7286
X-10.2387 Y4.7363
X-10.2411 Y4.7442
X-10.243 Y4.7523
X-10.2443 Y4.7605
X-10.2449 Y4.7688
X-10.2451 Y4.777
X-10.2446 Y4.7853
X-10.2435 Y4.7935
X-10.2176 Y4.8084
X-10.1874 Y4.8268
X-10.125 Y4.865
G2 X-10.1048 Y4.8591 I0.0072 J-0.0131
X-10.1073 Y4.8329 I-0.0206 J-0.0112
X-10.2127 Y4.7908 I-0.0911 J0.0752
X-10.2315 Y4.7947 I0.0143 J0.1172 F50.
G3 X-10.2428 Y4.7934 I-0.0042 J-0.0143
G1 X-10.2639 Y4.7809 F60.
X-10.2693 Y4.7746
X-10.2743 Y4.768
X-10.2788 Y4.761
X-10.2828 Y4.7537
X-10.2862 Y4.7461
X-10.2891 Y4.7384
X-10.2915 Y4.7304
X-10.2932 Y4.7223
X-10.2944 Y4.714
X-10.295 Y4.7057
Y4.6974
X-10.2944 Y4.6891
X-10.2932 Y4.6809
X-10.2914 Y4.6728
X-10.289 Y4.6648
X-10.2861 Y4.657
X-10.2826 Y4.6495
X-10.2786 Y4.6422
X-10.2741 Y4.6352
X-10.2691 Y4.6286
X-10.2636 Y4.6223
X-10.2577 Y4.6165
X-10.2514 Y4.611
X-10.2448 Y4.6061
X-10.2378 Y4.6016
X-10.2304 Y4.5977
X-10.2229 Y4.5943
X-10.2151 Y4.5914
X-10.0989 Y4.662
G3 X-10.1041 Y4.6891 I-0.0082 J0.0125
X-10.1375 Y4.686 I-0.0115 J-0.0567
X-10.2029 Y4.6197 I0.0446 J-0.1094
X-10.2084 Y4.6014 I0.11 J-0.0431 F50.
G2 X-10.2149 Y4.592 I-0.0146 J0.0031
G1 X-10.2377 Y4.5784 F60.
X-10.246 Y4.5767
X-10.2545 Y4.5756
X-10.263 Y4.5751
X-10.2716 Y4.5752
X-10.2801 Y4.576
X-10.2885 Y4.5774
X-10.2968 Y4.5794
X-10.305 Y4.582
X-10.3129 Y4.5851
X-10.3206 Y4.5889
X-10.328 Y4.5932
X-10.335 Y4.598
X-10.3417 Y4.6033
X-10.348 Y4.6091
X-10.3538 Y4.6153
X-10.3592 Y4.622
X-10.3641 Y4.629
X-10.3684 Y4.6363
X-10.3722 Y4.644
X-10.3754 Y4.6519
X-10.3781 Y4.66
X-10.3801 Y4.6683
X-10.3816 Y4.6767
X-10.3824 Y4.6852
X-10.3826 Y4.6938
X-10.3822 Y4.7023
X-10.3812 Y4.7108
X-10.3564 Y4.7255
X-10.3101 Y4.7527
X-10.2639 Y4.7809
G2 X-10.2423 Y4.7636 I0.0072 J-0.0131
X-10.2568 Y4.74 I-0.0507 J0.0148
X-10.3502 Y4.7085 I-0.081 J0.086
X-10.3691 Y4.7121 I0.0124 J0.1175 F50.
G3 X-10.3804 Y4.7107 I-0.004 J-0.0144
G1 X-10.4027 Y4.6969 F60.
X-10.4081 Y4.6903
X-10.4131 Y4.6833
X-10.4175 Y4.676
X-10.4214 Y4.6684
X-10.4247 Y4.6605
X-10.4274 Y4.6524
X-10.4295 Y4.6441
X-10.431 Y4.6356
X-10.4319 Y4.6271
X-10.4322 Y4.6186
X-10.4318 Y4.61
X-10.4309 Y4.6015
X-10.4293 Y4.5931
X-10.427 Y4.5848
X-10.4242 Y4.5767
X-10.4208 Y4.5689
X-10.4169 Y4.5613
X-10.4123 Y4.554
X-10.4073 Y4.5471
X-10.4018 Y4.5405
X-10.3958 Y4.5344
X-10.3894 Y4.5287
X-10.3826 Y4.5236
X-10.3754 Y4.5189
X-10.3679 Y4.5147
X-10.3601 Y4.5112
X-10.3521 Y4.5082
X-10.3101 Y4.5346
X-10.2639 Y4.5628
X-10.2377 Y4.5784
G3 X-10.2332 Y4.599 I-0.0081 J0.0126
X-10.2595 Y4.6093 I-0.0202 J-0.013
X-10.3402 Y4.5368 I0.0298 J-0.1143
X-10.3455 Y4.5184 I0.1105 J-0.0418 F50.
G2 X-10.3518 Y4.5089 I-0.0146 J0.003
G1 X-10.3564 Y4.5061 F60.
X-10.3625 Y4.5026
X-10.3735 Y4.4961
X-10.3816 Y4.4943
X-10.3898 Y4.4931
X-10.3981 Y4.4924
X-10.4064 Y4.4923
X-10.4146 Y4.4928
X-10.4229 Y4.4939
X-10.431 Y4.4956
X-10.439 Y4.4978
X-10.4468 Y4.5007
X-10.4543 Y4.504
X-10.4617 Y4.5079
X-10.4687 Y4.5123
X-10.4754 Y4.5172
X-10.4817 Y4.5226
X-10.4876 Y4.5283
X-10.4931 Y4.5345
X-10.4982 Y4.5411
X-10.5028 Y4.548
X-10.5068 Y4.5552
X-10.5104 Y4.5627
X-10.5134 Y4.5705
X-10.5158 Y4.5784
X-10.5177 Y4.5865
X-10.519 Y4.5947
X-10.5197 Y4.6029
X-10.5198 Y4.6112
X-10.5194 Y4.6195
X-10.5183 Y4.6277
G3 X-10.4027 Y4.6969 I-2.1214 J3.6747
G2 X-10.3809 Y4.68 I0.0074 J-0.013
X-10.3981 Y4.6529 I-0.0527 J0.0145
X-10.4875 Y4.6254 I-0.0766 J0.0899
X-10.5063 Y4.629 I0.0127 J0.1174 F50.
G3 X-10.5177 Y4.6276 I-0.004 J-0.0144
G1 X-10.5415 Y4.613 F60.
X-10.5468 Y4.6064
X-10.5516 Y4.5994
X-10.5559 Y4.592
X-10.5596 Y4.5844
X-10.5628 Y4.5766
X-10.5653 Y4.5685
X-10.5673 Y4.5603
X-10.5687 Y4.5519
X-10.5695 Y4.5434
X-10.5697 Y4.535
X-10.5693 Y4.5265
X-10.5682 Y4.5181
X-10.5666 Y4.5098
X-10.5643 Y4.5016
X-10.5614 Y4.4936
X-10.558 Y4.4859
X-10.5541 Y4.4784
X-10.5496 Y4.4712
X-10.5445 Y4.4643
X-10.539 Y4.4579
X-10.5331 Y4.4518
X-10.5267 Y4.4463
X-10.52 Y4.4411
X-10.5128 Y4.4365
X-10.5054 Y4.4324
X-10.4977 Y4.4289
X-10.4898 Y4.4259
X-10.3735 Y4.4961
G3 X-10.3689 Y4.5168 I-0.008 J0.0126
X-10.3917 Y4.5264 I-0.0184 J-0.0116
X-10.4776 Y4.4541 I0.024 J-0.1156
X-10.4831 Y4.4358 I0.1099 J-0.0433 F50.
G2 X-10.4896 Y4.4264 I-0.0146 J0.0032
G1 X-10.4952 Y4.423 F60.
X-10.5124 Y4.4126
X-10.5206 Y4.4109
X-10.529 Y4.4097
X-10.5374 Y4.4092
X-10.5459 Y4.4093
X-10.5543 Y4.41
X-10.5626 Y4.4113
X-10.5708 Y4.4132
X-10.5789 Y4.4157
X-10.5868 Y4.4187
X-10.5944 Y4.4224
X-10.6017 Y4.4265
X-10.6087 Y4.4312
X-10.6154 Y4.4364
X-10.6216 Y4.4421
X-10.6275 Y4.4482
X-10.6328 Y4.4547
X-10.6377 Y4.4616
X-10.6421 Y4.4688
X-10.6459 Y4.4764
X-10.6492 Y4.4841
X-10.6519 Y4.4921
X-10.654 Y4.5003
X-10.6555 Y4.5086
X-10.6564 Y4.517
X-10.6567 Y4.5254
X-10.6564 Y4.5339
X-10.6554 Y4.5422
G2 X-10.5415 Y4.613 I0.7621 J-1.1004
X-10.5266 Y4.6125 I0.0071 J-0.0132
X-10.5262 Y4.5503 I-0.0193 J-0.0312
X-10.6263 Y4.5377 I-0.0634 J0.0997
X-10.6405 Y4.5434 I0.0367 J0.1123 F50.
G3 X-10.6553 Y4.5422 I-0.0064 J-0.0135
G1 X-10.6803 Y4.5238 F60.
G3 X-10.6829 Y4.3936 I0.0781 J-0.0667
G1 X-10.6809 Y4.3917
X-10.6787 Y4.3903
X-10.6761 Y4.3892
X-10.6734 Y4.3887
X-10.6707
X-10.668 Y4.3892
X-10.6654 Y4.3902
X-10.6631 Y4.3917
X-10.661 Y4.3936
X-10.6594 Y4.3958
X-10.6581 Y4.3983
G3 X-10.6573 Y4.4032 I-0.0141 J0.0049
G1 X-10.6569 Y4.5114
X-10.657 Y4.513
G3 X-10.6803 Y4.5238 I-0.0149 J-0.0015 F50.
G1 X-10.6854 Y4.5179 F60.
X-10.69 Y4.5116
X-10.6941 Y4.5049
X-10.6976 Y4.4979
X-10.7005 Y4.4907
X-10.7029 Y4.4832
X-10.7047 Y4.4756
X-10.7058 Y4.4679
X-10.7063 Y4.4601
X-10.7062 Y4.4522
X-10.7055 Y4.4445
X-10.7041 Y4.4368
X-10.7021 Y4.4292
X-10.6996 Y4.4218
X-10.6964 Y4.4147
X-10.6927 Y4.4078
X-10.6884 Y4.4012
X-10.6836 Y4.395
X-10.6784 Y4.3893
X-10.6727 Y4.3839
X-10.6665 Y4.3791
X-10.6601 Y4.3747
X-10.6532 Y4.3709
X-10.6461 Y4.3676
X-10.6388 Y4.3649
X-10.6313 Y4.3628
X-10.6236 Y4.3613
X-10.6158 Y4.3605
X-10.608 Y4.3603
X-10.6002 Y4.3607
X-10.5924 Y4.3617
X-10.5848 Y4.3633
X-10.5773 Y4.3656
X-10.57 Y4.3684
X-10.563 Y4.3719
X-10.5563 Y4.3758
X-10.5499 Y4.3803
X-10.5439 Y4.3853
X-10.5383 Y4.3908
X-10.5332 Y4.3967
X-10.5285 Y4.403
X-10.5244 Y4.4096
X-10.5208 Y4.4166
X-10.5191 Y4.4162
X-10.5173
X-10.5154 Y4.4166
X-10.5136 Y4.4174
X-10.5119 Y4.4186
X-10.5104 Y4.4202
X-10.5092 Y4.4221
X-10.5084 Y4.4243
X-10.508 Y4.4267
X-10.5081 Y4.4292
X-10.5087 Y4.4317
X-10.5098 Y4.4341
X-10.5114 Y4.4364
X-10.5135 Y4.4383
X-10.5161 Y4.4397 Z-0.2197
X-10.5185 Y4.441 Z-0.2189
X-10.5208 Y4.4422 Z-0.2175
X-10.5228 Y4.4433 Z-0.2156
X-10.5245 Y4.4442 Z-0.2134
X-10.5257 Y4.4448 Z-0.2108
X-10.5264 Y4.4452 Z-0.208
X-10.5267 Y4.4454 Z-0.2051
G0 Z0.4
X-5.4336 Y3.6851
Z0.1
G3 X-5.562 Y3.7456 Z0.0607 I-0.0642 J0.0303 F50.
X-5.4336 Y3.6851 Z0.0214 I0.0642 J-0.0303
X-5.562 Y3.7456 Z-0.0179 I-0.0642 J0.0303
X-5.4336 Y3.6851 Z-0.0572 I0.0642 J-0.0303
X-5.562 Y3.7456 Z-0.0966 I-0.0642 J0.0303
X-5.4336 Y3.6851 Z-0.1359 I0.0642 J-0.0303
X-5.562 Y3.7456 Z-0.1752 I-0.0642 J0.0303
X-5.4336 Y3.6851 Z-0.2145 I0.0642 J-0.0303
X-5.4268 Y3.7153 Z-0.22 I-0.0642 J0.0303
X-5.5688 I-0.071 J0.
X-5.4268 I0.071 J0.
X-5.4098 Y3.7518 I-0.065 J0.0527 F60.
G1 X-5.4109 Y3.7616
X-5.4475 Y3.8079
X-5.4824 Y3.8324
G3 X-5.6513 Y3.7233 I-0.0539 J-0.1018
X-5.4978 Y3.6358 I0.2842 J0.3203
X-5.409 Y3.752 I-0.0012 J0.0929
G1 X-5.4097 Y3.7542
X-5.4108 Y3.7563
X-5.4121 Y3.7582
X-5.4137 Y3.7598
X-5.4287 Y3.7757
X-5.461 Y3.81
X-5.4805 Y3.8307 F50.
X-5.4824 Y3.8324
G2 X-5.5527 Y3.8838 I1.0643 J1.5293 F60.
G3 X-5.7302 Y3.7817 I-0.0495 J-0.1194
G1 X-5.7015 Y3.7616
X-5.6502 Y3.7233
G3 X-5.6353 Y3.7221 I0.0085 J0.0123
X-5.6292 Y3.7698 I-0.0121 J0.0258
X-5.6992 Y3.7856 I-0.0504 J-0.0605
X-5.7136 Y3.7803 I0.0197 J-0.0762 F50.
G2 X-5.7285 Y3.7815 I-0.0065 J0.0135
G1 X-5.743 Y3.792 F60.
G2 X-5.668 Y3.9682 I0.0921 J0.0649
G1 X-5.6366 Y3.9461
X-5.5753 Y3.9006
X-5.5527 Y3.8838
G2 X-5.5472 Y3.8699 I-0.0093 J-0.0117
X-5.6112 Y3.8418 I-0.0409 J0.0062
X-5.6632 Y3.9393 I0.0661 J0.0979
X-5.6623 Y3.9546 I0.1181 J0.0003 F50.
G3 X-5.668 Y3.9683 I-0.0148 J0.0019
G1 X-5.6829 Y3.9789 F60.
X-5.6888 Y3.9832
X-5.6967 Y3.9861
X-5.7047 Y3.9884
X-5.7129 Y3.9902
X-5.7212 Y3.9913
X-5.7296 Y3.9918
X-5.7379
X-5.7463 Y3.9911
X-5.7546 Y3.9899
X-5.7627 Y3.988
X-5.7707 Y3.9856
X-5.7785 Y3.9826
X-5.7861 Y3.979
X-5.7934 Y3.975
X-5.8004 Y3.9704
X-5.8071 Y3.9653
X-5.8133 Y3.9597
X-5.8192 Y3.9537
X-5.8246 Y3.9473
X-5.8295 Y3.9405
X-5.8339 Y3.9334
X-5.8378 Y3.926
X-5.8412 Y3.9184
X-5.844 Y3.9105
X-5.8462 Y3.9024
X-5.8478 Y3.8942
X-5.8489 Y3.8859
X-5.8493 Y3.8775
X-5.8492 Y3.8692
G3 X-5.743 Y3.792 I2.8118 J3.7571
X-5.7281 Y3.791 I0.0083 J0.0124
X-5.7216 Y3.8022 I-0.0051 J0.0105
G1 X-5.7217 Y3.8037
G3 X-5.8196 Y3.8732 I-0.0784 J-0.0068
X-5.8339 Y3.868 I0.0194 J-0.0763 F50.
G2 X-5.8488 Y3.8692 I-0.0064 J0.0135
G1 X-5.868 Y3.8834 F60.
X-5.8728 Y3.8902
X-5.877 Y3.8973
X-5.8808 Y3.9047
X-5.884 Y3.9123
X-5.8866 Y3.9201
X-5.8887 Y3.9281
X-5.8902 Y3.9363
X-5.8911 Y3.9445
X-5.8915 Y3.9528
X-5.8912 Y3.9611
X-5.8903 Y3.9693
X-5.8889 Y3.9774
X-5.8868 Y3.9855
X-5.8842 Y3.9933
X-5.8811 Y4.001
X-5.8774 Y4.0084
X-5.8732 Y4.0155
X-5.8684 Y4.0223
X-5.8632 Y4.0288
X-5.8576 Y4.0348
X-5.8515 Y4.0405
X-5.8451 Y4.0456
X-5.8383 Y4.0504
X-5.8311 Y4.0546
X-5.8237 Y4.0583
X-5.8161 Y4.0614
X-5.8082 Y4.064
X-5.8002 Y4.066
G3 X-5.6888 Y3.9832 I6.05 J8.0197
G2 X-5.6863 Y3.9622 I-0.0093 J-0.0117
X-5.7087 Y3.9549 I-0.0167 J0.0132
X-5.7909 Y4.0367 I0.0315 J0.1138
X-5.7945 Y4.0555 I0.1137 J0.032 F50.
G3 X-5.8001 Y4.0655 I-0.0148 J-0.0017
G1 X-5.8217 Y4.0815 F60.
X-5.8299 Y4.0841
X-5.8383 Y4.086
X-5.8467 Y4.0873
X-5.8553 Y4.088
X-5.8639 Y4.0881
X-5.8724 Y4.0875
X-5.8809 Y4.0863
X-5.8893 Y4.0845
X-5.8975 Y4.0821
X-5.9055 Y4.079
X-5.9133 Y4.0754
X-5.9208 Y4.0713
X-5.928 Y4.0666
X-5.9348 Y4.0614
X-5.9412 Y4.0557
X-5.9472 Y4.0496
X-5.9527 Y4.043
X-5.9577 Y4.036
X-5.9622 Y4.0287
X-5.9662 Y4.0211
X-5.9695 Y4.0133
X-5.9723 Y4.0051
X-5.9745 Y3.9969
X-5.9761 Y3.9884
X-5.9771 Y3.9799
X-5.9774 Y3.9714
X-5.9771 Y3.9628
G2 X-5.868 Y3.8834 I-7.8302 J-10.8771
G3 X-5.8449 Y3.8985 I0.0084 J0.0123
X-5.8636 Y3.932 I-0.0593 J-0.0111
X-5.9464 Y3.9626 I-0.0794 J-0.0875
X-5.9655 Y3.9605 I0.0034 J-0.1181 F50.
G2 X-5.9767 Y3.9628 I-0.0028 J0.0147
G1 X-5.9968 Y3.9774 F60.
X-6.0016 Y3.9842
X-6.0059 Y3.9913
X-6.0097 Y3.9986
X-6.013 Y4.0063
X-6.0157 Y4.0141
X-6.0178 Y4.0221
X-6.0194 Y4.0302
X-6.0204 Y4.0385
X-6.0208 Y4.0468
X-6.0206 Y4.055
X-6.0198 Y4.0633
X-6.0185 Y4.0715
X-6.0165 Y4.0795
X-6.014 Y4.0874
X-6.0109 Y4.0951
X-6.0073 Y4.1026
X-6.0032 Y4.1098
X-5.9985 Y4.1167
X-5.9934 Y4.1232
X-5.9878 Y4.1293
X-5.9818 Y4.135
X-5.9755 Y4.1403
X-5.9687 Y4.1452
X-5.9616 Y4.1495
X-5.9543 Y4.1533
X-5.9467 Y4.1566
X-5.9388 Y4.1593
X-5.9308 Y4.1615
X-5.868 Y4.1145
X-5.8217 Y4.0815
G2 X-5.8194 Y4.0605 I-0.0093 J-0.0117
X-5.8467 Y4.0527 I-0.0192 J0.0153
X-5.9214 Y4.132 I0.0389 J0.1115
X-5.9251 Y4.1508 I0.1136 J0.0322 F50.
G3 X-5.9307 Y4.1608 I-0.0148 J-0.0017
G1 X-5.9494 Y4.1747 F60.
X-5.9573 Y4.1774
X-5.9653 Y4.1796
X-5.9736 Y4.1812
X-5.9818 Y4.1822
X-5.9902 Y4.1825
X-5.9985 Y4.1823
X-6.0069 Y4.1815
X-6.0151 Y4.1801
X-6.0232 Y4.1781
X-6.0311 Y4.1755
X-6.0389 Y4.1723
X-6.0464 Y4.1686
X-6.0536 Y4.1644
X-6.0604 Y4.1596
X-6.0669 Y4.1544
X-6.0731 Y4.1487
X-6.0787 Y4.1426
X-6.084 Y4.1361
X-6.0887 Y4.1292
X-6.093 Y4.122
X-6.0967 Y4.1145
X-6.0998 Y4.1068
X-6.1024 Y4.0989
X-6.1044 Y4.0908
X-6.1059 Y4.0825
X-6.1067 Y4.0742
X-6.1069 Y4.0659
X-6.1065 Y4.0575
G2 X-5.9968 Y3.9774 I-3.4252 J-4.8084
G3 X-5.976 Y3.9815 I0.0084 J0.0124
X-5.9763 Y4.0072 I-0.0188 J0.0127
X-6.0757 Y4.0572 I-0.0966 J-0.068
X-6.0948 Y4.0552 I0.0029 J-0.1181 F50.
G2 X-6.0975 Y4.055 I-0.0028 J0.0147
G1 X-6.1005 Y4.0553
X-6.1034 Y4.0561
X-6.106 Y4.0576
X-6.1257 Y4.072 F60.
X-6.1306 Y4.0788
X-6.1349 Y4.0858
X-6.1388 Y4.0932
X-6.1421 Y4.1008
X-6.1448 Y4.1086
X-6.147 Y4.1166
X-6.1486 Y4.1247
X-6.1497 Y4.133
X-6.1501 Y4.1412
X-6.15 Y4.1495
X-6.1492 Y4.1578
X-6.1479 Y4.166
X-6.146 Y4.174
X-6.1435 Y4.1819
X-6.1405 Y4.1897
X-6.1369 Y4.1971
X-6.1328 Y4.2043
X-6.1282 Y4.2112
X-6.1231 Y4.2178
X-6.1175 Y4.2239
X-6.1115 Y4.2297
X-6.1052 Y4.235
X-6.0984 Y4.2398
X-6.0914 Y4.2442
X-6.084 Y4.248
X-6.0764 Y4.2513
X-6.0686 Y4.254
X-6.0606 Y4.2562
G2 X-5.9494 Y4.1747 I-5.7457 J-7.9502
X-5.947 Y4.1537 I-0.0093 J-0.0117
X-5.9717 Y4.1459 I-0.018 J0.0144
X-6.0512 Y4.2268 I0.0342 J0.1131
X-6.0549 Y4.2456 I0.1136 J0.0322 F50.
G3 X-6.0604 Y4.2556 I-0.0148 J-0.0017
G1 X-6.0814 Y4.2711 F60.
X-6.0896 Y4.2736
X-6.0979 Y4.2754
X-6.1064 Y4.2767
X-6.1149 Y4.2774
X-6.1234
X-6.1319 Y4.2768
X-6.1404 Y4.2756
X-6.1487 Y4.2738
X-6.1569 Y4.2713
X-6.1649 Y4.2683
X-6.1726 Y4.2647
X-6.1801 Y4.2606
X-6.1872 Y4.2559
X-6.194 Y4.2507
X-6.2004 Y4.245
X-6.2063 Y4.2389
X-6.2118 Y4.2323
X-6.2168 Y4.2254
X-6.2213 Y4.2181
X-6.2252 Y4.2106
X-6.2286 Y4.2027
X-6.2313 Y4.1946
X-6.2335 Y4.1864
X-6.2351 Y4.178
X-6.2361 Y4.1695
X-6.2364 Y4.161
X-6.2361 Y4.1524
X-6.1919 Y4.1205
X-6.1444 Y4.0858
X-6.1257 Y4.072
G3 X-6.1026 Y4.0872 I0.0084 J0.0123
X-6.1178 Y4.1164 I-0.0561 J-0.0106
X-6.2051 Y4.1521 I-0.0847 J-0.0823
X-6.2242 Y4.1501 I0.0026 J-0.1181 F50.
G2 X-6.2269 Y4.1499 I-0.0027 J0.0147
G1 X-6.2299 Y4.1502
X-6.2327 Y4.1511
X-6.2354 Y4.1525
X-6.2382 Y4.1546 F60.
X-6.2539 Y4.1665
X-6.2589 Y4.1734
X-6.2635 Y4.1806
X-6.2675 Y4.1881
X-6.2709 Y4.196
X-6.2737 Y4.204
X-6.276 Y4.2122
X-6.2776 Y4.2206
X-6.2786 Y4.2291
X-6.279 Y4.2376
X-6.2788 Y4.2461
X-6.2779 Y4.2546
X-6.2764 Y4.263
X-6.2743 Y4.2712
X-6.2717 Y4.2793
X-6.2684 Y4.2872
X-6.2645 Y4.2948
X-6.2602 Y4.3021
X-6.2552 Y4.3091
X-6.2498 Y4.3157
X-6.244 Y4.3218
X-6.2376 Y4.3276
X-6.2309 Y4.3328
X-6.2238 Y4.3376
X-6.2164 Y4.3418
X-6.2087 Y4.3454
X-6.2008 Y4.3485
X-6.1926 Y4.351
X-6.1843 Y4.3529
G3 X-6.0814 Y4.2711 I0.5528 J0.5897
G2 X-6.0759 Y4.2572 I-0.0093 J-0.0117
X-6.0902 Y4.2427 I-0.0171 J0.0025
X-6.1818 Y4.3228 I-0.0129 J0.0777
X-6.1798 Y4.338 I0.0787 J-0.0024 F50.
G3 X-6.1842 Y4.3522 I-0.0146 J0.0033
G1 X-6.1919 Y4.3589 F60.
X-6.1966 Y4.3637
X-6.1975 Y4.3651
G3 X-6.3607 Y4.2694 I-0.0534 J-0.0961
X-6.2539 Y4.1665 I0.4014 J0.3099
X-6.239 Y4.1652 I0.0086 J0.0122
X-6.225 Y4.2179 I-0.0149 J0.0322
X-6.3319 Y4.2673 I-0.0964 J-0.0683
X-6.347 Y4.2649 I0.0106 J-0.1176 F50.
G2 X-6.3612 Y4.2694 I-0.0033 J0.0146
G1 X-6.3627 Y4.2711 F60.
X-6.377 Y4.2961
X-6.3834 Y4.3078
X-6.3856 Y4.3163
X-6.3871 Y4.3249
X-6.3881 Y4.3336
X-6.3885 Y4.3423
X-6.3882 Y4.351
X-6.3873 Y4.3597
X-6.3859 Y4.3683
X-6.3838 Y4.3768
X-6.3811 Y4.3851
X-6.3779 Y4.3932
X-6.3741 Y4.4011
X-6.3698 Y4.4087
X-6.3649 Y4.416
X-6.3596 Y4.4229
X-6.3538 Y4.4294
X-6.3475 Y4.4355
X-6.3408 Y4.4411
X-6.3338 Y4.4463
X-6.3264 Y4.4509
X-6.3187 Y4.4551
X-6.3107 Y4.4586
X-6.3025 Y4.4617
X-6.2941 Y4.4641
X-6.2856 Y4.4659
X-6.277 Y4.4672
X-6.2682 Y4.4678
X-6.2595
X-6.2508 Y4.4672
G3 X-6.1975 Y4.3651 I0.4293 J0.1593
G2 X-6.1974 Y4.3502 I-0.0129 J-0.0075
X-6.2413 Y4.3423 I-0.0253 J0.0144
X-6.2611 Y4.4378 I0.0506 J0.0603
X-6.253 Y4.4508 I0.0704 J-0.0352 F50.
G3 X-6.251 Y4.4656 I-0.0118 J0.0091
G1 X-6.2597 Y4.4849 F60.
G3 X-6.4465 Y4.4453 I-0.0809 J-0.0789
X-6.3834 Y4.3078 I2.2216 J0.9362
X-6.3704 Y4.3005 I0.0128 J0.0076
X-6.3285 Y4.3429 I-0.0005 J0.0424
X-6.3306 Y4.3563 I-0.0424 J0.
X-6.419 Y4.4348 I-0.1121 J-0.0372
X-6.4341 Y4.4369 I-0.0238 J-0.1157 F50.
G2 X-6.4464 Y4.4452 I0.0011 J0.0149
G1 X-6.4583 Y4.4722 F60.
X-6.4593 Y4.4807
X-6.4595 Y4.4893
X-6.4592 Y4.4979
X-6.4582 Y4.5065
X-6.4566 Y4.5149
X-6.4544 Y4.5233
X-6.4516 Y4.5314
X-6.4483 Y4.5393
X-6.4443 Y4.547
X-6.4398 Y4.5543
X-6.4348 Y4.5613
X-6.4293 Y4.5679
X-6.4233 Y4.5741
X-6.4169 Y4.5798
X-6.41 Y4.5851
X-6.4029 Y4.5898
X-6.3954 Y4.594
X-6.3876 Y4.5977
X-6.3795 Y4.6007
X-6.3713 Y4.6032
X-6.3629 Y4.6051
X-6.3544 Y4.6063
X-6.3458 Y4.607
X-6.3372
X-6.3286 Y4.6063
X-6.3201 Y4.6051
X-6.3117 Y4.6032
G3 X-6.2597 Y4.4849 I12.8343 J5.5697
G2 X-6.2617 Y4.4702 I-0.0138 J-0.0057
X-6.2789 Y4.4652 I-0.012 J0.0093
X-6.3222 Y4.5749 I0.0268 J0.074
X-6.314 Y4.5878 I0.0702 J-0.0357 F50.
G3 X-6.3118 Y4.6026 I-0.0118 J0.0092
G1 X-6.3208 Y4.623 F60.
X-6.3263 Y4.6292
X-6.3323 Y4.635
X-6.3386 Y4.6404
X-6.3454 Y4.6453
X-6.3524 Y4.6497
X-6.3598 Y4.6536
X-6.3674 Y4.6569
X-6.3752 Y4.6597
X-6.3833 Y4.6619
X-6.3914 Y4.6635
X-6.3997 Y4.6645
X-6.408 Y4.6649
X-6.4163 Y4.6647
X-6.4246 Y4.6639
X-6.4328 Y4.6625
X-6.4409 Y4.6605
X-6.4488 Y4.6579
X-6.4565 Y4.6548
X-6.4639 Y4.6511
X-6.4711 Y4.6469
X-6.4779 Y4.6421
X-6.4844 Y4.6369
X-6.4905 Y4.6313
X-6.4962 Y4.6252
X-6.5014 Y4.6187
X-6.5061 Y4.6118
X-6.5103 Y4.6046
X-6.514 Y4.5972
X-6.482 Y4.5258
X-6.4583 Y4.4722
G3 X-6.4384 Y4.4652 I0.0134 J0.0065
X-6.4261 Y4.4864 I-0.0095 J0.0196
X-6.4875 Y4.5817 I-0.1178 J-0.0085
X-6.5051 Y4.5894 I-0.0564 J-0.1038 F50.
G2 X-6.5136 Y4.597 I0.0049 J0.0141
G1 X-6.5245 Y4.6218 F60.
X-6.5252 Y4.6303
X-6.5253 Y4.6388
X-6.5248 Y4.6474
X-6.5236 Y4.6558
X-6.5218 Y4.6642
X-6.5194 Y4.6724
X-6.5165 Y4.6804
X-6.5129 Y4.6882
X-6.5088 Y4.6956
X-6.5041 Y4.7028
X-6.499 Y4.7096
X-6.4933 Y4.716
X-6.4872 Y4.722
X-6.4807 Y4.7275
X-6.4738 Y4.7326
X-6.4666 Y4.7371
X-6.459 Y4.741
X-6.4512 Y4.7444
X-6.4431 Y4.7473
X-6.4349 Y4.7495
X-6.4265 Y4.7511
X-6.418 Y4.7521
X-6.4095 Y4.7525
X-6.4009 Y4.7523
X-6.3925 Y4.7514
X-6.384 Y4.7499
X-6.3758 Y4.7478
X-6.3598 Y4.711
X-6.3208 Y4.623
G2 X-6.3292 Y4.6035 I-0.0139 J-0.0056
X-6.3535 Y4.609 I-0.0082 J0.0205
X-6.382 Y4.7178 I0.0862 J0.0808
X-6.376 Y4.736 I0.1147 J-0.0281 F50.
G3 X-6.3759 Y4.7474 I-0.0137 J0.0059
G1 X-6.3875 Y4.7736 F60.
X-6.3934 Y4.7796
X-6.3998 Y4.7852
X-6.4066 Y4.7902
X-6.4137 Y4.7948
X-6.4211 Y4.7989
X-6.4288 Y4.8024
X-6.4367 Y4.8053
X-6.4448 Y4.8077
X-6.4531 Y4.8095
X-6.4615 Y4.8106
X-6.4699 Y4.8112
X-6.4783
X-6.4868 Y4.8105
X-6.4951 Y4.8093
X-6.5034 Y4.8074
X-6.5115 Y4.805
X-6.5194 Y4.8019
X-6.527 Y4.7983
X-6.5344 Y4.7942
X-6.5415 Y4.7896
X-6.5482 Y4.7844
X-6.5545 Y4.7788
X-6.5604 Y4.7728
X-6.5658 Y4.7663
X-6.5708 Y4.7594
X-6.5753 Y4.7523
X-6.5792 Y4.7448
X-6.5245 Y4.6218
G3 X-6.5046 Y4.6148 I0.0135 J0.0065
X-6.4917 Y4.638 I-0.01 J0.0207
X-6.5526 Y4.7292 I-0.1174 J-0.0126
X-6.5702 Y4.7369 I-0.0565 J-0.1037 F50.
G2 X-6.5787 Y4.7445 I0.0049 J0.0141
G1 X-6.5892 Y4.7685 F60.
X-6.59 Y4.7771
X-6.5901 Y4.7856
X-6.5895 Y4.7942
X-6.5884 Y4.8027
X-6.5866 Y4.811
X-6.5842 Y4.8193
X-6.5812 Y4.8273
X-6.5777 Y4.8351
X-6.5736 Y4.8426
X-6.5689 Y4.8498
X-6.5637 Y4.8566
X-6.5581 Y4.8631
X-6.552 Y4.869
X-6.5454 Y4.8746
X-6.5385 Y4.8796
X-6.5312 Y4.8841
X-6.5236 Y4.8881
X-6.5158 Y4.8915
X-6.5077 Y4.8944
X-6.4994 Y4.8966
X-6.491 Y4.8982
X-6.4825 Y4.8992
X-6.474 Y4.8996
X-6.4654 Y4.8993
X-6.4569 Y4.8984
X-6.4485 Y4.8969
X-6.4402 Y4.8948
G3 X-6.3905 Y4.7805 I8.3356 J3.554
G2 X-6.3926 Y4.7657 I-0.0139 J-0.0055
X-6.4154 Y4.7606 I-0.0145 J0.0114
X-6.4505 Y4.8664 I0.0352 J0.0704
X-6.4424 Y4.8793 I0.0704 J-0.0353 F50.
G3 X-6.4404 Y4.8941 I-0.0118 J0.0092
G1 X-6.4517 Y4.9194 F60.
X-6.4576 Y4.9255
X-6.464 Y4.9312
X-6.4707 Y4.9364
X-6.4778 Y4.941
X-6.4852 Y4.9452
X-6.4929 Y4.9488
X-6.5008 Y4.9518
X-6.5089 Y4.9543
X-6.5172 Y4.9561
X-6.5256 Y4.9574
X-6.5341 Y4.958
X-6.5426
X-6.551 Y4.9574
X-6.5594 Y4.9562
X-6.5677 Y4.9544
X-6.5759 Y4.952
X-6.5838 Y4.949
X-6.5915 Y4.9454
X-6.5989 Y4.9413
X-6.606 Y4.9367
X-6.6128 Y4.9315
X-6.6192 Y4.9259
X-6.6251 Y4.9198
X-6.6306 Y4.9133
X-6.6356 Y4.9065
X-6.64 Y4.8993
X-6.644 Y4.8917
X-6.6083 Y4.812
X-6.5892 Y4.7685
G3 X-6.5693 Y4.7616 I0.0135 J0.0065
X-6.5563 Y4.7848 I-0.01 J0.0208
X-6.6175 Y4.8762 I-0.1175 J-0.0124
X-6.635 Y4.8839 I-0.0563 J-0.1038 F50.
G2 X-6.6436 Y4.8915 I0.0049 J0.0141
G1 X-6.6546 Y4.9166 F60.
X-6.6552 Y4.9251
Y4.9336
X-6.6546 Y4.9421
X-6.6533 Y4.9505
X-6.6515 Y4.9588
X-6.649 Y4.967
X-6.646 Y4.9749
X-6.6424 Y4.9826
X-6.6382 Y4.99
X-6.6335 Y4.9971
X-6.6283 Y5.0039
X-6.6226 Y5.0102
X-6.6165 Y5.0161
X-6.61 Y5.0216
X-6.6031 Y5.0265
X-6.5958 Y5.031
X-6.5882 Y5.0349
X-6.5804 Y5.0382
X-6.5723 Y5.041
X-6.5641 Y5.0431
X-6.5557 Y5.0447
X-6.5473 Y5.0457
X-6.5388 Y5.046
X-6.5303 Y5.0457
X-6.5218 Y5.0448
X-6.5134 Y5.0432
X-6.5052 Y5.0411
X-6.4927 Y5.0121
X-6.4721 Y4.9657
X-6.4517 Y4.9194
G2 X-6.4539 Y4.9047 I-0.0139 J-0.0055
X-6.4647 Y4.901 I-0.0083 J0.0065
G1 X-6.4678 Y4.9018
G2 X-6.5157 Y5.0131 I0.0223 J0.0755
X-6.5074 Y5.0259 I0.0702 J-0.0357 F50.
G3 X-6.5053 Y5.0407 I-0.0118 J0.0092
G1 X-6.5158 Y5.0644 F60.
X-6.5216 Y5.0707
X-6.5279 Y5.0765
X-6.5346 Y5.0818
X-6.5416 Y5.0867
X-6.549 Y5.091
X-6.5567 Y5.0948
X-6.5646 Y5.098
X-6.5728 Y5.1006
X-6.5811 Y5.1026
X-6.5895 Y5.1039
X-6.5981 Y5.1047
X-6.6066 Y5.1048
X-6.6152 Y5.1043
X-6.6236 Y5.1032
X-6.632 Y5.1015
X-6.6403 Y5.0991
X-6.6483 Y5.0962
X-6.6561 Y5.0927
X-6.6636 Y5.0886
X-6.6708 Y5.0839
X-6.6776 Y5.0788
X-6.6841 Y5.0732
X-6.6901 Y5.0671
X-6.6956 Y5.0606
X-6.7007 Y5.0537
X-6.7052 Y5.0464
X-6.7092 Y5.0388
X-6.6969 Y5.0121
X-6.6764 Y4.9657
X-6.6546 Y4.9166
G3 X-6.6346 Y4.9097 I0.0134 J0.0066
X-6.6217 Y4.9335 I-0.0102 J0.021
X-6.6825 Y5.0232 I-0.1173 J-0.0141
X-6.7 Y5.0309 I-0.0564 J-0.1038 F50.
G2 X-6.7086 Y5.0385 I0.0049 J0.0141
G1 X-6.719 Y5.0622 F60.
X-6.7197 Y5.0708
X-6.7198 Y5.0793
X-6.7193 Y5.0878
X-6.7181 Y5.0963
X-6.7164 Y5.1047
X-6.714 Y5.1129
X-6.711 Y5.1209
X-6.7074 Y5.1287
X-6.7033 Y5.1362
X-6.6987 Y5.1434
X-6.6935 Y5.1502
X-6.6878 Y5.1566
X-6.6817 Y5.1626
X-6.6752 Y5.1681
X-6.6683 Y5.1732
X-6.661 Y5.1777
X-6.6534 Y5.1816
X-6.6456 Y5.185
X-6.6375 Y5.1878
X-6.6292 Y5.19
X-6.6208 Y5.1916
X-6.6123 Y5.1926
X-6.6038 Y5.193
X-6.5952 Y5.1927
X-6.5867 Y5.1918
X-6.5783 Y5.1903
X-6.57 Y5.1881
X-6.5158 Y5.0644
G2 X-6.5355 Y5.0451 I-0.0139 J-0.0056
X-6.5638 Y5.07 I0.0236 J0.0552
X-6.5764 Y5.1578 I0.102 J0.0595
X-6.5703 Y5.176 I0.1147 J-0.0283 F50.
G3 X-6.5702 Y5.1874 I-0.0137 J0.0059
G1 X-6.5802 Y5.21 F60.
X-6.5857 Y5.2162
X-6.5917 Y5.222
X-6.598 Y5.2273
X-6.6048 Y5.2321
X-6.6118 Y5.2365
X-6.6191 Y5.2403
X-6.6267 Y5.2436
X-6.6346 Y5.2464
X-6.6425 Y5.2485
X-6.6507 Y5.2502
X-6.6589 Y5.2512
X-6.6672 Y5.2516
X-6.6754 Y5.2515
X-6.6837 Y5.2507
X-6.6919 Y5.2494
X-6.6999 Y5.2475
X-6.7078 Y5.245
X-6.7156 Y5.242
X-6.723 Y5.2384
X-6.7302 Y5.2343
X-6.7371 Y5.2297
X-6.7437 Y5.2246
X-6.7498 Y5.2191
X-6.7556 Y5.2131
X-6.7609 Y5.2068
X-6.7657 Y5.2001
X-6.7701 Y5.193
X-6.7739 Y5.1857
X-6.7582 Y5.151
X-6.738 Y5.1047
X-6.719 Y5.0622
G3 X-6.699 Y5.0554 I0.0134 J0.0066
X-6.6863 Y5.0784 I-0.0101 J0.0206
X-6.7473 Y5.17 I-0.1175 J-0.0121
X-6.7648 Y5.1778 I-0.0565 J-0.1037 F50.
G2 X-6.7733 Y5.1854 I0.0049 J0.0141
G1 X-6.7827 Y5.2066 F60.
X-6.7836 Y5.2149
X-6.784 Y5.2232
X-6.7838 Y5.2315
X-6.783 Y5.2398
X-6.7816 Y5.2481
X-6.7796 Y5.2561
X-6.777 Y5.2641
X-6.7738 Y5.2718
X-6.7701 Y5.2793
X-6.7659 Y5.2865
X-6.7611 Y5.2933
X-6.7559 Y5.2998
X-6.7502 Y5.3059
X-6.7441 Y5.3116
X-6.7376 Y5.3168
X-6.7308 Y5.3216
X-6.7236 Y5.3258
X-6.7161 Y5.3295
X-6.7084 Y5.3327
X-6.7005 Y5.3352
X-6.6924 Y5.3373
X-6.6842 Y5.3387
X-6.6759 Y5.3395
X-6.6675 Y5.3397
X-6.6592 Y5.3393
X-6.6509 Y5.3384
X-6.6427 Y5.3368
X-6.6347 Y5.3346
X-6.5802 Y5.21
G2 X-6.5885 Y5.1906 I-0.0139 J-0.0055
X-6.6122 Y5.1959 I-0.008 J0.02
X-6.6409 Y5.3045 I0.0861 J0.0809
X-6.6349 Y5.3227 I0.1148 J-0.0277 F50.
G3 Y5.3341 I-0.0138 J0.0058
G1 X-6.6358 Y5.3362 F60.
X-6.6452 Y5.3589
G3 X-6.8424 Y5.3261 I-0.0882 J-0.0788
G2 X-6.7827 Y5.2066 I-0.8393 J-0.4946
G3 X-6.7703 Y5.1982 I0.0135 J0.0065
X-6.7445 Y5.215 I0.0019 J0.0253
X-6.8123 Y5.3199 I-0.0742 J0.0264
X-6.8276 Y5.3196 I-0.0064 J-0.0785 F50.
G2 X-6.8413 Y5.3256 I-0.0017 J0.0148
G1 X-6.8486 Y5.3362 F60.
X-6.8519 Y5.3409
G2 X-6.7181 Y5.4822 I0.108 J0.0318
X-6.6452 Y5.3589 I-0.6295 J-0.4551
X-6.654 Y5.3396 I-0.014 J-0.0052
X-6.6863 Y5.346 I-0.011 J0.0293
X-6.7222 Y5.4523 I0.0806 J0.0864
X-6.7174 Y5.4709 I0.1164 J-0.0199 F50.
G3 X-6.7181 Y5.4823 I-0.0141 J0.0049
G1 X-6.7288 Y5.5024 F60.
X-6.7347 Y5.5082
X-6.7411 Y5.5136
X-6.7478 Y5.5185
X-6.7548 Y5.5229
X-6.7622 Y5.5268
X-6.7698 Y5.5301
X-6.7777 Y5.5329
X-6.7857 Y5.5351
X-6.7939 Y5.5368
X-6.8021 Y5.5378
X-6.8104 Y5.5382
X-6.8187 Y5.538
X-6.827 Y5.5373
X-6.8352 Y5.5359
X-6.8433 Y5.5339
X-6.8512 Y5.5314
X-6.859 Y5.5283
X-6.8664 Y5.5246
X-6.8736 Y5.5204
X-6.8805 Y5.5157
X-6.887 Y5.5105
X-6.8931 Y5.5049
X-6.8988 Y5.4988
X-6.904 Y5.4923
X-6.9088 Y5.4855
X-6.913 Y5.4784
X-6.9167 Y5.4709
X-6.9199 Y5.4632
G3 X-6.8519 Y5.3409 I0.6 J0.2536
X-6.8381 Y5.3351 I0.0119 J0.009
X-6.8071 Y5.4011 I-0.0053 J0.0428
X-6.8913 Y5.4546 I-0.0995 J-0.0636
X-6.9065 Y5.4556 I-0.0154 J-0.1171 F50.
G2 X-6.9195 Y5.4631 I0. J0.0149
G1 X-6.9259 Y5.4752 F60.
X-6.9323 Y5.4877
X-6.9335 Y5.4962
X-6.9341 Y5.5047
Y5.5132
X-6.9334 Y5.5217
X-6.9322 Y5.5302
X-6.9303 Y5.5385
X-6.9278 Y5.5467
X-6.9248 Y5.5547
X-6.9211 Y5.5624
X-6.9169 Y5.5698
X-6.9122 Y5.577
X-6.907 Y5.5837
X-6.9013 Y5.5901
X-6.8951 Y5.596
X-6.8886 Y5.6014
X-6.8816 Y5.6064
X-6.8743 Y5.6109
X-6.8667 Y5.6148
X-6.8589 Y5.6181
X-6.8508 Y5.6208
X-6.8425 Y5.623
X-6.8341 Y5.6245
X-6.8256 Y5.6255
X-6.8171 Y5.6258
X-6.8086 Y5.6255
X-6.8001 Y5.6245
X-6.7917 Y5.623
G3 X-6.7288 Y5.5024 I6.6174 J3.3735
G2 X-6.7471 Y5.4817 I-0.0134 J-0.0065
X-6.7733 Y5.5006 I0.0182 J0.053
X-6.7959 Y5.5926 I0.0938 J0.0717
X-6.7911 Y5.6112 I0.1164 J-0.0202 F50.
G3 X-6.7918 Y5.6226 I-0.0141 J0.0049
G1 X-6.8025 Y5.6431 F60.
X-6.8084 Y5.649
X-6.8146 Y5.6545
X-6.8213 Y5.6595
X-6.8283 Y5.664
X-6.8356 Y5.668
X-6.8432 Y5.6715
X-6.851 Y5.6744
X-6.859 Y5.6767
X-6.8671 Y5.6784
X-6.8754 Y5.6796
X-6.8837 Y5.6802
X-6.892 Y5.6801
X-6.9003 Y5.6795
X-6.9086 Y5.6782
X-6.9167 Y5.6764
X-6.9247 Y5.674
X-6.9325 Y5.671
X-6.94 Y5.6675
X-6.9473 Y5.6634
X-6.9542 Y5.6588
X-6.9608 Y5.6538
X-6.967 Y5.6482
X-6.9729 Y5.6422
X-6.9782 Y5.6359
X-6.9831 Y5.6291
X-6.9875 Y5.622
X-6.9914 Y5.6147
X-6.9947 Y5.607
X-6.9323 Y5.4877
G3 X-6.9119 Y5.4819 I0.013 J0.0073
X-6.9007 Y5.5053 I-0.011 J0.0197
X-6.9672 Y5.5931 I-0.1165 J-0.0192
X-6.9852 Y5.5998 I-0.05 J-0.107 F50.
G2 X-6.9942 Y5.6068 I0.0041 J0.0144
G1 X-6.9979 Y5.6141 F60.
X-7.0061 Y5.6296
X-7.0073 Y5.6377
X-7.008 Y5.6459
X-7.0081 Y5.6542
X-7.0076 Y5.6625
X-7.0066 Y5.6706
X-7.0049 Y5.6787
X-7.0027 Y5.6867
X-6.9999 Y5.6945
X-6.9966 Y5.702
X-6.9928 Y5.7094
X-6.9884 Y5.7164
X-6.9836 Y5.7231
X-6.9783 Y5.7294
X-6.9725 Y5.7353
X-6.9664 Y5.7409
X-6.9599 Y5.7459
X-6.953 Y5.7505
X-6.9458 Y5.7546
X-6.9384 Y5.7582
X-6.9307 Y5.7612
X-6.9228 Y5.7637
X-6.9148 Y5.7657
X-6.9067 Y5.767
X-6.8984 Y5.7678
X-6.8902 Y5.768
X-6.8819 Y5.7676
X-6.8737 Y5.7666
X-6.8656 Y5.7651
G3 X-6.8025 Y5.6431 I11.9882 J6.1277
G2 X-6.8209 Y5.6225 I-0.0135 J-0.0065
X-6.8487 Y5.643 I0.0196 J0.0557
X-6.8701 Y5.7344 I0.0948 J0.0704
X-6.8652 Y5.7529 I0.1162 J-0.021 F50.
G3 X-6.8658 Y5.7644 I-0.0141 J0.005
G1 X-6.8779 Y5.7877 F60.
X-6.8842 Y5.7935
X-6.8908 Y5.7989
X-6.8979 Y5.8038
X-6.9052 Y5.8081
X-6.9129 Y5.8119
X-6.9208 Y5.8151
X-6.9289 Y5.8178
X-6.9372 Y5.8198
X-6.9457 Y5.8212
X-6.9542 Y5.822
X-6.9627 Y5.8222
X-6.9712 Y5.8218
X-6.9797 Y5.8207
X-6.9881 Y5.819
X-6.9963 Y5.8167
X-7.0044 Y5.8138
X-7.0122 Y5.8104
X-7.0197 Y5.8063
