%
(971-23-P-0087_LATERAL UPRIGHT_1511)
(T1  D=0.1511 CR=0. - ZMIN=-0.28 - FLAT END MILL)
G90 G94 G17 G91.1
G64 P0.001 Q0.001
G20
G53 G0 Z0.
(.3 CIRCLUAR THROUGH HOLE 2)
M9
T1 M6
S22000 M3
G4 P10.
G54
M7
G0 X-11.1875 Y3.8648
G43 Z0.6 H1
G0 Z0.13
G1 Z0.0651 F40.
G19 G3 Y3.8799 Z0.05 J0.0151 K0.
G1 Y3.8875
G17 G3 X-11.2 Y3.9 I-0.0125 J0.
Y3.8501 Z0.0323 I0. J-0.0249
Y3.8999 Z0.0146 I0. J0.0249
Y3.8501 Z-0.0032 I0. J-0.0249
Y3.8999 Z-0.0209 I0. J0.0249
Y3.8501 Z-0.0386 I0. J-0.0249
Y3.8999 Z-0.0563 I0. J0.0249
Y3.8501 Z-0.074 I0. J-0.0249
Y3.8999 Z-0.0918 I0. J0.0249
Y3.8501 Z-0.1095 I0. J-0.0249
Y3.8999 Z-0.1272 I0. J0.0249
Y3.8501 Z-0.1449 I0. J-0.0249
Y3.8999 Z-0.1627 I0. J0.0249
Y3.8501 Z-0.1804 I0. J-0.0249
Y3.8999 Z-0.1981 I0. J0.0249
Y3.8501 Z-0.2158 I0. J-0.0249
Y3.8999 Z-0.2335 I0. J0.0249
Y3.8501 Z-0.2513 I0. J-0.0249
Y3.8999 Z-0.269 I0. J0.0249
X-11.2231 Y3.8657 Z-0.28 I0. J-0.0249
X-11.1769 Y3.8843 I0.0231 J0.0093
X-11.2231 Y3.8657 I-0.0231 J-0.0093
X-11.2069 Y3.8588 I0.0116 J0.0047
G1 X-11.1999 Y3.8616
X-11.1972 Y3.8627 Z-0.2797
X-11.1945 Y3.8638 Z-0.2788
X-11.1921 Y3.8647 Z-0.2775
X-11.19 Y3.8656 Z-0.2756
X-11.1882 Y3.8663 Z-0.2733
X-11.1869 Y3.8668 Z-0.2707
X-11.1862 Y3.8671 Z-0.2678
X-11.1859 Y3.8672 Z-0.2649
G0 Z0.4
X-10.1875 Y3.8648
Z0.13
G1 Z0.0651 F40.
G19 G3 Y3.8799 Z0.05 J0.0151 K0.
G1 Y3.8875
G17 G3 X-10.2 Y3.9 I-0.0125 J0.
Y3.8501 Z0.0323 I0. J-0.0249
Y3.9 Z0.0146 I0. J0.0249
Y3.8501 Z-0.0032 I0. J-0.0249
Y3.9 Z-0.0209 I0. J0.025
Y3.8501 Z-0.0386 I0. J-0.025
Y3.9 Z-0.0563 I0. J0.025
Y3.85 Z-0.074 I0. J-0.025
Y3.9 Z-0.0918 I0. J0.025
Y3.85 Z-0.1095 I0. J-0.025
Y3.9 Z-0.1272 I0. J0.025
Y3.85 Z-0.1449 I0. J-0.025
Y3.9 Z-0.1627 I0. J0.025
Y3.85 Z-0.1804 I0. J-0.025
Y3.9 Z-0.1981 I0. J0.025
Y3.85 Z-0.2158 I0. J-0.025
Y3.9 Z-0.2335 I0. J0.025
Y3.85 Z-0.2513 I0. J-0.025
Y3.9 Z-0.269 I0. J0.025
X-10.2231 Y3.8657 Z-0.28 I0. J-0.025
X-10.1769 Y3.8843 I0.0231 J0.0093
X-10.2231 Y3.8657 I-0.0231 J-0.0093
X-10.2069 Y3.8588 I0.0116 J0.0047
G1 X-10.1999 Y3.8616
X-10.1972 Y3.8627 Z-0.2797
X-10.1945 Y3.8638 Z-0.2788
X-10.1921 Y3.8647 Z-0.2775
X-10.19 Y3.8656 Z-0.2756
X-10.1882 Y3.8663 Z-0.2733
X-10.1869 Y3.8668 Z-0.2707
X-10.1862 Y3.8671 Z-0.2678
X-10.1859 Y3.8672 Z-0.2649
G0 Z0.4
X-9.1875 Y3.8648
Z0.13
G1 Z0.0651 F40.
G19 G3 Y3.8799 Z0.05 J0.0151 K0.
G1 Y3.8875
G17 G3 X-9.2 Y3.9 I-0.0125 J0.
Y3.8501 Z0.0323 I0. J-0.0249
Y3.9 Z0.0146 I0. J0.0249
Y3.8501 Z-0.0032 I0. J-0.0249
Y3.9 Z-0.0209 I0. J0.0249
Y3.8501 Z-0.0386 I0. J-0.0249
Y3.9 Z-0.0563 I0. J0.0249
Y3.8501 Z-0.074 I0. J-0.0249
Y3.9 Z-0.0918 I0. J0.0249
Y3.8501 Z-0.1095 I0. J-0.0249
Y3.9 Z-0.1272 I0. J0.025
Y3.8501 Z-0.1449 I0. J-0.025
Y3.9 Z-0.1627 I0. J0.025
Y3.8501 Z-0.1804 I0. J-0.025
Y3.9 Z-0.1981 I0. J0.025
Y3.8501 Z-0.2158 I0. J-0.025
Y3.9 Z-0.2335 I0. J0.025
Y3.8501 Z-0.2513 I0. J-0.025
Y3.9 Z-0.269 I0. J0.025
X-9.2231 Y3.8657 Z-0.28 I0. J-0.025
X-9.1769 Y3.8843 I0.0231 J0.0093
X-9.2231 Y3.8657 I-0.0231 J-0.0093
X-9.2069 Y3.8588 I0.0116 J0.0047
G1 X-9.1999 Y3.8616
X-9.1972 Y3.8627 Z-0.2797
X-9.1945 Y3.8638 Z-0.2788
X-9.1921 Y3.8647 Z-0.2775
X-9.19 Y3.8656 Z-0.2756
X-9.1882 Y3.8663 Z-0.2733
X-9.1869 Y3.8668 Z-0.2707
X-9.1862 Y3.8671 Z-0.2678
X-9.1859 Y3.8672 Z-0.2649
G0 Z0.4
X-8.5648 Y4.4876
Z0.13
G1 Z0.0651 F40.
G19 G3 Y4.5027 Z0.05 J0.0151 K0.
G1 Y4.5102
G17 G3 X-8.575 Y4.5204 I-0.0102 J0.
Y4.4796 Z0.0331 I0. J-0.0204
Y4.5204 Z0.0161 I0. J0.0204
Y4.4796 Z-0.0008 I0. J-0.0204
Y4.5204 Z-0.0177 I0. J0.0204
Y4.4796 Z-0.0346 I0. J-0.0204
Y4.5204 Z-0.0516 I0. J0.0204
Y4.4796 Z-0.0685 I0. J-0.0204
Y4.5204 Z-0.0854 I0. J0.0204
Y4.4796 Z-0.1023 I0. J-0.0204
Y4.5204 Z-0.1193 I0. J0.0204
Y4.4796 Z-0.1362 I0. J-0.0204
Y4.5204 Z-0.1531 I0. J0.0204
Y4.4796 Z-0.1701 I0. J-0.0204
Y4.5204 Z-0.187 I0. J0.0204
Y4.4796 Z-0.2039 I0. J-0.0204
Y4.5204 Z-0.2208 I0. J0.0204
Y4.4796 Z-0.2378 I0. J-0.0204
Y4.5204 Z-0.2547 I0. J0.0204
Y4.4796 Z-0.2716 I0. J-0.0204
X-8.5546 Y4.4997 Z-0.28 I0. J0.0204
X-8.5954 Y4.5003 I-0.0204 J0.0003
X-8.5546 Y4.4997 I0.0204 J-0.0003
X-8.5646 Y4.5101 I-0.0102 J0.0002
G1 X-8.5722 Y4.5102
X-8.5751 Z-0.2797
X-8.578 Y4.5103 Z-0.2788
X-8.5806 Z-0.2775
X-8.5829 Z-0.2756
X-8.5847 Y4.5104 Z-0.2733
X-8.5861 Z-0.2707
X-8.587 Z-0.2678
X-8.5873 Z-0.2649
G0 Z0.4
X-8.0648 Y4.4876
Z0.13
G1 Z0.0651 F40.
G19 G3 Y4.5027 Z0.05 J0.0151 K0.
G1 Y4.5102
G17 G3 X-8.075 Y4.5204 I-0.0102 J0.
Y4.4796 Z0.0331 I0. J-0.0204
Y4.5204 Z0.0161 I0. J0.0204
Y4.4796 Z-0.0008 I0. J-0.0204
Y4.5204 Z-0.0177 I0. J0.0204
Y4.4796 Z-0.0346 I0. J-0.0204
Y4.5204 Z-0.0516 I0. J0.0204
Y4.4796 Z-0.0685 I0. J-0.0204
Y4.5204 Z-0.0854 I0. J0.0204
Y4.4796 Z-0.1023 I0. J-0.0204
Y4.5204 Z-0.1193 I0. J0.0204
Y4.4796 Z-0.1362 I0. J-0.0204
Y4.5204 Z-0.1531 I0. J0.0204
Y4.4796 Z-0.1701 I0. J-0.0204
Y4.5204 Z-0.187 I0. J0.0204
Y4.4796 Z-0.2039 I0. J-0.0204
Y4.5204 Z-0.2208 I0. J0.0204
Y4.4796 Z-0.2378 I0. J-0.0204
Y4.5204 Z-0.2547 I0. J0.0204
Y4.4796 Z-0.2716 I0. J-0.0204
X-8.0546 Y4.4997 Z-0.28 I0. J0.0204
X-8.0954 Y4.5003 I-0.0204 J0.0003
X-8.0546 Y4.4997 I0.0204 J-0.0003
X-8.0646 Y4.5101 I-0.0102 J0.0002
G1 X-8.0722 Y4.5102
X-8.0751 Z-0.2797
X-8.078 Y4.5103 Z-0.2788
X-8.0806 Z-0.2775
X-8.0829 Z-0.2756
X-8.0847 Y4.5104 Z-0.2733
X-8.0861 Z-0.2707
X-8.087 Z-0.2678
X-8.0873 Z-0.2649
G0 Z0.4
X-8.1875 Y3.8648
Z0.13
G1 Z0.0651 F40.
G19 G3 Y3.8799 Z0.05 J0.0151 K0.
G1 Y3.8875
G17 G3 X-8.2 Y3.9 I-0.0125 J0.
Y3.8501 Z0.0323 I0. J-0.0249
Y3.9 Z0.0146 I0. J0.0249
Y3.8501 Z-0.0032 I0. J-0.0249
Y3.9 Z-0.0209 I0. J0.0249
Y3.8501 Z-0.0386 I0. J-0.0249
Y3.9 Z-0.0563 I0. J0.0249
Y3.8501 Z-0.074 I0. J-0.0249
Y3.9 Z-0.0918 I0. J0.0249
Y3.8501 Z-0.1095 I0. J-0.0249
Y3.9 Z-0.1272 I0. J0.025
Y3.8501 Z-0.1449 I0. J-0.025
Y3.9 Z-0.1627 I0. J0.025
Y3.8501 Z-0.1804 I0. J-0.025
Y3.9 Z-0.1981 I0. J0.025
Y3.8501 Z-0.2158 I0. J-0.025
Y3.9 Z-0.2335 I0. J0.025
Y3.8501 Z-0.2513 I0. J-0.025
Y3.9 Z-0.269 I0. J0.025
X-8.2231 Y3.8657 Z-0.28 I0. J-0.025
X-8.1769 Y3.8843 I0.0231 J0.0093
X-8.2231 Y3.8657 I-0.0231 J-0.0093
X-8.2069 Y3.8588 I0.0116 J0.0047
G1 X-8.1999 Y3.8616
X-8.1972 Y3.8627 Z-0.2797
X-8.1945 Y3.8638 Z-0.2788
X-8.1921 Y3.8647 Z-0.2775
X-8.19 Y3.8656 Z-0.2756
X-8.1882 Y3.8663 Z-0.2733
X-8.1869 Y3.8668 Z-0.2707
X-8.1862 Y3.8671 Z-0.2678
X-8.1859 Y3.8672 Z-0.2649
G0 Z0.4
X-8.5852 Y5.5124
Z0.13
G1 Z0.0651 F40.
G19 G2 Y5.4973 Z0.05 J-0.0151 K0.
G1 Y5.4898
G17 G3 X-8.575 Y5.4796 I0.0102 J0.
Y5.5204 Z0.0331 I0. J0.0204
Y5.4796 Z0.0161 I0. J-0.0204
Y5.5204 Z-0.0008 I0. J0.0204
Y5.4795 Z-0.0177 I0. J-0.0204
Y5.5204 Z-0.0346 I0. J0.0204
Y5.4795 Z-0.0516 I0. J-0.0204
Y5.5204 Z-0.0685 I0. J0.0204
Y5.4795 Z-0.0854 I0. J-0.0205
Y5.5204 Z-0.1023 I0. J0.0205
Y5.4795 Z-0.1193 I0. J-0.0205
Y5.5205 Z-0.1362 I0. J0.0205
Y5.4795 Z-0.1531 I0. J-0.0205
Y5.5205 Z-0.1701 I0. J0.0205
Y5.4795 Z-0.187 I0. J-0.0205
Y5.5205 Z-0.2039 I0. J0.0205
Y5.4795 Z-0.2208 I0. J-0.0205
Y5.5205 Z-0.2378 I0. J0.0205
Y5.4795 Z-0.2547 I0. J-0.0205
Y5.5205 Z-0.2716 I0. J0.0205
X-8.5954 Y5.5003 Z-0.28 I0. J-0.0205
X-8.5546 Y5.4997 I0.0204 J-0.0003
X-8.5954 Y5.5003 I-0.0204 J0.0003
X-8.5854 Y5.4899 I0.0102 J-0.0002
G1 X-8.5778 Y5.4898
X-8.5749 Z-0.2797
X-8.572 Y5.4897 Z-0.2788
X-8.5694 Z-0.2775
X-8.5671 Z-0.2756
X-8.5653 Y5.4896 Z-0.2733
X-8.5639 Z-0.2707
X-8.563 Z-0.2678
X-8.5627 Z-0.2649
G0 Z0.4
X-8.0852 Y5.5124
Z0.13
G1 Z0.0651 F40.
G19 G2 Y5.4973 Z0.05 J-0.0151 K0.
G1 Y5.4898
G17 G3 X-8.075 Y5.4796 I0.0102 J0.
Y5.5204 Z0.0331 I0. J0.0204
Y5.4796 Z0.0161 I0. J-0.0204
Y5.5204 Z-0.0008 I0. J0.0204
Y5.4796 Z-0.0177 I0. J-0.0204
Y5.5204 Z-0.0346 I0. J0.0204
Y5.4796 Z-0.0516 I0. J-0.0204
Y5.5204 Z-0.0685 I0. J0.0204
Y5.4796 Z-0.0854 I0. J-0.0204
Y5.5204 Z-0.1023 I0. J0.0204
Y5.4796 Z-0.1193 I0. J-0.0204
Y5.5204 Z-0.1362 I0. J0.0204
Y5.4796 Z-0.1531 I0. J-0.0204
Y5.5204 Z-0.1701 I0. J0.0204
Y5.4796 Z-0.187 I0. J-0.0204
Y5.5204 Z-0.2039 I0. J0.0204
Y5.4796 Z-0.2208 I0. J-0.0204
Y5.5204 Z-0.2378 I0. J0.0204
Y5.4796 Z-0.2547 I0. J-0.0204
Y5.5204 Z-0.2716 I0. J0.0204
X-8.0954 Y5.5003 Z-0.28 I0. J-0.0204
X-8.0546 Y5.4997 I0.0204 J-0.0003
X-8.0954 Y5.5003 I-0.0204 J0.0003
X-8.0854 Y5.4899 I0.0102 J-0.0002
G1 X-8.0778 Y5.4898
X-8.0749 Z-0.2797
X-8.072 Y5.4897 Z-0.2788
X-8.0694 Z-0.2775
X-8.0671 Z-0.2756
X-8.0653 Y5.4896 Z-0.2733
X-8.0639 Z-0.2707
X-8.063 Z-0.2678
X-8.0627 Z-0.2649
G0 Z0.4
X-8.0852 Y6.5124
Z0.13
G1 Z0.0651 F40.
G19 G2 Y6.4973 Z0.05 J-0.0151 K0.
G1 Y6.4898
G17 G3 X-8.075 Y6.4795 I0.0102 J0.
Y6.5205 Z0.0331 I0. J0.0205
Y6.4795 Z0.0161 I0. J-0.0205
Y6.5205 Z-0.0008 I0. J0.0205
Y6.4795 Z-0.0177 I0. J-0.0205
Y6.5205 Z-0.0346 I0. J0.0205
Y6.4796 Z-0.0516 I0. J-0.0205
Y6.5205 Z-0.0685 I0. J0.0205
Y6.4796 Z-0.0854 I0. J-0.0205
Y6.5205 Z-0.1023 I0. J0.0205
Y6.4796 Z-0.1193 I0. J-0.0205
Y6.5205 Z-0.1362 I0. J0.0205
Y6.4796 Z-0.1531 I0. J-0.0205
Y6.5205 Z-0.1701 I0. J0.0205
Y6.4796 Z-0.187 I0. J-0.0205
Y6.5205 Z-0.2039 I0. J0.0205
Y6.4796 Z-0.2208 I0. J-0.0204
Y6.5205 Z-0.2378 I0. J0.0204
Y6.4796 Z-0.2547 I0. J-0.0204
Y6.5205 Z-0.2716 I0. J0.0204
X-8.0954 Y6.5003 Z-0.28 I0. J-0.0204
X-8.0546 Y6.4997 I0.0204 J-0.0003
X-8.0954 Y6.5003 I-0.0204 J0.0003
X-8.0854 Y6.4899 I0.0102 J-0.0002
G1 X-8.0778 Y6.4898
X-8.0749 Z-0.2797
X-8.072 Y6.4897 Z-0.2788
X-8.0694 Z-0.2775
X-8.0671 Z-0.2756
X-8.0653 Y6.4896 Z-0.2733
X-8.0639 Z-0.2707
X-8.063 Z-0.2678
X-8.0627 Z-0.2649
G0 Z0.4
X-8.5852 Y6.5124
Z0.13
G1 Z0.0651 F40.
G19 G2 Y6.4973 Z0.05 J-0.0151 K0.
G1 Y6.4898
G17 G3 X-8.575 Y6.4795 I0.0102 J0.
Y6.5205 Z0.0331 I0. J0.0205
Y6.4795 Z0.0161 I0. J-0.0205
Y6.5205 Z-0.0008 I0. J0.0205
Y6.4795 Z-0.0177 I0. J-0.0205
Y6.5205 Z-0.0346 I0. J0.0205
Y6.4795 Z-0.0516 I0. J-0.0205
Y6.5205 Z-0.0685 I0. J0.0205
Y6.4795 Z-0.0854 I0. J-0.0205
Y6.5205 Z-0.1023 I0. J0.0205
Y6.4795 Z-0.1193 I0. J-0.0205
Y6.5205 Z-0.1362 I0. J0.0205
Y6.4795 Z-0.1531 I0. J-0.0205
Y6.5205 Z-0.1701 I0. J0.0205
Y6.4795 Z-0.187 I0. J-0.0205
Y6.5205 Z-0.2039 I0. J0.0205
Y6.4795 Z-0.2208 I0. J-0.0205
Y6.5205 Z-0.2378 I0. J0.0205
Y6.4795 Z-0.2547 I0. J-0.0205
Y6.5205 Z-0.2716 I0. J0.0205
X-8.5954 Y6.5003 Z-0.28 I0. J-0.0205
X-8.5546 Y6.4997 I0.0204 J-0.0003
X-8.5954 Y6.5003 I-0.0204 J0.0003
X-8.5854 Y6.4899 I0.0102 J-0.0002
G1 X-8.5778 Y6.4898
X-8.5749 Z-0.2797
X-8.572 Y6.4897 Z-0.2788
X-8.5694 Z-0.2775
X-8.5671 Z-0.2756
X-8.5653 Y6.4896 Z-0.2733
X-8.5639 Z-0.2707
X-8.563 Z-0.2678
X-8.5627 Z-0.2649
G0 Z0.4
X-8.0852 Y13.5124
Z0.13
G1 Z0.0651 F40.
G19 G2 Y13.4973 Z0.05 J-0.0151 K0.
G1 Y13.4898
G17 G3 X-8.075 Y13.4796 I0.0102 J0.
Y13.5204 Z0.0331 I0. J0.0204
X-8.0955 Y13.5 Z0.0246 I0. J-0.0204
X-8.0545 Z0.0077 I0.0205 J0.
X-8.0955 Z-0.0092 I-0.0205 J0.
X-8.0545 Z-0.0262 I0.0205 J0.
X-8.0955 Z-0.0431 I-0.0205 J0.
X-8.0545 Z-0.06 I0.0205 J0.
X-8.0955 Z-0.0769 I-0.0205 J0.
X-8.0545 Z-0.0939 I0.0205 J0.
X-8.0954 Z-0.1108 I-0.0205 J0.
X-8.0545 Z-0.1277 I0.0205 J0.
X-8.0954 Z-0.1447 I-0.0205 J0.
X-8.0545 Z-0.1616 I0.0205 J0.
X-8.0954 Z-0.1785 I-0.0205 J0.
X-8.0545 Z-0.1954 I0.0205 J0.
X-8.0954 Z-0.2124 I-0.0205 J0.
X-8.0545 Z-0.2293 I0.0204 J0.
X-8.0954 Z-0.2462 I-0.0204 J0.
X-8.0545 Z-0.2632 I0.0204 J0.
X-8.0954 Y13.5003 Z-0.28 I-0.0204 J0.
X-8.0546 Y13.4997 I0.0204 J-0.0003
X-8.0954 Y13.5003 I-0.0204 J0.0003
X-8.0854 Y13.4899 I0.0102 J-0.0002
G1 X-8.0778 Y13.4898
X-8.0749 Z-0.2797
X-8.072 Y13.4897 Z-0.2788
X-8.0694 Z-0.2775
X-8.0671 Z-0.2756
X-8.0653 Y13.4896 Z-0.2733
X-8.0639 Z-0.2707
X-8.063 Z-0.2678
X-8.0627 Z-0.2649
G0 Z0.4
X-8.5852 Y13.5124
Z0.13
G1 Z0.0651 F40.
G19 G2 Y13.4973 Z0.05 J-0.0151 K0.
G1 Y13.4898
G17 G3 X-8.575 Y13.4796 I0.0102 J0.
Y13.5204 Z0.0331 I0. J0.0204
X-8.5955 Y13.5 Z0.0246 I0. J-0.0204
X-8.5545 Z0.0077 I0.0205 J0.
X-8.5955 Z-0.0092 I-0.0205 J0.
X-8.5545 Z-0.0262 I0.0205 J0.
X-8.5955 Z-0.0431 I-0.0205 J0.
X-8.5545 Z-0.06 I0.0205 J0.
X-8.5955 Z-0.0769 I-0.0205 J0.
X-8.5545 Z-0.0939 I0.0205 J0.
X-8.5955 Z-0.1108 I-0.0205 J0.
X-8.5545 Z-0.1277 I0.0205 J0.
X-8.5955 Z-0.1447 I-0.0205 J0.
X-8.5545 Z-0.1616 I0.0205 J0.
X-8.5955 Z-0.1785 I-0.0205 J0.
X-8.5545 Z-0.1954 I0.0205 J0.
X-8.5955 Z-0.2124 I-0.0205 J0.
X-8.5545 Z-0.2293 I0.0205 J0.
X-8.5955 Z-0.2462 I-0.0205 J0.
X-8.5545 Z-0.2632 I0.0205 J0.
X-8.5954 Y13.5003 Z-0.28 I-0.0205 J0.
X-8.5546 Y13.4997 I0.0204 J-0.0003
X-8.5954 Y13.5003 I-0.0204 J0.0003
X-8.5854 Y13.4899 I0.0102 J-0.0002
G1 X-8.5778 Y13.4898
X-8.5749 Z-0.2797
X-8.572 Y13.4897 Z-0.2788
X-8.5694 Z-0.2775
X-8.5671 Z-0.2756
X-8.5653 Y13.4896 Z-0.2733
X-8.5639 Z-0.2707
X-8.563 Z-0.2678
X-8.5627 Z-0.2649
G0 Z0.4
X-8.5852 Y12.5124
Z0.13
G1 Z0.0651 F40.
G19 G2 Y12.4973 Z0.05 J-0.0151 K0.
G1 Y12.4898
G17 G3 X-8.575 Y12.4795 I0.0102 J0.
Y12.5205 Z0.0331 I0. J0.0205
Y12.4795 Z0.0161 I0. J-0.0205
Y12.5205 Z-0.0008 I0. J0.0205
Y12.4795 Z-0.0177 I0. J-0.0205
Y12.5205 Z-0.0346 I0. J0.0205
Y12.4795 Z-0.0516 I0. J-0.0205
Y12.5205 Z-0.0685 I0. J0.0205
Y12.4795 Z-0.0854 I0. J-0.0205
Y12.5205 Z-0.1023 I0. J0.0205
Y12.4795 Z-0.1193 I0. J-0.0205
Y12.5205 Z-0.1362 I0. J0.0205
Y12.4795 Z-0.1531 I0. J-0.0205
Y12.5205 Z-0.1701 I0. J0.0205
Y12.4795 Z-0.187 I0. J-0.0205
Y12.5205 Z-0.2039 I0. J0.0205
Y12.4795 Z-0.2208 I0. J-0.0205
Y12.5205 Z-0.2378 I0. J0.0205
Y12.4795 Z-0.2547 I0. J-0.0205
Y12.5205 Z-0.2716 I0. J0.0205
X-8.5954 Y12.5003 Z-0.28 I0. J-0.0205
X-8.5546 Y12.4997 I0.0204 J-0.0003
X-8.5954 Y12.5003 I-0.0204 J0.0003
X-8.5854 Y12.4899 I0.0102 J-0.0002
G1 X-8.5778 Y12.4898
X-8.5749 Z-0.2797
X-8.572 Y12.4897 Z-0.2788
X-8.5694 Z-0.2775
X-8.5671 Z-0.2756
X-8.5653 Y12.4896 Z-0.2733
X-8.5639 Z-0.2707
X-8.563 Z-0.2678
X-8.5627 Z-0.2649
G0 Z0.4
X-8.0852 Y12.5124
Z0.13
G1 Z0.0651 F40.
G19 G2 Y12.4973 Z0.05 J-0.0151 K0.
G1 Y12.4898
G17 G3 X-8.075 Y12.4795 I0.0102 J0.
Y12.5205 Z0.0331 I0. J0.0205
Y12.4795 Z0.0161 I0. J-0.0205
Y12.5205 Z-0.0008 I0. J0.0205
Y12.4795 Z-0.0177 I0. J-0.0205
Y12.5205 Z-0.0346 I0. J0.0205
Y12.4795 Z-0.0516 I0. J-0.0205
Y12.5205 Z-0.0685 I0. J0.0205
Y12.4795 Z-0.0854 I0. J-0.0205
Y12.5205 Z-0.1023 I0. J0.0205
Y12.4795 Z-0.1193 I0. J-0.0205
Y12.5205 Z-0.1362 I0. J0.0205
Y12.4795 Z-0.1531 I0. J-0.0205
Y12.5205 Z-0.1701 I0. J0.0205
Y12.4795 Z-0.187 I0. J-0.0205
Y12.5204 Z-0.2039 I0. J0.0205
Y12.4796 Z-0.2208 I0. J-0.0204
Y12.5204 Z-0.2378 I0. J0.0204
Y12.4796 Z-0.2547 I0. J-0.0204
Y12.5204 Z-0.2716 I0. J0.0204
X-8.0954 Y12.5003 Z-0.28 I0. J-0.0204
X-8.0546 Y12.4997 I0.0204 J-0.0003
X-8.0954 Y12.5003 I-0.0204 J0.0003
X-8.0854 Y12.4899 I0.0102 J-0.0002
G1 X-8.0778 Y12.4898
X-8.0749 Z-0.2797
X-8.072 Y12.4897 Z-0.2788
X-8.0694 Z-0.2775
X-8.0671 Z-0.2756
X-8.0653 Y12.4896 Z-0.2733
X-8.0639 Z-0.2707
X-8.063 Z-0.2678
X-8.0627 Z-0.2649
G0 Z0.4
X-8.0852 Y11.5124
Z0.13
G1 Z0.0651 F40.
G19 G2 Y11.4973 Z0.05 J-0.0151 K0.
G1 Y11.4898
G17 G3 X-8.075 Y11.4795 I0.0102 J0.
Y11.5205 Z0.0331 I0. J0.0205
Y11.4796 Z0.0161 I0. J-0.0205
Y11.5204 Z-0.0008 I0. J0.0204
Y11.4796 Z-0.0177 I0. J-0.0204
X-8.0546 Y11.4999 Z-0.0262 I0. J0.0204
X-8.0954 Y11.5001 Z-0.0431 I-0.0204 J0.0001
X-8.0546 Y11.4999 Z-0.06 I0.0204 J-0.0001
X-8.0954 Y11.5001 Z-0.0769 I-0.0204 J0.0001
X-8.0546 Y11.4999 Z-0.0939 I0.0204 J-0.0001
X-8.0954 Y11.5001 Z-0.1108 I-0.0204 J0.0001
X-8.0546 Y11.4999 Z-0.1277 I0.0204 J-0.0001
X-8.0954 Y11.5001 Z-0.1446 I-0.0204 J0.0001
X-8.0546 Y11.4999 Z-0.1616 I0.0204 J-0.0001
X-8.0954 Y11.5001 Z-0.1785 I-0.0204 J0.0001
X-8.0546 Y11.4999 Z-0.1954 I0.0204 J-0.0001
X-8.0954 Y11.5001 Z-0.2124 I-0.0204 J0.0001
X-8.0546 Y11.4999 Z-0.2293 I0.0204 J-0.0001
X-8.0954 Y11.5001 Z-0.2462 I-0.0204 J0.0001
X-8.0546 Y11.4999 Z-0.2631 I0.0204 J-0.0001
X-8.0954 Y11.5003 Z-0.28 I-0.0204 J0.0001
X-8.0546 Y11.4997 I0.0204 J-0.0003
X-8.0954 Y11.5003 I-0.0204 J0.0003
X-8.0854 Y11.4899 I0.0102 J-0.0002
G1 X-8.0778 Y11.4898
X-8.0749 Z-0.2797
X-8.072 Y11.4897 Z-0.2788
X-8.0694 Z-0.2775
X-8.0671 Z-0.2756
X-8.0653 Y11.4896 Z-0.2733
X-8.0639 Z-0.2707
X-8.063 Z-0.2678
X-8.0627 Z-0.2649
G0 Z0.4
X-8.5852 Y11.5124
Z0.13
G1 Z0.0651 F40.
G19 G2 Y11.4973 Z0.05 J-0.0151 K0.
G1 Y11.4898
G17 G3 X-8.575 Y11.4795 I0.0102 J0.
Y11.5205 Z0.0331 I0. J0.0205
Y11.4796 Z0.0161 I0. J-0.0205
Y11.5204 Z-0.0008 I0. J0.0204
Y11.4796 Z-0.0177 I0. J-0.0204
X-8.5545 Y11.4999 Z-0.0262 I0. J0.0204
X-8.5954 Y11.5001 Z-0.0431 I-0.0204 J0.0001
X-8.5545 Y11.4999 Z-0.06 I0.0204 J-0.0001
X-8.5954 Y11.5001 Z-0.0769 I-0.0204 J0.0001
X-8.5545 Y11.4999 Z-0.0939 I0.0204 J-0.0001
X-8.5954 Y11.5001 Z-0.1108 I-0.0204 J0.0001
X-8.5545 Y11.4999 Z-0.1277 I0.0204 J-0.0001
X-8.5954 Y11.5001 Z-0.1446 I-0.0204 J0.0001
X-8.5545 Y11.4999 Z-0.1616 I0.0205 J-0.0001
X-8.5954 Y11.5001 Z-0.1785 I-0.0205 J0.0001
X-8.5545 Y11.4999 Z-0.1954 I0.0205 J-0.0001
X-8.5954 Y11.5001 Z-0.2124 I-0.0205 J0.0001
X-8.5545 Y11.4999 Z-0.2293 I0.0205 J-0.0001
X-8.5954 Y11.5001 Z-0.2462 I-0.0205 J0.0001
X-8.5545 Y11.4999 Z-0.2631 I0.0205 J-0.0001
X-8.5954 Y11.5003 Z-0.28 I-0.0205 J0.0001
X-8.5546 Y11.4997 I0.0204 J-0.0003
X-8.5954 Y11.5003 I-0.0204 J0.0003
X-8.5854 Y11.4899 I0.0102 J-0.0002
G1 X-8.5778 Y11.4898
X-8.5749 Z-0.2797
X-8.572 Y11.4897 Z-0.2788
X-8.5694 Z-0.2775
X-8.5671 Z-0.2756
X-8.5653 Y11.4896 Z-0.2733
X-8.5639 Z-0.2707
X-8.563 Z-0.2678
X-8.5627 Z-0.2649
G0 Z0.4
X-8.5852 Y10.5124
Z0.13
G1 Z0.0651 F40.
G19 G2 Y10.4973 Z0.05 J-0.0151 K0.
G1 Y10.4898
G17 G3 X-8.575 Y10.4796 I0.0102 J0.
Y10.5205 Z0.0331 I0. J0.0205
Y10.4796 Z0.0161 I0. J-0.0205
Y10.5204 Z-0.0008 I0. J0.0204
Y10.4796 Z-0.0177 I0. J-0.0204
X-8.5545 Y10.4999 Z-0.0262 I0. J0.0204
X-8.5954 Y10.5001 Z-0.0431 I-0.0204 J0.0001
X-8.5545 Y10.4999 Z-0.06 I0.0204 J-0.0001
X-8.5954 Y10.5001 Z-0.0769 I-0.0204 J0.0001
X-8.5545 Y10.4999 Z-0.0939 I0.0204 J-0.0001
X-8.5954 Y10.5001 Z-0.1108 I-0.0204 J0.0001
X-8.5545 Y10.4999 Z-0.1277 I0.0204 J-0.0001
X-8.5954 Y10.5001 Z-0.1446 I-0.0204 J0.0001
X-8.5545 Y10.4999 Z-0.1616 I0.0205 J-0.0001
X-8.5954 Y10.5001 Z-0.1785 I-0.0205 J0.0001
X-8.5545 Y10.4999 Z-0.1954 I0.0205 J-0.0001
X-8.5954 Y10.5001 Z-0.2124 I-0.0205 J0.0001
X-8.5545 Y10.4999 Z-0.2293 I0.0205 J-0.0001
X-8.5954 Y10.5001 Z-0.2462 I-0.0205 J0.0001
X-8.5545 Y10.4999 Z-0.2631 I0.0205 J-0.0001
X-8.5954 Y10.5003 Z-0.28 I-0.0205 J0.0001
X-8.5546 Y10.4997 I0.0204 J-0.0003
X-8.5954 Y10.5003 I-0.0204 J0.0003
X-8.5854 Y10.4899 I0.0102 J-0.0002
G1 X-8.5778 Y10.4898
X-8.5749 Z-0.2797
X-8.572 Y10.4897 Z-0.2788
X-8.5694 Z-0.2775
X-8.5671 Z-0.2756
X-8.5653 Y10.4896 Z-0.2733
X-8.5639 Z-0.2707
X-8.563 Z-0.2678
X-8.5627 Z-0.2649
G0 Z0.4
X-8.0852 Y10.5124
Z0.13
G1 Z0.0651 F40.
G19 G2 Y10.4973 Z0.05 J-0.0151 K0.
G1 Y10.4898
G17 G3 X-8.075 Y10.4796 I0.0102 J0.
Y10.5205 Z0.0331 I0. J0.0205
Y10.4796 Z0.0161 I0. J-0.0205
Y10.5204 Z-0.0008 I0. J0.0204
Y10.4796 Z-0.0177 I0. J-0.0204
X-8.0546 Y10.4999 Z-0.0262 I0. J0.0204
X-8.0954 Y10.5001 Z-0.0431 I-0.0204 J0.0001
X-8.0546 Y10.4999 Z-0.06 I0.0204 J-0.0001
X-8.0954 Y10.5001 Z-0.0769 I-0.0204 J0.0001
X-8.0546 Y10.4999 Z-0.0939 I0.0204 J-0.0001
X-8.0954 Y10.5001 Z-0.1108 I-0.0204 J0.0001
X-8.0546 Y10.4999 Z-0.1277 I0.0204 J-0.0001
X-8.0954 Y10.5001 Z-0.1446 I-0.0204 J0.0001
X-8.0546 Y10.4999 Z-0.1616 I0.0204 J-0.0001
X-8.0954 Y10.5001 Z-0.1785 I-0.0204 J0.0001
X-8.0546 Y10.4999 Z-0.1954 I0.0204 J-0.0001
X-8.0954 Y10.5001 Z-0.2124 I-0.0204 J0.0001
X-8.0546 Y10.4999 Z-0.2293 I0.0204 J-0.0001
X-8.0954 Y10.5001 Z-0.2462 I-0.0204 J0.0001
X-8.0546 Y10.4999 Z-0.2631 I0.0204 J-0.0001
X-8.0954 Y10.5003 Z-0.28 I-0.0204 J0.0001
X-8.0546 Y10.4997 I0.0204 J-0.0003
X-8.0954 Y10.5003 I-0.0204 J0.0003
X-8.0854 Y10.4899 I0.0102 J-0.0002
G1 X-8.0778 Y10.4898
X-8.0749 Z-0.2797
X-8.072 Y10.4897 Z-0.2788
X-8.0694 Z-0.2775
X-8.0671 Z-0.2756
X-8.0653 Y10.4896 Z-0.2733
X-8.0639 Z-0.2707
X-8.063 Z-0.2678
X-8.0627 Z-0.2649
G0 Z0.4
X-8.0648 Y9.4876
Z0.13
G1 Z0.0651 F40.
G19 G3 Y9.5027 Z0.05 J0.0151 K0.
G1 Y9.5102
G17 G3 X-8.075 Y9.5204 I-0.0102 J0.
Y9.4796 Z0.0331 I0. J-0.0204
Y9.5204 Z0.0161 I0. J0.0204
Y9.4796 Z-0.0008 I0. J-0.0204
Y9.5204 Z-0.0177 I0. J0.0204
Y9.4796 Z-0.0346 I0. J-0.0204
Y9.5204 Z-0.0516 I0. J0.0204
Y9.4796 Z-0.0685 I0. J-0.0204
Y9.5204 Z-0.0854 I0. J0.0204
Y9.4796 Z-0.1023 I0. J-0.0204
Y9.5204 Z-0.1193 I0. J0.0204
Y9.4796 Z-0.1362 I0. J-0.0204
Y9.5204 Z-0.1531 I0. J0.0204
Y9.4796 Z-0.1701 I0. J-0.0204
Y9.5204 Z-0.187 I0. J0.0204
Y9.4796 Z-0.2039 I0. J-0.0204
Y9.5204 Z-0.2208 I0. J0.0204
Y9.4796 Z-0.2378 I0. J-0.0204
Y9.5204 Z-0.2547 I0. J0.0204
Y9.4796 Z-0.2716 I0. J-0.0204
X-8.0546 Y9.4997 Z-0.28 I0. J0.0204
X-8.0954 Y9.5003 I-0.0204 J0.0003
X-8.0546 Y9.4997 I0.0204 J-0.0003
X-8.0646 Y9.5101 I-0.0102 J0.0002
G1 X-8.0722 Y9.5102
X-8.0751 Z-0.2797
X-8.078 Y9.5103 Z-0.2788
X-8.0806 Z-0.2775
X-8.0829 Z-0.2756
X-8.0847 Y9.5104 Z-0.2733
X-8.0861 Z-0.2707
X-8.087 Z-0.2678
X-8.0873 Z-0.2649
G0 Z0.4
X-8.5648 Y9.4876
Z0.13
G1 Z0.0651 F40.
G19 G3 Y9.5027 Z0.05 J0.0151 K0.
G1 Y9.5102
G17 G3 X-8.575 Y9.5204 I-0.0102 J0.
Y9.4796 Z0.0331 I0. J-0.0204
Y9.5204 Z0.0161 I0. J0.0204
Y9.4796 Z-0.0008 I0. J-0.0204
Y9.5204 Z-0.0177 I0. J0.0204
Y9.4796 Z-0.0346 I0. J-0.0204
Y9.5204 Z-0.0516 I0. J0.0204
Y9.4796 Z-0.0685 I0. J-0.0204
Y9.5204 Z-0.0854 I0. J0.0204
Y9.4796 Z-0.1023 I0. J-0.0204
Y9.5204 Z-0.1193 I0. J0.0204
Y9.4796 Z-0.1362 I0. J-0.0204
Y9.5204 Z-0.1531 I0. J0.0204
Y9.4796 Z-0.1701 I0. J-0.0204
Y9.5204 Z-0.187 I0. J0.0204
Y9.4796 Z-0.2039 I0. J-0.0204
Y9.5204 Z-0.2208 I0. J0.0204
Y9.4796 Z-0.2378 I0. J-0.0204
Y9.5204 Z-0.2547 I0. J0.0204
Y9.4796 Z-0.2716 I0. J-0.0204
X-8.5546 Y9.4997 Z-0.28 I0. J0.0204
X-8.5954 Y9.5003 I-0.0204 J0.0003
X-8.5546 Y9.4997 I0.0204 J-0.0003
X-8.5646 Y9.5101 I-0.0102 J0.0002
G1 X-8.5722 Y9.5102
X-8.5751 Z-0.2797
X-8.578 Y9.5103 Z-0.2788
X-8.5806 Z-0.2775
X-8.5829 Z-0.2756
X-8.5847 Y9.5104 Z-0.2733
X-8.5861 Z-0.2707
X-8.587 Z-0.2678
X-8.5873 Z-0.2649
G0 Z0.4
X-8.075 Y8.
Z0.1149
G1 Z0.05 F40.
X-8.073 Y8.002
G3 X-8.075 Y8.0039 I-0.002 J0.
Y7.9961 Z0.036 I0. J-0.0039
X-8.0711 Y7.9996 Z0.0294 I0. J0.0039
X-8.0789 Y8.0004 Z0.0154 I-0.0039 J0.0004
X-8.0757 Y7.9961 Z0.0087 I0.0039 J-0.0004
X-8.0743 Y8.0039 Z-0.0053 I0.0007 J0.0039
X-8.0757 Y7.9961 Z-0.0193 I-0.0007 J-0.0039
X-8.0736 Y8.0037 Z-0.0325 I0.0007 J0.0039
X-8.0764 Y7.9963 Z-0.0465 I-0.0014 J-0.0037
X-8.0714 Y7.9983 Z-0.0531 I0.0014 J0.0037
X-8.0786 Y8.0017 Z-0.0671 I-0.0036 J0.0017
X-8.077 Y7.9966 Z-0.0738 I0.0036 J-0.0017
X-8.073 Y8.0034 Z-0.0878 I0.002 J0.0034
X-8.0782 Y8.0023 Z-0.0944 I-0.002 J-0.0034
X-8.0718 Y7.9977 Z-0.1084 I0.0032 J-0.0023
X-8.0782 Y8.0023 Z-0.1224 I-0.0032 J0.0023
X-8.0718 Y7.9977 Z-0.1364 I0.0032 J-0.0023
X-8.0782 Y8.0023 Z-0.1504 I-0.0032 J0.0023
X-8.0781 Y7.9975 Z-0.1563 I0.0032 J-0.0023
X-8.0719 Y8.0025 Z-0.1703 I0.0031 J0.0025
X-8.0772 Y8.0033 Z-0.1769 I-0.0031 J-0.0025
X-8.0728 Y7.9967 Z-0.1909 I0.0022 J-0.0033
X-8.0772 Y8.0033 Z-0.2049 I-0.0022 J0.0033
X-8.0728 Y7.9967 Z-0.2189 I0.0022 J-0.0033
X-8.0772 Y8.0033 Z-0.2329 I-0.0022 J0.0033
X-8.0788 Y7.9988 Z-0.2387 I0.0022 J-0.0033
X-8.0712 Y8.0012 Z-0.2528 I0.0038 J0.0012
X-8.0759 Y8.0039 Z-0.2594 I-0.0038 J-0.0012
X-8.0741 Y7.9961 Z-0.2734 I0.0009 J-0.0039
X-8.0711 Y8.0005 Z-0.28 I-0.0009 J0.0039
X-8.0789 Y7.9995 I-0.0039 J-0.0005
X-8.0711 Y8.0005 I0.0039 J0.0005
X-8.0733 Y8.0022 I-0.002 J-0.0003
G1 X-8.075 Y8.
G0 Z0.4
X-7.2193 Y7.3988
Z0.13
G1 Z0.0651 F40.
G19 G3 Y7.4139 Z0.05 J0.0151 K0.
G1 Y7.4214
G17 G3 X-7.2295 Y7.4317 I-0.0102 J0.
Y7.3908 Z0.0331 I0. J-0.0205
Y7.4317 Z0.0161 I0. J0.0205
Y7.3908 Z-0.0008 I0. J-0.0205
Y7.4317 Z-0.0177 I0. J0.0205
Y7.3908 Z-0.0346 I0. J-0.0205
Y7.4317 Z-0.0516 I0. J0.0205
Y7.3908 Z-0.0685 I0. J-0.0205
Y7.4317 Z-0.0854 I0. J0.0205
Y7.3908 Z-0.1023 I0. J-0.0205
Y7.4317 Z-0.1193 I0. J0.0205
Y7.3908 Z-0.1362 I0. J-0.0205
Y7.4317 Z-0.1531 I0. J0.0205
Y7.3908 Z-0.1701 I0. J-0.0205
Y7.4317 Z-0.187 I0. J0.0205
Y7.3908 Z-0.2039 I0. J-0.0205
Y7.4317 Z-0.2208 I0. J0.0204
Y7.3908 Z-0.2378 I0. J-0.0204
Y7.4317 Z-0.2547 I0. J0.0204
Y7.3908 Z-0.2716 I0. J-0.0204
X-7.2091 Y7.4109 Z-0.28 I0. J0.0204
X-7.25 Y7.4115 I-0.0204 J0.0003
X-7.2091 Y7.4109 I0.0204 J-0.0003
X-7.2192 Y7.4213 I-0.0102 J0.0002
G1 X-7.2267 Y7.4214
X-7.2297 Z-0.2797
X-7.2325 Y7.4215 Z-0.2788
X-7.2351 Z-0.2775
X-7.2374 Y7.4216 Z-0.2756
X-7.2393 Z-0.2733
X-7.2407 Z-0.2707
X-7.2415 Z-0.2678
X-7.2418 Z-0.2649
G0 Z0.4
X-6.3987 Y6.8273
Z0.13
G1 Z0.0651 F40.
G19 G3 Y6.8424 Z0.05 J0.0151 K0.
G1 Y6.8499
G17 G3 X-6.4089 Y6.8602 I-0.0102 J0.
Y6.8193 Z0.0331 I0. J-0.0204
Y6.8602 Z0.0161 I0. J0.0204
Y6.8193 Z-0.0008 I0. J-0.0204
Y6.8602 Z-0.0177 I0. J0.0204
Y6.8193 Z-0.0346 I0. J-0.0204
Y6.8602 Z-0.0516 I0. J0.0204
Y6.8193 Z-0.0685 I0. J-0.0204
Y6.8602 Z-0.0854 I0. J0.0205
Y6.8193 Z-0.1023 I0. J-0.0205
Y6.8602 Z-0.1193 I0. J0.0205
Y6.8193 Z-0.1362 I0. J-0.0205
Y6.8602 Z-0.1531 I0. J0.0205
Y6.8193 Z-0.1701 I0. J-0.0205
Y6.8602 Z-0.187 I0. J0.0205
Y6.8193 Z-0.2039 I0. J-0.0205
Y6.8602 Z-0.2208 I0. J0.0205
Y6.8193 Z-0.2378 I0. J-0.0205
Y6.8602 Z-0.2547 I0. J0.0205
Y6.8193 Z-0.2716 I0. J-0.0205
X-6.3885 Y6.8394 Z-0.28 I0. J0.0205
X-6.4294 Y6.84 I-0.0204 J0.0003
X-6.3885 Y6.8394 I0.0204 J-0.0003
X-6.3986 Y6.8498 I-0.0102 J0.0002
G1 X-6.4061 Y6.8499
X-6.4091 Z-0.2797
X-6.4119 Y6.85 Z-0.2788
X-6.4145 Z-0.2775
X-6.4168 Y6.8501 Z-0.2756
X-6.4187 Z-0.2733
X-6.4201 Z-0.2707
X-6.4209 Z-0.2678
X-6.4212 Z-0.2649
G0 Z0.4
X-5.5781 Y6.2558
Z0.13
G1 Z0.0651 F40.
G19 G3 Y6.2709 Z0.05 J0.0151 K0.
G1 Y6.2784
G17 G3 X-5.5883 Y6.2887 I-0.0102 J0.
Y6.2478 Z0.0331 I0. J-0.0204
Y6.2887 Z0.0161 I0. J0.0204
Y6.2478 Z-0.0008 I0. J-0.0204
Y6.2887 Z-0.0177 I0. J0.0204
Y6.2478 Z-0.0346 I0. J-0.0204
Y6.2887 Z-0.0516 I0. J0.0204
Y6.2478 Z-0.0685 I0. J-0.0204
Y6.2887 Z-0.0854 I0. J0.0204
Y6.2478 Z-0.1023 I0. J-0.0204
Y6.2887 Z-0.1193 I0. J0.0204
Y6.2478 Z-0.1362 I0. J-0.0204
Y6.2887 Z-0.1531 I0. J0.0204
Y6.2478 Z-0.1701 I0. J-0.0204
Y6.2887 Z-0.187 I0. J0.0204
Y6.2478 Z-0.2039 I0. J-0.0204
Y6.2887 Z-0.2208 I0. J0.0204
Y6.2478 Z-0.2378 I0. J-0.0204
Y6.2887 Z-0.2547 I0. J0.0204
Y6.2478 Z-0.2716 I0. J-0.0204
X-5.5679 Y6.2679 Z-0.28 I0. J0.0204
X-5.6088 Y6.2685 I-0.0204 J0.0003
X-5.5679 Y6.2679 I0.0204 J-0.0003
X-5.578 Y6.2783 I-0.0102 J0.0002
G1 X-5.5855 Y6.2784
X-5.5885 Z-0.2797
X-5.5913 Y6.2785 Z-0.2788
X-5.5939 Z-0.2775
X-5.5962 Y6.2786 Z-0.2756
X-5.5981 Z-0.2733
X-5.5995 Z-0.2707
X-5.6003 Z-0.2678
X-5.6006 Z-0.2649
G0 Z0.4
X-4.7575 Y5.6843
Z0.13
G1 Z0.0651 F40.
G19 G3 Y5.6994 Z0.05 J0.0151 K0.
G1 Y5.7069
G17 G3 X-4.7677 Y5.7172 I-0.0102 J0.
Y5.6763 Z0.0331 I0. J-0.0205
Y5.7172 Z0.0161 I0. J0.0205
Y5.6763 Z-0.0008 I0. J-0.0205
Y5.7172 Z-0.0177 I0. J0.0205
Y5.6763 Z-0.0346 I0. J-0.0205
Y5.7172 Z-0.0516 I0. J0.0205
Y5.6763 Z-0.0685 I0. J-0.0205
Y5.7172 Z-0.0854 I0. J0.0205
Y5.6763 Z-0.1023 I0. J-0.0205
Y5.7172 Z-0.1193 I0. J0.0205
Y5.6763 Z-0.1362 I0. J-0.0205
Y5.7172 Z-0.1531 I0. J0.0205
Y5.6763 Z-0.1701 I0. J-0.0205
Y5.7172 Z-0.187 I0. J0.0205
Y5.6763 Z-0.2039 I0. J-0.0205
Y5.7172 Z-0.2208 I0. J0.0204
Y5.6763 Z-0.2378 I0. J-0.0204
Y5.7172 Z-0.2547 I0. J0.0204
Y5.6763 Z-0.2716 I0. J-0.0204
X-4.7473 Y5.6964 Z-0.28 I0. J0.0204
X-4.7882 Y5.697 I-0.0204 J0.0003
X-4.7473 Y5.6964 I0.0204 J-0.0003
X-4.7573 Y5.7068 I-0.0102 J0.0002
G1 X-4.7649 Y5.7069
X-4.7678 Y5.707 Z-0.2797
X-4.7707 Z-0.2788
X-4.7733 Z-0.2775
X-4.7756 Y5.7071 Z-0.2756
X-4.7775 Z-0.2733
X-4.7789 Z-0.2707
X-4.7797 Z-0.2678
X-4.78 Z-0.2649
G0 Z0.4
X-3.9369 Y5.1128
Z0.13
G1 Z0.0651 F40.
G19 G3 Y5.1279 Z0.05 J0.0151 K0.
G1 Y5.1355
G17 G3 X-3.9471 Y5.1457 I-0.0102 J0.
Y5.1048 Z0.0331 I0. J-0.0204
Y5.1457 Z0.0161 I0. J0.0204
Y5.1048 Z-0.0008 I0. J-0.0204
Y5.1457 Z-0.0177 I0. J0.0204
Y5.1048 Z-0.0346 I0. J-0.0204
Y5.1457 Z-0.0516 I0. J0.0204
Y5.1048 Z-0.0685 I0. J-0.0204
Y5.1457 Z-0.0854 I0. J0.0204
Y5.1048 Z-0.1023 I0. J-0.0204
Y5.1457 Z-0.1193 I0. J0.0204
Y5.1048 Z-0.1362 I0. J-0.0204
Y5.1457 Z-0.1531 I0. J0.0205
Y5.1048 Z-0.1701 I0. J-0.0205
Y5.1457 Z-0.187 I0. J0.0205
Y5.1048 Z-0.2039 I0. J-0.0205
Y5.1457 Z-0.2208 I0. J0.0205
Y5.1048 Z-0.2378 I0. J-0.0205
Y5.1457 Z-0.2547 I0. J0.0205
Y5.1048 Z-0.2716 I0. J-0.0205
X-3.9267 Y5.1249 Z-0.28 I0. J0.0205
X-3.9676 Y5.1255 I-0.0204 J0.0003
X-3.9267 Y5.1249 I0.0204 J-0.0003
X-3.9367 Y5.1353 I-0.0102 J0.0002
G1 X-3.9443 Y5.1354
X-3.9472 Y5.1355 Z-0.2797
X-3.9501 Z-0.2788
X-3.9527 Z-0.2775
X-3.955 Y5.1356 Z-0.2756
X-3.9569 Z-0.2733
X-3.9583 Z-0.2707
X-3.9591 Z-0.2678
X-3.9594 Z-0.2649
G0 Z0.4
X-3.1163 Y4.5413
Z0.13
G1 Z0.0651 F40.
G19 G3 Y4.5564 Z0.05 J0.0151 K0.
G1 Y4.564
G17 G3 X-3.1265 Y4.5742 I-0.0102 J0.
Y4.5333 Z0.0331 I0. J-0.0204
Y4.5742 Z0.0161 I0. J0.0204
Y4.5333 Z-0.0008 I0. J-0.0204
Y4.5742 Z-0.0177 I0. J0.0204
Y4.5333 Z-0.0346 I0. J-0.0204
Y4.5742 Z-0.0516 I0. J0.0204
Y4.5333 Z-0.0685 I0. J-0.0204
Y4.5742 Z-0.0854 I0. J0.0204
Y4.5333 Z-0.1023 I0. J-0.0204
Y4.5742 Z-0.1193 I0. J0.0204
Y4.5333 Z-0.1362 I0. J-0.0204
Y4.5742 Z-0.1531 I0. J0.0204
Y4.5333 Z-0.1701 I0. J-0.0204
Y4.5742 Z-0.187 I0. J0.0204
Y4.5333 Z-0.2039 I0. J-0.0204
Y4.5742 Z-0.2208 I0. J0.0204
Y4.5333 Z-0.2378 I0. J-0.0204
Y4.5742 Z-0.2547 I0. J0.0204
Y4.5333 Z-0.2716 I0. J-0.0204
X-3.1061 Y4.5534 Z-0.28 I0. J0.0204
X-3.147 Y4.5541 I-0.0204 J0.0003
X-3.1061 Y4.5534 I0.0204 J-0.0003
X-3.1161 Y4.5638 I-0.0102 J0.0002
G1 X-3.1237 Y4.5639
X-3.1266 Y4.564 Z-0.2797
X-3.1295 Z-0.2788
X-3.1321 Z-0.2775
X-3.1344 Y4.5641 Z-0.2756
X-3.1362 Z-0.2733
X-3.1376 Z-0.2707
X-3.1385 Z-0.2678
X-3.1388 Y4.5642 Z-0.2649
G0 Z0.4
X-2.2957 Y3.9698
Z0.13
G1 Z0.0651 F40.
G19 G3 Y3.9849 Z0.05 J0.0151 K0.
G1 Y3.9925
G17 G3 X-2.3059 Y4.0027 I-0.0102 J0.
Y3.9618 Z0.0331 I0. J-0.0205
Y4.0027 Z0.0161 I0. J0.0205
Y3.9618 Z-0.0008 I0. J-0.0205
Y4.0027 Z-0.0177 I0. J0.0205
Y3.9618 Z-0.0346 I0. J-0.0205
Y4.0027 Z-0.0516 I0. J0.0205
Y3.9618 Z-0.0685 I0. J-0.0205
Y4.0027 Z-0.0854 I0. J0.0205
Y3.9618 Z-0.1023 I0. J-0.0204
Y4.0027 Z-0.1193 I0. J0.0204
Y3.9618 Z-0.1362 I0. J-0.0204
Y4.0027 Z-0.1531 I0. J0.0204
Y3.9618 Z-0.1701 I0. J-0.0204
Y4.0027 Z-0.187 I0. J0.0204
Y3.9618 Z-0.2039 I0. J-0.0204
Y4.0027 Z-0.2208 I0. J0.0204
Y3.9618 Z-0.2378 I0. J-0.0204
Y4.0027 Z-0.2547 I0. J0.0204
Y3.9618 Z-0.2716 I0. J-0.0204
X-2.2855 Y3.9819 Z-0.28 I0. J0.0204
X-2.3264 Y3.9826 I-0.0204 J0.0003
X-2.2855 Y3.9819 I0.0204 J-0.0003
X-2.2955 Y3.9923 I-0.0102 J0.0002
G1 X-2.3031 Y3.9924
X-2.306 Y3.9925 Z-0.2797
X-2.3089 Z-0.2788
X-2.3115 Y3.9926 Z-0.2775
X-2.3138 Z-0.2756
X-2.3156 Z-0.2733
X-2.317 Z-0.2707
X-2.3179 Y3.9927 Z-0.2678
X-2.3182 Z-0.2649
G0 Z0.4
X-2.5102 Y3.1374
Z0.13
G1 Z0.0651 F40.
G19 G2 Y3.1223 Z0.05 J-0.0151 K0.
G1 Y3.1148
G17 G3 X-2.5 Y3.1045 I0.0102 J0.
Y3.1455 Z0.0331 I0. J0.0205
Y3.1045 Z0.0161 I0. J-0.0205
Y3.1455 Z-0.0008 I0. J0.0205
Y3.1045 Z-0.0177 I0. J-0.0205
Y3.1455 Z-0.0346 I0. J0.0205
Y3.1045 Z-0.0516 I0. J-0.0205
Y3.1455 Z-0.0685 I0. J0.0205
Y3.1046 Z-0.0854 I0. J-0.0205
Y3.1454 Z-0.1023 I0. J0.0204
Y3.1046 Z-0.1193 I0. J-0.0204
Y3.1454 Z-0.1362 I0. J0.0204
Y3.1046 Z-0.1531 I0. J-0.0204
Y3.1454 Z-0.1701 I0. J0.0204
Y3.1046 Z-0.187 I0. J-0.0204
Y3.1454 Z-0.2039 I0. J0.0204
Y3.1046 Z-0.2208 I0. J-0.0204
Y3.1454 Z-0.2378 I0. J0.0204
Y3.1046 Z-0.2547 I0. J-0.0204
Y3.1454 Z-0.2716 I0. J0.0204
X-2.5204 Y3.1253 Z-0.28 I0. J-0.0204
X-2.4796 Y3.1247 I0.0204 J-0.0003
X-2.5204 Y3.1253 I-0.0204 J0.0003
X-2.5104 Y3.1149 I0.0102 J-0.0002
G1 X-2.5028 Y3.1148
X-2.4999 Z-0.2797
X-2.497 Y3.1147 Z-0.2788
X-2.4944 Z-0.2775
X-2.4921 Z-0.2756
X-2.4903 Y3.1146 Z-0.2733
X-2.4889 Z-0.2707
X-2.488 Z-0.2678
X-2.4877 Z-0.2649
G0 Z0.4
X-3.5102 Y3.1374
Z0.13
G1 Z0.0651 F40.
G19 G2 Y3.1223 Z0.05 J-0.0151 K0.
G1 Y3.1148
G17 G3 X-3.5 Y3.1045 I0.0102 J0.
Y3.1455 Z0.0331 I0. J0.0205
Y3.1045 Z0.0161 I0. J-0.0205
Y3.1455 Z-0.0008 I0. J0.0205
Y3.1045 Z-0.0177 I0. J-0.0205
Y3.1455 Z-0.0346 I0. J0.0205
Y3.1045 Z-0.0516 I0. J-0.0205
Y3.1455 Z-0.0685 I0. J0.0205
Y3.1046 Z-0.0854 I0. J-0.0205
Y3.1454 Z-0.1023 I0. J0.0204
Y3.1046 Z-0.1193 I0. J-0.0204
Y3.1454 Z-0.1362 I0. J0.0204
Y3.1046 Z-0.1531 I0. J-0.0204
Y3.1454 Z-0.1701 I0. J0.0204
Y3.1046 Z-0.187 I0. J-0.0204
Y3.1454 Z-0.2039 I0. J0.0204
Y3.1046 Z-0.2208 I0. J-0.0204
Y3.1454 Z-0.2378 I0. J0.0204
Y3.1046 Z-0.2547 I0. J-0.0204
Y3.1454 Z-0.2716 I0. J0.0204
X-3.5204 Y3.1253 Z-0.28 I0. J-0.0204
X-3.4796 Y3.1247 I0.0204 J-0.0003
X-3.5204 Y3.1253 I-0.0204 J0.0003
X-3.5104 Y3.1149 I0.0102 J-0.0002
G1 X-3.5028 Y3.1148
X-3.4999 Z-0.2797
X-3.497 Y3.1147 Z-0.2788
X-3.4944 Z-0.2775
X-3.4921 Z-0.2756
X-3.4903 Y3.1146 Z-0.2733
X-3.4889 Z-0.2707
X-3.488 Z-0.2678
X-3.4877 Z-0.2649
G0 Z0.4
X-4.5102 Y3.1374
Z0.13
G1 Z0.0651 F40.
G19 G2 Y3.1223 Z0.05 J-0.0151 K0.
G1 Y3.1148
G17 G3 X-4.5 Y3.1045 I0.0102 J0.
Y3.1455 Z0.0331 I0. J0.0205
Y3.1045 Z0.0161 I0. J-0.0205
Y3.1455 Z-0.0008 I0. J0.0205
Y3.1045 Z-0.0177 I0. J-0.0205
Y3.1455 Z-0.0346 I0. J0.0205
Y3.1045 Z-0.0516 I0. J-0.0205
Y3.1455 Z-0.0685 I0. J0.0205
Y3.1046 Z-0.0854 I0. J-0.0205
Y3.1454 Z-0.1023 I0. J0.0204
Y3.1046 Z-0.1193 I0. J-0.0204
Y3.1454 Z-0.1362 I0. J0.0204
Y3.1046 Z-0.1531 I0. J-0.0204
Y3.1454 Z-0.1701 I0. J0.0204
Y3.1046 Z-0.187 I0. J-0.0204
Y3.1454 Z-0.2039 I0. J0.0204
Y3.1046 Z-0.2208 I0. J-0.0204
Y3.1454 Z-0.2378 I0. J0.0204
Y3.1046 Z-0.2547 I0. J-0.0204
Y3.1454 Z-0.2716 I0. J0.0204
X-4.5204 Y3.1253 Z-0.28 I0. J-0.0204
X-4.4796 Y3.1247 I0.0204 J-0.0003
X-4.5204 Y3.1253 I-0.0204 J0.0003
X-4.5104 Y3.1149 I0.0102 J-0.0002
G1 X-4.5028 Y3.1148
X-4.4999 Z-0.2797
X-4.497 Y3.1147 Z-0.2788
X-4.4944 Z-0.2775
X-4.4921 Z-0.2756
X-4.4903 Y3.1146 Z-0.2733
X-4.4889 Z-0.2707
X-4.488 Z-0.2678
X-4.4877 Z-0.2649
G0 Z0.4
X-5.5102 Y3.1374
Z0.13
G1 Z0.0651 F40.
G19 G2 Y3.1223 Z0.05 J-0.0151 K0.
G1 Y3.1148
G17 G3 X-5.5 Y3.1045 I0.0102 J0.
Y3.1455 Z0.0331 I0. J0.0205
Y3.1045 Z0.0161 I0. J-0.0205
Y3.1455 Z-0.0008 I0. J0.0205
Y3.1045 Z-0.0177 I0. J-0.0205
Y3.1455 Z-0.0346 I0. J0.0205
Y3.1045 Z-0.0516 I0. J-0.0205
Y3.1455 Z-0.0685 I0. J0.0205
Y3.1046 Z-0.0854 I0. J-0.0205
Y3.1454 Z-0.1023 I0. J0.0204
Y3.1046 Z-0.1193 I0. J-0.0204
Y3.1454 Z-0.1362 I0. J0.0204
Y3.1046 Z-0.1531 I0. J-0.0204
Y3.1454 Z-0.1701 I0. J0.0204
Y3.1046 Z-0.187 I0. J-0.0204
Y3.1454 Z-0.2039 I0. J0.0204
Y3.1046 Z-0.2208 I0. J-0.0204
Y3.1454 Z-0.2378 I0. J0.0204
Y3.1046 Z-0.2547 I0. J-0.0204
Y3.1454 Z-0.2716 I0. J0.0204
X-5.5204 Y3.1253 Z-0.28 I0. J-0.0204
X-5.4796 Y3.1247 I0.0204 J-0.0003
X-5.5204 Y3.1253 I-0.0204 J0.0003
X-5.5104 Y3.1149 I0.0102 J-0.0002
G1 X-5.5028 Y3.1148
X-5.4999 Z-0.2797
X-5.497 Y3.1147 Z-0.2788
X-5.4944 Z-0.2775
X-5.4921 Z-0.2756
X-5.4903 Y3.1146 Z-0.2733
X-5.4889 Z-0.2707
X-5.488 Z-0.2678
X-5.4877 Z-0.2649
G0 Z0.4
X-6.5102 Y3.1374
Z0.13
G1 Z0.0651 F40.
G19 G2 Y3.1223 Z0.05 J-0.0151 K0.
G1 Y3.1148
G17 G3 X-6.5 Y3.1045 I0.0102 J0.
Y3.1455 Z0.0331 I0. J0.0205
Y3.1045 Z0.0161 I0. J-0.0205
Y3.1455 Z-0.0008 I0. J0.0205
Y3.1045 Z-0.0177 I0. J-0.0205
Y3.1455 Z-0.0346 I0. J0.0205
Y3.1045 Z-0.0516 I0. J-0.0205
Y3.1455 Z-0.0685 I0. J0.0205
Y3.1046 Z-0.0854 I0. J-0.0205
Y3.1454 Z-0.1023 I0. J0.0204
Y3.1046 Z-0.1193 I0. J-0.0204
Y3.1454 Z-0.1362 I0. J0.0204
Y3.1046 Z-0.1531 I0. J-0.0204
Y3.1454 Z-0.1701 I0. J0.0204
Y3.1046 Z-0.187 I0. J-0.0204
Y3.1454 Z-0.2039 I0. J0.0204
Y3.1046 Z-0.2208 I0. J-0.0204
Y3.1454 Z-0.2378 I0. J0.0204
Y3.1046 Z-0.2547 I0. J-0.0204
Y3.1454 Z-0.2716 I0. J0.0204
X-6.5204 Y3.1253 Z-0.28 I0. J-0.0204
X-6.4796 Y3.1247 I0.0204 J-0.0003
X-6.5204 Y3.1253 I-0.0204 J0.0003
X-6.5104 Y3.1149 I0.0102 J-0.0002
G1 X-6.5028 Y3.1148
X-6.4999 Z-0.2797
X-6.497 Y3.1147 Z-0.2788
X-6.4944 Z-0.2775
X-6.4921 Z-0.2756
X-6.4903 Y3.1146 Z-0.2733
X-6.4889 Z-0.2707
X-6.488 Z-0.2678
X-6.4877 Z-0.2649
G0 Z0.4
X-7.5102 Y3.1374
Z0.13
G1 Z0.0651 F40.
G19 G2 Y3.1223 Z0.05 J-0.0151 K0.
G1 Y3.1148
G17 G3 X-7.5 Y3.1045 I0.0102 J0.
Y3.1455 Z0.0331 I0. J0.0205
Y3.1045 Z0.0161 I0. J-0.0205
Y3.1455 Z-0.0008 I0. J0.0205
Y3.1045 Z-0.0177 I0. J-0.0205
Y3.1455 Z-0.0346 I0. J0.0205
Y3.1045 Z-0.0516 I0. J-0.0205
Y3.1455 Z-0.0685 I0. J0.0205
Y3.1046 Z-0.0854 I0. J-0.0205
Y3.1454 Z-0.1023 I0. J0.0204
Y3.1046 Z-0.1193 I0. J-0.0204
Y3.1454 Z-0.1362 I0. J0.0204
Y3.1046 Z-0.1531 I0. J-0.0204
Y3.1454 Z-0.1701 I0. J0.0204
Y3.1046 Z-0.187 I0. J-0.0204
Y3.1454 Z-0.2039 I0. J0.0204
Y3.1046 Z-0.2208 I0. J-0.0204
Y3.1454 Z-0.2378 I0. J0.0204
Y3.1046 Z-0.2547 I0. J-0.0204
Y3.1454 Z-0.2716 I0. J0.0204
X-7.5204 Y3.1253 Z-0.28 I0. J-0.0204
X-7.4796 Y3.1247 I0.0204 J-0.0003
X-7.5204 Y3.1253 I-0.0204 J0.0003
X-7.5104 Y3.1149 I0.0102 J-0.0002
G1 X-7.5028 Y3.1148
X-7.4999 Z-0.2797
X-7.497 Y3.1147 Z-0.2788
X-7.4944 Z-0.2775
X-7.4921 Z-0.2756
X-7.4903 Y3.1146 Z-0.2733
X-7.4889 Z-0.2707
X-7.488 Z-0.2678
X-7.4877 Z-0.2649
G0 Z0.4
X-7.9875 Y2.9898
Z0.13
G1 Z0.0651 F40.
G19 G3 Y3.0049 Z0.05 J0.0151 K0.
G1 Y3.0125
G17 G3 X-8. Y3.025 I-0.0125 J0.
Y2.975 Z0.0323 I0. J-0.025
Y3.025 Z0.0146 I0. J0.025
Y2.975 Z-0.0032 I0. J-0.025
Y3.025 Z-0.0209 I0. J0.025
Y2.975 Z-0.0386 I0. J-0.025
Y3.025 Z-0.0563 I0. J0.025
Y2.975 Z-0.074 I0. J-0.025
Y3.0249 Z-0.0918 I0. J0.025
Y2.975 Z-0.1095 I0. J-0.025
Y3.0249 Z-0.1272 I0. J0.025
Y2.975 Z-0.1449 I0. J-0.025
Y3.0249 Z-0.1627 I0. J0.025
Y2.975 Z-0.1804 I0. J-0.025
Y3.0249 Z-0.1981 I0. J0.025
Y2.975 Z-0.2158 I0. J-0.025
Y3.0249 Z-0.2335 I0. J0.025
Y2.975 Z-0.2513 I0. J-0.025
Y3.0249 Z-0.269 I0. J0.0249
X-8.0231 Y2.9907 Z-0.28 I0. J-0.0249
X-7.9769 Y3.0093 I0.0231 J0.0093
X-8.0231 Y2.9907 I-0.0231 J-0.0093
X-8.0069 Y2.9838 I0.0116 J0.0047
G1 X-7.9999 Y2.9866
X-7.9972 Y2.9877 Z-0.2797
X-7.9945 Y2.9888 Z-0.2788
X-7.9921 Y2.9897 Z-0.2775
X-7.99 Y2.9906 Z-0.2756
X-7.9882 Y2.9913 Z-0.2733
X-7.9869 Y2.9918 Z-0.2707
X-7.9862 Y2.9921 Z-0.2678
X-7.9859 Y2.9922 Z-0.2649
G0 Z0.4
X-7.9875 Y2.4898
Z0.13
G1 Z0.0651 F40.
G19 G3 Y2.5049 Z0.05 J0.0151 K0.
G1 Y2.5125
G17 G3 X-8. Y2.5249 I-0.0125 J0.
Y2.4751 Z0.0323 I0. J-0.0249
Y2.5249 Z0.0146 I0. J0.0249
Y2.4751 Z-0.0032 I0. J-0.0249
Y2.5249 Z-0.0209 I0. J0.0249
Y2.4751 Z-0.0386 I0. J-0.0249
Y2.5249 Z-0.0563 I0. J0.0249
Y2.4751 Z-0.074 I0. J-0.0249
Y2.5249 Z-0.0918 I0. J0.0249
Y2.4751 Z-0.1095 I0. J-0.0249
Y2.5249 Z-0.1272 I0. J0.0249
Y2.4751 Z-0.1449 I0. J-0.0249
Y2.5249 Z-0.1627 I0. J0.0249
Y2.4751 Z-0.1804 I0. J-0.0249
Y2.525 Z-0.1981 I0. J0.0249
Y2.475 Z-0.2158 I0. J-0.025
Y2.525 Z-0.2335 I0. J0.025
Y2.475 Z-0.2513 I0. J-0.025
Y2.525 Z-0.269 I0. J0.025
X-8.0231 Y2.4907 Z-0.28 I0. J-0.025
X-7.9769 Y2.5093 I0.0231 J0.0093
X-8.0231 Y2.4907 I-0.0231 J-0.0093
X-8.0069 Y2.4838 I0.0116 J0.0047
G1 X-7.9999 Y2.4866
X-7.9972 Y2.4877 Z-0.2797
X-7.9945 Y2.4888 Z-0.2788
X-7.9921 Y2.4897 Z-0.2775
X-7.99 Y2.4906 Z-0.2756
X-7.9882 Y2.4913 Z-0.2733
X-7.9869 Y2.4918 Z-0.2707
X-7.9862 Y2.4921 Z-0.2678
X-7.9859 Y2.4922 Z-0.2649
G0 Z0.4
X-7.9875 Y1.9898
Z0.13
G1 Z0.0651 F40.
G19 G3 Y2.0049 Z0.05 J0.0151 K0.
G1 Y2.0125
G17 G3 X-8. Y2.025 I-0.0125 J0.
Y1.975 Z0.0323 I0. J-0.025
Y2.025 Z0.0146 I0. J0.025
Y1.975 Z-0.0032 I0. J-0.025
Y2.025 Z-0.0209 I0. J0.025
Y1.975 Z-0.0386 I0. J-0.025
Y2.025 Z-0.0563 I0. J0.025
Y1.975 Z-0.074 I0. J-0.025
Y2.025 Z-0.0918 I0. J0.025
Y1.975 Z-0.1095 I0. J-0.025
Y2.025 Z-0.1272 I0. J0.025
Y1.975 Z-0.1449 I0. J-0.025
Y2.025 Z-0.1627 I0. J0.025
Y1.975 Z-0.1804 I0. J-0.025
Y2.025 Z-0.1981 I0. J0.025
Y1.975 Z-0.2158 I0. J-0.025
Y2.025 Z-0.2335 I0. J0.025
Y1.975 Z-0.2513 I0. J-0.025
Y2.0249 Z-0.269 I0. J0.025
X-8.0231 Y1.9907 Z-0.28 I0. J-0.025
X-7.9769 Y2.0093 I0.0231 J0.0093
X-8.0231 Y1.9907 I-0.0231 J-0.0093
X-8.0069 Y1.9838 I0.0116 J0.0047
G1 X-7.9999 Y1.9866
X-7.9972 Y1.9877 Z-0.2797
X-7.9945 Y1.9888 Z-0.2788
X-7.9921 Y1.9897 Z-0.2775
X-7.99 Y1.9906 Z-0.2756
X-7.9882 Y1.9913 Z-0.2733
X-7.9869 Y1.9918 Z-0.2707
X-7.9862 Y1.9921 Z-0.2678
X-7.9859 Y1.9922 Z-0.2649
G0 Z0.4
X-7.5102 Y1.8874
Z0.13
G1 Z0.0651 F40.
G19 G2 Y1.8723 Z0.05 J-0.0151 K0.
G1 Y1.8648
G17 G3 X-7.5 Y1.8546 I0.0102 J0.
Y1.8954 Z0.0331 I0. J0.0204
Y1.8546 Z0.0161 I0. J-0.0204
Y1.8954 Z-0.0008 I0. J0.0204
Y1.8546 Z-0.0177 I0. J-0.0204
Y1.8954 Z-0.0346 I0. J0.0204
Y1.8546 Z-0.0516 I0. J-0.0204
Y1.8954 Z-0.0685 I0. J0.0204
Y1.8546 Z-0.0854 I0. J-0.0204
Y1.8954 Z-0.1023 I0. J0.0204
Y1.8546 Z-0.1193 I0. J-0.0204
Y1.8954 Z-0.1362 I0. J0.0204
Y1.8546 Z-0.1531 I0. J-0.0204
Y1.8954 Z-0.1701 I0. J0.0204
Y1.8546 Z-0.187 I0. J-0.0204
Y1.8954 Z-0.2039 I0. J0.0204
Y1.8546 Z-0.2208 I0. J-0.0204
Y1.8954 Z-0.2378 I0. J0.0204
Y1.8546 Z-0.2547 I0. J-0.0204
Y1.8954 Z-0.2716 I0. J0.0204
X-7.5204 Y1.8753 Z-0.28 I0. J-0.0204
X-7.4796 Y1.8747 I0.0204 J-0.0003
X-7.5204 Y1.8753 I-0.0204 J0.0003
X-7.5104 Y1.8649 I0.0102 J-0.0002
G1 X-7.5028 Y1.8648
X-7.4999 Z-0.2797
X-7.497 Y1.8647 Z-0.2788
X-7.4944 Z-0.2775
X-7.4921 Z-0.2756
X-7.4903 Y1.8646 Z-0.2733
X-7.4889 Z-0.2707
X-7.488 Z-0.2678
X-7.4877 Z-0.2649
G0 Z0.4
X-6.5102 Y1.8874
Z0.13
G1 Z0.0651 F40.
G19 G2 Y1.8723 Z0.05 J-0.0151 K0.
G1 Y1.8648
G17 G3 X-6.5 Y1.8546 I0.0102 J0.
Y1.8954 Z0.0331 I0. J0.0204
Y1.8546 Z0.0161 I0. J-0.0204
Y1.8954 Z-0.0008 I0. J0.0204
Y1.8546 Z-0.0177 I0. J-0.0204
Y1.8954 Z-0.0346 I0. J0.0204
Y1.8546 Z-0.0516 I0. J-0.0204
Y1.8954 Z-0.0685 I0. J0.0204
Y1.8546 Z-0.0854 I0. J-0.0204
Y1.8954 Z-0.1023 I0. J0.0204
Y1.8546 Z-0.1193 I0. J-0.0204
Y1.8954 Z-0.1362 I0. J0.0204
Y1.8546 Z-0.1531 I0. J-0.0204
Y1.8954 Z-0.1701 I0. J0.0204
Y1.8546 Z-0.187 I0. J-0.0204
Y1.8954 Z-0.2039 I0. J0.0204
Y1.8546 Z-0.2208 I0. J-0.0204
Y1.8954 Z-0.2378 I0. J0.0204
Y1.8546 Z-0.2547 I0. J-0.0204
Y1.8954 Z-0.2716 I0. J0.0204
X-6.5204 Y1.8753 Z-0.28 I0. J-0.0204
X-6.4796 Y1.8747 I0.0204 J-0.0003
X-6.5204 Y1.8753 I-0.0204 J0.0003
X-6.5104 Y1.8649 I0.0102 J-0.0002
G1 X-6.5028 Y1.8648
X-6.4999 Z-0.2797
X-6.497 Y1.8647 Z-0.2788
X-6.4944 Z-0.2775
X-6.4921 Z-0.2756
X-6.4903 Y1.8646 Z-0.2733
X-6.4889 Z-0.2707
X-6.488 Z-0.2678
X-6.4877 Z-0.2649
G0 Z0.4
X-5.5102 Y1.8874
Z0.13
G1 Z0.0651 F40.
G19 G2 Y1.8723 Z0.05 J-0.0151 K0.
G1 Y1.8648
G17 G3 X-5.5 Y1.8546 I0.0102 J0.
Y1.8954 Z0.0331 I0. J0.0204
Y1.8546 Z0.0161 I0. J-0.0204
Y1.8954 Z-0.0008 I0. J0.0204
Y1.8546 Z-0.0177 I0. J-0.0204
Y1.8954 Z-0.0346 I0. J0.0204
Y1.8546 Z-0.0516 I0. J-0.0204
Y1.8954 Z-0.0685 I0. J0.0204
Y1.8546 Z-0.0854 I0. J-0.0204
Y1.8954 Z-0.1023 I0. J0.0204
Y1.8546 Z-0.1193 I0. J-0.0204
Y1.8954 Z-0.1362 I0. J0.0204
Y1.8546 Z-0.1531 I0. J-0.0204
Y1.8954 Z-0.1701 I0. J0.0204
Y1.8546 Z-0.187 I0. J-0.0204
Y1.8954 Z-0.2039 I0. J0.0204
Y1.8546 Z-0.2208 I0. J-0.0204
Y1.8954 Z-0.2378 I0. J0.0204
Y1.8546 Z-0.2547 I0. J-0.0204
Y1.8954 Z-0.2716 I0. J0.0204
X-5.5204 Y1.8753 Z-0.28 I0. J-0.0204
X-5.4796 Y1.8747 I0.0204 J-0.0003
X-5.5204 Y1.8753 I-0.0204 J0.0003
X-5.5104 Y1.8649 I0.0102 J-0.0002
G1 X-5.5028 Y1.8648
X-5.4999 Z-0.2797
X-5.497 Y1.8647 Z-0.2788
X-5.4944 Z-0.2775
X-5.4921 Z-0.2756
X-5.4903 Y1.8646 Z-0.2733
X-5.4889 Z-0.2707
X-5.488 Z-0.2678
X-5.4877 Z-0.2649
G0 Z0.4
X-4.5102 Y1.8874
Z0.13
G1 Z0.0651 F40.
G19 G2 Y1.8723 Z0.05 J-0.0151 K0.
G1 Y1.8648
G17 G3 X-4.5 Y1.8546 I0.0102 J0.
Y1.8954 Z0.0331 I0. J0.0204
Y1.8546 Z0.0161 I0. J-0.0204
Y1.8954 Z-0.0008 I0. J0.0204
Y1.8546 Z-0.0177 I0. J-0.0204
Y1.8954 Z-0.0346 I0. J0.0204
Y1.8546 Z-0.0516 I0. J-0.0204
Y1.8954 Z-0.0685 I0. J0.0204
Y1.8546 Z-0.0854 I0. J-0.0204
Y1.8954 Z-0.1023 I0. J0.0204
Y1.8546 Z-0.1193 I0. J-0.0204
Y1.8954 Z-0.1362 I0. J0.0204
Y1.8546 Z-0.1531 I0. J-0.0204
Y1.8954 Z-0.1701 I0. J0.0204
Y1.8546 Z-0.187 I0. J-0.0204
Y1.8954 Z-0.2039 I0. J0.0204
Y1.8546 Z-0.2208 I0. J-0.0204
Y1.8954 Z-0.2378 I0. J0.0204
Y1.8546 Z-0.2547 I0. J-0.0204
Y1.8954 Z-0.2716 I0. J0.0204
X-4.5204 Y1.8753 Z-0.28 I0. J-0.0204
X-4.4796 Y1.8747 I0.0204 J-0.0003
X-4.5204 Y1.8753 I-0.0204 J0.0003
X-4.5104 Y1.8649 I0.0102 J-0.0002
G1 X-4.5028 Y1.8648
X-4.4999 Z-0.2797
X-4.497 Y1.8647 Z-0.2788
X-4.4944 Z-0.2775
X-4.4921 Z-0.2756
X-4.4903 Y1.8646 Z-0.2733
X-4.4889 Z-0.2707
X-4.488 Z-0.2678
X-4.4877 Z-0.2649
G0 Z0.4
X-3.5102 Y1.8874
Z0.13
G1 Z0.0651 F40.
G19 G2 Y1.8723 Z0.05 J-0.0151 K0.
G1 Y1.8648
G17 G3 X-3.5 Y1.8546 I0.0102 J0.
Y1.8954 Z0.0331 I0. J0.0204
Y1.8546 Z0.0161 I0. J-0.0204
Y1.8954 Z-0.0008 I0. J0.0204
Y1.8546 Z-0.0177 I0. J-0.0204
Y1.8954 Z-0.0346 I0. J0.0204
Y1.8546 Z-0.0516 I0. J-0.0204
Y1.8954 Z-0.0685 I0. J0.0204
Y1.8546 Z-0.0854 I0. J-0.0204
Y1.8954 Z-0.1023 I0. J0.0204
Y1.8546 Z-0.1193 I0. J-0.0204
Y1.8954 Z-0.1362 I0. J0.0204
Y1.8546 Z-0.1531 I0. J-0.0204
Y1.8954 Z-0.1701 I0. J0.0204
Y1.8546 Z-0.187 I0. J-0.0204
Y1.8954 Z-0.2039 I0. J0.0204
Y1.8546 Z-0.2208 I0. J-0.0204
Y1.8954 Z-0.2378 I0. J0.0204
Y1.8546 Z-0.2547 I0. J-0.0204
Y1.8954 Z-0.2716 I0. J0.0204
X-3.5204 Y1.8753 Z-0.28 I0. J-0.0204
X-3.4796 Y1.8747 I0.0204 J-0.0003
X-3.5204 Y1.8753 I-0.0204 J0.0003
X-3.5104 Y1.8649 I0.0102 J-0.0002
G1 X-3.5028 Y1.8648
X-3.4999 Z-0.2797
X-3.497 Y1.8647 Z-0.2788
X-3.4944 Z-0.2775
X-3.4921 Z-0.2756
X-3.4903 Y1.8646 Z-0.2733
X-3.4889 Z-0.2707
X-3.488 Z-0.2678
X-3.4877 Z-0.2649
G0 Z0.4
X-2.5102 Y1.8874
Z0.13
G1 Z0.0651 F40.
G19 G2 Y1.8723 Z0.05 J-0.0151 K0.
G1 Y1.8648
G17 G3 X-2.5 Y1.8546 I0.0102 J0.
Y1.8954 Z0.0331 I0. J0.0204
Y1.8546 Z0.0161 I0. J-0.0204
Y1.8954 Z-0.0008 I0. J0.0204
Y1.8546 Z-0.0177 I0. J-0.0204
Y1.8954 Z-0.0346 I0. J0.0204
Y1.8546 Z-0.0516 I0. J-0.0204
Y1.8954 Z-0.0685 I0. J0.0204
Y1.8546 Z-0.0854 I0. J-0.0204
Y1.8954 Z-0.1023 I0. J0.0204
Y1.8546 Z-0.1193 I0. J-0.0204
Y1.8954 Z-0.1362 I0. J0.0204
Y1.8546 Z-0.1531 I0. J-0.0204
Y1.8954 Z-0.1701 I0. J0.0204
Y1.8546 Z-0.187 I0. J-0.0204
Y1.8954 Z-0.2039 I0. J0.0204
Y1.8546 Z-0.2208 I0. J-0.0204
Y1.8954 Z-0.2378 I0. J0.0204
Y1.8546 Z-0.2547 I0. J-0.0204
Y1.8954 Z-0.2716 I0. J0.0204
X-2.5204 Y1.8753 Z-0.28 I0. J-0.0204
X-2.4796 Y1.8747 I0.0204 J-0.0003
X-2.5204 Y1.8753 I-0.0204 J0.0003
X-2.5104 Y1.8649 I0.0102 J-0.0002
G1 X-2.5028 Y1.8648
X-2.4999 Z-0.2797
X-2.497 Y1.8647 Z-0.2788
X-2.4944 Z-0.2775
X-2.4921 Z-0.2756
X-2.4903 Y1.8646 Z-0.2733
X-2.4889 Z-0.2707
X-2.488 Z-0.2678
X-2.4877 Z-0.2649
G0 Z0.4
X-1.5102 Y1.8874
Z0.13
G1 Z0.0651 F40.
G19 G2 Y1.8723 Z0.05 J-0.0151 K0.
G1 Y1.8648
G17 G3 X-1.5 Y1.8546 I0.0102 J0.
Y1.8954 Z0.0331 I0. J0.0204
Y1.8546 Z0.0161 I0. J-0.0204
Y1.8954 Z-0.0008 I0. J0.0204
Y1.8546 Z-0.0177 I0. J-0.0204
Y1.8954 Z-0.0346 I0. J0.0204
Y1.8546 Z-0.0516 I0. J-0.0204
Y1.8954 Z-0.0685 I0. J0.0204
Y1.8546 Z-0.0854 I0. J-0.0204
Y1.8954 Z-0.1023 I0. J0.0204
Y1.8546 Z-0.1193 I0. J-0.0204
Y1.8954 Z-0.1362 I0. J0.0204
Y1.8546 Z-0.1531 I0. J-0.0204
Y1.8954 Z-0.1701 I0. J0.0204
Y1.8546 Z-0.187 I0. J-0.0204
Y1.8954 Z-0.2039 I0. J0.0204
Y1.8545 Z-0.2208 I0. J-0.0204
Y1.8955 Z-0.2378 I0. J0.0205
Y1.8545 Z-0.2547 I0. J-0.0205
Y1.8955 Z-0.2716 I0. J0.0205
X-1.5204 Y1.8753 Z-0.28 I0. J-0.0205
X-1.4796 Y1.8747 I0.0204 J-0.0003
X-1.5204 Y1.8753 I-0.0204 J0.0003
X-1.5104 Y1.8649 I0.0102 J-0.0002
G1 X-1.5028 Y1.8648
X-1.4999 Z-0.2797
X-1.497 Y1.8647 Z-0.2788
X-1.4944 Z-0.2775
X-1.4921 Z-0.2756
X-1.4903 Y1.8646 Z-0.2733
X-1.4889 Z-0.2707
X-1.488 Z-0.2678
X-1.4877 Z-0.2649
G0 Z0.4
X-0.5102 Y1.8874
Z0.13
G1 Z0.0651 F40.
G19 G2 Y1.8723 Z0.05 J-0.0151 K0.
G1 Y1.8648
G17 G3 X-0.5 Y1.8546 I0.0102 J0.
Y1.8954 Z0.0331 I0. J0.0204
Y1.8546 Z0.0161 I0. J-0.0204
Y1.8954 Z-0.0008 I0. J0.0204
Y1.8546 Z-0.0177 I0. J-0.0204
Y1.8954 Z-0.0346 I0. J0.0204
Y1.8546 Z-0.0516 I0. J-0.0204
Y1.8954 Z-0.0685 I0. J0.0204
Y1.8546 Z-0.0854 I0. J-0.0204
Y1.8954 Z-0.1023 I0. J0.0204
Y1.8546 Z-0.1193 I0. J-0.0204
Y1.8954 Z-0.1362 I0. J0.0204
Y1.8546 Z-0.1531 I0. J-0.0204
Y1.8954 Z-0.1701 I0. J0.0204
Y1.8546 Z-0.187 I0. J-0.0204
Y1.8954 Z-0.2039 I0. J0.0204
Y1.8545 Z-0.2208 I0. J-0.0204
Y1.8955 Z-0.2378 I0. J0.0205
Y1.8545 Z-0.2547 I0. J-0.0205
Y1.8955 Z-0.2716 I0. J0.0205
X-0.5204 Y1.8753 Z-0.28 I0. J-0.0205
X-0.4796 Y1.8747 I0.0204 J-0.0003
X-0.5204 Y1.8753 I-0.0204 J0.0003
X-0.5104 Y1.8649 I0.0102 J-0.0002
G1 X-0.5028 Y1.8648
X-0.4999 Z-0.2797
X-0.497 Y1.8647 Z-0.2788
X-0.4944 Z-0.2775
X-0.4921 Z-0.2756
X-0.4903 Y1.8646 Z-0.2733
X-0.4889 Z-0.2707
X-0.488 Z-0.2678
X-0.4877 Z-0.2649
G0 Z0.4
X0.4898 Y1.8874
Z0.13
G1 Z0.0651 F40.
G19 G2 Y1.8723 Z0.05 J-0.0151 K0.
G1 Y1.8648
G17 G3 X0.5 Y1.8546 I0.0102 J0.
Y1.8954 Z0.0331 I0. J0.0204
Y1.8546 Z0.0161 I0. J-0.0204
Y1.8954 Z-0.0008 I0. J0.0204
Y1.8546 Z-0.0177 I0. J-0.0204
Y1.8954 Z-0.0346 I0. J0.0204
Y1.8546 Z-0.0516 I0. J-0.0204
Y1.8954 Z-0.0685 I0. J0.0204
Y1.8546 Z-0.0854 I0. J-0.0204
Y1.8954 Z-0.1023 I0. J0.0204
Y1.8546 Z-0.1193 I0. J-0.0204
Y1.8954 Z-0.1362 I0. J0.0204
Y1.8546 Z-0.1531 I0. J-0.0204
Y1.8954 Z-0.1701 I0. J0.0204
Y1.8546 Z-0.187 I0. J-0.0204
Y1.8954 Z-0.2039 I0. J0.0204
Y1.8546 Z-0.2208 I0. J-0.0204
Y1.8954 Z-0.2378 I0. J0.0204
Y1.8546 Z-0.2547 I0. J-0.0204
Y1.8954 Z-0.2716 I0. J0.0204
X0.4796 Y1.8753 Z-0.28 I0. J-0.0204
X0.5204 Y1.8747 I0.0204 J-0.0003
X0.4796 Y1.8753 I-0.0204 J0.0003
X0.4896 Y1.8649 I0.0102 J-0.0002
G1 X0.4972 Y1.8648
X0.5001 Z-0.2797
X0.503 Y1.8647 Z-0.2788
X0.5056 Z-0.2775
X0.5079 Z-0.2756
X0.5097 Y1.8646 Z-0.2733
X0.5111 Z-0.2707
X0.512 Z-0.2678
X0.5123 Z-0.2649
G0 Z0.4
X1.4898 Y1.8874
Z0.13
G1 Z0.0651 F40.
G19 G2 Y1.8723 Z0.05 J-0.0151 K0.
G1 Y1.8648
G17 G3 X1.5 Y1.8546 I0.0102 J0.
Y1.8954 Z0.0331 I0. J0.0204
Y1.8546 Z0.0161 I0. J-0.0204
Y1.8954 Z-0.0008 I0. J0.0204
Y1.8546 Z-0.0177 I0. J-0.0204
Y1.8954 Z-0.0346 I0. J0.0204
Y1.8546 Z-0.0516 I0. J-0.0204
Y1.8954 Z-0.0685 I0. J0.0204
Y1.8546 Z-0.0854 I0. J-0.0204
Y1.8954 Z-0.1023 I0. J0.0204
Y1.8546 Z-0.1193 I0. J-0.0204
Y1.8954 Z-0.1362 I0. J0.0204
Y1.8546 Z-0.1531 I0. J-0.0204
Y1.8954 Z-0.1701 I0. J0.0204
Y1.8546 Z-0.187 I0. J-0.0204
Y1.8954 Z-0.2039 I0. J0.0204
Y1.8546 Z-0.2208 I0. J-0.0204
Y1.8954 Z-0.2378 I0. J0.0204
Y1.8546 Z-0.2547 I0. J-0.0204
Y1.8954 Z-0.2716 I0. J0.0204
X1.4796 Y1.8753 Z-0.28 I0. J-0.0204
X1.5204 Y1.8747 I0.0204 J-0.0003
X1.4796 Y1.8753 I-0.0204 J0.0003
X1.4896 Y1.8649 I0.0102 J-0.0002
G1 X1.4972 Y1.8648
X1.5001 Z-0.2797
X1.503 Y1.8647 Z-0.2788
X1.5056 Z-0.2775
X1.5079 Z-0.2756
X1.5097 Y1.8646 Z-0.2733
X1.5111 Z-0.2707
X1.512 Z-0.2678
X1.5123 Z-0.2649
G0 Z0.4
X1.4898 Y3.1374
Z0.13
G1 Z0.0651 F40.
G19 G2 Y3.1223 Z0.05 J-0.0151 K0.
G1 Y3.1148
G17 G3 X1.5 Y3.1045 I0.0102 J0.
Y3.1455 Z0.0331 I0. J0.0205
Y3.1045 Z0.0161 I0. J-0.0205
Y3.1455 Z-0.0008 I0. J0.0205
Y3.1045 Z-0.0177 I0. J-0.0205
Y3.1455 Z-0.0346 I0. J0.0205
Y3.1045 Z-0.0516 I0. J-0.0205
Y3.1455 Z-0.0685 I0. J0.0205
Y3.1046 Z-0.0854 I0. J-0.0205
Y3.1454 Z-0.1023 I0. J0.0204
Y3.1046 Z-0.1193 I0. J-0.0204
Y3.1454 Z-0.1362 I0. J0.0204
Y3.1046 Z-0.1531 I0. J-0.0204
Y3.1454 Z-0.1701 I0. J0.0204
Y3.1046 Z-0.187 I0. J-0.0204
Y3.1454 Z-0.2039 I0. J0.0204
Y3.1046 Z-0.2208 I0. J-0.0204
Y3.1454 Z-0.2378 I0. J0.0204
Y3.1046 Z-0.2547 I0. J-0.0204
Y3.1454 Z-0.2716 I0. J0.0204
X1.4796 Y3.1253 Z-0.28 I0. J-0.0204
X1.5204 Y3.1247 I0.0204 J-0.0003
X1.4796 Y3.1253 I-0.0204 J0.0003
X1.4896 Y3.1149 I0.0102 J-0.0002
G1 X1.4972 Y3.1148
X1.5001 Z-0.2797
X1.503 Y3.1147 Z-0.2788
X1.5056 Z-0.2775
X1.5079 Z-0.2756
X1.5097 Y3.1146 Z-0.2733
X1.5111 Z-0.2707
X1.512 Z-0.2678
X1.5123 Z-0.2649
G0 Z0.4
X0.4898 Y3.1374
Z0.13
G1 Z0.0651 F40.
G19 G2 Y3.1223 Z0.05 J-0.0151 K0.
G1 Y3.1148
G17 G3 X0.5 Y3.1045 I0.0102 J0.
Y3.1455 Z0.0331 I0. J0.0205
Y3.1045 Z0.0161 I0. J-0.0205
Y3.1455 Z-0.0008 I0. J0.0205
Y3.1045 Z-0.0177 I0. J-0.0205
Y3.1455 Z-0.0346 I0. J0.0205
Y3.1045 Z-0.0516 I0. J-0.0205
Y3.1455 Z-0.0685 I0. J0.0205
Y3.1045 Z-0.0854 I0. J-0.0205
Y3.1455 Z-0.1023 I0. J0.0205
Y3.1045 Z-0.1193 I0. J-0.0205
Y3.1455 Z-0.1362 I0. J0.0205
Y3.1045 Z-0.1531 I0. J-0.0205
Y3.1455 Z-0.1701 I0. J0.0205
Y3.1045 Z-0.187 I0. J-0.0205
Y3.1455 Z-0.2039 I0. J0.0205
Y3.1045 Z-0.2208 I0. J-0.0205
Y3.1454 Z-0.2378 I0. J0.0205
Y3.1046 Z-0.2547 I0. J-0.0204
Y3.1454 Z-0.2716 I0. J0.0204
X0.4796 Y3.1253 Z-0.28 I0. J-0.0204
X0.5204 Y3.1247 I0.0204 J-0.0003
X0.4796 Y3.1253 I-0.0204 J0.0003
X0.4896 Y3.1149 I0.0102 J-0.0002
G1 X0.4972 Y3.1148
X0.5001 Z-0.2797
X0.503 Y3.1147 Z-0.2788
X0.5056 Z-0.2775
X0.5079 Z-0.2756
X0.5097 Y3.1146 Z-0.2733
X0.5111 Z-0.2707
X0.512 Z-0.2678
X0.5123 Z-0.2649
G0 Z0.4
X-1.075 Y3.125
Z0.1149
G1 Z0.05 F40.
X-1.077 Y3.127
G3 X-1.079 Y3.125 I0. J-0.002
X-1.071 Z0.036 I0.004 J0.
X-1.079 Z0.022 I-0.004 J0.
X-1.071 Z0.0079 I0.004 J0.
X-1.079 Z-0.0061 I-0.004 J0.
X-1.071 Z-0.0201 I0.004 J0.
X-1.079 Z-0.0341 I-0.004 J0.
X-1.071 Z-0.0481 I0.004 J0.
X-1.079 Z-0.0621 I-0.004 J0.
X-1.071 Z-0.0762 I0.004 J0.
X-1.079 Z-0.0902 I-0.004 J0.
X-1.071 Z-0.1042 I0.004 J0.
X-1.079 Z-0.1182 I-0.004 J0.
X-1.071 Z-0.1322 I0.004 J0.
X-1.079 Z-0.1463 I-0.004 J0.
X-1.071 Z-0.1603 I0.004 J0.
X-1.079 Z-0.1743 I-0.004 J0.
X-1.071 Z-0.1883 I0.004 J0.
X-1.079 Z-0.2023 I-0.004 J0.
X-1.071 Z-0.2163 I0.004 J0.
X-1.079 Z-0.2304 I-0.004 J0.
X-1.071 Z-0.2444 I0.004 J0.
X-1.079 Z-0.2584 I-0.004 J0.
X-1.071 Z-0.2724 I0.004 J0.
X-1.0755 Y3.1289 Z-0.28 I-0.004 J0.
X-1.0745 Y3.1211 I0.0005 J-0.0039
X-1.0755 Y3.1289 I-0.0005 J0.0039
X-1.0772 Y3.1267 I0.0003 J-0.002
G1 X-1.075 Y3.125
G0 Z0.6
(SHAPE THROUGH HOLE)
M7
G0 X-9.5902 Y5.1976
Z0.6
Z0.1
G3 X-9.732 Y5.2194 Z0.0602 I-0.0709 J0.0109 F50.
X-9.5902 Y5.1976 Z0.0205 I0.0709 J-0.0109
X-9.732 Y5.2194 Z-0.0193 I-0.0709 J0.0109
X-9.5902 Y5.1976 Z-0.059 I0.0709 J-0.0109
X-9.732 Y5.2194 Z-0.0988 I-0.0709 J0.0109
X-9.5902 Y5.1976 Z-0.1385 I0.0709 J-0.0109
X-9.732 Y5.2194 Z-0.1783 I-0.0709 J0.0109
X-9.6666 Y5.1369 Z-0.1992 I0.0709 J-0.0109
X-9.5893 Y5.2085 Z-0.22 I0.0055 J0.0716
X-9.7329 I-0.0718 J0.
X-9.5893 I0.0718 J0.
X-9.7207 Y5.3462 I-0.0763 J0.0588 F60.
G1 X-9.7438 Y5.255
X-9.7541 Y5.2124
X-9.7642 Y5.1724
X-9.7647 Y5.1642
X-9.7646 Y5.156
X-9.7639 Y5.1478
X-9.7625 Y5.1396
X-9.7606 Y5.1316
X-9.7581 Y5.1238
X-9.7549 Y5.1161
X-9.7512 Y5.1088
X-9.747 Y5.1017
X-9.7422 Y5.095
X-9.737 Y5.0886
X-9.7313 Y5.0827
X-9.7251 Y5.0772
X-9.7185 Y5.0722
X-9.7116 Y5.0677
X-9.7044 Y5.0637
X-9.6969 Y5.0603
X-9.6892 Y5.0575
X-9.6812 Y5.0552
X-9.6731 Y5.0536
X-9.665 Y5.0526
X-9.6567 Y5.0522
X-9.6485 Y5.0524
X-9.6403 Y5.0533
X-9.6322 Y5.0547
X-9.6242 Y5.0568
X-9.6164 Y5.0595
X-9.6088 Y5.0627
X-9.6015 Y5.0665
X-9.5945 Y5.0709
X-9.5346 Y5.3144
X-9.5345 Y5.3231
X-9.535 Y5.3318
X-9.5361 Y5.3404
X-9.5378 Y5.3489
X-9.54 Y5.3573
X-9.5428 Y5.3656
X-9.5461 Y5.3736
X-9.55 Y5.3814
X-9.5544 Y5.3889
X-9.5593 Y5.396
X-9.5647 Y5.4029
X-9.5705 Y5.4094
X-9.5767 Y5.4154
X-9.5834 Y5.421
X-9.5904 Y5.4262
X-9.5977 Y5.4309
X-9.6053 Y5.435
X-9.6132 Y5.4387
X-9.6213 Y5.4418
X-9.6296 Y5.4443
X-9.6381 Y5.4463
X-9.6467 Y5.4477
X-9.6553 Y5.4485
X-9.664 Y5.4488
X-9.6727 Y5.4484
X-9.6814 Y5.4475
X-9.6899 Y5.446
X-9.6983 Y5.4439
X-9.7076 Y5.4008
X-9.7091 Y5.3947
X-9.7212 Y5.347
G3 X-9.7165 Y5.3326 I0.0148 J-0.0031
X-9.6704 Y5.3453 I0.019 J0.0212
X-9.6828 Y5.4163 I-0.0752 J0.0234
X-9.693 Y5.4274 I-0.0628 J-0.0475 F50.
G2 X-9.6977 Y5.4418 I0.0101 J0.0113
G1 X-9.6932 Y5.4602 F60.
G2 X-9.4997 Y5.4563 I0.0956 J-0.0613
G1 X-9.5148 Y5.3947
X-9.5261 Y5.3481
X-9.5346 Y5.3144
G2 X-9.5455 Y5.3039 I-0.0145 J0.0042
X-9.5975 Y5.353 I-0.0102 J0.0413
X-9.5248 Y5.4412 I0.1161 J-0.0216
X-9.5105 Y5.4459 I0.0434 J-0.1098 F50.
G3 X-9.4997 Y5.4564 I-0.0037 J0.0146
G1 X-9.4927 Y5.4847 F60.
X-9.4933 Y5.493
X-9.4946 Y5.5013
X-9.4964 Y5.5095
X-9.4988 Y5.5175
X-9.5017 Y5.5253
X-9.5052 Y5.5329
X-9.5092 Y5.5403
X-9.5137 Y5.5473
X-9.5187 Y5.554
X-9.5242 Y5.5604
X-9.5301 Y5.5663
X-9.5363 Y5.5718
X-9.543 Y5.5769
X-9.55 Y5.5815
X-9.5573 Y5.5856
X-9.5648 Y5.5891
X-9.5726 Y5.5922
X-9.5806 Y5.5946
X-9.5888 Y5.5966
X-9.597 Y5.5979
X-9.6053 Y5.5986
X-9.6137 Y5.5988
X-9.6221 Y5.5984
X-9.6304 Y5.5974
X-9.6386 Y5.5958
X-9.6467 Y5.5937
X-9.6546 Y5.5909
X-9.6623 Y5.5877
X-9.6632 Y5.5808
X-9.675 Y5.5343
X-9.6932 Y5.4602
G3 X-9.6885 Y5.4458 I0.0148 J-0.0031
X-9.673 Y5.4439 I0.0092 J0.0102
X-9.6468 Y5.5611 I-0.0366 J0.0697
X-9.657 Y5.5722 I-0.0628 J-0.0476 F50.
G2 X-9.6618 Y5.5866 I0.0101 J0.0113
G1 X-9.6565 Y5.6083 F60.
G2 X-9.46 Y5.6158 I0.1006 J-0.0562
G1 X-9.4689 Y5.5808
X-9.4802 Y5.5343
X-9.4927 Y5.4847
G2 X-9.5204 Y5.4815 I-0.0145 J0.0041
X-9.5274 Y5.5155 I0.0504 J0.0282
X-9.4834 Y5.596 I0.1175 J-0.0121
X-9.4676 Y5.6065 I0.0734 J-0.0925 F50.
G3 X-9.4604 Y5.6156 I-0.0074 J0.0132
G1 X-9.4543 Y5.6401 F60.
G3 X-9.6245 Y5.7403 I-0.1168 J-0.0038
G1 X-9.6291 Y5.7204
X-9.652 Y5.6273
X-9.6565 Y5.6083
G3 X-9.6334 Y5.5927 I0.0148 J-0.003
X-9.6147 Y5.6144 I-0.0293 J0.0442
X-9.6132 Y5.7115 I-0.1069 J0.0501
X-9.6222 Y5.7283 I-0.1084 J-0.0469 F50.
G2 X-9.6242 Y5.7397 I0.0127 J0.0082
G1 X-9.6172 Y5.767 F60.
X-9.6124 Y5.774
X-9.607 Y5.7807
X-9.6012 Y5.787
X-9.5949 Y5.7928
X-9.5883 Y5.7982
X-9.5812 Y5.8031
X-9.5739 Y5.8075
X-9.5662 Y5.8113
X-9.5583 Y5.8145
X-9.5501 Y5.8172
X-9.5418 Y5.8193
X-9.5334 Y5.8207
X-9.5248 Y5.8216
X-9.5163 Y5.8218
X-9.5077 Y5.8214
X-9.4992 Y5.8204
X-9.4908 Y5.8188
X-9.4825 Y5.8166
X-9.4744 Y5.8138
X-9.4666 Y5.8104
X-9.459 Y5.8064
X-9.4517 Y5.8019
X-9.4447 Y5.7969
X-9.4381 Y5.7914
X-9.432 Y5.7855
X-9.4263 Y5.7791
X-9.4211 Y5.7723
G3 X-9.4543 Y5.6401 I19.2983 J-4.9321
G2 X-9.473 Y5.6297 I-0.0145 J0.0041
X-9.4891 Y5.6492 I0.0061 J0.0214
X-9.4449 Y5.752 I0.1177 J0.0103
X-9.429 Y5.7626 I0.0734 J-0.0925 F50.
G3 X-9.4219 Y5.7717 I-0.0074 J0.0132
G1 X-9.415 Y5.7996 F60.
X-9.4161 Y5.8081
X-9.4177 Y5.8165
X-9.42 Y5.8248
X-9.4228 Y5.8329
X-9.4262 Y5.8407
X-9.4302 Y5.8483
X-9.4347 Y5.8556
X-9.4398 Y5.8625
X-9.4453 Y5.8691
X-9.4513 Y5.8752
X-9.4577 Y5.8809
X-9.4645 Y5.8861
X-9.4716 Y5.8908
X-9.4791 Y5.895
X-9.4869 Y5.8986
X-9.4949 Y5.9016
X-9.5031 Y5.9041
X-9.5115 Y5.906
X-9.5199 Y5.9072
X-9.5285 Y5.9079
X-9.537
X-9.5456 Y5.9073
X-9.5541 Y5.9061
X-9.5624 Y5.9043
X-9.5707 Y5.9019
X-9.5787 Y5.8989
X-9.5865 Y5.8953
X-9.6061 Y5.8135
X-9.6146 Y5.7777
X-9.6172 Y5.767
G3 X-9.6125 Y5.7526 I0.0148 J-0.0031
X-9.5997 Y5.7508 I0.0078 J0.0087
G1 X-9.5984 Y5.7514
G3 X-9.5712 Y5.8693 I-0.0355 J0.0703
X-9.5814 Y5.8803 I-0.0628 J-0.0476 F50.
G2 X-9.5862 Y5.8947 I0.0101 J0.0113
G1 X-9.5832 Y5.9066 F60.
X-9.58 Y5.9194
G2 X-9.3829 Y5.9272 I0.1011 J-0.0592
G1 X-9.3883 Y5.9066
X-9.4002 Y5.86
X-9.415 Y5.7996
G2 X-9.4258 Y5.7891 I-0.0145 J0.0041
X-9.4378 Y5.7933 I-0.0028 J0.011
G1 X-9.4388 Y5.7947
G2 X-9.4084 Y5.911 I0.0644 J0.0453
X-9.3942 Y5.9162 I0.034 J-0.071 F50.
G3 X-9.3835 Y5.9268 I-0.0038 J0.0146
G1 X-9.3772 Y5.9531 F60.
X-9.378 Y5.9614
X-9.3794 Y5.9696
X-9.3814 Y5.9777
X-9.3839 Y5.9856
X-9.387 Y5.9933
X-9.3907 Y6.0008
X-9.3949 Y6.008
X-9.3995 Y6.0149
X-9.4047 Y6.0215
X-9.4102 Y6.0276
X-9.4162 Y6.0334
X-9.4226 Y6.0387
X-9.4294 Y6.0436
X-9.4365 Y6.0479
X-9.4439 Y6.0518
X-9.4515 Y6.0551
X-9.4593 Y6.0579
X-9.4674 Y6.0601
X-9.4755 Y6.0618
X-9.4838 Y6.0628
X-9.4921 Y6.0633
X-9.5004 Y6.0632
X-9.5087 Y6.0625
X-9.5169 Y6.0612
X-9.525 Y6.0594
X-9.533 Y6.057
X-9.5408 Y6.054
X-9.5483 Y6.0505
G2 X-9.58 Y5.9194 I-3.9218 J0.8771
G3 X-9.5571 Y5.9034 I0.0148 J-0.0032
X-9.5343 Y5.9314 I-0.0311 J0.0486
X-9.5367 Y6.0216 I-0.1103 J0.0422
X-9.5458 Y6.0383 I-0.1079 J-0.048 F50.
G2 X-9.5479 Y6.0497 I0.0126 J0.0083
G1 X-9.5409 Y6.0781 F60.
X-9.536 Y6.0851
X-9.5306 Y6.0918
X-9.5248 Y6.098
X-9.5184 Y6.1038
X-9.5117 Y6.1091
X-9.5047 Y6.114
X-9.4973 Y6.1183
X-9.4896 Y6.122
X-9.4816 Y6.1252
X-9.4735 Y6.1279
X-9.4651 Y6.1299
X-9.4567 Y6.1313
X-9.4481 Y6.1321
X-9.4396 Y6.1323
X-9.431 Y6.1319
X-9.4225 Y6.1308
X-9.4141 Y6.1292
X-9.4058 Y6.1269
X-9.3978 Y6.124
X-9.3899 Y6.1206
X-9.3823 Y6.1166
X-9.375 Y6.1121
X-9.3681 Y6.1071
X-9.3616 Y6.1015
X-9.3554 Y6.0956
X-9.3497 Y6.0892
X-9.3445 Y6.0824
X-9.3543 Y6.0462
X-9.3772 Y5.9531
G2 X-9.388 Y5.9426 I-0.0145 J0.0041
X-9.3994 Y5.9465 I-0.0027 J0.0107
G1 X-9.4008 Y5.9484
G2 X-9.3703 Y6.0666 I0.0634 J0.0467
X-9.356 Y6.0715 I0.0329 J-0.0715 F50.
G3 X-9.3451 Y6.082 I-0.0036 J0.0147
G1 X-9.3424 Y6.0927 F60.
X-9.339 Y6.1067
G3 X-9.5099 Y6.2057 I-0.1171 J-0.0051
G2 X-9.5409 Y6.0781 I-2.9814 J0.657
G3 X-9.5362 Y6.0637 I0.0148 J-0.0031
X-9.5221 Y6.0616 I0.0087 J0.0097
X-9.4946 Y6.1796 I-0.0353 J0.0704
X-9.5049 Y6.1907 I-0.0628 J-0.0476 F50.
G2 X-9.5096 Y6.205 I0.0101 J0.0113
G1 X-9.5029 Y6.2323 F60.
X-9.498 Y6.2394
X-9.4927 Y6.2462
X-9.4869 Y6.2525
X-9.4806 Y6.2584
X-9.474 Y6.2638
X-9.4669 Y6.2687
X-9.4595 Y6.2731
X-9.4519 Y6.2769
X-9.4439 Y6.2802
X-9.4358 Y6.2829
X-9.4275 Y6.285
X-9.419 Y6.2865
X-9.4105 Y6.2874
X-9.4019 Y6.2877
X-9.3933 Y6.2873
X-9.3848 Y6.2864
X-9.3763 Y6.2848
X-9.368 Y6.2826
X-9.3599 Y6.2798
X-9.352 Y6.2764
X-9.3444 Y6.2725
X-9.337 Y6.268
X-9.3301 Y6.263
X-9.3234 Y6.2575
X-9.3173 Y6.2515
X-9.3115 Y6.2452
X-9.3062 Y6.2384
X-9.3313 Y6.1393
X-9.339 Y6.1067
G2 X-9.3576 Y6.0961 I-0.0146 J0.004
X-9.3742 Y6.1161 I0.006 J0.0219
X-9.33 Y6.2181 I0.1177 J0.0095
X-9.3142 Y6.2287 I0.0735 J-0.0924 F50.
G3 X-9.3071 Y6.2378 I-0.0074 J0.0132
G1 X-9.3004 Y6.2652 F60.
X-9.3014 Y6.2737
X-9.3031 Y6.2821
X-9.3053 Y6.2904
X-9.3082 Y6.2985
X-9.3116 Y6.3064
X-9.3156 Y6.314
X-9.3201 Y6.3213
X-9.3251 Y6.3283
X-9.3306 Y6.3348
X-9.3366 Y6.341
X-9.343 Y6.3467
X-9.3498 Y6.3519
X-9.357 Y6.3567
X-9.3645 Y6.3609
X-9.3723 Y6.3645
X-9.3803 Y6.3676
X-9.3885 Y6.3701
X-9.3969 Y6.372
X-9.4054 Y6.3733
X-9.4139 Y6.3739
X-9.4225 Y6.374
X-9.4311 Y6.3734
X-9.4396 Y6.3722
X-9.448 Y6.3704
X-9.4562 Y6.368
X-9.4642 Y6.365
X-9.4721 Y6.3614
X-9.4801 Y6.3254
X-9.5029 Y6.2323
G3 X-9.4982 Y6.218 I0.0148 J-0.0031
X-9.4856 Y6.2162 I0.0077 J0.0086
G1 X-9.4841 Y6.2169
G3 X-9.4566 Y6.3351 I-0.0351 J0.0705
X-9.4668 Y6.3462 I-0.0626 J-0.0477 F50.
G2 X-9.4716 Y6.3605 I0.0101 J0.0113
G1 X-9.4688 Y6.3719 F60.
X-9.4656 Y6.3847
G2 X-9.2683 Y6.3931 I0.1013 J-0.0585
G3 X-9.3004 Y6.2652 I4.5388 J-1.208
G2 X-9.3112 Y6.2547 I-0.0145 J0.0041
X-9.3236 Y6.2591 I-0.0029 J0.0114
G1 X-9.3243 Y6.26
G2 X-9.2939 Y6.377 I0.064 J0.0458
X-9.2797 Y6.3821 I0.0336 J-0.0712 F50.
G3 X-9.2688 Y6.3927 I-0.0037 J0.0146
G1 X-9.2625 Y6.4185 F60.
G3 X-9.4336 Y6.5163 I-0.1174 J-0.0069
G1 X-9.4456 Y6.465
X-9.457 Y6.4185
X-9.4656 Y6.3847
G3 X-9.4426 Y6.3688 I0.0148 J-0.0032
X-9.4189 Y6.3984 I-0.0323 J0.0502
X-9.4219 Y6.4875 I-0.1108 J0.0408
X-9.4311 Y6.5042 I-0.1078 J-0.0482 F50.
G2 X-9.4333 Y6.5155 I0.0126 J0.0083
G1 X-9.4269 Y6.5415 F60.
G2 X-9.2299 Y6.5484 I0.1008 J-0.061
G3 X-9.2625 Y6.4185 I3.0428 J-0.8329
G2 X-9.2733 Y6.408 I-0.0145 J0.0041
X-9.2841 Y6.4115 I-0.0026 J0.0102
G1 X-9.286 Y6.414
G2 X-9.2558 Y6.5325 I0.0632 J0.047
X-9.2415 Y6.5375 I0.033 J-0.0715 F50.
G3 X-9.2306 Y6.5479 I-0.0036 J0.0147
G1 X-9.228 Y6.5581 F60.
X-9.2249 Y6.5709
X-9.2254 Y6.5793
X-9.2265 Y6.5877
X-9.2282 Y6.596
X-9.2305 Y6.6041
X-9.2334 Y6.612
X-9.2368 Y6.6197
X-9.2408 Y6.6271
X-9.2454 Y6.6343
X-9.2504 Y6.641
X-9.2559 Y6.6474
X-9.2619 Y6.6534
X-9.2682 Y6.6589
X-9.275 Y6.664
X-9.2821 Y6.6685
X-9.2895 Y6.6725
X-9.2972 Y6.676
X-9.3051 Y6.6789
X-9.3133 Y6.6812
X-9.3215 Y6.683
X-9.3299 Y6.6841
X-9.3383 Y6.6846
X-9.3467 Y6.6845
X-9.3551 Y6.6838
X-9.3635 Y6.6825
X-9.3717 Y6.6806
X-9.3798 Y6.6781
X-9.3876 Y6.675
X-9.3952 Y6.6713
X-9.4111 Y6.6046
X-9.4229 Y6.5581
X-9.4269 Y6.5415
G3 X-9.4222 Y6.5272 I0.0148 J-0.003
X-9.4113 Y6.5254 I0.0068 J0.0076
G1 X-9.4082 Y6.5269
G3 X-9.3799 Y6.6453 I-0.0345 J0.0708
X-9.3902 Y6.6564 I-0.0627 J-0.0476 F50.
G2 X-9.3949 Y6.6708 I0.0101 J0.0113
G1 X-9.3883 Y6.6977 F60.
X-9.3835 Y6.7048
X-9.3782 Y6.7116
X-9.3724 Y6.718
X-9.3662 Y6.7239
X-9.3595 Y6.7293
X-9.3525 Y6.7343
X-9.3451 Y6.7387
X-9.3374 Y6.7426
X-9.3295 Y6.7459
X-9.3214 Y6.7486
X-9.313 Y6.7508
X-9.3046 Y6.7523
X-9.296 Y6.7532
X-9.2874 Y6.7534
X-9.2788 Y6.7531
X-9.2703 Y6.7521
X-9.2618 Y6.7505
X-9.2535 Y6.7483
X-9.2454 Y6.7455
X-9.2375 Y6.7421
X-9.2298 Y6.7382
X-9.2225 Y6.7337
X-9.2155 Y6.7287
X-9.2089 Y6.7232
X-9.2027 Y6.7172
X-9.197 Y6.7108
X-9.1917 Y6.704
G3 X-9.2249 Y6.5709 I1.3699 J-0.4121
G2 X-9.2435 Y6.5605 I-0.0145 J0.0041
X-9.2609 Y6.5816 I0.0065 J0.023
X-9.2157 Y6.6839 I0.1178 J0.0091
X-9.1998 Y6.6944 I0.0726 J-0.0932 F50.
G3 X-9.1926 Y6.7034 I-0.0073 J0.0133
G1 X-9.1856 Y6.7307 F60.
X-9.1866 Y6.7392
X-9.1882 Y6.7476
X-9.1905 Y6.7559
X-9.1933 Y6.764
X-9.1967 Y6.7719
X-9.2006 Y6.7795
X-9.2051 Y6.7868
X-9.2101 Y6.7938
X-9.2156 Y6.8004
X-9.2216 Y6.8066
X-9.228 Y6.8123
X-9.2348 Y6.8175
X-9.242 Y6.8223
X-9.2494 Y6.8265
X-9.2572 Y6.8302
X-9.2652 Y6.8332
X-9.2734 Y6.8358
X-9.2818 Y6.8377
X-9.2903 Y6.839
X-9.2988 Y6.8396
X-9.3074 Y6.8397
X-9.316 Y6.8391
X-9.3245 Y6.838
X-9.3329 Y6.8362
X-9.3411 Y6.8338
X-9.3492 Y6.8308
X-9.357 Y6.8272
X-9.3652 Y6.7908
X-9.377 Y6.7442
X-9.3883 Y6.6977
G3 X-9.3836 Y6.6834 I0.0148 J-0.0031
X-9.3718 Y6.6816 I0.0073 J0.0082
G1 X-9.3695 Y6.6826
G3 X-9.3416 Y6.8009 I-0.0348 J0.0706
X-9.3518 Y6.812 I-0.0627 J-0.0476 F50.
G2 X-9.3565 Y6.8263 I0.0101 J0.0113
G1 X-9.3507 Y6.8501 F60.
G2 X-9.1537 Y6.859 I0.1013 J-0.0578
G1 X-9.1856 Y6.7307
G2 X-9.1965 Y6.7202 I-0.0145 J0.0042
X-9.2082 Y6.7244 I-0.0027 J0.011
G1 X-9.2094 Y6.726
G2 X-9.1792 Y6.8429 I0.064 J0.0458
X-9.1651 Y6.848 I0.0339 J-0.0711 F50.
G3 X-9.1543 Y6.8586 I-0.0038 J0.0146
G1 X-9.1498 Y6.8772 F60.
X-9.1481 Y6.8839
G3 X-9.3187 Y6.9818 I-0.1169 J-0.006
G1 X-9.3193 Y6.9769
X-9.3311 Y6.9304
X-9.3507 Y6.8501
G3 X-9.3276 Y6.8344 I0.0148 J-0.0031
X-9.3044 Y6.8634 I-0.0329 J0.0501
X-9.307 Y6.9531 I-0.1105 J0.0416
X-9.3161 Y6.9698 I-0.1079 J-0.048 F50.
G2 X-9.3183 Y6.9811 I0.0126 J0.0083
G1 X-9.3114 Y7.0094 F60.
X-9.3065 Y7.0164
X-9.3011 Y7.0231
X-9.2953 Y7.0293
X-9.289 Y7.0351
X-9.2823 Y7.0404
X-9.2753 Y7.0453
X-9.2679 Y7.0496
X-9.2602 Y7.0534
X-9.2523 Y7.0566
X-9.2441 Y7.0592
X-9.2358 Y7.0613
X-9.2274 Y7.0627
X-9.2189 Y7.0635
X-9.2103 Y7.0637
X-9.2018 Y7.0633
X-9.1933 Y7.0623
X-9.1849 Y7.0606
X-9.1767 Y7.0584
X-9.1686 Y7.0555
X-9.1607 Y7.0521
X-9.1532 Y7.0482
X-9.1459 Y7.0437
X-9.139 Y7.0387
X-9.1324 Y7.0331
X-9.1263 Y7.0272
X-9.1206 Y7.0208
X-9.1154 Y7.014
X-9.1306 Y6.9537
X-9.1363 Y6.9304
X-9.1481 Y6.8839
G2 X-9.1626 Y6.873 I-0.0145 J0.0042
X-9.1759 Y6.8809 I0. J0.0151
X-9.1826 Y6.9151 I0.0505 J0.0276
X-9.1389 Y6.9939 I0.1173 J-0.0135
X-9.1231 Y7.0045 I0.0736 J-0.0923 F50.
G3 X-9.1159 Y7.0136 I-0.0074 J0.0132
G1 X-9.1096 Y7.0398 F60.
G3 X-9.2806 Y7.1372 I-0.1175 J-0.0075
G1 X-9.2852 Y7.1165
X-9.3114 Y7.0094
G3 X-9.3067 Y6.995 I0.0148 J-0.0031
X-9.2936 Y6.9933 I0.0078 J0.0088
G1 X-9.2926 Y6.9938
G3 X-9.2654 Y7.1109 I-0.036 J0.07
X-9.2756 Y7.1221 I-0.0631 J-0.0471 F50.
G2 X-9.2802 Y7.1365 I0.0102 J0.0112
G1 X-9.2734 Y7.1631 F60.
G2 X-9.0862 Y7.1796 I0.1003 J-0.0671
X-9.1096 Y7.0398 I-0.4036 J-0.0043
X-9.1204 Y7.0292 I-0.0146 J0.0041
X-9.1403 Y7.044 I-0.004 J0.0154
X-9.1011 Y7.1543 I0.1574 J0.0062
X-9.0906 Y7.1652 I0.1182 J-0.1041 F50.
G3 X-9.0862 Y7.1796 I-0.0103 J0.011
X-9.2711 Y7.1631 I-0.0917 J-0.0161 F60.
G1 X-9.2716 Y7.1607
X-9.2718 Y7.1582
X-9.2714 Y7.1557
X-9.2706 Y7.1533
X-9.2693 Y7.151
X-9.2676 Y7.149
X-9.2655 Y7.1473
X-9.263 Y7.1461
X-9.2604 Y7.1453
X-9.2576 Y7.145
X-9.2548 Y7.1453
X-9.2519 Y7.1461 Z-0.2197
X-9.2492 Y7.1468 Z-0.2188
X-9.2467 Y7.1475 Z-0.2175
X-9.2444 Y7.1481 Z-0.2156
X-9.2426 Y7.1486 Z-0.2133
X-9.2413 Y7.1489 Z-0.2107
X-9.2404 Y7.1491 Z-0.2078
X-9.2402 Y7.1492 Z-0.2049
G0 Z-0.1898
X-9.7378 Y5.2098
G1 Z-0.2049 F50.
X-9.738 Y5.2096 Z-0.2078
X-9.7386 Y5.209 Z-0.2107
X-9.7396 Y5.208 Z-0.2133
X-9.7409 Y5.2066 Z-0.2156
X-9.7425 Y5.205 Z-0.2175
X-9.7444 Y5.2032 Z-0.2188
X-9.7464 Y5.2012 Z-0.2197
X-9.7484 Y5.1991 Z-0.22
G3 X-9.7642 Y5.1724 I0.0441 J-0.044
G1 X-9.7668 Y5.162 F60.
X-9.7782 Y5.1154
X-9.7827 Y5.1026
G3 X-9.6234 Y4.9702 I0.1257 J-0.0109
G1 X-9.619 Y4.9758
X-9.6066 Y5.0224
X-9.5946 Y5.0711
G3 X-9.5993 Y5.0854 I-0.0148 J0.0031
X-9.6227 Y5.0803 I-0.0098 J-0.011
X-9.6272 Y4.9993 I0.1086 J-0.0465
X-9.6218 Y4.9852 I0.113 J0.0344 F50.
G2 X-9.6234 Y4.9702 I-0.0138 J-0.0062
G1 X-9.648 Y4.9382 F60.
X-9.6523 Y4.9332
X-9.6598 Y4.9266
X-9.6674 Y4.9216
X-9.6708 Y4.9197
G2 X-9.8636 Y5.0251 I-0.0507 J0.1364
G1 X-9.847 Y5.0338
X-9.8168 Y5.0532
G2 X-9.8018 Y5.0534 I0.0077 J-0.013
X-9.7995 Y5.0295 I-0.0071 J-0.0127
X-9.8307 Y5.0207 I-0.0253 J0.0302
X-9.8448 Y5.0258 I0.0059 J0.0389 F50.
G3 X-9.8599 Y5.0259 I-0.0077 J-0.013
G1 X-9.8734 Y5.0177 F60.
G3 X-9.8016 Y4.8409 I0.0888 J-0.0669
X-9.6708 Y4.9197 I-19.6625 J32.8344
X-9.6813 Y4.9475 I-0.0077 J0.013
G1 X-9.7002 Y4.9439
G3 X-9.6974 Y4.9139 I0.0028 J-0.0148
X-9.6674 Y4.9216 I-0.0001 J0.0623 F50.
G1 X-9.6611 Y4.9254 F60.
X-9.6549 Y4.9293
X-9.648 Y4.9382
G3 X-9.6465 Y4.9532 I-0.0123 J0.0088
X-9.6851 Y4.9763 I-0.0358 J-0.0161
X-9.7944 Y4.8686 I0.0084 J-0.1178
G1 X-9.7948 Y4.8585 F50.
X-9.7947 Y4.8535
G2 X-9.8017 Y4.8401 I-0.0151 J-0.0006
G1 X-9.8084 Y4.8362 F60.
X-9.8277 Y4.8247
X-9.8359 Y4.8226
X-9.8443 Y4.821
X-9.8527 Y4.82
X-9.8612 Y4.8196
X-9.8696 Y4.8198
X-9.8781 Y4.8206
X-9.8864 Y4.822
X-9.8947 Y4.824
X-9.9028 Y4.8265
X-9.9107 Y4.8296
X-9.9183 Y4.8333
X-9.9257 Y4.8374
X-9.9328 Y4.8421
X-9.9395 Y4.8473
X-9.9458 Y4.8529
X-9.9517 Y4.859
X-9.9572 Y4.8655
X-9.9622 Y4.8723
X-9.9668 Y4.8795
X-9.9708 Y4.8869
X-9.9743 Y4.8947
X-9.9772 Y4.9026
X-9.9796 Y4.9108
X-9.9813 Y4.919
X-9.9825 Y4.9274
X-9.9831 Y4.9359
X-9.9832 Y4.9444
X-9.9826 Y4.9528
X-9.9432 Y4.9758
X-9.8935 Y5.0055
X-9.8734 Y5.0177
G2 X-9.8583 Y5.0175 I0.0074 J-0.0132
X-9.8506 Y4.9978 I-0.0088 J-0.0148
X-9.9524 Y4.9461 I-0.0754 J0.0225
X-9.9661 Y4.9525 I0.0264 J0.0742 F50.
G3 X-9.9812 Y4.9527 I-0.0077 J-0.013
G1 X-9.9865 Y4.9494 F60.
X-10.0035 Y4.9394
X-10.0087 Y4.9326
X-10.0134 Y4.9254
X-10.0176 Y4.918
X-10.0212 Y4.9102
X-10.0242 Y4.9022
X-10.0267 Y4.894
X-10.0285 Y4.8857
X-10.0297 Y4.8772
X-10.0303 Y4.8687
Y4.8602
X-10.0297 Y4.8516
X-10.0284 Y4.8432
X-10.0265 Y4.8348
X-10.0241 Y4.8266
X-10.021 Y4.8187
X-10.0173 Y4.8109
X-10.0131 Y4.8035
X-10.0084 Y4.7964
X-10.0032 Y4.7896
X-9.9975 Y4.7832
X-9.9913 Y4.7773
X-9.9847 Y4.7719
X-9.9778 Y4.7669
X-9.9704 Y4.7625
X-9.9628 Y4.7586
X-9.955 Y4.7552
X-9.9469 Y4.7525
X-9.8277 Y4.8247
G3 X-9.8327 Y4.8522 I-0.0082 J0.0127
X-9.8679 Y4.8493 I-0.0129 J-0.0593
X-9.9349 Y4.7811 I0.0435 J-0.1098
X-9.9402 Y4.7629 I0.1105 J-0.0416 F50.
G2 X-9.9466 Y4.7533 I-0.0148 J0.003
G1 X-9.9695 Y4.7392 F60.
G2 X-10.1158 Y4.8719 I-0.0299 J0.114
G1 X-10.0969 Y4.8827
X-10.033 Y4.9218
X-10.0035 Y4.9394
G2 X-9.9884 Y4.939 I0.0073 J-0.0133
X-9.9821 Y4.9262 I-0.0069 J-0.0113
G1 X-9.9835 Y4.9195
X-9.9856 Y4.9129
X-9.9881 Y4.9065
X-9.9913 Y4.9004
X-9.9949 Y4.8946
X-9.9991 Y4.8891
X-10.0037 Y4.884
X-10.0087 Y4.8794
X-10.0141 Y4.8751
X-10.0199 Y4.8714
X-10.026 Y4.8682
X-10.0323 Y4.8655
X-10.0388 Y4.8634
X-10.0455 Y4.8619
X-10.0523 Y4.861
X-10.0592 Y4.8606
X-10.0661 Y4.8609
X-10.0729 Y4.8617
X-10.0796 Y4.8632
X-10.0862 Y4.8652
G2 X-10.0998 Y4.8716 I0.0265 J0.0742 F50.
G3 X-10.1149 Y4.8718 I-0.0077 J-0.013
G1 X-10.1259 Y4.8651 F60.
X-10.1345 Y4.86
G3 X-10.0846 Y4.6693 I0.0832 J-0.0801
X-9.9695 Y4.7392 I-9.0504 J15.0356
X-9.9652 Y4.7601 I-0.0083 J0.0126
X-9.9918 Y4.7703 I-0.0204 J-0.0135
X-10.0727 Y4.6977 I0.0295 J-0.1144
X-10.078 Y4.6794 I0.1105 J-0.0417 F50.
G2 X-10.0845 Y4.6698 I-0.0148 J0.003
G1 X-10.1059 Y4.6566 F60.
G2 X-10.2514 Y4.7904 I-0.0307 J0.1127
G1 X-10.2189 Y4.809
X-10.1744 Y4.8362
X-10.1345 Y4.86
G2 X-10.114 Y4.854 I0.0073 J-0.0132
X-10.1169 Y4.827 I-0.0208 J-0.0114
X-10.2206 Y4.7875 I-0.0889 J0.0777
X-10.2392 Y4.7914 I0.0148 J0.1172 F50.
G3 X-10.2507 Y4.7902 I-0.0043 J-0.0145
G1 X-10.2654 Y4.7816 F60.
X-10.2739 Y4.7764
G3 X-10.2217 Y4.586 I0.0884 J-0.0781
G2 X-10.1059 Y4.6566 I18.105 J-29.5524
G3 X-10.1113 Y4.684 I-0.0083 J0.0126
X-10.1517 Y4.6788 I-0.0125 J-0.0616
X-10.2097 Y4.6147 I0.0524 J-0.1059
X-10.215 Y4.5964 I0.1105 J-0.0418 F50.
G2 X-10.2215 Y4.5868 I-0.0148 J0.003
G1 X-10.2441 Y4.573 F60.
G2 X-10.3887 Y4.7073 I-0.0285 J0.1143
G1 X-10.3584 Y4.7246
X-10.328 Y4.7431
X-10.2739 Y4.7764
G2 X-10.2588 Y4.7763 I0.0075 J-0.0131
X-10.2535 Y4.7656 I-0.0055 J-0.0094
G1 X-10.2538 Y4.7631
G2 X-10.3591 Y4.7003 I-0.078 J0.011
X-10.3727 Y4.7068 I0.0274 J0.0738 F50.
G3 X-10.3878 Y4.7072 I-0.0079 J-0.0129
G1 X-10.4057 Y4.6966 F60.
X-10.4103 Y4.6938
G3 X-10.3587 Y4.5033 I0.0876 J-0.0785
G1 X-10.2441 Y4.573
G3 X-10.2494 Y4.6004 I-0.0083 J0.0126
X-10.2845 Y4.5965 I-0.0115 J-0.0567
X-10.3464 Y4.5317 I0.048 J-0.1079
X-10.3519 Y4.5135 I0.11 J-0.0431 F50.
G2 X-10.3585 Y4.504 I-0.0148 J0.0032
G1 X-10.3831 Y4.4893 F60.
X-10.3916 Y4.4878
X-10.4001 Y4.4868
X-10.4087 Y4.4865
X-10.4173 Y4.4868
X-10.4258 Y4.4878
X-10.4342 Y4.4893
X-10.4425 Y4.4915
X-10.4507 Y4.4942
X-10.4586 Y4.4976
X-10.4662 Y4.5015
X-10.4736 Y4.5059
X-10.4806 Y4.5109
X-10.4872 Y4.5163
X-10.4934 Y4.5222
X-10.4992 Y4.5286
X-10.5045 Y4.5353
X-10.5093 Y4.5424
X-10.5136 Y4.5499
X-10.5173 Y4.5576
X-10.5204 Y4.5656
X-10.523 Y4.5738
X-10.525 Y4.5821
X-10.5263 Y4.5906
X-10.527 Y4.5992
X-10.5272 Y4.6077
X-10.5267 Y4.6163
X-10.5255 Y4.6248
G3 X-10.4103 Y4.6938 I-10.706 J18.0174
G2 X-10.3897 Y4.6881 I0.0074 J-0.0132
X-10.3919 Y4.6644 I-0.0182 J-0.0103
X-10.4948 Y4.6227 I-0.0906 J0.0757
X-10.5135 Y4.6262 I0.0123 J0.1175 F50.
G3 X-10.525 Y4.6247 I-0.004 J-0.0146
G1 X-10.5488 Y4.6099 F60.
X-10.5542 Y4.6032
X-10.559 Y4.5961
X-10.5633 Y4.5886
X-10.5671 Y4.5809
X-10.5703 Y4.5728
X-10.5729 Y4.5646
X-10.5748 Y4.5563
X-10.5762 Y4.5478
X-10.577 Y4.5392
X-10.5771 Y4.5306
X-10.5766 Y4.522
X-10.5755 Y4.5134
X-10.5738 Y4.505
X-10.5715 Y4.4967
X-10.5686 Y4.4886
X-10.5651 Y4.4807
X-10.561 Y4.4731
X-10.5564 Y4.4658
X-10.5513 Y4.4589
X-10.5457 Y4.4524
X-10.5396 Y4.4463
X-10.5331 Y4.4406
X-10.5262 Y4.4354
X-10.519 Y4.4308
X-10.5114 Y4.4266
X-10.5036 Y4.4231
X-10.4955 Y4.4201
X-10.4513 Y4.4481
X-10.4049 Y4.4763
X-10.3831 Y4.4893
G3 X-10.3762 Y4.5027 I-0.0082 J0.0127
X-10.3847 Y4.5142 I-0.0128 J-0.0006
X-10.488 Y4.4497 I-0.0251 J-0.0746
X-10.4885 Y4.4346 I0.0781 J-0.0102 F50.
G2 X-10.4952 Y4.4211 I-0.0151 J-0.0009
G1 X-10.4978 Y4.4195 F60.
X-10.5015 Y4.4174
X-10.5229 Y4.4056
G2 X-10.6624 Y4.528 I-0.0188 J0.1193
X-10.5488 Y4.6099 I0.4117 J-0.4509
X-10.5337 I0.0075 J-0.0131
X-10.5271 Y4.5774 I-0.0112 J-0.0192
X-10.6331 Y4.5301 I-0.0949 J0.0703
X-10.648 Y4.5324 I0.0111 J0.1176 F50.
G3 X-10.6624 Y4.528 I-0.0033 J-0.0147
G1 X-10.6669 Y4.5219 F60.
X-10.6709 Y4.5155
X-10.6743 Y4.5087
X-10.6772 Y4.5018
X-10.6795 Y4.4946
X-10.6811 Y4.4872
X-10.6822 Y4.4797
X-10.6826 Y4.4722
X-10.6824 Y4.4646
X-10.6816 Y4.4571
X-10.6802 Y4.4497
X-10.6781 Y4.4424
X-10.6755 Y4.4354
X-10.6723 Y4.4285
X-10.6686 Y4.422
X-10.6643 Y4.4158
X-10.6595 Y4.4099
X-10.6542 Y4.4045
X-10.6486 Y4.3995
X-10.6425 Y4.3951
X-10.6361 Y4.3911
X-10.6293 Y4.3877
X-10.6223 Y4.3848
X-10.6152 Y4.3825
X-10.6078 Y4.3809
X-10.6003 Y4.3798
X-10.5928 Y4.3794
X-10.5852 Y4.3795
X-10.5777 Y4.3804
X-10.5703 Y4.3818
X-10.5631 Y4.3838
X-10.556 Y4.3864
X-10.5491 Y4.3896
X-10.5426 Y4.3934
X-10.5364 Y4.3977
X-10.5305 Y4.4025
X-10.5251 Y4.4077
X-10.523 Y4.4088
X-10.521 Y4.4102
X-10.5194 Y4.4121
X-10.5181 Y4.4143
X-10.5173 Y4.4167
X-10.5169 Y4.4193
X-10.517 Y4.422
X-10.5177 Y4.4246
X-10.5188 Y4.4271
X-10.5205 Y4.4294
X-10.5226 Y4.4314
X-10.5251 Y4.433 Z-0.2197
X-10.5275 Y4.4345 Z-0.2188
X-10.5298 Y4.4358 Z-0.2175
X-10.5317 Y4.437 Z-0.2156
X-10.5333 Y4.438 Z-0.2133
X-10.5345 Y4.4388 Z-0.2107
X-10.5352 Y4.4392 Z-0.2078
X-10.5355 Y4.4394 Z-0.2049
G0 Z0.4
X-7.4054 Y6.6868
Z0.1
G3 X-7.5473 Y6.7086 Z0.0602 I-0.0709 J0.0109 F50.
X-7.4054 Y6.6868 Z0.0205 I0.0709 J-0.0109
X-7.5473 Y6.7086 Z-0.0193 I-0.0709 J0.0109
X-7.4054 Y6.6868 Z-0.059 I0.0709 J-0.0109
X-7.5473 Y6.7086 Z-0.0988 I-0.0709 J0.0109
X-7.4054 Y6.6868 Z-0.1385 I0.0709 J-0.0109
X-7.5473 Y6.7086 Z-0.1783 I-0.0709 J0.0109
X-7.4818 Y6.6261 Z-0.1992 I0.0709 J-0.0109
X-7.4046 Y6.6977 Z-0.22 I0.0055 J0.0716
X-7.5481 I-0.0718 J0.
X-7.4046 I0.0718 J0.
X-7.386 Y6.7555 I-0.0375 J0.0439 F60.
G1 X-7.3915 Y6.761
X-7.3974 Y6.7662
X-7.4037 Y6.7708
X-7.4103 Y6.7749
X-7.4173 Y6.7784
X-7.4245 Y6.7814
X-7.4319 Y6.7838
X-7.4395 Y6.7856
X-7.4472 Y6.7868
X-7.455 Y6.7874
X-7.4628 Y6.7873
X-7.4706 Y6.7867
X-7.4783 Y6.7853
X-7.4858 Y6.7834
X-7.4932 Y6.7809
X-7.5004 Y6.7778
X-7.5073 Y6.7741
X-7.5138 Y6.7699
X-7.5201 Y6.7652
X-7.5259 Y6.76
X-7.5313 Y6.7544
X-7.5362 Y6.7483
X-7.5406 Y6.7419
X-7.5445 Y6.7351
X-7.5478 Y6.728
X-7.5505 Y6.7207
X-7.5527 Y6.7132
X-7.5542 Y6.7056
X-7.5552 Y6.6978
X-7.5555 Y6.69
X-7.5552 Y6.6822
X-7.5542 Y6.6745
X-7.5526 Y6.6669
X-7.5505 Y6.6594
X-7.5477 Y6.6521
X-7.5444 Y6.645
X-7.5405 Y6.6382
X-7.5361 Y6.6318
X-7.5311 Y6.6258
X-7.5257 Y6.6201
X-7.5199 Y6.6149
X-7.5137 Y6.6102
G3 X-7.3274 Y6.651 I0.0847 J0.0591
X-7.386 Y6.7555 I-0.2262 J-0.0583
X-7.4011 Y6.7565 I-0.0085 J-0.0125
X-7.4173 Y6.7258 I0.0128 J-0.0264
X-7.3554 Y6.6604 I0.0779 J0.0117
X-7.3404 Y6.6587 I0.016 J0.0771 F50.
G2 X-7.3274 Y6.651 I-0.0002 J-0.0151
G1 X-7.3115 Y6.6203 F60.
G2 X-7.4517 Y6.4785 I-0.116 J-0.0255
G3 X-7.5176 Y6.6046 I-4.8495 J-2.4518
G2 X-7.5097 Y6.6245 I0.0139 J0.006
X-7.4945 Y6.6228 I0.0061 J-0.0141
X-7.448 Y6.5096 I-0.0702 J-0.095
X-7.4524 Y6.4911 I-0.1167 J0.0182 F50.
G3 X-7.4515 Y6.4795 I0.0144 J-0.0047
G1 X-7.4435 Y6.465 F60.
X-7.4398 Y6.4575
G3 X-7.2479 Y6.4989 I0.0829 J0.0809
G2 X-7.3115 Y6.6203 I12.843 J6.8016
G3 X-7.3321 Y6.6261 I-0.0132 J-0.0074
X-7.3427 Y6.605 I0.0103 J-0.0184
X-7.2753 Y6.5128 I0.1172 J0.0149
X-7.2575 Y6.5062 I0.0498 J0.1071 F50.
G2 X-7.2484 Y6.4991 I-0.0041 J-0.0145
G1 X-7.2439 Y6.4904 F60.
X-7.2372 Y6.4777
X-7.2356 Y6.4694
X-7.2346 Y6.4611
X-7.2343 Y6.4526
X-7.2345 Y6.4442
X-7.2353 Y6.4358
X-7.2368 Y6.4275
X-7.2388 Y6.4193
X-7.2415 Y6.4113
X-7.2447 Y6.4035
X-7.2484 Y6.396
X-7.2527 Y6.3887
X-7.2575 Y6.3818
X-7.2628 Y6.3753
X-7.2686 Y6.3691
X-7.2748 Y6.3634
X-7.2814 Y6.3581
X-7.2884 Y6.3534
X-7.2957 Y6.3491
X-7.3032 Y6.3454
X-7.311 Y6.3423
X-7.3191 Y6.3397
X-7.3273 Y6.3377
X-7.3356 Y6.3363
X-7.344 Y6.3356
X-7.3524 Y6.3354
X-7.3608 Y6.3359
X-7.3692 Y6.3369
X-7.3775 Y6.3386
G2 X-7.4398 Y6.4575 I1.4706 J0.846
X-7.4323 Y6.4775 I0.0137 J0.0063
X-7.4068 Y6.473 I0.0095 J-0.0207
X-7.3734 Y6.3692 I-0.083 J-0.0841
X-7.378 Y6.3507 I-0.1164 J0.0198 F50.
G3 X-7.3773 Y6.3392 I0.0143 J-0.0049
G1 X-7.37 Y6.3254 F60.
X-7.3656 Y6.3169
G3 X-7.1732 Y6.3567 I0.0836 J0.0811
X-7.2372 Y6.4777 I-25.6827 J-13.5223
X-7.2649 Y6.4742 I-0.0131 J-0.0075
X-7.2642 Y6.4418 I0.055 J-0.0149
X-7.2008 Y6.3705 I0.1124 J0.0362
X-7.1829 Y6.3641 I0.0491 J0.1074 F50.
G2 X-7.1738 Y6.357 I-0.004 J-0.0146
G1 X-7.1608 Y6.3322 F60.
X-7.1596 Y6.3236
X-7.1591 Y6.315
X-7.1593 Y6.3064
X-7.16 Y6.2978
X-7.1614 Y6.2893
X-7.1634 Y6.2809
X-7.166 Y6.2727
X-7.1692 Y6.2647
X-7.1729 Y6.257
X-7.1772 Y6.2495
X-7.1821 Y6.2424
X-7.1874 Y6.2356
X-7.1933 Y6.2293
X-7.1995 Y6.2234
X-7.2062 Y6.2179
X-7.2133 Y6.213
X-7.2207 Y6.2086
X-7.2284 Y6.2047
X-7.2364 Y6.2014
X-7.2446 Y6.1987
X-7.2529 Y6.1966
X-7.2614 Y6.1952
X-7.27 Y6.1943
X-7.2786 Y6.1941
X-7.2872 Y6.1945
X-7.2958 Y6.1955
X-7.3042 Y6.1971
G3 X-7.3656 Y6.3169 I-11.3501 J-5.7413
G2 X-7.3468 Y6.3375 I0.0137 J0.0064
X-7.3144 Y6.3109 I-0.0214 J-0.059
X-7.2995 Y6.228 I-0.1011 J-0.061
X-7.3045 Y6.2097 I-0.1161 J0.0219 F50.
G3 X-7.304 Y6.1981 I0.0142 J-0.0051
G1 X-7.2977 Y6.1858 F60.
X-7.2904 Y6.172
X-7.284 Y6.1664
X-7.2772 Y6.1612
X-7.27 Y6.1566
X-7.2625 Y6.1525
X-7.2547 Y6.1489
X-7.2467 Y6.1459
X-7.2385 Y6.1435
X-7.2301 Y6.1417
X-7.2217 Y6.1405
X-7.2132 Y6.1399
X-7.2046
X-7.1961 Y6.1405
X-7.1876 Y6.1418
X-7.1793 Y6.1436
X-7.1711 Y6.1461
X-7.1631 Y6.1491
X-7.1553 Y6.1527
X-7.1478 Y6.1568
X-7.1407 Y6.1615
X-7.1339 Y6.1666
X-7.1275 Y6.1723
X-7.1215 Y6.1784
X-7.1159 Y6.1849
X-7.1109 Y6.1918
X-7.1063 Y6.199
X-7.1023 Y6.2066
X-7.0988 Y6.2144
G2 X-7.1608 Y6.3322 I5.9174 J3.1865
G3 X-7.1885 Y6.3287 I-0.0131 J-0.0075
X-7.1864 Y6.2918 I0.0561 J-0.0154
X-7.1264 Y6.2284 I0.1097 J0.0437
X-7.1086 Y6.2218 I0.0497 J0.1071 F50.
G2 X-7.0995 Y6.2146 I-0.0041 J-0.0145
G1 X-7.0878 Y6.192 F60.
G2 X-7.2301 Y6.0556 I-0.1149 J-0.0226
G3 X-7.2904 Y6.172 I-11.1316 J-5.6981
G2 X-7.2893 Y6.1871 I0.0136 J0.0066
X-7.2764 Y6.1922 I0.0102 J-0.0069
X-7.2216 Y6.0847 I-0.0177 J-0.0767
X-7.2288 Y6.0714 I-0.0725 J0.0308 F50.
G3 X-7.2299 Y6.0564 I0.0125 J-0.0085
G1 X-7.2245 Y6.0462 F60.
X-7.2172 Y6.0319
X-7.2108 Y6.0261
X-7.204 Y6.0208
X-7.1969 Y6.016
X-7.1894 Y6.0117
X-7.1817 Y6.008
X-7.1737 Y6.0048
X-7.1655 Y6.0023
X-7.1571 Y6.0003
X-7.1486 Y5.999
X-7.14 Y5.9982
X-7.1314 Y5.9981
X-7.1228 Y5.9987
X-7.1143 Y5.9998
X-7.1058 Y6.0016
X-7.0976 Y6.004
X-7.0895 Y6.007
X-7.0817 Y6.0105
X-7.0741 Y6.0147
X-7.0669 Y6.0193
X-7.06 Y6.0245
X-7.0535 Y6.0302
X-7.0475 Y6.0363
X-7.0419 Y6.0428
X-7.0368 Y6.0497
X-7.0322 Y6.057
X-7.0282 Y6.0646
X-7.0247 Y6.0725
G2 X-7.0878 Y6.192 I11.3889 J6.0891
G3 X-7.1155 Y6.1887 I-0.0132 J-0.0074
X-7.1137 Y6.1512 I0.0571 J-0.016
X-7.0526 Y6.0864 I0.1101 J0.0427
X-7.0347 Y6.0799 I0.0491 J0.1074 F50.
G2 X-7.0256 Y6.0729 I-0.004 J-0.0146
G1 X-7.0146 Y6.0519 F60.
X-7.0131 Y6.0436
X-7.0122 Y6.0352
X-7.0119 Y6.0268
X-7.0122 Y6.0183
X-7.0131 Y6.01
X-7.0147 Y6.0017
X-7.0168 Y5.9935
X-7.0195 Y5.9855
X-7.0228 Y5.9777
X-7.0266 Y5.9702
X-7.031 Y5.963
X-7.0359 Y5.9561
X-7.0413 Y5.9496
X-7.0471 Y5.9435
X-7.0534 Y5.9379
X-7.0601 Y5.9327
X-7.0671 Y5.928
X-7.0744 Y5.9238
X-7.082 Y5.9202
X-7.0899 Y5.9172
X-7.098 Y5.9147
X-7.1062 Y5.9128
X-7.1145 Y5.9115
X-7.1229 Y5.9108
X-7.1314 Y5.9107
X-7.1398 Y5.9113
X-7.1481 Y5.9124
X-7.1564 Y5.9142
X-7.176 Y5.9531
X-7.1974 Y5.9936
X-7.2172 Y6.0319
G2 X-7.2159 Y6.0469 I0.0137 J0.0064
X-7.2039 Y6.0518 I0.0097 J-0.0067
G1 X-7.2025 Y6.0515
G2 X-7.1476 Y5.943 I-0.0172 J-0.0768
X-7.155 Y5.9298 I-0.0721 J0.0316 F50.
G3 X-7.1562 Y5.9148 I0.0124 J-0.0086
G1 X-7.151 Y5.9045 F60.
X-7.1445 Y5.8923
G3 X-6.9511 Y5.9311 I0.0844 J0.081
G2 X-7.0146 Y6.0519 I6.7531 J3.6276
G3 X-7.0423 Y6.0484 I-0.0131 J-0.0075
X-7.0416 Y6.0161 I0.0547 J-0.015
X-6.9787 Y5.9451 I0.1124 J0.0362
X-6.9608 Y5.9385 I0.0496 J0.1072 F50.
G2 X-6.9517 Y5.9314 I-0.0041 J-0.0146
G1 X-6.9389 Y5.9066 F60.
X-6.9378 Y5.898
X-6.9373 Y5.8895
X-6.9375 Y5.8809
X-6.9382 Y5.8723
X-6.9396 Y5.8638
X-6.9416 Y5.8555
X-6.9442 Y5.8473
X-6.9474 Y5.8393
X-6.9512 Y5.8316
X-6.9555 Y5.8241
X-6.9604 Y5.817
X-6.9657 Y5.8103
X-6.9715 Y5.804
X-6.9778 Y5.7981
X-6.9845 Y5.7927
X-6.9915 Y5.7878
X-6.9989 Y5.7834
X-7.0066 Y5.7795
X-7.0146 Y5.7762
X-7.0227 Y5.7736
X-7.0311 Y5.7715
X-7.0395 Y5.77
X-7.0481 Y5.7691
X-7.0567 Y5.7689
X-7.0653 Y5.7693
X-7.0738 Y5.7703
X-7.0822 Y5.7719
X-7.1035 Y5.8135
X-7.1275 Y5.86
X-7.1445 Y5.8923
G2 X-7.1375 Y5.9125 I0.0136 J0.0066
X-7.1127 Y5.9086 I0.0096 J-0.0198
X-7.0779 Y5.8028 I-0.0816 J-0.0854
X-7.0827 Y5.7844 I-0.1163 J0.0203 F50.
G3 X-7.082 Y5.7728 I0.0143 J-0.005
G1 X-7.0789 Y5.767 F60.
X-7.069 Y5.7477
X-7.0626 Y5.742
X-7.0558 Y5.7368
X-7.0486 Y5.732
X-7.0411 Y5.7279
X-7.0334 Y5.7242
X-7.0254 Y5.7211
X-7.0171 Y5.7187
X-7.0088 Y5.7168
X-7.0003 Y5.7155
X-6.9917 Y5.7148
X-6.9832
X-6.9746 Y5.7153
X-6.9661 Y5.7165
X-6.9577 Y5.7183
X-6.9495 Y5.7207
X-6.9414 Y5.7237
X-6.9336 Y5.7273
X-6.9261 Y5.7314
X-6.9189 Y5.736
X-6.912 Y5.7411
X-6.9056 Y5.7468
X-6.8995 Y5.7529
X-6.8939 Y5.7594
X-6.8888 Y5.7663
X-6.8842 Y5.7735
X-6.8801 Y5.781
X-6.8766 Y5.7889
G2 X-6.9389 Y5.9066 I10.5001 J5.6281
G3 X-6.9519 Y5.9142 I-0.0131 J-0.0075
X-6.9619 Y5.9077 I-0.0001 J-0.0109
G1 X-6.9629 Y5.9055
G3 X-6.9056 Y5.7985 I0.0729 J-0.0298
X-6.8906 Y5.7969 I0.0156 J0.0772 F50.
G2 X-6.8776 Y5.7893 I-0.0001 J-0.0151
G1 X-6.8721 Y5.7787 F60.
X-6.8659 Y5.767
G2 X-7.0087 Y5.6306 I-0.1149 J-0.0226
G1 X-7.069 Y5.7477
G2 X-7.0677 Y5.7627 I0.0137 J0.0064
X-7.0534 Y5.7682 I0.0112 J-0.0077
X-6.9997 Y5.6595 I-0.0182 J-0.0766
X-7.0072 Y5.6464 I-0.0719 J0.0321 F50.
G3 X-7.0085 Y5.6314 I0.0124 J-0.0087
G1 X-7.0065 Y5.6273 F60.
X-6.9958 Y5.6071
X-6.9897 Y5.6015
X-6.9832 Y5.5963
X-6.9763 Y5.5915
X-6.9692 Y5.5873
X-6.9617 Y5.5836
X-6.954 Y5.5804
X-6.9461 Y5.5777
X-6.9381 Y5.5757
X-6.9299 Y5.5742
X-6.9216 Y5.5732
X-6.9133 Y5.5729
X-6.905 Y5.5731
X-6.8967 Y5.574
X-6.8885 Y5.5754
X-6.8804 Y5.5774
X-6.8725 Y5.5799
X-6.8648 Y5.583
X-6.8573 Y5.5866
X-6.8501 Y5.5908
X-6.8432 Y5.5955
X-6.8366 Y5.6006
X-6.8304 Y5.6062
X-6.8247 Y5.6122
X-6.8193 Y5.6186
X-6.8144 Y5.6253
X-6.8101 Y5.6324
X-6.8062 Y5.6397
X-6.8028 Y5.6474
G2 X-6.8659 Y5.767 I4.2519 J2.3172
G3 X-6.8865 Y5.7725 I-0.0131 J-0.0075
X-6.8976 Y5.749 I0.0113 J-0.0197
X-6.8307 Y5.6614 I0.1165 J0.0196
X-6.8128 Y5.6548 I0.0495 J0.1072 F50.
G2 X-6.8037 Y5.6477 I-0.004 J-0.0146
G1 X-6.7931 Y5.6273 F60.
X-6.7915 Y5.619
X-6.7905 Y5.6106
X-6.7902 Y5.6022
X-6.7904 Y5.5938
X-6.7913 Y5.5853
X-6.7928 Y5.577
X-6.7949 Y5.5688
X-6.7975 Y5.5608
X-6.8008 Y5.553
X-6.8046 Y5.5455
X-6.8089 Y5.5382
X-6.8138 Y5.5313
X-6.8192 Y5.5247
X-6.825 Y5.5186
X-6.8312 Y5.5129
X-6.8379 Y5.5077
X-6.8449 Y5.503
X-6.8522 Y5.4988
X-6.8598 Y5.4951
X-6.8677 Y5.492
X-6.8758 Y5.4895
X-6.884 Y5.4876
X-6.8923 Y5.4863
X-6.9008 Y5.4856
X-6.9092 Y5.4855
X-6.9177 Y5.486
X-6.926 Y5.4872
X-6.9343 Y5.4889
X-6.9958 Y5.6071
G2 X-6.9773 Y5.628 I0.0136 J0.0066
X-6.9511 Y5.6086 I-0.0177 J-0.0513
X-6.9302 Y5.5194 I-0.0956 J-0.0694
X-6.9349 Y5.501 I-0.1164 J0.0198 F50.
G3 X-6.9342 Y5.4895 I0.0143 J-0.0049
G1 X-6.9333 Y5.4877 F60.
X-6.9219 Y5.4655
X-6.9157 Y5.4598
X-6.9093 Y5.4546
X-6.9024 Y5.4499
X-6.8952 Y5.4456
X-6.8878 Y5.4419
X-6.8801 Y5.4387
X-6.8722 Y5.436
X-6.8641 Y5.4339
X-6.856 Y5.4324
X-6.8477 Y5.4315
X-6.8394 Y5.4312
X-6.831 Y5.4314
X-6.8227 Y5.4322
X-6.8145 Y5.4337
X-6.8064 Y5.4357
X-6.7985 Y5.4382
X-6.7908 Y5.4413
X-6.7833 Y5.445
X-6.7761 Y5.4491
X-6.7692 Y5.4538
X-6.7626 Y5.459
X-6.7565 Y5.4646
X-6.7507 Y5.4706
X-6.7454 Y5.477
X-6.7405 Y5.4837
X-6.7362 Y5.4908
X-6.7323 Y5.4982
X-6.729 Y5.5059
X-6.7326 Y5.5114
X-6.7688 Y5.5808
X-6.7931 Y5.6273
G3 X-6.8208 Y5.6239 I-0.0131 J-0.0075
X-6.819 Y5.5855 I0.0597 J-0.0165
X-6.757 Y5.5196 I0.1104 J0.0419
X-6.739 Y5.5132 I0.0484 J0.1077 F50.
G2 X-6.7299 Y5.5062 I-0.0039 J-0.0146
G1 X-6.72 Y5.4877 F60.
X-6.7173 Y5.483
X-6.716 Y5.4746
X-6.7153 Y5.466
Y5.4574
X-6.7159 Y5.4489
X-6.7171 Y5.4404
X-6.7189 Y5.432
X-6.7213 Y5.4238
X-6.7243 Y5.4158
X-6.7279 Y5.408
X-6.7321 Y5.4005
X-6.7368 Y5.3933
X-6.742 Y5.3865
X-6.7477 Y5.3801
X-6.7538 Y5.3741
X-6.7604 Y5.3686
X-6.7673 Y5.3636
X-6.7746 Y5.3591
X-6.7822 Y5.3551
X-6.7901 Y5.3517
X-6.7982 Y5.3489
X-6.8065 Y5.3467
X-6.8149 Y5.3451
X-6.8234 Y5.3441
X-6.832 Y5.3438
X-6.8405 Y5.344
X-6.8491 Y5.3449
X-6.8575 Y5.3464
G2 X-6.9219 Y5.4655 I2.2826 J1.3106
X-6.9206 Y5.4805 I0.0137 J0.0064
X-6.8622 Y5.479 I0.0287 J-0.0199
X-6.8519 Y5.3757 I-0.1004 J-0.0622
X-6.858 Y5.3619 I-0.1107 J0.0411 F50.
G3 X-6.8574 Y5.3468 I0.0134 J-0.007
G1 X-6.8411 Y5.3228 F60.
X-6.8344 Y5.3173
X-6.8275 Y5.3123
X-6.8201 Y5.3078
X-6.8125 Y5.3039
X-6.8046 Y5.3005
X-6.7965 Y5.2977
X-6.7882 Y5.2955
X-6.7797 Y5.2939
X-6.7712 Y5.2929
X-6.7626 Y5.2926
X-6.754 Y5.2928
X-6.7455 Y5.2937
X-6.737 Y5.2952
X-6.7287 Y5.2973
X-6.7205 Y5.3
X-6.7126 Y5.3033
X-6.7049 Y5.3072
X-6.6976 Y5.3116
X-6.6905 Y5.3165
X-6.6839 Y5.3219
X-6.6776 Y5.3278
X-6.6718 Y5.3341
X-6.6665 Y5.3409
X-6.6616 Y5.348
X-6.6573 Y5.3554
X-6.6535 Y5.3631
X-6.6504 Y5.3711
G3 X-6.7173 Y5.483 I-5.3064 J-3.0951
X-6.7448 Y5.4783 I-0.0128 J-0.0081
X-6.7332 Y5.4291 I0.0564 J-0.0126
X-6.6772 Y5.3856 I0.1221 J0.0994
X-6.6595 Y5.3787 I0.0661 J0.1429 F50.
G2 X-6.6507 Y5.3712 I-0.0046 J-0.0144
G1 X-6.6396 Y5.3476 F60.
X-6.6366 Y5.3407
X-6.6358 Y5.332
X-6.6357 Y5.3234
X-6.6362 Y5.3147
X-6.6373 Y5.3061
X-6.6391 Y5.2977
X-6.6414 Y5.2893
X-6.6443 Y5.2812
X-6.6478 Y5.2733
X-6.6518 Y5.2656
X-6.6564 Y5.2583
X-6.6615 Y5.2513
X-6.6671 Y5.2446
X-6.6731 Y5.2384
X-6.6796 Y5.2327
X-6.6864 Y5.2274
X-6.6936 Y5.2226
X-6.7012 Y5.2183
X-6.709 Y5.2146
X-6.717 Y5.2115
X-6.7253 Y5.2089
X-6.7337 Y5.207
X-6.7423 Y5.2056
X-6.7509 Y5.2049
X-6.7596 Y5.2047
X-6.7682 Y5.2052
X-6.7768 Y5.2063
X-6.7853 Y5.208
G3 X-6.8411 Y5.3228 I-0.3413 J-0.095
G2 X-6.8417 Y5.3379 I0.0128 J0.0081
X-6.8185 Y5.3469 I0.0168 J-0.0088
X-6.7747 Y5.2369 I-0.0263 J-0.0742
X-6.7829 Y5.2241 I-0.0701 J0.0359 F50.
G3 X-6.785 Y5.2092 I0.0119 J-0.0093
G1 X-6.775 Y5.1866 F60.
G3 X-6.5817 Y5.2174 I0.0867 J0.0778
G2 X-6.6366 Y5.3407 I32.8256 J14.6889
G3 X-6.6567 Y5.3477 I-0.0136 J-0.0066
X-6.6691 Y5.3258 I0.0096 J-0.0199
X-6.6082 Y5.2331 I0.1176 J0.0109
X-6.5908 Y5.2253 I0.0567 J0.1036 F50.
G2 X-6.5822 Y5.2176 I-0.005 J-0.0142
G1 X-6.5726 Y5.1957 F60.
X-6.5716 Y5.1873
X-6.5711 Y5.1788
X-6.5713 Y5.1704
X-6.572 Y5.1619
X-6.5734 Y5.1536
X-6.5754 Y5.1453
X-6.578 Y5.1373
X-6.5811 Y5.1294
X-6.5849 Y5.1218
X-6.5891 Y5.1144
X-6.5939 Y5.1075
X-6.5992 Y5.1008
X-6.6049 Y5.0946
X-6.6111 Y5.0888
X-6.6177 Y5.0835
X-6.6247 Y5.0786
X-6.632 Y5.0743
X-6.6396 Y5.0706
X-6.6474 Y5.0673
X-6.6555 Y5.0647
X-6.6637 Y5.0627
X-6.672 Y5.0612
X-6.6805 Y5.0604
X-6.6889 Y5.0602
X-6.6974 Y5.0606
X-6.7058 Y5.0616
X-6.7141 Y5.0632
X-6.7223 Y5.0655
X-6.7234 Y5.0689
X-6.7437 Y5.1154
X-6.775 Y5.1866
G2 X-6.7728 Y5.2015 I0.014 J0.0056
X-6.7614 Y5.2053 I0.0086 J-0.0067
G1 X-6.7591 Y5.2046
G2 X-6.712 Y5.0938 I-0.0231 J-0.0753
X-6.7201 Y5.081 I-0.0703 J0.0356 F50.
G3 X-6.7221 Y5.0661 I0.0119 J-0.0093
G1 X-6.7121 Y5.0437 F60.
G3 X-6.5167 Y5.07 I0.0894 J0.0747
G1 X-6.5578 Y5.162
X-6.5726 Y5.1957
G3 X-6.5928 Y5.2028 I-0.0136 J-0.0066
X-6.605 Y5.1818 I0.0094 J-0.0195
X-6.5433 Y5.0857 I0.1179 J0.0077
X-6.5259 Y5.078 I0.0562 J0.1039 F50.
G2 X-6.5173 Y5.0703 I-0.005 J-0.0143
G1 X-6.5059 Y5.0446 F60.
X-6.5054 Y5.036
X-6.5055 Y5.0274
X-6.5062 Y5.0189
X-6.5075 Y5.0104
X-6.5094 Y5.002
X-6.512 Y4.9938
X-6.5151 Y4.9858
X-6.5188 Y4.978
X-6.5231 Y4.9705
X-6.5279 Y4.9634
X-6.5331 Y4.9566
X-6.5389 Y4.9502
X-6.5451 Y4.9443
X-6.5518 Y4.9388
X-6.5588 Y4.9338
X-6.5661 Y4.9293
X-6.5738 Y4.9254
X-6.5817 Y4.9221
X-6.5899 Y4.9193
X-6.5982 Y4.9172
X-6.6066 Y4.9156
X-6.6152 Y4.9147
X-6.6238 Y4.9143
X-6.6324 Y4.9146
X-6.6409 Y4.9156
X-6.6494 Y4.9171
X-6.6577 Y4.9193
X-6.6821 Y4.9758
X-6.7026 Y5.0224
X-6.7121 Y5.0437
G2 X-6.6922 Y5.0633 I0.014 J0.0057
X-6.6653 Y5.0401 I-0.0227 J-0.0536
X-6.6512 Y4.9498 I-0.1006 J-0.0619
X-6.6573 Y4.9318 I-0.1146 J0.0284 F50.
G3 X-6.6574 Y4.9202 I0.0139 J-0.0059
G1 X-6.6464 Y4.8952 F60.
X-6.6404 Y4.889
X-6.634 Y4.8833
X-6.6272 Y4.878
X-6.62 Y4.8732
X-6.6125 Y4.869
X-6.6047 Y4.8654
X-6.5967 Y4.8623
X-6.5884 Y4.8598
X-6.58 Y4.8579
X-6.5715 Y4.8566
X-6.5629 Y4.856
X-6.5543
X-6.5457 Y4.8566
X-6.5372 Y4.8578
X-6.5288 Y4.8596
X-6.5205 Y4.8621
X-6.5125 Y4.8651
X-6.5047 Y4.8688
X-6.4971 Y4.873
X-6.4899 Y4.8777
X-6.4831 Y4.8829
X-6.4767 Y4.8886
X-6.4707 Y4.8948
X-6.4651 Y4.9014
X-6.4601 Y4.9084
X-6.4556 Y4.9157
X-6.4516 Y4.9234
X-6.4755 Y4.9758
X-6.5059 Y5.0446
G3 X-6.5184 Y5.0531 I-0.0136 J-0.0066
X-6.5287 Y5.0474 I-0.0008 J-0.0107
G1 X-6.5299 Y5.045
G3 X-6.4798 Y4.9348 I0.0709 J-0.0343
X-6.4649 Y4.9323 I0.0208 J0.076 F50.
G2 X-6.4524 Y4.9238 I-0.0011 J-0.0151
G1 X-6.4432 Y4.9027 F60.
X-6.4421 Y4.8943
X-6.4417 Y4.8859
X-6.4419 Y4.8774
X-6.4427 Y4.869
X-6.4441 Y4.8607
X-6.4461 Y4.8525
X-6.4487 Y4.8444
X-6.4519 Y4.8366
X-6.4556 Y4.829
X-6.4599 Y4.8217
X-6.4647 Y4.8148
X-6.47 Y4.8082
X-6.4758 Y4.802
X-6.482 Y4.7962
X-6.4886 Y4.791
X-6.4956 Y4.7862
X-6.5029 Y4.7819
X-6.5105 Y4.7782
X-6.5183 Y4.7751
X-6.5264 Y4.7725
X-6.5346 Y4.7705
X-6.5429 Y4.7691
X-6.5514 Y4.7684
X-6.5598 Y4.7682
X-6.5683 Y4.7687
X-6.5767 Y4.7698
X-6.5849 Y4.7715
X-6.5931 Y4.7738
X-6.63 Y4.8581
X-6.6464 Y4.8952
G2 X-6.6442 Y4.9102 I0.014 J0.0056
X-6.6326 Y4.9141 I0.0088 J-0.0069
G1 X-6.6306 Y4.9135
G2 X-6.5826 Y4.802 I-0.0221 J-0.0756
X-6.5907 Y4.7893 I-0.0701 J0.036 F50.
G3 X-6.5929 Y4.7743 I0.0119 J-0.0093
G1 X-6.5821 Y4.7498 F60.
X-6.5764 Y4.7438
X-6.5703 Y4.7381
X-6.5638 Y4.7329
X-6.5569 Y4.7282
X-6.5498 Y4.724
X-6.5423 Y4.7203
X-6.5346 Y4.7171
X-6.5267 Y4.7145
X-6.5186 Y4.7124
X-6.5104 Y4.7109
X-6.5022 Y4.71
X-6.4939 Y4.7097
X-6.4855 Y4.71
X-6.4772 Y4.7108
X-6.4691 Y4.7123
X-6.461 Y4.7143
X-6.4531 Y4.7169
X-6.4454 Y4.72
X-6.4379 Y4.7237
X-6.4307 Y4.7279
X-6.4238 Y4.7326
X-6.4173 Y4.7378
X-6.4112 Y4.7434
X-6.4054 Y4.7494
X-6.4001 Y4.7559
X-6.3953 Y4.7627
X-6.391 Y4.7698
X-6.3872 Y4.7772
X-6.4432 Y4.9027
G3 X-6.4634 Y4.9098 I-0.0136 J-0.0066
X-6.4754 Y4.8891 I0.0093 J-0.0193
X-6.414 Y4.793 I0.1179 J0.0077
X-6.3966 Y4.7852 I0.0564 J0.1038 F50.
G2 X-6.388 Y4.7775 I-0.005 J-0.0143
G1 X-6.3779 Y4.7546 F60.
G2 X-6.5288 Y4.6276 I-0.1158 J-0.0156
G1 X-6.5384 Y4.6501
X-6.5587 Y4.6966
X-6.5792 Y4.7431
G2 X-6.577 Y4.7581 I0.014 J0.0056
X-6.5561 Y4.7631 I0.0137 J-0.0108
X-6.5185 Y4.6559 I-0.0326 J-0.0717
X-6.5266 Y4.6432 I-0.0703 J0.0356 F50.
G3 X-6.5286 Y4.6282 I0.0119 J-0.0093
G1 X-6.5176 Y4.6035 F60.
X-6.5119 Y4.5975
X-6.5057 Y4.5918
X-6.4992 Y4.5867
X-6.4924 Y4.5819
X-6.4852 Y4.5777
X-6.4777 Y4.574
X-6.47 Y4.5709
X-6.4621 Y4.5683
X-6.4541 Y4.5662
X-6.4459 Y4.5647
X-6.4376 Y4.5638
X-6.4293 Y4.5635
X-6.421 Y4.5638
X-6.4127 Y4.5647
X-6.4045 Y4.5661
X-6.3964 Y4.5682
X-6.3885 Y4.5708
X-6.3808 Y4.5739
X-6.3733 Y4.5776
X-6.3662 Y4.5818
X-6.3593 Y4.5865
X-6.3528 Y4.5916
X-6.3466 Y4.5973
X-6.3409 Y4.6033
X-6.3356 Y4.6097
X-6.3308 Y4.6165
X-6.3264 Y4.6236
X-6.3226 Y4.631
X-6.3522 Y4.6966
X-6.3728 Y4.7431
X-6.3779 Y4.7546
G3 X-6.398 Y4.7616 I-0.0136 J-0.0066
X-6.4109 Y4.7387 I0.0099 J-0.0206
X-6.3495 Y4.6467 I0.1175 J0.012
X-6.3321 Y4.6391 I0.0561 J0.1039 F50.
G2 X-6.3234 Y4.6314 I-0.005 J-0.0143
G1 X-6.3125 Y4.6067 F60.
X-6.3119 Y4.5984
Y4.5901
X-6.3124 Y4.5818
X-6.3136 Y4.5736
X-6.3153 Y4.5654
X-6.3176 Y4.5574
X-6.3204 Y4.5496
X-6.3238 Y4.542
X-6.3277 Y4.5347
X-6.3321 Y4.5276
X-6.3371 Y4.5209
X-6.3424 Y4.5145
X-6.3482 Y4.5086
X-6.3545 Y4.503
X-6.3611 Y4.498
X-6.368 Y4.4934
X-6.3752 Y4.4893
X-6.3827 Y4.4857
X-6.3905 Y4.4826
X-6.3984 Y4.4802
X-6.4065 Y4.4782
X-6.4147 Y4.4769
X-6.423 Y4.4761
X-6.4313 Y4.476
X-6.4396 Y4.4764
X-6.4479 Y4.4774
X-6.4561 Y4.4789
X-6.4641 Y4.4811
X-6.4764 Y4.5104
X-6.4971 Y4.557
X-6.5176 Y4.6035
G2 X-6.4976 Y4.623 I0.014 J0.0056
X-6.4689 Y4.597 I-0.0235 J-0.0548
X-6.4577 Y4.5116 I-0.1034 J-0.057
X-6.4637 Y4.4935 I-0.1146 J0.0284 F50.
G3 X-6.4639 Y4.4819 I0.0139 J-0.0059
G1 X-6.4537 Y4.459 F60.
G3 X-6.2582 Y4.485 I0.0895 J0.0751
G1 X-6.2699 Y4.5104
X-6.2906 Y4.557
X-6.3125 Y4.6067
G3 X-6.3327 Y4.6137 I-0.0136 J-0.0066
X-6.3457 Y4.5898 I0.0102 J-0.021
X-6.2848 Y4.5007 I0.1172 J0.0147
X-6.2674 Y4.493 I0.0564 J0.1038 F50.
G2 X-6.2588 Y4.4853 I-0.005 J-0.0143
G1 X-6.2494 Y4.4639 F60.
X-6.2484 Y4.4555
X-6.248 Y4.4471
X-6.2482 Y4.4387
X-6.249 Y4.4303
X-6.2504 Y4.422
X-6.2524 Y4.4139
X-6.255 Y4.4059
X-6.2582 Y4.3981
X-6.2619 Y4.3905
X-6.2662 Y4.3833
X-6.271 Y4.3763
X-6.2763 Y4.3698
X-6.282 Y4.3636
X-6.2882 Y4.3579
X-6.2948 Y4.3527
X-6.3017 Y4.3479
X-6.309 Y4.3437
X-6.3166 Y4.3399
X-6.3244 Y4.3368
X-6.3324 Y4.3342
X-6.3406 Y4.3322
X-6.3489 Y4.3309
X-6.3573 Y4.3301
X-6.3657 Y4.3299
X-6.3741 Y4.3304
X-6.3825 Y4.3314
X-6.3907 Y4.3331
X-6.3988 Y4.3354
X-6.4147 Y4.3708
X-6.4537 Y4.459
G2 X-6.4453 Y4.4787 I0.014 J0.0056
X-6.4224 Y4.4737 I0.0078 J-0.0194
X-6.3929 Y4.3656 I-0.0855 J-0.0814
X-6.3987 Y4.3474 I-0.1151 J0.0267 F50.
G3 Y4.3359 I0.014 J-0.0057
G1 X-6.3933 Y4.3243 F60.
X-6.3855 Y4.3088
G3 X-6.1845 Y4.3544 I0.0864 J0.085
G2 X-6.2494 Y4.4639 I0.2172 J0.2026
G3 X-6.262 Y4.4723 I-0.0135 J-0.0067
X-6.3036 Y4.433 I-0.0025 J-0.039
X-6.2161 Y4.3553 I0.0787 J0.0006
X-6.2013 Y4.3584 I-0.0087 J0.0783 F50.
G2 X-6.1866 Y4.3551 I0.0045 J-0.0144
G1 X-6.1748 Y4.3435 F60.
G2 X-6.2847 Y4.1889 I-0.1043 J-0.0422
X-6.3855 Y4.3088 I0.1705 J0.2456
X-6.3841 Y4.3238 I0.0137 J0.0063
X-6.3503 Y4.332 I0.0216 J-0.0152
X-6.2873 Y4.2182 I-0.0547 J-0.1047
X-6.2894 Y4.2033 I-0.1178 J0.0091 F50.
G3 X-6.2847 Y4.1889 I0.0148 J-0.0031
G1 X-6.2796 Y4.1847 F60.
X-6.2678 Y4.1752
X-6.2523 Y4.1637
X-6.2443 Y4.1606
X-6.2361 Y4.1581
X-6.2278 Y4.1561
X-6.2193 Y4.1547
X-6.2108 Y4.1539
X-6.2022 Y4.1537
X-6.1937 Y4.1541
X-6.1852 Y4.1551
X-6.1767 Y4.1567
X-6.1685 Y4.1588
X-6.1603 Y4.1615
X-6.1524 Y4.1648
X-6.1447 Y4.1686
X-6.1373 Y4.1729
X-6.1303 Y4.1777
X-6.1235 Y4.183
X-6.1172 Y4.1888
X-6.1113 Y4.1949
X-6.1058 Y4.2015
X-6.1007 Y4.2084
X-6.0962 Y4.2157
X-6.0922 Y4.2232
X-6.0887 Y4.231
X-6.0857 Y4.2391
X-6.0833 Y4.2473
X-6.0815 Y4.2557
X-6.0803 Y4.2641
X-6.0796 Y4.2727
X-6.1283 Y4.3066
X-6.1516 Y4.3243
X-6.1748 Y4.3435
G3 X-6.1898 Y4.3455 I-0.0092 J-0.012
X-6.2026 Y4.3142 I0.0091 J-0.022
X-6.1105 Y4.2688 I0.0725 J0.0308
X-6.0963 Y4.2739 I-0.0197 J0.0762 F50.
G2 X-6.0812 Y4.2727 I0.0065 J-0.0136
G1 X-6.065 Y4.2607 F60.
G2 X-6.1384 Y4.0801 I-0.0906 J-0.0685
X-6.2523 Y4.1637 I10.6186 J14.5852
X-6.2578 Y4.1777 I0.0094 J0.0118
X-6.1901 Y4.2056 I0.0422 J-0.0063
X-6.1428 Y4.1092 I-0.0708 J-0.0945
X-6.144 Y4.0941 I-0.1181 J0.0019 F50.
G3 X-6.1384 Y4.0801 I0.015 J-0.0022
G1 X-6.118 Y4.0651 F60.
X-6.1101 Y4.0622
X-6.1019 Y4.0599
X-6.0936 Y4.0582
X-6.0852 Y4.0571
X-6.0768 Y4.0565
X-6.0683 Y4.0566
X-6.0599 Y4.0574
X-6.0515 Y4.0587
X-6.0432 Y4.0606
X-6.0351 Y4.0631
X-6.0273 Y4.0662
X-6.0196 Y4.0699
X-6.0123 Y4.0741
X-6.0052 Y4.0788
X-5.9985 Y4.084
X-5.9923 Y4.0897
X-5.9864 Y4.0958
X-5.981 Y4.1023
X-5.9761 Y4.1092
X-5.9717 Y4.1165
X-5.9678 Y4.124
X-5.9645 Y4.1318
X-5.9617 Y4.1398
X-5.9596 Y4.148
X-5.958 Y4.1563
X-5.9571 Y4.1647
X-5.9567 Y4.1732
X-5.957 Y4.1817
X-6.0353 Y4.2388
X-6.065 Y4.2607
G3 X-6.0884 Y4.2455 I-0.0086 J-0.0125
X-6.069 Y4.2113 I0.0591 J0.011
X-5.9881 Y4.182 I0.078 J0.0887
X-5.9691 Y4.184 I-0.0029 J0.1181 F50.
G2 X-5.9578 Y4.1816 I0.0028 J-0.0148
G1 X-5.9424 Y4.1702 F60.
X-5.9378 Y4.167
G2 X-6.0067 Y3.9833 I-0.0927 J-0.07
X-6.118 Y4.0651 I6.3143 J8.7042
X-6.1104 Y4.0919 I0.0094 J0.0118
X-6.0811 Y4.0874 I0.0063 J-0.0552
X-6.0163 Y4.0126 I-0.0487 J-0.1076
X-6.0125 Y3.9939 I-0.1135 J-0.0328 F50.
G3 X-6.0068 Y3.9838 I0.015 J0.0018
G1 X-5.985 Y3.9679 F60.
X-5.977 Y3.9654
X-5.9689 Y3.9636
X-5.9607 Y3.9623
X-5.9524 Y3.9616
X-5.944 Y3.9614
X-5.9357 Y3.9619
X-5.9275 Y3.963
X-5.9193 Y3.9646
X-5.9112 Y3.9668
X-5.9034 Y3.9696
X-5.8957 Y3.9729
X-5.8884 Y3.9768
X-5.8813 Y3.9812
X-5.8745 Y3.986
X-5.8681 Y3.9913
X-5.8621 Y3.9971
X-5.8565 Y4.0033
X-5.8513 Y4.0098
X-5.8467 Y4.0167
X-5.8425 Y4.024
X-5.8389 Y4.0315
X-5.8358 Y4.0392
X-5.8332 Y4.0471
X-5.8312 Y4.0552
X-5.8298 Y4.0634
X-5.829 Y4.0717
X-5.8288 Y4.0801
X-5.8291 Y4.0884
X-5.8959 Y4.137
X-5.9378 Y4.167
G3 X-5.9588 Y4.1628 I-0.0084 J-0.0126
X-5.9582 Y4.1373 I0.0186 J-0.0123
X-5.8602 Y4.0888 I0.0954 J0.0696
X-5.8413 Y4.0907 I-0.0026 J0.1181 F50.
G2 X-5.83 Y4.0883 I0.0028 J-0.0149
G1 X-5.8087 Y4.0726 F60.
G2 X-5.878 Y3.888 I-0.0946 J-0.0698
G3 X-5.985 Y3.9679 I-1.6687 J-2.1222
G2 X-5.9875 Y3.9891 I0.0094 J0.0119
X-5.9608 Y3.9967 I0.0186 J-0.0147
X-5.8874 Y3.9176 I-0.0403 J-0.111
X-5.8838 Y3.8989 I-0.1137 J-0.0319 F50.
G3 X-5.8782 Y3.8888 I0.015 J0.0017
G1 X-5.8556 Y3.872 F60.
X-5.8473 Y3.8696
X-5.8388 Y3.8678
X-5.8302 Y3.8667
X-5.8216 Y3.8662
X-5.8129 Y3.8663
X-5.8043 Y3.867
X-5.7958 Y3.8684
X-5.7873 Y3.8704
X-5.7791 Y3.8729
X-5.771 Y3.8761
X-5.7632 Y3.8799
X-5.7557 Y3.8842
X-5.7486 Y3.889
X-5.7418 Y3.8944
X-5.7354 Y3.9002
X-5.7294 Y3.9065
X-5.7239 Y3.9132
X-5.719 Y3.9203
X-5.7145 Y3.9277
X-5.7106 Y3.9354
X-5.7073 Y3.9434
X-5.7046 Y3.9516
X-5.7024 Y3.96
X-5.7009 Y3.9686
X-5.7 Y3.9772
X-5.6998 Y3.9858
X-5.7001 Y3.9945
G2 X-5.8087 Y4.0726 I1.6078 J2.3492
G3 X-5.8322 Y4.0574 I-0.0086 J-0.0125
X-5.818 Y4.0301 I0.0516 J0.0095
X-5.7313 Y3.9949 I0.0842 J0.0828
X-5.7124 Y3.9968 I-0.0024 J0.1181 F50.
G2 X-5.7011 Y3.9944 I0.0027 J-0.0149
G1 X-5.6818 Y3.9801 F60.
X-5.6768 Y3.9733
X-5.6723 Y3.9662
X-5.6683 Y3.9587
X-5.6649 Y3.951
X-5.662 Y3.9431
X-5.6598 Y3.9349
X-5.6581 Y3.9267
X-5.657 Y3.9183
X-5.6565 Y3.9099
X-5.6567 Y3.9015
X-5.6574 Y3.8931
X-5.6587 Y3.8847
X-5.6607 Y3.8765
X-5.6632 Y3.8685
X-5.6663 Y3.8606
X-5.67 Y3.853
X-5.6742 Y3.8457
X-5.6789 Y3.8387
X-5.6841 Y3.8321
X-5.6898 Y3.8259
X-5.6959 Y3.82
X-5.7024 Y3.8147
X-5.7093 Y3.8098
X-5.7165 Y3.8054
X-5.724 Y3.8016
X-5.7318 Y3.7983
X-5.7398 Y3.7956
X-5.748 Y3.7935
G3 X-5.8556 Y3.872 I-1.5775 J-2.0504
G2 X-5.8611 Y3.886 I0.0094 J0.0118
X-5.8534 Y3.8948 I0.0107 J-0.0016
G1 X-5.8507 Y3.8955
G2 X-5.7531 Y3.8232 I0.019 J-0.0764
X-5.7537 Y3.8082 I-0.0786 J-0.0041 F50.
G3 X-5.7481 Y3.7942 I0.015 J-0.0021
G1 X-5.7285 Y3.7799 F60.
G3 X-5.5716 Y3.9009 I0.0409 J0.1092
G2 X-5.6818 Y3.9801 I1.8221 J2.6505
G3 X-5.7028 Y3.9762 I-0.0086 J-0.0124
X-5.7019 Y3.9457 I0.0213 J-0.0147
X-5.6025 Y3.9003 I0.0932 J0.0726
X-5.5837 Y3.9028 I-0.0062 J0.1179 F50.
G2 X-5.5723 Y3.9008 I0.0032 J-0.0148
G1 X-5.5705 Y3.8995 F60.
X-5.5503 Y3.8845
G2 X-5.6188 Y3.6992 I-0.0951 J-0.0702
G3 X-5.7285 Y3.7799 I-5.5179 J-7.3821
G2 X-5.7311 Y3.8011 I0.0093 J0.0119
X-5.7063 Y3.8088 I0.018 J-0.0141
X-5.6284 Y3.7288 I-0.0357 J-0.1126
X-5.6247 Y3.7101 I-0.1135 J-0.0326 F50.
G3 X-5.619 Y3.7 I0.015 J0.0018
G1 X-5.5994 Y3.6857 F60.
G3 X-5.444 Y3.7874 I0.0394 J0.1094
X-5.4647 Y3.7923 I-0.0128 J-0.008
G1 X-5.4709 Y3.7885
X-5.5964 Y3.7114
X-5.598 Y3.7104 F50.
G3 X-5.5994 Y3.6857 I0.0079 J-0.0129
G1 X-5.5939 Y3.6801 F60.
X-5.5879 Y3.6751
X-5.5815 Y3.6705
X-5.5748 Y3.6665
X-5.5677 Y3.663
X-5.5605 Y3.6601
X-5.553 Y3.6578
X-5.5453 Y3.6561
X-5.5375 Y3.655
X-5.5297 Y3.6545
X-5.5219 Y3.6547
X-5.5141 Y3.6555
X-5.5064 Y3.6569
X-5.4988 Y3.6589
X-5.4914 Y3.6616
X-5.4843 Y3.6648
X-5.4774 Y3.6685
X-5.4708 Y3.6729
X-5.4647 Y3.6777
X-5.4589 Y3.683
X-5.4536 Y3.6887
X-5.4487 Y3.6949
X-5.4444 Y3.7014
X-5.4406 Y3.7083
X-5.4373 Y3.7154
X-5.4347 Y3.7228
X-5.4326 Y3.7304
X-5.4311 Y3.7381
X-5.4303 Y3.7459
X-5.4301 Y3.7537
X-5.4305 Y3.7615
X-5.4316 Y3.7693
X-5.4333 Y3.7769
X-5.4356 Y3.7844
X-5.4384 Y3.7917
X-5.4419 Y3.7988
X-5.4459 Y3.8055
X-5.4504 Y3.8119
X-5.4555 Y3.8179
X-5.4609 Y3.8235
X-5.4669 Y3.8287
X-5.4732 Y3.8333
X-5.4799 Y3.8374
X-5.4868 Y3.841
X-5.4941 Y3.844
X-5.5015 Y3.8464
X-5.5092 Y3.8482
X-5.5169 Y3.8494
X-5.524 Y3.8648
X-5.5503 Y3.8845
G3 X-5.5739 Y3.874 I-0.0086 J-0.0124
G1 X-5.5743 Y3.8711 Z-0.2197
X-5.5747 Y3.8683 Z-0.2188
X-5.575 Y3.8657 Z-0.2175
X-5.5753 Y3.8634 Z-0.2156
X-5.5756 Y3.8616 Z-0.2133
X-5.5757 Y3.8602 Z-0.2107
X-5.5758 Y3.8593 Z-0.2078
X-5.5759 Y3.859 Z-0.2049
G0 Z0.4
X-7.3589 Y9.7117
Z0.1
G3 X-7.5008 Y9.7336 Z0.0602 I-0.0709 J0.0109 F50.
X-7.3589 Y9.7117 Z0.0205 I0.0709 J-0.0109
X-7.5008 Y9.7336 Z-0.0193 I-0.0709 J0.0109
X-7.3589 Y9.7117 Z-0.059 I0.0709 J-0.0109
X-7.5008 Y9.7336 Z-0.0988 I-0.0709 J0.0109
X-7.3589 Y9.7117 Z-0.1385 I0.0709 J-0.0109
X-7.5008 Y9.7336 Z-0.1783 I-0.0709 J0.0109
X-7.4353 Y9.6511 Z-0.1992 I0.0709 J-0.0109
X-7.3581 Y9.7227 Z-0.22 I0.0055 J0.0716
X-7.5016 I-0.0718 J0.
X-7.3581 I0.0718 J0.
X-7.344 Y9.7574 I-0.0382 J0.0358 F60.
G1 X-7.3505 Y9.7995
X-7.3534 Y9.8072
X-7.3568 Y9.8146
X-7.3608 Y9.8217
X-7.3654 Y9.8285
X-7.3704 Y9.835
X-7.3759 Y9.841
X-7.3818 Y9.8466
X-7.3882 Y9.8518
X-7.3949 Y9.8564
X-7.4019 Y9.8606
X-7.4092 Y9.8642
X-7.4168 Y9.8672
X-7.4246 Y9.8697
X-7.4325 Y9.8716
X-7.4406 Y9.8728
X-7.4487 Y9.8735
X-7.4568
X-7.4649 Y9.873
X-7.473 Y9.8718
