%
(971-23-P-0103_TOP PLATE_1875)
(T1  D=0.1875 CR=0. - ZMIN=-0.53 - FLAT END MILL)
G90 G94 G17 G91.1
G64 P0.001 Q0.001
G20
G53 G0 Z0.
(.3 CIRCLUAR THROUGH HOLE 2)
M9
T1 M6
S13000 M3
G4 P10.
G54
M7
G0 X-5.7404 Y-5.8925
G43 Z0.6 H1
G0 Z0.1113
G1 Z0.05 F60.
X-5.7438 Y-5.8891
G3 X-5.7471 Y-5.8925 I0. J-0.0034
X-5.7336 Z0.0323 I0.0067 J0. F80.
X-5.7471 Z0.0146 I-0.0068 J0.
X-5.7336 Y-5.893 Z-0.0027 I0.0068 J0.
X-5.7471 Y-5.892 Z-0.0204 I-0.0067 J0.0005
X-5.7337 Y-5.893 Z-0.0382 I0.0067 J-0.0005
X-5.747 Y-5.8915 Z-0.0555 I-0.0067 J0.0005
X-5.7337 Y-5.8935 Z-0.0732 I0.0067 J-0.001
X-5.7391 Y-5.8859 Z-0.0818 I-0.0067 J0.001
X-5.7417 Y-5.8991 Z-0.0995 I-0.0013 J-0.0066
X-5.7391 Y-5.8859 Z-0.1173 I0.0013 J0.0066
X-5.7417 Y-5.8991 Z-0.135 I-0.0013 J-0.0066
X-5.7391 Y-5.8859 Z-0.1527 I0.0013 J0.0066
X-5.7468 Y-5.8904 Z-0.1609 I-0.0013 J-0.0066
X-5.7339 Y-5.8946 Z-0.1786 I0.0064 J-0.0021
X-5.7468 Y-5.8904 Z-0.1964 I-0.0064 J0.0021
X-5.7339 Y-5.8946 Z-0.2141 I0.0064 J-0.0021
X-5.7468 Y-5.8904 Z-0.2318 I-0.0064 J0.0021
X-5.7339 Y-5.8946 Z-0.2495 I0.0064 J-0.0021
X-5.7464 Y-5.8895 Z-0.2664 I-0.0064 J0.0021
X-5.7343 Y-5.8955 Z-0.2841 I0.006 J-0.003
X-5.7464 Y-5.8895 Z-0.3018 I-0.006 J0.003
X-5.7346 Y-5.896 Z-0.3191 I0.006 J-0.003
X-5.7462 Y-5.889 Z-0.3368 I-0.0058 J0.0035
X-5.7346 Y-5.896 Z-0.3545 I0.0058 J-0.0035
X-5.7459 Y-5.8886 Z-0.3718 I-0.0058 J0.0035
X-5.7349 Y-5.8964 Z-0.3895 I0.0055 J-0.0039
X-5.7459 Y-5.8886 Z-0.4073 I-0.0055 J0.0039
X-5.7352 Y-5.8968 Z-0.4245 I0.0055 J-0.0039
X-5.7456 Y-5.8882 Z-0.4423 I-0.0052 J0.0043
X-5.7449 Y-5.8975 Z-0.4509 I0.0052 J-0.0043
X-5.7359 Y-5.8875 Z-0.4686 I0.0045 J0.005
X-5.7452 Y-5.8878 Z-0.4773 I-0.0045 J-0.005
X-5.7355 Y-5.8972 Z-0.495 I0.0048 J-0.0047
Y-5.8878 Z-0.5036 I-0.0048 J0.0047
X-5.7453 Y-5.8972 Z-0.5214 I-0.0049 J-0.0047
X-5.7359 Y-5.8976 Z-0.53 I0.0049 J0.0047
X-5.7448 Y-5.8874 I-0.0045 J0.0051
X-5.7359 Y-5.8976 I0.0045 J-0.0051
X-5.7356 Y-5.8928 I-0.0022 J0.0025 F60.
G1 X-5.7404 Y-5.8925
G0 Z0.4
Y-6.6675
Z0.1113
G1 Z0.05 F60.
X-5.7438 Y-6.6641
G3 X-5.7471 Y-6.6675 I0. J-0.0034
X-5.7336 Z0.0323 I0.0067 J0. F80.
X-5.7401 Y-6.6608 Z0.0236 I-0.0068 J0.
X-5.7406 Y-6.6742 Z0.0059 I-0.0003 J-0.0067
X-5.7336 Y-6.668 Z-0.0027 I0.0003 J0.0067
X-5.7471 Y-6.667 Z-0.0204 I-0.0067 J0.0005
X-5.7336 Y-6.668 Z-0.0382 I0.0067 J-0.0005
X-5.7471 Y-6.667 Z-0.0559 I-0.0067 J0.0005
X-5.7336 Y-6.668 Z-0.0736 I0.0067 J-0.0005
X-5.7391 Y-6.6609 Z-0.0818 I-0.0067 J0.0005
X-5.7417 Y-6.6741 Z-0.0995 I-0.0013 J-0.0066
X-5.7338 Y-6.669 Z-0.1082 I0.0013 J0.0066
X-5.747 Y-6.666 Z-0.1259 I-0.0066 J0.0015
X-5.7338 Y-6.669 Z-0.1436 I0.0066 J-0.0015
X-5.7468 Y-6.6654 Z-0.1609 I-0.0066 J0.0015
X-5.7339 Y-6.6696 Z-0.1786 I0.0064 J-0.0021
X-5.7468 Y-6.6654 Z-0.1964 I-0.0064 J0.0021
X-5.7341 Y-6.67 Z-0.2136 I0.0064 J-0.0021
X-5.7466 Y-6.665 Z-0.2314 I-0.0063 J0.0025
X-5.7341 Y-6.67 Z-0.2491 I0.0063 J-0.0025
X-5.7466 Y-6.665 Z-0.2668 I-0.0063 J0.0025
X-5.7341 Y-6.67 Z-0.2845 I0.0063 J-0.0025
X-5.7371 Y-6.6616 Z-0.2927 I-0.0063 J0.0025
X-5.7436 Y-6.6734 Z-0.3104 I-0.0032 J-0.0059
X-5.7346 Y-6.671 Z-0.3191 I0.0032 J0.0059
X-5.7462 Y-6.664 Z-0.3368 I-0.0058 J0.0035
X-5.7346 Y-6.671 Z-0.3545 I0.0058 J-0.0035
X-5.7459 Y-6.6636 Z-0.3718 I-0.0058 J0.0035
X-5.7349 Y-6.6714 Z-0.3895 I0.0055 J-0.0039
X-5.7363 Y-6.6622 Z-0.3982 I-0.0055 J0.0039
X-5.7445 Y-6.6728 Z-0.4159 I-0.0041 J-0.0053
X-5.7363 Y-6.6622 Z-0.4336 I0.0041 J0.0053
X-5.7445 Y-6.6728 Z-0.4513 I-0.0041 J-0.0053
X-5.7363 Y-6.6622 Z-0.4691 I0.0041 J0.0053
X-5.7445 Y-6.6728 Z-0.4868 I-0.0041 J-0.0053
X-5.7363 Y-6.6622 Z-0.5045 I0.0041 J0.0053
X-5.7445 Y-6.6728 Z-0.5222 I-0.0041 J-0.0053
X-5.7359 Y-6.6726 Z-0.53 I0.0041 J0.0053
X-5.7448 Y-6.6624 I-0.0045 J0.0051
X-5.7359 Y-6.6726 I0.0045 J-0.0051
X-5.7356 Y-6.6678 I-0.0022 J0.0025 F60.
G1 X-5.7404 Y-6.6675
G0 Z0.4
X3.5596 Y-7.4856
Z0.13
G1 Z0.0688 F60.
G18 G2 X3.5784 Z0.05 I0.0187 K0.
G1 X3.5877
G17 G3 X3.6034 Y-7.47 I0. J0.0156
X3.5409 Z0.028 I-0.0312 J0. F80.
X3.6034 Z0.0059 I0.0312 J0.
X3.5409 Z-0.0161 I-0.0312 J0.
X3.6034 Z-0.0382 I0.0312 J0.
X3.5409 Z-0.0602 I-0.0312 J0.
X3.6034 Z-0.0822 I0.0312 J0.
X3.5409 Z-0.1043 I-0.0312 J0.
X3.6034 Z-0.1263 I0.0312 J0.
X3.5409 Z-0.1484 I-0.0312 J0.
X3.6034 Z-0.1704 I0.0313 J0.
X3.5409 Z-0.1924 I-0.0313 J0.
X3.6034 Z-0.2145 I0.0313 J0.
X3.5409 Z-0.2365 I-0.0313 J0.
X3.6034 Z-0.2586 I0.0313 J0.
X3.5409 Z-0.2806 I-0.0313 J0.
X3.6034 Z-0.3027 I0.0313 J0.
X3.5409 Z-0.3247 I-0.0313 J0.
X3.6034 Z-0.3467 I0.0313 J0.
X3.5409 Z-0.3688 I-0.0313 J0.
X3.6034 Z-0.3908 I0.0313 J0.
X3.5409 Z-0.4129 I-0.0313 J0.
X3.6034 Z-0.4349 I0.0313 J0.
X3.5409 Z-0.4569 I-0.0313 J0.
X3.6034 Z-0.479 I0.0313 J0.
X3.5409 Z-0.501 I-0.0313 J0.
X3.6034 Z-0.5231 I0.0313 J0.
X3.5893 Y-7.4439 Z-0.53 I-0.0313 J0.
X3.5549 Y-7.4961 I-0.0172 J-0.0261
X3.5893 Y-7.4439 I0.0172 J0.0261
X3.5677 Y-7.4484 I-0.0086 J-0.0131 F60.
G1 X3.5625 Y-7.4562
X3.5607 Y-7.4589 Z-0.5297
X3.559 Y-7.4615 Z-0.5289
X3.5573 Y-7.464 Z-0.5275
X3.5559 Y-7.4663 Z-0.5256
X3.5546 Y-7.4682 Z-0.5233
X3.5536 Y-7.4698 Z-0.5206
X3.5528 Y-7.4709 Z-0.5177
X3.5524 Y-7.4716 Z-0.5145
X3.5522 Y-7.4719 Z-0.5113
G0 Z0.4
X4.2596 Y-5.4544
Z0.0675
G1 Z0.0062 F60.
G18 G3 X4.2409 Z-0.0125 I-0.0187 K0.
G1 X4.2315
G17 G3 X4.2159 Y-5.47 I0. J-0.0156
X4.2784 Z-0.0345 I0.0312 J0. F80.
X4.2159 Z-0.0566 I-0.0312 J0.
X4.2784 Z-0.0786 I0.0312 J0.
X4.2159 Z-0.1007 I-0.0312 J0.
X4.2784 Z-0.1227 I0.0312 J0.
X4.2159 Z-0.1447 I-0.0312 J0.
X4.2784 Z-0.1668 I0.0312 J0.
X4.2159 Z-0.1888 I-0.0312 J0.
X4.2784 Z-0.2109 I0.0312 J0.
X4.2159 Z-0.2329 I-0.0312 J0.
X4.2784 Z-0.2549 I0.0312 J0.
X4.2159 Z-0.277 I-0.0312 J0.
X4.2784 Z-0.299 I0.0312 J0.
X4.2159 Z-0.3211 I-0.0312 J0.
X4.2784 Z-0.3431 I0.0312 J0.
X4.2159 Z-0.3652 I-0.0312 J0.
X4.2784 Z-0.3872 I0.0312 J0.
X4.2159 Z-0.4092 I-0.0312 J0.
X4.2784 Z-0.4313 I0.0312 J0.
X4.2159 Z-0.4533 I-0.0312 J0.
X4.2784 Z-0.4754 I0.0312 J0.
X4.2159 Z-0.4974 I-0.0312 J0.
X4.2784 Z-0.5194 I0.0312 J0.
X4.2492 Y-5.4388 Z-0.53 I-0.0312 J0.
X4.2451 Y-5.5012 I-0.002 J-0.0312
X4.2492 Y-5.4388 I0.002 J0.0312
X4.2326 Y-5.4534 I-0.001 J-0.0156 F60.
G1 X4.2319 Y-5.4627
X4.2317 Y-5.466 Z-0.5297
X4.2315 Y-5.4691 Z-0.5289
X4.2313 Y-5.4721 Z-0.5275
X4.2311 Y-5.4748 Z-0.5256
X4.231 Y-5.4771 Z-0.5233
X4.2309 Y-5.4789 Z-0.5206
X4.2308 Y-5.4803 Z-0.5177
X4.2307 Y-5.4812 Z-0.5145
Y-5.4814 Z-0.5113
G0 Z0.4
X5.3221 Y-3.4925
Z0.1113
G1 Z0.05 F60.
X5.3187 Y-3.4891
G3 X5.3154 Y-3.4925 I0. J-0.0034
X5.3289 Z0.0323 I0.0067 J0. F80.
X5.3154 Z0.0146 I-0.0067 J0.
X5.3289 Z-0.0032 I0.0067 J0.
X5.3154 Z-0.0209 I-0.0067 J0.
X5.3289 Z-0.0386 I0.0067 J0.
X5.3154 Z-0.0563 I-0.0067 J0.
X5.3289 Z-0.074 I0.0067 J0.
X5.3154 Z-0.0918 I-0.0067 J0.
X5.3289 Z-0.1095 I0.0067 J0.
X5.3154 Z-0.1272 I-0.0067 J0.
X5.3289 Z-0.1449 I0.0067 J0.
X5.3154 Z-0.1627 I-0.0067 J0.
X5.3289 Z-0.1804 I0.0067 J0.
X5.3154 Z-0.1981 I-0.0067 J0.
X5.3289 Z-0.2158 I0.0067 J0.
X5.3154 Z-0.2335 I-0.0067 J0.
X5.3289 Z-0.2513 I0.0067 J0.
X5.3154 Z-0.269 I-0.0067 J0.
X5.3289 Z-0.2867 I0.0067 J0.
X5.3154 Z-0.3044 I-0.0067 J0.
X5.3289 Z-0.3221 I0.0067 J0.
X5.3154 Z-0.3399 I-0.0067 J0.
X5.3289 Z-0.3576 I0.0067 J0.
X5.3154 Z-0.3753 I-0.0067 J0.
X5.3289 Z-0.393 I0.0067 J0.
X5.3154 Z-0.4107 I-0.0067 J0.
X5.3289 Z-0.4285 I0.0067 J0.
X5.3154 Z-0.4462 I-0.0067 J0.
X5.3289 Z-0.4639 I0.0067 J0.
X5.3154 Z-0.4816 I-0.0067 J0.
X5.3289 Z-0.4993 I0.0067 J0.
X5.3154 Z-0.5171 I-0.0067 J0.
X5.3266 Y-3.4976 Z-0.53 I0.0067 J0.
X5.3177 Y-3.4874 I-0.0045 J0.0051
X5.3266 Y-3.4976 I0.0045 J-0.0051
X5.3269 Y-3.4928 I-0.0022 J0.0025 F60.
G1 X5.3221 Y-3.4925
G0 Z0.4
Y-1.2425
Z0.1113
G1 Z0.05 F60.
X5.3187 Y-1.2391
G3 X5.3154 Y-1.2425 I0. J-0.0034
X5.3289 Z0.0323 I0.0067 J0. F80.
X5.3224 Y-1.2358 Z0.0236 I-0.0067 J0.
X5.3219 Y-1.2492 Z0.0059 I-0.0003 J-0.0067
X5.3224 Y-1.2358 Z-0.0118 I0.0003 J0.0067
X5.3219 Y-1.2492 Z-0.0295 I-0.0003 J-0.0067
X5.3224 Y-1.2358 Z-0.0472 I0.0003 J0.0067
X5.3219 Y-1.2492 Z-0.065 I-0.0003 J-0.0067
X5.3224 Y-1.2358 Z-0.0827 I0.0003 J0.0067
X5.3219 Y-1.2492 Z-0.1004 I-0.0003 J-0.0067
X5.3224 Y-1.2358 Z-0.1181 I0.0003 J0.0067
X5.3219 Y-1.2492 Z-0.1359 I-0.0003 J-0.0067
X5.3224 Y-1.2358 Z-0.1536 I0.0003 J0.0067
X5.3219 Y-1.2492 Z-0.1713 I-0.0003 J-0.0067
X5.3224 Y-1.2358 Z-0.189 I0.0003 J0.0067
X5.3219 Y-1.2492 Z-0.2067 I-0.0003 J-0.0067
X5.3224 Y-1.2358 Z-0.2245 I0.0003 J0.0067
X5.3219 Y-1.2492 Z-0.2422 I-0.0003 J-0.0067
X5.3224 Y-1.2358 Z-0.2599 I0.0003 J0.0067
X5.3219 Y-1.2492 Z-0.2776 I-0.0003 J-0.0067
X5.3224 Y-1.2358 Z-0.2953 I0.0003 J0.0067
X5.3219 Y-1.2492 Z-0.3131 I-0.0003 J-0.0067
X5.3224 Y-1.2358 Z-0.3308 I0.0003 J0.0067
X5.3219 Y-1.2492 Z-0.3485 I-0.0003 J-0.0067
X5.3224 Y-1.2358 Z-0.3662 I0.0003 J0.0067
X5.3219 Y-1.2492 Z-0.3839 I-0.0003 J-0.0067
X5.3224 Y-1.2358 Z-0.4017 I0.0003 J0.0067
X5.3219 Y-1.2492 Z-0.4194 I-0.0003 J-0.0067
X5.3224 Y-1.2358 Z-0.4371 I0.0003 J0.0067
X5.3219 Y-1.2492 Z-0.4548 I-0.0003 J-0.0067
X5.3224 Y-1.2358 Z-0.4725 I0.0003 J0.0067
X5.3219 Y-1.2492 Z-0.4903 I-0.0003 J-0.0067
X5.3224 Y-1.2358 Z-0.508 I0.0003 J0.0067
X5.3219 Y-1.2492 Z-0.5257 I-0.0003 J-0.0067
X5.3266 Y-1.2476 Z-0.53 I0.0003 J0.0067
X5.3177 Y-1.2374 I-0.0045 J0.0051
X5.3266 Y-1.2476 I0.0045 J-0.0051
X5.3269 Y-1.2428 I-0.0022 J0.0025 F60.
G1 X5.3221 Y-1.2425
G0 Z0.4
X3.0677 Y-2.394
Z0.1113
G1 Z0.05 F60.
X3.0711 Y-2.3974
G3 X3.0745 Y-2.394 I0. J0.0034
X3.061 Z0.0323 I-0.0067 J0. F80.
X3.0745 Z0.0146 I0.0067 J0.
X3.061 Z-0.0032 I-0.0067 J0.
X3.0745 Z-0.0209 I0.0067 J0.
X3.061 Z-0.0386 I-0.0067 J0.
X3.0745 Z-0.0563 I0.0067 J0.
X3.061 Z-0.074 I-0.0067 J0.
X3.0745 Z-0.0918 I0.0067 J0.
X3.061 Z-0.1095 I-0.0067 J0.
X3.0745 Z-0.1272 I0.0067 J0.
X3.061 Z-0.1449 I-0.0067 J0.
X3.0745 Z-0.1627 I0.0067 J0.
X3.061 Z-0.1804 I-0.0067 J0.
X3.0745 Z-0.1981 I0.0067 J0.
X3.061 Z-0.2158 I-0.0067 J0.
X3.0745 Z-0.2335 I0.0067 J0.
X3.061 Z-0.2513 I-0.0068 J0.
X3.0745 Z-0.269 I0.0068 J0.
X3.061 Z-0.2867 I-0.0068 J0.
X3.0745 Z-0.3044 I0.0068 J0.
X3.061 Z-0.3221 I-0.0068 J0.
X3.0745 Z-0.3399 I0.0068 J0.
X3.061 Z-0.3576 I-0.0068 J0.
X3.0745 Z-0.3753 I0.0068 J0.
X3.061 Z-0.393 I-0.0068 J0.
X3.0745 Z-0.4107 I0.0068 J0.
X3.061 Z-0.4285 I-0.0068 J0.
X3.0745 Z-0.4462 I0.0068 J0.
X3.061 Z-0.4639 I-0.0068 J0.
X3.0745 Z-0.4816 I0.0068 J0.
X3.061 Z-0.4993 I-0.0068 J0.
X3.0745 Z-0.5171 I0.0068 J0.
X3.0633 Y-2.3889 Z-0.53 I-0.0068 J0.
X3.0722 Y-2.3991 I0.0045 J-0.0051
X3.0633 Y-2.3889 I-0.0045 J0.0051
X3.063 Y-2.3937 I0.0022 J-0.0025 F60.
G1 X3.0677 Y-2.394
G0 Z0.4
X2.6427 Y-2.294
Z0.1113
G1 Z0.05 F60.
X2.6394 Y-2.2906
G3 X2.636 Y-2.294 I0. J-0.0034
X2.6495 Z0.0323 I0.0068 J0. F80.
X2.643 Y-2.2873 Z0.0236 I-0.0068 J0.
X2.6425 Y-2.3008 Z0.0059 I-0.0003 J-0.0067
X2.643 Y-2.2873 Z-0.0118 I0.0003 J0.0067
X2.6425 Y-2.3008 Z-0.0295 I-0.0003 J-0.0067
X2.643 Y-2.2873 Z-0.0472 I0.0003 J0.0067
X2.6425 Y-2.3008 Z-0.065 I-0.0003 J-0.0067
X2.643 Y-2.2873 Z-0.0827 I0.0003 J0.0067
X2.6425 Y-2.3008 Z-0.1004 I-0.0003 J-0.0067
X2.643 Y-2.2873 Z-0.1181 I0.0003 J0.0067
X2.6425 Y-2.3008 Z-0.1359 I-0.0003 J-0.0067
X2.643 Y-2.2873 Z-0.1536 I0.0003 J0.0067
X2.6425 Y-2.3008 Z-0.1713 I-0.0003 J-0.0067
X2.643 Y-2.2873 Z-0.189 I0.0003 J0.0067
X2.6425 Y-2.3008 Z-0.2067 I-0.0003 J-0.0067
X2.643 Y-2.2873 Z-0.2245 I0.0003 J0.0067
X2.6425 Y-2.3008 Z-0.2422 I-0.0003 J-0.0067
X2.643 Y-2.2873 Z-0.2599 I0.0003 J0.0067
X2.6425 Y-2.3008 Z-0.2776 I-0.0003 J-0.0067
X2.643 Y-2.2873 Z-0.2953 I0.0003 J0.0067
X2.6425 Y-2.3008 Z-0.3131 I-0.0003 J-0.0067
X2.643 Y-2.2873 Z-0.3308 I0.0003 J0.0067
X2.6425 Y-2.3008 Z-0.3485 I-0.0003 J-0.0067
X2.643 Y-2.2873 Z-0.3662 I0.0003 J0.0067
X2.6425 Y-2.3008 Z-0.3839 I-0.0003 J-0.0067
X2.643 Y-2.2873 Z-0.4017 I0.0003 J0.0067
X2.6425 Y-2.3008 Z-0.4194 I-0.0003 J-0.0067
X2.643 Y-2.2873 Z-0.4371 I0.0003 J0.0067
X2.6425 Y-2.3008 Z-0.4548 I-0.0003 J-0.0067
X2.643 Y-2.2873 Z-0.4725 I0.0003 J0.0067
X2.6425 Y-2.3008 Z-0.4903 I-0.0003 J-0.0067
X2.643 Y-2.2873 Z-0.508 I0.0003 J0.0067
X2.6425 Y-2.3008 Z-0.5257 I-0.0003 J-0.0067
X2.6472 Y-2.2991 Z-0.53 I0.0003 J0.0067
X2.6383 Y-2.2889 I-0.0045 J0.0051
X2.6472 Y-2.2991 I0.0045 J-0.0051
X2.6475 Y-2.2943 I-0.0022 J0.0025 F60.
G1 X2.6427 Y-2.294
G0 Z0.4
X1.6427
Z0.1113
G1 Z0.05 F60.
X1.6394 Y-2.2906
G3 X1.636 Y-2.294 I0. J-0.0034
X1.6495 Z0.0323 I0.0068 J0. F80.
X1.636 Z0.0146 I-0.0068 J0.
X1.6495 Z-0.0032 I0.0068 J0.
X1.636 Z-0.0209 I-0.0068 J0.
X1.6495 Z-0.0386 I0.0068 J0.
X1.636 Z-0.0563 I-0.0068 J0.
X1.6495 Z-0.074 I0.0068 J0.
X1.636 Z-0.0918 I-0.0068 J0.
X1.6495 Z-0.1095 I0.0068 J0.
X1.636 Z-0.1272 I-0.0068 J0.
X1.6495 Z-0.1449 I0.0068 J0.
X1.636 Z-0.1627 I-0.0068 J0.
X1.6495 Z-0.1804 I0.0067 J0.
X1.636 Z-0.1981 I-0.0067 J0.
X1.6495 Z-0.2158 I0.0067 J0.
X1.636 Z-0.2335 I-0.0067 J0.
X1.6495 Z-0.2513 I0.0067 J0.
X1.636 Z-0.269 I-0.0067 J0.
X1.6495 Z-0.2867 I0.0067 J0.
X1.636 Z-0.3044 I-0.0067 J0.
X1.6495 Z-0.3221 I0.0067 J0.
X1.636 Z-0.3399 I-0.0067 J0.
X1.6495 Z-0.3576 I0.0067 J0.
X1.636 Z-0.3753 I-0.0067 J0.
X1.6495 Z-0.393 I0.0067 J0.
X1.636 Z-0.4107 I-0.0067 J0.
X1.6495 Z-0.4285 I0.0067 J0.
X1.636 Z-0.4462 I-0.0067 J0.
X1.6495 Z-0.4639 I0.0067 J0.
X1.636 Z-0.4816 I-0.0067 J0.
X1.6495 Z-0.4993 I0.0067 J0.
X1.636 Z-0.5171 I-0.0067 J0.
X1.6472 Y-2.2991 Z-0.53 I0.0067 J0.
X1.6383 Y-2.2889 I-0.0045 J0.0051
X1.6472 Y-2.2991 I0.0045 J-0.0051
X1.6475 Y-2.2943 I-0.0022 J0.0025 F60.
G1 X1.6427 Y-2.294
G0 Z0.4
X0.0677 Y-2.394
Z0.1113
G1 Z0.05 F60.
X0.0644 Y-2.3906
G3 X0.061 Y-2.394 I0. J-0.0034
X0.0745 Z0.0323 I0.0068 J0. F80.
X0.061 Z0.0146 I-0.0067 J0.
X0.0745 Z-0.0032 I0.0067 J0.
X0.061 Z-0.0209 I-0.0067 J0.
X0.0745 Z-0.0386 I0.0067 J0.
X0.061 Z-0.0563 I-0.0067 J0.
X0.0745 Z-0.074 I0.0067 J0.
X0.061 Z-0.0918 I-0.0067 J0.
X0.0745 Z-0.1095 I0.0067 J0.
X0.061 Z-0.1272 I-0.0067 J0.
X0.0745 Z-0.1449 I0.0067 J0.
X0.061 Z-0.1627 I-0.0067 J0.
X0.0745 Z-0.1804 I0.0067 J0.
X0.061 Z-0.1981 I-0.0067 J0.
X0.0745 Z-0.2158 I0.0067 J0.
X0.061 Z-0.2335 I-0.0067 J0.
X0.0745 Z-0.2513 I0.0067 J0.
X0.061 Z-0.269 I-0.0067 J0.
X0.0745 Z-0.2867 I0.0067 J0.
X0.061 Z-0.3044 I-0.0067 J0.
X0.0745 Z-0.3221 I0.0067 J0.
X0.061 Z-0.3399 I-0.0067 J0.
X0.0745 Z-0.3576 I0.0067 J0.
X0.061 Z-0.3753 I-0.0067 J0.
X0.0745 Z-0.393 I0.0067 J0.
X0.061 Z-0.4107 I-0.0067 J0.
X0.0745 Z-0.4285 I0.0067 J0.
X0.061 Z-0.4462 I-0.0067 J0.
X0.0745 Z-0.4639 I0.0067 J0.
X0.061 Z-0.4816 I-0.0067 J0.
X0.0745 Z-0.4993 I0.0067 J0.
X0.061 Z-0.5171 I-0.0067 J0.
X0.0722 Y-2.3991 Z-0.53 I0.0067 J0.
X0.0633 Y-2.3889 I-0.0045 J0.0051
X0.0722 Y-2.3991 I0.0045 J-0.0051
X0.0725 Y-2.3943 I-0.0022 J0.0025 F60.
G1 X0.0677 Y-2.394
G0 Z0.4
X-0.2084 Y-4.8315
Z0.1113
G1 Z0.05 F60.
X-0.205 Y-4.8349
G3 X-0.2016 Y-4.8315 I0. J0.0034
X-0.2151 Z0.0323 I-0.0067 J0. F80.
X-0.2016 Z0.0146 I0.0067 J0.
X-0.2151 Z-0.0032 I-0.0067 J0.
X-0.2016 Z-0.0209 I0.0067 J0.
X-0.2151 Z-0.0386 I-0.0067 J0.
X-0.2016 Z-0.0563 I0.0067 J0.
X-0.2151 Z-0.074 I-0.0068 J0.
X-0.2016 Z-0.0918 I0.0068 J0.
X-0.2151 Z-0.1095 I-0.0068 J0.
X-0.2016 Z-0.1272 I0.0068 J0.
X-0.2151 Z-0.1449 I-0.0068 J0.
X-0.2016 Z-0.1627 I0.0068 J0.
X-0.2151 Z-0.1804 I-0.0068 J0.
X-0.2016 Z-0.1981 I0.0068 J0.
X-0.2151 Z-0.2158 I-0.0068 J0.
X-0.2016 Z-0.2335 I0.0068 J0.
X-0.2151 Z-0.2513 I-0.0068 J0.
X-0.2016 Z-0.269 I0.0068 J0.
X-0.2151 Z-0.2867 I-0.0068 J0.
X-0.2016 Z-0.3044 I0.0068 J0.
X-0.2151 Z-0.3221 I-0.0068 J0.
X-0.2016 Z-0.3399 I0.0068 J0.
X-0.2151 Z-0.3576 I-0.0068 J0.
X-0.2016 Z-0.3753 I0.0068 J0.
X-0.2151 Z-0.393 I-0.0068 J0.
X-0.2016 Z-0.4107 I0.0068 J0.
X-0.2151 Z-0.4285 I-0.0068 J0.
X-0.2016 Z-0.4462 I0.0068 J0.
X-0.2151 Z-0.4639 I-0.0068 J0.
X-0.2016 Z-0.4816 I0.0068 J0.
X-0.2151 Z-0.4993 I-0.0068 J0.
X-0.2016 Z-0.5171 I0.0068 J0.
X-0.2128 Y-4.8264 Z-0.53 I-0.0068 J0.
X-0.2039 Y-4.8366 I0.0045 J-0.0051
X-0.2128 Y-4.8264 I-0.0045 J0.0051
X-0.2131 Y-4.8312 I0.0022 J-0.0025 F60.
G1 X-0.2084 Y-4.8315
G0 Z0.4
X0.1113 Y-7.305
Z0.1113
G1 Z0.05 F60.
X0.1147 Y-7.3084
G3 X0.1181 Y-7.305 I0. J0.0034
X0.1046 Z0.0323 I-0.0067 J0. F80.
X0.1181 Z0.0146 I0.0068 J0.
X0.1046 Z-0.0032 I-0.0068 J0.
X0.1181 Z-0.0209 I0.0068 J0.
X0.1046 Z-0.0386 I-0.0068 J0.
X0.118 Y-7.306 Z-0.0555 I0.0068 J0.
X0.1046 Y-7.304 Z-0.0732 I-0.0067 J0.001
X0.118 Y-7.306 Z-0.0909 I0.0067 J-0.001
X0.1046 Y-7.304 Z-0.1086 I-0.0067 J0.001
X0.118 Y-7.306 Z-0.1263 I0.0067 J-0.001
X0.1046 Y-7.304 Z-0.1441 I-0.0067 J0.001
X0.118 Y-7.306 Z-0.1618 I0.0067 J-0.001
X0.1046 Y-7.304 Z-0.1795 I-0.0067 J0.001
X0.118 Y-7.306 Z-0.1972 I0.0067 J-0.001
X0.1046 Y-7.304 Z-0.2149 I-0.0067 J0.001
X0.118 Y-7.306 Z-0.2327 I0.0067 J-0.001
X0.1046 Y-7.304 Z-0.2504 I-0.0067 J0.001
X0.118 Y-7.306 Z-0.2681 I0.0067 J-0.001
X0.1046 Y-7.304 Z-0.2858 I-0.0067 J0.001
X0.118 Y-7.306 Z-0.3035 I0.0067 J-0.001
X0.1046 Y-7.304 Z-0.3213 I-0.0067 J0.001
X0.118 Y-7.306 Z-0.339 I0.0067 J-0.001
X0.1046 Y-7.304 Z-0.3567 I-0.0067 J0.001
X0.118 Y-7.306 Z-0.3744 I0.0067 J-0.001
X0.1046 Y-7.304 Z-0.3922 I-0.0067 J0.001
X0.118 Y-7.306 Z-0.4099 I0.0067 J-0.001
X0.1046 Y-7.304 Z-0.4276 I-0.0067 J0.001
X0.118 Y-7.306 Z-0.4453 I0.0067 J-0.001
X0.1046 Y-7.304 Z-0.463 I-0.0067 J0.001
X0.118 Y-7.306 Z-0.4808 I0.0067 J-0.001
X0.1046 Y-7.304 Z-0.4985 I-0.0067 J0.001
X0.118 Y-7.306 Z-0.5162 I0.0067 J-0.001
X0.1069 Y-7.2999 Z-0.53 I-0.0067 J0.001
X0.1158 Y-7.3101 I0.0045 J-0.0051
X0.1069 Y-7.2999 I-0.0045 J0.0051
X0.1065 Y-7.3047 I0.0022 J-0.0025 F60.
G1 X0.1113 Y-7.305
G0 Z0.4
X-1.9279 Y-6.3541
Z0.1113
G1 Z0.05 F60.
X-1.9245 Y-6.3575
G3 X-1.9211 Y-6.3541 I0. J0.0034
X-1.9346 Z0.0323 I-0.0068 J0. F80.
X-1.9211 Z0.0146 I0.0068 J0.
X-1.9346 Z-0.0032 I-0.0068 J0.
X-1.9211 Z-0.0209 I0.0068 J0.
X-1.9346 Z-0.0386 I-0.0068 J0.
X-1.9212 Y-6.3551 Z-0.0555 I0.0068 J0.
X-1.9345 Y-6.3531 Z-0.0732 I-0.0067 J0.001
X-1.9292 Y-6.3607 Z-0.0818 I0.0067 J-0.001
X-1.9266 Y-6.3475 Z-0.0995 I0.0013 J0.0066
X-1.9292 Y-6.3607 Z-0.1173 I-0.0013 J-0.0066
X-1.9266 Y-6.3475 Z-0.135 I0.0013 J0.0066
X-1.9292 Y-6.3607 Z-0.1527 I-0.0013 J-0.0066
X-1.9214 Y-6.3562 Z-0.1609 I0.0013 J0.0066
X-1.9343 Y-6.3521 Z-0.1786 I-0.0064 J0.0021
X-1.9302 Y-6.3605 Z-0.1873 I0.0064 J-0.0021
X-1.9256 Y-6.3478 Z-0.205 I0.0023 J0.0063
X-1.9302 Y-6.3605 Z-0.2227 I-0.0023 J-0.0063
X-1.9256 Y-6.3478 Z-0.2404 I0.0023 J0.0063
X-1.9302 Y-6.3605 Z-0.2582 I-0.0023 J-0.0063
X-1.9256 Y-6.3478 Z-0.2759 I0.0023 J0.0063
X-1.9302 Y-6.3605 Z-0.2936 I-0.0023 J-0.0063
X-1.9256 Y-6.3478 Z-0.3113 I0.0023 J0.0063
X-1.9302 Y-6.3605 Z-0.329 I-0.0023 J-0.0063
X-1.9256 Y-6.3478 Z-0.3468 I0.0023 J0.0063
X-1.9302 Y-6.3605 Z-0.3645 I-0.0023 J-0.0063
X-1.9256 Y-6.3478 Z-0.3822 I0.0023 J0.0063
X-1.9302 Y-6.3605 Z-0.3999 I-0.0023 J-0.0063
X-1.9256 Y-6.3478 Z-0.4176 I0.0023 J0.0063
X-1.9302 Y-6.3605 Z-0.4354 I-0.0023 J-0.0063
X-1.9256 Y-6.3478 Z-0.4531 I0.0023 J0.0063
X-1.9302 Y-6.3605 Z-0.4708 I-0.0023 J-0.0063
X-1.9256 Y-6.3478 Z-0.4885 I0.0023 J0.0063
X-1.9302 Y-6.3605 Z-0.5062 I-0.0023 J-0.0063
X-1.9256 Y-6.3478 Z-0.524 I0.0023 J0.0063
X-1.9323 Y-6.349 Z-0.53 I-0.0023 J-0.0063
X-1.9234 Y-6.3592 I0.0045 J-0.0051
X-1.9323 Y-6.349 I-0.0045 J0.0051
X-1.9326 Y-6.3538 I0.0022 J-0.0025 F60.
G1 X-1.9279 Y-6.3541
G0 Z0.4
X-3.6904 Y-7.4856
Z0.13
G1 Z0.0688 F60.
G18 G2 X-3.6716 Z0.05 I0.0187 K0.
G1 X-3.6623
G17 G3 X-3.6466 Y-7.47 I0. J0.0156
X-3.7091 Z0.028 I-0.0312 J0. F80.
X-3.6466 Z0.0059 I0.0312 J0.
X-3.7091 Z-0.0161 I-0.0312 J0.
X-3.6466 Z-0.0382 I0.0312 J0.
X-3.7091 Z-0.0602 I-0.0312 J0.
X-3.6466 Z-0.0822 I0.0312 J0.
X-3.7091 Z-0.1043 I-0.0312 J0.
X-3.6466 Z-0.1263 I0.0312 J0.
X-3.7091 Z-0.1484 I-0.0312 J0.
X-3.6466 Z-0.1704 I0.0313 J0.
X-3.7091 Z-0.1924 I-0.0313 J0.
X-3.6466 Z-0.2145 I0.0313 J0.
X-3.7091 Z-0.2365 I-0.0313 J0.
X-3.6466 Z-0.2586 I0.0313 J0.
X-3.7091 Z-0.2806 I-0.0313 J0.
X-3.6466 Z-0.3027 I0.0313 J0.
X-3.7091 Z-0.3247 I-0.0313 J0.
X-3.6466 Z-0.3467 I0.0313 J0.
X-3.7091 Z-0.3688 I-0.0313 J0.
X-3.6466 Z-0.3908 I0.0313 J0.
X-3.7091 Z-0.4129 I-0.0313 J0.
X-3.6466 Z-0.4349 I0.0313 J0.
X-3.7091 Z-0.4569 I-0.0313 J0.
X-3.6466 Z-0.479 I0.0313 J0.
X-3.7091 Z-0.501 I-0.0313 J0.
X-3.6466 Z-0.5231 I0.0313 J0.
X-3.6607 Y-7.4439 Z-0.53 I-0.0313 J0.
X-3.6951 Y-7.4961 I-0.0172 J-0.0261
X-3.6607 Y-7.4439 I0.0172 J0.0261
X-3.6823 Y-7.4484 I-0.0086 J-0.0131 F60.
G1 X-3.6875 Y-7.4562
X-3.6893 Y-7.4589 Z-0.5297
X-3.691 Y-7.4615 Z-0.5289
X-3.6927 Y-7.464 Z-0.5275
X-3.6941 Y-7.4663 Z-0.5256
X-3.6954 Y-7.4682 Z-0.5233
X-3.6964 Y-7.4698 Z-0.5206
X-3.6972 Y-7.4709 Z-0.5177
X-3.6976 Y-7.4716 Z-0.5145
X-3.6978 Y-7.4719 Z-0.5113
G0 Z0.4
X-3.7118 Y-6.6675
Z0.1113
G1 Z0.05 F60.
X-3.7085 Y-6.6709
G3 X-3.7051 Y-6.6675 I0. J0.0034
X-3.7186 Z0.0323 I-0.0067 J0. F80.
X-3.7051 Z0.0146 I0.0067 J0.
X-3.7186 Y-6.667 Z-0.0027 I-0.0067 J0.
X-3.7051 Y-6.668 Z-0.0204 I0.0067 J-0.0005
X-3.7186 Y-6.667 Z-0.0382 I-0.0067 J0.0005
X-3.7052 Y-6.6685 Z-0.0555 I0.0067 J-0.0005
X-3.7185 Y-6.6665 Z-0.0732 I-0.0067 J0.001
X-3.7052 Y-6.6685 Z-0.0909 I0.0067 J-0.001
X-3.7184 Y-6.666 Z-0.1082 I-0.0067 J0.001
X-3.7053 Y-6.669 Z-0.1259 I0.0066 J-0.0015
X-3.7184 Y-6.666 Z-0.1436 I-0.0066 J0.0015
X-3.7054 Y-6.6696 Z-0.1609 I0.0066 J-0.0015
X-3.7183 Y-6.6654 Z-0.1786 I-0.0064 J0.0021
X-3.7054 Y-6.6696 Z-0.1964 I0.0064 J-0.0021
X-3.7183 Y-6.6654 Z-0.2141 I-0.0064 J0.0021
X-3.7054 Y-6.6696 Z-0.2318 I0.0064 J-0.0021
X-3.7183 Y-6.6654 Z-0.2495 I-0.0064 J0.0021
X-3.7058 Y-6.6705 Z-0.2664 I0.0064 J-0.0021
X-3.7179 Y-6.6645 Z-0.2841 I-0.006 J0.003
X-3.7151 Y-6.6734 Z-0.2927 I0.006 J-0.003
X-3.7086 Y-6.6616 Z-0.3104 I0.0032 J0.0059
X-3.7151 Y-6.6734 Z-0.3282 I-0.0032 J-0.0059
X-3.7086 Y-6.6616 Z-0.3459 I0.0032 J0.0059
X-3.7151 Y-6.6734 Z-0.3636 I-0.0032 J-0.0059
X-3.7063 Y-6.6714 Z-0.3718 I0.0032 J0.0059
X-3.7173 Y-6.6636 Z-0.3895 I-0.0055 J0.0039
X-3.7063 Y-6.6714 Z-0.4073 I0.0055 J-0.0039
X-3.717 Y-6.6632 Z-0.4245 I-0.0055 J0.0039
X-3.7067 Y-6.6718 Z-0.4423 I0.0052 J-0.0043
X-3.717 Y-6.6632 Z-0.46 I-0.0052 J0.0043
X-3.707 Y-6.6722 Z-0.4773 I0.0052 J-0.0043
X-3.7167 Y-6.6628 Z-0.495 I-0.0048 J0.0047
Y-6.6722 Z-0.5036 I0.0048 J-0.0047
X-3.7069 Y-6.6628 Z-0.5214 I0.0049 J0.0047
X-3.7163 Y-6.6624 Z-0.53 I-0.0049 J-0.0047
X-3.7074 Y-6.6726 I0.0045 J-0.0051
X-3.7163 Y-6.6624 I-0.0045 J0.0051
X-3.7166 Y-6.6672 I0.0022 J-0.0025 F60.
G1 X-3.7118 Y-6.6675
G0 Z0.4
Y-5.8925
Z0.1113
G1 Z0.05 F60.
X-3.7085 Y-5.8959
G3 X-3.7051 Y-5.8925 I0. J0.0034
X-3.7186 Z0.0323 I-0.0067 J0. F80.
X-3.7051 Z0.0146 I0.0067 J0.
X-3.7186 Z-0.0032 I-0.0067 J0.
X-3.7051 Z-0.0209 I0.0067 J0.
X-3.7186 Z-0.0386 I-0.0067 J0.
X-3.7051 Z-0.0563 I0.0067 J0.
X-3.7186 Z-0.074 I-0.0067 J0.
X-3.7051 Z-0.0918 I0.0067 J0.
X-3.7186 Z-0.1095 I-0.0067 J0.
X-3.7051 Z-0.1272 I0.0067 J0.
X-3.7186 Z-0.1449 I-0.0067 J0.
X-3.7051 Z-0.1627 I0.0067 J0.
X-3.7186 Z-0.1804 I-0.0067 J0.
X-3.7051 Z-0.1981 I0.0067 J0.
X-3.7181 Y-5.89 Z-0.2136 I-0.0067 J0.
X-3.7056 Y-5.895 Z-0.2314 I0.0063 J-0.0025
X-3.7091 Y-5.8863 Z-0.24 I-0.0063 J0.0025
X-3.7146 Y-5.8987 Z-0.2577 I-0.0028 J-0.0062
X-3.7091 Y-5.8863 Z-0.2754 I0.0028 J0.0062
X-3.7146 Y-5.8987 Z-0.2932 I-0.0028 J-0.0062
X-3.7091 Y-5.8863 Z-0.3109 I0.0028 J0.0062
X-3.7146 Y-5.8987 Z-0.3286 I-0.0028 J-0.0062
X-3.7091 Y-5.8863 Z-0.3463 I0.0028 J0.0062
X-3.7146 Y-5.8987 Z-0.364 I-0.0028 J-0.0062
X-3.7063 Y-5.8964 Z-0.3718 I0.0028 J0.0062
X-3.7173 Y-5.8886 Z-0.3895 I-0.0055 J0.0039
X-3.716 Y-5.8978 Z-0.3982 I0.0055 J-0.0039
X-3.7077 Y-5.8872 Z-0.4159 I0.0041 J0.0053
X-3.716 Y-5.8978 Z-0.4336 I-0.0041 J-0.0053
X-3.7077 Y-5.8872 Z-0.4513 I0.0041 J0.0053
X-3.716 Y-5.8978 Z-0.4691 I-0.0041 J-0.0053
X-3.7077 Y-5.8872 Z-0.4868 I0.0041 J0.0053
X-3.716 Y-5.8978 Z-0.5045 I-0.0041 J-0.0053
X-3.7077 Y-5.8872 Z-0.5222 I0.0041 J0.0053
X-3.7163 Y-5.8874 Z-0.53 I-0.0041 J-0.0053
X-3.7074 Y-5.8976 I0.0045 J-0.0051
X-3.7163 Y-5.8874 I-0.0045 J0.0051
X-3.7166 Y-5.8922 I0.0022 J-0.0025 F60.
G1 X-3.7118 Y-5.8925
G0 Z0.4
X-4.6154 Y-4.9856
Z0.0675
G1 Z0.0062 F60.
G18 G2 X-4.5966 Z-0.0125 I0.0187 K0.
G1 X-4.5873
G17 G3 X-4.5716 Y-4.97 I0. J0.0156
X-4.6341 Z-0.0345 I-0.0313 J0. F80.
X-4.5716 Z-0.0566 I0.0313 J0.
X-4.6341 Z-0.0786 I-0.0313 J0.
X-4.5716 Z-0.1007 I0.0313 J0.
X-4.6341 Z-0.1227 I-0.0313 J0.
X-4.5716 Z-0.1447 I0.0313 J0.
X-4.6341 Z-0.1668 I-0.0313 J0.
X-4.5716 Z-0.1888 I0.0313 J0.
X-4.6341 Z-0.2109 I-0.0313 J0.
X-4.5716 Z-0.2329 I0.0313 J0.
X-4.6341 Z-0.2549 I-0.0313 J0.
X-4.5716 Z-0.277 I0.0313 J0.
X-4.6341 Z-0.299 I-0.0313 J0.
X-4.5716 Z-0.3211 I0.0313 J0.
X-4.6341 Z-0.3431 I-0.0313 J0.
X-4.5716 Z-0.3652 I0.0312 J0.
X-4.6341 Z-0.3872 I-0.0312 J0.
X-4.5716 Z-0.4092 I0.0312 J0.
X-4.6341 Z-0.4313 I-0.0312 J0.
X-4.5716 Z-0.4533 I0.0312 J0.
X-4.6341 Z-0.4754 I-0.0312 J0.
X-4.5716 Z-0.4974 I0.0312 J0.
X-4.6341 Z-0.5194 I-0.0312 J0.
X-4.6049 Y-5.0012 Z-0.53 I0.0312 J0.
X-4.6008 Y-4.9388 I0.002 J0.0312
X-4.6049 Y-5.0012 I-0.002 J-0.0312
X-4.5883 Y-4.9866 I0.001 J0.0156 F60.
G1 X-4.5877 Y-4.9773
X-4.5875 Y-4.974 Z-0.5297
X-4.5873 Y-4.9709 Z-0.5289
X-4.5871 Y-4.9679 Z-0.5275
X-4.5869 Y-4.9652 Z-0.5256
X-4.5868 Y-4.9629 Z-0.5233
X-4.5866 Y-4.9611 Z-0.5206
X-4.5865 Y-4.9597 Z-0.5177
Y-4.9588 Z-0.5145
Y-4.9586 Z-0.5113
G0 Z0.4
X-4.1779 Y-3.9985
Z0.1113
G1 Z0.05 F60.
X-4.1745 Y-4.0019
G3 X-4.1711 Y-3.9985 I0. J0.0034
X-4.1846 Z0.0323 I-0.0068 J0. F80.
X-4.1711 Z0.0146 I0.0068 J0.
X-4.1846 Z-0.0032 I-0.0068 J0.
X-4.1711 Z-0.0209 I0.0068 J0.
X-4.1846 Z-0.0386 I-0.0068 J0.
X-4.1711 Z-0.0563 I0.0067 J0.
X-4.1846 Z-0.074 I-0.0067 J0.
X-4.1792 Y-4.0052 Z-0.0818 I0.0067 J0.
X-4.1766 Y-3.9919 Z-0.0995 I0.0013 J0.0066
X-4.1844 Y-3.997 Z-0.1082 I-0.0013 J-0.0066
X-4.1713 Y-4.0001 Z-0.1259 I0.0066 J-0.0015
X-4.1844 Y-3.997 Z-0.1436 I-0.0066 J0.0015
X-4.1713 Y-4.0001 Z-0.1613 I0.0066 J-0.0015
X-4.1844 Y-3.997 Z-0.1791 I-0.0066 J0.0015
X-4.1713 Y-4.0001 Z-0.1968 I0.0066 J-0.0015
X-4.1844 Y-3.997 Z-0.2145 I-0.0066 J0.0015
X-4.1713 Y-4.0001 Z-0.2322 I0.0066 J-0.0015
X-4.1844 Y-3.997 Z-0.2499 I-0.0066 J0.0015
X-4.1713 Y-4.0001 Z-0.2677 I0.0066 J-0.0015
X-4.1844 Y-3.997 Z-0.2854 I-0.0066 J0.0015
X-4.1713 Y-4.0001 Z-0.3031 I0.0066 J-0.0015
X-4.1844 Y-3.997 Z-0.3208 I-0.0066 J0.0015
X-4.1713 Y-4.0001 Z-0.3386 I0.0066 J-0.0015
X-4.1844 Y-3.997 Z-0.3563 I-0.0066 J0.0015
X-4.1713 Y-4.0001 Z-0.374 I0.0066 J-0.0015
X-4.1844 Y-3.997 Z-0.3917 I-0.0066 J0.0015
X-4.1713 Y-4.0001 Z-0.4094 I0.0066 J-0.0015
X-4.1844 Y-3.997 Z-0.4272 I-0.0066 J0.0015
X-4.1713 Y-4.0001 Z-0.4449 I0.0066 J-0.0015
X-4.1844 Y-3.997 Z-0.4626 I-0.0066 J0.0015
X-4.1713 Y-4.0001 Z-0.4803 I0.0066 J-0.0015
X-4.1844 Y-3.997 Z-0.498 I-0.0066 J0.0015
X-4.1713 Y-4.0001 Z-0.5158 I0.0066 J-0.0015
X-4.1823 Y-3.9935 Z-0.53 I-0.0066 J0.0015
X-4.1734 Y-4.0036 I0.0045 J-0.0051
X-4.1823 Y-3.9935 I-0.0045 J0.0051
X-4.1826 Y-3.9982 I0.0022 J-0.0025 F60.
G1 X-4.1779 Y-3.9985
G0 Z0.4
X-3.4029
Z0.1113
G1 Z0.05 F60.
X-3.4063 Y-3.9952
G3 X-3.4096 Y-3.9985 I0. J-0.0034
X-3.3961 Z0.0323 I0.0068 J0. F80.
X-3.4096 Z0.0146 I-0.0068 J0.
X-3.3961 Z-0.0032 I0.0068 J0.
X-3.4096 Z-0.0209 I-0.0068 J0.
X-3.3961 Z-0.0386 I0.0068 J0.
X-3.4096 Z-0.0563 I-0.0068 J0.
X-3.3961 Z-0.074 I0.0068 J0.
X-3.4096 Z-0.0918 I-0.0068 J0.
X-3.3961 Z-0.1095 I0.0068 J0.
X-3.4096 Z-0.1272 I-0.0068 J0.
X-3.3961 Z-0.1449 I0.0068 J0.
X-3.4096 Z-0.1627 I-0.0068 J0.
X-3.3961 Z-0.1804 I0.0068 J0.
X-3.4096 Z-0.1981 I-0.0068 J0.
X-3.3961 Z-0.2158 I0.0068 J0.
X-3.4096 Z-0.2335 I-0.0068 J0.
X-3.3961 Z-0.2513 I0.0068 J0.
X-3.4096 Z-0.269 I-0.0068 J0.
X-3.3961 Z-0.2867 I0.0068 J0.
X-3.4096 Z-0.3044 I-0.0068 J0.
X-3.3961 Z-0.3221 I0.0068 J0.
X-3.4096 Z-0.3399 I-0.0067 J0.
X-3.3961 Z-0.3576 I0.0067 J0.
X-3.4096 Z-0.3753 I-0.0067 J0.
X-3.3961 Z-0.393 I0.0067 J0.
X-3.4096 Z-0.4107 I-0.0067 J0.
X-3.3961 Z-0.4285 I0.0067 J0.
X-3.4096 Z-0.4462 I-0.0067 J0.
X-3.3961 Z-0.4639 I0.0067 J0.
X-3.4096 Z-0.4816 I-0.0067 J0.
X-3.3961 Z-0.4993 I0.0067 J0.
X-3.4096 Z-0.5171 I-0.0067 J0.
X-3.3984 Y-4.0036 Z-0.53 I0.0067 J0.
X-3.4073 Y-3.9935 I-0.0045 J0.0051
X-3.3984 Y-4.0036 I0.0045 J-0.0051
X-3.3981 Y-3.9988 I-0.0022 J0.0025 F60.
G1 X-3.4029 Y-3.9985
G0 Z0.4
X-3.6636 Y-3.4143
Z0.1113
G1 Z0.05 F60.
X-3.6602 Y-3.4176
G3 X-3.6569 Y-3.4143 I0. J0.0034
X-3.6704 Z0.0323 I-0.0067 J0. F80.
X-3.6569 Z0.0146 I0.0067 J0.
X-3.6704 Z-0.0032 I-0.0067 J0.
X-3.6569 Z-0.0209 I0.0067 J0.
X-3.6704 Z-0.0386 I-0.0067 J0.
X-3.6569 Z-0.0563 I0.0067 J0.
X-3.6704 Z-0.074 I-0.0067 J0.
X-3.6569 Z-0.0918 I0.0067 J0.
X-3.6704 Z-0.1095 I-0.0067 J0.
X-3.6569 Z-0.1272 I0.0067 J0.
X-3.6704 Z-0.1449 I-0.0067 J0.
X-3.6569 Z-0.1627 I0.0067 J0.
X-3.6704 Z-0.1804 I-0.0067 J0.
X-3.6569 Z-0.1981 I0.0067 J0.
X-3.6704 Z-0.2158 I-0.0067 J0.
X-3.6569 Z-0.2335 I0.0067 J0.
X-3.6704 Z-0.2513 I-0.0067 J0.
X-3.6569 Z-0.269 I0.0067 J0.
X-3.6704 Z-0.2867 I-0.0067 J0.
X-3.6569 Z-0.3044 I0.0067 J0.
X-3.6704 Z-0.3221 I-0.0067 J0.
X-3.6569 Z-0.3399 I0.0067 J0.
X-3.6704 Z-0.3576 I-0.0067 J0.
X-3.6569 Z-0.3753 I0.0067 J0.
X-3.6704 Z-0.393 I-0.0067 J0.
X-3.6569 Z-0.4107 I0.0067 J0.
X-3.6704 Z-0.4285 I-0.0067 J0.
X-3.6569 Z-0.4462 I0.0067 J0.
X-3.6704 Z-0.4639 I-0.0067 J0.
X-3.6569 Z-0.4816 I0.0067 J0.
X-3.6704 Z-0.4993 I-0.0067 J0.
X-3.6569 Z-0.5171 I0.0067 J0.
X-3.6681 Y-3.4092 Z-0.53 I-0.0067 J0.
X-3.6591 Y-3.4193 I0.0045 J-0.0051
X-3.6681 Y-3.4092 I-0.0045 J0.0051
X-3.6684 Y-3.414 I0.0022 J-0.0025 F60.
G1 X-3.6636 Y-3.4143
G0 Z0.4
X-2.9924 Y-3.0268
Z0.1113
G1 Z0.05 F60.
X-2.9958 Y-3.0234
G3 X-2.9992 Y-3.0268 I0. J-0.0034
X-2.9857 Z0.0323 I0.0067 J0. F80.
X-2.9992 Z0.0146 I-0.0067 J0.
X-2.9857 Z-0.0032 I0.0067 J0.
X-2.9992 Z-0.0209 I-0.0067 J0.
X-2.9857 Z-0.0386 I0.0067 J0.
X-2.9992 Z-0.0563 I-0.0067 J0.
X-2.9857 Z-0.074 I0.0067 J0.
X-2.9992 Z-0.0918 I-0.0067 J0.
X-2.9857 Z-0.1095 I0.0067 J0.
X-2.9992 Z-0.1272 I-0.0067 J0.
X-2.9857 Z-0.1449 I0.0067 J0.
X-2.9992 Z-0.1627 I-0.0067 J0.
X-2.9857 Z-0.1804 I0.0067 J0.
X-2.9992 Z-0.1981 I-0.0067 J0.
X-2.9857 Z-0.2158 I0.0067 J0.
X-2.9992 Z-0.2335 I-0.0067 J0.
X-2.9857 Z-0.2513 I0.0068 J0.
X-2.9992 Z-0.269 I-0.0068 J0.
X-2.9857 Z-0.2867 I0.0068 J0.
X-2.9992 Z-0.3044 I-0.0068 J0.
X-2.9857 Z-0.3221 I0.0068 J0.
X-2.9992 Z-0.3399 I-0.0068 J0.
X-2.9857 Z-0.3576 I0.0068 J0.
X-2.9992 Z-0.3753 I-0.0068 J0.
X-2.9857 Z-0.393 I0.0068 J0.
X-2.9992 Z-0.4107 I-0.0068 J0.
X-2.9857 Z-0.4285 I0.0068 J0.
X-2.9992 Z-0.4462 I-0.0068 J0.
X-2.9857 Z-0.4639 I0.0068 J0.
X-2.9992 Z-0.4816 I-0.0068 J0.
X-2.9857 Z-0.4993 I0.0068 J0.
X-2.9992 Z-0.5171 I-0.0068 J0.
X-2.988 Y-3.0318 Z-0.53 I0.0068 J0.
X-2.9969 Y-3.0217 I-0.0045 J0.0051
X-2.988 Y-3.0318 I0.0045 J-0.0051
X-2.9877 Y-3.0271 I-0.0022 J0.0025 F60.
G1 X-2.9924 Y-3.0268
G0 Z0.4
X-2.0515 Y-3.541
Z0.1113
G1 Z0.05 F60.
X-2.0548 Y-3.5376
G3 X-2.0582 Y-3.541 I0. J-0.0034
X-2.0447 Z0.0323 I0.0068 J0. F80.
X-2.0582 Z0.0146 I-0.0068 J0.
X-2.0447 Z-0.0032 I0.0068 J0.
X-2.0582 Z-0.0209 I-0.0068 J0.
X-2.0447 Z-0.0386 I0.0068 J0.
X-2.0582 Z-0.0563 I-0.0068 J0.
X-2.0447 Z-0.074 I0.0068 J0.
X-2.0582 Z-0.0918 I-0.0068 J0.
X-2.0447 Z-0.1095 I0.0068 J0.
X-2.0582 Z-0.1272 I-0.0068 J0.
X-2.0447 Z-0.1449 I0.0068 J0.
X-2.0582 Z-0.1627 I-0.0068 J0.
X-2.0447 Z-0.1804 I0.0068 J0.
X-2.0582 Z-0.1981 I-0.0068 J0.
X-2.0447 Z-0.2158 I0.0068 J0.
X-2.0582 Z-0.2335 I-0.0068 J0.
X-2.0447 Z-0.2513 I0.0068 J0.
X-2.0582 Z-0.269 I-0.0068 J0.
X-2.0447 Z-0.2867 I0.0068 J0.
X-2.0582 Z-0.3044 I-0.0068 J0.
X-2.0447 Z-0.3221 I0.0068 J0.
X-2.0582 Z-0.3399 I-0.0068 J0.
X-2.0447 Z-0.3576 I0.0068 J0.
X-2.0582 Z-0.3753 I-0.0068 J0.
X-2.0447 Z-0.393 I0.0068 J0.
X-2.0582 Z-0.4107 I-0.0068 J0.
X-2.0447 Z-0.4285 I0.0068 J0.
X-2.0582 Z-0.4462 I-0.0068 J0.
X-2.0447 Z-0.4639 I0.0068 J0.
X-2.0582 Z-0.4816 I-0.0068 J0.
X-2.0447 Z-0.4993 I0.0068 J0.
X-2.0582 Z-0.5171 I-0.0067 J0.
X-2.047 Y-3.546 Z-0.53 I0.0067 J0.
X-2.0559 Y-3.5359 I-0.0045 J0.0051
X-2.047 Y-3.546 I0.0045 J-0.0051
X-2.0467 Y-3.5413 I-0.0022 J0.0025 F60.
G1 X-2.0515 Y-3.541
G0 Z0.4
X-3.4029 Y-1.97
Z0.1113
G1 Z0.05 F60.
X-3.4063 Y-1.9666
G3 X-3.4096 Y-1.97 I0. J-0.0034
X-3.3961 Z0.0323 I0.0068 J0. F80.
X-3.4096 Z0.0146 I-0.0068 J0.
X-3.3961 Z-0.0032 I0.0068 J0.
X-3.4096 Z-0.0209 I-0.0068 J0.
X-3.3961 Z-0.0386 I0.0068 J0.
X-3.4096 Z-0.0563 I-0.0068 J0.
X-3.3961 Z-0.074 I0.0068 J0.
X-3.4096 Z-0.0918 I-0.0068 J0.
X-3.3961 Z-0.1095 I0.0068 J0.
X-3.4096 Z-0.1272 I-0.0068 J0.
X-3.3961 Z-0.1449 I0.0068 J0.
X-3.4096 Z-0.1627 I-0.0068 J0.
X-3.3961 Z-0.1804 I0.0068 J0.
X-3.4096 Z-0.1981 I-0.0068 J0.
X-3.3961 Z-0.2158 I0.0068 J0.
X-3.4096 Z-0.2335 I-0.0068 J0.
X-3.3961 Z-0.2513 I0.0068 J0.
X-3.4096 Z-0.269 I-0.0068 J0.
X-3.3961 Z-0.2867 I0.0068 J0.
X-3.4096 Z-0.3044 I-0.0068 J0.
X-3.3961 Z-0.3221 I0.0068 J0.
X-3.4096 Z-0.3399 I-0.0068 J0.
X-3.3961 Z-0.3576 I0.0068 J0.
X-3.4096 Z-0.3753 I-0.0068 J0.
X-3.3961 Z-0.393 I0.0068 J0.
X-3.4096 Z-0.4107 I-0.0068 J0.
X-3.3961 Z-0.4285 I0.0068 J0.
X-3.4096 Z-0.4462 I-0.0068 J0.
X-3.3961 Z-0.4639 I0.0068 J0.
X-3.4096 Z-0.4816 I-0.0068 J0.
X-3.3961 Z-0.4993 I0.0068 J0.
X-3.4096 Z-0.5171 I-0.0068 J0.
X-3.3984 Y-1.9751 Z-0.53 I0.0068 J0.
X-3.4073 Y-1.9649 I-0.0045 J0.0051
X-3.3984 Y-1.9751 I0.0045 J-0.0051
X-3.3981 Y-1.9703 I-0.0022 J0.0025 F60.
G1 X-3.4029 Y-1.97
G0 Z0.4
X-4.1779
Z0.1113
G1 Z0.05 F60.
X-4.1745 Y-1.9734
G3 X-4.1711 Y-1.97 I0. J0.0034
X-4.1846 Z0.0323 I-0.0068 J0. F80.
X-4.1711 Z0.0146 I0.0068 J0.
X-4.1846 Z-0.0032 I-0.0068 J0.
X-4.1711 Z-0.0209 I0.0068 J0.
X-4.1846 Z-0.0386 I-0.0068 J0.
X-4.1711 Z-0.0563 I0.0068 J0.
X-4.1846 Z-0.074 I-0.0068 J0.
X-4.1711 Z-0.0918 I0.0068 J0.
X-4.1846 Z-0.1095 I-0.0068 J0.
X-4.1711 Z-0.1272 I0.0068 J0.
X-4.1846 Z-0.1449 I-0.0068 J0.
X-4.1711 Z-0.1627 I0.0068 J0.
X-4.1846 Z-0.1804 I-0.0068 J0.
X-4.1711 Z-0.1981 I0.0068 J0.
X-4.1846 Z-0.2158 I-0.0068 J0.
X-4.1711 Z-0.2335 I0.0068 J0.
X-4.1846 Z-0.2513 I-0.0068 J0.
X-4.1711 Z-0.269 I0.0067 J0.
X-4.1846 Z-0.2867 I-0.0067 J0.
X-4.1711 Z-0.3044 I0.0067 J0.
X-4.1846 Z-0.3221 I-0.0067 J0.
X-4.1711 Z-0.3399 I0.0067 J0.
X-4.1846 Z-0.3576 I-0.0067 J0.
X-4.1711 Z-0.3753 I0.0067 J0.
X-4.1846 Z-0.393 I-0.0067 J0.
X-4.1711 Z-0.4107 I0.0067 J0.
X-4.1846 Z-0.4285 I-0.0067 J0.
X-4.1711 Z-0.4462 I0.0067 J0.
X-4.1846 Z-0.4639 I-0.0067 J0.
X-4.1711 Z-0.4816 I0.0067 J0.
X-4.1846 Z-0.4993 I-0.0067 J0.
X-4.1711 Z-0.5171 I0.0067 J0.
X-4.1823 Y-1.9649 Z-0.53 I-0.0067 J0.
X-4.1734 Y-1.9751 I0.0045 J-0.0051
X-4.1823 Y-1.9649 I-0.0045 J0.0051
X-4.1826 Y-1.9697 I0.0022 J-0.0025 F60.
G1 X-4.1779 Y-1.97
G0 Z0.4
X-4.6779 Y-1.6575
Z0.1113
G1 Z0.05 F60.
X-4.6813 Y-1.6541
G3 X-4.6846 Y-1.6575 I0. J-0.0034
X-4.6711 Z0.0323 I0.0067 J0. F80.
X-4.6846 Z0.0146 I-0.0067 J0.
X-4.6711 Z-0.0032 I0.0067 J0.
X-4.6846 Z-0.0209 I-0.0067 J0.
X-4.6711 Z-0.0386 I0.0067 J0.
X-4.6846 Z-0.0563 I-0.0067 J0.
X-4.6711 Z-0.074 I0.0067 J0.
X-4.6846 Z-0.0918 I-0.0067 J0.
X-4.6711 Z-0.1095 I0.0067 J0.
X-4.6846 Z-0.1272 I-0.0067 J0.
X-4.6711 Z-0.1449 I0.0067 J0.
X-4.6846 Z-0.1627 I-0.0067 J0.
X-4.6711 Z-0.1804 I0.0067 J0.
X-4.6846 Z-0.1981 I-0.0067 J0.
X-4.6711 Z-0.2158 I0.0067 J0.
X-4.6846 Z-0.2335 I-0.0067 J0.
X-4.6711 Z-0.2513 I0.0068 J0.
X-4.6846 Z-0.269 I-0.0068 J0.
X-4.6711 Z-0.2867 I0.0068 J0.
X-4.6846 Z-0.3044 I-0.0068 J0.
X-4.6711 Z-0.3221 I0.0068 J0.
X-4.6846 Z-0.3399 I-0.0068 J0.
X-4.6711 Z-0.3576 I0.0068 J0.
X-4.6846 Z-0.3753 I-0.0068 J0.
X-4.6711 Z-0.393 I0.0068 J0.
X-4.6846 Z-0.4107 I-0.0068 J0.
X-4.6711 Z-0.4285 I0.0068 J0.
X-4.6846 Z-0.4462 I-0.0068 J0.
X-4.6711 Z-0.4639 I0.0068 J0.
X-4.6846 Z-0.4816 I-0.0068 J0.
X-4.6711 Z-0.4993 I0.0068 J0.
X-4.6846 Z-0.5171 I-0.0068 J0.
X-4.6734 Y-1.6626 Z-0.53 I0.0068 J0.
X-4.6823 Y-1.6524 I-0.0045 J0.0051
X-4.6734 Y-1.6626 I0.0045 J-0.0051
X-4.6731 Y-1.6578 I-0.0022 J0.0025 F60.
G1 X-4.6779 Y-1.6575
G0 Z0.4
X-4.0067 Y-1.27
Z0.1113
G1 Z0.05 F60.
X-4.0033 Y-1.2734
G3 X-4. Y-1.27 I0. J0.0034
X-4.0135 Z0.0323 I-0.0068 J0. F80.
X-4. Z0.0146 I0.0068 J0.
X-4.0135 Z-0.0032 I-0.0068 J0.
X-4. Z-0.0209 I0.0068 J0.
X-4.0135 Z-0.0386 I-0.0068 J0.
X-4. Z-0.0563 I0.0068 J0.
X-4.0135 Z-0.074 I-0.0068 J0.
X-4. Z-0.0918 I0.0068 J0.
X-4.0135 Z-0.1095 I-0.0068 J0.
X-4. Z-0.1272 I0.0068 J0.
X-4.0135 Z-0.1449 I-0.0068 J0.
X-4. Z-0.1627 I0.0068 J0.
X-4.0135 Z-0.1804 I-0.0068 J0.
X-4. Z-0.1981 I0.0068 J0.
X-4.0135 Z-0.2158 I-0.0068 J0.
X-4. Z-0.2335 I0.0068 J0.
X-4.0135 Z-0.2513 I-0.0068 J0.
X-4. Z-0.269 I0.0067 J0.
X-4.0135 Z-0.2867 I-0.0067 J0.
X-4. Z-0.3044 I0.0067 J0.
X-4.0135 Z-0.3221 I-0.0067 J0.
X-4. Z-0.3399 I0.0067 J0.
X-4.0135 Z-0.3576 I-0.0067 J0.
X-4. Z-0.3753 I0.0067 J0.
X-4.0135 Z-0.393 I-0.0067 J0.
X-4. Z-0.4107 I0.0067 J0.
X-4.0135 Z-0.4285 I-0.0067 J0.
X-4. Z-0.4462 I0.0067 J0.
X-4.0135 Z-0.4639 I-0.0067 J0.
X-4. Z-0.4816 I0.0067 J0.
X-4.0135 Z-0.4993 I-0.0067 J0.
X-4. Z-0.5171 I0.0067 J0.
X-4.0112 Y-1.2649 Z-0.53 I-0.0067 J0.
X-4.0023 Y-1.2751 I0.0045 J-0.0051
X-4.0112 Y-1.2649 I-0.0045 J0.0051
X-4.0115 Y-1.2697 I0.0022 J-0.0025 F60.
G1 X-4.0067 Y-1.27
G0 Z0.4
Y-0.67
Z0.1113
G1 Z0.05 F60.
X-4.0033 Y-0.6734
G3 X-4. Y-0.67 I0. J0.0034
X-4.0135 Z0.0323 I-0.0068 J0. F80.
X-4. Z0.0146 I0.0068 J0.
X-4.0135 Z-0.0032 I-0.0068 J0.
X-4. Z-0.0209 I0.0068 J0.
X-4.0135 Z-0.0386 I-0.0068 J0.
X-4. Z-0.0563 I0.0068 J0.
X-4.0135 Z-0.074 I-0.0068 J0.
X-4. Z-0.0918 I0.0068 J0.
X-4.0135 Z-0.1095 I-0.0068 J0.
X-4. Z-0.1272 I0.0068 J0.
X-4.0135 Z-0.1449 I-0.0068 J0.
X-4. Z-0.1627 I0.0068 J0.
X-4.0135 Z-0.1804 I-0.0068 J0.
X-4. Z-0.1981 I0.0068 J0.
X-4.0135 Z-0.2158 I-0.0068 J0.
X-4. Z-0.2335 I0.0068 J0.
X-4.0135 Z-0.2513 I-0.0068 J0.
X-4. Z-0.269 I0.0068 J0.
X-4.0135 Z-0.2867 I-0.0068 J0.
X-4. Z-0.3044 I0.0067 J0.
X-4.0135 Z-0.3221 I-0.0067 J0.
X-4. Z-0.3399 I0.0067 J0.
X-4.0135 Z-0.3576 I-0.0067 J0.
X-4. Z-0.3753 I0.0067 J0.
X-4.0135 Z-0.393 I-0.0067 J0.
X-4. Z-0.4107 I0.0067 J0.
X-4.0135 Z-0.4285 I-0.0067 J0.
X-4. Z-0.4462 I0.0067 J0.
X-4.0135 Z-0.4639 I-0.0067 J0.
X-4. Z-0.4816 I0.0067 J0.
X-4.0135 Z-0.4993 I-0.0067 J0.
X-4. Z-0.5171 I0.0067 J0.
X-4.0112 Y-0.6649 Z-0.53 I-0.0067 J0.
X-4.0023 Y-0.6751 I0.0045 J-0.0051
X-4.0112 Y-0.6649 I-0.0045 J0.0051
X-4.0115 Y-0.6697 I0.0022 J-0.0025 F60.
G1 X-4.0067 Y-0.67
G0 Z0.4
X-4.6779 Y-0.2825
Z0.1113
G1 Z0.05 F60.
X-4.6813 Y-0.2791
G3 X-4.6846 Y-0.2825 I0. J-0.0034
X-4.6711 Z0.0323 I0.0067 J0. F80.
X-4.6846 Z0.0146 I-0.0067 J0.
X-4.6711 Z-0.0032 I0.0067 J0.
X-4.6846 Z-0.0209 I-0.0067 J0.
X-4.6711 Z-0.0386 I0.0067 J0.
X-4.6846 Z-0.0563 I-0.0067 J0.
X-4.6711 Z-0.074 I0.0067 J0.
X-4.6846 Z-0.0918 I-0.0067 J0.
X-4.6711 Z-0.1095 I0.0067 J0.
X-4.6846 Z-0.1272 I-0.0067 J0.
X-4.6711 Z-0.1449 I0.0067 J0.
X-4.6846 Z-0.1627 I-0.0067 J0.
X-4.6711 Z-0.1804 I0.0067 J0.
X-4.6846 Z-0.1981 I-0.0067 J0.
X-4.6711 Z-0.2158 I0.0067 J0.
X-4.6846 Z-0.2335 I-0.0067 J0.
X-4.6711 Z-0.2513 I0.0067 J0.
X-4.6846 Z-0.269 I-0.0067 J0.
X-4.6711 Z-0.2867 I0.0067 J0.
X-4.6846 Z-0.3044 I-0.0067 J0.
X-4.6711 Z-0.3221 I0.0067 J0.
X-4.6846 Z-0.3399 I-0.0067 J0.
X-4.6711 Z-0.3576 I0.0067 J0.
X-4.6846 Z-0.3753 I-0.0068 J0.
X-4.6711 Z-0.393 I0.0068 J0.
X-4.6846 Z-0.4107 I-0.0068 J0.
X-4.6711 Z-0.4285 I0.0068 J0.
X-4.6846 Z-0.4462 I-0.0068 J0.
X-4.6711 Z-0.4639 I0.0068 J0.
X-4.6846 Z-0.4816 I-0.0068 J0.
X-4.6711 Z-0.4993 I0.0068 J0.
X-4.6846 Z-0.5171 I-0.0068 J0.
X-4.6734 Y-0.2876 Z-0.53 I0.0068 J0.
X-4.6823 Y-0.2774 I-0.0045 J0.0051
X-4.6734 Y-0.2876 I0.0045 J-0.0051
X-4.6731 Y-0.2828 I-0.0022 J0.0025 F60.
G1 X-4.6779 Y-0.2825
G0 Z0.4
X-4.1779 Y0.03
Z0.1113
G1 Z0.05 F60.
X-4.1745 Y0.0266
G3 X-4.1711 Y0.03 I0. J0.0034
X-4.1846 Z0.0323 I-0.0068 J0. F80.
X-4.1711 Z0.0146 I0.0068 J0.
X-4.1846 Z-0.0032 I-0.0068 J0.
X-4.1711 Z-0.0209 I0.0068 J0.
X-4.1846 Z-0.0386 I-0.0068 J0.
X-4.1711 Z-0.0563 I0.0068 J0.
X-4.1846 Z-0.074 I-0.0068 J0.
X-4.1711 Z-0.0918 I0.0068 J0.
X-4.1846 Z-0.1095 I-0.0068 J0.
X-4.1711 Z-0.1272 I0.0068 J0.
X-4.1846 Z-0.1449 I-0.0068 J0.
X-4.1711 Z-0.1627 I0.0068 J0.
X-4.1846 Z-0.1804 I-0.0068 J0.
X-4.1711 Z-0.1981 I0.0068 J0.
X-4.1846 Z-0.2158 I-0.0068 J0.
X-4.1711 Z-0.2335 I0.0068 J0.
X-4.1846 Z-0.2513 I-0.0068 J0.
X-4.1711 Z-0.269 I0.0068 J0.
X-4.1846 Z-0.2867 I-0.0068 J0.
X-4.1711 Z-0.3044 I0.0067 J0.
X-4.1846 Z-0.3221 I-0.0067 J0.
X-4.1711 Z-0.3399 I0.0067 J0.
X-4.1846 Z-0.3576 I-0.0067 J0.
X-4.1711 Z-0.3753 I0.0067 J0.
X-4.1846 Z-0.393 I-0.0067 J0.
X-4.1711 Z-0.4107 I0.0067 J0.
X-4.1846 Z-0.4285 I-0.0067 J0.
X-4.1711 Z-0.4462 I0.0067 J0.
X-4.1846 Z-0.4639 I-0.0067 J0.
X-4.1711 Z-0.4816 I0.0067 J0.
X-4.1846 Z-0.4993 I-0.0067 J0.
X-4.1711 Z-0.5171 I0.0067 J0.
X-4.1823 Y0.0351 Z-0.53 I-0.0067 J0.
X-4.1734 Y0.0249 I0.0045 J-0.0051
X-4.1823 Y0.0351 I-0.0045 J0.0051
X-4.1826 Y0.0303 I0.0022 J-0.0025 F60.
G1 X-4.1779 Y0.03
G0 Z0.4
X-3.4029
Z0.1113
G1 Z0.05 F60.
X-3.4063 Y0.0334
G3 X-3.4096 Y0.03 I0. J-0.0034
X-3.3961 Z0.0323 I0.0068 J0. F80.
X-3.4096 Z0.0146 I-0.0068 J0.
X-3.3961 Z-0.0032 I0.0068 J0.
X-3.4096 Z-0.0209 I-0.0068 J0.
X-3.3961 Z-0.0386 I0.0068 J0.
X-3.4096 Z-0.0563 I-0.0068 J0.
X-3.3961 Z-0.074 I0.0068 J0.
X-3.4096 Z-0.0918 I-0.0068 J0.
X-3.3961 Z-0.1095 I0.0068 J0.
X-3.4096 Z-0.1272 I-0.0068 J0.
X-3.3961 Z-0.1449 I0.0068 J0.
X-3.4096 Z-0.1627 I-0.0068 J0.
X-3.3961 Z-0.1804 I0.0068 J0.
X-3.4096 Z-0.1981 I-0.0068 J0.
X-3.3961 Z-0.2158 I0.0068 J0.
X-3.4096 Z-0.2335 I-0.0068 J0.
X-3.3961 Z-0.2513 I0.0068 J0.
X-3.4096 Z-0.269 I-0.0068 J0.
X-3.3961 Z-0.2867 I0.0068 J0.
X-3.4096 Z-0.3044 I-0.0068 J0.
X-3.3961 Z-0.3221 I0.0068 J0.
X-3.4096 Z-0.3399 I-0.0068 J0.
X-3.3961 Z-0.3576 I0.0068 J0.
X-3.4096 Z-0.3753 I-0.0068 J0.
X-3.3961 Z-0.393 I0.0068 J0.
X-3.4096 Z-0.4107 I-0.0068 J0.
X-3.3961 Z-0.4285 I0.0068 J0.
X-3.4096 Z-0.4462 I-0.0068 J0.
X-3.3961 Z-0.4639 I0.0068 J0.
X-3.4096 Z-0.4816 I-0.0068 J0.
X-3.3961 Z-0.4993 I0.0068 J0.
X-3.4096 Z-0.5171 I-0.0068 J0.
X-3.3984 Y0.0249 Z-0.53 I0.0068 J0.
X-3.4073 Y0.0351 I-0.0045 J0.0051
X-3.3984 Y0.0249 I0.0045 J-0.0051
X-3.3981 Y0.0297 I-0.0022 J0.0025 F60.
G1 X-3.4029 Y0.03
G0 Z0.4
X-2.9924 Y1.0868
Z0.1113
G1 Z0.05 F60.
X-2.9958 Y1.0901
G3 X-2.9992 Y1.0868 I0. J-0.0034
X-2.9857 Z0.0323 I0.0067 J0. F80.
X-2.9992 Z0.0146 I-0.0067 J0.
X-2.9857 Z-0.0032 I0.0067 J0.
X-2.9992 Z-0.0209 I-0.0067 J0.
X-2.9857 Z-0.0386 I0.0067 J0.
X-2.9992 Z-0.0563 I-0.0067 J0.
X-2.9857 Z-0.074 I0.0067 J0.
X-2.9992 Z-0.0918 I-0.0067 J0.
X-2.9857 Z-0.1095 I0.0067 J0.
X-2.9992 Z-0.1272 I-0.0067 J0.
X-2.9857 Z-0.1449 I0.0067 J0.
X-2.9992 Z-0.1627 I-0.0067 J0.
X-2.9857 Z-0.1804 I0.0067 J0.
X-2.9992 Z-0.1981 I-0.0067 J0.
X-2.9857 Z-0.2158 I0.0067 J0.
X-2.9992 Z-0.2335 I-0.0067 J0.
X-2.9857 Z-0.2513 I0.0067 J0.
X-2.9992 Z-0.269 I-0.0067 J0.
X-2.9857 Z-0.2867 I0.0067 J0.
X-2.9992 Z-0.3044 I-0.0067 J0.
X-2.9857 Z-0.3221 I0.0067 J0.
X-2.9992 Z-0.3399 I-0.0067 J0.
X-2.9857 Z-0.3576 I0.0067 J0.
X-2.9992 Z-0.3753 I-0.0068 J0.
X-2.9857 Z-0.393 I0.0068 J0.
X-2.9992 Z-0.4107 I-0.0068 J0.
X-2.9857 Z-0.4285 I0.0068 J0.
X-2.9992 Z-0.4462 I-0.0068 J0.
X-2.9857 Z-0.4639 I0.0068 J0.
X-2.9992 Z-0.4816 I-0.0068 J0.
X-2.9857 Z-0.4993 I0.0068 J0.
X-2.9992 Z-0.5171 I-0.0068 J0.
X-2.988 Y1.0817 Z-0.53 I0.0068 J0.
X-2.9969 Y1.0918 I-0.0045 J0.0051
X-2.988 Y1.0817 I0.0045 J-0.0051
X-2.9877 Y1.0865 I-0.0022 J0.0025 F60.
G1 X-2.9924 Y1.0868
G0 Z0.4
X-3.6636 Y1.4743
Z0.1113
G1 Z0.05 F60.
X-3.6602 Y1.4709
G3 X-3.6569 Y1.4743 I0. J0.0034
X-3.6704 Z0.0323 I-0.0067 J0. F80.
X-3.6569 Z0.0146 I0.0067 J0.
X-3.6704 Z-0.0032 I-0.0067 J0.
X-3.6569 Z-0.0209 I0.0067 J0.
X-3.6704 Z-0.0386 I-0.0067 J0.
X-3.6569 Z-0.0563 I0.0067 J0.
X-3.6704 Z-0.074 I-0.0067 J0.
X-3.6569 Z-0.0918 I0.0067 J0.
X-3.6704 Z-0.1095 I-0.0067 J0.
X-3.6569 Z-0.1272 I0.0067 J0.
X-3.6704 Z-0.1449 I-0.0067 J0.
X-3.6569 Z-0.1627 I0.0067 J0.
X-3.6704 Z-0.1804 I-0.0067 J0.
X-3.6569 Z-0.1981 I0.0067 J0.
X-3.6704 Z-0.2158 I-0.0067 J0.
X-3.6569 Z-0.2335 I0.0067 J0.
X-3.6704 Z-0.2513 I-0.0067 J0.
X-3.6569 Z-0.269 I0.0067 J0.
X-3.6704 Z-0.2867 I-0.0067 J0.
X-3.6569 Z-0.3044 I0.0067 J0.
X-3.6704 Z-0.3221 I-0.0067 J0.
X-3.6569 Z-0.3399 I0.0067 J0.
X-3.6704 Z-0.3576 I-0.0067 J0.
X-3.6569 Z-0.3753 I0.0067 J0.
X-3.6704 Z-0.393 I-0.0067 J0.
X-3.6569 Z-0.4107 I0.0067 J0.
X-3.6704 Z-0.4285 I-0.0067 J0.
X-3.6569 Z-0.4462 I0.0067 J0.
X-3.6704 Z-0.4639 I-0.0067 J0.
X-3.6569 Z-0.4816 I0.0067 J0.
X-3.6704 Z-0.4993 I-0.0067 J0.
X-3.6569 Z-0.5171 I0.0067 J0.
X-3.6681 Y1.4793 Z-0.53 I-0.0067 J0.
X-3.6591 Y1.4692 I0.0045 J-0.0051
X-3.6681 Y1.4793 I-0.0045 J0.0051
X-3.6684 Y1.4746 I0.0022 J-0.0025 F60.
G1 X-3.6636 Y1.4743
G0 Z0.4
X-3.4029 Y2.0585
Z0.1113
G1 Z0.05 F60.
X-3.4063 Y2.0619
G3 X-3.4096 Y2.0585 I0. J-0.0034
X-3.3961 Z0.0323 I0.0068 J0. F80.
X-3.4096 Z0.0146 I-0.0068 J0.
X-3.3961 Z-0.0032 I0.0068 J0.
X-3.4096 Z-0.0209 I-0.0068 J0.
X-3.3961 Z-0.0386 I0.0068 J0.
X-3.4096 Z-0.0563 I-0.0068 J0.
X-3.3961 Z-0.074 I0.0068 J0.
X-3.4096 Z-0.0918 I-0.0068 J0.
X-3.3961 Z-0.1095 I0.0068 J0.
X-3.4096 Z-0.1272 I-0.0068 J0.
X-3.3961 Z-0.1449 I0.0068 J0.
X-3.4096 Z-0.1627 I-0.0068 J0.
X-3.3961 Z-0.1804 I0.0068 J0.
X-3.4096 Z-0.1981 I-0.0068 J0.
X-3.3961 Z-0.2158 I0.0068 J0.
X-3.4096 Z-0.2335 I-0.0068 J0.
X-3.3961 Z-0.2513 I0.0068 J0.
X-3.4096 Z-0.269 I-0.0068 J0.
X-3.3961 Z-0.2867 I0.0068 J0.
X-3.4096 Z-0.3044 I-0.0068 J0.
X-3.3961 Z-0.3221 I0.0068 J0.
X-3.4096 Z-0.3399 I-0.0068 J0.
X-3.3961 Z-0.3576 I0.0068 J0.
X-3.4096 Z-0.3753 I-0.0068 J0.
X-3.3961 Z-0.393 I0.0068 J0.
X-3.4096 Z-0.4107 I-0.0068 J0.
X-3.3961 Z-0.4285 I0.0068 J0.
X-3.4096 Z-0.4462 I-0.0068 J0.
X-3.3961 Z-0.4639 I0.0068 J0.
X-3.4096 Z-0.4816 I-0.0068 J0.
X-3.3961 Z-0.4993 I0.0068 J0.
X-3.4096 Z-0.5171 I-0.0067 J0.
X-3.3984 Y2.0535 Z-0.53 I0.0067 J0.
X-3.4073 Y2.0636 I-0.0045 J0.0051
X-3.3984 Y2.0535 I0.0045 J-0.0051
X-3.3981 Y2.0582 I-0.0022 J0.0025 F60.
G1 X-3.4029 Y2.0585
G0 Z0.4
X-4.1779
Z0.1113
G1 Z0.05 F60.
X-4.1745 Y2.0552
G3 X-4.1711 Y2.0585 I0. J0.0034
X-4.1846 Z0.0323 I-0.0068 J0. F80.
X-4.1711 Z0.0146 I0.0068 J0.
X-4.1846 Z-0.0032 I-0.0068 J0.
X-4.1711 Z-0.0209 I0.0068 J0.
X-4.1846 Z-0.0386 I-0.0068 J0.
X-4.1711 Z-0.0563 I0.0068 J0.
X-4.1846 Z-0.074 I-0.0068 J0.
X-4.1711 Z-0.0918 I0.0068 J0.
X-4.1846 Z-0.1095 I-0.0068 J0.
X-4.1711 Z-0.1272 I0.0068 J0.
X-4.1846 Z-0.1449 I-0.0068 J0.
X-4.1711 Z-0.1627 I0.0068 J0.
X-4.1846 Z-0.1804 I-0.0068 J0.
X-4.1711 Z-0.1981 I0.0068 J0.
X-4.1846 Z-0.2158 I-0.0068 J0.
X-4.1711 Z-0.2335 I0.0068 J0.
X-4.1846 Z-0.2513 I-0.0068 J0.
X-4.1711 Z-0.269 I0.0068 J0.
X-4.1846 Z-0.2867 I-0.0068 J0.
X-4.1711 Z-0.3044 I0.0068 J0.
X-4.1846 Z-0.3221 I-0.0068 J0.
X-4.1711 Z-0.3399 I0.0068 J0.
X-4.1846 Z-0.3576 I-0.0067 J0.
X-4.1711 Z-0.3753 I0.0067 J0.
X-4.1846 Z-0.393 I-0.0067 J0.
X-4.1711 Z-0.4107 I0.0067 J0.
X-4.1846 Z-0.4285 I-0.0067 J0.
X-4.1711 Z-0.4462 I0.0067 J0.
X-4.1846 Z-0.4639 I-0.0067 J0.
X-4.1711 Z-0.4816 I0.0067 J0.
X-4.1846 Z-0.4993 I-0.0067 J0.
X-4.1711 Z-0.5171 I0.0067 J0.
X-4.1823 Y2.0636 Z-0.53 I-0.0067 J0.
X-4.1734 Y2.0535 I0.0045 J-0.0051
X-4.1823 Y2.0636 I-0.0045 J0.0051
X-4.1826 Y2.0588 I0.0022 J-0.0025 F60.
G1 X-4.1779 Y2.0585
G0 Z0.4
X-4.6154 Y3.0144
Z0.0675
G1 Z0.0062 F60.
G18 G2 X-4.5966 Z-0.0125 I0.0187 K0.
G1 X-4.5873
G17 G3 X-4.5716 Y3.03 I0. J0.0156
X-4.6341 Z-0.0345 I-0.0313 J0. F80.
X-4.5716 Z-0.0566 I0.0313 J0.
X-4.6341 Z-0.0786 I-0.0313 J0.
X-4.5716 Z-0.1007 I0.0313 J0.
X-4.6341 Z-0.1227 I-0.0313 J0.
X-4.5716 Z-0.1447 I0.0313 J0.
X-4.6341 Z-0.1668 I-0.0313 J0.
X-4.5716 Z-0.1888 I0.0313 J0.
X-4.6341 Z-0.2109 I-0.0313 J0.
X-4.5716 Z-0.2329 I0.0313 J0.
X-4.6341 Z-0.2549 I-0.0313 J0.
X-4.5716 Z-0.277 I0.0313 J0.
X-4.6341 Z-0.299 I-0.0313 J0.
X-4.5716 Z-0.3211 I0.0313 J0.
X-4.6341 Z-0.3431 I-0.0313 J0.
X-4.5716 Z-0.3652 I0.0312 J0.
X-4.6341 Z-0.3872 I-0.0312 J0.
X-4.5716 Z-0.4092 I0.0312 J0.
X-4.6341 Z-0.4313 I-0.0312 J0.
X-4.5716 Z-0.4533 I0.0312 J0.
X-4.6341 Z-0.4754 I-0.0312 J0.
X-4.5716 Z-0.4974 I0.0312 J0.
X-4.6341 Z-0.5194 I-0.0312 J0.
X-4.6049 Y2.9988 Z-0.53 I0.0312 J0.
X-4.6008 Y3.0612 I0.002 J0.0312
X-4.6049 Y2.9988 I-0.002 J-0.0312
X-4.5883 Y3.0134 I0.001 J0.0156 F60.
G1 X-4.5877 Y3.0227
X-4.5875 Y3.026 Z-0.5297
X-4.5873 Y3.0291 Z-0.5289
X-4.5871 Y3.0321 Z-0.5275
X-4.5869 Y3.0348 Z-0.5256
X-4.5868 Y3.0371 Z-0.5233
X-4.5866 Y3.0389 Z-0.5206
X-4.5865 Y3.0403 Z-0.5177
Y3.0412 Z-0.5145
Y3.0414 Z-0.5113
G0 Z0.4
X-3.7118 Y3.9525
Z0.1113
G1 Z0.05 F60.
X-3.7085 Y3.9491
G3 X-3.7051 Y3.9525 I0. J0.0034
X-3.7186 Z0.0323 I-0.0067 J0. F80.
X-3.7051 Z0.0146 I0.0067 J0.
X-3.7186 Z-0.0032 I-0.0067 J0.
X-3.7051 Z-0.0209 I0.0067 J0.
X-3.7186 Z-0.0386 I-0.0067 J0.
X-3.7051 Z-0.0563 I0.0067 J0.
X-3.7186 Z-0.074 I-0.0067 J0.
X-3.7051 Z-0.0918 I0.0067 J0.
X-3.7186 Z-0.1095 I-0.0067 J0.
X-3.7051 Z-0.1272 I0.0067 J0.
X-3.7186 Z-0.1449 I-0.0067 J0.
X-3.7051 Z-0.1627 I0.0067 J0.
X-3.7186 Z-0.1804 I-0.0067 J0.
X-3.7051 Z-0.1981 I0.0067 J0.
X-3.7186 Z-0.2158 I-0.0067 J0.
X-3.7051 Z-0.2335 I0.0067 J0.
X-3.7186 Z-0.2513 I-0.0068 J0.
X-3.7051 Z-0.269 I0.0068 J0.
X-3.7186 Z-0.2867 I-0.0068 J0.
X-3.7051 Z-0.3044 I0.0068 J0.
X-3.7186 Z-0.3221 I-0.0068 J0.
X-3.7051 Z-0.3399 I0.0068 J0.
X-3.7186 Z-0.3576 I-0.0068 J0.
X-3.7051 Z-0.3753 I0.0068 J0.
X-3.7186 Z-0.393 I-0.0068 J0.
X-3.7051 Z-0.4107 I0.0068 J0.
X-3.7186 Z-0.4285 I-0.0068 J0.
X-3.7051 Z-0.4462 I0.0068 J0.
X-3.7186 Z-0.4639 I-0.0068 J0.
X-3.7051 Z-0.4816 I0.0068 J0.
X-3.7186 Z-0.4993 I-0.0068 J0.
X-3.7051 Z-0.5171 I0.0068 J0.
X-3.7163 Y3.9576 Z-0.53 I-0.0068 J0.
X-3.7074 Y3.9474 I0.0045 J-0.0051
X-3.7163 Y3.9576 I-0.0045 J0.0051
X-3.7166 Y3.9528 I0.0022 J-0.0025 F60.
G1 X-3.7118 Y3.9525
G0 Z0.4
Y4.7275
Z0.1113
G1 Z0.05 F60.
X-3.7085 Y4.7241
G3 X-3.7051 Y4.7275 I0. J0.0034
X-3.7186 Z0.0323 I-0.0067 J0. F80.
X-3.7051 Z0.0146 I0.0067 J0.
X-3.7186 Z-0.0032 I-0.0067 J0.
X-3.7051 Z-0.0209 I0.0067 J0.
X-3.7186 Z-0.0386 I-0.0067 J0.
X-3.7051 Z-0.0563 I0.0067 J0.
X-3.7186 Z-0.074 I-0.0067 J0.
X-3.7051 Z-0.0918 I0.0067 J0.
X-3.7186 Z-0.1095 I-0.0067 J0.
X-3.7051 Z-0.1272 I0.0067 J0.
X-3.7186 Z-0.1449 I-0.0067 J0.
X-3.7051 Z-0.1627 I0.0067 J0.
X-3.7186 Z-0.1804 I-0.0067 J0.
X-3.7051 Z-0.1981 I0.0067 J0.
X-3.7186 Z-0.2158 I-0.0067 J0.
X-3.7051 Z-0.2335 I0.0067 J0.
X-3.7186 Z-0.2513 I-0.0068 J0.
X-3.7051 Z-0.269 I0.0068 J0.
X-3.7186 Z-0.2867 I-0.0068 J0.
X-3.7051 Z-0.3044 I0.0068 J0.
X-3.7186 Z-0.3221 I-0.0068 J0.
X-3.7051 Z-0.3399 I0.0068 J0.
X-3.7186 Z-0.3576 I-0.0068 J0.
X-3.7051 Z-0.3753 I0.0068 J0.
X-3.7186 Z-0.393 I-0.0068 J0.
X-3.7051 Z-0.4107 I0.0068 J0.
X-3.7186 Z-0.4285 I-0.0068 J0.
X-3.7051 Z-0.4462 I0.0068 J0.
X-3.7186 Z-0.4639 I-0.0068 J0.
X-3.7051 Z-0.4816 I0.0068 J0.
X-3.7186 Z-0.4993 I-0.0068 J0.
X-3.7051 Z-0.5171 I0.0068 J0.
X-3.7163 Y4.7326 Z-0.53 I-0.0068 J0.
X-3.7074 Y4.7224 I0.0045 J-0.0051
X-3.7163 Y4.7326 I-0.0045 J0.0051
X-3.7166 Y4.7278 I0.0022 J-0.0025 F60.
G1 X-3.7118 Y4.7275
G0 Z0.4
X-3.6904 Y5.5144
Z0.13
G1 Z0.0688 F60.
G18 G2 X-3.6716 Z0.05 I0.0187 K0.
G1 X-3.6623
G17 G3 X-3.6466 Y5.53 I0. J0.0156
X-3.7091 Z0.028 I-0.0312 J0. F80.
X-3.6466 Z0.0059 I0.0312 J0.
X-3.7091 Z-0.0161 I-0.0312 J0.
X-3.6466 Z-0.0382 I0.0312 J0.
X-3.7091 Z-0.0602 I-0.0312 J0.
X-3.6466 Z-0.0822 I0.0312 J0.
X-3.7091 Z-0.1043 I-0.0312 J0.
X-3.6466 Z-0.1263 I0.0312 J0.
X-3.7091 Z-0.1484 I-0.0312 J0.
X-3.6466 Z-0.1704 I0.0312 J0.
X-3.7091 Z-0.1924 I-0.0312 J0.
X-3.6466 Z-0.2145 I0.0312 J0.
X-3.7091 Z-0.2365 I-0.0312 J0.
X-3.6466 Z-0.2586 I0.0312 J0.
X-3.7091 Z-0.2806 I-0.0312 J0.
X-3.6466 Z-0.3027 I0.0312 J0.
X-3.7091 Z-0.3247 I-0.0312 J0.
X-3.6466 Z-0.3467 I0.0312 J0.
X-3.7091 Z-0.3688 I-0.0312 J0.
X-3.6466 Z-0.3908 I0.0312 J0.
X-3.7091 Z-0.4129 I-0.0312 J0.
X-3.6466 Z-0.4349 I0.0312 J0.
X-3.7091 Z-0.4569 I-0.0312 J0.
X-3.6466 Z-0.479 I0.0312 J0.
X-3.7091 Z-0.501 I-0.0312 J0.
X-3.6466 Z-0.5231 I0.0312 J0.
X-3.6607 Y5.5561 Z-0.53 I-0.0312 J0.
X-3.6951 Y5.5039 I-0.0172 J-0.0261
X-3.6607 Y5.5561 I0.0172 J0.0261
X-3.6823 Y5.5516 I-0.0086 J-0.0131 F60.
G1 X-3.6875 Y5.5438
X-3.6893 Y5.5411 Z-0.5297
X-3.691 Y5.5385 Z-0.5289
X-3.6927 Y5.536 Z-0.5275
X-3.6941 Y5.5337 Z-0.5256
X-3.6954 Y5.5318 Z-0.5233
X-3.6964 Y5.5302 Z-0.5206
X-3.6972 Y5.5291 Z-0.5177
X-3.6976 Y5.5284 Z-0.5145
X-3.6978 Y5.5281 Z-0.5113
G0 Z0.4
X-5.7404 Y4.7275
Z0.1113
G1 Z0.05 F60.
X-5.7438 Y4.7309
G3 X-5.7471 Y4.7275 I0. J-0.0034
X-5.7336 Z0.0323 I0.0067 J0. F80.
X-5.7401 Y4.7342 Z0.0236 I-0.0068 J0.
X-5.7406 Y4.7208 Z0.0059 I-0.0003 J-0.0067
X-5.7336 Y4.727 Z-0.0027 I0.0003 J0.0067
X-5.7471 Y4.728 Z-0.0204 I-0.0067 J0.0005
X-5.7336 Y4.727 Z-0.0382 I0.0067 J-0.0005
X-5.7471 Y4.728 Z-0.0559 I-0.0067 J0.0005
X-5.7336 Y4.727 Z-0.0736 I0.0067 J-0.0005
X-5.7391 Y4.7341 Z-0.0818 I-0.0067 J0.0005
X-5.7417 Y4.7209 Z-0.0995 I-0.0013 J-0.0066
X-5.7338 Y4.726 Z-0.1082 I0.0013 J0.0066
X-5.747 Y4.729 Z-0.1259 I-0.0066 J0.0015
X-5.7338 Y4.726 Z-0.1436 I0.0066 J-0.0015
X-5.7468 Y4.7296 Z-0.1609 I-0.0066 J0.0015
X-5.7339 Y4.7254 Z-0.1786 I0.0064 J-0.0021
X-5.7468 Y4.7296 Z-0.1964 I-0.0064 J0.0021
X-5.7339 Y4.7254 Z-0.2141 I0.0064 J-0.0021
X-5.7468 Y4.7296 Z-0.2318 I-0.0064 J0.0021
X-5.7339 Y4.7254 Z-0.2495 I0.0064 J-0.0021
X-5.7468 Y4.7296 Z-0.2672 I-0.0064 J0.0021
X-5.7339 Y4.7254 Z-0.285 I0.0064 J-0.0021
X-5.7468 Y4.7296 Z-0.3027 I-0.0064 J0.0021
X-5.7339 Y4.7254 Z-0.3204 I0.0064 J-0.0021
X-5.7468 Y4.7296 Z-0.3381 I-0.0064 J0.0021
X-5.7339 Y4.7254 Z-0.3558 I0.0064 J-0.0021
X-5.7468 Y4.7296 Z-0.3736 I-0.0064 J0.0021
X-5.7339 Y4.7254 Z-0.3913 I0.0064 J-0.0021
X-5.7468 Y4.7296 Z-0.409 I-0.0064 J0.0021
X-5.7339 Y4.7254 Z-0.4267 I0.0064 J-0.0021
X-5.7468 Y4.7296 Z-0.4444 I-0.0064 J0.0021
X-5.7339 Y4.7254 Z-0.4622 I0.0064 J-0.0021
X-5.7468 Y4.7296 Z-0.4799 I-0.0064 J0.0021
X-5.7339 Y4.7254 Z-0.4976 I0.0064 J-0.0021
X-5.7468 Y4.7296 Z-0.5153 I-0.0064 J0.0021
X-5.7359 Y4.7224 Z-0.53 I0.0064 J-0.0021
X-5.7448 Y4.7326 I-0.0045 J0.0051
X-5.7359 Y4.7224 I0.0045 J-0.0051
X-5.7356 Y4.7272 I-0.0022 J0.0025 F60.
G1 X-5.7404 Y4.7275
G0 Z0.4
Y3.9525
Z0.1113
G1 Z0.05 F60.
X-5.7438 Y3.9559
G3 X-5.7471 Y3.9525 I0. J-0.0034
X-5.7336 Z0.0323 I0.0067 J0. F80.
X-5.7401 Y3.9592 Z0.0236 I-0.0067 J0.
X-5.7406 Y3.9458 Z0.0059 I-0.0003 J-0.0067
X-5.7401 Y3.9592 Z-0.0118 I0.0003 J0.0067
X-5.7406 Y3.9458 Z-0.0295 I-0.0003 J-0.0067
X-5.7401 Y3.9592 Z-0.0472 I0.0003 J0.0067
X-5.7406 Y3.9458 Z-0.065 I-0.0003 J-0.0067
X-5.7401 Y3.9592 Z-0.0827 I0.0003 J0.0067
X-5.7406 Y3.9458 Z-0.1004 I-0.0003 J-0.0067
X-5.7401 Y3.9592 Z-0.1181 I0.0003 J0.0067
X-5.7406 Y3.9458 Z-0.1359 I-0.0003 J-0.0067
X-5.7401 Y3.9592 Z-0.1536 I0.0003 J0.0067
X-5.7406 Y3.9458 Z-0.1713 I-0.0003 J-0.0067
X-5.7401 Y3.9592 Z-0.189 I0.0003 J0.0067
X-5.7406 Y3.9458 Z-0.2067 I-0.0003 J-0.0067
X-5.7401 Y3.9592 Z-0.2245 I0.0003 J0.0067
X-5.7406 Y3.9458 Z-0.2422 I-0.0003 J-0.0067
X-5.7401 Y3.9592 Z-0.2599 I0.0003 J0.0067
X-5.7406 Y3.9458 Z-0.2776 I-0.0003 J-0.0067
X-5.7401 Y3.9592 Z-0.2953 I0.0003 J0.0067
X-5.7406 Y3.9458 Z-0.3131 I-0.0003 J-0.0067
X-5.7401 Y3.9592 Z-0.3308 I0.0003 J0.0067
X-5.7406 Y3.9458 Z-0.3485 I-0.0003 J-0.0067
X-5.7401 Y3.9592 Z-0.3662 I0.0003 J0.0067
X-5.7406 Y3.9458 Z-0.3839 I-0.0003 J-0.0067
X-5.7401 Y3.9592 Z-0.4017 I0.0003 J0.0067
X-5.7406 Y3.9458 Z-0.4194 I-0.0003 J-0.0067
X-5.7401 Y3.9592 Z-0.4371 I0.0003 J0.0067
X-5.7406 Y3.9458 Z-0.4548 I-0.0003 J-0.0067
X-5.7401 Y3.9592 Z-0.4725 I0.0003 J0.0067
X-5.7406 Y3.9458 Z-0.4903 I-0.0003 J-0.0067
X-5.7401 Y3.9592 Z-0.508 I0.0003 J0.0067
X-5.7406 Y3.9458 Z-0.5257 I-0.0003 J-0.0067
X-5.7359 Y3.9474 Z-0.53 I0.0003 J0.0067
X-5.7448 Y3.9576 I-0.0045 J0.0051
X-5.7359 Y3.9474 I0.0045 J-0.0051
X-5.7356 Y3.9522 I-0.0022 J0.0025 F60.
G1 X-5.7404 Y3.9525
G0 Z0.4
X0.1113 Y3.54
Z0.1113
G1 Z0.05 F60.
X0.1079 Y3.5434
G3 X0.1046 Y3.54 I0. J-0.0034
X0.1181 Z0.0323 I0.0068 J0. F80.
X0.1046 Z0.0146 I-0.0068 J0.
X0.1181 Z-0.0032 I0.0068 J0.
X0.1046 Z-0.0209 I-0.0068 J0.
X0.1181 Z-0.0386 I0.0068 J0.
X0.1046 Z-0.0563 I-0.0068 J0.
X0.1181 Z-0.074 I0.0068 J0.
X0.1046 Z-0.0918 I-0.0068 J0.
X0.1181 Z-0.1095 I0.0068 J0.
X0.1046 Z-0.1272 I-0.0068 J0.
X0.1181 Z-0.1449 I0.0068 J0.
X0.1046 Z-0.1627 I-0.0068 J0.
X0.1181 Z-0.1804 I0.0068 J0.
X0.1046 Z-0.1981 I-0.0068 J0.
X0.1181 Z-0.2158 I0.0068 J0.
X0.1046 Z-0.2335 I-0.0068 J0.
X0.1181 Z-0.2513 I0.0068 J0.
X0.1046 Z-0.269 I-0.0068 J0.
X0.1181 Z-0.2867 I0.0068 J0.
X0.1046 Z-0.3044 I-0.0068 J0.
X0.1181 Z-0.3221 I0.0068 J0.
X0.1046 Z-0.3399 I-0.0068 J0.
X0.1181 Z-0.3576 I0.0068 J0.
X0.1046 Z-0.3753 I-0.0068 J0.
X0.1181 Z-0.393 I0.0068 J0.
X0.1046 Z-0.4107 I-0.0068 J0.
X0.1181 Z-0.4285 I0.0068 J0.
X0.1046 Z-0.4462 I-0.0068 J0.
X0.1181 Z-0.4639 I0.0068 J0.
X0.1046 Z-0.4816 I-0.0068 J0.
X0.1181 Z-0.4993 I0.0068 J0.
X0.1046 Z-0.5171 I-0.0068 J0.
X0.1158 Y3.5349 Z-0.53 I0.0068 J0.
X0.1069 Y3.5451 I-0.0045 J0.0051
X0.1158 Y3.5349 I0.0045 J-0.0051
X0.1161 Y3.5397 I-0.0022 J0.0025 F60.
G1 X0.1113 Y3.54
G0 Z0.4
X-1.9279 Y2.5891
Z0.1113
G1 Z0.05 F60.
X-1.9245 Y2.5857
G3 X-1.9211 Y2.5891 I0. J0.0034
X-1.9346 Z0.0323 I-0.0068 J0. F80.
X-1.9211 Z0.0146 I0.0068 J0.
X-1.9346 Z-0.0032 I-0.0068 J0.
X-1.9211 Z-0.0209 I0.0068 J0.
X-1.9346 Z-0.0386 I-0.0068 J0.
X-1.9211 Z-0.0563 I0.0068 J0.
X-1.9346 Z-0.074 I-0.0068 J0.
X-1.9211 Z-0.0918 I0.0068 J0.
X-1.9346 Z-0.1095 I-0.0068 J0.
X-1.9211 Z-0.1272 I0.0068 J0.
X-1.9346 Z-0.1449 I-0.0068 J0.
X-1.9211 Z-0.1627 I0.0068 J0.
X-1.9346 Z-0.1804 I-0.0068 J0.
X-1.9211 Z-0.1981 I0.0068 J0.
X-1.9346 Z-0.2158 I-0.0068 J0.
X-1.9211 Z-0.2335 I0.0068 J0.
X-1.9346 Z-0.2513 I-0.0068 J0.
X-1.9211 Z-0.269 I0.0068 J0.
X-1.9346 Z-0.2867 I-0.0068 J0.
X-1.9211 Z-0.3044 I0.0068 J0.
X-1.9346 Z-0.3221 I-0.0068 J0.
X-1.9211 Z-0.3399 I0.0068 J0.
X-1.9346 Z-0.3576 I-0.0068 J0.
X-1.9211 Z-0.3753 I0.0068 J0.
X-1.9346 Z-0.393 I-0.0068 J0.
X-1.9211 Z-0.4107 I0.0068 J0.
X-1.9346 Z-0.4285 I-0.0068 J0.
X-1.9211 Z-0.4462 I0.0068 J0.
X-1.9346 Z-0.4639 I-0.0068 J0.
X-1.9211 Z-0.4816 I0.0068 J0.
X-1.9346 Z-0.4993 I-0.0068 J0.
X-1.9211 Z-0.5171 I0.0067 J0.
X-1.9323 Y2.5942 Z-0.53 I-0.0067 J0.
X-1.9234 Y2.584 I0.0045 J-0.0051
X-1.9323 Y2.5942 I-0.0045 J0.0051
X-1.9326 Y2.5894 I0.0022 J-0.0025 F60.
G1 X-1.9279 Y2.5891
G0 Z0.4
X-0.8811 Y0.2689
Z0.1113
G1 Z0.05 F60.
X-0.8845 Y0.2722
G3 X-0.8878 Y0.2689 I0. J-0.0034
X-0.8743 Z0.0323 I0.0067 J0. F80.
X-0.8878 Z0.0146 I-0.0067 J0.
X-0.8743 Z-0.0032 I0.0067 J0.
X-0.8878 Z-0.0209 I-0.0067 J0.
X-0.8743 Z-0.0386 I0.0067 J0.
X-0.8878 Z-0.0563 I-0.0067 J0.
X-0.8743 Z-0.074 I0.0067 J0.
X-0.8878 Z-0.0918 I-0.0067 J0.
X-0.8743 Z-0.1095 I0.0067 J0.
X-0.8878 Z-0.1272 I-0.0067 J0.
X-0.8743 Z-0.1449 I0.0067 J0.
X-0.8878 Z-0.1627 I-0.0067 J0.
X-0.8743 Z-0.1804 I0.0068 J0.
X-0.8878 Z-0.1981 I-0.0068 J0.
X-0.8743 Z-0.2158 I0.0068 J0.
X-0.8878 Z-0.2335 I-0.0068 J0.
X-0.8743 Z-0.2513 I0.0068 J0.
X-0.8878 Z-0.269 I-0.0068 J0.
X-0.8743 Z-0.2867 I0.0068 J0.
X-0.8878 Z-0.3044 I-0.0068 J0.
X-0.8743 Z-0.3221 I0.0068 J0.
X-0.8878 Z-0.3399 I-0.0068 J0.
X-0.8743 Z-0.3576 I0.0068 J0.
X-0.8878 Z-0.3753 I-0.0068 J0.
X-0.8743 Z-0.393 I0.0068 J0.
X-0.8878 Z-0.4107 I-0.0068 J0.
X-0.8743 Z-0.4285 I0.0068 J0.
X-0.8878 Z-0.4462 I-0.0068 J0.
X-0.8743 Z-0.4639 I0.0068 J0.
X-0.8878 Z-0.4816 I-0.0068 J0.
X-0.8743 Z-0.4993 I0.0068 J0.
X-0.8878 Z-0.5171 I-0.0068 J0.
X-0.8766 Y0.2638 Z-0.53 I0.0068 J0.
X-0.8855 Y0.2739 I-0.0045 J0.0051
X-0.8766 Y0.2638 I0.0045 J-0.0051
X-0.8763 Y0.2685 I-0.0022 J0.0025 F60.
G1 X-0.8811 Y0.2689
G0 Z0.4
X0.0677 Y0.906
Z0.1113
G1 Z0.05 F60.
X0.0644 Y0.9094
G3 X0.061 Y0.906 I0. J-0.0034
X0.0745 Z0.0323 I0.0068 J0. F80.
X0.061 Z0.0146 I-0.0068 J0.
X0.0745 Z-0.0032 I0.0068 J0.
X0.061 Z-0.0209 I-0.0068 J0.
X0.0745 Z-0.0386 I0.0068 J0.
X0.061 Z-0.0563 I-0.0068 J0.
X0.0745 Z-0.074 I0.0068 J0.
X0.061 Z-0.0918 I-0.0068 J0.
X0.0745 Z-0.1095 I0.0068 J0.
X0.061 Z-0.1272 I-0.0068 J0.
X0.0745 Z-0.1449 I0.0068 J0.
X0.061 Z-0.1627 I-0.0068 J0.
X0.0745 Z-0.1804 I0.0068 J0.
X0.061 Z-0.1981 I-0.0068 J0.
X0.0745 Z-0.2158 I0.0068 J0.
X0.061 Z-0.2335 I-0.0068 J0.
X0.0745 Z-0.2513 I0.0068 J0.
X0.061 Z-0.269 I-0.0068 J0.
X0.0745 Z-0.2867 I0.0068 J0.
X0.061 Z-0.3044 I-0.0068 J0.
X0.0745 Z-0.3221 I0.0068 J0.
X0.061 Z-0.3399 I-0.0068 J0.
X0.0745 Z-0.3576 I0.0068 J0.
X0.061 Z-0.3753 I-0.0068 J0.
X0.0745 Z-0.393 I0.0068 J0.
X0.061 Z-0.4107 I-0.0068 J0.
X0.0745 Z-0.4285 I0.0068 J0.
X0.061 Z-0.4462 I-0.0068 J0.
X0.0745 Z-0.4639 I0.0068 J0.
X0.061 Z-0.4816 I-0.0068 J0.
X0.0745 Z-0.4993 I0.0068 J0.
X0.061 Z-0.5171 I-0.0068 J0.
X0.0722 Y0.9009 Z-0.53 I0.0068 J0.
X0.0633 Y0.9111 I-0.0045 J0.0051
X0.0722 Y0.9009 I0.0045 J-0.0051
X0.0725 Y0.9057 I-0.0022 J0.0025 F60.
G1 X0.0677 Y0.906
G0 Z0.4
X0.5677 Y0.806
Z0.1113
G1 Z0.05 F60.
X0.5711 Y0.8026
G3 X0.5745 Y0.806 I0. J0.0034
X0.561 Z0.0323 I-0.0068 J0. F80.
X0.5745 Z0.0146 I0.0068 J0.
X0.561 Z-0.0032 I-0.0068 J0.
X0.5745 Z-0.0209 I0.0068 J0.
X0.561 Z-0.0386 I-0.0068 J0.
X0.5745 Z-0.0563 I0.0068 J0.
X0.561 Z-0.074 I-0.0068 J0.
X0.5745 Z-0.0918 I0.0068 J0.
X0.561 Z-0.1095 I-0.0068 J0.
X0.5745 Z-0.1272 I0.0068 J0.
X0.561 Z-0.1449 I-0.0068 J0.
X0.5745 Z-0.1627 I0.0068 J0.
X0.561 Z-0.1804 I-0.0068 J0.
X0.5745 Z-0.1981 I0.0068 J0.
X0.561 Z-0.2158 I-0.0068 J0.
X0.5745 Z-0.2335 I0.0068 J0.
X0.561 Z-0.2513 I-0.0068 J0.
X0.5745 Z-0.269 I0.0068 J0.
X0.561 Z-0.2867 I-0.0068 J0.
X0.5745 Z-0.3044 I0.0068 J0.
X0.561 Z-0.3221 I-0.0068 J0.
X0.5745 Z-0.3399 I0.0068 J0.
X0.561 Z-0.3576 I-0.0068 J0.
X0.5745 Z-0.3753 I0.0067 J0.
X0.561 Z-0.393 I-0.0067 J0.
X0.5745 Z-0.4107 I0.0067 J0.
X0.561 Z-0.4285 I-0.0067 J0.
X0.5745 Z-0.4462 I0.0067 J0.
X0.561 Z-0.4639 I-0.0067 J0.
X0.5745 Z-0.4816 I0.0067 J0.
X0.561 Z-0.4993 I-0.0067 J0.
X0.5745 Z-0.5171 I0.0067 J0.
X0.5633 Y0.8111 Z-0.53 I-0.0067 J0.
X0.5722 Y0.8009 I0.0045 J-0.0051
X0.5633 Y0.8111 I-0.0045 J0.0051
X0.563 Y0.8063 I0.0022 J-0.0025 F60.
G1 X0.5677 Y0.806
G0 Z0.4
X0.962 Y1.5594
Z0.1113
G1 Z0.05 F60.
X0.9586 Y1.5628
G3 X0.9553 Y1.5594 I0. J-0.0034
X0.9688 Z0.0323 I0.0068 J0. F80.
X0.9553 Z0.0146 I-0.0068 J0.
X0.9688 Z-0.0032 I0.0068 J0.
X0.9553 Z-0.0209 I-0.0068 J0.
X0.9688 Z-0.0386 I0.0068 J0.
X0.9553 Z-0.0563 I-0.0068 J0.
X0.9688 Z-0.074 I0.0068 J0.
X0.9553 Z-0.0918 I-0.0068 J0.
X0.9688 Z-0.1095 I0.0068 J0.
X0.9553 Z-0.1272 I-0.0068 J0.
X0.9688 Z-0.1449 I0.0068 J0.
X0.9553 Z-0.1627 I-0.0068 J0.
X0.9688 Z-0.1804 I0.0068 J0.
X0.9553 Z-0.1981 I-0.0068 J0.
X0.9688 Z-0.2158 I0.0068 J0.
X0.9553 Z-0.2335 I-0.0068 J0.
X0.9688 Z-0.2513 I0.0067 J0.
X0.9553 Z-0.269 I-0.0067 J0.
X0.9688 Z-0.2867 I0.0067 J0.
X0.9553 Z-0.3044 I-0.0067 J0.
X0.9688 Z-0.3221 I0.0067 J0.
X0.9553 Z-0.3399 I-0.0067 J0.
X0.9688 Z-0.3576 I0.0067 J0.
X0.9553 Z-0.3753 I-0.0067 J0.
X0.9688 Z-0.393 I0.0067 J0.
X0.9553 Z-0.4107 I-0.0067 J0.
X0.9688 Z-0.4285 I0.0067 J0.
X0.9553 Z-0.4462 I-0.0067 J0.
X0.9688 Z-0.4639 I0.0067 J0.
X0.9553 Z-0.4816 I-0.0067 J0.
X0.9688 Z-0.4993 I0.0067 J0.
X0.9553 Z-0.5171 I-0.0067 J0.
X0.9665 Y1.5543 Z-0.53 I0.0067 J0.
X0.9575 Y1.5645 I-0.0045 J0.0051
X0.9665 Y1.5543 I0.0045 J-0.0051
X0.9668 Y1.5591 I-0.0022 J0.0025 F60.
G1 X0.962 Y1.5594
G0 Z0.4
X1.5677 Y0.806
Z0.1113
G1 Z0.05 F60.
X1.5644 Y0.8094
G3 X1.561 Y0.806 I0. J-0.0034
X1.5745 Z0.0323 I0.0067 J0. F80.
X1.561 Z0.0146 I-0.0067 J0.
X1.5745 Z-0.0032 I0.0067 J0.
X1.561 Z-0.0209 I-0.0067 J0.
X1.5745 Z-0.0386 I0.0067 J0.
X1.561 Z-0.0563 I-0.0067 J0.
X1.5745 Z-0.074 I0.0067 J0.
X1.561 Z-0.0918 I-0.0067 J0.
X1.5745 Z-0.1095 I0.0067 J0.
X1.561 Z-0.1272 I-0.0067 J0.
X1.5745 Z-0.1449 I0.0067 J0.
X1.561 Z-0.1627 I-0.0067 J0.
X1.5745 Z-0.1804 I0.0067 J0.
X1.561 Z-0.1981 I-0.0067 J0.
X1.5745 Z-0.2158 I0.0067 J0.
X1.561 Z-0.2335 I-0.0067 J0.
X1.5745 Z-0.2513 I0.0067 J0.
X1.561 Z-0.269 I-0.0067 J0.
X1.5745 Z-0.2867 I0.0067 J0.
X1.561 Z-0.3044 I-0.0067 J0.
X1.5745 Z-0.3221 I0.0067 J0.
X1.561 Z-0.3399 I-0.0067 J0.
X1.5745 Z-0.3576 I0.0067 J0.
X1.561 Z-0.3753 I-0.0068 J0.
X1.5745 Z-0.393 I0.0068 J0.
X1.561 Z-0.4107 I-0.0068 J0.
X1.5745 Z-0.4285 I0.0068 J0.
X1.561 Z-0.4462 I-0.0068 J0.
X1.5745 Z-0.4639 I0.0068 J0.
X1.561 Z-0.4816 I-0.0068 J0.
X1.5745 Z-0.4993 I0.0068 J0.
X1.561 Z-0.5171 I-0.0068 J0.
X1.5722 Y0.8009 Z-0.53 I0.0068 J0.
X1.5633 Y0.8111 I-0.0045 J0.0051
X1.5722 Y0.8009 I0.0045 J-0.0051
X1.5725 Y0.8057 I-0.0022 J0.0025 F60.
G1 X1.5677 Y0.806
G0 Z0.4
X2.5677
Z0.1113
G1 Z0.05 F60.
X2.5644 Y0.8094
G3 X2.561 Y0.806 I0. J-0.0034
X2.5745 Z0.0323 I0.0067 J0. F80.
X2.561 Z0.0146 I-0.0067 J0.
X2.5745 Z-0.0032 I0.0067 J0.
X2.561 Z-0.0209 I-0.0067 J0.
X2.5745 Z-0.0386 I0.0067 J0.
X2.561 Z-0.0563 I-0.0067 J0.
X2.5745 Z-0.074 I0.0067 J0.
X2.561 Z-0.0918 I-0.0067 J0.
X2.5745 Z-0.1095 I0.0067 J0.
X2.561 Z-0.1272 I-0.0067 J0.
X2.5745 Z-0.1449 I0.0067 J0.
X2.561 Z-0.1627 I-0.0067 J0.
X2.5745 Z-0.1804 I0.0067 J0.
X2.561 Z-0.1981 I-0.0067 J0.
X2.5745 Z-0.2158 I0.0067 J0.
X2.561 Z-0.2335 I-0.0067 J0.
X2.5745 Z-0.2513 I0.0067 J0.
X2.561 Z-0.269 I-0.0067 J0.
X2.5745 Z-0.2867 I0.0067 J0.
X2.561 Z-0.3044 I-0.0067 J0.
X2.5745 Z-0.3221 I0.0067 J0.
X2.561 Z-0.3399 I-0.0067 J0.
X2.5745 Z-0.3576 I0.0067 J0.
X2.561 Z-0.3753 I-0.0068 J0.
X2.5745 Z-0.393 I0.0068 J0.
X2.561 Z-0.4107 I-0.0068 J0.
X2.5745 Z-0.4285 I0.0068 J0.
X2.561 Z-0.4462 I-0.0068 J0.
X2.5745 Z-0.4639 I0.0068 J0.
X2.561 Z-0.4816 I-0.0068 J0.
X2.5745 Z-0.4993 I0.0068 J0.
X2.561 Z-0.5171 I-0.0068 J0.
X2.5722 Y0.8009 Z-0.53 I0.0068 J0.
X2.5633 Y0.8111 I-0.0045 J0.0051
X2.5722 Y0.8009 I0.0045 J-0.0051
X2.5725 Y0.8057 I-0.0022 J0.0025 F60.
G1 X2.5677 Y0.806
G0 Z0.4
X3.0677 Y0.906
Z0.1113
G1 Z0.05 F60.
X3.0711 Y0.9026
G3 X3.0745 Y0.906 I0. J0.0034
X3.061 Z0.0323 I-0.0067 J0. F80.
X3.0745 Z0.0146 I0.0067 J0.
X3.061 Z-0.0032 I-0.0067 J0.
X3.0745 Z-0.0209 I0.0067 J0.
X3.061 Z-0.0386 I-0.0067 J0.
X3.0745 Z-0.0563 I0.0067 J0.
X3.061 Z-0.074 I-0.0067 J0.
X3.0745 Z-0.0918 I0.0067 J0.
X3.061 Z-0.1095 I-0.0067 J0.
X3.0745 Z-0.1272 I0.0067 J0.
X3.061 Z-0.1449 I-0.0067 J0.
X3.0745 Z-0.1627 I0.0067 J0.
X3.061 Z-0.1804 I-0.0067 J0.
X3.0745 Z-0.1981 I0.0067 J0.
X3.061 Z-0.2158 I-0.0067 J0.
X3.0745 Z-0.2335 I0.0067 J0.
X3.061 Z-0.2513 I-0.0067 J0.
X3.0745 Z-0.269 I0.0067 J0.
X3.061 Z-0.2867 I-0.0067 J0.
X3.0745 Z-0.3044 I0.0067 J0.
X3.061 Z-0.3221 I-0.0067 J0.
X3.0745 Z-0.3399 I0.0067 J0.
X3.061 Z-0.3576 I-0.0067 J0.
X3.0745 Z-0.3753 I0.0068 J0.
X3.061 Z-0.393 I-0.0068 J0.
X3.0745 Z-0.4107 I0.0068 J0.
X3.061 Z-0.4285 I-0.0068 J0.
X3.0745 Z-0.4462 I0.0068 J0.
X3.061 Z-0.4639 I-0.0068 J0.
X3.0745 Z-0.4816 I0.0068 J0.
X3.061 Z-0.4993 I-0.0068 J0.
X3.0745 Z-0.5171 I0.0068 J0.
X3.0633 Y0.9111 Z-0.53 I-0.0068 J0.
X3.0722 Y0.9009 I0.0045 J-0.0051
X3.0633 Y0.9111 I-0.0045 J0.0051
X3.063 Y0.9063 I0.0022 J-0.0025 F60.
G1 X3.0677 Y0.906
G0 Z0.4
X4.2596 Y3.5456
Z0.0675
G1 Z0.0062 F60.
G18 G3 X4.2409 Z-0.0125 I-0.0187 K0.
G1 X4.2315
G17 G3 X4.2159 Y3.53 I0. J-0.0156
X4.2784 Z-0.0345 I0.0312 J0. F80.
X4.2159 Z-0.0566 I-0.0312 J0.
X4.2784 Z-0.0786 I0.0312 J0.
X4.2159 Z-0.1007 I-0.0312 J0.
X4.2784 Z-0.1227 I0.0312 J0.
X4.2159 Z-0.1447 I-0.0312 J0.
X4.2784 Z-0.1668 I0.0312 J0.
X4.2159 Z-0.1888 I-0.0312 J0.
X4.2784 Z-0.2109 I0.0312 J0.
X4.2159 Z-0.2329 I-0.0312 J0.
X4.2784 Z-0.2549 I0.0312 J0.
X4.2159 Z-0.277 I-0.0312 J0.
X4.2784 Z-0.299 I0.0312 J0.
X4.2159 Z-0.3211 I-0.0312 J0.
X4.2784 Z-0.3431 I0.0312 J0.
X4.2159 Z-0.3652 I-0.0312 J0.
X4.2784 Z-0.3872 I0.0312 J0.
X4.2159 Z-0.4092 I-0.0312 J0.
X4.2784 Z-0.4313 I0.0312 J0.
X4.2159 Z-0.4533 I-0.0312 J0.
X4.2784 Z-0.4754 I0.0312 J0.
X4.2159 Z-0.4974 I-0.0312 J0.
X4.2784 Z-0.5194 I0.0312 J0.
X4.2492 Y3.5612 Z-0.53 I-0.0312 J0.
X4.2451 Y3.4988 I-0.002 J-0.0312
X4.2492 Y3.5612 I0.002 J0.0312
X4.2326 Y3.5466 I-0.001 J-0.0156 F60.
G1 X4.2319 Y3.5373
X4.2317 Y3.534 Z-0.5297
X4.2315 Y3.5309 Z-0.5289
X4.2313 Y3.5279 Z-0.5275
X4.2311 Y3.5252 Z-0.5256
X4.231 Y3.5229 Z-0.5233
X4.2309 Y3.5211 Z-0.5206
X4.2308 Y3.5197 Z-0.5177
X4.2307 Y3.5188 Z-0.5145
Y3.5186 Z-0.5113
G0 Z0.4
X3.5596 Y5.5144
Z0.13
G1 Z0.0688 F60.
G18 G2 X3.5784 Z0.05 I0.0187 K0.
G1 X3.5877
G17 G3 X3.6034 Y5.53 I0. J0.0156
X3.5409 Z0.028 I-0.0312 J0. F80.
X3.6034 Z0.0059 I0.0312 J0.
X3.5409 Z-0.0161 I-0.0312 J0.
X3.6034 Z-0.0382 I0.0312 J0.
X3.5409 Z-0.0602 I-0.0312 J0.
X3.6034 Z-0.0822 I0.0312 J0.
X3.5409 Z-0.1043 I-0.0312 J0.
X3.6034 Z-0.1263 I0.0312 J0.
X3.5409 Z-0.1484 I-0.0312 J0.
X3.6034 Z-0.1704 I0.0312 J0.
X3.5409 Z-0.1924 I-0.0312 J0.
X3.6034 Z-0.2145 I0.0312 J0.
X3.5409 Z-0.2365 I-0.0312 J0.
X3.6034 Z-0.2586 I0.0312 J0.
X3.5409 Z-0.2806 I-0.0312 J0.
X3.6034 Z-0.3027 I0.0312 J0.
X3.5409 Z-0.3247 I-0.0312 J0.
X3.6034 Z-0.3467 I0.0312 J0.
X3.5409 Z-0.3688 I-0.0312 J0.
X3.6034 Z-0.3908 I0.0312 J0.
X3.5409 Z-0.4129 I-0.0312 J0.
X3.6034 Z-0.4349 I0.0312 J0.
X3.5409 Z-0.4569 I-0.0312 J0.
X3.6034 Z-0.479 I0.0312 J0.
X3.5409 Z-0.501 I-0.0312 J0.
X3.6034 Z-0.5231 I0.0312 J0.
X3.5893 Y5.5561 Z-0.53 I-0.0312 J0.
X3.5549 Y5.5039 I-0.0172 J-0.0261
X3.5893 Y5.5561 I0.0172 J0.0261
X3.5677 Y5.5516 I-0.0086 J-0.0131 F60.
G1 X3.5625 Y5.5438
X3.5607 Y5.5411 Z-0.5297
X3.559 Y5.5385 Z-0.5289
X3.5573 Y5.536 Z-0.5275
X3.5559 Y5.5337 Z-0.5256
X3.5546 Y5.5318 Z-0.5233
X3.5536 Y5.5302 Z-0.5206
X3.5528 Y5.5291 Z-0.5177
X3.5524 Y5.5284 Z-0.5145
X3.5522 Y5.5281 Z-0.5113
G0 Z0.6
(SHAPE THROUGH HOLE)
M7
G0 X-1.914 Y-8.1284
Z0.6
Z0.1
G3 X-1.9138 Y-8.3066 Z0.0507 I0.0001 J-0.0891 F13.333
X-1.914 Y-8.1284 Z0.0013 I-0.0001 J0.0891
X-1.9138 Y-8.3066 Z-0.048 I0.0001 J-0.0891
X-1.914 Y-8.1284 Z-0.0973 I-0.0001 J0.0891
X-1.9138 Y-8.3066 Z-0.1467 I0.0001 J-0.0891
X-1.914 Y-8.1284 Z-0.196 I-0.0001 J0.0891
X-1.9138 Y-8.3066 Z-0.2454 I0.0001 J-0.0891
X-1.8248 Y-8.2175 Z-0.27 I-0.0001 J0.0891
X-2.003 I-0.0891 J0.
X-1.8248 I0.0891 J0.
X-1.8433 Y-8.1003 I-0.055 J0.0514 F80.
G1 X-1.965
X-1.9905 Y-8.1066
G3 X-2.0684 Y-8.2703 I0.0388 J-0.1189
G1 X-2.0666 Y-8.2731 F60.
X-2.0643 Y-8.2755
X-2.0615 Y-8.2775
X-2.0585 Y-8.2789
X-2.0552 Y-8.2798
X-2.0519 Y-8.28
X-2.0485 Y-8.2797
X-2.0452 Y-8.2787
X-2.0422 Y-8.2771
G3 X-2.0356 Y-8.2696 I-0.0103 J0.0157 F80.
G1 X-1.9697 Y-8.1331
G3 X-1.968 Y-8.1226 I-0.0169 J0.0081
X-1.9905 Y-8.1066 I-0.0186 J-0.0024 F60.
X-1.965 Y-8.3335 I0.0231 J-0.1123 F80.
G1 X-1.8551 Y-8.3347
G3 X-1.7441 Y-8.099 I-0.0381 J0.1619
G1 X-1.7581 Y-8.1003
X-1.8433
G3 X-1.8592 Y-8.1102 I0.0007 J-0.0187 F60.
X-1.8623 Y-8.121 I0.0246 J-0.0131
X-1.8298 Y-8.1507 I0.0277 J-0.0023 F80.
X-1.78 Y-8.1198 I-0.0137 J0.0775
X-1.774 Y-8.1102 I-0.0635 J0.0466 F60.
G2 X-1.7581 Y-8.1003 I0.0165 J-0.0088
G1 X-1.7293
G2 X-1.7165 Y-8.3357 I-0.0616 J-0.1214
G1 X-1.8551 Y-8.3347
G2 X-1.8732 Y-8.3153 I0.0007 J0.0187
X-1.8731 Y-8.3138 I0.0164 J-0.0006
X-1.8633 Y-8.3008 I0.0162 J-0.002 F80.
X-1.742 Y-8.3177 I0.0468 J-0.1085
X-1.7302 Y-8.3287 I-0.0746 J-0.0916 F60.
G3 X-1.7171 Y-8.3347 I0.0137 J0.0128
G1 X-1.6841 F80.
G3 X-1.618 Y-8.0966 I-0.0368 J0.1385
G1 X-1.7293 Y-8.1003
G3 X-1.7452 Y-8.1102 I0.0007 J-0.0187 F60.
X-1.7483 Y-8.121 I0.0238 J-0.0127
X-1.7288 Y-8.1489 I0.027 J-0.0019 F80.
X-1.6438 Y-8.1198 I0.0215 J0.0757
X-1.6378 Y-8.1102 I-0.0635 J0.0466 F60.
G2 X-1.6219 Y-8.1003 I0.0165 J-0.0088
G1 X-1.5935
G2 X-1.5544 Y-8.3371 I-0.0465 J-0.1293
G1 X-1.6841 Y-8.3347
G2 X-1.7 Y-8.3248 I0.0007 J0.0187
X-1.7015 Y-8.3138 I0.014 J0.0075
X-1.6972 Y-8.306 I0.0155 J-0.0035 F80.
X-1.5782 Y-8.3152 I0.0556 J-0.0558
X-1.5722 Y-8.3248 I-0.0635 J-0.0466 F60.
G3 X-1.5563 Y-8.3347 I0.0165 J0.0088
G1 X-1.5227 F80.
G3 X-1.4725 Y-8.0971 I-0.0455 J0.1337
G1 X-1.5935 Y-8.1003
G3 X-1.6094 Y-8.1102 I0.0007 J-0.0187 F60.
X-1.6121 Y-8.1211 I0.0204 J-0.0109
X-1.6007 Y-8.1411 I0.0232 J0. F80.
X-1.4973 Y-8.1198 I0.0399 J0.0679
X-1.4913 Y-8.1102 I-0.0635 J0.0466 F60.
G2 X-1.4754 Y-8.1003 I0.0165 J-0.0088
G1 X-1.4466
G2 X-1.3999 Y-8.3375 I-0.0429 J-0.1316
G1 X-1.5227 Y-8.3347
G2 X-1.5386 Y-8.3248 I0.0007 J0.0187
X-1.5412 Y-8.3139 I0.0193 J0.0103
X-1.5315 Y-8.2964 I0.0218 J-0.0006 F80.
X-1.4242 Y-8.3152 I0.0438 J-0.0654
X-1.4182 Y-8.3248 I-0.0635 J-0.0466 F60.
G3 X-1.4023 Y-8.3347 I0.0165 J0.0088
G1 X-1.3693 F80.
G3 X-1.3228 Y-8.0973 I-0.0472 J0.1325
G1 X-1.4466 Y-8.1003
G3 X-1.4625 Y-8.1102 I0.0007 J-0.0187 F60.
X-1.465 Y-8.1211 I0.0188 J-0.01
X-1.4559 Y-8.1378 I0.0213 J0.0008 F80.
X-1.3474 Y-8.1198 I0.045 J0.0646
X-1.3414 Y-8.1102 I-0.0635 J0.0466 F60.
G2 X-1.3255 Y-8.1003 I0.0165 J-0.0088
G1 X-1.2935
G2 X-1.2477 Y-8.3376 I-0.0466 J-0.132
G1 X-1.3693 Y-8.3347
G2 X-1.3852 Y-8.3248 I0.0007 J0.0187
X-1.3878 Y-8.3139 I0.02 J0.0106
X-1.3771 Y-8.2949 I0.0226 J-0.0002 F80.
X-1.2721 Y-8.3152 I0.0415 J-0.0669
X-1.2661 Y-8.3248 I-0.0635 J-0.0466 F60.
G3 X-1.2502 Y-8.3347 I0.0165 J0.0088
G1 X-1.2169 F80.
G3 X-1.1716 Y-8.0973 I-0.0484 J0.1323
G1 X-1.2935 Y-8.1003
G3 X-1.3093 Y-8.1102 I0.0007 J-0.0187 F60.
X-1.312 Y-8.1211 I0.0199 J-0.0106
X-1.3014 Y-8.14 I0.0226 J0.0002 F80.
X-1.1963 Y-8.1198 I0.0416 J0.0668
X-1.1902 Y-8.1102 I-0.0635 J0.0466 F60.
G2 X-1.1743 Y-8.1003 I0.0165 J-0.0088
G1 X-1.1438
G2 X-1.0959 Y-8.3378 I-0.0446 J-0.1326
G1 X-1.2169 Y-8.3347
G2 X-1.2328 Y-8.3248 I0.0007 J0.0187
X-1.2355 Y-8.3139 I0.0203 J0.0108
X-1.2242 Y-8.2941 I0.0231 J0. F80.
X-1.1205 Y-8.3152 I0.0402 J-0.0677
X-1.1145 Y-8.3248 I-0.0635 J-0.0466 F60.
G3 X-1.0986 Y-8.3347 I0.0165 J0.0088
G1 X-1.0672 F80.
G3 X-1.0205 Y-8.0975 I-0.0459 J0.1322
G1 X-1.1438 Y-8.1003
G3 X-1.1596 Y-8.1102 I0.0007 J-0.0187 F60.
X-1.1622 Y-8.1211 I0.019 J-0.0101
X-1.1528 Y-8.1382 I0.0216 J0.0007 F80.
X-1.0449 Y-8.1198 I0.0445 J0.065
X-1.0388 Y-8.1102 I-0.0635 J0.0466 F60.
G2 X-1.0229 Y-8.1003 I0.0165 J-0.0088
G1 X-0.9906
G2 X-0.9449 Y-8.3376 I-0.0473 J-0.1322
G1 X-1.0672 Y-8.3347
G2 X-1.0831 Y-8.3248 I0.0007 J0.0187
X-1.0857 Y-8.3139 I0.0197 J0.0105
X-1.0754 Y-8.2955 I0.0223 J-0.0004 F80.
X-0.9694 Y-8.3152 I0.0425 J-0.0663
X-0.9634 Y-8.3248 I-0.0635 J-0.0466 F60.
G3 X-0.9475 Y-8.3347 I0.0165 J0.0088
G1 X-0.9182 F80.
G3 X-0.8692 Y-8.0973 I-0.0423 J0.1325
G1 X-0.9906 Y-8.1003
G3 X-1.0065 Y-8.1102 I0.0007 J-0.0187 F60.
X-1.0091 Y-8.1211 I0.0201 J-0.0107
X-0.9982 Y-8.1404 I0.0228 J0.0001 F80.
X-0.8937 Y-8.1198 I0.041 J0.0672
X-0.8877 Y-8.1102 I-0.0635 J0.0466 F60.
G2 X-0.8718 Y-8.1003 I0.0165 J-0.0088
G1 X-0.8416
G2 X-0.7936 Y-8.3377 I-0.0439 J-0.1325
G1 X-0.9182 Y-8.3347
G2 X-0.9341 Y-8.3248 I0.0007 J0.0187
X-0.9365 Y-8.3139 I0.0183 J0.0098
X-0.928 Y-8.2982 I0.0208 J-0.0011 F80.
X-0.8181 Y-8.3152 I0.0464 J-0.0636
X-0.8121 Y-8.3248 I-0.0635 J-0.0466 F60.
G3 X-0.7962 Y-8.3347 I0.0165 J0.0088
G1 X-0.7651 F80.
G3 X-0.7177 Y-8.0971 I-0.0456 J0.1326
G1 X-0.8416 Y-8.1003
G3 X-0.8575 Y-8.1102 I0.0007 J-0.0187 F60.
X-0.86 Y-8.1211 I0.0188 J-0.01
X-0.8509 Y-8.1378 I0.0213 J0.0009 F80.
X-0.7424 Y-8.1198 I0.045 J0.0646
X-0.7364 Y-8.1102 I-0.0635 J0.0466 F60.
G2 X-0.7205 Y-8.1003 I0.0165 J-0.0088
G1 X-0.6885
G2 X-0.6425 Y-8.3376 I-0.0467 J-0.1321
G1 X-0.7651 Y-8.3347
G2 X-0.7809 Y-8.3248 I0.0007 J0.0187
X-0.7835 Y-8.3139 I0.0195 J0.0104
X-0.7736 Y-8.2959 I0.0221 J-0.0005 F80.
X-0.667 Y-8.3152 I0.0431 J-0.0659
X-0.661 Y-8.3248 I-0.0635 J-0.0466 F60.
G3 X-0.6451 Y-8.3347 I0.0165 J0.0088
G1 X-0.6119 F80.
G3 X-0.5667 Y-8.0973 I-0.0482 J0.1322
G1 X-0.6885 Y-8.1003
G3 X-0.7044 Y-8.1102 I0.0007 J-0.0187 F60.
X-0.707 Y-8.1211 I0.0199 J-0.0106
X-0.6964 Y-8.14 I0.0226 J0.0002 F80.
X-0.5913 Y-8.1198 I0.0417 J0.0668
X-0.5852 Y-8.1102 I-0.0635 J0.0466 F60.
G2 X-0.5693 Y-8.1003 I0.0165 J-0.0088
G1 X-0.5386
G2 X-0.4907 Y-8.3378 I-0.0448 J-0.1326
G1 X-0.6119 Y-8.3347
G2 X-0.6278 Y-8.3248 I0.0007 J0.0187
X-0.6305 Y-8.3139 I0.0203 J0.0108
X-0.6193 Y-8.2942 I0.023 J-0.0001 F80.
X-0.5154 Y-8.3152 I0.0404 J-0.0676
X-0.5094 Y-8.3248 I-0.0635 J-0.0466 F60.
G3 X-0.4935 Y-8.3347 I0.0165 J0.0088
G1 X-0.4646 F80.
G3 X-0.4155 Y-8.0974 I-0.042 J0.1324
G1 X-0.5386 Y-8.1003
G3 X-0.5545 Y-8.1102 I0.0007 J-0.0187 F60.
X-0.557 Y-8.1211 I0.0192 J-0.0102
X-0.5474 Y-8.1385 I0.0217 J0.0007 F80.
X-0.44 Y-8.1198 I0.044 J0.0653
X-0.434 Y-8.1102 I-0.0635 J0.0466 F60.
G2 X-0.4181 Y-8.1003 I0.0165 J-0.0088
G1 X-0.3856
G2 X-0.34 Y-8.3376 I-0.0472 J-0.1321
G1 X-0.4646 Y-8.3347
G2 X-0.4805 Y-8.3248 I0.0007 J0.0187
X-0.4829 Y-8.3139 I0.0183 J0.0098
X-0.4744 Y-8.2982 I0.0208 J-0.0011 F80.
X-0.3645 Y-8.3152 I0.0464 J-0.0636
X-0.3585 Y-8.3248 I-0.0635 J-0.0466 F60.
G3 X-0.3426 Y-8.3347 I0.0165 J0.0088
G1 X-0.3114 F80.
G3 X-0.2638 Y-8.0971 I-0.0454 J0.1327
G1 X-0.3856 Y-8.1003
G3 X-0.4015 Y-8.1102 I0.0007 J-0.0187 F60.
X-0.4041 Y-8.1211 I0.02 J-0.0106
X-0.3934 Y-8.1401 I0.0226 J0.0002 F80.
X-0.2885 Y-8.1198 I0.0415 J0.0669
X-0.2825 Y-8.1102 I-0.0635 J0.0466 F60.
G2 X-0.2666 Y-8.1003 I0.0165 J-0.0088
G1 X-0.237
G2 X-0.1886 Y-8.3377 I-0.0432 J-0.1324
G1 X-0.3114 Y-8.3347
G2 X-0.3273 Y-8.3248 I0.0007 J0.0187
X-0.3299 Y-8.3139 I0.0194 J0.0103
X-0.32 Y-8.2961 I0.022 J-0.0006 F80.
X-0.2131 Y-8.3152 I0.0434 J-0.0657
X-0.2071 Y-8.3248 I-0.0635 J-0.0466 F60.
G3 X-0.1912 Y-8.3347 I0.0165 J0.0088
G1 X-0.1582 F80.
G3 X-0.1131 Y-8.0973 I-0.0479 J0.1321
G1 X-0.237 Y-8.1003
G3 X-0.2529 Y-8.1102 I0.0007 J-0.0187 F60.
X-0.2554 Y-8.1211 I0.0188 J-0.01
X-0.2464 Y-8.1377 I0.0213 J0.0009 F80.
X-0.1377 Y-8.1198 I0.0452 J0.0645
X-0.1316 Y-8.1102 I-0.0635 J0.0466 F60.
G2 X-0.1158 Y-8.1003 I0.0165 J-0.0088
G1 X-0.0843
G2 X-0.0371 Y-8.3375 I-0.0454 J-0.1323
G1 X-0.1582 Y-8.3347
G2 X-0.1741 Y-8.3248 I0.0007 J0.0187
X-0.1768 Y-8.3139 I0.0202 J0.0107
X-0.1658 Y-8.2945 I0.0228 J-0.0001 F80.
X-0.0615 Y-8.3152 I0.0409 J-0.0673
X-0.0555 Y-8.3248 I-0.0635 J-0.0466 F60.
G3 X-0.0396 Y-8.3347 I0.0165 J0.0088
G1 X-0.0107 F80.
G3 X0.0382 Y-8.0974 I-0.0423 J0.1324
G1 X-0.0843 Y-8.1003
G3 X-0.1002 Y-8.1102 I0.0007 J-0.0187 F60.
X-0.1028 Y-8.1211 I0.0195 J-0.0104
X-0.0928 Y-8.1391 I0.0221 J0.0005 F80.
X0.0137 Y-8.1198 I0.0431 J0.0659
X0.0198 Y-8.1102 I-0.0635 J0.0466 F60.
G2 X0.0356 Y-8.1003 I0.0165 J-0.0088
G1 X0.0685
G2 X0.1138 Y-8.3377 I-0.0476 J-0.1321
G1 X-0.0107 Y-8.3347
G2 X-0.0265 Y-8.3248 I0.0007 J0.0187
X-0.029 Y-8.3139 I0.0185 J0.0098
X-0.0203 Y-8.298 I0.0209 J-0.0011 F80.
X0.0892 Y-8.3152 I0.0461 J-0.0638
X0.0952 Y-8.3248 I-0.0635 J-0.0466 F60.
G3 X0.1111 Y-8.3347 I0.0165 J0.0088
G1 X0.1425 F80.
G3 X0.1897 Y-8.0975 I-0.0454 J0.1323
G1 X0.0685 Y-8.1003
G3 X0.0526 Y-8.1102 I0.0007 J-0.0187 F60.
X0.0499 Y-8.1211 I0.0201 J-0.0107
X0.0608 Y-8.1403 I0.0228 J0.0002 F80.
X0.1654 Y-8.1198 I0.0411 J0.0671
X0.1714 Y-8.1102 I-0.0635 J0.0466 F60.
G2 X0.1873 Y-8.1003 I0.0165 J-0.0088
G1 X0.2162
G2 X0.2651 Y-8.3376 I-0.0422 J-0.1324
G1 X0.1425 Y-8.3347
G2 X0.1266 Y-8.3248 I0.0007 J0.0187
X0.124 Y-8.3139 I0.0195 J0.0104
X0.134 Y-8.2959 I0.0221 J-0.0005 F80.
X0.2406 Y-8.3152 I0.0431 J-0.0659
X0.2466 Y-8.3248 I-0.0635 J-0.0466 F60.
G3 X0.2625 Y-8.3347 I0.0165 J0.0088
G1 X0.2957 F80.
G3 X0.3407 Y-8.0973 I-0.0482 J0.1321
G1 X0.2162 Y-8.1003
G3 X0.2003 Y-8.1102 I0.0007 J-0.0187 F60.
X0.1979 Y-8.1211 I0.0184 J-0.0098
X0.2065 Y-8.137 I0.0209 J0.0011 F80.
X0.3161 Y-8.1198 I0.0461 J0.0638
X0.3221 Y-8.1102 I-0.0635 J0.0466 F60.
G2 X0.338 Y-8.1003 I0.0165 J-0.0088
G1 X0.3682
G2 X0.4166 Y-8.3377 I-0.0436 J-0.1325
G1 X0.2957 Y-8.3347
G2 X0.2798 Y-8.3248 I0.0007 J0.0187
X0.2771 Y-8.3139 I0.0204 J0.0109
X0.2884 Y-8.2941 I0.0231 J0. F80.
X0.392 Y-8.3152 I0.0401 J-0.0677
X0.398 Y-8.3248 I-0.0635 J-0.0466 F60.
G3 X0.4139 Y-8.3347 I0.0165 J0.0088
G1 X0.4462 F80.
G3 X0.4919 Y-8.0974 I-0.0469 J0.1321
G1 X0.3682 Y-8.1003
G3 X0.3523 Y-8.1102 I0.0007 J-0.0187 F60.
X0.3498 Y-8.1211 I0.0189 J-0.0101
X0.359 Y-8.1378 I0.0214 J0.0008 F80.
X0.4674 Y-8.1198 I0.045 J0.0646
X0.4734 Y-8.1102 I-0.0635 J0.0466 F60.
G2 X0.4893 Y-8.1003 I0.0165 J-0.0088
G1 X0.5208
G2 X0.5679 Y-8.3375 I-0.0455 J-0.1323
G1 X0.4462 Y-8.3347
G2 X0.4303 Y-8.3248 I0.0007 J0.0187
X0.4276 Y-8.3139 I0.0199 J0.0106
X0.4382 Y-8.2951 I0.0225 J-0.0003 F80.
X0.5435 Y-8.3152 I0.0418 J-0.0667
X0.5495 Y-8.3248 I-0.0635 J-0.0466 F60.
G3 X0.5654 Y-8.3347 I0.0165 J0.0088
G1 X0.5957 F80.
G3 X0.6435 Y-8.0972 I-0.0446 J0.1325
G1 X0.5208 Y-8.1003
G3 X0.5049 Y-8.1102 I0.0007 J-0.0187 F60.
X0.5023 Y-8.1211 I0.0195 J-0.0104
X0.5123 Y-8.1391 I0.0221 J0.0005 F80.
X0.6188 Y-8.1198 I0.0431 J0.0659
X0.6248 Y-8.1102 I-0.0635 J0.0466 F60.
G2 X0.6407 Y-8.1003 I0.0165 J-0.0088
G1 X0.6733
G2 X0.7189 Y-8.3376 I-0.0474 J-0.1321
G1 X0.5957 Y-8.3347
G2 X0.5798 Y-8.3248 I0.0007 J0.0187
X0.5773 Y-8.3139 I0.0192 J0.0102
X0.5869 Y-8.2965 I0.0217 J-0.0007 F80.
X0.6943 Y-8.3152 I0.044 J-0.0653
X0.7004 Y-8.3248 I-0.0635 J-0.0466 F60.
G3 X0.7162 Y-8.3347 I0.0165 J0.0088
G1 X0.7489 F80.
G3 X0.7947 Y-8.0973 I-0.0473 J0.1322
G1 X0.6733 Y-8.1003
G3 X0.6575 Y-8.1102 I0.0007 J-0.0187 F60.
X0.6548 Y-8.1211 I0.0201 J-0.0107
X0.6657 Y-8.1404 I0.0228 J0.0001 F80.
X0.7702 Y-8.1198 I0.041 J0.0672
X0.7762 Y-8.1102 I-0.0635 J0.0466 F60.
G2 X0.7921 Y-8.1003 I0.0165 J-0.0088
G1 X0.8255
G2 X0.8704 Y-8.3378 I-0.0487 J-0.1322
G1 X0.7489 Y-8.3347
G2 X0.733 Y-8.3248 I0.0007 J0.0187
X0.7304 Y-8.3139 I0.0201 J0.0107
X0.7412 Y-8.2946 I0.0228 J-0.0002 F80.
X0.8458 Y-8.3152 I0.0411 J-0.0672
X0.8518 Y-8.3248 I-0.0635 J-0.0466 F60.
G3 X0.8677 Y-8.3347 I0.0165 J0.0088
G1 X0.8986 F80.
G3 X0.9465 Y-8.0972 I-0.0451 J0.1327
G1 X0.8255 Y-8.1003
G3 X0.8096 Y-8.1102 I0.0007 J-0.0187 F60.
X0.8069 Y-8.1211 I0.0204 J-0.0109
X0.8183 Y-8.141 I0.0231 J0. F80.
X0.9218 Y-8.1198 I0.04 J0.0678
X0.9278 Y-8.1102 I-0.0635 J0.0466 F60.
G2 X0.9437 Y-8.1003 I0.0165 J-0.0088
G1 X0.9752
G2 X1.0215 Y-8.3375 I-0.0461 J-0.1321
G1 X0.8986 Y-8.3347
G2 X0.8827 Y-8.3248 I0.0007 J0.0187
X0.8802 Y-8.3139 I0.0193 J0.0103
X0.8899 Y-8.2963 I0.0218 J-0.0006 F80.
X0.9971 Y-8.3152 I0.0437 J-0.0655
X1.0031 Y-8.3248 I-0.0635 J-0.0466 F60.
G3 X1.019 Y-8.3347 I0.0165 J0.0088
G1 X1.0518 F80.
G3 X1.0973 Y-8.0973 I-0.0477 J0.1322
G1 X0.9752 Y-8.1003
G3 X0.9593 Y-8.1102 I0.0007 J-0.0187 F60.
X0.9567 Y-8.1211 I0.0198 J-0.0105
X0.9671 Y-8.1397 I0.0224 J0.0003 F80.
X1.0728 Y-8.1198 I0.0422 J0.0665
X1.0788 Y-8.1102 I-0.0635 J0.0466 F60.
G2 X1.0947 Y-8.1003 I0.0165 J-0.0088
G1 X1.1241
G2 X1.173 Y-8.3377 I-0.0426 J-0.1325
G1 X1.0518 Y-8.3347
G2 X1.0359 Y-8.3248 I0.0007 J0.0187
X1.0332 Y-8.3139 I0.0202 J0.0108
X1.0443 Y-8.2944 I0.0229 J-0.0001 F80.
X1.1484 Y-8.3152 I0.0407 J-0.0674
X1.1545 Y-8.3248 I-0.0635 J-0.0466 F60.
G3 X1.1704 Y-8.3347 I0.0165 J0.0088
G1 X1.2007 F80.
G3 X1.2486 Y-8.0972 I-0.0442 J0.1325
G1 X1.1241 Y-8.1003
G3 X1.1082 Y-8.1102 I0.0007 J-0.0187 F60.
X1.1058 Y-8.1211 I0.0184 J-0.0098
X1.1144 Y-8.137 I0.0209 J0.0011 F80.
X1.2241 Y-8.1198 I0.0461 J0.0638
X1.2301 Y-8.1102 I-0.0635 J0.0466 F60.
G2 X1.246 Y-8.1003 I0.0165 J-0.0088
G1 X1.2773
G2 X1.3245 Y-8.3379 I-0.046 J-0.1326
G1 X1.2007 Y-8.3347
G2 X1.1848 Y-8.3248 I0.0007 J0.0187
X1.1823 Y-8.3139 I0.0189 J0.0101
X1.1916 Y-8.297 I0.0215 J-0.0008 F80.
X1.2998 Y-8.3152 I0.0447 J-0.0648
X1.3058 Y-8.3248 I-0.0635 J-0.0466 F60.
G3 X1.3217 Y-8.3347 I0.0165 J0.0088
G1 X1.3539 F80.
G3 X1.3997 Y-8.0974 I-0.047 J0.1321
G1 X1.2773 Y-8.1003
G3 X1.2614 Y-8.1102 I0.0007 J-0.0187 F60.
X1.2588 Y-8.1211 I0.0196 J-0.0104
X1.2689 Y-8.1393 I0.0222 J0.0004 F80.
X1.3752 Y-8.1198 I0.0428 J0.0661
X1.3812 Y-8.1102 I-0.0635 J0.0466 F60.
G2 X1.3971 Y-8.1003 I0.0165 J-0.0088
G1 X1.4305
G2 X1.4756 Y-8.3377 I-0.0485 J-0.1322
G1 X1.3539 Y-8.3347
G2 X1.338 Y-8.3248 I0.0007 J0.0187
X1.3354 Y-8.3139 I0.02 J0.0107
X1.3461 Y-8.2948 I0.0227 J-0.0002 F80.
X1.4509 Y-8.3152 I0.0414 J-0.067
X1.457 Y-8.3248 I-0.0635 J-0.0466 F60.
G3 X1.4729 Y-8.3347 I0.0165 J0.0088
G1 X1.5038 F80.
G3 X1.5516 Y-8.0972 I-0.0451 J0.1327
G1 X1.4305 Y-8.1003
G3 X1.4146 Y-8.1102 I0.0007 J-0.0187 F60.
X1.4119 Y-8.1211 I0.0203 J-0.0108
X1.4232 Y-8.1409 I0.023 J0. F80.
X1.5269 Y-8.1198 I0.0402 J0.0677
X1.5329 Y-8.1102 I-0.0635 J0.0466 F60.
G2 X1.5488 Y-8.1003 I0.0165 J-0.0088
G1 X1.5778
G2 X1.6335 Y-8.3298 I-0.0415 J-0.1316
G1 X1.6092 Y-8.3347
X1.5038
G2 X1.4879 Y-8.3248 I0.0007 J0.0187
X1.4847 Y-8.314 I0.0244 J0.013
X1.508 Y-8.2845 I0.0275 J0.0022 F80.
X1.6072 Y-8.315 I0.0185 J-0.1167
X1.6151 Y-8.3231 I-0.0808 J-0.0861 F60.
G3 X1.6328 Y-8.3291 I0.0141 J0.0124
G1 X1.6603 Y-8.3226 F80.
X1.6696 Y-8.317
X1.7051 Y-8.2805
G3 X1.5784 Y-8.1025 I-0.0971 J0.065
G1 X1.5756 F60.
X1.5728 Y-8.103
X1.5701 Y-8.104
X1.5675 Y-8.1055
X1.5652 Y-8.1073
X1.5633 Y-8.1096
X1.5617 Y-8.1122
X1.5606 Y-8.115
X1.5599 Y-8.118
X1.5598 Y-8.1212
X1.5602 Y-8.1244 Z-0.2697
X1.5605 Y-8.1275 Z-0.2689
X1.5609 Y-8.1305 Z-0.2675
X1.5612 Y-8.1331 Z-0.2656
X1.5614 Y-8.1354 Z-0.2633
X1.5616 Y-8.1373 Z-0.2606
X1.5618 Y-8.1387 Z-0.2577
X1.5619 Y-8.1395 Z-0.2545
Y-8.1398 Z-0.2513
G0 Z0.4
X-1.914 Y6.3666
Z0.1
G3 X-1.9138 Y6.1884 Z0.0507 I0.0001 J-0.0891 F13.333
X-1.914 Y6.3666 Z0.0013 I-0.0001 J0.0891
X-1.9138 Y6.1884 Z-0.048 I0.0001 J-0.0891
X-1.914 Y6.3666 Z-0.0973 I-0.0001 J0.0891
X-1.9138 Y6.1884 Z-0.1467 I0.0001 J-0.0891
X-1.914 Y6.3666 Z-0.196 I-0.0001 J0.0891
X-1.9138 Y6.1884 Z-0.2454 I0.0001 J-0.0891
X-1.8248 Y6.2775 Z-0.27 I-0.0001 J0.0891
X-2.003 I-0.0891 J0.
X-1.8248 I0.0891 J0.
X-1.8433 Y6.3947 I-0.055 J0.0514 F80.
G1 X-1.965
X-1.9905 Y6.3887
G3 X-2.0736 Y6.2431 I0.0403 J-0.1195
X-2.0488 Y6.2311 I0.0179 J0.0055 F60.
X-2.0393 Y6.2393 I-0.0069 J0.0175 F80.
G1 X-1.9705 Y6.361
G3 X-1.9682 Y6.3725 I-0.0163 J0.0092
X-1.9905 Y6.3887 I-0.0186 J-0.0022 F60.
X-1.965 Y6.1615 I0.0231 J-0.1124 F80.
G1 X-1.8551 Y6.1603
G3 X-1.7441 Y6.396 I-0.0381 J0.1619
G1 X-1.7581 Y6.3947
X-1.8433
G3 X-1.8592 Y6.3848 I0.0007 J-0.0187 F60.
X-1.8623 Y6.374 I0.0246 J-0.0131
X-1.8298 Y6.3443 I0.0277 J-0.0023 F80.
X-1.78 Y6.3752 I-0.0137 J0.0775
X-1.774 Y6.3848 I-0.0635 J0.0466 F60.
G2 X-1.7581 Y6.3947 I0.0165 J-0.0088
G1 X-1.7293
G2 X-1.7165 Y6.1593 I-0.0616 J-0.1214
G1 X-1.8551 Y6.1603
G2 X-1.8732 Y6.1797 I0.0007 J0.0187
X-1.8731 Y6.1812 I0.0164 J-0.0006
X-1.8633 Y6.1942 I0.0162 J-0.002 F80.
X-1.742 Y6.1773 I0.0468 J-0.1085
X-1.7302 Y6.1663 I-0.0746 J-0.0916 F60.
G3 X-1.7171 Y6.1603 I0.0137 J0.0128
G1 X-1.6841 F80.
G3 X-1.618 Y6.3984 I-0.0368 J0.1385
G1 X-1.7293 Y6.3947
G3 X-1.7452 Y6.3848 I0.0007 J-0.0187 F60.
X-1.7483 Y6.374 I0.0238 J-0.0127
X-1.7288 Y6.3461 I0.027 J-0.0019 F80.
X-1.6438 Y6.3752 I0.0215 J0.0757
X-1.6378 Y6.3848 I-0.0635 J0.0466 F60.
G2 X-1.6219 Y6.3947 I0.0165 J-0.0088
G1 X-1.5935
G2 X-1.5544 Y6.1579 I-0.0465 J-0.1293
G1 X-1.6841 Y6.1603
G2 X-1.7 Y6.1702 I0.0007 J0.0187
X-1.7015 Y6.1812 I0.014 J0.0075
X-1.6972 Y6.189 I0.0155 J-0.0035 F80.
X-1.5782 Y6.1798 I0.0556 J-0.0558
X-1.5722 Y6.1702 I-0.0635 J-0.0466 F60.
G3 X-1.5563 Y6.1603 I0.0165 J0.0088
G1 X-1.5227 F80.
G3 X-1.4725 Y6.3979 I-0.0455 J0.1337
G1 X-1.5935 Y6.3947
G3 X-1.6094 Y6.3848 I0.0007 J-0.0187 F60.
X-1.6121 Y6.3739 I0.0204 J-0.0109
X-1.6007 Y6.3539 I0.0232 J0. F80.
X-1.4973 Y6.3752 I0.0399 J0.0679
X-1.4913 Y6.3848 I-0.0635 J0.0466 F60.
G2 X-1.4754 Y6.3947 I0.0165 J-0.0088
G1 X-1.4466
G2 X-1.3999 Y6.1575 I-0.0429 J-0.1316
G1 X-1.5227 Y6.1603
G2 X-1.5386 Y6.1702 I0.0007 J0.0187
X-1.5412 Y6.1811 I0.0193 J0.0103
X-1.5315 Y6.1986 I0.0218 J-0.0006 F80.
X-1.4242 Y6.1798 I0.0438 J-0.0654
X-1.4182 Y6.1702 I-0.0635 J-0.0466 F60.
G3 X-1.4023 Y6.1603 I0.0165 J0.0088
G1 X-1.3693 F80.
G3 X-1.3228 Y6.3977 I-0.0472 J0.1325
G1 X-1.4466 Y6.3947
G3 X-1.4625 Y6.3848 I0.0007 J-0.0187 F60.
X-1.465 Y6.3739 I0.0188 J-0.01
X-1.4559 Y6.3572 I0.0213 J0.0008 F80.
X-1.3474 Y6.3752 I0.045 J0.0646
X-1.3414 Y6.3848 I-0.0635 J0.0466 F60.
G2 X-1.3255 Y6.3947 I0.0165 J-0.0088
G1 X-1.2935
G2 X-1.2477 Y6.1574 I-0.0466 J-0.132
G1 X-1.3693 Y6.1603
G2 X-1.3852 Y6.1702 I0.0007 J0.0187
X-1.3878 Y6.1811 I0.02 J0.0106
X-1.3771 Y6.2001 I0.0226 J-0.0002 F80.
X-1.2721 Y6.1798 I0.0415 J-0.0669
X-1.2661 Y6.1702 I-0.0635 J-0.0466 F60.
G3 X-1.2502 Y6.1603 I0.0165 J0.0088
G1 X-1.2169 F80.
G3 X-1.1716 Y6.3977 I-0.0484 J0.1323
G1 X-1.2935 Y6.3947
G3 X-1.3093 Y6.3848 I0.0007 J-0.0187 F60.
X-1.312 Y6.3739 I0.0199 J-0.0106
X-1.3014 Y6.355 I0.0226 J0.0002 F80.
X-1.1963 Y6.3752 I0.0416 J0.0668
X-1.1902 Y6.3848 I-0.0635 J0.0466 F60.
G2 X-1.1743 Y6.3947 I0.0165 J-0.0088
G1 X-1.1438
G2 X-1.0959 Y6.1572 I-0.0446 J-0.1326
G1 X-1.2169 Y6.1603
G2 X-1.2328 Y6.1702 I0.0007 J0.0187
X-1.2355 Y6.1811 I0.0203 J0.0108
X-1.2242 Y6.2009 I0.0231 J0. F80.
X-1.1205 Y6.1798 I0.0402 J-0.0677
X-1.1145 Y6.1702 I-0.0635 J-0.0466 F60.
G3 X-1.0986 Y6.1603 I0.0165 J0.0088
G1 X-1.0672 F80.
G3 X-1.0205 Y6.3975 I-0.0459 J0.1322
G1 X-1.1438 Y6.3947
G3 X-1.1596 Y6.3848 I0.0007 J-0.0187 F60.
X-1.1622 Y6.3739 I0.019 J-0.0101
X-1.1528 Y6.3568 I0.0216 J0.0007 F80.
X-1.0449 Y6.3752 I0.0445 J0.065
X-1.0388 Y6.3848 I-0.0635 J0.0466 F60.
G2 X-1.0229 Y6.3947 I0.0165 J-0.0088
G1 X-0.9906
G2 X-0.9449 Y6.1574 I-0.0473 J-0.1322
G1 X-1.0672 Y6.1603
G2 X-1.0831 Y6.1702 I0.0007 J0.0187
X-1.0857 Y6.1811 I0.0197 J0.0105
X-1.0754 Y6.1995 I0.0223 J-0.0004 F80.
X-0.9694 Y6.1798 I0.0425 J-0.0663
X-0.9634 Y6.1702 I-0.0635 J-0.0466 F60.
G3 X-0.9475 Y6.1603 I0.0165 J0.0088
G1 X-0.9182 F80.
G3 X-0.8692 Y6.3977 I-0.0423 J0.1325
G1 X-0.9906 Y6.3947
G3 X-1.0065 Y6.3848 I0.0007 J-0.0187 F60.
X-1.0091 Y6.3739 I0.0201 J-0.0107
X-0.9982 Y6.3546 I0.0228 J0.0001 F80.
X-0.8937 Y6.3752 I0.041 J0.0672
X-0.8877 Y6.3848 I-0.0635 J0.0466 F60.
G2 X-0.8718 Y6.3947 I0.0165 J-0.0088
G1 X-0.8416
G2 X-0.7936 Y6.1573 I-0.0439 J-0.1325
G1 X-0.9182 Y6.1603
G2 X-0.9341 Y6.1702 I0.0007 J0.0187
X-0.9365 Y6.1811 I0.0183 J0.0098
X-0.928 Y6.1968 I0.0208 J-0.0011 F80.
X-0.8181 Y6.1798 I0.0464 J-0.0636
X-0.8121 Y6.1702 I-0.0635 J-0.0466 F60.
G3 X-0.7962 Y6.1603 I0.0165 J0.0088
G1 X-0.7651 F80.
G3 X-0.7177 Y6.3979 I-0.0456 J0.1326
G1 X-0.8416 Y6.3947
G3 X-0.8575 Y6.3848 I0.0007 J-0.0187 F60.
X-0.86 Y6.3739 I0.0188 J-0.01
X-0.8509 Y6.3572 I0.0213 J0.0009 F80.
X-0.7424 Y6.3752 I0.045 J0.0646
X-0.7364 Y6.3848 I-0.0635 J0.0466 F60.
G2 X-0.7205 Y6.3947 I0.0165 J-0.0088
G1 X-0.6885
G2 X-0.6425 Y6.1574 I-0.0467 J-0.1321
G1 X-0.7651 Y6.1603
G2 X-0.7809 Y6.1702 I0.0007 J0.0187
X-0.7835 Y6.1811 I0.0195 J0.0104
X-0.7736 Y6.1991 I0.0221 J-0.0005 F80.
X-0.667 Y6.1798 I0.0431 J-0.0659
X-0.661 Y6.1702 I-0.0635 J-0.0466 F60.
G3 X-0.6451 Y6.1603 I0.0165 J0.0088
G1 X-0.6119 F80.
G3 X-0.5667 Y6.3977 I-0.0482 J0.1322
G1 X-0.6885 Y6.3947
G3 X-0.7044 Y6.3848 I0.0007 J-0.0187 F60.
X-0.707 Y6.3739 I0.0199 J-0.0106
X-0.6964 Y6.355 I0.0226 J0.0002 F80.
X-0.5913 Y6.3752 I0.0417 J0.0668
X-0.5852 Y6.3848 I-0.0635 J0.0466 F60.
G2 X-0.5693 Y6.3947 I0.0165 J-0.0088
G1 X-0.5386
G2 X-0.4907 Y6.1572 I-0.0448 J-0.1326
G1 X-0.6119 Y6.1603
G2 X-0.6278 Y6.1702 I0.0007 J0.0187
X-0.6305 Y6.1811 I0.0203 J0.0108
X-0.6193 Y6.2008 I0.023 J-0.0001 F80.
X-0.5154 Y6.1798 I0.0404 J-0.0676
X-0.5094 Y6.1702 I-0.0635 J-0.0466 F60.
G3 X-0.4935 Y6.1603 I0.0165 J0.0088
G1 X-0.4646 F80.
G3 X-0.4155 Y6.3976 I-0.042 J0.1324
G1 X-0.5386 Y6.3947
G3 X-0.5545 Y6.3848 I0.0007 J-0.0187 F60.
X-0.557 Y6.3739 I0.0192 J-0.0102
X-0.5474 Y6.3565 I0.0217 J0.0007 F80.
X-0.44 Y6.3752 I0.044 J0.0653
X-0.434 Y6.3848 I-0.0635 J0.0466 F60.
G2 X-0.4181 Y6.3947 I0.0165 J-0.0088
G1 X-0.3856
G2 X-0.34 Y6.1574 I-0.0472 J-0.1321
G1 X-0.4646 Y6.1603
G2 X-0.4805 Y6.1702 I0.0007 J0.0187
X-0.4829 Y6.1811 I0.0183 J0.0098
X-0.4744 Y6.1968 I0.0208 J-0.0011 F80.
X-0.3645 Y6.1798 I0.0464 J-0.0636
X-0.3585 Y6.1702 I-0.0635 J-0.0466 F60.
G3 X-0.3426 Y6.1603 I0.0165 J0.0088
G1 X-0.3114 F80.
G3 X-0.2638 Y6.3979 I-0.0454 J0.1327
G1 X-0.3856 Y6.3947
G3 X-0.4015 Y6.3848 I0.0007 J-0.0187 F60.
X-0.4041 Y6.3739 I0.02 J-0.0107
X-0.3934 Y6.3549 I0.0226 J0.0002 F80.
X-0.2885 Y6.3752 I0.0415 J0.0669
X-0.2825 Y6.3848 I-0.0635 J0.0466 F60.
G2 X-0.2666 Y6.3947 I0.0165 J-0.0088
G1 X-0.237
G2 X-0.1886 Y6.1573 I-0.0432 J-0.1324
G1 X-0.3114 Y6.1603
G2 X-0.3273 Y6.1702 I0.0007 J0.0187
X-0.3299 Y6.1811 I0.0194 J0.0103
X-0.32 Y6.1989 I0.022 J-0.0006 F80.
X-0.2131 Y6.1798 I0.0434 J-0.0657
X-0.2071 Y6.1702 I-0.0635 J-0.0466 F60.
G3 X-0.1912 Y6.1603 I0.0165 J0.0088
G1 X-0.1582 F80.
G3 X-0.1131 Y6.3977 I-0.0479 J0.1321
G1 X-0.237 Y6.3947
G3 X-0.2529 Y6.3848 I0.0007 J-0.0187 F60.
X-0.2554 Y6.3739 I0.0188 J-0.01
X-0.2464 Y6.3573 I0.0213 J0.0009 F80.
X-0.1377 Y6.3752 I0.0452 J0.0645
X-0.1316 Y6.3848 I-0.0635 J0.0466 F60.
G2 X-0.1158 Y6.3947 I0.0165 J-0.0088
G1 X-0.0843
G2 X-0.0371 Y6.1575 I-0.0454 J-0.1323
G1 X-0.1582 Y6.1603
G2 X-0.1741 Y6.1702 I0.0007 J0.0187
X-0.1768 Y6.1811 I0.0202 J0.0107
X-0.1658 Y6.2005 I0.0228 J-0.0001 F80.
X-0.0615 Y6.1798 I0.0409 J-0.0673
X-0.0555 Y6.1702 I-0.0635 J-0.0466 F60.
G3 X-0.0396 Y6.1603 I0.0165 J0.0088
G1 X-0.0107 F80.
G3 X0.0382 Y6.3976 I-0.0423 J0.1324
G1 X-0.0843 Y6.3947
G3 X-0.1002 Y6.3848 I0.0007 J-0.0187 F60.
X-0.1028 Y6.3739 I0.0195 J-0.0104
X-0.0928 Y6.3559 I0.0221 J0.0005 F80.
X0.0137 Y6.3752 I0.0431 J0.0659
X0.0198 Y6.3848 I-0.0635 J0.0466 F60.
G2 X0.0356 Y6.3947 I0.0165 J-0.0088
G1 X0.0685
G2 X0.1138 Y6.1573 I-0.0476 J-0.1321
G1 X-0.0107 Y6.1603
G2 X-0.0265 Y6.1702 I0.0007 J0.0187
X-0.029 Y6.1811 I0.0185 J0.0098
X-0.0203 Y6.197 I0.0209 J-0.0011 F80.
X0.0892 Y6.1798 I0.0461 J-0.0638
X0.0952 Y6.1702 I-0.0635 J-0.0466 F60.
G3 X0.1111 Y6.1603 I0.0165 J0.0088
G1 X0.1425 F80.
G3 X0.1897 Y6.3975 I-0.0454 J0.1323
G1 X0.0685 Y6.3947
G3 X0.0526 Y6.3848 I0.0007 J-0.0187 F60.
X0.0499 Y6.3739 I0.0201 J-0.0107
X0.0608 Y6.3547 I0.0228 J0.0002 F80.
X0.1654 Y6.3752 I0.0411 J0.0671
X0.1714 Y6.3848 I-0.0635 J0.0466 F60.
G2 X0.1873 Y6.3947 I0.0165 J-0.0088
G1 X0.2162
G2 X0.2651 Y6.1574 I-0.0422 J-0.1324
G1 X0.1425 Y6.1603
G2 X0.1266 Y6.1702 I0.0007 J0.0187
X0.124 Y6.1811 I0.0195 J0.0104
X0.134 Y6.1991 I0.0221 J-0.0005 F80.
X0.2406 Y6.1798 I0.0431 J-0.0659
X0.2466 Y6.1702 I-0.0635 J-0.0466 F60.
G3 X0.2625 Y6.1603 I0.0165 J0.0088
G1 X0.2957 F80.
G3 X0.3407 Y6.3977 I-0.0482 J0.1321
G1 X0.2162 Y6.3947
G3 X0.2003 Y6.3848 I0.0007 J-0.0187 F60.
X0.1979 Y6.3739 I0.0184 J-0.0098
X0.2065 Y6.358 I0.0209 J0.0011 F80.
X0.3161 Y6.3752 I0.0461 J0.0638
X0.3221 Y6.3848 I-0.0635 J0.0466 F60.
G2 X0.338 Y6.3947 I0.0165 J-0.0088
G1 X0.3682
G2 X0.4166 Y6.1573 I-0.0436 J-0.1325
G1 X0.2957 Y6.1603
G2 X0.2798 Y6.1702 I0.0007 J0.0187
X0.2771 Y6.1811 I0.0204 J0.0109
X0.2884 Y6.2009 I0.0231 J0. F80.
X0.392 Y6.1798 I0.0401 J-0.0677
X0.398 Y6.1702 I-0.0635 J-0.0466 F60.
G3 X0.4139 Y6.1603 I0.0165 J0.0088
G1 X0.4462 F80.
G3 X0.4919 Y6.3976 I-0.0469 J0.1321
G1 X0.3682 Y6.3947
G3 X0.3523 Y6.3848 I0.0007 J-0.0187 F60.
X0.3498 Y6.3739 I0.0189 J-0.0101
X0.359 Y6.3572 I0.0214 J0.0008 F80.
X0.4674 Y6.3752 I0.045 J0.0646
X0.4734 Y6.3848 I-0.0635 J0.0466 F60.
G2 X0.4893 Y6.3947 I0.0165 J-0.0088
G1 X0.5208
G2 X0.5679 Y6.1575 I-0.0455 J-0.1323
G1 X0.4462 Y6.1603
G2 X0.4303 Y6.1702 I0.0007 J0.0187
X0.4276 Y6.1811 I0.0199 J0.0106
X0.4382 Y6.1999 I0.0225 J-0.0003 F80.
X0.5435 Y6.1798 I0.0418 J-0.0667
X0.5495 Y6.1702 I-0.0635 J-0.0466 F60.
G3 X0.5654 Y6.1603 I0.0165 J0.0088
G1 X0.5957 F80.
G3 X0.6435 Y6.3978 I-0.0446 J0.1325
G1 X0.5208 Y6.3947
G3 X0.5049 Y6.3848 I0.0007 J-0.0187 F60.
X0.5023 Y6.3739 I0.0195 J-0.0104
X0.5123 Y6.3559 I0.0221 J0.0005 F80.
X0.6188 Y6.3752 I0.0431 J0.0659
X0.6248 Y6.3848 I-0.0635 J0.0466 F60.
G2 X0.6407 Y6.3947 I0.0165 J-0.0088
G1 X0.6733
G2 X0.7189 Y6.1574 I-0.0474 J-0.1321
G1 X0.5957 Y6.1603
G2 X0.5798 Y6.1702 I0.0007 J0.0187
X0.5773 Y6.1811 I0.0192 J0.0102
X0.5869 Y6.1985 I0.0217 J-0.0007 F80.
X0.6943 Y6.1798 I0.044 J-0.0653
X0.7004 Y6.1702 I-0.0635 J-0.0466 F60.
G3 X0.7162 Y6.1603 I0.0165 J0.0088
G1 X0.7489 F80.
G3 X0.7947 Y6.3977 I-0.0473 J0.1322
G1 X0.6733 Y6.3947
G3 X0.6575 Y6.3848 I0.0007 J-0.0187 F60.
X0.6548 Y6.3739 I0.0201 J-0.0107
X0.6657 Y6.3546 I0.0228 J0.0001 F80.
X0.7702 Y6.3752 I0.041 J0.0672
X0.7762 Y6.3848 I-0.0635 J0.0466 F60.
G2 X0.7921 Y6.3947 I0.0165 J-0.0088
G1 X0.8255
G2 X0.8704 Y6.1572 I-0.0487 J-0.1322
G1 X0.7489 Y6.1603
G2 X0.733 Y6.1702 I0.0007 J0.0187
X0.7304 Y6.1811 I0.0201 J0.0107
X0.7412 Y6.2004 I0.0228 J-0.0002 F80.
X0.8458 Y6.1798 I0.0411 J-0.0672
X0.8518 Y6.1702 I-0.0635 J-0.0466 F60.
G3 X0.8677 Y6.1603 I0.0165 J0.0088
G1 X0.8986 F80.
G3 X0.9465 Y6.3978 I-0.0451 J0.1327
G1 X0.8255 Y6.3947
G3 X0.8096 Y6.3848 I0.0007 J-0.0187 F60.
X0.8069 Y6.3739 I0.0204 J-0.0109
X0.8183 Y6.354 I0.0231 J0. F80.
X0.9218 Y6.3752 I0.04 J0.0678
X0.9278 Y6.3848 I-0.0635 J0.0466 F60.
G2 X0.9437 Y6.3947 I0.0165 J-0.0088
G1 X0.9752
G2 X1.0215 Y6.1575 I-0.0461 J-0.1321
G1 X0.8986 Y6.1603
G2 X0.8827 Y6.1702 I0.0007 J0.0187
X0.8802 Y6.1811 I0.0193 J0.0103
X0.8899 Y6.1987 I0.0218 J-0.0006 F80.
X0.9971 Y6.1798 I0.0437 J-0.0655
X1.0031 Y6.1702 I-0.0635 J-0.0466 F60.
G3 X1.019 Y6.1603 I0.0165 J0.0088
G1 X1.0518 F80.
G3 X1.0973 Y6.3977 I-0.0477 J0.1322
G1 X0.9752 Y6.3947
G3 X0.9593 Y6.3848 I0.0007 J-0.0187 F60.
X0.9567 Y6.3739 I0.0198 J-0.0105
X0.9671 Y6.3553 I0.0224 J0.0003 F80.
X1.0728 Y6.3752 I0.0422 J0.0665
X1.0788 Y6.3848 I-0.0635 J0.0466 F60.
G2 X1.0947 Y6.3947 I0.0165 J-0.0088
G1 X1.1241
G2 X1.173 Y6.1573 I-0.0426 J-0.1325
G1 X1.0518 Y6.1603
G2 X1.0359 Y6.1702 I0.0007 J0.0187
X1.0332 Y6.1811 I0.0202 J0.0108
X1.0443 Y6.2006 I0.0229 J-0.0001 F80.
X1.1484 Y6.1798 I0.0407 J-0.0674
X1.1545 Y6.1702 I-0.0635 J-0.0466 F60.
G3 X1.1704 Y6.1603 I0.0165 J0.0088
G1 X1.2007 F80.
G3 X1.2486 Y6.3978 I-0.0442 J0.1325
G1 X1.1241 Y6.3947
G3 X1.1082 Y6.3848 I0.0007 J-0.0187 F60.
X1.1058 Y6.3739 I0.0184 J-0.0098
X1.1144 Y6.358 I0.0209 J0.0011 F80.
X1.2241 Y6.3752 I0.0461 J0.0638
X1.2301 Y6.3848 I-0.0635 J0.0466 F60.
G2 X1.246 Y6.3947 I0.0165 J-0.0088
G1 X1.2773
G2 X1.3245 Y6.1571 I-0.046 J-0.1326
G1 X1.2007 Y6.1603
G2 X1.1848 Y6.1702 I0.0007 J0.0187
X1.1823 Y6.1811 I0.0189 J0.0101
X1.1916 Y6.198 I0.0215 J-0.0008 F80.
X1.2998 Y6.1798 I0.0447 J-0.0648
X1.3058 Y6.1702 I-0.0635 J-0.0466 F60.
G3 X1.3217 Y6.1603 I0.0165 J0.0088
G1 X1.3539 F80.
G3 X1.3997 Y6.3976 I-0.047 J0.1321
G1 X1.2773 Y6.3947
G3 X1.2614 Y6.3848 I0.0007 J-0.0187 F60.
X1.2588 Y6.3739 I0.0196 J-0.0104
X1.2689 Y6.3557 I0.0222 J0.0004 F80.
X1.3752 Y6.3752 I0.0428 J0.0661
X1.3812 Y6.3848 I-0.0635 J0.0466 F60.
G2 X1.3971 Y6.3947 I0.0165 J-0.0088
G1 X1.4305
G2 X1.4756 Y6.1573 I-0.0485 J-0.1322
G1 X1.3539 Y6.1603
G2 X1.338 Y6.1702 I0.0007 J0.0187
X1.3354 Y6.1811 I0.02 J0.0107
X1.3461 Y6.2002 I0.0227 J-0.0002 F80.
X1.4509 Y6.1798 I0.0414 J-0.067
X1.457 Y6.1702 I-0.0635 J-0.0466 F60.
G3 X1.4729 Y6.1603 I0.0165 J0.0088
G1 X1.5038 F80.
G3 X1.5516 Y6.3978 I-0.0451 J0.1327
G1 X1.4305 Y6.3947
G3 X1.4146 Y6.3848 I0.0007 J-0.0187 F60.
X1.4119 Y6.3739 I0.0203 J-0.0108
X1.4232 Y6.3541 I0.023 J0. F80.
X1.5269 Y6.3752 I0.0402 J0.0677
X1.5329 Y6.3848 I-0.0635 J0.0466 F60.
G2 X1.5488 Y6.3947 I0.0165 J-0.0088
G1 X1.5778
G2 X1.6339 Y6.1655 I-0.0414 J-0.1316
G1 X1.6092 Y6.1603
X1.5038
G2 X1.4879 Y6.1702 I0.0007 J0.0187
X1.4848 Y6.181 I0.0238 J0.0127
X1.507 Y6.2095 I0.0269 J0.0019 F80.
X1.6075 Y6.1801 I0.0204 J-0.1163
X1.6154 Y6.1721 I-0.08 J-0.0869 F60.
G3 X1.6332 Y6.1662 I0.014 J0.0125
G1 X1.6603 Y6.1729 F80.
X1.7037 Y6.2134
G3 X1.5784 Y6.3923 I-0.0955 J0.0664
X1.4271 Y6.484 I-0.1292 J-0.0425
X0.9891 Y6.4947 I-0.3205 J-4.1815
G1 X0.3819
X-0.3601
X-1.8778
G3 X-2.1563 Y6.2244 I-0.0557 J-0.2213
X-1.8482 Y6.0709 I0.2408 J0.0973
X-1.475 Y6.0603 I0.2595 J2.5668
G1 X-0.2271
X1.5267
G3 X1.7395 Y6.1244 I0.0301 J0.2855
X1.665 Y6.4721 I-0.1373 J0.1524
X1.1518 Y6.5939 I-0.4146 J-0.6042
X0.9157 Y6.5946 I-0.2005 J-27.3296
G1 X0.5784 Y6.5947
X0.14
X-1.8162
X-1.85
X-1.8641 Y6.597
X-1.8783 Y6.5988
X-1.8926 Y6.5999
X-1.9069 Y6.6005
X-1.9212 Y6.6004
X-1.9355 Y6.5998
X-1.9498 Y6.5985
X-1.964 Y6.5966
X-1.9781 Y6.5941
X-1.9921 Y6.5911
X-2.006 Y6.5874
X-2.0196 Y6.5832
X-2.0331 Y6.5784
X-2.0464 Y6.573
X-2.0594 Y6.567
X-2.0722 Y6.5606
X-2.0847 Y6.5535
X-2.0969 Y6.546
X-2.1087 Y6.5379
X-2.1202 Y6.5294
X-2.1313 Y6.5204
X-2.1421 Y6.5109
X-2.1524 Y6.501
X-2.1623 Y6.4906
X-2.1717 Y6.4798
X-2.1807 Y6.4687
X-2.1892 Y6.4571
X-2.1972 Y6.4453
X-2.2047 Y6.433
X-2.2116 Y6.4205
X-2.2181 Y6.4077
X-2.2239 Y6.3947
X-2.2293 Y6.3814
X-2.234 Y6.3679
X-2.2382 Y6.3542
X-2.2418 Y6.3403
X-2.2448 Y6.3263
X-2.2472 Y6.3122
X-2.249 Y6.298
X-2.2502 Y6.2837
X-2.2508 Y6.2694
Y6.2551
X-2.2502 Y6.2408
X-2.249 Y6.2265
X-2.2472 Y6.2123
X-2.2448 Y6.1982
X-2.2417 Y6.1842
X-2.2381 Y6.1704
X-2.234 Y6.1567
X-2.2292 Y6.1432
G3 X-1.7561 Y5.971 I0.3753 J0.2952
X-1.3832 Y5.9603 I0.2587 J2.5207
G1 X-1.0122
X0.9777
X1.4499
G3 X1.8846 Y6.1881 I0.0783 J0.3793
X1.6553 Y6.5901 I-0.3275 J0.0796
X1.2007 Y6.6924 I-0.3938 J-0.6885
X0.8634 Y6.6946 I-0.2778 J-16.8841
G1 X0.6273 Y6.6947
X-0.7893
X-1.7674
G3 X-2.2963 Y6.4697 I-0.0892 J-0.5246
X-2.2913 Y6.0834 I0.3343 J-0.1889
X-1.7894 Y5.8645 I0.4461 J0.3381
X-1.3847 Y5.8604 I0.3218 J11.5963
G1 X-1.1149 Y5.8603
X-0.3729
X1.4147
G3 X1.6166 Y5.8715 I0.0286 J1.3166
X1.7388 Y6.6531 I-0.0372 J0.4062
X1.1585 Y6.7925 I-0.5018 J-0.8115
X0.8549 Y6.7946 I-0.2705 J-17.5289
G1 X0.6863 Y6.7947
X-1.135
X-1.7084
G3 X-2.3259 Y6.5919 I-0.1087 J-0.7103
X-2.2794 Y5.9229 I0.3664 J-0.3106
X-1.6403 Y5.7618 I0.5354 J0.7753
X-1.3367 Y5.7604 I0.257 J22.6811
G1 X-1.1006 Y5.7603
X-0.3249
X1.3615
G3 X1.6635 Y5.783 I0.0557 J1.2813
X1.7847 Y6.7369 I-0.0844 J0.4954
X1.5156 Y6.8562 I-0.3889 J-0.5141
G1 X-2.0044
G3 X-2.0325 Y5.7039 I0.0499 J-0.5777
G1 X-2.0299 Y5.6987
X1.6486
G3 X1.9082 Y6.769 I-0.0497 J0.5787
X1.817 Y6.8402 I-0.1616 J-0.1131
X1.5156 Y6.8562 I-0.2128 J-1.1549
X1.4976 Y6.8354 I0.0007 J-0.0187 F60.
X1.5035 Y6.8238 I0.0186 J0.0021 F80.
X1.5661 Y6.7915 I0.0886 J0.0951
X1.7892 Y6.8288 I0.063 J0.3086
G1 X1.8029 Y6.8374 F60.
G2 X1.817 Y6.8402 I0.0103 J-0.0156
G1 X1.8345 Y6.8354
X1.8519 Y6.8301
X1.8691 Y6.8241
X1.886 Y6.8176
X1.9027 Y6.8105
X1.9192 Y6.8028
X1.9354 Y6.7946
X1.9513 Y6.7858
X1.9669 Y6.7765
X1.9822 Y6.7667
X1.9971 Y6.7563
X2.0116 Y6.7454
X2.0258 Y6.7341
X2.0396 Y6.7222
X2.053 Y6.7099
X2.0659 Y6.6972
X2.0784 Y6.684
X2.0904 Y6.6704
X2.102 Y6.6564
X2.1131 Y6.642
X2.1237 Y6.6272
X2.1337 Y6.6121
X2.1433 Y6.5966
X2.1523 Y6.5809
X2.1608 Y6.5648
X2.1687 Y6.5484
X2.176 Y6.5318
X2.1828 Y6.515
X2.189 Y6.4979
X2.1946 Y6.4806
X2.1996 Y6.4631
X2.204 Y6.4455
X2.2078 Y6.4278
X2.211 Y6.4099
X2.2136 Y6.3919
X2.2155 Y6.3738
X2.2169 Y6.3557
X2.2176 Y6.3376
X2.2177 Y6.3194
X2.2172 Y6.3012
X2.2161 Y6.2831
X2.2143 Y6.265
X2.2119 Y6.247
X2.2089 Y6.2291
X2.2053 Y6.2113
G2 X1.6491 Y5.7026 I-0.5018 J-0.0098
G1 X1.6465 Y5.7024
X1.6439 Y5.7027
X1.6412 Y5.7034
X1.6387 Y5.7046
X1.6364 Y5.7063
X1.6344 Y5.7084
X1.6327 Y5.7109
X1.6314 Y5.7136
X1.6306 Y5.7167
X1.6304 Y5.7199 Z-0.2697
X1.6303 Y5.7231 Z-0.2689
X1.6302 Y5.726 Z-0.2675
X1.63 Y5.7287 Z-0.2656
X1.6299 Y5.731 Z-0.2633
Y5.7329 Z-0.2606
X1.6298 Y5.7343 Z-0.2577
Y5.7351 Z-0.2545
X1.6297 Y5.7354 Z-0.2513
G0 Z-0.2325
X-1.9586 Y6.838
G1 Z-0.2513 F60.
X-1.9588 Y6.8381 Z-0.2545
X-1.9596 Y6.8385 Z-0.2577
X-1.9608 Y6.8392 Z-0.2606
