%
(971-23-P-0078_BUTTERFLY FISH GEARBOX PLATEV2_1490)
(T1  D=0.149 CR=0. - ZMIN=-0.2175 - FLAT END MILL)
G90 G94 G17 G91.1
G64 P0.001 Q0.001
G20
G53 G0 Z0.
(.3 CIRCLUAR THROUGH HOLE 2)
M9
T1 M6
S22000 M3
G4 P10.
G54
M7
G0 X74.9691 Y7.187
G43 Z0.6 H1
G0 Z0.13
G1 Z0.0649 F40.
G18 G2 X74.984 Z0.05 I0.0149 K0.
G1 X74.9914
G17 G3 X75.0044 Y7.2 I0. J0.013
X74.9524 Z0.0323 I-0.026 J0.
X74.9683 Y7.1761 Z0.0257 I0.026 J0.
X74.9886 Y7.2239 Z0.008 I0.0102 J0.0239
X74.9604 Y7.2187 Z0.0014 I-0.0102 J-0.0239
X74.9965 Y7.1813 Z-0.0164 I0.0181 J-0.0187
X74.9604 Y7.2187 Z-0.0341 I-0.0181 J0.0187
X74.9965 Y7.1813 Z-0.0518 I0.0181 J-0.0187
X74.9604 Y7.2187 Z-0.0695 I-0.0181 J0.0187
X74.9549 Y7.211 Z-0.0716 I0.0181 J-0.0187
X75.002 Y7.189 Z-0.0893 I0.0236 J-0.011
X74.9977 Y7.2174 Z-0.0959 I-0.0236 J0.011
X74.9591 Y7.1826 Z-0.1136 I-0.0193 J-0.0174
X74.9977 Y7.2174 Z-0.1314 I0.0193 J0.0174
X74.9525 Y7.2018 Z-0.1445 I-0.0193 J-0.0174
X75.0044 Y7.1982 Z-0.1623 I0.0259 J-0.0018
X74.9525 Y7.2018 Z-0.18 I-0.0259 J0.0018
X74.9952 Y7.1801 Z-0.1932 I0.0259 J-0.0018
X74.9617 Y7.2199 Z-0.2109 I-0.0168 J0.0199
X74.9536 Y7.1923 Z-0.2175 I0.0168 J-0.0199
X75.0033 Y7.2077 I0.0248 J0.0077
X74.9536 Y7.1923 I-0.0248 J-0.0077
X74.9698 Y7.1837 I0.0124 J0.0038
G1 X74.977 Y7.1859
X74.9797 Y7.1868 Z-0.2172
X74.9824 Y7.1876 Z-0.2164
X74.9849 Y7.1884 Z-0.215
X74.987 Y7.189 Z-0.2131
X74.9888 Y7.1896 Z-0.2109
X74.9901 Y7.19 Z-0.2083
X74.9909 Y7.1902 Z-0.2055
X74.9912 Y7.1903 Z-0.2026
G0 Z0.4
X74.6969 Y11.013
Z0.13
G1 Z0.0649 F40.
G18 G3 X74.6819 Z0.05 I-0.0149 K0.
G1 X74.6745
G17 G3 X74.6615 Y11. I0. J-0.013
X74.7135 Z0.0323 I0.026 J0.
X74.6977 Y11.0239 Z0.0257 I-0.026 J0.
X74.6773 Y10.9761 Z0.008 I-0.0102 J-0.0239
X74.6977 Y11.0239 Z-0.0098 I0.0102 J0.0239
X74.6773 Y10.9761 Z-0.0275 I-0.0102 J-0.0239
X74.6977 Y11.0239 Z-0.0452 I0.0102 J0.0239
X74.6773 Y10.9761 Z-0.0629 I-0.0102 J-0.0239
X74.7111 Y10.989 Z-0.0716 I0.0102 J0.0239
X74.6639 Y11.011 Z-0.0893 I-0.0236 J0.011
X74.6682 Y10.9826 Z-0.0959 I0.0236 J-0.011
X74.7068 Y11.0174 Z-0.1136 I0.0193 J0.0174
X74.6682 Y10.9826 Z-0.1314 I-0.0193 J-0.0174
X74.7134 Y10.9982 Z-0.1445 I0.0193 J0.0174
X74.6616 Y11.0018 Z-0.1623 I-0.0259 J0.0018
X74.7134 Y10.9982 Z-0.18 I0.0259 J-0.0018
X74.6707 Y11.0199 Z-0.1932 I-0.0259 J0.0018
X74.7043 Y10.9801 Z-0.2109 I0.0168 J-0.0199
X74.7123 Y11.0077 Z-0.2175 I-0.0168 J0.0199
X74.6627 Y10.9923 I-0.0248 J-0.0077
X74.7123 Y11.0077 I0.0248 J0.0077
X74.6961 Y11.0163 I-0.0124 J-0.0038
G1 X74.689 Y11.0141
X74.6862 Y11.0132 Z-0.2172
X74.6835 Y11.0124 Z-0.2164
X74.6811 Y11.0116 Z-0.215
X74.6789 Y11.011 Z-0.2131
X74.6771 Y11.0104 Z-0.2109
X74.6758 Y11.01 Z-0.2083
X74.675 Y11.0098 Z-0.2055
X74.6747 Y11.0097 Z-0.2026
G0 Z0.4
X74.8012 Y11.987
Z0.13
G1 Z0.0649 F40.
G18 G2 X74.8161 Z0.05 I0.0149 K0.
G1 X74.8235
G17 G3 X74.8365 Y12. I0. J0.013
X74.7845 Z0.0323 I-0.026 J0.
X74.8004 Y11.9761 Z0.0257 I0.026 J0.
X74.8207 Y12.0239 Z0.008 I0.0102 J0.0239
X74.8004 Y11.9761 Z-0.0098 I-0.0102 J-0.0239
X74.8348 Y12.0093 Z-0.023 I0.0102 J0.0239
X74.7863 Y11.9907 Z-0.0407 I-0.0243 J-0.0093
X74.8096 Y11.974 Z-0.0473 I0.0243 J0.0093
X74.8114 Y12.026 Z-0.065 I0.0009 J0.026
X74.8096 Y11.974 Z-0.0827 I-0.0009 J-0.026
X74.8298 Y12.0174 Z-0.0959 I0.0009 J0.026
X74.7912 Y11.9826 Z-0.1136 I-0.0193 J-0.0174
X74.819 Y11.9754 Z-0.1202 I0.0193 J0.0174
X74.802 Y12.0246 Z-0.1379 I-0.0085 J0.0246
X74.7846 Y12.0018 Z-0.1445 I0.0085 J-0.0246
X74.8365 Y11.9982 Z-0.1623 I0.0259 J-0.0018
X74.8223 Y12.0232 Z-0.1689 I-0.0259 J0.0018
X74.7988 Y11.9768 Z-0.1866 I-0.0118 J-0.0232
X74.8273 Y11.9801 Z-0.1932 I0.0118 J0.0232
X74.7938 Y12.0199 Z-0.2109 I-0.0168 J0.0199
X74.7857 Y11.9923 Z-0.2175 I0.0168 J-0.0199
X74.8354 Y12.0077 I0.0248 J0.0077
X74.7857 Y11.9923 I-0.0248 J-0.0077
X74.8019 Y11.9837 I0.0124 J0.0038
G1 X74.8091 Y11.9859
X74.8118 Y11.9868 Z-0.2172
X74.8145 Y11.9876 Z-0.2164
X74.817 Y11.9884 Z-0.215
X74.8191 Y11.989 Z-0.2131
X74.8209 Y11.9896 Z-0.2109
X74.8222 Y11.99 Z-0.2083
X74.823 Y11.9902 Z-0.2055
X74.8233 Y11.9903 Z-0.2026
G0 Z0.4
X73.8385 Y14.6575
Z0.13
G1 Z0.0649 F40.
G18 G2 X73.8534 Z0.05 I0.0149 K0.
G1 X73.8608
G17 G3 X73.8738 Y14.6705 I0. J0.013
X73.8218 Z0.0323 I-0.026 J0.
X73.8377 Y14.6466 Z0.0257 I0.026 J0.
X73.858 Y14.6944 Z0.008 I0.0102 J0.0239
X73.8297 Y14.6892 Z0.0014 I-0.0102 J-0.0239
X73.8659 Y14.6518 Z-0.0164 I0.0181 J-0.0187
X73.8298 Y14.6892 Z-0.0341 I-0.0181 J0.0187
X73.8659 Y14.6518 Z-0.0518 I0.0181 J-0.0187
X73.8298 Y14.6892 Z-0.0695 I-0.0181 J0.0187
X73.8659 Y14.6518 Z-0.0872 I0.0181 J-0.0187
X73.8671 Y14.6879 Z-0.0959 I-0.0181 J0.0187
X73.8285 Y14.6531 Z-0.1136 I-0.0193 J-0.0174
X73.8563 Y14.6459 Z-0.1202 I0.0193 J0.0174
X73.8393 Y14.6951 Z-0.1379 I-0.0085 J0.0246
X73.8219 Y14.6723 Z-0.1445 I0.0085 J-0.0246
X73.8738 Y14.6687 Z-0.1623 I0.0259 J-0.0018
X73.8596 Y14.6937 Z-0.1689 I-0.0259 J0.0018
X73.8361 Y14.6473 Z-0.1866 I-0.0118 J-0.0232
X73.8646 Y14.6506 Z-0.1932 I0.0118 J0.0232
X73.8311 Y14.6904 Z-0.2109 I-0.0168 J0.0199
X73.823 Y14.6629 Z-0.2175 I0.0168 J-0.0199
X73.8727 Y14.6782 I0.0248 J0.0077
X73.823 Y14.6629 I-0.0248 J-0.0077
X73.8392 Y14.6543 I0.0124 J0.0038
G1 X73.8463 Y14.6565
X73.8491 Y14.6573 Z-0.2172
X73.8518 Y14.6581 Z-0.2164
X73.8543 Y14.6589 Z-0.215
X73.8564 Y14.6596 Z-0.2131
X73.8582 Y14.6601 Z-0.2109
X73.8595 Y14.6605 Z-0.2083
X73.8603 Y14.6608 Z-0.2055
X73.8606 Z-0.2026
G0 Z0.4
X73.4356 Y14.9537
Z0.13
G1 Z0.0649 F40.
G18 G2 X73.4505 Z0.05 I0.0149 K0.
G1 X73.458
G17 G3 X73.471 Y14.9667 I0. J0.013
X73.419 Z0.0323 I-0.026 J0.
X73.4348 Y14.9428 Z0.0257 I0.026 J0.
X73.4551 Y14.9906 Z0.008 I0.0102 J0.0239
X73.4269 Y14.9854 Z0.0014 I-0.0102 J-0.0239
X73.463 Y14.948 Z-0.0164 I0.0181 J-0.0187
X73.4269 Y14.9854 Z-0.0341 I-0.0181 J0.0187
X73.463 Y14.948 Z-0.0518 I0.0181 J-0.0187
X73.4269 Y14.9854 Z-0.0695 I-0.0181 J0.0187
X73.463 Y14.948 Z-0.0872 I0.0181 J-0.0187
X73.4643 Y14.9841 Z-0.0959 I-0.0181 J0.0187
X73.4257 Y14.9493 Z-0.1136 I-0.0193 J-0.0174
X73.4535 Y14.9421 Z-0.1202 I0.0193 J0.0174
X73.4365 Y14.9913 Z-0.1379 I-0.0085 J0.0246
X73.419 Y14.9685 Z-0.1445 I0.0085 J-0.0246
X73.4709 Y14.9649 Z-0.1623 I0.0259 J-0.0018
X73.4567 Y14.9899 Z-0.1689 I-0.0259 J0.0018
X73.4332 Y14.9435 Z-0.1866 I-0.0118 J-0.0232
X73.4617 Y14.9468 Z-0.1932 I0.0118 J0.0232
X73.4282 Y14.9866 Z-0.2109 I-0.0168 J0.0199
X73.4201 Y14.959 Z-0.2175 I0.0168 J-0.0199
X73.4698 Y14.9743 I0.0248 J0.0077
X73.4201 Y14.959 I-0.0248 J-0.0077
X73.4364 Y14.9504 I0.0124 J0.0038
G1 X73.4435 Y14.9526
X73.4463 Y14.9535 Z-0.2172
X73.449 Y14.9543 Z-0.2164
X73.4514 Y14.9551 Z-0.215
X73.4536 Y14.9557 Z-0.2131
X73.4553 Y14.9563 Z-0.2109
X73.4567 Y14.9567 Z-0.2083
X73.4575 Y14.9569 Z-0.2055
X73.4577 Y14.957 Z-0.2026
G0 Z0.4
X68.5675 Y11.7824
Z0.1151
G1 Z0.05 F40.
X68.57 Y11.7799
G3 X68.5725 Y11.7824 I0. J0.0025
X68.5625 Z0.036 I-0.005 J0.
X68.567 Y11.7774 Z0.0294 I0.005 J0.
X68.568 Y11.7874 Z0.0154 I0.0005 J0.005
X68.5626 Y11.7834 Z0.0088 I-0.0005 J-0.005
X68.5724 Y11.7814 Z-0.0052 I0.0049 J-0.001
X68.569 Y11.7872 Z-0.0117 I-0.0049 J0.001
X68.566 Y11.7776 Z-0.0257 I-0.0015 J-0.0048
X68.5721 Y11.7804 Z-0.0323 I0.0015 J0.0048
X68.5629 Y11.7843 Z-0.0463 I-0.0046 J0.002
X68.5651 Y11.778 Z-0.0529 I0.0046 J-0.002
X68.5699 Y11.7868 Z-0.0669 I0.0024 J0.0044
X68.5634 Y11.7852 Z-0.0735 I-0.0024 J-0.0044
X68.5716 Y11.7795 Z-0.0875 I0.0041 J-0.0028
X68.5707 Y11.7862 Z-0.094 I-0.0041 J0.0028
X68.5643 Y11.7786 Z-0.1081 I-0.0032 J-0.0038
X68.571 Y11.7788 Z-0.1146 I0.0032 J0.0038
X68.564 Y11.786 Z-0.1286 I-0.0035 J0.0036
X68.5636 Y11.7793 Z-0.1352 I0.0035 J-0.0036
X68.5714 Y11.7855 Z-0.1492 I0.0039 J0.0031
X68.5648 Y11.7866 Z-0.1558 I-0.0039 J-0.0031
X68.5702 Y11.7782 Z-0.1698 I0.0027 J-0.0042
X68.572 Y11.7846 Z-0.1763 I-0.0027 J0.0042
X68.563 Y11.7802 Z-0.1904 I-0.0045 J-0.0022
X68.5693 Y11.7777 Z-0.1969 I0.0045 J0.0022
X68.5657 Y11.7871 Z-0.2109 I-0.0018 J0.0047
X68.5627 Y11.7811 Z-0.2175 I0.0018 J-0.0047
X68.5723 Y11.7837 I0.0048 J0.0013
X68.5627 Y11.7811 I-0.0048 J-0.0013
X68.5657 Y11.7793 I0.0024 J0.0006
G1 X68.5675 Y11.7824
G0 Z0.4
X67.0519 Y10.4206
Z0.13
G1 Z0.0649 F40.
G18 G2 X67.0668 Z0.05 I0.0149 K0.
G1 X67.0742
G17 G3 X67.086 Y10.4324 I0. J0.0117
X67.039 Z0.0327 I-0.0235 J0.
X67.086 Z0.0154 I0.0235 J0.
X67.0429 Y10.4453 Z0.0014 I-0.0235 J0.
X67.0821 Y10.4195 Z-0.0159 I0.0196 J-0.0129
X67.0429 Y10.4453 Z-0.0332 I-0.0196 J0.0129
X67.0718 Y10.4108 Z-0.0473 I0.0196 J-0.0129
X67.0532 Y10.454 Z-0.0646 I-0.0093 J0.0216
X67.0392 Y10.4297 Z-0.0716 I0.0093 J-0.0216
X67.0858 Y10.4351 Z-0.0889 I0.0233 J0.0027
X67.0392 Y10.4297 Z-0.1062 I-0.0233 J-0.0027
X67.0858 Y10.4351 Z-0.1234 I0.0233 J0.0027
X67.0392 Y10.4297 Z-0.1407 I-0.0233 J-0.0027
X67.0463 Y10.4153 Z-0.1445 I0.0233 J0.0027
X67.0787 Y10.4494 Z-0.1618 I0.0162 J0.017
X67.0508 Y10.4528 Z-0.1689 I-0.0162 J-0.017
X67.0742 Y10.412 Z-0.1861 I0.0117 J-0.0204
X67.0508 Y10.4528 Z-0.2034 I-0.0117 J0.0204
X67.061 Y10.4089 Z-0.2175 I0.0117 J-0.0204
X67.0639 Y10.4558 I0.0015 J0.0235
X67.061 Y10.4089 I-0.0015 J-0.0235
X67.0735 Y10.4199 I0.0007 J0.0117
G1 X67.074 Y10.4274
X67.0741 Y10.4303 Z-0.2172
X67.0743 Y10.4331 Z-0.2164
X67.0745 Y10.4356 Z-0.215
X67.0746 Y10.4379 Z-0.2131
X67.0747 Y10.4397 Z-0.2109
X67.0748 Y10.4411 Z-0.2083
X67.0749 Y10.442 Z-0.2055
Y10.4422 Z-0.2026
G0 Z0.4
X67.0519 Y9.6706
Z0.13
G1 Z0.0649 F40.
G18 G2 X67.0668 Z0.05 I0.0149 K0.
G1 X67.0742
G17 G3 X67.086 Y9.6824 I0. J0.0117
X67.039 Z0.0327 I-0.0235 J0.
X67.086 Z0.0154 I0.0235 J0.
X67.0429 Y9.6953 Z0.0014 I-0.0235 J0.
X67.0821 Y9.6695 Z-0.0159 I0.0196 J-0.0129
X67.0429 Y9.6953 Z-0.0332 I-0.0196 J0.0129
X67.0718 Y9.6608 Z-0.0473 I0.0196 J-0.0129
X67.0532 Y9.704 Z-0.0646 I-0.0093 J0.0216
X67.0718 Y9.6608 Z-0.0818 I0.0093 J-0.0216
X67.0666 Y9.7055 Z-0.0959 I-0.0093 J0.0216
X67.0584 Y9.6593 Z-0.1132 I-0.0041 J-0.0231
X67.0666 Y9.7055 Z-0.1305 I0.0041 J0.0231
X67.0463 Y9.6653 Z-0.1445 I-0.0041 J-0.0231
X67.0787 Y9.6994 Z-0.1618 I0.0162 J0.017
X67.0508 Y9.7028 Z-0.1689 I-0.0162 J-0.017
X67.0742 Y9.662 Z-0.1861 I0.0117 J-0.0204
X67.0508 Y9.7028 Z-0.2034 I-0.0117 J0.0204
X67.061 Y9.6589 Z-0.2175 I0.0117 J-0.0204
X67.0639 Y9.7058 I0.0015 J0.0235
X67.061 Y9.6589 I-0.0015 J-0.0235
X67.0735 Y9.6699 I0.0007 J0.0117
G1 X67.074 Y9.6774
X67.0741 Y9.6803 Z-0.2172
X67.0743 Y9.6831 Z-0.2164
X67.0745 Y9.6856 Z-0.215
X67.0746 Y9.6879 Z-0.2131
X67.0747 Y9.6897 Z-0.2109
X67.0748 Y9.6911 Z-0.2083
X67.0749 Y9.692 Z-0.2055
Y9.6922 Z-0.2026
G0 Z0.4
X67.0519 Y8.9206
Z0.13
G1 Z0.0649 F40.
G18 G2 X67.0668 Z0.05 I0.0149 K0.
G1 X67.0742
G17 G3 X67.086 Y8.9324 I0. J0.0117
X67.039 Z0.0327 I-0.0235 J0.
X67.086 Z0.0154 I0.0235 J0.
X67.0429 Y8.9453 Z0.0014 I-0.0235 J0.
X67.0821 Y8.9195 Z-0.0159 I0.0196 J-0.0129
X67.0429 Y8.9453 Z-0.0332 I-0.0196 J0.0129
X67.0718 Y8.9108 Z-0.0473 I0.0196 J-0.0129
X67.0532 Y8.954 Z-0.0646 I-0.0093 J0.0216
X67.0718 Y8.9108 Z-0.0818 I0.0093 J-0.0216
X67.0666 Y8.9555 Z-0.0959 I-0.0093 J0.0216
X67.0584 Y8.9093 Z-0.1132 I-0.0041 J-0.0231
X67.0666 Y8.9555 Z-0.1305 I0.0041 J0.0231
X67.0463 Y8.9153 Z-0.1445 I-0.0041 J-0.0231
X67.0787 Y8.9494 Z-0.1618 I0.0162 J0.017
X67.0508 Y8.9528 Z-0.1689 I-0.0162 J-0.017
X67.0742 Y8.912 Z-0.1861 I0.0117 J-0.0204
X67.0508 Y8.9528 Z-0.2034 I-0.0117 J0.0204
X67.061 Y8.9089 Z-0.2175 I0.0117 J-0.0204
X67.0639 Y8.9558 I0.0015 J0.0235
X67.061 Y8.9089 I-0.0015 J-0.0235
X67.0735 Y8.9199 I0.0007 J0.0117
G1 X67.074 Y8.9274
X67.0741 Y8.9303 Z-0.2172
X67.0743 Y8.9331 Z-0.2164
X67.0745 Y8.9356 Z-0.215
X67.0746 Y8.9379 Z-0.2131
X67.0747 Y8.9397 Z-0.2109
X67.0748 Y8.9411 Z-0.2083
X67.0749 Y8.942 Z-0.2055
Y8.9422 Z-0.2026
G0 Z0.4
X69.1875 Y7.9179
Z0.1151
G1 Z0.05 F40.
X69.19 Y7.9154
G3 X69.1925 Y7.9179 I0. J0.0025
X69.1825 Z0.036 I-0.005 J0.
X69.187 Y7.9129 Z0.0294 I0.005 J0.
X69.188 Y7.9228 Z0.0154 I0.0005 J0.005
X69.1826 Y7.9189 Z0.0088 I-0.0005 J-0.005
X69.1924 Y7.9169 Z-0.0052 I0.0049 J-0.001
X69.189 Y7.9226 Z-0.0117 I-0.0049 J0.001
X69.186 Y7.9131 Z-0.0257 I-0.0015 J-0.0048
X69.1921 Y7.9159 Z-0.0323 I0.0015 J0.0048
X69.1829 Y7.9198 Z-0.0463 I-0.0046 J0.002
X69.1851 Y7.9135 Z-0.0529 I0.0046 J-0.002
X69.1899 Y7.9222 Z-0.0669 I0.0024 J0.0044
X69.1834 Y7.9207 Z-0.0735 I-0.0024 J-0.0044
X69.1916 Y7.915 Z-0.0875 I0.0041 J-0.0028
X69.1907 Y7.9217 Z-0.094 I-0.0041 J0.0028
X69.1843 Y7.9141 Z-0.1081 I-0.0032 J-0.0038
X69.191 Y7.9143 Z-0.1146 I0.0032 J0.0038
X69.184 Y7.9215 Z-0.1286 I-0.0035 J0.0036
X69.1836 Y7.9148 Z-0.1352 I0.0035 J-0.0036
X69.1914 Y7.9209 Z-0.1492 I0.0039 J0.0031
X69.1848 Y7.9221 Z-0.1558 I-0.0039 J-0.0031
X69.1902 Y7.9136 Z-0.1698 I0.0027 J-0.0042
X69.192 Y7.9201 Z-0.1763 I-0.0027 J0.0042
X69.183 Y7.9156 Z-0.1904 I-0.0045 J-0.0022
X69.1893 Y7.9132 Z-0.1969 I0.0045 J0.0022
X69.1857 Y7.9225 Z-0.2109 I-0.0018 J0.0047
X69.1827 Y7.9166 Z-0.2175 I0.0018 J-0.0047
X69.1923 Y7.9191 I0.0048 J0.0013
X69.1827 Y7.9166 I-0.0048 J-0.0013
X69.1857 Y7.9148 I0.0024 J0.0006
G1 X69.1875 Y7.9179
G0 Z0.4
X68.3813 Y4.8773
Z0.13
G1 Z0.0649 F40.
G18 G2 X68.3962 Z0.05 I0.0149 K0.
G1 X68.4037
G17 G3 X68.4167 Y4.8903 I0. J0.013
X68.3647 Z0.0323 I-0.026 J0.
X68.3805 Y4.8664 Z0.0257 I0.026 J0.
X68.4008 Y4.9143 Z0.008 I0.0102 J0.0239
X68.3726 Y4.909 Z0.0014 I-0.0101 J-0.0239
X68.4087 Y4.8717 Z-0.0164 I0.0181 J-0.0187
X68.3726 Y4.909 Z-0.0341 I-0.0181 J0.0187
X68.3898 Y4.8644 Z-0.0473 I0.0181 J-0.0187
X68.3915 Y4.9163 Z-0.065 I0.0009 J0.026
X68.3671 Y4.9013 Z-0.0716 I-0.0009 J-0.026
X68.4142 Y4.8794 Z-0.0893 I0.0236 J-0.011
X68.3671 Y4.9013 Z-0.107 I-0.0236 J0.011
X68.4142 Y4.8794 Z-0.1248 I0.0236 J-0.011
X68.3671 Y4.9013 Z-0.1425 I-0.0236 J0.011
X68.4142 Y4.8794 Z-0.1602 I0.0236 J-0.011
X68.4024 Y4.9135 Z-0.1689 I-0.0236 J0.011
X68.3789 Y4.8672 Z-0.1866 I-0.0118 J-0.0232
X68.4074 Y4.8705 Z-0.1932 I0.0118 J0.0232
X68.3739 Y4.9102 Z-0.2109 I-0.0168 J0.0199
X68.3658 Y4.8827 Z-0.2175 I0.0168 J-0.0199
X68.4155 Y4.898 I0.0248 J0.0077
X68.3658 Y4.8827 I-0.0248 J-0.0077
X68.3821 Y4.8741 I0.0124 J0.0038
G1 X68.3892 Y4.8763
X68.392 Y4.8771 Z-0.2172
X68.3946 Y4.878 Z-0.2164
X68.3971 Y4.8787 Z-0.215
X68.3993 Y4.8794 Z-0.2131
X68.401 Y4.8799 Z-0.2109
X68.4023 Y4.8803 Z-0.2083
X68.4032 Y4.8806 Z-0.2055
X68.4034 Y4.8807 Z-0.2026
G0 Z0.4
X68.875 Y3.125
Z0.1151
G1 Z0.05 F40.
X68.8725 Y3.1275
G3 X68.87 Y3.125 I0. J-0.0025
X68.88 Z0.036 I0.005 J0.
X68.8755 Y3.13 Z0.0294 I-0.005 J0.
X68.8745 Y3.12 Z0.0154 I-0.0005 J-0.005
X68.8799 Y3.124 Z0.0088 I0.0005 J0.005
X68.8701 Y3.126 Z-0.0052 I-0.0049 J0.001
X68.8799 Y3.124 Z-0.0192 I0.0049 J-0.001
X68.8704 Y3.127 Z-0.0323 I-0.0049 J0.001
X68.8796 Y3.123 Z-0.0463 I0.0046 J-0.002
X68.8774 Y3.1294 Z-0.0529 I-0.0046 J0.002
X68.8726 Y3.1206 Z-0.0669 I-0.0024 J-0.0044
X68.8791 Y3.1222 Z-0.0735 I0.0024 J0.0044
X68.8709 Y3.1278 Z-0.0875 I-0.0041 J0.0028
X68.8718 Y3.1212 Z-0.094 I0.0041 J-0.0028
X68.8782 Y3.1288 Z-0.1081 I0.0032 J0.0038
X68.8715 Y3.1286 Z-0.1146 I-0.0032 J-0.0038
X68.8785 Y3.1214 Z-0.1286 I0.0035 J-0.0036
X68.8789 Y3.1281 Z-0.1352 I-0.0035 J0.0036
X68.8711 Y3.1219 Z-0.1492 I-0.0039 J-0.0031
X68.8777 Y3.1208 Z-0.1558 I0.0039 J0.0031
X68.8723 Y3.1292 Z-0.1698 I-0.0027 J0.0042
X68.8777 Y3.1208 Z-0.1838 I0.0027 J-0.0042
X68.8732 Y3.1297 Z-0.1969 I-0.0027 J0.0042
X68.8768 Y3.1203 Z-0.2109 I0.0018 J-0.0047
X68.8798 Y3.1263 Z-0.2175 I-0.0018 J0.0047
X68.8702 Y3.1237 I-0.0048 J-0.0013
X68.8798 Y3.1263 I0.0048 J0.0013
X68.8768 Y3.1281 I-0.0024 J-0.0006
G1 X68.875 Y3.125
G0 Z0.4
Y1.875
Z0.1151
G1 Z0.05 F40.
X68.8725 Y1.8775
G3 X68.87 Y1.875 I0. J-0.0025
X68.88 Z0.036 I0.005 J0.
X68.8755 Y1.88 Z0.0294 I-0.005 J0.
X68.8745 Y1.87 Z0.0154 I-0.0005 J-0.005
X68.8799 Y1.874 Z0.0088 I0.0005 J0.005
X68.8701 Y1.876 Z-0.0052 I-0.0049 J0.001
X68.8799 Y1.874 Z-0.0192 I0.0049 J-0.001
X68.8704 Y1.877 Z-0.0323 I-0.0049 J0.001
X68.8796 Y1.873 Z-0.0463 I0.0046 J-0.002
X68.8774 Y1.8794 Z-0.0529 I-0.0046 J0.002
X68.8726 Y1.8706 Z-0.0669 I-0.0024 J-0.0044
X68.8791 Y1.8722 Z-0.0735 I0.0024 J0.0044
X68.8709 Y1.8778 Z-0.0875 I-0.0041 J0.0028
X68.8718 Y1.8712 Z-0.094 I0.0041 J-0.0028
X68.8782 Y1.8788 Z-0.1081 I0.0032 J0.0038
X68.8715 Y1.8786 Z-0.1146 I-0.0032 J-0.0038
X68.8785 Y1.8714 Z-0.1286 I0.0035 J-0.0036
X68.8789 Y1.8781 Z-0.1352 I-0.0035 J0.0036
X68.8711 Y1.8719 Z-0.1492 I-0.0039 J-0.0031
X68.8777 Y1.8708 Z-0.1558 I0.0039 J0.0031
X68.8723 Y1.8792 Z-0.1698 I-0.0027 J0.0042
X68.8777 Y1.8708 Z-0.1838 I0.0027 J-0.0042
X68.8732 Y1.8797 Z-0.1969 I-0.0027 J0.0042
X68.8768 Y1.8703 Z-0.2109 I0.0018 J-0.0047
X68.8798 Y1.8763 Z-0.2175 I-0.0018 J0.0047
X68.8702 Y1.8737 I-0.0048 J-0.0013
X68.8798 Y1.8763 I0.0048 J0.0013
X68.8768 Y1.8781 I-0.0024 J-0.0006
G1 X68.875 Y1.875
G0 Z0.4
X70.375
Z0.1151
G1 Z0.05 F40.
X70.3775 Y1.8725
G3 X70.38 Y1.875 I0. J0.0025
X70.37 Z0.036 I-0.005 J0.
X70.3745 Y1.87 Z0.0294 I0.005 J0.
X70.3755 Y1.88 Z0.0154 I0.0005 J0.005
X70.3745 Y1.87 Z0.0014 I-0.0005 J-0.005
X70.3765 Y1.8798 Z-0.0117 I0.0005 J0.005
X70.3735 Y1.8702 Z-0.0257 I-0.0015 J-0.0048
X70.3796 Y1.873 Z-0.0323 I0.0015 J0.0048
X70.3704 Y1.877 Z-0.0463 I-0.0046 J0.002
X70.3726 Y1.8706 Z-0.0529 I0.0046 J-0.002
X70.3774 Y1.8794 Z-0.0669 I0.0024 J0.0044
X70.3709 Y1.8778 Z-0.0735 I-0.0024 J-0.0044
X70.3791 Y1.8722 Z-0.0875 I0.0041 J-0.0028
X70.3782 Y1.8788 Z-0.094 I-0.0041 J0.0028
X70.3718 Y1.8712 Z-0.1081 I-0.0032 J-0.0038
X70.3785 Y1.8714 Z-0.1146 I0.0032 J0.0038
X70.3715 Y1.8786 Z-0.1286 I-0.0035 J0.0036
X70.3785 Y1.8714 Z-0.1426 I0.0035 J-0.0036
X70.3723 Y1.8792 Z-0.1558 I-0.0035 J0.0036
X70.3777 Y1.8708 Z-0.1698 I0.0027 J-0.0042
X70.3723 Y1.8792 Z-0.1838 I-0.0027 J0.0042
X70.3777 Y1.8708 Z-0.1978 I0.0027 J-0.0042
X70.3723 Y1.8792 Z-0.2118 I-0.0027 J0.0042
X70.3702 Y1.8737 Z-0.2175 I0.0027 J-0.0042
X70.3798 Y1.8763 I0.0048 J0.0013
X70.3702 Y1.8737 I-0.0048 J-0.0013
X70.3732 Y1.8719 I0.0024 J0.0006
G1 X70.375 Y1.875
G0 Z0.4
Y3.125
Z0.1151
G1 Z0.05 F40.
X70.3775 Y3.1225
G3 X70.38 Y3.125 I0. J0.0025
X70.37 Z0.036 I-0.005 J0.
X70.3745 Y3.12 Z0.0294 I0.005 J0.
X70.3755 Y3.13 Z0.0154 I0.0005 J0.005
X70.3701 Y3.126 Z0.0088 I-0.0005 J-0.005
X70.3799 Y3.124 Z-0.0052 I0.0049 J-0.001
X70.3701 Y3.126 Z-0.0192 I-0.0049 J0.001
X70.3796 Y3.123 Z-0.0323 I0.0049 J-0.001
X70.3704 Y3.127 Z-0.0463 I-0.0046 J0.002
X70.3726 Y3.1206 Z-0.0529 I0.0046 J-0.002
X70.3774 Y3.1294 Z-0.0669 I0.0024 J0.0044
X70.3709 Y3.1278 Z-0.0735 I-0.0024 J-0.0044
X70.3791 Y3.1222 Z-0.0875 I0.0041 J-0.0028
X70.3782 Y3.1288 Z-0.094 I-0.0041 J0.0028
X70.3718 Y3.1212 Z-0.1081 I-0.0032 J-0.0038
X70.3785 Y3.1214 Z-0.1146 I0.0032 J0.0038
X70.3715 Y3.1286 Z-0.1286 I-0.0035 J0.0036
X70.3785 Y3.1214 Z-0.1426 I0.0035 J-0.0036
X70.3723 Y3.1292 Z-0.1558 I-0.0035 J0.0036
X70.3777 Y3.1208 Z-0.1698 I0.0027 J-0.0042
X70.3795 Y3.1272 Z-0.1763 I-0.0027 J0.0042
X70.3705 Y3.1228 Z-0.1904 I-0.0045 J-0.0022
X70.3795 Y3.1272 Z-0.2044 I0.0045 J0.0022
X70.3702 Y3.1237 Z-0.2175 I-0.0045 J-0.0022
X70.3798 Y3.1263 I0.0048 J0.0013
X70.3702 Y3.1237 I-0.0048 J-0.0013
X70.3732 Y3.1219 I0.0024 J0.0006
G1 X70.375 Y3.125
G0 Z0.4
X70.337 Y4.4587
Z0.13
G1 Z0.0649 F40.
G18 G2 X70.3519 Z0.05 I0.0149 K0.
G1 X70.3593
G17 G3 X70.3723 Y4.4717 I0. J0.013
X70.3203 Z0.0323 I-0.026 J0.
X70.3362 Y4.4477 Z0.0257 I0.026 J0.
X70.3565 Y4.4956 Z0.008 I0.0102 J0.0239
X70.3283 Y4.4903 Z0.0014 I-0.0102 J-0.0239
X70.3644 Y4.453 Z-0.0164 I0.0181 J-0.0187
X70.3283 Y4.4903 Z-0.0341 I-0.0181 J0.0187
X70.3644 Y4.453 Z-0.0518 I0.0181 J-0.0187
X70.3283 Y4.4903 Z-0.0695 I-0.0181 J0.0187
X70.3644 Y4.453 Z-0.0872 I0.0181 J-0.0187
X70.3656 Y4.4891 Z-0.0959 I-0.0181 J0.0187
X70.327 Y4.4542 Z-0.1136 I-0.0193 J-0.0174
X70.3548 Y4.4471 Z-0.1202 I0.0193 J0.0174
X70.3378 Y4.4962 Z-0.1379 I-0.0085 J0.0246
X70.3204 Y4.4734 Z-0.1445 I0.0085 J-0.0246
X70.3723 Y4.4699 Z-0.1623 I0.0259 J-0.0018
X70.3581 Y4.4948 Z-0.1689 I-0.0259 J0.0018
X70.3346 Y4.4485 Z-0.1866 I-0.0118 J-0.0232
X70.3631 Y4.4518 Z-0.1932 I0.0118 J0.0232
X70.3296 Y4.4915 Z-0.2109 I-0.0168 J0.0199
X70.3215 Y4.464 Z-0.2175 I0.0168 J-0.0199
X70.3712 Y4.4793 I0.0248 J0.0077
X70.3215 Y4.464 I-0.0248 J-0.0077
X70.3378 Y4.4554 I0.0124 J0.0038
G1 X70.3449 Y4.4576
X70.3476 Y4.4585 Z-0.2172
X70.3503 Y4.4593 Z-0.2164
X70.3528 Y4.46 Z-0.215
X70.3549 Y4.4607 Z-0.2131
X70.3567 Y4.4612 Z-0.2109
X70.358 Y4.4617 Z-0.2083
X70.3588 Y4.4619 Z-0.2055
X70.3591 Y4.462 Z-0.2026
G0 Z0.4
X70.2587 Y5.7207
Z0.1151
G1 Z0.05 F40.
X70.2612 Y5.7182
G3 X70.2637 Y5.7207 I0. J0.0025
X70.2537 Z0.036 I-0.005 J0.
X70.2582 Y5.7157 Z0.0294 I0.005 J0.
X70.2592 Y5.7257 Z0.0154 I0.0005 J0.005
X70.2538 Y5.7217 Z0.0088 I-0.0005 J-0.005
X70.2636 Y5.7197 Z-0.0052 I0.0049 J-0.001
X70.2538 Y5.7217 Z-0.0192 I-0.0049 J0.001
X70.2633 Y5.7187 Z-0.0323 I0.0049 J-0.001
X70.2541 Y5.7226 Z-0.0463 I-0.0046 J0.002
X70.2563 Y5.7163 Z-0.0529 I0.0046 J-0.002
X70.2611 Y5.7251 Z-0.0669 I0.0024 J0.0044
X70.2546 Y5.7235 Z-0.0735 I-0.0024 J-0.0044
X70.2628 Y5.7178 Z-0.0875 I0.0041 J-0.0028
X70.262 Y5.7245 Z-0.094 I-0.0041 J0.0028
X70.2555 Y5.7169 Z-0.1081 I-0.0032 J-0.0038
X70.2622 Y5.7171 Z-0.1146 I0.0032 J0.0038
X70.2553 Y5.7243 Z-0.1286 I-0.0035 J0.0036
X70.2622 Y5.7171 Z-0.1426 I0.0035 J-0.0036
X70.2561 Y5.7249 Z-0.1558 I-0.0035 J0.0036
X70.2614 Y5.7165 Z-0.1698 I0.0027 J-0.0042
X70.2632 Y5.7229 Z-0.1763 I-0.0027 J0.0042
X70.2543 Y5.7185 Z-0.1904 I-0.0045 J-0.0022
X70.2632 Y5.7229 Z-0.2044 I0.0045 J0.0022
X70.2539 Y5.7194 Z-0.2175 I-0.0045 J-0.0022
X70.2636 Y5.722 I0.0048 J0.0013
X70.2539 Y5.7194 I-0.0048 J-0.0013
X70.257 Y5.7176 I0.0024 J0.0006
G1 X70.2587 Y5.7207
G0 Z0.4
X71.3173 Y5.4095
Z0.13
G1 Z0.0649 F40.
G18 G2 X71.3322 Z0.05 I0.0149 K0.
G1 X71.3397
G17 G3 X71.3527 Y5.4225 I0. J0.013
X71.3007 Z0.0323 I-0.026 J0.
X71.3165 Y5.3986 Z0.0257 I0.026 J0.
X71.3368 Y5.4464 Z0.008 I0.0102 J0.0239
X71.3165 Y5.3986 Z-0.0098 I-0.0102 J-0.0239
X71.3368 Y5.4464 Z-0.0275 I0.0102 J0.0239
X71.3165 Y5.3986 Z-0.0452 I-0.0102 J-0.0239
X71.3368 Y5.4464 Z-0.0629 I0.0102 J0.0239
X71.3165 Y5.3986 Z-0.0806 I-0.0102 J-0.0239
X71.3368 Y5.4464 Z-0.0984 I0.0102 J0.0239
X71.3165 Y5.3986 Z-0.1161 I-0.0102 J-0.0239
X71.3368 Y5.4464 Z-0.1338 I0.0102 J0.0239
X71.3165 Y5.3986 Z-0.1515 I-0.0102 J-0.0239
X71.3368 Y5.4464 Z-0.1692 I0.0102 J0.0239
X71.3165 Y5.3986 Z-0.187 I-0.0102 J-0.0239
X71.3368 Y5.4464 Z-0.2047 I0.0102 J0.0239
X71.3018 Y5.4148 Z-0.2175 I-0.0102 J-0.0239
X71.3515 Y5.4302 I0.0248 J0.0077
X71.3018 Y5.4148 I-0.0248 J-0.0077
X71.3181 Y5.4063 I0.0124 J0.0038
G1 X71.3252 Y5.4084
X71.328 Y5.4093 Z-0.2172
X71.3306 Y5.4101 Z-0.2164
X71.3331 Y5.4109 Z-0.215
X71.3353 Y5.4116 Z-0.2131
X71.337 Y5.4121 Z-0.2109
X71.3383 Y5.4125 Z-0.2083
X71.3392 Y5.4128 Z-0.2055
X71.3394 Z-0.2026
G0 Z0.4
X71.539 Y7.3972
Z0.13
G1 Z0.0649 F40.
G18 G2 X71.5539 Z0.05 I0.0149 K0.
G1 X71.5613
G17 G3 X71.5743 Y7.4102 I0. J0.013
X71.5223 Z0.0323 I-0.026 J0.
X71.5382 Y7.3862 Z0.0257 I0.026 J0.
X71.5585 Y7.4341 Z0.008 I0.0102 J0.0239
X71.5303 Y7.4289 Z0.0014 I-0.0102 J-0.0239
X71.5664 Y7.3915 Z-0.0164 I0.0181 J-0.0187
X71.5303 Y7.4289 Z-0.0341 I-0.0181 J0.0187
X71.5664 Y7.3915 Z-0.0518 I0.0181 J-0.0187
X71.5303 Y7.4289 Z-0.0695 I-0.0181 J0.0187
X71.5664 Y7.3915 Z-0.0872 I0.0181 J-0.0187
X71.5676 Y7.4276 Z-0.0959 I-0.0181 J0.0187
X71.529 Y7.3928 Z-0.1136 I-0.0193 J-0.0174
X71.5568 Y7.3856 Z-0.1202 I0.0193 J0.0174
X71.5398 Y7.4348 Z-0.1379 I-0.0085 J0.0246
X71.5224 Y7.412 Z-0.1445 I0.0085 J-0.0246
X71.5743 Y7.4084 Z-0.1623 I0.0259 J-0.0018
X71.5601 Y7.4334 Z-0.1689 I-0.0259 J0.0018
X71.5366 Y7.387 Z-0.1866 I-0.0118 J-0.0232
X71.5651 Y7.3903 Z-0.1932 I0.0118 J0.0232
X71.5316 Y7.4301 Z-0.2109 I-0.0168 J0.0199
X71.5235 Y7.4025 Z-0.2175 I0.0168 J-0.0199
X71.5732 Y7.4178 I0.0248 J0.0077
X71.5235 Y7.4025 I-0.0248 J-0.0077
X71.5397 Y7.3939 I0.0124 J0.0038
G1 X71.5469 Y7.3961
X71.5496 Y7.397 Z-0.2172
X71.5523 Y7.3978 Z-0.2164
X71.5548 Y7.3986 Z-0.215
X71.5569 Y7.3992 Z-0.2131
X71.5587 Y7.3998 Z-0.2109
X71.56 Y7.4002 Z-0.2083
X71.5608 Y7.4004 Z-0.2055
X71.5611 Y7.4005 Z-0.2026
G0 Z0.4
X71.6156 Y9.487
Z0.13
G1 Z0.0649 F40.
G18 G2 X71.6306 Z0.05 I0.0149 K0.
G1 X71.638
G17 G3 X71.651 Y9.5 I0. J0.013
X71.599 Z0.0323 I-0.026 J0.
X71.6148 Y9.4761 Z0.0257 I0.026 J0.
X71.6352 Y9.5239 Z0.008 I0.0102 J0.0239
X71.6069 Y9.5187 Z0.0014 I-0.0102 J-0.0239
X71.6431 Y9.4813 Z-0.0164 I0.0181 J-0.0187
X71.6069 Y9.5187 Z-0.0341 I-0.0181 J0.0187
X71.6431 Y9.4813 Z-0.0518 I0.0181 J-0.0187
X71.6069 Y9.5187 Z-0.0695 I-0.0181 J0.0187
X71.6014 Y9.511 Z-0.0716 I0.0181 J-0.0187
X71.6486 Y9.489 Z-0.0893 I0.0236 J-0.011
X71.6443 Y9.5174 Z-0.0959 I-0.0236 J0.011
X71.6057 Y9.4826 Z-0.1136 I-0.0193 J-0.0174
X71.6443 Y9.5174 Z-0.1314 I0.0193 J0.0174
X71.5991 Y9.5018 Z-0.1445 I-0.0193 J-0.0174
X71.6509 Y9.4982 Z-0.1623 I0.0259 J-0.0018
X71.6368 Y9.5232 Z-0.1689 I-0.0259 J0.0018
X71.6132 Y9.4768 Z-0.1866 I-0.0118 J-0.0232
X71.6418 Y9.4801 Z-0.1932 I0.0118 J0.0232
X71.6082 Y9.5199 Z-0.2109 I-0.0168 J0.0199
X71.6002 Y9.4923 Z-0.2175 I0.0168 J-0.0199
X71.6498 Y9.5077 I0.0248 J0.0077
X71.6002 Y9.4923 I-0.0248 J-0.0077
X71.6164 Y9.4837 I0.0124 J0.0038
G1 X71.6235 Y9.4859
X71.6263 Y9.4868 Z-0.2172
X71.629 Y9.4876 Z-0.2164
X71.6314 Y9.4884 Z-0.215
X71.6336 Y9.489 Z-0.2131
X71.6354 Y9.4896 Z-0.2109
X71.6367 Y9.49 Z-0.2083
X71.6375 Y9.4902 Z-0.2055
X71.6378 Y9.4903 Z-0.2026
G0 Z0.4
X71.4212 Y11.987
Z0.13
G1 Z0.0649 F40.
G18 G2 X71.4361 Z0.05 I0.0149 K0.
G1 X71.4435
G17 G3 X71.4565 Y12. I0. J0.013
X71.4045 Z0.0323 I-0.026 J0.
X71.4204 Y11.9761 Z0.0257 I0.026 J0.
X71.4407 Y12.0239 Z0.008 I0.0102 J0.0239
X71.4204 Y11.9761 Z-0.0098 I-0.0102 J-0.0239
X71.4548 Y12.0093 Z-0.023 I0.0102 J0.0239
X71.4063 Y11.9907 Z-0.0407 I-0.0243 J-0.0093
X71.4548 Y12.0093 Z-0.0584 I0.0243 J0.0093
X71.4063 Y11.9907 Z-0.0761 I-0.0243 J-0.0093
X71.4548 Y12.0093 Z-0.0938 I0.0243 J0.0093
X71.4063 Y11.9907 Z-0.1116 I-0.0243 J-0.0093
X71.4548 Y12.0093 Z-0.1293 I0.0243 J0.0093
X71.4063 Y11.9907 Z-0.147 I-0.0243 J-0.0093
X71.4548 Y12.0093 Z-0.1647 I0.0243 J0.0093
X71.4063 Y11.9907 Z-0.1824 I-0.0243 J-0.0093
X71.4548 Y12.0093 Z-0.2002 I0.0243 J0.0093
X71.4057 Y11.9923 Z-0.2175 I-0.0243 J-0.0093
X71.4554 Y12.0077 I0.0248 J0.0077
X71.4057 Y11.9923 I-0.0248 J-0.0077
X71.422 Y11.9837 I0.0124 J0.0038
G1 X71.4291 Y11.9859
X71.4319 Y11.9868 Z-0.2172
X71.4345 Y11.9876 Z-0.2164
X71.437 Y11.9884 Z-0.215
X71.4391 Y11.989 Z-0.2131
X71.4409 Y11.9896 Z-0.2109
X71.4422 Y11.99 Z-0.2083
X71.443 Y11.9902 Z-0.2055
X71.4433 Y11.9903 Z-0.2026
G0 Z0.4
X71.1875 Y13.5
Z0.1151
G1 Z0.05 F40.
X71.19 Y13.4975
G3 X71.1925 Y13.5 I0. J0.0025
X71.1825 Z0.036 I-0.005 J0.
X71.187 Y13.495 Z0.0294 I0.005 J0.
X71.188 Y13.505 Z0.0154 I0.0005 J0.005
X71.187 Y13.495 Z0.0014 I-0.0005 J-0.005
X71.189 Y13.5048 Z-0.0117 I0.0005 J0.005
X71.186 Y13.4952 Z-0.0257 I-0.0015 J-0.0048
X71.1921 Y13.498 Z-0.0323 I0.0015 J0.0048
X71.1829 Y13.502 Z-0.0463 I-0.0046 J0.002
X71.1851 Y13.4956 Z-0.0529 I0.0046 J-0.002
X71.1899 Y13.5044 Z-0.0669 I0.0024 J0.0044
X71.1834 Y13.5028 Z-0.0735 I-0.0024 J-0.0044
X71.1916 Y13.4972 Z-0.0875 I0.0041 J-0.0028
X71.1907 Y13.5038 Z-0.094 I-0.0041 J0.0028
X71.1843 Y13.4962 Z-0.1081 I-0.0032 J-0.0038
X71.191 Y13.4964 Z-0.1146 I0.0032 J0.0038
X71.184 Y13.5036 Z-0.1286 I-0.0035 J0.0036
X71.191 Y13.4964 Z-0.1427 I0.0035 J-0.0036
X71.1848 Y13.5042 Z-0.1558 I-0.0035 J0.0036
X71.1902 Y13.4958 Z-0.1698 I0.0027 J-0.0042
X71.192 Y13.5022 Z-0.1763 I-0.0027 J0.0042
X71.183 Y13.4978 Z-0.1904 I-0.0045 J-0.0022
X71.1893 Y13.4953 Z-0.1969 I0.0045 J0.0022
X71.1857 Y13.5047 Z-0.2109 I-0.0018 J0.0047
X71.1827 Y13.4987 Z-0.2175 I0.0018 J-0.0047
X71.1923 Y13.5013 I0.0048 J0.0013
X71.1827 Y13.4987 I-0.0048 J-0.0013
X71.1857 Y13.4969 I0.0024 J0.0006
G1 X71.1875 Y13.5
G0 Z0.4
X69.8646 Y14.2152
Z0.1151
G1 Z0.05 F40.
X69.8671 Y14.2127
G3 X69.8696 Y14.2152 I0. J0.0025
X69.8596 Z0.036 I-0.005 J0.
X69.8641 Y14.2102 Z0.0294 I0.005 J0.
X69.8651 Y14.2202 Z0.0154 I0.0005 J0.005
X69.8641 Y14.2102 Z0.0014 I-0.0005 J-0.005
X69.8651 Y14.2202 Z-0.0126 I0.0005 J0.005
X69.8641 Y14.2102 Z-0.0266 I-0.0005 J-0.005
X69.8692 Y14.2133 Z-0.0323 I0.0005 J0.005
X69.86 Y14.2172 Z-0.0463 I-0.0046 J0.002
X69.8622 Y14.2108 Z-0.0529 I0.0046 J-0.002
X69.867 Y14.2196 Z-0.0669 I0.0024 J0.0044
X69.8605 Y14.2181 Z-0.0735 I-0.0024 J-0.0044
X69.8687 Y14.2124 Z-0.0875 I0.0041 J-0.0028
X69.8678 Y14.219 Z-0.094 I-0.0041 J0.0028
X69.8613 Y14.2114 Z-0.1081 I-0.0032 J-0.0038
X69.8681 Y14.2116 Z-0.1146 I0.0032 J0.0038
X69.8611 Y14.2188 Z-0.1286 I-0.0035 J0.0036
X69.8607 Y14.2121 Z-0.1352 I0.0035 J-0.0036
X69.8685 Y14.2183 Z-0.1492 I0.0039 J0.0031
X69.8619 Y14.2194 Z-0.1558 I-0.0039 J-0.0031
X69.8673 Y14.211 Z-0.1698 I0.0027 J-0.0042
X69.8691 Y14.2174 Z-0.1763 I-0.0027 J0.0042
X69.8601 Y14.213 Z-0.1904 I-0.0045 J-0.0022
X69.8664 Y14.2105 Z-0.1969 I0.0045 J0.0022
X69.8628 Y14.2199 Z-0.2109 I-0.0018 J0.0047
X69.8598 Y14.2139 Z-0.2175 I0.0018 J-0.0047
X69.8694 Y14.2165 I0.0048 J0.0013
X69.8598 Y14.2139 I-0.0048 J-0.0013
X69.8628 Y14.2122 I0.0024 J0.0006
G1 X69.8646 Y14.2152
G0 Z0.4
X69.4337 Y14.4688
Z0.1151
G1 Z0.05 F40.
X69.4362 Y14.4663
G3 X69.4387 Y14.4688 I0. J0.0025
X69.4287 Z0.036 I-0.005 J0.
X69.4332 Y14.4638 Z0.0294 I0.005 J0.
X69.4342 Y14.4738 Z0.0154 I0.0005 J0.005
X69.4332 Y14.4638 Z0.0014 I-0.0005 J-0.005
X69.4342 Y14.4738 Z-0.0126 I0.0005 J0.005
X69.4332 Y14.4638 Z-0.0266 I-0.0005 J-0.005
X69.4383 Y14.4668 Z-0.0323 I0.0005 J0.005
X69.4291 Y14.4708 Z-0.0463 I-0.0046 J0.002
X69.4313 Y14.4644 Z-0.0529 I0.0046 J-0.002
X69.4361 Y14.4732 Z-0.0669 I0.0024 J0.0044
X69.4296 Y14.4716 Z-0.0735 I-0.0024 J-0.0044
X69.4378 Y14.466 Z-0.0875 I0.0041 J-0.0028
X69.4369 Y14.4726 Z-0.094 I-0.0041 J0.0028
X69.4304 Y14.465 Z-0.1081 I-0.0032 J-0.0038
X69.4371 Y14.4652 Z-0.1146 I0.0032 J0.0038
X69.4302 Y14.4724 Z-0.1286 I-0.0035 J0.0036
X69.4371 Y14.4652 Z-0.1427 I0.0035 J-0.0036
X69.431 Y14.473 Z-0.1558 I-0.0035 J0.0036
X69.4363 Y14.4646 Z-0.1698 I0.0027 J-0.0042
X69.4381 Y14.471 Z-0.1763 I-0.0027 J0.0042
X69.4292 Y14.4666 Z-0.1904 I-0.0045 J-0.0022
X69.4381 Y14.471 Z-0.2044 I0.0045 J0.0022
X69.4288 Y14.4675 Z-0.2175 I-0.0045 J-0.0022
X69.4385 Y14.4701 I0.0048 J0.0013
X69.4288 Y14.4675 I-0.0048 J-0.0013
X69.4319 Y14.4657 I0.0024 J0.0006
G1 X69.4337 Y14.4688
G0 Z0.4
X67.0519 Y14.1633
Z0.13
G1 Z0.0649 F40.
G18 G2 X67.0668 Z0.05 I0.0149 K0.
G1 X67.0742
G17 G3 X67.086 Y14.175 I0. J0.0118
X67.039 Z0.0327 I-0.0235 J0.
X67.086 Z0.0154 I0.0235 J0.
X67.0429 Y14.1879 Z0.0014 I-0.0235 J0.
X67.0821 Y14.1621 Z-0.0159 I0.0196 J-0.0129
X67.0429 Y14.1879 Z-0.0332 I-0.0196 J0.0129
X67.0821 Y14.1621 Z-0.0505 I0.0196 J-0.0129
X67.0429 Y14.1879 Z-0.0678 I-0.0196 J0.0129
X67.0392 Y14.1723 Z-0.0716 I0.0196 J-0.0129
X67.0858 Y14.1777 Z-0.0889 I0.0233 J0.0027
X67.0666 Y14.1981 Z-0.0959 I-0.0233 J-0.0027
X67.0584 Y14.1519 Z-0.1132 I-0.0041 J-0.0231
X67.0666 Y14.1981 Z-0.1305 I0.0041 J0.0231
X67.0463 Y14.158 Z-0.1445 I-0.0041 J-0.0231
X67.0787 Y14.192 Z-0.1618 I0.0162 J0.0171
X67.0508 Y14.1954 Z-0.1689 I-0.0162 J-0.017
X67.0742 Y14.1546 Z-0.1861 I0.0117 J-0.0204
X67.0854 Y14.1803 Z-0.1932 I-0.0117 J0.0204
X67.0396 Y14.1697 Z-0.2105 I-0.0229 J-0.0053
X67.061 Y14.1515 Z-0.2175 I0.0229 J0.0053
X67.0639 Y14.1985 I0.0015 J0.0235
X67.061 Y14.1515 I-0.0015 J-0.0235
X67.0735 Y14.1625 I0.0007 J0.0117
G1 X67.074 Y14.17
X67.0741 Y14.1729 Z-0.2172
X67.0743 Y14.1757 Z-0.2164
X67.0745 Y14.1782 Z-0.215
X67.0746 Y14.1805 Z-0.2131
X67.0747 Y14.1823 Z-0.2109
X67.0748 Y14.1837 Z-0.2083
X67.0749 Y14.1846 Z-0.2055
Y14.1849 Z-0.2026
G0 Z0.4
X67.0519 Y14.9132
Z0.13
G1 Z0.0649 F40.
G18 G2 X67.0668 Z0.05 I0.0149 K0.
G1 X67.0742
G17 G3 X67.086 Y14.925 I0. J0.0118
X67.039 Z0.0327 I-0.0235 J0.
X67.086 Z0.0154 I0.0235 J0.
X67.0429 Y14.9379 Z0.0014 I-0.0235 J0.
X67.0821 Y14.9121 Z-0.0159 I0.0196 J-0.0129
X67.0429 Y14.9379 Z-0.0332 I-0.0196 J0.0129
X67.0718 Y14.9034 Z-0.0473 I0.0196 J-0.0129
X67.0532 Y14.9466 Z-0.0646 I-0.0093 J0.0216
X67.0718 Y14.9034 Z-0.0818 I0.0093 J-0.0216
X67.0666 Y14.9481 Z-0.0959 I-0.0093 J0.0216
X67.0584 Y14.9019 Z-0.1132 I-0.0041 J-0.0231
X67.0666 Y14.9481 Z-0.1305 I0.0041 J0.0231
X67.0463 Y14.908 Z-0.1445 I-0.0041 J-0.0231
X67.0787 Y14.942 Z-0.1618 I0.0162 J0.017
X67.0508 Y14.9454 Z-0.1689 I-0.0162 J-0.017
X67.0742 Y14.9046 Z-0.1861 I0.0117 J-0.0204
X67.0508 Y14.9454 Z-0.2034 I-0.0117 J0.0204
X67.061 Y14.9015 Z-0.2175 I0.0117 J-0.0204
X67.0639 Y14.9485 I0.0015 J0.0235
X67.061 Y14.9015 I-0.0015 J-0.0235
X67.0735 Y14.9125 I0.0007 J0.0117
G1 X67.074 Y14.92
X67.0741 Y14.9229 Z-0.2172
X67.0743 Y14.9257 Z-0.2164
X67.0745 Y14.9282 Z-0.215
X67.0746 Y14.9305 Z-0.2131
X67.0747 Y14.9323 Z-0.2109
X67.0748 Y14.9337 Z-0.2083
X67.0749 Y14.9346 Z-0.2055
Y14.9349 Z-0.2026
G0 Z0.4
X67.0519 Y15.6633
Z0.13
G1 Z0.0649 F40.
G18 G2 X67.0668 Z0.05 I0.0149 K0.
G1 X67.0742
G17 G3 X67.086 Y15.675 I0. J0.0117
X67.039 Z0.0327 I-0.0235 J0.
X67.086 Z0.0154 I0.0235 J0.
X67.0429 Y15.6879 Z0.0014 I-0.0235 J0.
X67.0821 Y15.6621 Z-0.0159 I0.0196 J-0.0129
X67.0429 Y15.6879 Z-0.0332 I-0.0196 J0.0129
X67.0718 Y15.6534 Z-0.0473 I0.0196 J-0.0129
X67.0532 Y15.6966 Z-0.0646 I-0.0093 J0.0216
X67.0392 Y15.6723 Z-0.0716 I0.0093 J-0.0216
X67.0858 Y15.6777 Z-0.0889 I0.0233 J0.0027
X67.0392 Y15.6723 Z-0.1062 I-0.0233 J-0.0027
X67.0858 Y15.6777 Z-0.1234 I0.0233 J0.0027
X67.0392 Y15.6723 Z-0.1407 I-0.0233 J-0.0027
X67.0463 Y15.658 Z-0.1445 I0.0233 J0.0027
X67.0787 Y15.692 Z-0.1618 I0.0162 J0.017
X67.0508 Y15.6954 Z-0.1689 I-0.0162 J-0.017
X67.0742 Y15.6546 Z-0.1861 I0.0117 J-0.0204
X67.0508 Y15.6954 Z-0.2034 I-0.0117 J0.0204
X67.061 Y15.6515 Z-0.2175 I0.0117 J-0.0204
X67.0639 Y15.6985 I0.0015 J0.0235
X67.061 Y15.6515 I-0.0015 J-0.0235
X67.0735 Y15.6625 I0.0007 J0.0117
G1 X67.074 Y15.67
X67.0741 Y15.6729 Z-0.2172
X67.0743 Y15.6757 Z-0.2164
X67.0745 Y15.6782 Z-0.215
X67.0746 Y15.6805 Z-0.2131
X67.0747 Y15.6823 Z-0.2109
X67.0748 Y15.6837 Z-0.2083
X67.0749 Y15.6846 Z-0.2055
Y15.6849 Z-0.2026
G0 Z0.6
(.3 CIRCULAR THROUGH HOLE)
M7
G0 X70.5254 Y7.9943
Z0.6
Z0.2
G1 Z0.1144 F13.333
G3 X70.5267 Y7.9939 Z0.1081 I0.0124 J0.0433 F55.
X70.5306 Y7.9931 Z0.103 I0.0111 J0.0436
X70.5362 Y7.9925 Z0.1 I0.0072 J0.0444
X70.5648 Y8.0015 Z0.0918 I0.0015 J0.045
X70.5108 Y8.0735 Z0.054 I-0.027 J0.036
X70.5648 Y8.0015 Z0.0161 I0.027 J-0.036
X70.5108 Y8.0735 Z-0.0218 I-0.027 J0.036
X70.5648 Y8.0015 Z-0.0597 I0.027 J-0.036
X70.5108 Y8.0735 Z-0.0976 I-0.027 J0.036
X70.4928 Y8.0375 Z-0.1087 I0.027 J-0.036
X70.5474 I0.0273 J0. F60.
X70.3928 I-0.0773 J0.
X70.6474 I0.1273 J0.
X70.2928 I-0.1773 J0.
X70.7474 I0.2273 J0.
X70.1928 I-0.2773 J0.
X70.8474 I0.3273 J0.
X70.0928 I-0.3773 J0.
X70.9474 I0.4273 J0.
X69.9928 I-0.4773 J0.
X70.9474 I0.4773 J0.
X70.9024 Y8.0825 Z-0.1239 I-0.045 J0. F55.
G1 X70.5378 Z-0.2023
G3 X70.4928 Y8.0375 Z-0.2175 I0. J-0.045
X70.5474 I0.0273 J0. F60.
X70.3928 I-0.0773 J0.
X70.6474 I0.1273 J0.
X70.2928 I-0.1773 J0.
X70.7474 I0.2273 J0.
X70.1928 I-0.2773 J0.
X70.8474 I0.3273 J0.
X70.0928 I-0.3773 J0.
X70.9474 I0.4273 J0.
X69.9928 I-0.4773 J0.
X70.9574 I0.4823 J0.
X69.9828 I-0.4873 J0.
X70.9574 I0.4873 J0.
X70.9563 Y8.0431 Z-0.2164 I-0.0149 J0.
X70.9538 Y8.0472 Z-0.2131 I-0.0138 J-0.0056
X70.9515 Y8.0494 Z-0.2083 I-0.0113 J-0.0097
X70.9505 Y8.0501 Z-0.2026 I-0.009 J-0.0119
G0 Z0.4
X71.4769 Y6.3731
Z0.2
G1 Z0.1144 F13.333
G3 X71.4783 Y6.3727 Z0.1081 I0.0124 J0.0433 F55.
X71.4821 Y6.3719 Z0.103 I0.0111 J0.0436
X71.4878 Y6.3714 Z0.1 I0.0072 J0.0444
X71.5163 Y6.3803 Z0.0918 I0.0015 J0.045
X71.4623 Y6.4523 Z0.054 I-0.027 J0.036
X71.5163 Y6.3803 Z0.0161 I0.027 J-0.036
X71.4623 Y6.4523 Z-0.0218 I-0.027 J0.036
X71.5163 Y6.3803 Z-0.0597 I0.027 J-0.036
X71.4623 Y6.4523 Z-0.0976 I-0.027 J0.036
X71.4443 Y6.4163 Z-0.1087 I0.027 J-0.036
X71.5305 I0.0431 J0. F60.
X71.3443 I-0.0931 J0.
X71.6305 I0.1431 J0.
X71.2443 I-0.1931 J0.
X71.7305 I0.2431 J0.
X71.1443 I-0.2931 J0.
X71.7305 I0.2931 J0.
X71.7223 Y6.4238 I-0.0074 J0.
G1 X71.538 Y6.4062
G2 X71.5298 Y6.4143 I-0.0008 J0.0074
G1 X71.5313 Y6.4305
G3 X71.5307 Y6.4341 I-0.0074 J0.0007
X71.5163 Y6.4523 Z-0.115 I-0.0413 J-0.0178 F55.
X71.4623 Y6.3803 Z-0.1529 I-0.027 J-0.036
X71.5163 Y6.4523 Z-0.1908 I0.027 J0.036
X71.4443 Y6.4163 Z-0.2175 I-0.027 J-0.036
X71.5305 I0.0431 J0. F60.
X71.3443 I-0.0931 J0.
X71.6305 I0.1431 J0.
X71.2443 I-0.1931 J0.
X71.7305 I0.2431 J0.
X71.1443 I-0.2931 J0.
X71.7405 I0.2981 J0.
X71.1343 I-0.3031 J0.
X71.7405 I0.3031 J0.
X71.7394 Y6.4219 Z-0.2164 I-0.0149 J0.
X71.7369 Y6.426 Z-0.2131 I-0.0138 J-0.0056
X71.7345 Y6.4282 Z-0.2083 I-0.0113 J-0.0097
X71.7336 Y6.4289 Z-0.2026 I-0.009 J-0.0119
G0 Z0.4
X69.7677 Y6.2512
Z0.2
G1 Z0.1144 F13.333
G3 X69.769 Y6.2508 Z0.1081 I0.0124 J0.0433 F55.
X69.7728 Y6.25 Z0.103 I0.0111 J0.0436
X69.7785 Y6.2495 Z0.1 I0.0072 J0.0444
X69.8071 Y6.2584 Z0.0918 I0.0015 J0.045
X69.7531 Y6.3304 Z0.054 I-0.027 J0.036
X69.8071 Y6.2584 Z0.0161 I0.027 J-0.036
X69.7531 Y6.3304 Z-0.0218 I-0.027 J0.036
X69.8071 Y6.2584 Z-0.0597 I0.027 J-0.036
X69.7531 Y6.3304 Z-0.0976 I-0.027 J0.036
X69.7351 Y6.2944 Z-0.1087 I0.027 J-0.036
X69.7929 I0.0289 J0. F60.
X69.6351 I-0.0789 J0.
X69.8929 I0.1289 J0.
X69.5351 I-0.1789 J0.
X69.9929 I0.2289 J0.
X69.4351 I-0.2789 J0.
X70.0929 I0.3289 J0.
X69.3351 I-0.3789 J0.
X70.0929 I0.3789 J0.
G2 X70.1363 Y6.364 I0.0774 J0.
G3 X70.1685 Y6.4394 I-0.0276 J0.0563
X69.2369 Y6.2944 I-0.4545 J-0.1452
X70.1911 I0.4771 J0.0002
X70.1685 Y6.4394 I-0.4771 J-0.0002
X70.158 Y6.4438 I-0.0071 J-0.0023
G1 X70.1079 Y6.4185
X69.8214 Y6.3122
G3 X69.8071 Y6.3304 Z-0.115 I-0.0414 J-0.0178 F55.
X69.7531 Y6.2584 Z-0.1529 I-0.027 J-0.036
X69.8071 Y6.3304 Z-0.1908 I0.027 J0.036
X69.7351 Y6.2944 Z-0.2175 I-0.027 J-0.036
X69.7929 I0.0289 J0. F60.
X69.6351 I-0.0789 J0.
X69.8929 I0.1289 J0.
X69.5351 I-0.1789 J0.
X69.9929 I0.2289 J0.
X69.4351 I-0.2789 J0.
X70.0929 I0.3289 J0.
X69.3351 I-0.3789 J0.
X70.0929 I0.3789 J0.
G2 X70.1363 Y6.364 I0.0774 J0.
G3 X70.1685 Y6.4394 I-0.0276 J0.0563
X69.2369 Y6.2944 I-0.4545 J-0.1452
X70.1911 I0.4771 J0.0002
X70.1685 Y6.4394 I-0.4771 J-0.0002
G2 X70.1709 Y6.448 I0.0077 J0.0025
G3 X70.1732 Y6.4567 I-0.0052 J0.006
X69.2269 Y6.2944 I-0.4592 J-0.1624
X70.2011 I0.4871 J0.0002
X70.1732 Y6.4567 I-0.4871 J-0.0002
X70.1703 Y6.4616 Z-0.2164 I-0.014 J-0.005
X70.1666 Y6.4646 Z-0.2131 I-0.0112 J-0.0099
X70.1637 Y6.4659 Z-0.2083 I-0.0074 J-0.0129
X70.1626 Y6.4662 Z-0.2026 I-0.0045 J-0.0142
G0 Z0.4
X69.6427 Y9.8998
Z0.2
G1 Z0.1144 F13.333
G3 X69.644 Y9.8994 Z0.1081 I0.0124 J0.0433 F55.
X69.6479 Y9.8987 Z0.103 I0.0111 J0.0436
X69.6536 Y9.8981 Z0.1 I0.0072 J0.0444
X69.6821 Y9.9071 Z0.0918 I0.0015 J0.045
X69.6281 Y9.9791 Z0.054 I-0.027 J0.036
X69.6821 Y9.9071 Z0.0161 I0.027 J-0.036
X69.6281 Y9.9791 Z-0.0218 I-0.027 J0.036
X69.6821 Y9.9071 Z-0.0597 I0.027 J-0.036
X69.6281 Y9.9791 Z-0.0976 I-0.027 J0.036
X69.6101 Y9.9431 Z-0.1087 I0.027 J-0.036
X69.6647 I0.0273 J0. F60.
X69.5101 I-0.0773 J0.
X69.7647 I0.1273 J0.
X69.4101 I-0.1773 J0.
X69.8647 I0.2273 J0.
X69.3101 I-0.2773 J0.
X69.9647 I0.3273 J0.
X69.2101 I-0.3773 J0.
X70.0647 I0.4273 J0.
X69.1101 I-0.4773 J0.
X70.0647 I0.4773 J0.
X70.0197 Y9.9881 Z-0.1239 I-0.045 J0. F55.
G1 X69.6551 Z-0.2023
G3 X69.6101 Y9.9431 Z-0.2175 I0. J-0.045
X69.6647 I0.0273 J0. F60.
X69.5101 I-0.0773 J0.
X69.7647 I0.1273 J0.
X69.4101 I-0.1773 J0.
X69.8647 I0.2273 J0.
X69.3101 I-0.2773 J0.
X69.9647 I0.3273 J0.
X69.2101 I-0.3773 J0.
X70.0647 I0.4273 J0.
X69.1101 I-0.4773 J0.
X70.0747 I0.4823 J0.
X69.1001 I-0.4873 J0.
X70.0747 I0.4873 J0.
X70.0736 Y9.9486 Z-0.2164 I-0.0149 J0.
X70.0711 Y9.9528 Z-0.2131 I-0.0138 J-0.0056
X70.0688 Y9.955 Z-0.2083 I-0.0113 J-0.0097
X70.0679 Y9.9556 Z-0.2026 I-0.009 J-0.0119
G0 Z0.4
X73.5472 Y9.5067
Z0.2
G1 Z0.1144 F13.333
G3 X73.5485 Y9.5063 Z0.1081 I0.0124 J0.0433 F55.
X73.5524 Y9.5055 Z0.103 I0.0111 J0.0436
X73.5581 Y9.505 Z0.1 I0.0072 J0.0444
X73.5866 Y9.514 Z0.0918 I0.0015 J0.045
X73.5326 Y9.586 Z0.054 I-0.027 J0.036
X73.5866 Y9.514 Z0.0161 I0.027 J-0.036
X73.5326 Y9.586 Z-0.0218 I-0.027 J0.036
X73.5866 Y9.514 Z-0.0597 I0.027 J-0.036
X73.5326 Y9.586 Z-0.0976 I-0.027 J0.036
X73.5146 Y9.55 Z-0.1087 I0.027 J-0.036
X73.5724 I0.0289 J0. F60.
X73.4146 I-0.0789 J0.
X73.6724 I0.1289 J0.
X73.3146 I-0.1789 J0.
X73.7724 I0.2289 J0.
X73.2146 I-0.2789 J0.
X73.8724 I0.3289 J0.
X73.1146 I-0.3789 J0.
X73.8724 I0.3789 J0.
G2 X73.9158 Y9.6195 I0.0774 J0.
G3 X73.948 Y9.6949 I-0.0276 J0.0563
X73.0164 Y9.55 I-0.4545 J-0.1452
X73.9706 I0.4771 J0.0002
X73.948 Y9.6949 I-0.4771 J-0.0002
X73.9375 Y9.6993 I-0.0071 J-0.0023
G1 X73.8875 Y9.674
X73.6009 Y9.5677
G3 X73.5866 Y9.586 Z-0.115 I-0.0414 J-0.0178 F55.
X73.5326 Y9.514 Z-0.1529 I-0.027 J-0.036
X73.5866 Y9.586 Z-0.1908 I0.027 J0.036
X73.5146 Y9.55 Z-0.2175 I-0.027 J-0.036
X73.5724 I0.0289 J0. F60.
X73.4146 I-0.0789 J0.
X73.6724 I0.1289 J0.
X73.3146 I-0.1789 J0.
X73.7724 I0.2289 J0.
X73.2146 I-0.2789 J0.
X73.8724 I0.3289 J0.
X73.1146 I-0.3789 J0.
X73.8724 I0.3789 J0.
G2 X73.9158 Y9.6195 I0.0774 J0.
G3 X73.948 Y9.6949 I-0.0276 J0.0563
X73.0164 Y9.55 I-0.4545 J-0.1452
X73.9706 I0.4771 J0.0002
X73.948 Y9.6949 I-0.4771 J-0.0002
G2 X73.9504 Y9.7035 I0.0077 J0.0025
G3 X73.9527 Y9.7122 I-0.0052 J0.006
X73.0064 Y9.55 I-0.4592 J-0.1624
X73.9806 I0.4871 J0.0002
X73.9527 Y9.7122 I-0.4871 J-0.0002
X73.9499 Y9.7171 Z-0.2164 I-0.014 J-0.005
X73.9461 Y9.7201 Z-0.2131 I-0.0112 J-0.0099
X73.9432 Y9.7214 Z-0.2083 I-0.0074 J-0.0129
X73.9421 Y9.7217 Z-0.2026 I-0.0045 J-0.0142
G0 Z0.4
X73.5612 Y7.4567
Z0.2
G1 Z0.1144 F13.333
G3 X73.5625 Y7.4564 Z0.1081 I0.0124 J0.0433 F55.
X73.5664 Y7.4556 Z0.103 I0.0111 J0.0436
X73.5721 Y7.455 Z0.1 I0.0072 J0.0444
X73.6006 Y7.464 Z0.0918 I0.0015 J0.045
X73.5466 Y7.536 Z0.054 I-0.027 J0.036
X73.6006 Y7.464 Z0.0161 I0.027 J-0.036
X73.5466 Y7.536 Z-0.0218 I-0.027 J0.036
X73.6006 Y7.464 Z-0.0597 I0.027 J-0.036
X73.5466 Y7.536 Z-0.0976 I-0.027 J0.036
X73.5286 Y7.5 Z-0.1087 I0.027 J-0.036
X73.5832 I0.0273 J0. F60.
X73.4286 I-0.0773 J0.
X73.6832 I0.1273 J0.
X73.3286 I-0.1773 J0.
X73.7832 I0.2273 J0.
X73.2286 I-0.2773 J0.
X73.8832 I0.3273 J0.
X73.1286 I-0.3773 J0.
X73.9832 I0.4273 J0.
X73.0286 I-0.4773 J0.
X73.9832 I0.4773 J0.
X73.9382 Y7.545 Z-0.1239 I-0.045 J0. F55.
G1 X73.5736 Z-0.2023
G3 X73.5286 Y7.5 Z-0.2175 I0. J-0.045
X73.5832 I0.0273 J0. F60.
X73.4286 I-0.0773 J0.
X73.6832 I0.1273 J0.
X73.3286 I-0.1773 J0.
X73.7832 I0.2273 J0.
X73.2286 I-0.2773 J0.
X73.8832 I0.3273 J0.
X73.1286 I-0.3773 J0.
X73.9832 I0.4273 J0.
X73.0286 I-0.4773 J0.
X73.9932 I0.4823 J0.
X73.0186 I-0.4873 J0.
X73.9932 I0.4873 J0.
X73.9921 Y7.5056 Z-0.2164 I-0.0149 J0.
X73.9896 Y7.5097 Z-0.2131 I-0.0138 J-0.0056
X73.9873 Y7.5119 Z-0.2083 I-0.0113 J-0.0097
X73.9864 Y7.5125 Z-0.2026 I-0.009 J-0.0119
G0 Z0.6
(SHAPE THROUGH HOLE)
M7
G0 X67.8288 Y9.7987
Z0.6
Z0.1
G3 X67.6995 Y9.7411 Z0.0608 I-0.0646 J-0.0288 F50.
X67.8115 Y9.7173 Z0.0373 I0.0646 J0.0288
Y9.8225 Z0.0164 I-0.0474 J0.0526
X67.7069 Y9.8115 Z-0.0045 I-0.0473 J-0.0526
X67.7287 Y9.7086 Z-0.0255 I0.0573 J-0.0416
X67.7995 Y9.8312 Z-0.0647 I0.0354 J0.0613
X67.6949 Y9.7846 Z-0.0882 I-0.0354 J-0.0613
X67.7567 Y9.6995 Z-0.1091 I0.0692 J-0.0147
X67.8349 Y9.7699 Z-0.13 I0.0074 J0.0704
X67.6933 I-0.0708 J0.
X67.8349 I0.0708 J0.
X67.684 Y9.893 I-0.0774 J0.0592 F60.
G1 X67.6757 Y9.8878
X67.6678 Y9.8821
X67.6602 Y9.8759
X67.6531 Y9.8692
X67.6464 Y9.862
X67.6402 Y9.8544
X67.6345 Y9.8465
X67.6293 Y9.8382
X67.6246 Y9.8296
X67.6205 Y9.8207
X67.617 Y9.8116
X67.6141 Y9.8022
X67.6117 Y9.7927
X67.61 Y9.7831
X67.6089 Y9.7733
X67.6085 Y9.7635
X67.6087 Y9.7538
X67.6094 Y9.744
X67.6109 Y9.7343
X67.6129 Y9.7247
X67.6156 Y9.7153
X67.6188 Y9.7061
X67.6226 Y9.6971
X67.627 Y9.6883
X67.632 Y9.6799
X67.6375 Y9.6718
X67.6435 Y9.664
X67.6499 Y9.6567
X67.6569 Y9.6498
X67.6642 Y9.6433
X67.672 Y9.6373
X67.6801 Y9.6319
X67.6886 Y9.627
X67.6974 Y9.6226
X67.7064 Y9.6188
X67.7156 Y9.6156
X67.7251 Y9.6129
X67.7346 Y9.6109
X67.7443 Y9.6096
X67.7541 Y9.6088
X67.7639 Y9.6087
X67.7737 Y9.6091
X67.7834 Y9.6103
X67.793 Y9.612
X67.8025 Y9.6143
X67.8119 Y9.6173
X67.821 Y9.6209
X67.8299 Y9.625
X67.8384 Y9.6297
X67.8467 Y9.6349
X67.8546 Y9.6406
X67.8622 Y9.6469
X67.8693 Y9.6536
X67.876 Y9.6608
X67.8822 Y9.6683
X67.8879 Y9.6763
X67.8931 Y9.6846
X67.8977 Y9.6932
X67.9018 Y9.7021
X67.9086 Y9.7108
X67.9149 Y9.7199
X67.9206 Y9.7293
X67.9258 Y9.739
X67.9304 Y9.749
X67.9345 Y9.7593
X67.938 Y9.7698
X67.9408 Y9.7804
X67.9431 Y9.7912
X67.9447 Y9.8021
X67.9457 Y9.8131
X67.9461 Y9.8242
X67.9459 Y9.8352
X67.945 Y9.8462
X67.9435 Y9.8571
X67.9414 Y9.8679
X67.9386 Y9.8786
X67.9353 Y9.8891
X67.9314 Y9.8995
X67.9269 Y9.9095
X67.9218 Y9.9193
X67.9162 Y9.9288
X67.91 Y9.938
X67.9033 Y9.9467
X67.8962 Y9.9551
X67.8885 Y9.9631
X67.8805 Y9.9706
X67.872 Y9.9777
X67.8631 Y9.9842
X67.8539 Y9.9903
X67.8443 Y9.9958
X67.8345 Y10.0007
X67.8243 Y10.0051
X67.814 Y10.0089
X67.8034 Y10.0121
X67.7927 Y10.0147
X67.7819 Y10.0167
X67.7709 Y10.0181
X67.7599 Y10.0188
X67.7489 Y10.0189
X67.7379 Y10.0184
X67.7269 Y10.0172
X67.716 Y10.0155
X67.7052 Y10.0131
X67.6946 Y10.0101
X67.6842 Y10.0065
X67.674 Y10.0023
X67.664 Y9.9975
X67.6544 Y9.9922
X67.645 Y9.9863
X67.636 Y9.98
X67.6274 Y9.9731
X67.6192 Y9.9657
X67.6114 Y9.9579
X67.6041 Y9.9496
X67.5948 Y9.9422
X67.5859 Y9.9343
X67.5773 Y9.926
X67.5693 Y9.9172
X67.5616 Y9.908
X67.5545 Y9.8985
X67.5478 Y9.8886
X67.5417 Y9.8784
X67.536 Y9.8679
X67.531 Y9.8571
X67.5264 Y9.8461
X67.5225 Y9.8349
X67.5191 Y9.8234
X67.5163 Y9.8118
X67.514 Y9.8001
X67.5124 Y9.7883
X67.5114 Y9.7764
X67.511 Y9.7645
X67.5112 Y9.7526
X67.512 Y9.7407
X67.5134 Y9.7289
X67.5154 Y9.7171
X67.518 Y9.7055
X67.5212 Y9.694
X67.5249 Y9.6827
X67.5293 Y9.6716
X67.5341 Y9.6607
X67.5396 Y9.6501
X67.5455 Y9.6398
X67.552 Y9.6298
X67.559 Y9.6201
X67.5665 Y9.6108
X67.5744 Y9.6019
X67.5827 Y9.5934
X67.5915 Y9.5854
X67.6007 Y9.5778
X67.6103 Y9.5706
X67.6202 Y9.564
X67.6304 Y9.5579
X67.6409 Y9.5523
X67.6517 Y9.5472
X67.6643 Y9.5426
X67.677 Y9.5385
X67.6899 Y9.535
X67.703 Y9.5321
X67.7162 Y9.5298
X67.7295 Y9.5281
X67.7428 Y9.527
X67.7562 Y9.5266
X67.7695 Y9.5268
X67.7829 Y9.5275
X67.7962 Y9.529
X67.8094 Y9.531
X67.8226 Y9.5336
X67.8356 Y9.5369
X67.8484 Y9.5407
X67.861 Y9.5451
X67.8734 Y9.5501
X67.8856 Y9.5557
X67.8975 Y9.5619
X67.9091 Y9.5685
X67.9203 Y9.5758
X67.9313 Y9.5835
X67.9418 Y9.5917
X67.952 Y9.6004
X67.9617 Y9.6096
X67.9711 Y9.6192
X67.9799 Y9.6292
X67.9883 Y9.6396
X67.9962 Y9.6504
X68.0036 Y9.6616
X68.0105 Y9.6731
X68.0168 Y9.6849
X68.0226 Y9.6969
X68.0278 Y9.7093
X68.0324 Y9.7218
X68.0364 Y9.7346
X68.0399 Y9.7475
X68.0427 Y9.7606
X68.045 Y9.7738
X68.0466 Y9.7871
X68.0476 Y9.8004
X68.048 Y9.8138
X68.0478 Y9.8272
X68.0469 Y9.8405
X68.0455 Y9.8538
X68.0434 Y9.867
X68.0407 Y9.8801
X68.0374 Y9.8931
X68.0335 Y9.9059
X68.029 Y9.9185
X68.0239 Y9.9309
X68.0183 Y9.9431
X68.0121 Y9.9549
X68.0054 Y9.9665
X67.9982 Y9.9777
X67.9904 Y9.9886
X67.9821 Y9.9992
X67.9734 Y10.0093
X67.9642 Y10.019
X67.9545 Y10.0283
X67.9445 Y10.0371
X67.934 Y10.0454
X67.9232 Y10.0533
X67.912 Y10.0606
X67.9005 Y10.0675
X67.8886 Y10.0737
X67.8766 Y10.0795
X67.8642 Y10.0846
X67.8516 Y10.0892
X67.8389 Y10.0932
X67.7961 Y10.1035
G3 X67.4185 Y9.7951 I-0.0479 J-0.3266
G2 X67.4375 Y9.6805 I-0.3375 J-0.1148
G3 X67.7977 Y9.4246 I0.3184 J0.0667
G1 X67.9348 Y9.4789
G3 X68.0623 Y10.0533 I-0.1774 J0.3407
G1 X67.8394 Y10.0951
G3 X67.8338 Y10.0659 I-0.0028 J-0.0146
X67.8515 Y10.0798 I0.0028 J0.0146
X67.8351 Y10.0953 I-0.0149 J0.0007
G1 X67.8121 Y10.0931
G3 X67.8151 Y10.0634 I0.0015 J-0.0148
X67.8235 Y10.0893 I-0.0015 J0.0148
X67.7961 Y10.1035 I-0.0415 J-0.0465 F50.
G1 X67.6112 Y10.1394 F60.
G3 X67.3516 Y9.9199 I0.0244 J-0.292
G2 X67.4185 Y9.7951 I-0.3049 J-0.2437
G3 X67.4299 Y9.7856 I0.014 J0.0052
X67.4501 Y9.7938 I0.0035 J0.0203
X67.3811 Y9.9185 I-0.0638 J0.0461
X67.366 Y9.916 I0.0052 J-0.0786 F50.
G2 X67.3516 Y9.9199 I-0.0038 J0.0144
G1 X67.3288 Y9.9443 F60.
G2 X67.4237 Y10.1757 I0.1747 J0.0636
G1 X67.6112 Y10.1394
G2 X67.6221 Y10.1292 I-0.0033 J-0.0145
X67.612 Y10.1013 I-0.0236 J-0.0072
X67.44 Y10.1513 I-0.0645 J0.0989
X67.4346 Y10.1656 I0.1074 J0.049 F50.
G3 X67.4237 Y10.1757 I-0.0142 J-0.0044
G1 X67.38 Y10.1842 F60.
G3 X67.3413 Y10.1823 I-0.0175 J-0.04
X67.3506 Y10.157 I0.0106 J-0.0104
G1 X67.3753 Y10.1548
G3 X67.3878 Y10.1597 I0.0013 J0.0148
X67.38 Y10.1842 I-0.0111 J0.0099 F50.
X67.2875 Y10.1335 I-0.004 J-0.1023 F60.
G1 X67.282 Y10.1311
X67.2767 Y10.1283
X67.2717 Y10.125
X67.2669 Y10.1212
X67.2626 Y10.117
X67.2586 Y10.1125
X67.2551 Y10.1076
X67.252 Y10.1024
X67.2494 Y10.097
X67.2473 Y10.0913
X67.2458 Y10.0855
X67.2461 Y10.0827
X67.247 Y10.08
X67.2484 Y10.0776
X67.2502 Y10.0754
X67.2524 Y10.0736
X67.2548 Y10.0723
X67.2575 Y10.0714
X67.2603 Y10.0711
X67.2631 Y10.0713
X67.2658 Y10.072
X67.2683 Y10.0732
G3 X67.2712 Y10.0755 I-0.0077 J0.0128
G1 X67.306 Y10.1103
G3 X67.3103 Y10.1216 I-0.0106 J0.0105
X67.2875 Y10.1335 I-0.0149 J-0.0008 F50.
X67.2458 Y10.1024 I0.0005 J-0.0443 F60.
G1 X67.2429 Y10.095
X67.2406 Y10.0874
X67.2389 Y10.0797
X67.2377 Y10.0719
X67.2372 Y10.064
Y10.0561
X67.2377 Y10.0482
X67.2389 Y10.0404
X67.2406 Y10.0327
X67.2429 Y10.0251
X67.2458 Y10.0178
X67.2492 Y10.0106
X67.2531 Y10.0038
X67.2575 Y9.9972
X67.2623 Y9.991
X67.2677 Y9.9851
X67.2734 Y9.9797
X67.2795 Y9.9747
X67.286 Y9.9701
X67.2928 Y9.9661
X67.2998 Y9.9625
X67.3071 Y9.9595
X67.3146 Y9.9571
X67.3223 Y9.9552
X67.3301 Y9.9538
Y9.9519
X67.3305 Y9.95
X67.3313 Y9.9481
X67.3325 Y9.9463
X67.3341 Y9.9448
X67.3361 Y9.9436
X67.3383 Y9.9427
X67.3407 Y9.9424
X67.3432 Y9.9425
X67.3458 Y9.9431
X67.3482 Y9.9443
X67.3504 Y9.946
X67.3522 Y9.9481
X67.3537 Y9.9507
X67.3545 Y9.9535 Z-0.1297
X67.3553 Y9.9562 Z-0.1289
X67.356 Y9.9586 Z-0.1275
X67.3566 Y9.9608 Z-0.1256
X67.3571 Y9.9626 Z-0.1234
X67.3575 Y9.9639 Z-0.1208
X67.3577 Y9.9647 Z-0.118
X67.3578 Y9.965 Z-0.1151
G0 Z-0.1002
X67.8311 Y9.455
G1 Z-0.1151 F50.
X67.831 Y9.4547 Z-0.118
X67.8305 Y9.4541 Z-0.1208
X67.8296 Y9.453 Z-0.1234
X67.8285 Y9.4515 Z-0.1256
X67.8271 Y9.4497 Z-0.1275
X67.8256 Y9.4477 Z-0.1289
X67.8239 Y9.4454 Z-0.1297
X67.8221 Y9.4431 Z-0.13
G2 X67.7978 Y9.424 I-0.0495 J0.0379
G1 X67.6805 Y9.3771 F60.
G2 X67.4018 Y9.5229 I-0.037 J0.2684
G3 X67.4375 Y9.6805 I-0.3413 J0.1601
G2 X67.4465 Y9.6923 I0.0148 J-0.0019
X67.5291 Y9.6236 I0.0233 J-0.0559
X67.4299 Y9.5316 I-0.1154 J0.025
X67.4147 Y9.5305 I-0.0163 J0.117 F50.
G3 X67.4018 Y9.5229 I0.0001 J-0.0149
G1 X67.3995 Y9.5185 F60.
X67.3856 Y9.4953
G3 X67.5044 Y9.3066 I0.1671 J-0.0266
G1 X67.6805 Y9.3771
G3 X67.6893 Y9.3891 I-0.006 J0.0136
X67.6728 Y9.4161 I-0.0257 J0.0028
X67.5158 Y9.3337 I-0.0422 J-0.1103
X67.5132 Y9.3186 I0.1148 J-0.0279 F50.
G2 X67.5044 Y9.3066 I-0.0148 J0.0016
G1 X67.4631 Y9.29 F60.
G2 X67.3023 Y9.3963 I-0.0286 J0.1315
G3 X67.3856 Y9.4953 I-0.1842 J0.2395
G2 X67.3989 Y9.5021 I0.0125 J-0.0081
X67.4316 Y9.4665 I-0.0017 J-0.0344
X67.3338 Y9.3928 I-0.0787 J0.0027
X67.3194 Y9.398 I0.0191 J0.0764 F50.
G3 X67.3045 Y9.3967 I-0.0063 J-0.0135
G1 X67.2875 Y9.384 F60.
G3 X67.3262 Y9.2353 I0.0836 J-0.0577
X67.3348 Y9.2518 I-0.006 J0.0136
G1 X67.3326 Y9.2624
X67.3105 Y9.3724
X67.3101 Y9.3744 F50.
G3 X67.2875 Y9.384 I-0.0146 J-0.0029
X67.2458 Y9.3528 I-0.0008 J-0.0425 F60.
G1 X67.2433 Y9.3436
X67.2413 Y9.3344
X67.24 Y9.325
X67.2392 Y9.3155
X67.239 Y9.306
X67.2393 Y9.2965
X67.2403 Y9.2871
X67.2418 Y9.2777
X67.2439 Y9.2685
X67.2466 Y9.2594
G3 X67.3006 Y9.225 I0.0858 J0.0751
G1 X67.4631 Y9.29
G3 X67.4661 Y9.3155 I-0.006 J0.0136
G1 X67.4638 Y9.3173 Z-0.1297
X67.4615 Y9.319 Z-0.1289
X67.4595 Y9.3206 Z-0.1275
X67.4577 Y9.3219 Z-0.1256
X67.4562 Y9.323 Z-0.1234
X67.4551 Y9.3239 Z-0.1208
X67.4544 Y9.3244 Z-0.118
X67.4542 Y9.3246 Z-0.1151
G0 Z-0.1002
X67.8893 Y9.4782
G1 Z-0.1151 F50.
X67.8895 Z-0.118
X67.8904 Y9.4781 Z-0.1208
X67.8917 Y9.4778 Z-0.1234
X67.8936 Y9.4776 Z-0.1256
X67.8958 Y9.4772 Z-0.1275
X67.8984 Y9.4768 Z-0.1289
X67.9011 Y9.4764 Z-0.1297
X67.904 Y9.4759 Z-0.13
G3 X67.9348 Y9.4789 I0.0097 J0.0616
G1 X68.1093 Y9.5487 F60.
G3 X68.2185 Y9.9585 I-0.2252 J0.2794
X68.188 Y10.0276 I-0.0717 J0.0096
G1 X68.0609 Y10.0522
G3 X68.047 Y10.0469 I-0.0023 J-0.0147
X68.0459 Y10.0304 I0.0111 J-0.009
X68.1633 Y10.0114 I0.067 J0.0414
X68.1741 Y10.0223 I-0.0504 J0.0605 F50.
G2 X68.188 Y10.0276 I0.0116 J-0.0094
G1 X68.2306 Y10.0193 F60.
X68.2406 Y10.0124
X68.2502 Y10.005
X68.2594 Y9.9971
X68.2683 Y9.9887
X68.2767 Y9.98
X68.2846 Y9.9708
X68.2922 Y9.9612
X68.2992 Y9.9513
X68.3057 Y9.941
X68.3117 Y9.9305
X68.3172 Y9.9196
X68.3221 Y9.9085
X68.3265 Y9.8972
X68.3303 Y9.8856
X68.3336 Y9.8739
X68.3362 Y9.8621
X68.3383 Y9.8501
X68.3397 Y9.838
X68.3406 Y9.8259
X68.3409 Y9.8137
X68.3405 Y9.8016
X68.3396 Y9.7895
X68.338 Y9.7774
X68.3359 Y9.7654
X68.3332 Y9.7536
X68.3299 Y9.7419
X68.326 Y9.7304
X68.3215 Y9.7191
X68.3165 Y9.708
X68.311 Y9.6972
G2 X68.2929 Y9.6222 I-0.0629 J-0.0245
G1 X68.1093 Y9.5487
G2 X68.0946 Y9.5513 I-0.0051 J0.014
X68.0893 Y9.5696 I0.0111 J0.0131
X68.2659 Y9.6339 I0.1128 J-0.0351
X68.2782 Y9.6248 I-0.0638 J-0.0994 F50.
G3 X68.2928 Y9.6222 I0.0096 J0.0114
G1 X68.3404 Y9.6412 F60.
X68.35 Y9.6491
X68.3592 Y9.6575
X68.3679 Y9.6663
X68.3762 Y9.6755
X68.384 Y9.6852
X68.3913 Y9.6952
X68.3981 Y9.7056
X68.4044 Y9.7163
X68.4101 Y9.7273
X68.4152 Y9.7386
X68.4198 Y9.7501
X68.4238 Y9.7619
X68.4272 Y9.7738
X68.4299 Y9.7859
X68.4321 Y9.7981
X68.4336 Y9.8105
X68.4345 Y9.8228
X68.4348 Y9.8352
X68.4344 Y9.8476
X68.4335 Y9.86
X68.4318 Y9.8723
X68.4296 Y9.8845
X68.4268 Y9.8966
X68.4233 Y9.9085
X68.4193 Y9.9202
X68.4147 Y9.9318
X68.4095 Y9.943
X68.4037 Y9.954
X68.3974 Y9.9647
X68.3959 Y9.984
X68.3945 Y9.9861
X68.3926 Y9.9876
X68.3903 Y9.9884
X68.2306 Y10.0193
G3 X68.2167 Y10.014 I-0.0023 J-0.0147
X68.2289 Y9.9533 I0.0312 J-0.0253
X68.366 Y9.9718 I0.0557 J0.1041
X68.3764 Y9.9831 I-0.0813 J0.0856 F50.
G2 X68.3903 Y9.9884 I0.0116 J-0.0094
G1 X68.4263 Y9.9814 F60.
G2 X68.5063 Y9.708 I-0.1044 J-0.179
G1 X68.5043 Y9.7068
X68.3404 Y9.6412
G2 X68.3258 Y9.6439 I-0.0051 J0.014
X68.3209 Y9.6924 I0.0226 J0.0268
X68.4773 Y9.7185 I0.0926 J-0.0733
X68.4896 Y9.7094 I-0.0638 J-0.0994 F50.
G3 X68.5043 Y9.7068 I0.0096 J0.0114
G1 X68.5459 Y9.7235 F60.
G3 X68.5844 Y9.9508 I-0.1079 J0.1352
G1 X68.4263 Y9.9814
G3 X68.4124 Y9.9761 I-0.0023 J-0.0147
X68.4257 Y9.9143 I0.0315 J-0.0255
X68.4787 Y9.9017 I0.0531 J0.1055
X68.5601 Y9.9342 I0. J0.1181
X68.5705 Y9.9454 I-0.0813 J0.0856 F50.
G2 X68.5844 Y9.9508 I0.0116 J-0.0094
G1 X68.6178 Y9.9443 F60.
X68.6258 Y9.9409
X68.6335 Y9.9369
X68.6409 Y9.9325
X68.648 Y9.9275
X68.6547 Y9.922
X68.661 Y9.9161
X68.6669 Y9.9098
X68.6724 Y9.9031
X68.6774 Y9.896
X68.6819 Y9.8886
X68.6858 Y9.8809
X68.6892 Y9.8729
X68.6921 Y9.8648
X68.6944 Y9.8564
X68.6961 Y9.8479
X68.6972 Y9.8393
X68.6978 Y9.8307
X68.6977 Y9.822
X68.697 Y9.8134
X68.6958 Y9.8048
X68.6939 Y9.7964
X68.6915 Y9.7881
X68.6885 Y9.7799
X68.5459 Y9.7235
G2 X68.5312 Y9.7261 I-0.0051 J0.014
X68.5369 Y9.7943 I0.027 J0.0321
X68.6608 Y9.792 I0.06 J-0.1017
X68.6731 Y9.7829 I-0.0638 J-0.0994 F50.
G3 X68.6877 Y9.7803 I0.0096 J0.0114
G1 X68.716 Y9.7916 F60.
G3 X68.7559 Y9.8378 I-0.0238 J0.0609
X68.7307 Y9.846 I-0.0147 J-0.0024
G1 X68.7255 Y9.8434
X68.7205 Y9.8403
X68.7158 Y9.8367
X68.7115 Y9.8327
X68.7075 Y9.8284
X68.704 Y9.8237
X68.7009 Y9.8187
X68.6983 Y9.8134
X68.6962 Y9.8079
X68.696 Y9.8051 F50.
X68.6964 Y9.8023
X68.6972 Y9.7997
X68.6986 Y9.7972
X68.7004 Y9.795
X68.7025 Y9.7932
X68.705 Y9.7919
X68.7077 Y9.791
X68.7105 Y9.7907
X68.7133 Y9.7909
X68.716 Y9.7916
G3 X68.7499 Y9.8627 I0.0069 J0.0404 F60.
G1 X68.7504 Y9.9016
X68.7496 Y9.9159
X68.7495 Y9.9176
X68.7494 Y9.9183
X68.7487 Y9.9189
X68.6178 Y9.9443
G3 X68.6036 Y9.9386 I-0.0023 J-0.0147
G1 X68.6027 Y9.9365 Z-0.1298
X68.6018 Y9.9344 Z-0.1293
X68.6009 Y9.9325 Z-0.1284
X68.6007 Y9.931 Z-0.1275
X68.6006 Y9.9296 Z-0.1264
X68.6009 Y9.9278 Z-0.1246
X68.6011 Y9.9264 Z-0.1225
X68.6013 Y9.9254 Z-0.1201
X68.6014 Y9.9247 Z-0.1177
X68.6015 Y9.9245 Z-0.1151
G0 Z0.4
X67.8037 Y14.7949
Z0.1
G3 X67.7037 Y14.8274 Z0.0791 I-0.0646 J-0.0288 F50.
X67.6818 Y14.7245 Z0.0582 I0.0354 J-0.0613
X67.7865 Y14.7135 Z0.0373 I0.0572 J0.0416
X67.7864 Y14.8187 Z0.0164 I-0.0474 J0.0526
X67.6818 Y14.8077 Z-0.0045 I-0.0473 J-0.0526
X67.7037 Y14.7048 Z-0.0255 I0.0573 J-0.0416
X67.7745 Y14.8274 Z-0.0647 I0.0354 J0.0613
X67.6699 Y14.7808 Z-0.0882 I-0.0354 J-0.0613
X67.7317 Y14.6957 Z-0.1091 I0.0692 J-0.0147
X67.8099 Y14.7661 Z-0.13 I0.0074 J0.0704
X67.6683 I-0.0708 J0.
X67.8099 I0.0708 J0.
X67.659 Y14.8892 I-0.0774 J0.0592 F60.
G1 X67.6507 Y14.884
X67.6427 Y14.8783
X67.6352 Y14.872
X67.628 Y14.8653
X67.6214 Y14.8582
X67.6151 Y14.8506
X67.6094 Y14.8427
X67.6042 Y14.8344
X67.5996 Y14.8258
X67.5955 Y14.8169
X67.5919 Y14.8077
X67.589 Y14.7984
X67.5867 Y14.7889
X67.585 Y14.7792
X67.5839 Y14.7695
X67.5834 Y14.7597
X67.5836 Y14.7499
X67.5844 Y14.7402
X67.5858 Y14.7305
X67.5879 Y14.7209
X67.5905 Y14.7115
X67.5938 Y14.7022
X67.5976 Y14.6932
X67.602 Y14.6845
X67.607 Y14.676
X67.6124 Y14.6679
X67.6184 Y14.6602
X67.6249 Y14.6528
X67.6318 Y14.6459
X67.6392 Y14.6395
X67.647 Y14.6335
X67.6551 Y14.6281
X67.6636 Y14.6231
X67.6723 Y14.6188
X67.6813 Y14.615
X67.6906 Y14.6117
X67.7 Y14.6091
X67.7096 Y14.6071
X67.7193 Y14.6057
X67.7291 Y14.605
X67.7388 Y14.6048
X67.7486 Y14.6053
X67.7583 Y14.6064
X67.768 Y14.6082
X67.7775 Y14.6105
X67.7868 Y14.6135
X67.7959 Y14.617
X67.8048 Y14.6212
X67.8134 Y14.6258
X67.8217 Y14.6311
X67.8296 Y14.6368
X67.8371 Y14.6431
X67.8443 Y14.6498
X67.8509 Y14.6569
X67.8572 Y14.6645
X67.8629 Y14.6725
X67.868 Y14.6808
X67.8727 Y14.6894
X67.8768 Y14.6983
X67.8836 Y14.707
X67.8898 Y14.7161
X67.8956 Y14.7255
X67.9008 Y14.7352
X67.9054 Y14.7452
X67.9095 Y14.7555
X67.9129 Y14.766
X67.9158 Y14.7766
X67.918 Y14.7874
X67.9197 Y14.7983
X67.9207 Y14.8093
X67.9211 Y14.8203
X67.9208 Y14.8314
X67.9199 Y14.8424
X67.9184 Y14.8533
X67.9163 Y14.8641
X67.9136 Y14.8748
X67.9103 Y14.8853
X67.9063 Y14.8956
X67.9018 Y14.9057
X67.8967 Y14.9155
X67.8911 Y14.925
X67.8849 Y14.9341
X67.8783 Y14.9429
X67.8711 Y14.9513
X67.8635 Y14.9593
X67.8554 Y14.9668
X67.8469 Y14.9739
X67.8381 Y14.9804
X67.8288 Y14.9865
X67.8193 Y14.992
X67.8094 Y14.9969
X67.7993 Y15.0013
X67.7889 Y15.0051
X67.7784 Y15.0083
X67.7677 Y15.0109
X67.7568 Y15.0129
X67.7459 Y15.0142
X67.7349 Y15.015
X67.7238 Y15.0151
X67.7128 Y15.0146
X67.7018 Y15.0134
X67.691 Y15.0116
X67.6802 Y15.0092
X67.6696 Y15.0062
X67.6592 Y15.0026
X67.6489 Y14.9985
X67.639 Y14.9937
X67.6293 Y14.9884
X67.62 Y14.9825
X67.611 Y14.9761
X67.6024 Y14.9692
X67.5942 Y14.9619
X67.5864 Y14.9541
X67.5791 Y14.9458
X67.5698 Y14.9384
X67.5608 Y14.9305
X67.5523 Y14.9221
X67.5442 Y14.9134
X67.5366 Y14.9042
X67.5294 Y14.8947
X67.5228 Y14.8848
X67.5166 Y14.8746
X67.511 Y14.8641
X67.5059 Y14.8533
X67.5014 Y14.8423
X67.4974 Y14.831
X67.494 Y14.8196
X67.4912 Y14.808
X67.489 Y14.7963
X67.4874 Y14.7845
X67.4864 Y14.7726
X67.486 Y14.7607
X67.4862 Y14.7488
X67.487 Y14.7369
X67.4884 Y14.7251
X67.4904 Y14.7133
X67.4929 Y14.7017
X67.4961 Y14.6902
X67.4999 Y14.6789
X67.5042 Y14.6678
X67.5091 Y14.6569
X67.5145 Y14.6463
X67.5205 Y14.636
X67.527 Y14.626
X67.534 Y14.6163
X67.5414 Y14.607
X67.5493 Y14.5981
X67.5577 Y14.5896
X67.5665 Y14.5815
X67.5757 Y14.5739
X67.5852 Y14.5668
X67.5951 Y14.5602
X67.6054 Y14.5541
X67.6159 Y14.5485
X67.6267 Y14.5434
X67.6392 Y14.5387
X67.6519 Y14.5346
X67.6647 Y14.531
X67.6778 Y14.5281
X67.6909 Y14.5257
X67.7041 Y14.524
X67.7174 Y14.5229
X67.7308 Y14.5224
X67.7441 Y14.5225
X67.7575 Y14.5233
X67.7708 Y14.5246
X67.784 Y14.5266
X67.7971 Y14.5292
X67.81 Y14.5324
X67.8228 Y14.5362
X67.8354 Y14.5405
X67.8478 Y14.5455
X67.86 Y14.551
X67.8719 Y14.5571
X67.8835 Y14.5637
X67.8947 Y14.5709
X67.9057 Y14.5785
X67.9162 Y14.5867
X67.9264 Y14.5953
X67.9362 Y14.6044
X67.9455 Y14.614
X67.9544 Y14.624
X67.9628 Y14.6343
X67.9707 Y14.6451
X67.9781 Y14.6562
X67.985 Y14.6676
X67.9913 Y14.6794
X67.9971 Y14.6914
X68.0024 Y14.7037
X68.007 Y14.7162
X68.0111 Y14.7289
X68.0146 Y14.7418
X68.0175 Y14.7548
X68.0197 Y14.7679
X68.0214 Y14.7812
X68.0225 Y14.7945
X68.0229 Y14.8078
X68.0227 Y14.8212
X68.0219 Y14.8345
X68.0205 Y14.8478
X68.0184 Y14.861
X68.0158 Y14.8741
X68.0126 Y14.887
X68.0087 Y14.8998
X68.0043 Y14.9124
X67.9993 Y14.9247
X67.9937 Y14.9369
X67.9876 Y14.9487
X67.9809 Y14.9603
X67.9737 Y14.9715
X67.966 Y14.9824
X67.9578 Y14.9929
X67.9491 Y15.0031
X67.9399 Y15.0128
X67.9303 Y15.0221
X67.9203 Y15.0309
X67.8423 Y15.0727
X67.8299 Y15.0782
X67.8173 Y15.0832
X67.8045 Y15.0876
X67.7915 Y15.0914
X67.7783 Y15.0946
X67.765 Y15.0973
X67.7517 Y15.0993
X67.7382 Y15.1008
X67.7247 Y15.1017
X67.7111 Y15.1019
X67.6976 Y15.1016
X67.6841 Y15.1007
X67.6706 Y15.0992
X67.6572 Y15.0971
X67.6439 Y15.0944
X67.6308 Y15.0912
X67.6178 Y15.0873
X67.605 Y15.0829
X67.5924 Y15.0779
X67.58 Y15.0724
X67.5679 Y15.0663
X67.5561 Y15.0597
X67.5445 Y15.0526
X67.5333 Y15.045
X67.5225 Y15.0369
X67.512 Y15.0284
X67.5019 Y15.0194
X67.4921 Y15.0099
X67.4829 Y15.
X67.474 Y14.9898
X67.4657 Y14.9791
X67.4578 Y14.9681
X67.4504 Y14.9567
X67.4435 Y14.9451
X67.4371 Y14.9331
G2 X67.4089 Y14.7836 I-0.3492 J-0.0115
G3 X67.6452 Y14.4319 I0.3126 J-0.0452
G1 X67.8654 Y14.4591
X67.8795 Y14.4643
X67.8933 Y14.4701
X67.9069 Y14.4763
X67.9202 Y14.4832
X67.9333 Y14.4905
X67.946 Y14.4984
X67.9584 Y14.5067
X67.9705 Y14.5156
X67.9822 Y14.5249
X67.9935 Y14.5347
X68.0045 Y14.545
X68.015 Y14.5556
X68.025 Y14.5667
X68.0347 Y14.5782
X68.0438 Y14.5901
X68.0525 Y14.6023
X68.0606 Y14.6148
X68.0683 Y14.6277
X68.0755 Y14.6408
X68.0821 Y14.6543
X68.0881 Y14.668
X68.0936 Y14.6819
X68.0986 Y14.696
X68.103 Y14.7103
X68.1068 Y14.7248
X68.11 Y14.7394
X68.1126 Y14.7542
X68.1147 Y14.769
X68.1161 Y14.7839
X68.117 Y14.7989
X68.1172 Y14.8138
X68.1169 Y14.8288
X68.1159 Y14.8437
X68.1144 Y14.8586
X68.1123 Y14.8735
X68.1095 Y14.8882
X68.1062 Y14.9028
X68.1023 Y14.9172
X68.0978 Y14.9315
X68.0928 Y14.9456
X67.9216 Y15.0324
G3 X67.9068 Y15.0311 I-0.0063 J-0.0135
X67.8978 Y15.004 I0.0137 J-0.0196
X68.0645 Y14.9362 I0.1122 J0.037
X68.0776 Y14.9442 I-0.0546 J0.1047 F50.
G2 X68.0925 Y14.9455 I0.0085 J-0.0122
G1 X68.1428 Y14.9199 F60.
G2 X68.124 Y14.5539 I-0.1996 J-0.1732
X68.082 Y14.486 I-0.0741 J-0.0011
G1 X67.8654 Y14.4591
G2 X67.8519 Y14.4654 I-0.0013 J0.0148
X67.8728 Y14.5442 I0.0435 J0.0306
X68.0591 Y14.5043 I0.0669 J-0.1426
X68.0685 Y14.4923 I-0.1194 J-0.1027 F50.
G3 X68.082 Y14.486 I0.0122 J0.0086
G1 X68.1428 Y14.4935 F60.
G3 X68.3022 Y14.7961 I-0.114 J0.2534
G1 X68.3041 Y14.8005
X68.3054 Y14.805
X68.3062 Y14.8097
X68.3063 Y14.8144
X68.306 Y14.8191
X68.305 Y14.8238
X68.3035 Y14.8283
X68.3015 Y14.8326
X68.299 Y14.8366
X68.2961 Y14.8402
X68.2927 Y14.8435
X68.1428 Y14.9199
G3 X68.128 Y14.9186 I-0.0063 J-0.0135
X68.1209 Y14.8617 I0.0221 J-0.0316
X68.2648 Y14.8344 I0.0893 J0.0773
X68.2779 Y14.8423 I-0.0546 J0.1047 F50.
G2 X68.2927 Y14.8436 I0.0085 J-0.0122
G1 X68.3277 Y14.8258 F60.
X68.3355 Y14.8171
X68.3428 Y14.8081
X68.3496 Y14.7986
X68.356 Y14.7888
X68.3617 Y14.7787
X68.367 Y14.7682
X68.3716 Y14.7575
X68.3757 Y14.7466
X68.3792 Y14.7355
X68.3821 Y14.7242
X68.3844 Y14.7128
X68.386 Y14.7012
X68.3871 Y14.6896
X68.3875 Y14.6779
X68.3873 Y14.6663
X68.3865 Y14.6546
X68.3851 Y14.6431
X68.383 Y14.6316
X68.3804 Y14.6202
X68.3771 Y14.609
X68.3732 Y14.598
X68.3688 Y14.5873
X68.3638 Y14.5767
X68.3582 Y14.5665
X68.3521 Y14.5565
X68.3455 Y14.547
X68.3384 Y14.5377
X68.3308 Y14.5289
X68.3227 Y14.5205
X68.3239 Y14.5162
X68.3218 Y14.5157
X68.1428 Y14.4935
G2 X68.1293 Y14.4998 I-0.0013 J0.0148
X68.1348 Y14.5436 I0.0269 J0.0189
X68.2987 Y14.5339 I0.0769 J-0.0896
X68.3083 Y14.522 I-0.087 J-0.0799 F50.
G3 X68.3218 Y14.5157 I0.0122 J0.0086
G1 X68.3635 Y14.5209 F60.
G3 X68.4729 Y14.752 I-0.0732 J0.1761
G1 X68.3277 Y14.8258
G3 X68.3129 Y14.8245 I-0.0063 J-0.0135
X68.2958 Y14.7917 I0.023 J-0.0329
G1 Y14.7916
G3 X68.3079 Y14.7629 I0.0401 J0.
X68.445 Y14.7427 I0.0825 J0.0845
X68.4581 Y14.7507 I-0.0546 J0.1047 F50.
G2 X68.4729 Y14.752 I0.0085 J-0.0122
G1 X68.5074 Y14.7344 F60.
G2 X68.5265 Y14.5406 I-0.0908 J-0.1068
G1 X68.3635 Y14.5209
G2 X68.35 Y14.5271 I-0.0013 J0.0148
X68.3657 Y14.5862 I0.0327 J0.023
X68.5029 Y14.5592 I0.0502 J-0.1069
X68.5125 Y14.5473 I-0.087 J-0.0799 F50.
G3 X68.526 Y14.541 I0.0122 J0.0086
G1 X68.5589 Y14.5451 F60.
G3 X68.6352 Y14.6706 I-0.0281 J0.103
G1 X68.5074 Y14.7344
G3 X68.4871 Y14.7158 I-0.0063 J-0.0135
X68.4992 Y14.6972 I0.0468 J0.0171
X68.6036 Y14.6656 I0.0825 J0.0845
X68.6221 Y14.6707 I-0.022 J0.1161 F50.
G2 X68.6335 Y14.6702 I0.0051 J-0.014
G1 X68.6587 Y14.6574 F60.
G2 X68.6847 Y14.5594 I-0.0432 J-0.0639
G1 X68.5589 Y14.5451
G2 X68.5477 Y14.5711 I-0.0013 J0.0148
G1 X68.6324 Y14.646
X68.6426 Y14.6551 F50.
G2 X68.6587 Y14.6574 I0.0099 J-0.0112
G1 X68.7207 Y14.6259 F60.
G2 X68.7471 Y14.5684 I-0.0124 J-0.0405
G1 X68.6827 Y14.5604
G2 X68.6666 Y14.5739 I-0.0013 J0.0148
X68.6803 Y14.59 I0.0147 J0.0013
X68.7201 Y14.5822 I0.0054 J-0.0786
X68.7362 Y14.5718 I-0.0345 J-0.0708 F50.
G3 X68.7471 Y14.5684 I0.0096 J0.0114
G1 X68.7588 Y14.5698 F60.
X68.7647 Y14.5709
X68.7702 Y14.5734
X68.775 Y14.5769
X68.7795 Y14.5815
X68.7818 Y14.5846
X68.7833 Y14.5888
X68.7823 Y14.5931
X68.7791 Y14.5962
G3 X68.7545 Y14.5991 I-0.0166 J-0.0357
X68.744 Y14.5907 I0.003 J-0.0145
X68.7588 Y14.5698 I0.0135 J-0.0062 F50.
G1 X68.79 Y14.5737 F60.
X68.7959 Y14.5747
X68.7989 Y14.5773
X68.8 Y14.5811
X68.799 Y14.5849
X68.7961 Y14.5875
X68.7939 Y14.5886
X68.7926 Y14.5891 F50.
G3 X68.786 Y14.5743 I-0.0033 J-0.0074
X68.79 Y14.5737 I0.0033 J0.0074
G1 X68.8032 Y14.5753 F60.
X68.8049 Y14.5755
X68.8063 Y14.5757
X68.8092 Y14.5762
X68.8103 Y14.5778
X68.8102 Y14.5797
X68.8089 Y14.581
X68.8072 Y14.5818 F50.
X68.8028 Y14.5789
X68.8063 Y14.5757
X68.812 Y14.5764 F60.
X68.8131 Y14.5766
X68.8143 Y14.5767
X68.8156 Y14.5769
X68.816 Y14.5771
X68.8164 Y14.5772
X68.8145 Y14.5781 F50.
X68.8135 Y14.5775
X68.8143 Y14.5767
X68.8156 Y14.5769 F60.
X68.8164 Y14.5772
X68.7207 Y14.6259
G3 X68.6995 Y14.6114 I-0.0063 J-0.0135
G1 X68.6997 Y14.6085 Z-0.1297
X68.6999 Y14.6057 Z-0.1289
X68.7001 Y14.6031 Z-0.1275
X68.7002 Y14.6009 Z-0.1256
X68.7004 Y14.599 Z-0.1234
X68.7005 Y14.5977 Z-0.1208
Y14.5968 Z-0.118
Y14.5965 Z-0.1151
G0 Z-0.1002
X67.6854 Y14.4533
G1 Z-0.1151 F50.
X67.6852 Y14.4531 Z-0.118
X67.6845 Y14.4526 Z-0.1208
X67.6834 Y14.4518 Z-0.1234
X67.6819 Y14.4506 Z-0.1256
X67.6802 Y14.4492 Z-0.1275
X67.6781 Y14.4477 Z-0.1289
X67.6759 Y14.4459 Z-0.1297
X67.6736 Y14.4442 Z-0.13
G2 X67.6452 Y14.4319 I-0.0382 J0.0492
G1 X67.5418 Y14.4191 F60.
G2 X67.3172 Y14.6508 I0.0399 J0.2634
G3 X67.4089 Y14.7836 I-0.2864 J0.2956
G2 X67.4379 Y14.7792 I0.0141 J-0.0048
G3 X67.4541 Y14.7649 I0.0149 J0.0004
X67.4675 Y14.782 I-0.0014 J0.0148
G1 X67.4495 Y14.898
X67.4487 Y14.9011
X67.4472 Y14.904
G2 X67.4371 Y14.9332 I0.0519 J0.0344 F50.
G1 X67.437 Y14.9352 F60.
X67.4319 Y14.9815
X67.4289 Y15.0046
G2 X67.6211 Y15.1853 I0.2238 J-0.0456
G1 X67.8423 Y15.0727
G2 X67.85 Y15.06 I-0.0072 J-0.013
X67.8196 Y15.0216 I-0.0385 J-0.0007
X67.6299 Y15.1572 I-0.0334 J0.1539
X67.6288 Y15.1725 I0.1564 J0.0183 F50.
G3 X67.6211 Y15.1853 I-0.0149 J-0.0003
G1 X67.5666 Y15.213 F60.
X67.557 Y15.2155
X67.5473 Y15.2174
X67.5375 Y15.2187
X67.5276 Y15.2193
X67.5177 Y15.2194
X67.5078 Y15.2189
X67.4979 Y15.2178
X67.4882 Y15.2161
X67.4785 Y15.2138
X67.4691 Y15.2109
X67.4598 Y15.2074
X67.4507 Y15.2034
X67.4419 Y15.1988
X67.4334 Y15.1937
X67.4252 Y15.1881
X67.4174 Y15.182
X67.41 Y15.1755
X67.403 Y15.1685
X67.3964 Y15.1611
X67.3903 Y15.1533
X67.3847 Y15.1451
X67.3795 Y15.1367
X67.3749 Y15.1279
G2 X67.4286 Y15.0046 I-0.2456 J-0.1802
G1 X67.4296 Y15.0022
X67.4311 Y15.
X67.4329 Y14.998
X67.435 Y14.9965
X67.4373 Y14.9953
X67.4398 Y14.9945
G3 X67.4641 Y15.0059 I0.0048 J0.0213
X67.4052 Y15.1195 I-0.0702 J0.0356
X67.39 Y15.1202 I-0.0114 J-0.0779 F50.
G2 X67.3767 Y15.127 I-0.0007 J0.0149
G1 X67.3668 Y15.1435 F60.
X67.3643 Y15.1472
G2 X67.4284 Y15.284 I0.098 J0.0375
G1 X67.5666 Y15.213
G2 X67.5743 Y15.2002 I-0.0072 J-0.013
X67.5207 Y15.1595 I-0.0417 J-0.0008
X67.4377 Y15.2551 I0.0338 J0.1132
X67.4364 Y15.2704 I0.1168 J0.0175 F50.
G3 X67.4287 Y15.2831 I-0.0149 J-0.0003
G1 X67.4031 Y15.2962 F60.
G3 X67.2829 Y15.2251 I-0.0293 J-0.0877
G1 X67.2855 Y15.2235
X67.2884 Y15.2223
X67.2913 Y15.2218
X67.2943 Y15.2219
X67.2972 Y15.2225
X67.2998 Y15.2236
X67.3146 Y15.2302
X67.402 Y15.2695
X67.4038 Y15.2705
G3 X67.4031 Y15.2962 I-0.0079 J0.0126 F50.
G1 X67.3391 Y15.3287 F60.
G3 X67.2448 Y15.3109 I-0.0343 J-0.0771
G1 X67.2451 Y15.3079
X67.2459 Y15.3051
X67.2472 Y15.3025
X67.249 Y15.3002
X67.2512 Y15.2983
X67.2536 Y15.2969
X67.2563 Y15.2959
X67.259 Y15.2955
X67.2618
X67.2687 Y15.296
G3 X67.3398 Y15.3031 I0.025 J0.1103
X67.3391 Y15.3287 I-0.0079 J0.0126 F50.
X67.2709 Y15.3628 I-0.1113 J-0.1375 F60.
G1 X67.2666 Y15.3617
X67.2623 Y15.3601
X67.2584 Y15.358
X67.2547 Y15.3555
X67.2513 Y15.3524
X67.2484 Y15.349
X67.2459 Y15.3453
G3 X67.2469 Y15.2517 I0.114 J-0.0456
G2 X67.3643 Y15.1472 I-0.1855 J-0.3267
G3 X67.3899 Y15.1497 I0.012 J0.0088
G1 X67.3911 Y15.1523 Z-0.1297
X67.3923 Y15.1548 Z-0.1289
X67.3934 Y15.1572 Z-0.1275
X67.3943 Y15.1592 Z-0.1256
X67.3951 Y15.1609 Z-0.1234
X67.3957 Y15.1621 Z-0.1208
X67.3961 Y15.1629 Z-0.118
X67.3962 Y15.1632 Z-0.1151
G0 Z0.4
X67.3583 Y14.6704
Z-0.1002
G1 Z-0.1151 F50.
X67.358 Y14.6703 Z-0.118
X67.3572 Y14.6701 Z-0.1208
X67.3559 Y14.6697 Z-0.1234
X67.3541 Y14.6692 Z-0.1256
X67.3519 Y14.6686 Z-0.1275
X67.3495 Y14.6679 Z-0.1289
X67.3468 Y14.6672 Z-0.1297
X67.344 Y14.6664 Z-0.13
G3 X67.3172 Y14.6508 I0.017 J-0.06
G1 X67.3107 Y14.6439 F60.
X67.2987 Y14.6343
G3 X67.3001 Y14.4638 I0.1042 J-0.0844
X67.3233 Y14.4764 I0.0083 J0.0123
G1 X67.3216 Y14.6219
G3 X67.2987 Y14.6343 I-0.0149 J-0.0002 F50.
X67.2462 Y14.5973 I0.0799 J-0.1692 F60.
G1 X67.2441 Y14.5868
X67.2426 Y14.5763
X67.2416 Y14.5657
X67.2411 Y14.555
Y14.5444
X67.2417 Y14.5338
X67.2427 Y14.5232
X67.2443 Y14.5126
X67.2463 Y14.5022
G2 X67.3664 Y14.3967 I-0.2379 J-0.3916
G1 X67.5418 Y14.4191
G3 X67.5535 Y14.4288 I-0.0024 J0.0147
G1 X67.554 Y14.4313 Z-0.1298
X67.5544 Y14.4338 Z-0.1291
X67.5538 Y14.4363 Z-0.1279
X67.5533 Y14.4385 Z-0.1262
X67.5528 Y14.4403 Z-0.1242
X67.5521 Y14.4415 Z-0.1221
X67.5516 Y14.4423 Z-0.1199
X67.5513 Y14.4428 Z-0.1175
X67.5512 Y14.4429 Z-0.1151
G0 Z0.4
X68.6259 Y9.0847
Z0.1
G3 X68.5258 Y9.1172 Z0.0791 I-0.0646 J-0.0288 F50.
X68.504 Y9.0143 Z0.0582 I0.0354 J-0.0613
X68.6185 Y9.0975 Z0.019 I0.0572 J0.0416
X68.504 Z-0.0045 I-0.0572 J-0.0416
X68.5259 Y8.9946 Z-0.0255 I0.0573 J-0.0416
X68.5966 Y9.1172 Z-0.0647 I0.0354 J0.0613
X68.492 Y9.0706 Z-0.0882 I-0.0354 J-0.0613
X68.5539 Y8.9855 Z-0.1091 I0.0692 J-0.0147
X68.632 Y9.0559 Z-0.13 I0.0074 J0.0704
X68.4905 I-0.0708 J0.
X68.632 I0.0708 J0.
X68.4811 Y9.179 I-0.0774 J0.0592 F60.
G1 X68.4729 Y9.1738
X68.4649 Y9.1681
X68.4574 Y9.1618
X68.4502 Y9.1551
X68.4435 Y9.148
X68.4373 Y9.1404
X68.4316 Y9.1325
X68.4264 Y9.1242
X68.4217 Y9.1156
X68.4176 Y9.1067
X68.4141 Y9.0975
X68.4112 Y9.0882
X68.4089 Y9.0787
X68.4072 Y9.069
X68.4061 Y9.0593
X68.4056 Y9.0495
X68.4058 Y9.0397
X68.4066 Y9.03
X68.408 Y9.0203
X68.41 Y9.0107
X68.4127 Y9.0013
X68.4159 Y8.992
X68.4198 Y8.983
X68.4242 Y8.9743
X68.4291 Y8.9658
X68.4346 Y8.9577
X68.4406 Y8.95
X68.4471 Y8.9426
X68.454 Y8.9357
X68.4614 Y8.9293
X68.4691 Y8.9233
X68.4773 Y8.9179
X68.4857 Y8.9129
X68.4945 Y8.9086
X68.5035 Y8.9048
X68.5128 Y8.9015
X68.5222 Y8.8989
X68.5318 Y8.8969
X68.5415 Y8.8955
X68.5512 Y8.8948
X68.561 Y8.8946
X68.5708 Y8.8951
X68.5805 Y8.8962
X68.5902 Y8.898
X68.5997 Y8.9003
X68.609 Y8.9033
X68.6181 Y8.9068
X68.627 Y8.911
X68.6356 Y8.9156
X68.6439 Y8.9209
X68.6518 Y8.9266
X68.6593 Y8.9329
X68.6665 Y8.9396
X68.6731 Y8.9467
X68.6793 Y8.9543
X68.685 Y8.9623
X68.6902 Y8.9706
X68.6949 Y8.9792
X68.699 Y8.9881
X68.7057 Y8.9968
X68.712 Y9.0059
X68.7177 Y9.0153
X68.7229 Y9.025
X68.7276 Y9.035
X68.7316 Y9.0453
X68.7351 Y9.0558
X68.738 Y9.0664
X68.7402 Y9.0772
X68.7419 Y9.0881
X68.7429 Y9.0991
X68.7432 Y9.1101
X68.743 Y9.1212
X68.7421 Y9.1322
X68.7406 Y9.1431
X68.7385 Y9.1539
X68.7358 Y9.1646
X68.7324 Y9.1751
X68.7285 Y9.1854
X68.724 Y9.1955
X68.7189 Y9.2053
X68.7133 Y9.2148
X68.7071 Y9.2239
X68.7005 Y9.2327
X68.6933 Y9.2411
X68.6857 Y9.2491
X68.6776 Y9.2566
X68.6691 Y9.2637
X68.6602 Y9.2702
X68.651 Y9.2763
X68.6415 Y9.2818
X68.6316 Y9.2867
X68.6215 Y9.2911
X68.6111 Y9.2949
X68.6006 Y9.2981
X68.5898 Y9.3007
X68.579 Y9.3027
X68.568 Y9.304
X68.557 Y9.3048
X68.546 Y9.3049
X68.535 Y9.3044
X68.524 Y9.3032
X68.5131 Y9.3014
X68.5024 Y9.299
X68.4918 Y9.296
X68.4813 Y9.2924
X68.4711 Y9.2883
X68.4612 Y9.2835
X68.4515 Y9.2782
X68.4422 Y9.2723
X68.4332 Y9.2659
X68.4246 Y9.2591
X68.4164 Y9.2517
X68.4086 Y9.2439
X68.4013 Y9.2356
X68.3919 Y9.2282
X68.383 Y9.2203
X68.3745 Y9.2119
X68.3664 Y9.2032
X68.3588 Y9.194
X68.3516 Y9.1845
X68.345 Y9.1746
X68.3388 Y9.1644
X68.3332 Y9.1539
X68.3281 Y9.1431
X68.3236 Y9.1321
X68.3196 Y9.1208
X68.3162 Y9.1094
X68.3134 Y9.0978
X68.3112 Y9.0861
X68.3096 Y9.0743
X68.3085 Y9.0624
X68.3081 Y9.0505
X68.3083 Y9.0386
X68.3091 Y9.0267
X68.3105 Y9.0149
X68.3125 Y9.0031
X68.3151 Y8.9915
X68.3183 Y8.98
X68.3221 Y8.9687
X68.3264 Y8.9576
X68.3313 Y8.9467
X68.3367 Y8.9361
X68.3427 Y8.9258
X68.3492 Y8.9158
X68.3561 Y8.9061
X68.3636 Y8.8968
X68.3715 Y8.8879
X68.3799 Y8.8794
X68.3887 Y8.8713
X68.3979 Y8.8637
X68.4074 Y8.8566
X68.4173 Y8.85
X68.4275 Y8.8439
X68.4381 Y8.8383
X68.4489 Y8.8332
X68.4615 Y8.8285
X68.4743 Y8.8244
X68.4873 Y8.8209
X68.5005 Y8.818
X68.5137 Y8.8157
X68.5271 Y8.814
X68.5405 Y8.8129
X68.554 Y8.8125
X68.5675 Y8.8127
X68.5809 Y8.8136
X68.5943 Y8.815
X68.6076 Y8.8171
X68.6208 Y8.8198
X68.6339 Y8.8231
X68.6468 Y8.827
X68.6595 Y8.8316
X68.6719 Y8.8367
X68.6841 Y8.8423
X68.6961 Y8.8486
X68.7077 Y8.8554
X68.719 Y8.8627
X68.73 Y8.8705
X68.7405 Y8.8789
X68.7507 Y8.8877
X68.7605 Y8.897
X68.7698 Y8.9068
X68.7786 Y8.9169
X68.787 Y8.9275
X68.7948 Y8.9384
X68.8021 Y8.9497
X68.8089 Y8.9614
X68.8152 Y8.9733
X68.8209 Y8.9855
X68.826 Y8.998
X68.8305 Y9.0106
X68.8345 Y9.0235
X68.8378 Y9.0366
X68.8405 Y9.0498
X68.8426 Y9.0631
X68.8441 Y9.0765
X68.8449 Y9.0899
X68.8451 Y9.1034
X68.8447 Y9.1169
X68.8437 Y9.1303
X68.842 Y9.1436
X68.8397 Y9.1569
X68.8368 Y9.1701
X68.8333 Y9.1831
X68.8292 Y9.1959
X68.8245 Y9.2085
X68.8192 Y9.2209
X68.8134 Y9.2331
X68.8069 Y9.2449
X68.8 Y9.2564
X68.7925 Y9.2676
X68.7845 Y9.2784
X68.776 Y9.2889
X68.767 Y9.2989
X68.7575 Y9.3085
X68.7477 Y9.3177
X68.7374 Y9.3264
X68.7267 Y9.3346
X68.7156 Y9.3423
X68.7042 Y9.3494
X68.6925 Y9.3561
X68.6805 Y9.3621
X68.6682 Y9.3676
X68.6556 Y9.3726
X68.3142 Y9.236
X68.3044 Y9.2279
X68.2949 Y9.2193
X68.2859 Y9.2103
X68.2773 Y9.2009
X68.2692 Y9.1911
X68.2615 Y9.1809
X68.2544 Y9.1703
X68.2478 Y9.1594
X68.2417 Y9.1482
X68.2362 Y9.1367
X68.2312 Y9.125
X68.2268 Y9.113
X68.223 Y9.1009
X68.2197 Y9.0885
X68.2171 Y9.0761
X68.215 Y9.0635
X68.2136 Y9.0508
X68.2128 Y9.0381
X68.2126 Y9.0254
X68.213 Y9.0126
X68.214 Y8.9999
X68.2157 Y8.9873
X68.2179 Y8.9747
X68.2208 Y8.9623
X68.2242 Y8.95
X68.2282 Y8.938
X68.2328 Y8.9261
X68.238 Y8.9144
X68.2437 Y8.903
X68.25 Y8.8919
X68.2568 Y8.8812
X68.2641 Y8.8707
X68.2719 Y8.8606
X68.2802 Y8.851
X68.2889 Y8.8417
X68.2981 Y8.8328
X68.3077 Y8.8244
X68.3177 Y8.8165
X68.328 Y8.8091
X68.327 Y8.7988
X68.3285 Y8.7978
X68.3303 Y8.7971
X68.3321 Y8.7969
X68.6513
G3 X68.7093 Y8.7949 I0.0311 J0.0625
G1 X68.9009 Y9.1249
G3 X68.7703 Y9.4185 I-0.2527 J0.0634
G1 X68.6557 Y9.3727
G3 X68.6469 Y9.3606 I0.006 J-0.0136
X68.6609 Y9.3396 I0.0196 J-0.0021
X68.7584 Y9.3915 I0.0223 J0.0755
X68.7615 Y9.4065 I-0.0751 J0.0235 F50.
G2 X68.7703 Y9.4185 I0.0148 J-0.0016
G1 X68.8027 Y9.4315 F60.
G2 X68.9921 Y9.2819 I0.013 J-0.1782
G1 X68.9009 Y9.1249
G2 X68.8878 Y9.118 I-0.0126 J0.0079
X68.8569 Y9.1475 I0.0012 J0.0321
X68.9636 Y9.2745 I0.1177 J0.0094
X68.9789 Y9.275 I0.011 J-0.1176 F50.
G3 X68.9921 Y9.2819 I0.0005 J0.0149
G1 X69.0152 Y9.3217 F60.
G2 X68.8954 Y9.4686 I1.6086 J1.4345
G1 X68.8027 Y9.4315
G3 X68.7997 Y9.406 I0.006 J-0.0136
G1 X68.802 Y9.4043 Z-0.1297
X68.8043 Y9.4026 Z-0.1289
X68.8063 Y9.401 Z-0.1275
X68.8081 Y9.3996 Z-0.1256
X68.8096 Y9.3985 Z-0.1234
X68.8107 Y9.3977 Z-0.1208
X68.8113 Y9.3972 Z-0.118
X68.8116 Y9.397 Z-0.1151
G0 Z-0.1002
X68.3597 Y9.2366
G1 Z-0.1151 F50.
X68.3594 Z-0.118
X68.3586 Y9.2368 Z-0.1208
X68.3572 Y9.237 Z-0.1234
X68.3554 Y9.2373 Z-0.1256
X68.3532 Y9.2376 Z-0.1275
X68.3506 Y9.238 Z-0.1289
X68.3479 Y9.2385 Z-0.1297
X68.345 Y9.2389 Z-0.13
G3 X68.3142 Y9.236 I-0.0097 J-0.0616
G1 X68.1986 Y9.1897 F60.
X68.1899 Y9.1805
X68.1816 Y9.1709
X68.1738 Y9.1609
X68.1664 Y9.1506
X68.1596 Y9.1399
X68.1533 Y9.129
X68.1474 Y9.1177
X68.1421 Y9.1062
X68.1374 Y9.0944
X68.1332 Y9.0825
X68.1296 Y9.0703
X68.1265 Y9.058
X68.124 Y9.0456
X68.1222 Y9.0331
X68.1209 Y9.0205
X68.1201 Y9.0078
X68.12 Y8.9952
X68.1205 Y8.9825
X68.1216 Y8.9699
X68.1232 Y8.9573
X68.1255 Y8.9448
X68.1283 Y8.9325
X68.1317 Y8.9203
X68.1357 Y8.9082
X68.1402 Y8.8964
X68.1453 Y8.8848
X68.1509 Y8.8734
X68.157 Y8.8624
X68.1637 Y8.8516
X68.1708 Y8.8411
X68.1785 Y8.831
X68.1865 Y8.8212
X68.1951 Y8.8119
X68.2041 Y8.8029
X68.2021 Y8.7973
X68.2046 Y8.7969
X68.3321
G3 X68.3447 Y8.8048 I-0.0005 J0.0149
X68.3418 Y8.824 I-0.0143 J0.0076
X68.2257 Y8.8175 I-0.0551 J-0.0563
X68.2172 Y8.8048 I0.061 J-0.0498 F50.
G2 X68.2046 Y8.7969 I-0.0131 J0.007
G1 X68.1659 F60.
G2 X68.0463 Y9.1184 I0.0849 J0.2146
G1 X68.0398 Y9.1245
X68.0414 Y9.1264
X68.0435 Y9.1276
X68.1986 Y9.1897
G2 X68.2133 Y9.1871 I0.0051 J-0.014
X68.2146 Y9.1287 I-0.0251 J-0.0298
X68.0705 Y9.1159 I-0.0804 J0.0866
X68.0582 Y9.125 I0.0638 J0.0994 F50.
G3 X68.0435 Y9.1276 I-0.0096 J-0.0114
G1 X68.0041 Y9.1118 F60.
G3 X68.0029 Y8.7969 I0.1589 J-0.1581
G1 X68.1659
G3 X68.1785 Y8.8048 I-0.0005 J0.0149
X68.1552 Y8.8619 I-0.0354 J0.0189
X68.0236 Y8.8178 I-0.0355 J-0.1127
X68.0155 Y8.8048 I0.0962 J-0.0686 F50.
G2 X68.0029 Y8.7969 I-0.0131 J0.007
G1 X67.9683 F60.
G2 X67.8563 Y9.0527 I0.0656 J0.1811
G1 X68.0041 Y9.1118
G2 X68.0188 Y9.1092 I0.0051 J-0.014
X68.0164 Y9.0447 I-0.0264 J-0.0313
X67.8833 Y9.041 I-0.0693 J0.0956
X67.871 Y9.0501 I0.0638 J0.0994 F50.
G3 X67.8563 Y9.0527 I-0.0096 J-0.0114
G1 X67.8192 Y9.0378 F60.
G3 X67.8092 Y8.7969 I0.1085 J-0.1252
G1 X67.9683
G3 X67.9809 Y8.8048 I-0.0005 J0.0149
X67.9547 Y8.8638 I-0.0362 J0.0193
X67.8299 Y8.8178 I-0.0287 J-0.1146
X67.8218 Y8.8048 I0.0962 J-0.0686 F50.
G2 X67.8092 Y8.7969 I-0.0131 J0.007
G1 X67.773 F60.
X67.764 Y8.7997
X67.7553 Y8.8031
X67.7468 Y8.807
X67.7386 Y8.8115
X67.7307 Y8.8166
X67.7232 Y8.8222
X67.716 Y8.8283
X67.7093 Y8.8348
X67.703 Y8.8418
X67.6973 Y8.8491
X67.692 Y8.8569
X67.6873 Y8.865
X67.6831 Y8.8734
X67.6795 Y8.882
X67.6764 Y8.8909
X67.674 Y8.8999
X67.6722 Y8.9091
X67.671 Y8.9184
X67.6705 Y8.9278
Y8.9371
X67.6712 Y8.9465
X67.6725 Y8.9557
X67.6745 Y8.9649
X67.677 Y8.9739
X67.6802 Y8.9827
X67.8192 Y9.0378
G2 X67.8338 Y9.0352 I0.0051 J-0.014
X67.8261 Y8.9653 I-0.0273 J-0.0323
X67.7079 Y8.9707 I-0.0544 J0.1048
X67.6955 Y8.9798 I0.0638 J0.0994 F50.
G3 X67.6809 Y8.9825 I-0.0096 J-0.0114
G1 X67.6504 Y8.9702 F60.
X67.6436 Y8.965
X67.6371 Y8.9593
X67.6311 Y8.9532
X67.6256 Y8.9466
X67.6206 Y8.9397
X67.616 Y8.9324
X67.612 Y8.9248
X67.6086 Y8.9169
X67.6058 Y8.9088
X67.6036 Y8.9005
X67.6019 Y8.8921
X67.6009 Y8.8835
X67.6005 Y8.875
X67.6008 Y8.8664
X67.6016 Y8.8578
X67.6031 Y8.8494
X67.6052 Y8.841
X67.6079 Y8.8329
X67.6112 Y8.825
X67.6151 Y8.8173
X67.6195 Y8.8099
X67.6244 Y8.8029
X67.6298 Y8.7962
X67.773 Y8.7969
G3 X67.7873 Y8.8123 I-0.0005 J0.0149
X67.7766 Y8.8284 I-0.0184 J-0.0006
X67.6551 Y8.8146 I-0.0493 J-0.1074
X67.641 Y8.8016 I0.0722 J-0.0935 F50.
G2 X67.6306 Y8.7969 I-0.0109 J0.0102
G1 X67.6042 F60.
X67.5968 Y8.7984
X67.5895 Y8.8004
X67.5824 Y8.8031
X67.5755 Y8.8062
X67.5689 Y8.8099
X67.5626 Y8.8141
X67.5566 Y8.8187
X67.551 Y8.8238
X67.5458 Y8.8293
X67.5411 Y8.8352
X67.5368 Y8.8414
X67.533 Y8.848
X67.5297 Y8.8548
X67.527 Y8.8618
X67.5248 Y8.8691
X67.5232 Y8.8765
X67.5221 Y8.8839
X67.5217 Y8.8915
X67.5218 Y8.8991
X67.5225 Y8.9066
X67.5238 Y8.914
X67.5256 Y8.9214
X67.6504 Y8.9702
G2 X67.665 Y8.9676 I0.0051 J-0.014
X67.6683 Y8.957 I-0.0066 J-0.0078
G1 X67.6673 Y8.9536
G2 X67.5544 Y8.9096 I-0.0747 J0.0249
X67.5418 Y8.9183 I0.0381 J0.0689 F50.
G3 X67.5272 Y8.9209 I-0.0096 J-0.0114
G1 X67.5049 Y8.912 F60.
G3 X67.4785 Y8.7958 I0.0407 J-0.0704
G1 X67.4815 Y8.796
X67.4843 Y8.7968
X67.4869 Y8.798
X67.4893 Y8.7998
X67.4912 Y8.8018
X67.4927 Y8.8042
X67.4937 Y8.8068
X67.498 Y8.8192
X67.524 Y8.8931
X67.5247 Y8.8956
G3 X67.5049 Y8.912 I-0.0147 J0.0024 F50.
G1 X67.4415 Y8.8866 F60.
G3 X67.4209 Y8.824 I0.0308 J-0.0448
G1 X67.4185 Y8.817
X67.4175 Y8.8143
X67.4158 Y8.8086
X67.4155 Y8.8055
X67.4163 Y8.8013
X67.4192 Y8.7981
X67.4233 Y8.7969
G3 X67.4325 Y8.7986 I-0.0011 J0.0326
X67.4405 Y8.8123 I-0.0038 J0.0114
X67.4175 Y8.8143 I-0.0118 J-0.0024 F50.
G1 X67.4116 Y8.7974 F60.
X67.412 Y8.7969
X67.6042
G3 X67.617 Y8.8052 I-0.0005 J0.0149
G1 X67.6175 Y8.8074 Z-0.1298
X67.6181 Y8.8096 Z-0.1293
X67.6185 Y8.8117 Z-0.1284
X67.6181 Y8.8138 Z-0.127
X67.6176 Y8.8157 Z-0.1253
X67.6173 Y8.8172 Z-0.1233
X67.617 Y8.8184 Z-0.121
X67.6166 Y8.8192 Z-0.1181
X67.6164 Y8.8194 Z-0.1151
G0 Z0.4
X68.5808 Y10.909
Z0.1
G3 X68.4515 Y10.8514 Z0.0608 I-0.0646 J-0.0288 F50.
X68.5635 Y10.8276 Z0.0373 I0.0646 J0.0288
Y10.9328 Z0.0164 I-0.0474 J0.0526
X68.4589 Y10.9218 Z-0.0045 I-0.0473 J-0.0526
X68.4808 Y10.8189 Z-0.0255 I0.0573 J-0.0416
X68.5515 Y10.9415 Z-0.0647 I0.0354 J0.0613
X68.4469 Y10.8949 Z-0.0882 I-0.0354 J-0.0613
X68.5088 Y10.8098 Z-0.1091 I0.0692 J-0.0147
X68.5869 Y10.8802 Z-0.13 I0.0074 J0.0704
X68.4454 I-0.0708 J0.
X68.5869 I0.0708 J0.
X68.436 Y11.0033 I-0.0774 J0.0592 F60.
G1 X68.4277 Y10.9981
X68.4198 Y10.9924
X68.4123 Y10.9862
X68.4051 Y10.9794
X68.3984 Y10.9723
X68.3922 Y10.9647
X68.3865 Y10.9568
X68.3813 Y10.9485
X68.3766 Y10.9399
X68.3725 Y10.931
X68.369 Y10.9218
X68.3661 Y10.9125
X68.3638 Y10.903
X68.3621 Y10.8933
X68.361 Y10.8836
X68.3605 Y10.8738
X68.3607 Y10.864
X68.3615 Y10.8543
X68.3629 Y10.8446
X68.3649 Y10.835
X68.3676 Y10.8256
X68.3708 Y10.8164
X68.3747 Y10.8073
X68.3791 Y10.7986
X68.384 Y10.7902
X68.3895 Y10.782
X68.3955 Y10.7743
X68.402 Y10.767
X68.4089 Y10.7601
X68.4163 Y10.7536
X68.424 Y10.7476
X68.4322 Y10.7422
X68.4406 Y10.7372
X68.4494 Y10.7329
X68.4584 Y10.7291
X68.4676 Y10.7259
X68.4771 Y10.7232
X68.4867 Y10.7212
X68.4964 Y10.7198
X68.5061 Y10.7191
X68.5159 Y10.7189
X68.5257 Y10.7194
X68.5354 Y10.7206
X68.545 Y10.7223
X68.5545 Y10.7246
X68.5639 Y10.7276
X68.573 Y10.7311
X68.5819 Y10.7353
X68.5905 Y10.74
X68.5988 Y10.7452
X68.6067 Y10.7509
X68.6142 Y10.7572
X68.6213 Y10.7639
X68.628 Y10.771
X68.6342 Y10.7786
X68.6399 Y10.7866
X68.6451 Y10.7949
X68.6498 Y10.8035
X68.6538 Y10.8124
X68.6606 Y10.8211
X68.6669 Y10.8302
X68.6726 Y10.8396
X68.6778 Y10.8493
X68.6825 Y10.8593
X68.6865 Y10.8696
X68.69 Y10.8801
X68.6929 Y10.8907
X68.6951 Y10.9015
X68.6967 Y10.9124
X68.6978 Y10.9234
X68.6981 Y10.9344
X68.6979 Y10.9455
X68.697 Y10.9565
X68.6955 Y10.9674
X68.6934 Y10.9782
X68.6907 Y10.9889
X68.6873 Y10.9994
X68.6834 Y11.0097
X68.6789 Y11.0198
X68.6738 Y11.0296
X68.6682 Y11.0391
X68.662 Y11.0482
X68.6553 Y11.057
X68.6482 Y11.0654
X68.6406 Y11.0734
X68.6325 Y11.0809
X68.624 Y11.088
X68.6151 Y11.0945
X68.6059 Y11.1006
X68.5963 Y11.1061
X68.5865 Y11.111
X68.5764 Y11.1154
X68.566 Y11.1192
X68.5555 Y11.1224
X68.5447 Y11.125
X68.5339 Y11.127
X68.5229 Y11.1284
X68.5119 Y11.1291
X68.5009 Y11.1292
X68.4899 Y11.1287
X68.4789 Y11.1275
X68.468 Y11.1257
X68.4573 Y11.1234
X68.4466 Y11.1204
X68.4362 Y11.1168
X68.426 Y11.1126
X68.4161 Y11.1078
X68.4064 Y11.1025
X68.3971 Y11.0966
X68.3881 Y11.0902
X68.3794 Y11.0834
X68.3712 Y11.076
X68.3635 Y11.0682
X68.3561 Y11.0599
X68.3468 Y11.0525
X68.3379 Y11.0446
X68.3294 Y11.0363
X68.3213 Y11.0275
X68.3137 Y11.0183
X68.3065 Y11.0088
X68.2998 Y10.9989
X68.2937 Y10.9887
X68.2881 Y10.9782
X68.283 Y10.9674
X68.2784 Y10.9564
X68.2745 Y10.9451
X68.2711 Y10.9337
X68.2683 Y10.9221
X68.2661 Y10.9104
X68.2645 Y10.8986
X68.2634 Y10.8867
X68.263 Y10.8748
X68.2632 Y10.8629
X68.264 Y10.851
X68.2654 Y10.8392
X68.2674 Y10.8274
X68.27 Y10.8158
X68.2732 Y10.8043
X68.277 Y10.793
X68.2813 Y10.7819
X68.2862 Y10.771
X68.2916 Y10.7604
X68.2976 Y10.7501
X68.304 Y10.7401
X68.311 Y10.7304
X68.3185 Y10.7211
X68.3264 Y10.7122
X68.3348 Y10.7037
X68.3436 Y10.6957
X68.3527 Y10.6881
X68.3623 Y10.6809
X68.3722 Y10.6743
X68.3824 Y10.6682
X68.393 Y10.6626
X68.4038 Y10.6575
X68.4163 Y10.6529
X68.429 Y10.6488
X68.4419 Y10.6453
X68.455 Y10.6424
X68.4682 Y10.6402
X68.4815 Y10.6385
X68.4948 Y10.6375
X68.5082 Y10.637
X68.5215 Y10.6372
X68.5349 Y10.638
X68.5482 Y10.6395
X68.5614 Y10.6415
X68.5745 Y10.6441
X68.5875 Y10.6474
X68.6003 Y10.6512
X68.6129 Y10.6557
X68.6253 Y10.6607
X68.6375 Y10.6663
X68.6494 Y10.6724
X68.661 Y10.6791
X68.6722 Y10.6863
X68.6832 Y10.694
X68.6937 Y10.7022
X68.7039 Y10.7109
X68.7136 Y10.7201
X68.7229 Y10.7297
X68.7318 Y10.7397
X68.7402 Y10.7501
X68.7481 Y10.7609
X68.7555 Y10.7721
X68.7623 Y10.7836
X68.7687 Y10.7953
X68.7744 Y10.8074
X68.7797 Y10.8197
X68.7843 Y10.8323
X68.7884 Y10.845
X68.7918 Y10.8579
X68.7947 Y10.871
X68.7969 Y10.8842
X68.7986 Y10.8975
X68.7996 Y10.9108
X68.8 Y10.9242
X68.7998 Y10.9375
X68.799 Y10.9509
X68.7975 Y10.9642
X68.7954 Y10.9774
X68.7928 Y10.9905
X68.7895 Y11.0035
X68.7856 Y11.0163
X68.7812 Y11.0289
X68.7762 Y11.0413
X68.7706 Y11.0534
X68.7644 Y11.0653
X68.7577 Y11.0769
X68.7505 Y11.0881
X68.7427 Y11.0991
X68.7345 Y11.1096
X68.7258 Y11.1197
X68.7166 Y11.1295
X68.707 Y11.1388
X68.697 Y11.1476
X68.6865 Y11.156
X68.6757 Y11.1639
X68.6646 Y11.1712
X68.6531 Y11.1781
X68.6413 Y11.1844
X68.6292 Y11.1902
X68.6169 Y11.1954
X68.6043 Y11.2
X68.5916 Y11.204
X68.5787 Y11.2075
X68.5656 Y11.2103
X68.5524 Y11.2125
X68.5391 Y11.2141
X68.5258 Y11.2151
G3 X68.3998 Y10.5557 I-0.0205 J-0.3378
G1 X68.4148 Y10.5518
X68.4299 Y10.5484
X68.4452 Y10.5457
X68.4606 Y10.5436
X68.476 Y10.5421
X68.4915 Y10.5412
X68.507 Y10.5409
X68.5225 Y10.5412
X68.538 Y10.5422
X68.5534 Y10.5438
X68.5688 Y10.546
X68.584 Y10.5488
X68.5992 Y10.5522
X68.6141 Y10.5562
X68.629 Y10.5608
X68.6436 Y10.566
X68.658 Y10.5718
X68.6721 Y10.5782
X68.686 Y10.5851
X68.6996 Y10.5925
X68.7129 Y10.6005
X68.7259 Y10.609
X68.7385 Y10.6181
X68.7507 Y10.6276
X68.7626 Y10.6376
X68.774 Y10.6481
X68.785 Y10.659
X68.7956 Y10.6704
X68.8057 Y10.6821
X68.8153 Y10.6943
X68.8244 Y10.7069
X68.8331 Y10.7197
X68.8412 Y10.733
X68.8487 Y10.7465
X68.8558 Y10.7604
X68.8622 Y10.7745
X68.8681 Y10.7888
X68.8734 Y10.8034
X68.8782 Y10.8181
X68.8823 Y10.8331
X68.8858 Y10.8482
X68.8887 Y10.8634
X68.8911 Y10.8788
X68.8928 Y10.8942
X68.8938 Y10.9097
X68.8943 Y10.9252
X68.8942 Y10.9407
X68.8934 Y10.9562
X68.892 Y10.9716
X68.89 Y10.987
X68.8874 Y11.0023
X68.8841 Y11.0175
X68.8803 Y11.0325
X68.8759 Y11.0474
X68.8708 Y11.062
X68.8652 Y11.0765
X68.8591 Y11.0907
X68.8523 Y11.1047
X68.845 Y11.1184
X68.8372 Y11.1318
X68.8288 Y11.1448
X68.8199 Y11.1576
X68.8106 Y11.1699
X68.8007 Y11.1819
X68.7904 Y11.1935
X68.7796 Y11.2046
X68.7683 Y11.2153
X68.7567 Y11.2255
X68.7446 Y11.2353
X68.7322 Y11.2446
X68.7194 Y11.2534
X68.7063 Y11.2616
X68.6929 Y11.2694
X68.6791 Y11.2766
X68.6651 Y11.2832
X68.6508 Y11.2893
X68.6363 Y11.2947
X68.6216 Y11.2997
X68.6067 Y11.304
X68.5916 Y11.3077
X68.5764 Y11.3108
X68.5611 Y11.3133
X68.5457 Y11.3152
X68.5303 Y11.3165
X68.5148 Y11.3171
X68.4993
X68.4838 Y11.3166
X68.4683 Y11.3154
X68.4529 Y11.3135
X68.4376 Y11.3111
X68.4224 Y11.3081
X68.4073 Y11.3044
X68.3924 Y11.3001
X68.3776 Y11.2953
X68.3631 Y11.2899
X68.3488 Y11.2839
X68.3347 Y11.2773
X68.321 Y11.2702
X68.3075 Y11.2625
X68.2943 Y11.2543
X68.2815 Y11.2456
X68.269 Y11.2363
X68.2569 Y11.2266
X68.2453 Y11.2164
G3 X68.0731 Y10.9083 I0.2148 J-0.3221
G1 X68.0725 Y10.8915
X68.0726 Y10.8747
X68.0732 Y10.8579
X68.0745 Y10.8412
X68.0764 Y10.8245
X68.079 Y10.8079
X68.0821 Y10.7914
X68.0859 Y10.775
X68.0903 Y10.7588
X68.0953 Y10.7428
X68.1008 Y10.7269
X68.107 Y10.7113
X68.1138 Y10.6959
X68.1211 Y10.6808
X68.129 Y10.666
X68.1374 Y10.6515
X68.1464 Y10.6373
X68.1559 Y10.6234
X68.1659 Y10.6099
X68.1764 Y10.5968
X68.1874 Y10.5841
X68.1989 Y10.5719
X68.2108 Y10.56
X68.2231 Y10.5487
X68.2359 Y10.5377
X68.2491 Y10.5273
X68.2626 Y10.5174
X68.2765 Y10.508
X68.2908 Y10.4991
X68.3054 Y10.4908
X68.3202 Y10.483
X68.3354 Y10.4757
X68.3508 Y10.4691
X68.3665 Y10.463
X68.3823 Y10.4575
X68.3984 Y10.4526
X68.4147 Y10.4484
X68.431 Y10.4447
X68.4476 Y10.4416
X68.4642 Y10.4392
X68.4809 Y10.4374
X68.4976 Y10.4362
X68.5144 Y10.4357
X68.5312 Y10.4358
X68.548 Y10.4365
X68.5647 Y10.4378
X68.5814 Y10.4398
X68.598 Y10.4423
X68.6145 Y10.4455
X68.6308 Y10.4494
X68.647 Y10.4538
X68.6631 Y10.4588
X68.6789 Y10.4645
X68.6945 Y10.4707
X68.7098 Y10.4775
X68.7249 Y10.4849
X68.7397 Y10.4928
X68.7542 Y10.5013
X68.7684 Y10.5103
X68.7822 Y10.5198
X68.7957 Y10.5299
X68.8087 Y10.5404
X68.8214 Y10.5515
X68.8336 Y10.5629
X68.8454 Y10.5749
X68.8568 Y10.5873
X68.8677 Y10.6001
X68.8781 Y10.6133
X68.8879 Y10.6269
X68.8973 Y10.6408
X68.9062 Y10.6551
X68.9145 Y10.6697
X68.9222 Y10.6846
X68.9294 Y10.6997
X68.936 Y10.7152
X68.942 Y10.7309
X68.9475 Y10.7467
X68.9523 Y10.7628
X68.9565 Y10.7791
X68.9601 Y10.7955
X68.9656 Y10.811
X68.9704 Y10.8267
X68.9747 Y10.8426
X68.9783 Y10.8587
X68.9814 Y10.8748
X68.9839 Y10.8911
X68.9858 Y10.9074
X68.987 Y10.9239
X68.9877 Y10.9403
Y10.9567
X68.9871 Y10.9732
X68.9859 Y10.9896
X68.9841 Y11.006
X68.9817 Y11.0222
X68.9788 Y11.0384
X68.9752 Y11.0545
X68.971 Y11.0704
X68.9662 Y11.0861
X68.9608 Y11.1017
X68.9549 Y11.117
X68.9484 Y11.1321
X68.9414 Y11.147
X68.9338 Y11.1616
X68.9256 Y11.1759
X68.917 Y11.1899
X68.9078 Y11.2035
X68.8981 Y11.2169
X68.888 Y11.2298
X68.8773 Y11.2423
X68.8662 Y11.2545
X68.8547 Y11.2662
X68.8427 Y11.2775
X68.8304 Y11.2884
X68.8176 Y11.2988
X68.8045 Y11.3086
X68.791 Y11.3181
X68.7771 Y11.3269
X68.763 Y11.3353
X68.7485 Y11.3432
G3 X68.1171 Y11.2411 I-0.2539 J-0.4333
G1 X68.0503 Y11.1419
G3 X68.3217 Y10.3762 I0.4539 J-0.2701
G1 X68.4664 Y10.347
X68.485 Y10.3456
X68.5037 Y10.3449
X68.5223 Y10.3448
X68.541 Y10.3452
X68.5596 Y10.3463
X68.5782 Y10.3481
X68.5967 Y10.3504
X68.6151 Y10.3533
X68.6334 Y10.3568
X68.6516 Y10.361
X68.6697 Y10.3657
X68.6875 Y10.3711
X68.7052 Y10.377
X68.7227 Y10.3835
X68.74 Y10.3906
X68.757 Y10.3982
X68.7738 Y10.4064
X68.7903 Y10.4151
X68.8064 Y10.4244
X68.8223 Y10.4342
X68.8378 Y10.4446
X68.853 Y10.4554
X68.8679 Y10.4667
X68.8823 Y10.4786
X68.8963 Y10.4908
X68.91 Y10.5036
X68.9232 Y10.5168
X68.9359 Y10.5304
X68.9482 Y10.5444
X68.96 Y10.5588
X68.9714 Y10.5737
X68.9823 Y10.5888
X68.9926 Y10.6044
X69.0024 Y10.6202
X69.0117 Y10.6364
X69.0205 Y10.6529
X69.0287 Y10.6696
X69.0364 Y10.6866
X69.0434 Y10.7039
X69.05 Y10.7214
X69.0559 Y10.739
X69.0613 Y10.7569
X69.066 Y10.775
X69.0702 Y10.7931
X69.0737 Y10.8115
X69.0767 Y10.8299
X69.079 Y10.8484
X69.0807 Y10.867
X68.9446 Y11.2777
G3 X68.7243 Y11.4635 I-0.3422 J-0.1823
G2 X68.4202 Y11.4584 I-0.1574 J0.3165
G3 X68.2562 Y11.454 I-0.0771 J-0.1827
X68.2683 Y11.4314 I0.0127 J-0.0078
G1 X68.4125 Y11.4308
X68.4151 Y11.431
X68.4177 Y11.4317
X68.4201 Y11.4328
G3 X68.4202 Y11.4585 I-0.0075 J0.0129 F50.
G2 X68.3335 Y11.5156 I0.0936 J0.2362 F60.
G3 X68.3033 Y11.5255 I-0.0194 J-0.0082
X68.303 Y11.5105 I0.0127 J-0.0078
G1 X68.3102 Y11.4976
G3 X68.3276 Y11.4906 I0.013 J0.0072
X68.3335 Y11.5156 I-0.0044 J0.0142 F50.
G1 X68.3114 Y11.5355 F60.
X68.3105 Y11.5362
X68.31 Y11.5356
X68.1162 Y11.2418
G3 X68.1283 Y11.2192 I0.0127 J-0.0078
G1 X68.1312 Y11.2191 Z-0.1297
X68.134 Y11.2189 Z-0.1289
X68.1366 Y11.2188 Z-0.1275
X68.1388 Y11.2187 Z-0.1256
X68.1407 Y11.2186 Z-0.1234
X68.1421 Z-0.1208
X68.1429 Z-0.118
X68.1432 Y11.2185 Z-0.1151
G0 Z-0.1002
X68.9427 Y11.2323
G1 Z-0.1151 F50.
X68.9428 Y11.2326 Z-0.118
X68.9429 Y11.2334 Z-0.1208
X68.9432 Y11.2347 Z-0.1234
X68.9436 Y11.2365 Z-0.1256
X68.9441 Y11.2387 Z-0.1275
X68.9446 Y11.2413 Z-0.1289
X68.9452 Y11.244 Z-0.1297
X68.9458 Y11.2468 Z-0.13
G3 X68.9446 Y11.2777 I-0.0609 J0.0131
G1 X68.8901 Y11.4398 F60.
G3 X68.8098 Y11.5213 I-0.1119 J-0.0299
X68.8085 Y11.5022 I0.0108 J-0.0103
G1 X68.8145 Y11.494
X68.8638 Y11.4267
G3 X68.8726 Y11.421 I0.012 J0.0088
X68.8901 Y11.4398 I0.0032 J0.0146 F50.
G1 X68.8546 Y11.5451 F60.
X68.854 Y11.5468
X68.8535 Y11.5483
X68.8513 Y11.5539
X68.8477 Y11.5565
X68.8432 Y11.5566
X68.8394 Y11.5542
G3 X68.8363 Y11.5492 I0.0157 J-0.0129
X68.8356 Y11.5452 I0.0084 J-0.0035
X68.8463 Y11.5367 I0.0091 J0.0005 F50.
X68.8535 Y11.5483 I-0.0015 J0.009
G1 X68.8492 Y11.5612 F60.
X68.8485 Y11.5633
X68.8479 Y11.5639
G2 X68.7243 Y11.4635 I-0.2726 J0.2092
G3 X68.7228 Y11.4379 I0.0068 J-0.0133
G1 X68.7252 Y11.4362 Z-0.1297
X68.7275 Y11.4347 Z-0.1289
X68.7297 Y11.4332 Z-0.1275
X68.7315 Y11.432 Z-0.1256
X68.7331 Y11.4309 Z-0.1234
X68.7342 Y11.4302 Z-0.1208
X68.7349 Y11.4297 Z-0.118
X68.7352 Y11.4295 Z-0.1151
G0 Z-0.1002
X69.0539 Y10.9018
G1 Z-0.1151 F50.
X69.0542 Y10.9017 Z-0.118
X69.0548 Y10.9011 Z-0.1208
X69.0558 Y10.9002 Z-0.1234
X69.0573 Y10.899 Z-0.1256
X69.059 Y10.8975 Z-0.1275
X69.0609 Y10.8958 Z-0.1289
X69.063 Y10.894 Z-0.1297
X69.0652 Y10.8921 Z-0.13
G2 X69.083 Y10.8668 I-0.0406 J-0.0473
G1 X69.1204 Y10.7557 F60.
G2 X69.1075 Y10.6291 I-0.1357 J-0.0502
G3 X68.8689 Y10.3749 I0.464 J-0.6747
G2 X68.755 Y10.2911 I-0.1657 J0.1057
G1 X68.4664 Y10.347
G2 X68.4731 Y10.3761 I0.0033 J0.0145
X68.4842 Y10.3581 I-0.0033 J-0.0145
X68.4661 Y10.3471 I-0.0145 J0.0035
G1 X68.3435 Y10.3776
G2 X68.3507 Y10.4065 I0.0036 J0.0145
X68.3521 Y10.378 I-0.0036 J-0.0145
X68.3213 Y10.3751 I-0.0211 J0.0586 F50.
G1 X68.1301 Y10.4122 F60.
G2 X67.8954 Y10.7397 I0.205 J0.3947
G3 X67.972 Y11.0231 I-0.4117 J0.2633
G1 X68.0503 Y11.1419
G3 X68.0478 Y11.1307 I0.0121 J-0.0086
G1 X68.0511 Y11.1119
X68.1705 Y10.4317
G2 X68.1609 Y10.4151 I-0.0147 J-0.0026
X68.1301 Y10.4122 I-0.0211 J0.0586 F50.
G1 X67.981 Y10.4411 F60.
G2 X67.8192 Y10.6566 I0.1354 J0.2701
G3 X67.8954 Y10.7397 I-0.1608 J0.2236
G2 X67.9088 Y10.7462 I0.0123 J-0.0084
X67.9328 Y10.7105 I-0.002 J-0.0273
X67.8487 Y10.6565 I-0.075 J0.0241
X67.8338 Y10.6597 I0.0091 J0.0782 F50.
G3 X67.8192 Y10.6566 I-0.0046 J-0.0142
G1 X67.8142 Y10.6527 F60.
X67.8042 Y10.6463
G3 X67.8024 Y10.4757 I0.0938 J-0.0863
G1 X67.981 Y10.4411
G3 X67.9949 Y10.4464 I0.0023 J0.0147
X67.9931 Y10.4887 I-0.0248 J0.0201
X67.8267 Y10.4923 I-0.085 J-0.082
X67.8163 Y10.481 I0.0814 J-0.0856 F50.
G2 X67.8024 Y10.4757 I-0.0116 J0.0094
G1 X67.7603 Y10.4839 F60.
G2 X67.6922 Y10.591 I0.0304 J0.0946
G3 X67.8042 Y10.6463 I-0.0708 J0.2848
G2 X67.8191 Y10.6465 I0.0076 J-0.0128
X67.8302 Y10.6045 I-0.0148 J-0.0264
X67.7217 Y10.5782 I-0.0673 J0.0408
X67.7095 Y10.5874 I0.0412 J0.0671 F50.
G3 X67.695 Y10.5907 I-0.0101 J-0.011
G1 X67.6768 Y10.5843 F60.
G3 X67.6454 Y10.5048 I0.0269 J-0.0566
G1 X67.7603 Y10.4839
G3 X67.7724 Y10.5098 I0.0023 J0.0147
G1 X67.7029 Y10.5709
X67.6911 Y10.5813 F50.
G3 X67.6768 Y10.5843 I-0.0098 J-0.0112
G2 X67.6304 Y10.5745 I-0.051 J0.1267 F60.
G3 X67.5863 Y10.5176 I0.0006 J-0.0461
G1 X67.6476 Y10.5057
G3 X67.6615 Y10.511 I0.0023 J0.0147
Y10.5227 I-0.0072 J0.0059
G1 X67.6597 Y10.5248
G3 X67.6119 Y10.5327 I-0.029 J-0.0266
X67.6002 Y10.5229 I0.0189 J-0.0345 F50.
G2 X67.5863 Y10.5176 I-0.0116 J0.0094
G1 X67.5737 Y10.52 F60.
G2 X67.5536 Y10.5679 I0.0047 J0.0301
G1 X67.5649
X67.588 Y10.5697
X67.6304 Y10.5744
G2 X67.6377 Y10.546 I0.0011 J-0.0149
G1 X67.6024 Y10.5302
X67.5982 Y10.5273 F50.
X67.5936 Y10.5248
X67.5889 Y10.5228
X67.5839 Y10.5213
X67.5788 Y10.5204
X67.5737 Y10.5199
X67.5348 Y10.5275 F60.
G2 X67.5097 Y10.5679 I-0.0031 J0.026
G1 X67.5536
G2 X67.5662 Y10.56 I-0.0005 J-0.0149
X67.552 Y10.5395 I-0.0124 J-0.0066
X67.532 Y10.5482 I0.0051 J0.039
X67.5224 Y10.56 I0.0251 J0.0303 F50.
G3 X67.5097 Y10.5679 I-0.0131 J-0.007
G1 X67.4982 F60.
X67.4922 Y10.5676
X67.4868 Y10.5651
X67.482 Y10.5614
X67.4781 Y10.5569
X67.4749 Y10.5518
X67.4737 Y10.5491
X67.4732 Y10.5445
X67.4753 Y10.5405
X67.4794 Y10.5383
G3 X67.5041 Y10.5424 I0.0061 J0.0389
X67.5076 Y10.5452 I-0.0064 J0.0119
X67.4982 Y10.5679 I-0.0099 J0.0092 F50.
G1 X67.4655 F60.
X67.4595 Y10.5676
X67.4539 Y10.5654
X67.4489 Y10.5621
X67.4446 Y10.558
X67.4435 Y10.5566
X67.4421 Y10.553
X67.4426 Y10.5491
X67.4449 Y10.546
X67.4484 Y10.5443
G3 X67.4684 Y10.5463 I0.0061 J0.0389
G1 X67.4707 Y10.5474 F50.
X67.4728 Y10.5489
X67.4744 Y10.5509
X67.4755 Y10.5533
X67.4761 Y10.5558
X67.476 Y10.5584
X67.4754 Y10.5608
X67.4742 Y10.5631
X67.4725 Y10.5651
X67.4704 Y10.5666
X67.468 Y10.5675
X67.4655 Y10.5679
X67.4366 F60.
X67.4307 Y10.5676
X67.4251 Y10.5654
X67.4202 Y10.5619
X67.4192 Y10.5607
X67.4177 Y10.5581
X67.4173 Y10.555
X67.4181 Y10.552
X67.4227 Y10.5496
X67.4247 Y10.5503 F50.
X67.439 Y10.5593
X67.4366 Y10.5679
X67.4124 F60.
X67.4119 Y10.5674
X67.4167 Y10.555
X67.4179 Y10.5524
X67.4186 Y10.5511
X67.4191 Y10.5503
X67.4205 Y10.5498
X67.4212 Y10.5496
X67.5348 Y10.5275
G3 X67.5511 Y10.5473 I0.0023 J0.0147
G1 X67.5502 Y10.5501 Z-0.1297
X67.5492 Y10.5527 Z-0.1289
X67.5483 Y10.5551 Z-0.1275
X67.5476 Y10.5572 Z-0.1256
X67.5469 Y10.559 Z-0.1234
X67.5465 Y10.5603 Z-0.1208
X67.5462 Y10.5611 Z-0.118
X67.5461 Y10.5613 Z-0.1151
G0 Z0.4
X68.8791 Y10.4193
Z-0.1002
G1 Z-0.1151 F50.
Y10.419 Z-0.118
Y10.4181 Z-0.1208
X68.879 Y10.4168 Z-0.1234
X68.8789 Y10.4149 Z-0.1256
X68.8788 Y10.4127 Z-0.1275
X68.8786 Y10.4101 Z-0.1289
X68.8784 Y10.4073 Z-0.1297
X68.8783 Y10.4044 Z-0.13
G2 X68.8689 Y10.3749 I-0.0622 J0.0036
X68.8185 Y10.2788 I-0.4276 J0.1629 F60.
G1 X68.755 Y10.2911
G2 X68.744 Y10.3015 I0.0033 J0.0145
G1 X68.7432 Y10.3043 Z-0.1297
X68.7425 Y10.307 Z-0.1289
X68.7418 Y10.3095 Z-0.1275
X68.7412 Y10.3116 Z-0.1256
X68.7406 Y10.3134 Z-0.1234
X68.7403 Y10.3147 Z-0.1208
X68.74 Y10.3156 Z-0.118
Y10.3158 Z-0.1151
G0 Z-0.1002
X69.0913 Y10.7908
G1 Z-0.1151 F50.
X69.0915 Y10.7906 Z-0.118
X69.0922 Y10.79 Z-0.1208
X69.0932 Y10.7891 Z-0.1234
X69.0946 Y10.7879 Z-0.1256
X69.0964 Y10.7865 Z-0.1275
X69.0983 Y10.7848 Z-0.1289
X69.1004 Y10.783 Z-0.1297
X69.1026 Y10.7811 Z-0.13
G2 X69.1204 Y10.7557 I-0.0406 J-0.0473
G1 X69.1524 Y10.6607 F60.
X69.1521 Y10.66
X69.1504 Y10.6585
X69.1075 Y10.6291
X69.105 Y10.6283 Z-0.1299
X69.1025 Y10.6276 Z-0.1294
X69.1001 Y10.6268 Z-0.1284
X69.0977 Y10.6273 Z-0.1267
X69.0957 Y10.6278 Z-0.1247
X69.0941 Y10.6281 Z-0.1222
X69.0929 Y10.6283 Z-0.1195
X69.0925 Y10.6286 Z-0.1173
X69.0924 Z-0.1151
G0 Z0.4
X69.3288 Y15.1887
Z0.1
G3 X69.2288 Y15.2211 Z0.0791 I-0.0646 J-0.0288 F50.
X69.207 Y15.1182 Z0.0582 I0.0354 J-0.0613
X69.3116 Y15.1073 Z0.0373 I0.0572 J0.0416
X69.3115 Y15.2125 Z0.0164 I-0.0474 J0.0526
X69.2069 Y15.2014 Z-0.0045 I-0.0473 J-0.0526
X69.2288 Y15.0985 Z-0.0255 I0.0573 J-0.0416
X69.2996 Y15.2211 Z-0.0647 I0.0354 J0.0613
X69.2288 Y15.0985 Z-0.1039 I-0.0354 J-0.0613
X69.2568 Y15.0895 Z-0.1091 I0.0354 J0.0613
X69.335 Y15.1598 Z-0.13 I0.0074 J0.0704
X69.1934 I-0.0708 J0.
X69.335 I0.0708 J0.
X69.1841 Y15.283 I-0.0774 J0.0592 F60.
G1 X69.1758 Y15.2778
X69.1678 Y15.272
X69.1603 Y15.2658
X69.1532 Y15.2591
X69.1465 Y15.2519
X69.1402 Y15.2444
X69.1345 Y15.2364
X69.1293 Y15.2281
X69.1247 Y15.2195
X69.1206 Y15.2106
X69.117 Y15.2015
X69.1141 Y15.1921
X69.1118 Y15.1826
X69.1101 Y15.173
X69.109 Y15.1632
X69.1086 Y15.1535
X69.1087 Y15.1437
X69.1095 Y15.1339
X69.1109 Y15.1242
X69.113 Y15.1147
X69.1156 Y15.1052
X69.1189 Y15.096
X69.1227 Y15.087
X69.1271 Y15.0782
X69.1321 Y15.0698
X69.1375 Y15.0617
X69.1435 Y15.0539
X69.15 Y15.0466
X69.157 Y15.0397
X69.1643 Y15.0332
X69.1721 Y15.0273
X69.1802 Y15.0218
X69.1887 Y15.0169
X69.1974 Y15.0125
X69.2065 Y15.0087
X69.2157 Y15.0055
X69.2251 Y15.0029
X69.2347 Y15.0009
X69.2444 Y14.9995
X69.2542 Y14.9987
X69.264 Y14.9986
X69.2737 Y14.9991
X69.2835 Y15.0002
X69.2931 Y15.0019
X69.3026 Y15.0043
X69.3119 Y15.0072
X69.321 Y15.0108
X69.3299 Y15.0149
X69.3385 Y15.0196
X69.3468 Y15.0248
X69.3547 Y15.0306
X69.3623 Y15.0368
X69.3694 Y15.0435
X69.3761 Y15.0507
X69.3823 Y15.0582
X69.388 Y15.0662
X69.3932 Y15.0745
X69.3978 Y15.0831
X69.4019 Y15.092
X69.4087 Y15.1007
X69.4149 Y15.1098
X69.4207 Y15.1192
X69.4259 Y15.129
X69.4305 Y15.139
X69.4346 Y15.1492
X69.438 Y15.1597
X69.4409 Y15.1704
X69.4432 Y15.1812
X69.4448 Y15.1921
X69.4458 Y15.2031
X69.4462 Y15.2141
X69.4459 Y15.2251
X69.4451 Y15.2361
X69.4436 Y15.247
X69.4414 Y15.2579
X69.4387 Y15.2686
X69.4354 Y15.2791
X69.4314 Y15.2894
X69.4269 Y15.2994
X69.4218 Y15.3092
X69.4162 Y15.3187
X69.4101 Y15.3279
X69.4034 Y15.3367
X69.3962 Y15.3451
X69.3886 Y15.353
X69.3805 Y15.3606
X69.3721 Y15.3676
X69.3632 Y15.3742
X69.3539 Y15.3802
X69.3444 Y15.3857
X69.3345 Y15.3907
X69.3244 Y15.395
X69.3141 Y15.3988
X69.3035 Y15.402
X69.2928 Y15.4046
X69.2819 Y15.4066
X69.271 Y15.408
X69.26 Y15.4087
X69.2489 Y15.4088
X69.2379 Y15.4083
X69.227 Y15.4072
X69.2161 Y15.4054
X69.2053 Y15.403
X69.1947 Y15.4
X69.1843 Y15.3964
X69.1741 Y15.3922
X69.1641 Y15.3874
X69.1544 Y15.3821
X69.1451 Y15.3763
X69.1361 Y15.3699
X69.1275 Y15.363
X69.1193 Y15.3556
X69.1115 Y15.3478
X69.1042 Y15.3396
X69.0949 Y15.3321
X69.0859 Y15.3242
X69.0774 Y15.3159
X69.0693 Y15.3071
X69.0617 Y15.298
X69.0545 Y15.2884
X69.0479 Y15.2786
X69.0417 Y15.2683
X69.0361 Y15.2578
X69.031 Y15.247
X69.0265 Y15.236
X69.0225 Y15.2248
X69.0191 Y15.2134
X69.0163 Y15.2018
X69.0141 Y15.1901
X69.0125 Y15.1782
X69.0115 Y15.1664
X69.0111 Y15.1545
X69.0113 Y15.1425
X69.0121 Y15.1306
X69.0135 Y15.1188
X69.0155 Y15.107
X69.0181 Y15.0954
X69.0212 Y15.0839
X69.025 Y15.0726
X69.0293 Y15.0615
X69.0342 Y15.0506
X69.0396 Y15.04
X69.0456 Y15.0297
X69.0521 Y15.0197
X69.0591 Y15.01
X69.0665 Y15.0007
X69.0745 Y14.9918
X69.0828 Y14.9833
X69.0916 Y14.9753
X69.1008 Y14.9677
X69.1103 Y14.9606
X69.1202 Y14.9539
X69.1305 Y14.9478
X69.141 Y14.9422
X69.1518 Y14.9372
X69.1643 Y14.9325
X69.1771 Y14.9284
X69.19 Y14.925
X69.2031 Y14.9221
X69.2162 Y14.9198
X69.2295 Y14.9181
X69.2428 Y14.9171
X69.2562 Y14.9167
X69.2696 Y14.9169
X69.2829 Y14.9177
