%
(971-23-P-0176_LAPTOP MOUNT PLATE_1537)
(T1  D=0.1537 CR=0. - ZMIN=-0.2075 - FLAT END MILL)
G90 G94 G17 G91.1
G64 P0.001 Q0.001
G20
G53 G0 Z0.
(SHAPE THROUGH HOLE)
M9
T1 M6
S22000 M3
G4 P10.
G54
M7
G0 X-6.1846 Y11.6942
G43 Z0.6 H1
G0 Z0.1
G3 X-6.2312 Y11.5558 Z0.0596 I-0.0233 J-0.0692 F50.
X-6.1846 Y11.6942 Z0.0191 I0.0233 J0.0692
X-6.2312 Y11.5558 Z-0.0213 I-0.0233 J-0.0692
X-6.1846 Y11.6942 Z-0.0618 I0.0233 J0.0692
X-6.2312 Y11.5558 Z-0.1022 I-0.0233 J-0.0692
X-6.1846 Y11.6942 Z-0.1427 I0.0233 J0.0692
X-6.2312 Y11.5558 Z-0.1831 I-0.0233 J-0.0692
X-6.1349 Y11.625 Z-0.2075 I0.0233 J0.0692
X-6.2809 I-0.073 J0.
X-6.1351 Y11.6191 I0.073 J0.
G1 X-6.1349 Y11.625
G3 X-6.128 Y11.721 I-0.0441 J0.0515 F60.
G1 X-6.2548
X-6.2912 Y11.7115
G3 X-6.2548 Y11.53 I0.0351 J-0.0874
G1 X-6.1481 Y11.5289
G3 X-6.034 Y11.7225 I-0.0277 J0.1468
G1 X-6.128 Y11.721
G3 X-6.141 Y11.7129 I0.0005 J-0.0154
X-6.1134 Y11.6716 I0.0249 J-0.0133
X-6.0597 Y11.7005 I-0.0076 J0.0784
X-6.0515 Y11.7129 I-0.0613 J0.0494 F50.
G2 X-6.0385 Y11.721 I0.0136 J-0.0072
G1 X-6.0203 F60.
X-6.0128 Y11.7174
X-6.0057 Y11.7132
X-5.9988 Y11.7086
X-5.9924 Y11.7034
X-5.9863 Y11.6978
X-5.9806 Y11.6917
X-5.9754 Y11.6853
X-5.9707 Y11.6784
X-5.9665 Y11.6713
X-5.9628 Y11.6639
X-5.9597 Y11.6562
X-5.9572 Y11.6483
X-5.9552 Y11.6402
X-5.9539 Y11.6321
X-5.9531 Y11.6238
X-5.9529 Y11.6155
X-5.9534 Y11.6072
X-5.9545 Y11.599
X-5.9561 Y11.5909
X-5.9584 Y11.5829
X-5.9612 Y11.5751
X-5.9646 Y11.5676
X-5.9685 Y11.5603
X-5.9729 Y11.5533
X-5.9779 Y11.5466
X-5.9833 Y11.5404
X-5.9892 Y11.5345
X-5.9955 Y11.5291
X-6.1481 Y11.5289
G2 X-6.1611 Y11.537 I0.0005 J0.0154
X-6.1305 Y11.5982 I0.037 J0.0197
X-6.0161 Y11.5497 I0.0179 J-0.1167
X-6.0083 Y11.537 I-0.0964 J-0.0682 F50.
G3 X-5.9953 Y11.5289 I0.0136 J0.0072
G1 X-5.9605 F60.
X-5.9522 Y11.5316
X-5.944 Y11.5349
X-5.9362 Y11.5388
X-5.9286 Y11.5432
X-5.9214 Y11.5481
X-5.9146 Y11.5536
X-5.9081 Y11.5595
X-5.9021 Y11.5659
X-5.8966 Y11.5727
X-5.8916 Y11.5799
X-5.8871 Y11.5874
X-5.8831 Y11.5952
X-5.8797 Y11.6033
X-5.8769 Y11.6116
X-5.8747 Y11.6201
X-5.8732 Y11.6287
X-5.8722 Y11.6374
X-5.8719 Y11.6461
X-5.8722 Y11.6549
X-5.8731 Y11.6636
X-5.8747 Y11.6722
X-5.8768 Y11.6807
X-5.8796 Y11.689
X-5.8829 Y11.6971
X-5.8869 Y11.7049
X-5.8913 Y11.7124
X-5.8941 Y11.7128
X-5.897 Y11.7127
X-5.8997 Y11.7121
X-5.9023 Y11.7111
X-5.9046 Y11.7095
X-5.9067 Y11.7077
X-5.9083 Y11.7054
X-5.9095 Y11.703
X-5.9132 Y11.6942
X-5.9737 Y11.5513
X-5.9741 Y11.5503 F50.
G3 X-5.9605 Y11.5289 I0.0142 J-0.006
G1 X-5.9529 Y11.527 F60.
X-5.9453 Y11.5256
X-5.9375 Y11.5248
X-5.9297 Y11.5247
X-5.9219 Y11.5251
X-5.9142 Y11.5262
X-5.9066 Y11.5279
X-5.8991 Y11.5302
X-5.8919 Y11.533
X-5.8848 Y11.5364
X-5.8781 Y11.5404
X-5.8717 Y11.5449
X-5.8657 Y11.5498
X-5.8601 Y11.5552
X-5.8549 Y11.5611
X-5.8502 Y11.5673
X-5.846 Y11.5739
X-5.8424 Y11.5808
X-5.8393 Y11.5879
X-5.8367 Y11.5953
X-5.8348 Y11.6029
X-5.8334 Y11.6105
X-5.8327 Y11.6183
X-5.8326 Y11.6261
X-5.833 Y11.6339
X-5.8341 Y11.6416
X-5.8358 Y11.6492
X-5.8381 Y11.6567
X-5.841 Y11.6639
X-5.8444 Y11.6709
X-5.8484 Y11.6776
X-5.8529 Y11.684
X-5.8578 Y11.69
X-5.8633 Y11.6956
X-5.8691 Y11.7008
X-5.8754 Y11.7055
X-5.882 Y11.7096
X-5.8888 Y11.7133
X-5.896 Y11.7164
X-5.9034 Y11.7189
X-5.9109 Y11.7208
X-5.9186 Y11.7222
X-5.9264 Y11.7229
X-6.0203 Y11.721
G3 X-6.0334 Y11.6986 I0.0005 J-0.0154
G1 X-6.032 Y11.696 Z-0.2072
X-6.0307 Y11.6934 Z-0.2063
X-6.0295 Y11.6911 Z-0.2049
X-6.0284 Y11.689 Z-0.203
X-6.0276 Y11.6873 Z-0.2007
X-6.0269 Y11.686 Z-0.198
X-6.0265 Y11.6852 Z-0.1951
X-6.0264 Y11.685 Z-0.1921
G0 Z0.4
X-2.1509 Y9.8924
Z0.1
G3 X-2.1975 Y9.754 Z0.0596 I-0.0233 J-0.0692 F50.
X-2.1509 Y9.8924 Z0.0191 I0.0233 J0.0692
X-2.1975 Y9.754 Z-0.0213 I-0.0233 J-0.0692
X-2.1509 Y9.8924 Z-0.0618 I0.0233 J0.0692
X-2.1975 Y9.754 Z-0.1022 I-0.0233 J-0.0692
X-2.1509 Y9.8924 Z-0.1427 I0.0233 J0.0692
X-2.1975 Y9.754 Z-0.1831 I-0.0233 J-0.0692
X-2.1012 Y9.8232 Z-0.2075 I0.0233 J0.0692
X-2.2472 I-0.073 J0.
X-2.1015 Y9.8173 I0.073 J0.
G1 X-2.1012 Y9.8232
G3 X-2.1213 Y9.9551 I-0.0626 J0.058 F60.
X-2.1765 Y9.7236 I-0.0051 J-0.1211
X-2.0512 Y9.917 I0.0089 J0.1315
G1 X-2.0804 Y9.9434
X-2.1213 Y9.9551
G3 X-2.1401 Y9.9372 I-0.0037 J-0.0149
G1 X-2.1395 Y9.9342 Z-0.2072
X-2.139 Y9.9314 Z-0.2063
X-2.1384 Y9.9288 Z-0.2049
X-2.138 Y9.9265 Z-0.203
X-2.1376 Y9.9246 Z-0.2007
X-2.1373 Y9.9233 Z-0.198
X-2.1372 Y9.9224 Z-0.1951
X-2.1371 Y9.9221 Z-0.1921
G0 Z0.4
X-1.8607 Y10.2208
Z0.1
G3 X-1.9073 Y10.0824 Z0.0596 I-0.0233 J-0.0692 F50.
X-1.8607 Y10.2208 Z0.0191 I0.0233 J0.0692
X-1.9073 Y10.0824 Z-0.0213 I-0.0233 J-0.0692
X-1.8607 Y10.2208 Z-0.0618 I0.0233 J0.0692
X-1.9073 Y10.0824 Z-0.1022 I-0.0233 J-0.0692
X-1.8607 Y10.2208 Z-0.1427 I0.0233 J0.0692
X-1.9073 Y10.0824 Z-0.1831 I-0.0233 J-0.0692
X-1.811 Y10.1516 Z-0.2075 I0.0233 J0.0692
X-1.957 I-0.073 J0.
X-1.8112 Y10.1457 I0.073 J0.
G1 X-1.811 Y10.1516
G3 X-1.9782 Y10.2691 I-0.0855 J0.0561 F60.
G1 X-1.9801 Y10.1047
X-1.9697 Y10.0683
G3 X-1.7889 Y10.1047 I0.087 J0.0351
G1 X-1.7879 Y10.2924
X-1.7902 Y10.3008
X-1.7931 Y10.309
X-1.7965 Y10.317
X-1.8004 Y10.3248
X-1.8048 Y10.3323
X-1.8098 Y10.3395
X-1.8152 Y10.3463
X-1.8211 Y10.3527
X-1.8274 Y10.3587
X-1.8341 Y10.3643
X-1.8412 Y10.3694
X-1.8486 Y10.374
X-1.8563 Y10.378
X-1.8642 Y10.3816
X-1.8724 Y10.3846
X-1.8808 Y10.387
X-1.8893 Y10.3889
X-1.8979 Y10.3902
X-1.9066 Y10.3909
X-1.9153 Y10.391
X-1.924 Y10.3905
X-1.9327 Y10.3894
X-1.9412 Y10.3877
X-1.9496 Y10.3854
X-1.9579 Y10.3826
X-1.9659 Y10.3792
X-1.9737 Y10.3753
X-1.9812 Y10.3709
X-1.9801 Y10.2705
G3 X-1.9719 Y10.2575 I0.0154 J0.0005
X-1.9305 Y10.2801 I0.0133 J0.0249
X-1.9596 Y10.3479 I-0.0785 J0.0066
X-1.9719 Y10.3561 I-0.0494 J-0.0613 F50.
G2 X-1.9801 Y10.3691 I0.0072 J0.0136
G1 Y10.3901 F60.
G2 X-1.7878 Y10.434 I0.1099 J-0.0382
G1 X-1.7879 Y10.2924
G2 X-1.8038 Y10.2775 I-0.0154 J0.0005
X-1.82 Y10.2884 I0.0006 J0.0184
X-1.8055 Y10.4092 I0.1078 J0.0483
X-1.7928 Y10.4231 I0.0933 J-0.0725 F50.
G3 X-1.7879 Y10.4338 I-0.0105 J0.0112
G1 Y10.4643 F60.
G3 X-1.981 Y10.5201 I-0.1154 J-0.0373
G1 X-1.9801 Y10.3901
G3 X-1.9719 Y10.3771 I0.0154 J0.0005
X-1.9548 Y10.3794 I0.007 J0.0131
X-1.9596 Y10.4978 I-0.0542 J0.0571
X-1.9719 Y10.506 I-0.0494 J-0.0613 F50.
G2 X-1.9801 Y10.519 I0.0072 J0.0136
G1 Y10.545 F60.
G2 X-1.7874 Y10.5967 I0.1128 J-0.0357
G1 X-1.7879 Y10.4643
G2 X-1.7961 Y10.4513 I-0.0154 J0.0005
X-1.8088 Y10.4525 I-0.0054 J0.0102
G1 X-1.8098 Y10.4534
G2 X-1.8084 Y10.5749 I0.0508 J0.0602
X-1.7961 Y10.583 I0.0494 J-0.0613 F50.
G3 X-1.7879 Y10.5961 I-0.0072 J0.0136
G1 Y10.6208 F60.
G3 X-1.9806 Y10.677 I-0.1137 J-0.0314
G1 X-1.9801 Y10.545
G3 X-1.9719 Y10.532 I0.0154 J0.0005
X-1.9587 Y10.5333 I0.0056 J0.0105
X-1.9596 Y10.6552 I-0.0502 J0.0606
X-1.9719 Y10.6634 I-0.0494 J-0.0613 F50.
G2 X-1.9801 Y10.6764 I0.0072 J0.0136
G1 Y10.7019 F60.
G2 X-1.7874 Y10.7559 I0.1133 J-0.0334
G1 X-1.7879 Y10.6208
G2 X-1.8038 Y10.606 I-0.0154 J0.0005
X-1.8245 Y10.6215 I0.0008 J0.0226
X-1.8055 Y10.7308 I0.1122 J0.0368
X-1.7928 Y10.7447 I0.0933 J-0.0725 F50.
G3 X-1.7879 Y10.7554 I-0.0105 J0.0112
G1 Y10.785 F60.
G3 X-1.9809 Y10.8361 I-0.1137 J-0.0395
G1 X-1.9801 Y10.7019
G3 X-1.9642 Y10.6871 I0.0154 J0.0005
X-1.9428 Y10.7034 I-0.0008 J0.0232
X-1.9625 Y10.8106 I-0.1129 J0.0347
X-1.9752 Y10.8245 I-0.0933 J-0.0725 F50.
G2 X-1.9801 Y10.8352 I0.0105 J0.0112
G1 Y10.8625 F60.
G2 X-1.7873 Y10.9154 I0.1136 J-0.0361
G1 X-1.7879 Y10.785
G2 X-1.7961 Y10.772 I-0.0154 J0.0005
X-1.812 Y10.774 I-0.0066 J0.0123
X-1.8084 Y10.8935 I0.053 J0.0582
X-1.7961 Y10.9017 I0.0494 J-0.0613 F50.
G3 X-1.7879 Y10.9147 I-0.0072 J0.0136
G1 Y10.9418 F60.
G3 X-1.9807 Y10.9947 I-0.1135 J-0.0358
G1 X-1.9801 Y10.8625
G3 X-1.9719 Y10.8494 I0.0154 J0.0005
X-1.9589 Y10.8507 I0.0055 J0.0104
X-1.9596 Y10.9728 I-0.0501 J0.0608
X-1.9719 Y10.981 I-0.0494 J-0.0613 F50.
G2 X-1.9801 Y10.994 I0.0072 J0.0136
G1 Y11.0196 F60.
G2 X-1.7874 Y11.0741 I0.1134 J-0.0332
G1 X-1.7879 Y10.9418
G2 X-1.7961 Y10.9288 I-0.0154 J0.0005
X-1.8088 Y10.93 I-0.0054 J0.0102
G1 X-1.8098 Y10.9308
G2 X-1.8084 Y11.0523 I0.0508 J0.0602
X-1.7961 Y11.0605 I0.0494 J-0.0613 F50.
G3 X-1.7879 Y11.0735 I-0.0072 J0.0136
G1 Y11.1029 F60.
G3 X-1.9809 Y11.1539 I-0.1136 J-0.0392
G1 X-1.9801 Y11.0196
G3 X-1.9535 Y11.0096 I0.0154 J0.0005
X-1.9385 Y11.042 I-0.042 J0.0391
X-1.9625 Y11.1284 I-0.1173 J0.014
X-1.9752 Y11.1423 I-0.0933 J-0.0725 F50.
G2 X-1.9801 Y11.153 I0.0105 J0.0112
G1 Y11.1772 F60.
G2 X-1.7875 Y11.2332 I0.1135 J-0.0312
G1 X-1.7879 Y11.1029
G2 X-1.7961 Y11.0898 I-0.0154 J0.0005
X-1.8118 Y11.0918 I-0.0065 J0.0122
X-1.8084 Y11.2115 I0.0528 J0.0584
X-1.7961 Y11.2197 I0.0494 J-0.0613 F50.
G3 X-1.7879 Y11.2327 I-0.0072 J0.0136
G1 Y11.2624 F60.
G3 X-1.9809 Y11.313 I-0.1136 J-0.0401
G1 X-1.9801 Y11.1772
G3 X-1.9642 Y11.1624 I0.0154 J0.0005
X-1.9436 Y11.1777 I-0.0008 J0.0224
X-1.9625 Y11.2874 I-0.1121 J0.0372
X-1.9752 Y11.3013 I-0.0933 J-0.0725 F50.
G2 X-1.9801 Y11.312 I0.0105 J0.0112
G1 Y11.3374 F60.
G2 X-1.7874 Y11.3924 I0.1136 J-0.0332
G1 X-1.7879 Y11.2624
G2 X-1.7961 Y11.2493 I-0.0154 J0.0005
X-1.8125 Y11.2514 I-0.0067 J0.0126
X-1.8084 Y11.3706 I0.0535 J0.0578
X-1.7961 Y11.3787 I0.0494 J-0.0613 F50.
G3 X-1.7879 Y11.3918 I-0.0072 J0.0136
G1 Y11.4184 F60.
G3 X-1.9449 Y11.4892 I-0.1118 J-0.0385
X-1.9397 Y11.4653 I0.0117 J-0.0099
G1 X-1.9373 Y11.4642
X-1.8103 Y11.4052
X-1.8098 Y11.405 F50.
G3 X-1.7879 Y11.4184 I0.0065 J0.0139
X-1.9799 I-0.096 J-0.0012 F60.
G1 X-1.9801 Y11.3374
G3 X-1.9577 Y11.3243 I0.0154 J0.0005
G1 X-1.955 Y11.3257 Z-0.2072
X-1.9524 Y11.327 Z-0.2063
X-1.9501 Y11.3282 Z-0.2049
X-1.948 Y11.3293 Z-0.203
X-1.9463 Y11.3302 Z-0.2007
X-1.945 Y11.3308 Z-0.198
X-1.9443 Y11.3312 Z-0.1951
X-1.944 Y11.3314 Z-0.1921
G0 Z0.4
X-1.5881 Y11.7691
Z0.1
G3 X-1.6347 Y11.6307 Z0.0596 I-0.0233 J-0.0692 F50.
X-1.5881 Y11.7691 Z0.0191 I0.0233 J0.0692
X-1.6347 Y11.6307 Z-0.0213 I-0.0233 J-0.0692
X-1.5881 Y11.7691 Z-0.0618 I0.0233 J0.0692
X-1.6347 Y11.6307 Z-0.1022 I-0.0233 J-0.0692
X-1.5881 Y11.7691 Z-0.1427 I0.0233 J0.0692
X-1.6347 Y11.6307 Z-0.1831 I-0.0233 J-0.0692
X-1.5384 Y11.6999 Z-0.2075 I0.0233 J0.0692
X-1.6844 I-0.073 J0.
X-1.5386 Y11.694 I0.073 J0.
G1 X-1.5384 Y11.6999
G3 X-1.523 Y11.741 I-0.0948 J0.0589 F60.
X-1.7048 Y11.7464 I-0.0921 J-0.0363
G1 X-1.7302 Y11.7155
G3 X-1.6898 Y11.5685 I0.0962 J-0.0526
X-1.671 Y11.5865 I0.0037 J0.0149
G1 X-1.7036 Y11.7096
X-1.7045 Y11.7121
G3 X-1.7302 Y11.7155 I-0.014 J-0.0064 F50.
X-1.7384 Y11.6052 I0.0629 J-0.0601 F60.
X-1.7153 Y11.586 I0.2379 J0.2626
X-1.6915 Y11.5693 I0.2147 J0.2819 F50.
X-1.6898 Y11.5685 I0.004 J0.0062
X-1.5203 Y11.7414 I0.0208 J0.1491 F60.
G1 X-1.5215 Y11.7445
X-1.5232 Y11.7473
X-1.5254 Y11.7496
X-1.5279 Y11.7515
X-1.5307 Y11.7529
X-1.5337 Y11.7538
X-1.5367 Y11.7541
X-1.5397 Y11.7538
X-1.5425 Y11.753
X-1.5451 Y11.7517
X-1.5474 Y11.75
X-1.5483 Y11.7492
X-1.7072 Y11.6065
X-1.7119 Y11.6023 F50.
G3 X-1.7127 Y11.5802 I0.0103 J-0.0114
G1 X-1.7052 Y11.5729 F60.
X-1.6898 Y11.5685
G3 X-1.5435 Y11.5132 I0.0853 J0.0046
G1 X-1.5333 Y11.5178
X-1.5234 Y11.523
X-1.5137 Y11.5287
X-1.5044 Y11.5349
X-1.4955 Y11.5416
X-1.4869 Y11.5489
X-1.4788 Y11.5566
X-1.4711 Y11.5647
X-1.4639 Y11.5732
X-1.4572 Y11.5822
X-1.451 Y11.5915
X-1.4453 Y11.6011
X-1.4402 Y11.6111
X-1.4356 Y11.6213
X-1.4316 Y11.6318
X-1.4282 Y11.6424
X-1.4254 Y11.6533
X-1.4232 Y11.6642
X-1.4216 Y11.6753
X-1.4207 Y11.6865
X-1.4204 Y11.6976
X-1.4207 Y11.7088
X-1.4216 Y11.72
X-1.4232 Y11.7311
X-1.4254 Y11.742
X-1.4282 Y11.7529
X-1.4315 Y11.7635
X-1.4355 Y11.774
X-1.4401 Y11.7842
X-1.4452 Y11.7942
X-1.4509 Y11.8038
X-1.4571 Y11.8131
X-1.4638 Y11.8221
X-1.471 Y11.8306
X-1.4787 Y11.8388
X-1.4868 Y11.8465
X-1.4954 Y11.8537
X-1.5043 Y11.8605
X-1.5136 Y11.8667
X-1.5232 Y11.8724
X-1.5331 Y11.8775
X-1.5433 Y11.8821
X-1.5538 Y11.8861
X-1.5645 Y11.8896
X-1.5753 Y11.8924
X-1.5863 Y11.8946
X-1.5973 Y11.8962
X-1.6085 Y11.8971
X-1.6197 Y11.8975
X-1.6309 Y11.8972
X-1.642 Y11.8963
X-1.6531 Y11.8947
X-1.6641 Y11.8926
X-1.6749 Y11.8898
X-1.6856 Y11.8865
X-1.696 Y11.8825
X-1.7063 Y11.878
X-1.7162 Y11.8729
X-1.7259 Y11.8672
X-1.7352 Y11.861
X-1.7442 Y11.8543
X-1.7528 Y11.8471
X-1.7609 Y11.8395
X-1.7686 Y11.8314
X-1.7759 Y11.8228
X-1.7826 Y11.8139
X-1.7889 Y11.8046
X-1.7946 Y11.795
X-1.7998 Y11.7851
X-1.8044 Y11.7749
X-1.8084 Y11.7645
G3 X-1.8546 Y11.6292 I0.1501 J-0.1267
X-2.0784 Y11.3328 I0.0153 J-0.2443
X-2.0891 Y10.9032 I2.4991 J-0.277
G1 Y10.1623
G3 X-1.6877 Y10.085 I0.2007 J-0.0387
X-1.6909 Y10.176 I-0.2007 J0.0387
X-1.679 Y10.4102 I-1.1586 J0.1763
G1 X-1.6789 Y10.6889
G2 X-1.6879 Y11.1531 I4.747 J0.3242
G1 Y11.3506
G2 X-1.6813 Y11.386 I0.0233 J0.014
G1 X-1.6667 Y11.3858
X-1.6521 Y11.3862
X-1.6376 Y11.3872
X-1.623 Y11.3888
X-1.6086 Y11.391
X-1.5943 Y11.3938
X-1.5801 Y11.3972
X-1.5661 Y11.4012
X-1.5522 Y11.4057
X-1.5385 Y11.4109
X-1.5251 Y11.4166
X-1.5119 Y11.4229
X-1.499 Y11.4297
X-1.4864 Y11.4371
X-1.4741 Y11.4449
X-1.4622 Y11.4533
X-1.4506 Y11.4622
X-1.4394 Y11.4715
X-1.4286 Y11.4813
X-1.4182 Y11.4916
X-1.4082 Y11.5023
X-1.3987 Y11.5133
X-1.3897 Y11.5248
X-1.3812 Y11.5367
X-1.3731 Y11.5488
X-1.3656 Y11.5614
X-1.3586 Y11.5742
X-1.3522 Y11.5873
X-1.3463 Y11.6006
X-1.341 Y11.6142
X-1.3418 Y11.7355
G3 X-1.613 Y11.9909 I-0.2599 J-0.0043
G2 X-1.6829 Y11.9712 I-0.0842 J0.1645
G3 X-1.942 Y11.7348 I0.0824 J-0.3504
X-2.1803 Y11.2419 I0.2075 J-0.4044
X-2.189 Y10.9617 I1.5759 J-0.1895
G1 X-2.1891 Y10.2184
G2 X-2.1985 Y10.0643 I-0.204 J-0.0648
G3 X-2.3349 Y9.7705 I0.1468 J-0.2466
X-1.9687 Y9.7753 I0.1823 J0.063
X-1.722 Y9.8721 I-0.3181 J1.1736
X-1.5795 Y10.3253 I-0.366 J0.364
X-1.5789 Y10.5731 I-25.498 J0.1848
G2 X-1.5839 Y11.2631 I11.0109 J0.4243
G3 X-1.3418 Y11.4352 I-0.2533 J0.6127
G1 Y11.6145
G3 X-1.35 Y11.6276 I-0.0154 J-0.0005
X-1.3939 Y11.616 I-0.0158 J-0.0295
X-1.3626 Y11.456 I0.0995 J-0.0636
X-1.35 Y11.4482 I0.0682 J0.0964 F50.
G2 X-1.3418 Y11.4352 I-0.0072 J-0.0136
G1 Y11.3707 F60.
G2 X-1.4574 Y11.2288 I-0.2037 J0.048
G3 X-1.4725 Y10.6431 I1.6864 J-0.3364
G2 X-1.5152 Y9.9949 I-2.9733 J-0.1297
X-1.8591 Y9.7138 I-0.4158 J0.1579
G1 X-1.8826 Y9.6908
X-1.9053 Y9.6697
X-1.9279 Y9.6485
G2 X-2.0605 Y9.5643 I-0.2504 J0.2477
G3 X-2.1262 Y9.556 I-0.0136 J-0.1556
G1 X-2.1387 Y9.5541
X-2.1514 Y9.5527
X-2.1641 Y9.552
X-2.1768
X-2.1895 Y9.5525
X-2.2021 Y9.5537
X-2.2147 Y9.5554
X-2.2272 Y9.5578
X-2.2396 Y9.5608
X-2.2518 Y9.5644
X-2.2638 Y9.5685
X-2.2756 Y9.5733
X-2.2871 Y9.5786
X-2.2984 Y9.5845
X-2.3094 Y9.5909
X-2.32 Y9.5978
X-2.3303 Y9.6053
X-2.3402 Y9.6132
X-2.3498 Y9.6217
X-2.3589 Y9.6305
X-2.3675 Y9.6398
X-2.3757 Y9.6495
X-2.3835 Y9.6596
X-2.3907 Y9.6701
X-2.3974 Y9.6809
X-2.4035 Y9.692
X-2.4092 Y9.7034
X-2.4142 Y9.7151
X-2.4187 Y9.727
X-2.4226 Y9.7391
X-2.4259 Y9.7513
X-2.4262 Y9.8586
G2 X-2.3145 Y10.0887 I0.366 J-0.0355
G3 X-2.2891 Y10.426 I-1.1013 J0.2525
G1 Y10.6428
X-2.289 Y10.9835
G2 X-2.2264 Y11.5948 I1.4705 J0.1582
X-2.081 Y11.7551 I0.467 J-0.2775
X-1.8978 Y11.9682 I5.7782 J-4.781
G1 X-1.8958 Y11.9695
X-1.8936 Y11.9704
X-1.8912 Y11.9706
X-1.6935
G2 X-1.6889 Y11.9408 I-0.0005 J-0.0154
G3 X-1.6786 Y11.9118 I0.0052 J-0.0145
X-1.6714 Y11.917 I-0.0052 J0.0145
G1 X-1.635 Y11.9652
X-1.6337 Y11.9674
G2 X-1.613 Y11.9904 I0.0553 J-0.0288 F50.
G3 X-1.5762 Y12.0231 I-0.0849 J0.1327 F60.
G2 X-1.3418 Y11.9668 I0.0861 J-0.1578
G1 Y11.7355
G2 X-1.35 Y11.7225 I-0.0154 J0.0005
X-1.4162 Y11.7433 I-0.0229 J0.0429
X-1.3627 Y11.9462 I0.1403 J0.0715
X-1.35 Y11.9538 I0.0868 J-0.1314 F50.
G3 X-1.3418 Y11.9668 I-0.0072 J0.0136
G1 Y12.017 F60.
G3 X-1.5445 Y12.1305 I-0.1501 J-0.0304
G2 X-1.5604 Y12.0453 I-0.1648 J-0.0133
G3 X-1.559 Y12.03 I0.014 J-0.0064
X-1.4942 Y12.0559 I0.0293 J0.0207
X-1.5227 Y12.1057 I-0.0779 J-0.0115
X-1.535 Y12.1139 I-0.0494 J-0.0613 F50.
G2 X-1.5432 Y12.1269 I0.0072 J0.0136
G1 Y12.1441 F60.
G2 X-1.3418 Y12.1714 I0.1097 J-0.0537
G1 Y12.017
G2 X-1.35 Y12.004 I-0.0154 J0.0005
X-1.4107 Y12.0336 I-0.0196 J0.0368
X-1.3626 Y12.1505 I0.1163 J0.0205
X-1.35 Y12.1583 I0.0682 J-0.0964 F50.
G3 X-1.3418 Y12.1714 I-0.0072 J0.0136
G1 Y12.2047 F60.
G3 X-1.5441 Y12.2696 I-0.1233 J-0.0364
G1 X-1.5432 Y12.1441
G3 X-1.535 Y12.1311 I0.0154 J0.0005
X-1.5113 Y12.1358 I0.009 J0.0169
X-1.5227 Y12.2472 I-0.0608 J0.05
X-1.535 Y12.2553 I-0.0494 J-0.0613 F50.
G2 X-1.5432 Y12.2684 I0.0072 J0.0136
G1 Y12.2938 F60.
G2 X-1.4965 Y12.356 I0.0727 J-0.0059
G1 X-1.4121 Y12.3556
G2 X-1.3418 Y12.3337 I0.0249 J-0.0436
G1 Y12.2047
G2 X-1.3715 Y12.1995 I-0.0154 J0.0005
G1 X-1.4252 Y12.3332
X-1.4258 Y12.3345 F50.
G2 X-1.4121 Y12.3556 I0.0143 J0.0057
G1 X-1.3426 F60.
X-1.3418 Y12.355
Y12.3337
G2 X-1.3537 Y12.3193 I-0.0154 J0.0005
G1 X-1.3643 Y12.3168
X-1.5206 Y12.2802
X-1.5243 Y12.2794 F50.
G2 X-1.5432 Y12.2938 I-0.0035 J0.015
G1 Y12.355 F60.
X-1.5427 Y12.3556
X-1.4963
G2 X-1.4827 Y12.3463 I-0.0005 J-0.0154
G1 X-1.4816 Y12.3436 Z-0.2072
X-1.4804 Y12.3409 Z-0.2063
X-1.4794 Y12.3385 Z-0.2049
X-1.4785 Y12.3364 Z-0.203
X-1.4777 Y12.3346 Z-0.2007
X-1.4771 Y12.3333 Z-0.198
X-1.4768 Y12.3325 Z-0.1951
X-1.4767 Y12.3322 Z-0.1921
G0 Z0.4
X-1.8484 Y11.9541
Z-0.1768
G1 Z-0.1921 F50.
X-1.8486 Y11.9542 Z-0.1951
X-1.8494 Y11.9547 Z-0.198
X-1.8506 Y11.9554 Z-0.2007
X-1.8522 Y11.9564 Z-0.203
X-1.8542 Y11.9576 Z-0.2049
X-1.8565 Y11.9589 Z-0.2063
X-1.859 Y11.9604 Z-0.2072
X-1.8616 Y11.9619 Z-0.2075
G3 X-1.8912 Y11.9706 I-0.0318 J-0.0536
G1 X-1.9514 F60.
G3 X-2.1904 Y11.7826 I0.1751 J-0.4684
X-2.3876 Y11.2172 I0.4838 J-0.4858
X-2.389 Y10.9384 I15.2052 J-0.2188
G1 X-2.3891 Y10.4739
G2 X-2.3982 Y10.1649 I-2.6338 J-0.0773
G3 X-2.4262 Y10.1161 I0.0504 J-0.0613
G1 Y9.8586
G3 X-2.4228 Y9.8491 I0.0154 J0.
G2 X-2.4195 Y9.8408 I-0.012 J-0.0096
G1 X-2.4186 Y9.8293
G2 X-2.4174 Y9.781 I-0.0557 J-0.0255
G3 X-2.4262 Y9.7513 I0.0536 J-0.0318 F50.
G1 Y9.6346 F60.
X-2.4238 Y9.6234
X-2.4209 Y9.6125
X-2.4174 Y9.6016
X-2.4133 Y9.591
X-2.4087 Y9.5807
X-2.4034 Y9.5706
X-2.3977 Y9.5608
X-2.3914 Y9.5513
X-2.3845 Y9.5422
X-2.3772 Y9.5335
X-2.3695 Y9.5252
X-2.3613 Y9.5174
X-2.3527 Y9.5099
X-2.3436 Y9.503
X-2.3342 Y9.4966
X-2.3245 Y9.4907
X-2.3145 Y9.4854
X-2.3042 Y9.4806
X-2.2936 Y9.4764
X-2.2829 Y9.4727
X-2.2719 Y9.4697
X-2.2608 Y9.4672
X-2.2496 Y9.4654
X-2.2383 Y9.4642
X-2.2269 Y9.4636
X-2.2156
G2 X-2.1556 Y9.5441 I0.1215 J-0.0281
G3 X-2.1492 Y9.552 I-0.0082 J0.013
G2 X-2.1399 Y9.5613 I0.0145 J-0.0051
G1 X-2.1334 Y9.5636
X-2.1031 Y9.5743
G2 X-2.0901 Y9.573 I0.0051 J-0.0145
G3 X-2.0605 Y9.5643 I0.0318 J0.0536 F50.
G1 X-1.9514 F60.
G3 X-1.4615 Y9.8686 I-0.1786 J0.8341
X-1.3849 Y10.6336 I-1.7342 J0.5599
G2 X-1.3793 Y11.1434 I7.5242 J0.1727
G3 X-1.3418 Y11.1847 I-0.0151 J0.0513
G1 Y11.3707
G3 X-1.35 Y11.3837 I-0.0154 J-0.0005
X-1.3862 Y11.3764 I-0.0136 J-0.0256
X-1.3626 Y11.2055 I0.0917 J-0.0744
X-1.35 Y11.1977 I0.0682 J0.0964 F50.
G2 X-1.3418 Y11.1847 I-0.0072 J-0.0136
G1 Y9.9759 F60.
G2 X-1.6814 Y9.5643 I-0.5349 J0.0954
G1 X-1.9514
G2 X-1.9645 Y9.5725 I0.0005 J0.0154
X-1.9638 Y9.5866 I0.0122 J0.0065
X-1.702 Y9.5852 I0.1305 J-0.0882
X-1.6944 Y9.5725 I-0.1314 J-0.0868 F50.
G3 X-1.6814 Y9.5643 I0.0136 J0.0072
G1 X-1.5528 F60.
G3 X-1.3418 Y9.716 I-0.0736 J0.3249
X-1.366 Y9.728 I-0.0154 J-0.0005
G1 X-1.561 Y9.5923
X-1.5629 Y9.5907
X-1.5646 Y9.5888
X-1.5659 Y9.5867
G3 X-1.5528 Y9.5643 I0.0137 J-0.007 F50.
G1 X-1.4121 F60.
G3 X-1.3418 Y9.593 I0.0189 J0.054
X-1.3607 Y9.6074 I-0.0154 J-0.0005
G1 X-1.3644 Y9.6066
X-1.415 Y9.5947
G3 X-1.4252 Y9.5867 I0.0035 J-0.015
X-1.4121 Y9.5643 I0.0137 J-0.007 F50.
G1 X-1.3426 F60.
X-1.3418 Y9.5647
Y9.9759
G3 X-1.3643 Y9.9891 I-0.0154 J-0.0005
G1 X-1.3669 Y9.9877 Z-0.2072
X-1.3695 Y9.9864 Z-0.2063
X-1.3718 Y9.9851 Z-0.2049
X-1.3739 Y9.9841 Z-0.203
X-1.3756 Y9.9832 Z-0.2007
X-1.3769 Y9.9826 Z-0.198
X-1.3777 Y9.9822 Z-0.1951
X-1.3779 Y9.982 Z-0.1921
G0 Z0.4
X-2.219 Y9.5135
Z-0.1768
G1 Z-0.1921 F50.
X-2.2189 Y9.5132 Z-0.1951
X-2.2187 Y9.5123 Z-0.198
X-2.2184 Y9.5109 Z-0.2007
X-2.2179 Y9.5091 Z-0.203
X-2.2173 Y9.5068 Z-0.2049
X-2.2167 Y9.5042 Z-0.2063
X-2.216 Y9.5014 Z-0.2072
X-2.2153 Y9.4985 Z-0.2075
G2 X-2.2157 Y9.4676 I-0.0605 J-0.0147
G1 X-2.2181 Y9.4598 F60.
X-2.2198 Y9.4527
G2 X-2.4257 Y9.4592 I-0.1005 J0.0788
G1 X-2.4262 Y9.6346
G2 X-2.418 Y9.6476 I0.0154 J-0.0005
X-2.3703 Y9.6335 I0.0167 J-0.0313
X-2.4054 Y9.4797 I-0.1032 J-0.0574
X-2.418 Y9.4719 I-0.0682 J0.0964 F50.
G3 X-2.4262 Y9.4589 I0.0072 J-0.0136
G1 Y9.4234 F60.
X-2.4241 Y9.4148
X-2.4214 Y9.4063
X-2.4182 Y9.398
X-2.4144 Y9.3899
X-2.4101 Y9.3821
X-2.4053 Y9.3746
X-2.4 Y9.3675
X-2.3942 Y9.3607
X-2.388 Y9.3543
X-2.3814 Y9.3483
X-2.3744 Y9.3428
X-2.367 Y9.3378
X-2.3593 Y9.3333
X-2.3514 Y9.3293
X-2.3432 Y9.3258
X-2.3347 Y9.3229
X-2.3262 Y9.3206
X-2.3174 Y9.3188
X-2.3086 Y9.3177
X-2.2997 Y9.3171
X-2.2908
X-2.2819 Y9.3177
X-2.2731 Y9.3189
X-2.2644 Y9.3207
X-2.2558 Y9.323
X-2.2474 Y9.3259
X-2.2392 Y9.3294
X-2.2312 Y9.3334
X-2.2236 Y9.338
X-2.2248 Y9.4129
X-2.2238 Y9.4363
X-2.2198 Y9.4527
G3 X-2.2246 Y9.4673 I-0.0151 J0.0031
X-2.265 Y9.4603 I-0.0174 J-0.0195
X-2.2453 Y9.3612 I0.069 J-0.0378
X-2.233 Y9.353 I0.0494 J0.0613 F50.
G2 X-2.2248 Y9.34 I-0.0072 J-0.0136
G1 Y9.319 F60.
G2 X-2.4262 Y9.2761 I-0.1146 J0.0442
G1 Y9.4234
G2 X-2.418 Y9.4365 I0.0154 J-0.0005
X-2.3558 Y9.4022 I0.0199 J-0.0374
X-2.4054 Y9.2969 I-0.1178 J-0.0088
X-2.418 Y9.2892 I-0.0682 J0.0964 F50.
G3 X-2.4262 Y9.2761 I0.0072 J-0.0136
G1 Y9.2486 F60.
G3 X-2.3762 Y9.179 I0.0795 J0.0042
G1 X-2.3733 Y9.1793
X-2.3706 Y9.1802
X-2.368 Y9.1816
X-2.3658 Y9.1834
X-2.3639 Y9.1856
X-2.3625 Y9.1881
X-2.3616 Y9.1907
X-2.3611 Y9.1936
X-2.3612 Y9.1964
X-2.3618 Y9.1992
X-2.3629 Y9.2018
G3 X-2.3636 Y9.203 I-0.0137 J-0.007
X-2.4037 Y9.2618 I-0.1015 J-0.0263
X-2.4262 Y9.2486 I-0.007 J-0.0137 F50.
G1 Y9.1801 F60.
X-2.4254 Y9.1794
X-2.2798
G3 X-2.2248 Y9.1978 I0.0179 J0.0376
X-2.2412 Y9.2126 I-0.0154 J-0.0005
G1 X-2.2475 Y9.2122
X-2.2802 Y9.2101
G3 X-2.2929 Y9.2018 I0.001 J-0.0153
X-2.2798 Y9.1794 I0.0137 J-0.007 F50.
G1 X-2.2254 F60.
X-2.2248 Y9.1801
Y9.319
G3 X-2.2473 Y9.3322 I-0.0154 J-0.0005
G1 X-2.2499 Y9.3308 Z-0.2072
X-2.2525 Y9.3295 Z-0.2063
X-2.2548 Y9.3282 Z-0.2049
X-2.2569 Y9.3272 Z-0.203
X-2.2586 Y9.3263 Z-0.2007
X-2.2599 Y9.3257 Z-0.198
X-2.2607 Y9.3253 Z-0.1951
X-2.2609 Y9.3251 Z-0.1921
G0 Z-0.1768
X-2.4096 Y10.0732
G1 Z-0.1921 F50.
X-2.4097 Y10.0734 Z-0.1951
X-2.4102 Y10.0742 Z-0.198
X-2.4109 Y10.0754 Z-0.2007
X-2.4119 Y10.0771 Z-0.203
X-2.4131 Y10.0791 Z-0.2049
X-2.4144 Y10.0813 Z-0.2063
X-2.4159 Y10.0838 Z-0.2072
X-2.4174 Y10.0864 Z-0.2075
G2 X-2.4262 Y10.1161 I0.0536 J0.0318
G1 Y11.5478 F60.
G2 X-2.1471 Y11.9693 I0.6651 J-0.1371
G1 X-2.1447 Y11.9703
X-2.1421 Y11.9706
X-1.9514
G2 X-1.9384 Y11.9625 I-0.0005 J-0.0154
X-1.9432 Y11.9328 I-0.022 J-0.0117
X-2.1213 Y11.9499 I-0.0817 J0.0853
X-2.1291 Y11.9625 I0.0964 J0.0682 F50.
G3 X-2.1421 Y11.9706 I-0.0136 J-0.0072
G1 X-2.2094 F60.
G3 X-2.4262 Y11.8139 I0.0688 J-0.3233
X-2.402 Y11.8018 I0.0154 J0.0005
G1 X-2.2011 Y11.9427
X-2.1992 Y11.9443
X-2.1976 Y11.9461
X-2.1963 Y11.9482
G3 X-2.2094 Y11.9706 I-0.0137 J0.007 F50.
G1 X-2.3501 F60.
G3 X-2.4262 Y11.9402 I-0.0208 J-0.0582
X-2.4072 Y11.9258 I0.0154 J0.0005
G1 X-2.4036 Y11.9266
X-2.347 Y11.9403
G3 X-2.337 Y11.9482 I-0.0036 J0.0149
X-2.3501 Y11.9706 I-0.0137 J0.007 F50.
G1 X-2.4254 F60.
X-2.4262 Y11.9701
Y11.5478
G3 X-2.4037 Y11.5347 I0.0154 J0.0005
G1 X-2.4011 Y11.536 Z-0.2072
X-2.3985 Y11.5374 Z-0.2063
X-2.3962 Y11.5386 Z-0.2049
X-2.3941 Y11.5397 Z-0.203
X-2.3924 Y11.5405 Z-0.2007
X-2.3911 Y11.5412 Z-0.198
X-2.3903 Y11.5416 Z-0.1951
X-2.3901 Y11.5417 Z-0.1921
G0 Z0.4
X-5.9541 Y11.6219
Z-0.1768
G1 Z-0.1921 F50.
X-5.954 Y11.6222 Z-0.1951
X-5.9538 Y11.6231 Z-0.198
X-5.9534 Y11.6244 Z-0.2007
X-5.9529 Y11.6263 Z-0.203
X-5.9524 Y11.6285 Z-0.2049
X-5.9517 Y11.6311 Z-0.2063
X-5.951 Y11.6339 Z-0.2072
X-5.9502 Y11.6368 Z-0.2075
G3 X-5.9382 Y11.7205 I-0.3801 J0.0974
G1 X-5.9419 Y11.7294 F60.
X-5.9461 Y11.7381
X-5.9509 Y11.7465
X-5.9561 Y11.7546
X-5.9619 Y11.7623
X-5.9682 Y11.7697
X-5.9748 Y11.7767
X-5.982 Y11.7832
X-5.9895 Y11.7893
X-5.9973 Y11.7948
X-6.0055 Y11.7999
X-6.014 Y11.8045
X-6.0228 Y11.8085
X-6.0318 Y11.812
X-6.041 Y11.8149
X-6.0504 Y11.8172
X-6.0599 Y11.8189
X-6.0695 Y11.82
X-6.0791 Y11.8206
X-6.0888 Y11.8205
X-6.0984 Y11.8198
X-6.1079 Y11.8185
X-6.1174 Y11.8166
X-6.1267 Y11.8142
X-6.1359 Y11.8111
G3 X-6.4359 Y11.5989 I-0.084 J-0.1995
G1 X-6.4329 Y11.5878
X-6.4293 Y11.5768
X-6.4251 Y11.5661
X-6.4204 Y11.5556
X-6.4152 Y11.5453
X-6.4094 Y11.5353
X-6.4032 Y11.5256
X-6.3964 Y11.5163
X-6.3892 Y11.5073
X-6.3816 Y11.4987
X-6.3735 Y11.4905
X-6.365 Y11.4828
X-6.3561 Y11.4754
X-6.3468 Y11.4686
X-6.3372 Y11.4622
X-6.3273 Y11.4564
X-6.3171 Y11.451
X-6.3066 Y11.4462
X-6.2959 Y11.4419
X-6.285 Y11.4382
X-6.274 Y11.435
X-6.2627 Y11.4324
X-6.2514 Y11.4304
X-6.24 Y11.429
X-6.2285 Y11.4282
X-6.217 Y11.4279
X-6.2055 Y11.4283
X-6.194 Y11.4292
X-6.1826 Y11.4308
X-6.1713 Y11.4329
X-6.1601 Y11.4356
X-6.149 Y11.4388
G3 X-5.803 Y11.4886 I0.1161 J0.4204
G1 X-5.7955 Y11.4965
X-5.7884 Y11.5048
X-5.7819 Y11.5135
X-5.7758 Y11.5226
X-5.7702 Y11.5319
X-5.7652 Y11.5416
X-5.7607 Y11.5515
X-5.7567 Y11.5617
X-5.7534 Y11.572
X-5.7506 Y11.5825
X-5.7484 Y11.5932
X-5.7468 Y11.604
X-5.7458 Y11.6148
X-5.7454 Y11.6257
X-5.7456 Y11.6366
X-5.7464 Y11.6475
X-5.7478 Y11.6583
X-5.7499 Y11.669
X-5.7525 Y11.6795
X-5.7557 Y11.69
X-5.7594 Y11.7002
X-5.7638 Y11.7102
X-5.7686 Y11.7199
X-5.7741 Y11.7293
X-5.78 Y11.7385
X-5.7864 Y11.7473
X-5.7933 Y11.7557
X-5.8007 Y11.7637
X-5.8085 Y11.7713
X-5.8167 Y11.7785
X-5.8253 Y11.7852
X-5.8342 Y11.7914
X-5.8435 Y11.7971
X-5.8531 Y11.8022
X-5.863 Y11.8068
X-5.8731 Y11.8109
G3 X-6.033 Y11.9036 I-0.1957 J-0.1533
X-6.4834 Y11.7824 I-0.1356 J-0.3932
G1 X-6.4904 Y11.7711
X-6.4968 Y11.7595
X-6.5027 Y11.7477
X-6.5081 Y11.7355
X-6.5128 Y11.7232
X-6.517 Y11.7106
X-6.5207 Y11.6979
X-6.5237 Y11.685
X-6.5261 Y11.6719
X-6.5279 Y11.6588
X-6.5291 Y11.6456
X-6.5297 Y11.6324
Y11.6191
X-6.5291 Y11.6059
X-6.5278 Y11.5927
X-6.526 Y11.5796
X-6.5235 Y11.5665
X-6.5204 Y11.5536
X-6.5168 Y11.5409
X-6.5125 Y11.5284
X-6.5077 Y11.516
X-6.5023 Y11.5039
X-6.4964 Y11.4921
X-6.4899 Y11.4805
X-6.4829 Y11.4692
X-6.4754 Y11.4583
X-6.4674 Y11.4478
X-6.4589 Y11.4376
X-6.4499 Y11.4279
X-6.4405 Y11.4185
X-6.4307 Y11.4096
X-6.4204 Y11.4012
X-6.4098 Y11.3933
X-6.3989 Y11.3858
X-6.3876 Y11.3789
X-6.376 Y11.3725
X-6.3641 Y11.3666
X-6.3519 Y11.3613
X-6.3395 Y11.3566
X-6.327 Y11.3525
X-6.3142 Y11.3489
X-6.3013 Y11.3459
X-6.2882 Y11.3436
X-6.2751 Y11.3418
X-6.2619 Y11.3406
X-6.2487 Y11.3401
X-6.2354 Y11.3402
X-6.2222 Y11.3409
X-6.209 Y11.3422
X-6.1904 Y11.3378
X-6.1717 Y11.334
X-6.1529 Y11.3308
X-6.134 Y11.3282
X-6.1151 Y11.3261
X-6.0961 Y11.3247
X-6.077 Y11.3238
X-6.0579 Y11.3235
X-6.0389 Y11.3237
X-6.0198 Y11.3246
X-6.0008 Y11.326
X-5.9818 Y11.3281
X-5.9629 Y11.3306
X-5.9441 Y11.3338
X-5.9254 Y11.3376
X-5.9069 Y11.3419
X-5.8884 Y11.3468
X-5.8701 Y11.3522
X-5.852 Y11.3582
X-5.8341 Y11.3648
X-5.8164 Y11.3718
X-5.799 Y11.3795
X-5.7817 Y11.3876
X-5.7647 Y11.3963
X-5.748 Y11.4055
X-5.7316 Y11.4152
G3 X-5.6735 Y11.7358 I-0.2151 J0.2045
X-5.9292 Y11.9713 I-0.4748 J-0.2589
G1 X-6.3369 Y11.9706
G3 X-6.5956 Y11.7732 I0.0337 J-0.3124
X-6.5718 Y11.7604 I0.0154 J0.
G1 X-6.3066 Y11.9359
G3 X-6.3072 Y11.9619 I-0.0085 J0.0128
X-6.3369 Y11.9706 I-0.0318 J-0.0536 F50.
G1 X-6.501 F60.
G3 X-6.5887 Y11.936 I0.001 J-0.1309
X-6.5697 Y11.915 I0.0139 J-0.0065
G1 X-6.4965 Y11.9408
G3 X-6.4879 Y11.9482 I-0.0051 J0.0145
X-6.501 Y11.9706 I-0.0137 J0.007 F50.
X-6.5956 Y11.8997 I-0.0247 J-0.0656 F60.
G1 Y11.5243
G3 X-6.3929 Y11.2793 I0.3171 J0.056
X-6.3816 Y11.3044 I-0.0005 J0.0154
G1 X-6.5684 Y11.5335
X-6.5706 Y11.5357
X-6.5732 Y11.5375
G3 X-6.5956 Y11.5243 I-0.007 J-0.0137 F50.
G1 Y11.3707 F60.
G3 X-6.559 Y11.2848 I0.1424 J0.01
G1 X-6.5563 Y11.2839
X-6.5535 Y11.2834
X-6.5506 Y11.2835
X-6.5478 Y11.2841
X-6.5451 Y11.2852
X-6.5427 Y11.2867
X-6.5407 Y11.2887
X-6.539 Y11.291
X-6.5378 Y11.2936
X-6.5371 Y11.2963
X-6.5369 Y11.2991
G3 X-6.5379 Y11.3047 I-0.0154 J-0.0001
G1 X-6.566 Y11.3758
G3 X-6.5732 Y11.3838 I-0.0143 J-0.0056
X-6.5956 Y11.3707 I-0.007 J-0.0137 F50.
X-6.5245 Y11.2793 I0.0651 J-0.0227 F60.
G1 X-5.8444
G3 X-5.5918 Y11.4635 I-0.0277 J0.3032
X-5.6161 Y11.4755 I-0.0154 J-0.0005
G1 X-5.8528 Y11.3072
X-5.8546 Y11.3056
X-5.8562 Y11.3038
X-5.8575 Y11.3017
G3 X-5.8444 Y11.2793 I0.0137 J-0.007 F50.
G1 X-5.6802 F60.
G3 X-5.6025 Y11.3067 I0.0109 J0.093
X-5.6207 Y11.328 I-0.0139 J0.0065
G1 X-5.684 Y11.3094
G3 X-5.6934 Y11.3017 I0.0043 J-0.0147
X-5.6802 Y11.2793 I0.0137 J-0.007 F50.
X-5.5918 Y11.3601 I0.0208 J0.066 F60.
G1 Y11.7355
G3 X-5.7487 Y11.9706 I-0.3892 J-0.0897
X-5.7611 Y11.947 I0.0005 J-0.0154
G1 X-5.6201 Y11.7277
X-5.6185 Y11.7256
X-5.6165 Y11.7238
X-5.6143 Y11.7224
G3 X-5.5918 Y11.7355 I0.007 J0.0137 F50.
G1 Y11.8892 F60.
G3 X-5.6109 Y11.9531 I-0.0965 J0.006
X-5.6362 Y11.9378 I-0.0105 J-0.0112
G1 X-5.622 Y11.8856
G3 X-5.6143 Y11.876 I0.0148 J0.004
X-5.5918 Y11.8892 I0.007 J0.0137 F50.
X-5.6802 Y11.9706 I-0.0677 J0.0152 F60.
G1 X-5.9295
G3 X-5.9422 Y11.963 I0.0005 J-0.0154
G1 X-5.9429 Y11.9607 Z-0.2073
X-5.9436 Y11.9585 Z-0.2068
X-5.9443 Y11.9564 Z-0.2059
Y11.9553 Z-0.2052
X-5.9438 Y11.9529 Z-0.2034
X-5.9433 Y11.951 Z-0.2011
X-5.943 Y11.9495 Z-0.1985
X-5.9428 Y11.9486 Z-0.1956
X-5.9426 Y11.9483 Z-0.1939
Y11.9482 Z-0.1921
G0 Z0.4
X-3.7267 Y3.8192
Z0.1
G3 X-3.7733 Y3.6808 Z0.0596 I-0.0233 J-0.0692 F50.
X-3.7267 Y3.8192 Z0.0191 I0.0233 J0.0692
X-3.7733 Y3.6808 Z-0.0213 I-0.0233 J-0.0692
X-3.7267 Y3.8192 Z-0.0618 I0.0233 J0.0692
X-3.7733 Y3.6808 Z-0.1022 I-0.0233 J-0.0692
X-3.7267 Y3.8192 Z-0.1427 I0.0233 J0.0692
X-3.7733 Y3.6808 Z-0.1831 I-0.0233 J-0.0692
X-3.677 Y3.75 Z-0.2075 I0.0233 J0.0692
X-3.823 I-0.073 J0.
X-3.6772 Y3.7441 I0.073 J0.
G1 X-3.677 Y3.75
G3 X-3.8334 Y3.873 I-0.0818 J0.0568 F60.
G1 X-3.8415 Y3.8675
X-3.8492 Y3.8616
X-3.8566 Y3.8552
X-3.8635 Y3.8483
X-3.87 Y3.841
X-3.876 Y3.8333
X-3.8816 Y3.8253
X-3.8866 Y3.8169
X-3.891 Y3.8082
X-3.8949 Y3.7993
X-3.8983 Y3.7901
X-3.901 Y3.7807
X-3.9032 Y3.7712
X-3.9047 Y3.7616
X-3.9056 Y3.7519
X-3.9059 Y3.7421
X-3.9056 Y3.7324
X-3.9047 Y3.7226
X-3.9032 Y3.713
X-3.9011 Y3.7035
X-3.8983 Y3.6941
X-3.895 Y3.6849
X-3.8911 Y3.676
X-3.8867 Y3.6673
X-3.8817 Y3.6589
X-3.8762 Y3.6508
X-3.8702 Y3.6432
X-3.8637 Y3.6359
X-3.8568 Y3.629
X-3.8494 Y3.6226
X-3.8417 Y3.6166
X-3.8336 Y3.6112
X-3.8252 Y3.6062
X-3.8165 Y3.6018
X-3.8075 Y3.598
X-3.7983 Y3.5948
X-3.7889 Y3.5921
X-3.7794 Y3.59
X-3.7697 Y3.5886
X-3.76 Y3.5877
X-3.7503 Y3.5875
X-3.7405 Y3.5879
X-3.7308 Y3.5889
X-3.7212 Y3.5905
X-3.7117 Y3.5927
X-3.7023 Y3.5955
X-3.6932 Y3.5989
X-3.6843 Y3.6029
X-3.6756 Y3.6074
X-3.6673 Y3.6125
X-3.6593 Y3.618
X-3.6516 Y3.6241
X-3.6444 Y3.6307
X-3.6376 Y3.6376
X-3.6312 Y3.645
X-3.6254 Y3.6528
X-3.62 Y3.661
X-3.6151 Y3.6694
X-3.6108 Y3.6782
X-3.6071 Y3.6872
X-3.6039 Y3.6964
X-3.6013 Y3.7058
X-3.5957 Y3.7151
X-3.5907 Y3.7246
X-3.5862 Y3.7344
X-3.5822 Y3.7445
X-3.5789 Y3.7548
X-3.5761 Y3.7652
X-3.5739 Y3.7758
X-3.5723 Y3.7865
X-3.5714 Y3.7973
X-3.571 Y3.8081
X-3.5713 Y3.8189
X-3.5722 Y3.8296
X-3.5737 Y3.8403
X-3.5758 Y3.8509
X-3.5785 Y3.8614
X-3.5818 Y3.8717
X-3.5857 Y3.8818
X-3.5902 Y3.8916
X-3.5952 Y3.9012
X-3.6007 Y3.9105
X-3.6068 Y3.9194
X-3.6133 Y3.928
X-3.6204 Y3.9362
X-3.6279 Y3.944
X-3.6358 Y3.9513
X-3.6441 Y3.9582
X-3.6528 Y3.9646
X-3.6619 Y3.9705
X-3.6713 Y3.9759
X-3.6809 Y3.9807
X-3.6909 Y3.985
X-3.701 Y3.9887
X-3.7114 Y3.9918
X-3.7219 Y3.9943
X-3.7325 Y3.9962
X-3.7432 Y3.9975
X-3.754 Y3.9982
X-3.7648 Y3.9983
X-3.7756 Y3.9977
X-3.7864 Y3.9966
X-3.797 Y3.9948
X-3.8076 Y3.9924
X-3.8179 Y3.9895
X-3.8281 Y3.9859
X-3.8381 Y3.9818
X-3.8479 Y3.9771
X-3.8573 Y3.9719
X-3.8664 Y3.9661
X-3.8752 Y3.9598
X-3.8837 Y3.953
X-3.8917 Y3.9458
X-3.8993 Y3.9381
X-3.9092 Y3.9312
X-3.9187 Y3.9237
X-3.9278 Y3.9158
X-3.9364 Y3.9074
X-3.9447 Y3.8985
X-3.9525 Y3.8893
X-3.9597 Y3.8797
X-3.9665 Y3.8697
X-3.9728 Y3.8593
X-3.9785 Y3.8487
X-3.9837 Y3.8378
X-3.9883 Y3.8266
X-3.9923 Y3.8152
X-3.9957 Y3.8036
X-3.9985 Y3.7919
X-4.0007 Y3.78
X-4.0023 Y3.768
X-4.0033 Y3.756
X-4.0037 Y3.7439
X-4.0034 Y3.7318
X-4.0025 Y3.7198
X-4.001 Y3.7078
X-3.9989 Y3.6959
X-3.9962 Y3.6842
X-3.9928 Y3.6725
X-3.9889 Y3.6611
X-3.9844 Y3.6499
X-3.9793 Y3.639
X-3.9737 Y3.6283
X-3.9675 Y3.6179
X-3.9608 Y3.6078
X-3.9536 Y3.5982
X-3.9459 Y3.5888
X-3.9378 Y3.5799
X-3.9292 Y3.5715
X-3.9201 Y3.5635
X-3.9107 Y3.5559
X-3.9009 Y3.5489
X-3.8907 Y3.5424
X-3.8802 Y3.5364
X-3.8694 Y3.5309
X-3.8571 Y3.5258
X-3.8445 Y3.5213
X-3.8317 Y3.5174
X-3.8187 Y3.5141
X-3.8056 Y3.5114
X-3.7924 Y3.5093
X-3.7791 Y3.5078
X-3.7657 Y3.507
X-3.7523 Y3.5067
X-3.7389 Y3.5071
X-3.7256 Y3.5082
X-3.7123 Y3.5098
X-3.6991 Y3.512
X-3.686 Y3.5149
X-3.6731 Y3.5184
X-3.6604 Y3.5225
X-3.6478 Y3.5271
X-3.6355 Y3.5324
X-3.6235 Y3.5382
X-3.6117 Y3.5446
X-3.6002 Y3.5515
X-3.5891 Y3.5589
X-3.5783 Y3.5669
X-3.5679 Y3.5753
X-3.558 Y3.5842
X-3.5484 Y3.5936
X-3.5393 Y3.6034
X-3.5307 Y3.6136
X-3.5225 Y3.6243
X-3.5149 Y3.6352
X-3.5077 Y3.6466
X-3.5012 Y3.6582
X-3.4951 Y3.6702
X-3.4896 Y3.6824
X-3.4847 Y3.6948
X-3.4804 Y3.7075
X-3.4767 Y3.7203
X-3.4736 Y3.7334
X-3.4711 Y3.7465
X-3.4692 Y3.7598
X-3.4679 Y3.7731
X-3.4673 Y3.7864
X-3.4672 Y3.7998
X-3.4679 Y3.8132
X-3.4691 Y3.8265
X-3.4709 Y3.8398
X-3.4734 Y3.8529
X-3.4765 Y3.866
X-3.4801 Y3.8788
X-3.4844 Y3.8915
X-3.4893 Y3.904
X-3.4947 Y3.9162
X-3.5007 Y3.9282
X-3.5072 Y3.9398
X-3.5143 Y3.9512
X-3.5219 Y3.9622
X-3.53 Y3.9728
X-3.5386 Y3.9831
X-3.5477 Y3.9929
X-3.5572 Y4.0023
X-3.5672 Y4.0113
X-3.5775 Y4.0198
X-3.5883 Y4.0278
X-3.5994 Y4.0352
X-3.6108 Y4.0422
X-3.6226 Y4.0486
X-3.6346 Y4.0544
X-3.6469 Y4.0597
X-3.6594 Y4.0644
X-3.6731 Y4.0687
X-3.687 Y4.0724
X-3.7011 Y4.0755
X-3.7152 Y4.078
X-3.7295 Y4.0799
X-3.7438 Y4.0811
X-3.7582 Y4.0818
X-3.7726
X-3.7869 Y4.0812
X-3.8012 Y4.08
X-3.8155 Y4.0782
X-3.8297 Y4.0757
X-3.8437 Y4.0727
X-3.8576 Y4.069
X-3.8714 Y4.0648
X-3.8849 Y4.06
X-3.8982 Y4.0546
X-3.9113 Y4.0486
X-3.9241 Y4.0421
X-3.9367 Y4.035
X-3.9489 Y4.0274
X-3.9607 Y4.0193
X-3.9722 Y4.0106
X-3.9833 Y4.0015
X-3.9941 Y3.992
X-4.0044 Y3.9819
X-4.0142 Y3.9715
X-4.0236 Y3.9606
X-4.0325 Y3.9493
X-4.041 Y3.9376
X-4.0489 Y3.9256
X-4.0563 Y3.9133
X-4.0632 Y3.9007
X-4.0695 Y3.8878
X-4.0752 Y3.8746
X-4.0804 Y3.8612
X-4.085 Y3.8475
X-4.089 Y3.8337
X-4.0924 Y3.8198
X-4.0952 Y3.8057
X-4.0974 Y3.7915
X-4.099 Y3.7772
X-4.1 Y3.7628
X-4.1003 Y3.7485
X-4.1 Y3.7341
X-4.0992 Y3.7197
X-4.0977 Y3.7054
X-4.0955 Y3.6912
X-4.0928 Y3.6771
X-4.0895 Y3.6631
X-4.0856 Y3.6493
X-4.081 Y3.6356
X-4.0759 Y3.6222
X-4.0703 Y3.609
X-4.064 Y3.596
X-4.0572 Y3.5833
X-4.0499 Y3.571
X-4.0421 Y3.5589
X-4.0337 Y3.5472
X-4.0248 Y3.5359
X-4.0155 Y3.525
X-4.0057 Y3.5144
X-3.9955 Y3.5044
X-3.9848 Y3.4947
X-3.9737 Y3.4855
X-3.9623 Y3.4768
X-3.9505 Y3.4687
X-3.9383 Y3.461
X-3.9258 Y3.4538
X-3.9131 Y3.4472
X-3.9 Y3.4412
X-3.8867 Y3.4357
X-3.8732 Y3.4308
X-3.8585 Y3.4263
X-3.8435 Y3.4224
X-3.8285 Y3.4191
X-3.8133 Y3.4164
X-3.798 Y3.4143
X-3.7827 Y3.4129
X-3.7673 Y3.412
X-3.7519 Y3.4118
X-3.7365 Y3.4122
X-3.7211 Y3.4133
X-3.7058 Y3.4149
X-3.6905 Y3.4172
X-3.6754 Y3.42
X-3.6604 Y3.4235
X-3.6455 Y3.4276
X-3.6308 Y3.4323
X-3.6163 Y3.4376
X-3.602 Y3.4434
X-3.588 Y3.4498
X-3.5743 Y3.4568
X-3.5608 Y3.4643
X-3.5477 Y3.4724
X-3.5349 Y3.481
X-3.5224 Y3.4901
X-3.5104 Y3.4996
X-3.4987 Y3.5097
X-3.4874 Y3.5202
X-3.4766 Y3.5312
X-3.4662 Y3.5426
X-3.4563 Y3.5544
X-3.4469 Y3.5666
X-3.438 Y3.5792
X-3.4296 Y3.5921
X-3.4217 Y3.6054
X-3.4144 Y3.6189
X-3.4076 Y3.6328
X-3.4013 Y3.6469
X-3.3957 Y3.6612
X-3.3906 Y3.6758
X-3.3861 Y3.6905
X-3.3823 Y3.7054
X-3.379 Y3.7205
X-3.3763 Y3.7357
X-3.3743 Y3.7509
X-3.3728 Y3.7663
X-3.372 Y3.7817
X-3.3718 Y3.7971
X-3.3723 Y3.8125
X-3.3733 Y3.8279
X-3.375 Y3.8432
X-3.3773 Y3.8585
X-3.3802 Y3.8736
X-3.3837 Y3.8886
X-3.3878 Y3.9035
X-3.3925 Y3.9181
X-3.3978 Y3.9326
X-3.4036 Y3.9469
X-3.4101 Y3.9609
X-3.4171 Y3.9746
X-3.4246 Y3.9881
X-3.4327 Y4.0012
X-3.4413 Y4.014
X-3.4504 Y4.0264
X-3.46 Y4.0385
X-3.4701 Y4.0501
X-3.4806 Y4.0614
X-3.4916 Y4.0722
X-3.503 Y4.0825
X-3.5149 Y4.0924
X-3.5271 Y4.1018
X-3.5397 Y4.1107
X-3.5526 Y4.1191
X-3.5658 Y4.127
X-3.5794 Y4.1343
X-3.5933 Y4.1411
X-3.6074 Y4.1473
X-3.6217 Y4.1529
X-3.6363 Y4.1579
G3 X-4.1893 Y3.7843 I-0.1361 J-0.3947
G1 X-4.1903 Y3.7677
X-4.1906 Y3.7511
X-4.1904 Y3.7345
X-4.1895 Y3.7179
X-4.188 Y3.7013
X-4.1858 Y3.6848
X-4.1831 Y3.6684
X-4.1797 Y3.6522
X-4.1758 Y3.636
X-4.1712 Y3.62
X-4.166 Y3.6042
X-4.1603 Y3.5886
X-4.154 Y3.5733
X-4.1471 Y3.5581
X-4.1396 Y3.5433
X-4.1316 Y3.5287
X-4.1231 Y3.5145
X-4.114 Y3.5005
X-4.1044 Y3.4869
X-4.0944 Y3.4737
X-4.0838 Y3.4609
X-4.0727 Y3.4485
X-4.0612 Y3.4365
X-4.0493 Y3.4249
X-4.0369 Y3.4138
X-4.0242 Y3.4032
X-4.011 Y3.393
X-3.9975 Y3.3834
X-3.9836 Y3.3742
X-3.9694 Y3.3656
X-3.9549 Y3.3575
X-3.9401 Y3.35
X-3.925 Y3.343
X-3.9096 Y3.3366
X-3.8941 Y3.3308
X-3.8783 Y3.3255
X-3.8624 Y3.3209
X-3.8462 Y3.3168
X-3.83 Y3.3134
X-3.8136 Y3.3105
X-3.7971 Y3.3083
X-3.7806 Y3.3067
X-3.764 Y3.3057
X-3.7474 Y3.3053
X-3.7308 Y3.3056
X-3.7142 Y3.3065
X-3.6976 Y3.308
X-3.6811 Y3.3101
X-3.6647 Y3.3128
X-3.6484 Y3.3161
X-3.6323 Y3.3201
X-3.6163 Y3.3246
X-3.6005 Y3.3298
X-3.5849 Y3.3355
X-3.5695 Y3.3418
X-3.5544 Y3.3487
X-3.5395 Y3.3561
X-3.5249 Y3.3641
X-3.5107 Y3.3726
X-3.4967 Y3.3816
X-3.4831 Y3.3912
X-3.4699 Y3.4013
X-3.4571 Y3.4118
X-3.4446 Y3.4229
X-3.4326 Y3.4343
X-3.421 Y3.4463
X-3.4099 Y3.4586
X-3.3993 Y3.4714
X-3.3891 Y3.4845
X-3.3794 Y3.498
X-3.3702 Y3.5119
X-3.3616 Y3.5261
X-3.3535 Y3.5406
X-3.346 Y3.5554
X-3.339 Y3.5705
X-3.3325 Y3.5858
X-3.3267 Y3.6014
X-3.3214 Y3.6171
X-3.3168 Y3.6331
X-3.3127 Y3.6492
X-3.3067 Y3.6648
X-3.3014 Y3.6806
X-3.2966 Y3.6966
X-3.2925 Y3.7127
X-3.2889 Y3.729
X-3.286 Y3.7454
X-3.2837 Y3.7619
X-3.282 Y3.7785
X-3.2809 Y3.7951
X-3.2804 Y3.8118
X-3.2806 Y3.8285
X-3.2814 Y3.8451
X-3.2828 Y3.8617
X-3.2848 Y3.8783
X-3.2875 Y3.8947
X-3.2907 Y3.9111
X-3.2946 Y3.9273
X-3.299 Y3.9434
X-3.3041 Y3.9593
X-3.3098 Y3.9749
X-3.316 Y3.9904
X-3.3228 Y4.0056
X-3.3302 Y4.0206
X-3.3381 Y4.0352
X-3.3466 Y4.0496
X-3.3556 Y4.0636
X-3.3651 Y4.0773
X-3.3751 Y4.0906
X-3.3856 Y4.1036
X-3.3966 Y4.1161
X-3.4081 Y4.1282
X-3.4199 Y4.1399
X-3.4323 Y4.1511
X-3.445 Y4.1619
X-3.4581 Y4.1722
X-3.4716 Y4.182
X-3.4855 Y4.1912
X-3.4997 Y4.2
X-3.5142 Y4.2082
X-3.5303 Y4.2166
X-3.5466 Y4.2244
X-3.5632 Y4.2317
X-3.5801 Y4.2384
X-3.5971 Y4.2445
X-3.6144 Y4.25
X-3.6319 Y4.2549
X-3.6495 Y4.2592
X-3.6672 Y4.2629
X-3.6851 Y4.266
X-3.703 Y4.2685
X-3.7211 Y4.2704
X-3.7392 Y4.2716
X-3.7573 Y4.2722
X-3.7754
X-3.7935 Y4.2716
X-3.8116 Y4.2704
X-3.8297 Y4.2685
X-3.8476 Y4.266
X-3.8655 Y4.2629
X-3.8832 Y4.2592
X-3.9008 Y4.2549
X-3.9183 Y4.25
X-3.9355 Y4.2444
X-3.9526 Y4.2383
X-3.9695 Y4.2316
X-3.9861 Y4.2244
X-4.0024 Y4.2165
X-4.0185 Y4.2082
X-4.0343 Y4.1992
X-4.0497 Y4.1898
X-4.0649 Y4.1798
X-4.0796 Y4.1692
X-4.094 Y4.1582
X-4.108 Y4.1467
X-4.1217 Y4.1348
X-4.1349 Y4.1223
X-4.1476 Y4.1094
X-4.1599 Y4.0961
X-4.1718 Y4.0824
X-4.1831 Y4.0683
X-4.194 Y4.0538
X-4.2044 Y4.0389
X-4.2142 Y4.0237
X-4.2235 Y4.0081
X-4.2323 Y3.9923
X-4.2406 Y3.9761
X-4.2482 Y3.9597
X-4.2553 Y3.943
X-4.2619 Y3.9261
X-4.2678 Y3.909
X-4.2732 Y3.8916
X-4.2779 Y3.8741
X-4.2821 Y3.8565
X-4.2856 Y3.8387
X-4.2885 Y3.8208
X-4.2908 Y3.8028
X-4.2925 Y3.7848
X-4.2936 Y3.7667
X-4.2941 Y3.7486
X-4.2939 Y3.7304
X-4.2931 Y3.7123
X-4.2917 Y3.6943
X-4.2896 Y3.6762
X-4.287 Y3.6583
X-4.2837 Y3.6405
X-4.2798 Y3.6228
X-4.2753 Y3.6052
X-4.2702 Y3.5878
X-4.2646 Y3.5706
X-4.2583 Y3.5536
X-4.2514 Y3.5368
X-4.244 Y3.5203
X-4.236 Y3.504
X-4.2275 Y3.488
X-4.2184 Y3.4723
X-4.2088 Y3.4569
X-4.1987 Y3.4419
X-4.188 Y3.4272
X-4.1769 Y3.4129
X-4.1652 Y3.399
X-4.1531 Y3.3855
X-4.1406 Y3.3725
X-4.1276 Y3.3598
X-4.1141 Y3.3476
X-4.1003 Y3.3359
X-4.0861 Y3.3247
X-4.0714 Y3.314
X-4.0565 Y3.3037
X-4.0412 Y3.294
X-4.0255 Y3.2849
X-4.0096 Y3.2762
X-3.9934 Y3.2682
X-3.9769 Y3.2606
X-3.9601 Y3.2537
X-3.9431 Y3.2473
X-3.926 Y3.2415
X-3.9086 Y3.2364
X-3.891 Y3.2318
X-3.8734 Y3.2278
X-3.8555 Y3.2244
X-3.8376 Y3.2217
X-3.8196 Y3.2195
X-3.8016 Y3.218
X-3.7834 Y3.2171
X-3.7653 Y3.2168
X-3.7472 Y3.2172
X-3.7291 Y3.2181
X-3.711 Y3.2197
G3 X-3.1944 Y3.9239 I-0.0489 J0.5775
X-3.9619 Y4.3405 I-0.5656 J-0.1266
X-3.5537 Y3.1465 I0.2053 J-0.5966
X-3.8214 Y4.4732 I-0.2114 J0.6477
X-3.9962 Y3.0585 I0.0646 J-0.7261
G1 X-3.9752 Y3.0519
X-3.954 Y3.0459
X-3.9327 Y3.0406
X-3.9112 Y3.0358
X-3.8896 Y3.0317
X-3.8679 Y3.0282
X-3.8461 Y3.0253
X-3.8243 Y3.023
X-3.8023 Y3.0214
X-3.7804 Y3.0204
X-3.7584 Y3.02
X-3.7364 Y3.0202
X-3.7144 Y3.0211
X-3.6925 Y3.0225
X-3.6706 Y3.0247
X-3.6488 Y3.0274
X-3.627 Y3.0307
X-3.6054 Y3.0347
X-3.5839 Y3.0393
X-3.5625 Y3.0445
X-3.5413 Y3.0503
X-3.5203 Y3.0567
X-3.4994 Y3.0637
X-3.4788 Y3.0713
X-3.4584 Y3.0795
X-3.4382 Y3.0883
X-3.4183 Y3.0976
X-3.3987 Y3.1075
X-3.3793 Y3.118
X-3.3603 Y3.129
X-3.3415 Y3.1405
X-3.3232 Y3.1526
X-3.3051 Y3.1652
X-3.2875 Y3.1783
X-3.2702 Y3.1919
X-3.2533 Y3.206
X-3.2368 Y3.2205
X-3.2208 Y3.2356
X-3.2051 Y3.251
X-3.19 Y3.267
X-3.1752 Y3.2833
X-3.161 Y3.3001
X-3.1472 Y3.3172
X-3.134 Y3.3347
X-3.1212 Y3.3527
X-3.109 Y3.3709
X-3.0973 Y3.3895
X-3.0861 Y3.4085
X-3.0754 Y3.4277
X-3.0653 Y3.4473
X-3.0558 Y3.4671
X-3.0469 Y3.4872
X-3.0385 Y3.5075
X-3.0307 Y3.5281
X-3.0235 Y3.5489
X-3.0169 Y3.5698
X-3.0109 Y3.591
X-3.0055 Y3.6123
X-3.0007 Y3.6338
X-2.9965 Y3.6554
X-2.9929 Y3.6771
X-2.99 Y3.6988
X-2.9877 Y3.7207
X-2.986 Y3.7426
X-2.9849 Y3.7646
X-2.9845 Y3.7866
X-2.9847 Y3.8086
X-2.9855 Y3.8306
X-2.9869 Y3.8525
X-2.989 Y3.8744
X-2.9917 Y3.8962
X-2.995 Y3.918
X-2.9989 Y3.9396
X-3.0035 Y3.9611
X-3.0086 Y3.9825
X-3.0144 Y4.0037
X-3.0208 Y4.0248
X-3.0277 Y4.0456
X-3.0353 Y4.0663
X-3.0434 Y4.0867
X-3.0521 Y4.1069
X-3.0614 Y4.1268
X-3.0713 Y4.1465
X-3.0817 Y4.1659
X-3.0927 Y4.1849
X-3.1042 Y4.2037
X-3.1162 Y4.2221
X-3.1288 Y4.2401
X-3.1418 Y4.2578
X-3.1554 Y4.2751
G3 X-4.5769 Y3.7598 I-0.6214 J-0.5042
X-3.1563 Y3.1674 I0.8259 J-0.0189
X-3.6684 Y4.6649 I-0.604 J0.6298
X-4.577 Y3.3247 I-0.0949 J-0.9138
X-2.9494 Y3.2692 I0.8292 J0.4246
X-3.6577 Y4.7614 I-0.8061 J0.5316
X-4.7411 Y3.4766 I-0.1087 J-1.0075
X-3.1499 Y2.9131 I0.9906 J0.269
X-3.0828 Y4.6271 I-0.6215 J0.8827
X-4.7644 Y4.239 I-0.6865 J-0.8627
X-4.044 Y2.6606 I1.0109 J-0.4922
X-2.6064 Y3.6525 I0.291 J1.1159
X-3.7621 Y4.9633 I-1.1456 J0.1549
X-4.973 Y3.6779 I-0.0076 J-1.2059
X-3.6239 Y2.5296 I1.2203 J0.067
X-2.5016 Y3.9202 I-0.1428 J1.2634
X-3.8757 Y5.0584 I-1.2566 J-0.1185
X-5.074 Y3.7189 I0.1081 J-1.3024
X-3.8198 Y2.426 I1.3211 J0.0268
X-2.4176 Y3.5707 I0.062 J1.3552
X-3.3752 Y5.1054 I-1.3315 J0.2353
X-5.035 Y4.3596 I-0.3957 J-1.3392
X-4.5805 Y2.5926 I1.2788 J-0.613
X-2.7592 Y2.7248 I0.8314 J1.157
X-2.4984 Y4.5429 I-1.0144 J1.0733
X-4.2166 Y5.1929 I-1.2691 J-0.7588
X-5.2713 Y3.6818 I0.4542 J-1.4407
X-4.0904 Y2.2646 I1.5194 J0.0655
X-2.4053 Y3.0216 I0.3396 J1.4981
X-2.6144 Y4.8609 I-1.3505 J0.778
X-4.4351 Y5.2143 I-1.1541 J-1.0792
X-5.3654 Y3.6046 I0.6732 J-1.4628
X-4.1667 Y2.1815 I1.6135 J0.1427
X-2.4169 Y2.8189 I0.4166 J1.5768
X-2.3543 Y4.6849 I-1.3461 J0.9792
X-4.0657 Y5.4334 I-1.4113 J-0.896
X-5.4244 Y4.1454 I0.3001 J-1.6771
X-4.7939 Y2.3808 I1.6702 J-0.3982
X-2.925 Y2.2384 I1.044 J1.3676
X-2.0011 Y3.8775 I-0.8572 J1.5632
X-3.0748 Y5.4189 I-1.7546 J-0.0775
X-4.9344 Y5.1282 I-0.6948 J-1.6481
X-5.5232 Y3.3378 I1.1758 J-1.3787
X-4.2075 Y1.9873 I1.772 J0.4102
X-2.3998 Y2.5257 I0.4576 J1.7677
X-1.9899 Y4.3718 I-1.3761 J1.2741
X-3.4061 Y5.6233 I-1.7712 J-0.5772
X-5.1963 Y5.0086 I-0.3625 J-1.8581
X-5.5743 Y3.1521 I1.4396 J-1.2599
X-4.1725 Y1.8768 I1.8235 J0.5963
X-2.3579 Y2.4253 I0.4225 J1.8781
X-1.8549 Y4.2576 I-1.4204 J1.3751
X-3.1398 Y5.6555 I-1.9045 J-0.4611
X-5.0114 Y5.3219 I-0.6293 J-1.8864
X-5.7609 Y3.573 I1.2525 J-1.5718
X-4.7206 Y1.9793 I2.0087 J0.1747
X-2.8173 Y1.9588 I0.9708 J1.7694
X-1.7213 Y3.5203 I-0.963 J1.8414
X-2.3674 Y5.3132 I-2.0314 J0.2809
X-4.2092 Y5.8095 I-1.3998 J-1.5291
X-5.6879 Y4.6018 I0.4435 J-2.0521
X-5.5865 Y2.6942 I1.933 J-0.8538
X-3.99 Y1.6449 I1.8363 J1.0547
X-2.197 Y2.3063 I0.2391 J2.1126
X-1.6285 Y4.1343 I-1.5828 J1.4947
X-2.7343 Y5.6952 I-2.1285 J-0.3357
X-4.6473 Y5.7716 I-1.0346 J-1.919
X-5.893 Y4.316 I0.8842 J-2.0176
X-5.5345 Y2.4333 I2.1387 J-0.5682
X-3.8419 Y1.5339 I1.7843 J1.3155
X-2.0792 Y2.2882 I0.0903 J2.226
X-1.527 Y4.1271 I-1.6998 J1.5128
X-2.5881 Y5.7259 I-2.2295 J-0.3282
X-4.4966 Y5.9361 I-1.1804 J-1.9476
X-5.896 Y4.6196 I0.7323 J-2.1804
X-5.815 Y2.6994 I2.1413 J-0.8715
X-4.3116 Y1.5018 I2.0648 J1.0496
X-2.4213 Y1.8511 I0.5617 J2.25
X-1.4236 Y3.4978 I-1.3634 J1.9516
X-1.9785 Y5.3399 I-2.331 J0.3025
X-3.7224 Y6.1542 I-1.7863 J-1.5511
X-5.4996 Y5.4124 I-0.0455 J-2.3906
X-6.1581 Y3.9408 I1.7404 J-1.6619
G1 Y3.6181
G3 X-5.298 Y1.8962 I2.3727 J0.1094
X-3.9511 Y1.3421 I1.5409 J1.8318
G1 X-3.5931 Y1.3418
G3 X-1.8784 Y2.2188 I-0.143 J2.3944
X-1.342 Y3.3757 I-1.8771 J1.573
G1 X-1.3418 Y4.1577
G3 X-2.3436 Y5.7989 I-2.3291 J-0.2952
X-3.0864 Y6.158 I-1.3559 J-1.8574
G1 X-4.3904 Y6.1581
G3 X-5.7353 Y5.2833 I0.4888 J-2.2226
X-5.9291 Y5.0036 I1.3706 J-1.1567
X-6.1585 Y4.4725 I2.1643 J-1.2498
G1 X-6.1581 Y3.9408
G3 X-6.15 Y3.9278 I0.0154 J0.0005
X-6.1067 Y3.9313 I0.0189 J0.0354
X-6.1371 Y4.4521 I-0.1914 J0.2501
G1 X-6.15 Y4.4594 F50.
G2 X-6.1581 Y4.4724 I0.0072 J0.0136
G1 Y4.6973 F60.
G2 X-5.908 Y5.2235 I1.4479 J-0.3657
X-4.8569 Y6.1132 I2.1459 J-1.4695
X-4.7519 Y6.1581 I0.1549 J-0.2168
G1 X-4.3904
G2 X-4.3774 Y6.15 I-0.0005 J-0.0154
X-4.3985 Y6.0651 I-0.0576 J-0.0307
X-4.7315 Y6.1371 I-0.1319 J0.196
G1 X-4.7389 Y6.15 F50.
G3 X-4.7519 Y6.1581 I-0.0136 J-0.0072
G1 X-4.9298 F60.
G3 X-5.4015 Y5.8996 I0.391 J-1.2731
X-6.1591 Y4.9965 I1.6334 J-2.1394
G1 X-6.1581 Y4.6973
G3 X-6.15 Y4.6842 I0.0154 J0.0005
X-6.0765 Y4.7036 I0.0263 J0.0494
X-6.0458 Y4.8092 I-0.1661 J0.1057
X-6.1372 Y4.9755 I-0.1969 J0.
G1 X-6.15 Y4.9829 F50.
G2 X-6.1581 Y4.996 I0.0072 J0.0136
G1 Y5.143 F60.
G2 X-5.8766 Y5.5889 I1.1787 J-0.4325
X-5.1933 Y6.1593 I2.088 J-1.8069
G1 X-4.9298 Y6.1581
G2 X-4.9168 Y6.15 I-0.0005 J-0.0154
X-4.9195 Y6.1234 I-0.0212 J-0.0113
X-5.172 Y6.1373 I-0.1211 J0.1007
X-5.1796 Y6.15 I0.1314 J0.0868 F50.
G3 X-5.1926 Y6.1581 I-0.0136 J-0.0072
G1 X-5.305 F60.
G3 X-5.6611 Y5.9445 I0.2081 J-0.7503
X-6.1595 Y5.3817 I1.8334 J-2.1257
G1 X-6.1581 Y5.143
G3 X-6.15 Y5.13 I0.0154 J0.0005
X-6.0899 Y5.1463 I0.0214 J0.0401
X-6.1373 Y5.3601 I-0.1342 J0.0824
X-6.15 Y5.3677 I-0.0868 J-0.1314 F50.
G2 X-6.1581 Y5.3808 I0.0072 J0.0136
G1 Y5.4844 F60.
G2 X-5.9344 Y5.8208 I0.7028 J-0.2248
X-5.5487 Y6.1595 I1.9655 J-1.8493
G1 X-5.305 Y6.1581
G2 X-5.292 Y6.15 I-0.0005 J-0.0154
X-5.305 Y6.0954 I-0.0374 J-0.02
X-5.5271 Y6.1373 I-0.0908 J0.1287
X-5.5347 Y6.15 I0.1314 J0.0868 F50.
G3 X-5.5477 Y6.1581 I-0.0136 J-0.0072
G1 X-5.6462 F60.
G3 X-5.9685 Y5.9286 I0.2322 J-0.6668
X-6.1581 Y5.7103 I1.0237 J-1.081
G1 Y5.4844
G3 X-6.15 Y5.4714 I0.0154 J0.0005
X-6.0794 Y5.4962 I0.0239 J0.0449
X-6.1373 Y5.6897 I-0.1447 J0.0621
X-6.15 Y5.6973 I-0.0868 J-0.1314 F50.
G2 X-6.1581 Y5.7103 I0.0072 J0.0136
G1 Y5.7999 F60.
G2 X-5.922 Y6.1103 I0.6098 J-0.2189
X-5.8616 Y6.1581 I0.0921 J-0.0543
G1 X-5.6462
G2 X-5.6332 Y6.15 I-0.0005 J-0.0154
X-5.6658 Y6.0729 I-0.0476 J-0.0254
X-5.841 Y6.1373 I-0.0439 J0.1512
X-5.8486 Y6.15 I0.1314 J0.0868 F50.
G3 X-5.8616 Y6.1581 I-0.0136 J-0.0072
G1 X-5.9382 F60.
G3 X-6.1564 Y6.0107 I0.0892 J-0.3671
X-6.1326 Y5.9972 I0.0154 J-0.0007
G1 X-5.9303 Y6.1299
X-5.9282 Y6.1316
X-5.9265 Y6.1335
X-5.9251 Y6.1357
G3 X-5.9382 Y6.1581 I-0.0137 J0.007 F50.
X-6.1581 Y5.9876 I-0.049 J-0.1639 F60.
G1 Y5.7999
G3 X-6.1357 Y5.7868 I0.0154 J0.0005
G1 X-6.1331 Y5.7882 Z-0.2072
X-6.1305 Y5.7895 Z-0.2063
X-6.1282 Y5.7907 Z-0.2049
X-6.1261 Y5.7918 Z-0.203
X-6.1244 Y5.7927 Z-0.2007
X-6.1231 Y5.7933 Z-0.198
X-6.1223 Y5.7937 Z-0.1951
X-6.1221 Y5.7938 Z-0.1921
G0 Z-0.1768
X-3.1292 Y6.1416
G1 Z-0.1921 F50.
X-3.129 Y6.1417 Z-0.1951
X-3.1282 Y6.1422 Z-0.198
X-3.127 Y6.1429 Z-0.2007
X-3.1254 Y6.1439 Z-0.203
X-3.1234 Y6.1451 Z-0.2049
X-3.1211 Y6.1464 Z-0.2063
X-3.1186 Y6.1479 Z-0.2072
X-3.116 Y6.1494 Z-0.2075
G2 X-3.0864 Y6.1581 I0.0318 J-0.0536
G1 X-2.8426 F60.
G2 X-2.1986 Y5.8195 I-0.4992 J-1.7313
X-1.4356 Y4.859 I-1.5582 J-2.021
X-1.3418 Y4.6214 I-1.9908 J-0.9229
G1 Y4.1577
G2 X-1.35 Y4.1446 I-0.0154 J0.0005
X-1.3902 Y4.1482 I-0.0174 J0.0326
X-1.3629 Y4.6011 I0.1698 J0.2171
G1 X-1.35 Y4.6084 F50.
G3 X-1.3418 Y4.6214 I-0.0072 J0.0136
G1 Y4.838 F60.
G3 X-1.6948 Y5.4652 I-1.7291 J-0.5601
X-2.5501 Y6.1591 I-2.0573 J-1.6619
G1 X-2.8426 Y6.1581
G3 X-2.8556 Y6.15 I0.0005 J-0.0154
X-2.8317 Y6.0699 I0.0525 J-0.028
X-2.571 Y6.1372 I0.0944 J0.1728
G1 X-2.5636 Y6.15 F50.
G2 X-2.5505 Y6.1581 I0.0136 J-0.0072
G1 X-2.4205 F60.
G2 X-2.049 Y5.9549 I-0.2059 J-0.8173
X-1.3408 Y5.1126 I-1.6954 J-2.1444
G1 X-1.3418 Y4.838
G2 X-1.3577 Y4.8232 I-0.0154 J0.0005
X-1.4139 Y4.868 I0.0021 J0.0603
X-1.36 Y5.088 I0.2283 J0.0606
G1 X-1.3467 Y5.1014 F50.
G3 X-1.3418 Y5.1121 I-0.0105 J0.0112
G1 Y5.2369 F60.
G3 X-1.5485 Y5.6005 I-0.8008 J-0.2146
X-2.1624 Y6.1595 I-2.16 J-1.7554
G1 X-2.4205 Y6.1581
G3 X-2.4335 Y6.15 I0.0005 J-0.0154
X-2.4285 Y6.1146 I0.0268 J-0.0143
X-2.184 Y6.1373 I0.1132 J0.1095
X-2.1764 Y6.15 I-0.1314 J0.0868 F50.
G2 X-2.1633 Y6.1581 I0.0136 J-0.0072
G1 X-2.0558 F60.
G2 X-1.723 Y5.9347 I-0.2373 J-0.7131
X-1.3406 Y5.4874 I-1.8967 J-2.0085
G1 X-1.3418 Y5.2369
G2 X-1.35 Y5.2238 I-0.0154 J0.0005
X-1.3959 Y5.2326 I-0.0175 J0.0329
X-1.3627 Y5.466 I0.12 J0.102
X-1.35 Y5.4735 I0.0868 J-0.1314 F50.
G3 X-1.3418 Y5.4866 I-0.0072 J0.0136
G1 Y5.5888 F60.
G3 X-1.5677 Y5.9209 I-0.6949 J-0.2297
X-1.8332 Y6.1581 I-1.3636 J-1.2586
G1 X-2.0558
G3 X-2.0688 Y6.15 I0.0005 J-0.0154
X-2.0416 Y6.0771 I0.0459 J-0.0244
X-1.8538 Y6.1373 I0.0564 J0.147
X-1.8462 Y6.15 I-0.1314 J0.0868 F50.
G2 X-1.8332 Y6.1581 I0.0136 J-0.0072
G1 X-1.7404 F60.
G2 X-1.433 Y5.9225 I-0.2333 J-0.6227
X-1.3418 Y5.811 I-0.3057 J-0.3429
G1 Y5.5888
G2 X-1.35 Y5.5758 I-0.0154 J0.0005
X-1.4232 Y5.6033 I-0.0245 J0.046
X-1.3627 Y5.7904 I0.1473 J0.0558
X-1.35 Y5.798 I0.0868 J-0.1314 F50.
G3 X-1.3418 Y5.811 I-0.0072 J0.0136
G1 Y5.8938 F60.
G3 X-1.5348 Y6.1581 I-0.4917 J-0.1563
X-1.548 Y6.1357 I0.0005 J-0.0154
G1 X-1.5466 Y6.1331 Z-0.2072
X-1.5453 Y6.1305 Z-0.2063
X-1.544 Y6.1282 Z-0.2049
X-1.543 Y6.1261 Z-0.203
X-1.5421 Y6.1244 Z-0.2007
X-1.5414 Y6.1231 Z-0.198
X-1.541 Y6.1223 Z-0.1951
X-1.5409 Y6.1221 Z-0.1921
G0 Z-0.1768
X-1.3584 Y5.8509
G1 Z-0.1921 F50.
X-1.3583 Y5.8511 Z-0.1951
X-1.3578 Y5.8519 Z-0.198
X-1.3571 Y5.8531 Z-0.2007
X-1.3561 Y5.8548 Z-0.203
X-1.3549 Y5.8568 Z-0.2049
X-1.3536 Y5.859 Z-0.2063
X-1.3521 Y5.8615 Z-0.2072
X-1.3506 Y5.8641 Z-0.2075
G3 X-1.3418 Y5.8938 I-0.0536 J0.0318
X-1.3769 Y6.0983 I-0.2483 J0.0627 F60.
X-1.5059 Y6.1581 I-0.1252 J-0.101
G1 X-1.7404
G3 X-1.7535 Y6.1357 I0.0005 J-0.0154
G1 X-1.7521 Y6.1331 Z-0.2072
X-1.7508 Y6.1305 Z-0.2063
X-1.7496 Y6.1282 Z-0.2049
X-1.7485 Y6.1261 Z-0.203
X-1.7476 Y6.1244 Z-0.2007
X-1.747 Y6.1231 Z-0.198
X-1.7466 Y6.1223 Z-0.1951
X-1.7465 Y6.1221 Z-0.1921
G0 Z-0.1768
X-1.3584 Y3.4186
G1 Z-0.1921 F50.
X-1.3583 Y3.4183 Z-0.1951
X-1.3578 Y3.4176 Z-0.198
X-1.3571 Y3.4163 Z-0.2007
X-1.3561 Y3.4147 Z-0.203
X-1.3549 Y3.4127 Z-0.2049
X-1.3536 Y3.4104 Z-0.2063
X-1.3521 Y3.4079 Z-0.2072
X-1.3506 Y3.4054 Z-0.2075
G2 X-1.3418 Y3.3757 I-0.0536 J-0.0318
G1 Y3.0316 F60.
G2 X-2.0302 Y1.9185 I-2.1489 J0.5597
X-2.5538 Y1.5364 I-1.591 J1.6301
X-3.0229 Y1.3415 I-1.1954 J2.2153
G1 X-3.5931 Y1.3418
G2 X-3.6066 Y1.3511 I0.0005 J0.0154
G1 X-3.6078 Y1.3539 Z-0.2072
X-3.609 Y1.3565 Z-0.2063
X-3.61 Y1.359 Z-0.2049
X-3.6109 Y1.3611 Z-0.203
X-3.6117 Y1.3629 Z-0.2007
X-3.6122 Y1.3642 Z-0.198
X-3.6126 Y1.365 Z-0.1951
X-3.6127 Y1.3653 Z-0.1921
G0 Z-0.1768
X-3.9083 Y1.3584
G1 Z-0.1921 F50.
X-3.9085 Y1.3583 Z-0.1951
X-3.9093 Y1.3578 Z-0.198
X-3.9105 Y1.3571 Z-0.2007
X-3.9121 Y1.3561 Z-0.203
X-3.9141 Y1.3549 Z-0.2049
X-3.9164 Y1.3536 Z-0.2063
X-3.9189 Y1.3521 Z-0.2072
X-3.9215 Y1.3506 Z-0.2075
G2 X-3.9512 Y1.3418 I-0.0318 J0.0536
G1 X-4.4139 F60.
G2 X-5.5687 Y2.0194 I0.4715 J2.1268
X-5.9403 Y2.5125 I1.5626 J1.5638
X-6.1585 Y3.0243 I2.1748 J1.2297
G1 X-6.1581 Y3.6181
G2 X-6.1315 Y3.628 I0.0154 J-0.0005
X-6.1213 Y3.0682 I-0.3063 J-0.2856
X-6.1398 Y3.0482 I-0.3273 J0.2836
G1 X-6.1533 Y3.0351 F50.
G3 X-6.1581 Y3.0244 I0.0105 J-0.0112
G1 Y2.797 F60.
G3 X-5.8898 Y2.2467 I1.4977 J0.3898
X-4.8575 Y1.3808 I2.1399 J1.5029
X-4.7677 Y1.3418 I0.1316 J0.1803
G1 X-4.4139
G3 X-4.4008 Y1.35 I-0.0005 J0.0154
X-4.4272 Y1.4429 I-0.0615 J0.0328
X-4.7473 Y1.3629 I-0.119 J-0.204
G1 X-4.7547 Y1.35 F50.
G2 X-4.7677 Y1.3418 I-0.0136 J0.0072
G1 X-4.9298 F60.
G2 X-5.3831 Y1.5893 I0.229 J0.9585
X-6.158 Y2.5007 I1.4865 J2.049
G1 X-6.1581 Y2.797
G2 X-6.15 Y2.81 I0.0154 J-0.0005
X-6.074 Y2.789 I0.0269 J-0.0505
X-6.1372 Y2.5211 I-0.1686 J-0.1016
G1 X-6.15 Y2.5137 F50.
G3 X-6.1581 Y2.5006 I0.0072 J-0.0136
G1 Y2.3618 F60.
G3 X-5.9359 Y1.978 I0.9583 J0.2988
X-5.2024 Y1.3407 I2.1645 J1.7502
G1 X-4.9298 Y1.3418
G3 X-4.9168 Y1.35 I-0.0005 J0.0154
X-4.9172 Y1.361 I-0.0097 J0.0051
G1 X-4.919 Y1.3637
G3 X-5.1811 Y1.3627 I-0.1307 J-0.0878
X-5.1887 Y1.35 I0.1314 J-0.0868 F50.
G2 X-5.2017 Y1.3418 I-0.0136 J0.0072
G1 X-5.3285 F60.
G2 X-5.7124 Y1.5966 I0.3505 J0.9446
X-6.1594 Y2.1147 I1.8776 J2.0722
G1 X-6.1581 Y2.3618
G2 X-6.15 Y2.3748 I0.0154 J-0.0005
X-6.0996 Y2.364 I0.0188 J-0.0353
X-6.1373 Y2.1362 I-0.1245 J-0.0964
X-6.15 Y2.1286 I-0.0868 J0.1314 F50.
G3 X-6.1581 Y2.1156 I0.0072 J-0.0136
G1 Y2.0098 F60.
G3 X-5.9347 Y1.6754 I0.7102 J0.2326
X-5.5553 Y1.3405 I1.9794 J1.8599
G1 X-5.3285 Y1.3418
G3 X-5.3154 Y1.35 I-0.0005 J0.0154
X-5.3403 Y1.4206 I-0.0449 J0.0239
X-5.5337 Y1.3627 I-0.0621 J-0.1447
X-5.5413 Y1.35 I0.1314 J-0.0868 F50.
G2 X-5.5543 Y1.3418 I-0.0136 J0.0072
G1 X-5.6462 F60.
G2 X-5.9515 Y1.5502 I0.1944 J0.6127
X-6.1581 Y1.7858 I1.1807 J1.2437
G1 Y2.0098
G2 X-6.15 Y2.0229 I0.0154 J-0.0005
X-6.078 Y1.9967 I0.0242 J-0.0455
X-6.1373 Y1.8065 I-0.1461 J-0.0588
X-6.15 Y1.7989 I-0.0868 J0.1314 F50.
G3 X-6.1581 Y1.7858 I0.0072 J-0.0136
G1 Y1.6943 F60.
G3 X-5.9221 Y1.3856 I0.6142 J0.2251
X-5.8665 Y1.3418 I0.0839 J0.0494
G1 X-5.6462
G3 X-5.6332 Y1.35 I-0.0005 J0.0154
X-5.6622 Y1.4244 I-0.0465 J0.0248
X-5.8459 Y1.3627 I-0.0524 J-0.1485
X-5.8535 Y1.35 I0.1314 J-0.0868 F50.
G2 X-5.8665 Y1.3418 I-0.0136 J0.0072
G1 X-5.9511 F60.
G2 X-6.1558 Y1.4844 I0.1033 J0.3666
G1 X-6.1581 Y1.5066
Y1.6943
G2 X-6.15 Y1.7073 I0.0154 J-0.0005
X-6.0903 Y1.685 I0.02 J-0.0375
X-6.1372 Y1.5071 I-0.147 J-0.0564
X-6.1491 Y1.4982 I-0.1001 J0.1215 F50.
G3 X-6.1558 Y1.4844 I0.0086 J-0.0127
X-5.9521 Y1.3456 I0.1616 J0.0183 F60.
G1 X-5.9499 Y1.3454
X-5.9476 Y1.3456
X-5.9453 Y1.3463
X-5.9431 Y1.3474
X-5.9411 Y1.349
X-5.9395 Y1.351
X-5.9382 Y1.3533
X-5.9374 Y1.3559
X-5.937 Y1.3586
X-5.9372 Y1.3615
X-5.938 Y1.3643
X-5.9394 Y1.3669 Z-0.2072
X-5.9407 Y1.3695 Z-0.2063
X-5.9419 Y1.3718 Z-0.2049
X-5.943 Y1.3739 Z-0.203
X-5.9438 Y1.3756 Z-0.2007
X-5.9445 Y1.3769 Z-0.198
X-5.9449 Y1.3777 Z-0.1951
X-5.945 Y1.3779 Z-0.1921
G0 Z-0.1768
X-3.0659 Y1.3584
G1 Z-0.1921 F50.
X-3.0656 Y1.3583 Z-0.1951
X-3.0648 Y1.3578 Z-0.198
X-3.0636 Y1.3571 Z-0.2007
X-3.062 Y1.3561 Z-0.203
X-3.06 Y1.3549 Z-0.2049
X-3.0577 Y1.3536 Z-0.2063
X-3.0552 Y1.3521 Z-0.2072
X-3.0526 Y1.3506 Z-0.2075
G3 X-3.023 Y1.3418 I0.0318 J0.0536
G1 X-2.7957 F60.
G3 X-2.2458 Y1.6098 I-0.3931 J1.5047
X-1.3731 Y2.6372 I-1.5362 J2.1893
X-1.3418 Y2.7062 I-0.1335 J0.102
G1 Y3.0316
G3 X-1.35 Y3.0446 I-0.0154 J-0.0005
X-1.3882 Y3.04 I-0.0159 J-0.0297
X-1.3628 Y2.7267 I0.1309 J-0.1471
G1 X-1.35 Y2.7193 F50.
G2 X-1.3418 Y2.7062 I-0.0072 J-0.0136
G1 Y2.5389 F60.
G2 X-1.6076 Y2.0768 I-1.2672 J0.4213
X-2.4992 Y1.3408 I-2.1559 J1.7036
G1 X-2.7957 Y1.3418
G2 X-2.8087 Y1.35 I0.0005 J0.0154
X-2.7875 Y1.4263 I0.0507 J0.027
X-2.5202 Y1.3628 I0.1011 J-0.1689
G1 X-2.5127 Y1.35 F50.
G3 X-2.4997 Y1.3418 I0.0136 J0.0072
G1 X-2.3607 F60.
G3 X-1.9335 Y1.6076 I-0.2693 J0.909
X-1.3415 Y2.2863 I-1.5641 J1.9618
G1 X-1.3418 Y2.5389
G3 X-1.35 Y2.5519 I-0.0154 J-0.0005
X-1.3923 Y2.5446 I-0.0165 J-0.0309
X-1.3627 Y2.3071 I0.1164 J-0.1061
X-1.35 Y2.2996 I0.0868 J0.1314 F50.
G2 X-1.3418 Y2.2865 I-0.0072 J-0.0136
G1 Y2.1635 F60.
G2 X-1.5987 Y1.7815 I-0.9313 J0.3488
X-2.1134 Y1.3406 I-2.1001 J1.9307
G1 X-2.3607 Y1.3418
G2 X-2.3737 Y1.35 I0.0005 J0.0154
X-2.3784 Y1.3687 I0.0352 J0.0187
X-2.363 Y1.4002 I0.0399 J0.
X-2.1349 Y1.3627 I0.0967 J-0.1243
X-2.1273 Y1.35 I-0.1314 J-0.0868 F50.
G3 X-2.1143 Y1.3418 I0.0136 J0.0072
G1 X-2.0089 F60.
G3 X-1.6734 Y1.5648 I-0.2321 J0.7131
X-1.3409 Y1.9383 I-1.7281 J1.8728
G1 X-1.3418 Y2.1635
G3 X-1.35 Y2.1765 I-0.0154 J-0.0005
X-1.4216 Y2.1507 I-0.0241 J-0.0453
X-1.3627 Y1.9596 I0.1457 J-0.0597
X-1.35 Y1.952 I0.0868 J0.1314 F50.
G2 X-1.3418 Y1.939 I-0.0072 J-0.0136
G1 Y1.8456 F60.
G2 X-1.5728 Y1.5233 I-0.6485 J0.2209
X-1.7841 Y1.3418 I-1.1558 J1.1318
G1 X-2.0089
G2 X-2.0219 Y1.35 I0.0005 J0.0154
X-2.0279 Y1.3741 I0.0452 J0.0241
X-1.9963 Y1.4214 I0.0512 J0.
X-1.8048 Y1.3627 I0.0601 J-0.1455
X-1.7972 Y1.35 I-0.1314 J-0.0868 F50.
G3 X-1.7841 Y1.3418 I0.0136 J0.0072
G1 X-1.6935 F60.
G3 X-1.3826 Y1.5775 I-0.2206 J0.614
X-1.3418 Y1.6292 I-0.0307 J0.0661
G1 Y1.8456
G3 X-1.35 Y1.8586 I-0.0154 J-0.0005
X-1.4266 Y1.8268 I-0.0253 J-0.0474
X-1.3627 Y1.6498 I0.1507 J-0.0456
X-1.35 Y1.6423 I0.0868 J0.1314 F50.
G2 X-1.3418 Y1.6292 I-0.0072 J-0.0136
G1 Y1.5535 F60.
G2 X-1.4814 Y1.3445 I-0.3512 J0.0834
G1 X-1.5004 Y1.3424
X-1.5059 Y1.3418
X-1.6935
G2 X-1.7065 Y1.35 I0.0005 J0.0154
X-1.6862 Y1.4071 I0.0362 J0.0193
X-1.5043 Y1.363 I0.0611 J-0.1451
X-1.4953 Y1.3511 I-0.1208 J-0.101 F50.
G3 X-1.4814 Y1.3445 I0.0127 J0.0087
X-1.346 Y1.5524 I-0.0223 J0.1626 F60.
G1 X-1.3457 Y1.5546
X-1.3458 Y1.5568
X-1.3464 Y1.5591
X-1.3475 Y1.5613
X-1.349 Y1.5633
X-1.351 Y1.565
X-1.3533 Y1.5663
X-1.3558 Y1.5672
X-1.3586 Y1.5676
X-1.3614 Y1.5674
X-1.3643 Y1.5667
X-1.3669 Y1.5653 Z-0.2072
X-1.3695 Y1.564 Z-0.2063
X-1.3718 Y1.5627 Z-0.2049
X-1.3739 Y1.5617 Z-0.203
X-1.3756 Y1.5608 Z-0.2007
X-1.3769 Y1.5602 Z-0.198
X-1.3777 Y1.5598 Z-0.1951
X-1.3779 Y1.5596 Z-0.1921
G0 Z0.6
(SHAPE THROUGH FINISHING PASS)
M7
G0 X-1.3768 Y3.7654
Z0.6
Z0.2
G1 Z0.1 F13.333
Z-0.1575
G19 G2 Y3.7154 Z-0.2075 J-0.05 K0. F40.
G1 Y3.7
G17 G3 X-1.3268 Y3.75 I0. J0.05
G1 Y6. F50.
G3 X-1.5 Y6.1731 I-0.1732 J0.
G1 X-6.
G3 X-6.1731 Y6. I0. J-0.1732
G1 Y1.5
G3 X-6. Y1.3268 I0.1732 J0.
G1 X-1.5
G3 X-1.3268 Y1.5 I0. J0.1732
G1 Y3.75
G3 X-1.3768 Y3.8 I-0.05 J0.
G1 Y3.7846
G19 G2 Y3.7346 Z-0.1575 J0. K0.05
G0 Z0.4
X-2.2598 Y9.4379
Z0.2
G1 Z0.1 F13.333
Z-0.1575
Y9.4376 Z-0.1631 F40.
Y9.4366 Z-0.1686
Y9.4351 Z-0.174
Y9.4329 Z-0.1792
Y9.4302 Z-0.1841
Y9.427 Z-0.1887
Y9.4233 Z-0.1929
X-2.2599 Y9.4191 Z-0.1966
Y9.4145 Z-0.1998
Y9.4096 Z-0.2025
Y9.4044 Z-0.2047
Y9.399 Z-0.2062
Y9.3935 Z-0.2072
Y9.3879 Z-0.2075
Y9.3725
G17 G3 X-2.2099 Y9.4225 I0. J0.05
G2 X-2.083 Y9.5493 I0.1268 J0. F50.
G1 X-1.3268
Y12.3706
X-1.5582
Y12.1125
G2 X-1.685 Y11.9856 I-0.1268 J0.
G1 X-2.4412
Y9.1644
X-2.2099
Y9.4225
G3 X-2.2598 Y9.4725 I-0.05 J0.
G1 Y9.4571
G19 G2 Y9.4071 Z-0.1575 J0. K0.05
G0 Z0.4
X-5.6269 Y11.6403
Z0.2
G1 Z0.1 F13.333
Z-0.1575
G2 Y11.5904 Z-0.2075 J-0.05 K0. F40.
G1 Y11.575
G17 G3 X-5.5769 Y11.625 I0. J0.05
G1 Y11.9125 F50.
G3 X-5.65 Y11.9856 I-0.0731 J0.
G1 X-6.5375
G3 X-6.6106 Y11.9125 I0. J-0.0731
G1 Y11.3375
G3 X-6.5375 Y11.2643 I0.0732 J0.
G1 X-5.65
G3 X-5.5769 Y11.3375 I0. J0.0732
G1 Y11.625
G3 X-5.6269 Y11.675 I-0.05 J0.
G1 Y11.6596
G19 G2 Y11.6096 Z-0.1575 J0. K0.05
G0 Z0.6
G17
(2D SLOT CUT)
M7
G0 X-12.4055 Y13.3893
Z0.6
Z0.2
G1 Z0.1 F13.333
X-11.25 Z-0.1038 F40.
X-0.25 F55.
G2 X0.0769 Y13.0625 I0. J-0.3268
G1 Y0.
G2 X0. Y-0.0769 I-0.0769 J0.
G1 X-7.25
G2 X-7.5769 Y0.25 I0. J0.3268
G1 Y3.8125
G3 X-7.75 Y3.9857 I-0.1732 J0.
G1 X-22.25
G2 X-22.5768 Y4.3125 I0. J0.3268
G1 Y7.75
G2 X-22.25 Y8.0769 I0.3268 J0.
G1 X-21.75
G3 X-21.5769 Y8.25 I0. J0.1732
G1 Y12.0625
G2 X-21.25 Y12.3894 I0.3269 J0.
G1 X-20.75
G3 X-20.5768 Y12.5625 I0. J0.1732
G1 Y13.0625
G2 X-20.25 Y13.3893 I0.3268 J0.
G1 X-11.25
X-8.7897 Z-0.2075 F40.
X-4.1912 F55.
Z-0.1075
X-3.4375
Z-0.2075 F13.333
X-0.25 F55.
G2 X0.0769 Y13.0625 I0. J-0.3268
G1 Y10.8634
Z-0.1075
Y10.1097
Z-0.2075 F13.333
Y3.6705 F55.
Z-0.1075
Y2.9168
Z-0.2075 F13.333
Y0. F55.
G2 X0. Y-0.0769 I-0.0769 J0.
G1 X-3.1441
Z-0.1075
X-3.8978
Z-0.2075 F13.333
X-7.25 F55.
G2 X-7.5769 Y0.25 I0. J0.3268
G1 Y3.8125
G3 X-7.75 Y3.9857 I-0.1732 J0.
G1 X-12.8659
Z-0.1075
X-13.6196
Z-0.2075 F13.333
X-19.7592 F55.
Z-0.1075
X-20.5129
Z-0.2075 F13.333
X-22.25 F55.
G2 X-22.5768 Y4.3125 I0. J0.3268
G1 Y5.8215
Z-0.1075
Y6.5752
Z-0.2075 F13.333
Y7.75 F55.
G2 X-22.25 Y8.0769 I0.3268 J0.
G1 X-21.75
G3 X-21.5769 Y8.25 I0. J0.1732
G1 Y9.7035
Z-0.1075
Y10.4572
Z-0.2075 F13.333
Y12.0625 F55.
G2 X-21.25 Y12.3894 I0.3269 J0.
G1 X-20.75
G3 X-20.5768 Y12.5625 I0. J0.1732
G1 Y13.0625
G2 X-20.25 Y13.3893 I0.3268 J0.
G1 X-14.4963
Z-0.1075
X-13.7426
Z-0.2075 F13.333
X-8.7897 F55.
G0 Z0.6
M9
G53 Z0.
M30
%
