%
(971-23-P-0142_WRIST PLATE_1537)
(T1  D=0.1537 CR=0. - ZMIN=-0.245 - FLAT END MILL)
G90 G94 G17 G91.1
G64 P0.001 Q0.001
G20
G53 G0 Z0.
(.3 CIRCLUAR THROUGH HOLE 2)
M9
T1 M6
S22000 M3
G4 P10.
G54
M7
G0 X-4.0247 Y-0.6067
G43 Z0.6 H1
G0 Z0.13
G1 Z0.0654 F40.
G19 G3 Y-0.5914 Z0.05 J0.0154 K0.
G1 Y-0.5837
G17 G3 X-4.0401 Y-0.5683 I-0.0154 J0.
Y-0.6334 Z0.0307 I0. J-0.0325
Y-0.5683 Z0.0114 I0. J0.0325
Y-0.6334 Z-0.0079 I0. J-0.0325
Y-0.5683 Z-0.0271 I0. J0.0325
Y-0.6334 Z-0.0464 I0. J-0.0325
Y-0.5683 Z-0.0657 I0. J0.0325
Y-0.6334 Z-0.085 I0. J-0.0325
Y-0.5683 Z-0.1043 I0. J0.0325
Y-0.6334 Z-0.1236 I0. J-0.0325
Y-0.5683 Z-0.1429 I0. J0.0325
Y-0.6334 Z-0.1621 I0. J-0.0325
Y-0.5683 Z-0.1814 I0. J0.0325
Y-0.6334 Z-0.2007 I0. J-0.0325
Y-0.5683 Z-0.22 I0. J0.0325
Y-0.6334 Z-0.2393 I0. J-0.0325
X-4.014 Y-0.6203 Z-0.245 I0. J0.0325
X-4.0662 Y-0.5814 I-0.0261 J0.0194
X-4.014 Y-0.6203 I0.0261 J-0.0194
X-4.0171 Y-0.5988 I-0.0123 J0.0092
G1 X-4.0233 Y-0.5942
X-4.0257 Y-0.5924 Z-0.2447
X-4.028 Y-0.5907 Z-0.2438
X-4.0302 Y-0.5891 Z-0.2424
X-4.032 Y-0.5877 Z-0.2405
X-4.0336 Y-0.5865 Z-0.2382
X-4.0347 Y-0.5857 Z-0.2355
X-4.0354 Y-0.5852 Z-0.2326
X-4.0356 Y-0.585 Z-0.2296
G0 Z0.4
X-5.3529 Y-0.9626
Z0.13
G1 Z0.0654 F40.
G19 G3 Y-0.9472 Z0.05 J0.0154 K0.
G1 Y-0.9396
G17 G3 X-5.3682 Y-0.9242 I-0.0154 J0.
Y-0.9892 Z0.0307 I0. J-0.0325
Y-0.9242 Z0.0114 I0. J0.0325
Y-0.9892 Z-0.0079 I0. J-0.0325
Y-0.9242 Z-0.0271 I0. J0.0325
Y-0.9892 Z-0.0464 I0. J-0.0325
Y-0.9242 Z-0.0657 I0. J0.0325
Y-0.9892 Z-0.085 I0. J-0.0325
Y-0.9242 Z-0.1043 I0. J0.0325
Y-0.9892 Z-0.1236 I0. J-0.0325
Y-0.9242 Z-0.1429 I0. J0.0325
Y-0.9892 Z-0.1621 I0. J-0.0325
Y-0.9242 Z-0.1814 I0. J0.0325
Y-0.9892 Z-0.2007 I0. J-0.0325
Y-0.9242 Z-0.22 I0. J0.0325
Y-0.9892 Z-0.2393 I0. J-0.0325
X-5.3421 Y-0.9761 Z-0.245 I0. J0.0325
X-5.3943 Y-0.9373 I-0.0261 J0.0194
X-5.3421 Y-0.9761 I0.0261 J-0.0194
X-5.3453 Y-0.9546 I-0.0123 J0.0092
G1 X-5.3515 Y-0.95
X-5.3539 Y-0.9482 Z-0.2447
X-5.3562 Y-0.9465 Z-0.2438
X-5.3583 Y-0.9449 Z-0.2424
X-5.3602 Y-0.9435 Z-0.2405
X-5.3617 Y-0.9424 Z-0.2382
X-5.3628 Y-0.9416 Z-0.2355
X-5.3636 Y-0.941 Z-0.2326
X-5.3638 Y-0.9409 Z-0.2296
G0 Z0.4
X-5.952 Y-0.5135
Z0.1146
G1 Z0.05 F40.
Y-0.5058
G3 X-5.956 Y-0.5019 I-0.0039 J0.
Y-0.5177 Z0.0351 I0. J-0.0079
Y-0.5019 Z0.0201 I0. J0.0079
Y-0.5177 Z0.0052 I0. J-0.0079
Y-0.5019 Z-0.0098 I0. J0.0079
Y-0.5177 Z-0.0247 I0. J-0.0079
Y-0.5019 Z-0.0397 I0. J0.0079
Y-0.5177 Z-0.0546 I0. J-0.0079
Y-0.5019 Z-0.0695 I0. J0.0079
Y-0.5177 Z-0.0845 I0. J-0.0079
Y-0.5019 Z-0.0994 I0. J0.0079
Y-0.5177 Z-0.1144 I0. J-0.0079
Y-0.5019 Z-0.1293 I0. J0.0079
Y-0.5177 Z-0.1443 I0. J-0.0079
Y-0.5019 Z-0.1592 I0. J0.0079
Y-0.5177 Z-0.1742 I0. J-0.0079
Y-0.5019 Z-0.1891 I0. J0.0079
Y-0.5177 Z-0.204 I0. J-0.0079
Y-0.5019 Z-0.219 I0. J0.0079
Y-0.5177 Z-0.2339 I0. J-0.0079
X-5.9502 Y-0.5044 Z-0.245 I0. J0.0079
X-5.9617 Y-0.5152 I-0.0057 J-0.0054
X-5.9502 Y-0.5044 I0.0057 J0.0054
X-5.9558 Y-0.5042 I-0.0029 J-0.0027
G1 X-5.9614 Y-0.5095
G0 Z0.4
X-6.9716 Y-0.5135
Z0.1146
G1 Z0.05 F40.
Y-0.5058
G3 X-6.9755 Y-0.5019 I-0.0039 J0.
Y-0.5177 Z0.0351 I0. J-0.0079
Y-0.5019 Z0.0201 I0. J0.0079
Y-0.5177 Z0.0052 I0. J-0.0079
Y-0.5019 Z-0.0098 I0. J0.0079
Y-0.5177 Z-0.0247 I0. J-0.0079
Y-0.5019 Z-0.0397 I0. J0.0079
Y-0.5177 Z-0.0546 I0. J-0.0079
Y-0.5019 Z-0.0695 I0. J0.0079
Y-0.5177 Z-0.0845 I0. J-0.0079
Y-0.5019 Z-0.0994 I0. J0.0079
Y-0.5177 Z-0.1144 I0. J-0.0079
Y-0.5019 Z-0.1293 I0. J0.0079
Y-0.5177 Z-0.1443 I0. J-0.0079
Y-0.5019 Z-0.1592 I0. J0.0079
Y-0.5177 Z-0.1742 I0. J-0.0079
Y-0.5019 Z-0.1891 I0. J0.0079
Y-0.5177 Z-0.204 I0. J-0.0079
Y-0.5019 Z-0.219 I0. J0.0079
Y-0.5177 Z-0.2339 I0. J-0.0079
X-6.9698 Y-0.5044 Z-0.245 I0. J0.0079
X-6.9813 Y-0.5152 I-0.0057 J-0.0054
X-6.9698 Y-0.5044 I0.0057 J0.0054
X-6.9754 Y-0.5042 I-0.0029 J-0.0027
G1 X-6.981 Y-0.5095
G0 Z0.4
X-6.9716 Y0.5061
Z0.1146
G1 Z0.05 F40.
Y0.5137
G3 X-6.9755 Y0.5177 I-0.0039 J0.
Y0.5019 Z0.0351 I0. J-0.0079
Y0.5177 Z0.0201 I0. J0.0079
Y0.5019 Z0.0052 I0. J-0.0079
Y0.5177 Z-0.0098 I0. J0.0079
Y0.5019 Z-0.0247 I0. J-0.0079
Y0.5177 Z-0.0397 I0. J0.0079
Y0.5019 Z-0.0546 I0. J-0.0079
Y0.5177 Z-0.0695 I0. J0.0079
Y0.5019 Z-0.0845 I0. J-0.0079
Y0.5177 Z-0.0994 I0. J0.0079
Y0.5019 Z-0.1144 I0. J-0.0079
Y0.5177 Z-0.1293 I0. J0.0079
Y0.5019 Z-0.1443 I0. J-0.0079
Y0.5177 Z-0.1592 I0. J0.0079
Y0.5019 Z-0.1742 I0. J-0.0079
Y0.5177 Z-0.1891 I0. J0.0079
Y0.5019 Z-0.204 I0. J-0.0079
Y0.5177 Z-0.219 I0. J0.0079
Y0.5019 Z-0.2339 I0. J-0.0079
X-6.9698 Y0.5152 Z-0.245 I0. J0.0079
X-6.9813 Y0.5044 I-0.0057 J-0.0054
X-6.9698 Y0.5152 I0.0057 J0.0054
X-6.9754 Y0.5154 I-0.0029 J-0.0027
G1 X-6.981 Y0.5101
G0 Z0.4
X-5.952 Y0.5061
Z0.1146
G1 Z0.05 F40.
Y0.5137
G3 X-5.956 Y0.5177 I-0.0039 J0.
Y0.5019 Z0.0351 I0. J-0.0079
Y0.5177 Z0.0201 I0. J0.0079
Y0.5019 Z0.0052 I0. J-0.0079
Y0.5177 Z-0.0098 I0. J0.0079
Y0.5019 Z-0.0247 I0. J-0.0079
Y0.5177 Z-0.0397 I0. J0.0079
Y0.5019 Z-0.0546 I0. J-0.0079
Y0.5177 Z-0.0695 I0. J0.0079
Y0.5019 Z-0.0845 I0. J-0.0079
Y0.5177 Z-0.0994 I0. J0.0079
Y0.5019 Z-0.1144 I0. J-0.0079
Y0.5177 Z-0.1293 I0. J0.0079
Y0.5019 Z-0.1443 I0. J-0.0079
Y0.5177 Z-0.1592 I0. J0.0079
Y0.5019 Z-0.1742 I0. J-0.0079
Y0.5177 Z-0.1891 I0. J0.0079
Y0.5019 Z-0.204 I0. J-0.0079
Y0.5177 Z-0.219 I0. J0.0079
Y0.5019 Z-0.2339 I0. J-0.0079
X-5.9502 Y0.5152 Z-0.245 I0. J0.0079
X-5.9617 Y0.5044 I-0.0057 J-0.0054
X-5.9502 Y0.5152 I0.0057 J0.0054
X-5.9558 Y0.5154 I-0.0029 J-0.0027
G1 X-5.9614 Y0.5101
G0 Z0.6
(SHAPE THROUGH HOLE)
M7
G0 X-4.9903 Y2.442
Z0.6
Z0.1
G3 X-5.0712 Y2.3205 Z0.0596 I-0.0405 J-0.0608 F50.
X-4.9903 Y2.442 Z0.0191 I0.0405 J0.0608
X-5.0712 Y2.3205 Z-0.0213 I-0.0405 J-0.0608
X-4.9903 Y2.442 Z-0.0618 I0.0405 J0.0608
X-5.0712 Y2.3205 Z-0.1022 I-0.0405 J-0.0608
X-4.9578 Y2.3813 Z-0.13 I0.0405 J0.0608
X-5.1038 I-0.073 J0.
X-4.958 Y2.3754 I0.073 J0.
G1 X-4.9578 Y2.3813
G3 X-4.9441 Y2.4398 I-0.0259 J0.0369 F60.
G1 X-4.9839 Y2.4557
X-5.0619 Y2.4869
X-5.0699 Y2.488
X-5.0779 Y2.4886
X-5.086 Y2.4885
X-5.094 Y2.4879
X-5.1019 Y2.4866
X-5.1097 Y2.4848
X-5.1174 Y2.4824
X-5.1249 Y2.4794
X-5.1321 Y2.4759
X-5.139 Y2.4718
X-5.1456 Y2.4673
X-5.1519 Y2.4622
X-5.1577 Y2.4567
X-5.1631 Y2.4508
X-5.1681 Y2.4446
X-5.1726 Y2.4379
X-5.1765 Y2.431
X-5.18 Y2.4238
X-5.1829 Y2.4163
X-5.1852 Y2.4087
X-5.1869 Y2.4009
X-5.1881 Y2.393
X-5.1887 Y2.385
X-5.1886 Y2.3771
X-5.188 Y2.3691
X-5.1868 Y2.3612
X-5.185 Y2.3535
X-5.1826 Y2.3459
X-5.1797 Y2.3385
X-5.1763 Y2.3313
X-5.1723 Y2.3245
G3 X-5.0179 Y2.2623 I6.0859 J14.8946
G1 X-5.0087 Y2.261
X-4.9996 Y2.2603
X-4.9904
X-4.9812 Y2.2608
X-4.9721 Y2.262
X-4.963 Y2.2638
X-4.9541 Y2.2662
X-4.9454 Y2.2692
X-4.937 Y2.2728
X-4.9287 Y2.2769
X-4.9208 Y2.2816
X-4.9132 Y2.2868
X-4.906 Y2.2925
X-4.8992 Y2.2986
X-4.8928 Y2.3053
X-4.8868 Y2.3123
X-4.8814 Y2.3197
X-4.8765 Y2.3275
X-4.8721 Y2.3356
X-4.8682 Y2.3439
X-4.865 Y2.3525
X-4.8623 Y2.3613
X-4.8602 Y2.3703
X-4.8587 Y2.3794
X-4.8579 Y2.3885
X-4.8576 Y2.3977
X-4.858 Y2.4069
X-4.9152 Y2.4282
X-4.9441 Y2.4398
G3 X-4.9592 Y2.4371 I-0.0052 J-0.0145
X-4.9489 Y2.3883 I0.0182 J-0.0217
X-4.8879 Y2.3954 I0.0221 J0.0756
X-4.8757 Y2.4039 I-0.039 J0.0684 F50.
G2 X-4.8606 Y2.4067 I0.01 J-0.0117
G1 X-4.8432 Y2.3998 F60.
G2 X-4.8811 Y2.2079 I-0.083 J-0.0833
G3 X-5.0179 Y2.2623 I-8.8653 J-22.1033
G2 X-5.0268 Y2.2748 I0.0064 J0.014
X-4.9693 Y2.3202 I0.0434 J0.0042
X-4.8926 Y2.2353 I-0.0384 J-0.1117
X-4.8902 Y2.2207 I-0.115 J-0.0268 F50.
G3 X-4.8812 Y2.2082 I0.0153 J0.0016
G1 X-4.853 Y2.1967 F60.
X-4.8445 Y2.1964
X-4.8361 Y2.1966
X-4.8276 Y2.1974
X-4.8192 Y2.1988
X-4.811 Y2.2008
X-4.8029 Y2.2034
X-4.795 Y2.2065
X-4.7873 Y2.2101
X-4.78 Y2.2143
X-4.7729 Y2.2189
X-4.7661 Y2.2241
X-4.7597 Y2.2297
X-4.7538 Y2.2357
X-4.7482 Y2.2421
X-4.7432 Y2.2489
X-4.7386 Y2.2561
X-4.7345 Y2.2635
X-4.7309 Y2.2712
X-4.7279 Y2.2791
X-4.7254 Y2.2873
X-4.7235 Y2.2955
X-4.7222 Y2.3039
X-4.7215 Y2.3124
X-4.7213 Y2.3208
X-4.7218 Y2.3293
X-4.7228 Y2.3377
X-4.7244 Y2.3461
X-4.7266 Y2.3543
X-4.7494 Y2.3624
X-4.8432 Y2.3998
G3 X-4.8583 Y2.397 I-0.0051 J-0.0145
X-4.8626 Y2.373 I0.0125 J-0.0147
X-4.7554 Y2.3427 I0.0687 J0.0385
X-4.7432 Y2.3511 I-0.0385 J0.0687 F50.
G2 X-4.7281 Y2.3538 I0.0099 J-0.0118
G1 X-4.7025 Y2.3435 F60.
G2 X-4.7292 Y2.1464 I-0.0792 J-0.0896
G3 X-4.853 Y2.1967 I-1.5274 J-3.5766
G2 X-4.8608 Y2.2171 I0.0063 J0.014
X-4.8418 Y2.2287 I0.0181 J-0.0081
X-4.7464 Y2.1723 I-0.0054 J-0.118
X-4.7379 Y2.1555 I-0.1008 J-0.0616 F50.
G3 X-4.7296 Y2.1472 I0.0142 J0.0058
G1 X-4.7025 Y2.1369 F60.
G3 X-4.5818 Y2.2966 I0.0072 J0.12
G2 X-4.7025 Y2.3435 I2.0292 J5.3979
G3 X-4.7176 Y2.3408 I-0.0052 J-0.0145
X-4.7217 Y2.324 I0.0095 J-0.0113
X-4.6102 Y2.2851 I0.0729 J0.0297
X-4.5981 Y2.2935 I-0.0386 J0.0687 F50.
G2 X-4.5829 Y2.2962 I0.0099 J-0.0118
G1 X-4.5572 Y2.2859 F60.
G2 X-4.5803 Y2.0876 I-0.0765 J-0.0916
G1 X-4.6098 Y2.0998
X-4.6556 Y2.1185
X-4.7025 Y2.1369
G2 X-4.7116 Y2.1492 I0.0061 J0.0141
X-4.7057 Y2.1606 I0.0114 J0.0013
G1 X-4.7047 Y2.1612
G2 X-4.593 Y2.1152 I0.0366 J-0.0697
X-4.5899 Y2.1008 I-0.0751 J-0.0238 F50.
G3 X-4.5807 Y2.0885 I0.0153 J0.0018
G1 X-4.5547 Y2.0783 F60.
G3 X-4.4346 Y2.2383 I0.0076 J0.1193
G1 X-4.468 Y2.2508
X-4.5149 Y2.269
X-4.5572 Y2.2859
G3 X-4.5723 Y2.2832 I-0.0052 J-0.0145
X-4.576 Y2.27 I0.0078 J-0.0093
X-4.4629 Y2.2268 I0.0745 J0.0254
X-4.4507 Y2.2352 I-0.0386 J0.0687 F50.
G2 X-4.4356 Y2.2379 I0.0099 J-0.0118
G1 X-4.4211 Y2.2321 F60.
X-4.4107 Y2.228
G2 X-4.4316 Y2.0296 I-0.0746 J-0.0924
G1 X-4.468 Y2.0437
X-4.5149 Y2.063
X-4.5547 Y2.0783
G2 X-4.5544 Y2.1067 I0.006 J0.0141
X-4.5285 Y2.1094 I0.0176 J-0.0438
X-4.4489 Y2.0554 I-0.0208 J-0.1163
X-4.4403 Y2.0387 I-0.1003 J-0.0623 F50.
G3 X-4.4319 Y2.0304 I0.0142 J0.0059
G1 X-4.4211 Y2.0264 F60.
X-4.3976 Y2.0207
G3 X-4.2836 Y2.1328 I-0.0031 J0.1172
X-4.3096 Y2.1409 I-0.0151 J-0.0028
G1 X-4.4044 Y2.0464
X-4.4051 Y2.0456
G3 X-4.3976 Y2.0207 I0.0116 J-0.01 F50.
X-4.2797 Y2.1019 I0.0229 J0.093 F60.
X-4.3742 Y2.2095 I-0.095 J0.0118
G1 X-4.4107 Y2.228
G3 X-4.4311 Y2.212 I-0.0051 J-0.0145
G1 X-4.4308 Y2.209 Z-0.1297
X-4.4305 Y2.2061 Z-0.1288
X-4.4303 Y2.2035 Z-0.1274
X-4.43 Y2.2011 Z-0.1255
X-4.4298 Y2.1992 Z-0.1232
X-4.4297 Y2.1978 Z-0.1205
X-4.4296 Y2.197 Z-0.1176
Y2.1967 Z-0.1146
G0 Z-0.0993
X-5.0282 Y2.4556
G1 Z-0.1146 F50.
X-5.0284 Y2.4558 Z-0.1176
X-5.0289 Y2.4565 Z-0.1205
X-5.0298 Y2.4576 Z-0.1232
X-5.031 Y2.4592 Z-0.1255
X-5.0324 Y2.461 Z-0.1274
X-5.034 Y2.4631 Z-0.1288
X-5.0357 Y2.4654 Z-0.1297
X-5.0376 Y2.4678 Z-0.13
G3 X-5.0619 Y2.4869 I-0.0494 J-0.0379
G1 X-5.0777 Y2.4932 F60.
X-5.1318 Y2.5145
X-5.1403 Y2.5153
X-5.1489 Y2.5154
X-5.1575 Y2.5149
X-5.1661 Y2.5139
X-5.1745 Y2.5123
X-5.1828 Y2.5101
X-5.191 Y2.5073
X-5.1989 Y2.504
X-5.2066 Y2.5002
X-5.214 Y2.4958
X-5.2211 Y2.491
X-5.2279 Y2.4856
X-5.2342 Y2.4798
X-5.2402 Y2.4736
X-5.2457 Y2.467
X-5.2508 Y2.4601
X-5.2553 Y2.4528
X-5.2594 Y2.4452
X-5.2629 Y2.4374
X-5.2659 Y2.4293
X-5.2683 Y2.4211
X-5.2702 Y2.4127
X-5.2714 Y2.4042
X-5.2721 Y2.3956
X-5.2722 Y2.387
X-5.2718 Y2.3784
X-5.2707 Y2.3699
X-5.269 Y2.3614
X-5.2653 Y2.361
X-5.2184 Y2.3417
X-5.1728 Y2.3241
G3 X-5.1577 Y2.327 I0.005 J0.0145
X-5.1621 Y2.3729 I-0.0184 J0.0214
X-5.2401 Y2.3731 I-0.0391 J-0.0683
X-5.2522 Y2.3646 I0.0388 J-0.0685 F50.
G2 X-5.2673 Y2.3618 I-0.0099 J0.0117
G1 X-5.2903 Y2.3709 F60.
G2 X-5.2599 Y2.5662 I0.0792 J0.0877
G1 X-5.2184 Y2.5491
X-5.1507 Y2.522
X-5.1318 Y2.5145
G2 X-5.1323 Y2.4861 I-0.0062 J-0.0141
X-5.1591 Y2.4831 I-0.019 J0.0485
X-5.2433 Y2.5401 I0.0177 J0.1168
X-5.2515 Y2.5571 I0.1019 J0.0598 F50.
G3 X-5.2596 Y2.5656 I-0.0143 J-0.0056
G1 X-5.2851 Y2.5757 F60.
G3 X-5.4097 Y2.4177 I-0.0117 J-0.119
G1 X-5.3591 Y2.3985
X-5.3165 Y2.3813
X-5.2903 Y2.3709
G3 X-5.2752 Y2.3737 I0.0052 J0.0145
X-5.2707 Y2.3941 I-0.0112 J0.0132
X-5.3815 Y2.4295 I-0.0716 J-0.0328
X-5.3936 Y2.4209 I0.0392 J-0.0683 F50.
G2 X-5.4087 Y2.4181 I-0.01 J0.0117
G1 X-5.4348 Y2.4282 F60.
G2 X-5.4101 Y2.6261 I0.0775 J0.0909
G1 X-5.3864 Y2.6159
X-5.3122 Y2.5866
X-5.2851 Y2.5757
G2 X-5.2857 Y2.5473 I-0.0062 J-0.0141
X-5.3222 Y2.5454 I-0.0212 J0.0547
X-5.3933 Y2.5997 I0.0308 J0.114
X-5.4015 Y2.6167 I0.1019 J0.0597 F50.
G3 X-5.4096 Y2.6252 I-0.0143 J-0.0056
G1 X-5.4318 Y2.6341 F60.
G3 X-5.5563 Y2.4764 I-0.0142 J-0.1168
G2 X-5.4348 Y2.4282 I-1.9202 J-5.0235
G3 X-5.4197 Y2.4311 I0.005 J0.0145
X-5.4156 Y2.4445 I-0.0086 J0.01
G1 X-5.4159 Y2.4455
G3 X-5.5284 Y2.4877 I-0.0741 J-0.0266
X-5.5406 Y2.4793 I0.0384 J-0.0688 F50.
G2 X-5.5557 Y2.4766 I-0.0099 J0.0118
G1 X-5.5809 Y2.4868 F60.
G2 X-5.5583 Y2.6849 I0.0757 J0.0917
G3 X-5.4318 Y2.6341 I4.8606 J11.9095
G2 X-5.4324 Y2.6057 I-0.0062 J-0.0141
X-5.4512 Y2.603 I-0.015 J0.0386
X-5.5411 Y2.659 I0.0109 J0.1176
X-5.5496 Y2.6758 I0.1007 J0.0617 F50.
G3 X-5.5579 Y2.6841 I-0.0142 J-0.0058
G1 X-5.5859 Y2.6947 F60.
X-5.5946 Y2.6945
X-5.6032 Y2.6937
X-5.6117 Y2.6922
X-5.6202 Y2.6903
X-5.6284 Y2.6877
X-5.6365 Y2.6846
X-5.6444 Y2.6809
X-5.6519 Y2.6767
X-5.6592 Y2.672
X-5.6661 Y2.6668
X-5.6727 Y2.6611
X-5.6788 Y2.655
X-5.6845 Y2.6485
X-5.6898 Y2.6416
X-5.6946 Y2.6343
X-5.6988 Y2.6268
X-5.7025 Y2.619
X-5.7057 Y2.6109
X-5.7083 Y2.6027
X-5.7104 Y2.5942
X-5.7119 Y2.5857
X-5.7127 Y2.5771
X-5.713 Y2.5684
X-5.7127 Y2.5598
X-5.7118 Y2.5512
X-5.7103 Y2.5426
X-5.7082 Y2.5342
X-5.7056 Y2.526
X-5.7023 Y2.5179
X-5.6986 Y2.5101
X-5.6943 Y2.5026
G2 X-5.5817 Y2.4858 I0.0414 J-0.1086
G1 X-5.5789 Y2.4851
X-5.576 Y2.485
X-5.5731 Y2.4853
X-5.5704 Y2.4861
X-5.5679 Y2.4874
X-5.5657 Y2.4891
X-5.5638 Y2.4911
X-5.5623 Y2.4935
X-5.5613 Y2.496
G3 X-5.5784 Y2.5402 I-0.0338 J0.0123
X-5.6706 Y2.526 I-0.0364 J-0.0698
X-5.6822 Y2.5112 I0.0558 J-0.0556 F50.
G2 X-5.6917 Y2.5042 I-0.0131 J0.008
G1 X-5.7072 Y2.501 F60.
X-5.7152 Y2.5033
X-5.723 Y2.5062
X-5.7305 Y2.5097
X-5.7377 Y2.5138
X-5.7447 Y2.5183
X-5.7512 Y2.5234
X-5.7574 Y2.529
X-5.7631 Y2.5351
X-5.7683 Y2.5415
X-5.773 Y2.5483
X-5.7772 Y2.5555
X-5.7809 Y2.5629
X-5.784 Y2.5706
X-5.7865 Y2.5785
X-5.7884 Y2.5866
X-5.7896 Y2.5948
X-5.7903 Y2.6031
Y2.6114
X-5.7897 Y2.6196
X-5.7885 Y2.6279
X-5.7867 Y2.6359
X-5.7842 Y2.6439
X-5.7812 Y2.6516
X-5.7776 Y2.6591
X-5.7734 Y2.6663
X-5.7687 Y2.6731
X-5.7636 Y2.6796
X-5.7579 Y2.6856
G2 X-5.5859 Y2.6947 I0.0952 J-0.1711
X-5.5766 Y2.6825 I-0.0059 J-0.0142
X-5.5869 Y2.6594 I-0.024 J-0.0031
X-5.7341 Y2.6704 I-0.0667 J0.0974
X-5.7443 Y2.6812 I0.0805 J0.0865 F50.
G3 X-5.7587 Y2.6865 I-0.0118 J-0.0098
G1 X-5.7941 Y2.6791 F60.
G3 X-5.8207 Y2.4716 I0.0513 J-0.112
G2 X-5.7072 Y2.501 I0.1717 J-0.4298
G3 X-5.696 Y2.5195 I-0.0037 J0.0149
X-5.7235 Y2.5445 I-0.0323 J-0.0079
X-5.8053 Y2.5017 I-0.0113 J-0.0779
X-5.8116 Y2.484 I0.0705 J-0.0351 F50.
G2 X-5.8184 Y2.4744 I-0.015 J0.0034
G1 X-5.8281 Y2.4687 F60.
X-5.8294 Y2.4675
G2 X-5.9403 Y2.6232 I-0.0164 J0.1056
X-5.7941 Y2.6791 I0.1439 J-0.1571
X-5.7796 Y2.6738 I0.0026 J-0.0151
X-5.7851 Y2.6395 I-0.0177 J-0.0148
X-5.9131 Y2.6216 I-0.0839 J0.1333
X-5.9271 Y2.6264 I0.0441 J0.1512 F50.
G3 X-5.9423 Y2.6242 I-0.0057 J-0.0143
G1 X-5.9521 Y2.6159 F60.
X-5.9688 Y2.6001
X-5.978 Y2.5915
G3 X-5.9112 Y2.3891 I0.0992 J-0.0795
G1 X-5.875 Y2.4249
X-5.8714 Y2.4282
X-5.8294 Y2.4675
G3 X-5.8254 Y2.4823 I-0.0109 J0.0109
X-5.8605 Y2.4997 I-0.0251 J-0.0067
X-5.909 Y2.4211 I0.03 J-0.0728
X-5.9065 Y2.4064 I0.0785 J0.0058 F50.
G2 X-5.9105 Y2.3916 I-0.0148 J-0.004
G1 X-5.9219 Y2.381 F60.
X-5.9266 Y2.3766
X-5.9344 Y2.3736
X-5.9425 Y2.3711
X-5.9507 Y2.3692
X-5.959 Y2.3679
X-5.9674 Y2.3672
X-5.9758 Y2.3671
X-5.9842 Y2.3677
X-5.9926 Y2.3688
X-6.0008 Y2.3706
X-6.0089 Y2.3729
X-6.0168 Y2.3758
X-6.0245 Y2.3793
X-6.0318 Y2.3833
X-6.0389 Y2.3879
X-6.0457 Y2.393
X-6.052 Y2.3985
X-6.0579 Y2.4045
X-6.0634 Y2.4109
X-6.0684 Y2.4177
X-6.0729 Y2.4248
X-6.0768 Y2.4322
X-6.0802 Y2.4399
X-6.0831 Y2.4478
X-6.0853 Y2.456
X-6.087 Y2.4642
X-6.0881 Y2.4726
X-6.0885 Y2.481
X-6.0883 Y2.4894
G3 X-5.978 Y2.5915 I-5.0558 J5.5757
G2 X-5.9629 Y2.5944 I0.0101 J-0.0116
X-5.9447 Y2.5247 I-0.0141 J-0.0409
X-6.0584 Y2.488 I-0.0882 J0.0786
X-6.0727 Y2.4921 I0.0255 J0.1153 F50.
G3 X-6.0878 Y2.4894 I-0.0052 J-0.0145
G1 X-6.1095 Y2.4697 F60.
G3 X-6.021 Y2.2881 I0.1036 J-0.0618
G1 X-6.0157 Y2.2941
X-5.9727 Y2.3344
X-5.9266 Y2.3766
G3 X-5.9225 Y2.3914 I-0.0108 J0.011
X-5.9357 Y2.4023 I-0.0141 J-0.0036
X-6.0191 Y2.3188 I-0.0049 J-0.0786
X-6.0168 Y2.3041 I0.0786 J0.005 F50.
G2 X-6.0209 Y2.2893 I-0.0149 J-0.0038
G1 X-6.023 Y2.2874 F60.
X-6.0402 Y2.2713
G2 X-6.2083 Y2.3779 I-0.0498 J0.1074
G1 X-6.1564 Y2.4258
X-6.1537 Y2.4282
X-6.1095 Y2.4697
G2 X-6.0878 Y2.4679 I0.01 J-0.0117
X-6.0852 Y2.4419 I-0.0174 J-0.0148
X-6.1775 Y2.3819 I-0.1031 J0.0576
X-6.1964 Y2.3817 I-0.0108 J0.1176 F50.
G3 X-6.2075 Y2.3779 I-0.001 J-0.0153
G1 X-6.2268 Y2.3599 F60.
G3 X-6.1356 Y2.1813 I0.1022 J-0.0604
G2 X-6.0402 Y2.2713 I4.8191 J-5.0113
G3 X-6.0362 Y2.2861 I-0.0109 J0.0108
X-6.0482 Y2.2962 I-0.0132 J-0.0036
X-6.1341 Y2.2116 I-0.0075 J-0.0784
X-6.1316 Y2.197 I0.0785 J0.0062 F50.
G2 X-6.1355 Y2.1822 I-0.0148 J-0.0041
G1 X-6.1564 Y2.1624 F60.
G2 X-6.3254 Y2.2687 I-0.0492 J0.1094
G3 X-6.2268 Y2.3599 I-7.1873 J7.8695
G2 X-6.2051 Y2.3584 I0.0101 J-0.0116
X-6.2024 Y2.3323 I-0.0172 J-0.015
X-6.2943 Y2.2727 I-0.1029 J0.058
X-6.3131 Y2.2725 I-0.0109 J0.1176 F50.
G3 X-6.3243 Y2.2687 I-0.001 J-0.0153
G1 X-6.3439 Y2.2502 F60.
G3 X-6.2515 Y2.0727 I0.1034 J-0.059
G2 X-6.1564 Y2.1624 I5.7929 J-6.0455
G3 X-6.1525 Y2.1773 I-0.0109 J0.0108
X-6.1629 Y2.1867 I-0.0125 J-0.0034
G1 X-6.1698 Y2.1871
X-6.1766 Y2.1869
X-6.1834 Y2.1861
X-6.1902 Y2.1848
X-6.1968 Y2.1828
X-6.2031 Y2.1803
X-6.2093 Y2.1773
X-6.2151 Y2.1737
X-6.2207 Y2.1696
X-6.2258 Y2.1651
X-6.2305 Y2.1601
X-6.2348 Y2.1547
X-6.2386 Y2.149
X-6.2419 Y2.143
X-6.2447 Y2.1367
X-6.2468 Y2.1302
X-6.2485 Y2.1235
X-6.2495 Y2.1167
X-6.2499 Y2.1099
X-6.2497 Y2.103
G3 X-6.2473 Y2.0884 I0.0786 J0.0054 F50.
G2 X-6.2514 Y2.0736 I-0.0149 J-0.0039
G1 X-6.269 Y2.0573 F60.
G2 X-6.4411 Y2.1599 I-0.0546 J0.104
G1 X-6.3439 Y2.2502
G2 X-6.3289 Y2.2532 I0.0101 J-0.0116
X-6.3213 Y2.2434 I-0.0037 J-0.0106
G1 X-6.3212 Y2.2416
G2 X-6.411 Y2.1594 I-0.0786 J-0.0042
X-6.4254 Y2.1629 I0.0111 J0.078 F50.
G3 X-6.4405 Y2.1599 I-0.005 J-0.0145
G1 X-6.4592 Y2.1424 F60.
G3 X-6.3672 Y1.9646 I0.1018 J-0.06
G1 X-6.269 Y2.0573
G3 X-6.2798 Y2.0836 I-0.0108 J0.0109
X-6.3105 Y2.0743 I-0.0002 J-0.0546
X-6.3612 Y1.995 I0.066 J-0.098
X-6.3626 Y1.9762 I0.1166 J-0.0187 F50.
G2 X-6.3671 Y1.9654 I-0.0154 J0.
G1 X-6.3874 Y1.9463 F60.
X-6.3952 Y1.9428
X-6.4033 Y1.9398
X-6.4115 Y1.9375
X-6.4199 Y1.9357
X-6.4284 Y1.9346
X-6.4369 Y1.934
X-6.4455 Y1.9341
X-6.454 Y1.9349
X-6.4624 Y1.9362
X-6.4708 Y1.9381
X-6.4789 Y1.9407
X-6.4868 Y1.9438
X-6.4945 Y1.9475
X-6.5019 Y1.9517
X-6.509 Y1.9565
X-6.5157 Y1.9618
X-6.522 Y1.9675
X-6.5278 Y1.9737
X-6.5332 Y1.9803
X-6.5381 Y1.9872
X-6.5425 Y1.9945
X-6.5463 Y2.0021
X-6.5496 Y2.0099
X-6.5523 Y2.018
X-6.5544 Y2.0262
X-6.5559 Y2.0345
X-6.5567 Y2.043
X-6.557 Y2.0514
G3 X-6.4592 Y2.1424 I-10.0187 J10.8654
G2 X-6.4375 Y2.141 I0.0101 J-0.0116
X-6.4348 Y2.1161 I-0.0164 J-0.0144
X-6.5266 Y2.0556 I-0.1034 J0.057
X-6.5454 Y2.0553 I-0.0117 J0.1175 F50.
G3 X-6.5565 Y2.0514 I-0.0009 J-0.0153
G1 X-6.5763 Y2.0326 F60.
G3 X-6.4832 Y1.8557 I0.1038 J-0.0583
G1 X-6.4741 Y1.8652
X-6.3874 Y1.9463
G3 X-6.3835 Y1.9612 I-0.0109 J0.0108
X-6.3939 Y1.9706 I-0.0125 J-0.0034
X-6.4818 Y1.8861 I-0.0093 J-0.0782
X-6.4792 Y1.8715 I0.0785 J0.0063 F50.
G2 X-6.4831 Y1.8566 I-0.0148 J-0.0041
G1 X-6.5018 Y1.8391 F60.
G2 X-6.6731 Y1.9423 I-0.0532 J0.1055
X-6.5763 Y2.0326 I7.7892 J-8.2523
X-6.5613 Y2.0357 I0.0102 J-0.0115
X-6.5528 Y2.0246 I-0.0039 J-0.0119
X-6.6428 Y1.9416 I-0.0786 J-0.0051
X-6.6572 Y1.9452 I0.0115 J0.0779 F50.
G3 X-6.6723 Y1.9423 I-0.0051 J-0.0145
G1 X-6.6939 Y1.9224 F60.
G3 X-6.599 Y1.7467 I0.1064 J-0.056
G2 X-6.5018 Y1.8391 I7.8538 J-8.1621
G3 X-6.5127 Y1.8654 I-0.0109 J0.0109
X-6.5459 Y1.8545 I0.0001 J-0.0565
X-6.593 Y1.7775 I0.0695 J-0.0955
X-6.5944 Y1.7588 I0.1167 J-0.0185 F50.
G2 X-6.5989 Y1.7479 I-0.0154 J0.
G1 X-6.6186 Y1.7295 F60.
G2 X-6.789 Y1.8305 I-0.052 J0.1066
X-6.6939 Y1.9224 I6.927 J-7.0785
X-6.6685 Y1.9096 I0.01 J-0.0116
X-6.6704 Y1.9024 I-0.02 J0.0015
X-6.7586 Y1.8365 I-0.1067 J0.0507
X-6.7773 Y1.835 I-0.0185 J0.1166 F50.
G1 X-6.7774
G3 X-6.7882 Y1.8306 I0. J-0.0154
G1 X-6.7997 Y1.8183 F60.
X-6.8129 Y1.7794
G3 X-6.6212 Y1.7307 I0.1007 J-0.0053
G1 X-6.6193 Y1.7323
X-6.6178 Y1.7342
X-6.6166 Y1.7365
X-6.6159 Y1.7389
X-6.6156 Y1.7416
X-6.6159 Y1.7442
X-6.6166 Y1.7468
X-6.6179 Y1.7493
X-6.6197 Y1.7515
X-6.6218 Y1.7533
X-6.6243 Y1.7548
X-6.6272 Y1.7558 Z-0.1297
X-6.6299 Y1.7567 Z-0.1288
X-6.6324 Y1.7576 Z-0.1274
X-6.6346 Y1.7584 Z-0.1255
X-6.6364 Y1.7591 Z-0.1232
X-6.6377 Y1.7595 Z-0.1205
X-6.6385 Y1.7598 Z-0.1176
X-6.6388 Y1.7599 Z-0.1146
G0 Z0.4
X-6.4442 Y0.0491
Z0.1
G3 X-6.5251 Y-0.0724 Z0.0596 I-0.0405 J-0.0608 F50.
X-6.4442 Y0.0491 Z0.0191 I0.0405 J0.0608
X-6.5251 Y-0.0724 Z-0.0213 I-0.0405 J-0.0608
X-6.4442 Y0.0491 Z-0.0618 I0.0405 J0.0608
X-6.5251 Y-0.0724 Z-0.1022 I-0.0405 J-0.0608
X-6.4116 Y-0.0116 Z-0.13 I0.0405 J0.0608
X-6.5577 I-0.073 J0.
X-6.4119 Y-0.0175 I0.073 J0.
G1 X-6.4116 Y-0.0116
G3 X-6.3936 Y0.0499 I-0.034 J0.0434 F60.
G1 X-6.3976 Y0.0566
X-6.4022 Y0.063
X-6.4072 Y0.0689
X-6.4127 Y0.0745
X-6.4187 Y0.0796
X-6.425 Y0.0842
X-6.4316 Y0.0883
X-6.4386 Y0.0919
X-6.4458 Y0.0949
X-6.4532 Y0.0973
X-6.4608 Y0.0992
X-6.4685 Y0.1004
X-6.4763 Y0.101
X-6.4841 Y0.1011
X-6.4919 Y0.1005
X-6.4996 Y0.0993
X-6.5073 Y0.0975
X-6.5147 Y0.0951
X-6.5219 Y0.0921
X-6.5289 Y0.0886
X-6.5356 Y0.0845
X-6.5419 Y0.0799
X-6.5478 Y0.0748
X-6.5534 Y0.0693
X-6.5585 Y0.0634
X-6.5631 Y0.0571
X-6.5672 Y0.0504
X-6.5707 Y0.0435
X-6.5737 Y0.0362
X-6.5761 Y0.0288
X-6.578 Y0.0212
X-6.5792 Y0.0135
X-6.5798 Y0.0057
Y-0.0021
X-6.5792 Y-0.0099
X-6.578 Y-0.0176
X-6.5762 Y-0.0252
X-6.5738 Y-0.0326
X-6.5708 Y-0.0398
X-6.5672 Y-0.0468
X-6.5632 Y-0.0535
X-6.5586 Y-0.0598
X-6.5535 Y-0.0657
X-6.548 Y-0.0713
X-6.542 Y-0.0763
X-6.5357 Y-0.0809
X-6.5291 Y-0.085
X-6.5221 Y-0.0885
X-6.5149 Y-0.0915
X-6.5074 Y-0.0939
X-6.4999 Y-0.0958
X-6.4921 Y-0.097
X-6.4843 Y-0.0976
G3 X-6.3936 Y0.0499 I0.0261 J0.0856
X-6.4185 Y0.0428 I-0.0102 J-0.0115
G1 X-6.4194 Y0.04 Z-0.1297
X-6.4202 Y0.0372 Z-0.1288
X-6.4209 Y0.0346 Z-0.1274
X-6.4216 Y0.0324 Z-0.1255
X-6.4221 Y0.0306 Z-0.1232
X-6.4225 Y0.0292 Z-0.1205
X-6.4228 Y0.0284 Z-0.1176
X-6.4229 Y0.0281 Z-0.1146
G0 Z0.4
X-3.5364 Y0.8468
Z0.1
G3 X-3.6174 Y0.7253 Z0.0596 I-0.0405 J-0.0608 F50.
X-3.5364 Y0.8468 Z0.0191 I0.0405 J0.0608
X-3.6174 Y0.7253 Z-0.0213 I-0.0405 J-0.0608
X-3.5364 Y0.8468 Z-0.0618 I0.0405 J0.0608
X-3.6174 Y0.7253 Z-0.1022 I-0.0405 J-0.0608
X-3.5039 Y0.786 Z-0.13 I0.0405 J0.0608
X-3.6499 I-0.073 J0.
X-3.5041 Y0.7801 I0.073 J0.
G1 X-3.5039 Y0.786
G3 X-3.4882 Y0.8406 I-0.0263 J0.0371 F60.
X-3.6511 Y0.7206 I-0.0814 J-0.06
X-3.4687 Y0.786 I0.0814 J0.06
G1 X-3.4814 Y0.8329
X-3.4831 Y0.8363
X-3.4882 Y0.8406
G3 X-3.6141 Y0.9477 I-0.0788 J0.035
G1 X-3.6245 Y0.9451
X-3.6346 Y0.942
X-3.6446 Y0.9382
X-3.6544 Y0.9339
X-3.6638 Y0.929
X-3.673 Y0.9235
X-3.6818 Y0.9176
X-3.6903 Y0.9111
X-3.6984 Y0.9041
X-3.706 Y0.8967
X-3.7132 Y0.8889
X-3.72 Y0.8806
X-3.7262 Y0.872
X-3.7319 Y0.863
X-3.7371 Y0.8537
X-3.7417 Y0.8441
X-3.7458 Y0.8342
X-3.7493 Y0.8241
X-3.7522 Y0.8139
X-3.7545 Y0.8035
X-3.7561 Y0.7929
X-3.7572 Y0.7823
X-3.7576 Y0.7717
X-3.7574 Y0.761
X-3.7566 Y0.7504
X-3.7551 Y0.7398
X-3.7531 Y0.7294
X-3.7504 Y0.719
X-3.7471 Y0.7089
X-3.7433 Y0.699
X-3.7388 Y0.6893
X-3.7338 Y0.6799
X-3.7283 Y0.6707
X-3.7222 Y0.662
X-3.7157 Y0.6536
X-3.7086 Y0.6456
X-3.7012 Y0.638
X-3.6932 Y0.6309
X-3.6849 Y0.6242
X-3.6762 Y0.6181
X-3.6671 Y0.6125
X-3.6578 Y0.6074
X-3.6481 Y0.6028
X-3.6382 Y0.5989
X-3.6281 Y0.5955
X-3.6178 Y0.5927
X-3.6074 Y0.5905
X-3.5969 Y0.589
X-3.5862 Y0.5881
X-3.5756 Y0.5877
X-3.5649 Y0.5881
X-3.5543 Y0.589
X-3.5438 Y0.5905
X-3.5334 Y0.5927
X-3.5231 Y0.5955
X-3.513 Y0.5989
X-3.5031 Y0.6028
X-3.4934 Y0.6073
X-3.4841 Y0.6124
X-3.475 Y0.6181
X-3.4663 Y0.6242
X-3.458 Y0.6308
X-3.45 Y0.638
X-3.4426 Y0.6455
X-3.4355 Y0.6535
X-3.429 Y0.6619
X-3.4229 Y0.6707
X-3.4174 Y0.6798
X-3.4124 Y0.6892
X-3.4079 Y0.6989
X-3.4041 Y0.7088
X-3.4008 Y0.719
X-3.3981 Y0.7293
X-3.3961 Y0.7397
G3 X-3.7881 Y0.9406 I-0.1993 J0.094
X-3.8367 Y0.681 I0.1789 J-0.1679
G1 X-3.8317 Y0.6688
X-3.8261 Y0.6568
X-3.8199 Y0.645
X-3.8132 Y0.6336
X-3.806 Y0.6225
X-3.7983 Y0.6117
X-3.7901 Y0.6013
X-3.7814 Y0.5913
X-3.7722 Y0.5818
X-3.7626 Y0.5726
X-3.7526 Y0.5639
X-3.7422 Y0.5557
X-3.7315 Y0.548
X-3.7204 Y0.5408
X-3.7089 Y0.5341
X-3.6972 Y0.5279
X-3.6852 Y0.5223
X-3.6729 Y0.5173
X-3.6605 Y0.5128
X-3.6478 Y0.5089
X-3.635 Y0.5057
X-3.622 Y0.503
X-3.6089 Y0.5009
X-3.5957 Y0.4994
X-3.5825 Y0.4986
X-3.5693 Y0.4984
X-3.556 Y0.4987
X-3.5428 Y0.4997
X-3.5297 Y0.5014
X-3.5166 Y0.5036
X-3.5037 Y0.5064
X-3.4909 Y0.5098
X-3.4782 Y0.5139
X-3.4658 Y0.5185
X-3.4536 Y0.5236
X-3.4417 Y0.5294
X-3.43 Y0.5356
X-3.4187 Y0.5425
X-3.4076 Y0.5498
X-3.397 Y0.5576
X-3.3867 Y0.566
X-3.3768 Y0.5748
X-3.3673 Y0.584
X-3.3582 Y0.5937
X-3.3497 Y0.6038
X-3.3416 Y0.6143
X-3.334 Y0.6251
X-3.3269 Y0.6363
X-3.3203 Y0.6478
X-3.3143 Y0.6596
X-3.3088 Y0.6717
X-3.3039 Y0.684
X-3.2996 Y0.6965
X-3.2959 Y0.7093
X-3.2927 Y0.7221
X-3.2902 Y0.7351
X-3.2883 Y0.7482
X-3.287 Y0.7614
X-3.2863 Y0.7746
X-3.2862 Y0.7879
X-3.2867 Y0.8011
X-3.2879 Y0.8143
X-3.2896 Y0.8275
X-3.2891 Y0.8412
Y0.855
X-3.2898 Y0.8688
X-3.2911 Y0.8825
X-3.2931 Y0.8962
X-3.2956 Y0.9097
X-3.2988 Y0.9231
X-3.3026 Y0.9364
X-3.3069 Y0.9495
X-3.3119 Y0.9623
X-3.3175 Y0.975
X-3.3236 Y0.9873
X-3.3302 Y0.9994
X-3.3375 Y1.0111
X-3.3452 Y1.0226
X-3.3534 Y1.0336
X-3.3622 Y1.0443
X-3.3714 Y1.0545
X-3.3811 Y1.0643
X-3.3912 Y1.0737
X-3.4017 Y1.0826
X-3.4126 Y1.091
X-3.4239 Y1.099
X-3.4355 Y1.1064
X-3.4475 Y1.1132
X-3.4598 Y1.1195
X-3.4723 Y1.1253
X-3.4851 Y1.1304
X-3.4981 Y1.135
X-3.5113 Y1.139
X-3.5246 Y1.1424
X-3.5382 Y1.1451
X-3.5518 Y1.1473
X-3.5655 Y1.1488
X-3.5792 Y1.1497
X-3.593 Y1.15
X-3.6068 Y1.1497
X-3.6205 Y1.1487
X-3.6342 Y1.1471
X-3.6478 Y1.1449
X-3.6613 Y1.142
X-3.6747 Y1.1386
X-3.6879 Y1.1346
X-3.7008 Y1.1299
X-3.7136 Y1.1247
X-3.7261 Y1.1189
X-3.7383 Y1.1125
X-3.7503 Y1.1056
X-3.7619 Y1.0982
X-3.7731 Y1.0902
X-3.784 Y1.0817
X-3.7945 Y1.0728
X-3.8045 Y1.0634
X-3.8142 Y1.0535
X-3.8233 Y1.0432
X-3.832 Y1.0325
G3 X-3.9405 Y0.6967 I0.2172 J-0.2556
G1 X-3.9368 Y0.6819
X-3.9325 Y0.6673
X-3.9275 Y0.6528
X-3.9221 Y0.6386
X-3.916 Y0.6246
X-3.9094 Y0.6108
X-3.9022 Y0.5974
X-3.8945 Y0.5842
X-3.8863 Y0.5713
X-3.8776 Y0.5588
X-3.8684 Y0.5467
X-3.8587 Y0.5349
X-3.8485 Y0.5235
X-3.8379 Y0.5125
X-3.8268 Y0.502
X-3.8154 Y0.492
X-3.8035 Y0.4824
X-3.7913 Y0.4732
X-3.7787 Y0.4646
X-3.7657 Y0.4565
X-3.7525 Y0.4489
X-3.7389 Y0.4419
X-3.7251 Y0.4354
X-3.7111 Y0.4295
X-3.6968 Y0.4241
X-3.6823 Y0.4193
X-3.6676 Y0.4152
X-3.6528 Y0.4116
X-3.6378 Y0.4086
X-3.6228 Y0.4062
X-3.6076 Y0.4044
X-3.5924 Y0.4032
X-3.5771 Y0.4026
X-3.5619 Y0.4027
X-3.5466 Y0.4033
X-3.5314 Y0.4046
X-3.5163 Y0.4065
X-3.5012 Y0.409
X-3.4863 Y0.4121
X-3.4715 Y0.4158
X-3.4568 Y0.4201
X-3.4424 Y0.4249
X-3.4281 Y0.4304
X-3.4141 Y0.4364
X-3.4003 Y0.443
X-3.3868 Y0.4501
X-3.3736 Y0.4578
X-3.3608 Y0.4659
X-3.3482 Y0.4746
X-3.336 Y0.4838
X-3.3242 Y0.4935
X-3.3128 Y0.5036
X-3.3019 Y0.5142
X-3.2913 Y0.5253
X-3.2812 Y0.5367
X-3.2716 Y0.5485
X-3.2624 Y0.5608
X-3.2538 Y0.5733
X-3.2456 Y0.5862
X-3.238 Y0.5995
X-3.231 Y0.613
X-3.2244 Y0.6268
X-3.2185 Y0.6408
X-3.2131 Y0.6551
X-3.2083 Y0.6696
X-3.204 Y0.6842
X-3.2004 Y0.6991
X-3.1974 Y0.714
X-3.1949 Y0.7291
X-3.1931 Y0.7442
X-3.1919 Y0.7594
X-3.1913 Y0.7747
Y0.7899
X-3.1919 Y0.8052
X-3.1931 Y0.8204
X-3.192 Y0.8357
X-3.1916 Y0.8509
X-3.1917 Y0.8662
X-3.1924 Y0.8815
X-3.1937 Y0.8968
X-3.1957 Y0.9119
X-3.1982 Y0.927
X-3.2013 Y0.942
X-3.205 Y0.9568
X-3.2093 Y0.9715
X-3.2142 Y0.986
X-3.2197 Y1.0003
X-3.2257 Y1.0144
X-3.2322 Y1.0282
X-3.2394 Y1.0417
X-3.247 Y1.055
X-3.2551 Y1.0679
X-3.2638 Y1.0805
X-3.273 Y1.0928
X-3.2826 Y1.1047
X-3.2927 Y1.1162
X-3.3032 Y1.1273
X-3.3142 Y1.1379
X-3.3256 Y1.1481
X-3.3374 Y1.1579
X-3.3496 Y1.1672
X-3.3621 Y1.1759
X-3.3749 Y1.1842
X-3.3881 Y1.192
X-3.4016 Y1.1992
X-3.4153 Y1.2059
X-3.4293 Y1.2121
X-3.4436 Y1.2177
X-3.458 Y1.2227
X-3.4727 Y1.2272
X-3.4875 Y1.231
X-3.5024 Y1.2343
X-3.5175 Y1.237
X-3.5326 Y1.2391
X-3.5478 Y1.2406
X-3.5631 Y1.2414
X-3.5784 Y1.2417
X-3.5937 Y1.2414
X-3.609 Y1.2404
X-3.6242 Y1.2389
X-3.6393 Y1.2367
X-3.6544 Y1.234
X-3.6693 Y1.2307
G3 X-3.4657 Y0.3181 I0.1018 J-0.4563
X-3.6351 Y1.237 I-0.1018 J0.4563
G1 X-3.659 Y1.2359
X-3.6699 Y1.2331
G3 X-3.6771 Y1.2082 I0.0043 J-0.0148
G1 X-3.6752 Y1.206 Z-0.1297
X-3.6733 Y1.2038 Z-0.1288
X-3.6715 Y1.2018 Z-0.1274
X-3.6699 Y1.2001 Z-0.1255
X-3.6687 Y1.1986 Z-0.1232
X-3.6677 Y1.1976 Z-0.1205
X-3.6672 Y1.1969 Z-0.1176
X-3.667 Y1.1967 Z-0.1146
G0 Z0.4
X-5.6542 Y2.6023
Z-0.0993
G1 Z-0.1146 F50.
Y2.6026 Z-0.1176
Y2.6035 Z-0.1205
Y2.6049 Z-0.1232
Y2.6068 Z-0.1255
Y2.6092 Z-0.1274
X-5.6543 Y2.6118 Z-0.1288
Y2.6147 Z-0.1297
Y2.6177 Z-0.13
G3 X-5.6644 Y2.7017 I-0.3924 J-0.0043
X-5.7649 Y2.7697 I-0.0842 J-0.0162 F60.
X-6.1519 Y2.5539 I0.0045 J-0.4629
X-6.3637 Y2.3688 I0.5334 J-0.8239
G1 X-6.5219 Y2.2206
G3 X-6.888 Y1.8477 I1.6503 J-1.9865
X-6.7363 Y1.5852 I0.1725 J-0.0754
X-6.4374 Y1.7628 I-0.0674 J0.4538
G2 X-5.7538 Y2.3887 I10.0489 J-10.2882
X-5.4529 Y2.3278 I0.0558 J-0.4979
G1 X-5.2803 Y2.2591
X-5.1076 Y2.1906
G3 X-4.3889 Y1.9238 I2.581 J5.8528
X-4.3404 Y2.2973 I0.0081 J0.1888
X-4.942 Y2.5467 I-3.253 J-6.9978
X-5.7753 Y2.8746 I-8.1632 J-19.5226
X-6.2759 Y2.5874 I0.1088 J-0.7695
G1 X-6.4571 Y2.4184
X-6.6379 Y2.249
G3 X-6.9633 Y1.9192 I1.3831 J-1.6899
X-6.4782 Y1.6062 I0.2536 J-0.1394
X-6.1512 Y1.8936 I-1.5474 J2.0906
G1 X-5.9928 Y2.0417
G2 X-5.7119 Y2.2825 I0.8542 J-0.712
X-5.3294 Y2.171 I-0.0992 J-1.0522
G3 X-4.4354 Y1.8235 I9.2727 J22.5291
X-4.2002 Y1.895 I0.0197 J0.3575
G1 X-4.1904 Y1.9039
X-4.1809 Y1.9132
X-4.172 Y1.9229
X-4.1634 Y1.933
X-4.1554 Y1.9435
X-4.1478 Y1.9544
X-4.1407 Y1.9656
X-4.1342 Y1.9771
X-4.1282 Y1.9889
X-4.1227 Y2.001
X-4.1178 Y2.0133
X-4.1135 Y2.0258
X-4.1097 Y2.0385
X-4.1066 Y2.0513
X-4.104 Y2.0643
X-4.102 Y2.0774
X-4.1006 Y2.0905
X-4.0998 Y2.1037
X-4.0996 Y2.117
X-4.1001 Y2.1302
X-4.1011 Y2.1434
X-4.1028 Y2.1565
X-4.105 Y2.1696
X-4.1078 Y2.1825
X-4.1113 Y2.1953
X-4.1153 Y2.2079
X-4.1198 Y2.2203
X-4.125 Y2.2325
X-4.1307 Y2.2445
X-4.1369 Y2.2562
X-4.1437 Y2.2675
X-4.151 Y2.2786
X-4.1587 Y2.2893
X-4.167 Y2.2996
X-4.1757 Y2.3096
X-4.1849 Y2.3191
X-4.1945 Y2.3283
X-4.2045 Y2.3369
X-4.2149 Y2.3451
X-4.2256 Y2.3528
X-4.2367 Y2.36
X-4.2481 Y2.3667
X-4.2598 Y2.3729
X-4.2718 Y2.3785
X-4.2841 Y2.3836
X-4.2965 Y2.3881
X-4.3091 Y2.392
X-4.3219 Y2.3954
X-4.3349 Y2.3982
G3 X-4.5043 Y2.4799 I-0.4104 J-0.6344
G1 X-4.7057 Y2.5603
G2 X-5.5676 Y2.9068 I9.9719 J26.0507
G3 X-6.235 Y2.7478 I-0.2357 J-0.4911
X-6.9565 Y2.0841 I9.7967 J-11.3743
G1 X-7.0141 Y1.8171
G3 X-6.684 Y1.4718 I0.2757 J-0.0669
G1 X-6.4963 Y1.4997
G3 X-6.158 Y1.7503 I-0.4061 J0.9018
G1 X-5.8414 Y2.0464
G2 X-5.685 Y2.1698 I0.258 J-0.1663
X-5.0476 Y1.9428 I-0.4216 J-2.1923
G1 X-5.015 Y1.9384
X-4.9287 Y1.9038
X-4.8136 Y1.8581
G3 X-4.622 Y1.7835 I0.9412 J2.1334
G1 X-4.6203 Y1.7837
X-4.339 Y1.8262
G3 X-4.1514 Y2.2877 I-0.0326 J0.2821
G1 X-4.2921 Y2.468
G3 X-4.6616 Y2.6503 I-0.6963 J-0.9458
G1 X-5.1795 Y2.8565
G3 X-5.7621 Y3.0588 I-1.0586 J-2.1086
X-6.1437 Y2.9551 I-0.038 J-0.6143
X-6.9156 Y2.2597 I4.8903 J-6.2041
G1 X-6.9552 Y2.0828
G3 X-6.9555 Y2.08 I0.0151 J-0.0028
X-6.9501 Y2.0683 I0.0154 J0.
X-6.9074 Y2.0691 I0.0209 J0.0244
X-6.9002 Y2.2352 I-0.0802 J0.0867
X-6.9108 Y2.2456 I-0.0874 J-0.0794 F50.
G2 X-6.9159 Y2.26 I0.01 J0.0117
G1 X-6.892 Y2.368 F60.
G2 X-6.5986 Y2.6966 I0.9924 J-0.5907
X-5.9724 Y3.1366 I1.188 J-1.0251
X-5.3771 Y3.0361 I0.1731 J-0.7875
G1 X-5.2875 Y3.0071
X-5.23 Y2.9842
X-5.0285 Y2.9041
X-4.6545 Y2.7551
G2 X-4.4508 Y2.6714 I-0.7667 J-2.1565
G1 X-4.2921 Y2.468
G2 X-4.2905 Y2.4527 I-0.0124 J-0.009
X-4.3201 Y2.4354 I-0.0269 J0.012
X-4.4546 Y2.6424 I0.0148 J0.1568
X-4.4492 Y2.6562 I0.1493 J-0.0502 F50.
G3 X-4.4508 Y2.6714 I-0.014 J0.0062
G1 X-4.5266 Y2.7685 F60.
G3 X-4.8512 Y2.941 I-0.5852 J-0.7098
G1 X-5.0525 Y3.0213
X-5.254 Y3.1014
G3 X-5.8476 Y3.2543 I-0.5906 J-1.0644
X-6.354 Y3.0451 I0.0607 J-0.8645
X-6.8405 Y2.6042 I4.4624 J-5.4132
G1 X-6.892 Y2.368
G3 X-6.8922 Y2.3652 I0.0151 J-0.0028
X-6.8869 Y2.3535 I0.0154 J0.
X-6.8587 Y2.3431 I0.0282 J0.0329
X-6.8289 Y2.3549 I0. J0.0433
X-6.8238 Y2.5789 I-0.1081 J0.1145
X-6.8347 Y2.589 I-0.1132 J-0.1095 F50.
G2 X-6.8398 Y2.6035 I0.01 J0.0117
G1 X-6.8171 Y2.706 F60.
G2 X-6.5653 Y2.9987 I0.8019 J-0.4351
G1 X-6.5483 Y3.0175
X-6.5308 Y3.0358
X-6.5129 Y3.0538
X-6.4946 Y3.0713
X-6.4758 Y3.0883
X-6.4566 Y3.1049
X-6.437 Y3.121
X-6.417 Y3.1366
X-6.3967 Y3.1518
X-6.376 Y3.1664
X-6.3549 Y3.1805
X-6.3335 Y3.1941
X-6.3118 Y3.2072
X-6.2897 Y3.2197
X-6.2674 Y3.2317
X-6.2448 Y3.2431
X-6.2218 Y3.254
X-6.1987 Y3.2643
X-6.1753 Y3.2741
X-6.1516 Y3.2832
X-6.1278 Y3.2918
X-6.1037 Y3.2998
X-6.0795 Y3.3072
X-6.055 Y3.314
X-6.0304 Y3.3203
X-6.0057 Y3.3259
X-5.9809 Y3.3309
X-5.9559 Y3.3353
X-5.9308 Y3.339
X-5.9057 Y3.3422
X-5.8804 Y3.3448
X-5.8551 Y3.3467
X-5.8298 Y3.348
X-5.8045 Y3.3487
X-5.7791 Y3.3488
X-5.7538 Y3.3482
X-5.7284 Y3.347
X-5.7031 Y3.3452
X-5.6779 Y3.3428
X-5.6527 Y3.3398
X-5.6276 Y3.3362
X-5.6026 Y3.3319
X-5.5777 Y3.327
X-5.553 Y3.3216
X-5.5284 Y3.3155
X-5.5039 Y3.3088
X-5.4796 Y3.3015
X-5.4555 Y3.2936
X-5.4316 Y3.2852
X-5.4079 Y3.2762
X-5.3845 Y3.2665
X-5.3612 Y3.2563
X-5.3383 Y3.2456
X-5.3156 Y3.2343
X-5.2932 Y3.2224
X-5.2058 Y3.1899
X-5.1195 Y3.1555
X-4.8893 Y3.0639
G2 X-4.6947 Y2.9839 I-0.5224 J-1.5495
G1 X-4.5266 Y2.7685
G2 X-4.53 Y2.7471 I-0.0124 J-0.009
X-4.6025 Y2.7481 I-0.0356 J0.0491
X-4.6941 Y2.9538 I0.1439 J0.1873
G1 X-4.6919 Y2.9725 F50.
G3 X-4.6947 Y2.9839 I-0.0152 J0.0024
G1 X-4.7779 Y3.0906 F60.
G3 X-5.2376 Y3.3102 I-0.8201 J-1.1259
G1 X-5.2609 Y3.3228
X-5.2846 Y3.3347
X-5.3085 Y3.3461
X-5.3326 Y3.357
X-5.357 Y3.3673
X-5.3817 Y3.3769
X-5.4065 Y3.386
X-5.4316 Y3.3946
X-5.4569 Y3.4025
X-5.4823 Y3.4098
X-5.5079 Y3.4165
X-5.5337 Y3.4226
X-5.5596 Y3.4281
X-5.5856 Y3.433
X-5.6118 Y3.4373
X-5.638 Y3.4409
X-5.6643 Y3.444
X-5.6907 Y3.4464
X-5.7171 Y3.4482
X-5.7435 Y3.4493
X-5.77 Y3.4499
X-5.7965 Y3.4498
X-5.823 Y3.4491
X-5.8494 Y3.4477
X-5.8758 Y3.4458
X-5.9022 Y3.4432
X-5.9285 Y3.44
X-5.9547 Y3.4361
X-5.9808 Y3.4317
X-6.0067 Y3.4266
X-6.0326 Y3.4209
X-6.0583 Y3.4147
X-6.0839 Y3.4078
X-6.1093 Y3.4003
X-6.1345 Y3.3922
X-6.1595 Y3.3835
X-6.1843 Y3.3742
X-6.2089 Y3.3644
X-6.2332 Y3.3539
X-6.2573 Y3.3429
X-6.2811 Y3.3314
X-6.3047 Y3.3192
X-6.3279 Y3.3066
X-6.3509 Y3.2933
X-6.3735 Y3.2796
X-6.3958 Y3.2653
X-6.4177 Y3.2505
X-6.4393 Y3.2351
X-6.4605 Y3.2193
X-6.4814 Y3.2029
X-6.5018 Y3.1861
X-6.5219 Y3.1688
X-6.5415 Y3.1511
X-6.5607 Y3.1328
X-6.5795 Y3.1141
G3 X-6.7639 Y2.9488 I1.053 J-1.3598
G1 X-6.8171 Y2.706
G3 X-6.8173 Y2.7032 I0.0151 J-0.0028
X-6.8119 Y2.6915 I0.0154 J0.
X-6.763 Y2.6906 I0.0251 J0.0293
X-6.7474 Y2.9236 I-0.0976 J0.1236
X-6.7582 Y2.9338 I-0.1132 J-0.1095 F50.
G2 X-6.7634 Y2.9482 I0.01 J0.0117
G1 X-6.7393 Y3.0569 F60.
G2 X-6.4278 Y3.3591 I0.7356 J-0.4466
X-6.2403 Y3.4594 I0.6726 J-1.0316
G1 X-5.9804 Y3.529
G2 X-5.2038 Y3.3947 I0.2015 J-1.1471
X-4.9384 Y3.2963 I-0.4447 J-1.6074
G1 X-4.7779 Y3.0906
G2 X-4.7763 Y3.0754 I-0.0124 J-0.009
X-4.8018 Y3.0598 I-0.024 J0.0107
X-4.9422 Y3.2672 I0.0089 J0.1572
X-4.9368 Y3.281 I0.1493 J-0.0502 F50.
G3 X-4.9384 Y3.2963 I-0.014 J0.0062
G1 X-5.019 Y3.3997 F60.
G3 X-5.4566 Y3.6009 I-0.7403 J-1.0332
X-5.5981 Y3.6315 I-0.217 J-0.663
G1 X-5.9804 Y3.529
G3 X-5.9888 Y3.5233 I0.004 J-0.0148
G2 X-5.9969 Y3.5177 I-0.0123 J0.0092
G1 X-6.0071 Y3.5148
X-6.2009 Y3.4587
X-6.2037 Y3.4581
X-6.2066
X-6.2094 Y3.4586
G3 X-6.2403 Y3.4594 I-0.0169 J-0.06 F50.
G1 X-6.5198 Y3.3845 F60.
X-6.5345 Y3.3796
X-6.5491 Y3.3741
X-6.5634 Y3.3681
X-6.5776 Y3.3615
X-6.5914 Y3.3544
X-6.605 Y3.3468
X-6.6183 Y3.3387
X-6.6312 Y3.3301
X-6.6438 Y3.3209
X-6.6561 Y3.3114
X-6.668 Y3.3013
X-6.6795 Y3.2908
X-6.6905 Y3.2799
Y3.2782
X-6.6902 Y3.2765
G3 X-6.6671 Y3.2633 I0.0154 J0.
G1 X-6.5085 Y3.3563
G3 X-6.5013 Y3.3663 I-0.0078 J0.0133
X-6.5198 Y3.3845 I-0.015 J0.0033 F50.
X-6.6731 Y3.3412 I0.0357 J-0.4198 F60.
G1 X-6.6745 Y3.3398
X-6.6747 Y3.3392
X-6.6788 Y3.3295
X-6.7393 Y3.0569
G3 X-6.7202 Y3.0392 I0.0151 J-0.0028
G1 X-6.7173 Y3.04 Z-0.1297
X-6.7145 Y3.0407 Z-0.1288
X-6.712 Y3.0414 Z-0.1274
X-6.7097 Y3.042 Z-0.1255
X-6.7079 Y3.0425 Z-0.1232
X-6.7065 Y3.0428 Z-0.1205
X-6.7057 Y3.043 Z-0.1176
X-6.7054 Y3.0431 Z-0.1146
G0 Z-0.0993
X-5.6352 Y3.6044
G1 Z-0.1146 F50.
X-5.635 Y3.6046 Z-0.1176
X-5.6344 Y3.6052 Z-0.1205
X-5.6334 Y3.6062 Z-0.1232
X-5.6321 Y3.6076 Z-0.1255
X-5.6305 Y3.6092 Z-0.1274
X-5.6286 Y3.6111 Z-0.1288
X-5.6266 Y3.6132 Z-0.1297
X-5.6245 Y3.6154 Z-0.13
G2 X-5.5981 Y3.6315 I0.0446 J-0.0435
G1 X-5.4646 Y3.6672 F60.
G2 X-5.181 Y3.6073 I0.0216 J-0.5987
G1 X-5.019 Y3.3997
G2 X-5.0174 Y3.3844 I-0.0124 J-0.009
X-5.0392 Y3.3706 I-0.0212 J0.0094
X-5.1848 Y3.5782 I0.0036 J0.1574
X-5.1794 Y3.592 I0.1493 J-0.0502 F50.
G3 X-5.181 Y3.6073 I-0.014 J0.0062
G1 X-5.2535 Y3.7002 F60.
G3 X-5.2829 Y3.7159 I-0.0222 J-0.0061
G1 X-5.4646 Y3.6672
G3 X-5.4714 Y3.6422 I0.0045 J-0.0147
G1 X-5.4694 Y3.64 Z-0.1297
X-5.4675 Y3.6378 Z-0.1288
X-5.4657 Y3.6359 Z-0.1274
X-5.4641 Y3.6342 Z-0.1255
X-5.4628 Y3.6327 Z-0.1232
X-5.4619 Y3.6317 Z-0.1205
X-5.4613 Y3.631 Z-0.1176
X-5.4611 Y3.6308 Z-0.1146
G0 Z-0.0993
X-4.5804 Y1.8065
G1 Z-0.1146 F50.
X-4.5806 Y1.8063 Z-0.1176
X-4.5813 Y1.8057 Z-0.1205
X-4.5824 Y1.8048 Z-0.1232
X-4.5839 Y1.8036 Z-0.1255
X-4.5857 Y1.8021 Z-0.1274
X-4.5877 Y1.8004 Z-0.1288
X-4.5899 Y1.7986 Z-0.1297
X-4.5923 Y1.7967 Z-0.13
G2 X-4.6203 Y1.7837 I-0.0395 J0.0482
G1 X-4.7611 Y1.7623 F60.
X-4.7953 Y1.7692
X-4.8293 Y1.7766
X-4.8633 Y1.7846
X-4.8971 Y1.7932
X-4.9307 Y1.8023
X-4.9642 Y1.812
X-4.9976 Y1.8222
X-5.0307 Y1.833
X-5.0637 Y1.8443
X-5.0965 Y1.8562
X-5.1291 Y1.8687
X-5.1614 Y1.8817
X-5.1936 Y1.8952
X-5.2255 Y1.9093
X-5.2571 Y1.9239
X-5.2885 Y1.939
X-5.3197 Y1.9547
X-5.3506 Y1.9708
G3 X-5.631 Y2.0599 I-0.7042 J-1.731
X-5.8987 Y1.8558 I0.3674 J-0.7596
G1 X-6.0797 Y1.6866
G2 X-6.2445 Y1.5378 I-1.2161 J1.1812
G1 X-6.4963 Y1.4997
G2 X-6.5104 Y1.5058 I-0.0018 J0.0153
X-6.5102 Y1.5453 I0.0264 J0.0196
X-6.268 Y1.5553 I0.1252 J-0.0955
X-6.2586 Y1.5439 I-0.1169 J-0.1055 F50.
G3 X-6.2445 Y1.5378 I0.0123 J0.0092
G1 X-6.1317 Y1.5549 F60.
G3 X-5.762 Y1.8461 I-0.574 J1.1088
G1 X-5.7552 Y1.8553
X-5.748 Y1.8642
X-5.7403 Y1.8726
X-5.7322 Y1.8806
X-5.7236 Y1.8882
X-5.7146 Y1.8953
X-5.7053 Y1.9019
X-5.6957 Y1.908
X-5.6857 Y1.9136
X-5.6754 Y1.9186
X-5.6649 Y1.9231
X-5.6541 Y1.9269
X-5.6432 Y1.9303
X-5.6321 Y1.933
X-5.6209 Y1.9351
X-5.6096 Y1.9366
X-5.5982 Y1.9375
X-5.5867 Y1.9378
X-5.5753 Y1.9374
X-5.5639 Y1.9365
X-5.5526 Y1.9349
X-5.5414 Y1.9328
X-5.5303 Y1.93
X-5.5194 Y1.9266
X-5.5087 Y1.9227
X-5.4982 Y1.9182
X-5.488 Y1.9131
X-5.478 Y1.9075
X-5.4684 Y1.9014
X-5.4591 Y1.8947
X-5.4502 Y1.8876
X-5.2312 Y1.806
X-5.0123 Y1.7243
X-4.7611 Y1.7623
G3 X-4.7494 Y1.7723 I-0.0028 J0.0151
X-4.7617 Y1.8108 I-0.0315 J0.0111
X-4.9951 Y1.748 I-0.0904 J-0.1289
X-5.0007 Y1.7343 I0.1429 J-0.0662 F50.
G2 X-5.0123 Y1.7243 I-0.0145 J0.0051
G1 X-5.1363 Y1.7055 F60.
G2 X-5.5177 Y1.8126 I0.0939 J1.0673
G3 X-5.7492 Y1.7097 I-0.0543 J-0.1897
G2 X-5.894 Y1.5908 I-3.3241 J3.9006
G1 X-6.1317 Y1.5549
G2 X-6.1458 Y1.561 I-0.0018 J0.0153
X-6.14 Y1.6198 I0.0352 J0.0262
X-5.9176 Y1.6084 I0.1055 J-0.1169
X-5.9081 Y1.5969 I-0.1169 J-0.1055 F50.
G3 X-5.894 Y1.5908 I0.0123 J0.0092
G1 X-5.7901 Y1.6066 F60.
G2 X-5.5778 Y1.7087 I3.0814 J-6.1334
X-5.4062 Y1.6651 I-0.3708 J-1.8221
G1 X-5.1363 Y1.7055
G3 X-5.124 Y1.7235 I-0.0028 J0.0151
X-5.1774 Y1.7726 I-0.0596 J-0.0112
X-5.3852 Y1.6862 I-0.0242 J-0.235
G1 X-5.3965 Y1.6711 F50.
G2 X-5.4063 Y1.6647 I-0.0127 J0.0087
G1 X-5.7901 Y1.6066 F60.
G2 X-5.7921 Y1.6065 I-0.0018 J0.0153
G1 X-5.7944 Y1.607 Z-0.1298
X-5.7966 Y1.6076 Z-0.1293
X-5.7988 Y1.6081 Z-0.1284
X-5.8004 Y1.6094 Z-0.127
X-5.8019 Y1.6106 Z-0.1254
X-5.8031 Y1.6116 Z-0.1235
X-5.8041 Y1.6125 Z-0.1213
X-5.8045 Y1.6132 Z-0.1192
X-5.8048 Y1.6136 Z-0.1169
X-5.8049 Y1.6137 Z-0.1146
G0 Z0.4
X-6.4751 Y-0.0158
Z-0.0993
G1 Z-0.1146 F50.
X-6.4754 Z-0.1176
X-6.4763 Y-0.0155 Z-0.1205
X-6.4776 Y-0.0152 Z-0.1232
X-6.4795 Y-0.0147 Z-0.1255
X-6.4817 Y-0.0141 Z-0.1274
X-6.4843 Y-0.0135 Z-0.1288
X-6.4871 Y-0.0128 Z-0.1297
X-6.49 Y-0.012 Z-0.13
G3 X-6.5737 Y0. I-0.0974 J-0.3801
G1 X-6.58 Y-0.0029 F60.
X-6.5861 Y-0.0064
X-6.5918 Y-0.0104
X-6.5971 Y-0.0149
X-6.602 Y-0.0199
X-6.6064 Y-0.0252
X-6.6104 Y-0.031
X-6.6138 Y-0.0371
X-6.6167 Y-0.0434
X-6.619 Y-0.05
X-6.6207 Y-0.0568
X-6.6218 Y-0.0637
X-6.6222 Y-0.0706
X-6.6221 Y-0.0776
X-6.6213 Y-0.0845
X-6.62 Y-0.0914
X-6.618 Y-0.098
X-6.6154 Y-0.1045
X-6.6123 Y-0.1107
X-6.6086 Y-0.1167
X-6.6044 Y-0.1223
X-6.5998 Y-0.1274
X-6.5946 Y-0.1322
X-6.5891 Y-0.1365
X-6.5833 Y-0.1402
X-6.5771 Y-0.1434
X-6.5707 Y-0.1461
X-6.564 Y-0.1482
X-6.5557 Y-0.1544
X-6.547 Y-0.1602
X-6.5381 Y-0.1654
X-6.5288 Y-0.1701
X-6.5193 Y-0.1742
X-6.5095 Y-0.1777
X-6.4996 Y-0.1807
X-6.4895 Y-0.1831
X-6.4793 Y-0.1849
X-6.4689 Y-0.1861
X-6.4586 Y-0.1866
X-6.4482
X-6.4378 Y-0.186
X-6.4275 Y-0.1847
X-6.4173 Y-0.1828
X-6.4072 Y-0.1804
X-6.3973 Y-0.1773
X-6.3876 Y-0.1737
X-6.3781 Y-0.1695
X-6.3689 Y-0.1648
X-6.3599 Y-0.1595
X-6.3513 Y-0.1537
X-6.3431 Y-0.1474
X-6.3352 Y-0.1407
X-6.3277 Y-0.1335
X-6.3207 Y-0.1258
X-6.3141 Y-0.1178
X-6.3081 Y-0.1094
X-6.3025 Y-0.1006
X-6.2974 Y-0.0915
X-6.2929 Y-0.0822
X-6.289 Y-0.0726
X-6.2856 Y-0.0628
X-6.2828 Y-0.0528
X-6.2806 Y-0.0426
X-6.279 Y-0.0324
X-6.278 Y-0.0221
X-6.2776 Y-0.0117
X-6.2779 Y-0.0013
X-6.2787 Y0.009
X-6.2802 Y0.0193
X-6.2822 Y0.0295
X-6.2848 Y0.0395
X-6.2881 Y0.0494
X-6.2919 Y0.059
X-6.2962 Y0.0684
X-6.3011 Y0.0776
X-6.3066 Y0.0864
X-6.3125 Y0.0949
X-6.319 Y0.1031
X-6.3259 Y0.1108
X-6.3332 Y0.1181
X-6.341 Y0.125
X-6.3491 Y0.1314
X-6.3577 Y0.1373
X-6.3665 Y0.1428
X-6.3757 Y0.1476
X-6.3851 Y0.152
X-6.3936 Y0.1579
X-6.4025 Y0.1634
X-6.4116 Y0.1684
X-6.421 Y0.1728
X-6.4307 Y0.1767
X-6.4406 Y0.18
X-6.4506 Y0.1827
X-6.4608 Y0.1849
X-6.4711 Y0.1865
X-6.4814 Y0.1875
X-6.4918 Y0.1879
X-6.5022 Y0.1876
X-6.5126 Y0.1868
X-6.5229 Y0.1854
X-6.5331 Y0.1834
X-6.5432 Y0.1808
X-6.5531 Y0.1777
X-6.5629 Y0.174
X-6.5724 Y0.1697
X-6.5816 Y0.1649
X-6.5905 Y0.1596
X-6.5991 Y0.1537
X-6.6074 Y0.1474
X-6.6153 Y0.1406
X-6.6228 Y0.1334
X-6.6298 Y0.1258
X-6.6364 Y0.1177
X-6.6426 Y0.1093
X-6.6482 Y0.1006
X-6.6534 Y0.0915
X-6.658 Y0.0822
X-6.662 Y0.0726
X-6.6655 Y0.0628
X-6.6685 Y0.0528
X-6.6744 Y0.0426
X-6.6798 Y0.0321
X-6.6846 Y0.0213
X-6.6888 Y0.0103
X-6.6925 Y-0.0009
X-6.6956 Y-0.0123
X-6.6981 Y-0.0239
X-6.6999 Y-0.0355
X-6.7011 Y-0.0473
X-6.7018 Y-0.0591
Y-0.0709
X-6.7011 Y-0.0827
X-6.6999 Y-0.0944
X-6.698 Y-0.1061
X-6.6956 Y-0.1176
X-6.6925 Y-0.129
X-6.6888 Y-0.1402
X-6.6846 Y-0.1513
X-6.6797 Y-0.162
X-6.6744 Y-0.1725
X-6.6684 Y-0.1828
X-6.662 Y-0.1926
X-6.655 Y-0.2022
X-6.6475 Y-0.2113
X-6.6396 Y-0.2201
X-6.6312 Y-0.2284
X-6.6224 Y-0.2362
X-6.6132 Y-0.2436
X-6.6036 Y-0.2505
X-6.5937 Y-0.2569
X-6.5834 Y-0.2627
X-6.5729 Y-0.268
X-6.562 Y-0.2728
X-6.551 Y-0.2769
X-6.5397 Y-0.2805
X-6.5283 Y-0.2835
X-6.5168 Y-0.2859
X-6.5051 Y-0.2876
X-6.4933 Y-0.2888
X-6.4815 Y-0.2893
X-6.4697 Y-0.2892
X-6.458 Y-0.2885
X-6.4462 Y-0.2871
X-6.4346 Y-0.2852
X-6.4231 Y-0.2826
X-6.4117 Y-0.2795
X-6.4005 Y-0.2757
X-6.3895 Y-0.2714
X-6.3788 Y-0.2664
X-6.3683 Y-0.261
X-6.3582 Y-0.255
G3 X-6.2062 Y-0.1112 I-0.0656 J0.2215
X-6.3851 Y0.2663 I-0.2771 J0.0998
X-6.7616 Y0.0853 I-0.0983 J-0.2777
G1 X-6.7677 Y0.0725
X-6.7732 Y0.0595
X-6.7782 Y0.0463
X-6.7826 Y0.0328
X-6.7864 Y0.0192
X-6.7896 Y0.0054
X-6.7922 Y-0.0085
X-6.7942 Y-0.0226
X-6.7955 Y-0.0367
X-6.7963 Y-0.0508
X-6.7964 Y-0.0649
X-6.7959 Y-0.0791
X-6.7948 Y-0.0932
X-6.7931 Y-0.1073
X-6.7908 Y-0.1212
X-6.7879 Y-0.1351
X-6.7843 Y-0.1488
X-6.7802 Y-0.1623
X-6.7755 Y-0.1757
X-6.7702 Y-0.1888
X-6.7643 Y-0.2017
X-6.7579 Y-0.2143
X-6.7509 Y-0.2266
X-6.7434 Y-0.2386
X-6.7354 Y-0.2503
X-6.7269 Y-0.2616
X-6.7179 Y-0.2725
X-6.7084 Y-0.283
X-6.6985 Y-0.2931
X-6.6881 Y-0.3028
X-6.6774 Y-0.312
X-6.6662 Y-0.3207
X-6.6547 Y-0.3289
X-6.6428 Y-0.3366
X-6.6306 Y-0.3438
X-6.6181 Y-0.3505
X-6.6053 Y-0.3566
X-6.5923 Y-0.3621
X-6.579 Y-0.367
X-6.5656 Y-0.3714
X-6.5519 Y-0.3752
X-6.5381 Y-0.3784
X-6.5242 Y-0.3809
X-6.5102 Y-0.3829
X-6.4961 Y-0.3843
X-6.482 Y-0.385
X-6.4678 Y-0.3851
X-6.4537 Y-0.3846
X-6.4396 Y-0.3835
X-6.4255 Y-0.3818
X-6.4116 Y-0.3794
X-6.3977 Y-0.3765
X-6.384 Y-0.3729
X-6.3705 Y-0.3688
X-6.3572 Y-0.364
X-6.344 Y-0.3587
X-6.3312 Y-0.3528
X-6.3186 Y-0.3464
X-6.3062 Y-0.3394
X-6.2942 Y-0.3319
X-6.2826 Y-0.3239
G3 X-6.1457 Y-0.2028 I-0.0972 J0.2477
G1 X-6.1382 Y-0.189
X-6.1313 Y-0.175
X-6.125 Y-0.1607
X-6.1192 Y-0.1461
X-6.114 Y-0.1314
X-6.1094 Y-0.1164
X-6.1054 Y-0.1012
X-6.1021 Y-0.086
X-6.0993 Y-0.0705
X-6.0972 Y-0.055
X-6.0957 Y-0.0394
X-6.0948 Y-0.0238
X-6.0946 Y-0.0082
X-6.095 Y0.0075
X-6.096 Y0.0231
X-6.0976 Y0.0387
X-6.0999 Y0.0542
X-6.1028 Y0.0696
X-6.1063 Y0.0848
X-6.1104 Y0.0999
X-6.1151 Y0.1148
X-6.1204 Y0.1296
X-6.1263 Y0.1441
X-6.1328 Y0.1583
X-6.1398 Y0.1723
X-6.1475 Y0.186
X-6.1556 Y0.1994
X-6.1643 Y0.2124
X-6.1735 Y0.2251
X-6.1832 Y0.2373
X-6.1934 Y0.2492
X-6.204 Y0.2607
X-6.2151 Y0.2717
X-6.2267 Y0.2823
X-6.2386 Y0.2924
X-6.251 Y0.302
X-6.2637 Y0.3111
X-6.2768 Y0.3197
X-6.2902 Y0.3278
X-6.304 Y0.3353
X-6.318 Y0.3423
X-6.3323 Y0.3486
X-6.3468 Y0.3544
X-6.3616 Y0.3597
X-6.3765 Y0.3643
X-6.3917 Y0.3683
X-6.4069 Y0.3717
X-6.4223 Y0.3745
X-6.4379 Y0.3766
X-6.4534 Y0.3782
X-6.4691 Y0.3791
X-6.4847 Y0.3794
X-6.5004 Y0.379
X-6.516 Y0.378
X-6.5316 Y0.3764
X-6.5471 Y0.3742
X-6.5625 Y0.3713
X-6.5777 Y0.3679
X-6.5928 Y0.3638
X-6.6078 Y0.3591
X-6.6225 Y0.3538
X-6.637 Y0.3479
X-6.6513 Y0.3415
X-6.6653 Y0.3345
X-6.679 Y0.3269
X-6.6924 Y0.3188
X-6.7054 Y0.3101
X-6.7181 Y0.301
X-6.7304 Y0.2913
X-6.7423 Y0.2811
X-6.7538 Y0.2705
X-6.7649 Y0.2594
X-6.7755 Y0.2479
X-6.7856 Y0.236
X-6.7952 Y0.2236
X-6.8044 Y0.2109
X-6.813 Y0.1979
X-6.8211 Y0.1845
X-6.8286 Y0.1707
X-6.8356 Y0.1567
X-6.842 Y0.1424
X-6.8479 Y0.1279
X-6.8531 Y0.1132
G3 X-6.7484 Y-0.374 I0.3495 J-0.1797
X-6.0138 Y-0.1245 I0.2824 J0.3746
X-6.9176 Y0.1243 I-0.4519 J0.1244
X-6.7483 Y-0.374 I0.4519 J-0.1244
G1 X-6.7455 Y-0.3753
X-6.7425 Y-0.3761
X-6.7394 Y-0.3762
X-6.7364 Y-0.3757
X-6.7335 Y-0.3746
X-6.7317 Y-0.3731 Z-0.1298
X-6.7299 Y-0.3717 Z-0.1293
X-6.7282 Y-0.3703 Z-0.1284
X-6.7273 Y-0.3683 Z-0.127
X-6.7265 Y-0.3666 Z-0.1254
X-6.7259 Y-0.3652 Z-0.1235
X-6.7253 Y-0.364 Z-0.1213
X-6.7252 Y-0.3632 Z-0.1192
X-6.7251 Y-0.3627 Z-0.1169
Y-0.3625 Z-0.1146
G0 Z0.4
X-5.0706 Y2.4425
Z-0.03
G3 X-4.9909 Y2.3201 Z-0.0704 I0.0398 J-0.0612 F50.
X-5.0706 Y2.4425 Z-0.1109 I-0.0398 J0.0612
X-4.9909 Y2.3201 Z-0.1513 I0.0398 J-0.0612
X-5.0706 Y2.4425 Z-0.1918 I-0.0398 J0.0612
X-4.9909 Y2.3201 Z-0.2322 I0.0398 J-0.0612
X-4.9578 Y2.3813 Z-0.245 I-0.0398 J0.0612
X-5.1038 I-0.073 J0.
X-4.958 Y2.3754 I0.073 J0.
G1 X-4.9578 Y2.3813
G3 X-4.9441 Y2.4398 I-0.0259 J0.0369 F60.
G1 X-4.9839 Y2.4557
X-5.0619 Y2.4869
X-5.0699 Y2.488
X-5.0779 Y2.4886
X-5.086 Y2.4885
X-5.094 Y2.4879
X-5.1019 Y2.4866
X-5.1097 Y2.4848
X-5.1174 Y2.4824
X-5.1249 Y2.4794
X-5.1321 Y2.4759
X-5.139 Y2.4718
X-5.1456 Y2.4673
X-5.1519 Y2.4622
X-5.1577 Y2.4567
X-5.1631 Y2.4508
X-5.1681 Y2.4446
X-5.1726 Y2.4379
X-5.1765 Y2.431
X-5.18 Y2.4238
X-5.1829 Y2.4163
X-5.1852 Y2.4087
X-5.1869 Y2.4009
X-5.1881 Y2.393
X-5.1887 Y2.385
X-5.1886 Y2.3771
X-5.188 Y2.3691
X-5.1868 Y2.3612
X-5.185 Y2.3535
X-5.1826 Y2.3459
X-5.1797 Y2.3385
X-5.1763 Y2.3313
X-5.1723 Y2.3245
G3 X-5.0179 Y2.2623 I6.0859 J14.8946
G1 X-5.0087 Y2.261
X-4.9996 Y2.2603
X-4.9904
X-4.9812 Y2.2608
X-4.9721 Y2.262
X-4.963 Y2.2638
X-4.9541 Y2.2662
X-4.9454 Y2.2692
X-4.937 Y2.2728
X-4.9287 Y2.2769
X-4.9208 Y2.2816
X-4.9132 Y2.2868
X-4.906 Y2.2925
X-4.8992 Y2.2986
X-4.8928 Y2.3053
X-4.8868 Y2.3123
X-4.8814 Y2.3197
X-4.8765 Y2.3275
X-4.8721 Y2.3356
X-4.8682 Y2.3439
X-4.865 Y2.3525
X-4.8623 Y2.3613
X-4.8602 Y2.3703
X-4.8587 Y2.3794
X-4.8579 Y2.3885
X-4.8576 Y2.3977
X-4.858 Y2.4069
X-4.9152 Y2.4282
X-4.9441 Y2.4398
G3 X-4.9592 Y2.4371 I-0.0052 J-0.0145
X-4.9489 Y2.3883 I0.0182 J-0.0217
X-4.8879 Y2.3954 I0.0221 J0.0756
X-4.8757 Y2.4039 I-0.039 J0.0684 F50.
G2 X-4.8606 Y2.4067 I0.01 J-0.0117
G1 X-4.8432 Y2.3998 F60.
G2 X-4.8811 Y2.2079 I-0.083 J-0.0833
G3 X-5.0179 Y2.2623 I-8.8653 J-22.1033
G2 X-5.0268 Y2.2748 I0.0064 J0.014
X-4.9693 Y2.3202 I0.0434 J0.0042
X-4.8926 Y2.2353 I-0.0384 J-0.1117
X-4.8902 Y2.2207 I-0.115 J-0.0268 F50.
G3 X-4.8812 Y2.2082 I0.0153 J0.0016
G1 X-4.853 Y2.1967 F60.
X-4.8445 Y2.1964
X-4.8361 Y2.1966
X-4.8276 Y2.1974
X-4.8192 Y2.1988
X-4.811 Y2.2008
X-4.8029 Y2.2034
X-4.795 Y2.2065
X-4.7873 Y2.2101
X-4.78 Y2.2143
X-4.7729 Y2.2189
X-4.7661 Y2.2241
X-4.7597 Y2.2297
X-4.7538 Y2.2357
X-4.7482 Y2.2421
X-4.7432 Y2.2489
X-4.7386 Y2.2561
X-4.7345 Y2.2635
X-4.7309 Y2.2712
X-4.7279 Y2.2791
X-4.7254 Y2.2873
X-4.7235 Y2.2955
X-4.7222 Y2.3039
X-4.7215 Y2.3124
X-4.7213 Y2.3208
X-4.7218 Y2.3293
X-4.7228 Y2.3377
X-4.7244 Y2.3461
X-4.7266 Y2.3543
X-4.7494 Y2.3624
X-4.8432 Y2.3998
G3 X-4.8583 Y2.397 I-0.0051 J-0.0145
X-4.8626 Y2.373 I0.0125 J-0.0147
X-4.7554 Y2.3427 I0.0687 J0.0385
X-4.7432 Y2.3511 I-0.0385 J0.0687 F50.
G2 X-4.7281 Y2.3538 I0.0099 J-0.0118
G1 X-4.7025 Y2.3435 F60.
G2 X-4.7292 Y2.1464 I-0.0792 J-0.0896
G3 X-4.853 Y2.1967 I-1.5274 J-3.5766
G2 X-4.8608 Y2.2171 I0.0063 J0.014
X-4.8418 Y2.2287 I0.0181 J-0.0081
X-4.7464 Y2.1723 I-0.0054 J-0.118
X-4.7379 Y2.1555 I-0.1008 J-0.0616 F50.
G3 X-4.7296 Y2.1472 I0.0142 J0.0058
G1 X-4.7025 Y2.1369 F60.
G3 X-4.5818 Y2.2966 I0.0072 J0.12
G2 X-4.7025 Y2.3435 I2.0292 J5.3979
G3 X-4.7176 Y2.3408 I-0.0052 J-0.0145
X-4.7217 Y2.324 I0.0095 J-0.0113
X-4.6102 Y2.2851 I0.0729 J0.0297
X-4.5981 Y2.2935 I-0.0386 J0.0687 F50.
G2 X-4.5829 Y2.2962 I0.0099 J-0.0118
G1 X-4.5572 Y2.2859 F60.
G2 X-4.5803 Y2.0876 I-0.0765 J-0.0916
G1 X-4.6098 Y2.0998
X-4.6556 Y2.1185
X-4.7025 Y2.1369
G2 X-4.7116 Y2.1492 I0.0061 J0.0141
X-4.7057 Y2.1606 I0.0114 J0.0013
G1 X-4.7047 Y2.1612
G2 X-4.593 Y2.1152 I0.0366 J-0.0697
X-4.5899 Y2.1008 I-0.0751 J-0.0238 F50.
G3 X-4.5807 Y2.0885 I0.0153 J0.0018
G1 X-4.5547 Y2.0783 F60.
G3 X-4.4346 Y2.2383 I0.0076 J0.1193
G1 X-4.468 Y2.2508
X-4.5149 Y2.269
X-4.5572 Y2.2859
G3 X-4.5723 Y2.2832 I-0.0052 J-0.0145
X-4.576 Y2.27 I0.0078 J-0.0093
X-4.4629 Y2.2268 I0.0745 J0.0254
X-4.4507 Y2.2352 I-0.0386 J0.0687 F50.
G2 X-4.4356 Y2.2379 I0.0099 J-0.0118
G1 X-4.4211 Y2.2321 F60.
X-4.4107 Y2.228
G2 X-4.4316 Y2.0296 I-0.0746 J-0.0924
G1 X-4.468 Y2.0437
X-4.5149 Y2.063
X-4.5547 Y2.0783
G2 X-4.5544 Y2.1067 I0.006 J0.0141
X-4.5285 Y2.1094 I0.0176 J-0.0438
X-4.4489 Y2.0554 I-0.0208 J-0.1163
X-4.4403 Y2.0387 I-0.1003 J-0.0623 F50.
G3 X-4.4319 Y2.0304 I0.0142 J0.0059
G1 X-4.4211 Y2.0264 F60.
X-4.3976 Y2.0207
G3 X-4.2836 Y2.1328 I-0.0031 J0.1172
X-4.3096 Y2.1409 I-0.0151 J-0.0028
G1 X-4.4044 Y2.0464
X-4.4051 Y2.0456
G3 X-4.3976 Y2.0207 I0.0116 J-0.01 F50.
X-4.2797 Y2.1019 I0.0229 J0.093 F60.
X-4.3742 Y2.2095 I-0.095 J0.0118
G1 X-4.4107 Y2.228
G3 X-4.4311 Y2.212 I-0.0051 J-0.0145
G1 X-4.4308 Y2.209 Z-0.2447
X-4.4305 Y2.2061 Z-0.2438
X-4.4303 Y2.2035 Z-0.2424
X-4.43 Y2.2011 Z-0.2405
X-4.4298 Y2.1992 Z-0.2382
X-4.4297 Y2.1978 Z-0.2355
X-4.4296 Y2.197 Z-0.2326
Y2.1967 Z-0.2296
G0 Z-0.2143
X-5.0282 Y2.4556
G1 Z-0.2296 F50.
X-5.0284 Y2.4558 Z-0.2326
X-5.0289 Y2.4565 Z-0.2355
X-5.0298 Y2.4576 Z-0.2382
X-5.031 Y2.4592 Z-0.2405
X-5.0324 Y2.461 Z-0.2424
X-5.034 Y2.4631 Z-0.2438
X-5.0357 Y2.4654 Z-0.2447
X-5.0376 Y2.4678 Z-0.245
G3 X-5.0619 Y2.4869 I-0.0494 J-0.0379
G1 X-5.0777 Y2.4932 F60.
X-5.1318 Y2.5145
X-5.1403 Y2.5153
X-5.1489 Y2.5154
X-5.1575 Y2.5149
X-5.1661 Y2.5139
X-5.1745 Y2.5123
X-5.1828 Y2.5101
X-5.191 Y2.5073
X-5.1989 Y2.504
X-5.2066 Y2.5002
X-5.214 Y2.4958
X-5.2211 Y2.491
X-5.2279 Y2.4856
X-5.2342 Y2.4798
X-5.2402 Y2.4736
X-5.2457 Y2.467
X-5.2508 Y2.4601
X-5.2553 Y2.4528
X-5.2594 Y2.4452
X-5.2629 Y2.4374
X-5.2659 Y2.4293
X-5.2683 Y2.4211
X-5.2702 Y2.4127
X-5.2714 Y2.4042
X-5.2721 Y2.3956
X-5.2722 Y2.387
X-5.2718 Y2.3784
X-5.2707 Y2.3699
X-5.269 Y2.3614
X-5.2653 Y2.361
X-5.2184 Y2.3417
X-5.1728 Y2.3241
G3 X-5.1577 Y2.327 I0.005 J0.0145
X-5.1621 Y2.3729 I-0.0184 J0.0214
X-5.2401 Y2.3731 I-0.0391 J-0.0683
X-5.2522 Y2.3646 I0.0388 J-0.0685 F50.
G2 X-5.2673 Y2.3618 I-0.0099 J0.0117
G1 X-5.2903 Y2.3709 F60.
G2 X-5.2599 Y2.5662 I0.0792 J0.0877
G1 X-5.2184 Y2.5491
X-5.1507 Y2.522
X-5.1318 Y2.5145
G2 X-5.1323 Y2.4861 I-0.0062 J-0.0141
X-5.1591 Y2.4831 I-0.019 J0.0485
X-5.2433 Y2.5401 I0.0177 J0.1168
X-5.2515 Y2.5571 I0.1019 J0.0598 F50.
G3 X-5.2596 Y2.5656 I-0.0143 J-0.0056
G1 X-5.2851 Y2.5757 F60.
G3 X-5.4097 Y2.4177 I-0.0117 J-0.119
G1 X-5.3591 Y2.3985
X-5.3165 Y2.3813
X-5.2903 Y2.3709
G3 X-5.2752 Y2.3737 I0.0052 J0.0145
X-5.2707 Y2.3941 I-0.0112 J0.0132
X-5.3815 Y2.4295 I-0.0716 J-0.0328
X-5.3936 Y2.4209 I0.0392 J-0.0683 F50.
G2 X-5.4087 Y2.4181 I-0.01 J0.0117
G1 X-5.4348 Y2.4282 F60.
G2 X-5.4101 Y2.6261 I0.0775 J0.0909
G1 X-5.3864 Y2.6159
X-5.3122 Y2.5866
X-5.2851 Y2.5757
G2 X-5.2857 Y2.5473 I-0.0062 J-0.0141
X-5.3222 Y2.5454 I-0.0212 J0.0547
X-5.3933 Y2.5997 I0.0308 J0.114
X-5.4015 Y2.6167 I0.1019 J0.0597 F50.
G3 X-5.4096 Y2.6252 I-0.0143 J-0.0056
G1 X-5.4318 Y2.6341 F60.
G3 X-5.5563 Y2.4764 I-0.0142 J-0.1168
G2 X-5.4348 Y2.4282 I-1.9202 J-5.0235
G3 X-5.4197 Y2.4311 I0.005 J0.0145
X-5.4156 Y2.4445 I-0.0086 J0.01
G1 X-5.4159 Y2.4455
G3 X-5.5284 Y2.4877 I-0.0741 J-0.0266
X-5.5406 Y2.4793 I0.0384 J-0.0688 F50.
G2 X-5.5557 Y2.4766 I-0.0099 J0.0118
G1 X-5.5809 Y2.4868 F60.
G2 X-5.5583 Y2.6849 I0.0757 J0.0917
G3 X-5.4318 Y2.6341 I4.8606 J11.9095
G2 X-5.4324 Y2.6057 I-0.0062 J-0.0141
X-5.4512 Y2.603 I-0.015 J0.0386
X-5.5411 Y2.659 I0.0109 J0.1176
X-5.5496 Y2.6758 I0.1007 J0.0617 F50.
G3 X-5.5579 Y2.6841 I-0.0142 J-0.0058
G1 X-5.5859 Y2.6947 F60.
X-5.5946 Y2.6945
X-5.6032 Y2.6937
X-5.6117 Y2.6922
X-5.6202 Y2.6903
X-5.6284 Y2.6877
X-5.6365 Y2.6846
X-5.6444 Y2.6809
X-5.6519 Y2.6767
X-5.6592 Y2.672
X-5.6661 Y2.6668
X-5.6727 Y2.6611
X-5.6788 Y2.655
X-5.6845 Y2.6485
X-5.6898 Y2.6416
X-5.6946 Y2.6343
X-5.6988 Y2.6268
X-5.7025 Y2.619
X-5.7057 Y2.6109
X-5.7083 Y2.6027
X-5.7104 Y2.5942
X-5.7119 Y2.5857
X-5.7127 Y2.5771
X-5.713 Y2.5684
X-5.7127 Y2.5598
X-5.7118 Y2.5512
X-5.7103 Y2.5426
X-5.7082 Y2.5342
X-5.7056 Y2.526
X-5.7023 Y2.5179
X-5.6986 Y2.5101
X-5.6943 Y2.5026
G2 X-5.5817 Y2.4858 I0.0414 J-0.1086
G1 X-5.5789 Y2.4851
X-5.576 Y2.485
X-5.5731 Y2.4853
X-5.5704 Y2.4861
X-5.5679 Y2.4874
X-5.5657 Y2.4891
X-5.5638 Y2.4911
X-5.5623 Y2.4935
X-5.5613 Y2.496
G3 X-5.5784 Y2.5402 I-0.0338 J0.0123
X-5.6706 Y2.526 I-0.0364 J-0.0698
X-5.6822 Y2.5112 I0.0558 J-0.0556 F50.
G2 X-5.6917 Y2.5042 I-0.0131 J0.008
G1 X-5.7072 Y2.501 F60.
X-5.7152 Y2.5033
X-5.723 Y2.5062
X-5.7305 Y2.5097
X-5.7377 Y2.5138
X-5.7447 Y2.5183
X-5.7512 Y2.5234
X-5.7574 Y2.529
X-5.7631 Y2.5351
X-5.7683 Y2.5415
X-5.773 Y2.5483
X-5.7772 Y2.5555
X-5.7809 Y2.5629
X-5.784 Y2.5706
X-5.7865 Y2.5785
X-5.7884 Y2.5866
X-5.7896 Y2.5948
X-5.7903 Y2.6031
Y2.6114
X-5.7897 Y2.6196
X-5.7885 Y2.6279
X-5.7867 Y2.6359
X-5.7842 Y2.6439
X-5.7812 Y2.6516
X-5.7776 Y2.6591
X-5.7734 Y2.6663
X-5.7687 Y2.6731
X-5.7636 Y2.6796
X-5.7579 Y2.6856
G2 X-5.5859 Y2.6947 I0.0952 J-0.1711
X-5.5766 Y2.6825 I-0.0059 J-0.0142
X-5.5869 Y2.6594 I-0.024 J-0.0031
X-5.7341 Y2.6704 I-0.0667 J0.0974
X-5.7443 Y2.6812 I0.0805 J0.0865 F50.
G3 X-5.7587 Y2.6865 I-0.0118 J-0.0098
G1 X-5.7941 Y2.6791 F60.
G3 X-5.8207 Y2.4716 I0.0513 J-0.112
G2 X-5.7072 Y2.501 I0.1717 J-0.4298
G3 X-5.696 Y2.5195 I-0.0037 J0.0149
X-5.7235 Y2.5445 I-0.0323 J-0.0079
X-5.8053 Y2.5017 I-0.0113 J-0.0779
X-5.8116 Y2.484 I0.0705 J-0.0351 F50.
G2 X-5.8184 Y2.4744 I-0.015 J0.0034
G1 X-5.8281 Y2.4687 F60.
X-5.8294 Y2.4675
G2 X-5.9403 Y2.6232 I-0.0164 J0.1056
X-5.7941 Y2.6791 I0.1439 J-0.1571
X-5.7796 Y2.6738 I0.0026 J-0.0151
X-5.7851 Y2.6395 I-0.0177 J-0.0148
X-5.9131 Y2.6216 I-0.0839 J0.1333
X-5.9271 Y2.6264 I0.0441 J0.1512 F50.
G3 X-5.9423 Y2.6242 I-0.0057 J-0.0143
G1 X-5.9521 Y2.6159 F60.
X-5.9688 Y2.6001
X-5.978 Y2.5915
G3 X-5.9112 Y2.3891 I0.0992 J-0.0795
G1 X-5.875 Y2.4249
X-5.8714 Y2.4282
X-5.8294 Y2.4675
G3 X-5.8254 Y2.4823 I-0.0109 J0.0109
X-5.8605 Y2.4997 I-0.0251 J-0.0067
X-5.909 Y2.4211 I0.03 J-0.0728
X-5.9065 Y2.4064 I0.0785 J0.0058 F50.
G2 X-5.9105 Y2.3916 I-0.0148 J-0.004
G1 X-5.9219 Y2.381 F60.
X-5.9266 Y2.3766
X-5.9344 Y2.3736
X-5.9425 Y2.3711
X-5.9507 Y2.3692
X-5.959 Y2.3679
X-5.9674 Y2.3672
X-5.9758 Y2.3671
X-5.9842 Y2.3677
X-5.9926 Y2.3688
X-6.0008 Y2.3706
X-6.0089 Y2.3729
X-6.0168 Y2.3758
X-6.0245 Y2.3793
X-6.0318 Y2.3833
X-6.0389 Y2.3879
X-6.0457 Y2.393
X-6.052 Y2.3985
X-6.0579 Y2.4045
X-6.0634 Y2.4109
X-6.0684 Y2.4177
X-6.0729 Y2.4248
X-6.0768 Y2.4322
X-6.0802 Y2.4399
X-6.0831 Y2.4478
X-6.0853 Y2.456
X-6.087 Y2.4642
X-6.0881 Y2.4726
X-6.0885 Y2.481
X-6.0883 Y2.4894
G3 X-5.978 Y2.5915 I-5.0558 J5.5757
G2 X-5.9629 Y2.5944 I0.0101 J-0.0116
X-5.9447 Y2.5247 I-0.0141 J-0.0409
X-6.0584 Y2.488 I-0.0882 J0.0786
X-6.0727 Y2.4921 I0.0255 J0.1153 F50.
G3 X-6.0878 Y2.4894 I-0.0052 J-0.0145
G1 X-6.1095 Y2.4697 F60.
G3 X-6.021 Y2.2881 I0.1036 J-0.0618
G1 X-6.0157 Y2.2941
X-5.9727 Y2.3344
X-5.9266 Y2.3766
G3 X-5.9225 Y2.3914 I-0.0108 J0.011
X-5.9357 Y2.4023 I-0.0141 J-0.0036
X-6.0191 Y2.3188 I-0.0049 J-0.0786
X-6.0168 Y2.3041 I0.0786 J0.005 F50.
G2 X-6.0209 Y2.2893 I-0.0149 J-0.0038
G1 X-6.023 Y2.2874 F60.
X-6.0402 Y2.2713
G2 X-6.2083 Y2.3779 I-0.0498 J0.1074
G1 X-6.1564 Y2.4258
X-6.1537 Y2.4282
X-6.1095 Y2.4697
G2 X-6.0878 Y2.4679 I0.01 J-0.0117
X-6.0852 Y2.4419 I-0.0174 J-0.0148
X-6.1775 Y2.3819 I-0.1031 J0.0576
X-6.1964 Y2.3817 I-0.0108 J0.1176 F50.
G3 X-6.2075 Y2.3779 I-0.001 J-0.0153
G1 X-6.2268 Y2.3599 F60.
G3 X-6.1356 Y2.1813 I0.1022 J-0.0604
G2 X-6.0402 Y2.2713 I4.8191 J-5.0113
G3 X-6.0362 Y2.2861 I-0.0109 J0.0108
X-6.0482 Y2.2962 I-0.0132 J-0.0036
X-6.1341 Y2.2116 I-0.0075 J-0.0784
X-6.1316 Y2.197 I0.0785 J0.0062 F50.
G2 X-6.1355 Y2.1822 I-0.0148 J-0.0041
G1 X-6.1564 Y2.1624 F60.
G2 X-6.3254 Y2.2687 I-0.0492 J0.1094
G3 X-6.2268 Y2.3599 I-7.1873 J7.8695
G2 X-6.2051 Y2.3584 I0.0101 J-0.0116
X-6.2024 Y2.3323 I-0.0172 J-0.015
X-6.2943 Y2.2727 I-0.1029 J0.058
X-6.3131 Y2.2725 I-0.0109 J0.1176 F50.
G3 X-6.3243 Y2.2687 I-0.001 J-0.0153
G1 X-6.3439 Y2.2502 F60.
G3 X-6.2515 Y2.0727 I0.1034 J-0.059
G2 X-6.1564 Y2.1624 I5.7929 J-6.0455
G3 X-6.1525 Y2.1773 I-0.0109 J0.0108
X-6.1629 Y2.1867 I-0.0125 J-0.0034
G1 X-6.1698 Y2.1871
X-6.1766 Y2.1869
X-6.1834 Y2.1861
X-6.1902 Y2.1848
X-6.1968 Y2.1828
X-6.2031 Y2.1803
X-6.2093 Y2.1773
X-6.2151 Y2.1737
X-6.2207 Y2.1696
X-6.2258 Y2.1651
X-6.2305 Y2.1601
X-6.2348 Y2.1547
X-6.2386 Y2.149
X-6.2419 Y2.143
X-6.2447 Y2.1367
X-6.2468 Y2.1302
X-6.2485 Y2.1235
X-6.2495 Y2.1167
X-6.2499 Y2.1099
X-6.2497 Y2.103
G3 X-6.2473 Y2.0884 I0.0786 J0.0054 F50.
G2 X-6.2514 Y2.0736 I-0.0149 J-0.0039
G1 X-6.269 Y2.0573 F60.
G2 X-6.4411 Y2.1599 I-0.0546 J0.104
G1 X-6.3439 Y2.2502
G2 X-6.3289 Y2.2532 I0.0101 J-0.0116
X-6.3213 Y2.2434 I-0.0037 J-0.0106
G1 X-6.3212 Y2.2416
G2 X-6.411 Y2.1594 I-0.0786 J-0.0042
X-6.4254 Y2.1629 I0.0111 J0.078 F50.
G3 X-6.4405 Y2.1599 I-0.005 J-0.0145
G1 X-6.4592 Y2.1424 F60.
G3 X-6.3672 Y1.9646 I0.1018 J-0.06
G1 X-6.269 Y2.0573
G3 X-6.2798 Y2.0836 I-0.0108 J0.0109
X-6.3105 Y2.0743 I-0.0002 J-0.0546
X-6.3612 Y1.995 I0.066 J-0.098
X-6.3626 Y1.9762 I0.1166 J-0.0187 F50.
G2 X-6.3671 Y1.9654 I-0.0154 J0.
G1 X-6.3874 Y1.9463 F60.
X-6.3952 Y1.9428
X-6.4033 Y1.9398
X-6.4115 Y1.9375
X-6.4199 Y1.9357
X-6.4284 Y1.9346
X-6.4369 Y1.934
X-6.4455 Y1.9341
X-6.454 Y1.9349
X-6.4624 Y1.9362
X-6.4708 Y1.9381
X-6.4789 Y1.9407
X-6.4868 Y1.9438
X-6.4945 Y1.9475
X-6.5019 Y1.9517
X-6.509 Y1.9565
X-6.5157 Y1.9618
X-6.522 Y1.9675
X-6.5278 Y1.9737
X-6.5332 Y1.9803
X-6.5381 Y1.9872
X-6.5425 Y1.9945
X-6.5463 Y2.0021
X-6.5496 Y2.0099
X-6.5523 Y2.018
X-6.5544 Y2.0262
X-6.5559 Y2.0345
X-6.5567 Y2.043
X-6.557 Y2.0514
G3 X-6.4592 Y2.1424 I-10.0187 J10.8654
G2 X-6.4375 Y2.141 I0.0101 J-0.0116
X-6.4348 Y2.1161 I-0.0164 J-0.0144
X-6.5266 Y2.0556 I-0.1034 J0.057
X-6.5454 Y2.0553 I-0.0117 J0.1175 F50.
G3 X-6.5565 Y2.0514 I-0.0009 J-0.0153
G1 X-6.5763 Y2.0326 F60.
G3 X-6.4832 Y1.8557 I0.1038 J-0.0583
G1 X-6.4741 Y1.8652
X-6.3874 Y1.9463
G3 X-6.3835 Y1.9612 I-0.0109 J0.0108
X-6.3939 Y1.9706 I-0.0125 J-0.0034
X-6.4818 Y1.8861 I-0.0093 J-0.0782
X-6.4792 Y1.8715 I0.0785 J0.0063 F50.
G2 X-6.4831 Y1.8566 I-0.0148 J-0.0041
G1 X-6.5018 Y1.8391 F60.
G2 X-6.6731 Y1.9423 I-0.0532 J0.1055
X-6.5763 Y2.0326 I7.7892 J-8.2523
X-6.5613 Y2.0357 I0.0102 J-0.0115
X-6.5528 Y2.0246 I-0.0039 J-0.0119
X-6.6428 Y1.9416 I-0.0786 J-0.0051
X-6.6572 Y1.9452 I0.0115 J0.0779 F50.
G3 X-6.6723 Y1.9423 I-0.0051 J-0.0145
G1 X-6.6939 Y1.9224 F60.
G3 X-6.599 Y1.7467 I0.1064 J-0.056
G2 X-6.5018 Y1.8391 I7.8538 J-8.1621
G3 X-6.5127 Y1.8654 I-0.0109 J0.0109
X-6.5459 Y1.8545 I0.0001 J-0.0565
X-6.593 Y1.7775 I0.0695 J-0.0955
X-6.5944 Y1.7588 I0.1167 J-0.0185 F50.
G2 X-6.5989 Y1.7479 I-0.0154 J0.
G1 X-6.6186 Y1.7295 F60.
G2 X-6.789 Y1.8305 I-0.052 J0.1066
X-6.6939 Y1.9224 I6.927 J-7.0785
X-6.6685 Y1.9096 I0.01 J-0.0116
X-6.6704 Y1.9024 I-0.02 J0.0015
X-6.7586 Y1.8365 I-0.1067 J0.0507
X-6.7773 Y1.835 I-0.0185 J0.1166 F50.
G1 X-6.7774
G3 X-6.7882 Y1.8306 I0. J-0.0154
G1 X-6.7997 Y1.8183 F60.
X-6.8129 Y1.7794
G3 X-6.6212 Y1.7307 I0.1007 J-0.0053
G1 X-6.6193 Y1.7323
X-6.6178 Y1.7342
X-6.6166 Y1.7365
X-6.6159 Y1.7389
X-6.6156 Y1.7416
X-6.6159 Y1.7442
X-6.6166 Y1.7468
X-6.6179 Y1.7493
X-6.6197 Y1.7515
X-6.6218 Y1.7533
X-6.6243 Y1.7548
X-6.6272 Y1.7558 Z-0.2447
X-6.6299 Y1.7567 Z-0.2438
X-6.6324 Y1.7576 Z-0.2424
X-6.6346 Y1.7584 Z-0.2405
X-6.6364 Y1.7591 Z-0.2382
X-6.6377 Y1.7595 Z-0.2355
X-6.6385 Y1.7598 Z-0.2326
X-6.6388 Y1.7599 Z-0.2296
G0 Z0.4
X-6.5245 Y0.0496
Z-0.03
G3 X-6.4448 Y-0.0728 Z-0.0704 I0.0398 J-0.0612 F50.
X-6.5245 Y0.0496 Z-0.1109 I-0.0398 J0.0612
X-6.4448 Y-0.0728 Z-0.1513 I0.0398 J-0.0612
X-6.5245 Y0.0496 Z-0.1918 I-0.0398 J0.0612
X-6.4448 Y-0.0728 Z-0.2322 I0.0398 J-0.0612
X-6.4116 Y-0.0116 Z-0.245 I-0.0398 J0.0612
X-6.5577 I-0.073 J0.
X-6.4119 Y-0.0175 I0.073 J0.
G1 X-6.4116 Y-0.0116
G3 X-6.3936 Y0.0499 I-0.034 J0.0434 F60.
G1 X-6.3976 Y0.0566
X-6.4022 Y0.063
X-6.4072 Y0.0689
X-6.4127 Y0.0745
X-6.4187 Y0.0796
X-6.425 Y0.0842
X-6.4316 Y0.0883
X-6.4386 Y0.0919
X-6.4458 Y0.0949
X-6.4532 Y0.0973
X-6.4608 Y0.0992
X-6.4685 Y0.1004
X-6.4763 Y0.101
X-6.4841 Y0.1011
X-6.4919 Y0.1005
X-6.4996 Y0.0993
X-6.5073 Y0.0975
X-6.5147 Y0.0951
X-6.5219 Y0.0921
X-6.5289 Y0.0886
X-6.5356 Y0.0845
X-6.5419 Y0.0799
X-6.5478 Y0.0748
X-6.5534 Y0.0693
X-6.5585 Y0.0634
X-6.5631 Y0.0571
X-6.5672 Y0.0504
X-6.5707 Y0.0435
X-6.5737 Y0.0362
X-6.5761 Y0.0288
X-6.578 Y0.0212
X-6.5792 Y0.0135
X-6.5798 Y0.0057
Y-0.0021
X-6.5792 Y-0.0099
X-6.578 Y-0.0176
X-6.5762 Y-0.0252
X-6.5738 Y-0.0326
X-6.5708 Y-0.0398
X-6.5672 Y-0.0468
X-6.5632 Y-0.0535
X-6.5586 Y-0.0598
X-6.5535 Y-0.0657
X-6.548 Y-0.0713
X-6.542 Y-0.0763
X-6.5357 Y-0.0809
X-6.5291 Y-0.085
X-6.5221 Y-0.0885
X-6.5149 Y-0.0915
X-6.5074 Y-0.0939
X-6.4999 Y-0.0958
X-6.4921 Y-0.097
X-6.4843 Y-0.0976
G3 X-6.3936 Y0.0499 I0.0261 J0.0856
X-6.4185 Y0.0428 I-0.0102 J-0.0115
G1 X-6.4194 Y0.04 Z-0.2447
X-6.4202 Y0.0372 Z-0.2438
X-6.4209 Y0.0346 Z-0.2424
X-6.4216 Y0.0324 Z-0.2405
X-6.4221 Y0.0306 Z-0.2382
X-6.4225 Y0.0292 Z-0.2355
X-6.4228 Y0.0284 Z-0.2326
X-6.4229 Y0.0281 Z-0.2296
G0 Z0.4
X-3.6167 Y0.8472
Z-0.03
G3 X-3.537 Y0.7248 Z-0.0704 I0.0398 J-0.0612 F50.
X-3.6167 Y0.8472 Z-0.1109 I-0.0398 J0.0612
X-3.537 Y0.7248 Z-0.1513 I0.0398 J-0.0612
X-3.6167 Y0.8472 Z-0.1918 I-0.0398 J0.0612
X-3.537 Y0.7248 Z-0.2322 I0.0398 J-0.0612
X-3.5039 Y0.786 Z-0.245 I-0.0398 J0.0612
X-3.6499 I-0.073 J0.
X-3.5041 Y0.7801 I0.073 J0.
G1 X-3.5039 Y0.786
G3 X-3.4882 Y0.8406 I-0.0263 J0.0371 F60.
X-3.6511 Y0.7206 I-0.0814 J-0.06
X-3.4687 Y0.786 I0.0814 J0.06
G1 X-3.4814 Y0.8329
X-3.4831 Y0.8363
X-3.4882 Y0.8406
G3 X-3.6141 Y0.9477 I-0.0788 J0.035
G1 X-3.6245 Y0.9451
X-3.6346 Y0.942
X-3.6446 Y0.9382
X-3.6544 Y0.9339
X-3.6638 Y0.929
X-3.673 Y0.9235
X-3.6818 Y0.9176
X-3.6903 Y0.9111
X-3.6984 Y0.9041
X-3.706 Y0.8967
X-3.7132 Y0.8889
X-3.72 Y0.8806
X-3.7262 Y0.872
X-3.7319 Y0.863
X-3.7371 Y0.8537
X-3.7417 Y0.8441
X-3.7458 Y0.8342
X-3.7493 Y0.8241
X-3.7522 Y0.8139
X-3.7545 Y0.8035
X-3.7561 Y0.7929
X-3.7572 Y0.7823
X-3.7576 Y0.7717
X-3.7574 Y0.761
X-3.7566 Y0.7504
X-3.7551 Y0.7398
X-3.7531 Y0.7294
X-3.7504 Y0.719
X-3.7471 Y0.7089
X-3.7433 Y0.699
X-3.7388 Y0.6893
X-3.7338 Y0.6799
X-3.7283 Y0.6707
X-3.7222 Y0.662
X-3.7157 Y0.6536
X-3.7086 Y0.6456
X-3.7012 Y0.638
X-3.6932 Y0.6309
X-3.6849 Y0.6242
X-3.6762 Y0.6181
X-3.6671 Y0.6125
X-3.6578 Y0.6074
X-3.6481 Y0.6028
X-3.6382 Y0.5989
X-3.6281 Y0.5955
X-3.6178 Y0.5927
X-3.6074 Y0.5905
X-3.5969 Y0.589
X-3.5862 Y0.5881
X-3.5756 Y0.5877
X-3.5649 Y0.5881
X-3.5543 Y0.589
X-3.5438 Y0.5905
X-3.5334 Y0.5927
X-3.5231 Y0.5955
X-3.513 Y0.5989
X-3.5031 Y0.6028
X-3.4934 Y0.6073
X-3.4841 Y0.6124
X-3.475 Y0.6181
X-3.4663 Y0.6242
X-3.458 Y0.6308
X-3.45 Y0.638
X-3.4426 Y0.6455
X-3.4355 Y0.6535
X-3.429 Y0.6619
X-3.4229 Y0.6707
X-3.4174 Y0.6798
X-3.4124 Y0.6892
X-3.4079 Y0.6989
X-3.4041 Y0.7088
X-3.4008 Y0.719
X-3.3981 Y0.7293
X-3.3961 Y0.7397
G3 X-3.7881 Y0.9406 I-0.1993 J0.094
X-3.8367 Y0.681 I0.1789 J-0.1679
G1 X-3.8317 Y0.6688
X-3.8261 Y0.6568
X-3.8199 Y0.645
X-3.8132 Y0.6336
X-3.806 Y0.6225
X-3.7983 Y0.6117
X-3.7901 Y0.6013
X-3.7814 Y0.5913
X-3.7722 Y0.5818
X-3.7626 Y0.5726
X-3.7526 Y0.5639
X-3.7422 Y0.5557
X-3.7315 Y0.548
X-3.7204 Y0.5408
X-3.7089 Y0.5341
X-3.6972 Y0.5279
X-3.6852 Y0.5223
X-3.6729 Y0.5173
X-3.6605 Y0.5128
X-3.6478 Y0.5089
X-3.635 Y0.5057
X-3.622 Y0.503
X-3.6089 Y0.5009
X-3.5957 Y0.4994
X-3.5825 Y0.4986
X-3.5693 Y0.4984
X-3.556 Y0.4987
X-3.5428 Y0.4997
X-3.5297 Y0.5014
X-3.5166 Y0.5036
X-3.5037 Y0.5064
X-3.4909 Y0.5098
X-3.4782 Y0.5139
X-3.4658 Y0.5185
X-3.4536 Y0.5236
X-3.4417 Y0.5294
X-3.43 Y0.5356
X-3.4187 Y0.5425
X-3.4076 Y0.5498
X-3.397 Y0.5576
X-3.3867 Y0.566
X-3.3768 Y0.5748
X-3.3673 Y0.584
X-3.3582 Y0.5937
X-3.3497 Y0.6038
X-3.3416 Y0.6143
X-3.334 Y0.6251
X-3.3269 Y0.6363
X-3.3203 Y0.6478
X-3.3143 Y0.6596
X-3.3088 Y0.6717
X-3.3039 Y0.684
X-3.2996 Y0.6965
X-3.2959 Y0.7093
X-3.2927 Y0.7221
X-3.2902 Y0.7351
X-3.2883 Y0.7482
X-3.287 Y0.7614
X-3.2863 Y0.7746
X-3.2862 Y0.7879
X-3.2867 Y0.8011
X-3.2879 Y0.8143
X-3.2896 Y0.8275
X-3.2891 Y0.8412
Y0.855
X-3.2898 Y0.8688
X-3.2911 Y0.8825
X-3.2931 Y0.8962
X-3.2956 Y0.9097
X-3.2988 Y0.9231
X-3.3026 Y0.9364
X-3.3069 Y0.9495
X-3.3119 Y0.9623
X-3.3175 Y0.975
X-3.3236 Y0.9873
X-3.3302 Y0.9994
X-3.3375 Y1.0111
X-3.3452 Y1.0226
X-3.3534 Y1.0336
X-3.3622 Y1.0443
X-3.3714 Y1.0545
X-3.3811 Y1.0643
X-3.3912 Y1.0737
X-3.4017 Y1.0826
X-3.4126 Y1.091
X-3.4239 Y1.099
X-3.4355 Y1.1064
X-3.4475 Y1.1132
X-3.4598 Y1.1195
X-3.4723 Y1.1253
X-3.4851 Y1.1304
X-3.4981 Y1.135
X-3.5113 Y1.139
X-3.5246 Y1.1424
X-3.5382 Y1.1451
X-3.5518 Y1.1473
X-3.5655 Y1.1488
X-3.5792 Y1.1497
X-3.593 Y1.15
X-3.6068 Y1.1497
X-3.6205 Y1.1487
X-3.6342 Y1.1471
X-3.6478 Y1.1449
X-3.6613 Y1.142
X-3.6747 Y1.1386
X-3.6879 Y1.1346
X-3.7008 Y1.1299
X-3.7136 Y1.1247
X-3.7261 Y1.1189
X-3.7383 Y1.1125
X-3.7503 Y1.1056
X-3.7619 Y1.0982
X-3.7731 Y1.0902
X-3.784 Y1.0817
X-3.7945 Y1.0728
X-3.8045 Y1.0634
X-3.8142 Y1.0535
X-3.8233 Y1.0432
X-3.832 Y1.0325
G3 X-3.9405 Y0.6967 I0.2172 J-0.2556
G1 X-3.9368 Y0.6819
X-3.9325 Y0.6673
X-3.9275 Y0.6528
X-3.9221 Y0.6386
X-3.916 Y0.6246
X-3.9094 Y0.6108
X-3.9022 Y0.5974
X-3.8945 Y0.5842
X-3.8863 Y0.5713
X-3.8776 Y0.5588
X-3.8684 Y0.5467
X-3.8587 Y0.5349
X-3.8485 Y0.5235
X-3.8379 Y0.5125
X-3.8268 Y0.502
X-3.8154 Y0.492
X-3.8035 Y0.4824
X-3.7913 Y0.4732
X-3.7787 Y0.4646
X-3.7657 Y0.4565
X-3.7525 Y0.4489
X-3.7389 Y0.4419
X-3.7251 Y0.4354
X-3.7111 Y0.4295
X-3.6968 Y0.4241
X-3.6823 Y0.4193
X-3.6676 Y0.4152
X-3.6528 Y0.4116
X-3.6378 Y0.4086
X-3.6228 Y0.4062
X-3.6076 Y0.4044
X-3.5924 Y0.4032
X-3.5771 Y0.4026
X-3.5619 Y0.4027
X-3.5466 Y0.4033
X-3.5314 Y0.4046
X-3.5163 Y0.4065
X-3.5012 Y0.409
X-3.4863 Y0.4121
X-3.4715 Y0.4158
X-3.4568 Y0.4201
X-3.4424 Y0.4249
X-3.4281 Y0.4304
X-3.4141 Y0.4364
X-3.4003 Y0.443
X-3.3868 Y0.4501
X-3.3736 Y0.4578
X-3.3608 Y0.4659
X-3.3482 Y0.4746
X-3.336 Y0.4838
X-3.3242 Y0.4935
X-3.3128 Y0.5036
X-3.3019 Y0.5142
X-3.2913 Y0.5253
X-3.2812 Y0.5367
X-3.2716 Y0.5485
X-3.2624 Y0.5608
X-3.2538 Y0.5733
X-3.2456 Y0.5862
X-3.238 Y0.5995
X-3.231 Y0.613
X-3.2244 Y0.6268
X-3.2185 Y0.6408
X-3.2131 Y0.6551
X-3.2083 Y0.6696
X-3.204 Y0.6842
X-3.2004 Y0.6991
X-3.1974 Y0.714
X-3.1949 Y0.7291
X-3.1931 Y0.7442
X-3.1919 Y0.7594
X-3.1913 Y0.7747
Y0.7899
X-3.1919 Y0.8052
X-3.1931 Y0.8204
X-3.192 Y0.8357
X-3.1916 Y0.8509
X-3.1917 Y0.8662
X-3.1924 Y0.8815
X-3.1937 Y0.8968
X-3.1957 Y0.9119
X-3.1982 Y0.927
X-3.2013 Y0.942
X-3.205 Y0.9568
X-3.2093 Y0.9715
X-3.2142 Y0.986
X-3.2197 Y1.0003
X-3.2257 Y1.0144
X-3.2322 Y1.0282
X-3.2394 Y1.0417
X-3.247 Y1.055
X-3.2551 Y1.0679
X-3.2638 Y1.0805
X-3.273 Y1.0928
X-3.2826 Y1.1047
X-3.2927 Y1.1162
X-3.3032 Y1.1273
X-3.3142 Y1.1379
X-3.3256 Y1.1481
X-3.3374 Y1.1579
X-3.3496 Y1.1672
X-3.3621 Y1.1759
X-3.3749 Y1.1842
X-3.3881 Y1.192
X-3.4016 Y1.1992
X-3.4153 Y1.2059
X-3.4293 Y1.2121
X-3.4436 Y1.2177
X-3.458 Y1.2227
X-3.4727 Y1.2272
X-3.4875 Y1.231
X-3.5024 Y1.2343
X-3.5175 Y1.237
X-3.5326 Y1.2391
X-3.5478 Y1.2406
X-3.5631 Y1.2414
X-3.5784 Y1.2417
X-3.5937 Y1.2414
X-3.609 Y1.2404
X-3.6242 Y1.2389
X-3.6393 Y1.2367
X-3.6544 Y1.234
X-3.6693 Y1.2307
G3 X-3.4657 Y0.3181 I0.1018 J-0.4563
X-3.6351 Y1.237 I-0.1018 J0.4563
G1 X-3.659 Y1.2359
X-3.6699 Y1.2331
G3 X-3.6771 Y1.2082 I0.0043 J-0.0148
G1 X-3.6752 Y1.206 Z-0.2447
X-3.6733 Y1.2038 Z-0.2438
X-3.6715 Y1.2018 Z-0.2424
X-3.6699 Y1.2001 Z-0.2405
X-3.6687 Y1.1986 Z-0.2382
X-3.6677 Y1.1976 Z-0.2355
X-3.6672 Y1.1969 Z-0.2326
X-3.667 Y1.1967 Z-0.2296
G0 Z0.4
X-5.6542 Y2.6023
Z-0.2143
G1 Z-0.2296 F50.
Y2.6026 Z-0.2326
Y2.6035 Z-0.2355
Y2.6049 Z-0.2382
Y2.6068 Z-0.2405
Y2.6092 Z-0.2424
X-5.6543 Y2.6118 Z-0.2438
Y2.6147 Z-0.2447
Y2.6177 Z-0.245
G3 X-5.6644 Y2.7017 I-0.3924 J-0.0043
X-5.7649 Y2.7697 I-0.0842 J-0.0162 F60.
X-6.1519 Y2.5539 I0.0045 J-0.4629
X-6.3637 Y2.3688 I0.5334 J-0.8239
G1 X-6.5219 Y2.2206
G3 X-6.888 Y1.8477 I1.6503 J-1.9865
X-6.7363 Y1.5852 I0.1725 J-0.0754
X-6.4374 Y1.7628 I-0.0674 J0.4538
G2 X-5.7538 Y2.3887 I10.0489 J-10.2882
X-5.4529 Y2.3278 I0.0558 J-0.4979
G1 X-5.2803 Y2.2591
X-5.1076 Y2.1906
G3 X-4.3889 Y1.9238 I2.581 J5.8528
X-4.3404 Y2.2973 I0.0081 J0.1888
X-4.942 Y2.5467 I-3.253 J-6.9978
X-5.7753 Y2.8746 I-8.1632 J-19.5226
X-6.2759 Y2.5874 I0.1088 J-0.7695
G1 X-6.4571 Y2.4184
X-6.6379 Y2.249
G3 X-6.9633 Y1.9192 I1.3831 J-1.6899
X-6.4782 Y1.6062 I0.2536 J-0.1394
X-6.1512 Y1.8936 I-1.5474 J2.0906
G1 X-5.9928 Y2.0417
G2 X-5.7119 Y2.2825 I0.8542 J-0.712
X-5.3294 Y2.171 I-0.0992 J-1.0522
G3 X-4.4354 Y1.8235 I9.2727 J22.5291
X-4.2002 Y1.895 I0.0197 J0.3575
G1 X-4.1904 Y1.9039
X-4.1809 Y1.9132
X-4.172 Y1.9229
X-4.1634 Y1.933
X-4.1554 Y1.9435
X-4.1478 Y1.9544
X-4.1407 Y1.9656
X-4.1342 Y1.9771
X-4.1282 Y1.9889
X-4.1227 Y2.001
X-4.1178 Y2.0133
X-4.1135 Y2.0258
X-4.1097 Y2.0385
X-4.1066 Y2.0513
X-4.104 Y2.0643
X-4.102 Y2.0774
X-4.1006 Y2.0905
X-4.0998 Y2.1037
X-4.0996 Y2.117
X-4.1001 Y2.1302
X-4.1011 Y2.1434
X-4.1028 Y2.1565
X-4.105 Y2.1696
X-4.1078 Y2.1825
X-4.1113 Y2.1953
X-4.1153 Y2.2079
X-4.1198 Y2.2203
X-4.125 Y2.2325
X-4.1307 Y2.2445
X-4.1369 Y2.2562
X-4.1437 Y2.2675
X-4.151 Y2.2786
X-4.1587 Y2.2893
X-4.167 Y2.2996
X-4.1757 Y2.3096
X-4.1849 Y2.3191
X-4.1945 Y2.3283
X-4.2045 Y2.3369
X-4.2149 Y2.3451
X-4.2256 Y2.3528
X-4.2367 Y2.36
X-4.2481 Y2.3667
X-4.2598 Y2.3729
X-4.2718 Y2.3785
X-4.2841 Y2.3836
X-4.2965 Y2.3881
X-4.3091 Y2.392
X-4.3219 Y2.3954
X-4.3349 Y2.3982
G3 X-4.5043 Y2.4799 I-0.4104 J-0.6344
G1 X-4.7057 Y2.5603
G2 X-5.5676 Y2.9068 I9.9719 J26.0507
G3 X-6.235 Y2.7478 I-0.2357 J-0.4911
X-6.9565 Y2.0841 I9.7967 J-11.3743
G1 X-7.0141 Y1.8171
G3 X-6.684 Y1.4718 I0.2757 J-0.0669
G1 X-6.4963 Y1.4997
G3 X-6.158 Y1.7503 I-0.4061 J0.9018
G1 X-5.8414 Y2.0464
G2 X-5.685 Y2.1698 I0.258 J-0.1663
X-5.0476 Y1.9428 I-0.4216 J-2.1923
G1 X-5.015 Y1.9384
X-4.9287 Y1.9038
X-4.8136 Y1.8581
G3 X-4.622 Y1.7835 I0.9412 J2.1334
G1 X-4.6203 Y1.7837
X-4.339 Y1.8262
G3 X-4.1514 Y2.2877 I-0.0326 J0.2821
G1 X-4.2921 Y2.468
G3 X-4.6616 Y2.6503 I-0.6963 J-0.9458
G1 X-5.1795 Y2.8565
G3 X-5.7621 Y3.0588 I-1.0586 J-2.1086
X-6.1437 Y2.9551 I-0.038 J-0.6143
X-6.9156 Y2.2597 I4.8903 J-6.2041
G1 X-6.9552 Y2.0828
G3 X-6.9555 Y2.08 I0.0151 J-0.0028
X-6.9501 Y2.0683 I0.0154 J0.
X-6.9074 Y2.0691 I0.0209 J0.0244
X-6.9002 Y2.2352 I-0.0802 J0.0867
X-6.9108 Y2.2456 I-0.0874 J-0.0794 F50.
G2 X-6.9159 Y2.26 I0.01 J0.0117
G1 X-6.892 Y2.368 F60.
G2 X-6.5986 Y2.6966 I0.9924 J-0.5907
X-5.9724 Y3.1366 I1.188 J-1.0251
X-5.3771 Y3.0361 I0.1731 J-0.7875
G1 X-5.2875 Y3.0071
X-5.23 Y2.9842
X-5.0285 Y2.9041
X-4.6545 Y2.7551
G2 X-4.4508 Y2.6714 I-0.7667 J-2.1565
G1 X-4.2921 Y2.468
G2 X-4.2905 Y2.4527 I-0.0124 J-0.009
X-4.3201 Y2.4354 I-0.0269 J0.012
X-4.4546 Y2.6424 I0.0148 J0.1568
X-4.4492 Y2.6562 I0.1493 J-0.0502 F50.
G3 X-4.4508 Y2.6714 I-0.014 J0.0062
G1 X-4.5266 Y2.7685 F60.
G3 X-4.8512 Y2.941 I-0.5852 J-0.7098
G1 X-5.0525 Y3.0213
X-5.254 Y3.1014
G3 X-5.8476 Y3.2543 I-0.5906 J-1.0644
X-6.354 Y3.0451 I0.0607 J-0.8645
X-6.8405 Y2.6042 I4.4624 J-5.4132
G1 X-6.892 Y2.368
G3 X-6.8922 Y2.3652 I0.0151 J-0.0028
X-6.8869 Y2.3535 I0.0154 J0.
X-6.8587 Y2.3431 I0.0282 J0.0329
X-6.8289 Y2.3549 I0. J0.0433
X-6.8238 Y2.5789 I-0.1081 J0.1145
X-6.8347 Y2.589 I-0.1132 J-0.1095 F50.
G2 X-6.8398 Y2.6035 I0.01 J0.0117
G1 X-6.8171 Y2.706 F60.
G2 X-6.5653 Y2.9987 I0.8019 J-0.4351
G1 X-6.5483 Y3.0175
X-6.5308 Y3.0358
X-6.5129 Y3.0538
X-6.4946 Y3.0713
X-6.4758 Y3.0883
X-6.4566 Y3.1049
X-6.437 Y3.121
X-6.417 Y3.1366
X-6.3967 Y3.1518
X-6.376 Y3.1664
X-6.3549 Y3.1805
X-6.3335 Y3.1941
X-6.3118 Y3.2072
X-6.2897 Y3.2197
X-6.2674 Y3.2317
X-6.2448 Y3.2431
X-6.2218 Y3.254
X-6.1987 Y3.2643
X-6.1753 Y3.2741
X-6.1516 Y3.2832
X-6.1278 Y3.2918
X-6.1037 Y3.2998
X-6.0795 Y3.3072
X-6.055 Y3.314
X-6.0304 Y3.3203
X-6.0057 Y3.3259
X-5.9809 Y3.3309
X-5.9559 Y3.3353
X-5.9308 Y3.339
X-5.9057 Y3.3422
X-5.8804 Y3.3448
X-5.8551 Y3.3467
X-5.8298 Y3.348
X-5.8045 Y3.3487
X-5.7791 Y3.3488
X-5.7538 Y3.3482
X-5.7284 Y3.347
X-5.7031 Y3.3452
X-5.6779 Y3.3428
X-5.6527 Y3.3398
X-5.6276 Y3.3362
X-5.6026 Y3.3319
X-5.5777 Y3.327
X-5.553 Y3.3216
X-5.5284 Y3.3155
X-5.5039 Y3.3088
X-5.4796 Y3.3015
X-5.4555 Y3.2936
X-5.4316 Y3.2852
X-5.4079 Y3.2762
X-5.3845 Y3.2665
X-5.3612 Y3.2563
X-5.3383 Y3.2456
X-5.3156 Y3.2343
X-5.2932 Y3.2224
X-5.2058 Y3.1899
X-5.1195 Y3.1555
X-4.8893 Y3.0639
G2 X-4.6947 Y2.9839 I-0.5224 J-1.5495
G1 X-4.5266 Y2.7685
G2 X-4.53 Y2.7471 I-0.0124 J-0.009
X-4.6025 Y2.7481 I-0.0356 J0.0491
X-4.6941 Y2.9538 I0.1439 J0.1873
G1 X-4.6919 Y2.9725 F50.
G3 X-4.6947 Y2.9839 I-0.0152 J0.0024
G1 X-4.7779 Y3.0906 F60.
G3 X-5.2376 Y3.3102 I-0.8201 J-1.1259
G1 X-5.2609 Y3.3228
X-5.2846 Y3.3347
X-5.3085 Y3.3461
X-5.3326 Y3.357
X-5.357 Y3.3673
X-5.3817 Y3.3769
X-5.4065 Y3.386
X-5.4316 Y3.3946
X-5.4569 Y3.4025
X-5.4823 Y3.4098
X-5.5079 Y3.4165
X-5.5337 Y3.4226
X-5.5596 Y3.4281
X-5.5856 Y3.433
X-5.6118 Y3.4373
X-5.638 Y3.4409
X-5.6643 Y3.444
X-5.6907 Y3.4464
X-5.7171 Y3.4482
X-5.7435 Y3.4493
X-5.77 Y3.4499
X-5.7965 Y3.4498
X-5.823 Y3.4491
X-5.8494 Y3.4477
X-5.8758 Y3.4458
X-5.9022 Y3.4432
X-5.9285 Y3.44
X-5.9547 Y3.4361
X-5.9808 Y3.4317
X-6.0067 Y3.4266
X-6.0326 Y3.4209
X-6.0583 Y3.4147
X-6.0839 Y3.4078
X-6.1093 Y3.4003
X-6.1345 Y3.3922
X-6.1595 Y3.3835
X-6.1843 Y3.3742
X-6.2089 Y3.3644
X-6.2332 Y3.3539
X-6.2573 Y3.3429
X-6.2811 Y3.3314
X-6.3047 Y3.3192
X-6.3279 Y3.3066
X-6.3509 Y3.2933
X-6.3735 Y3.2796
X-6.3958 Y3.2653
X-6.4177 Y3.2505
X-6.4393 Y3.2351
X-6.4605 Y3.2193
X-6.4814 Y3.2029
X-6.5018 Y3.1861
X-6.5219 Y3.1688
X-6.5415 Y3.1511
X-6.5607 Y3.1328
X-6.5795 Y3.1141
G3 X-6.7639 Y2.9488 I1.053 J-1.3598
G1 X-6.8171 Y2.706
G3 X-6.8173 Y2.7032 I0.0151 J-0.0028
X-6.8119 Y2.6915 I0.0154 J0.
X-6.763 Y2.6906 I0.0251 J0.0293
X-6.7474 Y2.9236 I-0.0976 J0.1236
X-6.7582 Y2.9338 I-0.1132 J-0.1095 F50.
G2 X-6.7634 Y2.9482 I0.01 J0.0117
G1 X-6.7393 Y3.0569 F60.
G2 X-6.4278 Y3.3591 I0.7356 J-0.4466
X-6.2403 Y3.4594 I0.6726 J-1.0316
G1 X-5.9804 Y3.529
G2 X-5.2038 Y3.3947 I0.2015 J-1.1471
X-4.9384 Y3.2963 I-0.4447 J-1.6074
G1 X-4.7779 Y3.0906
G2 X-4.7763 Y3.0754 I-0.0124 J-0.009
X-4.8018 Y3.0598 I-0.024 J0.0107
X-4.9422 Y3.2672 I0.0089 J0.1572
X-4.9368 Y3.281 I0.1493 J-0.0502 F50.
G3 X-4.9384 Y3.2963 I-0.014 J0.0062
G1 X-5.019 Y3.3997 F60.
G3 X-5.4566 Y3.6009 I-0.7403 J-1.0332
X-5.5981 Y3.6315 I-0.217 J-0.663
G1 X-5.9804 Y3.529
G3 X-5.9888 Y3.5233 I0.004 J-0.0148
G2 X-5.9969 Y3.5177 I-0.0123 J0.0092
G1 X-6.0071 Y3.5148
X-6.2009 Y3.4587
X-6.2037 Y3.4581
X-6.2066
X-6.2094 Y3.4586
G3 X-6.2403 Y3.4594 I-0.0169 J-0.06 F50.
G1 X-6.5198 Y3.3845 F60.
X-6.5345 Y3.3796
X-6.5491 Y3.3741
X-6.5634 Y3.3681
X-6.5776 Y3.3615
X-6.5914 Y3.3544
X-6.605 Y3.3468
X-6.6183 Y3.3387
X-6.6312 Y3.3301
X-6.6438 Y3.3209
X-6.6561 Y3.3114
X-6.668 Y3.3013
X-6.6795 Y3.2908
X-6.6905 Y3.2799
Y3.2782
X-6.6902 Y3.2765
G3 X-6.6671 Y3.2633 I0.0154 J0.
G1 X-6.5085 Y3.3563
G3 X-6.5013 Y3.3663 I-0.0078 J0.0133
X-6.5198 Y3.3845 I-0.015 J0.0033 F50.
X-6.6731 Y3.3412 I0.0357 J-0.4198 F60.
G1 X-6.6745 Y3.3398
X-6.6747 Y3.3392
X-6.6788 Y3.3295
X-6.7393 Y3.0569
G3 X-6.7202 Y3.0392 I0.0151 J-0.0028
G1 X-6.7173 Y3.04 Z-0.2447
X-6.7145 Y3.0407 Z-0.2438
X-6.712 Y3.0414 Z-0.2424
X-6.7097 Y3.042 Z-0.2405
X-6.7079 Y3.0425 Z-0.2382
X-6.7065 Y3.0428 Z-0.2355
X-6.7057 Y3.043 Z-0.2326
X-6.7054 Y3.0431 Z-0.2296
G0 Z-0.2143
X-5.6352 Y3.6044
G1 Z-0.2296 F50.
X-5.635 Y3.6046 Z-0.2326
X-5.6344 Y3.6052 Z-0.2355
X-5.6334 Y3.6062 Z-0.2382
X-5.6321 Y3.6076 Z-0.2405
X-5.6305 Y3.6092 Z-0.2424
X-5.6286 Y3.6111 Z-0.2438
X-5.6266 Y3.6132 Z-0.2447
X-5.6245 Y3.6154 Z-0.245
G2 X-5.5981 Y3.6315 I0.0446 J-0.0435
G1 X-5.4646 Y3.6672 F60.
G2 X-5.181 Y3.6073 I0.0216 J-0.5987
G1 X-5.019 Y3.3997
G2 X-5.0174 Y3.3844 I-0.0124 J-0.009
X-5.0392 Y3.3706 I-0.0212 J0.0094
X-5.1848 Y3.5782 I0.0036 J0.1574
X-5.1794 Y3.592 I0.1493 J-0.0502 F50.
G3 X-5.181 Y3.6073 I-0.014 J0.0062
G1 X-5.2535 Y3.7002 F60.
G3 X-5.2829 Y3.7159 I-0.0222 J-0.0061
G1 X-5.4646 Y3.6672
G3 X-5.4714 Y3.6422 I0.0045 J-0.0147
G1 X-5.4694 Y3.64 Z-0.2447
X-5.4675 Y3.6378 Z-0.2438
X-5.4657 Y3.6359 Z-0.2424
X-5.4641 Y3.6342 Z-0.2405
X-5.4628 Y3.6327 Z-0.2382
X-5.4619 Y3.6317 Z-0.2355
X-5.4613 Y3.631 Z-0.2326
X-5.4611 Y3.6308 Z-0.2296
G0 Z-0.2143
X-4.5804 Y1.8065
G1 Z-0.2296 F50.
X-4.5806 Y1.8063 Z-0.2326
X-4.5813 Y1.8057 Z-0.2355
X-4.5824 Y1.8048 Z-0.2382
X-4.5839 Y1.8036 Z-0.2405
X-4.5857 Y1.8021 Z-0.2424
X-4.5877 Y1.8004 Z-0.2438
X-4.5899 Y1.7986 Z-0.2447
X-4.5923 Y1.7967 Z-0.245
G2 X-4.6203 Y1.7837 I-0.0395 J0.0482
G1 X-4.7611 Y1.7623 F60.
X-4.7953 Y1.7692
X-4.8293 Y1.7766
X-4.8633 Y1.7846
X-4.8971 Y1.7932
X-4.9307 Y1.8023
X-4.9642 Y1.812
X-4.9976 Y1.8222
X-5.0307 Y1.833
X-5.0637 Y1.8443
X-5.0965 Y1.8562
X-5.1291 Y1.8687
X-5.1614 Y1.8817
X-5.1936 Y1.8952
X-5.2255 Y1.9093
X-5.2571 Y1.9239
X-5.2885 Y1.939
X-5.3197 Y1.9547
X-5.3506 Y1.9708
G3 X-5.631 Y2.0599 I-0.7042 J-1.731
X-5.8987 Y1.8558 I0.3674 J-0.7596
G1 X-6.0797 Y1.6866
G2 X-6.2445 Y1.5378 I-1.2161 J1.1812
G1 X-6.4963 Y1.4997
G2 X-6.5104 Y1.5058 I-0.0018 J0.0153
X-6.5102 Y1.5453 I0.0264 J0.0196
X-6.268 Y1.5553 I0.1252 J-0.0955
X-6.2586 Y1.5439 I-0.1169 J-0.1055 F50.
G3 X-6.2445 Y1.5378 I0.0123 J0.0092
G1 X-6.1317 Y1.5549 F60.
G3 X-5.762 Y1.8461 I-0.574 J1.1088
G1 X-5.7552 Y1.8553
X-5.748 Y1.8642
X-5.7403 Y1.8726
X-5.7322 Y1.8806
X-5.7236 Y1.8882
X-5.7146 Y1.8953
X-5.7053 Y1.9019
X-5.6957 Y1.908
X-5.6857 Y1.9136
X-5.6754 Y1.9186
X-5.6649 Y1.9231
X-5.6541 Y1.9269
X-5.6432 Y1.9303
X-5.6321 Y1.933
X-5.6209 Y1.9351
X-5.6096 Y1.9366
X-5.5982 Y1.9375
X-5.5867 Y1.9378
X-5.5753 Y1.9374
X-5.5639 Y1.9365
X-5.5526 Y1.9349
X-5.5414 Y1.9328
X-5.5303 Y1.93
X-5.5194 Y1.9266
X-5.5087 Y1.9227
X-5.4982 Y1.9182
X-5.488 Y1.9131
X-5.478 Y1.9075
X-5.4684 Y1.9014
X-5.4591 Y1.8947
X-5.4502 Y1.8876
X-5.2312 Y1.806
X-5.0123 Y1.7243
X-4.7611 Y1.7623
G3 X-4.7494 Y1.7723 I-0.0028 J0.0151
X-4.7617 Y1.8108 I-0.0315 J0.0111
X-4.9951 Y1.748 I-0.0904 J-0.1289
X-5.0007 Y1.7343 I0.1429 J-0.0662 F50.
G2 X-5.0123 Y1.7243 I-0.0145 J0.0051
G1 X-5.1363 Y1.7055 F60.
G2 X-5.5177 Y1.8126 I0.0939 J1.0673
G3 X-5.7492 Y1.7097 I-0.0543 J-0.1897
G2 X-5.894 Y1.5908 I-3.3241 J3.9006
G1 X-6.1317 Y1.5549
G2 X-6.1458 Y1.561 I-0.0018 J0.0153
X-6.14 Y1.6198 I0.0352 J0.0262
X-5.9176 Y1.6084 I0.1055 J-0.1169
X-5.9081 Y1.5969 I-0.1169 J-0.1055 F50.
G3 X-5.894 Y1.5908 I0.0123 J0.0092
G1 X-5.7901 Y1.6066 F60.
G2 X-5.5778 Y1.7087 I3.0814 J-6.1334
X-5.4062 Y1.6651 I-0.3708 J-1.8221
G1 X-5.1363 Y1.7055
G3 X-5.124 Y1.7235 I-0.0028 J0.0151
X-5.1774 Y1.7726 I-0.0596 J-0.0112
X-5.3852 Y1.6862 I-0.0242 J-0.235
G1 X-5.3965 Y1.6711 F50.
G2 X-5.4063 Y1.6647 I-0.0127 J0.0087
G1 X-5.7901 Y1.6066 F60.
G2 X-5.7921 Y1.6065 I-0.0018 J0.0153
G1 X-5.7944 Y1.607 Z-0.2448
X-5.7966 Y1.6076 Z-0.2443
X-5.7988 Y1.6081 Z-0.2434
X-5.8004 Y1.6094 Z-0.242
X-5.8019 Y1.6106 Z-0.2404
X-5.8031 Y1.6116 Z-0.2385
X-5.8041 Y1.6125 Z-0.2363
X-5.8045 Y1.6132 Z-0.2342
X-5.8048 Y1.6136 Z-0.2319
X-5.8049 Y1.6137 Z-0.2296
G0 Z0.4
X-6.4751 Y-0.0158
Z-0.2143
G1 Z-0.2296 F50.
X-6.4754 Z-0.2326
X-6.4763 Y-0.0155 Z-0.2355
X-6.4776 Y-0.0152 Z-0.2382
X-6.4795 Y-0.0147 Z-0.2405
X-6.4817 Y-0.0141 Z-0.2424
X-6.4843 Y-0.0135 Z-0.2438
X-6.4871 Y-0.0128 Z-0.2447
X-6.49 Y-0.012 Z-0.245
G3 X-6.5737 Y0. I-0.0974 J-0.3801
G1 X-6.58 Y-0.0029 F60.
X-6.5861 Y-0.0064
X-6.5918 Y-0.0104
X-6.5971 Y-0.0149
X-6.602 Y-0.0199
X-6.6064 Y-0.0252
X-6.6104 Y-0.031
X-6.6138 Y-0.0371
X-6.6167 Y-0.0434
X-6.619 Y-0.05
X-6.6207 Y-0.0568
X-6.6218 Y-0.0637
X-6.6222 Y-0.0706
X-6.6221 Y-0.0776
X-6.6213 Y-0.0845
X-6.62 Y-0.0914
X-6.618 Y-0.098
X-6.6154 Y-0.1045
X-6.6123 Y-0.1107
X-6.6086 Y-0.1167
X-6.6044 Y-0.1223
X-6.5998 Y-0.1274
X-6.5946 Y-0.1322
X-6.5891 Y-0.1365
X-6.5833 Y-0.1402
X-6.5771 Y-0.1434
X-6.5707 Y-0.1461
X-6.564 Y-0.1482
X-6.5557 Y-0.1544
X-6.547 Y-0.1602
X-6.5381 Y-0.1654
X-6.5288 Y-0.1701
X-6.5193 Y-0.1742
X-6.5095 Y-0.1777
X-6.4996 Y-0.1807
X-6.4895 Y-0.1831
X-6.4793 Y-0.1849
X-6.4689 Y-0.1861
X-6.4586 Y-0.1866
X-6.4482
X-6.4378 Y-0.186
X-6.4275 Y-0.1847
X-6.4173 Y-0.1828
X-6.4072 Y-0.1804
X-6.3973 Y-0.1773
X-6.3876 Y-0.1737
X-6.3781 Y-0.1695
X-6.3689 Y-0.1648
X-6.3599 Y-0.1595
X-6.3513 Y-0.1537
X-6.3431 Y-0.1474
X-6.3352 Y-0.1407
X-6.3277 Y-0.1335
X-6.3207 Y-0.1258
X-6.3141 Y-0.1178
X-6.3081 Y-0.1094
X-6.3025 Y-0.1006
X-6.2974 Y-0.0915
X-6.2929 Y-0.0822
X-6.289 Y-0.0726
X-6.2856 Y-0.0628
X-6.2828 Y-0.0528
X-6.2806 Y-0.0426
X-6.279 Y-0.0324
X-6.278 Y-0.0221
X-6.2776 Y-0.0117
X-6.2779 Y-0.0013
X-6.2787 Y0.009
X-6.2802 Y0.0193
X-6.2822 Y0.0295
X-6.2848 Y0.0395
X-6.2881 Y0.0494
X-6.2919 Y0.059
X-6.2962 Y0.0684
X-6.3011 Y0.0776
X-6.3066 Y0.0864
X-6.3125 Y0.0949
X-6.319 Y0.1031
X-6.3259 Y0.1108
X-6.3332 Y0.1181
X-6.341 Y0.125
X-6.3491 Y0.1314
X-6.3577 Y0.1373
X-6.3665 Y0.1428
X-6.3757 Y0.1476
X-6.3851 Y0.152
X-6.3936 Y0.1579
X-6.4025 Y0.1634
X-6.4116 Y0.1684
X-6.421 Y0.1728
X-6.4307 Y0.1767
X-6.4406 Y0.18
X-6.4506 Y0.1827
X-6.4608 Y0.1849
X-6.4711 Y0.1865
X-6.4814 Y0.1875
X-6.4918 Y0.1879
X-6.5022 Y0.1876
X-6.5126 Y0.1868
X-6.5229 Y0.1854
X-6.5331 Y0.1834
X-6.5432 Y0.1808
X-6.5531 Y0.1777
X-6.5629 Y0.174
X-6.5724 Y0.1697
X-6.5816 Y0.1649
X-6.5905 Y0.1596
X-6.5991 Y0.1537
X-6.6074 Y0.1474
X-6.6153 Y0.1406
X-6.6228 Y0.1334
X-6.6298 Y0.1258
X-6.6364 Y0.1177
X-6.6426 Y0.1093
X-6.6482 Y0.1006
X-6.6534 Y0.0915
X-6.658 Y0.0822
X-6.662 Y0.0726
X-6.6655 Y0.0628
X-6.6685 Y0.0528
X-6.6744 Y0.0426
X-6.6798 Y0.0321
X-6.6846 Y0.0213
X-6.6888 Y0.0103
X-6.6925 Y-0.0009
X-6.6956 Y-0.0123
X-6.6981 Y-0.0239
X-6.6999 Y-0.0355
X-6.7011 Y-0.0473
X-6.7018 Y-0.0591
Y-0.0709
X-6.7011 Y-0.0827
X-6.6999 Y-0.0944
X-6.698 Y-0.1061
X-6.6956 Y-0.1176
X-6.6925 Y-0.129
X-6.6888 Y-0.1402
X-6.6846 Y-0.1513
X-6.6797 Y-0.162
X-6.6744 Y-0.1725
X-6.6684 Y-0.1828
X-6.662 Y-0.1926
X-6.655 Y-0.2022
X-6.6475 Y-0.2113
X-6.6396 Y-0.2201
X-6.6312 Y-0.2284
X-6.6224 Y-0.2362
X-6.6132 Y-0.2436
X-6.6036 Y-0.2505
X-6.5937 Y-0.2569
X-6.5834 Y-0.2627
X-6.5729 Y-0.268
X-6.562 Y-0.2728
X-6.551 Y-0.2769
X-6.5397 Y-0.2805
X-6.5283 Y-0.2835
X-6.5168 Y-0.2859
X-6.5051 Y-0.2876
X-6.4933 Y-0.2888
X-6.4815 Y-0.2893
X-6.4697 Y-0.2892
X-6.458 Y-0.2885
X-6.4462 Y-0.2871
X-6.4346 Y-0.2852
X-6.4231 Y-0.2826
X-6.4117 Y-0.2795
X-6.4005 Y-0.2757
X-6.3895 Y-0.2714
X-6.3788 Y-0.2664
X-6.3683 Y-0.261
X-6.3582 Y-0.255
G3 X-6.2062 Y-0.1112 I-0.0656 J0.2215
X-6.3851 Y0.2663 I-0.2771 J0.0998
X-6.7616 Y0.0853 I-0.0983 J-0.2777
G1 X-6.7677 Y0.0725
X-6.7732 Y0.0595
X-6.7782 Y0.0463
X-6.7826 Y0.0328
X-6.7864 Y0.0192
X-6.7896 Y0.0054
X-6.7922 Y-0.0085
X-6.7942 Y-0.0226
X-6.7955 Y-0.0367
X-6.7963 Y-0.0508
X-6.7964 Y-0.0649
X-6.7959 Y-0.0791
X-6.7948 Y-0.0932
X-6.7931 Y-0.1073
X-6.7908 Y-0.1212
X-6.7879 Y-0.1351
X-6.7843 Y-0.1488
X-6.7802 Y-0.1623
X-6.7755 Y-0.1757
X-6.7702 Y-0.1888
X-6.7643 Y-0.2017
X-6.7579 Y-0.2143
X-6.7509 Y-0.2266
X-6.7434 Y-0.2386
X-6.7354 Y-0.2503
X-6.7269 Y-0.2616
X-6.7179 Y-0.2725
X-6.7084 Y-0.283
X-6.6985 Y-0.2931
X-6.6881 Y-0.3028
X-6.6774 Y-0.312
X-6.6662 Y-0.3207
X-6.6547 Y-0.3289
X-6.6428 Y-0.3366
X-6.6306 Y-0.3438
X-6.6181 Y-0.3505
X-6.6053 Y-0.3566
X-6.5923 Y-0.3621
X-6.579 Y-0.367
X-6.5656 Y-0.3714
X-6.5519 Y-0.3752
X-6.5381 Y-0.3784
X-6.5242 Y-0.3809
X-6.5102 Y-0.3829
X-6.4961 Y-0.3843
X-6.482 Y-0.385
X-6.4678 Y-0.3851
X-6.4537 Y-0.3846
X-6.4396 Y-0.3835
X-6.4255 Y-0.3818
X-6.4116 Y-0.3794
X-6.3977 Y-0.3765
X-6.384 Y-0.3729
X-6.3705 Y-0.3688
X-6.3572 Y-0.364
X-6.344 Y-0.3587
X-6.3312 Y-0.3528
X-6.3186 Y-0.3464
X-6.3062 Y-0.3394
X-6.2942 Y-0.3319
X-6.2826 Y-0.3239
G3 X-6.1457 Y-0.2028 I-0.0972 J0.2477
G1 X-6.1382 Y-0.189
X-6.1313 Y-0.175
X-6.125 Y-0.1607
X-6.1192 Y-0.1461
X-6.114 Y-0.1314
X-6.1094 Y-0.1164
X-6.1054 Y-0.1012
X-6.1021 Y-0.086
X-6.0993 Y-0.0705
X-6.0972 Y-0.055
X-6.0957 Y-0.0394
X-6.0948 Y-0.0238
X-6.0946 Y-0.0082
X-6.095 Y0.0075
X-6.096 Y0.0231
X-6.0976 Y0.0387
X-6.0999 Y0.0542
X-6.1028 Y0.0696
X-6.1063 Y0.0848
X-6.1104 Y0.0999
X-6.1151 Y0.1148
X-6.1204 Y0.1296
X-6.1263 Y0.1441
X-6.1328 Y0.1583
X-6.1398 Y0.1723
X-6.1475 Y0.186
X-6.1556 Y0.1994
X-6.1643 Y0.2124
X-6.1735 Y0.2251
X-6.1832 Y0.2373
X-6.1934 Y0.2492
X-6.204 Y0.2607
X-6.2151 Y0.2717
X-6.2267 Y0.2823
X-6.2386 Y0.2924
X-6.251 Y0.302
X-6.2637 Y0.3111
X-6.2768 Y0.3197
X-6.2902 Y0.3278
X-6.304 Y0.3353
X-6.318 Y0.3423
X-6.3323 Y0.3486
X-6.3468 Y0.3544
X-6.3616 Y0.3597
X-6.3765 Y0.3643
X-6.3917 Y0.3683
X-6.4069 Y0.3717
X-6.4223 Y0.3745
X-6.4379 Y0.3766
X-6.4534 Y0.3782
X-6.4691 Y0.3791
X-6.4847 Y0.3794
X-6.5004 Y0.379
X-6.516 Y0.378
X-6.5316 Y0.3764
X-6.5471 Y0.3742
X-6.5625 Y0.3713
X-6.5777 Y0.3679
X-6.5928 Y0.3638
X-6.6078 Y0.3591
X-6.6225 Y0.3538
X-6.637 Y0.3479
X-6.6513 Y0.3415
X-6.6653 Y0.3345
X-6.679 Y0.3269
X-6.6924 Y0.3188
X-6.7054 Y0.3101
X-6.7181 Y0.301
X-6.7304 Y0.2913
X-6.7423 Y0.2811
X-6.7538 Y0.2705
X-6.7649 Y0.2594
X-6.7755 Y0.2479
X-6.7856 Y0.236
X-6.7952 Y0.2236
X-6.8044 Y0.2109
X-6.813 Y0.1979
X-6.8211 Y0.1845
X-6.8286 Y0.1707
X-6.8356 Y0.1567
X-6.842 Y0.1424
X-6.8479 Y0.1279
X-6.8531 Y0.1132
G3 X-6.7484 Y-0.374 I0.3495 J-0.1797
X-6.0138 Y-0.1245 I0.2824 J0.3746
X-6.9176 Y0.1243 I-0.4519 J0.1244
X-6.7483 Y-0.374 I0.4519 J-0.1244
G1 X-6.7456 Y-0.3753
X-6.7426 Y-0.3761
X-6.7395 Y-0.3762
X-6.7365 Y-0.3757
X-6.7336 Y-0.3746
X-6.731 Y-0.373
X-6.7287 Y-0.3709
X-6.727 Y-0.3684
X-6.7257 Y-0.3655
X-6.7251 Y-0.3625
X-6.7248 Y-0.3595 Z-0.2447
X-6.7245 Y-0.3567 Z-0.2438
X-6.7242 Y-0.354 Z-0.2424
X-6.724 Y-0.3517 Z-0.2405
X-6.7238 Y-0.3498 Z-0.2382
X-6.7236 Y-0.3484 Z-0.2355
X-6.7235 Y-0.3475 Z-0.2326
Y-0.3472 Z-0.2296
G0 Z0.6
(SHAPE THROUGH FINISHING PASS)
M7
G0 X-4.9094 Y3.2023
Z0.6
Z0.2
G1 Z0.1 F13.333
Z-0.195
X-4.9092 Y3.202 Z-0.2006 F40.
X-4.9086 Y3.2013 Z-0.2061
X-4.9077 Y3.2001 Z-0.2115
X-4.9064 Y3.1984 Z-0.2167
X-4.9047 Y3.1962 Z-0.2216
X-4.9027 Y3.1937 Z-0.2262
X-4.9004 Y3.1907 Z-0.2304
X-4.8978 Y3.1874 Z-0.2341
X-4.895 Y3.1838 Z-0.2373
X-4.892 Y3.18 Z-0.24
X-4.8888 Y3.1759 Z-0.2422
X-4.8855 Y3.1716 Z-0.2437
X-4.8821 Y3.1673 Z-0.2447
X-4.8787 Y3.1629 Z-0.245
X-4.8692 Y3.1507
G3 X-4.8605 Y3.2209 I-0.0308 J0.0394
G1 X-5.2536 Y3.7247
G3 X-5.2778 Y3.7328 I-0.0182 J-0.0142
G1 X-6.675 Y3.3584
G3 X-6.6916 Y3.3411 I0.006 J-0.0224
G1 X-7.0302 Y1.8138
G3 X-6.6931 Y1.4547 I0.2911 J-0.0645
G2 X-6.6861 Y1.4558 I0.227 J-1.4547
G1 X-4.3256 Y1.8131
G3 X-4.1352 Y2.2913 I-0.0446 J0.2948
G1 X-4.8605 Y3.2209
G3 X-4.9307 Y3.2296 I-0.0394 J-0.0308
G1 X-4.9213 Y3.2175
X-4.9178 Y3.2131 Z-0.2447
X-4.9144 Y3.2087 Z-0.2437
X-4.9111 Y3.2045 Z-0.2422
X-4.9079 Y3.2004 Z-0.24
X-4.9049 Y3.1965 Z-0.2373
X-4.9021 Y3.1929 Z-0.2341
X-4.8995 Y3.1896 Z-0.2304
X-4.8972 Y3.1867 Z-0.2262
X-4.8952 Y3.1841 Z-0.2216
X-4.8935 Y3.182 Z-0.2167
X-4.8922 Y3.1803 Z-0.2115
X-4.8913 Y3.179 Z-0.2061
X-4.8907 Y3.1783 Z-0.2006
X-4.8905 Y3.1781 Z-0.195
G0 Z0.4
X-3.1333 Y0.7918
Z0.2
G1 Z0.1 F13.333
Z-0.195
G19 G2 Y0.7418 Z-0.245 J-0.05 K0. F40.
G1 Y0.7265
G17 G3 X-3.0833 Y0.7765 I0. J0.05
X-4.0526 I-0.4846 J0.
X-3.0833 I0.4846 J0.
X-3.1333 Y0.8265 I-0.05 J0.
G1 Y0.8111
G19 G2 Y0.7611 Z-0.195 J0. K0.05
G0 Z0.4
X-6.0311 Y0.0154
Z0.2
G1 Z0.1 F13.333
Z-0.195
G2 Y-0.0346 Z-0.245 J-0.05 K0. F40.
G1 Y-0.05
G17 G3 X-5.9811 Y0. I0. J0.05
X-6.9504 I-0.4846 J0.
X-5.9811 I0.4846 J0.
X-6.0311 Y0.05 I-0.05 J0.
G1 Y0.0346
G19 G2 Y-0.0154 Z-0.195 J0. K0.05
G0 Z0.6
G17
(2D SLOT CUT)
M7
G0 X-7.721 Y-0.8546
Z0.6
Z0.2
G1 Z0.1156 F13.333
X-7.7207 Y-0.8545 Z0.1126 F40.
X-7.72 Y-0.854 Z0.1097
X-7.7188 Y-0.8532 Z0.1071
X-7.7172 Y-0.8521 Z0.1047
X-7.7153 Y-0.8508 Z0.1028
X-7.7131 Y-0.8494 Z0.1014
X-7.7107 Y-0.8478 Z0.1005
X-7.7082 Y-0.8461 Z0.1002
X-7.6954 Y-0.8376
G3 X-7.6911 Y-0.8163 I-0.0085 J0.0128
G2 X-7.9289 Y0.1647 Z-0.0814 I1.2254 J0.8163
X-7.9287 Y0.1661 Z-0.0816 I1.4631 J-0.1647
X-7.9286 Y0.1674 Z-0.0817 I1.463 J-0.166
X-7.9032 Y0.3187 I1.4628 J-0.1674 F30.
G1 X-7.0243 Y4.2832
G2 X-6.7898 Y4.5282 I0.3191 J-0.0707
G1 X-5.5611 Y4.8574
G2 X-5.2188 Y4.7428 I0.0846 J-0.3157
G1 X-2.6705 Y1.4767
G2 X-2.4919 Y1.1477 I-0.8975 J-0.7003
G1 X-1.6493 Y-1.2947
G3 X-1.5852 Y-1.3799 I0.1637 J0.0565
G1 X-1.3446 Y-1.5491
G2 X-1.5578 Y-2.0225 I-0.1521 J-0.2162
G1 X-3.885 Y-1.4689
G3 X-3.9699 Y-1.4701 I-0.0401 J-0.1684
G1 X-5.0416 Y-1.7573
G2 X-5.1038 Y-1.7596 I-0.0361 J0.1346
G1 X-6.7424 Y-1.4461
G2 X-7.9286 Y0.1674 I0.2766 J1.4461
X-7.9032 Y0.3187 Z-0.1026 I1.4628 J-0.1674 F40.
G1 X-7.8069 Y0.753 Z-0.1633
X-7.0243 Y4.2832 F30.
G2 X-6.7898 Y4.5282 I0.3191 J-0.0707
G1 X-5.5611 Y4.8574
G2 X-5.2188 Y4.7428 I0.0846 J-0.3157
G1 X-2.6705 Y1.4767
G2 X-2.4919 Y1.1477 I-0.8975 J-0.7003
G1 X-1.6493 Y-1.2947
G3 X-1.5852 Y-1.3799 I0.1637 J0.0565
G1 X-1.3446 Y-1.5491
G2 X-1.5578 Y-2.0225 I-0.1521 J-0.2162
G1 X-3.885 Y-1.4689
G3 X-3.9699 Y-1.4701 I-0.0401 J-0.1684
G1 X-5.0416 Y-1.7573
G2 X-5.1038 Y-1.7596 I-0.0361 J0.1346
G1 X-6.7424 Y-1.4461
G2 X-7.9032 Y0.3187 I0.2766 J1.4461
G1 X-7.8069 Y0.753
X-7.6774 Y1.3372 Z-0.245 F40.
X-7.6495 Y1.4631 F30.
Z-0.165
X-7.4864 Y2.199
Z-0.245 F13.333
X-7.0243 Y4.2832 F30.
G2 X-6.7898 Y4.5282 I0.3191 J-0.0707
G1 X-6.5324 Y4.5972
Z-0.165
X-5.8043 Y4.7922
Z-0.245 F13.333
X-5.5611 Y4.8574 F30.
G2 X-5.2188 Y4.7428 I0.0846 J-0.3157
G1 X-4.6849 Y4.0585
Z-0.165
X-4.2213 Y3.4643
Z-0.245 F13.333
X-2.6705 Y1.4767 F30.
G2 X-2.4919 Y1.1477 I-0.8975 J-0.7003
G1 X-2.2625 Y0.4829
Z-0.165
X-2.0167 Y-0.2296
Z-0.245 F13.333
X-1.6493 Y-1.2947 F30.
G3 X-1.5852 Y-1.3799 I0.1637 J0.0565
G1 X-1.3446 Y-1.5491
G2 X-1.5578 Y-2.0225 I-0.1521 J-0.2162
G1 X-3.885 Y-1.4689
G3 X-3.9699 Y-1.4701 I-0.0401 J-0.1684
G1 X-5.0416 Y-1.7573
G2 X-5.1038 Y-1.7596 I-0.0361 J0.1346
G1 X-5.6008 Y-1.6645
Z-0.165
X-6.341 Y-1.5229
Z-0.245 F13.333
X-6.7424 Y-1.4461 F30.
G2 X-7.9032 Y0.3187 I0.2766 J1.4461
G1 X-7.6774 Y1.3372
G3 X-7.6891 Y1.3555 I-0.015 J0.0033
G1 X-7.7041 Y1.3589
X-7.707 Y1.3595 Z-0.2447
X-7.7098 Y1.3601 Z-0.2438
X-7.7124 Y1.3607 Z-0.2424
X-7.7147 Y1.3612 Z-0.2405
X-7.7166 Y1.3616 Z-0.2382
X-7.718 Y1.3619 Z-0.2355
X-7.7188 Y1.3621 Z-0.2326
X-7.7191 Y1.3622 Z-0.2296
G0 Z0.6
M9
G53 Z0.
M30
%
