%
(971-23-P-0142_WRIST PLATE_1490)
(T1  D=0.149 CR=0. - ZMIN=-0.235 - FLAT END MILL)
G90 G94 G17 G91.1
G64 P0.001 Q0.001
G20
G53 G0 Z0.
(.3 CIRCLUAR THROUGH HOLE)
M9
T1 M6
S22000 M3
G4 P10.
G54
M7
G0 X-5.9508 Y0.5075
G43 Z0.6 H1
G0 Z0.1151
G1 Z0.05 F40.
Y0.5149
G3 X-5.956 Y0.52 I-0.0051 J0.
Y0.4995 Z0. I0. J-0.0103
Y0.52 Z-0.05 I0. J0.0102
Y0.4995 Z-0.1 I0. J-0.0102
Y0.52 Z-0.15 I0. J0.0102
Y0.4995 Z-0.2 I0. J-0.0102
X-5.9477 Y0.5158 Z-0.235 I0. J0.0102
X-5.9643 Y0.5038 I-0.0083 J-0.006
X-5.9477 Y0.5158 I0.0083 J0.006
X-5.9548 Y0.5169 I-0.0041 J-0.003
G1 X-5.9609 Y0.5126
G0 Z0.4
X-6.9704 Y0.5075
Z0.1151
G1 Z0.05 F40.
Y0.5149
G3 X-6.9755 Y0.52 I-0.0051 J0.
Y0.4995 Z0. I0. J-0.0103
Y0.52 Z-0.05 I0. J0.0102
Y0.4995 Z-0.1 I0. J-0.0102
Y0.52 Z-0.15 I0. J0.0102
Y0.4995 Z-0.2 I0. J-0.0102
X-6.9672 Y0.5158 Z-0.235 I0. J0.0102
X-6.9838 Y0.5038 I-0.0083 J-0.006
X-6.9672 Y0.5158 I0.0083 J0.006
X-6.9744 Y0.5169 I-0.0041 J-0.003
G1 X-6.9804 Y0.5126
G0 Z0.4
X-6.9704 Y-0.5121
Z0.1151
G1 Z0.05 F40.
Y-0.5047
G3 X-6.9755 Y-0.4995 I-0.0051 J0.
Y-0.52 Z0. I0. J-0.0103
Y-0.4995 Z-0.05 I0. J0.0102
Y-0.52 Z-0.1 I0. J-0.0102
Y-0.4995 Z-0.15 I0. J0.0102
Y-0.52 Z-0.2 I0. J-0.0102
X-6.9672 Y-0.5038 Z-0.235 I0. J0.0102
X-6.9838 Y-0.5158 I-0.0083 J-0.006
X-6.9672 Y-0.5038 I0.0083 J0.006
X-6.9744 Y-0.5026 I-0.0041 J-0.003
G1 X-6.9804 Y-0.507
G0 Z0.4
X-5.9508 Y-0.5121
Z0.1151
G1 Z0.05 F40.
Y-0.5047
G3 X-5.956 Y-0.4995 I-0.0051 J0.
Y-0.52 Z0. I0. J-0.0103
Y-0.4995 Z-0.05 I0. J0.0102
Y-0.52 Z-0.1 I0. J-0.0102
Y-0.4995 Z-0.15 I0. J0.0102
Y-0.52 Z-0.2 I0. J-0.0102
X-5.9477 Y-0.5038 Z-0.235 I0. J0.0102
X-5.9643 Y-0.5158 I-0.0083 J-0.006
X-5.9477 Y-0.5038 I0.0083 J0.006
X-5.9548 Y-0.5026 I-0.0041 J-0.003
G1 X-5.9609 Y-0.507
G0 Z0.4
X-5.3533 Y-0.9591
Z0.13
G1 Z0.0649 F40.
G19 G3 Y-0.9442 Z0.05 J0.0149 K0.
G1 Y-0.9367
G17 G3 X-5.3682 Y-0.9218 I-0.0149 J0.
Y-0.9916 Z0. I0. J-0.0349
Y-0.9218 Z-0.05 I0. J0.0349
Y-0.9916 Z-0.1 I0. J-0.0349
Y-0.9218 Z-0.15 I0. J0.0349
Y-0.9916 Z-0.2 I0. J-0.0349
X-5.34 Y-0.9362 Z-0.235 I0. J0.0349
X-5.3965 Y-0.9772 I-0.0282 J-0.0205
X-5.34 Y-0.9362 I0.0282 J0.0205
X-5.3608 Y-0.9329 I-0.0121 J-0.0088
G1 X-5.3669 Y-0.9373
X-5.3692 Y-0.939 Z-0.2347
X-5.3715 Y-0.9406 Z-0.2339
X-5.3736 Y-0.9422 Z-0.2325
X-5.3754 Y-0.9435 Z-0.2306
X-5.3769 Y-0.9446 Z-0.2284
X-5.378 Y-0.9454 Z-0.2258
X-5.3787 Y-0.9459 Z-0.223
X-5.3789 Y-0.9461 Z-0.2201
G0 Z0.4
X-4.0252 Y-0.6032
Z0.13
G1 Z0.0649 F40.
G19 G3 Y-0.5883 Z0.05 J0.0149 K0.
G1 Y-0.5809
G17 G3 X-4.0401 Y-0.566 I-0.0149 J0.
Y-0.6357 Z0. I0. J-0.0349
Y-0.566 Z-0.05 I0. J0.0349
Y-0.6357 Z-0.1 I0. J-0.0349
Y-0.566 Z-0.15 I0. J0.0349
Y-0.6357 Z-0.2 I0. J-0.0349
X-4.0119 Y-0.5803 Z-0.235 I0. J0.0349
X-4.0683 Y-0.6213 I-0.0282 J-0.0205
X-4.0119 Y-0.5803 I0.0282 J0.0205
X-4.0327 Y-0.577 I-0.0121 J-0.0088
G1 X-4.0387 Y-0.5814
X-4.0411 Y-0.5831 Z-0.2347
X-4.0433 Y-0.5848 Z-0.2339
X-4.0454 Y-0.5863 Z-0.2325
X-4.0472 Y-0.5876 Z-0.2306
X-4.0487 Y-0.5887 Z-0.2284
X-4.0498 Y-0.5895 Z-0.2258
X-4.0505 Y-0.59 Z-0.223
X-4.0508 Y-0.5902 Z-0.2201
G0 Z0.6
(.3 CIRCULAR THROUGH HOLE)
M7
G0 X-6.4357 Y-0.0241
Z0.6
Z0.2
G1 Z0.1144 F13.333
G3 X-6.435 Y-0.0253 Z0.1081 I0.038 J0.0241 F55.
X-6.4326 Y-0.0284 Z0.103 I0.0372 J0.0253
X-6.4287 Y-0.0326 Z0.1 I0.0349 J0.0284
X-6.3668 Y0.0326 Z0.0621 I0.031 J0.0326
X-6.4287 Y-0.0326 Z0.0242 I-0.031 J-0.0326
X-6.3668 Y0.0326 Z-0.0136 I0.031 J0.0326
X-6.4287 Y-0.0326 Z-0.0515 I-0.031 J-0.0326
X-6.3668 Y0.0326 Z-0.0894 I0.031 J0.0326
X-6.4427 Y0. Z-0.1175 I-0.031 J-0.0326
X-6.3888 I0.027 J0. F60.
X-6.5427 I-0.077 J0.
X-6.2888 I0.127 J0.
X-6.6427 I-0.177 J0.
X-6.1888 I0.227 J0.
X-6.7427 I-0.277 J0.
X-6.0888 I0.327 J0.
X-6.8427 I-0.377 J0.
X-5.9888 I0.427 J0.
X-6.9427 I-0.477 J0.
X-5.9888 I0.477 J0.
X-6.0338 Y0.045 Z-0.1339 I-0.045 J0. F55.
G1 X-6.3977 Z-0.2186
G3 X-6.4427 Y0. Z-0.235 I0. J-0.045
X-6.3888 I0.027 J0. F60.
X-6.5427 I-0.077 J0.
X-6.2888 I0.127 J0.
X-6.6427 I-0.177 J0.
X-6.1888 I0.227 J0.
X-6.7427 I-0.277 J0.
X-6.0888 I0.327 J0.
X-6.8427 I-0.377 J0.
X-5.9888 I0.427 J0.
X-6.9427 I-0.477 J0.
X-5.9788 I0.482 J0.
X-6.9527 I-0.487 J0.
X-5.9788 I0.487 J0.
X-5.9798 Y0.0056 Z-0.2339 I-0.0149 J0.
X-5.9823 Y0.0097 Z-0.2306 I-0.0138 J-0.0056
X-5.9847 Y0.0119 Z-0.2258 I-0.0113 J-0.0097
X-5.9856 Y0.0125 Z-0.2201 I-0.009 J-0.0119
G0 Z0.4
X-3.54 Y0.7523
Z0.2
G1 Z0.1144 F13.333
G3 X-3.5392 Y0.7512 Z0.1081 I0.038 J0.0241 F55.
X-3.5369 Y0.748 Z0.103 I0.0372 J0.0253
X-3.533 Y0.7438 Z0.1 I0.0349 J0.0284
X-3.471 Y0.8091 Z0.0621 I0.031 J0.0326
X-3.533 Y0.7438 Z0.0242 I-0.031 J-0.0326
X-3.471 Y0.8091 Z-0.0136 I0.031 J0.0326
X-3.533 Y0.7438 Z-0.0515 I-0.031 J-0.0326
X-3.471 Y0.8091 Z-0.0894 I0.031 J0.0326
X-3.547 Y0.7765 Z-0.1175 I-0.031 J-0.0326
X-3.489 I0.029 J0. F60.
X-3.647 I-0.079 J0.
X-3.389 I0.129 J0.
X-3.747 I-0.179 J0.
X-3.289 I0.229 J0.
X-3.847 I-0.279 J0.
X-3.189 I0.329 J0.
X-3.947 I-0.379 J0.
X-3.189 I0.379 J0.
G2 X-3.1456 Y0.8459 I0.0773 J0.
G3 X-3.1135 Y0.9212 I-0.0275 J0.0563
X-4.045 Y0.7765 I-0.4545 J-0.1447
X-3.091 I0.477 J0.
X-3.1135 Y0.9212 I-0.477 J0.
X-3.1242 Y0.9254 I-0.0071 J-0.0023
G1 X-3.1731 Y0.8982
X-3.4596 Y0.7681
X-3.4634 Y0.7653
G3 X-3.4602 Y0.761 I0.0016 J-0.0021
X-3.4593 Y0.7623 I-0.0016 J0.0021
X-3.5447 Y0.7906 Z-0.1554 I-0.0427 J0.0142 F55.
X-3.4593 Y0.7623 Z-0.1933 I0.0427 J-0.0142
X-3.5447 Y0.7906 Z-0.2311 I-0.0427 J0.0142
X-3.547 Y0.7765 Z-0.235 I0.0427 J-0.0142
X-3.489 I0.029 J0. F60.
X-3.647 I-0.079 J0.
X-3.389 I0.129 J0.
X-3.747 I-0.179 J0.
X-3.289 I0.229 J0.
X-3.847 I-0.279 J0.
X-3.189 I0.329 J0.
X-3.947 I-0.379 J0.
X-3.189 I0.379 J0.
G2 X-3.1456 Y0.8459 I0.0773 J0.
G3 X-3.1135 Y0.9212 I-0.0275 J0.0563
X-4.045 Y0.7765 I-0.4545 J-0.1447
X-3.091 I0.477 J0.
X-3.1135 Y0.9212 I-0.477 J0.
G2 X-3.111 Y0.9298 I0.0077 J0.0025
G3 X-3.1087 Y0.9384 I-0.0052 J0.006
X-4.055 Y0.7765 I-0.4593 J-0.162
X-3.081 I0.487 J0.
X-3.1087 Y0.9384 I-0.487 J0.
X-3.1116 Y0.9433 Z-0.2339 I-0.0141 J-0.005
X-3.1153 Y0.9463 Z-0.2306 I-0.0112 J-0.0098
X-3.1182 Y0.9477 Z-0.2258 I-0.0075 J-0.0129
X-3.1193 Y0.948 Z-0.2201 I-0.0045 J-0.0142
G0 Z0.6
(SHAPE THROUGH HOLE)
M7
G0 X-5.6287 Y2.6164
Z0.6
Z0.1
G3 X-5.7643 Y2.5757 Z0.0608 I-0.0678 J-0.0204 F50.
X-5.6287 Y2.6164 Z0.0216 I0.0678 J0.0204
X-5.7643 Y2.5757 Z-0.0176 I-0.0678 J-0.0204
X-5.6287 Y2.6164 Z-0.0568 I0.0678 J0.0204
X-5.7643 Y2.5757 Z-0.096 I-0.0678 J-0.0204
X-5.6287 Y2.6164 Z-0.1352 I0.0678 J0.0204
X-5.7643 Y2.5757 Z-0.1744 I-0.0678 J-0.0204
X-5.6257 Y2.596 Z-0.21 I0.0678 J0.0204
X-5.7672 I-0.0708 J0.
X-5.6257 I0.0708 J0.
X-5.6156 Y2.6977 I-0.0476 J0.056 F60.
X-5.7787 Y2.6793 I-0.0341 J-0.429
X-5.798 Y2.4817 I0.0447 J-0.1041
G2 X-5.6453 Y2.5142 I0.2518 J-0.8087
G1 X-5.6366 Y2.5143
X-5.6279 Y2.515
X-5.6192 Y2.5163
X-5.6107 Y2.5183
X-5.6023 Y2.5207
X-5.5941 Y2.5238
X-5.5862 Y2.5274
X-5.5785 Y2.5315
X-5.5711 Y2.5361
X-5.564 Y2.5413
X-5.5573 Y2.5469
X-5.551 Y2.5529
X-5.5451 Y2.5594
X-5.5396 Y2.5662
X-5.5347 Y2.5734
X-5.5302 Y2.5809
X-5.5263 Y2.5887
X-5.5229 Y2.5967
X-5.52 Y2.605
X-5.5177 Y2.6134
X-5.516 Y2.622
X-5.5149 Y2.6307
X-5.5144 Y2.6394
Y2.6481
X-5.5151 Y2.6568
X-5.5163 Y2.6655
G3 X-5.6156 Y2.6977 I-0.26 J-0.6324
X-5.6295 Y2.6923 I-0.0022 J-0.0147
X-5.6219 Y2.6536 I0.0201 J-0.0161
X-5.545 Y2.6538 I0.0383 J0.0688
X-5.5325 Y2.6625 I-0.0385 J0.0687 F50.
G2 X-5.5178 Y2.6652 I0.0097 J-0.0113
G1 X-5.5113 Y2.6626 F60.
X-5.4985 Y2.6575
X-5.4924 Y2.6521
X-5.4867 Y2.6463
X-5.4814 Y2.64
X-5.4765 Y2.6334
X-5.4722 Y2.6265
X-5.4683 Y2.6192
X-5.465 Y2.6117
X-5.4623 Y2.604
X-5.4601 Y2.5961
X-5.4584 Y2.5881
X-5.4574 Y2.58
X-5.4569 Y2.5718
X-5.457 Y2.5636
X-5.4577 Y2.5555
X-5.459 Y2.5474
X-5.4609 Y2.5394
X-5.4633 Y2.5316
X-5.4663 Y2.5239
X-5.4699 Y2.5166
X-5.4739 Y2.5094
X-5.4784 Y2.5026
X-5.4835 Y2.4962
X-5.4889 Y2.4901
X-5.4948 Y2.4844
X-5.5011 Y2.4791
X-5.5078 Y2.4744
X-5.5148 Y2.4701
X-5.522 Y2.4663
G3 X-5.6452 Y2.5132 I-0.5307 J-1.2094
G2 X-5.6547 Y2.5247 I0.0053 J0.0139
X-5.6488 Y2.538 I0.0131 J0.0022
G1 X-5.6429 Y2.5411
X-5.6366 Y2.5438
X-5.6302 Y2.5459
X-5.6236 Y2.5474
X-5.617 Y2.5484
X-5.6102 Y2.5488
X-5.6035 Y2.5486
X-5.5967 Y2.5478
X-5.5901 Y2.5465
X-5.5836 Y2.5446
X-5.5773 Y2.5421
X-5.5713 Y2.5392
X-5.5655 Y2.5357
X-5.56 Y2.5317
X-5.5549 Y2.5273
X-5.5502 Y2.5224
X-5.5459 Y2.5172
X-5.5421 Y2.5116
X-5.5388 Y2.5057
X-5.536 Y2.4996
X-5.5337 Y2.4932
G2 X-5.5307 Y2.4782 I-0.0753 J-0.0231 F50.
G3 X-5.522 Y2.4661 I0.0148 J0.0015
G1 X-5.5113 Y2.4618 F60.
X-5.4952 Y2.4555
X-5.4867 Y2.4553
X-5.4782 Y2.4556
X-5.4697 Y2.4566
X-5.4614 Y2.4582
X-5.4532 Y2.4603
X-5.4452 Y2.4631
X-5.4373 Y2.4664
X-5.4298 Y2.4703
X-5.4225 Y2.4747
X-5.4156 Y2.4796
X-5.409 Y2.485
X-5.4029 Y2.4908
X-5.3972 Y2.4971
X-5.3919 Y2.5038
X-5.3872 Y2.5108
X-5.3829 Y2.5182
X-5.3792 Y2.5258
X-5.3761 Y2.5337
X-5.3735 Y2.5418
X-5.3715 Y2.55
X-5.3701 Y2.5584
X-5.3694 Y2.5669
X-5.3692 Y2.5754
X-5.3696 Y2.5838
X-5.3707 Y2.5923
X-5.3723 Y2.6006
X-5.3746 Y2.6088
G2 X-5.4985 Y2.6575 I2.5257 J6.6037
G3 X-5.5132 Y2.6549 I-0.005 J-0.014
X-5.5165 Y2.6438 I0.0069 J-0.0081
G1 X-5.5156 Y2.6409
G3 X-5.4025 Y2.5971 I0.0747 J0.0249
X-5.3899 Y2.6059 I-0.0385 J0.0687 F50.
G2 X-5.3753 Y2.6086 I0.0097 J-0.0113
G1 X-5.3503 Y2.5986 F60.
X-5.3439 Y2.593
X-5.338 Y2.5869
X-5.3326 Y2.5803
X-5.3277 Y2.5735
X-5.3232 Y2.5662
X-5.3193 Y2.5587
X-5.316 Y2.5509
X-5.3133 Y2.5429
X-5.3111 Y2.5347
X-5.3095 Y2.5263
X-5.3086 Y2.5179
X-5.3083 Y2.5094
X-5.3085 Y2.501
X-5.3095 Y2.4925
X-5.311 Y2.4842
X-5.3131 Y2.476
X-5.3158 Y2.468
X-5.3191 Y2.4601
X-5.3229 Y2.4526
X-5.3273 Y2.4453
X-5.3323 Y2.4384
X-5.3377 Y2.4319
X-5.3435 Y2.4258
X-5.3498 Y2.4201
X-5.3565 Y2.4149
X-5.3635 Y2.4102
X-5.3709 Y2.406
X-5.4187 Y2.4255
X-5.465 Y2.4437
X-5.4952 Y2.4555
G2 X-5.4947 Y2.483 I0.0059 J0.0137
X-5.4558 Y2.4849 I0.0221 J-0.0557
X-5.3874 Y2.4318 I-0.0332 J-0.1134
X-5.379 Y2.4145 I-0.1016 J-0.0603 F50.
G3 X-5.3711 Y2.4063 I0.0139 J0.0054
G1 X-5.348 Y2.3971 F60.
X-5.3398 Y2.3966
X-5.3315
X-5.3232 Y2.3972
X-5.3151 Y2.3984
X-5.307 Y2.4002
X-5.2991 Y2.4025
X-5.2913 Y2.4055
X-5.2838 Y2.4089
X-5.2766 Y2.4129
X-5.2696 Y2.4174
X-5.263 Y2.4224
X-5.2568 Y2.4278
X-5.251 Y2.4337
X-5.2456 Y2.4399
X-5.2407 Y2.4466
X-5.2362 Y2.4535
X-5.2323 Y2.4608
X-5.2289 Y2.4683
X-5.226 Y2.4761
X-5.2237 Y2.484
X-5.222 Y2.4921
X-5.2209 Y2.5003
X-5.2203 Y2.5085
X-5.2204 Y2.5168
X-5.221 Y2.525
X-5.2222 Y2.5332
X-5.224 Y2.5413
X-5.2264 Y2.5492
X-5.2334 Y2.5519
X-5.3503 Y2.5986
G3 X-5.3649 Y2.596 I-0.005 J-0.014
X-5.3681 Y2.5857 I0.0064 J-0.0076
G1 X-5.3669 Y2.5819
G3 X-5.2538 Y2.5377 I0.0748 J0.0246
X-5.2412 Y2.5465 I-0.0383 J0.0688 F50.
G2 X-5.2266 Y2.5491 I0.0096 J-0.0114
G1 X-5.206 Y2.5409 F60.
X-5.1994 Y2.5358
X-5.1933 Y2.5302
X-5.1876 Y2.5241
X-5.1823 Y2.5176
X-5.1775 Y2.5108
X-5.1732 Y2.5037
X-5.1695 Y2.4962
X-5.1663 Y2.4885
X-5.1637 Y2.4806
X-5.1616 Y2.4726
X-5.1601 Y2.4643
X-5.1593 Y2.4561
X-5.159 Y2.4477
X-5.1594 Y2.4394
X-5.1603 Y2.4311
X-5.1619 Y2.4229
X-5.164 Y2.4149
X-5.1667 Y2.407
X-5.17 Y2.3994
X-5.1738 Y2.392
X-5.1782 Y2.3849
X-5.183 Y2.3781
X-5.1884 Y2.3717
X-5.1942 Y2.3657
X-5.2004 Y2.3601
X-5.207 Y2.355
X-5.2139 Y2.3504
X-5.2212 Y2.3464
G2 X-5.348 Y2.3971 I3.3698 J8.5999
X-5.3557 Y2.4168 I0.006 J0.0136
X-5.3352 Y2.4297 I0.0197 J-0.0086
X-5.2378 Y2.3722 I-0.0039 J-0.118
X-5.2293 Y2.355 I-0.1014 J-0.0606 F50.
G3 X-5.2214 Y2.3468 I0.0139 J0.0055
G1 X-5.1945 Y2.3362 F60.
G3 X-5.0782 Y2.4902 I0.0024 J0.1191
G1 X-5.1408 Y2.5152
X-5.1871 Y2.5335
X-5.206 Y2.5409
G3 X-5.2244 Y2.5205 I-0.005 J-0.014
X-5.204 Y2.4973 I0.051 J0.0242
X-5.1076 Y2.4829 I0.064 J0.0992
X-5.0896 Y2.4897 I-0.0324 J0.1136 F50.
G2 X-5.0782 Y2.4902 I0.0064 J-0.0135
G1 X-5.0547 Y2.4808 F60.
X-5.0484 Y2.4755
X-5.0424 Y2.4698
X-5.0369 Y2.4636
X-5.0319 Y2.4571
X-5.0273 Y2.4502
X-5.0232 Y2.443
X-5.0196 Y2.4355
X-5.0166 Y2.4278
X-5.0142 Y2.4199
X-5.0123 Y2.4119
X-5.0109 Y2.4037
X-5.0102 Y2.3955
X-5.0101 Y2.3872
X-5.0105 Y2.379
X-5.0115 Y2.3708
X-5.0131 Y2.3627
X-5.0153 Y2.3547
X-5.018 Y2.3469
X-5.0213 Y2.3393
X-5.0251 Y2.332
X-5.0295 Y2.3249
X-5.0343 Y2.3182
X-5.0396 Y2.3119
X-5.0453 Y2.3059
X-5.0514 Y2.3003
X-5.0579 Y2.2953
X-5.0648 Y2.2906
X-5.0719 Y2.2865
G3 X-5.1945 Y2.3362 I-5.2521 J-12.777
G2 X-5.2034 Y2.3482 I0.0059 J0.0137
X-5.197 Y2.3604 I0.0123 J0.0014
X-5.084 Y2.3142 I0.0377 J-0.0691
X-5.081 Y2.2992 I-0.0753 J-0.0229 F50.
G3 X-5.0723 Y2.2871 I0.0148 J0.0015
G1 X-5.0482 Y2.2773 F60.
X-5.0397 Y2.2769
X-5.0312 Y2.2771
X-5.0227 Y2.278
X-5.0142 Y2.2795
X-5.006 Y2.2815
X-4.9978 Y2.2842
X-4.99 Y2.2875
X-4.9823 Y2.2914
X-4.975 Y2.2958
X-4.968 Y2.3007
X-4.9614 Y2.3061
X-4.9552 Y2.312
X-4.9495 Y2.3184
X-4.9443 Y2.3251
X-4.9395 Y2.3322
X-4.9353 Y2.3396
X-4.9316 Y2.3474
X-4.9286 Y2.3553
X-4.9261 Y2.3635
X-4.9242 Y2.3718
X-4.9229 Y2.3803
X-4.9223 Y2.3888
Y2.3973
X-4.9229 Y2.4059
X-4.9241 Y2.4143
X-4.926 Y2.4227
X-4.9285 Y2.4308
G2 X-5.0547 Y2.4808 I3.0489 J7.8808
G3 X-5.0732 Y2.4605 I-0.005 J-0.014
X-5.0461 Y2.4322 I0.0558 J0.0263
X-4.9581 Y2.4233 I0.055 J0.1045
X-4.9402 Y2.4301 I-0.033 J0.1134 F50.
G2 X-4.9288 Y2.4307 I0.0064 J-0.0134
G1 X-4.9093 Y2.4231 F60.
X-4.9013 Y2.4199
G2 X-4.923 Y2.228 I-0.0812 J-0.088
G3 X-5.0482 Y2.2773 I-2.9373 J-7.2758
G2 X-5.0557 Y2.297 I0.0061 J0.0136
X-5.0306 Y2.3117 I0.0229 J-0.0103
X-4.9391 Y2.2536 I-0.0105 J-0.1176
X-4.9308 Y2.2362 I-0.102 J-0.0595 F50.
G3 X-4.923 Y2.228 I0.0139 J0.0053
G1 X-4.9093 Y2.2224 F60.
X-4.8966 Y2.2174
G3 X-4.7793 Y2.3711 I0.0034 J0.1191
G1 X-4.9013 Y2.4199
G3 X-4.916 Y2.4173 I-0.005 J-0.014
X-4.9196 Y2.4046 I0.0076 J-0.009
G1 X-4.9192 Y2.4033
G3 X-4.8065 Y2.3598 I0.0745 J0.0254
X-4.7939 Y2.3685 I-0.0381 J0.0689 F50.
G2 X-4.7793 Y2.3711 I0.0096 J-0.0114
G1 X-4.7704 Y2.3675 F60.
X-4.7651 Y2.3653
X-4.7538 Y2.3609
X-4.7475 Y2.3552
X-4.7416 Y2.3492
X-4.7361 Y2.3427
X-4.7311 Y2.3358
X-4.7267 Y2.3286
X-4.7227 Y2.3211
X-4.7194 Y2.3133
X-4.7166 Y2.3053
X-4.7144 Y2.2971
X-4.7128 Y2.2888
X-4.7118 Y2.2804
X-4.7114 Y2.2719
X-4.7116 Y2.2635
X-4.7125 Y2.255
X-4.7139 Y2.2467
X-4.716 Y2.2384
X-4.7187 Y2.2304
X-4.7219 Y2.2226
X-4.7257 Y2.215
X-4.73 Y2.2077
X-4.7349 Y2.2008
X-4.7402 Y2.1942
X-4.746 Y2.188
X-4.7523 Y2.1823
X-4.7589 Y2.177
X-4.7659 Y2.1723
X-4.7733 Y2.168
G2 X-4.8966 Y2.2174 I1.9147 J4.959
X-4.8961 Y2.2449 I0.006 J0.0137
X-4.8629 Y2.2471 I0.0201 J-0.0513
X-4.79 Y2.1937 I-0.0282 J-0.1147
X-4.7814 Y2.1765 I-0.101 J-0.0612 F50.
G3 X-4.7735 Y2.1684 I0.0138 J0.0056
G1 X-4.7473 Y2.1581 F60.
X-4.7388 Y2.158
X-4.7304 Y2.1584
X-4.722 Y2.1594
X-4.7137 Y2.161
X-4.7055 Y2.1633
X-4.6975 Y2.1661
X-4.6898 Y2.1695
X-4.6823 Y2.1734
X-4.6751 Y2.1779
X-4.6683 Y2.1828
X-4.6618 Y2.1883
X-4.6558 Y2.1942
X-4.6502 Y2.2005
X-4.645 Y2.2073
X-4.6404 Y2.2143
X-4.6363 Y2.2217
X-4.6327 Y2.2294
X-4.6297 Y2.2373
X-4.6273 Y2.2454
X-4.6255 Y2.2536
X-4.6243 Y2.262
X-4.6236 Y2.2704
Y2.2789
X-4.6242 Y2.2873
X-4.6255 Y2.2957
X-4.6273 Y2.304
X-4.6297 Y2.3121
X-4.7538 Y2.3609
G3 X-4.7723 Y2.3405 I-0.005 J-0.014
X-4.7457 Y2.313 I0.0537 J0.0255
X-4.6595 Y2.3046 I0.0538 J0.1052
X-4.6416 Y2.3114 I-0.0324 J0.1136 F50.
G2 X-4.6302 Y2.3119 I0.0064 J-0.0135
G1 X-4.6071 Y2.3027 F60.
X-4.6008 Y2.2974
X-4.5948 Y2.2917
X-4.5892 Y2.2855
X-4.5841 Y2.279
X-4.5795 Y2.2721
X-4.5754 Y2.265
X-4.5718 Y2.2575
X-4.5688 Y2.2498
X-4.5663 Y2.2419
X-4.5644 Y2.2339
X-4.563 Y2.2257
X-4.5622 Y2.2175
X-4.5621 Y2.2092
X-4.5625 Y2.2009
X-4.5635 Y2.1927
X-4.5651 Y2.1846
X-4.5673 Y2.1766
X-4.57 Y2.1688
X-4.5733 Y2.1612
X-4.5771 Y2.1538
X-4.5814 Y2.1468
X-4.5862 Y2.1401
X-4.5915 Y2.1337
X-4.5973 Y2.1277
X-4.6034 Y2.1222
X-4.6099 Y2.1171
X-4.6168 Y2.1125
X-4.624 Y2.1083
G3 X-4.7473 Y2.1581 I-4.8113 J-11.7337
G2 X-4.7562 Y2.1701 I0.0059 J0.0137
X-4.75 Y2.1822 I0.0122 J0.0014
X-4.6358 Y2.1361 I0.0387 J-0.0686
X-4.6329 Y2.1211 I-0.0755 J-0.0225 F50.
G3 X-4.6243 Y2.109 I0.0148 J0.0014
G1 X-4.6039 Y2.1004 F60.
X-4.5955 Y2.0996
X-4.5871 Y2.0995
X-4.5788 Y2.0999
X-4.5705 Y2.1009
X-4.5623 Y2.1025
X-4.5542 Y2.1048
X-4.5463 Y2.1076
X-4.5386 Y2.1109
X-4.5312 Y2.1149
X-4.5241 Y2.1193
X-4.5174 Y2.1243
X-4.511 Y2.1297
X-4.5051 Y2.1356
X-4.4996 Y2.1419
X-4.4945 Y2.1486
X-4.49 Y2.1557
X-4.486 Y2.163
X-4.4825 Y2.1706
X-4.4796 Y2.1785
X-4.4773 Y2.1865
X-4.4756 Y2.1947
X-4.4745 Y2.203
X-4.4739 Y2.2114
X-4.474 Y2.2198
X-4.4747 Y2.2281
X-4.4761 Y2.2364
X-4.478 Y2.2445
X-4.4805 Y2.2525
G2 X-4.6071 Y2.3027 I2.8355 J7.341
G3 X-4.6256 Y2.2823 I-0.005 J-0.014
X-4.5966 Y2.2526 I0.0576 J0.0271
X-4.5102 Y2.2448 I0.053 J0.1055
X-4.4923 Y2.2517 I-0.0334 J0.1133 F50.
G2 X-4.4809 Y2.2524 I0.0065 J-0.0134
G1 X-4.4578 Y2.2434 F60.
X-4.4515 Y2.2381
X-4.4455 Y2.2324
X-4.44 Y2.2262
X-4.4349 Y2.2197
X-4.4303 Y2.2129
X-4.4261 Y2.2057
X-4.4225 Y2.1983
X-4.4195 Y2.1906
X-4.417 Y2.1827
X-4.4151 Y2.1747
X-4.4137 Y2.1665
X-4.4129 Y2.1583
X-4.4128 Y2.15
X-4.4132 Y2.1418
X-4.4142 Y2.1336
X-4.4157 Y2.1254
X-4.4179 Y2.1175
X-4.4206 Y2.1096
X-4.4238 Y2.1021
X-4.4276 Y2.0947
X-4.4319 Y2.0877
X-4.4367 Y2.0809
X-4.442 Y2.0745
X-4.4477 Y2.0686
X-4.4538 Y2.063
X-4.4603 Y2.0579
X-4.4672 Y2.0533
X-4.4743 Y2.0491
G2 X-4.6039 Y2.1004 I3.7262 J9.5943
X-4.6028 Y2.128 I0.0062 J0.0135
X-4.5586 Y2.1293 I0.0241 J-0.0649
X-4.4907 Y2.0754 I-0.0343 J-0.113
X-4.4825 Y2.058 I-0.1023 J-0.0591 F50.
G3 X-4.4746 Y2.0497 I0.0139 J0.0053
G1 X-4.4509 Y2.04 F60.
G3 X-4.3273 Y2.1719 I0.0076 J0.1168
X-4.3512 Y2.1749 I-0.013 J-0.0073
G1 X-4.3532 Y2.1727
X-4.4539 Y2.0657
X-4.4557 Y2.0638 F50.
G3 X-4.4509 Y2.04 I0.0108 J-0.0102
G1 X-4.4441 Y2.0365 F60.
X-4.4369 Y2.0336
X-4.4296 Y2.0313
X-4.4221 Y2.0296
X-4.4145 Y2.0284
X-4.4068 Y2.0279
X-4.3991 Y2.028
X-4.3914 Y2.0287
X-4.3838 Y2.03
X-4.3763 Y2.032
X-4.369 Y2.0345
X-4.362 Y2.0376
X-4.3552 Y2.0413
X-4.3487 Y2.0454
X-4.3426 Y2.0501
X-4.3369 Y2.0553
X-4.3316 Y2.0609
X-4.3268 Y2.0669
X-4.3224 Y2.0733
X-4.3186 Y2.08
X-4.3154 Y2.087
X-4.3127 Y2.0942
X-4.3106 Y2.1016
X-4.3091 Y2.1092
X-4.3082 Y2.1168
X-4.3079 Y2.1245
X-4.3083 Y2.1322
X-4.3093 Y2.1399
X-4.3108 Y2.1474
X-4.313 Y2.1548
X-4.3157 Y2.162
X-4.3191 Y2.169
X-4.3229 Y2.1756
X-4.3273 Y2.182
X-4.3322 Y2.1879
X-4.3376 Y2.1935
X-4.3433 Y2.1986
X-4.3495 Y2.2032
X-4.356 Y2.2073
X-4.3628 Y2.2109
X-4.3699 Y2.214
X-4.3772 Y2.2164
X-4.3847 Y2.2183
X-4.3923 Y2.2195
X-4.4 Y2.2202
X-4.4077
X-4.4154 Y2.2196
X-4.4463 Y2.2389
X-4.4578 Y2.2434
G3 X-4.4774 Y2.2268 I-0.0049 J-0.0141
G1 X-4.4769 Y2.224 Z-0.2097
X-4.4765 Y2.2212 Z-0.2089
X-4.476 Y2.2187 Z-0.2075
X-4.4757 Y2.2164 Z-0.2056
X-4.4753 Y2.2146 Z-0.2034
X-4.4751 Y2.2133 Z-0.2008
X-4.475 Y2.2124 Z-0.198
X-4.4749 Y2.2121 Z-0.1951
G0 Z0.4
X-5.7646 Y2.5148
Z-0.1802
G1 Z-0.1951 F50.
X-5.7647 Y2.5145 Z-0.198
X-5.7652 Y2.5138 Z-0.2008
X-5.766 Y2.5127 Z-0.2034
X-5.7671 Y2.5112 Z-0.2056
X-5.7685 Y2.5094 Z-0.2075
X-5.77 Y2.5073 Z-0.2089
X-5.7716 Y2.5051 Z-0.2097
X-5.7733 Y2.5027 Z-0.21
G2 X-5.7971 Y2.483 I-0.0504 J0.0366
G1 X-5.8171 Y2.4744 F60.
G2 X-5.9201 Y2.6454 I-0.0015 J0.1156
G1 X-5.8817 Y2.6578
X-5.7787 Y2.6793
G2 X-5.7647 Y2.6741 I0.0025 J-0.0147
X-5.7789 Y2.6173 I-0.0279 J-0.0233
X-5.894 Y2.6319 I-0.0446 J0.1094
X-5.9056 Y2.6418 I0.0705 J0.0948 F50.
G3 X-5.9201 Y2.6454 I-0.0104 J-0.0107
G1 X-5.928 Y2.6429 F60.
X-5.9294 Y2.6422
X-5.9713 Y2.596
G3 X-5.9035 Y2.4015 I0.1091 J-0.0711
G1 X-5.8944 Y2.4115
X-5.8817 Y2.4232
X-5.845 Y2.4576
G3 X-5.8412 Y2.472 I-0.0106 J0.0105
X-5.8908 Y2.4787 I-0.0262 J-0.0071
X-5.9016 Y2.433 I0.0678 J-0.0401
X-5.899 Y2.418 I0.0785 J0.0056 F50.
G2 X-5.9028 Y2.4036 I-0.0144 J-0.0039
G1 X-5.916 Y2.3912 F60.
G2 X-6.0753 Y2.497 I-0.0483 J0.1002
G1 X-6.019 Y2.5499
X-5.9743 Y2.5928
X-5.9713 Y2.596
G2 X-5.9569 Y2.5999 I0.0105 J-0.0105
X-5.9373 Y2.5303 I-0.0108 J-0.0406
X-6.0462 Y2.4959 I-0.0856 J0.0814
X-6.061 Y2.4999 I0.0233 J0.1158 F50.
G3 X-6.0756 Y2.497 I-0.0048 J-0.0141
G1 X-6.095 Y2.4789 F60.
X-6.0992 Y2.4717
X-6.103 Y2.4642
X-6.1062 Y2.4565
X-6.1089 Y2.4486
X-6.1109 Y2.4405
X-6.1124 Y2.4323
X-6.1133 Y2.424
X-6.1136 Y2.4156
X-6.1133 Y2.4072
X-6.1124 Y2.3989
X-6.1109 Y2.3907
X-6.1088 Y2.3826
X-6.1062 Y2.3747
X-6.103 Y2.367
X-6.0992 Y2.3595
X-6.0949 Y2.3523
X-6.0901 Y2.3455
X-6.0848 Y2.339
X-6.0791 Y2.3329
X-6.073 Y2.3272
X-6.0665 Y2.322
X-6.0596 Y2.3173
X-6.0524 Y2.3131
X-6.0449 Y2.3094
X-6.0371 Y2.3062
X-6.0292 Y2.3036
X-6.0211 Y2.3016
X-6.0128 Y2.3002
G2 X-5.916 Y2.3912 I5.9159 J-6.2008
G3 X-5.9122 Y2.4056 I-0.0106 J0.0105
X-5.9214 Y2.4137 I-0.0109 J-0.003
G1 X-5.9237 Y2.414
G3 X-6.0116 Y2.3301 I-0.0094 J-0.0782
X-6.009 Y2.315 I0.0785 J0.0057 F50.
G2 X-6.0128 Y2.3006 I-0.0144 J-0.0039
G1 X-6.0206 Y2.2932 F60.
X-6.0315 Y2.2831
X-6.0393 Y2.2798
X-6.0474 Y2.277
X-6.0556 Y2.2748
X-6.0639 Y2.2733
X-6.0723 Y2.2723
X-6.0808 Y2.272
X-6.0893 Y2.2723
X-6.0977 Y2.2732
X-6.1061 Y2.2747
X-6.1143 Y2.2769
X-6.1223 Y2.2796
X-6.1301 Y2.2829
X-6.1377 Y2.2868
X-6.1449 Y2.2912
X-6.1518 Y2.2961
X-6.1584 Y2.3016
X-6.1645 Y2.3075
X-6.1701 Y2.3138
X-6.1753 Y2.3205
X-6.18 Y2.3276
X-6.1841 Y2.335
X-6.1877 Y2.3427
X-6.1907 Y2.3506
X-6.1931 Y2.3588
X-6.1949 Y2.3671
X-6.1961 Y2.3755
X-6.1967 Y2.3839
X-6.095 Y2.4789
G2 X-6.0804 Y2.4818 I0.0098 J-0.0112
X-6.0661 Y2.4097 I-0.0137 J-0.0401
X-6.1671 Y2.3828 I-0.0777 J0.089
X-6.1819 Y2.3868 I0.0233 J0.1158 F50.
G3 X-6.1965 Y2.3839 I-0.0048 J-0.0141
G1 X-6.2058 Y2.3752 F60.
X-6.2164 Y2.3653
X-6.2203 Y2.3578
X-6.2237 Y2.35
X-6.2265 Y2.3419
X-6.2287 Y2.3337
X-6.2303 Y2.3254
X-6.2313 Y2.3169
X-6.2317 Y2.3084
X-6.2314 Y2.2999
X-6.2306 Y2.2914
X-6.2291 Y2.2831
X-6.227 Y2.2748
X-6.2243 Y2.2667
X-6.221 Y2.2589
X-6.2172 Y2.2513
X-6.2128 Y2.244
X-6.2079 Y2.237
X-6.2025 Y2.2304
X-6.1967 Y2.2243
X-6.1904 Y2.2185
X-6.1837 Y2.2133
X-6.1766 Y2.2085
X-6.1692 Y2.2043
X-6.1616 Y2.2006
X-6.1537 Y2.1975
X-6.1455 Y2.195
X-6.1372 Y2.1931
X-6.1288 Y2.1918
X-6.0315 Y2.2831
G3 X-6.0314 Y2.3042 I-0.0105 J0.0106
X-6.0582 Y2.3088 I-0.0166 J-0.0164
X-6.1228 Y2.2218 I0.0519 J-0.1061
X-6.1244 Y2.2027 I0.1165 J-0.0192 F50.
G2 X-6.1288 Y2.1922 I-0.0149 J0.
G1 X-6.141 Y2.1808 F60.
X-6.1466 Y2.1755
X-6.1541 Y2.172
X-6.1618 Y2.169
X-6.1698 Y2.1666
X-6.1778 Y2.1648
X-6.186 Y2.1636
X-6.1942 Y2.1629
X-6.2025 Y2.1628
X-6.2108 Y2.1634
X-6.219 Y2.1645
X-6.2271 Y2.1662
X-6.235 Y2.1684
X-6.2428 Y2.1712
X-6.2503 Y2.1746
X-6.2576 Y2.1785
X-6.2646 Y2.1829
X-6.2713 Y2.1879
X-6.2776 Y2.1932
X-6.2835 Y2.199
X-6.2889 Y2.2052
X-6.2939 Y2.2118
X-6.2985 Y2.2188
X-6.3025 Y2.226
X-6.306 Y2.2335
X-6.3089 Y2.2412
X-6.3113 Y2.2491
X-6.3131 Y2.2572
X-6.3143 Y2.2654
X-6.315 Y2.2736
X-6.2984 Y2.2885
X-6.2164 Y2.3653
G2 X-6.1918 Y2.353 I0.0098 J-0.0113
X-6.2072 Y2.3165 I-0.0613 J0.0043
X-6.2844 Y2.2775 I-0.0881 J0.0786
X-6.3035 Y2.2773 I-0.011 J0.1176 F50.
G3 X-6.3144 Y2.2737 I-0.001 J-0.0149
G1 X-6.3344 Y2.2549 F60.
X-6.3382 Y2.2473
X-6.3415 Y2.2395
X-6.3442 Y2.2315
X-6.3464 Y2.2233
X-6.3479 Y2.2149
X-6.3488 Y2.2065
X-6.3491 Y2.198
X-6.3488 Y2.1895
X-6.3478 Y2.1811
X-6.3463 Y2.1728
X-6.3441 Y2.1645
X-6.3414 Y2.1565
X-6.3381 Y2.1487
X-6.3342 Y2.1412
X-6.3298 Y2.1339
X-6.3249 Y2.127
X-6.3194 Y2.1205
X-6.3135 Y2.1144
X-6.3072 Y2.1087
X-6.3005 Y2.1035
X-6.2935 Y2.0988
X-6.2861 Y2.0946
X-6.2784 Y2.091
X-6.2705 Y2.088
X-6.2624 Y2.0855
X-6.2541 Y2.0836
X-6.2457 Y2.0824
X-6.1749 Y2.149
X-6.1595 Y2.1634
X-6.1466 Y2.1755
G3 X-6.1573 Y2.2009 I-0.0106 J0.0105
X-6.192 Y2.1897 I0.0003 J-0.0601
X-6.2398 Y2.1125 I0.0688 J-0.096
X-6.2413 Y2.0933 I0.1166 J-0.0188 F50.
G2 X-6.2457 Y2.0828 I-0.0149 J0.
G1 X-6.2663 Y2.0635 F60.
X-6.2741 Y2.0602
X-6.2821 Y2.0575
X-6.2903 Y2.0554
X-6.2986 Y2.0539
X-6.307 Y2.053
X-6.3155 Y2.0527
X-6.3239 Y2.053
X-6.3323 Y2.0539
X-6.3407 Y2.0555
X-6.3488 Y2.0576
X-6.3569 Y2.0603
X-6.3647 Y2.0636
X-6.3722 Y2.0674
X-6.3794 Y2.0718
X-6.3863 Y2.0767
X-6.3929 Y2.0821
X-6.399 Y2.0879
X-6.4047 Y2.0942
X-6.4099 Y2.1008
X-6.4146 Y2.1079
X-6.4188 Y2.1152
X-6.4225 Y2.1228
X-6.4256 Y2.1307
X-6.4281 Y2.1388
X-6.43 Y2.147
X-6.4313 Y2.1554
X-6.4321 Y2.1638
X-6.3344 Y2.2549
G2 X-6.3097 Y2.2427 I0.0098 J-0.0112
X-6.3229 Y2.2097 I-0.0573 J0.0038
X-6.4016 Y2.1679 I-0.0907 J0.0757
X-6.4208 Y2.1675 I-0.0119 J0.1175 F50.
G3 X-6.4316 Y2.1638 I-0.0009 J-0.0149
G1 X-6.4373 Y2.1584 F60.
X-6.4502 Y2.1465
X-6.4541 Y2.1393
X-6.4575 Y2.1317
X-6.4604 Y2.124
X-6.4627 Y2.1161
X-6.4644 Y2.108
X-6.4655 Y2.0998
X-6.4661 Y2.0916
Y2.0833
X-6.4655 Y2.0751
X-6.4643 Y2.0669
X-6.4626 Y2.0589
X-6.4603 Y2.051
X-6.4574 Y2.0432
X-6.454 Y2.0357
X-6.45 Y2.0285
X-6.4456 Y2.0215
X-6.4406 Y2.0149
X-6.4352 Y2.0086
X-6.4294 Y2.0028
X-6.4232 Y1.9974
X-6.4166 Y1.9924
X-6.4097 Y1.9879
X-6.4025 Y1.9839
X-6.395 Y1.9805
X-6.3873 Y1.9775
X-6.3794 Y1.9752
X-6.3713 Y1.9734
X-6.3631 Y1.9721
G2 X-6.2663 Y2.0635 I11.9161 J-12.5372
G3 X-6.2624 Y2.0779 I-0.0106 J0.0105
X-6.2706 Y2.0852 I-0.0098 J-0.0026
G1 X-6.2743 Y2.0858
G3 X-6.3617 Y2.0023 I-0.0089 J-0.0782
X-6.3592 Y1.9872 I0.0786 J0.0053 F50.
G2 X-6.3631 Y1.9728 I-0.0144 J-0.0039
G1 X-6.3822 Y1.9549 F60.
X-6.39 Y1.9515
X-6.398 Y1.9486
X-6.4062 Y1.9463
X-6.4145 Y1.9446
X-6.423 Y1.9436
X-6.4315 Y1.9431
X-6.44 Y1.9433
X-6.4485 Y1.9441
X-6.4568 Y1.9455
X-6.4651 Y1.9476
X-6.4732 Y1.9502
X-6.4811 Y1.9534
X-6.4887 Y1.9572
X-6.496 Y1.9615
X-6.503 Y1.9664
X-6.5096 Y1.9718
X-6.5158 Y1.9776
X-6.5216 Y1.9839
X-6.5269 Y1.9905
X-6.5317 Y1.9976
X-6.5359 Y2.005
X-6.5396 Y2.0126
X-6.5427 Y2.0205
X-6.5453 Y2.0287
X-6.5472 Y2.037
X-6.5485 Y2.0454
X-6.5492 Y2.0538
G3 X-6.4502 Y2.1465 I-6.7978 J7.3666
G2 X-6.4292 Y2.145 I0.0097 J-0.0113
X-6.4264 Y2.1172 I-0.0184 J-0.0158
X-6.5189 Y2.0576 I-0.1029 J0.058
X-6.5381 Y2.0574 I-0.0104 J0.1177 F50.
G3 X-6.5489 Y2.0539 I-0.0011 J-0.0149
G1 X-6.5614 Y2.0423 F60.
X-6.5695 Y2.0344
X-6.5733 Y2.0268
X-6.5765 Y2.019
X-6.5791 Y2.011
X-6.5811 Y2.0028
X-6.5825 Y1.9945
X-6.5834 Y1.986
X-6.5836 Y1.9776
X-6.5832 Y1.9692
X-6.5822 Y1.9608
X-6.5806 Y1.9525
X-6.5783 Y1.9443
X-6.5756 Y1.9363
X-6.5722 Y1.9286
X-6.5683 Y1.9211
X-6.5639 Y1.9139
X-6.5589 Y1.9071
X-6.5535 Y1.9006
X-6.5476 Y1.8945
X-6.5413 Y1.8889
X-6.5346 Y1.8837
X-6.5276 Y1.8791
X-6.5202 Y1.8749
X-6.5126 Y1.8714
X-6.5047 Y1.8683
X-6.4966 Y1.8659
X-6.4884 Y1.864
X-6.48 Y1.8627
G3 X-6.3822 Y1.9549 I-17.7208 J18.8979
X-6.3927 Y1.9804 I-0.0105 J0.0105
X-6.4288 Y1.9682 I0. J-0.0598
X-6.4741 Y1.8929 I0.0713 J-0.0941
X-6.4756 Y1.8738 I0.1166 J-0.0189 F50.
G2 X-6.4799 Y1.8633 I-0.0149 J0.
G1 X-6.4836 Y1.8598 F60.
X-6.4857 Y1.8578
X-6.5004 Y1.8445
X-6.5083 Y1.8412
X-6.5164 Y1.8384
X-6.5246 Y1.8363
X-6.533 Y1.8347
X-6.5415 Y1.8338
X-6.55 Y1.8335
X-6.5585 Y1.8338
X-6.567 Y1.8347
X-6.5754 Y1.8362
X-6.5837 Y1.8384
X-6.5917 Y1.8411
X-6.5996 Y1.8445
X-6.6072 Y1.8484
X-6.6145 Y1.8528
X-6.6214 Y1.8577
X-6.628 Y1.8632
X-6.6341 Y1.8691
X-6.6398 Y1.8754
X-6.645 Y1.8822
X-6.6498 Y1.8893
X-6.6539 Y1.8967
X-6.6576 Y1.9044
X-6.6606 Y1.9124
X-6.6631 Y1.9206
X-6.665 Y1.9289
X-6.6663 Y1.9373
X-6.6669 Y1.9458
G3 X-6.5695 Y2.0344 I-2.059 J2.3601
G2 X-6.555 Y2.0376 I0.01 J-0.0111
X-6.5459 Y2.0263 I-0.0041 J-0.0126
G1 X-6.5458 Y2.0193
X-6.5464 Y2.0123
X-6.5476 Y2.0054
X-6.5494 Y1.9986
X-6.5518 Y1.992
X-6.5547 Y1.9857
X-6.5583 Y1.9796
X-6.5623 Y1.9739
X-6.5669 Y1.9686
X-6.5719 Y1.9636
X-6.5773 Y1.9592
X-6.5831 Y1.9552
X-6.5892 Y1.9518
X-6.5956 Y1.949
X-6.6022 Y1.9467
X-6.609 Y1.945
X-6.616 Y1.9439
X-6.623 Y1.9435
X-6.63 Y1.9437
X-6.6369 Y1.9445
G2 X-6.6517 Y1.9483 I0.0125 J0.0777 F50.
G3 X-6.6664 Y1.9458 I-0.0052 J-0.014
G1 X-6.6688 Y1.9437 F60.
X-6.6872 Y1.9264
X-6.6911 Y1.9189
X-6.6943 Y1.911
X-6.697 Y1.903
X-6.6991 Y1.8948
X-6.7006 Y1.8864
X-6.7015 Y1.878
X-6.7018 Y1.8695
X-6.7015 Y1.861
X-6.7006 Y1.8526
X-6.699 Y1.8443
X-6.6969 Y1.8361
X-6.6941 Y1.828
X-6.6908 Y1.8202
X-6.687 Y1.8127
X-6.6826 Y1.8054
X-6.6777 Y1.7985
X-6.6723 Y1.792
X-6.6664 Y1.7858
X-6.6601 Y1.7802
X-6.6534 Y1.7749
X-6.6464 Y1.7702
X-6.639 Y1.766
X-6.6314 Y1.7623
X-6.6235 Y1.7592
X-6.6154 Y1.7567
X-6.6071 Y1.7548
X-6.5988 Y1.7535
G2 X-6.5004 Y1.8445 I1.9433 J-2.0001
G3 X-6.4963 Y1.8588 I-0.0103 J0.0107
X-6.5049 Y1.8668 I-0.0105 J-0.0026
G1 X-6.5078 Y1.8673
G3 X-6.5976 Y1.7835 I-0.0113 J-0.0779
X-6.595 Y1.7684 I0.0785 J0.0059 F50.
G2 X-6.5987 Y1.754 I-0.0144 J-0.004
G1 X-6.6174 Y1.7363 F60.
G2 X-6.7839 Y1.8318 I-0.0496 J0.1064
X-6.6872 Y1.9264 I1.4284 J-1.3624
X-6.6726 Y1.9293 I0.0098 J-0.0112
X-6.6581 Y1.8677 I-0.012 J-0.0353
X-6.7545 Y1.8334 I-0.0839 J0.0831
X-6.7696 Y1.836 I0.0125 J0.1174 F50.
G3 X-6.7839 Y1.8318 I-0.0035 J-0.0145
G1 X-6.8018 Y1.8116 F60.
X-6.8077 Y1.7917
X-6.8115 Y1.7786
X-6.8118 Y1.7708
X-6.8115 Y1.763
X-6.8107 Y1.7552
X-6.8091 Y1.7475
X-6.807 Y1.74
X-6.8043 Y1.7327
X-6.801 Y1.7256
X-6.7971 Y1.7188
X-6.7927 Y1.7123
X-6.7878 Y1.7062
X-6.7824 Y1.7006
X-6.7766 Y1.6953
X-6.7704 Y1.6906
X-6.7638 Y1.6863
X-6.757 Y1.6826
X-6.7498 Y1.6795
X-6.7424 Y1.677
X-6.7348 Y1.675
X-6.7271 Y1.6737
X-6.7193 Y1.673
X-6.7115 Y1.6729
X-6.7037 Y1.6734
X-6.696 Y1.6746
X-6.6884 Y1.6764
X-6.6809 Y1.6788
X-6.6737 Y1.6818
X-6.6667 Y1.6853
X-6.6601 Y1.6894
X-6.6538 Y1.694
X-6.6478 Y1.6991
X-6.6424 Y1.7047
X-6.6373 Y1.7107
X-6.6328 Y1.7171
X-6.6288 Y1.7238
X-6.6253 Y1.7308
X-6.6225 Y1.7381
X-6.6136 Y1.7338
X-6.6044 Y1.73
X-6.5951 Y1.7269
X-6.5855 Y1.7243
X-6.5759 Y1.7223
X-6.5661 Y1.7209
X-6.5562 Y1.7201
X-6.5464 Y1.72
X-6.5365 Y1.7204
X-6.5267 Y1.7214
X-6.5169 Y1.7231
X-6.5073 Y1.7253
X-6.4979 Y1.7282
X-6.4886 Y1.7316
X-6.4796 Y1.7356
X-6.4708 Y1.7401
X-6.4623 Y1.7452
X-6.4542 Y1.7508
X-6.4464 Y1.7568
X-6.439 Y1.7634
X-6.432 Y1.7703
X-6.4255 Y1.7777
X-6.4194 Y1.7855
X-6.4138 Y1.7937
X-6.4088 Y1.8022
X-6.4042 Y1.8109
G3 X-6.2612 Y1.9313 I-0.5329 J0.7785
G1 X-6.0157 Y2.161
G2 X-5.7048 Y2.3994 I0.6082 J-0.4715
X-5.329 Y2.2817 I-0.182 J-1.2406
G1 X-5.1302 Y2.2026
X-4.9313 Y2.1236
G3 X-4.3914 Y1.928 I1.3809 J2.9686
X-4.4046 Y2.3179 I-0.0263 J0.1943
X-5.1704 Y2.6338 I-5.3402 J-11.8603
X-5.6298 Y2.7974 I-0.8882 J-1.7673
X-6.117 Y2.5952 I-0.0474 J-0.5738
G1 X-6.2287 Y2.4908
X-6.4072 Y2.3237
X-6.5074 Y2.2294
X-6.6078 Y2.1354
X-6.7085 Y2.0418
X-6.8096 Y1.9484
G3 X-6.8726 Y1.6708 I0.1019 J-0.1691
X-6.5926 Y1.6189 I0.1649 J0.1086
X-6.2275 Y1.8263 I-0.0743 J0.5558
G1 X-6.2051 Y1.8471
X-6.1604 Y1.8888
X-6.0041 Y2.0349
X-5.7809 Y2.2437
G2 X-5.4961 Y2.24 I0.1397 J-0.2048
G3 X-4.4701 Y1.844 I8.0961 J19.4521
X-4.3433 Y2.3994 I0.0594 J0.2786
X-5.5645 Y2.8865 I-7.1175 J-16.0712
X-6.1767 Y2.678 I-0.1054 J-0.6937
G1 X-6.1979 Y2.6562
X-6.2427 Y2.6145
X-6.332 Y2.531
X-6.5329 Y2.343
G3 X-6.9628 Y1.9111 I1.7574 J-2.1789
X-6.6064 Y1.5109 I0.2465 J-0.1393
X-6.428 Y1.5535 I-0.0197 J0.4774
X-5.9805 Y1.9201 I-1.075 J1.7685
G1 X-5.7573 Y2.1289
G2 X-5.5085 Y2.1283 I0.1241 J-0.1411
X-4.7359 Y1.8304 I-3.6788 J-10.692
G3 X-4.6102 Y1.7828 I0.1477 J0.2002
G1 X-4.3421 Y1.8234
G3 X-4.156 Y2.2974 I-0.03 J0.2853
G1 X-4.2822 Y2.4591
G3 X-4.7071 Y2.6654 I-0.7652 J-1.0359
X-5.5333 Y2.9853 I-5.8487 J-13.8744
X-6.1213 Y2.861 I-0.1135 J-0.9154
X-6.4365 Y2.5702 I14.1789 J-15.6857
G1 X-6.615 Y2.4031
G3 X-6.9596 Y2.078 I9.1057 J-9.9983
G1 X-7.0125 Y1.8353
G3 X-6.6806 Y1.4694 I0.2755 J-0.0836
G1 X-6.3333 Y1.522
G3 X-5.975 Y1.7884 I-0.4261 J0.947
G1 X-5.8857 Y1.8719
X-5.7294 Y2.018
X-5.7207 Y2.0245
X-5.7117 Y2.0304
X-5.7023 Y2.0359
X-5.6926 Y2.0408
X-5.6827 Y2.0451
X-5.6725 Y2.0489
X-5.6622 Y2.0521
X-5.6517 Y2.0548
X-5.641 Y2.0568
X-5.6303 Y2.0582
X-5.6194 Y2.059
X-5.6086 Y2.0592
X-5.5978 Y2.0588
X-5.587 Y2.0578
X-5.5763 Y2.0562
X-5.5657 Y2.054
X-5.5552 Y2.0512
X-5.5449 Y2.0478
X-5.5348 Y2.0438
X-5.525 Y2.0393
X-5.5154 Y2.0342
X-5.5061 Y2.0286
X-5.4972 Y2.0225
X-5.4886 Y2.0159
X-5.4804 Y2.0088
G2 X-4.8089 Y1.7516 I-2.8218 J-8.3721
G1 X-4.6102 Y1.7828
G3 X-4.5989 Y1.7925 I-0.0027 J0.0146
X-4.6021 Y1.8066 I-0.0128 J0.0045
X-4.791 Y1.7766 I-0.0836 J-0.0835
X-4.797 Y1.7625 I0.1053 J-0.0534 F50.
G2 X-4.8083 Y1.7528 I-0.014 J0.005
G1 X-4.9441 Y1.7323 F60.
G2 X-5.4213 Y1.8877 I0.2656 J1.6252
G3 X-5.6659 Y1.9283 I-0.1619 J-0.2186
G1 X-5.8725 Y1.7445
X-6.0787 Y1.5603
X-6.3333 Y1.522
G2 X-6.3469 Y1.5279 I-0.0017 J0.0148
X-6.3473 Y1.5634 I0.0243 J0.0181
X-6.1023 Y1.5782 I0.1285 J-0.0911
X-6.0926 Y1.5664 I-0.1166 J-0.1059 F50.
G3 X-6.0789 Y1.5605 I0.012 J0.0089
G1 X-5.9628 Y1.578 F60.
G3 X-5.6503 Y1.8129 I-0.5401 J1.0443
G2 X-5.3888 Y1.7671 I0.0749 J-0.3414
G3 X-5.1987 Y1.6937 I0.7321 J1.6143
G1 X-4.9441 Y1.7323
G3 X-4.9328 Y1.7419 I-0.0027 J0.0146
X-4.9427 Y1.7757 I-0.0283 J0.01
X-5.1816 Y1.7176 I-0.0962 J-0.1247
X-5.1874 Y1.7034 I0.1427 J-0.0666 F50.
G2 X-5.1987 Y1.6937 I-0.014 J0.005
G1 X-5.3317 Y1.6736 F60.
G2 X-5.5613 Y1.7175 I0.0963 J1.127
G3 X-5.7246 Y1.6141 I0.2552 J-0.5838
G1 X-5.9628 Y1.578
G2 X-5.9765 Y1.584 I-0.0017 J0.0148
X-5.971 Y1.642 I0.0349 J0.026
X-5.748 Y1.6319 I0.1065 J-0.1161
X-5.7382 Y1.62 I-0.1166 J-0.1059 F50.
G3 X-5.7246 Y1.6141 I0.012 J0.0089
G1 X-5.3317 Y1.6736 F60.
G3 X-5.323 Y1.6977 I-0.0027 J0.0146
G1 X-5.3248 Y1.7 Z-0.2097
X-5.3266 Y1.7021 Z-0.2089
X-5.3282 Y1.7041 Z-0.2075
X-5.3297 Y1.7058 Z-0.2056
X-5.3308 Y1.7073 Z-0.2034
X-5.3317 Y1.7083 Z-0.2008
X-5.3322 Y1.709 Z-0.198
X-5.3324 Y1.7092 Z-0.1951
G0 Z-0.1802
X-4.269 Y2.4156
G1 Z-0.1951 F50.
Y2.4159 Z-0.198
X-4.2691 Y2.4167 Z-0.2008
X-4.2693 Y2.4181 Z-0.2034
X-4.2695 Y2.4199 Z-0.2056
X-4.2698 Y2.4222 Z-0.2075
X-4.2701 Y2.4247 Z-0.2089
X-4.2705 Y2.4275 Z-0.2097
X-4.2708 Y2.4304 Z-0.21
G3 X-4.2822 Y2.4591 I-0.0618 J-0.0078
G1 X-4.3994 Y2.6093 F60.
G3 X-4.7194 Y2.7778 I-0.5851 J-0.7231
G1 X-4.9465 Y2.8683
X-5.2305 Y2.9814
G3 X-6.2396 Y2.893 I-0.4356 J-0.831
G2 X-6.5069 Y2.6412 I-8.9007 J9.1833
G1 X-6.6632 Y2.495
G3 X-6.9197 Y2.2539 I1.2785 J-1.6171
G1 X-6.9589 Y2.0772
G3 X-6.9539 Y2.0632 I0.0147 J-0.0027
X-6.9105 Y2.0642 I0.0211 J0.0247
X-6.9038 Y2.2292 I-0.0811 J0.0859
X-6.9147 Y2.2399 I-0.0878 J-0.079 F50.
G2 X-6.9197 Y2.2539 I0.0097 J0.0113
G1 X-6.8947 Y2.3667 F60.
G2 X-6.5599 Y2.7286 I1.1707 J-0.7473
X-6.0245 Y3.1265 I1.1963 J-1.0503
G1 X-6.0008 Y3.1346
X-5.977 Y3.1422
X-5.9529 Y3.1491
X-5.9288 Y3.1555
X-5.9044 Y3.1613
X-5.88 Y3.1665
X-5.8554 Y3.1711
X-5.8307 Y3.1751
X-5.8059 Y3.1786
X-5.7811 Y3.1814
X-5.7562 Y3.1836
X-5.7312 Y3.1853
X-5.7062 Y3.1863
X-5.6812 Y3.1868
X-5.6562 Y3.1866
X-5.6312 Y3.1859
X-5.6062 Y3.1845
X-5.5813 Y3.1825
X-5.5564 Y3.18
X-5.5316 Y3.1768
X-5.5069 Y3.1731
X-5.4822 Y3.1688
X-5.4577 Y3.1638
X-5.4333 Y3.1583
X-5.4091 Y3.1522
X-5.385 Y3.1456
X-5.361 Y3.1383
X-5.3373 Y3.1305
X-5.3137 Y3.1221
X-5.2904 Y3.1131
X-5.2672 Y3.1036
X-5.2443 Y3.0936
X-5.2217 Y3.083
X-5.1924 Y3.0736
X-5.1355 Y3.0511
X-4.9935 Y2.9946
X-4.7663 Y2.9042
G2 X-4.5656 Y2.8223 I-0.943 J-2.5998
G1 X-4.3994 Y2.6093
G2 X-4.3978 Y2.5945 I-0.0121 J-0.0088
X-4.4095 Y2.5864 I-0.0126 J0.0056
X-4.5695 Y2.7932 I-0.0106 J0.1571
X-4.564 Y2.8075 I0.1494 J-0.0497 F50.
G3 X-4.5656 Y2.8223 I-0.0136 J0.0061
G1 X-4.6428 Y2.9212 F60.
G3 X-5.0489 Y3.1243 I-0.7046 J-0.9016
X-5.7871 Y3.2787 I-0.6324 J-1.1816
X-6.4597 Y2.9529 I0.0916 J-1.0462
X-6.8442 Y2.5968 I5.3451 J-6.1575
G1 X-6.8947 Y2.3667
G3 X-6.8897 Y2.3527 I0.0147 J-0.0027
X-6.8246 Y2.3568 I0.0304 J0.0356
X-6.8277 Y2.5718 I-0.1166 J0.1058
X-6.8388 Y2.5823 I-0.1135 J-0.1091 F50.
G2 X-6.8438 Y2.5963 I0.0097 J0.0113
G1 X-6.8195 Y2.7059 F60.
G2 X-6.5487 Y3.0112 I0.9061 J-0.5309
G1 X-6.5295 Y3.0306
X-6.5099 Y3.0497
X-6.4898 Y3.0683
X-6.4694 Y3.0864
X-6.4485 Y3.1041
X-6.4272 Y3.1213
X-6.4056 Y3.138
X-6.3836 Y3.1542
X-6.3612 Y3.17
X-6.3385 Y3.1852
X-6.3155 Y3.1999
X-6.2921 Y3.2141
X-6.2684 Y3.2278
X-6.2444 Y3.2409
X-6.2202 Y3.2535
X-6.1956 Y3.2656
X-6.1708 Y3.2771
X-6.1457 Y3.288
X-6.1204 Y3.2984
X-6.0949 Y3.3082
X-6.0692 Y3.3175
X-6.0432 Y3.3261
X-6.0171 Y3.3342
X-5.9908 Y3.3417
X-5.9643 Y3.3486
X-5.9377 Y3.3549
X-5.911 Y3.3606
X-5.8841 Y3.3657
X-5.8571 Y3.3702
X-5.8301 Y3.3741
X-5.8029 Y3.3774
X-5.7757 Y3.3801
X-5.7484 Y3.3822
X-5.7211 Y3.3837
X-5.6938 Y3.3845
X-5.6664 Y3.3848
X-5.6391 Y3.3844
X-5.6118 Y3.3834
X-5.5845 Y3.3818
X-5.5572 Y3.3796
X-5.53 Y3.3768
X-5.5029 Y3.3734
X-5.4758 Y3.3694
X-5.4489 Y3.3647
X-5.422 Y3.3595
X-5.3953 Y3.3537
X-5.3687 Y3.3472
X-5.3423 Y3.3402
X-5.316 Y3.3326
X-5.2899 Y3.3244
X-5.264 Y3.3156
X-5.2383 Y3.3063
X-5.2129 Y3.2963
X-5.1876 Y3.2859
X-5.1626 Y3.2748
X-5.1378 Y3.2632
X-5.1133 Y3.251
G2 X-4.8093 Y3.1346 I-0.9902 J-3.0428
G1 X-4.6428 Y2.9212
G2 X-4.6412 Y2.9064 I-0.0121 J-0.0088
X-4.652 Y2.8988 I-0.0118 J0.0053
G1 X-4.6534 Y2.8987
G2 X-4.8132 Y3.1055 I-0.0104 J0.1571
X-4.8077 Y3.1198 I0.1494 J-0.0497 F50.
G3 X-4.8093 Y3.1346 I-0.0136 J0.0061
G1 X-4.8861 Y3.2332 F60.
G3 X-5.2662 Y3.4187 I-0.6393 J-0.8274
X-6.6785 Y3.0155 I-0.4066 J-1.2508
X-6.7672 Y2.9416 I0.0474 J-0.1472
G1 X-6.8195 Y2.7059
G3 X-6.8145 Y2.6919 I0.0147 J-0.0027
X-6.7568 Y2.6932 I0.0281 J0.0328
X-6.7511 Y2.9171 I-0.1079 J0.1147
X-6.7623 Y2.9276 I-0.1135 J-0.1091 F50.
G2 X-6.7672 Y2.9416 I0.0097 J0.0113
G1 X-6.7433 Y3.0495 F60.
G2 X-6.4608 Y3.3398 I0.6898 J-0.3886
X-6.2571 Y3.4573 I0.7125 J-1.
G1 X-5.8702 Y3.561
G2 X-5.0526 Y3.4436 I0.2251 J-1.3377
G1 X-4.8861 Y3.2332
G2 X-4.8846 Y3.2183 I-0.0121 J-0.0088
X-4.8976 Y3.2094 I-0.0139 J0.0062
X-5.0557 Y3.4163 I-0.0087 J0.1572
X-5.0502 Y3.4306 I0.1494 J-0.0497 F50.
G3 X-5.0517 Y3.4454 I-0.0136 J0.0061
G1 X-5.1293 Y3.5448 F60.
G3 X-5.4707 Y3.668 I-0.3979 J-0.568
X-5.4767 Y3.6431 I0.0044 J-0.0142
G1 X-5.4746 Y3.641 Z-0.2097
X-5.4726 Y3.6391 Z-0.2089
X-5.4708 Y3.6373 Z-0.2075
X-5.4692 Y3.6357 Z-0.2056
X-5.4678 Y3.6344 Z-0.2034
X-5.4668 Y3.6335 Z-0.2008
X-5.4662 Y3.6329 Z-0.198
X-5.466 Y3.6327 Z-0.1951
G0 Z-0.1802
X-5.1161 Y3.5013
G1 Z-0.1951 F50.
Y3.5016 Z-0.198
X-5.1162 Y3.5024 Z-0.2008
X-5.1164 Y3.5038 Z-0.2034
X-5.1166 Y3.5056 Z-0.2056
X-5.1169 Y3.5079 Z-0.2075
X-5.1172 Y3.5104 Z-0.2089
X-5.1176 Y3.5132 Z-0.2097
X-5.1179 Y3.5161 Z-0.21
G3 X-5.1293 Y3.5448 I-0.0618 J-0.0078
G1 X-5.2298 Y3.6736 F60.
G3 X-5.287 Y3.7172 I-0.0647 J-0.0255
X-5.293 Y3.6923 I0.0044 J-0.0142
G1 X-5.252 Y3.654
G3 X-5.24 Y3.6501 I0.0102 J0.0109
X-5.2298 Y3.6736 I-0.0018 J0.0148 F50.
X-5.2711 Y3.7191 I-0.0553 J-0.0087 F60.
G1 X-5.2827 Y3.7183
X-5.2834 Y3.7182
X-5.8702 Y3.561
G3 X-5.8762 Y3.536 I0.0044 J-0.0142
G1 X-5.8741 Y3.534 Z-0.2097
X-5.8721 Y3.5321 Z-0.2089
X-5.8703 Y3.5303 Z-0.2075
X-5.8687 Y3.5287 Z-0.2056
X-5.8673 Y3.5274 Z-0.2034
X-5.8663 Y3.5264 Z-0.2008
X-5.8657 Y3.5259 Z-0.198
X-5.8655 Y3.5257 Z-0.1951
G0 Z-0.1802
X-6.2118 Y3.4525
G1 Z-0.1951 F50.
X-6.2121 Y3.4526 Z-0.198
X-6.2129 Y3.4528 Z-0.2008
X-6.2142 Y3.4532 Z-0.2034
X-6.216 Y3.4537 Z-0.2056
X-6.2182 Y3.4543 Z-0.2075
X-6.2207 Y3.455 Z-0.2089
X-6.2234 Y3.4558 Z-0.2097
X-6.2262 Y3.4566 Z-0.21
G3 X-6.2571 Y3.4573 I-0.0169 J-0.06
G1 X-6.5185 Y3.3873 F60.
G3 X-6.6927 Y3.2777 I0.1466 J-0.4263
X-6.6704 Y3.2622 I0.0147 J-0.0027
G1 X-6.5075 Y3.36
G3 X-6.5008 Y3.3687 I-0.0077 J0.0128
X-6.5185 Y3.3873 I-0.0143 J0.0041 F50.
G1 X-6.6639 Y3.3483 F60.
G3 X-6.681 Y3.3304 I0.0033 J-0.0203
G1 X-6.7433 Y3.0495
G3 X-6.738 Y3.0352 I0.0147 J-0.0027
G1 X-6.7359 Y3.0341 Z-0.2098
X-6.7339 Y3.0332 Z-0.2093
X-6.7319 Y3.0322 Z-0.2084
X-6.7302 Y3.032 Z-0.2073
X-6.7287 Y3.0319 Z-0.206
X-6.7267 Y3.0322 Z-0.2037
X-6.7252 Y3.0324 Z-0.2011
X-6.7243 Y3.0326 Z-0.1982
X-6.724 Z-0.1951
G0 Z-0.11
X-5.7552 Y2.6355
G3 X-5.6377 Y2.5566 Z-0.1492 I0.0587 J-0.0395 F50.
X-5.7552 Y2.6355 Z-0.1884 I-0.0587 J0.0395
X-5.6377 Y2.5566 Z-0.2276 I0.0587 J-0.0395
X-5.6257 Y2.596 Z-0.235 I-0.0587 J0.0395
X-5.7672 I-0.0708 J0.
X-5.6257 I0.0708 J0.
X-5.6156 Y2.6977 I-0.0476 J0.056 F60.
X-5.7787 Y2.6793 I-0.0341 J-0.429
X-5.798 Y2.4817 I0.0447 J-0.1041
G2 X-5.6453 Y2.5142 I0.2518 J-0.8087
G1 X-5.6366 Y2.5143
X-5.6279 Y2.515
X-5.6192 Y2.5163
X-5.6107 Y2.5183
X-5.6023 Y2.5207
X-5.5941 Y2.5238
X-5.5862 Y2.5274
X-5.5785 Y2.5315
X-5.5711 Y2.5361
X-5.564 Y2.5413
X-5.5573 Y2.5469
X-5.551 Y2.5529
X-5.5451 Y2.5594
X-5.5396 Y2.5662
X-5.5347 Y2.5734
X-5.5302 Y2.5809
X-5.5263 Y2.5887
X-5.5229 Y2.5967
X-5.52 Y2.605
X-5.5177 Y2.6134
X-5.516 Y2.622
X-5.5149 Y2.6307
X-5.5144 Y2.6394
Y2.6481
X-5.5151 Y2.6568
X-5.5163 Y2.6655
G3 X-5.6156 Y2.6977 I-0.26 J-0.6324
X-5.6295 Y2.6923 I-0.0022 J-0.0147
X-5.6219 Y2.6536 I0.0201 J-0.0161
X-5.545 Y2.6538 I0.0383 J0.0688
X-5.5325 Y2.6625 I-0.0385 J0.0687 F50.
G2 X-5.5178 Y2.6652 I0.0097 J-0.0113
G1 X-5.5113 Y2.6626 F60.
X-5.4985 Y2.6575
X-5.4924 Y2.6521
X-5.4867 Y2.6463
X-5.4814 Y2.64
X-5.4765 Y2.6334
X-5.4722 Y2.6265
X-5.4683 Y2.6192
X-5.465 Y2.6117
X-5.4623 Y2.604
X-5.4601 Y2.5961
X-5.4584 Y2.5881
X-5.4574 Y2.58
X-5.4569 Y2.5718
X-5.457 Y2.5636
X-5.4577 Y2.5555
X-5.459 Y2.5474
X-5.4609 Y2.5394
X-5.4633 Y2.5316
X-5.4663 Y2.5239
X-5.4699 Y2.5166
X-5.4739 Y2.5094
X-5.4784 Y2.5026
X-5.4835 Y2.4962
X-5.4889 Y2.4901
X-5.4948 Y2.4844
X-5.5011 Y2.4791
X-5.5078 Y2.4744
X-5.5148 Y2.4701
X-5.522 Y2.4663
G3 X-5.6452 Y2.5132 I-0.5307 J-1.2094
G2 X-5.6547 Y2.5247 I0.0053 J0.0139
X-5.6488 Y2.538 I0.0131 J0.0022
G1 X-5.6429 Y2.5411
X-5.6366 Y2.5438
X-5.6302 Y2.5459
X-5.6236 Y2.5474
X-5.617 Y2.5484
X-5.6102 Y2.5488
X-5.6035 Y2.5486
X-5.5967 Y2.5478
X-5.5901 Y2.5465
X-5.5836 Y2.5446
X-5.5773 Y2.5421
X-5.5713 Y2.5392
X-5.5655 Y2.5357
X-5.56 Y2.5317
X-5.5549 Y2.5273
X-5.5502 Y2.5224
X-5.5459 Y2.5172
X-5.5421 Y2.5116
X-5.5388 Y2.5057
X-5.536 Y2.4996
X-5.5337 Y2.4932
G2 X-5.5307 Y2.4782 I-0.0753 J-0.0231 F50.
G3 X-5.522 Y2.4661 I0.0148 J0.0015
G1 X-5.5113 Y2.4618 F60.
X-5.4952 Y2.4555
X-5.4867 Y2.4553
X-5.4782 Y2.4556
X-5.4697 Y2.4566
X-5.4614 Y2.4582
X-5.4532 Y2.4603
X-5.4452 Y2.4631
X-5.4373 Y2.4664
X-5.4298 Y2.4703
X-5.4225 Y2.4747
X-5.4156 Y2.4796
X-5.409 Y2.485
X-5.4029 Y2.4908
X-5.3972 Y2.4971
X-5.3919 Y2.5038
X-5.3872 Y2.5108
X-5.3829 Y2.5182
X-5.3792 Y2.5258
X-5.3761 Y2.5337
X-5.3735 Y2.5418
X-5.3715 Y2.55
X-5.3701 Y2.5584
X-5.3694 Y2.5669
X-5.3692 Y2.5754
X-5.3696 Y2.5838
X-5.3707 Y2.5923
X-5.3723 Y2.6006
X-5.3746 Y2.6088
G2 X-5.4985 Y2.6575 I2.5257 J6.6037
G3 X-5.5132 Y2.6549 I-0.005 J-0.014
X-5.5165 Y2.6438 I0.0069 J-0.0081
G1 X-5.5156 Y2.6409
G3 X-5.4025 Y2.5971 I0.0747 J0.0249
X-5.3899 Y2.6059 I-0.0385 J0.0687 F50.
G2 X-5.3753 Y2.6086 I0.0097 J-0.0113
G1 X-5.3503 Y2.5986 F60.
X-5.3439 Y2.593
X-5.338 Y2.5869
X-5.3326 Y2.5803
X-5.3277 Y2.5735
X-5.3232 Y2.5662
X-5.3193 Y2.5587
X-5.316 Y2.5509
X-5.3133 Y2.5429
X-5.3111 Y2.5347
X-5.3095 Y2.5263
X-5.3086 Y2.5179
X-5.3083 Y2.5094
X-5.3085 Y2.501
X-5.3095 Y2.4925
X-5.311 Y2.4842
X-5.3131 Y2.476
X-5.3158 Y2.468
X-5.3191 Y2.4601
X-5.3229 Y2.4526
X-5.3273 Y2.4453
X-5.3323 Y2.4384
X-5.3377 Y2.4319
X-5.3435 Y2.4258
X-5.3498 Y2.4201
X-5.3565 Y2.4149
X-5.3635 Y2.4102
X-5.3709 Y2.406
X-5.4187 Y2.4255
X-5.465 Y2.4437
X-5.4952 Y2.4555
G2 X-5.4947 Y2.483 I0.0059 J0.0137
X-5.4558 Y2.4849 I0.0221 J-0.0557
X-5.3874 Y2.4318 I-0.0332 J-0.1134
X-5.379 Y2.4145 I-0.1016 J-0.0603 F50.
G3 X-5.3711 Y2.4063 I0.0139 J0.0054
G1 X-5.348 Y2.3971 F60.
X-5.3398 Y2.3966
X-5.3315
X-5.3232 Y2.3972
X-5.3151 Y2.3984
X-5.307 Y2.4002
X-5.2991 Y2.4025
X-5.2913 Y2.4055
X-5.2838 Y2.4089
X-5.2766 Y2.4129
X-5.2696 Y2.4174
X-5.263 Y2.4224
X-5.2568 Y2.4278
X-5.251 Y2.4337
X-5.2456 Y2.4399
X-5.2407 Y2.4466
X-5.2362 Y2.4535
X-5.2323 Y2.4608
X-5.2289 Y2.4683
X-5.226 Y2.4761
X-5.2237 Y2.484
X-5.222 Y2.4921
X-5.2209 Y2.5003
X-5.2203 Y2.5085
X-5.2204 Y2.5168
X-5.221 Y2.525
X-5.2222 Y2.5332
X-5.224 Y2.5413
X-5.2264 Y2.5492
X-5.2334 Y2.5519
X-5.3503 Y2.5986
G3 X-5.3649 Y2.596 I-0.005 J-0.014
X-5.3681 Y2.5857 I0.0064 J-0.0076
G1 X-5.3669 Y2.5819
G3 X-5.2538 Y2.5377 I0.0748 J0.0246
X-5.2412 Y2.5465 I-0.0383 J0.0688 F50.
G2 X-5.2266 Y2.5491 I0.0096 J-0.0114
G1 X-5.206 Y2.5409 F60.
X-5.1994 Y2.5358
X-5.1933 Y2.5302
X-5.1876 Y2.5241
X-5.1823 Y2.5176
X-5.1775 Y2.5108
X-5.1732 Y2.5037
X-5.1695 Y2.4962
X-5.1663 Y2.4885
X-5.1637 Y2.4806
X-5.1616 Y2.4726
X-5.1601 Y2.4643
X-5.1593 Y2.4561
X-5.159 Y2.4477
X-5.1594 Y2.4394
X-5.1603 Y2.4311
X-5.1619 Y2.4229
X-5.164 Y2.4149
X-5.1667 Y2.407
X-5.17 Y2.3994
X-5.1738 Y2.392
X-5.1782 Y2.3849
X-5.183 Y2.3781
X-5.1884 Y2.3717
X-5.1942 Y2.3657
X-5.2004 Y2.3601
X-5.207 Y2.355
X-5.2139 Y2.3504
X-5.2212 Y2.3464
G2 X-5.348 Y2.3971 I3.3698 J8.5999
X-5.3557 Y2.4168 I0.006 J0.0136
X-5.3352 Y2.4297 I0.0197 J-0.0086
X-5.2378 Y2.3722 I-0.0039 J-0.118
X-5.2293 Y2.355 I-0.1014 J-0.0606 F50.
G3 X-5.2214 Y2.3468 I0.0139 J0.0055
G1 X-5.1945 Y2.3362 F60.
G3 X-5.0782 Y2.4902 I0.0024 J0.1191
G1 X-5.1408 Y2.5152
X-5.1871 Y2.5335
X-5.206 Y2.5409
G3 X-5.2244 Y2.5205 I-0.005 J-0.014
X-5.204 Y2.4973 I0.051 J0.0242
X-5.1076 Y2.4829 I0.064 J0.0992
X-5.0896 Y2.4897 I-0.0324 J0.1136 F50.
G2 X-5.0782 Y2.4902 I0.0064 J-0.0135
G1 X-5.0547 Y2.4808 F60.
X-5.0484 Y2.4755
X-5.0424 Y2.4698
X-5.0369 Y2.4636
X-5.0319 Y2.4571
X-5.0273 Y2.4502
X-5.0232 Y2.443
X-5.0196 Y2.4355
X-5.0166 Y2.4278
X-5.0142 Y2.4199
X-5.0123 Y2.4119
X-5.0109 Y2.4037
X-5.0102 Y2.3955
X-5.0101 Y2.3872
X-5.0105 Y2.379
X-5.0115 Y2.3708
X-5.0131 Y2.3627
X-5.0153 Y2.3547
X-5.018 Y2.3469
X-5.0213 Y2.3393
X-5.0251 Y2.332
X-5.0295 Y2.3249
X-5.0343 Y2.3182
X-5.0396 Y2.3119
X-5.0453 Y2.3059
X-5.0514 Y2.3003
X-5.0579 Y2.2953
X-5.0648 Y2.2906
X-5.0719 Y2.2865
G3 X-5.1945 Y2.3362 I-5.2521 J-12.777
G2 X-5.2034 Y2.3482 I0.0059 J0.0137
X-5.197 Y2.3604 I0.0123 J0.0014
X-5.084 Y2.3142 I0.0377 J-0.0691
X-5.081 Y2.2992 I-0.0753 J-0.0229 F50.
G3 X-5.0723 Y2.2871 I0.0148 J0.0015
G1 X-5.0482 Y2.2773 F60.
X-5.0397 Y2.2769
X-5.0312 Y2.2771
X-5.0227 Y2.278
X-5.0142 Y2.2795
X-5.006 Y2.2815
X-4.9978 Y2.2842
X-4.99 Y2.2875
X-4.9823 Y2.2914
X-4.975 Y2.2958
X-4.968 Y2.3007
X-4.9614 Y2.3061
X-4.9552 Y2.312
X-4.9495 Y2.3184
X-4.9443 Y2.3251
X-4.9395 Y2.3322
X-4.9353 Y2.3396
X-4.9316 Y2.3474
X-4.9286 Y2.3553
X-4.9261 Y2.3635
X-4.9242 Y2.3718
X-4.9229 Y2.3803
X-4.9223 Y2.3888
Y2.3973
X-4.9229 Y2.4059
X-4.9241 Y2.4143
X-4.926 Y2.4227
X-4.9285 Y2.4308
G2 X-5.0547 Y2.4808 I3.0489 J7.8808
G3 X-5.0732 Y2.4605 I-0.005 J-0.014
X-5.0461 Y2.4322 I0.0558 J0.0263
X-4.9581 Y2.4233 I0.055 J0.1045
X-4.9402 Y2.4301 I-0.033 J0.1134 F50.
G2 X-4.9288 Y2.4307 I0.0064 J-0.0134
G1 X-4.9093 Y2.4231 F60.
X-4.9013 Y2.4199
G2 X-4.923 Y2.228 I-0.0812 J-0.088
G3 X-5.0482 Y2.2773 I-2.9373 J-7.2758
G2 X-5.0557 Y2.297 I0.0061 J0.0136
X-5.0306 Y2.3117 I0.0229 J-0.0103
X-4.9391 Y2.2536 I-0.0105 J-0.1176
X-4.9308 Y2.2362 I-0.102 J-0.0595 F50.
G3 X-4.923 Y2.228 I0.0139 J0.0053
G1 X-4.9093 Y2.2224 F60.
X-4.8966 Y2.2174
G3 X-4.7793 Y2.3711 I0.0034 J0.1191
G1 X-4.9013 Y2.4199
G3 X-4.916 Y2.4173 I-0.005 J-0.014
X-4.9196 Y2.4046 I0.0076 J-0.009
G1 X-4.9192 Y2.4033
G3 X-4.8065 Y2.3598 I0.0745 J0.0254
X-4.7939 Y2.3685 I-0.0381 J0.0689 F50.
G2 X-4.7793 Y2.3711 I0.0096 J-0.0114
G1 X-4.7704 Y2.3675 F60.
X-4.7651 Y2.3653
X-4.7538 Y2.3609
X-4.7475 Y2.3552
X-4.7416 Y2.3492
X-4.7361 Y2.3427
X-4.7311 Y2.3358
X-4.7267 Y2.3286
X-4.7227 Y2.3211
X-4.7194 Y2.3133
X-4.7166 Y2.3053
X-4.7144 Y2.2971
X-4.7128 Y2.2888
X-4.7118 Y2.2804
X-4.7114 Y2.2719
X-4.7116 Y2.2635
X-4.7125 Y2.255
X-4.7139 Y2.2467
X-4.716 Y2.2384
X-4.7187 Y2.2304
X-4.7219 Y2.2226
X-4.7257 Y2.215
X-4.73 Y2.2077
X-4.7349 Y2.2008
X-4.7402 Y2.1942
X-4.746 Y2.188
X-4.7523 Y2.1823
X-4.7589 Y2.177
X-4.7659 Y2.1723
X-4.7733 Y2.168
G2 X-4.8966 Y2.2174 I1.9147 J4.959
X-4.8961 Y2.2449 I0.006 J0.0137
X-4.8629 Y2.2471 I0.0201 J-0.0513
X-4.79 Y2.1937 I-0.0282 J-0.1147
X-4.7814 Y2.1765 I-0.101 J-0.0612 F50.
G3 X-4.7735 Y2.1684 I0.0138 J0.0056
G1 X-4.7473 Y2.1581 F60.
X-4.7388 Y2.158
X-4.7304 Y2.1584
X-4.722 Y2.1594
X-4.7137 Y2.161
X-4.7055 Y2.1633
X-4.6975 Y2.1661
X-4.6898 Y2.1695
X-4.6823 Y2.1734
X-4.6751 Y2.1779
X-4.6683 Y2.1828
X-4.6618 Y2.1883
X-4.6558 Y2.1942
X-4.6502 Y2.2005
X-4.645 Y2.2073
X-4.6404 Y2.2143
X-4.6363 Y2.2217
X-4.6327 Y2.2294
X-4.6297 Y2.2373
X-4.6273 Y2.2454
X-4.6255 Y2.2536
X-4.6243 Y2.262
X-4.6236 Y2.2704
Y2.2789
X-4.6242 Y2.2873
X-4.6255 Y2.2957
X-4.6273 Y2.304
X-4.6297 Y2.3121
X-4.7538 Y2.3609
G3 X-4.7723 Y2.3405 I-0.005 J-0.014
X-4.7457 Y2.313 I0.0537 J0.0255
X-4.6595 Y2.3046 I0.0538 J0.1052
X-4.6416 Y2.3114 I-0.0324 J0.1136 F50.
G2 X-4.6302 Y2.3119 I0.0064 J-0.0135
G1 X-4.6071 Y2.3027 F60.
X-4.6008 Y2.2974
X-4.5948 Y2.2917
X-4.5892 Y2.2855
X-4.5841 Y2.279
X-4.5795 Y2.2721
X-4.5754 Y2.265
X-4.5718 Y2.2575
X-4.5688 Y2.2498
X-4.5663 Y2.2419
X-4.5644 Y2.2339
X-4.563 Y2.2257
X-4.5622 Y2.2175
X-4.5621 Y2.2092
X-4.5625 Y2.2009
X-4.5635 Y2.1927
X-4.5651 Y2.1846
X-4.5673 Y2.1766
X-4.57 Y2.1688
X-4.5733 Y2.1612
X-4.5771 Y2.1538
X-4.5814 Y2.1468
X-4.5862 Y2.1401
X-4.5915 Y2.1337
X-4.5973 Y2.1277
X-4.6034 Y2.1222
X-4.6099 Y2.1171
X-4.6168 Y2.1125
X-4.624 Y2.1083
G3 X-4.7473 Y2.1581 I-4.8113 J-11.7337
G2 X-4.7562 Y2.1701 I0.0059 J0.0137
X-4.75 Y2.1822 I0.0122 J0.0014
X-4.6358 Y2.1361 I0.0387 J-0.0686
X-4.6329 Y2.1211 I-0.0755 J-0.0225 F50.
G3 X-4.6243 Y2.109 I0.0148 J0.0014
G1 X-4.6039 Y2.1004 F60.
X-4.5955 Y2.0996
X-4.5871 Y2.0995
X-4.5788 Y2.0999
X-4.5705 Y2.1009
X-4.5623 Y2.1025
X-4.5542 Y2.1048
X-4.5463 Y2.1076
X-4.5386 Y2.1109
X-4.5312 Y2.1149
X-4.5241 Y2.1193
X-4.5174 Y2.1243
X-4.511 Y2.1297
X-4.5051 Y2.1356
X-4.4996 Y2.1419
X-4.4945 Y2.1486
X-4.49 Y2.1557
X-4.486 Y2.163
X-4.4825 Y2.1706
X-4.4796 Y2.1785
X-4.4773 Y2.1865
X-4.4756 Y2.1947
X-4.4745 Y2.203
X-4.4739 Y2.2114
X-4.474 Y2.2198
X-4.4747 Y2.2281
X-4.4761 Y2.2364
X-4.478 Y2.2445
X-4.4805 Y2.2525
G2 X-4.6071 Y2.3027 I2.8355 J7.341
G3 X-4.6256 Y2.2823 I-0.005 J-0.014
X-4.5966 Y2.2526 I0.0576 J0.0271
X-4.5102 Y2.2448 I0.053 J0.1055
X-4.4923 Y2.2517 I-0.0334 J0.1133 F50.
G2 X-4.4809 Y2.2524 I0.0065 J-0.0134
G1 X-4.4578 Y2.2434 F60.
X-4.4515 Y2.2381
X-4.4455 Y2.2324
X-4.44 Y2.2262
X-4.4349 Y2.2197
X-4.4303 Y2.2129
X-4.4261 Y2.2057
X-4.4225 Y2.1983
X-4.4195 Y2.1906
X-4.417 Y2.1827
X-4.4151 Y2.1747
X-4.4137 Y2.1665
X-4.4129 Y2.1583
X-4.4128 Y2.15
X-4.4132 Y2.1418
X-4.4142 Y2.1336
X-4.4157 Y2.1254
X-4.4179 Y2.1175
X-4.4206 Y2.1096
X-4.4238 Y2.1021
X-4.4276 Y2.0947
X-4.4319 Y2.0877
X-4.4367 Y2.0809
X-4.442 Y2.0745
X-4.4477 Y2.0686
X-4.4538 Y2.063
X-4.4603 Y2.0579
X-4.4672 Y2.0533
X-4.4743 Y2.0491
G2 X-4.6039 Y2.1004 I3.7262 J9.5943
X-4.6028 Y2.128 I0.0062 J0.0135
X-4.5586 Y2.1293 I0.0241 J-0.0649
X-4.4907 Y2.0754 I-0.0343 J-0.113
X-4.4825 Y2.058 I-0.1023 J-0.0591 F50.
G3 X-4.4746 Y2.0497 I0.0139 J0.0053
G1 X-4.4509 Y2.04 F60.
G3 X-4.3273 Y2.1719 I0.0076 J0.1168
X-4.3512 Y2.1749 I-0.013 J-0.0073
G1 X-4.3532 Y2.1727
X-4.4539 Y2.0657
X-4.4557 Y2.0638 F50.
G3 X-4.4509 Y2.04 I0.0108 J-0.0102
G1 X-4.4441 Y2.0365 F60.
X-4.4369 Y2.0336
X-4.4296 Y2.0313
X-4.4221 Y2.0296
X-4.4145 Y2.0284
X-4.4068 Y2.0279
X-4.3991 Y2.028
X-4.3914 Y2.0287
X-4.3838 Y2.03
X-4.3763 Y2.032
X-4.369 Y2.0345
X-4.362 Y2.0376
X-4.3552 Y2.0413
X-4.3487 Y2.0454
X-4.3426 Y2.0501
X-4.3369 Y2.0553
X-4.3316 Y2.0609
X-4.3268 Y2.0669
X-4.3224 Y2.0733
X-4.3186 Y2.08
X-4.3154 Y2.087
X-4.3127 Y2.0942
X-4.3106 Y2.1016
X-4.3091 Y2.1092
X-4.3082 Y2.1168
X-4.3079 Y2.1245
X-4.3083 Y2.1322
X-4.3093 Y2.1399
X-4.3108 Y2.1474
X-4.313 Y2.1548
X-4.3157 Y2.162
X-4.3191 Y2.169
X-4.3229 Y2.1756
X-4.3273 Y2.182
X-4.3322 Y2.1879
X-4.3376 Y2.1935
X-4.3433 Y2.1986
X-4.3495 Y2.2032
X-4.356 Y2.2073
X-4.3628 Y2.2109
X-4.3699 Y2.214
X-4.3772 Y2.2164
X-4.3847 Y2.2183
X-4.3923 Y2.2195
X-4.4 Y2.2202
X-4.4077
X-4.4154 Y2.2196
X-4.4463 Y2.2389
X-4.4578 Y2.2434
G3 X-4.4774 Y2.2268 I-0.0049 J-0.0141
G1 X-4.4769 Y2.224 Z-0.2347
X-4.4765 Y2.2212 Z-0.2339
X-4.476 Y2.2187 Z-0.2325
X-4.4757 Y2.2164 Z-0.2306
X-4.4753 Y2.2146 Z-0.2284
X-4.4751 Y2.2133 Z-0.2258
X-4.475 Y2.2124 Z-0.223
X-4.4749 Y2.2121 Z-0.2201
G0 Z-0.2052
X-5.7646 Y2.5148
G1 Z-0.2201 F50.
X-5.7647 Y2.5145 Z-0.223
X-5.7652 Y2.5138 Z-0.2258
X-5.766 Y2.5127 Z-0.2284
X-5.7671 Y2.5112 Z-0.2306
X-5.7685 Y2.5094 Z-0.2325
X-5.77 Y2.5073 Z-0.2339
X-5.7716 Y2.5051 Z-0.2347
X-5.7733 Y2.5027 Z-0.235
G2 X-5.7971 Y2.483 I-0.0504 J0.0366
G1 X-5.8171 Y2.4744 F60.
G2 X-5.9201 Y2.6454 I-0.0015 J0.1156
G1 X-5.8817 Y2.6578
X-5.7787 Y2.6793
G2 X-5.7647 Y2.6741 I0.0025 J-0.0147
X-5.7789 Y2.6173 I-0.0279 J-0.0233
X-5.894 Y2.6319 I-0.0446 J0.1094
X-5.9056 Y2.6418 I0.0705 J0.0948 F50.
G3 X-5.9201 Y2.6454 I-0.0104 J-0.0107
G1 X-5.928 Y2.6429 F60.
X-5.9294 Y2.6422
X-5.9713 Y2.596
G3 X-5.9035 Y2.4015 I0.1091 J-0.0711
G1 X-5.8944 Y2.4115
X-5.8817 Y2.4232
X-5.845 Y2.4576
G3 X-5.8412 Y2.472 I-0.0106 J0.0105
X-5.8908 Y2.4787 I-0.0262 J-0.0071
X-5.9016 Y2.433 I0.0678 J-0.0401
X-5.899 Y2.418 I0.0785 J0.0056 F50.
G2 X-5.9028 Y2.4036 I-0.0144 J-0.0039
G1 X-5.916 Y2.3912 F60.
G2 X-6.0753 Y2.497 I-0.0483 J0.1002
G1 X-6.019 Y2.5499
X-5.9743 Y2.5928
X-5.9713 Y2.596
G2 X-5.9569 Y2.5999 I0.0105 J-0.0105
X-5.9373 Y2.5303 I-0.0108 J-0.0406
X-6.0462 Y2.4959 I-0.0856 J0.0814
X-6.061 Y2.4999 I0.0233 J0.1158 F50.
G3 X-6.0756 Y2.497 I-0.0048 J-0.0141
G1 X-6.095 Y2.4789 F60.
X-6.0992 Y2.4717
X-6.103 Y2.4642
X-6.1062 Y2.4565
X-6.1089 Y2.4486
X-6.1109 Y2.4405
X-6.1124 Y2.4323
X-6.1133 Y2.424
X-6.1136 Y2.4156
X-6.1133 Y2.4072
X-6.1124 Y2.3989
X-6.1109 Y2.3907
X-6.1088 Y2.3826
X-6.1062 Y2.3747
X-6.103 Y2.367
X-6.0992 Y2.3595
X-6.0949 Y2.3523
X-6.0901 Y2.3455
X-6.0848 Y2.339
X-6.0791 Y2.3329
X-6.073 Y2.3272
X-6.0665 Y2.322
X-6.0596 Y2.3173
X-6.0524 Y2.3131
X-6.0449 Y2.3094
X-6.0371 Y2.3062
X-6.0292 Y2.3036
X-6.0211 Y2.3016
X-6.0128 Y2.3002
G2 X-5.916 Y2.3912 I5.9159 J-6.2008
G3 X-5.9122 Y2.4056 I-0.0106 J0.0105
X-5.9214 Y2.4137 I-0.0109 J-0.003
G1 X-5.9237 Y2.414
G3 X-6.0116 Y2.3301 I-0.0094 J-0.0782
X-6.009 Y2.315 I0.0785 J0.0057 F50.
G2 X-6.0128 Y2.3006 I-0.0144 J-0.0039
G1 X-6.0206 Y2.2932 F60.
X-6.0315 Y2.2831
X-6.0393 Y2.2798
X-6.0474 Y2.277
X-6.0556 Y2.2748
X-6.0639 Y2.2733
X-6.0723 Y2.2723
X-6.0808 Y2.272
X-6.0893 Y2.2723
X-6.0977 Y2.2732
X-6.1061 Y2.2747
X-6.1143 Y2.2769
X-6.1223 Y2.2796
X-6.1301 Y2.2829
X-6.1377 Y2.2868
X-6.1449 Y2.2912
X-6.1518 Y2.2961
X-6.1584 Y2.3016
X-6.1645 Y2.3075
X-6.1701 Y2.3138
X-6.1753 Y2.3205
X-6.18 Y2.3276
X-6.1841 Y2.335
X-6.1877 Y2.3427
X-6.1907 Y2.3506
X-6.1931 Y2.3588
X-6.1949 Y2.3671
X-6.1961 Y2.3755
X-6.1967 Y2.3839
X-6.095 Y2.4789
G2 X-6.0804 Y2.4818 I0.0098 J-0.0112
X-6.0661 Y2.4097 I-0.0137 J-0.0401
X-6.1671 Y2.3828 I-0.0777 J0.089
X-6.1819 Y2.3868 I0.0233 J0.1158 F50.
G3 X-6.1965 Y2.3839 I-0.0048 J-0.0141
G1 X-6.2058 Y2.3752 F60.
X-6.2164 Y2.3653
X-6.2203 Y2.3578
X-6.2237 Y2.35
X-6.2265 Y2.3419
X-6.2287 Y2.3337
X-6.2303 Y2.3254
X-6.2313 Y2.3169
X-6.2317 Y2.3084
X-6.2314 Y2.2999
X-6.2306 Y2.2914
X-6.2291 Y2.2831
X-6.227 Y2.2748
X-6.2243 Y2.2667
X-6.221 Y2.2589
X-6.2172 Y2.2513
X-6.2128 Y2.244
X-6.2079 Y2.237
X-6.2025 Y2.2304
X-6.1967 Y2.2243
X-6.1904 Y2.2185
X-6.1837 Y2.2133
X-6.1766 Y2.2085
X-6.1692 Y2.2043
X-6.1616 Y2.2006
X-6.1537 Y2.1975
X-6.1455 Y2.195
X-6.1372 Y2.1931
X-6.1288 Y2.1918
X-6.0315 Y2.2831
G3 X-6.0314 Y2.3042 I-0.0105 J0.0106
X-6.0582 Y2.3088 I-0.0166 J-0.0164
X-6.1228 Y2.2218 I0.0519 J-0.1061
X-6.1244 Y2.2027 I0.1165 J-0.0192 F50.
G2 X-6.1288 Y2.1922 I-0.0149 J0.
G1 X-6.141 Y2.1808 F60.
X-6.1466 Y2.1755
X-6.1541 Y2.172
X-6.1618 Y2.169
X-6.1698 Y2.1666
X-6.1778 Y2.1648
X-6.186 Y2.1636
X-6.1942 Y2.1629
X-6.2025 Y2.1628
X-6.2108 Y2.1634
X-6.219 Y2.1645
X-6.2271 Y2.1662
X-6.235 Y2.1684
X-6.2428 Y2.1712
X-6.2503 Y2.1746
X-6.2576 Y2.1785
X-6.2646 Y2.1829
X-6.2713 Y2.1879
X-6.2776 Y2.1932
X-6.2835 Y2.199
X-6.2889 Y2.2052
X-6.2939 Y2.2118
X-6.2985 Y2.2188
X-6.3025 Y2.226
X-6.306 Y2.2335
X-6.3089 Y2.2412
X-6.3113 Y2.2491
X-6.3131 Y2.2572
X-6.3143 Y2.2654
X-6.315 Y2.2736
X-6.2984 Y2.2885
X-6.2164 Y2.3653
G2 X-6.1918 Y2.353 I0.0098 J-0.0113
X-6.2072 Y2.3165 I-0.0613 J0.0043
X-6.2844 Y2.2775 I-0.0881 J0.0786
X-6.3035 Y2.2773 I-0.011 J0.1176 F50.
G3 X-6.3144 Y2.2737 I-0.001 J-0.0149
G1 X-6.3344 Y2.2549 F60.
X-6.3382 Y2.2473
X-6.3415 Y2.2395
X-6.3442 Y2.2315
X-6.3464 Y2.2233
X-6.3479 Y2.2149
X-6.3488 Y2.2065
X-6.3491 Y2.198
X-6.3488 Y2.1895
X-6.3478 Y2.1811
X-6.3463 Y2.1728
X-6.3441 Y2.1645
X-6.3414 Y2.1565
X-6.3381 Y2.1487
X-6.3342 Y2.1412
X-6.3298 Y2.1339
X-6.3249 Y2.127
X-6.3194 Y2.1205
X-6.3135 Y2.1144
X-6.3072 Y2.1087
X-6.3005 Y2.1035
X-6.2935 Y2.0988
X-6.2861 Y2.0946
X-6.2784 Y2.091
X-6.2705 Y2.088
X-6.2624 Y2.0855
X-6.2541 Y2.0836
X-6.2457 Y2.0824
X-6.1749 Y2.149
X-6.1595 Y2.1634
X-6.1466 Y2.1755
G3 X-6.1573 Y2.2009 I-0.0106 J0.0105
X-6.192 Y2.1897 I0.0003 J-0.0601
X-6.2398 Y2.1125 I0.0688 J-0.096
X-6.2413 Y2.0933 I0.1166 J-0.0188 F50.
G2 X-6.2457 Y2.0828 I-0.0149 J0.
G1 X-6.2663 Y2.0635 F60.
X-6.2741 Y2.0602
X-6.2821 Y2.0575
X-6.2903 Y2.0554
X-6.2986 Y2.0539
X-6.307 Y2.053
X-6.3155 Y2.0527
X-6.3239 Y2.053
X-6.3323 Y2.0539
X-6.3407 Y2.0555
X-6.3488 Y2.0576
X-6.3569 Y2.0603
X-6.3647 Y2.0636
X-6.3722 Y2.0674
X-6.3794 Y2.0718
X-6.3863 Y2.0767
X-6.3929 Y2.0821
X-6.399 Y2.0879
X-6.4047 Y2.0942
X-6.4099 Y2.1008
X-6.4146 Y2.1079
X-6.4188 Y2.1152
X-6.4225 Y2.1228
X-6.4256 Y2.1307
X-6.4281 Y2.1388
X-6.43 Y2.147
X-6.4313 Y2.1554
X-6.4321 Y2.1638
X-6.3344 Y2.2549
G2 X-6.3097 Y2.2427 I0.0098 J-0.0112
X-6.3229 Y2.2097 I-0.0573 J0.0038
X-6.4016 Y2.1679 I-0.0907 J0.0757
X-6.4208 Y2.1675 I-0.0119 J0.1175 F50.
G3 X-6.4316 Y2.1638 I-0.0009 J-0.0149
G1 X-6.4373 Y2.1584 F60.
X-6.4502 Y2.1465
X-6.4541 Y2.1393
X-6.4575 Y2.1317
X-6.4604 Y2.124
X-6.4627 Y2.1161
X-6.4644 Y2.108
X-6.4655 Y2.0998
X-6.4661 Y2.0916
Y2.0833
X-6.4655 Y2.0751
X-6.4643 Y2.0669
X-6.4626 Y2.0589
X-6.4603 Y2.051
X-6.4574 Y2.0432
X-6.454 Y2.0357
X-6.45 Y2.0285
X-6.4456 Y2.0215
X-6.4406 Y2.0149
X-6.4352 Y2.0086
X-6.4294 Y2.0028
X-6.4232 Y1.9974
X-6.4166 Y1.9924
X-6.4097 Y1.9879
X-6.4025 Y1.9839
X-6.395 Y1.9805
X-6.3873 Y1.9775
X-6.3794 Y1.9752
X-6.3713 Y1.9734
X-6.3631 Y1.9721
G2 X-6.2663 Y2.0635 I11.9161 J-12.5372
G3 X-6.2624 Y2.0779 I-0.0106 J0.0105
X-6.2706 Y2.0852 I-0.0098 J-0.0026
G1 X-6.2743 Y2.0858
G3 X-6.3617 Y2.0023 I-0.0089 J-0.0782
X-6.3592 Y1.9872 I0.0786 J0.0053 F50.
G2 X-6.3631 Y1.9728 I-0.0144 J-0.0039
G1 X-6.3822 Y1.9549 F60.
X-6.39 Y1.9515
X-6.398 Y1.9486
X-6.4062 Y1.9463
X-6.4145 Y1.9446
X-6.423 Y1.9436
X-6.4315 Y1.9431
X-6.44 Y1.9433
X-6.4485 Y1.9441
X-6.4568 Y1.9455
X-6.4651 Y1.9476
X-6.4732 Y1.9502
X-6.4811 Y1.9534
X-6.4887 Y1.9572
X-6.496 Y1.9615
X-6.503 Y1.9664
X-6.5096 Y1.9718
X-6.5158 Y1.9776
X-6.5216 Y1.9839
X-6.5269 Y1.9905
X-6.5317 Y1.9976
X-6.5359 Y2.005
X-6.5396 Y2.0126
X-6.5427 Y2.0205
X-6.5453 Y2.0287
X-6.5472 Y2.037
X-6.5485 Y2.0454
X-6.5492 Y2.0538
G3 X-6.4502 Y2.1465 I-6.7978 J7.3666
G2 X-6.4292 Y2.145 I0.0097 J-0.0113
X-6.4264 Y2.1172 I-0.0184 J-0.0158
X-6.5189 Y2.0576 I-0.1029 J0.058
X-6.5381 Y2.0574 I-0.0104 J0.1177 F50.
G3 X-6.5489 Y2.0539 I-0.0011 J-0.0149
G1 X-6.5614 Y2.0423 F60.
X-6.5695 Y2.0344
X-6.5733 Y2.0268
X-6.5765 Y2.019
X-6.5791 Y2.011
X-6.5811 Y2.0028
X-6.5825 Y1.9945
X-6.5834 Y1.986
X-6.5836 Y1.9776
X-6.5832 Y1.9692
X-6.5822 Y1.9608
X-6.5806 Y1.9525
X-6.5783 Y1.9443
X-6.5756 Y1.9363
X-6.5722 Y1.9286
X-6.5683 Y1.9211
X-6.5639 Y1.9139
X-6.5589 Y1.9071
X-6.5535 Y1.9006
X-6.5476 Y1.8945
X-6.5413 Y1.8889
X-6.5346 Y1.8837
X-6.5276 Y1.8791
X-6.5202 Y1.8749
X-6.5126 Y1.8714
X-6.5047 Y1.8683
X-6.4966 Y1.8659
X-6.4884 Y1.864
X-6.48 Y1.8627
G3 X-6.3822 Y1.9549 I-17.7208 J18.8979
X-6.3927 Y1.9804 I-0.0105 J0.0105
X-6.4288 Y1.9682 I0. J-0.0598
X-6.4741 Y1.8929 I0.0713 J-0.0941
X-6.4756 Y1.8738 I0.1166 J-0.0189 F50.
G2 X-6.4799 Y1.8633 I-0.0149 J0.
G1 X-6.4836 Y1.8598 F60.
X-6.4857 Y1.8578
X-6.5004 Y1.8445
X-6.5083 Y1.8412
X-6.5164 Y1.8384
X-6.5246 Y1.8363
X-6.533 Y1.8347
X-6.5415 Y1.8338
X-6.55 Y1.8335
X-6.5585 Y1.8338
X-6.567 Y1.8347
X-6.5754 Y1.8362
X-6.5837 Y1.8384
X-6.5917 Y1.8411
X-6.5996 Y1.8445
X-6.6072 Y1.8484
X-6.6145 Y1.8528
X-6.6214 Y1.8577
X-6.628 Y1.8632
X-6.6341 Y1.8691
X-6.6398 Y1.8754
X-6.645 Y1.8822
X-6.6498 Y1.8893
X-6.6539 Y1.8967
X-6.6576 Y1.9044
X-6.6606 Y1.9124
X-6.6631 Y1.9206
X-6.665 Y1.9289
X-6.6663 Y1.9373
X-6.6669 Y1.9458
G3 X-6.5695 Y2.0344 I-2.059 J2.3601
G2 X-6.555 Y2.0376 I0.01 J-0.0111
X-6.5459 Y2.0263 I-0.0041 J-0.0126
G1 X-6.5458 Y2.0193
X-6.5464 Y2.0123
X-6.5476 Y2.0054
X-6.5494 Y1.9986
X-6.5518 Y1.992
X-6.5547 Y1.9857
X-6.5583 Y1.9796
X-6.5623 Y1.9739
X-6.5669 Y1.9686
X-6.5719 Y1.9636
X-6.5773 Y1.9592
X-6.5831 Y1.9552
X-6.5892 Y1.9518
X-6.5956 Y1.949
X-6.6022 Y1.9467
X-6.609 Y1.945
X-6.616 Y1.9439
X-6.623 Y1.9435
X-6.63 Y1.9437
X-6.6369 Y1.9445
G2 X-6.6517 Y1.9483 I0.0125 J0.0777 F50.
G3 X-6.6664 Y1.9458 I-0.0052 J-0.014
G1 X-6.6688 Y1.9437 F60.
X-6.6872 Y1.9264
X-6.6911 Y1.9189
X-6.6943 Y1.911
X-6.697 Y1.903
X-6.6991 Y1.8948
X-6.7006 Y1.8864
X-6.7015 Y1.878
X-6.7018 Y1.8695
X-6.7015 Y1.861
X-6.7006 Y1.8526
X-6.699 Y1.8443
X-6.6969 Y1.8361
X-6.6941 Y1.828
X-6.6908 Y1.8202
X-6.687 Y1.8127
X-6.6826 Y1.8054
X-6.6777 Y1.7985
X-6.6723 Y1.792
X-6.6664 Y1.7858
X-6.6601 Y1.7802
X-6.6534 Y1.7749
X-6.6464 Y1.7702
X-6.639 Y1.766
X-6.6314 Y1.7623
X-6.6235 Y1.7592
X-6.6154 Y1.7567
X-6.6071 Y1.7548
X-6.5988 Y1.7535
G2 X-6.5004 Y1.8445 I1.9433 J-2.0001
G3 X-6.4963 Y1.8588 I-0.0103 J0.0107
X-6.5049 Y1.8668 I-0.0105 J-0.0026
G1 X-6.5078 Y1.8673
G3 X-6.5976 Y1.7835 I-0.0113 J-0.0779
X-6.595 Y1.7684 I0.0785 J0.0059 F50.
G2 X-6.5987 Y1.754 I-0.0144 J-0.004
G1 X-6.6174 Y1.7363 F60.
G2 X-6.7839 Y1.8318 I-0.0496 J0.1064
X-6.6872 Y1.9264 I1.4284 J-1.3624
X-6.6726 Y1.9293 I0.0098 J-0.0112
X-6.6581 Y1.8677 I-0.012 J-0.0353
X-6.7545 Y1.8334 I-0.0839 J0.0831
X-6.7696 Y1.836 I0.0125 J0.1174 F50.
G3 X-6.7839 Y1.8318 I-0.0035 J-0.0145
G1 X-6.8018 Y1.8116 F60.
X-6.8077 Y1.7917
X-6.8115 Y1.7786
X-6.8118 Y1.7708
X-6.8115 Y1.763
X-6.8107 Y1.7552
X-6.8091 Y1.7475
X-6.807 Y1.74
X-6.8043 Y1.7327
X-6.801 Y1.7256
X-6.7971 Y1.7188
X-6.7927 Y1.7123
X-6.7878 Y1.7062
X-6.7824 Y1.7006
X-6.7766 Y1.6953
X-6.7704 Y1.6906
X-6.7638 Y1.6863
X-6.757 Y1.6826
X-6.7498 Y1.6795
X-6.7424 Y1.677
X-6.7348 Y1.675
X-6.7271 Y1.6737
X-6.7193 Y1.673
X-6.7115 Y1.6729
X-6.7037 Y1.6734
X-6.696 Y1.6746
X-6.6884 Y1.6764
X-6.6809 Y1.6788
X-6.6737 Y1.6818
X-6.6667 Y1.6853
X-6.6601 Y1.6894
X-6.6538 Y1.694
X-6.6478 Y1.6991
X-6.6424 Y1.7047
X-6.6373 Y1.7107
X-6.6328 Y1.7171
X-6.6288 Y1.7238
X-6.6253 Y1.7308
X-6.6225 Y1.7381
X-6.6136 Y1.7338
X-6.6044 Y1.73
X-6.5951 Y1.7269
X-6.5855 Y1.7243
X-6.5759 Y1.7223
X-6.5661 Y1.7209
X-6.5562 Y1.7201
X-6.5464 Y1.72
X-6.5365 Y1.7204
X-6.5267 Y1.7214
X-6.5169 Y1.7231
X-6.5073 Y1.7253
X-6.4979 Y1.7282
X-6.4886 Y1.7316
X-6.4796 Y1.7356
X-6.4708 Y1.7401
X-6.4623 Y1.7452
X-6.4542 Y1.7508
X-6.4464 Y1.7568
X-6.439 Y1.7634
X-6.432 Y1.7703
X-6.4255 Y1.7777
X-6.4194 Y1.7855
X-6.4138 Y1.7937
X-6.4088 Y1.8022
X-6.4042 Y1.8109
G3 X-6.2612 Y1.9313 I-0.5329 J0.7785
G1 X-6.0157 Y2.161
G2 X-5.7048 Y2.3994 I0.6082 J-0.4715
X-5.329 Y2.2817 I-0.182 J-1.2406
G1 X-5.1302 Y2.2026
X-4.9313 Y2.1236
G3 X-4.3914 Y1.928 I1.3809 J2.9686
X-4.4046 Y2.3179 I-0.0263 J0.1943
X-5.1704 Y2.6338 I-5.3402 J-11.8603
X-5.6298 Y2.7974 I-0.8882 J-1.7673
X-6.117 Y2.5952 I-0.0474 J-0.5738
G1 X-6.2287 Y2.4908
X-6.4072 Y2.3237
X-6.5074 Y2.2294
X-6.6078 Y2.1354
X-6.7085 Y2.0418
X-6.8096 Y1.9484
G3 X-6.8726 Y1.6708 I0.1019 J-0.1691
X-6.5926 Y1.6189 I0.1649 J0.1086
X-6.2275 Y1.8263 I-0.0743 J0.5558
G1 X-6.2051 Y1.8471
X-6.1604 Y1.8888
X-6.0041 Y2.0349
X-5.7809 Y2.2437
G2 X-5.4961 Y2.24 I0.1397 J-0.2048
G3 X-4.4701 Y1.844 I8.0961 J19.4521
X-4.3433 Y2.3994 I0.0594 J0.2786
X-5.5645 Y2.8865 I-7.1175 J-16.0712
X-6.1767 Y2.678 I-0.1054 J-0.6937
G1 X-6.1979 Y2.6562
X-6.2427 Y2.6145
X-6.332 Y2.531
X-6.5329 Y2.343
G3 X-6.9628 Y1.9111 I1.7574 J-2.1789
X-6.6064 Y1.5109 I0.2465 J-0.1393
X-6.428 Y1.5535 I-0.0197 J0.4774
X-5.9805 Y1.9201 I-1.075 J1.7685
G1 X-5.7573 Y2.1289
G2 X-5.5085 Y2.1283 I0.1241 J-0.1411
X-4.7359 Y1.8304 I-3.6788 J-10.692
G3 X-4.6102 Y1.7828 I0.1477 J0.2002
G1 X-4.3421 Y1.8234
G3 X-4.156 Y2.2974 I-0.03 J0.2853
G1 X-4.2822 Y2.4591
G3 X-4.7071 Y2.6654 I-0.7652 J-1.0359
X-5.5333 Y2.9853 I-5.8487 J-13.8744
X-6.1213 Y2.861 I-0.1135 J-0.9154
X-6.4365 Y2.5702 I14.1789 J-15.6857
G1 X-6.615 Y2.4031
G3 X-6.9596 Y2.078 I9.1057 J-9.9983
G1 X-7.0125 Y1.8353
G3 X-6.6806 Y1.4694 I0.2755 J-0.0836
G1 X-6.3333 Y1.522
G3 X-5.975 Y1.7884 I-0.4261 J0.947
G1 X-5.8857 Y1.8719
X-5.7294 Y2.018
X-5.7207 Y2.0245
X-5.7117 Y2.0304
X-5.7023 Y2.0359
X-5.6926 Y2.0408
X-5.6827 Y2.0451
X-5.6725 Y2.0489
X-5.6622 Y2.0521
X-5.6517 Y2.0548
X-5.641 Y2.0568
X-5.6303 Y2.0582
X-5.6194 Y2.059
X-5.6086 Y2.0592
X-5.5978 Y2.0588
X-5.587 Y2.0578
X-5.5763 Y2.0562
X-5.5657 Y2.054
X-5.5552 Y2.0512
X-5.5449 Y2.0478
X-5.5348 Y2.0438
X-5.525 Y2.0393
X-5.5154 Y2.0342
X-5.5061 Y2.0286
X-5.4972 Y2.0225
X-5.4886 Y2.0159
X-5.4804 Y2.0088
G2 X-4.8089 Y1.7516 I-2.8218 J-8.3721
G1 X-4.6102 Y1.7828
G3 X-4.5989 Y1.7925 I-0.0027 J0.0146
X-4.6021 Y1.8066 I-0.0128 J0.0045
X-4.791 Y1.7766 I-0.0836 J-0.0835
X-4.797 Y1.7625 I0.1053 J-0.0534 F50.
G2 X-4.8083 Y1.7528 I-0.014 J0.005
G1 X-4.9441 Y1.7323 F60.
G2 X-5.4213 Y1.8877 I0.2656 J1.6252
G3 X-5.6659 Y1.9283 I-0.1619 J-0.2186
G1 X-5.8725 Y1.7445
X-6.0787 Y1.5603
X-6.3333 Y1.522
G2 X-6.3469 Y1.5279 I-0.0017 J0.0148
X-6.3473 Y1.5634 I0.0243 J0.0181
X-6.1023 Y1.5782 I0.1285 J-0.0911
X-6.0926 Y1.5664 I-0.1166 J-0.1059 F50.
G3 X-6.0789 Y1.5605 I0.012 J0.0089
G1 X-5.9628 Y1.578 F60.
G3 X-5.6503 Y1.8129 I-0.5401 J1.0443
G2 X-5.3888 Y1.7671 I0.0749 J-0.3414
G3 X-5.1987 Y1.6937 I0.7321 J1.6143
G1 X-4.9441 Y1.7323
G3 X-4.9328 Y1.7419 I-0.0027 J0.0146
X-4.9427 Y1.7757 I-0.0283 J0.01
X-5.1816 Y1.7176 I-0.0962 J-0.1247
X-5.1874 Y1.7034 I0.1427 J-0.0666 F50.
G2 X-5.1987 Y1.6937 I-0.014 J0.005
G1 X-5.3317 Y1.6736 F60.
G2 X-5.5613 Y1.7175 I0.0963 J1.127
G3 X-5.7246 Y1.6141 I0.2552 J-0.5838
G1 X-5.9628 Y1.578
G2 X-5.9765 Y1.584 I-0.0017 J0.0148
X-5.971 Y1.642 I0.0349 J0.026
X-5.748 Y1.6319 I0.1065 J-0.1161
X-5.7382 Y1.62 I-0.1166 J-0.1059 F50.
G3 X-5.7246 Y1.6141 I0.012 J0.0089
G1 X-5.3317 Y1.6736 F60.
G3 X-5.323 Y1.6977 I-0.0027 J0.0146
G1 X-5.3248 Y1.7 Z-0.2347
X-5.3266 Y1.7021 Z-0.2339
X-5.3282 Y1.7041 Z-0.2325
X-5.3297 Y1.7058 Z-0.2306
X-5.3308 Y1.7073 Z-0.2284
X-5.3317 Y1.7083 Z-0.2258
X-5.3322 Y1.709 Z-0.223
X-5.3324 Y1.7092 Z-0.2201
G0 Z-0.2052
X-4.269 Y2.4156
G1 Z-0.2201 F50.
Y2.4159 Z-0.223
X-4.2691 Y2.4167 Z-0.2258
X-4.2693 Y2.4181 Z-0.2284
X-4.2695 Y2.4199 Z-0.2306
X-4.2698 Y2.4222 Z-0.2325
X-4.2701 Y2.4247 Z-0.2339
X-4.2705 Y2.4275 Z-0.2347
X-4.2708 Y2.4304 Z-0.235
G3 X-4.2822 Y2.4591 I-0.0618 J-0.0078
G1 X-4.3994 Y2.6093 F60.
G3 X-4.7194 Y2.7778 I-0.5851 J-0.7231
G1 X-4.9465 Y2.8683
X-5.2305 Y2.9814
G3 X-6.2396 Y2.893 I-0.4356 J-0.831
G2 X-6.5069 Y2.6412 I-8.9007 J9.1833
G1 X-6.6632 Y2.495
G3 X-6.9197 Y2.2539 I1.2785 J-1.6171
G1 X-6.9589 Y2.0772
G3 X-6.9539 Y2.0632 I0.0147 J-0.0027
X-6.9105 Y2.0642 I0.0211 J0.0247
X-6.9038 Y2.2292 I-0.0811 J0.0859
X-6.9147 Y2.2399 I-0.0878 J-0.079 F50.
G2 X-6.9197 Y2.2539 I0.0097 J0.0113
G1 X-6.8947 Y2.3667 F60.
G2 X-6.5599 Y2.7286 I1.1707 J-0.7473
X-6.0245 Y3.1265 I1.1963 J-1.0503
G1 X-6.0008 Y3.1346
X-5.977 Y3.1422
X-5.9529 Y3.1491
X-5.9288 Y3.1555
X-5.9044 Y3.1613
X-5.88 Y3.1665
X-5.8554 Y3.1711
X-5.8307 Y3.1751
X-5.8059 Y3.1786
X-5.7811 Y3.1814
X-5.7562 Y3.1836
X-5.7312 Y3.1853
X-5.7062 Y3.1863
X-5.6812 Y3.1868
X-5.6562 Y3.1866
X-5.6312 Y3.1859
X-5.6062 Y3.1845
X-5.5813 Y3.1825
X-5.5564 Y3.18
X-5.5316 Y3.1768
X-5.5069 Y3.1731
X-5.4822 Y3.1688
X-5.4577 Y3.1638
X-5.4333 Y3.1583
X-5.4091 Y3.1522
X-5.385 Y3.1456
X-5.361 Y3.1383
X-5.3373 Y3.1305
X-5.3137 Y3.1221
X-5.2904 Y3.1131
X-5.2672 Y3.1036
X-5.2443 Y3.0936
X-5.2217 Y3.083
X-5.1924 Y3.0736
X-5.1355 Y3.0511
X-4.9935 Y2.9946
X-4.7663 Y2.9042
G2 X-4.5656 Y2.8223 I-0.943 J-2.5998
G1 X-4.3994 Y2.6093
G2 X-4.3978 Y2.5945 I-0.0121 J-0.0088
X-4.4095 Y2.5864 I-0.0126 J0.0056
X-4.5695 Y2.7932 I-0.0106 J0.1571
X-4.564 Y2.8075 I0.1494 J-0.0497 F50.
G3 X-4.5656 Y2.8223 I-0.0136 J0.0061
G1 X-4.6428 Y2.9212 F60.
G3 X-5.0489 Y3.1243 I-0.7046 J-0.9016
X-5.7871 Y3.2787 I-0.6324 J-1.1816
X-6.4597 Y2.9529 I0.0916 J-1.0462
X-6.8442 Y2.5968 I5.3451 J-6.1575
G1 X-6.8947 Y2.3667
G3 X-6.8897 Y2.3527 I0.0147 J-0.0027
X-6.8246 Y2.3568 I0.0304 J0.0356
X-6.8277 Y2.5718 I-0.1166 J0.1058
X-6.8388 Y2.5823 I-0.1135 J-0.1091 F50.
G2 X-6.8438 Y2.5963 I0.0097 J0.0113
G1 X-6.8195 Y2.7059 F60.
G2 X-6.5487 Y3.0112 I0.9061 J-0.5309
G1 X-6.5295 Y3.0306
X-6.5099 Y3.0497
X-6.4898 Y3.0683
X-6.4694 Y3.0864
X-6.4485 Y3.1041
X-6.4272 Y3.1213
X-6.4056 Y3.138
X-6.3836 Y3.1542
X-6.3612 Y3.17
X-6.3385 Y3.1852
X-6.3155 Y3.1999
X-6.2921 Y3.2141
X-6.2684 Y3.2278
X-6.2444 Y3.2409
X-6.2202 Y3.2535
X-6.1956 Y3.2656
X-6.1708 Y3.2771
X-6.1457 Y3.288
X-6.1204 Y3.2984
X-6.0949 Y3.3082
X-6.0692 Y3.3175
X-6.0432 Y3.3261
X-6.0171 Y3.3342
X-5.9908 Y3.3417
X-5.9643 Y3.3486
X-5.9377 Y3.3549
X-5.911 Y3.3606
X-5.8841 Y3.3657
X-5.8571 Y3.3702
X-5.8301 Y3.3741
X-5.8029 Y3.3774
X-5.7757 Y3.3801
X-5.7484 Y3.3822
X-5.7211 Y3.3837
X-5.6938 Y3.3845
X-5.6664 Y3.3848
X-5.6391 Y3.3844
X-5.6118 Y3.3834
X-5.5845 Y3.3818
X-5.5572 Y3.3796
X-5.53 Y3.3768
X-5.5029 Y3.3734
X-5.4758 Y3.3694
X-5.4489 Y3.3647
X-5.422 Y3.3595
X-5.3953 Y3.3537
X-5.3687 Y3.3472
X-5.3423 Y3.3402
X-5.316 Y3.3326
X-5.2899 Y3.3244
X-5.264 Y3.3156
X-5.2383 Y3.3063
X-5.2129 Y3.2963
X-5.1876 Y3.2859
X-5.1626 Y3.2748
X-5.1378 Y3.2632
X-5.1133 Y3.251
G2 X-4.8093 Y3.1346 I-0.9902 J-3.0428
G1 X-4.6428 Y2.9212
G2 X-4.6412 Y2.9064 I-0.0121 J-0.0088
X-4.652 Y2.8988 I-0.0118 J0.0053
G1 X-4.6534 Y2.8987
G2 X-4.8132 Y3.1055 I-0.0104 J0.1571
X-4.8077 Y3.1198 I0.1494 J-0.0497 F50.
G3 X-4.8093 Y3.1346 I-0.0136 J0.0061
G1 X-4.8861 Y3.2332 F60.
G3 X-5.2662 Y3.4187 I-0.6393 J-0.8274
X-6.6785 Y3.0155 I-0.4066 J-1.2508
X-6.7672 Y2.9416 I0.0474 J-0.1472
G1 X-6.8195 Y2.7059
G3 X-6.8145 Y2.6919 I0.0147 J-0.0027
X-6.7568 Y2.6932 I0.0281 J0.0328
X-6.7511 Y2.9171 I-0.1079 J0.1147
X-6.7623 Y2.9276 I-0.1135 J-0.1091 F50.
G2 X-6.7672 Y2.9416 I0.0097 J0.0113
G1 X-6.7433 Y3.0495 F60.
G2 X-6.4608 Y3.3398 I0.6898 J-0.3886
X-6.2571 Y3.4573 I0.7125 J-1.
G1 X-5.8702 Y3.561
G2 X-5.0526 Y3.4436 I0.2251 J-1.3377
G1 X-4.8861 Y3.2332
G2 X-4.8846 Y3.2183 I-0.0121 J-0.0088
X-4.8976 Y3.2094 I-0.0139 J0.0062
X-5.0557 Y3.4163 I-0.0087 J0.1572
X-5.0502 Y3.4306 I0.1494 J-0.0497 F50.
G3 X-5.0517 Y3.4454 I-0.0136 J0.0061
G1 X-5.1293 Y3.5448 F60.
G3 X-5.4707 Y3.668 I-0.3979 J-0.568
X-5.4767 Y3.6431 I0.0044 J-0.0142
G1 X-5.4746 Y3.641 Z-0.2347
X-5.4726 Y3.6391 Z-0.2339
X-5.4708 Y3.6373 Z-0.2325
X-5.4692 Y3.6357 Z-0.2306
X-5.4678 Y3.6344 Z-0.2284
X-5.4668 Y3.6335 Z-0.2258
X-5.4662 Y3.6329 Z-0.223
X-5.466 Y3.6327 Z-0.2201
G0 Z-0.2052
X-5.1161 Y3.5013
G1 Z-0.2201 F50.
Y3.5016 Z-0.223
X-5.1162 Y3.5024 Z-0.2258
X-5.1164 Y3.5038 Z-0.2284
X-5.1166 Y3.5056 Z-0.2306
X-5.1169 Y3.5079 Z-0.2325
X-5.1172 Y3.5104 Z-0.2339
X-5.1176 Y3.5132 Z-0.2347
X-5.1179 Y3.5161 Z-0.235
G3 X-5.1293 Y3.5448 I-0.0618 J-0.0078
G1 X-5.2298 Y3.6736 F60.
G3 X-5.287 Y3.7172 I-0.0647 J-0.0255
X-5.293 Y3.6923 I0.0044 J-0.0142
G1 X-5.252 Y3.654
G3 X-5.24 Y3.6501 I0.0102 J0.0109
X-5.2298 Y3.6736 I-0.0018 J0.0148 F50.
X-5.2711 Y3.7191 I-0.0553 J-0.0087 F60.
G1 X-5.2827 Y3.7183
X-5.2834 Y3.7182
X-5.8702 Y3.561
G3 X-5.8762 Y3.536 I0.0044 J-0.0142
G1 X-5.8741 Y3.534 Z-0.2347
X-5.8721 Y3.5321 Z-0.2339
X-5.8703 Y3.5303 Z-0.2325
X-5.8687 Y3.5287 Z-0.2306
X-5.8673 Y3.5274 Z-0.2284
X-5.8663 Y3.5264 Z-0.2258
X-5.8657 Y3.5259 Z-0.223
X-5.8655 Y3.5257 Z-0.2201
G0 Z-0.2052
X-6.2118 Y3.4525
G1 Z-0.2201 F50.
X-6.2121 Y3.4526 Z-0.223
X-6.2129 Y3.4528 Z-0.2258
X-6.2142 Y3.4532 Z-0.2284
X-6.216 Y3.4537 Z-0.2306
X-6.2182 Y3.4543 Z-0.2325
X-6.2207 Y3.455 Z-0.2339
X-6.2234 Y3.4558 Z-0.2347
X-6.2262 Y3.4566 Z-0.235
G3 X-6.2571 Y3.4573 I-0.0169 J-0.06
G1 X-6.5185 Y3.3873 F60.
G3 X-6.6927 Y3.2777 I0.1466 J-0.4263
X-6.6704 Y3.2622 I0.0147 J-0.0027
G1 X-6.5075 Y3.36
G3 X-6.5008 Y3.3687 I-0.0077 J0.0128
X-6.5185 Y3.3873 I-0.0143 J0.0041 F50.
G1 X-6.6639 Y3.3483 F60.
G3 X-6.681 Y3.3304 I0.0033 J-0.0203
G1 X-6.7433 Y3.0495
G3 X-6.724 Y3.0326 I0.0147 J-0.0027
G1 X-6.7212 Y3.0335 Z-0.2347
X-6.7185 Y3.0344 Z-0.2339
X-6.7161 Y3.0352 Z-0.2325
X-6.714 Y3.0359 Z-0.2306
X-6.7122 Y3.0365 Z-0.2284
X-6.7109 Y3.037 Z-0.2258
X-6.7101 Y3.0372 Z-0.223
X-6.7098 Y3.0373 Z-0.2201
G0 Z0.6
(SHAPE THROUGH FINISHING PASS)
M7
G0 X-4.9073 Y3.2034
Z0.6
Z0.2
G1 Z0.1 F13.333
Z-0.185
X-4.9071 Y3.2031 Z-0.1906 F40.
X-4.9065 Y3.2024 Z-0.1961
X-4.9055 Y3.2012 Z-0.2015
X-4.9042 Y3.1995 Z-0.2067
X-4.9026 Y3.1973 Z-0.2116
X-4.9006 Y3.1948 Z-0.2162
X-4.8983 Y3.1918 Z-0.2204
X-4.8957 Y3.1885 Z-0.2241
X-4.8929 Y3.1849 Z-0.2273
X-4.8899 Y3.181 Z-0.23
X-4.8867 Y3.177 Z-0.2322
X-4.8834 Y3.1727 Z-0.2337
X-4.88 Y3.1684 Z-0.2347
X-4.8765 Y3.1639 Z-0.235
X-4.8673 Y3.1522
G3 X-4.8587 Y3.2224 I-0.0308 J0.0394
G1 X-5.2517 Y3.7261 F50.
G3 X-5.2784 Y3.7351 I-0.0201 J-0.0157
G1 X-6.6756 Y3.3607
G3 X-6.6939 Y3.3416 I0.0066 J-0.0246
G1 X-7.0325 Y1.8143
G3 X-6.6927 Y1.4524 I0.2934 J-0.065
G2 X-6.6857 Y1.4534 I0.2266 J-1.4524
G1 X-4.3253 Y1.8108
G3 X-4.1333 Y2.2927 I-0.045 J0.2971
G1 X-4.8587 Y3.2224
G3 X-4.9289 Y3.231 I-0.0394 J-0.0308
G1 X-4.9197 Y3.2193
X-4.9163 Y3.2149 Z-0.2347
X-4.9129 Y3.2105 Z-0.2337
X-4.9095 Y3.2063 Z-0.2322
X-4.9064 Y3.2022 Z-0.23
X-4.9033 Y3.1983 Z-0.2273
X-4.9005 Y3.1947 Z-0.2241
X-4.8979 Y3.1914 Z-0.2204
X-4.8956 Y3.1885 Z-0.2162
X-4.8937 Y3.1859 Z-0.2116
X-4.892 Y3.1838 Z-0.2067
X-4.8907 Y3.1821 Z-0.2015
X-4.8897 Y3.1809 Z-0.1961
X-4.8891 Y3.1801 Z-0.1906
X-4.8889 Y3.1799 Z-0.185
G0 Z0.6
(2D SLOT CUT)
M7
G0 X-7.5659 Y-0.975
Z0.6
Z0.2
G1 Z0.1 F13.333
G2 X-7.9262 Y0.1671 Z-0.1175 I1.1001 J0.975 F40.
X-7.9009 Y0.3182 I1.4605 J-0.1671 F55.
G1 X-7.022 Y4.2827
G2 X-6.7892 Y4.5259 I0.3168 J-0.0702
G1 X-5.5605 Y4.8552
G2 X-5.2206 Y4.7413 I0.084 J-0.3135
G1 X-2.6723 Y1.4753
G2 X-2.4941 Y1.1469 I-0.8956 J-0.6988
G1 X-1.6515 Y-1.2955
G3 X-1.5866 Y-1.3818 I0.1659 J0.0572
G1 X-1.346 Y-1.551
G2 X-1.5573 Y-2.0202 I-0.1507 J-0.2143
G1 X-3.8845 Y-1.4667
G3 X-3.9705 Y-1.4679 I-0.0406 J-0.1707
G1 X-5.0422 Y-1.755
G2 X-5.1034 Y-1.7573 I-0.0355 J0.1323
G1 X-6.7419 Y-1.4438
G2 X-7.9262 Y0.1671 I0.2762 J1.4438
X-7.9009 Y0.3182 Z-0.1384 I1.4605 J-0.1671 F40.
G1 X-7.7479 Y1.0085 Z-0.235
X-7.4362 Y2.4145 F55.
Z-0.135
X-7.2741 Y3.1457
Z-0.235 F13.333
X-7.022 Y4.2827 F55.
G2 X-6.7892 Y4.5259 I0.3168 J-0.0702
G1 X-5.5605 Y4.8552
G2 X-5.2206 Y4.7413 I0.084 J-0.3135
G1 X-4.1823 Y3.4105
Z-0.135
X-3.7215 Y2.82
Z-0.235 F13.333
X-2.6723 Y1.4753 F55.
G2 X-2.4941 Y1.1469 I-0.8956 J-0.6988
G1 X-1.6515 Y-1.2955
G3 X-1.5866 Y-1.3818 I0.1659 J0.0572
G1 X-1.346 Y-1.551
G2 X-1.5573 Y-2.0202 I-0.1507 J-0.2143
G1 X-2.3457 Y-1.8327
Z-0.135
X-3.0744 Y-1.6594
Z-0.235 F13.333
X-3.8845 Y-1.4667 F55.
G3 X-3.9705 Y-1.4679 I-0.0406 J-0.1707
G1 X-5.0422 Y-1.755
G2 X-5.1034 Y-1.7573 I-0.0355 J0.1323
G1 X-6.7419 Y-1.4438
G2 X-7.9009 Y0.3182 I0.2762 J1.4438
G1 X-7.7479 Y1.0085
G0 Z0.6
M9
G53 Z0.
M30
%
