%
(971-23-P-0136_FALCON MOTOR PLATE_1523)
(T1  D=0.1523 CR=0. - ZMIN=-0.28 - FLAT END MILL)
G90 G94 G17 G91.1
G64 P0.001 Q0.001
G20
G53 G0 Z0.
(.3 CIRCLUAR THROUGH HOLE 2)
M9
T1 M6
S22000 M3
G4 P10.
G54
M7
G0 X5.0879 Y8.3485
G43 Z0.6 H1
G0 Z0.13
G1 Z0.0652 F40.
G19 G2 Y8.3333 Z0.05 J-0.0152 K0.
G1 Y8.3256
G17 G3 X5.0988 Y8.3147 I0.0109 J0.
Y8.3584 Z0.0327 I0. J0.0219
Y8.3147 Z0.0154 I0. J-0.0219
Y8.3584 Z-0.0018 I0. J0.0219
Y8.3147 Z-0.0191 I0. J-0.0219
Y8.3584 Z-0.0364 I0. J0.0219
Y8.3147 Z-0.0537 I0. J-0.0219
Y8.3584 Z-0.071 I0. J0.0219
Y8.3147 Z-0.0882 I0. J-0.0219
Y8.3584 Z-0.1055 I0. J0.0219
Y8.3147 Z-0.1228 I0. J-0.0219
Y8.3584 Z-0.1401 I0. J0.0219
Y8.3147 Z-0.1574 I0. J-0.0219
Y8.3584 Z-0.1746 I0. J0.0219
Y8.3147 Z-0.1919 I0. J-0.0219
Y8.3584 Z-0.2092 I0. J0.0218
Y8.3147 Z-0.2265 I0. J-0.0218
Y8.3584 Z-0.2438 I0. J0.0218
Y8.3147 Z-0.261 I0. J-0.0218
X5.1204 Y8.3399 Z-0.2705 I0. J0.0218
X5.0923 Y8.3574 Z-0.28 I-0.0216 J-0.0033
X5.1054 Y8.3157 I0.0066 J-0.0208
X5.0923 Y8.3574 I-0.0066 J0.0208
X5.0851 Y8.3437 I0.0033 J-0.0104
G1 X5.0874 Y8.3364
X5.0883 Y8.3336 Z-0.2797
X5.0892 Y8.3309 Z-0.2788
X5.0899 Y8.3284 Z-0.2774
X5.0906 Y8.3262 Z-0.2755
X5.0912 Y8.3244 Z-0.2732
X5.0916 Y8.323 Z-0.2706
X5.0919 Y8.3222 Z-0.2677
X5.092 Y8.3219 Z-0.2648
G0 Z0.4
X1.6408 Y6.1236
Z0.13
G1 Z0.0652 F40.
G19 G2 Y6.1084 Z0.05 J-0.0152 K0.
G1 Y6.1008
G17 G3 X1.6517 Y6.0899 I0.0109 J0.
Y6.1336 Z0.0327 I0. J0.0218
Y6.0899 Z0.0154 I0. J-0.0218
Y6.1336 Z-0.0018 I0. J0.0218
Y6.0899 Z-0.0191 I0. J-0.0218
Y6.1336 Z-0.0364 I0. J0.0218
Y6.0899 Z-0.0537 I0. J-0.0218
Y6.1336 Z-0.071 I0. J0.0218
Y6.0899 Z-0.0882 I0. J-0.0218
Y6.1336 Z-0.1055 I0. J0.0218
Y6.0899 Z-0.1228 I0. J-0.0218
Y6.1336 Z-0.1401 I0. J0.0219
Y6.0899 Z-0.1574 I0. J-0.0219
Y6.1336 Z-0.1746 I0. J0.0219
Y6.0899 Z-0.1919 I0. J-0.0219
Y6.1336 Z-0.2092 I0. J0.0219
Y6.0899 Z-0.2265 I0. J-0.0219
Y6.1336 Z-0.2438 I0. J0.0219
Y6.0899 Z-0.261 I0. J-0.0219
X1.6733 Y6.115 Z-0.2705 I0. J0.0219
X1.6451 Y6.1325 Z-0.28 I-0.0216 J-0.0033
X1.6583 Y6.0909 I0.0066 J-0.0208
X1.6451 Y6.1325 I-0.0066 J0.0208
X1.638 Y6.1188 I0.0033 J-0.0104
G1 X1.6403 Y6.1116
X1.6412 Y6.1087 Z-0.2797
X1.642 Y6.106 Z-0.2788
X1.6428 Y6.1035 Z-0.2774
X1.6435 Y6.1013 Z-0.2755
X1.6441 Y6.0995 Z-0.2732
X1.6445 Y6.0982 Z-0.2706
X1.6448 Y6.0973 Z-0.2677
X1.6449 Y6.0971 Z-0.2648
G0 Z0.4
X1.1157 Y4.517
Z0.13
G1 Z0.0652 F40.
G19 G2 Y4.5018 Z0.05 J-0.0152 K0.
G1 Y4.4942
G17 G3 X1.1266 Y4.4833 I0.0109 J0.
Y4.527 Z0.0327 I0. J0.0219
Y4.4833 Z0.0154 I0. J-0.0219
Y4.527 Z-0.0018 I0. J0.0219
Y4.4833 Z-0.0191 I0. J-0.0219
Y4.527 Z-0.0364 I0. J0.0219
Y4.4833 Z-0.0537 I0. J-0.0219
Y4.527 Z-0.071 I0. J0.0219
Y4.4833 Z-0.0882 I0. J-0.0219
Y4.527 Z-0.1055 I0. J0.0219
Y4.4833 Z-0.1228 I0. J-0.0219
Y4.527 Z-0.1401 I0. J0.0219
Y4.4833 Z-0.1574 I0. J-0.0219
Y4.527 Z-0.1746 I0. J0.0218
Y4.4833 Z-0.1919 I0. J-0.0218
Y4.527 Z-0.2092 I0. J0.0218
Y4.4833 Z-0.2265 I0. J-0.0218
Y4.527 Z-0.2438 I0. J0.0218
Y4.4833 Z-0.261 I0. J-0.0218
X1.1482 Y4.5084 Z-0.2705 I0. J0.0218
X1.12 Y4.5259 Z-0.28 I-0.0216 J-0.0033
X1.1332 Y4.4843 I0.0066 J-0.0208
X1.12 Y4.5259 I-0.0066 J0.0208
X1.1129 Y4.5122 I0.0033 J-0.0104
G1 X1.1152 Y4.505
X1.1161 Y4.5021 Z-0.2797
X1.1169 Y4.4994 Z-0.2788
X1.1177 Y4.4969 Z-0.2774
X1.1184 Y4.4947 Z-0.2755
X1.119 Y4.4929 Z-0.2732
X1.1194 Y4.4916 Z-0.2706
X1.1197 Y4.4907 Z-0.2677
X1.1198 Y4.4904 Z-0.2648
G0 Z0.4
X0.2718 Y5.0535
Z0.13
G1 Z0.0652 F40.
G19 G2 Y5.0383 Z0.05 J-0.0152 K0.
G1 Y5.0307
G17 G3 X0.2827 Y5.0197 I0.0109 J0.
Y5.0634 Z0.0327 I0. J0.0218
Y5.0197 Z0.0154 I0. J-0.0218
Y5.0634 Z-0.0018 I0. J0.0218
Y5.0197 Z-0.0191 I0. J-0.0218
Y5.0634 Z-0.0364 I0. J0.0218
Y5.0197 Z-0.0537 I0. J-0.0218
Y5.0634 Z-0.071 I0. J0.0219
Y5.0197 Z-0.0882 I0. J-0.0219
Y5.0634 Z-0.1055 I0. J0.0219
Y5.0197 Z-0.1228 I0. J-0.0219
Y5.0634 Z-0.1401 I0. J0.0219
Y5.0197 Z-0.1574 I0. J-0.0219
Y5.0634 Z-0.1746 I0. J0.0219
Y5.0197 Z-0.1919 I0. J-0.0219
Y5.0634 Z-0.2092 I0. J0.0219
Y5.0197 Z-0.2265 I0. J-0.0219
Y5.0634 Z-0.2438 I0. J0.0219
Y5.0197 Z-0.261 I0. J-0.0219
X0.3043 Y5.0449 Z-0.2705 I0. J0.0219
X0.2761 Y5.0624 Z-0.28 I-0.0216 J-0.0033
X0.2893 Y5.0208 I0.0066 J-0.0208
X0.2761 Y5.0624 I-0.0066 J0.0208
X0.269 Y5.0487 I0.0033 J-0.0104
G1 X0.2713 Y5.0415
X0.2722 Y5.0386 Z-0.2797
X0.273 Y5.0359 Z-0.2788
X0.2738 Y5.0334 Z-0.2774
X0.2745 Y5.0312 Z-0.2755
X0.2751 Y5.0294 Z-0.2732
X0.2755 Y5.0281 Z-0.2706
X0.2758 Y5.0272 Z-0.2677
X0.2759 Y5.0269 Z-0.2648
G0 Z0.4
X-0.6148 Y4.5909
Z0.13
G1 Z0.0652 F40.
G19 G2 Y4.5757 Z0.05 J-0.0152 K0.
G1 Y4.5681
G17 G3 X-0.6039 Y4.5572 I0.0109 J0.
Y4.6009 Z0.0327 I0. J0.0218
Y4.5572 Z0.0154 I0. J-0.0218
Y4.6009 Z-0.0018 I0. J0.0218
Y4.5572 Z-0.0191 I0. J-0.0218
Y4.6009 Z-0.0364 I0. J0.0218
Y4.5572 Z-0.0537 I0. J-0.0218
Y4.6009 Z-0.071 I0. J0.0218
Y4.5572 Z-0.0882 I0. J-0.0218
Y4.6009 Z-0.1055 I0. J0.0218
Y4.5572 Z-0.1228 I0. J-0.0218
Y4.6009 Z-0.1401 I0. J0.0218
Y4.5572 Z-0.1574 I0. J-0.0218
Y4.6009 Z-0.1746 I0. J0.0218
Y4.5572 Z-0.1919 I0. J-0.0218
Y4.6009 Z-0.2092 I0. J0.0218
Y4.5572 Z-0.2265 I0. J-0.0218
Y4.6009 Z-0.2438 I0. J0.0218
Y4.5572 Z-0.261 I0. J-0.0218
X-0.5823 Y4.5823 Z-0.2705 I0. J0.0218
X-0.6105 Y4.5998 Z-0.28 I-0.0216 J-0.0033
X-0.5973 Y4.5582 I0.0066 J-0.0208
X-0.6105 Y4.5998 I-0.0066 J0.0208
X-0.6176 Y4.5861 I0.0033 J-0.0104
G1 X-0.6153 Y4.5789
X-0.6144 Y4.576 Z-0.2797
X-0.6135 Y4.5733 Z-0.2788
X-0.6128 Y4.5708 Z-0.2774
X-0.6121 Y4.5686 Z-0.2755
X-0.6115 Y4.5668 Z-0.2732
X-0.6111 Y4.5655 Z-0.2706
X-0.6108 Y4.5646 Z-0.2677
X-0.6107 Y4.5644 Z-0.2648
G0 Z0.4
X-0.6575 Y3.5918
Z0.13
G1 Z0.0652 F40.
G19 G2 Y3.5766 Z0.05 J-0.0152 K0.
G1 Y3.569
G17 G3 X-0.6466 Y3.5581 I0.0109 J0.
Y3.6018 Z0.0327 I0. J0.0219
Y3.5581 Z0.0154 I0. J-0.0219
Y3.6018 Z-0.0018 I0. J0.0219
Y3.5581 Z-0.0191 I0. J-0.0219
Y3.6018 Z-0.0364 I0. J0.0219
Y3.5581 Z-0.0537 I0. J-0.0219
Y3.6018 Z-0.071 I0. J0.0219
Y3.5581 Z-0.0882 I0. J-0.0219
Y3.6018 Z-0.1055 I0. J0.0219
Y3.5581 Z-0.1228 I0. J-0.0219
Y3.6018 Z-0.1401 I0. J0.0219
Y3.5581 Z-0.1574 I0. J-0.0219
Y3.6018 Z-0.1746 I0. J0.0218
Y3.5581 Z-0.1919 I0. J-0.0218
Y3.6018 Z-0.2092 I0. J0.0218
Y3.5581 Z-0.2265 I0. J-0.0218
Y3.6018 Z-0.2438 I0. J0.0218
Y3.5581 Z-0.261 I0. J-0.0218
X-0.625 Y3.5832 Z-0.2705 I0. J0.0218
X-0.6531 Y3.6008 Z-0.28 I-0.0216 J-0.0033
X-0.64 Y3.5591 I0.0066 J-0.0208
X-0.6531 Y3.6008 I-0.0066 J0.0208
X-0.6603 Y3.5871 I0.0033 J-0.0104
G1 X-0.658 Y3.5798
X-0.6571 Y3.577 Z-0.2797
X-0.6562 Y3.5742 Z-0.2788
X-0.6554 Y3.5717 Z-0.2774
X-0.6547 Y3.5695 Z-0.2755
X-0.6542 Y3.5677 Z-0.2732
X-0.6537 Y3.5664 Z-0.2706
X-0.6535 Y3.5655 Z-0.2677
X-0.6534 Y3.5653 Z-0.2648
G0 Z0.4
X0.1864 Y3.0553
Z0.13
G1 Z0.0652 F40.
G19 G2 Y3.0401 Z0.05 J-0.0152 K0.
G1 Y3.0325
G17 G3 X0.1973 Y3.0216 I0.0109 J0.
Y3.0653 Z0.0327 I0. J0.0219
Y3.0216 Z0.0154 I0. J-0.0219
Y3.0653 Z-0.0018 I0. J0.0219
Y3.0216 Z-0.0191 I0. J-0.0219
Y3.0653 Z-0.0364 I0. J0.0219
Y3.0216 Z-0.0537 I0. J-0.0219
Y3.0653 Z-0.071 I0. J0.0219
Y3.0216 Z-0.0882 I0. J-0.0219
Y3.0653 Z-0.1055 I0. J0.0219
Y3.0216 Z-0.1228 I0. J-0.0219
Y3.0653 Z-0.1401 I0. J0.0219
Y3.0216 Z-0.1574 I0. J-0.0219
Y3.0653 Z-0.1746 I0. J0.0219
Y3.0216 Z-0.1919 I0. J-0.0218
Y3.0653 Z-0.2092 I0. J0.0218
Y3.0216 Z-0.2265 I0. J-0.0218
Y3.0653 Z-0.2438 I0. J0.0218
Y3.0216 Z-0.261 I0. J-0.0218
X0.2189 Y3.0467 Z-0.2705 I0. J0.0218
X0.1908 Y3.0643 Z-0.28 I-0.0216 J-0.0033
X0.2039 Y3.0226 I0.0066 J-0.0208
X0.1908 Y3.0643 I-0.0066 J0.0208
X0.1836 Y3.0506 I0.0033 J-0.0104
G1 X0.1859 Y3.0433
X0.1868 Y3.0405 Z-0.2797
X0.1877 Y3.0377 Z-0.2788
X0.1885 Y3.0352 Z-0.2774
X0.1892 Y3.033 Z-0.2755
X0.1897 Y3.0312 Z-0.2732
X0.1902 Y3.0299 Z-0.2706
X0.1904 Y3.029 Z-0.2677
X0.1905 Y3.0288 Z-0.2648
G0 Z0.4
X1.073 Y3.5179
Z0.13
G1 Z0.0652 F40.
G19 G2 Y3.5027 Z0.05 J-0.0152 K0.
G1 Y3.4951
G17 G3 X1.0839 Y3.4842 I0.0109 J0.
Y3.5279 Z0.0327 I0. J0.0218
Y3.4842 Z0.0154 I0. J-0.0218
Y3.5279 Z-0.0018 I0. J0.0218
Y3.4842 Z-0.0191 I0. J-0.0218
Y3.5279 Z-0.0364 I0. J0.0218
Y3.4842 Z-0.0537 I0. J-0.0218
Y3.5279 Z-0.071 I0. J0.0218
Y3.4842 Z-0.0882 I0. J-0.0218
Y3.5279 Z-0.1055 I0. J0.0218
Y3.4842 Z-0.1228 I0. J-0.0219
Y3.5279 Z-0.1401 I0. J0.0219
Y3.4842 Z-0.1574 I0. J-0.0219
Y3.5279 Z-0.1746 I0. J0.0219
Y3.4842 Z-0.1919 I0. J-0.0219
Y3.5279 Z-0.2092 I0. J0.0219
Y3.4842 Z-0.2265 I0. J-0.0219
Y3.5279 Z-0.2438 I0. J0.0219
Y3.4842 Z-0.261 I0. J-0.0219
X1.1055 Y3.5093 Z-0.2705 I0. J0.0219
X1.0774 Y3.5269 Z-0.28 I-0.0216 J-0.0033
X1.0905 Y3.4852 I0.0066 J-0.0208
X1.0774 Y3.5269 I-0.0066 J0.0208
X1.0702 Y3.5131 I0.0033 J-0.0104
G1 X1.0725 Y3.5059
X1.0734 Y3.5031 Z-0.2797
X1.0743 Y3.5003 Z-0.2788
X1.075 Y3.4978 Z-0.2774
X1.0757 Y3.4956 Z-0.2755
X1.0763 Y3.4938 Z-0.2732
X1.0767 Y3.4925 Z-0.2706
X1.077 Y3.4916 Z-0.2677
X1.0771 Y3.4914 Z-0.2648
G0 Z0.4
X1.4952 Y3.2495
Z0.13
G1 Z0.0652 F40.
G19 G2 Y3.2343 Z0.05 J-0.0152 K0.
G1 Y3.2267
G17 G3 X1.5061 Y3.2158 I0.0109 J0.
Y3.2595 Z0.0327 I0. J0.0219
Y3.2158 Z0.0154 I0. J-0.0219
Y3.2595 Z-0.0018 I0. J0.0219
Y3.2158 Z-0.0191 I0. J-0.0219
Y3.2595 Z-0.0364 I0. J0.0219
Y3.2158 Z-0.0537 I0. J-0.0219
Y3.2595 Z-0.071 I0. J0.0219
Y3.2158 Z-0.0882 I0. J-0.0219
Y3.2595 Z-0.1055 I0. J0.0219
Y3.2158 Z-0.1228 I0. J-0.0219
Y3.2595 Z-0.1401 I0. J0.0219
Y3.2158 Z-0.1574 I0. J-0.0219
Y3.2595 Z-0.1746 I0. J0.0219
Y3.2158 Z-0.1919 I0. J-0.0219
Y3.2595 Z-0.2092 I0. J0.0218
Y3.2158 Z-0.2265 I0. J-0.0218
Y3.2595 Z-0.2438 I0. J0.0218
Y3.2158 Z-0.261 I0. J-0.0218
X1.5277 Y3.2409 Z-0.2705 I0. J0.0218
X1.4995 Y3.2585 Z-0.28 I-0.0216 J-0.0033
X1.5127 Y3.2168 I0.0066 J-0.0208
X1.4995 Y3.2585 I-0.0066 J0.0208
X1.4924 Y3.2448 I0.0033 J-0.0104
G1 X1.4947 Y3.2375
X1.4956 Y3.2347 Z-0.2797
X1.4964 Y3.2319 Z-0.2788
X1.4972 Y3.2294 Z-0.2774
X1.4979 Y3.2272 Z-0.2755
X1.4985 Y3.2254 Z-0.2732
X1.4989 Y3.2241 Z-0.2706
X1.4992 Y3.2232 Z-0.2677
X1.4993 Y3.223 Z-0.2648
G0 Z0.4
X1.3641 Y1.3869
Z0.13
G1 Z0.0652 F40.
G19 G2 Y1.3717 Z0.05 J-0.0152 K0.
G1 Y1.3641
G17 G3 X1.375 Y1.3532 I0.0109 J0.
Y1.3968 Z0.0327 I0. J0.0218
Y1.3532 Z0.0154 I0. J-0.0218
Y1.3968 Z-0.0018 I0. J0.0218
Y1.3531 Z-0.0191 I0. J-0.0218
Y1.3968 Z-0.0364 I0. J0.0218
Y1.3531 Z-0.0537 I0. J-0.0218
Y1.3968 Z-0.071 I0. J0.0218
Y1.3531 Z-0.0882 I0. J-0.0218
Y1.3968 Z-0.1055 I0. J0.0218
Y1.3531 Z-0.1228 I0. J-0.0219
Y1.3968 Z-0.1401 I0. J0.0219
Y1.3531 Z-0.1574 I0. J-0.0219
Y1.3968 Z-0.1746 I0. J0.0219
Y1.3531 Z-0.1919 I0. J-0.0219
Y1.3969 Z-0.2092 I0. J0.0219
Y1.3531 Z-0.2265 I0. J-0.0219
Y1.3969 Z-0.2438 I0. J0.0219
Y1.3531 Z-0.261 I0. J-0.0219
X1.3966 Y1.3783 Z-0.2705 I0. J0.0219
X1.3684 Y1.3958 Z-0.28 I-0.0216 J-0.0033
X1.3816 Y1.3542 I0.0066 J-0.0208
X1.3684 Y1.3958 I-0.0066 J0.0208
X1.3613 Y1.3821 I0.0033 J-0.0104
G1 X1.3636 Y1.3749
X1.3645 Y1.372 Z-0.2797
X1.3653 Y1.3693 Z-0.2788
X1.3661 Y1.3668 Z-0.2774
X1.3668 Y1.3646 Z-0.2755
X1.3674 Y1.3628 Z-0.2732
X1.3678 Y1.3615 Z-0.2706
X1.3681 Y1.3606 Z-0.2677
X1.3682 Y1.3603 Z-0.2648
G0 Z0.4
X-1.3859 Y1.3869
Z0.13
G1 Z0.0652 F40.
G19 G2 Y1.3717 Z0.05 J-0.0152 K0.
G1 Y1.3641
G17 G3 X-1.375 Y1.3532 I0.0109 J0.
Y1.3968 Z0.0327 I0. J0.0218
Y1.3531 Z0.0154 I0. J-0.0218
Y1.3968 Z-0.0018 I0. J0.0218
Y1.3531 Z-0.0191 I0. J-0.0218
Y1.3968 Z-0.0364 I0. J0.0218
Y1.3531 Z-0.0537 I0. J-0.0218
Y1.3968 Z-0.071 I0. J0.0219
Y1.3531 Z-0.0882 I0. J-0.0219
Y1.3968 Z-0.1055 I0. J0.0219
Y1.3531 Z-0.1228 I0. J-0.0219
Y1.3969 Z-0.1401 I0. J0.0219
Y1.3531 Z-0.1574 I0. J-0.0219
Y1.3969 Z-0.1746 I0. J0.0219
Y1.3531 Z-0.1919 I0. J-0.0219
Y1.3969 Z-0.2092 I0. J0.0219
Y1.3531 Z-0.2265 I0. J-0.0219
Y1.3969 Z-0.2438 I0. J0.0219
Y1.3531 Z-0.261 I0. J-0.0219
X-1.3534 Y1.3783 Z-0.2705 I0. J0.0219
X-1.3816 Y1.3958 Z-0.28 I-0.0216 J-0.0033
X-1.3684 Y1.3542 I0.0066 J-0.0208
X-1.3816 Y1.3958 I-0.0066 J0.0208
X-1.3887 Y1.3821 I0.0033 J-0.0104
G1 X-1.3864 Y1.3749
X-1.3855 Y1.372 Z-0.2797
X-1.3847 Y1.3693 Z-0.2788
X-1.3839 Y1.3668 Z-0.2774
X-1.3832 Y1.3646 Z-0.2755
X-1.3826 Y1.3628 Z-0.2732
X-1.3822 Y1.3615 Z-0.2706
X-1.3819 Y1.3606 Z-0.2677
X-1.3818 Y1.3603 Z-0.2648
G0 Z0.4
X-1.3859 Y-1.3631
Z0.13
G1 Z0.0652 F40.
G19 G2 Y-1.3783 Z0.05 J-0.0152 K0.
G1 Y-1.3859
G17 G3 X-1.375 Y-1.3968 I0.0109 J0.
Y-1.3532 Z0.0327 I0. J0.0218
Y-1.3968 Z0.0154 I0. J-0.0218
Y-1.3532 Z-0.0018 I0. J0.0218
Y-1.3968 Z-0.0191 I0. J-0.0218
Y-1.3532 Z-0.0364 I0. J0.0218
Y-1.3968 Z-0.0537 I0. J-0.0218
Y-1.3532 Z-0.071 I0. J0.0218
Y-1.3968 Z-0.0882 I0. J-0.0218
Y-1.3532 Z-0.1055 I0. J0.0218
Y-1.3968 Z-0.1228 I0. J-0.0218
Y-1.3532 Z-0.1401 I0. J0.0218
Y-1.3968 Z-0.1574 I0. J-0.0218
Y-1.3532 Z-0.1746 I0. J0.0218
Y-1.3968 Z-0.1919 I0. J-0.0218
Y-1.3532 Z-0.2092 I0. J0.0218
Y-1.3968 Z-0.2265 I0. J-0.0218
Y-1.3532 Z-0.2438 I0. J0.0218
Y-1.3968 Z-0.261 I0. J-0.0218
X-1.3534 Y-1.3717 Z-0.2705 I0. J0.0218
X-1.3816 Y-1.3542 Z-0.28 I-0.0216 J-0.0033
X-1.3684 Y-1.3958 I0.0066 J-0.0208
X-1.3816 Y-1.3542 I-0.0066 J0.0208
X-1.3887 Y-1.3679 I0.0033 J-0.0104
G1 X-1.3864 Y-1.3751
X-1.3855 Y-1.378 Z-0.2797
X-1.3847 Y-1.3807 Z-0.2788
X-1.3839 Y-1.3832 Z-0.2774
X-1.3832 Y-1.3854 Z-0.2755
X-1.3826 Y-1.3872 Z-0.2732
X-1.3822 Y-1.3885 Z-0.2706
X-1.3819 Y-1.3894 Z-0.2677
X-1.3818 Y-1.3897 Z-0.2648
G0 Z0.4
X1.3641 Y-1.3631
Z0.13
G1 Z0.0652 F40.
G19 G2 Y-1.3783 Z0.05 J-0.0152 K0.
G1 Y-1.3859
G17 G3 X1.375 Y-1.3968 I0.0109 J0.
Y-1.3532 Z0.0327 I0. J0.0218
Y-1.3968 Z0.0154 I0. J-0.0218
Y-1.3532 Z-0.0018 I0. J0.0218
Y-1.3968 Z-0.0191 I0. J-0.0218
Y-1.3532 Z-0.0364 I0. J0.0218
Y-1.3968 Z-0.0537 I0. J-0.0218
Y-1.3532 Z-0.071 I0. J0.0218
Y-1.3968 Z-0.0882 I0. J-0.0218
Y-1.3532 Z-0.1055 I0. J0.0218
Y-1.3968 Z-0.1228 I0. J-0.0218
Y-1.3532 Z-0.1401 I0. J0.0218
Y-1.3968 Z-0.1574 I0. J-0.0218
Y-1.3532 Z-0.1746 I0. J0.0218
Y-1.3968 Z-0.1919 I0. J-0.0218
Y-1.3532 Z-0.2092 I0. J0.0218
Y-1.3968 Z-0.2265 I0. J-0.0218
Y-1.3532 Z-0.2438 I0. J0.0218
Y-1.3968 Z-0.261 I0. J-0.0218
X1.3966 Y-1.3717 Z-0.2705 I0. J0.0218
X1.3684 Y-1.3542 Z-0.28 I-0.0216 J-0.0033
X1.3816 Y-1.3958 I0.0066 J-0.0208
X1.3684 Y-1.3542 I-0.0066 J0.0208
X1.3613 Y-1.3679 I0.0033 J-0.0104
G1 X1.3636 Y-1.3751
X1.3645 Y-1.378 Z-0.2797
X1.3653 Y-1.3807 Z-0.2788
X1.3661 Y-1.3832 Z-0.2774
X1.3668 Y-1.3854 Z-0.2755
X1.3674 Y-1.3872 Z-0.2732
X1.3678 Y-1.3885 Z-0.2706
X1.3681 Y-1.3894 Z-0.2677
X1.3682 Y-1.3897 Z-0.2648
G0 Z0.6
(.3 CIRCULAR THROUGH HOLE)
M7
G0 X0.3319 Y4.018
Z0.6
Z0.2
G1 Z0.1147 F13.333
G3 X0.3326 Y4.0192 Z0.1083 I-0.0377 J0.0245 F55.
X0.3346 Y4.0227 Z0.103 I-0.0385 J0.0233
X0.3368 Y4.0281 Z0.1 I-0.0404 J0.0198
X0.2515 Y4.0569 Z0.0621 I-0.0426 J0.0144
X0.3368 Y4.0281 Z0.0242 I0.0426 J-0.0144
X0.2515 Y4.0569 Z-0.0136 I-0.0426 J0.0144
X0.3368 Y4.0281 Z-0.0515 I0.0426 J-0.0144
X0.2515 Y4.0569 Z-0.0894 I-0.0426 J0.0144
X0.2492 Y4.0425 Z-0.0933 I0.0426 J-0.0144
X0.3309 I0.0409 J0. F60.
X0.1492 I-0.0909 J0.
X0.4309 I0.1408 J0.
X0.0492 I-0.1908 J0.
X0.4309 I0.1908 J0.
G2 X0.4706 Y4.109 I0.0754 J0.
G3 X0.4923 Y4.1833 I-0.0257 J0.0478
X0.24 Y4.3314 I-0.2523 J-0.1407
Y3.7537 I0. J-0.2889
X0.4923 Y4.1833 I0. J0.2889
X0.4804 Y4.1851 I-0.0067 J-0.0037
G1 X0.3561 Y4.0679
G2 X0.3474 Y4.0656 I-0.0059 J0.0048
G1 X0.2927 Y4.0868
G3 X0.2891 Y4.0872 I-0.0027 J-0.0071
X0.2993 Y3.9978 Z-0.1312 I0.0051 J-0.0447 F55.
X0.2891 Y4.0872 Z-0.1691 I-0.0051 J0.0447
X0.2492 Y4.0425 Z-0.1867 I0.0051 J-0.0447
X0.3309 I0.0409 J0. F60.
X0.1492 I-0.0909 J0.
X0.4309 I0.1408 J0.
X0.0492 I-0.1908 J0.
X0.4309 I0.1908 J0.
G2 X0.4706 Y4.109 I0.0754 J0.
G3 X0.4923 Y4.1833 I-0.0257 J0.0478
X0.24 Y4.3314 I-0.2523 J-0.1407
Y3.7537 I0. J-0.2889
X0.4923 Y4.1833 I0. J0.2889
X0.4804 Y4.1851 I-0.0067 J-0.0037
G1 X0.3561 Y4.0679
G2 X0.3474 Y4.0656 I-0.0059 J0.0048
G1 X0.2927 Y4.0868
G3 X0.2891 Y4.0872 I-0.0027 J-0.0071
X0.2993 Y3.9978 Z-0.2245 I0.0051 J-0.0447 F55.
X0.2891 Y4.0872 Z-0.2624 I-0.0051 J0.0447
X0.2492 Y4.0425 Z-0.28 I0.0051 J-0.0447
X0.3309 I0.0409 J0. F60.
X0.1492 I-0.0909 J0.
X0.4309 I0.1408 J0.
X0.0492 I-0.1908 J0.
X0.4309 I0.1908 J0.
G2 X0.4706 Y4.109 I0.0754 J0.
G3 X0.4923 Y4.1833 I-0.0257 J0.0478
X0.24 Y4.3314 I-0.2523 J-0.1407
Y3.7537 I0. J-0.2889
X0.4923 Y4.1833 I0. J0.2889
G2 X0.4929 Y4.1921 I0.0071 J0.0039
G3 X0.4934 Y4.201 I-0.0062 J0.0048
X0.24 Y4.3414 I-0.2534 J-0.1585
Y3.7437 I0. J-0.2989
X0.4934 Y4.201 I0. J0.2989
X0.4894 Y4.2053 Z-0.2788 I-0.0129 J-0.0081
X0.485 Y4.2075 Z-0.2755 I-0.009 J-0.0123
X0.4818 Y4.2081 Z-0.2706 I-0.0046 J-0.0145
X0.4806 Y4.2082 Z-0.2648 I-0.0013 J-0.0152
G0 Z0.6
(SHAPE THROUGH HOLE)
M7
G0 X-0.5106 Y2.4688
Z0.6
Z0.1
G3 X-0.6094 Y2.3632 Z0.0599 I-0.0494 J-0.0528 F50.
X-0.5106 Y2.4688 Z0.0199 I0.0494 J0.0528
X-0.6094 Y2.3632 Z-0.0202 I-0.0494 J-0.0528
X-0.5106 Y2.4688 Z-0.0603 I0.0494 J0.0528
X-0.6094 Y2.3632 Z-0.1004 I-0.0494 J-0.0528
X-0.4877 Y2.416 Z-0.13 I0.0494 J0.0528
X-0.6324 I-0.0723 J0.
X-0.4879 Y2.4102 I0.0723 J0.
G1 X-0.4877 Y2.416
G3 X-0.6257 Y2.5521 I-0.0789 J0.058 F60.
G1 X-0.6419 Y2.4626
X-0.6507 Y2.416
X-0.659 Y2.3694
X-0.6587 Y2.3612
X-0.6577 Y2.353
X-0.6562 Y2.3449
X-0.6541 Y2.337
X-0.6514 Y2.3293
X-0.6481 Y2.3217
X-0.6442 Y2.3145
X-0.6398 Y2.3076
X-0.6349 Y2.301
X-0.6295 Y2.2948
X-0.6237 Y2.289
X-0.6174 Y2.2837
X-0.6108 Y2.2788
X-0.6038 Y2.2745
X-0.5965 Y2.2707
X-0.589 Y2.2675
X-0.5812 Y2.2649
X-0.5733 Y2.2628
X-0.5652 Y2.2614
X-0.557 Y2.2605
X-0.5488 Y2.2603
X-0.5406 Y2.2607
X-0.5325 Y2.2617
X-0.5244 Y2.2633
X-0.5165 Y2.2655
X-0.5088 Y2.2683
X-0.5013 Y2.2717
X-0.4941 Y2.2757
X-0.4872 Y2.2801
X-0.4807 Y2.2851
G3 X-0.4366 Y2.5325 I-17.1341 J3.1831
G1 X-0.4376 Y2.5416
X-0.4393 Y2.5506
X-0.4415 Y2.5594
X-0.4444 Y2.5681
X-0.4478 Y2.5766
X-0.4517 Y2.5848
X-0.4562 Y2.5928
X-0.4612 Y2.6004
X-0.4668 Y2.6077
X-0.4728 Y2.6146
X-0.4792 Y2.621
X-0.4861 Y2.6271
X-0.4933 Y2.6326
X-0.5009 Y2.6377
X-0.5088 Y2.6423
X-0.517 Y2.6463
X-0.5255 Y2.6497
X-0.5342 Y2.6526
X-0.543 Y2.6549
X-0.552 Y2.6566
X-0.561 Y2.6577
X-0.5702 Y2.6582
X-0.5793 Y2.658
X-0.5884 Y2.6573
X-0.5974 Y2.656
X-0.6063 Y2.654
X-0.6151 Y2.6515
X-0.6237 Y2.6484
X-0.6321 Y2.6447
X-0.6402 Y2.6405
X-0.648 Y2.6358
X-0.634 Y2.6025
X-0.625 Y2.5558
X-0.6257 Y2.5521
G3 X-0.6201 Y2.5379 I0.0151 J-0.0022
X-0.5704 Y2.5762 I0.02 J0.0254
X-0.6187 Y2.6197 I-0.0722 J-0.0315
X-0.6333 Y2.6229 I-0.0239 J-0.075 F50.
G2 X-0.6455 Y2.632 I0.0018 J0.0151
G1 X-0.6509 Y2.6459 F60.
X-0.6516 Y2.6481
X-0.6519 Y2.6491
X-0.6521 Y2.6501
Y2.6512
Y2.6579
G2 X-0.4863 Y2.7235 I0.111 J-0.0382
X-0.4366 Y2.5325 I-0.2018 J-0.1545
X-0.4641 Y2.5267 I-0.015 J0.0028
X-0.4734 Y2.5451 I0.0631 J0.0434
X-0.4874 Y2.6934 I0.2977 J0.1029
G1 X-0.4841 Y2.7121 F50.
G3 X-0.4863 Y2.7235 I-0.0149 J0.0031
X-0.6515 Y2.658 I-0.0766 J-0.048 F60.
G1 X-0.6513 Y2.6554
X-0.6506 Y2.6528
X-0.6494 Y2.6504
X-0.6479 Y2.6482
X-0.6459 Y2.6464
X-0.6437 Y2.6449
X-0.6412 Y2.6438
X-0.6385 Y2.6432
X-0.6295 Y2.6422
X-0.6239 Y2.6416
G2 X-0.6263 Y2.6191 I-0.0012 J-0.0112
X-0.632 Y2.6215 I0.0012 J0.0112
X-0.6509 Y2.6459 I0.0383 J0.0491 F50.
G1 X-0.6521 Y2.6491 F60.
Y2.6512
G2 X-0.644 Y2.664 I0.0152 J-0.0006
X-0.6108 Y2.6624 I0.0152 J-0.0291
X-0.6347 Y2.3859 I-0.0861 J-0.1318
X-0.6488 Y2.3806 I-0.0622 J0.1447 F50.
G3 X-0.659 Y2.3694 I0.0047 J-0.0145
G1 X-0.6674 Y2.3228 F60.
X-0.6738 Y2.2994
X-0.6736 Y2.2908
X-0.6728 Y2.2823
X-0.6714 Y2.2738
X-0.6694 Y2.2654
X-0.6669 Y2.2572
X-0.6638 Y2.2492
X-0.6601 Y2.2414
X-0.6559 Y2.2339
X-0.6513 Y2.2267
X-0.6461 Y2.2198
X-0.6404 Y2.2133
X-0.6344 Y2.2072
X-0.6279 Y2.2015
X-0.6211 Y2.1963
X-0.6139 Y2.1916
X-0.6064 Y2.1874
X-0.5986 Y2.1837
X-0.5906 Y2.1806
X-0.5824 Y2.178
X-0.574 Y2.176
X-0.5655 Y2.1746
X-0.557 Y2.1738
X-0.5484 Y2.1735
X-0.5398 Y2.1739
X-0.5312 Y2.1748
X-0.5228 Y2.1764
X-0.5144 Y2.1785
X-0.5063 Y2.1812
X-0.5046 Y2.1829
X-0.4908 Y2.2295
X-0.4807 Y2.2851
G3 X-0.4864 Y2.2993 I-0.0151 J0.0022
X-0.5049 Y2.2948 I-0.0075 J-0.0095
X-0.5102 Y2.21 I0.1073 J-0.0493
X-0.5048 Y2.196 I0.1126 J0.0355 F50.
G2 X-0.5062 Y2.1809 I-0.0138 J-0.0064
G1 X-0.5133 Y2.1714 F60.
X-0.5384 Y2.1442
G2 X-0.7486 Y2.224 I-0.079 J0.1087
G1 X-0.7385 Y2.2295
X-0.7041 Y2.2546
G2 X-0.6889 Y2.2557 I0.0085 J-0.0126
X-0.6852 Y2.2318 I-0.0064 J-0.0132
X-0.7159 Y2.2213 I-0.027 J0.0287
X-0.7302 Y2.2255 I0.0037 J0.0392 F50.
G3 X-0.7454 Y2.2247 I-0.007 J-0.0135
G1 X-0.7469 Y2.2237 F60.
X-0.7612 Y2.2129
G3 X-0.6716 Y2.0424 I0.0983 J-0.0572
G1 X-0.6694 Y2.0443
X-0.6676 Y2.0466
X-0.6663 Y2.0493
X-0.6655 Y2.0522
X-0.6653 Y2.0552
X-0.6657 Y2.0582
X-0.6668 Y2.061
X-0.6709 Y2.0694
X-0.7368 Y2.2029
X-0.7389 Y2.2072 F50.
G3 X-0.7612 Y2.2129 I-0.0137 J-0.0067
G1 X-0.7936 Y2.1885 F60.
X-0.801 Y2.1829
X-0.8192 Y2.1588
G3 X-0.8137 Y2.0403 I0.0971 J-0.0549
X-0.7891 Y2.0528 I0.0095 J0.0119
G1 X-0.7921 Y2.1497
X-0.7925 Y2.1527
X-0.7935 Y2.1555
G3 X-0.8192 Y2.1588 I-0.0138 J-0.0063 F50.
G1 X-0.8235 Y2.1525 F60.
X-0.8273 Y2.1459
X-0.8306 Y2.139
X-0.8333 Y2.1319
X-0.8354 Y2.1246
X-0.8369 Y2.1171
X-0.8378 Y2.1095
X-0.8381 Y2.1019
X-0.8378 Y2.0943
X-0.8369 Y2.0867
X-0.8354 Y2.0792
X-0.8333 Y2.0719
X-0.8306 Y2.0648
X-0.8273 Y2.0579
X-0.8235 Y2.0513
X-0.8191 Y2.045
X-0.8143 Y2.0391
X-0.809 Y2.0336
X-0.8033 Y2.0285
X-0.7972 Y2.0239
X-0.7908 Y2.0199
X-0.784 Y2.0163
X-0.777 Y2.0133
X-0.7698 Y2.0109
X-0.7624 Y2.0091
X-0.7548 Y2.0079
X-0.7472 Y2.0073
X-0.7396
X-0.732 Y2.0079
X-0.7245 Y2.0091
X-0.7171 Y2.0109
X-0.7098 Y2.0133
X-0.7028 Y2.0163
X-0.6961 Y2.0199
X-0.6896 Y2.0239
X-0.6835 Y2.0285
X-0.6778 Y2.0336
X-0.6725 Y2.0391
X-0.6677 Y2.045
X-0.6634 Y2.0512
X-0.6595 Y2.0578
G3 X-0.5384 Y2.1442 I-0.1709 J0.3678
X-0.5462 Y2.1689 I-0.0116 J0.0099
G1 X-0.5491 Y2.1696 Z-0.1297
X-0.5518 Y2.1703 Z-0.1288
X-0.5544 Y2.171 Z-0.1274
X-0.5566 Y2.1715 Z-0.1255
X-0.5585 Y2.172 Z-0.1232
X-0.5598 Y2.1724 Z-0.1206
X-0.5607 Y2.1726 Z-0.1177
X-0.5609 Z-0.1148
G0 Z0.4
X0.7509 Y2.1425
Z0.1
G3 X0.652 Y2.0368 Z0.0599 I-0.0494 J-0.0528 F50.
X0.7509 Y2.1425 Z0.0199 I0.0494 J0.0528
X0.652 Y2.0368 Z-0.0202 I-0.0494 J-0.0528
X0.7509 Y2.1425 Z-0.0603 I0.0494 J0.0528
X0.652 Y2.0368 Z-0.1004 I-0.0494 J-0.0528
X0.7738 Y2.0897 Z-0.13 I0.0494 J0.0528
X0.6291 I-0.0723 J0.
X0.7736 Y2.0839 I0.0723 J0.
G1 X0.7738 Y2.0897
G3 X0.7252 Y2.2305 I-0.06 J0.0581 F60.
X0.6296 Y2.0422 I0.0846 J-0.1613
X0.8337 Y2.0805 I0.0918 J0.0739
G1 X0.8401 Y2.0866
X0.8462 Y2.0932
X0.8517 Y2.1002
X0.8568 Y2.1076
X0.8613 Y2.1153
X0.8653 Y2.1233
X0.8687 Y2.1315
X0.8715 Y2.14
X0.8738 Y2.1487
X0.8754 Y2.1575
X0.8764 Y2.1663
X0.8768 Y2.1753
X0.8766 Y2.1842
X0.8757 Y2.1931
X0.8742 Y2.2019
X0.8722 Y2.2106
X0.8695 Y2.2191
X0.8662 Y2.2274
X0.8623 Y2.2355
X0.858 Y2.2433
X0.853 Y2.2507
X0.8476 Y2.2578
X0.8417 Y2.2645
X0.8353 Y2.2708
X0.8285 Y2.2766
X0.8213 Y2.2819
X0.8138 Y2.2867
X0.806 Y2.291
X0.7978 Y2.2947
X0.7895 Y2.2978
X0.7737 Y2.2761
X0.7482 Y2.2517
X0.7252 Y2.2305
G3 X0.7251 Y2.2089 I0.0107 J-0.0108
X0.7514 Y2.2063 I0.0148 J0.0147
X0.7861 Y2.2645 I-0.0437 J0.0655
X0.7856 Y2.2834 I-0.0784 J0.0073 F50.
G2 X0.7884 Y2.2947 I0.0151 J0.0023
G1 X0.7949 Y2.3028 F60.
X0.7959 Y2.3047
G2 X0.9581 Y2.1984 I0.054 J-0.0946
X0.8416 Y2.0779 I-0.7392 J0.5984
X0.8267 Y2.0749 I-0.0101 J0.0114
X0.8188 Y2.0864 I0.0037 J0.0111
G1 X0.8199 Y2.0948
X0.8217 Y2.103
X0.824 Y2.111
X0.827 Y2.1189
X0.8304 Y2.1266
X0.8344 Y2.134
X0.8389 Y2.1411
X0.844 Y2.1478
X0.8494 Y2.1542
X0.8554 Y2.1601
X0.8617 Y2.1657
X0.8684 Y2.1708
X0.8754 Y2.1753
X0.8828 Y2.1794
X0.8904 Y2.1829
X0.8983 Y2.1859
X0.9063 Y2.1883
X0.9145 Y2.1902
X0.9229 Y2.1914
X0.9312 Y2.1921
G2 X0.9462 Y2.1917 I0.005 J-0.118 F50.
G3 X0.96 Y2.1982 I0.0013 J0.0152
G1 X0.9803 Y2.2295 F60.
X0.9879 Y2.2622
G3 X0.8067 Y2.4033 I-0.1364 J0.0117
G1 X0.8118 Y2.3894
X0.8196 Y2.3694
X0.8083 Y2.3315
G3 X0.8191 Y2.3129 I0.0147 J-0.0039
X0.8525 Y2.3608 I0.0079 J0.0301
X0.8338 Y2.3798 I-0.0646 J-0.0451
X0.8172 Y2.3889 I-0.0459 J-0.064 F50.
G2 X0.8089 Y2.397 I0.0057 J0.0141
G1 X0.804 Y2.4095 F60.
G2 X0.9955 Y2.4395 I0.1027 J-0.0293
X0.9912 Y2.2761 I-0.1513 J-0.0778
G1 X0.9879 Y2.2622
G2 X0.9771 Y2.2514 I-0.0147 J0.004
X0.9603 Y2.26 I-0.0036 J0.0137
X0.9845 Y2.4154 I0.147 J0.0566
X0.9945 Y2.4266 I0.1227 J-0.0987 F50.
G3 X0.9982 Y2.4413 I-0.0109 J0.0106
G1 X0.9914 Y2.4626 F60.
X0.9818 Y2.4819
X0.9675 Y2.5092
G3 X0.8832 Y2.5566 I-0.0817 J-0.0466
X0.8792 Y2.5287 I0.0037 J-0.0148
X0.9536 Y2.4874 I0.0949 J0.0833
X0.9675 Y2.5092 I0.0002 J0.0152 F50.
X0.8361 Y2.5425 I-0.082 J-0.0477 F60.
X0.8055 Y2.4104 I0.0494 J-0.081
G1 X0.8065 Y2.4081
X0.808 Y2.406
X0.8098 Y2.4042
X0.812 Y2.4027
X0.8144 Y2.4017
X0.817 Y2.4011
X0.8198 Y2.401
X0.8225 Y2.4014
X0.8251 Y2.4024
X0.8275 Y2.4038
X0.8296 Y2.4056
X0.8315 Y2.4079 Z-0.1297
X0.8334 Y2.4101 Z-0.1288
X0.8351 Y2.4121 Z-0.1274
X0.8366 Y2.4138 Z-0.1255
X0.8378 Y2.4153 Z-0.1232
X0.8387 Y2.4163 Z-0.1206
X0.8393 Y2.417 Z-0.1177
X0.8395 Y2.4172 Z-0.1148
G0 Z0.4
X1.5451 Y5.2193
Z0.1
G3 X1.4463 Y5.1137 Z0.0599 I-0.0494 J-0.0528 F50.
X1.5451 Y5.2193 Z0.0199 I0.0494 J0.0528
X1.4463 Y5.1137 Z-0.0202 I-0.0494 J-0.0528
X1.5451 Y5.2193 Z-0.0603 I0.0494 J0.0528
X1.4463 Y5.1137 Z-0.1004 I-0.0494 J-0.0528
X1.5681 Y5.1665 Z-0.13 I0.0494 J0.0528
X1.4234 I-0.0723 J0.
X1.5678 Y5.1607 I0.0723 J0.
G1 X1.5681 Y5.1665
G3 X1.582 Y5.2469 I-0.0365 J0.0477 F60.
X1.449 Y5.2668 I-0.547 J-3.206
G1 X1.4409 Y5.2663
X1.4328 Y5.2653
X1.4249 Y5.2637
X1.4171 Y5.2615
X1.4094 Y5.2588
X1.402 Y5.2555
X1.3949 Y5.2517
X1.388 Y5.2473
X1.3815 Y5.2425
X1.3754 Y5.2372
X1.3696 Y5.2315
X1.3643 Y5.2253
X1.3595 Y5.2188
X1.3551 Y5.212
X1.3513 Y5.2048
X1.348 Y5.1974
X1.3452 Y5.1898
X1.343 Y5.182
X1.3414 Y5.174
X1.3404 Y5.166
X1.34 Y5.1579
X1.3401 Y5.1498
X1.3409 Y5.1417
X1.3422 Y5.1337
X1.3441 Y5.1258
X1.3466 Y5.1181
X1.3497 Y5.1106
X1.3533 Y5.1033
X1.3574 Y5.0963
X1.362 Y5.0896
X1.3671 Y5.0833
G2 X1.5424 Y5.0603 I-0.136 J-1.711
G1 X1.5518 Y5.0614
X1.5611 Y5.0632
X1.5702 Y5.0655
X1.5792 Y5.0685
X1.588 Y5.072
X1.5965 Y5.076
X1.6048 Y5.0806
X1.6127 Y5.0857
X1.6203 Y5.0914
X1.6275 Y5.0974
X1.6343 Y5.104
X1.6407 Y5.1109
X1.6467 Y5.1183
X1.6521 Y5.126
X1.657 Y5.134
X1.6615 Y5.1424
X1.6653 Y5.151
X1.6686 Y5.1598
X1.6714 Y5.1689
X1.6735 Y5.1781
X1.6751 Y5.1874
X1.6761 Y5.1968
X1.6764 Y5.2062
X1.6762 Y5.2156
X1.6753 Y5.225
X1.6739 Y5.2344
X1.6359 Y5.2391
X1.582 Y5.2469
G3 X1.568 Y5.2408 I-0.0017 J-0.0151
X1.5888 Y5.1965 I0.0224 J-0.0165
X1.6461 Y5.2167 I0.0045 J0.0786
X1.6562 Y5.2277 I-0.0528 J0.0584 F50.
G2 X1.6702 Y5.2337 I0.0122 J-0.0092
G1 X1.6826 Y5.2317 F60.
X1.6897 Y5.2305
G2 X1.6862 Y5.038 I-0.0647 J-0.0951
G3 X1.5424 Y5.0603 I-0.6079 J-3.4434
G2 X1.5308 Y5.0701 I0.0027 J0.015
X1.5795 Y5.1296 I0.0422 J0.0152
X1.6696 Y5.0622 I-0.0172 J-0.1169
X1.675 Y5.0482 I-0.1073 J-0.0495 F50.
G3 X1.6862 Y5.0379 I0.0145 J0.0046
G1 X1.7147 Y5.0326 F60.
G3 X1.8157 Y5.1953 I-0.0122 J0.1203
X1.7967 Y5.1901 I-0.0064 J-0.0138
G1 X1.7914 Y5.1822
X1.7061 Y5.0571
X1.7054 Y5.056 F50.
G3 X1.7147 Y5.0326 I0.0126 J-0.0086
X1.7982 Y5.2109 I0.0418 J0.0891 F60.
X1.7311 Y5.2169 I-0.0418 J-0.0891
G1 X1.6897 Y5.2305
G3 X1.6797 Y5.2288 I-0.0026 J-0.015
G2 X1.6704 Y5.227 I-0.0074 J0.0133
G1 X1.6595 Y5.2284
X1.4848 Y5.251
X1.4821 Y5.2516
X1.4795 Y5.2527
X1.4772 Y5.2542
G3 X1.449 Y5.2668 I-0.0387 J-0.0488 F50.
G1 X1.4023 Y5.2716 F60.
X1.3661 Y5.2747
X1.3603 Y5.2752
X1.3589 Y5.2754
X1.3565
X1.3555
X1.3546 Y5.2753
X1.3536 Y5.2751
G3 X1.3443 Y5.2619 I0.0039 J-0.0127
X1.3651 Y5.252 I0.013 J0.0006
X1.3589 Y5.2754 I-0.0078 J0.0104 F50.
G1 X1.3556 Y5.2756 F60.
X1.3427 Y5.2722
G3 X1.2636 Y5.1856 I0.036 J-0.1122
X1.29 Y5.1741 I0.0152 J-0.0012
X1.361 Y5.2539 I-0.0767 J0.1397
X1.3427 Y5.2722 I-0.0148 J0.0035 F50.
X1.3673 Y5.0857 I0.0125 J-0.0932 F60.
G1 X1.3697 Y5.0855
X1.3723 Y5.0858
X1.3747 Y5.0866
X1.377 Y5.0878
X1.379 Y5.0895
X1.3808 Y5.0915
X1.3821 Y5.0939
X1.383 Y5.0965
X1.3833 Y5.0992
X1.3832 Y5.102
X1.3825 Y5.1047
X1.3814 Y5.1075 Z-0.1297
X1.3803 Y5.1101 Z-0.1288
X1.3792 Y5.1126 Z-0.1274
X1.3784 Y5.1147 Z-0.1255
X1.3776 Y5.1164 Z-0.1232
X1.3771 Y5.1177 Z-0.1206
X1.3767 Y5.1185 Z-0.1177
X1.3766 Y5.1188 Z-0.1148
G0 Z0.4
X2.0124 Y4.1005
Z0.1
G3 X1.9135 Y3.9948 Z0.0599 I-0.0494 J-0.0528 F50.
X2.0124 Y4.1005 Z0.0199 I0.0494 J0.0528
X1.9135 Y3.9948 Z-0.0202 I-0.0494 J-0.0528
X2.0124 Y4.1005 Z-0.0603 I0.0494 J0.0528
X1.9135 Y3.9948 Z-0.1004 I-0.0494 J-0.0528
X2.0353 Y4.0476 Z-0.13 I0.0494 J0.0528
X1.8906 I-0.0723 J0.
X2.035 Y4.0419 I0.0723 J0.
G1 X2.0353 Y4.0476
G3 X2.0479 Y4.0828 I-0.0327 J0.0316 F60.
G1 X2.0448 Y4.0943
X2.0431 Y4.1176
X2.0408 Y4.1253
X2.0379 Y4.1329
X2.0345 Y4.1403
X2.0305 Y4.1473
X2.0259 Y4.1541
X2.0209 Y4.1605
X2.0154 Y4.1664
X2.0095 Y4.172
X2.0032 Y4.1771
X1.9965 Y4.1817
X1.9895 Y4.1858
X1.9822 Y4.1893
X1.9747 Y4.1923
X1.9669 Y4.1947
X1.959 Y4.1965
X1.951 Y4.1977
X1.9429 Y4.1983
X1.9348
X1.9267 Y4.1977
X1.9186 Y4.1965
X1.9107 Y4.1947
X1.903 Y4.1922
X1.8954 Y4.1892
X1.8881 Y4.1857
X1.8811 Y4.1816
X1.8745 Y4.177
X1.8682 Y4.1719
X1.8622 Y4.1663
X1.8568 Y4.1603
X1.8518 Y4.1539
G3 X1.8823 Y3.9649 I0.5274 J-0.0119
G1 X1.8858 Y3.9574
X1.89 Y3.9502
X1.8946 Y3.9433
X1.8997 Y3.9368
X1.9053 Y3.9307
X1.9114 Y3.925
X1.9178 Y3.9198
X1.9246 Y3.9151
X1.9318 Y3.9108
X1.9392 Y3.9071
X1.9469 Y3.904
X1.9548 Y3.9015
X1.9628 Y3.8995
X1.971 Y3.8981
X1.9793 Y3.8974
X1.9875 Y3.8972
X1.9958 Y3.8977
X2.004 Y3.8988
X2.0122 Y3.9005
X2.0201 Y3.9027
X2.0279 Y3.9056
X2.0355 Y3.909
X2.0428 Y3.913
X2.0497 Y3.9175
X2.0563 Y3.9225
X2.0626 Y3.9279
X2.0684 Y3.9338
X2.0738 Y3.9402
X2.0741 Y3.9428
X2.074 Y3.9455
X2.0735 Y3.9481
X2.0724 Y3.9506
X2.0709 Y3.9528
X2.069 Y3.9548
X2.0668 Y3.9564
X2.0644 Y3.9576
X2.0617 Y3.9583
X2.056 Y3.9592
X1.9008 Y3.983
X1.8995 Y3.9832 F50.
G3 X1.8823 Y3.9649 I-0.0023 J-0.0151
G1 X1.8822 Y3.9571 F60.
X1.8827 Y3.9494
X1.8839 Y3.9417
X1.8856 Y3.9341
X1.888 Y3.9267
X1.8909 Y3.9195
X1.8944 Y3.9126
X1.8984 Y3.9059
X1.9029 Y3.8996
X1.9079 Y3.8937
X1.9134 Y3.8881
X1.9192 Y3.883
X1.9255 Y3.8784
X1.9321 Y3.8743
X1.939 Y3.8708
X1.9461 Y3.8678
X1.9535 Y3.8653
X1.9611 Y3.8635
X1.9687 Y3.8622
X1.9765 Y3.8616
X1.9842 Y3.8615
X1.992 Y3.8621
X1.9996 Y3.8633
X2.0072 Y3.8651
X2.0146 Y3.8674
X2.0218 Y3.8704
X2.0287 Y3.8739
X2.0354 Y3.8779
X2.0416 Y3.8825
X2.0476 Y3.8875
X2.0531 Y3.893
X2.0581 Y3.8989
X2.0627 Y3.9051
X2.0668 Y3.9117
X2.0703 Y3.9186
X2.0733 Y3.9258
X2.0757 Y3.9332
X2.0775 Y3.9407
X2.0788 Y3.9484
X2.0794 Y3.9562
Y3.9639
X2.0788 Y3.9717
X2.0776 Y3.9793
X2.0758 Y3.9869
X2.0734 Y3.9943
X2.0704 Y4.0014
X2.0576 Y4.0476
X2.0479 Y4.0828
G3 X2.0186 Y4.0748 I-0.0147 J-0.004
X2.0485 Y4.0788 I0.0147 J0.004
X2.0356 Y4.1026 I-0.0363 J-0.0042
X2.0103 Y4.0857 I-0.0127 J-0.0085
X2.0366 Y4.0873 I0.0127 J0.0085
X2.0431 Y4.1176 I-0.0557 J0.0279 F50.
G1 X2.0415 Y4.1409 F60.
X2.0484 Y4.1712
G3 X1.8736 Y4.2667 I-0.1151 J-0.003
G2 X1.8511 Y4.1544 I-2.3922 J0.4213
G3 X1.8568 Y4.1403 I0.0151 J-0.0021
X1.8949 Y4.1462 I0.0163 J0.0209
X1.8901 Y4.2417 I-0.0649 J0.0446
X1.8793 Y4.2522 I-0.06 J-0.0509 F50.
G2 X1.8738 Y4.2664 I0.0095 J0.0119
G1 X1.8766 Y4.2807 F60.
X1.8788 Y4.2936
X1.8831 Y4.3007
X1.8878 Y4.3075
X1.8931 Y4.3139
X1.8988 Y4.32
X1.9049 Y4.3257
X1.9114 Y4.3309
X1.9182 Y4.3356
X1.9254 Y4.3399
X1.9328 Y4.3436
X1.9405 Y4.3468
X1.9484 Y4.3495
X1.9564 Y4.3516
X1.9646 Y4.3531
X1.9729 Y4.354
X1.9812 Y4.3544
X1.9895 Y4.3542
X1.9978 Y4.3534
X2.006 Y4.352
X2.0141 Y4.35
X2.022 Y4.3475
X2.0297 Y4.3444
X2.0372 Y4.3408
X2.0444 Y4.3366
X2.0513 Y4.332
X2.0579 Y4.3269
X2.0641 Y4.3213
X2.0699 Y4.3154
X2.0752 Y4.309
G2 X2.0484 Y4.1712 I-2.6817 J0.4507
X2.0205 Y4.1675 I-0.0147 J0.0039
X2.0178 Y4.1744 I0.0212 J0.0123
X2.0531 Y4.2871 I0.1153 J0.0258
X2.068 Y4.2988 I0.08 J-0.0869 F50.
G3 X2.0745 Y4.3084 I-0.0084 J0.0127
G1 X2.0789 Y4.3344 F60.
G3 X1.8998 Y4.4217 I-0.1171 J-0.0129
G1 X1.8925 Y4.374
X1.8846 Y4.3274
X1.8788 Y4.2936
G3 X1.8845 Y4.2795 I0.0151 J-0.0021
X1.905 Y4.2789 I0.0106 J0.0136
X1.9176 Y4.3971 I-0.0451 J0.0646
X1.9065 Y4.407 I-0.0577 J-0.0536 F50.
G2 X1.9003 Y4.4209 I0.009 J0.0123
G1 X1.9037 Y4.4447 F60.
G2 X2.0994 Y4.4695 I0.1056 J-0.0487
X2.0789 Y4.3344 I-2.575 J0.3218
X2.0688 Y4.323 I-0.0149 J0.003
X2.0168 Y4.3676 I-0.0127 J0.0378
X2.0761 Y4.4509 I0.1164 J-0.0201
X2.0896 Y4.4573 I0.0571 J-0.1034 F50.
G3 X2.0991 Y4.4692 I-0.0056 J0.0142
G1 X2.1022 Y4.4974 F60.
G3 X1.9193 Y4.5761 I-0.1172 J-0.0204
G1 X1.9127 Y4.5138
X1.907 Y4.4672
X1.9037 Y4.4447
G3 X1.9099 Y4.4307 I0.0151 J-0.0016
X1.9236 Y4.4303 I0.0072 J0.0098
X1.9378 Y4.5517 I-0.0422 J0.0665
X1.9264 Y4.5614 I-0.0564 J-0.055 F50.
G2 X1.9199 Y4.5752 I0.0087 J0.0125
G1 X1.9229 Y4.6002 F60.
G2 X2.1178 Y4.6311 I0.1073 J-0.0466
X2.1022 Y4.4974 I-5.1119 J0.5264
X2.0749 Y4.4905 I-0.0151 J0.0022
X2.0669 Y4.51 I0.0346 J0.0257
X2.0975 Y4.6079 I0.1169 J0.0172
X2.1115 Y4.6206 I0.0862 J-0.0807 F50.
G3 X2.1173 Y4.6307 I-0.0093 J0.0121
G1 X2.1195 Y4.6537 F60.
X2.12 Y4.6607
X2.1177 Y4.6688
X2.115 Y4.6768
X2.1116 Y4.6845
X2.1078 Y4.692
X2.1034 Y4.6992
X2.0986 Y4.7061
X2.0932 Y4.7126
X2.0875 Y4.7187
X2.0813 Y4.7244
X2.0747 Y4.7296
X2.0678 Y4.7344
X2.0606 Y4.7387
X2.053 Y4.7425
X2.0453 Y4.7457
X2.0373 Y4.7484
X2.0292 Y4.7506
X2.0209 Y4.7521
X2.0125 Y4.7531
X2.0041 Y4.7535
X1.9957 Y4.7533
X1.9874 Y4.7525
X1.9791 Y4.7511
X1.9709 Y4.7492
X1.9628 Y4.7466
X1.955 Y4.7436
X1.9474 Y4.74
X1.9401 Y4.7358
X1.9331 Y4.7312
G2 X1.9228 Y4.6002 I-1.4062 J0.0438
G1 X1.9229 Y4.5976
X1.9233 Y4.595
X1.9243 Y4.5925
X1.9256 Y4.5902
X1.9273 Y4.5881
X1.9294 Y4.5864
G3 X1.9469 Y4.5868 I0.0086 J0.0123
X1.953 Y4.7077 I-0.0473 J0.063
X1.941 Y4.7167 I-0.0533 J-0.0579 F50.
G2 X1.9338 Y4.7301 I0.008 J0.013
G1 X1.9353 Y4.754 F60.
G2 X2.129 Y4.7945 I0.1095 J-0.0402
G1 X2.1227 Y4.7003
X2.12 Y4.6607
G2 X2.1032 Y4.6472 I-0.0151 J0.0016
X2.0841 Y4.6637 I0.0023 J0.022
X2.1096 Y4.7706 I0.1144 J0.0292
X2.1231 Y4.7838 I0.089 J-0.0777 F50.
G3 X2.1286 Y4.7941 I-0.0097 J0.0117
G1 X2.1302 Y4.8215 F60.
G3 X1.9417 Y4.8869 I-0.1153 J-0.0281
G1 X1.9407 Y4.8402
X1.9378 Y4.7935
X1.9353 Y4.754
G3 X1.9426 Y4.7406 I0.0152 J-0.0004
X1.9567 Y4.7411 I0.0067 J0.0108
X1.9621 Y4.8642 I-0.0463 J0.0637
X1.9499 Y4.8729 I-0.0517 J-0.0594 F50.
G2 X1.9423 Y4.8861 I0.0077 J0.0132
G1 X1.9429 Y4.9101 F60.
G2 X2.1344 Y4.9574 I0.1106 J-0.0364
X2.1303 Y4.8215 I-4.311 J0.0606
G1 X2.1297 Y4.8185
X2.1286 Y4.8157
X2.1269 Y4.8132
X2.1248 Y4.8111
X2.1223 Y4.8094
X2.1195 Y4.8083
X2.1166 Y4.8077
X2.1136
G2 X2.097 Y4.8207 I0.0018 J0.0193
X2.1161 Y4.9326 I0.1116 J0.0385
X2.1291 Y4.9465 I0.0925 J-0.0734 F50.
G3 X2.134 Y4.957 I-0.0103 J0.0112
G1 X2.1343 Y4.98 F60.
X2.1344 Y4.9812
G3 X1.948 Y5.0452 I-0.1151 J-0.0317
G1 X1.9443 Y5.0266
X1.9434 Y4.9334
X1.9429 Y4.9101
G3 X1.9506 Y4.897 I0.0152 J0.0002
X1.9944 Y4.9173 I0.0145 J0.0259
X1.9643 Y5.0207 I-0.116 J0.0224
X1.9534 Y5.031 I-0.0859 J-0.081 F50.
G2 X1.948 Y5.0452 I0.0097 J0.0118
G1 X1.9537 Y5.0732 F60.
X1.9629 Y5.0993
G2 X2.1863 Y5.0751 I0.103 J-0.0921
G1 X2.1573 Y5.0453
G2 X2.1426 Y5.0412 I-0.0108 J0.0107
X2.1396 Y5.0659 I0.0033 J0.0129
X2.1535 Y5.0703 I0.0186 J-0.0347
X2.1683 Y5.0693 I0.0048 J-0.0391 F50.
G3 X2.183 Y5.0732 I0.0039 J0.0147
G1 X2.1941 Y5.0852 F60.
G3 X2.0679 Y5.229 I-0.1084 J0.0322
G1 X2.0095 Y5.1665
X1.9795 Y5.1307
G3 X1.9822 Y5.1093 I0.012 J-0.0094
X2.0056 Y5.1077 I0.0129 J0.0165
X2.064 Y5.199 I-0.0592 J0.1022
X2.0642 Y5.218 I-0.1176 J0.0109 F50.
G2 X2.0679 Y5.229 I0.0152 J0.001
G1 X2.0905 Y5.2531 F60.
X2.0978 Y5.2577
X2.1054 Y5.2617
X2.1133 Y5.2652
X2.1215 Y5.2681
X2.1298 Y5.2705
X2.1382 Y5.2722
X2.1468 Y5.2733
X2.1554 Y5.2739
X2.164 Y5.2738
X2.1726 Y5.2731
X2.1811 Y5.2718
X2.1895 Y5.2699
X2.1978 Y5.2674
X2.2059 Y5.2644
X2.2137 Y5.2608
X2.2213 Y5.2566
X2.2285 Y5.2519
X2.2354 Y5.2467
X2.2419 Y5.241
X2.248 Y5.2349
X2.2536 Y5.2284
X2.2588 Y5.2215
X2.2635 Y5.2143
X2.2676 Y5.2067
X2.2712 Y5.1988
X2.2742 Y5.1908
X2.2767 Y5.1825
X2.2786 Y5.1741
G3 X2.1941 Y5.0852 I4.0522 J-3.9353
G2 X2.1794 Y5.0812 I-0.0108 J0.0107
X2.164 Y5.104 I0.0053 J0.0201
X2.2475 Y5.1722 I0.0781 J-0.0103
X2.2622 Y5.1698 I-0.0054 J-0.0786 F50.
G3 X2.2769 Y5.1738 I0.0039 J0.0147
G1 X2.29 Y5.1878 F60.
X2.2936 Y5.1917
G3 X2.1863 Y5.3561 I-0.1058 J0.0482
G1 X2.1031 Y5.2667
X2.0905 Y5.2531
G3 X2.092 Y5.2316 I0.0115 J-0.01
X2.1047 Y5.2269 I0.0128 J0.0146
G1 X2.1074 Y5.227
X2.11 Y5.2276
X2.1126 Y5.2285
G3 X2.1824 Y5.3257 I-0.0478 J0.108
X2.1826 Y5.3446 I-0.1176 J0.0109 F50.
G2 X2.1863 Y5.3557 I0.0152 J0.001
G1 X2.205 Y5.3757 F60.
G2 X2.3835 Y5.2869 I0.0606 J-0.102
G3 X2.2936 Y5.1917 I4.9769 J-4.7893
G2 X2.2789 Y5.1878 I-0.0107 J0.0108
X2.2693 Y5.1982 I0.0035 J0.0128
G1 X2.2691 Y5.1993
G2 X2.3531 Y5.2853 I0.0784 J0.0075
X2.3678 Y5.2828 I-0.0056 J-0.0785 F50.
G3 X2.3825 Y5.2868 I0.0039 J0.0147
G1 X2.4008 Y5.3063 F60.
G3 X2.2968 Y5.4747 I-0.1068 J0.0503
G1 X2.2805 Y5.4564
X2.205 Y5.3757
G3 X2.2065 Y5.3542 I0.0115 J-0.01
X2.2322 Y5.3514 I0.0148 J0.017
X2.2928 Y5.4438 I-0.0571 J0.1034
X2.293 Y5.4628 I-0.1176 J0.011 F50.
G2 X2.2968 Y5.4738 I0.0152 J0.001
G1 X2.3146 Y5.4928 F60.
G2 X2.4916 Y5.4026 I0.0597 J-0.1016
G1 X2.4008 Y5.3063
G2 X2.3861 Y5.3024 I-0.0107 J0.0108
X2.3777 Y5.3121 I0.003 J0.0112
G1 X2.3775 Y5.3134
G2 X2.4613 Y5.4011 I0.0782 J0.0091
X2.4761 Y5.3986 I-0.0056 J-0.0785 F50.
G3 X2.4908 Y5.4025 I0.0039 J0.0147
G1 X2.5076 Y5.4205 F60.
G3 X2.4059 Y5.591 I-0.104 J0.0536
G2 X2.3146 Y5.4928 I-7.7268 J7.0904
G3 X2.3161 Y5.4713 I0.0115 J-0.01
X2.3436 Y5.4687 I0.0156 J0.018
X2.402 Y5.5603 I-0.0593 J0.1022
X2.4022 Y5.5793 I-0.1176 J0.0105 F50.
G2 X2.4059 Y5.5903 I0.0152 J0.0011
G1 X2.4249 Y5.6108 F60.
G2 X2.6005 Y5.5189 I0.0574 J-0.104
G3 X2.5076 Y5.4205 I8.5429 J-8.1645
G2 X2.4816 Y5.4313 I-0.0108 J0.0108
X2.4921 Y5.4643 I0.0573 J-0.0001
X2.5699 Y5.5128 I0.0965 J-0.068
X2.5887 Y5.5143 I0.0188 J-0.1166 F50.
G1 X2.5888
G3 X2.5995 Y5.5188 I0. J0.0152
G1 X2.617 Y5.5375 F60.
G3 X2.5149 Y5.7077 I-0.1052 J0.0527
G2 X2.4249 Y5.6108 I-5.1155 J4.6614
G3 X2.422 Y5.5959 I0.0115 J-0.01
X2.4326 Y5.5879 I0.0113 J0.0039
X2.5155 Y5.6775 I0.005 J0.0786
X2.512 Y5.6921 I-0.078 J-0.011 F50.
G2 X2.5149 Y5.707 I0.0144 J0.0049
G1 X2.5236 Y5.7163 F60.
X2.5327 Y5.7259
G2 X2.7088 Y5.6358 I0.0592 J-0.1013
G1 X2.6914 Y5.6176
X2.6638 Y5.5874
X2.617 Y5.5375
G2 X2.5911 Y5.5485 I-0.0107 J0.0109
X2.5996 Y5.5768 I0.0533 J-0.0004
X2.6785 Y5.6294 I0.0994 J-0.0638
X2.6974 Y5.6312 I0.0205 J-0.1163 F50.
G3 X2.7081 Y5.6358 I-0.0002 J0.0152
G1 X2.7105 Y5.6384 F60.
X2.7269 Y5.6562
G3 X2.6226 Y5.8246 I-0.1076 J0.0499
G1 X2.5751 Y5.7725
X2.5327 Y5.7259
G3 X2.5456 Y5.7009 I0.0116 J-0.0098
X2.5758 Y5.7131 I-0.0045 J0.0547
X2.6187 Y5.7937 I-0.0747 J0.0915
X2.6189 Y5.8126 I-0.1176 J0.0109 F50.
G2 X2.6226 Y5.8237 I0.0152 J0.001
G1 X2.6404 Y5.8427 F60.
G2 X2.8174 Y5.7524 I0.0597 J-0.1016
G3 X2.7269 Y5.6562 I4.3119 J-4.1453
G2 X2.7122 Y5.6522 I-0.0108 J0.0107
X2.7031 Y5.6626 I0.0032 J0.012
X2.7871 Y5.7509 I0.0781 J0.0098
X2.8019 Y5.7484 I-0.0058 J-0.0785 F50.
G3 X2.8166 Y5.7523 I0.004 J0.0147
G1 X2.8356 Y5.7725 F60.
G3 X2.7318 Y5.9414 I-0.1078 J0.0501
G1 X2.7105 Y5.9176
X2.7056 Y5.9124
X2.6404 Y5.8427
G3 X2.6529 Y5.8175 I0.0115 J-0.01
X2.686 Y5.8307 I-0.0039 J0.0575
X2.7278 Y5.9104 I-0.0757 J0.0906
X2.7281 Y5.9293 I-0.1176 J0.011 F50.
G2 X2.7318 Y5.9404 I0.0152 J0.001
G1 X2.7492 Y5.959 F60.
G2 X2.9261 Y5.8687 I0.0598 J-0.1012
G3 X2.8356 Y5.7725 I7.8225 J-7.4562
G2 X2.8209 Y5.7686 I-0.0107 J0.0108
X2.8125 Y5.7782 I0.003 J0.011
G1 X2.8124 Y5.7797
G2 X2.896 Y5.8671 I0.0782 J0.0088
X2.9107 Y5.8647 I-0.0054 J-0.0786 F50.
G3 X2.9254 Y5.8686 I0.0039 J0.0147
G1 X2.9441 Y5.8887 F60.
G3 X2.8407 Y6.0578 I-0.1071 J0.0506
G1 X2.7572 Y5.9676
X2.7492 Y5.959
G3 X2.7508 Y5.9375 I0.0115 J-0.01
X2.7773 Y5.9349 I0.0151 J0.0175
X2.8367 Y6.0268 I-0.0582 J0.1028
X2.837 Y6.0457 I-0.1176 J0.0109 F50.
G2 X2.8407 Y6.0568 I0.0152 J0.001
G1 X2.8587 Y6.0761 F60.
G2 X3.035 Y5.9851 I0.0589 J-0.1023
G3 X2.9441 Y5.8887 I5.4694 J-5.2548
G2 X2.9294 Y5.8848 I-0.0107 J0.0108
X2.9212 Y5.8941 I0.0029 J0.0109
G1 X2.9209 Y5.896
G2 X3.0048 Y5.9835 I0.0782 J0.009
X3.0195 Y5.9811 I-0.0056 J-0.0785 F50.
G3 X3.0342 Y5.985 I0.0039 J0.0147
G1 X3.0536 Y6.0056 F60.
X3.0568 Y6.0133
X3.0595 Y6.0212
X3.0616 Y6.0293
X3.0631 Y6.0375
X3.0641 Y6.0458
X3.0644 Y6.0542
X3.0642 Y6.0625
X3.0634 Y6.0709
X3.0621 Y6.0791
X3.0601 Y6.0872
X3.0576 Y6.0952
X3.0545 Y6.103
X3.0509 Y6.1105
X3.0468 Y6.1178
X3.0422 Y6.1247
X3.0371 Y6.1314
X3.0315 Y6.1376
X3.0255 Y6.1434
X3.0192 Y6.1488
X3.0124 Y6.1538
X3.0054 Y6.1583
X2.998 Y6.1622
X2.9904 Y6.1656
X2.9826 Y6.1685
X2.9745 Y6.1709
X2.9664 Y6.1726
X2.9581 Y6.1738
X2.9498 Y6.1744
G2 X2.8587 Y6.0761 I-5.8645 J5.3386
G3 X2.8712 Y6.0509 I0.0115 J-0.01
X2.9036 Y6.0638 I-0.0038 J0.0565
X2.9457 Y6.1434 I-0.0755 J0.0909
X2.946 Y6.1623 I-0.1176 J0.0113 F50.
G2 X2.9497 Y6.1734 I0.0152 J0.001
G1 X2.9674 Y6.1921 F60.
G2 X3.144 Y6.1015 I0.0594 J-0.1016
G1 X3.131 Y6.0883
X3.0536 Y6.0056
G2 X3.0389 Y6.0017 I-0.0107 J0.0108
X3.03 Y6.012 I0.0032 J0.0117
X3.1138 Y6.0999 I0.0782 J0.0094
X3.1285 Y6.0975 I-0.0056 J-0.0785 F50.
G3 X3.1432 Y6.1014 I0.0039 J0.0147
G1 X3.1609 Y6.1203 F60.
G3 X3.0586 Y6.2902 I-0.1052 J0.0524
G2 X2.9674 Y6.1921 I-6.8982 J6.3261
G3 X2.9689 Y6.1706 I0.0115 J-0.01
X2.9971 Y6.1681 I0.0159 J0.0184
X3.0548 Y6.2594 I-0.06 J0.1017
X3.0549 Y6.2783 I-0.1177 J0.0104 F50.
G2 X3.0586 Y6.2894 I0.0152 J0.0011
G1 X3.0757 Y6.3078 F60.
G2 X3.2526 Y6.2175 I0.0602 J-0.1005
G3 X3.1609 Y6.1203 I18.1045 J-17.1742
G2 X3.1349 Y6.1311 I-0.0108 J0.0108
X3.1465 Y6.1659 I0.058 J-0.0001
X3.2223 Y6.2115 I0.0944 J-0.071
X3.2412 Y6.213 I0.0186 J-0.1166 F50.
G3 X3.252 Y6.2175 I0. J0.0152
G1 X3.2711 Y6.2379 F60.
X3.2744 Y6.2456
X3.2771 Y6.2536
X3.2793 Y6.2616
X3.2809 Y6.2698
X3.2819 Y6.2782
X3.2823 Y6.2865
X3.2821 Y6.2949
X3.2814 Y6.3032
X3.28 Y6.3115
X3.2781 Y6.3196
X3.2756 Y6.3276
X3.2726 Y6.3354
X3.269 Y6.343
X3.2648 Y6.3502
X3.2602 Y6.3572
X3.2551 Y6.3639
X3.2496 Y6.3701
X3.2436 Y6.376
X3.2372 Y6.3814
X3.2305 Y6.3863
X3.2234 Y6.3908
X3.216 Y6.3948
X3.2084 Y6.3982
X3.2006 Y6.4011
X3.1925 Y6.4034
X3.1843 Y6.4052
X3.1761 Y6.4063
X3.1677 Y6.4069
G2 X3.0757 Y6.3078 I-4.0971 J3.711
G3 X3.0773 Y6.2863 I0.0115 J-0.01
X3.1041 Y6.2836 I0.0153 J0.0177
X3.1638 Y6.3759 I-0.0579 J0.1029
X3.1643 Y6.3865 I-0.1176 J0.0107 F50.
G1 X3.164 Y6.3948
G2 X3.1677 Y6.4059 I0.0152 J0.0011
G1 X3.1777 Y6.4166 F60.
X3.1859 Y6.4252
G2 X3.3616 Y6.3354 I0.0587 J-0.102
X3.2711 Y6.2379 I-4.6733 J4.2496
X3.2496 Y6.2382 I-0.0106 J0.0109
X3.2455 Y6.2616 I0.0151 J0.0147
X3.3313 Y6.3286 I0.1074 J-0.0491
X3.3502 Y6.3306 I0.0216 J-0.1161 F50.
G3 X3.3608 Y6.3353 I-0.0004 J0.0152
G1 X3.3646 Y6.3395 F60.
X3.3766 Y6.3525
G3 X3.2746 Y6.5231 I-0.1031 J0.0542
G1 X3.2707 Y6.5184
X3.2275 Y6.4718
X3.1859 Y6.4252
G3 X3.1879 Y6.4037 I0.0117 J-0.0097
X3.2127 Y6.4017 I0.0139 J0.0167
X3.2706 Y6.4926 I-0.0597 J0.1019
X3.2708 Y6.5116 I-0.1176 J0.011 F50.
G2 X3.2746 Y6.5226 I0.0152 J0.001
G1 X3.2925 Y6.5418 F60.
G2 X3.4695 Y6.4514 I0.0597 J-0.1015
G3 X3.3766 Y6.3525 I3.3792 J-3.2672
G2 X3.3551 Y6.3524 I-0.0108 J0.0107
X3.3503 Y6.3796 I0.0168 J0.0169
X3.439 Y6.4456 I0.1066 J-0.0508
X3.4579 Y6.4469 I0.018 J-0.1167 F50.
G3 X3.4687 Y6.4513 I0.0001 J0.0152
G1 X3.4881 Y6.4718 F60.
X3.4914 Y6.4795
X3.4941 Y6.4875
X3.4963 Y6.4956
X3.4978 Y6.5038
X3.4988 Y6.5121
X3.4992 Y6.5205
X3.499 Y6.5289
X3.4982 Y6.5372
X3.4968 Y6.5455
X3.4948 Y6.5537
X3.4923 Y6.5617
X3.4891 Y6.5694
X3.4855 Y6.577
X3.4813 Y6.5842
X3.4766 Y6.5912
X3.4714 Y6.5978
X3.4657 Y6.604
X3.4597 Y6.6098
X3.4532 Y6.6151
X3.4464 Y6.62
X3.4392 Y6.6243
X3.4318 Y6.6282
X3.424 Y6.6315
X3.4161 Y6.6342
X3.408 Y6.6364
X3.3998 Y6.638
X3.3915 Y6.639
X3.3893 Y6.6369
X3.3876 Y6.6344
X3.3864 Y6.6316
X3.3858 Y6.6286
Y6.6256
X3.3864 Y6.6226
X3.3875 Y6.6198
X3.3921 Y6.6111
X3.4627 Y6.4778
X3.4639 Y6.4755 F50.
G3 X3.4881 Y6.4718 I0.0135 J0.0071
G1 X3.4949 Y6.4758 F60.
X3.5013 Y6.4803
X3.5074 Y6.4854
X3.5131 Y6.4909
X3.5183 Y6.4968
X3.5231 Y6.5031
X3.5273 Y6.5098
X3.5309 Y6.5168
X3.534 Y6.5241
X3.5365 Y6.5315
X3.5384 Y6.5392
X3.5397 Y6.547
X3.5404 Y6.5549
Y6.5628
X3.5399 Y6.5706
X3.5387 Y6.5784
X3.5368 Y6.5861
X3.5344 Y6.5936
X3.5314 Y6.6009
X3.5278 Y6.608
X3.5236 Y6.6147
X3.519 Y6.6211
X3.5138 Y6.627
X3.5082 Y6.6326
X3.5022 Y6.6377
X3.4958 Y6.6423
X3.489 Y6.6464
X3.4819 Y6.6499
X3.4746 Y6.6528
X3.4671 Y6.6552
X3.4594 Y6.6569
X3.4516 Y6.6581
X3.4437 Y6.6586
X3.4358 Y6.6585
X3.4279 Y6.6577
X3.4202 Y6.6563
X3.4125 Y6.6544
X3.405 Y6.6518
X3.3978 Y6.6486
X3.3909 Y6.6449
X3.3842 Y6.6406
X3.3779 Y6.6358
X3.3721 Y6.6305
X3.3666 Y6.6248
X3.3617 Y6.6187
X3.3572 Y6.6122
X3.3178 Y6.5689
X3.3143 Y6.565
X3.2925 Y6.5418
X3.2835 Y6.5451
X3.2743 Y6.5479
X3.2649 Y6.5501
X3.2555 Y6.5518
X3.2459 Y6.5528
X3.2363 Y6.5532
X3.2267 Y6.553
X3.2171 Y6.5522
X3.2076 Y6.5508
X3.1982 Y6.5488
X3.1889 Y6.5462
X3.1798 Y6.5431
X3.1709 Y6.5394
X3.1623 Y6.5351
X3.154 Y6.5303
X3.146 Y6.525
X3.1383 Y6.5192
X3.1311 Y6.5129
X3.1242 Y6.5061
X3.1178 Y6.499
X3.1118 Y6.4915
X3.1063 Y6.4836
X3.1013 Y6.4753
X3.0969 Y6.4668
X3.093 Y6.458
G3 X2.8518 Y6.215 I1.4972 J-1.727
G1 X2.6621 Y6.0122
X2.5359 Y5.8768
X2.4099 Y5.7412
X2.1149 Y5.4257
X1.9674 Y5.2679
G2 X1.9135 Y5.2575 I-0.0295 J0.0076
G1 X1.886 Y5.2716
X1.8591 Y5.2818
X1.832 Y5.2915
X1.8047 Y5.3006
X1.7772 Y5.3091
X1.7495 Y5.3171
X1.7217 Y5.3244
X1.6937 Y5.3312
X1.6656 Y5.3374
X1.6374 Y5.343
X1.609 Y5.348
X1.5806 Y5.3523
X1.5521 Y5.3561
X1.5235 Y5.3593
X1.4948 Y5.3619
X1.4661 Y5.3639
X1.4373 Y5.3652
X1.4086 Y5.366
X1.3798 Y5.3661
X1.351 Y5.3657
X1.3222 Y5.3646
X1.2935 Y5.3629
G3 X1.3819 Y4.9894 I0.0757 J-0.1793
X1.8188 Y4.9326 I0.3822 J1.2302
G2 X1.8104 Y4.5356 I-0.9615 J-0.1784
G3 X1.7569 Y4.0771 I4.6862 J-0.7795
X1.9135 Y3.7848 I0.3207 J-0.0163
X2.1485 Y4.0553 I0.0654 J0.1806
G1 X2.1695 Y4.232
X2.19 Y4.4088
X2.21 Y4.5856
X2.2296 Y4.7624
X2.2274 Y4.7776
X2.2258 Y4.7929
X2.2248 Y4.8082
X2.2244 Y4.8236
X2.2246 Y4.839
X2.2254 Y4.8543
X2.2268 Y4.8696
X2.2289 Y4.8848
X2.2315 Y4.9
X2.2348 Y4.915
X2.2386 Y4.9299
X2.2431 Y4.9446
X2.2481 Y4.9591
X2.2537 Y4.9734
X2.2599 Y4.9875
X2.2666 Y5.0013
X2.2739 Y5.0148
X2.2817 Y5.0281
X2.29 Y5.041
X2.2988 Y5.0535
X2.3082 Y5.0658
X2.318 Y5.0776
X2.3282 Y5.089
X2.339 Y5.1
X2.3501 Y5.1106
X2.3617 Y5.1207
X2.3736 Y5.1303
X2.386 Y5.1395
X2.3986 Y5.1482
X2.4372 Y5.1987
X2.5425 Y5.3114
X2.7111 Y5.4917
X2.8264 Y5.6161
X2.9422 Y5.7402
X3.174 Y5.988
G3 X3.4473 Y6.2815 I-14.3205 J13.6083
X3.6279 Y6.545 I-0.2937 J0.395
X3.3025 Y6.6853 I-0.1859 J0.0163
X2.8373 Y6.3457 I0.2781 J-0.8694
G1 X2.774 Y6.2782
X2.6054 Y6.098
G3 X2.4161 Y5.8948 I20.7936 J-19.5531
G1 X2.3742 Y5.8496
X2.3321 Y5.8044
X2.2478 Y5.7143
X1.9581 Y5.4044
G2 X1.6657 Y5.4411 I-0.0717 J0.6121
G3 X1.2393 Y5.4348 I-0.2017 J-0.7879
X1.2001 Y4.9512 I0.12 J-0.2531
X1.6846 Y4.8369 I0.5978 J1.4488
G2 X1.7125 Y4.5844 I-0.2203 J-0.1521
G3 X1.6608 Y4.0626 I4.2003 J-0.6803
X1.7794 Y3.7644 I0.4489 J0.0059
G1 X1.8577 Y3.7146
X1.8689 Y3.7085
X1.8803 Y3.7029
X1.892 Y3.6979
X1.9039 Y3.6935
X1.916 Y3.6896
X1.9282 Y3.6863
X1.9406 Y3.6837
X1.9532 Y3.6816
X1.9658 Y3.6802
X1.9785 Y3.6793
X1.9911 Y3.6791
X2.0038 Y3.6795
X2.0165 Y3.6805
X2.0291 Y3.6821
X2.0416 Y3.6844
X2.054 Y3.6872
X2.0662 Y3.6906
X2.0782 Y3.6946
X2.0901 Y3.6992
X2.1017 Y3.7044
X2.113 Y3.7101
X2.1241 Y3.7164
X2.1348 Y3.7231
X2.1452 Y3.7304
X2.1552 Y3.7382
X2.1648 Y3.7465
X2.1741 Y3.7552
X2.1829 Y3.7644
X2.1912 Y3.774
X2.1923 Y3.7768
X2.1928 Y3.7797
X2.1927 Y3.7827
X2.192 Y3.7857
X2.1907 Y3.7885
X2.1889 Y3.7909
X2.1866 Y3.7929
X2.184 Y3.7945
X2.1811 Y3.7955
X2.178 Y3.7958
G3 X2.1753 Y3.7956 I-0.0001 J-0.0152
G1 X1.8638 Y3.7421
X1.8613 Y3.7415
X1.8589 Y3.7404
G3 X1.8577 Y3.7146 I0.0074 J-0.0133 F50.
G1 X1.9929 Y3.6286 F60.
G3 X2.105 Y3.617 I0.0652 J0.0824
X2.0943 Y3.6389 I-0.0136 J0.0069
G1 X2.0916 Y3.6394
X2.0044 Y3.6561
G3 X1.9941 Y3.6545 I-0.0029 J-0.015
X1.9929 Y3.6286 I0.0074 J-0.0133 F50.
X2.0778 Y3.5778 I0.0972 J0.0661 F60.
X2.0985 Y3.6052 I-0.0042 J0.0248
G1 X2.2275 Y3.8389
G3 X2.2544 Y4.1413 I-0.5407 J0.2005
X2.3357 Y4.9075 I-7.0249 J1.1326
G2 X2.927 Y5.5774 I4.1508 J-3.0683
G1 X3.0323 Y5.6901
X3.222 Y5.8929
X3.4118 Y6.0956
G3 X3.5632 Y6.2597 I-2.2737 J2.2495
G1 X3.6975 Y6.5031
X3.7013 Y6.515
X3.7044 Y6.5271
X3.707 Y6.5393
X3.709 Y6.5516
X3.7103 Y6.564
X3.7111 Y6.5764
X3.7113 Y6.5889
X3.7108 Y6.6014
X3.7098 Y6.6138
X3.7081 Y6.6262
X3.7058 Y6.6384
X3.703 Y6.6506
X3.6995 Y6.6626
X3.6955 Y6.6744
X3.6909 Y6.686
X3.6857 Y6.6973
X3.68 Y6.7084
X3.6738 Y6.7192
X3.667 Y6.7297
X3.6597 Y6.7398
X3.652 Y6.7496
X3.6438 Y6.759
X3.6351 Y6.7679
X3.626 Y6.7765
X3.6165 Y6.7846
X3.6066 Y6.7922
X3.5964 Y6.7993
X3.5858 Y6.8059
X3.5749 Y6.812
X3.5637 Y6.8175
X3.5523 Y6.8225
X3.5406 Y6.827
X3.5288 Y6.8308
X3.5167 Y6.8341
X3.5046 Y6.8368
X3.4923 Y6.8389
X3.4799 Y6.8403
X3.4674 Y6.8412
X3.455 Y6.8415
X3.4425 Y6.8412
X3.4301 Y6.8402
X3.4177 Y6.8387
X3.4054 Y6.8365
X2.8494 Y6.4787
G3 X2.2265 Y5.8379 I4.0286 J-4.5393
G1 X1.9421 Y5.5337
G2 X1.7486 Y5.5234 I-0.1102 J0.2506
G3 X1.4328 Y5.5644 I-0.376 J-1.6634
G1 X1.0528 Y5.3191
G3 X0.9932 Y5.1187 I0.133 J-0.1485
X1.016 Y5.1266 I0.0083 J0.0127
G1 X1.017 Y5.1296
X1.075 Y5.3011
X1.0757 Y5.3041
X1.0758 Y5.3072
G3 X1.0528 Y5.3191 I-0.0152 J-0.0012 F50.
G1 X0.9594 Y5.2589 F60.
G3 X0.9105 Y5.1712 I0.0224 J-0.0699
X0.9301 Y5.1749 I0.0076 J0.0132
G1 X0.9359 Y5.1821
X0.9791 Y5.2363
G3 X0.9824 Y5.247 I-0.0119 J0.0095
X0.9594 Y5.2589 I-0.0152 J-0.0012 F50.
X0.8759 Y5.2016 I0.0274 J-0.1296 F60.
G1 X0.8756 Y5.201
G2 X1.2717 Y4.8546 I-0.917 J-1.4481
G3 X1.5755 Y4.752 I0.3229 J0.4549
G2 X1.6061 Y4.4964 I-0.2359 J-0.1578
G3 X1.598 Y3.887 I1.0746 J-0.3191
G1 X1.6001 Y3.8808
X1.601 Y3.8789
X1.6024 Y3.8772
X1.604 Y3.8759
X1.7794 Y3.7644
G3 X1.8003 Y3.7698 I0.0077 J0.0131
X1.8011 Y3.7809 I-0.0109 J0.0064
X1.6341 Y3.8779 I-0.146 J-0.0591
X1.6155 Y3.8743 I0.021 J-0.1561 F50.
G2 X1.604 Y3.8759 I-0.0038 J0.0147
X1.5499 Y3.9149 I0.0024 J0.0603 F60.
G3 X1.5095 Y4.3764 I-1.3072 J0.118
X1.5079 Y4.6287 I-1.5414 J0.1164
X1.3851 Y4.6855 I-0.2592 J-0.3992
G1 X1.3837 Y4.6875
G3 X1.2717 Y4.8546 I-0.8933 J-0.4776
G2 X1.2696 Y4.8697 I0.012 J0.0093
X1.2976 Y4.8867 I0.0255 J-0.0104
X1.3925 Y4.7156 I-0.0104 J-0.1176
X1.3848 Y4.7027 I-0.1053 J0.0535 F50.
G3 X1.3837 Y4.6875 I0.0126 J-0.0086
G2 X1.5095 Y4.3764 I-1.001 J-0.5856 F60.
G3 X1.5345 Y4.3701 I0.0145 J0.0046
G1 X1.5367 Y4.3722 Z-0.1297
X1.5387 Y4.3742 Z-0.1288
X1.5406 Y4.376 Z-0.1274
X1.5423 Y4.3776 Z-0.1255
X1.5437 Y4.3789 Z-0.1232
X1.5447 Y4.3799 Z-0.1206
X1.5453 Y4.3805 Z-0.1177
X1.5455 Y4.3807 Z-0.1148
G0 Z-0.0995
X2.1924 Y3.8095
G1 Z-0.1148 F50.
X2.1926 Y3.8096 Z-0.1177
X2.1934 Y3.8101 Z-0.1206
X2.1946 Y3.8108 Z-0.1232
X2.1962 Y3.8117 Z-0.1255
X2.1982 Y3.8129 Z-0.1274
X2.2005 Y3.8142 Z-0.1288
X2.2029 Y3.8157 Z-0.1297
X2.2055 Y3.8172 Z-0.13
G3 X2.2275 Y3.8389 I-0.0315 J0.0538
G1 X2.3177 Y4.0025 F60.
G3 X2.4438 Y4.8803 I-6.0785 J1.321
G2 X2.6791 Y5.1646 I1.4468 J-0.958
G1 X2.8266 Y5.3224
X2.9385 Y5.443
X3.0507 Y5.5634
X3.1631 Y5.6835
X3.3317 Y5.8638
G3 X3.364 Y5.8987 I-0.0889 J0.1147
G1 X3.5632 Y6.2597
G3 X3.5565 Y6.2802 I-0.0136 J0.0069
X3.502 Y6.2782 I-0.0255 J-0.0502
X3.3596 Y5.9285 I0.1622 J-0.27
G1 X3.3649 Y5.9103 F50.
G2 X3.364 Y5.8987 I-0.0145 J-0.0047
G1 X3.1994 Y5.6003 F60.
G2 X2.5662 Y4.8849 I-18.0765 J15.3603
G3 X2.5035 Y4.492 I1.3819 J-0.4221
G2 X2.4762 Y4.2892 I-3.7472 J0.4012
G1 X2.3177 Y4.0025
G2 X2.3044 Y3.9951 I-0.0131 J0.0078
X2.2758 Y4.0152 I0.0005 J0.0312
X2.4477 Y4.2815 I0.1841 J0.0698
G1 X2.4627 Y4.2819 F50.
G3 X2.476 Y4.2893 I0.0002 J0.0152
G1 X2.5756 Y4.4699 F60.
G3 X2.6427 Y4.8002 I-1.5262 J0.4817
G2 X2.9693 Y5.1809 I1.9632 J-1.3537
G1 X3.1994 Y5.6003
G3 X3.1985 Y5.6155 I-0.0136 J0.0069
X3.1846 Y5.6226 I-0.0131 J-0.0085
X2.9598 Y5.2098 I0.014 J-0.2752
G1 X2.9677 Y5.197 F50.
G2 X2.9685 Y5.1818 I-0.0128 J-0.0083
G1 X2.5756 Y4.4699 F60.
G2 X2.5614 Y4.4626 I-0.0131 J0.0078
G1 X2.5584 Y4.4628 Z-0.1297
X2.5555 Y4.463 Z-0.1288
X2.5529 Y4.4632 Z-0.1274
X2.5506 Y4.4634 Z-0.1255
X2.5487 Y4.4636 Z-0.1232
X2.5473 Y4.4637 Z-0.1206
X2.5465 Z-0.1177
X2.5462 Y4.4638 Z-0.1148
G0 Z0.4
X1.4058 Y5.5273
Z-0.0995
G1 Z-0.1148 F50.
X1.4059 Y5.5276 Z-0.1177
X1.4063 Y5.5283 Z-0.1206
X1.4069 Y5.5296 Z-0.1232
X1.4078 Y5.5313 Z-0.1255
X1.4088 Y5.5334 Z-0.1274
X1.41 Y5.5357 Z-0.1288
X1.4112 Y5.5383 Z-0.1297
X1.4126 Y5.5409 Z-0.13
G2 X1.4328 Y5.5644 I0.0558 J-0.0277
G1 X1.5113 Y5.615 F60.
G2 X1.8422 Y5.6168 I0.1699 J-0.8371
G3 X2.2189 Y5.9765 I-0.9569 J1.3796
G2 X2.4422 Y6.2158 I1.0624 J-0.7669
G1 X2.8494 Y6.4787
G2 X2.8703 Y6.4734 I0.0078 J-0.0131
X2.8734 Y6.4401 I-0.0335 J-0.02
X2.4722 Y6.2134 I-0.333 J0.121
G1 X2.4537 Y6.2175 F50.
G3 X2.4422 Y6.2158 I-0.0037 J-0.0148
G1 X2.1494 Y6.0269 F60.
X1.9922 Y5.8799
X1.8346 Y5.7334
G2 X1.6931 Y5.7321 I-0.0772 J0.7059
G1 X1.6912 Y5.7312
X1.5113 Y5.615
G3 X1.5048 Y5.6013 I0.0087 J-0.0125
X1.5751 Y5.5541 I0.054 J0.0045
X1.6853 Y5.7024 I-0.0473 J0.1502
X1.6848 Y5.7174 I-0.1575 J0.0019 F50.
G2 X1.6912 Y5.7312 I0.0152 J0.0013
G1 X2.1494 Y6.0269 F60.
G2 X2.1655 Y6.0266 I0.0078 J-0.0131
G1 X2.168 Y6.025 Z-0.1297
X2.1704 Y6.0234 Z-0.1288
X2.1726 Y6.022 Z-0.1274
X2.1745 Y6.0208 Z-0.1255
X2.1761 Y6.0197 Z-0.1232
X2.1773 Y6.019 Z-0.1206
X2.178 Y6.0185 Z-0.1177
X2.1783 Y6.0183 Z-0.1148
G0 Z-0.0995
X3.6624 Y6.4736
G1 Z-0.1148 F50.
X3.6627 Y6.4738 Z-0.1177
X3.6634 Y6.4742 Z-0.1206
X3.6646 Y6.4749 Z-0.1232
X3.6663 Y6.4759 Z-0.1255
X3.6683 Y6.477 Z-0.1274
X3.6705 Y6.4784 Z-0.1288
X3.673 Y6.4798 Z-0.1297
X3.6756 Y6.4813 Z-0.13
G3 X3.6975 Y6.5031 I-0.0315 J0.0538
G1 X3.7593 Y6.6151 F60.
X3.762 Y6.6268
X3.7641 Y6.6387
X3.7655 Y6.6506
X3.7664 Y6.6626
X3.7667 Y6.6746
X3.7664 Y6.6866
X3.7655 Y6.6986
X3.764 Y6.7105
X3.7619 Y6.7223
X3.7592 Y6.734
X3.7559 Y6.7456
X3.7521 Y6.7569
X3.7477 Y6.7681
X3.7428 Y6.7791
X3.7373 Y6.7897
X3.7313 Y6.8001
X3.7248 Y6.8102
X3.7178 Y6.82
X3.7103 Y6.8294
X3.7024 Y6.8384
X3.694 Y6.847
X3.6852 Y6.8552
X3.676 Y6.8629
X3.6664 Y6.8701
X3.6565 Y6.8769
X3.6463 Y6.8832
X3.6357 Y6.8889
X3.6249 Y6.8942
X3.6139 Y6.8988
X3.6026 Y6.903
X3.5911 Y6.9065
X3.5795 Y6.9095
X3.5677 Y6.9119
X3.5558 Y6.9137
X3.5439 Y6.9149
X3.5418 Y6.9237
X3.539 Y6.9233
X3.5365 Y6.9222
X3.4052 Y6.8374
G3 X3.3987 Y6.8237 I0.0087 J-0.0125
X3.4551 Y6.7884 I0.0413 J0.0035
X3.5303 Y6.8934 I-0.0427 J0.1101
X3.53 Y6.9084 I-0.118 J0.0051 F50.
G2 X3.5365 Y6.9222 I0.0152 J0.0013
G1 X3.5727 Y6.9455 F60.
X3.5839 Y6.9484
X3.5952 Y6.9507
X3.6066 Y6.9523
X3.6181 Y6.9534
X3.6296 Y6.9538
X3.6412 Y6.9536
X3.6527 Y6.9528
X3.6641 Y6.9514
X3.6755 Y6.9493
X3.6867 Y6.9467
X3.6978 Y6.9435
X3.7087 Y6.9396
X3.7194 Y6.9352
X3.7298 Y6.9302
X3.7399 Y6.9247
X3.7497 Y6.9186
X3.7592 Y6.9121
X3.7683 Y6.905
X3.777 Y6.8974
X3.7853 Y6.8894
X3.7932 Y6.881
X3.8006 Y6.8721
X3.8075 Y6.8629
X3.8139 Y6.8533
X3.8198 Y6.8433
X3.8251 Y6.8331
X3.8299 Y6.8226
X3.8341 Y6.8119
X3.8378 Y6.8009
X3.8408 Y6.7898
X3.8433 Y6.7785
X3.8479 Y6.7766
X3.8469 Y6.7739
X3.7593 Y6.6151
G2 X3.746 Y6.6077 I-0.0131 J0.0078
X3.7144 Y6.6368 I0.0005 J0.0323
X3.8187 Y6.7658 I0.1175 J0.0116
X3.8337 Y6.7665 I0.0133 J-0.1174 F50.
G3 X3.8469 Y6.7739 I0.0002 J0.0152
G1 X3.8684 Y6.8128 F60.
G3 X3.7135 Y7.0364 I-0.1965 J0.0293
G1 X3.5727 Y6.9455
G3 X3.5662 Y6.9317 I0.0087 J-0.0125
X3.6125 Y6.8969 I0.0386 J0.0032
X3.7073 Y7.0076 I-0.0232 J0.1158
X3.707 Y7.0226 I-0.118 J0.0051 F50.
G2 X3.7135 Y7.0364 I0.0152 J0.0013
G1 X3.7471 Y7.0581 F60.
X3.7564 Y7.0607
X3.7659 Y7.0627
X3.7755 Y7.0641
X3.7851 Y7.0649
X3.7948 Y7.0652
X3.8045 Y7.0648
X3.8141 Y7.0638
X3.8236 Y7.0622
X3.8331 Y7.0601
X3.8423 Y7.0574
X3.8514 Y7.0541
X3.8603 Y7.0502
X3.8689 Y7.0458
X3.8773 Y7.0409
X3.8853 Y7.0355
X3.8929 Y7.0295
X3.9002 Y7.0232
X3.9071 Y7.0163
X3.9135 Y7.0091
X3.9195 Y7.0015
X3.925 Y6.9936
X3.93 Y6.9853
X3.9344 Y6.9767
X3.9384 Y6.9678
X3.9417 Y6.9588
X3.9445 Y6.9495
X3.8684 Y6.8128
G2 X3.8551 Y6.8054 I-0.0131 J0.0078
X3.8162 Y6.8595 I0.0006 J0.0415
X3.9155 Y6.9412 I0.1126 J-0.0357
X3.9304 Y6.9419 I0.0133 J-0.1174 F50.
G3 X3.9437 Y6.9493 I0.0002 J0.0152
G1 X3.9619 Y6.9822 F60.
X3.9639 Y6.9907
X3.9653 Y6.9994
X3.9661 Y7.0081
X3.9663 Y7.0169
X3.9659 Y7.0257
X3.9649 Y7.0344
X3.9632 Y7.043
X3.961 Y7.0515
X3.9583 Y7.0599
X3.9549 Y7.068
X3.951 Y7.0758
X3.9466 Y7.0834
X3.9416 Y7.0907
X3.9362 Y7.0976
X3.9303 Y7.1041
X3.924 Y7.1102
X3.9173 Y7.1158
X3.9102 Y7.1209
X3.9027 Y7.1256
X3.895 Y7.1297
X3.887 Y7.1333
X3.8787 Y7.1363
X3.8703 Y7.1388
X3.7471 Y7.0581
G3 X3.7406 Y7.0443 I0.0087 J-0.0125
X3.8038 Y7.0109 I0.0423 J0.0035
X3.8638 Y7.1086 I-0.058 J0.1029
X3.8635 Y7.1236 I-0.118 J0.0051 F50.
G2 X3.8699 Y7.1374 I0.0152 J0.0013
G1 X3.8941 Y7.153 F60.
G2 X4.0278 Y7.0993 I0.0412 J-0.0908
G1 X3.9619 Y6.9822
G2 X3.934 Y6.9863 I-0.0131 J0.0078
X3.937 Y7.0237 I0.0568 J0.0143
X3.9988 Y7.0855 I0.1085 J-0.0466
X4.0167 Y7.0916 I0.0467 J-0.1085 F50.
G3 X4.0261 Y7.0986 I-0.0037 J0.0148
G1 X4.0393 Y7.1226 F60.
G3 X3.9961 Y7.2206 I-0.0721 J0.0268
G1 X3.8941 Y7.153
G3 X3.9015 Y7.1253 I0.0087 J-0.0125
G1 X4.0111 Y7.1163
X4.025 Y7.1152 F50.
G3 X4.0393 Y7.1226 I0.0012 J0.0152
G1 X4.0715 Y7.1808 F60.
G3 X4.0523 Y7.255 I-0.0391 J0.0295
X4.0458 Y7.2433 I0.0087 J-0.0125
G1 X4.0449 Y7.2263
G3 X4.0456 Y7.1804 I0.0539 J-0.0222
X4.0715 Y7.1808 I0.0128 J0.0082 F50.
G1 X4.1039 Y7.2396 F60.
G3 X4.0917 Y7.2805 I-0.0154 J0.0177
X4.0748 Y7.2472 I0.0225 J-0.0323
X4.0778 Y7.2384 I0.0157 J0.0004
X4.1039 Y7.2396 I0.0127 J0.0092 F50.
G1 X4.1231 Y7.2743 F60.
X4.1237 Y7.2755
X4.1243 Y7.2765
X4.1247 Y7.2774
X4.1248 Y7.2779
G3 X4.1236 Y7.2836 I-0.0059 J0.0017
X4.1143 Y7.2756 I-0.0046 J-0.004 F50.
X4.1229 Y7.2749 I0.0046 J0.004
X4.1243 Y7.2765 I-0.0041 J0.0049
G1 X4.1246 Y7.277 F60.
X4.1251 Y7.2787
X4.1255 Y7.28
X4.1261 Y7.2817
X4.1276 Y7.2875
X4.1265 Y7.2911
X4.1238 Y7.2939
X4.1201 Y7.2952
X4.1163 Y7.2946
G3 X4.112 Y7.2921 I0.0088 J-0.0198
X4.11 Y7.2899 I0.0055 J-0.0073
X4.1133 Y7.2767 I0.0075 J-0.0051 F50.
X4.1261 Y7.2817 I0.0042 J0.0081
G1 X4.128 Y7.2876 F60.
X4.1281 Y7.2884
X4.128 Y7.2904
X4.1279 Y7.2908
X4.1268 Y7.293
X4.1263 Y7.2936
X4.125 Y7.2947
X4.1245 Y7.2951
X4.1223 Y7.2959
G3 X3.9951 Y7.2182 I0.0803 J-0.2744
X3.9965 Y7.1923 I0.0087 J-0.0125
G1 X3.9991 Y7.1909 Z-0.1297
X4.0016 Y7.1895 Z-0.1288
X4.0039 Y7.1883 Z-0.1274
X4.0059 Y7.1871 Z-0.1255
X4.0076 Y7.1862 Z-0.1232
X4.0088 Y7.1855 Z-0.1206
X4.0096 Y7.1851 Z-0.1177
X4.0098 Y7.185 Z-0.1148
G0 Z0.4
X-0.6126 Y2.2107
Z-0.0995
G1 Z-0.1148 F50.
X-0.6129 Y2.2108 Z-0.1177
X-0.6136 Y2.2113 Z-0.1206
X-0.6148 Y2.212 Z-0.1232
X-0.6164 Y2.213 Z-0.1255
X-0.6184 Y2.2142 Z-0.1274
X-0.6206 Y2.2156 Z-0.1288
X-0.6231 Y2.2171 Z-0.1297
X-0.6256 Y2.2186 Z-0.13
G3 X-0.7013 Y2.2545 I-0.2036 J-0.3313
G1 X-0.7104 Y2.2586 F60.
X-0.7197 Y2.2621
X-0.7293 Y2.265
X-0.739 Y2.2673
X-0.7488 Y2.2691
X-0.7588 Y2.2702
X-0.7687 Y2.2707
X-0.7787 Y2.2705
X-0.7887 Y2.2698
X-0.7986 Y2.2685
X-0.8084 Y2.2665
X-0.818 Y2.264
X-0.8275 Y2.2608
X-0.8368 Y2.2571
X-0.8458 Y2.2529
X-0.8545 Y2.248
X-0.863 Y2.2427
X-0.871 Y2.2368
X-0.8787 Y2.2305
X-0.8861 Y2.2237
X-0.8929 Y2.2164
X-0.8993 Y2.2088
X-0.9053 Y2.2008
X-0.9107 Y2.1924
X-0.9156 Y2.1837
X-0.9199 Y2.1747
X-0.9237 Y2.1655
X-0.927 Y2.156
X-0.9296 Y2.1464
X-0.9316 Y2.1366
X-0.9331 Y2.1267
X-0.9339 Y2.1168
X-0.9341 Y2.1068
X-0.9337 Y2.0968
X-0.9326 Y2.0869
X-0.931 Y2.077
X-0.9288 Y2.0673
X-0.9259 Y2.0577
X-0.9225 Y2.0483
X-0.9186 Y2.0392
X-0.914 Y2.0303
X-0.9089 Y2.0217
X-0.9033 Y2.0134
X-0.8973 Y2.0055
X-0.8907 Y1.998
X-0.8837 Y1.9909
X-0.8762 Y1.9843
X-0.8684 Y1.9781
X-0.8602 Y1.9724
G3 X-0.5608 Y2.0115 I0.132 J0.1553
X-0.3734 Y2.3718 I-0.1774 J0.3212
X-0.4721 Y2.8423 I-0.3569 J0.1707
X-0.6648 Y2.8199 I-0.0747 J-0.1972
X-0.7256 Y2.5448 I0.1547 J-0.1785
G2 X-0.7766 Y2.398 I-0.2396 J0.001
G3 X-0.9729 Y2.2614 I0.0881 J-0.3358
G1 X-1.0054 Y2.1563
X-1.0086 Y2.1442
X-1.0112 Y2.1319
X-1.0131 Y2.1195
X-1.0145 Y2.107
X-1.0152 Y2.0944
X-1.0154 Y2.0819
X-1.0149 Y2.0693
X-1.0137 Y2.0568
X-1.012 Y2.0444
X-1.0096 Y2.032
X-1.0067 Y2.0198
X-1.0031 Y2.0078
X-0.9989 Y1.9959
X-0.9942 Y1.9843
X-0.9888 Y1.9729
X-0.983 Y1.9618
X-0.9765 Y1.951
X-0.9696 Y1.9406
X-0.9621 Y1.9305
X-0.9542 Y1.9208
X-0.9458 Y1.9114
X-0.9369 Y1.9025
X-0.9276 Y1.8941
X-0.9179 Y1.8861
X-0.9078 Y1.8787
X-0.8973 Y1.8717
X-0.8865 Y1.8653
X-0.8754 Y1.8594
X-0.8641 Y1.8541
X-0.8524 Y1.8493
X-0.8406 Y1.8451
X-0.8286 Y1.8415
X-0.6972 Y1.8411
G3 X-0.2732 Y2.3553 I-0.0936 J0.5091
X-0.3803 Y2.888 I-0.4588 J0.1849
G1 X-0.3938 Y2.8918
X-0.4157 Y2.9042
X-0.4172 Y2.9051
G3 X-0.809 Y2.7894 I-0.1455 J-0.2287
G1 X-0.8245 Y2.7406
G2 X-0.8454 Y2.5119 I-11.3152 J0.9205
G3 X-0.9165 Y2.4435 I0.1405 J-0.2169
G0 Z0.4
X-0.7961 Y2.7765
Z-0.0995
G1 Z-0.1148 F50.
X-0.7963 Y2.7763 Z-0.1177
X-0.797 Y2.7758 Z-0.1206
X-0.798 Y2.7748 Z-0.1232
X-0.7994 Y2.7735 Z-0.1255
X-0.8011 Y2.772 Z-0.1274
X-0.8031 Y2.7702 Z-0.1288
X-0.8052 Y2.7683 Z-0.1297
X-0.8074 Y2.7663 Z-0.13
G3 X-0.8245 Y2.7406 I0.0417 J-0.0463
G1 X-0.9729 Y2.2614 F60.
G3 X-0.9725 Y2.2513 I0.0145 J-0.0045
G1 X-0.9637 Y2.2326
X-0.793 Y1.8694
G2 X-0.799 Y1.8499 I-0.0138 J-0.0065
X-0.8287 Y1.8411 I-0.0318 J0.0536 F50.
G1 X-0.9433 F60.
G2 X-1.0731 Y1.9409 I0.0207 J0.1612
G1 X-1.0054 Y2.1563
G2 X-0.976 Y2.1537 I0.0144 J-0.005
G1 X-0.9296 Y1.8638
X-0.9288 Y1.8588 F50.
G2 X-0.9433 Y1.8411 I-0.015 J-0.0024
G1 X-1.0472 F60.
G2 X-1.0963 Y1.8626 I-0.0168 J0.0284
G1 X-1.0719 Y1.9414
G2 X-1.0424 Y1.9382 I0.0144 J-0.005
G1 X-1.0333 Y1.8639
X-1.0326 Y1.8582 F50.
G2 X-1.0472 Y1.8411 I-0.0151 J-0.0019
X-1.0981 Y1.8491 I-0.0222 J0.0249 F60.
X-1.0963 Y1.8626 I0.04 J0.0017
X-1.0682 Y1.8642 I0.0144 J-0.005
X-1.0906 Y1.8534 I-0.0112 J-0.0054
X-1.0875 Y1.8683 I0.0112 J0.0054
X-0.7212 Y1.8594 I0.1782 J-0.2103
G1 X-0.7078 Y1.846 F50.
G3 X-0.6972 Y1.8411 I0.0111 J0.0104
G1 X-0.5105 F60.
G3 X-0.2144 Y2.1455 I-0.1178 J0.4108
G1 X-0.1818 Y2.6938
G3 X-0.207 Y2.8076 I-0.0999 J0.0376
X-0.2277 Y2.7922 I-0.0056 J-0.0142
G1 X-0.2276 Y2.7911
X-0.212 Y2.6929
G3 X-0.205 Y2.6823 I0.015 J0.0024
X-0.1818 Y2.6938 I0.008 J0.013 F50.
X-0.1786 Y2.7938 I-0.1113 J0.0536 F60.
X-0.3823 Y2.886 I-1.4651 J-2.9656
X-0.3891 Y2.8876 I-0.0068 J-0.0136
Y2.8571 I0. J-0.0152
X-0.3873 Y2.8875 I0. J0.0152
G1 X-0.4083 Y2.8901
G3 X-0.4121 Y2.8599 I-0.0019 J-0.0151
X-0.3966 Y2.882 I0.0019 J0.0151
X-0.4172 Y2.9051 I-0.0554 J-0.0285 F50.
G1 X-0.4904 Y2.9509 F60.
X-0.5105 Y2.9638
X-0.5548 Y2.9976
G3 X-0.7487 Y2.9855 I-0.0874 J-0.1572
X-0.7336 Y2.9662 I0.0147 J-0.004
G1 X-0.731 Y2.9663
X-0.5641 Y2.9706
X-0.5611 Y2.971
X-0.5582 Y2.972
G3 X-0.5548 Y2.9976 I-0.0063 J0.0139 F50.
G2 X-0.6339 Y3.0626 I0.3274 J0.4792 F60.
G3 X-0.7193 Y3.0804 I-0.0535 J-0.0432
X-0.7104 Y3.0623 I0.0147 J-0.004
G1 X-0.7021 Y3.0589
X-0.6504 Y3.0377
G3 X-0.6397 Y3.0374 I0.0058 J0.0141
X-0.6339 Y3.0626 I-0.005 J0.0144 F50.
X-0.6997 Y3.1193 I-0.1012 J-0.051 F60.
X-0.716 Y3.0911 I0.0033 J-0.0207
G1 X-0.8093 Y2.7895
G0 Z0.4
X-0.5533 Y1.8576
Z-0.0995
G1 Z-0.1148 F50.
X-0.553 Y1.8575 Z-0.1177
X-0.5523 Y1.8571 Z-0.1206
X-0.5511 Y1.8563 Z-0.1232
X-0.5494 Y1.8554 Z-0.1255
X-0.5474 Y1.8542 Z-0.1274
X-0.5452 Y1.8528 Z-0.1288
X-0.5427 Y1.8514 Z-0.1297
X-0.5402 Y1.8499 Z-0.13
G3 X-0.5105 Y1.8411 I0.0318 J0.0536
G1 X-0.3705 F60.
G3 X-0.2277 Y1.9209 I-0.0113 J0.1879
X-0.2493 Y1.9351 I-0.0152 J0.0004
G1 X-0.3769 Y1.8699
X-0.3795 Y1.8683
X-0.3817 Y1.8661
X-0.3834 Y1.8636
G3 X-0.3705 Y1.8411 I0.0134 J-0.0072 F50.
X-0.2359 Y1.8447 I0.0606 J0.2567 F60.
X-0.2314 Y1.8584 I-0.0166 J0.0131
G1 X-0.2144 Y2.1455
G3 X-0.2214 Y2.1588 I-0.0152 J0.0004
G1 X-0.2237 Y2.1596 Z-0.1298
X-0.2258 Y2.1603 Z-0.1293
X-0.2279 Y2.1611 Z-0.1284
X-0.2296 Y2.1612 Z-0.1273
X-0.2318 Y2.1607 Z-0.1254
X-0.2336 Y2.1603 Z-0.1231
X-0.2349 Y2.16 Z-0.1205
X-0.2357 Y2.1598 Z-0.1177
X-0.236 Y2.1597 Z-0.1148
G0 Z0.4
X0.0494 Y0.0528
Z0.1
G3 X-0.0494 Y-0.0528 Z0.0599 I-0.0494 J-0.0528 F50.
X0.0494 Y0.0528 Z0.0199 I0.0494 J0.0528
X-0.0494 Y-0.0528 Z-0.0202 I-0.0494 J-0.0528
X0.0494 Y0.0528 Z-0.0603 I0.0494 J0.0528
X-0.0494 Y-0.0528 Z-0.1004 I-0.0494 J-0.0528
X0.0723 Y0. Z-0.13 I0.0494 J0.0528
X-0.0724 I-0.0723 J0.
X0.0721 Y-0.0057 I0.0723 J0.
G1 X0.0723 Y0.
G3 X-0.0867 Y0.1197 I-0.0815 J0.0572 F60.
X0.0823 Y-0.1368 I0.0845 J-0.1283
X0.1441 Y-0.0552 I-0.0845 J0.1283
X-0.1431 Y0.1938 I-0.1542 J0.1123
X-0.1017 Y-0.228 I0.1271 J-0.2005
X0.0856 Y0.3213 I0.0936 J0.2746
X-0.104 Y0.3205 I-0.0936 J-0.2747
X-0.1134 Y-0.3259 I0.0931 J-0.3246
X0.0916 Y0.4217 I0.1025 J0.3738
X-0.2646 Y0.3409 I-0.1025 J-0.3738
X-0.4422 Y0.0322 I0.2113 J-0.3269
X0.4452 Y-0.075 I0.4467 J-0.0288
X0.2419 Y0.4553 I-0.4176 J0.1441
X-0.2749 Y-0.4654 I-0.2584 J-0.4604
X0.0234 Y-0.5315 I0.2584 J0.4604
X0.5605 Y0.1541 I-0.0329 J0.579
X-0.1881 Y0.5992 I-0.57 J-0.1067
X0.1638 Y-0.6136 I0.1815 J-0.6048
X-0.0276 Y0.7265 I-0.179 J0.6582
X-0.2954 Y-0.6726 I0.0208 J-0.7291
X0.6308 Y0.4754 I0.2919 J0.7121
X-0.8228 Y0.0806 I-0.6582 J-0.4498
X0.535 Y-0.6368 I0.8205 J-0.0907
X0.1706 Y0.9026 I-0.5476 J0.6832
G1 X0.1401 Y0.9077
X0.1334 Y0.9088
X0.1324
X-0.1139
G3 X-0.9075 Y0.2029 I0.0785 J-0.8874
G1 X-0.9088 Y-0.1573
G3 X-0.2072 Y-0.9074 I0.8841 J0.1237
G1 X0.1428 Y-0.9088
G3 X0.9064 Y-0.2621 I-0.1131 J0.9078
G1 X0.9088 Y0.3101
G3 X0.4357 Y0.9075 I-0.8312 J-0.1723
G1 X0.1324 Y0.9088
G3 X0.1195 Y0.9008 I0.0005 J-0.0152
X0.1353 Y0.8332 I0.0465 J-0.0248
X0.4159 Y0.8878 I0.1144 J0.1602
G1 X0.4234 Y0.9008 F50.
G2 X0.4364 Y0.9088 I0.0134 J-0.0072
G1 X0.5628 F60.
G2 X0.9071 Y0.5926 I-0.1975 J-0.5606
G1 X0.9088 Y0.3101
G2 X0.9008 Y0.2972 I-0.0152 J0.0005
X0.8132 Y0.3275 I-0.0297 J0.0558
X0.8878 Y0.573 I0.1802 J0.0793
G1 X0.9008 Y0.5805 F50.
G3 X0.9088 Y0.5934 I-0.0072 J0.0134
G1 Y0.7074 F60.
G3 X0.7713 Y0.9088 I-0.3463 J-0.0887
G1 X0.5628
G3 X0.5499 Y0.9008 I0.0005 J-0.0152
X0.5874 Y0.8207 I0.0488 J-0.026
X0.7508 Y0.8879 I0.0321 J0.1542
X0.7584 Y0.9008 I-0.1313 J0.0869 F50.
G2 X0.7713 Y0.9088 I0.0134 J-0.0072
G1 X0.8194 F60.
X0.8311 Y0.909
X0.8346 Y0.9093
G2 X0.9156 Y0.8731 I0.0178 J-0.0689
G3 X0.9088 Y0.7074 I0.4933 J-0.1032
G2 X0.8791 Y0.7035 I-0.0152 J0.0005
G1 X0.8237 Y0.8853
X0.8223 Y0.8898 F50.
G2 X0.8346 Y0.9093 I0.0146 J0.0044
G3 X0.9011 Y0.9242 I-0.0067 J0.1864 F60.
G1 X0.9067 Y0.9264
X0.9131 Y0.9275
X0.9202 Y0.9277
X0.924 Y0.9273
X0.9282 Y0.9257
X0.9313 Y0.9223
X0.9324 Y0.9179
X0.9313 Y0.9135
X0.9257 Y0.903
G2 X0.9126 Y0.8953 I-0.0132 J0.0076
X0.9078 Y0.8988 I0. J0.005
X0.9117 Y0.9052 I0.0048 J0.0015 F50.
X0.9181 Y0.9058 I0.0066 J-0.0388
G3 X0.9313 Y0.9135 I-0.0001 J0.0152
G1 X0.9335 Y0.9177 F60.
X0.9371 Y0.9239
X0.9399 Y0.9292
X0.9391 Y0.9342
X0.9358 Y0.938
X0.9309 Y0.9396
X0.926 Y0.9383
G3 X0.9234 Y0.9365 I0.0175 J-0.028
X0.9219 Y0.935 I0.0058 J-0.0075
X0.9236 Y0.9213 I0.0073 J-0.006 F50.
X0.9371 Y0.9239 I0.0056 J0.0076
G1 X0.9443 Y0.9362 F60.
X0.9471 Y0.9415
X0.9461 Y0.945
X0.943 Y0.9469
X0.9394 Y0.9462
G3 X0.9359 Y0.9435 I0.0222 J-0.0325 F50.
Y0.9349 I0.0037 J-0.0043
X0.9443 Y0.9362 I0.0037 J0.0043
G1 X0.9472 Y0.9411 F60.
X0.9498 Y0.9447
X0.9514 Y0.9473
X0.9508 Y0.9499
X0.9486 Y0.9514
X0.9459 Y0.9507
X0.9445 Y0.9495 F50.
X0.9472 Y0.9433
X0.9498 Y0.9447
X0.9504 Y0.9457 F60.
X0.9542 Y0.95
X0.9551 Y0.9512
Y0.9513
X0.9548 Y0.9537
X0.9527 Y0.955
X0.9504 Y0.9542
X0.9502 Y0.954 F50.
X0.9521 Y0.9491
X0.9542 Y0.95
X0.9573 Y0.9536 F60.
X0.9582 Y0.9548
X0.958 Y0.9571
X0.956 Y0.9583
X0.9538 Y0.9575
X0.9534 Y0.9572 F50.
X0.9573 Y0.9536
X0.9594 Y0.956 F60.
X0.9603 Y0.9568
X0.9614 Y0.9578
X0.9612 Y0.9602
X0.9592 Y0.9615
X0.957 Y0.9607
X0.9568 Y0.9605 F50.
X0.9603 Y0.9568
X0.963 Y0.9591 F60.
X0.9651 Y0.9612
X0.9648 Y0.9637
X0.9626 Y0.965
X0.9602 Y0.964
X0.9592 Y0.9627 F50.
X0.963 Y0.9591
X0.968 Y0.9636 F60.
X0.9691 Y0.9646
X0.9687 Y0.9675
X0.9662 Y0.969
X0.9634 Y0.9678
G3 X0.9624 Y0.9654 I0.0041 J-0.0032 F50.
G1 X0.9652 Y0.9624
G3 X0.968 Y0.9636 I-0.0005 J0.0052
G1 X0.9691 Y0.9645 F60.
X0.9713 Y0.9664
X0.9735 Y0.9684
Y0.971
X0.9719 Y0.973
X0.9693 Y0.9735
X0.9671 Y0.9722
X0.9664 Y0.9712 F50.
X0.9713 Y0.9664
X0.9767 Y0.9709 F60.
X0.9789 Y0.9729
X0.9788 Y0.976
X0.9768 Y0.9782
X0.9739 Y0.9787
X0.9713 Y0.9772
X0.9709 Y0.9767 F50.
X0.9767 Y0.9709
X0.9818 Y0.9751 F60.
X0.984 Y0.9772
X0.9842 Y0.9806
X0.982 Y0.9834
X0.9786 Y0.9841
X0.9756 Y0.9824
X0.9751 Y0.9816 F50.
X0.9818 Y0.9751
X0.9879 Y0.9803 F60.
X0.9901 Y0.9824
X0.9903 Y0.9863
X0.9878 Y0.9894
X0.9839 Y0.9901
X0.9805 Y0.9882
X0.9803 Y0.9879 F50.
G3 X0.9879 Y0.9803 I0.0043 J-0.0033
G1 X0.9945 Y0.9859 F60.
X0.9967 Y0.9879
X0.9972 Y0.9915
X0.9957 Y0.9947
X0.9926 Y0.9967
X0.989 Y0.9966
X0.986 Y0.9947
X0.9859 Y0.9945 F50.
G3 X0.9945 Y0.9859 I0.0048 J-0.0038
G1 X1.0014 Y0.9917 F60.
X1.0022 Y0.9925
X1.0029 Y0.9931
X1.0044 Y0.9945
X1.0069 Y1.
X1.0068 Y1.0017
X1.0063 Y1.0032
X1.0055 Y1.0047
G3 X0.9966 Y1.0035 I-0.004 J-0.0036 F50.
G1 X0.9947 Y0.9997
G3 X1.0029 Y0.9931 I0.0049 J-0.0024
G1 X1.0056 Y0.9953 F60.
X1.0059 Y0.9958
X1.0069 Y0.9976
X1.007 Y0.9981
X1.0072 Y1.
X1.0073 Y1.0005
X1.0067 Y1.0028
X1.0064 Y1.0033
X1.0055 Y1.0047
X1.005 Y1.0053
X1.0029 Y1.0067
X1.0006 Y1.0072
G3 X0.9828 Y0.9909 I0.0037 J-0.0219
G1 X0.9809 Y0.9867 Z-0.1254
G0 Z0.4
X-0.0711 Y0.8924
Z-0.0995
G1 Z-0.1148 F50.
X-0.0713 Y0.8925 Z-0.1177
X-0.0721 Y0.8929 Z-0.1206
X-0.0733 Y0.8937 Z-0.1232
X-0.0749 Y0.8946 Z-0.1255
X-0.0769 Y0.8958 Z-0.1274
X-0.0792 Y0.8972 Z-0.1288
X-0.0816 Y0.8986 Z-0.1297
X-0.0842 Y0.9001 Z-0.13
G3 X-0.1139 Y0.9088 I-0.0318 J-0.0536
G1 X-0.4172 F60.
G3 X-0.907 Y0.48 I0.2234 J-0.7493
G1 X-0.9088 Y0.2032
G3 X-0.8931 Y0.1885 I0.0152 J0.0005
X-0.8385 Y0.2309 I-0.0021 J0.0591
X-0.8907 Y0.4567 I-0.2267 J0.0666
G1 X-0.904 Y0.4702 F50.
G2 X-0.9088 Y0.4808 I0.0104 J0.0111
G1 Y0.5906 F60.
G2 X-0.6586 Y0.9072 I0.4711 J-0.1151
G1 X-0.4172 Y0.9088
G2 X-0.4043 Y0.9008 I-0.0005 J-0.0152
X-0.4175 Y0.8457 I-0.0377 J-0.0201
X-0.6389 Y0.8879 I-0.0901 J0.1292
X-0.6466 Y0.9008 I0.1313 J0.0869 F50.
G3 X-0.6595 Y0.9088 I-0.0134 J-0.0072
G1 X-0.7438 F60.
G3 X-0.9088 Y0.8107 I0.0275 J-0.2341
G1 Y0.5906
G3 X-0.88 Y0.5843 I0.0152 J0.0005
G1 X-0.7309 Y0.8864
X-0.7307 Y0.8869 F50.
G3 X-0.7438 Y0.9088 I-0.0137 J0.0067
G1 X-0.8138 F60.
X-0.8372 Y0.9094
X-0.8605 Y0.9134
G3 X-0.9222 Y0.8992 I-0.0244 J-0.0352
G1 X-0.9212 Y0.8944
G2 X-0.9093 Y0.8359 I-0.3471 J-0.1011
G1 X-0.9088 Y0.8242
Y0.8107
G3 X-0.9008 Y0.7978 I0.0152 J0.0005
X-0.8545 Y0.8442 I0.0161 J0.0302
X-0.8952 Y0.8804 I-0.0694 J-0.0371
X-0.9096 Y0.8845 I-0.0287 J-0.0733 F50.
G2 X-0.9212 Y0.8944 I0.0028 J0.015
G1 X-0.9267 Y0.9051 F60.
X-0.9292 Y0.9105
X-0.9302 Y0.9164
X-0.9301 Y0.9224
X-0.9296 Y0.9256
X-0.9278 Y0.9298
X-0.9243 Y0.9326
X-0.9198 Y0.9335
X-0.9155 Y0.9322
G3 X-0.8605 Y0.9134 I0.0638 J0.0963
G2 X-0.8491 Y0.8948 I-0.0033 J-0.0149
X-0.868 Y0.8839 I-0.0148 J0.0037
G1 X-0.8993 Y0.8927
X-0.9175 Y0.8978 F50.
G2 X-0.9267 Y0.9051 I0.0041 J0.0147
G1 X-0.9305 Y0.9125 F60.
X-0.9335 Y0.9177
X-0.9404 Y0.9294
X-0.9431 Y0.9347
X-0.9425 Y0.9387
X-0.9398 Y0.9417
X-0.936 Y0.9429
X-0.9321 Y0.9418
X-0.9305 Y0.9409
X-0.9155 Y0.9322
G2 X-0.9083 Y0.9188 I-0.0081 J-0.0129
X-0.9224 Y0.9138 I-0.008 J0.0003
X-0.9241 Y0.9172 I0.0061 J0.0052 F50.
X-0.9251 Y0.9283 I0.0383 J0.0091
G3 X-0.9321 Y0.9418 I-0.0152 J0.0008
G1 X-0.9402 Y0.9467 F60.
X-0.9455 Y0.9496
X-0.9483 Y0.9486
X-0.9496 Y0.9461
X-0.9489 Y0.9433
G3 X-0.9457 Y0.9399 I0.0307 J0.0247 F50.
G1 X-0.9382 Y0.943
X-0.9402 Y0.9467
X-0.9419 Y0.9477 F60.
X-0.948 Y0.9526
X-0.9505 Y0.9544
X-0.9528 Y0.9538
X-0.954 Y0.9518
X-0.9535 Y0.9495
X-0.9524 Y0.9482 F50.
X-0.947 Y0.9503
X-0.948 Y0.9526
X-0.9528 Y0.9565 F60.
X-0.9541 Y0.9574
X-0.9564 Y0.957
X-0.9576 Y0.9549
X-0.9567 Y0.9527
X-0.9564 Y0.9524 F50.
X-0.9519 Y0.9545
X-0.9528 Y0.9565
X-0.9538 Y0.9573 F60.
X-0.9559 Y0.9595
X-0.957 Y0.9605
X-0.9595 Y0.9603
X-0.9609 Y0.9582
X-0.96 Y0.9558
X-0.9597 Y0.9556 F50.
X-0.9559 Y0.9595
X-0.9588 Y0.9626 F60.
X-0.961 Y0.9647
X-0.9635 Y0.9642
X-0.9648 Y0.9619
X-0.9639 Y0.9595
X-0.9627 Y0.9586 F50.
X-0.9588 Y0.9626
X-0.9606 Y0.9645 F60.
X-0.9628 Y0.967
X-0.9638 Y0.9681
X-0.9667 Y0.968
X-0.9683 Y0.9656
X-0.9674 Y0.9629
X-0.9673 Y0.9628 F50.
X-0.9628 Y0.967
X-0.9658 Y0.9706 F60.
X-0.9678 Y0.9728
X-0.9703
X-0.9723 Y0.9712
X-0.9727 Y0.9687
X-0.9714 Y0.9665
X-0.9705 Y0.9657 F50.
X-0.9658 Y0.9706
X-0.9699 Y0.9756 F60.
X-0.972 Y0.9778
X-0.9749 Y0.9777
X-0.9771 Y0.9758
X-0.9776 Y0.973
X-0.9762 Y0.9704
X-0.9755 Y0.9699 F50.
X-0.9699 Y0.9756
X-0.9744 Y0.9809 F60.
X-0.9765 Y0.9831
X-0.9798 Y0.9832
X-0.9824 Y0.9811
X-0.9831 Y0.9777
X-0.9814 Y0.9748
X-0.9809 Y0.9744 F50.
X-0.9744 Y0.9809
X-0.9796 Y0.9871 F60.
X-0.9816 Y0.9893
X-0.9855
X-0.9885 Y0.9869
X-0.9892 Y0.9831
X-0.9873 Y0.9798
X-0.987 Y0.9796 F50.
G3 X-0.9796 Y0.9871 I0.0033 J0.0042
G1 X-0.9845 Y0.9928 F60.
X-0.9865 Y0.995
X-0.99 Y0.9957
X-0.9933 Y0.9944
X-0.9953 Y0.9915
Y0.9879
X-0.9934 Y0.985
X-0.9927 Y0.9844 F50.
G3 X-0.9845 Y0.9928 I0.0036 J0.0047
G1 X-0.9904 Y0.9998 F60.
X-0.9945 Y1.0041
X-0.9984 Y1.0042
X-1.0018 Y1.0023
X-1.0037 Y0.9988
X-1.0035 Y0.9949
X-1.0013 Y0.9917
X-0.9993 Y0.9902 F50.
G3 X-0.9904 Y0.9998 I0.0038 J0.0054
G1 X-0.9948 Y1.005 F60.
X-0.9955 Y1.0057
X-0.9972 Y1.0066
X-0.9979 Y1.007
X-0.9999 Y1.0072
X-1.0005 Y1.0073
X-1.0027 Y1.0067
X-1.0035 Y1.0063
X-1.005 Y1.0053
X-1.0054 Y1.0047
X-1.0065 Y1.0032
X-1.0067 Y1.0027
X-1.0072 Y1.0006
X-1.0073 Y1.0001
X-1.007 Y0.9981
X-1.0069 Y0.9976
X-1.0058 Y0.9956
X-1.0053 Y0.995
X-0.9992 Y0.9899
X-0.9976 Y0.9892 Z-0.1298
X-0.9962 Y0.9886 Z-0.1291
X-0.9949 Y0.9881 Z-0.128
X-0.994 Y0.9877 Z-0.1266
X-0.9934 Y0.9876 Z-0.1251
X-0.9932 Z-0.1234
G0 Z0.4
X-0.8924 Y-0.1145
Z-0.0995
G1 Z-0.1148 F50.
X-0.8925 Y-0.1148 Z-0.1177
X-0.8929 Y-0.1155 Z-0.1206
X-0.8937 Y-0.1167 Z-0.1232
X-0.8946 Y-0.1184 Z-0.1255
X-0.8958 Y-0.1203 Z-0.1274
X-0.8972 Y-0.1226 Z-0.1288
X-0.8986 Y-0.1251 Z-0.1297
X-0.9001 Y-0.1276 Z-0.13
G3 X-0.9088 Y-0.1573 I0.0536 J-0.0318
G1 Y-0.4143 F60.
G3 X-0.5608 Y-0.8572 I0.652 J0.1542
X-0.4841 Y-0.9088 I0.1072 J0.0765
G1 X-0.2075
G3 X-0.1928 Y-0.8931 I-0.0005 J0.0152
X-0.2359 Y-0.838 I-0.0595 J-0.0021
X-0.46 Y-0.8907 I-0.0648 J-0.2271
G1 X-0.4735 Y-0.904 F50.
G2 X-0.4841 Y-0.9088 I-0.0111 J0.0104
G1 X-0.6038 F60.
G2 X-0.9077 Y-0.6647 I0.138 J0.483
G1 X-0.9088 Y-0.4143
G2 X-0.9008 Y-0.4014 I0.0152 J-0.0005
X-0.8566 Y-0.4095 I0.017 J-0.0319
X-0.8879 Y-0.6447 I-0.1183 J-0.104
X-0.9008 Y-0.6524 I-0.0869 J0.1313 F50.
G3 X-0.9088 Y-0.6653 I0.0072 J-0.0134
G1 Y-0.7544 F60.
G3 X-0.8141 Y-0.9089 I0.2252 J0.0318
X-0.8018 Y-0.8861 I-0.0009 J0.0152
G1 X-0.8804 Y-0.7474
X-0.882 Y-0.7451
X-0.884 Y-0.7431
X-0.8864 Y-0.7415
G3 X-0.9088 Y-0.7544 I-0.0072 J-0.0134 F50.
G1 Y-0.8817 F60.
G3 X-0.8923 Y-0.9206 I0.0216 J-0.0138
X-0.8826 Y-0.9088 I-0.0053 J0.0143
G1 X-0.8801 Y-0.8941
X-0.8786 Y-0.8849
G3 X-0.8863 Y-0.869 I-0.015 J0.0025
X-0.9088 Y-0.8817 I-0.0073 J-0.0134 F50.
G1 X-0.909 Y-0.9051 F60.
X-0.9104 Y-0.9168
X-0.9117 Y-0.9217
X-0.912 Y-0.9228
X-0.9124 Y-0.9245
X-0.9136 Y-0.9304
X-0.9134 Y-0.9307
X-0.9131 Y-0.9308
X-0.9128 Y-0.9307
G3 X-0.9082 Y-0.9273 I-0.0209 J0.0334 F50.
G1 X-0.9099 Y-0.9226
X-0.9124 Y-0.9245
X-0.9134 Y-0.9285 F60.
X-0.9141 Y-0.9306
G2 X-0.8138 Y-0.9088 I0.089 J-0.1682
G1 X-0.6038
G3 X-0.591 Y-0.8864 I-0.0005 J0.0152
G1 X-0.5924 Y-0.8838 Z-0.1297
X-0.5937 Y-0.8813 Z-0.1288
X-0.595 Y-0.879 Z-0.1274
X-0.5961 Y-0.8769 Z-0.1255
X-0.597 Y-0.8753 Z-0.1232
X-0.5976 Y-0.874 Z-0.1206
X-0.598 Y-0.8733 Z-0.1177
X-0.5982 Y-0.873 Z-0.1148
G0 Z-0.0995
X0.1 Y-0.8924
G1 Z-0.1148 F50.
X0.1003 Y-0.8925 Z-0.1177
X0.101 Y-0.8929 Z-0.1206
X0.1023 Y-0.8937 Z-0.1232
X0.1039 Y-0.8946 Z-0.1255
X0.1059 Y-0.8958 Z-0.1274
X0.1081 Y-0.8972 Z-0.1288
X0.1106 Y-0.8986 Z-0.1297
X0.1131 Y-0.9001 Z-0.13
G3 X0.1428 Y-0.9088 I0.0318 J0.0536
G1 X0.4228 F60.
G3 X0.8938 Y-0.5127 I-0.2036 J0.7201
G1 X0.9075 Y-0.5022
X0.9083 Y-0.5007
X0.9087 Y-0.4991
X0.9088 Y-0.4974
Y-0.2628
G3 X0.9008 Y-0.2499 I-0.0152 J-0.0005
X0.8376 Y-0.2684 I-0.0222 J-0.0416
X0.8879 Y-0.4769 I0.1373 J-0.0772
X0.9008 Y-0.4845 I0.0869 J0.1313 F50.
G2 X0.9088 Y-0.4974 I-0.0072 J-0.0134
G1 Y-0.6013 F60.
G2 X0.6655 Y-0.9074 I-0.4628 J0.1181
G1 X0.4228 Y-0.9088
G2 X0.4099 Y-0.9008 I0.0005 J0.0152
X0.4224 Y-0.8471 I0.037 J0.0197
X0.6457 Y-0.8879 I0.092 J-0.1278
X0.6534 Y-0.9008 I-0.1313 J-0.0869 F50.
G3 X0.6663 Y-0.9088 I0.0134 J0.0072
G1 X0.7494 F60.
G3 X0.9089 Y-0.8167 I-0.022 J0.2221
G1 X0.9088 Y-0.8116
Y-0.6013
G3 X0.88 Y-0.5951 I-0.0152 J-0.0005
G1 X0.7366 Y-0.8864
X0.7363 Y-0.8869 F50.
G3 X0.7494 Y-0.9088 I0.0137 J-0.0067
G2 X0.8661 Y-0.9144 I0.0404 J-0.3822 F60.
G3 X0.9223 Y-0.8965 I0.0232 J0.0242
G2 X0.9089 Y-0.8167 I0.2741 J0.0869
G3 X0.8791 Y-0.8132 I-0.0152 J-0.0008
G1 X0.857 Y-0.8891
X0.8552 Y-0.8954 F50.
G3 X0.8661 Y-0.9144 I0.0146 J-0.0042
G2 X0.9127 Y-0.9307 I-0.0105 J-0.1046 F60.
G1 X0.9181 Y-0.9334
X0.9239 Y-0.935
X0.9265 Y-0.9351
X0.9315 Y-0.9341
X0.9352 Y-0.9307
X0.9367 Y-0.9259
X0.9354 Y-0.9209
G3 X0.9267 Y-0.9111 I-0.0334 J-0.0208
X0.919 Y-0.9085 I-0.0075 J-0.0094
X0.9128 Y-0.9307 I0.0001 J-0.012 F50.
G1 X0.933 Y-0.9423 F60.
X0.9383 Y-0.9451
X0.9415 Y-0.9445
X0.944 Y-0.9423
X0.945 Y-0.9392
X0.9441 Y-0.936
G3 X0.9417 Y-0.9326 I-0.0333 J-0.021 F50.
X0.9313 Y-0.9408 I-0.0052 J-0.0041
X0.933 Y-0.9423 I0.0052 J0.0041
G1 X0.9361 Y-0.9441 F60.
X0.9424 Y-0.9484
X0.9475 Y-0.9515
X0.9501 Y-0.9505
X0.9514 Y-0.9481
X0.9507 Y-0.9455
G3 X0.9477 Y-0.9422 I-0.0307 J-0.0247 F50.
G1 X0.9407 Y-0.9451
X0.9424 Y-0.9484
X0.9476 Y-0.9518 F60.
X0.9492 Y-0.9533
X0.9516 Y-0.9551
X0.9538 Y-0.9547
X0.9551 Y-0.9528
X0.9545 Y-0.9506
X0.9533 Y-0.9492 F50.
X0.9483 Y-0.9511
X0.9492 Y-0.9533
X0.953 Y-0.9565 F60.
X0.9541 Y-0.9576
X0.9552 Y-0.9586
X0.9573 Y-0.9582
X0.9585 Y-0.9564
X0.9578 Y-0.9543
G3 X0.9549 Y-0.9528 I-0.0036 J-0.0037 F50.
G1 X0.9537 Y-0.9537
X0.953 Y-0.9543
X0.9522 Y-0.9537
X0.9527 Y-0.953
X0.9545 Y-0.9528
X0.9563 Y-0.9532
X0.9578 Y-0.9543
X0.9594 Y-0.956 F60.
X0.9605 Y-0.9569
X0.9616 Y-0.9579
X0.9614 Y-0.9603
X0.9594 Y-0.9616
X0.9572 Y-0.9608
G2 X0.9559 Y-0.9579 I0.0038 J0.0035 F50.
G1 X0.9568 Y-0.9567
X0.9574 Y-0.956
X0.9568 Y-0.9553
X0.9561 Y-0.9557
X0.9558 Y-0.9575
X0.9562 Y-0.9593
X0.9572 Y-0.9608
X0.9594 Y-0.9631 F60.
X0.9604 Y-0.9642
X0.9614 Y-0.9653
X0.964 Y-0.9649
X0.9653 Y-0.9626
X0.9642 Y-0.9601
G3 X0.9623 Y-0.9591 I-0.0032 J-0.0041 F50.
G1 X0.9593 Y-0.9618
G3 X0.9604 Y-0.9642 I0.0051 J0.0008
G1 X0.9638 Y-0.9683 F60.
X0.9648 Y-0.9694
X0.9679 Y-0.969
X0.9694 Y-0.9663
X0.9682 Y-0.9635
G3 X0.9658 Y-0.9625 I-0.0032 J-0.0041 F50.
G1 X0.9627 Y-0.9652
G3 X0.9638 Y-0.9683 I0.0052 J0.0001
G1 X0.9673 Y-0.9724 F60.
X0.9683 Y-0.9735
X0.971 Y-0.9737
X0.9731 Y-0.9721
X0.9737 Y-0.9694
X0.9724 Y-0.9671
G3 X0.9692 Y-0.966 I-0.0032 J-0.0041 F50.
G1 X0.9678 Y-0.9663
X0.9667 Y-0.9672
X0.9662 Y-0.9686
Y-0.9699
X0.9666 Y-0.9712
X0.9673 Y-0.9724
X0.9708 Y-0.9767 F60.
X0.9729 Y-0.9789
X0.9759 Y-0.9788
X0.9782 Y-0.9769
X0.9788 Y-0.9739
X0.9773 Y-0.9713
X0.9766 Y-0.9708 F50.
X0.9708 Y-0.9767
X0.9752 Y-0.9819 F60.
X0.9773 Y-0.9841
X0.9807 Y-0.9842
X0.9835 Y-0.9821
X0.9841 Y-0.9787
X0.9824 Y-0.9757
X0.9818 Y-0.9752 F50.
X0.9752 Y-0.9819
X0.9799 Y-0.9875 F60.
X0.982 Y-0.9897
X0.9859 Y-0.9901
X0.9891 Y-0.9877
X0.99 Y-0.9839
X0.988 Y-0.9804
X0.9874 Y-0.9799 F50.
G3 X0.9799 Y-0.9875 I-0.0032 J-0.0043
G1 X0.9855 Y-0.9941 F60.
X0.9876 Y-0.9963
X0.9911 Y-0.9968
X0.9944 Y-0.9953
X0.9963 Y-0.9923
Y-0.9887
X0.9943 Y-0.9857
X0.994 Y-0.9855 F50.
G3 X0.9855 Y-0.9941 I-0.0037 J-0.0048
G1 X0.9917 Y-1.0013 F60.
X0.9927 Y-1.0025
X0.9935 Y-1.0035
X0.9947 Y-1.0047
X1.0003 Y-1.0069
X1.0019 Y-1.0067
X1.0034 Y-1.0062
X1.0047 Y-1.0055
X1.0042 Y-1.0035
X0.9807 Y-0.9871
X0.9787 Y-0.9857
X0.9783 Y-0.9805
X0.9841 Y-0.9823 F50.
G3 X0.9935 Y-1.0035 I0.0461 J0.0079
G1 X0.995 Y-1.0052 F60.
X0.9956 Y-1.0058
X0.9977 Y-1.0069
X1.0003 Y-1.0073
X1.003 Y-1.0067
X1.0047 Y-1.0055
X1.0054 Y-1.0049
X1.0066 Y-1.0031
X1.0068 Y-1.0025
X1.0072 Y-1.0005
Y-0.9999
X1.007 Y-0.998
X1.0068 Y-0.9974
X1.0057 Y-0.9955
X1.0049 Y-0.9948
X1.0005 Y-0.991
X0.9989 Y-0.9903 Z-0.1298
X0.9975 Y-0.9897 Z-0.1291
X0.9962 Y-0.9891 Z-0.1281
X0.9952 Y-0.9887 Z-0.1268
X0.9944 Y-0.9886 Z-0.125
X0.9941 Z-0.1231
G0 Z0.4
X0.9261 Y2.403
Z-0.0995
G1 Z-0.1148 F50.
X0.9263 Y2.4028 Z-0.1177
X0.9269 Y2.4022 Z-0.1206
X0.928 Y2.4012 Z-0.1232
X0.9293 Y2.3999 Z-0.1255
X0.931 Y2.3984 Z-0.1274
X0.9329 Y2.3966 Z-0.1288
X0.935 Y2.3946 Z-0.1297
X0.9372 Y2.3926 Z-0.13
G3 X1.004 Y2.3421 I0.2664 J0.2832
G1 X1.0112 Y2.3423 F60.
X1.0183 Y2.3431
X1.0253 Y2.3445
X1.0322 Y2.3465
X1.0389 Y2.3491
X1.0453 Y2.3523
X1.0515 Y2.356
X1.0572 Y2.3602
X1.0626 Y2.3649
X1.0676 Y2.3701
X1.0721 Y2.3757
X1.0761 Y2.3816
X1.0796 Y2.3879
X1.0825 Y2.3944
X1.0849 Y2.4012
X1.0867 Y2.4081
X1.0878 Y2.4152
X1.0884 Y2.4223
X1.0883 Y2.4295
X1.0876 Y2.4366
X1.0863 Y2.4437
X1.0844 Y2.4506
X1.0819 Y2.4573
X1.0788 Y2.4638
X1.0752 Y2.4699
X1.0711 Y2.4758
X1.0698 Y2.4864
X1.068 Y2.497
X1.0655 Y2.5074
X1.0624 Y2.5177
X1.0588 Y2.5278
X1.0545 Y2.5376
X1.0498 Y2.5472
X1.0444 Y2.5565
X1.0386 Y2.5655
X1.0322 Y2.5741
X1.0253 Y2.5823
X1.018 Y2.5902
X1.0103 Y2.5975
X1.0021 Y2.6045
X0.9935 Y2.6109
X0.9846 Y2.6169
X0.9754 Y2.6223
X0.9658 Y2.6272
X0.956 Y2.6315
X0.946 Y2.6352
X0.9357 Y2.6384
X0.9253 Y2.641
X0.9148 Y2.6429
X0.9042 Y2.6443
X0.8935 Y2.645
X0.8827 Y2.6452
X0.872 Y2.6447
X0.8614 Y2.6435
X0.8508 Y2.6418
X0.8403 Y2.6395
X0.83 Y2.6365
X0.8199 Y2.633
X0.81 Y2.6289
X0.8004 Y2.6243
X0.791 Y2.619
X0.782 Y2.6133
X0.7733 Y2.607
X0.7649 Y2.6003
X0.757 Y2.5931
X0.7495 Y2.5854
X0.7425 Y2.5773
X0.7359 Y2.5689
X0.7299 Y2.56
X0.7243 Y2.5508
X0.7193 Y2.5414
X0.7149 Y2.5316
X0.711 Y2.5216
X0.7077 Y2.5114
X0.705 Y2.5011
X0.7029 Y2.4905
X0.7014 Y2.4799
X0.7005 Y2.4692
X0.7003 Y2.4585
X0.7006 Y2.4478
X0.7016 Y2.4372
X0.7032 Y2.4266
X0.7054 Y2.4161
X0.7082 Y2.4057
X0.7116 Y2.3956
G3 X0.5396 Y2.1459 I1.8458 J-1.4555
X0.8814 Y1.9929 I0.1827 J-0.0503
X1.0795 Y2.2252 I-0.2314 J0.3978
G1 X1.0895 Y2.2343
X1.0991 Y2.2438
X1.1082 Y2.2538
X1.1169 Y2.2642
X1.125 Y2.275
X1.1326 Y2.2862
X1.1398 Y2.2977
X1.1463 Y2.3095
X1.1523 Y2.3216
X1.1578 Y2.334
X1.1627 Y2.3466
X1.1669 Y2.3594
X1.1706 Y2.3724
X1.1737 Y2.3856
X1.1761 Y2.3989
X1.1779 Y2.4123
X1.1791 Y2.4257
X1.1797 Y2.4392
X1.1796 Y2.4528
X1.1789 Y2.4663
X1.1776 Y2.4797
X1.1757 Y2.4931
X1.1731 Y2.5064
X1.1699 Y2.5195
X1.1661 Y2.5325
X1.1618 Y2.5453
X1.1568 Y2.5578
X1.1512 Y2.5702
X1.1451 Y2.5822
X1.1384 Y2.594
X1.1312 Y2.6054
X1.1235 Y2.6165
X1.1152 Y2.6272
X1.1065 Y2.6375
X1.0973 Y2.6474
X1.0876 Y2.6569
X1.0775 Y2.6659
X1.067 Y2.6744
X1.0561 Y2.6824
X1.0449 Y2.6899
X1.0333 Y2.6969
X1.0214 Y2.7033
X1.0092 Y2.7092
X0.9968 Y2.7145
X0.9841 Y2.7192
X0.9712 Y2.7233
X0.9582 Y2.7268
X0.945 Y2.7297
X0.9316 Y2.732
X0.9182 Y2.7336
X0.9048 Y2.7347
X0.8912 Y2.7351
X0.8777 Y2.7348
X0.8642 Y2.734
X0.8508 Y2.7325
X0.8374 Y2.7304
X0.8242 Y2.7277
X0.8111 Y2.7243
X0.7982 Y2.7204
X0.7854 Y2.7159
X0.7729 Y2.7107
X0.7607 Y2.705
X0.7487 Y2.6987
X0.737 Y2.6919
X0.7257 Y2.6846
X0.7147 Y2.6767
X0.7041 Y2.6683
X0.6939 Y2.6594
X0.6841 Y2.6501
X0.6748 Y2.6403
X0.6659 Y2.6301
X0.6575 Y2.6195
X0.6496 Y2.6086
X0.6422 Y2.5972
X0.6354 Y2.5856
X0.6291 Y2.5736
X0.6234 Y2.5613
X0.6183 Y2.5488
X0.6137 Y2.5361
X0.6098 Y2.5232
X0.6064 Y2.5101
X0.6037 Y2.4968
X0.6016 Y2.4835
X0.6001 Y2.4701
X0.5992 Y2.4566
X0.599 Y2.443
X0.5994 Y2.4295
G3 X0.4757 Y2.2355 I1.1071 J-0.8421
G1 X0.4628 Y2.0395
G3 X0.5984 Y1.8411 I0.226 J0.009
X0.6106 Y1.8648 I-0.0005 J0.0152
G1 X0.4907 Y2.0464
X0.4886 Y2.049
X0.486 Y2.051
G3 X0.4628 Y2.0395 I-0.008 J-0.013 F50.
G1 X0.4545 Y1.8993 F60.
G3 X0.4758 Y1.8411 I0.0414 J-0.0178
X0.4903 Y1.8584 I-0.0005 J0.0152
G1 X0.4896 Y1.8638
X0.4848 Y1.8998
G3 X0.4777 Y1.9108 I-0.0151 J-0.002
X0.4545 Y1.8993 I-0.008 J-0.013 F50.
X0.4559 Y1.8439 I0.0394 J-0.0267 F60.
X0.4695 Y1.8411 I0.0108 J0.0185
G1 X0.7856
G3 X1.1436 Y2.1314 I-0.1648 J0.5691
X1.0631 Y2.7961 I-0.2969 J0.3012
X0.5112 Y2.4892 I-0.1702 J-0.3436
X0.4864 Y2.4368 I0.0943 J-0.0766
G1 X0.4745 Y2.2361
G3 X0.4818 Y2.2228 I0.0152 J-0.0004
X0.4953 Y2.2229 I0.0066 J0.0109
X0.506 Y2.4148 I-0.0632 J0.0998
X0.4937 Y2.4234 I-0.0739 J-0.0921 F50.
G2 X0.4864 Y2.4368 I0.0079 J0.013
G1 X0.5003 Y2.6705 F60.
G2 X0.5379 Y2.7636 I0.093 J0.0166
G3 X0.8778 Y2.8949 I-0.2703 J1.205
G2 X0.9198 Y2.9086 I0.0329 J-0.0298
G1 X0.9248 Y2.9066
X0.9253 Y2.9064
X1.2596 Y2.6938
G2 X1.3171 Y2.227 I-0.2798 J-0.2714
X1.0131 Y1.8411 I-0.8924 J0.3905
G1 X0.7856
G2 X0.7727 Y1.8492 I0.0005 J0.0152
X0.7963 Y1.9186 I0.0443 J0.0236
X0.9925 Y1.8621 I0.0649 J-0.1435
X1.0002 Y1.8492 I-0.1313 J-0.0869 F50.
G3 X1.0131 Y1.8411 I0.0134 J0.0072
G1 X1.0994 F60.
G3 X1.1318 Y1.8532 I0.0099 J0.0229
G1 X1.4344 Y2.4017
G3 X1.4433 Y2.5782 I-0.2102 J0.099
G1 X1.4406 Y2.5795
X1.4377 Y2.5803
X1.4347 Y2.5806
X1.4317 Y2.5803
X1.4289 Y2.5794
X1.4263 Y2.578
X1.424 Y2.5762
X1.4221 Y2.574
X1.4206 Y2.5715
X1.4197 Y2.5688
X1.4192 Y2.5659
Y2.5658
X1.4062 Y2.4108
X1.4063 Y2.4075
X1.4071 Y2.4043
X1.4086 Y2.4013
G3 X1.4344 Y2.4017 I0.0128 J0.0082 F50.
G1 X1.5001 Y2.5208 F60.
X1.5037 Y2.5318
X1.5036 Y2.5342
X1.5035 Y2.5346
X1.5026 Y2.5366
X1.5024 Y2.537
X1.4941 Y2.5447
X1.2596 Y2.6938
G3 X1.2367 Y2.6818 I-0.0077 J-0.0131
G1 X1.2365 Y2.6788 Z-0.1297
X1.2363 Y2.676 Z-0.1288
X1.2361 Y2.6734 Z-0.1274
X1.2359 Y2.671 Z-0.1255
X1.2358 Y2.6692 Z-0.1232
X1.2357 Y2.6678 Z-0.1206
X1.2356 Y2.6669 Z-0.1177
Y2.6666 Z-0.1148
G0 Z-0.0995
X0.8475 Y2.8606
G1 Z-0.1148 F50.
X0.8476 Y2.8608 Z-0.1177
X0.8481 Y2.8616 Z-0.1206
X0.8488 Y2.8628 Z-0.1232
X0.8498 Y2.8644 Z-0.1255
X0.851 Y2.8664 Z-0.1274
X0.8524 Y2.8686 Z-0.1288
X0.8539 Y2.871 Z-0.1297
X0.8555 Y2.8735 Z-0.13
G2 X0.8778 Y2.895 I0.053 J-0.0328
X0.9198 Y2.9086 I0.0291 J-0.0179 F60.
X0.9289 Y2.8953 I-0.0062 J-0.0139
G1 X0.929 Y2.8924 Z-0.1297
X0.9291 Y2.8895 Z-0.1288
X0.9292 Y2.8869 Z-0.1274
X0.9293 Y2.8846 Z-0.1255
X0.9294 Y2.8827 Z-0.1232
X0.9295 Y2.8813 Z-0.1206
Y2.8804 Z-0.1177
Y2.8801 Z-0.1148
G0 Z-0.0995
X0.5142 Y2.6268
G1 Z-0.1148 F50.
X0.5141 Y2.6271 Z-0.1177
X0.5137 Y2.6278 Z-0.1206
X0.5131 Y2.6291 Z-0.1232
X0.5122 Y2.6308 Z-0.1255
X0.5111 Y2.6328 Z-0.1274
X0.5099 Y2.6351 Z-0.1288
X0.5086 Y2.6377 Z-0.1297
X0.5072 Y2.6403 Z-0.13
G2 X0.5003 Y2.6705 I0.0553 J0.0286
X0.508 Y2.7531 I0.0901 J0.0333 F60.
X0.5379 Y2.7636 I0.0291 J-0.0351
X0.5395 Y2.7639 I0.0038 J-0.0147
G1 X0.5417 Y2.7641 Z-0.1298
X0.544 Y2.7635 Z-0.1293
X0.5463 Y2.763 Z-0.1283
X0.5483 Y2.7626 Z-0.127
X0.55 Y2.7613 Z-0.1251
X0.5514 Y2.7602 Z-0.1229
X0.5524 Y2.7595 Z-0.1203
X0.553 Y2.759 Z-0.1176
X0.5532 Y2.7588 Z-0.1148
G0 Z0.4
X-0.5106 Y2.4688
Z-0.03
G3 X-0.6094 Y2.3632 Z-0.0701 I-0.0494 J-0.0528 F50.
X-0.5106 Y2.4688 Z-0.1101 I0.0494 J0.0528
X-0.6094 Y2.3632 Z-0.1502 I-0.0494 J-0.0528
X-0.5106 Y2.4688 Z-0.1903 I0.0494 J0.0528
X-0.6094 Y2.3632 Z-0.2304 I-0.0494 J-0.0528
X-0.4877 Y2.416 Z-0.26 I0.0494 J0.0528
X-0.6324 I-0.0723 J0.
X-0.4879 Y2.4102 I0.0723 J0.
G1 X-0.4877 Y2.416
G3 X-0.6257 Y2.5521 I-0.0789 J0.058 F60.
G1 X-0.6419 Y2.4626
X-0.6507 Y2.416
X-0.659 Y2.3694
X-0.6587 Y2.3612
X-0.6577 Y2.353
X-0.6562 Y2.3449
X-0.6541 Y2.337
X-0.6514 Y2.3293
X-0.6481 Y2.3217
X-0.6442 Y2.3145
X-0.6398 Y2.3076
X-0.6349 Y2.301
X-0.6295 Y2.2948
X-0.6237 Y2.289
X-0.6174 Y2.2837
X-0.6108 Y2.2788
X-0.6038 Y2.2745
X-0.5965 Y2.2707
X-0.589 Y2.2675
X-0.5812 Y2.2649
X-0.5733 Y2.2628
X-0.5652 Y2.2614
X-0.557 Y2.2605
X-0.5488 Y2.2603
X-0.5406 Y2.2607
X-0.5325 Y2.2617
X-0.5244 Y2.2633
X-0.5165 Y2.2655
X-0.5088 Y2.2683
X-0.5013 Y2.2717
X-0.4941 Y2.2757
X-0.4872 Y2.2801
X-0.4807 Y2.2851
G3 X-0.4366 Y2.5325 I-17.1341 J3.1831
G1 X-0.4376 Y2.5416
X-0.4393 Y2.5506
X-0.4415 Y2.5594
X-0.4444 Y2.5681
X-0.4478 Y2.5766
X-0.4517 Y2.5848
X-0.4562 Y2.5928
X-0.4612 Y2.6004
X-0.4668 Y2.6077
X-0.4728 Y2.6146
X-0.4792 Y2.621
X-0.4861 Y2.6271
X-0.4933 Y2.6326
X-0.5009 Y2.6377
X-0.5088 Y2.6423
X-0.517 Y2.6463
X-0.5255 Y2.6497
X-0.5342 Y2.6526
X-0.543 Y2.6549
X-0.552 Y2.6566
X-0.561 Y2.6577
X-0.5702 Y2.6582
X-0.5793 Y2.658
X-0.5884 Y2.6573
X-0.5974 Y2.656
X-0.6063 Y2.654
X-0.6151 Y2.6515
X-0.6237 Y2.6484
X-0.6321 Y2.6447
X-0.6402 Y2.6405
X-0.648 Y2.6358
X-0.634 Y2.6025
X-0.625 Y2.5558
X-0.6257 Y2.5521
G3 X-0.6201 Y2.5379 I0.0151 J-0.0022
X-0.5704 Y2.5762 I0.02 J0.0254
X-0.6187 Y2.6197 I-0.0722 J-0.0315
X-0.6333 Y2.6229 I-0.0239 J-0.075 F50.
G2 X-0.6455 Y2.632 I0.0018 J0.0151
G1 X-0.6509 Y2.6459 F60.
X-0.6516 Y2.6481
X-0.6519 Y2.6491
X-0.6521 Y2.6501
Y2.6512
Y2.6579
G2 X-0.4863 Y2.7235 I0.111 J-0.0382
X-0.4366 Y2.5325 I-0.2018 J-0.1545
X-0.4641 Y2.5267 I-0.015 J0.0028
X-0.4734 Y2.5451 I0.0631 J0.0434
X-0.4874 Y2.6934 I0.2977 J0.1029
G1 X-0.4841 Y2.7121 F50.
G3 X-0.4863 Y2.7235 I-0.0149 J0.0031
X-0.6515 Y2.658 I-0.0766 J-0.048 F60.
G1 X-0.6513 Y2.6554
X-0.6506 Y2.6528
X-0.6494 Y2.6504
X-0.6479 Y2.6482
X-0.6459 Y2.6464
X-0.6437 Y2.6449
X-0.6412 Y2.6438
X-0.6385 Y2.6432
X-0.6295 Y2.6422
X-0.6239 Y2.6416
G2 X-0.6263 Y2.6191 I-0.0012 J-0.0112
X-0.632 Y2.6215 I0.0012 J0.0112
X-0.6509 Y2.6459 I0.0383 J0.0491 F50.
G1 X-0.6521 Y2.6491 F60.
Y2.6512
G2 X-0.644 Y2.664 I0.0152 J-0.0006
X-0.6108 Y2.6624 I0.0152 J-0.0291
X-0.6347 Y2.3859 I-0.0861 J-0.1318
X-0.6488 Y2.3806 I-0.0622 J0.1447 F50.
G3 X-0.659 Y2.3694 I0.0047 J-0.0145
G1 X-0.6674 Y2.3228 F60.
X-0.6738 Y2.2994
X-0.6736 Y2.2908
X-0.6728 Y2.2823
X-0.6714 Y2.2738
X-0.6694 Y2.2654
X-0.6669 Y2.2572
X-0.6638 Y2.2492
X-0.6601 Y2.2414
X-0.6559 Y2.2339
X-0.6513 Y2.2267
X-0.6461 Y2.2198
X-0.6404 Y2.2133
X-0.6344 Y2.2072
X-0.6279 Y2.2015
X-0.6211 Y2.1963
X-0.6139 Y2.1916
X-0.6064 Y2.1874
X-0.5986 Y2.1837
X-0.5906 Y2.1806
X-0.5824 Y2.178
X-0.574 Y2.176
X-0.5655 Y2.1746
X-0.557 Y2.1738
X-0.5484 Y2.1735
X-0.5398 Y2.1739
X-0.5312 Y2.1748
X-0.5228 Y2.1764
X-0.5144 Y2.1785
X-0.5063 Y2.1812
X-0.5046 Y2.1829
X-0.4908 Y2.2295
X-0.4807 Y2.2851
G3 X-0.4864 Y2.2993 I-0.0151 J0.0022
X-0.5049 Y2.2948 I-0.0075 J-0.0095
X-0.5102 Y2.21 I0.1073 J-0.0493
X-0.5048 Y2.196 I0.1126 J0.0355 F50.
G2 X-0.5062 Y2.1809 I-0.0138 J-0.0064
G1 X-0.5133 Y2.1714 F60.
X-0.5384 Y2.1442
G2 X-0.7486 Y2.224 I-0.079 J0.1087
G1 X-0.7385 Y2.2295
X-0.7041 Y2.2546
G2 X-0.6889 Y2.2557 I0.0085 J-0.0126
X-0.6852 Y2.2318 I-0.0064 J-0.0132
X-0.7159 Y2.2213 I-0.027 J0.0287
X-0.7302 Y2.2255 I0.0037 J0.0392 F50.
G3 X-0.7454 Y2.2247 I-0.007 J-0.0135
G1 X-0.7469 Y2.2237 F60.
X-0.7612 Y2.2129
G3 X-0.6716 Y2.0424 I0.0983 J-0.0572
G1 X-0.6694 Y2.0443
X-0.6676 Y2.0466
X-0.6663 Y2.0493
X-0.6655 Y2.0522
X-0.6653 Y2.0552
X-0.6657 Y2.0582
X-0.6668 Y2.061
X-0.6709 Y2.0694
X-0.7368 Y2.2029
X-0.7389 Y2.2072 F50.
G3 X-0.7612 Y2.2129 I-0.0137 J-0.0067
G1 X-0.7936 Y2.1885 F60.
X-0.801 Y2.1829
X-0.8192 Y2.1588
G3 X-0.8137 Y2.0403 I0.0971 J-0.0549
X-0.7891 Y2.0528 I0.0095 J0.0119
G1 X-0.7921 Y2.1497
X-0.7925 Y2.1527
X-0.7935 Y2.1555
G3 X-0.8192 Y2.1588 I-0.0138 J-0.0063 F50.
G1 X-0.8235 Y2.1525 F60.
X-0.8273 Y2.1459
X-0.8306 Y2.139
X-0.8333 Y2.1319
X-0.8354 Y2.1246
X-0.8369 Y2.1171
X-0.8378 Y2.1095
X-0.8381 Y2.1019
X-0.8378 Y2.0943
X-0.8369 Y2.0867
X-0.8354 Y2.0792
X-0.8333 Y2.0719
X-0.8306 Y2.0648
X-0.8273 Y2.0579
X-0.8235 Y2.0513
X-0.8191 Y2.045
X-0.8143 Y2.0391
X-0.809 Y2.0336
X-0.8033 Y2.0285
X-0.7972 Y2.0239
X-0.7908 Y2.0199
X-0.784 Y2.0163
X-0.777 Y2.0133
X-0.7698 Y2.0109
X-0.7624 Y2.0091
X-0.7548 Y2.0079
X-0.7472 Y2.0073
X-0.7396
X-0.732 Y2.0079
X-0.7245 Y2.0091
X-0.7171 Y2.0109
X-0.7098 Y2.0133
X-0.7028 Y2.0163
X-0.6961 Y2.0199
X-0.6896 Y2.0239
X-0.6835 Y2.0285
X-0.6778 Y2.0336
X-0.6725 Y2.0391
X-0.6677 Y2.045
X-0.6634 Y2.0512
X-0.6595 Y2.0578
G3 X-0.5384 Y2.1442 I-0.1709 J0.3678
X-0.5462 Y2.1689 I-0.0116 J0.0099
G1 X-0.5491 Y2.1696 Z-0.2597
X-0.5518 Y2.1703 Z-0.2588
X-0.5544 Y2.171 Z-0.2574
X-0.5566 Y2.1715 Z-0.2555
X-0.5585 Y2.172 Z-0.2532
X-0.5598 Y2.1724 Z-0.2506
X-0.5607 Y2.1726 Z-0.2477
X-0.5609 Z-0.2448
G0 Z0.4
X0.7509 Y2.1425
Z-0.03
G3 X0.652 Y2.0368 Z-0.0701 I-0.0494 J-0.0528 F50.
X0.7509 Y2.1425 Z-0.1101 I0.0494 J0.0528
X0.652 Y2.0368 Z-0.1502 I-0.0494 J-0.0528
X0.7509 Y2.1425 Z-0.1903 I0.0494 J0.0528
X0.652 Y2.0368 Z-0.2304 I-0.0494 J-0.0528
X0.7738 Y2.0897 Z-0.26 I0.0494 J0.0528
X0.6291 I-0.0723 J0.
X0.7736 Y2.0839 I0.0723 J0.
G1 X0.7738 Y2.0897
G3 X0.7252 Y2.2305 I-0.06 J0.0581 F60.
X0.6296 Y2.0422 I0.0846 J-0.1613
X0.8337 Y2.0805 I0.0918 J0.0739
G1 X0.8401 Y2.0866
X0.8462 Y2.0932
X0.8517 Y2.1002
X0.8568 Y2.1076
X0.8613 Y2.1153
X0.8653 Y2.1233
X0.8687 Y2.1315
X0.8715 Y2.14
X0.8738 Y2.1487
X0.8754 Y2.1575
X0.8764 Y2.1663
X0.8768 Y2.1753
X0.8766 Y2.1842
X0.8757 Y2.1931
X0.8742 Y2.2019
X0.8722 Y2.2106
X0.8695 Y2.2191
X0.8662 Y2.2274
X0.8623 Y2.2355
X0.858 Y2.2433
X0.853 Y2.2507
X0.8476 Y2.2578
X0.8417 Y2.2645
X0.8353 Y2.2708
X0.8285 Y2.2766
X0.8213 Y2.2819
X0.8138 Y2.2867
X0.806 Y2.291
X0.7978 Y2.2947
X0.7895 Y2.2978
X0.7737 Y2.2761
X0.7482 Y2.2517
X0.7252 Y2.2305
G3 X0.7251 Y2.2089 I0.0107 J-0.0108
X0.7514 Y2.2063 I0.0148 J0.0147
X0.7861 Y2.2645 I-0.0437 J0.0655
X0.7856 Y2.2834 I-0.0784 J0.0073 F50.
G2 X0.7884 Y2.2947 I0.0151 J0.0023
G1 X0.7949 Y2.3028 F60.
X0.7959 Y2.3047
G2 X0.9581 Y2.1984 I0.054 J-0.0946
X0.8416 Y2.0779 I-0.7392 J0.5984
X0.8267 Y2.0749 I-0.0101 J0.0114
X0.8188 Y2.0864 I0.0037 J0.0111
G1 X0.8199 Y2.0948
X0.8217 Y2.103
X0.824 Y2.111
X0.827 Y2.1189
X0.8304 Y2.1266
X0.8344 Y2.134
X0.8389 Y2.1411
X0.844 Y2.1478
X0.8494 Y2.1542
X0.8554 Y2.1601
X0.8617 Y2.1657
X0.8684 Y2.1708
X0.8754 Y2.1753
X0.8828 Y2.1794
X0.8904 Y2.1829
X0.8983 Y2.1859
X0.9063 Y2.1883
X0.9145 Y2.1902
X0.9229 Y2.1914
X0.9312 Y2.1921
G2 X0.9462 Y2.1917 I0.005 J-0.118 F50.
G3 X0.96 Y2.1982 I0.0013 J0.0152
G1 X0.9803 Y2.2295 F60.
X0.9879 Y2.2622
G3 X0.8067 Y2.4033 I-0.1364 J0.0117
G1 X0.8118 Y2.3894
X0.8196 Y2.3694
X0.8083 Y2.3315
G3 X0.8191 Y2.3129 I0.0147 J-0.0039
X0.8525 Y2.3608 I0.0079 J0.0301
X0.8338 Y2.3798 I-0.0646 J-0.0451
X0.8172 Y2.3889 I-0.0459 J-0.064 F50.
G2 X0.8089 Y2.397 I0.0057 J0.0141
G1 X0.804 Y2.4095 F60.
G2 X0.9955 Y2.4395 I0.1027 J-0.0293
X0.9912 Y2.2761 I-0.1513 J-0.0778
G1 X0.9879 Y2.2622
G2 X0.9771 Y2.2514 I-0.0147 J0.004
X0.9603 Y2.26 I-0.0036 J0.0137
X0.9845 Y2.4154 I0.147 J0.0566
X0.9945 Y2.4266 I0.1227 J-0.0987 F50.
G3 X0.9982 Y2.4413 I-0.0109 J0.0106
G1 X0.9914 Y2.4626 F60.
X0.9818 Y2.4819
X0.9675 Y2.5092
G3 X0.8832 Y2.5566 I-0.0817 J-0.0466
X0.8792 Y2.5287 I0.0037 J-0.0148
X0.9536 Y2.4874 I0.0949 J0.0833
X0.9675 Y2.5092 I0.0002 J0.0152 F50.
X0.8361 Y2.5425 I-0.082 J-0.0477 F60.
X0.8055 Y2.4104 I0.0494 J-0.081
G1 X0.8065 Y2.4081
X0.808 Y2.406
X0.8098 Y2.4042
X0.812 Y2.4027
X0.8144 Y2.4017
X0.817 Y2.4011
X0.8198 Y2.401
X0.8225 Y2.4014
X0.8251 Y2.4024
X0.8275 Y2.4038
X0.8296 Y2.4056
X0.8315 Y2.4079 Z-0.2597
X0.8334 Y2.4101 Z-0.2588
X0.8351 Y2.4121 Z-0.2574
X0.8366 Y2.4138 Z-0.2555
X0.8378 Y2.4153 Z-0.2532
X0.8387 Y2.4163 Z-0.2506
X0.8393 Y2.417 Z-0.2477
X0.8395 Y2.4172 Z-0.2448
G0 Z0.4
X1.5451 Y5.2193
Z-0.03
G3 X1.4463 Y5.1137 Z-0.0701 I-0.0494 J-0.0528 F50.
X1.5451 Y5.2193 Z-0.1101 I0.0494 J0.0528
X1.4463 Y5.1137 Z-0.1502 I-0.0494 J-0.0528
X1.5451 Y5.2193 Z-0.1903 I0.0494 J0.0528
X1.4463 Y5.1137 Z-0.2304 I-0.0494 J-0.0528
X1.5681 Y5.1665 Z-0.26 I0.0494 J0.0528
X1.4234 I-0.0723 J0.
X1.5678 Y5.1607 I0.0723 J0.
G1 X1.5681 Y5.1665
G3 X1.582 Y5.2469 I-0.0365 J0.0477 F60.
X1.449 Y5.2668 I-0.547 J-3.206
G1 X1.4409 Y5.2663
X1.4328 Y5.2653
X1.4249 Y5.2637
X1.4171 Y5.2615
X1.4094 Y5.2588
X1.402 Y5.2555
X1.3949 Y5.2517
X1.388 Y5.2473
X1.3815 Y5.2425
X1.3754 Y5.2372
X1.3696 Y5.2315
X1.3643 Y5.2253
X1.3595 Y5.2188
X1.3551 Y5.212
X1.3513 Y5.2048
X1.348 Y5.1974
X1.3452 Y5.1898
X1.343 Y5.182
X1.3414 Y5.174
X1.3404 Y5.166
X1.34 Y5.1579
X1.3401 Y5.1498
X1.3409 Y5.1417
X1.3422 Y5.1337
X1.3441 Y5.1258
X1.3466 Y5.1181
X1.3497 Y5.1106
X1.3533 Y5.1033
X1.3574 Y5.0963
X1.362 Y5.0896
X1.3671 Y5.0833
G2 X1.5424 Y5.0603 I-0.136 J-1.711
G1 X1.5518 Y5.0614
X1.5611 Y5.0632
X1.5702 Y5.0655
X1.5792 Y5.0685
X1.588 Y5.072
X1.5965 Y5.076
X1.6048 Y5.0806
X1.6127 Y5.0857
X1.6203 Y5.0914
X1.6275 Y5.0974
X1.6343 Y5.104
X1.6407 Y5.1109
X1.6467 Y5.1183
X1.6521 Y5.126
X1.657 Y5.134
X1.6615 Y5.1424
X1.6653 Y5.151
X1.6686 Y5.1598
X1.6714 Y5.1689
X1.6735 Y5.1781
X1.6751 Y5.1874
X1.6761 Y5.1968
X1.6764 Y5.2062
X1.6762 Y5.2156
X1.6753 Y5.225
X1.6739 Y5.2344
X1.6359 Y5.2391
X1.582 Y5.2469
G3 X1.568 Y5.2408 I-0.0017 J-0.0151
X1.5888 Y5.1965 I0.0224 J-0.0165
X1.6461 Y5.2167 I0.0045 J0.0786
X1.6562 Y5.2277 I-0.0528 J0.0584 F50.
G2 X1.6702 Y5.2337 I0.0122 J-0.0092
G1 X1.6826 Y5.2317 F60.
X1.6897 Y5.2305
G2 X1.6862 Y5.038 I-0.0647 J-0.0951
G3 X1.5424 Y5.0603 I-0.6079 J-3.4434
G2 X1.5308 Y5.0701 I0.0027 J0.015
X1.5795 Y5.1296 I0.0422 J0.0152
X1.6696 Y5.0622 I-0.0172 J-0.1169
X1.675 Y5.0482 I-0.1073 J-0.0495 F50.
G3 X1.6862 Y5.0379 I0.0145 J0.0046
G1 X1.7147 Y5.0326 F60.
G3 X1.8157 Y5.1953 I-0.0122 J0.1203
X1.7967 Y5.1901 I-0.0064 J-0.0138
G1 X1.7914 Y5.1822
X1.7061 Y5.0571
X1.7054 Y5.056 F50.
G3 X1.7147 Y5.0326 I0.0126 J-0.0086
X1.7982 Y5.2109 I0.0418 J0.0891 F60.
X1.7311 Y5.2169 I-0.0418 J-0.0891
G1 X1.6897 Y5.2305
G3 X1.6797 Y5.2288 I-0.0026 J-0.015
G2 X1.6704 Y5.227 I-0.0074 J0.0133
G1 X1.6595 Y5.2284
X1.4848 Y5.251
X1.4821 Y5.2516
X1.4795 Y5.2527
X1.4772 Y5.2542
G3 X1.449 Y5.2668 I-0.0387 J-0.0488 F50.
G1 X1.4023 Y5.2716 F60.
X1.3661 Y5.2747
X1.3603 Y5.2752
X1.3589 Y5.2754
X1.3565
X1.3555
X1.3546 Y5.2753
X1.3536 Y5.2751
G3 X1.3443 Y5.2619 I0.0039 J-0.0127
X1.3651 Y5.252 I0.013 J0.0006
X1.3589 Y5.2754 I-0.0078 J0.0104 F50.
G1 X1.3556 Y5.2756 F60.
X1.3427 Y5.2722
G3 X1.2636 Y5.1856 I0.036 J-0.1122
X1.29 Y5.1741 I0.0152 J-0.0012
X1.361 Y5.2539 I-0.0767 J0.1397
X1.3427 Y5.2722 I-0.0148 J0.0035 F50.
X1.3673 Y5.0857 I0.0125 J-0.0932 F60.
G1 X1.3697 Y5.0855
X1.3723 Y5.0858
X1.3747 Y5.0866
X1.377 Y5.0878
X1.379 Y5.0895
X1.3808 Y5.0915
X1.3821 Y5.0939
X1.383 Y5.0965
X1.3833 Y5.0992
X1.3832 Y5.102
X1.3825 Y5.1047
X1.3814 Y5.1075 Z-0.2597
X1.3803 Y5.1101 Z-0.2588
X1.3792 Y5.1126 Z-0.2574
X1.3784 Y5.1147 Z-0.2555
X1.3776 Y5.1164 Z-0.2532
X1.3771 Y5.1177 Z-0.2506
X1.3767 Y5.1185 Z-0.2477
X1.3766 Y5.1188 Z-0.2448
G0 Z0.4
X2.0124 Y4.1005
Z-0.03
G3 X1.9135 Y3.9948 Z-0.0701 I-0.0494 J-0.0528 F50.
X2.0124 Y4.1005 Z-0.1101 I0.0494 J0.0528
X1.9135 Y3.9948 Z-0.1502 I-0.0494 J-0.0528
X2.0124 Y4.1005 Z-0.1903 I0.0494 J0.0528
X1.9135 Y3.9948 Z-0.2304 I-0.0494 J-0.0528
X2.0353 Y4.0476 Z-0.26 I0.0494 J0.0528
X1.8906 I-0.0723 J0.
X2.035 Y4.0419 I0.0723 J0.
G1 X2.0353 Y4.0476
G3 X2.0479 Y4.0828 I-0.0327 J0.0316 F60.
G1 X2.0448 Y4.0943
X2.0431 Y4.1176
X2.0408 Y4.1253
X2.0379 Y4.1329
X2.0345 Y4.1403
X2.0305 Y4.1473
X2.0259 Y4.1541
X2.0209 Y4.1605
X2.0154 Y4.1664
X2.0095 Y4.172
X2.0032 Y4.1771
X1.9965 Y4.1817
X1.9895 Y4.1858
X1.9822 Y4.1893
X1.9747 Y4.1923
X1.9669 Y4.1947
X1.959 Y4.1965
X1.951 Y4.1977
X1.9429 Y4.1983
X1.9348
X1.9267 Y4.1977
X1.9186 Y4.1965
X1.9107 Y4.1947
X1.903 Y4.1922
X1.8954 Y4.1892
X1.8881 Y4.1857
X1.8811 Y4.1816
X1.8745 Y4.177
X1.8682 Y4.1719
X1.8622 Y4.1663
X1.8568 Y4.1603
X1.8518 Y4.1539
G3 X1.8823 Y3.9649 I0.5274 J-0.0119
G1 X1.8858 Y3.9574
X1.89 Y3.9502
X1.8946 Y3.9433
X1.8997 Y3.9368
X1.9053 Y3.9307
X1.9114 Y3.925
X1.9178 Y3.9198
X1.9246 Y3.9151
X1.9318 Y3.9108
X1.9392 Y3.9071
X1.9469 Y3.904
X1.9548 Y3.9015
X1.9628 Y3.8995
X1.971 Y3.8981
X1.9793 Y3.8974
X1.9875 Y3.8972
X1.9958 Y3.8977
X2.004 Y3.8988
X2.0122 Y3.9005
X2.0201 Y3.9027
X2.0279 Y3.9056
X2.0355 Y3.909
X2.0428 Y3.913
X2.0497 Y3.9175
X2.0563 Y3.9225
X2.0626 Y3.9279
X2.0684 Y3.9338
X2.0738 Y3.9402
X2.0741 Y3.9428
X2.074 Y3.9455
X2.0735 Y3.9481
X2.0724 Y3.9506
X2.0709 Y3.9528
X2.069 Y3.9548
X2.0668 Y3.9564
X2.0644 Y3.9576
X2.0617 Y3.9583
X2.056 Y3.9592
X1.9008 Y3.983
X1.8995 Y3.9832 F50.
G3 X1.8823 Y3.9649 I-0.0023 J-0.0151
G1 X1.8822 Y3.9571 F60.
X1.8827 Y3.9494
X1.8839 Y3.9417
X1.8856 Y3.9341
X1.888 Y3.9267
X1.8909 Y3.9195
X1.8944 Y3.9126
X1.8984 Y3.9059
X1.9029 Y3.8996
X1.9079 Y3.8937
X1.9134 Y3.8881
X1.9192 Y3.883
X1.9255 Y3.8784
X1.9321 Y3.8743
X1.939 Y3.8708
X1.9461 Y3.8678
X1.9535 Y3.8653
X1.9611 Y3.8635
X1.9687 Y3.8622
X1.9765 Y3.8616
X1.9842 Y3.8615
X1.992 Y3.8621
X1.9996 Y3.8633
X2.0072 Y3.8651
X2.0146 Y3.8674
X2.0218 Y3.8704
X2.0287 Y3.8739
X2.0354 Y3.8779
X2.0416 Y3.8825
X2.0476 Y3.8875
X2.0531 Y3.893
X2.0581 Y3.8989
X2.0627 Y3.9051
X2.0668 Y3.9117
X2.0703 Y3.9186
X2.0733 Y3.9258
X2.0757 Y3.9332
X2.0775 Y3.9407
X2.0788 Y3.9484
X2.0794 Y3.9562
Y3.9639
X2.0788 Y3.9717
X2.0776 Y3.9793
X2.0758 Y3.9869
X2.0734 Y3.9943
X2.0704 Y4.0014
X2.0576 Y4.0476
X2.0479 Y4.0828
G3 X2.0186 Y4.0748 I-0.0147 J-0.004
X2.0485 Y4.0788 I0.0147 J0.004
X2.0356 Y4.1026 I-0.0363 J-0.0042
X2.0103 Y4.0857 I-0.0127 J-0.0085
X2.0366 Y4.0873 I0.0127 J0.0085
X2.0431 Y4.1176 I-0.0557 J0.0279 F50.
G1 X2.0415 Y4.1409 F60.
X2.0484 Y4.1712
G3 X1.8736 Y4.2667 I-0.1151 J-0.003
G2 X1.8511 Y4.1544 I-2.3922 J0.4213
G3 X1.8568 Y4.1403 I0.0151 J-0.0021
X1.8949 Y4.1462 I0.0163 J0.0209
X1.8901 Y4.2417 I-0.0649 J0.0446
X1.8793 Y4.2522 I-0.06 J-0.0509 F50.
G2 X1.8738 Y4.2664 I0.0095 J0.0119
G1 X1.8766 Y4.2807 F60.
X1.8788 Y4.2936
X1.8831 Y4.3007
X1.8878 Y4.3075
X1.8931 Y4.3139
X1.8988 Y4.32
X1.9049 Y4.3257
X1.9114 Y4.3309
X1.9182 Y4.3356
X1.9254 Y4.3399
X1.9328 Y4.3436
X1.9405 Y4.3468
X1.9484 Y4.3495
X1.9564 Y4.3516
X1.9646 Y4.3531
X1.9729 Y4.354
X1.9812 Y4.3544
X1.9895 Y4.3542
X1.9978 Y4.3534
X2.006 Y4.352
X2.0141 Y4.35
X2.022 Y4.3475
X2.0297 Y4.3444
X2.0372 Y4.3408
X2.0444 Y4.3366
X2.0513 Y4.332
X2.0579 Y4.3269
X2.0641 Y4.3213
X2.0699 Y4.3154
X2.0752 Y4.309
G2 X2.0484 Y4.1712 I-2.6817 J0.4507
X2.0205 Y4.1675 I-0.0147 J0.0039
X2.0178 Y4.1744 I0.0212 J0.0123
X2.0531 Y4.2871 I0.1153 J0.0258
X2.068 Y4.2988 I0.08 J-0.0869 F50.
G3 X2.0745 Y4.3084 I-0.0084 J0.0127
G1 X2.0789 Y4.3344 F60.
G3 X1.8998 Y4.4217 I-0.1171 J-0.0129
G1 X1.8925 Y4.374
X1.8846 Y4.3274
X1.8788 Y4.2936
G3 X1.8845 Y4.2795 I0.0151 J-0.0021
X1.905 Y4.2789 I0.0106 J0.0136
X1.9176 Y4.3971 I-0.0451 J0.0646
X1.9065 Y4.407 I-0.0577 J-0.0536 F50.
G2 X1.9003 Y4.4209 I0.009 J0.0123
G1 X1.9037 Y4.4447 F60.
G2 X2.0994 Y4.4695 I0.1056 J-0.0487
X2.0789 Y4.3344 I-2.575 J0.3218
X2.0688 Y4.323 I-0.0149 J0.003
X2.0168 Y4.3676 I-0.0127 J0.0378
X2.0761 Y4.4509 I0.1164 J-0.0201
X2.0896 Y4.4573 I0.0571 J-0.1034 F50.
G3 X2.0991 Y4.4692 I-0.0056 J0.0142
G1 X2.1022 Y4.4974 F60.
G3 X1.9193 Y4.5761 I-0.1172 J-0.0204
G1 X1.9127 Y4.5138
X1.907 Y4.4672
X1.9037 Y4.4447
G3 X1.9099 Y4.4307 I0.0151 J-0.0016
X1.9236 Y4.4303 I0.0072 J0.0098
X1.9378 Y4.5517 I-0.0422 J0.0665
X1.9264 Y4.5614 I-0.0564 J-0.055 F50.
G2 X1.9199 Y4.5752 I0.0087 J0.0125
G1 X1.9229 Y4.6002 F60.
G2 X2.1178 Y4.6311 I0.1073 J-0.0466
X2.1022 Y4.4974 I-5.1119 J0.5264
