%
(971-23-P-0136_FALCON MOTOR PLATE_1537)
(T1  D=0.1537 CR=0. - ZMIN=-0.235 - FLAT END MILL)
G90 G94 G17 G91.1
G64 P0.001 Q0.001
G20
G53 G0 Z0.
(.3 CIRCLUAR THROUGH HOLE)
M9
T1 M6
S22000 M3
G4 P10.
G54
M7
G0 X4.9552 Y8.349
G43 Z0.6 H1
G0 Z0.13
G1 Z0.0654 F40.
G19 G2 Y8.3337 Z0.05 J-0.0154 K0.
G1 Y8.326
G17 G3 X4.9657 Y8.3154 I0.0106 J0.
Y8.3577 Z0. I0. J0.0211
Y8.3154 Z-0.05 I0. J-0.0211
Y8.3577 Z-0.1 I0. J0.0211
Y8.3154 Z-0.15 I0. J-0.0211
Y8.3577 Z-0.2 I0. J0.0211
X4.9486 Y8.3241 Z-0.235 I0. J-0.0211
X4.9829 Y8.349 I0.0171 J0.0124
X4.9486 Y8.3241 I-0.0171 J-0.0124
X4.9634 Y8.3218 I0.0086 J0.0062
G1 X4.9696 Y8.3263
X4.9721 Y8.3281 Z-0.2347
X4.9744 Y8.3298 Z-0.2338
X4.9765 Y8.3313 Z-0.2324
X4.9784 Y8.3327 Z-0.2305
X4.98 Y8.3338 Z-0.2282
X4.9811 Y8.3347 Z-0.2255
X4.9818 Y8.3352 Z-0.2226
X4.9821 Y8.3353 Z-0.2196
G0 Z0.4
X-1.3856 Y1.3875
Z0.13
G1 Z0.0654 F40.
G19 G2 Y1.3721 Z0.05 J-0.0154 K0.
G1 Y1.3644
G17 G3 X-1.375 Y1.3539 I0.0106 J0.
Y1.3961 Z0. I0. J0.0211
Y1.3539 Z-0.05 I0. J-0.0211
Y1.3961 Z-0.1 I0. J0.0211
Y1.3539 Z-0.15 I0. J-0.0211
Y1.3961 Z-0.2 I0. J0.0211
X-1.3921 Y1.3626 Z-0.235 I0. J-0.0211
X-1.3579 Y1.3874 I0.0171 J0.0124
X-1.3921 Y1.3626 I-0.0171 J-0.0124
X-1.3773 Y1.3602 I0.0086 J0.0062
G1 X-1.3711 Y1.3647
X-1.3687 Y1.3665 Z-0.2347
X-1.3664 Y1.3682 Z-0.2338
X-1.3642 Y1.3698 Z-0.2324
X-1.3623 Y1.3711 Z-0.2305
X-1.3608 Y1.3723 Z-0.2282
X-1.3596 Y1.3731 Z-0.2255
X-1.3589 Y1.3736 Z-0.2226
X-1.3587 Y1.3738 Z-0.2196
G0 Z0.4
X-1.8303 Y3.5995
Z0.13
G1 Z0.0654 F40.
G19 G2 Y3.5841 Z0.05 J-0.0154 K0.
G1 Y3.5764
G17 G3 X-1.8198 Y3.5658 I0.0106 J0.
Y3.6081 Z0. I0. J0.0212
Y3.5658 Z-0.05 I0. J-0.0212
Y3.6081 Z-0.1 I0. J0.0212
Y3.5658 Z-0.15 I0. J-0.0212
Y3.6081 Z-0.2 I0. J0.0212
X-1.8369 Y3.5746 Z-0.235 I0. J-0.0212
X-1.8027 Y3.5994 I0.0171 J0.0124
X-1.8369 Y3.5746 I-0.0171 J-0.0124
X-1.8221 Y3.5722 I0.0086 J0.0062
G1 X-1.8159 Y3.5767
X-1.8135 Y3.5785 Z-0.2347
X-1.8111 Y3.5802 Z-0.2338
X-1.809 Y3.5818 Z-0.2324
X-1.8071 Y3.5831 Z-0.2305
X-1.8056 Y3.5843 Z-0.2282
X-1.8044 Y3.5851 Z-0.2255
X-1.8037 Y3.5856 Z-0.2226
X-1.8035 Y3.5858 Z-0.2196
G0 Z0.4
X0.5497 Y4.308
Z0.13
G1 Z0.0654 F40.
G19 G2 Y4.2926 Z0.05 J-0.0154 K0.
G1 Y4.2849
G17 G3 X0.5651 Y4.2695 I0.0154 J0.
Y4.3658 Z0. I0. J0.0481
Y4.2695 Z-0.05 I0. J-0.0481
Y4.3658 Z-0.1 I0. J0.0481
Y4.2695 Z-0.15 I0. J-0.0481
Y4.3658 Z-0.2 I0. J0.0481
X0.5261 Y4.2894 Z-0.235 I0. J-0.0481
X0.604 Y4.346 I0.039 J0.0283
X0.5261 Y4.2894 I-0.039 J-0.0283
X0.5476 Y4.286 I0.0124 J0.009
G1 X0.5538 Y4.2905
X0.5562 Y4.2923 Z-0.2347
X0.5586 Y4.294 Z-0.2338
X0.5607 Y4.2955 Z-0.2324
X0.5626 Y4.2969 Z-0.2305
X0.5642 Y4.298 Z-0.2282
X0.5653 Y4.2989 Z-0.2255
X0.566 Y4.2994 Z-0.2226
X0.5662 Y4.2995 Z-0.2196
G0 Z0.4
X1.4809 Y5.5875
Z0.13
G1 Z0.0654 F40.
G19 G2 Y5.5722 Z0.05 J-0.0154 K0.
G1 Y5.5645
G17 G3 X1.4914 Y5.5539 I0.0106 J0.
Y5.5962 Z0. I0. J0.0212
X1.4709 Y5.58 Z-0.0212 I0. J-0.0212
X1.512 Y5.5701 Z-0.0713 I0.0206 J-0.0049
X1.501 Y5.5939 Z-0.0925 I-0.0206 J0.0049
X1.4818 Y5.5562 Z-0.1425 I-0.0096 J-0.0188
X1.501 Y5.5939 Z-0.1925 I0.0096 J0.0188
X1.4743 Y5.5626 Z-0.235 I-0.0096 J-0.0188
X1.5085 Y5.5875 I0.0171 J0.0124
X1.4743 Y5.5626 I-0.0171 J-0.0124
X1.4891 Y5.5603 I0.0086 J0.0062
G1 X1.4953 Y5.5648
X1.4977 Y5.5666 Z-0.2347
X1.5001 Y5.5683 Z-0.2338
X1.5022 Y5.5698 Z-0.2324
X1.5041 Y5.5712 Z-0.2305
X1.5057 Y5.5723 Z-0.2282
X1.5068 Y5.5731 Z-0.2255
X1.5075 Y5.5737 Z-0.2226
X1.5077 Y5.5738 Z-0.2196
G0 Z0.4
X2.1747 Y4.308
Z0.13
G1 Z0.0654 F40.
G19 G2 Y4.2926 Z0.05 J-0.0154 K0.
G1 Y4.2849
G17 G3 X2.1901 Y4.2695 I0.0154 J0.
Y4.3658 Z0. I0. J0.0481
Y4.2695 Z-0.05 I0. J-0.0481
Y4.3658 Z-0.1 I0. J0.0481
Y4.2695 Z-0.15 I0. J-0.0481
Y4.3658 Z-0.2 I0. J0.0481
X2.1511 Y4.2894 Z-0.235 I0. J-0.0481
X2.229 Y4.346 I0.039 J0.0283
X2.1511 Y4.2894 I-0.039 J-0.0283
X2.1726 Y4.286 I0.0124 J0.009
G1 X2.1788 Y4.2905
X2.1812 Y4.2923 Z-0.2347
X2.1836 Y4.294 Z-0.2338
X2.1857 Y4.2955 Z-0.2324
X2.1876 Y4.2969 Z-0.2305
X2.1892 Y4.298 Z-0.2282
X2.1903 Y4.2989 Z-0.2255
X2.191 Y4.2994 Z-0.2226
X2.1912 Y4.2995 Z-0.2196
G0 Z0.4
X2.0869 Y3.293
Z0.13
G1 Z0.0654 F40.
G19 G2 Y3.2777 Z0.05 J-0.0154 K0.
G1 Y3.27
G17 G3 X2.0975 Y3.2594 I0.0106 J0.
Y3.3017 Z0. I0. J0.0211
Y3.2594 Z-0.05 I0. J-0.0211
Y3.3017 Z-0.1 I0. J0.0211
Y3.2594 Z-0.15 I0. J-0.0211
Y3.3017 Z-0.2 I0. J0.0211
X2.0804 Y3.2681 Z-0.235 I0. J-0.0211
X2.1146 Y3.293 I0.0171 J0.0124
X2.0804 Y3.2681 I-0.0171 J-0.0124
X2.0951 Y3.2658 I0.0086 J0.0062
G1 X2.1014 Y3.2703
X2.1038 Y3.2721 Z-0.2347
X2.1061 Y3.2738 Z-0.2338
X2.1083 Y3.2753 Z-0.2324
X2.1102 Y3.2767 Z-0.2305
X2.1117 Y3.2778 Z-0.2282
X2.1128 Y3.2787 Z-0.2255
X2.1136 Y3.2792 Z-0.2226
X2.1138 Y3.2793 Z-0.2196
G0 Z0.4
X1.3644 Y1.3875
Z0.13
G1 Z0.0654 F40.
G19 G2 Y1.3721 Z0.05 J-0.0154 K0.
G1 Y1.3644
G17 G3 X1.375 Y1.3539 I0.0106 J0.
Y1.3961 Z0. I0. J0.0211
Y1.3539 Z-0.05 I0. J-0.0211
Y1.3961 Z-0.1 I0. J0.0211
Y1.3539 Z-0.15 I0. J-0.0211
Y1.3961 Z-0.2 I0. J0.0211
X1.3579 Y1.3626 Z-0.235 I0. J-0.0211
X1.3921 Y1.3874 I0.0171 J0.0124
X1.3579 Y1.3626 I-0.0171 J-0.0124
X1.3727 Y1.3602 I0.0086 J0.0062
G1 X1.3789 Y1.3647
X1.3813 Y1.3665 Z-0.2347
X1.3836 Y1.3682 Z-0.2338
X1.3858 Y1.3698 Z-0.2324
X1.3877 Y1.3711 Z-0.2305
X1.3892 Y1.3723 Z-0.2282
X1.3904 Y1.3731 Z-0.2255
X1.3911 Y1.3736 Z-0.2226
X1.3913 Y1.3738 Z-0.2196
G0 Z0.4
X1.3644 Y-1.3625
Z0.13
G1 Z0.0654 F40.
G19 G2 Y-1.3779 Z0.05 J-0.0154 K0.
G1 Y-1.3856
G17 G3 X1.375 Y-1.3962 I0.0106 J0.
Y-1.3538 Z0. I0. J0.0212
Y-1.3962 Z-0.05 I0. J-0.0212
Y-1.3538 Z-0.1 I0. J0.0212
Y-1.3962 Z-0.15 I0. J-0.0212
Y-1.3538 Z-0.2 I0. J0.0212
X1.3579 Y-1.3874 Z-0.235 I0. J-0.0212
X1.3921 Y-1.3626 I0.0171 J0.0124
X1.3579 Y-1.3874 I-0.0171 J-0.0124
X1.3727 Y-1.3898 I0.0086 J0.0062
G1 X1.3789 Y-1.3853
X1.3813 Y-1.3835 Z-0.2347
X1.3836 Y-1.3818 Z-0.2338
X1.3858 Y-1.3802 Z-0.2324
X1.3877 Y-1.3789 Z-0.2305
X1.3892 Y-1.3777 Z-0.2282
X1.3904 Y-1.3769 Z-0.2255
X1.3911 Y-1.3764 Z-0.2226
X1.3913 Y-1.3762 Z-0.2196
G0 Z0.4
X-1.3856 Y-1.3625
Z0.13
G1 Z0.0654 F40.
G19 G2 Y-1.3779 Z0.05 J-0.0154 K0.
G1 Y-1.3856
G17 G3 X-1.375 Y-1.3962 I0.0106 J0.
Y-1.3538 Z0. I0. J0.0212
Y-1.3962 Z-0.05 I0. J-0.0212
Y-1.3538 Z-0.1 I0. J0.0212
Y-1.3962 Z-0.15 I0. J-0.0212
Y-1.3538 Z-0.2 I0. J0.0212
X-1.3921 Y-1.3874 Z-0.235 I0. J-0.0212
X-1.3579 Y-1.3626 I0.0171 J0.0124
X-1.3921 Y-1.3874 I-0.0171 J-0.0124
X-1.3773 Y-1.3898 I0.0086 J0.0062
G1 X-1.3711 Y-1.3853
X-1.3687 Y-1.3835 Z-0.2347
X-1.3664 Y-1.3818 Z-0.2338
X-1.3642 Y-1.3802 Z-0.2324
X-1.3623 Y-1.3789 Z-0.2305
X-1.3608 Y-1.3777 Z-0.2282
X-1.3596 Y-1.3769 Z-0.2255
X-1.3589 Y-1.3764 Z-0.2226
X-1.3587 Y-1.3762 Z-0.2196
G0 Z0.6
(.3 CIRCULAR THROUGH HOLE)
M7
G0 X-0.4074 Y2.9698
Z0.6
Z0.2
G1 Z0.1148 F13.333
G3 X-0.4066 Y2.9686 Z0.1084 I0.0382 J0.0238 F55.
X-0.4042 Y2.9653 Z0.1031 I0.0374 J0.025
X-0.4002 Y2.961 Z0.1 I0.035 J0.0283
X-0.3382 Y3.0262 Z0.0621 I0.031 J0.0326
X-0.4002 Y2.961 Z0.0242 I-0.031 J-0.0326
X-0.3382 Y3.0262 Z-0.0136 I0.031 J0.0326
X-0.4002 Y2.961 Z-0.0515 I-0.031 J-0.0326
X-0.3382 Y3.0262 Z-0.0894 I0.031 J0.0326
X-0.4142 Y2.9936 Z-0.1175 I-0.031 J-0.0326
X-0.384 I0.0151 J0. F60.
X-0.5142 I-0.0651 J0.
X-0.284 I0.1151 J0.
X-0.6142 I-0.1651 J0.
X-0.184 I0.2151 J0.
X-0.7142 I-0.2651 J0.
X-0.084 I0.3151 J0.
X-0.8142 I-0.3651 J0.
X0.016 I0.4151 J0.
X-0.9142 I-0.4651 J0.
X0.116 I0.5151 J0.
X-1.0142 I-0.5651 J0.
X0.216 I0.6151 J0.
X-1.1142 I-0.6651 J0.
X0.316 I0.7151 J0.
X-1.2142 I-0.7651 J0.
X0.416 I0.8151 J0.
X-1.3142 I-0.8651 J0.
X0.516 I0.9151 J0.
X-1.4142 I-0.9651 J0.
X0.616 I1.0151 J0.
X-1.5142 I-1.0651 J0.
X0.616 I1.0651 J0.
G2 X0.6627 Y3.0655 I0.0787 J0.
G3 X0.7048 Y3.1402 I-0.0293 J0.0656
X-0.4491 Y4.1567 I-1.1539 J-0.1466
Y1.8305 I0. J-1.1631
X0.7048 Y3.1402 I0. J1.1631
X0.654 Y3.1791 Z-0.1246 I-0.0446 J-0.0057 F55.
G1 X-0.3753 Y3.0382 Z-0.2285
G3 X-0.4142 Y2.9936 Z-0.235 I0.0061 J-0.0446
X-0.384 I0.0151 J0. F60.
X-0.5142 I-0.0651 J0.
X-0.284 I0.1151 J0.
X-0.6142 I-0.1651 J0.
X-0.184 I0.2151 J0.
X-0.7142 I-0.2651 J0.
X-0.084 I0.3151 J0.
X-0.8142 I-0.3651 J0.
X0.016 I0.4151 J0.
X-0.9142 I-0.4651 J0.
X0.116 I0.5151 J0.
X-1.0142 I-0.5651 J0.
X0.216 I0.6151 J0.
X-1.1142 I-0.6651 J0.
X0.316 I0.7151 J0.
X-1.2142 I-0.7651 J0.
X0.416 I0.8151 J0.
X-1.3142 I-0.8651 J0.
X0.516 I0.9151 J0.
X-1.4142 I-0.9651 J0.
X0.616 I1.0151 J0.
X-1.5142 I-1.0651 J0.
X0.616 I1.0651 J0.
G2 X0.6627 Y3.0655 I0.0787 J0.
G3 X0.7048 Y3.1402 I-0.0293 J0.0656
X-0.4491 Y4.1567 I-1.1539 J-0.1466
Y1.8305 I0. J-1.1631
X0.7048 Y3.1402 I0. J1.1631
G2 X0.7087 Y3.1483 I0.0081 J0.001
G3 X0.7127 Y3.1563 I-0.004 J0.007
X-0.4491 Y4.1667 I-1.1618 J-0.1627
Y1.8205 I0. J-1.1731
X0.7127 Y3.1563 I0. J1.1731
X0.7108 Y3.1619 Z-0.2338 I-0.0152 J-0.0021
X0.7077 Y3.1657 Z-0.2305 I-0.0133 J-0.0077
X0.7049 Y3.1676 Z-0.2255 I-0.0102 J-0.0115
X0.7039 Y3.1682 Z-0.2196 I-0.0075 J-0.0134
G0 Z0.4
X1.4328 Y4.2939
Z0.2
G1 Z0.1148 F13.333
G3 X1.4335 Y4.2927 Z0.1084 I0.0382 J0.0238 F55.
X1.4359 Y4.2894 Z0.1031 I0.0374 J0.025
X1.4399 Y4.2851 Z0.1 I0.035 J0.0283
X1.5019 Y4.3503 Z0.0621 I0.031 J0.0326
X1.4399 Y4.2851 Z0.0242 I-0.031 J-0.0326
X1.5019 Y4.3503 Z-0.0136 I0.031 J0.0326
X1.4399 Y4.2851 Z-0.0515 I-0.031 J-0.0326
X1.5019 Y4.3503 Z-0.0894 I0.031 J0.0326
X1.4259 Y4.3177 Z-0.1175 I-0.031 J-0.0326
X1.4292 I0.0016 J0. F60.
X1.3259 I-0.0516 J0.
X1.5292 I0.1016 J0.
X1.2259 I-0.1516 J0.
X1.6292 I0.2016 J0.
X1.1259 I-0.2516 J0.
X1.6292 I0.2516 J0.
G2 X1.6705 Y4.3855 I0.0763 J0.
G3 X1.6968 Y4.4604 I-0.0265 J0.0513
X1.3776 Y4.6674 I-0.3192 J-0.1427
Y3.968 I0. J-0.3497
X1.6968 Y4.4604 I0. J0.3497
X1.6864 Y4.4642 I-0.007 J-0.0031
G1 X1.51 Y4.3772
G3 X1.5055 Y4.371 I0.0031 J-0.007
G1 X1.4987 Y4.3068
G3 X1.5136 Y4.3035 I0.0076 J-0.0008
X1.4282 Y4.3319 Z-0.1554 I-0.0427 J0.0142 F55.
X1.5136 Y4.3035 Z-0.1933 I0.0427 J-0.0142
X1.4282 Y4.3319 Z-0.2311 I-0.0427 J0.0142
X1.4259 Y4.3177 Z-0.235 I0.0427 J-0.0142
X1.4292 I0.0016 J0. F60.
X1.3259 I-0.0516 J0.
X1.5292 I0.1016 J0.
X1.2259 I-0.1516 J0.
X1.6292 I0.2016 J0.
X1.1259 I-0.2516 J0.
X1.6292 I0.2516 J0.
G2 X1.6705 Y4.3855 I0.0763 J0.
G3 X1.6968 Y4.4604 I-0.0265 J0.0513
X1.3776 Y4.6674 I-0.3192 J-0.1427
Y3.968 I0. J-0.3497
X1.6968 Y4.4604 I0. J0.3497
G2 X1.6982 Y4.4692 I0.0074 J0.0033
G3 X1.6995 Y4.4781 I-0.0058 J0.0053
X1.3776 Y4.6774 I-0.3219 J-0.1604
Y3.958 I0. J-0.3597
X1.6995 Y4.4781 I0. J0.3597
X1.6959 Y4.4827 Z-0.2338 I-0.0138 J-0.0069
X1.6918 Y4.4854 Z-0.2305 I-0.0102 J-0.0115
X1.6886 Y4.4863 Z-0.2255 I-0.006 J-0.0141
X1.6874 Y4.4865 Z-0.2196 I-0.0028 J-0.0151
G0 Z0.6
(SHAPE THROUGH HOLE)
M7
G0 X2.5739 Y5.4496
Z0.6
Z0.1
G3 X2.5015 Y5.3228 Z0.0596 I-0.0362 J-0.0634 F50.
X2.5739 Y5.4496 Z0.0191 I0.0362 J0.0634
X2.5015 Y5.3228 Z-0.0213 I-0.0362 J-0.0634
X2.5739 Y5.4496 Z-0.0618 I0.0362 J0.0634
X2.5015 Y5.3228 Z-0.1022 I-0.0362 J-0.0634
X2.5739 Y5.4496 Z-0.1427 I0.0362 J0.0634
X2.5015 Y5.3228 Z-0.1831 I-0.0362 J-0.0634
X2.6107 Y5.3862 Z-0.21 I0.0362 J0.0634
X2.4647 I-0.073 J0.
X2.6104 Y5.3803 I0.073 J0.
G1 X2.6107 Y5.3862
G3 X2.6304 Y5.4345 I-0.0917 J0.0655 F60.
G1 X2.6292 Y5.4572
X2.6267 Y5.465
X2.6236 Y5.4725
X2.6201 Y5.4799
X2.616 Y5.4869
X2.6113 Y5.4937
X2.6063 Y5.5001
X2.6007 Y5.5061
X2.5948 Y5.5117
X2.5885 Y5.5168
X2.5818 Y5.5215
X2.5748 Y5.5257
X2.5675 Y5.5293
X2.56 Y5.5325
X2.5522 Y5.5351
X2.5443 Y5.5371
X2.5363 Y5.5385
X2.5282 Y5.5394
X2.52 Y5.5397
X2.5119 Y5.5393
X2.5038 Y5.5384
X2.4957 Y5.5369
X2.4878 Y5.5349
X2.4801 Y5.5323
X2.4726 Y5.5291
X2.4653 Y5.5254
X2.4583 Y5.5212
X2.4517 Y5.5164
X2.4454 Y5.5113
X2.4395 Y5.5056
X2.434 Y5.4996
X2.4405 Y5.3862
X2.4436 Y5.3393
X2.4447 Y5.3199
X2.4468 Y5.3119
X2.4495 Y5.304
X2.4528 Y5.2964
X2.4567 Y5.289
X2.4611 Y5.282
X2.466 Y5.2753
X2.4713 Y5.2689
X2.4772 Y5.263
X2.4834 Y5.2576
X2.49 Y5.2526
X2.497 Y5.2481
X2.5043 Y5.2441
X2.5119 Y5.2407
X2.5196 Y5.2378
X2.5276 Y5.2355
X2.5358 Y5.2339
X2.544 Y5.2328
X2.5523 Y5.2323
X2.5606 Y5.2325
X2.5688 Y5.2332
X2.577 Y5.2346
X2.5851 Y5.2365
X2.593 Y5.2391
X2.6007 Y5.2422
X2.6081 Y5.2459
X2.6153 Y5.2501
X2.6221 Y5.2548
X2.6285 Y5.2601
X2.6346 Y5.2658
X2.6402 Y5.2719
X2.6361 Y5.3393
X2.6329 Y5.3862
X2.6304 Y5.4345
G3 X2.6077 Y5.4473 I-0.0153 J-0.0008
X2.6165 Y5.4307 I0.0044 J-0.0083
X2.6179 Y5.4464 I-0.0044 J0.0083
X2.5989 Y5.4222 I-0.0095 J-0.0121
X2.622 Y5.4271 I0.0095 J0.0121
X2.6292 Y5.4572 I-0.0551 J0.029 F50.
G1 X2.6252 Y5.5338 F60.
X2.6223 Y5.5423
X2.6187 Y5.5505
X2.6146 Y5.5585
X2.6099 Y5.5662
X2.6047 Y5.5735
X2.5991 Y5.5804
X2.5929 Y5.5869
X2.5863 Y5.593
X2.5793 Y5.5986
X2.5719 Y5.6037
X2.5642 Y5.6082
X2.5562 Y5.6123
X2.5479 Y5.6157
X2.5394 Y5.6185
X2.5307 Y5.6208
X2.5219 Y5.6224
X2.513 Y5.6234
X2.504 Y5.6238
X2.4951 Y5.6236
X2.4861 Y5.6227
X2.4773 Y5.6212
X2.4686 Y5.6191
X2.46 Y5.6164
X2.4517 Y5.6131
X2.4436 Y5.6092
X2.4358 Y5.6048
X2.4283 Y5.5998
X2.4308 Y5.5736
X2.4346 Y5.499
G3 X2.4434 Y5.4864 I0.0153 J0.0013
X2.4834 Y5.5106 I0.0119 J0.0254
X2.4511 Y5.578 I-0.0787 J0.0037
X2.4383 Y5.5855 I-0.0463 J-0.0637 F50.
G2 X2.4296 Y5.5981 I0.0066 J0.0139
G1 X2.4285 Y5.6204 F60.
X2.4317 Y5.6286
X2.4356 Y5.6365
X2.4399 Y5.6441
X2.4448 Y5.6514
X2.4502 Y5.6583
X2.4561 Y5.6648
X2.4624 Y5.6709
X2.4692 Y5.6766
X2.4763 Y5.6817
X2.4837 Y5.6864
X2.4915 Y5.6905
X2.4995 Y5.6941
X2.5078 Y5.697
X2.5162 Y5.6994
X2.5248 Y5.7012
X2.5335 Y5.7024
X2.5423 Y5.703
X2.551
X2.5598 Y5.7023
X2.5685 Y5.701
X2.5771 Y5.6991
X2.5855 Y5.6967
X2.5937 Y5.6936
X2.6017 Y5.69
X2.6094 Y5.6858
X2.6168 Y5.6811
X2.6239 Y5.6759
X2.6306 Y5.6702
X2.6368 Y5.664
X2.6426 Y5.6574
X2.648 Y5.6505
G3 X2.6252 Y5.5338 I0.0565 J-0.0716
G2 X2.6101 Y5.5182 I-0.0154 J-0.0003
X2.5599 Y5.5735 I-0.0008 J0.0497
X2.6158 Y5.6402 I0.0782 J-0.0088
X2.6343 Y5.6433 I0.0223 J-0.0755 F50.
G3 X2.645 Y5.6483 I-0.0007 J0.0154
G1 X2.6542 Y5.6592 F60.
G3 X2.5063 Y5.7803 I-0.107 J0.0201
X2.4285 Y5.6204 I0.1001 J-0.1477
X2.4372 Y5.6078 I0.0153 J0.0013
X2.4784 Y5.6176 I0.0145 J0.0307
X2.5071 Y5.7529 I-0.1241 J0.097
X2.5028 Y5.7671 I-0.1528 J-0.0383 F50.
G2 X2.5056 Y5.7822 I0.0145 J0.0051
G1 X2.5291 Y5.8079 F60.
X2.5377 Y5.8173
G2 X2.7328 Y5.7441 I0.0716 J-0.1058
G3 X2.661 Y5.6673 I1.2918 J-1.2788
G1 X2.6542 Y5.6592
G2 X2.6395 Y5.6545 I-0.0114 J0.0103
X2.6208 Y5.6866 I0.0053 J0.0246
X2.7011 Y5.7418 I0.0752 J-0.0234
X2.7158 Y5.7394 I-0.0051 J-0.0786 F50.
G3 X2.7306 Y5.7435 I0.0039 J0.0149
G1 X2.7466 Y5.761 F60.
G3 X2.6326 Y5.9214 I-0.1077 J0.0442
G1 X2.5548 Y5.836
X2.5377 Y5.8173
G3 X2.5507 Y5.792 I0.0117 J-0.0099
X2.5689 Y5.7976 I-0.0037 J0.0447
X2.629 Y5.8911 I-0.0576 J0.1031
Y5.9099 I-0.1177 J0.0096 F50.
G2 X2.6326 Y5.9211 I0.0153 J0.0012
G1 X2.6523 Y5.9426 F60.
G2 X2.8339 Y5.8552 I0.0622 J-0.1031
G1 X2.7806 Y5.7981
X2.7716 Y5.7884
X2.7466 Y5.761
G2 X2.7318 Y5.7569 I-0.0109 J0.0108
X2.7196 Y5.7722 I0.0041 J0.0158
X2.8032 Y5.8533 I0.0787 J0.0024
X2.8179 Y5.8509 I-0.0049 J-0.0786 F50.
G3 X2.8326 Y5.8551 I0.0038 J0.0149
G1 X2.8493 Y5.8733 F60.
G3 X2.7427 Y6.0419 I-0.106 J0.0509
G2 X2.6523 Y5.9426 I-8.2212 J7.3947
G3 X2.6652 Y5.9173 I0.0117 J-0.01
X2.6943 Y5.9286 I-0.0042 J0.0537
X2.7389 Y6.0113 I-0.073 J0.0928
X2.739 Y6.0301 I-0.1177 J0.0102 F50.
G2 X2.7427 Y6.0413 I0.0153 J0.0011
G1 X2.7618 Y6.0622 F60.
G2 X2.9398 Y5.9711 I0.0591 J-0.1041
G3 X2.8493 Y5.8733 I6.7452 J-6.3351
G2 X2.8345 Y5.8692 I-0.011 J0.0108
X2.8267 Y5.8777 I0.0026 J0.0102
G1 X2.8264 Y5.8803
G2 X2.9044 Y5.9693 I0.0781 J0.0103
G1 X2.9093 Y5.9692
G2 X2.924 Y5.9668 I-0.0049 J-0.0786 F50.
G3 X2.9388 Y5.971 I0.0038 J0.0149
G1 X2.9568 Y5.9908 F60.
G3 X2.8498 Y6.16 I-0.1076 J0.0504
G2 X2.7618 Y6.0622 I-2.8698 J2.4947
G3 X2.7591 Y6.0471 I0.0117 J-0.0099
X2.7726 Y6.0375 I0.0137 J0.0049
X2.8512 Y6.1296 I0.0011 J0.0787
X2.8473 Y6.1439 I-0.0776 J-0.0134 F50.
G2 X2.8498 Y6.1591 I0.0144 J0.0054
G1 X2.8652 Y6.1765 F60.
G2 X3.0461 Y6.0896 I0.0642 J-0.0982
G3 X2.9568 Y5.9908 I5.5608 J-5.1153
G2 X2.9421 Y5.9866 I-0.011 J0.0108
X2.9344 Y5.9949 I0.0026 J0.0101
G1 X2.9339 Y5.9978
G2 X3.0162 Y6.0875 I0.078 J0.0111
X3.0308 Y6.0853 I-0.0043 J-0.0786 F50.
G3 X3.0456 Y6.0895 I0.0037 J0.0149
G1 X3.0524 Y6.097 F60.
X3.0642 Y6.11
G3 X2.9565 Y6.2779 I-0.1087 J0.0488
G1 X2.912 Y6.2283
X2.8706 Y6.1827
X2.8652 Y6.1765
G3 X2.8786 Y6.1515 I0.0119 J-0.0097
X2.9126 Y6.1661 I-0.0061 J0.0609
X2.9531 Y6.2468 I-0.0773 J0.0893
X2.9529 Y6.2657 I-0.1178 J0.0086 F50.
G2 X2.9565 Y6.2769 I0.0153 J0.0013
G1 X2.9588 Y6.2795 F60.
X2.9762 Y6.2985
G2 X3.1536 Y6.2066 I0.0581 J-0.1051
G3 X3.0642 Y6.11 I4.1961 J-3.9734
G2 X3.0494 Y6.1059 I-0.011 J0.0108
X3.0395 Y6.1173 I0.0033 J0.0129
X3.123 Y6.2047 I0.0782 J0.0089
X3.1376 Y6.2024 I-0.0052 J-0.0786 F50.
G3 X3.1524 Y6.2064 I0.0039 J0.0149
G1 X3.1692 Y6.2246 F60.
G3 X3.0643 Y6.3954 I-0.1055 J0.0529
G2 X2.9762 Y6.2985 I-12.057 J10.8667
G3 X2.9734 Y6.2834 I0.0117 J-0.01
X2.9845 Y6.2748 I0.0122 J0.0043
G1 X2.9914
X2.9983 Y6.2755
X3.0051 Y6.2768
X3.0118 Y6.2786
X3.0182 Y6.2811
X3.0245 Y6.2841
X3.0304 Y6.2876
X3.036 Y6.2916
X3.0413 Y6.2961
X3.0461 Y6.3011
X3.0504 Y6.3064
X3.0543 Y6.3122
X3.0577 Y6.3182
X3.0605 Y6.3245
X3.0628 Y6.3311
X3.0644 Y6.3378
X3.0655 Y6.3446
X3.066 Y6.3515
X3.0659 Y6.3584
X3.0651 Y6.3653
G3 X3.0615 Y6.3797 I-0.0778 J-0.0118 F50.
G2 X3.0643 Y6.3948 I0.0145 J0.0051
G1 X3.0803 Y6.4122 F60.
G2 X3.2603 Y6.3235 I0.063 J-0.0991
G3 X3.1692 Y6.2246 I4.7108 J-4.4296
G2 X3.1474 Y6.2245 I-0.0109 J0.0108
X3.1428 Y6.2502 I0.016 J0.0162
X3.2301 Y6.3171 I0.1072 J-0.0495
X3.2488 Y6.3188 I0.02 J-0.1164 F50.
G3 X3.2596 Y6.3234 I-0.0002 J0.0154
G1 X3.2774 Y6.3429 F60.
G3 X3.1715 Y6.5125 I-0.1069 J0.0511
G1 X3.1459 Y6.4839
X3.1276 Y6.4638
X3.0803 Y6.4122
G3 X3.0932 Y6.3869 I0.0117 J-0.01
X3.1268 Y6.4008 I-0.0046 J0.0588
X3.168 Y6.4816 I-0.0766 J0.0899
X3.1679 Y6.5005 I-0.1178 J0.009 F50.
G2 X3.1715 Y6.5117 I0.0153 J0.0013
G1 X3.1882 Y6.53 F60.
G2 X3.3676 Y6.4406 I0.0621 J-0.1001
G1 X3.3024 Y6.3701
X3.2814 Y6.3473
X3.2774 Y6.3429
G2 X3.2626 Y6.3388 I-0.011 J0.0108
X3.2549 Y6.3473 I0.0026 J0.0102
G1 X3.2545 Y6.3499
G2 X3.3375 Y6.4388 I0.0781 J0.0103
X3.3521 Y6.4365 I-0.005 J-0.0786 F50.
G3 X3.3669 Y6.4406 I0.0038 J0.0149
G1 X3.3845 Y6.4597 F60.
X3.3879 Y6.4674
X3.3908 Y6.4752
X3.3931 Y6.4833
X3.3948 Y6.4915
X3.3959 Y6.4997
X3.3965 Y6.5081
X3.3964 Y6.5165
X3.3958 Y6.5248
X3.3945 Y6.5331
X3.3927 Y6.5413
X3.3903 Y6.5493
X3.3873 Y6.5571
X3.3838 Y6.5647
X3.3797 Y6.572
X3.3752 Y6.579
X3.3701 Y6.5857
X3.3646 Y6.592
X3.3587 Y6.5979
X3.3523 Y6.6033
X3.3456 Y6.6083
X3.3385 Y6.6128
X3.3312 Y6.6168
X3.3235 Y6.6202
X3.3157 Y6.6231
X3.3076 Y6.6254
X3.2995 Y6.6272
X3.2912 Y6.6283
X3.2886 Y6.6272
X3.2863 Y6.6257
X3.2843 Y6.6237
X3.2827 Y6.6213
X3.2816 Y6.6187
X3.281 Y6.6159
X3.2809 Y6.613
X3.2814 Y6.6101
X3.2825 Y6.6074
X3.2844 Y6.6039
X3.3589 Y6.465
X3.3599 Y6.4632 F50.
G3 X3.3845 Y6.4597 I0.0135 J0.0073
X3.2758 Y6.6239 I-0.0544 J0.0821 F60.
X3.2416 Y6.5849 I0.0544 J-0.0821
G1 X3.2136 Y6.5575
X3.1927 Y6.535
X3.1882 Y6.53
G3 X3.1959 Y6.5052 I0.0117 J-0.0099
G1 X3.1988 Y6.5045 Z-0.2097
X3.2016 Y6.5037 Z-0.2088
X3.2042 Y6.503 Z-0.2074
X3.2064 Y6.5024 Z-0.2055
X3.2083 Y6.5019 Z-0.2032
X3.2096 Y6.5016 Z-0.2005
X3.2105 Y6.5013 Z-0.1976
X3.2108 Z-0.1946
G0 Z0.4
X2.6208 Y5.3143
Z-0.1793
G1 Z-0.1946 F50.
X2.621 Y5.3141 Z-0.1976
X2.6215 Y5.3133 Z-0.2005
X2.6223 Y5.3121 Z-0.2032
X2.6233 Y5.3106 Z-0.2055
X2.6246 Y5.3086 Z-0.2074
X2.6261 Y5.3064 Z-0.2088
X2.6277 Y5.304 Z-0.2097
X2.6294 Y5.3015 Z-0.21
G2 X2.6396 Y5.2723 I-0.0518 J-0.0346
G1 X2.6414 Y5.2385 F60.
G2 X2.4515 Y5.1778 I-0.1144 J0.0304
G1 X2.4462 Y5.2925
X2.4447 Y5.3199
G2 X2.4521 Y5.3333 I0.0154 J0.0003
X2.5166 Y5.2991 I0.0221 J-0.0364
X2.4718 Y5.2004 I-0.118 J-0.006
X2.4596 Y5.1919 I-0.0731 J0.0928 F50.
G3 X2.4522 Y5.1785 I0.0079 J-0.0132
G1 X2.4535 Y5.1519 F60.
G3 X2.6477 Y5.1051 I0.1123 J0.0397
G1 X2.6472 Y5.1059
X2.6199 Y5.1165
X2.4563 Y5.1803
X2.4576 Y5.1872
X2.4607 Y5.182
G3 X2.4535 Y5.1519 I0.0551 J-0.029 F50.
G1 X2.456 Y5.105 F60.
X2.4665 Y5.0687
G3 X2.5955 Y5.0199 I0.0885 J0.0388
X2.6418 Y5.1499 I-0.0406 J0.0877
G1 X2.6414 Y5.2385
X2.6501 Y5.2427
X2.6584 Y5.2474
X2.6665 Y5.2527
X2.6743 Y5.2584
X2.6816 Y5.2646
X2.6886 Y5.2712
X2.6951 Y5.2783
X2.7012 Y5.2858
X2.7068 Y5.2936
X2.7119 Y5.3017
X2.7165 Y5.3102
X2.7205 Y5.3189
X2.724 Y5.3279
X2.727 Y5.337
X2.7293 Y5.3464
X2.7311 Y5.3558
X2.7323 Y5.3654
X2.7329 Y5.375
X2.7328 Y5.3846
X2.7322 Y5.3942
X2.731 Y5.4037
X2.7292 Y5.4132
X2.7268 Y5.4225
X2.7239 Y5.4316
X2.7203 Y5.4406
G2 X2.8867 Y5.7552 I0.3617 J0.01
G1 X3.0098 Y5.894
X3.1324 Y6.0333
X3.2546 Y6.1729
X3.3763 Y6.313
X3.4975 Y6.4534
G3 X3.2785 Y6.7212 I-0.1671 J0.0868
X2.8783 Y6.3396 I0.9247 J-1.3705
G1 X2.6911 Y6.1331
X2.5447 Y5.9731
G3 X2.3542 Y5.7314 I0.4493 J-0.55
X2.3606 Y5.1156 I2.1855 J-0.2852
X2.5598 Y4.9228 I0.1897 J-0.0032
X2.7388 Y5.1344 I-0.0094 J0.1895
X2.8267 Y5.5207 I-0.5571 J0.3298
G2 X3.4593 Y6.2454 I5.2905 J-3.9803
G3 X3.4803 Y6.2689 I-0.0603 J0.0748
G1 X3.5833 Y6.4628
X3.5878 Y6.4748
X3.5918 Y6.487
X3.5951 Y6.4993
X3.5978 Y6.5118
X3.5999 Y6.5245
X3.6014 Y6.5372
X3.6023 Y6.55
X3.6025 Y6.5628
X3.6021 Y6.5756
X3.6011 Y6.5883
X3.5995 Y6.601
X3.5972 Y6.6136
X3.5944 Y6.6261
X3.5909 Y6.6384
X3.5868 Y6.6506
X3.5821 Y6.6625
X3.5769 Y6.6742
X3.5711 Y6.6856
X3.5647 Y6.6967
X3.5578 Y6.7075
X3.5504 Y6.7179
X3.5425 Y6.728
X3.5341 Y6.7377
X3.5252 Y6.7469
X3.5159 Y6.7557
X3.5062 Y6.764
X3.496 Y6.7719
X3.4855 Y6.7792
X3.4747 Y6.786
X3.4635 Y6.7923
X3.4521 Y6.798
X3.4403 Y6.8032
X3.4284 Y6.8077
X3.4162 Y6.8117
X3.4039 Y6.8151
X3.3914 Y6.8179
X3.3787 Y6.82
X3.366 Y6.8216
X3.3533 Y6.8225
X3.3405 Y6.8228
X3.3277 Y6.8224
X3.3149 Y6.8215
X3.3022 Y6.8199
X3.2896 Y6.8177
X3.2771 Y6.8148
X3.2647 Y6.8114
X3.1059 Y6.7087
G3 X2.2691 Y5.7991 I6.2076 J-6.5505
X2.2402 Y5.3966 I1.0694 J-0.2791
G1 X2.2518 Y5.1801
G3 X2.2693 Y5.0576 I0.645 J0.0297
X2.2863 Y5.0093 I0.1325 J0.0194
G1 X2.3248 Y4.9522
G3 X2.7737 Y4.9398 I0.2287 J0.1477
G1 X2.7973 Y4.9831
G3 X2.9357 Y5.487 I-1.1775 J0.5944
G2 X3.2935 Y5.9137 I2.0379 J-1.3454
G1 X3.4803 Y6.2689
G3 X3.4793 Y6.2843 I-0.0138 J0.0067
X3.4528 Y6.296 I-0.0225 J-0.0152
X3.2833 Y5.9429 I0.0344 J-0.2337
G1 X3.2912 Y5.9303 F50.
G2 X3.2923 Y5.915 I-0.0127 J-0.0086
G1 X3.1292 Y5.608 F60.
G3 X3.0299 Y5.421 I0.2816 J-0.2694
G1 X2.7973 Y4.9831
G3 X2.7706 Y4.9984 I-0.0133 J0.0077
X2.773 Y4.98 I0.0133 J-0.0077
G1 X2.7782 Y4.9747
X2.7793 Y4.9732
X2.78 Y4.9716
X2.7803 Y4.9698
G2 X2.7741 Y4.9395 I-0.0622 J-0.003 F50.
G1 X2.7062 Y4.8117 F60.
G2 X2.4635 Y4.747 I-0.1682 J0.1429
G1 X2.3248 Y4.9522
G2 X2.3508 Y4.9686 I0.013 J0.0082
X2.3453 Y4.947 I-0.013 J-0.0082
X2.324 Y4.9536 I-0.0075 J0.0134
G1 X2.3029 Y4.9967
G2 X2.3304 Y5.0102 I0.0138 J0.0068
X2.3101 Y4.9895 I-0.0138 J-0.0068
X2.2863 Y5.0093 I0.0265 J0.0564 F50.
G1 X2.1879 Y5.1548 F60.
G2 X2.2277 Y5.9231 I0.9607 J0.3355
G1 X2.3873 Y6.0972
X2.5465 Y6.2716
X2.7055 Y6.4462
X3.1059 Y6.7087
G2 X3.1218 Y6.6824 I0.008 J-0.0131
X3.1007 Y6.6876 I-0.008 J0.0131
X3.106 Y6.7087 I0.0132 J0.0079
G1 X3.2503 Y6.7955
G2 X3.2661 Y6.7691 I0.0079 J-0.0132
X3.2444 Y6.789 I-0.0079 J0.0132
X3.2644 Y6.8126 I0.056 J-0.0273 F50.
G1 X3.356 Y6.8726 F60.
X3.3682 Y6.8754
X3.3805 Y6.8777
X3.393 Y6.8793
X3.4055 Y6.8803
X3.418 Y6.8808
X3.4305 Y6.8806
X3.443 Y6.8799
X3.4555 Y6.8785
X3.4679 Y6.8766
X3.4801 Y6.8741
X3.4923 Y6.871
X3.5043 Y6.8673
X3.516 Y6.8631
X3.5276 Y6.8583
X3.539 Y6.8529
X3.55 Y6.8471
X3.5608 Y6.8407
X3.5713 Y6.8338
X3.5814 Y6.8264
X3.5912 Y6.8186
X3.6005 Y6.8102
X3.6095 Y6.8015
X3.6181 Y6.7923
X3.6262 Y6.7828
X3.6338 Y6.7728
X3.6409 Y6.7625
X3.6476 Y6.7519
X3.6537 Y6.741
X3.6594 Y6.7298
X3.6644 Y6.7184
X3.669 Y6.7067
X3.6729 Y6.6948
X3.6763 Y6.6827
X3.6792 Y6.6705
X3.6814 Y6.6582
X3.6857 Y6.6562
X3.6847 Y6.6537
X3.5833 Y6.4628
G2 X3.57 Y6.4551 I-0.0133 J0.0077
X3.5172 Y6.5194 I-0.0001 J0.0537
X3.6566 Y6.6453 I0.1544 J-0.0308
X3.6714 Y6.646 I0.015 J-0.1568 F50.
G3 X3.6847 Y6.6537 I0. J0.0154
G1 X3.7112 Y6.7036 F60.
G3 X3.5016 Y6.9681 I-0.2471 J0.0194
G1 X3.356 Y6.8726
G3 X3.3496 Y6.8587 I0.0089 J-0.0126
X3.3891 Y6.8259 I0.036 J0.0033
X3.4956 Y6.9393 I-0.0116 J0.1175
X3.4952 Y6.9542 I-0.118 J0.0042 F50.
G2 X3.5016 Y6.9681 I0.0153 J0.0014
G1 X3.5346 Y6.9897 F60.
G2 X3.7865 Y6.8452 I0.0526 J-0.2
G1 X3.7112 Y6.7036
G2 X3.698 Y6.6959 I-0.0133 J0.0077
X3.6582 Y6.7457 I-0.0001 J0.0407
X3.7584 Y6.8366 I0.1152 J-0.0263
X3.7732 Y6.8376 I0.015 J-0.1172 F50.
G3 X3.7865 Y6.8452 I0. J0.0154
G1 X3.805 Y6.8801 F60.
X3.8069 Y6.8899
X3.8082 Y6.8998
X3.809 Y6.9097
X3.8091 Y6.9197
X3.8086 Y6.9297
X3.8075 Y6.9396
X3.8059 Y6.9494
X3.8036 Y6.9591
X3.8007 Y6.9687
X3.7973 Y6.978
X3.7933 Y6.9872
X3.7888 Y6.9961
X3.7837 Y7.0046
X3.7781 Y7.0129
X3.7721 Y7.0208
X3.7656 Y7.0284
X3.7586 Y7.0355
X3.7512 Y7.0422
X3.7434 Y7.0484
X3.7353 Y7.0542
X3.7268 Y7.0594
X3.718 Y7.0641
X3.7089 Y7.0683
X3.6997 Y7.072
X3.6902 Y7.075
X3.6805 Y7.0775
X3.6707 Y7.0794
X3.5346 Y6.9897
G3 X3.5282 Y6.9758 I0.0089 J-0.0126
X3.5794 Y6.9408 I0.04 J0.0036
X3.6646 Y7.0501 I-0.0328 J0.1135
X3.6642 Y7.0649 I-0.118 J0.0042 F50.
G2 X3.6706 Y7.0789 I0.0153 J0.0014
G1 X3.6995 Y7.0978 F60.
G2 X3.8755 Y7.0128 I0.0469 J-0.1276
G1 X3.805 Y6.8801
G2 X3.7917 Y6.8724 I-0.0133 J0.0077
X3.7523 Y6.9299 I-0.0001 J0.0422
X3.8474 Y7.0042 I0.11 J-0.0429
X3.8622 Y7.0051 I0.015 J-0.1172 F50.
G3 X3.8755 Y7.0128 I0. J0.0154
G1 X3.8913 Y7.0426 F60.
G3 X3.8177 Y7.1768 I-0.1036 J0.0305
G1 X3.6995 Y7.0978
G3 X3.6958 Y7.0764 I0.0089 J-0.0126
X3.7146 Y7.0686 I0.0155 J0.011
X3.8063 Y7.1468 I-0.02 J0.1164
X3.8109 Y7.165 I-0.1117 J0.0383 F50.
G2 X3.8172 Y7.175 I0.0151 J-0.0026
G1 X3.8401 Y7.19 F60.
G2 X3.9506 Y7.1507 I0.0354 J-0.0753
G1 X3.8913 Y7.0426
G2 X3.878 Y7.0349 I-0.0133 J0.0077
X3.8567 Y7.0539 I0. J0.0214
X3.92 Y7.1404 I0.0782 J0.0092
X3.9348 Y7.1418 I0.0149 J-0.0773 F50.
G3 X3.9481 Y7.1495 I0. J0.0154
G1 X3.9584 Y7.1689 F60.
X3.9605 Y7.1745
X3.9621 Y7.1803
X3.9631 Y7.1861
X3.9635 Y7.1921
X3.9633 Y7.1981
X3.9626 Y7.204
X3.9613 Y7.2098
X3.9594 Y7.2155
X3.9569 Y7.2209
X3.9539 Y7.2261
X3.9505 Y7.231
X3.9466 Y7.2355
X3.9422 Y7.2396
X3.9375 Y7.2432
X3.9325 Y7.2464
X3.9271 Y7.2491
X3.9245 Y7.2472
X3.9224 Y7.2449
X3.9208 Y7.2423
X3.9196 Y7.2395
X3.9191 Y7.2366
Y7.2337
X3.9196 Y7.2308
X3.922 Y7.2176
X3.93 Y7.1738
X3.9309 Y7.1707
X3.9325 Y7.1678
G3 X3.9584 Y7.1689 I0.0126 J0.0088 F50.
G1 X3.9876 Y7.2239 F60.
G3 X3.972 Y7.2764 I-0.0196 J0.0227
X3.9612 Y7.2235 I0.0227 J-0.0322
X3.9876 Y7.2239 I0.0131 J0.0081 F50.
G1 X4.0112 Y7.2684 F60.
X4.0138 Y7.2738
X4.015 Y7.2797
X4.0151 Y7.2857
X4.0149 Y7.2873
X4.0129 Y7.2919
X4.0089 Y7.295
X4.004 Y7.2959
X3.9992 Y7.2943
G3 X3.9879 Y7.2819 I0.0227 J-0.0322
X3.9868 Y7.2708 I0.0117 J-0.0068
X4.0112 Y7.2684 I0.0128 J0.0043 F50.
G1 X4.0196 Y7.2841 F60.
X4.0198 Y7.2846
X4.0231 Y7.2952
X4.0229 Y7.2972
Y7.2977
X4.022 Y7.2996
X4.0216 Y7.3
X4.0204 Y7.3011
X4.0199 Y7.3015
X4.018 Y7.3022
X4.0176 Y7.3023
X4.0154
X4.0138 Y7.3017
X4.0049 Y7.298
X3.8401 Y7.19
G3 X3.8414 Y7.1641 I0.0089 J-0.0126
G1 X3.8441 Y7.1626 Z-0.2097
X3.8466 Y7.1612 Z-0.2088
X3.8489 Y7.1599 Z-0.2074
X3.8509 Y7.1587 Z-0.2055
X3.8526 Y7.1578 Z-0.2032
X3.8538 Y7.1571 Z-0.2005
X3.8546 Y7.1566 Z-0.1976
X3.8548 Y7.1565 Z-0.1946
G0 Z-0.1793
X2.7504 Y6.4559
G1 Z-0.1946 F50.
X2.7501 Z-0.1976
X2.7493 Y6.4558 Z-0.2005
X2.7478 Z-0.2032
X2.7459 Y6.4557 Z-0.2055
X2.7436 Y6.4556 Z-0.2074
X2.741 Y6.4555 Z-0.2088
X2.7381 Y6.4553 Z-0.2097
X2.7351 Y6.4552 Z-0.21
G3 X2.7055 Y6.4462 I0.0027 J-0.0622
G1 X2.4271 Y6.2637 F60.
G3 X2.045 Y5.3676 I0.5082 J-0.7462
G1 X2.1879 Y5.1548
G3 X2.202 Y5.1485 I0.0124 J0.009
X2.2289 Y5.173 I-0.0032 J0.0306
X2.0731 Y5.3621 I-0.1543 J0.0317
X2.0583 Y5.3613 I0.0016 J-0.1575 F50.
G2 X2.0442 Y5.3675 I-0.0016 J0.0153
G1 X1.977 Y5.467 F60.
G2 X2.0449 Y5.9816 I0.5831 J0.1849
X2.0805 Y6.0366 I0.1098 J-0.0322
G1 X2.4271 Y6.2637
G2 X2.435 Y6.266 I0.008 J-0.0131
X2.4482 Y6.2586 I0. J-0.0154
X2.4506 Y6.2072 I-0.046 J-0.0279
X2.1106 Y6.0344 I-0.2836 J0.137
G1 X2.0922 Y6.0384 F50.
G3 X2.0805 Y6.0366 I-0.0037 J-0.0149
G1 X1.9626 Y5.9593 F60.
G3 X1.8491 Y5.6563 I0.3374 J-0.2991
G1 X1.977 Y5.467
G3 X1.9911 Y5.4607 I0.0124 J0.009
X2.0351 Y5.5181 I-0.0052 J0.0496
X1.878 Y5.6509 I-0.1555 J-0.0247
X1.8631 Y5.6501 I0.0016 J-0.1575 F50.
G2 X1.8491 Y5.6563 I-0.0016 J0.0153
G1 X1.8026 Y5.7251 F60.
G2 X1.7928 Y5.8479 I0.1212 J0.0716
G1 X1.9626 Y5.9593
G2 X1.9706 Y5.9615 I0.008 J-0.0131
X1.983 Y5.937 I0. J-0.0154
G1 X1.8287 Y5.7267
X1.8275 Y5.725 F50.
G2 X1.8026 Y5.7251 I-0.0124 J0.0091
X1.7473 Y5.8114 I0.1791 J0.1758 F60.
X1.7928 Y5.8479 I0.0466 J-0.0115
X1.8092 Y5.8476 I0.008 J-0.0131
G1 X1.8117 Y5.846 Z-0.2097
X1.8141 Y5.8444 Z-0.2088
X1.8163 Y5.8429 Z-0.2074
X1.8183 Y5.8416 Z-0.2055
X1.8199 Y5.8406 Z-0.2032
X1.8211 Y5.8398 Z-0.2005
X1.8218 Y5.8393 Z-0.1976
X1.822 Y5.8391 Z-0.1946
G0 Z-0.1793
X2.4532 Y4.7918
G1 Z-0.1946 F50.
Y4.7915 Z-0.1976
X2.4533 Y4.7906 Z-0.2005
X2.4534 Y4.7892 Z-0.2032
X2.4535 Y4.7873 Z-0.2055
X2.4536 Y4.7849 Z-0.2074
X2.4538 Y4.7823 Z-0.2088
X2.4539 Y4.7794 Z-0.2097
X2.4541 Y4.7764 Z-0.21
G3 X2.4635 Y4.747 I0.0622 J0.0036
G1 X2.4926 Y4.7039 F60.
G3 X2.6279 Y4.6613 I0.099 J0.0784
G1 X2.6292 Y4.6643
X2.6298 Y4.6674
Y4.6706
X2.6293 Y4.6737
X2.6281 Y4.6766
X2.6264 Y4.6792
X2.6243 Y4.6814
X2.6219 Y4.6831
X2.6191 Y4.6843
X2.614 Y4.6863
G3 X2.5038 Y4.7273 I-0.1159 J-0.1431
X2.4926 Y4.7039 I0.0018 J-0.0153 F50.
G1 X2.5463 Y4.6244 F60.
G3 X2.5931 Y4.5991 I0.0313 J0.002
X2.5918 Y4.6163 I-0.0133 J0.0077
G1 X2.584 Y4.6261
X2.5714 Y4.6421
G3 X2.5575 Y4.6478 I-0.012 J-0.0096
X2.5463 Y4.6244 I0.0018 J-0.0153 F50.
X2.5798 Y4.5833 I0.0386 J-0.0026 F60.
X2.5943 Y4.601 I-0.0061 J0.0198
G1 X2.7062 Y4.8117
G3 X2.6926 Y4.8338 I-0.0138 J0.0067
G1 X2.6896 Y4.8339 Z-0.2097
X2.6867 Z-0.2088
X2.6841 Z-0.2074
X2.6818 Y4.834 Z-0.2055
X2.6798 Z-0.2032
X2.6784 Z-0.2005
X2.6775 Z-0.1976
X2.6773 Z-0.1946
G0 Z0.4
X3.1347 Y5.6536
Z-0.1793
G1 Z-0.1946 F50.
Y5.6533 Z-0.1976
X3.1348 Y5.6525 Z-0.2005
Y5.651 Z-0.2032
X3.1349 Y5.6491 Z-0.2055
X3.135 Y5.6468 Z-0.2074
X3.1352 Y5.6442 Z-0.2088
X3.1353 Y5.6413 Z-0.2097
X3.1354 Y5.6383 Z-0.21
G2 X3.1292 Y5.608 I-0.0622 J-0.003
G1 X3.0299 Y5.421 F60.
G2 X3.0153 Y5.4134 I-0.0133 J0.0077
G1 X3.0124 Y5.4137 Z-0.2097
X3.0095 Y5.4139 Z-0.2088
X3.0068 Y5.4141 Z-0.2074
X3.0045 Y5.4143 Z-0.2055
X3.0026 Y5.4145 Z-0.2032
X3.0012 Y5.4146 Z-0.2005
X3.0003 Z-0.1976
X3. Y5.4147 Z-0.1946
G0 Z0.4
X0.0362 Y0.0634
Z0.1
G3 X-0.0362 Y-0.0634 Z0.0596 I-0.0362 J-0.0634 F50.
X0.0362 Y0.0634 Z0.0191 I0.0362 J0.0634
X-0.0362 Y-0.0634 Z-0.0213 I-0.0362 J-0.0634
X0.0362 Y0.0634 Z-0.0618 I0.0362 J0.0634
X-0.0362 Y-0.0634 Z-0.1022 I-0.0362 J-0.0634
X0.0362 Y0.0634 Z-0.1427 I0.0362 J0.0634
X-0.0362 Y-0.0634 Z-0.1831 I-0.0362 J-0.0634
X0.073 Y0. Z-0.21 I0.0362 J0.0634
X-0.073 I-0.073 J0.
X0.0728 Y-0.0059 I0.073 J0.
G1 X0.073 Y0.
G3 X-0.0834 Y0.123 I-0.0818 J0.0568 F60.
X0.0803 Y-0.139 I0.0818 J-0.131
X0.1487 Y-0.0442 I-0.0818 J0.131
X-0.1493 Y0.1881 I-0.1593 J0.1029
X-0.1195 Y-0.2191 I0.1303 J-0.1952
X0.2628 Y-0.0614 I0.1152 J0.2628
X0.0906 Y0.3146 I-0.267 J0.1051
X-0.1232 Y-0.3193 I-0.1065 J-0.3171
X0.3593 Y-0.0742 I0.1189 J0.3635
X0.1138 Y0.408 I-0.3636 J0.1185
X-0.4394 Y0.0343 I-0.136 J-0.3949
X0.4374 Y-0.1008 I0.4435 J-0.0341
X0.2359 Y0.4583 I-0.4144 J0.1665
X-0.2684 Y-0.4691 I-0.2521 J-0.4637
X0.039 Y-0.5303 I0.2521 J0.4637
X0.5556 Y0.1739 I-0.049 J0.5776
X-0.2119 Y0.5906 I-0.5656 J-0.1266
X0.1963 Y-0.6035 I0.2053 J-0.5966
X-0.0714 Y0.7232 I-0.2114 J0.6477
X-0.2462 Y-0.6915 I0.0646 J-0.7261
X0.5946 Y0.5252 I0.2406 J0.7326
X-0.827 Y0.0098 I-0.6214 J-0.5042
X0.5937 Y-0.5826 I0.826 J-0.0189
X0.13 Y0.9084 I-0.6039 J0.6298
G1 X-0.1087 Y0.9082
G3 X-0.9067 Y0.203 I0.0717 J-0.8853
G1 X-0.9082 Y-0.1531
G3 X-0.2075 Y-0.9067 I0.8816 J0.1173
G1 X0.1491 Y-0.9082
G3 X0.9058 Y-0.2621 I-0.1212 J0.9081
G1 X0.9082 Y0.2918
G3 X0.4343 Y0.9061 I-0.8147 J-0.1385
G1 X0.1299 Y0.9082
G3 X0.1169 Y0.9 I0.0005 J-0.0154
X0.132 Y0.834 I0.0457 J-0.0243
X0.4147 Y0.8872 I0.1165 J0.1587
G1 X0.4222 Y0.9 F50.
G2 X0.4352 Y0.9082 I0.0136 J-0.0072
G1 X0.5475 F60.
G2 X0.8652 Y0.6618 I-0.1321 J-0.4984
X0.9082 Y0.5924 I-0.0885 J-0.1028
G1 Y0.2918
G2 X0.9 Y0.2788 I-0.0154 J0.0005
X0.8285 Y0.2969 I-0.0258 J0.0484
X0.8872 Y0.5719 I0.1641 J0.1087
G1 X0.9 Y0.5793 F50.
G3 X0.9082 Y0.5924 I-0.0072 J0.0136
G1 Y0.6899 F60.
G3 X0.7698 Y0.9082 I-0.3341 J-0.0589
G1 X0.5475
G3 X0.5344 Y0.9 I0.0005 J-0.0154
X0.5619 Y0.8269 I0.0459 J-0.0245
X0.7492 Y0.8873 I0.0559 J0.1472
X0.7568 Y0.9 I-0.1314 J0.0868 F50.
G2 X0.7698 Y0.9082 I0.0136 J-0.0072
G1 X0.8287 F60.
X0.8308 Y0.9084
G2 X0.9146 Y0.8713 I0.0152 J-0.0787
G3 X0.9082 Y0.6899 I0.5812 J-0.1114
G2 X0.878 Y0.6862 I-0.0154 J0.0005
G1 X0.82 Y0.8842
X0.8186 Y0.889 F50.
G2 X0.8308 Y0.9084 I0.0147 J0.0043
G3 X0.899 Y0.9224 I-0.0153 J0.2477 F60.
G1 X0.9046 Y0.9245
X0.9109 Y0.9257
X0.9179 Y0.926
X0.9209 Y0.9257
X0.9256 Y0.924
X0.9289 Y0.9202
X0.9301 Y0.9154
X0.9287 Y0.9105
X0.9257 Y0.9051
G2 X0.9157 Y0.8981 I-0.0131 J0.008
X0.9122 Y0.8978 I-0.0031 J0.015 F50.
G1 X0.9121 Y0.9031
X0.9153 Y0.9032
G3 X0.9287 Y0.9105 I0.0004 J0.0154
G1 X0.935 Y0.9216 F60.
X0.9377 Y0.927
X0.9369 Y0.9321
X0.9335 Y0.936
X0.9286 Y0.9375
X0.9237 Y0.9362
G3 X0.9209 Y0.9342 I0.0199 J-0.031
X0.919 Y0.9323 I0.0059 J-0.0076
X0.9215 Y0.9186 I0.0078 J-0.0056 F50.
X0.935 Y0.9216 I0.0053 J0.008
G1 X0.9364 Y0.9241 F60.
X0.9423 Y0.9343
X0.9451 Y0.9396
X0.9441 Y0.943
X0.941 Y0.9449
X0.9374 Y0.9443
G3 X0.9339 Y0.9418 I0.0212 J-0.0332 F50.
X0.9411 Y0.9329 I0.0036 J-0.0044
X0.9423 Y0.9343 I-0.0036 J0.0044
G1 X0.9459 Y0.9403 F60.
X0.9485 Y0.944
X0.9501 Y0.9466
X0.9494 Y0.9487
X0.9475 Y0.9498
X0.9453 Y0.9493
X0.9441 Y0.9483 F50.
X0.946 Y0.9428
X0.9485 Y0.944
X0.951 Y0.9476 F60.
X0.9519 Y0.9486
X0.9528 Y0.9498
X0.9525 Y0.9517
X0.9509 Y0.9527
X0.9491 Y0.9523
X0.9487 Y0.9519 F50.
X0.9502 Y0.9479
X0.9519 Y0.9486
X0.9546 Y0.9518 F60.
X0.9555 Y0.953
X0.9552 Y0.9546
X0.9537 Y0.9554
X0.9521 Y0.9549
X0.9517 Y0.9544 F50.
X0.9531 Y0.9511
X0.9546 Y0.9518
X0.9564 Y0.9539 F60.
X0.9575 Y0.955
X0.9585 Y0.9561
X0.9581 Y0.9576
X0.9567 Y0.9583
X0.9552 Y0.9578
G2 X0.899 Y0.9224 I-0.1291 J0.1428
G3 X0.897 Y0.9149 I0.0025 J-0.0047
X0.9047 Y0.9136 I0.0044 J0.0029
G1 X0.9152 Y0.9218
X0.9332 Y0.9359
X0.9575 Y0.955 F50.
X0.9598 Y0.9572 F60.
X0.9608 Y0.9583
X0.9606 Y0.9599
X0.9592 Y0.9607
X0.9577 Y0.9602
X0.9568 Y0.9588
X0.9387 Y0.9359
G2 X0.9577 Y0.9602 I0.1219 J-0.0758 F50.
G1 X0.9594 Y0.9621 F60.
X0.9604 Y0.9632
X0.9622 Y0.963
X0.9631 Y0.9615
X0.9625 Y0.9598
X0.9604 Y0.9609 Z-0.2087
Y0.9615 Z-0.2066
G0 Z0.4
X0.9241 Y0.9342
Z-0.1793
G1 Z-0.1946 F50.
X0.9243 Y0.9343 Z-0.1976
X0.9251 Y0.9347 Z-0.2005
X0.9263 Y0.9354 Z-0.2032
X0.928 Y0.9364 Z-0.2055
X0.93 Y0.9375 Z-0.2074
X0.9323 Y0.9388 Z-0.2088
X0.9348 Y0.9403 Z-0.2097
X0.9374 Y0.9417 Z-0.21
G3 X0.9625 Y0.9598 I-0.0709 J0.1248
G1 X0.963 Y0.9603 F60.
X0.9649 Y0.9619
X0.966 Y0.9629
X0.9657 Y0.965
X0.9639 Y0.966
X0.962 Y0.9652
X0.9619 Y0.965 F50.
X0.9649 Y0.9619
X0.9684 Y0.9648 F60.
X0.9695 Y0.9658
X0.9691 Y0.9682
X0.967 Y0.9694
X0.9648 Y0.9684
X0.9684 Y0.9648 F50.
X0.9713 Y0.9672 F60.
X0.9723 Y0.9682
Y0.971
X0.97 Y0.9726
X0.9674 Y0.9715
X0.9672 Y0.9712 F50.
X0.9713 Y0.9672
X0.9743 Y0.9698 F60.
X0.9765 Y0.9718
X0.9766 Y0.9742
X0.9751 Y0.9761
X0.9727 Y0.9765
X0.9706 Y0.9753
X0.9698 Y0.9742 F50.
X0.9743 Y0.9698
X0.9799 Y0.9744 F60.
X0.981 Y0.9755
Y0.9782
X0.9793 Y0.9804
X0.9766 Y0.9809
X0.9742 Y0.9795
G3 X0.9731 Y0.9767 I0.0042 J-0.0033 F50.
G1 X0.9754 Y0.9735
G3 X0.9799 Y0.9744 I0.0012 J0.0052
G1 X0.9839 Y0.9778 F60.
X0.9861 Y0.9799
Y0.983
X0.9841 Y0.9854
X0.981 Y0.9859
X0.9783 Y0.9844
X0.9778 Y0.9838 F50.
X0.9839 Y0.9778
X0.9894 Y0.9825 F60.
X0.9916 Y0.9845
X0.9917 Y0.9881
X0.9894 Y0.9909
X0.9859 Y0.9915
X0.9828 Y0.9898
X0.9825 Y0.9893 F50.
X0.9894 Y0.9825
X0.996 Y0.9881 F60.
X0.9982 Y0.9901
Y0.9942
X0.9955 Y0.9973
X0.9916 Y0.998
X0.988 Y0.996
G3 X0.9886 Y0.9888 I0.0041 J-0.0033 F50.
G1 X0.9891 Y0.9883
G3 X0.996 Y0.9881 I0.0036 J0.0039
G1 X1.0022 Y0.9933 F60.
X1.0034 Y0.9944
X1.0043 Y0.9951
X1.0052 Y0.996
X1.0046 Y1. F50.
X0.9989 Y0.9977
X1.0043 Y0.9951
X1.0051 Y0.9959 F60.
X1.0059 Y0.9974
X1.0063 Y0.9981
X1.0066 Y1.0003
X1.0061 Y1.0025
X1.0056 Y1.0032
X1.005 Y1.0042
X1.0045 Y1.0048
X1.0027 Y1.006
X1.0007 Y1.0065
X1.0002 Y1.0066
X0.9981 Y1.0063
X0.9974 Y1.006
X0.9961 Y1.0052
X0.9954 Y1.0046
X0.9927 Y1.0015
X0.9921 Y0.9999 Z-0.2097
X0.9915 Y0.9985 Z-0.2089
X0.991 Y0.9974 Z-0.2077
X0.9907 Y0.9967 Z-0.2062
X0.9906 Y0.9965 Z-0.2045
G0 Z0.4
X-0.0658 Y0.8916
Z-0.1793
G1 Z-0.1946 F50.
X-0.0661 Y0.8917 Z-0.1976
X-0.0668 Y0.8922 Z-0.2005
X-0.0681 Y0.8929 Z-0.2032
X-0.0697 Y0.8939 Z-0.2055
X-0.0717 Y0.8951 Z-0.2074
X-0.074 Y0.8964 Z-0.2088
X-0.0765 Y0.8979 Z-0.2097
X-0.079 Y0.8994 Z-0.21
G3 X-0.1087 Y0.9082 I-0.0318 J-0.0536
G1 X-0.4134 F60.
G3 X-0.9062 Y0.4797 I0.2129 J-0.7425
G1 X-0.9082 Y0.2032
G3 X-0.8923 Y0.1884 I0.0154 J0.0005
X-0.8376 Y0.2309 I-0.0021 J0.059
X-0.89 Y0.4564 I-0.2268 J0.0661
G1 X-0.9033 Y0.4698 F50.
G2 X-0.9082 Y0.4805 I0.0105 J0.0112
G1 Y0.5963 F60.
G2 X-0.6583 Y0.9068 I0.4805 J-0.1309
G1 X-0.4134 Y0.9082
G2 X-0.4003 Y0.9 I-0.0005 J-0.0154
X-0.4115 Y0.8488 I-0.0357 J-0.019
X-0.6383 Y0.8873 I-0.0954 J0.1253
X-0.6459 Y0.9 I0.1314 J0.0868 F50.
G3 X-0.659 Y0.9082 I-0.0136 J-0.0072
G1 X-0.7415 F60.
G3 X-0.9082 Y0.8098 I0.0246 J-0.2322
G1 Y0.5963
G3 X-0.8791 Y0.5898 I0.0154 J0.0005
G1 X-0.7283 Y0.8857
Y0.8858 F50.
G3 X-0.7415 Y0.9082 I-0.0137 J0.007
G1 X-0.8118 F60.
X-0.8352 Y0.9085
X-0.8586 Y0.9123
G3 X-0.9203 Y0.8933 I-0.0257 J-0.0259
G2 X-0.9082 Y0.8098 I-0.2845 J-0.0839
G3 X-0.8783 Y0.8052 I0.0154 J0.0006
G1 X-0.8491 Y0.8876
X-0.8474 Y0.8922 F50.
G3 X-0.8586 Y0.9123 I-0.0145 J0.0051
G2 X-0.912 Y0.9294 I0.0067 J0.1129 F60.
G1 X-0.9173 Y0.9321
X-0.9232 Y0.9333
X-0.924
X-0.9291 Y0.932
X-0.9329 Y0.9282
X-0.9343 Y0.9231
X-0.9329 Y0.918
G3 X-0.9267 Y0.9104 I0.0334 J0.0209
X-0.9181 Y0.9071 I0.0084 J0.0087
X-0.912 Y0.9294 I-0.0003 J0.0121 F50.
G1 X-0.9289 Y0.9392 F60.
X-0.9302 Y0.94
X-0.9355 Y0.9428
X-0.9391 Y0.9422
X-0.9418 Y0.9398
X-0.9428 Y0.9363
X-0.9418 Y0.9328
G3 X-0.9394 Y0.9296 I0.0327 J0.0219 F50.
X-0.9288 Y0.9294 I0.0054 J0.0045
X-0.9302 Y0.94 I-0.0052 J0.0047
G1 X-0.9406 Y0.9462 F60.
X-0.9459 Y0.949
X-0.948 Y0.9482
X-0.9491 Y0.9461
X-0.9487 Y0.9438
G3 X-0.9458 Y0.9401 I0.0327 J0.0219 F50.
G1 X-0.9387 Y0.9428
X-0.9406 Y0.9462
X-0.9429 Y0.9476 F60.
X-0.9478 Y0.9514
X-0.9502 Y0.9531
X-0.952 Y0.9526
X-0.9528 Y0.951
X-0.9523 Y0.9493
X-0.9511 Y0.9479 F50.
X-0.9469 Y0.9495
X-0.9478 Y0.9514
X-0.9524 Y0.955 F60.
X-0.9536 Y0.9559
X-0.9552 Y0.9555
X-0.9559 Y0.954
X-0.9553 Y0.9524
X-0.9552 Y0.9523 F50.
X-0.9524 Y0.955
X-0.9549 Y0.9577 F60.
X-0.956 Y0.9587
X-0.9578 Y0.9584
X-0.9586 Y0.9569
X-0.9581 Y0.9552
G3 X-0.9551 Y0.9538 I0.0037 J0.0038 F50.
G1 X-0.9539 Y0.9547
X-0.9532 Y0.9553
X-0.9525 Y0.9547
X-0.9529 Y0.9539
X-0.9548 Y0.9538
X-0.9565 Y0.9542
X-0.9581 Y0.9552
X-0.9604 Y0.9576 F60.
X-0.9614 Y0.9588
X-0.9611 Y0.9605
X-0.9595 Y0.9614
X-0.9579 Y0.9608
G2 X-0.9565 Y0.9578 I-0.004 J-0.0035 F50.
G1 X-0.9575 Y0.9566
X-0.9582 Y0.9559
X-0.9576 Y0.9551
X-0.9568 Y0.9556
X-0.9565 Y0.9574
X-0.9569 Y0.9592
X-0.9579 Y0.9608
X-0.9603 Y0.9633 F60.
X-0.9614 Y0.9644
X-0.9633 Y0.964
X-0.9641 Y0.9623
X-0.9634 Y0.9606
X-0.9631 Y0.9603 F50.
X-0.9603 Y0.9633
X-0.9626 Y0.9657 F60.
X-0.9636 Y0.9668
X-0.9658 Y0.9667
X-0.9669 Y0.9648
X-0.9661 Y0.9628
X-0.9657 Y0.9626 F50.
X-0.9626 Y0.9657
X-0.9652 Y0.9689 F60.
X-0.9662 Y0.97
X-0.9687 Y0.9698
X-0.97 Y0.9677
X-0.9691 Y0.9654
X-0.9688 Y0.9652 F50.
X-0.9652 Y0.9689
X-0.9678 Y0.9719 F60.
X-0.9688 Y0.973
X-0.9717
X-0.9733 Y0.9707
X-0.9722 Y0.968
X-0.9719 Y0.9678 F50.
X-0.9678 Y0.9719
X-0.9707 Y0.9754 F60.
X-0.9728 Y0.9776
X-0.9752
X-0.9771 Y0.976
X-0.9775 Y0.9736
X-0.9763 Y0.9714
X-0.9753 Y0.9707 F50.
X-0.9707 Y0.9754
X-0.975 Y0.9805 F60.
X-0.977 Y0.9827
X-0.9799 Y0.9826
X-0.982 Y0.9807
X-0.9824 Y0.9779
X-0.981 Y0.9754
X-0.9804 Y0.9749 F50.
X-0.975 Y0.9805
X-0.9791 Y0.9854 F60.
X-0.9812 Y0.9876
X-0.9844 Y0.9877
X-0.987 Y0.9856
X-0.9876 Y0.9824
X-0.986 Y0.9796
X-0.9853 Y0.9791 F50.
X-0.9841 Y0.9784
X-0.9827 Y0.9782
X-0.9791 Y0.9854
X-0.9839 Y0.991 F60.
X-0.9859 Y0.9932
X-0.9896 Y0.9934
X-0.9925 Y0.9911
X-0.9933 Y0.9874
X-0.9915 Y0.9842
X-0.991 Y0.9838 F50.
G3 X-0.9839 Y0.991 I0.0031 J0.004
G1 X-0.9893 Y0.9975 F60.
X-0.9914 Y0.9997
X-0.9956 Y0.9998
X-0.9988 Y0.9972
X-0.9996 Y0.9931
X-0.9976 Y0.9894
X-0.9974 Y0.9893 F50.
G3 X-0.9893 Y0.9975 I0.0036 J0.0046
G1 X-0.9945 Y1.0035 F60.
X-0.9957 Y1.0049
X-0.9961 Y1.0053
X-0.9977 Y1.0061
X-0.9985 Y1.0063
X-1.0002 Y1.0066
X-1.0006 Y1.0065
X-1.0025 Y1.0061
X-1.0029 Y1.0059
X-1.0043 Y1.0049
X-1.0048 Y1.0045
X-1.0057 Y1.0031
X-1.0061 Y1.0025
X-1.0066 Y1.0004
X-1.0063 Y0.9982
X-1.006 Y0.9974
X-1.0051 Y0.9959
X-1.0034 Y0.9944
X-1.0017 Y0.9937 Z-0.2097
X-1.0001 Y0.993 Z-0.2088
X-0.9989 Y0.9925 Z-0.2074
X-0.9982 Y0.9922 Z-0.2056
X-0.998 Z-0.2041
G0 Z0.4
X-0.8916 Y-0.1103
Z-0.1793
G1 Z-0.1946 F50.
X-0.8917 Y-0.1105 Z-0.1976
X-0.8922 Y-0.1113 Z-0.2005
X-0.8929 Y-0.1125 Z-0.2032
X-0.8939 Y-0.1141 Z-0.2055
X-0.8951 Y-0.1161 Z-0.2074
X-0.8964 Y-0.1184 Z-0.2088
X-0.8979 Y-0.1209 Z-0.2097
X-0.8994 Y-0.1235 Z-0.21
G3 X-0.9082 Y-0.1531 I0.0536 J-0.0318
G1 Y-0.4108 F60.
G3 X-0.5597 Y-0.8569 I0.6466 J0.1459
X-0.4841 Y-0.9082 I0.1052 J0.0739
G1 X-0.2078
G3 X-0.193 Y-0.8923 I-0.0005 J0.0154
X-0.2362 Y-0.8371 I-0.0595 J-0.0021
X-0.46 Y-0.89 I-0.0644 J-0.2273
G1 X-0.4734 Y-0.9033 F50.
G2 X-0.4841 Y-0.9082 I-0.0112 J0.0105
G1 X-0.6009 F60.
G2 X-0.907 Y-0.6641 I0.1295 J0.4765
G1 X-0.9082 Y-0.4108
G2 X-0.9 Y-0.3977 I0.0154 J-0.0005
X-0.8599 Y-0.4042 I0.0158 J-0.0296
X-0.8873 Y-0.6441 I-0.1142 J-0.1084
X-0.9 Y-0.6516 I-0.0868 J0.1314 F50.
G3 X-0.9082 Y-0.6647 I0.0072 J-0.0136
G1 Y-0.7515 F60.
G3 X-0.8132 Y-0.9082 I0.2235 J0.0283
G1 X-0.8118
X-0.6009
G3 X-0.5947 Y-0.8789 I-0.0005 J0.0154
G1 X-0.8857 Y-0.7384
X-0.8861 Y-0.7382 F50.
G3 X-0.9082 Y-0.7515 I-0.0067 J-0.0138
G2 X-0.9131 Y-0.8628 I-0.3626 J-0.0397 F60.
G3 X-0.8939 Y-0.9203 I0.0261 J-0.0232
X-0.8885 Y-0.8534 I-0.0178 J0.0351
X-0.9131 Y-0.8628 I-0.0093 J-0.0126 F50.
G2 X-0.9289 Y-0.9112 I-0.109 J0.0089 F60.
G1 X-0.9317 Y-0.9165
X-0.9331 Y-0.9224
X-0.9332 Y-0.9236
X-0.932 Y-0.9288
X-0.9283 Y-0.9327
X-0.9231 Y-0.9342
X-0.9179 Y-0.9328
G3 X-0.9095 Y-0.9258 I-0.0209 J0.0334
X-0.9064 Y-0.9171 I-0.0091 J0.0082
X-0.9289 Y-0.9112 I-0.0122 J-0.0006 F50.
G1 X-0.9375 Y-0.926 F60.
X-0.9397 Y-0.9295
X-0.9427 Y-0.9347
X-0.9422 Y-0.9385
X-0.9398 Y-0.9413
X-0.9362 Y-0.9424
X-0.9326 Y-0.9414
G3 X-0.9294 Y-0.939 I-0.0218 J0.0328 F50.
X-0.9291 Y-0.9283 I-0.0045 J0.0055
X-0.9397 Y-0.9295 I-0.0048 J-0.0052
G1 X-0.9465 Y-0.9402 F60.
X-0.9495 Y-0.9454
X-0.9486 Y-0.9477
X-0.9464 Y-0.949
X-0.944 Y-0.9485
G3 X-0.9404 Y-0.9458 I-0.0218 J0.0328 F50.
G1 X-0.9431 Y-0.9384
X-0.9465 Y-0.9402
X-0.9514 Y-0.9478 F60.
X-0.9529 Y-0.9504
X-0.9523 Y-0.952
X-0.9507 Y-0.9528
X-0.9491 Y-0.9523
X-0.9476 Y-0.951 F50.
X-0.9494 Y-0.9467
X-0.9514 Y-0.9478
X-0.9524 Y-0.9494 F60.
X-0.9543 Y-0.9513
X-0.9553 Y-0.9524
X-0.9551 Y-0.9541
X-0.9537 Y-0.9552
X-0.9521 Y-0.9547
X-0.9515 Y-0.9542 F50.
X-0.9529 Y-0.9507
X-0.9543 Y-0.9513
X-0.9576 Y-0.9547 F60.
X-0.9586 Y-0.9558
X-0.9581 Y-0.9576
X-0.9565 Y-0.9583
X-0.9549 Y-0.9576
G3 X-0.9536 Y-0.9546 I-0.004 J0.0035 F50.
G1 X-0.9545 Y-0.9535
X-0.9552 Y-0.9528
X-0.9546 Y-0.952
X-0.9538 Y-0.9525
X-0.9536 Y-0.9543
X-0.9539 Y-0.9561
X-0.9549 Y-0.9576
X-0.9575 Y-0.9604 F60.
X-0.9586 Y-0.9614
X-0.9604 Y-0.9612
X-0.9613 Y-0.9596
X-0.9607 Y-0.9579
G2 X-0.9578 Y-0.9564 I0.0036 J-0.0038 F50.
G1 X-0.9566 Y-0.9574
X-0.9558 Y-0.958
X-0.9551 Y-0.9574
X-0.9556 Y-0.9566
X-0.9574 Y-0.9564
X-0.9592 Y-0.9568
X-0.9607 Y-0.9579
X-0.9634 Y-0.9606 F60.
X-0.9645 Y-0.9617
X-0.9641 Y-0.9636
X-0.9624 Y-0.9645
X-0.9606 Y-0.9638
G3 X-0.9593 Y-0.9608 I-0.004 J0.0035 F50.
G1 X-0.9603 Y-0.9596
X-0.961 Y-0.9589
X-0.9604 Y-0.9581
X-0.9596 Y-0.9586
X-0.9593 Y-0.9604
X-0.9597 Y-0.9622
X-0.9606 Y-0.9638
X-0.9634 Y-0.9667 F60.
X-0.9644 Y-0.9678
X-0.9666 Y-0.9674
X-0.9676 Y-0.9654
X-0.9667 Y-0.9634
G2 X-0.9637 Y-0.9623 I0.0033 J-0.0042 F50.
G1 X-0.9636
X-0.9629 Y-0.9626
X-0.9626 Y-0.9633
X-0.9619 Y-0.964
X-0.9611 Y-0.9635
X-0.9615 Y-0.9627
X-0.9633 Y-0.9623
X-0.9651 Y-0.9626
X-0.9667 Y-0.9634
X-0.9695 Y-0.9657 F60.
X-0.9706 Y-0.9668
X-0.9705 Y-0.9693
X-0.9683 Y-0.9707
X-0.9659 Y-0.9697
X-0.9657 Y-0.9695 F50.
X-0.9695 Y-0.9657
X-0.9733 Y-0.9689 F60.
X-0.9744 Y-0.9699
X-0.9741 Y-0.9729
X-0.9716 Y-0.9744
X-0.9689 Y-0.9732
G3 X-0.9678 Y-0.9708 I-0.0042 J0.0033 F50.
G1 X-0.9708 Y-0.9678
G3 X-0.9733 Y-0.9689 I0.0008 J-0.0052
G1 X-0.977 Y-0.972 F60.
X-0.9792 Y-0.9741
X-0.9791 Y-0.9766
X-0.9774 Y-0.9786
X-0.9748 Y-0.979
X-0.9726 Y-0.9777
X-0.972 Y-0.9769 F50.
X-0.977 Y-0.972
X-0.9821 Y-0.9763 F60.
X-0.9843 Y-0.9784
X-0.9841 Y-0.9813
X-0.9822 Y-0.9835
X-0.9793 Y-0.984
X-0.9767 Y-0.9825
X-0.9763 Y-0.982 F50.
X-0.9821 Y-0.9763
X-0.9869 Y-0.9804 F60.
X-0.9891 Y-0.9824
X-0.9893 Y-0.9858
X-0.9872 Y-0.9885
X-0.9839 Y-0.9892
X-0.9809 Y-0.9876
X-0.9803 Y-0.9868 F50.
X-0.9869 Y-0.9804
X-0.9927 Y-0.9853 F60.
X-0.9949 Y-0.9874
X-0.9951 Y-0.9912
X-0.9927 Y-0.9942
X-0.989 Y-0.995
X-0.9856 Y-0.9931
X-0.9853 Y-0.9927 F50.
G3 X-0.9927 Y-0.9853 I-0.0042 J0.0032
G1 X-0.9993 Y-0.9908 F60.
X-1.0014 Y-0.9929
X-1.0018 Y-0.9964
X-1.0003 Y-0.9995
X-0.9974 Y-1.0013
X-0.9939
X-0.991 Y-0.9994
X-0.9909 Y-0.9993 F50.
G3 X-0.9993 Y-0.9908 I-0.0047 J0.0037
G1 X-1.0051 Y-0.9958 F60.
X-1.006 Y-0.9975
X-1.0063 Y-0.9982
X-1.0065 Y-1.0001
Y-1.0007
X-1.0061 Y-1.0025
X-1.0058 Y-1.0031
X-1.0049 Y-1.0043
X-1.0045 Y-1.0048
X-1.0028 Y-1.0059
X-1.0024 Y-1.0061
X-1.0006 Y-1.0065
X-1.0001
X-0.9986 Y-1.0063
X-0.9979 Y-1.0062
X-0.9965 Y-1.0055
X-0.9957 Y-1.005
X-0.995 Y-1.0041
X-0.9942 Y-1.0024 Z-0.2097
X-0.9936 Y-1.0009 Z-0.2088
X-0.9931 Y-0.9996 Z-0.2075
X-0.9927 Y-0.9989 Z-0.2058
Y-0.9986 Z-0.204
G0 Z0.4
X-0.944 Y-0.9428
Z-0.1159
G1 Z-0.21 F50.
G3 X-0.9289 Y-0.9392 I0.0004 J0.0312
G2 X-0.8132 Y-0.9082 I0.1037 J-0.1554 F60.
G3 X-0.8005 Y-0.8856 I-0.0008 J0.0153
G1 X-0.8019 Y-0.8829 Z-0.2097
X-0.8033 Y-0.8804 Z-0.2088
X-0.8045 Y-0.878 Z-0.2074
X-0.8056 Y-0.876 Z-0.2055
X-0.8065 Y-0.8743 Z-0.2032
X-0.8072 Y-0.873 Z-0.2005
X-0.8076 Y-0.8723 Z-0.1976
X-0.8078 Y-0.872 Z-0.1946
G0 Z-0.1793
X0.1062 Y-0.8916
G1 Z-0.1946 F50.
X0.1064 Y-0.8917 Z-0.1976
X0.1072 Y-0.8922 Z-0.2005
X0.1084 Y-0.8929 Z-0.2032
X0.1101 Y-0.8939 Z-0.2055
X0.1121 Y-0.8951 Z-0.2074
X0.1144 Y-0.8964 Z-0.2088
X0.1168 Y-0.8979 Z-0.2097
X0.1194 Y-0.8994 Z-0.21
G3 X0.1491 Y-0.9082 I0.0318 J0.0536
G1 X0.4303 F60.
G3 X0.9053 Y-0.4978 I-0.2414 J0.7596
G1 X0.9082 Y-0.4973
Y-0.2628
G3 X0.9 Y-0.2498 I-0.0154 J-0.0005
X0.8367 Y-0.2683 I-0.0222 J-0.0416
X0.8873 Y-0.4767 I0.1374 J-0.077
X0.9 Y-0.4843 I0.0868 J0.1314 F50.
G2 X0.9082 Y-0.4973 I-0.0072 J-0.0136
G1 Y-0.5981 F60.
G2 X0.6651 Y-0.9067 I-0.4568 J0.1098
G1 X0.4303 Y-0.9082
G2 X0.4173 Y-0.9 I0.0005 J0.0154
X0.4351 Y-0.8377 I0.0411 J0.0219
X0.6452 Y-0.8873 I0.0788 J-0.1364
X0.6528 Y-0.9 I-0.1314 J-0.0868 F50.
G3 X0.6658 Y-0.9082 I0.0136 J0.0072
G1 X0.7584 F60.
G3 X0.9091 Y-0.8168 I-0.0302 J0.2199
G1 X0.9082 Y-0.8089
Y-0.5981
G3 X0.8788 Y-0.5923 I-0.0154 J-0.0005
G1 X0.7453 Y-0.8857
X0.7449 Y-0.8864 F50.
G3 X0.7584 Y-0.9082 I0.014 J-0.0064
G1 X0.8287 F60.
X0.8521 Y-0.9112
X0.865 Y-0.9135
G3 X0.921 Y-0.8954 I0.0224 J0.0262
X0.8556 Y-0.8844 I-0.0362 J-0.0155
X0.8524 Y-0.8895 I0.0131 J-0.0118
X0.865 Y-0.9135 I0.0163 J-0.0068 F50.
G2 X0.911 Y-0.9288 I-0.0091 J-0.1038 F60.
G1 X0.9163 Y-0.9316
X0.9221 Y-0.9332
X0.9234 Y-0.9333
X0.9287 Y-0.9322
X0.9328 Y-0.9286
X0.9343 Y-0.9234
X0.933 Y-0.9181
G3 X0.9256 Y-0.9093 I-0.0335 J-0.0207
X0.9168 Y-0.9063 I-0.0081 J-0.0092
X0.911 Y-0.9288 I0.0007 J-0.0122 F50.
G1 X0.9224 Y-0.9354 F60.
X0.9303 Y-0.9402
X0.9356 Y-0.9431
X0.939 Y-0.9425
X0.9417 Y-0.9402
X0.9427 Y-0.9368
X0.9419 Y-0.9335
G3 X0.9395 Y-0.9302 I-0.0333 J-0.021 F50.
X0.9287 Y-0.9387 I-0.0054 J-0.0043
X0.9303 Y-0.9402 I0.0054 J0.0043
G1 X0.9403 Y-0.9463 F60.
X0.9456 Y-0.9491
X0.9479 Y-0.9482
X0.949 Y-0.9461
X0.9483 Y-0.9437
G3 X0.9453 Y-0.9402 I-0.0311 J-0.0242 F50.
G1 X0.9386 Y-0.9432
X0.9403 Y-0.9463
X0.9455 Y-0.9494 F60.
X0.9473 Y-0.9508
X0.9498 Y-0.9526
X0.9515 Y-0.9521
X0.9525 Y-0.9506
X0.952 Y-0.9488
X0.9508 Y-0.9473 F50.
X0.9465 Y-0.949
X0.9473 Y-0.9508
X0.9507 Y-0.9535 F60.
X0.9519 Y-0.9547
X0.953 Y-0.9557
X0.9548 Y-0.9552
X0.9556 Y-0.9536
X0.9549 Y-0.952
G3 X0.952 Y-0.9506 I-0.0037 J-0.0038 F50.
G1 X0.9508 Y-0.9515
X0.9501 Y-0.9521
X0.9493 Y-0.9515
X0.9498 Y-0.9507
X0.9516 Y-0.9505
X0.9534 Y-0.951
X0.9549 Y-0.952
X0.9575 Y-0.9546 F60.
X0.9585 Y-0.9557
X0.9582 Y-0.9574
X0.9567 Y-0.9583
X0.9551 Y-0.9577
G2 X0.9536 Y-0.9548 I0.0038 J0.0037 F50.
G1 X0.9545 Y-0.9536
X0.9552 Y-0.9528
X0.9545 Y-0.9521
X0.9538 Y-0.9526
X0.9536 Y-0.9544
X0.9541 Y-0.9562
X0.9551 Y-0.9577
X0.958 Y-0.9605 F60.
X0.9591 Y-0.9616
X0.9607 Y-0.9611
X0.9615 Y-0.9597
X0.9609 Y-0.9581
G3 X0.958 Y-0.9567 I-0.0037 J-0.0038 F50.
G1 X0.9568 Y-0.9576
X0.9561 Y-0.9582
X0.9553 Y-0.9576
X0.9558 Y-0.9568
X0.9576 Y-0.9566
X0.9594 Y-0.9571
X0.9609 Y-0.9581
X0.9633 Y-0.9605 F60.
X0.9643 Y-0.9616
X0.964 Y-0.9634
X0.9623 Y-0.9643
X0.9606 Y-0.9636
G2 X0.9595 Y-0.9605 I0.0041 J0.0033 F50.
G1 X0.9605 Y-0.9594
X0.9612 Y-0.9587
X0.9606 Y-0.9579
X0.9598 Y-0.9583
X0.9595 Y-0.9601
X0.9598 Y-0.962
X0.9606 Y-0.9636
X0.963 Y-0.9664 F60.
X0.9641 Y-0.9675
X0.9663 Y-0.9672
X0.9673 Y-0.9652
X0.9665 Y-0.9632
X0.9663 Y-0.9631 F50.
X0.963 Y-0.9664
X0.9653 Y-0.9691 F60.
X0.9664 Y-0.9702
X0.9689 Y-0.9701
X0.9703 Y-0.968
X0.9694 Y-0.9656
X0.969 Y-0.9654 F50.
X0.9653 Y-0.9691
X0.9685 Y-0.9728 F60.
X0.9696 Y-0.9739
X0.9725 Y-0.9737
X0.974 Y-0.9712
X0.9728 Y-0.9685
X0.9685 Y-0.9728 F50.
X0.9717 Y-0.9766 F60.
X0.9727 Y-0.9777
X0.9752 Y-0.9779
X0.9773 Y-0.9764
X0.9778 Y-0.9739
X0.9766 Y-0.9717
X0.9717 Y-0.9766 F50.
X0.9751 Y-0.9807 F60.
X0.9772 Y-0.9829
X0.98 Y-0.9828
X0.9822 Y-0.9809
X0.9827 Y-0.9781
X0.9812 Y-0.9756
X0.9806 Y-0.9751 F50.
X0.9751 Y-0.9807
X0.9792 Y-0.9855 F60.
X0.9813 Y-0.9877
X0.9846 Y-0.9878
X0.9871 Y-0.9858
X0.9878 Y-0.9826
X0.9861 Y-0.9797
X0.9854 Y-0.9792 F50.
X0.9842 Y-0.9785
X0.9828 Y-0.9783
X0.9792 Y-0.9855
X0.9843 Y-0.9915 F60.
X0.9863 Y-0.9937
X0.9901 Y-0.9938
X0.993 Y-0.9914
X0.9936 Y-0.9877
X0.9918 Y-0.9845
X0.9915 Y-0.9843 F50.
G3 X0.9843 Y-0.9915 I-0.0031 J-0.0041
G1 X0.9896 Y-0.9978 F60.
X0.9917 Y-1.
X0.9951 Y-1.0004
X0.9981 Y-0.9989
X0.9999 Y-0.996
X0.9998 Y-0.9926
X0.998 Y-0.9898
X0.9978 Y-0.9896 F50.
G3 X0.9896 Y-0.9978 I-0.0036 J-0.0046
G1 X0.9951 Y-1.0042 F60.
X0.9959 Y-1.0051
X0.9975 Y-1.006
X0.9983 Y-1.0063
X1.0004 Y-1.0066
X1.0027 Y-1.006
X1.0044 Y-1.0048
X1.0048 Y-1.0044
X1.0057 Y-1.0031
X1.0061 Y-1.0025
X1.0065 Y-1.0007
Y-1.0001
X1.0063 Y-0.9981
X1.006 Y-0.9975
X1.0053 Y-0.9962
X1.0051 Y-0.9958
X1.0038 Y-0.9947
X0.9795 Y-0.9756
X0.9266 Y-0.934
G2 X0.9239 Y-0.9269 I0.0046 J0.0059
G3 X0.9213 Y-0.896 I-0.0614 J0.0104 F50.
G2 X0.9082 Y-0.8161 I0.2802 J0.0869 F60.
G3 X0.9004 Y-0.8034 I-0.0154 J-0.0006
G1 X0.8982 Y-0.8027 Z-0.2098
X0.896 Y-0.802 Z-0.2093
X0.8939 Y-0.8014 Z-0.2084
X0.8928 Z-0.2078
X0.8906 Y-0.8019 Z-0.206
X0.8886 Y-0.8023 Z-0.2038
X0.8872 Y-0.8027 Z-0.2013
X0.8862 Y-0.8029 Z-0.1986
X0.8858 Y-0.8031 Z-0.1966
X0.8857 Z-0.1946
G0 Z0.4
X2.4676 Y5.4067
Z-0.11
G3 X2.6077 Y5.3656 Z-0.1504 I0.0701 J-0.0205 F50.
X2.4676 Y5.4067 Z-0.1909 I-0.0701 J0.0205
X2.5273 Y5.3139 Z-0.2129 I0.0701 J-0.0205
X2.6107 Y5.3862 Z-0.235 I0.0104 J0.0723
X2.4647 I-0.073 J0.
X2.6104 Y5.3803 I0.073 J0.
G1 X2.6107 Y5.3862
G3 X2.6304 Y5.4345 I-0.0917 J0.0655 F60.
G1 X2.6292 Y5.4572
X2.6267 Y5.465
X2.6236 Y5.4725
X2.6201 Y5.4799
X2.616 Y5.4869
X2.6113 Y5.4937
X2.6063 Y5.5001
X2.6007 Y5.5061
X2.5948 Y5.5117
X2.5885 Y5.5168
X2.5818 Y5.5215
X2.5748 Y5.5257
X2.5675 Y5.5293
X2.56 Y5.5325
X2.5522 Y5.5351
X2.5443 Y5.5371
X2.5363 Y5.5385
X2.5282 Y5.5394
X2.52 Y5.5397
X2.5119 Y5.5393
X2.5038 Y5.5384
X2.4957 Y5.5369
X2.4878 Y5.5349
X2.4801 Y5.5323
X2.4726 Y5.5291
X2.4653 Y5.5254
X2.4583 Y5.5212
X2.4517 Y5.5164
X2.4454 Y5.5113
X2.4395 Y5.5056
X2.434 Y5.4996
X2.4405 Y5.3862
X2.4436 Y5.3393
X2.4447 Y5.3199
X2.4468 Y5.3119
X2.4495 Y5.304
X2.4528 Y5.2964
X2.4567 Y5.289
X2.4611 Y5.282
X2.466 Y5.2753
X2.4713 Y5.2689
X2.4772 Y5.263
X2.4834 Y5.2576
X2.49 Y5.2526
X2.497 Y5.2481
X2.5043 Y5.2441
X2.5119 Y5.2407
X2.5196 Y5.2378
X2.5276 Y5.2355
X2.5358 Y5.2339
X2.544 Y5.2328
X2.5523 Y5.2323
X2.5606 Y5.2325
X2.5688 Y5.2332
X2.577 Y5.2346
X2.5851 Y5.2365
X2.593 Y5.2391
X2.6007 Y5.2422
X2.6081 Y5.2459
X2.6153 Y5.2501
X2.6221 Y5.2548
X2.6285 Y5.2601
X2.6346 Y5.2658
X2.6402 Y5.2719
X2.6361 Y5.3393
X2.6329 Y5.3862
X2.6304 Y5.4345
G3 X2.6077 Y5.4473 I-0.0153 J-0.0008
X2.6165 Y5.4307 I0.0044 J-0.0083
X2.6179 Y5.4464 I-0.0044 J0.0083
X2.5989 Y5.4222 I-0.0095 J-0.0121
X2.622 Y5.4271 I0.0095 J0.0121
X2.6292 Y5.4572 I-0.0551 J0.029 F50.
G1 X2.6252 Y5.5338 F60.
X2.6223 Y5.5423
X2.6187 Y5.5505
X2.6146 Y5.5585
X2.6099 Y5.5662
X2.6047 Y5.5735
X2.5991 Y5.5804
X2.5929 Y5.5869
X2.5863 Y5.593
X2.5793 Y5.5986
X2.5719 Y5.6037
X2.5642 Y5.6082
X2.5562 Y5.6123
X2.5479 Y5.6157
X2.5394 Y5.6185
X2.5307 Y5.6208
X2.5219 Y5.6224
X2.513 Y5.6234
X2.504 Y5.6238
X2.4951 Y5.6236
X2.4861 Y5.6227
X2.4773 Y5.6212
X2.4686 Y5.6191
X2.46 Y5.6164
X2.4517 Y5.6131
X2.4436 Y5.6092
X2.4358 Y5.6048
X2.4283 Y5.5998
X2.4308 Y5.5736
X2.4346 Y5.499
G3 X2.4434 Y5.4864 I0.0153 J0.0013
X2.4834 Y5.5106 I0.0119 J0.0254
X2.4511 Y5.578 I-0.0787 J0.0037
X2.4383 Y5.5855 I-0.0463 J-0.0637 F50.
G2 X2.4296 Y5.5981 I0.0066 J0.0139
G1 X2.4285 Y5.6204 F60.
X2.4317 Y5.6286
X2.4356 Y5.6365
X2.4399 Y5.6441
X2.4448 Y5.6514
X2.4502 Y5.6583
X2.4561 Y5.6648
X2.4624 Y5.6709
X2.4692 Y5.6766
X2.4763 Y5.6817
X2.4837 Y5.6864
X2.4915 Y5.6905
X2.4995 Y5.6941
X2.5078 Y5.697
X2.5162 Y5.6994
X2.5248 Y5.7012
X2.5335 Y5.7024
X2.5423 Y5.703
X2.551
X2.5598 Y5.7023
X2.5685 Y5.701
X2.5771 Y5.6991
X2.5855 Y5.6967
X2.5937 Y5.6936
X2.6017 Y5.69
X2.6094 Y5.6858
X2.6168 Y5.6811
X2.6239 Y5.6759
X2.6306 Y5.6702
X2.6368 Y5.664
X2.6426 Y5.6574
X2.648 Y5.6505
G3 X2.6252 Y5.5338 I0.0565 J-0.0716
G2 X2.6101 Y5.5182 I-0.0154 J-0.0003
X2.5599 Y5.5735 I-0.0008 J0.0497
X2.6158 Y5.6402 I0.0782 J-0.0088
X2.6343 Y5.6433 I0.0223 J-0.0755 F50.
G3 X2.645 Y5.6483 I-0.0007 J0.0154
G1 X2.6542 Y5.6592 F60.
G3 X2.5063 Y5.7803 I-0.107 J0.0201
X2.4285 Y5.6204 I0.1001 J-0.1477
X2.4372 Y5.6078 I0.0153 J0.0013
X2.4784 Y5.6176 I0.0145 J0.0307
X2.5071 Y5.7529 I-0.1241 J0.097
X2.5028 Y5.7671 I-0.1528 J-0.0383 F50.
G2 X2.5056 Y5.7822 I0.0145 J0.0051
G1 X2.5291 Y5.8079 F60.
X2.5377 Y5.8173
G2 X2.7328 Y5.7441 I0.0716 J-0.1058
G3 X2.661 Y5.6673 I1.2918 J-1.2788
G1 X2.6542 Y5.6592
G2 X2.6395 Y5.6545 I-0.0114 J0.0103
X2.6208 Y5.6866 I0.0053 J0.0246
X2.7011 Y5.7418 I0.0752 J-0.0234
X2.7158 Y5.7394 I-0.0051 J-0.0786 F50.
G3 X2.7306 Y5.7435 I0.0039 J0.0149
G1 X2.7466 Y5.761 F60.
G3 X2.6326 Y5.9214 I-0.1077 J0.0442
G1 X2.5548 Y5.836
X2.5377 Y5.8173
G3 X2.5507 Y5.792 I0.0117 J-0.0099
X2.5689 Y5.7976 I-0.0037 J0.0447
X2.629 Y5.8911 I-0.0576 J0.1031
Y5.9099 I-0.1177 J0.0096 F50.
G2 X2.6326 Y5.9211 I0.0153 J0.0012
G1 X2.6523 Y5.9426 F60.
G2 X2.8339 Y5.8552 I0.0622 J-0.1031
G1 X2.7806 Y5.7981
X2.7716 Y5.7884
X2.7466 Y5.761
G2 X2.7318 Y5.7569 I-0.0109 J0.0108
X2.7196 Y5.7722 I0.0041 J0.0158
X2.8032 Y5.8533 I0.0787 J0.0024
X2.8179 Y5.8509 I-0.0049 J-0.0786 F50.
G3 X2.8326 Y5.8551 I0.0038 J0.0149
G1 X2.8493 Y5.8733 F60.
G3 X2.7427 Y6.0419 I-0.106 J0.0509
G2 X2.6523 Y5.9426 I-8.2212 J7.3947
G3 X2.6652 Y5.9173 I0.0117 J-0.01
X2.6943 Y5.9286 I-0.0042 J0.0537
X2.7389 Y6.0113 I-0.073 J0.0928
X2.739 Y6.0301 I-0.1177 J0.0102 F50.
G2 X2.7427 Y6.0413 I0.0153 J0.0011
G1 X2.7618 Y6.0622 F60.
G2 X2.9398 Y5.9711 I0.0591 J-0.1041
G3 X2.8493 Y5.8733 I6.7452 J-6.3351
G2 X2.8345 Y5.8692 I-0.011 J0.0108
X2.8267 Y5.8777 I0.0026 J0.0102
G1 X2.8264 Y5.8803
G2 X2.9044 Y5.9693 I0.0781 J0.0103
G1 X2.9093 Y5.9692
G2 X2.924 Y5.9668 I-0.0049 J-0.0786 F50.
G3 X2.9388 Y5.971 I0.0038 J0.0149
G1 X2.9568 Y5.9908 F60.
G3 X2.8498 Y6.16 I-0.1076 J0.0504
G2 X2.7618 Y6.0622 I-2.8698 J2.4947
G3 X2.7591 Y6.0471 I0.0117 J-0.0099
X2.7726 Y6.0375 I0.0137 J0.0049
X2.8512 Y6.1296 I0.0011 J0.0787
X2.8473 Y6.1439 I-0.0776 J-0.0134 F50.
G2 X2.8498 Y6.1591 I0.0144 J0.0054
G1 X2.8652 Y6.1765 F60.
G2 X3.0461 Y6.0896 I0.0642 J-0.0982
G3 X2.9568 Y5.9908 I5.5608 J-5.1153
G2 X2.9421 Y5.9866 I-0.011 J0.0108
X2.9344 Y5.9949 I0.0026 J0.0101
G1 X2.9339 Y5.9978
G2 X3.0162 Y6.0875 I0.078 J0.0111
X3.0308 Y6.0853 I-0.0043 J-0.0786 F50.
G3 X3.0456 Y6.0895 I0.0037 J0.0149
G1 X3.0524 Y6.097 F60.
X3.0642 Y6.11
G3 X2.9565 Y6.2779 I-0.1087 J0.0488
G1 X2.912 Y6.2283
X2.8706 Y6.1827
X2.8652 Y6.1765
G3 X2.8786 Y6.1515 I0.0119 J-0.0097
X2.9126 Y6.1661 I-0.0061 J0.0609
X2.9531 Y6.2468 I-0.0773 J0.0893
X2.9529 Y6.2657 I-0.1178 J0.0086 F50.
G2 X2.9565 Y6.2769 I0.0153 J0.0013
G1 X2.9588 Y6.2795 F60.
X2.9762 Y6.2985
G2 X3.1536 Y6.2066 I0.0581 J-0.1051
G3 X3.0642 Y6.11 I4.1961 J-3.9734
G2 X3.0494 Y6.1059 I-0.011 J0.0108
X3.0395 Y6.1173 I0.0033 J0.0129
X3.123 Y6.2047 I0.0782 J0.0089
X3.1376 Y6.2024 I-0.0052 J-0.0786 F50.
G3 X3.1524 Y6.2064 I0.0039 J0.0149
G1 X3.1692 Y6.2246 F60.
G3 X3.0643 Y6.3954 I-0.1055 J0.0529
G2 X2.9762 Y6.2985 I-12.057 J10.8667
G3 X2.9734 Y6.2834 I0.0117 J-0.01
X2.9845 Y6.2748 I0.0122 J0.0043
G1 X2.9914
X2.9983 Y6.2755
X3.0051 Y6.2768
X3.0118 Y6.2786
X3.0182 Y6.2811
X3.0245 Y6.2841
X3.0304 Y6.2876
X3.036 Y6.2916
X3.0413 Y6.2961
X3.0461 Y6.3011
X3.0504 Y6.3064
X3.0543 Y6.3122
X3.0577 Y6.3182
X3.0605 Y6.3245
X3.0628 Y6.3311
X3.0644 Y6.3378
X3.0655 Y6.3446
X3.066 Y6.3515
X3.0659 Y6.3584
X3.0651 Y6.3653
G3 X3.0615 Y6.3797 I-0.0778 J-0.0118 F50.
G2 X3.0643 Y6.3948 I0.0145 J0.0051
G1 X3.0803 Y6.4122 F60.
G2 X3.2603 Y6.3235 I0.063 J-0.0991
G3 X3.1692 Y6.2246 I4.7108 J-4.4296
G2 X3.1474 Y6.2245 I-0.0109 J0.0108
X3.1428 Y6.2502 I0.016 J0.0162
X3.2301 Y6.3171 I0.1072 J-0.0495
X3.2488 Y6.3188 I0.02 J-0.1164 F50.
G3 X3.2596 Y6.3234 I-0.0002 J0.0154
G1 X3.2774 Y6.3429 F60.
G3 X3.1715 Y6.5125 I-0.1069 J0.0511
G1 X3.1459 Y6.4839
X3.1276 Y6.4638
X3.0803 Y6.4122
G3 X3.0932 Y6.3869 I0.0117 J-0.01
X3.1268 Y6.4008 I-0.0046 J0.0588
X3.168 Y6.4816 I-0.0766 J0.0899
X3.1679 Y6.5005 I-0.1178 J0.009 F50.
G2 X3.1715 Y6.5117 I0.0153 J0.0013
G1 X3.1882 Y6.53 F60.
G2 X3.3676 Y6.4406 I0.0621 J-0.1001
G1 X3.3024 Y6.3701
X3.2814 Y6.3473
X3.2774 Y6.3429
G2 X3.2626 Y6.3388 I-0.011 J0.0108
X3.2549 Y6.3473 I0.0026 J0.0102
G1 X3.2545 Y6.3499
G2 X3.3375 Y6.4388 I0.0781 J0.0103
X3.3521 Y6.4365 I-0.005 J-0.0786 F50.
G3 X3.3669 Y6.4406 I0.0038 J0.0149
G1 X3.3845 Y6.4597 F60.
X3.3879 Y6.4674
X3.3908 Y6.4752
X3.3931 Y6.4833
X3.3948 Y6.4915
X3.3959 Y6.4997
X3.3965 Y6.5081
X3.3964 Y6.5165
X3.3958 Y6.5248
X3.3945 Y6.5331
X3.3927 Y6.5413
X3.3903 Y6.5493
X3.3873 Y6.5571
X3.3838 Y6.5647
X3.3797 Y6.572
X3.3752 Y6.579
X3.3701 Y6.5857
X3.3646 Y6.592
X3.3587 Y6.5979
X3.3523 Y6.6033
X3.3456 Y6.6083
X3.3385 Y6.6128
X3.3312 Y6.6168
X3.3235 Y6.6202
X3.3157 Y6.6231
X3.3076 Y6.6254
X3.2995 Y6.6272
X3.2912 Y6.6283
X3.2886 Y6.6272
X3.2863 Y6.6257
X3.2843 Y6.6237
X3.2827 Y6.6213
X3.2816 Y6.6187
X3.281 Y6.6159
X3.2809 Y6.613
X3.2814 Y6.6101
X3.2825 Y6.6074
X3.2844 Y6.6039
X3.3589 Y6.465
X3.3599 Y6.4632 F50.
G3 X3.3845 Y6.4597 I0.0135 J0.0073
X3.2758 Y6.6239 I-0.0544 J0.0821 F60.
X3.2416 Y6.5849 I0.0544 J-0.0821
G1 X3.2136 Y6.5575
X3.1927 Y6.535
X3.1882 Y6.53
G3 X3.1959 Y6.5052 I0.0117 J-0.0099
G1 X3.1988 Y6.5045 Z-0.2347
X3.2016 Y6.5037 Z-0.2338
X3.2042 Y6.503 Z-0.2324
X3.2064 Y6.5024 Z-0.2305
X3.2083 Y6.5019 Z-0.2282
X3.2096 Y6.5016 Z-0.2255
X3.2105 Y6.5013 Z-0.2226
X3.2108 Z-0.2196
G0 Z-0.2043
X2.6208 Y5.3143
G1 Z-0.2196 F50.
X2.621 Y5.3141 Z-0.2226
X2.6215 Y5.3133 Z-0.2255
X2.6223 Y5.3121 Z-0.2282
X2.6233 Y5.3106 Z-0.2305
X2.6246 Y5.3086 Z-0.2324
X2.6261 Y5.3064 Z-0.2338
X2.6277 Y5.304 Z-0.2347
X2.6294 Y5.3015 Z-0.235
G2 X2.6396 Y5.2723 I-0.0518 J-0.0346
G1 X2.6414 Y5.2385 F60.
G2 X2.4515 Y5.1778 I-0.1144 J0.0304
G1 X2.4462 Y5.2925
X2.4447 Y5.3199
G2 X2.4521 Y5.3333 I0.0154 J0.0003
X2.5166 Y5.2991 I0.0221 J-0.0364
X2.4718 Y5.2004 I-0.118 J-0.006
X2.4596 Y5.1919 I-0.0731 J0.0928 F50.
G3 X2.4522 Y5.1785 I0.0079 J-0.0132
G1 X2.4535 Y5.1519 F60.
G3 X2.6477 Y5.1051 I0.1123 J0.0397
G1 X2.6472 Y5.1059
X2.6199 Y5.1165
X2.4563 Y5.1803
X2.4576 Y5.1872
X2.4607 Y5.182
G3 X2.4535 Y5.1519 I0.0551 J-0.029 F50.
G1 X2.456 Y5.105 F60.
X2.4665 Y5.0687
G3 X2.5955 Y5.0199 I0.0885 J0.0388
X2.6418 Y5.1499 I-0.0406 J0.0877
G1 X2.6414 Y5.2385
X2.6501 Y5.2427
X2.6584 Y5.2474
X2.6665 Y5.2527
X2.6743 Y5.2584
X2.6816 Y5.2646
X2.6886 Y5.2712
X2.6951 Y5.2783
X2.7012 Y5.2858
X2.7068 Y5.2936
X2.7119 Y5.3017
X2.7165 Y5.3102
X2.7205 Y5.3189
X2.724 Y5.3279
X2.727 Y5.337
X2.7293 Y5.3464
X2.7311 Y5.3558
X2.7323 Y5.3654
X2.7329 Y5.375
X2.7328 Y5.3846
X2.7322 Y5.3942
X2.731 Y5.4037
X2.7292 Y5.4132
X2.7268 Y5.4225
X2.7239 Y5.4316
X2.7203 Y5.4406
G2 X2.8867 Y5.7552 I0.3617 J0.01
G1 X3.0098 Y5.894
X3.1324 Y6.0333
X3.2546 Y6.1729
X3.3763 Y6.313
X3.4975 Y6.4534
G3 X3.2785 Y6.7212 I-0.1671 J0.0868
X2.8783 Y6.3396 I0.9247 J-1.3705
G1 X2.6911 Y6.1331
X2.5447 Y5.9731
G3 X2.3542 Y5.7314 I0.4493 J-0.55
X2.3606 Y5.1156 I2.1855 J-0.2852
X2.5598 Y4.9228 I0.1897 J-0.0032
X2.7388 Y5.1344 I-0.0094 J0.1895
X2.8267 Y5.5207 I-0.5571 J0.3298
G2 X3.4593 Y6.2454 I5.2905 J-3.9803
G3 X3.4803 Y6.2689 I-0.0603 J0.0748
G1 X3.5833 Y6.4628
X3.5878 Y6.4748
X3.5918 Y6.487
X3.5951 Y6.4993
X3.5978 Y6.5118
X3.5999 Y6.5245
X3.6014 Y6.5372
X3.6023 Y6.55
X3.6025 Y6.5628
X3.6021 Y6.5756
X3.6011 Y6.5883
X3.5995 Y6.601
X3.5972 Y6.6136
X3.5944 Y6.6261
X3.5909 Y6.6384
X3.5868 Y6.6506
X3.5821 Y6.6625
X3.5769 Y6.6742
X3.5711 Y6.6856
X3.5647 Y6.6967
X3.5578 Y6.7075
X3.5504 Y6.7179
X3.5425 Y6.728
X3.5341 Y6.7377
X3.5252 Y6.7469
X3.5159 Y6.7557
X3.5062 Y6.764
X3.496 Y6.7719
X3.4855 Y6.7792
X3.4747 Y6.786
X3.4635 Y6.7923
X3.4521 Y6.798
X3.4403 Y6.8032
X3.4284 Y6.8077
X3.4162 Y6.8117
X3.4039 Y6.8151
X3.3914 Y6.8179
X3.3787 Y6.82
X3.366 Y6.8216
X3.3533 Y6.8225
X3.3405 Y6.8228
X3.3277 Y6.8224
X3.3149 Y6.8215
X3.3022 Y6.8199
X3.2896 Y6.8177
X3.2771 Y6.8148
X3.2647 Y6.8114
X3.1059 Y6.7087
G3 X2.2691 Y5.7991 I6.2076 J-6.5505
X2.2402 Y5.3966 I1.0694 J-0.2791
G1 X2.2518 Y5.1801
G3 X2.2693 Y5.0576 I0.645 J0.0297
X2.2863 Y5.0093 I0.1325 J0.0194
G1 X2.3248 Y4.9522
G3 X2.7737 Y4.9398 I0.2287 J0.1477
G1 X2.7973 Y4.9831
G3 X2.9357 Y5.487 I-1.1775 J0.5944
G2 X3.2935 Y5.9137 I2.0379 J-1.3454
G1 X3.4803 Y6.2689
G3 X3.4793 Y6.2843 I-0.0138 J0.0067
X3.4528 Y6.296 I-0.0225 J-0.0152
X3.2833 Y5.9429 I0.0344 J-0.2337
G1 X3.2912 Y5.9303 F50.
G2 X3.2923 Y5.915 I-0.0127 J-0.0086
G1 X3.1292 Y5.608 F60.
G3 X3.0299 Y5.421 I0.2816 J-0.2694
G1 X2.7973 Y4.9831
G3 X2.7706 Y4.9984 I-0.0133 J0.0077
X2.773 Y4.98 I0.0133 J-0.0077
G1 X2.7782 Y4.9747
X2.7793 Y4.9732
X2.78 Y4.9716
X2.7803 Y4.9698
G2 X2.7741 Y4.9395 I-0.0622 J-0.003 F50.
G1 X2.7062 Y4.8117 F60.
G2 X2.4635 Y4.747 I-0.1682 J0.1429
G1 X2.3248 Y4.9522
G2 X2.3508 Y4.9686 I0.013 J0.0082
X2.3453 Y4.947 I-0.013 J-0.0082
X2.324 Y4.9536 I-0.0075 J0.0134
G1 X2.3029 Y4.9967
G2 X2.3304 Y5.0102 I0.0138 J0.0068
X2.3101 Y4.9895 I-0.0138 J-0.0068
X2.2863 Y5.0093 I0.0265 J0.0564 F50.
G1 X2.1879 Y5.1548 F60.
G2 X2.2277 Y5.9231 I0.9607 J0.3355
G1 X2.3873 Y6.0972
X2.5465 Y6.2716
X2.7055 Y6.4462
X3.1059 Y6.7087
G2 X3.1218 Y6.6824 I0.008 J-0.0131
X3.1007 Y6.6876 I-0.008 J0.0131
X3.106 Y6.7087 I0.0132 J0.0079
G1 X3.2503 Y6.7955
G2 X3.2661 Y6.7691 I0.0079 J-0.0132
X3.2444 Y6.789 I-0.0079 J0.0132
X3.2644 Y6.8126 I0.056 J-0.0273 F50.
G1 X3.356 Y6.8726 F60.
X3.3682 Y6.8754
X3.3805 Y6.8777
X3.393 Y6.8793
X3.4055 Y6.8803
X3.418 Y6.8808
X3.4305 Y6.8806
X3.443 Y6.8799
X3.4555 Y6.8785
X3.4679 Y6.8766
X3.4801 Y6.8741
X3.4923 Y6.871
X3.5043 Y6.8673
X3.516 Y6.8631
X3.5276 Y6.8583
X3.539 Y6.8529
X3.55 Y6.8471
X3.5608 Y6.8407
X3.5713 Y6.8338
X3.5814 Y6.8264
X3.5912 Y6.8186
X3.6005 Y6.8102
X3.6095 Y6.8015
X3.6181 Y6.7923
X3.6262 Y6.7828
X3.6338 Y6.7728
X3.6409 Y6.7625
X3.6476 Y6.7519
X3.6537 Y6.741
X3.6594 Y6.7298
X3.6644 Y6.7184
X3.669 Y6.7067
X3.6729 Y6.6948
X3.6763 Y6.6827
X3.6792 Y6.6705
X3.6814 Y6.6582
X3.6857 Y6.6562
X3.6847 Y6.6537
X3.5833 Y6.4628
G2 X3.57 Y6.4551 I-0.0133 J0.0077
X3.5172 Y6.5194 I-0.0001 J0.0537
X3.6566 Y6.6453 I0.1544 J-0.0308
X3.6714 Y6.646 I0.015 J-0.1568 F50.
G3 X3.6847 Y6.6537 I0. J0.0154
G1 X3.7112 Y6.7036 F60.
G3 X3.5016 Y6.9681 I-0.2471 J0.0194
G1 X3.356 Y6.8726
G3 X3.3496 Y6.8587 I0.0089 J-0.0126
X3.3891 Y6.8259 I0.036 J0.0033
X3.4956 Y6.9393 I-0.0116 J0.1175
X3.4952 Y6.9542 I-0.118 J0.0042 F50.
G2 X3.5016 Y6.9681 I0.0153 J0.0014
G1 X3.5346 Y6.9897 F60.
G2 X3.7865 Y6.8452 I0.0526 J-0.2
G1 X3.7112 Y6.7036
G2 X3.698 Y6.6959 I-0.0133 J0.0077
X3.6582 Y6.7457 I-0.0001 J0.0407
X3.7584 Y6.8366 I0.1152 J-0.0263
X3.7732 Y6.8376 I0.015 J-0.1172 F50.
G3 X3.7865 Y6.8452 I0. J0.0154
G1 X3.805 Y6.8801 F60.
X3.8069 Y6.8899
X3.8082 Y6.8998
X3.809 Y6.9097
X3.8091 Y6.9197
X3.8086 Y6.9297
X3.8075 Y6.9396
X3.8059 Y6.9494
X3.8036 Y6.9591
X3.8007 Y6.9687
X3.7973 Y6.978
X3.7933 Y6.9872
X3.7888 Y6.9961
X3.7837 Y7.0046
X3.7781 Y7.0129
X3.7721 Y7.0208
X3.7656 Y7.0284
X3.7586 Y7.0355
X3.7512 Y7.0422
X3.7434 Y7.0484
X3.7353 Y7.0542
X3.7268 Y7.0594
X3.718 Y7.0641
X3.7089 Y7.0683
X3.6997 Y7.072
X3.6902 Y7.075
X3.6805 Y7.0775
X3.6707 Y7.0794
X3.5346 Y6.9897
G3 X3.5282 Y6.9758 I0.0089 J-0.0126
X3.5794 Y6.9408 I0.04 J0.0036
X3.6646 Y7.0501 I-0.0328 J0.1135
X3.6642 Y7.0649 I-0.118 J0.0042 F50.
G2 X3.6706 Y7.0789 I0.0153 J0.0014
G1 X3.6995 Y7.0978 F60.
G2 X3.8755 Y7.0128 I0.0469 J-0.1276
G1 X3.805 Y6.8801
G2 X3.7917 Y6.8724 I-0.0133 J0.0077
X3.7523 Y6.9299 I-0.0001 J0.0422
X3.8474 Y7.0042 I0.11 J-0.0429
X3.8622 Y7.0051 I0.015 J-0.1172 F50.
G3 X3.8755 Y7.0128 I0. J0.0154
G1 X3.8913 Y7.0426 F60.
G3 X3.8177 Y7.1768 I-0.1036 J0.0305
G1 X3.6995 Y7.0978
G3 X3.6958 Y7.0764 I0.0089 J-0.0126
X3.7146 Y7.0686 I0.0155 J0.011
X3.8063 Y7.1468 I-0.02 J0.1164
X3.8109 Y7.165 I-0.1117 J0.0383 F50.
G2 X3.8172 Y7.175 I0.0151 J-0.0026
G1 X3.8401 Y7.19 F60.
G2 X3.9506 Y7.1507 I0.0354 J-0.0753
G1 X3.8913 Y7.0426
G2 X3.878 Y7.0349 I-0.0133 J0.0077
X3.8567 Y7.0539 I0. J0.0214
X3.92 Y7.1404 I0.0782 J0.0092
X3.9348 Y7.1418 I0.0149 J-0.0773 F50.
G3 X3.9481 Y7.1495 I0. J0.0154
G1 X3.9584 Y7.1689 F60.
X3.9605 Y7.1745
X3.9621 Y7.1803
X3.9631 Y7.1861
X3.9635 Y7.1921
X3.9633 Y7.1981
X3.9626 Y7.204
X3.9613 Y7.2098
X3.9594 Y7.2155
X3.9569 Y7.2209
X3.9539 Y7.2261
X3.9505 Y7.231
X3.9466 Y7.2355
X3.9422 Y7.2396
X3.9375 Y7.2432
X3.9325 Y7.2464
X3.9271 Y7.2491
X3.9245 Y7.2472
X3.9224 Y7.2449
X3.9208 Y7.2423
X3.9196 Y7.2395
X3.9191 Y7.2366
Y7.2337
X3.9196 Y7.2308
X3.922 Y7.2176
X3.93 Y7.1738
X3.9309 Y7.1707
X3.9325 Y7.1678
G3 X3.9584 Y7.1689 I0.0126 J0.0088 F50.
G1 X3.9876 Y7.2239 F60.
G3 X3.972 Y7.2764 I-0.0196 J0.0227
X3.9612 Y7.2235 I0.0227 J-0.0322
X3.9876 Y7.2239 I0.0131 J0.0081 F50.
G1 X4.0112 Y7.2684 F60.
X4.0138 Y7.2738
X4.015 Y7.2797
X4.0151 Y7.2857
X4.0149 Y7.2873
X4.0129 Y7.2919
X4.0089 Y7.295
X4.004 Y7.2959
X3.9992 Y7.2943
G3 X3.9879 Y7.2819 I0.0227 J-0.0322
X3.9868 Y7.2708 I0.0117 J-0.0068
X4.0112 Y7.2684 I0.0128 J0.0043 F50.
G1 X4.0196 Y7.2841 F60.
X4.0198 Y7.2846
X4.0231 Y7.2952
X4.0229 Y7.2972
Y7.2977
X4.022 Y7.2996
X4.0216 Y7.3
X4.0204 Y7.3011
X4.0199 Y7.3015
X4.018 Y7.3022
X4.0176 Y7.3023
X4.0154
X4.0138 Y7.3017
X4.0049 Y7.298
X3.8401 Y7.19
G3 X3.8414 Y7.1641 I0.0089 J-0.0126
G1 X3.8441 Y7.1626 Z-0.2347
X3.8466 Y7.1612 Z-0.2338
X3.8489 Y7.1599 Z-0.2324
X3.8509 Y7.1587 Z-0.2305
X3.8526 Y7.1578 Z-0.2282
X3.8538 Y7.1571 Z-0.2255
X3.8546 Y7.1566 Z-0.2226
X3.8548 Y7.1565 Z-0.2196
G0 Z-0.2043
X2.7504 Y6.4559
G1 Z-0.2196 F50.
X2.7501 Z-0.2226
X2.7493 Y6.4558 Z-0.2255
X2.7478 Z-0.2282
X2.7459 Y6.4557 Z-0.2305
X2.7436 Y6.4556 Z-0.2324
X2.741 Y6.4555 Z-0.2338
X2.7381 Y6.4553 Z-0.2347
X2.7351 Y6.4552 Z-0.235
G3 X2.7055 Y6.4462 I0.0027 J-0.0622
G1 X2.4271 Y6.2637 F60.
G3 X2.045 Y5.3676 I0.5082 J-0.7462
G1 X2.1879 Y5.1548
G3 X2.202 Y5.1485 I0.0124 J0.009
X2.2289 Y5.173 I-0.0032 J0.0306
X2.0731 Y5.3621 I-0.1543 J0.0317
X2.0583 Y5.3613 I0.0016 J-0.1575 F50.
G2 X2.0442 Y5.3675 I-0.0016 J0.0153
G1 X1.977 Y5.467 F60.
G2 X2.0449 Y5.9816 I0.5831 J0.1849
X2.0805 Y6.0366 I0.1098 J-0.0322
G1 X2.4271 Y6.2637
G2 X2.435 Y6.266 I0.008 J-0.0131
X2.4482 Y6.2586 I0. J-0.0154
X2.4506 Y6.2072 I-0.046 J-0.0279
X2.1106 Y6.0344 I-0.2836 J0.137
G1 X2.0922 Y6.0384 F50.
G3 X2.0805 Y6.0366 I-0.0037 J-0.0149
G1 X1.9626 Y5.9593 F60.
G3 X1.8491 Y5.6563 I0.3374 J-0.2991
G1 X1.977 Y5.467
G3 X1.9911 Y5.4607 I0.0124 J0.009
X2.0351 Y5.5181 I-0.0052 J0.0496
X1.878 Y5.6509 I-0.1555 J-0.0247
X1.8631 Y5.6501 I0.0016 J-0.1575 F50.
G2 X1.8491 Y5.6563 I-0.0016 J0.0153
G1 X1.8026 Y5.7251 F60.
G2 X1.7928 Y5.8479 I0.1212 J0.0716
G1 X1.9626 Y5.9593
G2 X1.9706 Y5.9615 I0.008 J-0.0131
X1.983 Y5.937 I0. J-0.0154
G1 X1.8287 Y5.7267
X1.8275 Y5.725 F50.
G2 X1.8026 Y5.7251 I-0.0124 J0.0091
X1.7473 Y5.8114 I0.1791 J0.1758 F60.
X1.7928 Y5.8479 I0.0466 J-0.0115
X1.8092 Y5.8476 I0.008 J-0.0131
G1 X1.8117 Y5.846 Z-0.2347
X1.8141 Y5.8444 Z-0.2338
X1.8163 Y5.8429 Z-0.2324
X1.8183 Y5.8416 Z-0.2305
X1.8199 Y5.8406 Z-0.2282
X1.8211 Y5.8398 Z-0.2255
X1.8218 Y5.8393 Z-0.2226
X1.822 Y5.8391 Z-0.2196
G0 Z-0.2043
X2.4532 Y4.7918
G1 Z-0.2196 F50.
Y4.7915 Z-0.2226
X2.4533 Y4.7906 Z-0.2255
X2.4534 Y4.7892 Z-0.2282
X2.4535 Y4.7873 Z-0.2305
X2.4536 Y4.7849 Z-0.2324
X2.4538 Y4.7823 Z-0.2338
X2.4539 Y4.7794 Z-0.2347
X2.4541 Y4.7764 Z-0.235
G3 X2.4635 Y4.747 I0.0622 J0.0036
G1 X2.4926 Y4.7039 F60.
G3 X2.6279 Y4.6613 I0.099 J0.0784
G1 X2.6292 Y4.6643
X2.6298 Y4.6674
Y4.6706
X2.6293 Y4.6737
X2.6281 Y4.6766
X2.6264 Y4.6792
X2.6243 Y4.6814
X2.6219 Y4.6831
X2.6191 Y4.6843
X2.614 Y4.6863
G3 X2.5038 Y4.7273 I-0.1159 J-0.1431
X2.4926 Y4.7039 I0.0018 J-0.0153 F50.
G1 X2.5463 Y4.6244 F60.
G3 X2.5931 Y4.5991 I0.0313 J0.002
X2.5918 Y4.6163 I-0.0133 J0.0077
G1 X2.584 Y4.6261
X2.5714 Y4.6421
G3 X2.5575 Y4.6478 I-0.012 J-0.0096
X2.5463 Y4.6244 I0.0018 J-0.0153 F50.
X2.5798 Y4.5833 I0.0386 J-0.0026 F60.
X2.5943 Y4.601 I-0.0061 J0.0198
G1 X2.7062 Y4.8117
G3 X2.6926 Y4.8338 I-0.0138 J0.0067
G1 X2.6896 Y4.8339 Z-0.2347
X2.6867 Z-0.2338
X2.6841 Z-0.2324
X2.6818 Y4.834 Z-0.2305
X2.6798 Z-0.2282
X2.6784 Z-0.2255
X2.6775 Z-0.2226
X2.6773 Z-0.2196
G0 Z-0.2043
X3.1347 Y5.6536
G1 Z-0.2196 F50.
Y5.6533 Z-0.2226
X3.1348 Y5.6525 Z-0.2255
Y5.651 Z-0.2282
X3.1349 Y5.6491 Z-0.2305
X3.135 Y5.6468 Z-0.2324
X3.1352 Y5.6442 Z-0.2338
X3.1353 Y5.6413 Z-0.2347
X3.1354 Y5.6383 Z-0.235
G2 X3.1292 Y5.608 I-0.0622 J-0.003
G1 X3.0299 Y5.421 F60.
G2 X3.0153 Y5.4134 I-0.0133 J0.0077
G1 X3.0124 Y5.4137 Z-0.2347
X3.0095 Y5.4139 Z-0.2338
X3.0068 Y5.4141 Z-0.2324
X3.0045 Y5.4143 Z-0.2305
X3.0026 Y5.4145 Z-0.2282
X3.0012 Y5.4146 Z-0.2255
X3.0003 Z-0.2226
X3. Y5.4147 Z-0.2196
G0 Z0.4
X-0.0701 Y0.0205
Z-0.11
G3 X0.0701 Y-0.0205 Z-0.1504 I0.0701 J-0.0205 F50.
X-0.0701 Y0.0205 Z-0.1909 I-0.0701 J0.0205
X-0.0104 Y-0.0723 Z-0.2129 I0.0701 J-0.0205
X0.073 Y0. Z-0.235 I0.0104 J0.0723
X-0.073 I-0.073 J0.
X0.0728 Y-0.0059 I0.073 J0.
G1 X0.073 Y0.
G3 X-0.0834 Y0.123 I-0.0818 J0.0568 F60.
X0.0803 Y-0.139 I0.0818 J-0.131
X0.1487 Y-0.0442 I-0.0818 J0.131
X-0.1493 Y0.1881 I-0.1593 J0.1029
X-0.1195 Y-0.2191 I0.1303 J-0.1952
X0.2628 Y-0.0614 I0.1152 J0.2628
X0.0906 Y0.3146 I-0.267 J0.1051
X-0.1232 Y-0.3193 I-0.1065 J-0.3171
X0.3593 Y-0.0742 I0.1189 J0.3635
X0.1138 Y0.408 I-0.3636 J0.1185
X-0.4394 Y0.0343 I-0.136 J-0.3949
X0.4374 Y-0.1008 I0.4435 J-0.0341
X0.2359 Y0.4583 I-0.4144 J0.1665
X-0.2684 Y-0.4691 I-0.2521 J-0.4637
X0.039 Y-0.5303 I0.2521 J0.4637
X0.5556 Y0.1739 I-0.049 J0.5776
X-0.2119 Y0.5906 I-0.5656 J-0.1266
X0.1963 Y-0.6035 I0.2053 J-0.5966
X-0.0714 Y0.7232 I-0.2114 J0.6477
X-0.2462 Y-0.6915 I0.0646 J-0.7261
X0.5946 Y0.5252 I0.2406 J0.7326
X-0.827 Y0.0098 I-0.6214 J-0.5042
X0.5937 Y-0.5826 I0.826 J-0.0189
X0.13 Y0.9084 I-0.6039 J0.6298
G1 X-0.1087 Y0.9082
G3 X-0.9067 Y0.203 I0.0717 J-0.8853
G1 X-0.9082 Y-0.1531
G3 X-0.2075 Y-0.9067 I0.8816 J0.1173
G1 X0.1491 Y-0.9082
G3 X0.9058 Y-0.2621 I-0.1212 J0.9081
G1 X0.9082 Y0.2918
G3 X0.4343 Y0.9061 I-0.8147 J-0.1385
G1 X0.1299 Y0.9082
G3 X0.1169 Y0.9 I0.0005 J-0.0154
X0.132 Y0.834 I0.0457 J-0.0243
X0.4147 Y0.8872 I0.1165 J0.1587
G1 X0.4222 Y0.9 F50.
G2 X0.4352 Y0.9082 I0.0136 J-0.0072
G1 X0.5475 F60.
G2 X0.8652 Y0.6618 I-0.1321 J-0.4984
X0.9082 Y0.5924 I-0.0885 J-0.1028
G1 Y0.2918
G2 X0.9 Y0.2788 I-0.0154 J0.0005
X0.8285 Y0.2969 I-0.0258 J0.0484
X0.8872 Y0.5719 I0.1641 J0.1087
G1 X0.9 Y0.5793 F50.
G3 X0.9082 Y0.5924 I-0.0072 J0.0136
G1 Y0.6899 F60.
G3 X0.7698 Y0.9082 I-0.3341 J-0.0589
G1 X0.5475
G3 X0.5344 Y0.9 I0.0005 J-0.0154
X0.5619 Y0.8269 I0.0459 J-0.0245
X0.7492 Y0.8873 I0.0559 J0.1472
X0.7568 Y0.9 I-0.1314 J0.0868 F50.
G2 X0.7698 Y0.9082 I0.0136 J-0.0072
G1 X0.8287 F60.
X0.8308 Y0.9084
G2 X0.9146 Y0.8713 I0.0152 J-0.0787
G3 X0.9082 Y0.6899 I0.5812 J-0.1114
G2 X0.878 Y0.6862 I-0.0154 J0.0005
G1 X0.82 Y0.8842
X0.8186 Y0.889 F50.
G2 X0.8308 Y0.9084 I0.0147 J0.0043
G3 X0.899 Y0.9224 I-0.0153 J0.2477 F60.
G1 X0.9046 Y0.9245
X0.9109 Y0.9257
X0.9179 Y0.926
X0.9209 Y0.9257
X0.9256 Y0.924
X0.9289 Y0.9202
X0.9301 Y0.9154
X0.9287 Y0.9105
X0.9257 Y0.9051
G2 X0.9157 Y0.8981 I-0.0131 J0.008
X0.9122 Y0.8978 I-0.0031 J0.015 F50.
G1 X0.9121 Y0.9031
X0.9153 Y0.9032
G3 X0.9287 Y0.9105 I0.0004 J0.0154
G1 X0.935 Y0.9216 F60.
X0.9377 Y0.927
X0.9369 Y0.9321
X0.9335 Y0.936
X0.9286 Y0.9375
X0.9237 Y0.9362
G3 X0.9209 Y0.9342 I0.0199 J-0.031
X0.919 Y0.9323 I0.0059 J-0.0076
X0.9215 Y0.9186 I0.0078 J-0.0056 F50.
X0.935 Y0.9216 I0.0053 J0.008
G1 X0.9364 Y0.9241 F60.
X0.9423 Y0.9343
X0.9451 Y0.9396
X0.9441 Y0.943
X0.941 Y0.9449
X0.9374 Y0.9443
G3 X0.9339 Y0.9418 I0.0212 J-0.0332 F50.
X0.9411 Y0.9329 I0.0036 J-0.0044
X0.9423 Y0.9343 I-0.0036 J0.0044
G1 X0.9459 Y0.9403 F60.
X0.9485 Y0.944
X0.9501 Y0.9466
X0.9494 Y0.9487
X0.9475 Y0.9498
X0.9453 Y0.9493
X0.9441 Y0.9483 F50.
X0.946 Y0.9428
X0.9485 Y0.944
X0.951 Y0.9476 F60.
X0.9519 Y0.9486
X0.9528 Y0.9498
X0.9525 Y0.9517
X0.9509 Y0.9527
X0.9491 Y0.9523
X0.9487 Y0.9519 F50.
X0.9502 Y0.9479
X0.9519 Y0.9486
X0.9546 Y0.9518 F60.
X0.9555 Y0.953
X0.9552 Y0.9546
X0.9537 Y0.9554
X0.9521 Y0.9549
X0.9517 Y0.9544 F50.
X0.9531 Y0.9511
X0.9546 Y0.9518
X0.9564 Y0.9539 F60.
X0.9575 Y0.955
X0.9585 Y0.9561
X0.9581 Y0.9576
X0.9567 Y0.9583
X0.9552 Y0.9578
G2 X0.899 Y0.9224 I-0.1291 J0.1428
G3 X0.897 Y0.9149 I0.0025 J-0.0047
X0.9047 Y0.9136 I0.0044 J0.0029
G1 X0.9152 Y0.9218
X0.9332 Y0.9359
X0.9575 Y0.955 F50.
X0.9598 Y0.9572 F60.
X0.9608 Y0.9583
X0.9606 Y0.9599
X0.9592 Y0.9607
X0.9577 Y0.9602
X0.9568 Y0.9588
X0.9387 Y0.9359
G2 X0.9577 Y0.9602 I0.1219 J-0.0758 F50.
G1 X0.9594 Y0.9621 F60.
X0.9604 Y0.9632
X0.9622 Y0.963
X0.9631 Y0.9615
X0.9625 Y0.9598
X0.9604 Y0.9609 Z-0.2337
Y0.9615 Z-0.2316
G0 Z0.4
X0.9241 Y0.9342
Z-0.2043
G1 Z-0.2196 F50.
X0.9243 Y0.9343 Z-0.2226
X0.9251 Y0.9347 Z-0.2255
X0.9263 Y0.9354 Z-0.2282
X0.928 Y0.9364 Z-0.2305
X0.93 Y0.9375 Z-0.2324
X0.9323 Y0.9388 Z-0.2338
X0.9348 Y0.9403 Z-0.2347
X0.9374 Y0.9417 Z-0.235
G3 X0.9625 Y0.9598 I-0.0709 J0.1248
G1 X0.963 Y0.9603 F60.
X0.9649 Y0.9619
X0.966 Y0.9629
X0.9657 Y0.965
X0.9639 Y0.966
X0.962 Y0.9652
X0.9619 Y0.965 F50.
X0.9649 Y0.9619
X0.9684 Y0.9648 F60.
X0.9695 Y0.9658
X0.9691 Y0.9682
X0.967 Y0.9694
X0.9648 Y0.9684
X0.9684 Y0.9648 F50.
X0.9713 Y0.9672 F60.
X0.9723 Y0.9682
Y0.971
X0.97 Y0.9726
X0.9674 Y0.9715
X0.9672 Y0.9712 F50.
X0.9713 Y0.9672
X0.9743 Y0.9698 F60.
X0.9765 Y0.9718
X0.9766 Y0.9742
X0.9751 Y0.9761
X0.9727 Y0.9765
X0.9706 Y0.9753
X0.9698 Y0.9742 F50.
X0.9743 Y0.9698
X0.9799 Y0.9744 F60.
X0.981 Y0.9755
Y0.9782
X0.9793 Y0.9804
X0.9766 Y0.9809
X0.9742 Y0.9795
G3 X0.9731 Y0.9767 I0.0042 J-0.0033 F50.
G1 X0.9754 Y0.9735
G3 X0.9799 Y0.9744 I0.0012 J0.0052
G1 X0.9839 Y0.9778 F60.
X0.9861 Y0.9799
Y0.983
X0.9841 Y0.9854
X0.981 Y0.9859
X0.9783 Y0.9844
X0.9778 Y0.9838 F50.
X0.9839 Y0.9778
X0.9894 Y0.9825 F60.
X0.9916 Y0.9845
X0.9917 Y0.9881
X0.9894 Y0.9909
X0.9859 Y0.9915
X0.9828 Y0.9898
X0.9825 Y0.9893 F50.
X0.9894 Y0.9825
X0.996 Y0.9881 F60.
X0.9982 Y0.9901
Y0.9942
X0.9955 Y0.9973
X0.9916 Y0.998
X0.988 Y0.996
G3 X0.9886 Y0.9888 I0.0041 J-0.0033 F50.
G1 X0.9891 Y0.9883
G3 X0.996 Y0.9881 I0.0036 J0.0039
G1 X1.0022 Y0.9933 F60.
X1.0034 Y0.9944
X1.0043 Y0.9951
X1.0052 Y0.996
X1.0046 Y1. F50.
X0.9989 Y0.9977
X1.0043 Y0.9951
X1.0051 Y0.9959 F60.
X1.0059 Y0.9974
X1.0063 Y0.9981
X1.0066 Y1.0003
X1.0061 Y1.0025
X1.0056 Y1.0032
X1.005 Y1.0042
X1.0045 Y1.0048
X1.0027 Y1.006
X1.0007 Y1.0065
X1.0002 Y1.0066
X0.9981 Y1.0063
X0.9974 Y1.006
X0.9961 Y1.0052
X0.9954 Y1.0046
X0.9927 Y1.0015
X0.9921 Y0.9999 Z-0.2347
X0.9915 Y0.9985 Z-0.2339
X0.991 Y0.9974 Z-0.2327
X0.9907 Y0.9967 Z-0.2312
X0.9906 Y0.9965 Z-0.2295
G0 Z0.4
X-0.0658 Y0.8916
Z-0.2043
G1 Z-0.2196 F50.
X-0.0661 Y0.8917 Z-0.2226
X-0.0668 Y0.8922 Z-0.2255
X-0.0681 Y0.8929 Z-0.2282
X-0.0697 Y0.8939 Z-0.2305
X-0.0717 Y0.8951 Z-0.2324
X-0.074 Y0.8964 Z-0.2338
X-0.0765 Y0.8979 Z-0.2347
X-0.079 Y0.8994 Z-0.235
G3 X-0.1087 Y0.9082 I-0.0318 J-0.0536
G1 X-0.4134 F60.
G3 X-0.9062 Y0.4797 I0.2129 J-0.7425
G1 X-0.9082 Y0.2032
G3 X-0.8923 Y0.1884 I0.0154 J0.0005
X-0.8376 Y0.2309 I-0.0021 J0.059
X-0.89 Y0.4564 I-0.2268 J0.0661
G1 X-0.9033 Y0.4698 F50.
G2 X-0.9082 Y0.4805 I0.0105 J0.0112
G1 Y0.5963 F60.
G2 X-0.6583 Y0.9068 I0.4805 J-0.1309
G1 X-0.4134 Y0.9082
G2 X-0.4003 Y0.9 I-0.0005 J-0.0154
X-0.4115 Y0.8488 I-0.0357 J-0.019
X-0.6383 Y0.8873 I-0.0954 J0.1253
X-0.6459 Y0.9 I0.1314 J0.0868 F50.
G3 X-0.659 Y0.9082 I-0.0136 J-0.0072
G1 X-0.7415 F60.
G3 X-0.9082 Y0.8098 I0.0246 J-0.2322
G1 Y0.5963
G3 X-0.8791 Y0.5898 I0.0154 J0.0005
G1 X-0.7283 Y0.8857
Y0.8858 F50.
G3 X-0.7415 Y0.9082 I-0.0137 J0.007
G1 X-0.8118 F60.
X-0.8352 Y0.9085
X-0.8586 Y0.9123
G3 X-0.9203 Y0.8933 I-0.0257 J-0.0259
G2 X-0.9082 Y0.8098 I-0.2845 J-0.0839
G3 X-0.8783 Y0.8052 I0.0154 J0.0006
G1 X-0.8491 Y0.8876
X-0.8474 Y0.8922 F50.
G3 X-0.8586 Y0.9123 I-0.0145 J0.0051
G2 X-0.912 Y0.9294 I0.0067 J0.1129 F60.
G1 X-0.9173 Y0.9321
X-0.9232 Y0.9333
X-0.924
X-0.9291 Y0.932
X-0.9329 Y0.9282
X-0.9343 Y0.9231
X-0.9329 Y0.918
G3 X-0.9267 Y0.9104 I0.0334 J0.0209
X-0.9181 Y0.9071 I0.0084 J0.0087
X-0.912 Y0.9294 I-0.0003 J0.0121 F50.
G1 X-0.9289 Y0.9392 F60.
X-0.9302 Y0.94
X-0.9355 Y0.9428
X-0.9391 Y0.9422
X-0.9418 Y0.9398
X-0.9428 Y0.9363
X-0.9418 Y0.9328
G3 X-0.9394 Y0.9296 I0.0327 J0.0219 F50.
X-0.9288 Y0.9294 I0.0054 J0.0045
X-0.9302 Y0.94 I-0.0052 J0.0047
G1 X-0.9406 Y0.9462 F60.
X-0.9459 Y0.949
X-0.948 Y0.9482
X-0.9491 Y0.9461
X-0.9487 Y0.9438
G3 X-0.9458 Y0.9401 I0.0327 J0.0219 F50.
G1 X-0.9387 Y0.9428
X-0.9406 Y0.9462
X-0.9429 Y0.9476 F60.
X-0.9478 Y0.9514
X-0.9502 Y0.9531
X-0.952 Y0.9526
X-0.9528 Y0.951
X-0.9523 Y0.9493
X-0.9511 Y0.9479 F50.
X-0.9469 Y0.9495
X-0.9478 Y0.9514
X-0.9524 Y0.955 F60.
X-0.9536 Y0.9559
X-0.9552 Y0.9555
X-0.9559 Y0.954
X-0.9553 Y0.9524
X-0.9552 Y0.9523 F50.
X-0.9524 Y0.955
X-0.9549 Y0.9577 F60.
X-0.956 Y0.9587
X-0.9578 Y0.9584
X-0.9586 Y0.9569
X-0.9581 Y0.9552
G3 X-0.9551 Y0.9538 I0.0037 J0.0038 F50.
G1 X-0.9539 Y0.9547
X-0.9532 Y0.9553
X-0.9525 Y0.9547
X-0.9529 Y0.9539
X-0.9548 Y0.9538
X-0.9565 Y0.9542
X-0.9581 Y0.9552
X-0.9604 Y0.9576 F60.
X-0.9614 Y0.9588
X-0.9611 Y0.9605
X-0.9595 Y0.9614
X-0.9579 Y0.9608
G2 X-0.9565 Y0.9578 I-0.004 J-0.0035 F50.
G1 X-0.9575 Y0.9566
X-0.9582 Y0.9559
X-0.9576 Y0.9551
X-0.9568 Y0.9556
X-0.9565 Y0.9574
X-0.9569 Y0.9592
X-0.9579 Y0.9608
X-0.9603 Y0.9633 F60.
X-0.9614 Y0.9644
X-0.9633 Y0.964
X-0.9641 Y0.9623
X-0.9634 Y0.9606
X-0.9631 Y0.9603 F50.
X-0.9603 Y0.9633
X-0.9626 Y0.9657 F60.
X-0.9636 Y0.9668
X-0.9658 Y0.9667
X-0.9669 Y0.9648
X-0.9661 Y0.9628
X-0.9657 Y0.9626 F50.
X-0.9626 Y0.9657
X-0.9652 Y0.9689 F60.
X-0.9662 Y0.97
X-0.9687 Y0.9698
X-0.97 Y0.9677
X-0.9691 Y0.9654
X-0.9688 Y0.9652 F50.
X-0.9652 Y0.9689
X-0.9678 Y0.9719 F60.
X-0.9688 Y0.973
X-0.9717
X-0.9733 Y0.9707
X-0.9722 Y0.968
X-0.9719 Y0.9678 F50.
X-0.9678 Y0.9719
X-0.9707 Y0.9754 F60.
X-0.9728 Y0.9776
X-0.9752
X-0.9771 Y0.976
X-0.9775 Y0.9736
X-0.9763 Y0.9714
X-0.9753 Y0.9707 F50.
X-0.9707 Y0.9754
X-0.975 Y0.9805 F60.
X-0.977 Y0.9827
X-0.9799 Y0.9826
X-0.982 Y0.9807
X-0.9824 Y0.9779
X-0.981 Y0.9754
X-0.9804 Y0.9749 F50.
X-0.975 Y0.9805
X-0.9791 Y0.9854 F60.
X-0.9812 Y0.9876
X-0.9844 Y0.9877
X-0.987 Y0.9856
X-0.9876 Y0.9824
X-0.986 Y0.9796
X-0.9853 Y0.9791 F50.
X-0.9841 Y0.9784
X-0.9827 Y0.9782
X-0.9791 Y0.9854
X-0.9839 Y0.991 F60.
X-0.9859 Y0.9932
X-0.9896 Y0.9934
X-0.9925 Y0.9911
X-0.9933 Y0.9874
X-0.9915 Y0.9842
X-0.991 Y0.9838 F50.
G3 X-0.9839 Y0.991 I0.0031 J0.004
G1 X-0.9893 Y0.9975 F60.
X-0.9914 Y0.9997
X-0.9956 Y0.9998
X-0.9988 Y0.9972
X-0.9996 Y0.9931
X-0.9976 Y0.9894
X-0.9974 Y0.9893 F50.
G3 X-0.9893 Y0.9975 I0.0036 J0.0046
G1 X-0.9945 Y1.0035 F60.
X-0.9957 Y1.0049
X-0.9961 Y1.0053
X-0.9977 Y1.0061
X-0.9985 Y1.0063
X-1.0002 Y1.0066
X-1.0006 Y1.0065
X-1.0025 Y1.0061
X-1.0029 Y1.0059
X-1.0043 Y1.0049
X-1.0048 Y1.0045
X-1.0057 Y1.0031
X-1.0061 Y1.0025
X-1.0066 Y1.0004
X-1.0063 Y0.9982
X-1.006 Y0.9974
X-1.0051 Y0.9959
X-1.0034 Y0.9944
X-1.0017 Y0.9937 Z-0.2347
X-1.0001 Y0.993 Z-0.2338
X-0.9989 Y0.9925 Z-0.2324
X-0.9982 Y0.9922 Z-0.2306
X-0.998 Z-0.2291
G0 Z0.4
X-0.8916 Y-0.1103
Z-0.2043
G1 Z-0.2196 F50.
X-0.8917 Y-0.1105 Z-0.2226
X-0.8922 Y-0.1113 Z-0.2255
X-0.8929 Y-0.1125 Z-0.2282
X-0.8939 Y-0.1141 Z-0.2305
X-0.8951 Y-0.1161 Z-0.2324
X-0.8964 Y-0.1184 Z-0.2338
X-0.8979 Y-0.1209 Z-0.2347
X-0.8994 Y-0.1235 Z-0.235
G3 X-0.9082 Y-0.1531 I0.0536 J-0.0318
G1 Y-0.4108 F60.
G3 X-0.5597 Y-0.8569 I0.6466 J0.1459
X-0.4841 Y-0.9082 I0.1052 J0.0739
G1 X-0.2078
G3 X-0.193 Y-0.8923 I-0.0005 J0.0154
X-0.2362 Y-0.8371 I-0.0595 J-0.0021
X-0.46 Y-0.89 I-0.0644 J-0.2273
G1 X-0.4734 Y-0.9033 F50.
G2 X-0.4841 Y-0.9082 I-0.0112 J0.0105
G1 X-0.6009 F60.
G2 X-0.907 Y-0.6641 I0.1295 J0.4765
G1 X-0.9082 Y-0.4108
G2 X-0.9 Y-0.3977 I0.0154 J-0.0005
X-0.8599 Y-0.4042 I0.0158 J-0.0296
X-0.8873 Y-0.6441 I-0.1142 J-0.1084
X-0.9 Y-0.6516 I-0.0868 J0.1314 F50.
G3 X-0.9082 Y-0.6647 I0.0072 J-0.0136
G1 Y-0.7515 F60.
G3 X-0.8132 Y-0.9082 I0.2235 J0.0283
G1 X-0.8118
X-0.6009
G3 X-0.5947 Y-0.8789 I-0.0005 J0.0154
G1 X-0.8857 Y-0.7384
X-0.8861 Y-0.7382 F50.
G3 X-0.9082 Y-0.7515 I-0.0067 J-0.0138
G2 X-0.9131 Y-0.8628 I-0.3626 J-0.0397 F60.
G3 X-0.8939 Y-0.9203 I0.0261 J-0.0232
X-0.8885 Y-0.8534 I-0.0178 J0.0351
X-0.9131 Y-0.8628 I-0.0093 J-0.0126 F50.
G2 X-0.9289 Y-0.9112 I-0.109 J0.0089 F60.
G1 X-0.9317 Y-0.9165
X-0.9331 Y-0.9224
X-0.9332 Y-0.9236
X-0.932 Y-0.9288
X-0.9283 Y-0.9327
X-0.9231 Y-0.9342
X-0.9179 Y-0.9328
G3 X-0.9095 Y-0.9258 I-0.0209 J0.0334
X-0.9064 Y-0.9171 I-0.0091 J0.0082
X-0.9289 Y-0.9112 I-0.0122 J-0.0006 F50.
G1 X-0.9375 Y-0.926 F60.
X-0.9397 Y-0.9295
X-0.9427 Y-0.9347
X-0.9422 Y-0.9385
X-0.9398 Y-0.9413
X-0.9362 Y-0.9424
X-0.9326 Y-0.9414
G3 X-0.9294 Y-0.939 I-0.0218 J0.0328 F50.
X-0.9291 Y-0.9283 I-0.0045 J0.0055
X-0.9397 Y-0.9295 I-0.0048 J-0.0052
G1 X-0.9465 Y-0.9402 F60.
X-0.9495 Y-0.9454
X-0.9486 Y-0.9477
X-0.9464 Y-0.949
X-0.944 Y-0.9485
G3 X-0.9404 Y-0.9458 I-0.0218 J0.0328 F50.
G1 X-0.9431 Y-0.9384
X-0.9465 Y-0.9402
X-0.9514 Y-0.9478 F60.
X-0.9529 Y-0.9504
X-0.9523 Y-0.952
X-0.9507 Y-0.9528
X-0.9491 Y-0.9523
X-0.9476 Y-0.951 F50.
X-0.9494 Y-0.9467
X-0.9514 Y-0.9478
X-0.9524 Y-0.9494 F60.
X-0.9543 Y-0.9513
X-0.9553 Y-0.9524
X-0.9551 Y-0.9541
X-0.9537 Y-0.9552
X-0.9521 Y-0.9547
X-0.9515 Y-0.9542 F50.
X-0.9529 Y-0.9507
X-0.9543 Y-0.9513
X-0.9576 Y-0.9547 F60.
X-0.9586 Y-0.9558
X-0.9581 Y-0.9576
X-0.9565 Y-0.9583
X-0.9549 Y-0.9576
G3 X-0.9536 Y-0.9546 I-0.004 J0.0035 F50.
G1 X-0.9545 Y-0.9535
X-0.9552 Y-0.9528
X-0.9546 Y-0.952
X-0.9538 Y-0.9525
X-0.9536 Y-0.9543
X-0.9539 Y-0.9561
X-0.9549 Y-0.9576
X-0.9575 Y-0.9604 F60.
X-0.9586 Y-0.9614
X-0.9604 Y-0.9612
X-0.9613 Y-0.9596
X-0.9607 Y-0.9579
G2 X-0.9578 Y-0.9564 I0.0036 J-0.0038 F50.
G1 X-0.9566 Y-0.9574
X-0.9558 Y-0.958
X-0.9551 Y-0.9574
X-0.9556 Y-0.9566
X-0.9574 Y-0.9564
X-0.9592 Y-0.9568
X-0.9607 Y-0.9579
X-0.9634 Y-0.9606 F60.
X-0.9645 Y-0.9617
X-0.9641 Y-0.9636
X-0.9624 Y-0.9645
X-0.9606 Y-0.9638
G3 X-0.9593 Y-0.9608 I-0.004 J0.0035 F50.
G1 X-0.9603 Y-0.9596
X-0.961 Y-0.9589
X-0.9604 Y-0.9581
X-0.9596 Y-0.9586
X-0.9593 Y-0.9604
X-0.9597 Y-0.9622
X-0.9606 Y-0.9638
X-0.9634 Y-0.9667 F60.
X-0.9644 Y-0.9678
X-0.9666 Y-0.9674
X-0.9676 Y-0.9654
X-0.9667 Y-0.9634
G2 X-0.9637 Y-0.9623 I0.0033 J-0.0042 F50.
G1 X-0.9636
X-0.9629 Y-0.9626
X-0.9626 Y-0.9633
X-0.9619 Y-0.964
X-0.9611 Y-0.9635
X-0.9615 Y-0.9627
X-0.9633 Y-0.9623
X-0.9651 Y-0.9626
X-0.9667 Y-0.9634
X-0.9695 Y-0.9657 F60.
X-0.9706 Y-0.9668
X-0.9705 Y-0.9693
X-0.9683 Y-0.9707
X-0.9659 Y-0.9697
X-0.9657 Y-0.9695 F50.
X-0.9695 Y-0.9657
X-0.9733 Y-0.9689 F60.
X-0.9744 Y-0.9699
X-0.9741 Y-0.9729
X-0.9716 Y-0.9744
X-0.9689 Y-0.9732
G3 X-0.9678 Y-0.9708 I-0.0042 J0.0033 F50.
G1 X-0.9708 Y-0.9678
G3 X-0.9733 Y-0.9689 I0.0008 J-0.0052
G1 X-0.977 Y-0.972 F60.
X-0.9792 Y-0.9741
X-0.9791 Y-0.9766
X-0.9774 Y-0.9786
X-0.9748 Y-0.979
X-0.9726 Y-0.9777
X-0.972 Y-0.9769 F50.
X-0.977 Y-0.972
X-0.9821 Y-0.9763 F60.
X-0.9843 Y-0.9784
X-0.9841 Y-0.9813
X-0.9822 Y-0.9835
X-0.9793 Y-0.984
X-0.9767 Y-0.9825
X-0.9763 Y-0.982 F50.
X-0.9821 Y-0.9763
X-0.9869 Y-0.9804 F60.
X-0.9891 Y-0.9824
X-0.9893 Y-0.9858
X-0.9872 Y-0.9885
X-0.9839 Y-0.9892
X-0.9809 Y-0.9876
X-0.9803 Y-0.9868 F50.
X-0.9869 Y-0.9804
X-0.9927 Y-0.9853 F60.
X-0.9949 Y-0.9874
X-0.9951 Y-0.9912
X-0.9927 Y-0.9942
X-0.989 Y-0.995
X-0.9856 Y-0.9931
X-0.9853 Y-0.9927 F50.
G3 X-0.9927 Y-0.9853 I-0.0042 J0.0032
G1 X-0.9993 Y-0.9908 F60.
X-1.0014 Y-0.9929
X-1.0018 Y-0.9964
X-1.0003 Y-0.9995
X-0.9974 Y-1.0013
X-0.9939
X-0.991 Y-0.9994
X-0.9909 Y-0.9993 F50.
G3 X-0.9993 Y-0.9908 I-0.0047 J0.0037
G1 X-1.0051 Y-0.9958 F60.
X-1.006 Y-0.9975
X-1.0063 Y-0.9982
X-1.0065 Y-1.0001
Y-1.0007
X-1.0061 Y-1.0025
X-1.0058 Y-1.0031
X-1.0049 Y-1.0043
X-1.0045 Y-1.0048
X-1.0028 Y-1.0059
X-1.0024 Y-1.0061
X-1.0006 Y-1.0065
X-1.0001
X-0.9986 Y-1.0063
X-0.9979 Y-1.0062
X-0.9965 Y-1.0055
X-0.9957 Y-1.005
X-0.995 Y-1.0041
X-0.9942 Y-1.0024 Z-0.2347
X-0.9936 Y-1.0009 Z-0.2338
X-0.9931 Y-0.9996 Z-0.2325
X-0.9927 Y-0.9989 Z-0.2308
Y-0.9986 Z-0.229
G0 Z0.4
X-0.944 Y-0.9428
Z-0.1409
G1 Z-0.235 F50.
G3 X-0.9289 Y-0.9392 I0.0004 J0.0312
G2 X-0.8132 Y-0.9082 I0.1037 J-0.1554 F60.
G3 X-0.8005 Y-0.8856 I-0.0008 J0.0153
G1 X-0.8019 Y-0.8829 Z-0.2347
X-0.8033 Y-0.8804 Z-0.2338
X-0.8045 Y-0.878 Z-0.2324
X-0.8056 Y-0.876 Z-0.2305
X-0.8065 Y-0.8743 Z-0.2282
X-0.8072 Y-0.873 Z-0.2255
X-0.8076 Y-0.8723 Z-0.2226
X-0.8078 Y-0.872 Z-0.2196
G0 Z-0.2043
X0.1062 Y-0.8916
G1 Z-0.2196 F50.
X0.1064 Y-0.8917 Z-0.2226
X0.1072 Y-0.8922 Z-0.2255
X0.1084 Y-0.8929 Z-0.2282
X0.1101 Y-0.8939 Z-0.2305
X0.1121 Y-0.8951 Z-0.2324
X0.1144 Y-0.8964 Z-0.2338
X0.1168 Y-0.8979 Z-0.2347
X0.1194 Y-0.8994 Z-0.235
G3 X0.1491 Y-0.9082 I0.0318 J0.0536
G1 X0.4303 F60.
G3 X0.9053 Y-0.4978 I-0.2414 J0.7596
G1 X0.9082 Y-0.4973
Y-0.2628
G3 X0.9 Y-0.2498 I-0.0154 J-0.0005
X0.8367 Y-0.2683 I-0.0222 J-0.0416
X0.8873 Y-0.4767 I0.1374 J-0.077
X0.9 Y-0.4843 I0.0868 J0.1314 F50.
G2 X0.9082 Y-0.4973 I-0.0072 J-0.0136
G1 Y-0.5981 F60.
G2 X0.6651 Y-0.9067 I-0.4568 J0.1098
G1 X0.4303 Y-0.9082
G2 X0.4173 Y-0.9 I0.0005 J0.0154
X0.4351 Y-0.8377 I0.0411 J0.0219
X0.6452 Y-0.8873 I0.0788 J-0.1364
X0.6528 Y-0.9 I-0.1314 J-0.0868 F50.
G3 X0.6658 Y-0.9082 I0.0136 J0.0072
G1 X0.7584 F60.
G3 X0.9091 Y-0.8168 I-0.0302 J0.2199
G1 X0.9082 Y-0.8089
Y-0.5981
G3 X0.8788 Y-0.5923 I-0.0154 J-0.0005
G1 X0.7453 Y-0.8857
X0.7449 Y-0.8864 F50.
G3 X0.7584 Y-0.9082 I0.014 J-0.0064
G1 X0.8287 F60.
X0.8521 Y-0.9112
X0.865 Y-0.9135
G3 X0.921 Y-0.8954 I0.0224 J0.0262
X0.8556 Y-0.8844 I-0.0362 J-0.0155
X0.8524 Y-0.8895 I0.0131 J-0.0118
X0.865 Y-0.9135 I0.0163 J-0.0068 F50.
G2 X0.911 Y-0.9288 I-0.0091 J-0.1038 F60.
G1 X0.9163 Y-0.9316
X0.9221 Y-0.9332
X0.9234 Y-0.9333
X0.9287 Y-0.9322
X0.9328 Y-0.9286
X0.9343 Y-0.9234
X0.933 Y-0.9181
G3 X0.9256 Y-0.9093 I-0.0335 J-0.0207
X0.9168 Y-0.9063 I-0.0081 J-0.0092
X0.911 Y-0.9288 I0.0007 J-0.0122 F50.
G1 X0.9224 Y-0.9354 F60.
X0.9303 Y-0.9402
X0.9356 Y-0.9431
X0.939 Y-0.9425
X0.9417 Y-0.9402
X0.9427 Y-0.9368
X0.9419 Y-0.9335
G3 X0.9395 Y-0.9302 I-0.0333 J-0.021 F50.
X0.9287 Y-0.9387 I-0.0054 J-0.0043
X0.9303 Y-0.9402 I0.0054 J0.0043
G1 X0.9403 Y-0.9463 F60.
X0.9456 Y-0.9491
X0.9479 Y-0.9482
X0.949 Y-0.9461
X0.9483 Y-0.9437
G3 X0.9453 Y-0.9402 I-0.0311 J-0.0242 F50.
G1 X0.9386 Y-0.9432
X0.9403 Y-0.9463
X0.9455 Y-0.9494 F60.
X0.9473 Y-0.9508
X0.9498 Y-0.9526
X0.9515 Y-0.9521
X0.9525 Y-0.9506
X0.952 Y-0.9488
X0.9508 Y-0.9473 F50.
X0.9465 Y-0.949
X0.9473 Y-0.9508
X0.9507 Y-0.9535 F60.
X0.9519 Y-0.9547
X0.953 Y-0.9557
X0.9548 Y-0.9552
X0.9556 Y-0.9536
X0.9549 Y-0.952
G3 X0.952 Y-0.9506 I-0.0037 J-0.0038 F50.
G1 X0.9508 Y-0.9515
X0.9501 Y-0.9521
X0.9493 Y-0.9515
X0.9498 Y-0.9507
X0.9516 Y-0.9505
X0.9534 Y-0.951
X0.9549 Y-0.952
X0.9575 Y-0.9546 F60.
X0.9585 Y-0.9557
X0.9582 Y-0.9574
X0.9567 Y-0.9583
X0.9551 Y-0.9577
G2 X0.9536 Y-0.9548 I0.0038 J0.0037 F50.
G1 X0.9545 Y-0.9536
X0.9552 Y-0.9528
X0.9545 Y-0.9521
X0.9538 Y-0.9526
X0.9536 Y-0.9544
X0.9541 Y-0.9562
X0.9551 Y-0.9577
X0.958 Y-0.9605 F60.
X0.9591 Y-0.9616
X0.9607 Y-0.9611
X0.9615 Y-0.9597
X0.9609 Y-0.9581
G3 X0.958 Y-0.9567 I-0.0037 J-0.0038 F50.
G1 X0.9568 Y-0.9576
X0.9561 Y-0.9582
X0.9553 Y-0.9576
X0.9558 Y-0.9568
X0.9576 Y-0.9566
X0.9594 Y-0.9571
X0.9609 Y-0.9581
X0.9633 Y-0.9605 F60.
X0.9643 Y-0.9616
X0.964 Y-0.9634
X0.9623 Y-0.9643
X0.9606 Y-0.9636
G2 X0.9595 Y-0.9605 I0.0041 J0.0033 F50.
G1 X0.9605 Y-0.9594
X0.9612 Y-0.9587
X0.9606 Y-0.9579
X0.9598 Y-0.9583
X0.9595 Y-0.9601
X0.9598 Y-0.962
X0.9606 Y-0.9636
X0.963 Y-0.9664 F60.
X0.9641 Y-0.9675
X0.9663 Y-0.9672
X0.9673 Y-0.9652
X0.9665 Y-0.9632
X0.9663 Y-0.9631 F50.
X0.963 Y-0.9664
X0.9653 Y-0.9691 F60.
X0.9664 Y-0.9702
X0.9689 Y-0.9701
X0.9703 Y-0.968
X0.9694 Y-0.9656
X0.969 Y-0.9654 F50.
X0.9653 Y-0.9691
X0.9685 Y-0.9728 F60.
X0.9696 Y-0.9739
X0.9725 Y-0.9737
X0.974 Y-0.9712
X0.9728 Y-0.9685
X0.9685 Y-0.9728 F50.
X0.9717 Y-0.9766 F60.
X0.9727 Y-0.9777
X0.9752 Y-0.9779
X0.9773 Y-0.9764
X0.9778 Y-0.9739
X0.9766 Y-0.9717
X0.9717 Y-0.9766 F50.
X0.9751 Y-0.9807 F60.
X0.9772 Y-0.9829
X0.98 Y-0.9828
X0.9822 Y-0.9809
X0.9827 Y-0.9781
X0.9812 Y-0.9756
X0.9806 Y-0.9751 F50.
X0.9751 Y-0.9807
X0.9792 Y-0.9855 F60.
X0.9813 Y-0.9877
X0.9846 Y-0.9878
X0.9871 Y-0.9858
X0.9878 Y-0.9826
X0.9861 Y-0.9797
X0.9854 Y-0.9792 F50.
X0.9842 Y-0.9785
X0.9828 Y-0.9783
X0.9792 Y-0.9855
X0.9843 Y-0.9915 F60.
X0.9863 Y-0.9937
X0.9901 Y-0.9938
X0.993 Y-0.9914
X0.9936 Y-0.9877
X0.9918 Y-0.9845
X0.9915 Y-0.9843 F50.
G3 X0.9843 Y-0.9915 I-0.0031 J-0.0041
G1 X0.9896 Y-0.9978 F60.
X0.9917 Y-1.
X0.9951 Y-1.0004
X0.9981 Y-0.9989
X0.9999 Y-0.996
X0.9998 Y-0.9926
X0.998 Y-0.9898
X0.9978 Y-0.9896 F50.
G3 X0.9896 Y-0.9978 I-0.0036 J-0.0046
G1 X0.9951 Y-1.0042 F60.
X0.9959 Y-1.0051
X0.9975 Y-1.006
X0.9983 Y-1.0063
X1.0004 Y-1.0066
X1.0027 Y-1.006
X1.0044 Y-1.0048
X1.0048 Y-1.0044
X1.0057 Y-1.0031
X1.0061 Y-1.0025
X1.0065 Y-1.0007
Y-1.0001
X1.0063 Y-0.9981
X1.006 Y-0.9975
X1.0053 Y-0.9962
X1.0051 Y-0.9958
X1.0038 Y-0.9947
X0.9795 Y-0.9756
X0.9266 Y-0.934
G2 X0.9239 Y-0.9269 I0.0046 J0.0059
G3 X0.9213 Y-0.896 I-0.0614 J0.0104 F50.
G2 X0.9082 Y-0.8161 I0.2802 J0.0869 F60.
G3 X0.8857 Y-0.8031 I-0.0154 J-0.0006
G1 X0.8831 Y-0.8045 Z-0.2347
X0.8805 Y-0.8058 Z-0.2338
X0.8781 Y-0.8071 Z-0.2324
X0.8761 Y-0.8082 Z-0.2305
X0.8744 Y-0.809 Z-0.2282
X0.8731 Y-0.8097 Z-0.2255
X0.8724 Y-0.8101 Z-0.2226
X0.8721 Y-0.8103 Z-0.2196
G0 Z0.6
(SHAPE THROUGH FINISHING PASS)
M7
G0 X2.9927 Y5.4257
Z0.6
Z0.2
G1 Z0.1 F13.333
Z-0.185
X2.9926 Y5.4254 Z-0.1906 F40.
X2.9922 Y5.4246 Z-0.1961
X2.9914 Y5.4232 Z-0.2015
X2.9904 Y5.4213 Z-0.2067
X2.9891 Y5.4189 Z-0.2116
X2.9876 Y5.416 Z-0.2162
X2.9859 Y5.4127 Z-0.2204
X2.9839 Y5.409 Z-0.2241
X2.9818 Y5.405 Z-0.2273
X2.9795 Y5.4007 Z-0.23
X2.977 Y5.3961 Z-0.2322
X2.9745 Y5.3913 Z-0.2337
X2.9719 Y5.3864 Z-0.2347
X2.9693 Y5.3815 Z-0.235
X2.9621 Y5.3679
G3 X3.0297 Y5.3886 I0.0235 J0.0442
G1 X4.0371 Y7.2851 F50.
G3 X4.004 Y7.3153 I-0.0204 J0.0109
G1 X1.7408 Y5.8318
G3 X1.7343 Y5.7995 I0.0127 J-0.0194
G1 X2.5601 Y4.5772
G3 X2.5997 Y4.5792 I0.0192 J0.013
G1 X3.0297 Y5.3886
G3 X3.009 Y5.4562 I-0.0442 J0.0235
G1 X3.0018 Y5.4427
X2.9991 Y5.4377 Z-0.2347
X2.9966 Y5.4328 Z-0.2337
X2.994 Y5.4281 Z-0.2322
X2.9916 Y5.4235 Z-0.23
X2.9893 Y5.4192 Z-0.2273
X2.9872 Y5.4151 Z-0.2241
X2.9852 Y5.4114 Z-0.2204
X2.9834 Y5.4081 Z-0.2162
X2.9819 Y5.4053 Z-0.2116
X2.9806 Y5.4029 Z-0.2067
X2.9796 Y5.401 Z-0.2015
X2.9789 Y5.3996 Z-0.1961
X2.9785 Y5.3988 Z-0.1906
X2.9783 Y5.3985 Z-0.185
G0 Z0.4
X0.8799 Y0.8839
Z0.2
G1 Z0.1 F13.333
Z-0.185
Y0.8836 Z-0.1906 F40.
X0.8797 Y0.8827 Z-0.1961
X0.8794 Y0.8812 Z-0.2015
X0.879 Y0.8791 Z-0.2067
X0.8785 Y0.8764 Z-0.2116
X0.8779 Y0.8732 Z-0.2162
X0.8772 Y0.8695 Z-0.2204
X0.8764 Y0.8654 Z-0.2241
X0.8756 Y0.8609 Z-0.2273
X0.8747 Y0.8561 Z-0.23
X0.8737 Y0.851 Z-0.2322
X0.8727 Y0.8457 Z-0.2337
X0.8717 Y0.8403 Z-0.2347
X0.8707 Y0.8348 Z-0.235
X0.8678 Y0.8197
G3 X0.9262 Y0.8596 I0.0093 J0.0491
G2 X1.0116 Y0.98 I0.1738 J-0.0328 F50.
G3 X0.9884 Y1.02 I-0.0116 J0.02
X0.98 Y1.0116 I0.0116 J-0.02
G2 X0.8268 Y0.9231 I-0.1532 J0.0884
G1 X-0.8268
G2 X-0.98 Y1.0116 I0. J0.1768
G3 X-1.02 Y0.9884 I-0.02 J-0.0116
X-1.0116 Y0.98 I0.02 J0.0116
G2 X-0.9231 Y0.8268 I-0.0884 J-0.1532
G1 Y-0.8268
G2 X-1.0116 Y-0.98 I-0.1768 J0.
G3 X-0.9884 Y-1.02 I0.0116 J-0.02
X-0.98 Y-1.0116 I-0.0116 J0.02
G2 X-0.8268 Y-0.9231 I0.1532 J-0.0884
G1 X0.8268
G2 X0.98 Y-1.0116 I0. J-0.1768
G3 X1.02 Y-0.9884 I0.02 J0.0116
X1.0116 Y-0.98 I-0.02 J-0.0116
G2 X0.9231 Y-0.8268 I0.0884 J0.1532
G1 Y0.8268
G2 X0.9262 Y0.8596 I0.1768 J0.
G3 X0.8863 Y0.918 I-0.0491 J0.0093
G1 X0.8835 Y0.9028
X0.8825 Y0.8973 Z-0.2347
X0.8814 Y0.8919 Z-0.2337
X0.8804 Y0.8866 Z-0.2322
X0.8795 Y0.8815 Z-0.23
X0.8786 Y0.8767 Z-0.2273
X0.8777 Y0.8722 Z-0.2241
X0.8769 Y0.8681 Z-0.2204
X0.8762 Y0.8644 Z-0.2162
X0.8756 Y0.8612 Z-0.2116
X0.8751 Y0.8586 Z-0.2067
X0.8747 Y0.8565 Z-0.2015
X0.8745 Y0.8549 Z-0.1961
X0.8743 Y0.854 Z-0.1906
X0.8742 Y0.8537 Z-0.185
G0 Z0.6
(2D SLOT CUT)
M7
G0 X-1.9098 Y1.8717
Z0.6
Z0.2
G1 Z0.1 F13.333
X-2.0278 Y2.0742 Z0.0587 F40.
G2 X-2.2756 Y3.0293 Z-0.1175 I1.5787 J0.9194
X-1.4506 Y4.5215 I1.8265 J-0.0357 F55.
G1 X4.7866 Y8.6099
G2 X5.2544 Y8.1832 I0.1792 J-0.2734
G1 X1.8471 Y1.7689
G3 X1.8268 Y1.6877 I0.1529 J-0.0812
G1 Y-1.5
G2 X1.5 Y-1.8268 I-0.3269 J0.
G1 X-1.5
G2 X-1.8268 Y-1.5 I0. J0.3269
G1 Y1.6825
G3 X-1.8504 Y1.7696 I-0.1732 J0.
G1 X-2.0278 Y2.0742
G2 X-2.2756 Y3.0293 I1.5787 J0.9194
X-1.9064 Y4.0953 Z-0.235 I1.8265 J-0.0357 F40.
X-1.4506 Y4.5215 I1.4573 J-1.1017 F55.
G1 X-0.9752 Y4.8331
Z-0.135
X-0.3449 Y5.2463
Z-0.235 F13.333
X3.2598 Y7.6091 F55.
Z-0.135
X3.8901 Y8.0223
Z-0.235 F13.333
X4.7866 Y8.6099 F55.
G2 X5.2544 Y8.1832 I0.1792 J-0.2734
G1 X4.6233 Y6.9953
Z-0.135
X4.2698 Y6.3296
Z-0.235 F13.333
X2.3793 Y2.7709 F55.
Z-0.135
X2.0257 Y2.1053
Z-0.235 F13.333
X1.8471 Y1.7689 F55.
G3 X1.8268 Y1.6877 I0.1529 J-0.0812
G1 Y0.4431
Z-0.135
Y-0.3106
Z-0.235 F13.333
Y-1.5 F55.
G2 X1.5 Y-1.8268 I-0.3269 J0.
G1 X0.3237
Z-0.135
X-0.43
Z-0.235 F13.333
X-1.5 F55.
G2 X-1.8268 Y-1.5 I0. J0.3269
G1 Y-0.3666
Z-0.135
Y0.3871
Z-0.235 F13.333
Y1.6825 F55.
G3 X-1.8504 Y1.7696 I-0.1732 J0.
G1 X-2.0278 Y2.0742
G2 X-1.9064 Y4.0953 I1.5787 J0.9194
G0 Z0.6
M9
G53 Z0.
M30
%
