%
(971-23-P-0136_FALCON MOTOR PLATE_1490)
(T1  D=0.149 CR=0. - ZMIN=-0.235 - FLAT END MILL)
G90 G94 G17 G91.1
G64 P0.001 Q0.001
G20
G53 G0 Z0.
(.3 CIRCLUAR THROUGH HOLE)
M9
T1 M6
S22000 M3
G4 P10.
G54
M7
G0 X4.954 Y8.3472
G43 Z0.6 H1
G0 Z0.13
G1 Z0.0649 F40.
G19 G2 Y8.3323 Z0.05 J-0.0149 K0.
G1 Y8.3248
G17 G3 X4.9657 Y8.3131 I0.0117 J0.
Y8.3601 Z0. I0. J0.0235
Y8.3131 Z-0.05 I0. J-0.0235
Y8.3601 Z-0.1 I0. J0.0235
Y8.3131 Z-0.15 I0. J-0.0235
Y8.3601 Z-0.2 I0. J0.0235
X4.9467 Y8.3228 Z-0.235 I0. J-0.0235
X4.9848 Y8.3504 I0.019 J0.0138
X4.9467 Y8.3228 I-0.019 J-0.0138
X4.9631 Y8.3202 I0.0095 J0.0069
G1 X4.9692 Y8.3245
X4.9715 Y8.3262 Z-0.2347
X4.9738 Y8.3279 Z-0.2339
X4.9759 Y8.3294 Z-0.2325
X4.9777 Y8.3307 Z-0.2306
X4.9792 Y8.3318 Z-0.2284
X4.9803 Y8.3326 Z-0.2258
X4.981 Y8.3331 Z-0.223
X4.9812 Y8.3333 Z-0.2201
G0 Z0.4
X-1.3867 Y1.3856
Z0.13
G1 Z0.0649 F40.
G19 G2 Y1.3707 Z0.05 J-0.0149 K0.
G1 Y1.3632
G17 G3 X-1.375 Y1.3515 I0.0118 J0.
Y1.3985 Z0. I0. J0.0235
Y1.3515 Z-0.05 I0. J-0.0235
Y1.3985 Z-0.1 I0. J0.0235
Y1.3515 Z-0.15 I0. J-0.0235
Y1.3985 Z-0.2 I0. J0.0235
X-1.394 Y1.3612 Z-0.235 I0. J-0.0235
X-1.356 Y1.3888 I0.019 J0.0138
X-1.394 Y1.3612 I-0.019 J-0.0138
X-1.3776 Y1.3586 I0.0095 J0.0069
G1 X-1.3716 Y1.363
X-1.3692 Y1.3647 Z-0.2347
X-1.367 Y1.3663 Z-0.2339
X-1.3649 Y1.3678 Z-0.2325
X-1.363 Y1.3692 Z-0.2306
X-1.3615 Y1.3702 Z-0.2284
X-1.3604 Y1.3711 Z-0.2258
X-1.3597 Y1.3716 Z-0.223
X-1.3595 Y1.3717 Z-0.2201
G0 Z0.4
X-1.8315 Y3.5976
Z0.13
G1 Z0.0649 F40.
G19 G2 Y3.5827 Z0.05 J-0.0149 K0.
G1 Y3.5752
G17 G3 X-1.8198 Y3.5635 I0.0117 J0.
Y3.6105 Z0. I0. J0.0235
Y3.5635 Z-0.05 I0. J-0.0235
Y3.6105 Z-0.1 I0. J0.0235
Y3.5635 Z-0.15 I0. J-0.0235
Y3.6105 Z-0.2 I0. J0.0235
X-1.8388 Y3.5732 Z-0.235 I0. J-0.0235
X-1.8008 Y3.6008 I0.019 J0.0138
X-1.8388 Y3.5732 I-0.019 J-0.0138
X-1.8224 Y3.5706 I0.0095 J0.0069
G1 X-1.8163 Y3.575
X-1.814 Y3.5767 Z-0.2347
X-1.8117 Y3.5783 Z-0.2339
X-1.8096 Y3.5798 Z-0.2325
X-1.8078 Y3.5812 Z-0.2306
X-1.8063 Y3.5822 Z-0.2284
X-1.8052 Y3.5831 Z-0.2258
X-1.8045 Y3.5836 Z-0.223
X-1.8043 Y3.5837 Z-0.2201
G0 Z0.4
X0.5502 Y4.3044
Z0.13
G1 Z0.0649 F40.
G19 G2 Y4.2895 Z0.05 J-0.0149 K0.
G1 Y4.2821
G17 G3 X0.5651 Y4.2672 I0.0149 J0.
Y4.3682 Z0. I0. J0.0505
Y4.2672 Z-0.05 I0. J-0.0505
Y4.3682 Z-0.1 I0. J0.0505
Y4.2672 Z-0.15 I0. J-0.0505
Y4.3682 Z-0.2 I0. J0.0505
X0.5242 Y4.288 Z-0.235 I0. J-0.0505
X0.6059 Y4.3474 I0.0409 J0.0297
X0.5242 Y4.288 I-0.0409 J-0.0297
X0.545 Y4.2847 I0.0121 J0.0088
G1 X0.5511 Y4.2891
X0.5534 Y4.2908 Z-0.2347
X0.5557 Y4.2924 Z-0.2339
X0.5578 Y4.294 Z-0.2325
X0.5596 Y4.2953 Z-0.2306
X0.5611 Y4.2964 Z-0.2284
X0.5622 Y4.2972 Z-0.2258
X0.5629 Y4.2977 Z-0.223
X0.5631 Y4.2979 Z-0.2201
G0 Z0.4
X1.4797 Y5.5857
Z0.13
G1 Z0.0649 F40.
G19 G2 Y5.5708 Z0.05 J-0.0149 K0.
G1 Y5.5633
G17 G3 X1.4914 Y5.5516 I0.0118 J0.
Y5.5986 Z0. I0. J0.0235
Y5.5516 Z-0.05 I0. J-0.0235
Y5.5986 Z-0.1 I0. J0.0235
Y5.5516 Z-0.15 I0. J-0.0235
X1.5093 Y5.5598 Z-0.1637 I0. J0.0235
X1.4736 Y5.5903 Z-0.2137 I-0.0179 J0.0153
X1.4724 Y5.5612 Z-0.235 I0.0179 J-0.0153
X1.5104 Y5.5889 I0.019 J0.0138
X1.4724 Y5.5612 I-0.019 J-0.0138
X1.4888 Y5.5586 I0.0095 J0.0069
G1 X1.4949 Y5.563
X1.4972 Y5.5647 Z-0.2347
X1.4995 Y5.5664 Z-0.2339
X1.5016 Y5.5679 Z-0.2325
X1.5034 Y5.5692 Z-0.2306
X1.5049 Y5.5703 Z-0.2284
X1.506 Y5.5711 Z-0.2258
X1.5067 Y5.5716 Z-0.223
X1.5069 Y5.5718 Z-0.2201
G0 Z0.4
X2.1752 Y4.3044
Z0.13
G1 Z0.0649 F40.
G19 G2 Y4.2895 Z0.05 J-0.0149 K0.
G1 Y4.2821
G17 G3 X2.1901 Y4.2672 I0.0149 J0.
Y4.3682 Z0. I0. J0.0505
Y4.2672 Z-0.05 I0. J-0.0505
Y4.3682 Z-0.1 I0. J0.0505
Y4.2672 Z-0.15 I0. J-0.0505
Y4.3682 Z-0.2 I0. J0.0505
X2.1492 Y4.288 Z-0.235 I0. J-0.0505
X2.2309 Y4.3474 I0.0409 J0.0297
X2.1492 Y4.288 I-0.0409 J-0.0297
X2.17 Y4.2847 I0.0121 J0.0088
G1 X2.1761 Y4.2891
X2.1784 Y4.2908 Z-0.2347
X2.1807 Y4.2924 Z-0.2339
X2.1828 Y4.294 Z-0.2325
X2.1846 Y4.2953 Z-0.2306
X2.1861 Y4.2964 Z-0.2284
X2.1872 Y4.2972 Z-0.2258
X2.1879 Y4.2977 Z-0.223
X2.1881 Y4.2979 Z-0.2201
G0 Z0.4
X2.0857 Y3.2912
Z0.13
G1 Z0.0649 F40.
G19 G2 Y3.2763 Z0.05 J-0.0149 K0.
G1 Y3.2688
G17 G3 X2.0975 Y3.2571 I0.0118 J0.
Y3.3041 Z0. I0. J0.0235
Y3.2571 Z-0.05 I0. J-0.0235
Y3.3041 Z-0.1 I0. J0.0235
Y3.2571 Z-0.15 I0. J-0.0235
Y3.3041 Z-0.2 I0. J0.0235
X2.0785 Y3.2668 Z-0.235 I0. J-0.0235
X2.1165 Y3.2944 I0.019 J0.0138
X2.0785 Y3.2668 I-0.019 J-0.0138
X2.0949 Y3.2642 I0.0095 J0.0069
G1 X2.1009 Y3.2685
X2.1033 Y3.2702 Z-0.2347
X2.1055 Y3.2719 Z-0.2339
X2.1076 Y3.2734 Z-0.2325
X2.1094 Y3.2747 Z-0.2306
X2.1109 Y3.2758 Z-0.2284
X2.112 Y3.2766 Z-0.2258
X2.1127 Y3.2771 Z-0.223
X2.113 Y3.2773 Z-0.2201
G0 Z0.4
X1.3632 Y1.3856
Z0.13
G1 Z0.0649 F40.
G19 G2 Y1.3707 Z0.05 J-0.0149 K0.
G1 Y1.3632
G17 G3 X1.375 Y1.3515 I0.0118 J0.
Y1.3985 Z0. I0. J0.0235
Y1.3515 Z-0.05 I0. J-0.0235
Y1.3985 Z-0.1 I0. J0.0235
Y1.3515 Z-0.15 I0. J-0.0235
Y1.3985 Z-0.2 I0. J0.0235
X1.356 Y1.3612 Z-0.235 I0. J-0.0235
X1.394 Y1.3888 I0.019 J0.0138
X1.356 Y1.3612 I-0.019 J-0.0138
X1.3724 Y1.3586 I0.0095 J0.0069
G1 X1.3784 Y1.363
X1.3808 Y1.3647 Z-0.2347
X1.383 Y1.3663 Z-0.2339
X1.3851 Y1.3678 Z-0.2325
X1.387 Y1.3692 Z-0.2306
X1.3885 Y1.3702 Z-0.2284
X1.3896 Y1.3711 Z-0.2258
X1.3903 Y1.3716 Z-0.223
X1.3905 Y1.3717 Z-0.2201
G0 Z0.4
X1.3632 Y-1.3644
Z0.13
G1 Z0.0649 F40.
G19 G2 Y-1.3793 Z0.05 J-0.0149 K0.
G1 Y-1.3867
G17 G3 X1.375 Y-1.3985 I0.0118 J0.
Y-1.3515 Z0. I0. J0.0235
Y-1.3985 Z-0.05 I0. J-0.0235
Y-1.3515 Z-0.1 I0. J0.0235
Y-1.3985 Z-0.15 I0. J-0.0235
Y-1.3515 Z-0.2 I0. J0.0235
X1.356 Y-1.3888 Z-0.235 I0. J-0.0235
X1.394 Y-1.3612 I0.019 J0.0138
X1.356 Y-1.3888 I-0.019 J-0.0138
X1.3724 Y-1.3914 I0.0095 J0.0069
G1 X1.3784 Y-1.387
X1.3808 Y-1.3853 Z-0.2347
X1.383 Y-1.3837 Z-0.2339
X1.3851 Y-1.3822 Z-0.2325
X1.387 Y-1.3808 Z-0.2306
X1.3885 Y-1.3798 Z-0.2284
X1.3896 Y-1.3789 Z-0.2258
X1.3903 Y-1.3784 Z-0.223
X1.3905 Y-1.3783 Z-0.2201
G0 Z0.4
X-1.3867 Y-1.3644
Z0.13
G1 Z0.0649 F40.
G19 G2 Y-1.3793 Z0.05 J-0.0149 K0.
G1 Y-1.3867
G17 G3 X-1.375 Y-1.3985 I0.0118 J0.
Y-1.3515 Z0. I0. J0.0235
Y-1.3985 Z-0.05 I0. J-0.0235
Y-1.3515 Z-0.1 I0. J0.0235
Y-1.3985 Z-0.15 I0. J-0.0235
Y-1.3515 Z-0.2 I0. J0.0235
X-1.394 Y-1.3888 Z-0.235 I0. J-0.0235
X-1.356 Y-1.3612 I0.019 J0.0138
X-1.394 Y-1.3888 I-0.019 J-0.0138
X-1.3776 Y-1.3914 I0.0095 J0.0069
G1 X-1.3716 Y-1.387
X-1.3692 Y-1.3853 Z-0.2347
X-1.367 Y-1.3837 Z-0.2339
X-1.3649 Y-1.3822 Z-0.2325
X-1.363 Y-1.3808 Z-0.2306
X-1.3615 Y-1.3798 Z-0.2284
X-1.3604 Y-1.3789 Z-0.2258
X-1.3597 Y-1.3784 Z-0.223
X-1.3595 Y-1.3783 Z-0.2201
G0 Z0.6
(.3 CIRCULAR THROUGH HOLE)
M7
G0 X-0.4096 Y2.9695
Z0.6
Z0.2
G1 Z0.1144 F13.333
G3 X-0.4088 Y2.9683 Z0.1081 I0.038 J0.0241 F55.
X-0.4065 Y2.9652 Z0.103 I0.0372 J0.0253
X-0.4026 Y2.961 Z0.1 I0.0349 J0.0284
X-0.3406 Y3.0262 Z0.0621 I0.031 J0.0326
X-0.4026 Y2.961 Z0.0242 I-0.031 J-0.0326
X-0.3406 Y3.0262 Z-0.0136 I0.031 J0.0326
X-0.4026 Y2.961 Z-0.0515 I-0.031 J-0.0326
X-0.3406 Y3.0262 Z-0.0894 I0.031 J0.0326
X-0.4166 Y2.9936 Z-0.1175 I-0.031 J-0.0326
X-0.3816 I0.0175 J0. F60.
X-0.5166 I-0.0675 J0.
X-0.2816 I0.1175 J0.
X-0.6166 I-0.1675 J0.
X-0.1816 I0.2175 J0.
X-0.7166 I-0.2675 J0.
X-0.0816 I0.3175 J0.
X-0.8166 I-0.3675 J0.
X0.0184 I0.4175 J0.
X-0.9166 I-0.4675 J0.
X0.1184 I0.5175 J0.
X-1.0166 I-0.5675 J0.
X0.2184 I0.6175 J0.
X-1.1166 I-0.6675 J0.
X0.3184 I0.7175 J0.
X-1.2166 I-0.7675 J0.
X0.4184 I0.8175 J0.
X-1.3166 I-0.8675 J0.
X0.5184 I0.9175 J0.
X-1.4166 I-0.9675 J0.
X0.6184 I1.0175 J0.
X-1.5166 I-1.0675 J0.
X0.6184 I1.0675 J0.
G2 X0.6651 Y3.0655 I0.0787 J0.
G3 X0.7071 Y3.1402 I-0.0293 J0.0657
X-0.4491 Y4.1591 I-1.1562 J-0.1466
Y1.8281 I0. J-1.1655
X0.7071 Y3.1402 I0. J1.1655
X0.6564 Y3.1791 Z-0.1246 I-0.0446 J-0.0057 F55.
G1 X-0.3777 Y3.0382 Z-0.2286
G3 X-0.4166 Y2.9936 Z-0.235 I0.0061 J-0.0446
X-0.3816 I0.0175 J0. F60.
X-0.5166 I-0.0675 J0.
X-0.2816 I0.1175 J0.
X-0.6166 I-0.1675 J0.
X-0.1816 I0.2175 J0.
X-0.7166 I-0.2675 J0.
X-0.0816 I0.3175 J0.
X-0.8166 I-0.3675 J0.
X0.0184 I0.4175 J0.
X-0.9166 I-0.4675 J0.
X0.1184 I0.5175 J0.
X-1.0166 I-0.5675 J0.
X0.2184 I0.6175 J0.
X-1.1166 I-0.6675 J0.
X0.3184 I0.7175 J0.
X-1.2166 I-0.7675 J0.
X0.4184 I0.8175 J0.
X-1.3166 I-0.8675 J0.
X0.5184 I0.9175 J0.
X-1.4166 I-0.9675 J0.
X0.6184 I1.0175 J0.
X-1.5166 I-1.0675 J0.
X0.6184 I1.0675 J0.
G2 X0.6651 Y3.0655 I0.0787 J0.
G3 X0.7071 Y3.1402 I-0.0293 J0.0657
X-0.4491 Y4.1591 I-1.1562 J-0.1466
Y1.8281 I0. J-1.1655
X0.7071 Y3.1402 I0. J1.1655
G2 X0.7111 Y3.1483 I0.0081 J0.001
G3 X0.7151 Y3.1563 I-0.004 J0.007
X-0.4491 Y4.1691 I-1.1642 J-0.1627
Y1.8181 I0. J-1.1755
X0.7151 Y3.1563 I0. J1.1755
X0.7132 Y3.1617 Z-0.2339 I-0.0148 J-0.0021
X0.7102 Y3.1654 Z-0.2306 I-0.0129 J-0.0074
X0.7076 Y3.1673 Z-0.2258 I-0.0099 J-0.0112
X0.7065 Y3.1678 Z-0.2201 I-0.0072 J-0.013
G0 Z0.4
X1.4306 Y4.2936
Z0.2
G1 Z0.1144 F13.333
G3 X1.4314 Y4.2924 Z0.1081 I0.038 J0.0241 F55.
X1.4337 Y4.2893 Z0.103 I0.0372 J0.0253
X1.4376 Y4.2851 Z0.1 I0.0349 J0.0284
X1.4996 Y4.3503 Z0.0621 I0.031 J0.0326
X1.4376 Y4.2851 Z0.0242 I-0.031 J-0.0326
X1.4996 Y4.3503 Z-0.0136 I0.031 J0.0326
X1.4376 Y4.2851 Z-0.0515 I-0.031 J-0.0326
X1.4996 Y4.3503 Z-0.0894 I0.031 J0.0326
X1.4236 Y4.3177 Z-0.1175 I-0.031 J-0.0326
X1.4316 I0.004 J0. F60.
X1.3236 I-0.054 J0.
X1.5316 I0.104 J0.
X1.2236 I-0.154 J0.
X1.6316 I0.204 J0.
X1.1236 I-0.254 J0.
X1.6316 I0.254 J0.
G2 X1.6729 Y4.3855 I0.0763 J0.
G3 X1.6993 Y4.4605 I-0.0265 J0.0515
X1.3776 Y4.6697 I-0.3218 J-0.1428
Y3.9657 I0. J-0.352
X1.6993 Y4.4605 I0. J0.352
X1.6893 Y4.4642 I-0.0068 J-0.003
G1 X1.5082 Y4.3773
G3 X1.5037 Y4.3712 I0.0029 J-0.0069
G1 X1.4968 Y4.3067
G3 X1.5113 Y4.3035 I0.0074 J-0.0008
X1.4259 Y4.3319 Z-0.1554 I-0.0427 J0.0142 F55.
X1.5113 Y4.3035 Z-0.1933 I0.0427 J-0.0142
X1.4259 Y4.3319 Z-0.2311 I-0.0427 J0.0142
X1.4236 Y4.3177 Z-0.235 I0.0427 J-0.0142
X1.4316 I0.004 J0. F60.
X1.3236 I-0.054 J0.
X1.5316 I0.104 J0.
X1.2236 I-0.154 J0.
X1.6316 I0.204 J0.
X1.1236 I-0.254 J0.
X1.6316 I0.254 J0.
G2 X1.6729 Y4.3855 I0.0763 J0.
G3 X1.6993 Y4.4605 I-0.0265 J0.0515
X1.3776 Y4.6697 I-0.3218 J-0.1428
Y3.9657 I0. J-0.352
X1.6993 Y4.4605 I0. J0.352
G2 X1.7008 Y4.4693 I0.0074 J0.0033
G3 X1.7021 Y4.4781 I-0.0057 J0.0054
X1.3776 Y4.6797 I-0.3245 J-0.1604
Y3.9557 I0. J-0.362
X1.7021 Y4.4781 I0. J0.362
X1.6987 Y4.4826 Z-0.2339 I-0.0134 J-0.0066
X1.6946 Y4.4852 Z-0.2306 I-0.0099 J-0.0111
X1.6915 Y4.4861 Z-0.2258 I-0.0059 J-0.0137
X1.6904 Y4.4863 Z-0.2201 I-0.0028 J-0.0146
G0 Z0.6
(SHAPE THROUGH HOLE)
M7
G0 X2.6164 Y5.1967
Z0.6
Z0.1
G3 X2.4809 Y5.1559 Z0.0608 I-0.0678 J-0.0204 F50.
X2.6164 Y5.1967 Z0.0216 I0.0678 J0.0204
X2.4809 Y5.1559 Z-0.0176 I-0.0678 J-0.0204
X2.6164 Y5.1967 Z-0.0568 I0.0678 J0.0204
X2.4809 Y5.1559 Z-0.096 I-0.0678 J-0.0204
X2.6164 Y5.1967 Z-0.1352 I0.0678 J0.0204
X2.4809 Y5.1559 Z-0.1744 I-0.0678 J-0.0204
X2.6194 Y5.1763 Z-0.21 I0.0678 J0.0204
X2.4779 I-0.0708 J0.
X2.6194 I0.0708 J0.
X2.6389 Y5.2153 I-0.073 J0.0609 F60.
G1 X2.6373 Y5.2457
G3 X2.4483 Y5.2919 I-0.1069 J-0.0273
G1 X2.4544 Y5.1763
X2.4577 Y5.1301
X2.459 Y5.1069
X2.4613 Y5.099
X2.4642 Y5.0912
X2.4676 Y5.0837
X2.4716 Y5.0764
X2.4762 Y5.0695
X2.4813 Y5.0629
X2.4868 Y5.0568
X2.4928 Y5.0511
X2.4993 Y5.0458
X2.5061 Y5.0411
X2.5132 Y5.0369
X2.5207 Y5.0332
X2.5283 Y5.0302
X2.5363 Y5.0277
X2.5443 Y5.0258
X2.5525 Y5.0245
X2.5608 Y5.0239
X2.5691
X2.5773 Y5.0245
X2.5855 Y5.0257
X2.5936 Y5.0276
X2.6015 Y5.03
X2.6092 Y5.0331
X2.6167 Y5.0367
X2.6238 Y5.0409
X2.6306 Y5.0456
X2.6371 Y5.0509
X2.6375 Y5.0536
Y5.0563
X2.6369 Y5.059
X2.6359 Y5.0615
X2.6343 Y5.0639
X2.6324 Y5.0658
X2.6302 Y5.0675
X2.6277 Y5.0686
X2.6195 Y5.0715
X2.4809 Y5.1206
X2.4788 Y5.1213 F50.
G3 X2.459 Y5.1069 I-0.005 J-0.014
X2.647 Y5.0699 I0.094 J-0.0185 F60.
X2.6401 Y5.1281 I-0.094 J0.0185
G1 X2.641 Y5.1763
X2.6389 Y5.2153
G3 X2.6093 Y5.2166 I-0.0149 J-0.0008
X2.617 Y5.2077 I0.0077 J-0.0011
X2.6302 Y5.2156 I-0.0001 J0.0149
X2.6373 Y5.2457 I-0.0551 J0.0291 F50.
G1 X2.6334 Y5.3221 F60.
G3 X2.4427 Y5.3924 I-0.1205 J-0.0328
G1 X2.4485 Y5.2917
G3 X2.457 Y5.2795 I0.0148 J0.0013
X2.4971 Y5.3034 I0.012 J0.0255
X2.465 Y5.3714 I-0.0786 J0.0045
X2.4519 Y5.3793 I-0.0466 J-0.0635 F50.
G2 X2.4433 Y5.3915 I0.0063 J0.0135
G1 X2.4423 Y5.4115 F60.
G2 X2.6261 Y5.4666 I0.1096 J-0.0314
G1 X2.6334 Y5.3221
G2 X2.6082 Y5.3112 I-0.0149 J-0.0002
X2.6012 Y5.3207 I0.0245 J0.0253
X2.5886 Y5.3737 I0.1055 J0.0531
X2.6096 Y5.441 I0.1181 J0.
X2.6218 Y5.4558 I0.0971 J-0.0672 F50.
G3 X2.626 Y5.4664 I-0.0107 J0.0104
G1 X2.6246 Y5.4929 F60.
X2.6217 Y5.5007
X2.6183 Y5.5083
X2.6144 Y5.5156
X2.6099 Y5.5226
X2.605 Y5.5293
X2.5996 Y5.5356
X2.5937 Y5.5415
X2.5875 Y5.5469
X2.5809 Y5.5519
X2.5739 Y5.5565
X2.5667 Y5.5605
X2.5591 Y5.564
X2.5514 Y5.567
X2.5434 Y5.5694
X2.5353 Y5.5712
X2.5271 Y5.5724
X2.5189 Y5.5731
X2.5106
X2.5023 Y5.5726
X2.4941 Y5.5715
X2.4859 Y5.5698
X2.478 Y5.5675
X2.4702 Y5.5647
X2.4626 Y5.5613
X2.4553 Y5.5574
X2.4482 Y5.553
X2.4415 Y5.5481
X2.4352 Y5.5427
X2.4423 Y5.4115
G3 X2.4508 Y5.3993 I0.0148 J0.0013
X2.4645 Y5.4015 I0.0052 J0.0112
X2.4572 Y5.5224 I-0.0539 J0.0574
X2.444 Y5.5302 I-0.0465 J-0.0635 F50.
G2 X2.4355 Y5.5424 I0.0063 J0.0135
G1 X2.4341 Y5.5696 F60.
G2 X2.628 Y5.624 I0.1139 J-0.0333
G1 X2.6195 Y5.5927
X2.6218 Y5.5464
X2.6246 Y5.4929
G2 X2.6174 Y5.4799 I-0.0149 J-0.0003
X2.5731 Y5.4883 I-0.0174 J0.029
X2.6019 Y5.6073 I0.0625 J0.0479
X2.6163 Y5.6125 I0.0337 J-0.0712 F50.
G3 X2.627 Y5.6229 I-0.0037 J0.0144
G1 X2.6309 Y5.639 F60.
G3 X2.4618 Y5.7199 I-0.1087 J-0.0099
X2.4341 Y5.5696 I0.1554 J-0.1064
X2.4426 Y5.5574 I0.0148 J0.0013
X2.4522 Y5.5593 I0.0035 J0.0075
G1 X2.4554 Y5.5629
G3 X2.4701 Y5.6931 I-0.0903 J0.0761
X2.4622 Y5.7063 I-0.105 J-0.0541 F50.
G2 X2.461 Y5.7211 I0.0123 J0.0085
G1 X2.4664 Y5.7315 F60.
X2.497 Y5.7681
X2.5039 Y5.7737
X2.5111 Y5.7789
X2.5187 Y5.7836
X2.5266 Y5.7877
X2.5348 Y5.7912
X2.5432 Y5.7942
X2.5518 Y5.7965
X2.5605 Y5.7983
X2.5693 Y5.7994
X2.5782 Y5.8
X2.5871 Y5.7999
X2.596 Y5.7991
X2.6048 Y5.7978
X2.6135 Y5.7958
X2.622 Y5.7933
X2.6303 Y5.7901
X2.6384 Y5.7864
X2.6462 Y5.7821
X2.6537 Y5.7773
X2.6608 Y5.7719
X2.6675 Y5.7661
X2.6739 Y5.7598
X2.6797 Y5.7531
X2.6851 Y5.746
X2.6899 Y5.7386
X2.6943 Y5.7308
X2.698 Y5.7227
X2.7012 Y5.7144
G3 X2.6309 Y5.639 I1.5817 J-1.5438
G2 X2.6166 Y5.6349 I-0.0107 J0.0104
X2.6002 Y5.6782 I0.0068 J0.0274
X2.6698 Y5.7122 I0.0648 J-0.0447
X2.6849 Y5.7098 I-0.0047 J-0.0786 F50.
G3 X2.6992 Y5.7137 I0.0037 J0.0144
G1 X2.7124 Y5.7281 F60.
G3 X2.6021 Y5.8833 I-0.1018 J0.0444
X2.497 Y5.7681 I1.7397 J-1.6931
X2.4949 Y5.7533 I0.0117 J-0.0092
X2.5594 Y5.7355 I0.039 J0.0158
X2.6035 Y5.8542 I-0.0714 J0.0941
X2.5994 Y5.869 I-0.1155 J-0.0246 F50.
G2 X2.6021 Y5.8836 I0.014 J0.005
G1 X2.622 Y5.9053 F60.
X2.6295 Y5.9097
X2.6372 Y5.9134
X2.6452 Y5.9166
X2.6534 Y5.9192
X2.6618 Y5.9212
X2.6703 Y5.9226
X2.6788 Y5.9233
X2.6874 Y5.9234
X2.696 Y5.9229
X2.7045 Y5.9218
X2.713 Y5.92
X2.7212 Y5.9177
X2.7293 Y5.9147
X2.7372 Y5.9112
X2.7447 Y5.9071
X2.752 Y5.9024
X2.7588 Y5.8973
X2.7653 Y5.8916
X2.7714 Y5.8855
X2.777 Y5.879
X2.7821 Y5.8721
X2.7867 Y5.8648
X2.7907 Y5.8572
X2.7942 Y5.8493
X2.7971 Y5.8412
X2.7994 Y5.8329
X2.801 Y5.8245
G3 X2.7124 Y5.7281 I5.3873 J-5.0401
G2 X2.6981 Y5.7241 I-0.0106 J0.0105
X2.6884 Y5.7349 I0.0033 J0.0127
X2.771 Y5.8227 I0.0782 J0.0092
X2.7861 Y5.8204 I-0.0043 J-0.0786 F50.
G3 X2.8004 Y5.8244 I0.0037 J0.0144
G1 X2.8175 Y5.8431 F60.
X2.8208 Y5.851
X2.8234 Y5.859
X2.8255 Y5.8673
X2.827 Y5.8756
X2.8278 Y5.8841
X2.828 Y5.8926
X2.8276 Y5.901
X2.8266 Y5.9095
X2.825 Y5.9178
X2.8228 Y5.926
X2.8199 Y5.934
X2.8165 Y5.9418
X2.8126 Y5.9493
X2.8081 Y5.9565
X2.8031 Y5.9633
X2.7975 Y5.9698
X2.7916 Y5.9758
X2.7852 Y5.9814
X2.7784 Y5.9865
X2.7713 Y5.9911
X2.7638 Y5.9952
X2.7561 Y5.9987
X2.7481 Y6.0016
X2.74 Y6.004
X2.7317 Y6.0057
X2.7233 Y6.0069
X2.7148 Y6.0074
X2.6411 Y5.9263
X2.622 Y5.9053
G3 X2.6237 Y5.8843 I0.0113 J-0.0097
X2.6476 Y5.8816 I0.014 J0.0164
X2.7112 Y5.9767 I-0.0541 J0.105
X2.7113 Y5.9959 I-0.1177 J0.0099 F50.
G2 X2.7148 Y6.0067 I0.0149 J0.0012
G1 X2.7336 Y6.0274 F60.
X2.7411 Y6.0313
X2.7489 Y6.0347
X2.7569 Y6.0376
X2.7651 Y6.0398
X2.7734 Y6.0415
X2.7818 Y6.0425
X2.7903 Y6.0429
X2.7988 Y6.0427
X2.8073 Y6.0419
X2.8156 Y6.0405
X2.8239 Y6.0385
X2.832 Y6.0359
X2.8398 Y6.0327
X2.8474 Y6.0289
X2.8548 Y6.0246
X2.8617 Y6.0198
X2.8684 Y6.0145
X2.8746 Y6.0087
X2.8804 Y6.0025
X2.8857 Y5.9958
X2.8905 Y5.9888
X2.8948 Y5.9815
X2.8986 Y5.9739
X2.9017 Y5.966
X2.9044 Y5.958
X2.9064 Y5.9497
X2.9078 Y5.9413
X2.8424 Y5.8703
X2.8175 Y5.8431
G2 X2.7965 Y5.8429 I-0.0106 J0.0104
X2.7917 Y5.8703 I0.0166 J0.017
X2.8777 Y5.9351 I0.1063 J-0.0516
X2.8968 Y5.9368 I0.0203 J-0.1164 F50.
G3 X2.9073 Y5.9413 I-0.0001 J0.0149
G1 X2.9185 Y5.9535 F60.
X2.9271 Y5.9628
G3 X2.8237 Y6.1258 I-0.1112 J0.0437
G1 X2.7336 Y6.0274
G3 X2.7461 Y6.0029 I0.0114 J-0.0097
X2.7841 Y6.0199 I-0.005 J0.062
X2.8202 Y6.0957 I-0.0817 J0.0853
Y6.1149 I-0.1177 J0.0095 F50.
G2 X2.8237 Y6.1258 I0.0148 J0.0012
G1 X2.8261 Y6.1284 F60.
X2.8401 Y6.1435
X2.8472 Y6.1477
X2.8547 Y6.1513
X2.8624 Y6.1544
X2.8703 Y6.157
X2.8783 Y6.1589
X2.8865 Y6.1603
X2.8947 Y6.1611
X2.903 Y6.1613
X2.9113 Y6.1609
X2.9195 Y6.1599
X2.9277 Y6.1584
X2.9357 Y6.1562
X2.9435 Y6.1535
X2.9511 Y6.1502
X2.9585 Y6.1463
X2.9655 Y6.142
X2.9723 Y6.1372
X2.9786 Y6.1318
X2.9846 Y6.1261
X2.9901 Y6.1199
X2.9952 Y6.1134
X2.9998 Y6.1065
X3.0039 Y6.0993
X3.0075 Y6.0918
X3.0105 Y6.084
X3.0129 Y6.0761
X3.0148 Y6.068
X3.0161 Y6.0599
X2.9694 Y6.0091
X2.9648 Y6.0041
X2.9271 Y5.9628
G2 X2.9127 Y5.9589 I-0.0106 J0.0105
X2.904 Y5.9687 I0.003 J0.0115
G1 X2.9038 Y5.9701
G2 X2.9864 Y6.0582 I0.0782 J0.0095
X3.0015 Y6.0558 I-0.0045 J-0.0786 F50.
G3 X3.0159 Y6.0598 I0.0037 J0.0144
G1 X3.0331 Y6.0787 F60.
X3.0365 Y6.0865
X3.0394 Y6.0946
X3.0416 Y6.1028
X3.0432 Y6.1112
X3.0442 Y6.1197
X3.0445 Y6.1282
X3.0443 Y6.1367
X3.0434 Y6.1452
X3.0419 Y6.1536
X3.0397 Y6.1619
X3.037 Y6.17
X3.0337 Y6.1778
X3.0298 Y6.1854
X3.0254 Y6.1927
X3.0205 Y6.1997
X3.015 Y6.2062
X3.0091 Y6.2124
X3.0028 Y6.2181
X2.996 Y6.2233
X2.9889 Y6.2281
X2.9815 Y6.2322
X2.9738 Y6.2359
X2.9658 Y6.2389
X2.9576 Y6.2414
X2.9493 Y6.2432
X2.9409 Y6.2445
X2.9324 Y6.2451
G2 X2.8401 Y6.1435 I-4.9933 J4.4441
G3 X2.8524 Y6.1189 I0.0113 J-0.0098
X2.8967 Y6.1396 I-0.0049 J0.068
X2.9294 Y6.2142 I-0.0851 J0.0819
X2.9291 Y6.2334 I-0.1179 J0.0073 F50.
G2 X2.9323 Y6.2443 I0.0148 J0.0015
G1 X2.949 Y6.2633 F60.
X2.9564 Y6.2674
X2.9641 Y6.271
X2.9721 Y6.2741
X2.9803 Y6.2765
X2.9886 Y6.2783
X2.9971 Y6.2795
X3.0056 Y6.2801
X3.0141
X3.0226 Y6.2794
X3.0311 Y6.2781
X3.0394 Y6.2762
X3.0475 Y6.2737
X3.0555 Y6.2706
X3.0632 Y6.2669
X3.0706 Y6.2626
X3.0777 Y6.2579
X3.0844 Y6.2526
X3.0907 Y6.2468
X3.0965 Y6.2406
X3.1019 Y6.234
X3.1068 Y6.227
X3.1112 Y6.2197
X3.115 Y6.2121
X3.1182 Y6.2042
X3.1209 Y6.1961
X3.1229 Y6.1878
X3.1244 Y6.1794
G2 X3.0331 Y6.0787 I-5.7168 J5.0872
X3.0121 Y6.0785 I-0.0106 J0.0104
X3.0071 Y6.1049 I0.0165 J0.0168
X3.0941 Y6.173 I0.1078 J-0.0483
X3.1132 Y6.1748 I0.0208 J-0.1163 F50.
G3 X3.1237 Y6.1793 I-0.0002 J0.0149
G1 X3.1409 Y6.1984 F60.
X3.1443 Y6.2062
X3.147 Y6.2143
X3.1492 Y6.2225
X3.1507 Y6.2309
X3.1517 Y6.2393
X3.152 Y6.2478
X3.1517 Y6.2564
X3.1508 Y6.2648
X3.1492 Y6.2732
X3.1471 Y6.2814
X3.1443 Y6.2895
X3.141 Y6.2973
X3.1371 Y6.3049
X3.1326 Y6.3122
X3.1277 Y6.3191
X3.1222 Y6.3257
X3.1163 Y6.3318
X3.11 Y6.3375
X3.1032 Y6.3427
X3.0961 Y6.3474
X3.0887 Y6.3515
X3.081 Y6.3551
X3.073 Y6.3582
X3.0648 Y6.3606
X3.0565 Y6.3625
X3.0481 Y6.3637
X3.0396 Y6.3643
X3.011 Y6.3324
X2.9695 Y6.2867
X2.949 Y6.2633
G3 X2.962 Y6.239 I0.0115 J-0.0094
X2.9926 Y6.2516 I-0.0058 J0.0576
X3.036 Y6.3335 I-0.0743 J0.0919
X3.0361 Y6.3527 I-0.1177 J0.0099 F50.
G2 X3.0396 Y6.3636 I0.0149 J0.0012
G1 X3.0539 Y6.3792 F60.
X3.0572 Y6.3829
X3.0647 Y6.387
X3.0725 Y6.3905
X3.0805 Y6.3935
X3.0887 Y6.3958
X3.097 Y6.3975
X3.1055 Y6.3986
X3.114 Y6.3991
X3.1225 Y6.399
X3.131 Y6.3982
X3.1394 Y6.3969
X3.1477 Y6.3949
X3.1558 Y6.3923
X3.1638 Y6.3891
X3.1714 Y6.3854
X3.1788 Y6.3811
X3.1858 Y6.3762
X3.1924 Y6.3709
X3.1987 Y6.3651
X3.2045 Y6.3589
X3.2098 Y6.3522
X3.2147 Y6.3452
X3.219 Y6.3378
X3.2227 Y6.3302
X3.2259 Y6.3223
X3.2285 Y6.3142
X3.2305 Y6.3059
X3.2319 Y6.2975
X3.1409 Y6.1984
G2 X3.1153 Y6.2084 I-0.0107 J0.0104
X3.1248 Y6.2405 I0.0559 J0.001
X3.202 Y6.2911 I0.0982 J-0.0657
X3.2211 Y6.2929 I0.0209 J-0.1162 F50.
G3 X3.2316 Y6.2974 I-0.0002 J0.0149
G1 X3.2422 Y6.3092 F60.
X3.2482 Y6.3157
X3.2516 Y6.3233
X3.2544 Y6.331
X3.2567 Y6.3389
X3.2584 Y6.347
X3.2596 Y6.3552
X3.2601 Y6.3634
Y6.3717
X3.2595 Y6.3799
X3.2582 Y6.3881
X3.2564 Y6.3962
X3.2541 Y6.4041
X3.2512 Y6.4118
X3.2477 Y6.4193
X3.2437 Y6.4265
X3.2392 Y6.4335
X3.2343 Y6.4401
X3.2288 Y6.4463
X3.223 Y6.4521
X3.2167 Y6.4575
X3.2101 Y6.4624
X3.2031 Y6.4669
X3.1959 Y6.4708
X3.1884 Y6.4742
X3.1806 Y6.4771
X3.1727 Y6.4794
X3.1646 Y6.4811
X3.1564 Y6.4823
X3.1482 Y6.4829
X3.0962 Y6.4254
X3.0572 Y6.3829
G3 X3.07 Y6.3585 I0.0114 J-0.0096
X3.1058 Y6.3741 I-0.0054 J0.0615
X3.1446 Y6.4522 I-0.0789 J0.0879
X3.1447 Y6.4714 I-0.1177 J0.0098 F50.
G2 X3.1482 Y6.4822 I0.0149 J0.0012
G1 X3.1653 Y6.5009 F60.
X3.1728 Y6.5051
X3.1806 Y6.5086
X3.1886 Y6.5116
X3.1968 Y6.514
X3.2052 Y6.5158
X3.2137 Y6.5169
X3.2222 Y6.5174
X3.2307 Y6.5173
X3.2393 Y6.5166
X3.2477 Y6.5153
X3.256 Y6.5133
X3.2642 Y6.5107
X3.2721 Y6.5076
X3.2798 Y6.5038
X3.2872 Y6.4995
X3.2943 Y6.4947
X3.3009 Y6.4894
X3.3072 Y6.4836
X3.313 Y6.4773
X3.3184 Y6.4707
X3.3233 Y6.4636
X3.3276 Y6.4563
X3.3314 Y6.4486
X3.3346 Y6.4407
X3.3372 Y6.4325
X3.3392 Y6.4242
X3.3405 Y6.4158
G3 X3.2482 Y6.3157 I7.4824 J-6.9972
G2 X3.2227 Y6.3261 I-0.0106 J0.0105
X3.2338 Y6.3612 I0.0604 J0.0003
X3.3102 Y6.4095 I0.0965 J-0.0681
X3.3294 Y6.4112 I0.02 J-0.1164 F50.
G3 X3.3399 Y6.4157 I-0.0001 J0.0149
G1 X3.3576 Y6.4351 F60.
X3.361 Y6.4429
X3.3638 Y6.4509
X3.3659 Y6.4592
X3.3675 Y6.4675
X3.3685 Y6.476
X3.3688 Y6.4845
X3.3685 Y6.493
X3.3676 Y6.5015
X3.3661 Y6.5098
X3.3639 Y6.5181
X3.3612 Y6.5261
X3.3579 Y6.5339
X3.354 Y6.5415
X3.3496 Y6.5488
X3.3446 Y6.5557
X3.3392 Y6.5623
X3.3333 Y6.5684
X3.327 Y6.5741
X3.3202 Y6.5793
X3.3131 Y6.584
X3.3057 Y6.5881
X3.298 Y6.5917
X3.2901 Y6.5948
X3.2819 Y6.5972
X3.2736 Y6.5991
X3.2652 Y6.6003
X3.2567 Y6.6009
G2 X3.1653 Y6.5009 I-11.0012 J9.9643
G3 X3.1778 Y6.4764 I0.0113 J-0.0097
X3.209 Y6.4887 I-0.0045 J0.057
X3.253 Y6.5706 I-0.0736 J0.0923
X3.2531 Y6.5898 I-0.1176 J0.0105 F50.
G2 X3.2567 Y6.6006 I0.0149 J0.0011
G1 X3.2659 Y6.6105 F60.
X3.2721 Y6.6173
G2 X3.4477 Y6.5373 I0.0608 J-0.0994
X3.3576 Y6.4351 I-1.656 J1.3688
X3.3433 Y6.4311 I-0.0106 J0.0104
X3.3242 Y6.4864 I0.0087 J0.034
X3.4187 Y6.5327 I0.0938 J-0.0717
X3.4339 Y6.5317 I-0.0007 J-0.1181 F50.
G3 X3.4477 Y6.5373 I0.002 J0.0148
G1 X3.4672 Y6.5642 F60.
X3.4717 Y6.6001
G3 X3.2789 Y6.6156 I-0.0978 J-0.0093
G1 X3.2697 Y6.6193
X3.2604 Y6.6224
X3.2509 Y6.625
X3.2412 Y6.6269
X3.2314 Y6.6283
X3.2216 Y6.629
X3.2117 Y6.6291
X3.2019 Y6.6286
X3.1921 Y6.6275
X3.1823 Y6.6258
X3.1728 Y6.6235
X3.1633 Y6.6205
X3.1541 Y6.617
X3.1451 Y6.6129
X3.1364 Y6.6083
X3.128 Y6.6031
X3.12 Y6.5974
X3.1123 Y6.5913
X3.105 Y6.5846
X3.0982 Y6.5775
X3.0918 Y6.57
X3.0858 Y6.5621
X3.0804 Y6.5539
X3.0755 Y6.5453
X3.0712 Y6.5365
X3.0674 Y6.5274
G3 X2.7286 Y6.17 I3.5235 J-3.6802
G1 X2.5635 Y5.9896
G3 X2.3468 Y5.6978 I0.4361 J-0.5504
X2.3669 Y5.0581 I3.0944 J-0.2227
X2.5938 Y4.9085 I0.1853 J0.0341
X2.7341 Y5.1411 I-0.0416 J0.1837
X2.7234 Y5.5697 I-3.9203 J0.1166
G2 X3.353 Y6.2795 I9.6263 J-7.9044
G3 X3.5561 Y6.5419 I-0.4311 J0.5435
X3.2732 Y6.7463 I-0.1775 J0.0523
X2.8565 Y6.4592 I0.153 J-0.6679
G2 X2.7127 Y6.3008 I-19.25 J17.3236
G1 X2.4857 Y6.0527
X2.4239 Y5.985
X2.4033 Y5.9624
G3 X2.2521 Y5.4005 I0.406 J-0.4106
X2.2803 Y5.0139 I0.9905 J-0.122
G1 X2.3505 Y4.91
X2.3583 Y4.9003
X2.3665 Y4.8909
X2.3752 Y4.882
X2.3843 Y4.8734
X2.3937 Y4.8654
X2.4036 Y4.8578
X2.4138 Y4.8506
X2.4244 Y4.844
X2.4352 Y4.8379
X2.4463 Y4.8323
X2.4577 Y4.8273
X2.4693 Y4.8228
X2.4811 Y4.8188
X2.4931 Y4.8154
X2.5053 Y4.8127
X2.5175 Y4.8104
X2.5299 Y4.8088
X2.5423 Y4.8078
X2.5547 Y4.8074
X2.5672 Y4.8075
X2.5796 Y4.8083
X2.592 Y4.8097
X2.6043 Y4.8116
X2.6165 Y4.8141
X2.6285 Y4.8173
X2.6404 Y4.821
X2.6521 Y4.8252
X2.6636 Y4.83
X2.6748 Y4.8354
X2.6858 Y4.8413
X2.6965 Y4.8477
X2.7069 Y4.8546
X2.7169 Y4.862
X2.7265 Y4.8698
X2.7358 Y4.8782
X2.7446 Y4.8869
X2.7531 Y4.8961
X2.8041 Y4.9909
G3 X2.8183 Y5.473 I-0.9911 J0.2704
G2 X3.0033 Y5.7496 I0.634 J-0.2239
G1 X3.2475 Y6.0181
X3.4922 Y6.2862
X3.6334 Y6.552
X3.6366 Y6.564
X3.6393 Y6.5762
X3.6413 Y6.5885
X3.6427 Y6.6009
X3.6436 Y6.6133
X3.6437 Y6.6257
X3.6433 Y6.6382
X3.6423 Y6.6506
X3.6406 Y6.6629
X3.6383 Y6.6752
X3.6354 Y6.6873
X3.6319 Y6.6993
X3.6278 Y6.711
X3.6232 Y6.7226
X3.6179 Y6.7339
X3.6121 Y6.7449
X3.6058 Y6.7556
X3.599 Y6.766
X3.5916 Y6.7761
X3.5837 Y6.7857
X3.5754 Y6.795
X3.5666 Y6.8038
X3.5574 Y6.8122
X3.5478 Y6.8201
X3.5378 Y6.8275
X3.5274 Y6.8344
X3.5167 Y6.8408
X3.5057 Y6.8467
X3.4944 Y6.8519
X3.4829 Y6.8567
X3.4712 Y6.8608
X3.4592 Y6.8643
X3.4471 Y6.8673
X3.4349 Y6.8696
X3.4226 Y6.8714
X3.4102 Y6.8725
X3.3977 Y6.873
X3.3853 Y6.8728
X3.3728 Y6.8721
X3.3604 Y6.8707
X3.3482 Y6.8687
X2.7791 Y6.4973
G3 X2.173 Y5.8144 I2.3109 J-2.6615
X2.1541 Y5.2006 I2.0432 J-0.3699
G1 X2.2803 Y5.0139
G3 X2.2939 Y5.0079 I0.012 J0.0088
X2.3386 Y5.0686 I-0.0053 J0.0508
X2.183 Y5.1954 I-0.1545 J-0.0306
X2.1677 Y5.1946 I0.0011 J-0.1575 F50.
G2 X2.1541 Y5.2006 I-0.0016 J0.0148
G1 X2.0849 Y5.3031 F60.
G2 X2.338 Y6.1735 I0.7223 J0.262
X2.3861 Y6.2397 I0.1382 J-0.05
G1 X2.7791 Y6.4973
G2 X2.794 Y6.4976 I0.0077 J-0.0127
X2.8088 Y6.4717 I-0.0136 J-0.0249
X2.4147 Y6.2331 I-0.2754 J0.0101
G1 X2.401 Y6.24 F50.
G3 X2.3861 Y6.2397 I-0.0072 J-0.0131
G1 X2.1437 Y6.0808 F60.
G3 X1.9428 Y5.5134 I0.5019 J-0.497
G1 X2.0849 Y5.3031
G3 X2.0985 Y5.2971 I0.012 J0.0088
X2.1282 Y5.3251 I-0.0035 J0.0335
X1.9717 Y5.5082 I-0.1554 J0.0256
X1.9564 Y5.5074 I0.0011 J-0.1575 F50.
G2 X1.9428 Y5.5134 I-0.0016 J0.0148
G1 X1.8896 Y5.5922 F60.
G2 X1.9136 Y5.9293 I0.3917 J0.1414
G1 X1.9146 Y5.9304
X1.9157 Y5.9314
X2.1437 Y6.0808
G2 X2.1659 Y6.0645 I0.0077 J-0.0127
X2.014 Y5.9283 I-0.1755 J0.043
X1.9459 Y5.9293 I-0.0308 J0.2342
G1 X1.927 Y5.9331 F50.
G3 X1.9157 Y5.9314 I-0.0035 J-0.0145
G1 X1.8434 Y5.8839 F60.
G3 X1.7737 Y5.7638 I0.0827 J-0.1282
X1.7981 Y5.7643 I0.012 J0.0088
G1 X1.7994 Y5.7661
X1.8635 Y5.8629
X1.8649 Y5.8657
X1.8658 Y5.8687
X1.866 Y5.8718
G3 X1.8434 Y5.8839 I-0.0149 J-0.0006 F50.
X1.7461 Y5.8169 I0.1086 J-0.2618 F60.
G1 X1.745 Y5.8144
X1.7449 Y5.8138
Y5.811
X1.745 Y5.8106
X1.7497 Y5.7992
X1.8896 Y5.5922
G3 X1.9151 Y5.5947 I0.012 J0.0088
G1 X1.9163 Y5.5973 Z-0.2097
X1.9175 Y5.5999 Z-0.2089
X1.9186 Y5.6022 Z-0.2075
X1.9196 Y5.6042 Z-0.2056
X1.9204 Y5.6059 Z-0.2034
X1.9209 Y5.6072 Z-0.2008
X1.9213 Y5.6079 Z-0.198
X1.9214 Y5.6082 Z-0.1951
G0 Z-0.1802
X2.7697 Y4.9611
G1 Z-0.1951 F50.
X2.77 Y4.9612 Z-0.198
X2.7707 Y4.9617 Z-0.2008
X2.7719 Y4.9624 Z-0.2034
X2.7735 Y4.9633 Z-0.2056
X2.7754 Y4.9645 Z-0.2075
X2.7776 Y4.9659 Z-0.2089
X2.78 Y4.9673 Z-0.2097
X2.7825 Y4.9688 Z-0.21
G3 X2.8041 Y4.9909 I-0.0324 J0.0532
G1 X2.9062 Y5.1831 F60.
G3 X2.9393 Y5.5025 I-1.8488 J0.3527
G2 X3.3048 Y5.9296 I2.5414 J-1.8053
G1 X3.4922 Y6.2862
G3 X3.4911 Y6.301 I-0.0134 J0.0065
X3.4669 Y6.3119 I-0.0208 J-0.014
X3.2943 Y5.9588 I0.0314 J-0.2341
G1 X3.3024 Y5.9458 F50.
G2 X3.3035 Y5.931 I-0.0124 J-0.0083
G1 X3.1419 Y5.6269 F60.
G3 X3.0343 Y5.4244 I0.257 J-0.2665
G1 X3.0339 Y5.4235
X2.9062 Y5.1831
G2 X2.8784 Y5.1906 I-0.0129 J0.0074
G1 X2.8786 Y5.1931
G3 X2.8498 Y5.2003 I-0.0147 J0.0025
G1 X2.7605 Y4.9314
X2.7599 Y4.9287
X2.7597 Y4.926
G2 X2.7535 Y4.8957 I-0.0622 J-0.003 F50.
G1 X2.6997 Y4.7943 F60.
G2 X2.476 Y4.7242 I-0.1615 J0.1234
G1 X2.3505 Y4.91
G2 X2.35 Y4.9249 I0.0126 J0.0079
X2.4241 Y4.9435 I0.0454 J-0.0241
X2.482 Y4.7529 I-0.0877 J-0.1308
X2.4755 Y4.739 I-0.1457 J0.0598 F50.
G3 X2.476 Y4.7242 I0.0132 J-0.007
G1 X2.5068 Y4.6787 F60.
G3 X2.62 Y4.642 I0.0861 J0.0726
G1 X2.6211 Y4.6448
X2.6218 Y4.6477
Y4.6507
X2.6213 Y4.6536
X2.6203 Y4.6563
X2.6187 Y4.6588
X2.6168 Y4.6609
X2.6145 Y4.6626
X2.612 Y4.6638
X2.6058 Y4.6664
X2.5252 Y4.7003
X2.5219 Y4.7013
X2.5186 Y4.7015
G3 X2.5068 Y4.6787 I0.0008 J-0.0149 F50.
G1 X2.5596 Y4.6005 F60.
X2.5614 Y4.5981
X2.5623 Y4.597
X2.5661 Y4.5924
X2.5742 Y4.586
X2.5774 Y4.5841
X2.581 Y4.583
X2.5846 Y4.5837
X2.5876 Y4.586
G3 X2.5862 Y4.5932 I-0.0041 J0.0029
G1 X2.5835 Y4.5949
X2.569 Y4.6041 F50.
G3 X2.5623 Y4.597 I-0.0027 J-0.0042
X2.5885 Y4.582 I0.0201 J0.0046 F60.
X2.6014 Y4.6093 I-0.0062 J0.0196
G1 X2.6997 Y4.7943
G3 X2.6855 Y4.8158 I-0.0134 J0.0065
G1 X2.6826 Y4.8156 Z-0.2097
X2.6798 Y4.8155 Z-0.2089
X2.6772 Y4.8153 Z-0.2075
X2.675 Y4.8152 Z-0.2056
X2.6731 Y4.8151 Z-0.2034
X2.6718 Y4.815 Z-0.2008
X2.6709 Z-0.198
X2.6706 Z-0.1951
G0 Z0.4
X3.1474 Y5.6721
Z-0.1802
G1 Z-0.1951 F50.
X3.1475 Y5.6718 Z-0.198
Y5.671 Z-0.2008
X3.1476 Y5.6696 Z-0.2034
X3.1477 Y5.6677 Z-0.2056
X3.1478 Y5.6655 Z-0.2075
X3.1479 Y5.6629 Z-0.2089
X3.148 Y5.6601 Z-0.2097
X3.1482 Y5.6572 Z-0.21
G2 X3.1419 Y5.6269 I-0.0622 J-0.003
G1 X3.0339 Y5.4235 F60.
G2 X3.0207 Y5.416 I-0.0129 J0.0074
G1 X3.0178 Y5.4161 Z-0.2097
X3.015 Z-0.2089
X3.0124 Y5.4162 Z-0.2075
X3.0101 Z-0.2056
X3.0083 Z-0.2034
X3.0069 Y5.4163 Z-0.2008
X3.0061 Z-0.198
X3.0058 Z-0.1951
G0 Z-0.1802
X3.599 Y6.5221
G1 Z-0.1951 F50.
X3.5993 Y6.5223 Z-0.198
X3.6 Y6.5227 Z-0.2008
X3.6012 Y6.5235 Z-0.2034
X3.6027 Y6.5244 Z-0.2056
X3.6047 Y6.5256 Z-0.2075
X3.6069 Y6.5269 Z-0.2089
X3.6093 Y6.5284 Z-0.2097
X3.6117 Y6.5299 Z-0.21
G3 X3.6334 Y6.552 I-0.0324 J0.0532
G1 X3.6918 Y6.662 F60.
X3.6941 Y6.6736
X3.6958 Y6.6853
X3.6969 Y6.6971
X3.6974 Y6.7089
X3.6973 Y6.7208
X3.6966 Y6.7326
X3.6953 Y6.7444
X3.6935 Y6.756
X3.691 Y6.7676
X3.688 Y6.7791
X3.6844 Y6.7903
X3.6803 Y6.8014
X3.6756 Y6.8123
X3.6703 Y6.8229
X3.6646 Y6.8332
X3.6583 Y6.8432
X3.6515 Y6.8529
X3.6442 Y6.8623
X3.6365 Y6.8713
X3.6284 Y6.8798
X3.6198 Y6.888
X3.6108 Y6.8957
X3.6015 Y6.903
X3.5918 Y6.9097
X3.5818 Y6.916
X3.5714 Y6.9218
X3.5608 Y6.927
X3.55 Y6.9318
X3.5389 Y6.9359
X3.5276 Y6.9395
X3.5162 Y6.9425
X3.5046 Y6.945
X3.4929 Y6.9468
X3.4812 Y6.9481
X3.4795 Y6.955
X3.4774 Y6.9546
X3.4754 Y6.9537
X3.3479 Y6.8701
G3 X3.3417 Y6.8566 I0.0086 J-0.0122
X3.4011 Y6.8223 I0.0418 J0.0038
X3.4696 Y6.9249 I-0.0495 J0.1072
X3.4692 Y6.9402 I-0.118 J0.0046 F50.
G2 X3.4754 Y6.9537 I0.0148 J0.0013
G1 X3.5185 Y6.982 F60.
G2 X3.7759 Y6.8203 I0.0386 J-0.2242
G1 X3.6918 Y6.662
G2 X3.6789 Y6.6546 I-0.0129 J0.0074
X3.6454 Y6.6855 I0. J0.0335
X3.7477 Y6.8118 I0.1177 J0.0093
X3.763 Y6.8129 I0.0155 J-0.1171 F50.
G3 X3.7759 Y6.8203 I0. J0.0149
G1 X3.7964 Y6.859 F60.
G3 X3.6511 Y7.0689 I-0.1813 J0.0298
G1 X3.5185 Y6.982
G3 X3.5123 Y6.9684 I0.0086 J-0.0122
X3.567 Y6.9335 I0.0409 J0.0037
X3.6453 Y7.0401 I-0.0397 J0.1112
X3.6449 Y7.0554 I-0.118 J0.0046 F50.
G2 X3.6511 Y7.0689 I0.0148 J0.0013
G1 X3.6838 Y7.0903 F60.
G2 X3.8691 Y6.9957 I0.044 J-0.1425
G1 X3.7964 Y6.859
G2 X3.7836 Y6.8516 I-0.0129 J0.0074
X3.7438 Y6.9058 I-0.0001 J0.0417
X3.8409 Y6.9872 I0.1126 J-0.0357
X3.8562 Y6.9883 I0.0155 J-0.1171 F50.
G3 X3.8691 Y6.9957 I0. J0.0149
G1 X3.8852 Y7.0261 F60.
G3 X3.8055 Y7.171 I-0.1113 J0.0331
G1 X3.6838 Y7.0903
G3 X3.6776 Y7.0768 I0.0086 J-0.0122
X3.7416 Y7.0441 I0.0423 J0.0038
X3.7993 Y7.141 I-0.0603 J0.1016
X3.7989 Y7.1563 I-0.118 J0.0046 F50.
G2 X3.8052 Y7.1699 I0.0148 J0.0013
G1 X3.8304 Y7.1864 F60.
G2 X3.9485 Y7.1429 I0.0362 J-0.0836
G1 X3.8852 Y7.0261
G2 X3.8723 Y7.0186 I-0.0129 J0.0074
X3.8611 Y7.0262 I0. J0.0121
G1 X3.8607 Y7.0271
G2 X3.9187 Y7.1331 I0.0733 J0.0288
X3.9339 Y7.1346 I0.0153 J-0.0772 F50.
G3 X3.9468 Y7.1421 I0. J0.0149
G1 X3.9562 Y7.1597 F60.
G3 X3.9243 Y7.2495 I-0.0616 J0.0287
G1 X3.9219 Y7.2478
X3.9199 Y7.2457
X3.9184 Y7.2433
X3.9173 Y7.2407
X3.9167 Y7.238
Y7.2352
X3.9171 Y7.2326
X3.9194 Y7.2186
X3.9286 Y7.1646
X3.9293 Y7.1619
X3.9305 Y7.1594
G3 X3.9562 Y7.1597 I0.0128 J0.0077 F50.
G1 X3.9869 Y7.2175 F60.
G3 X3.9748 Y7.2811 I-0.0271 J0.0278
X3.9688 Y7.272 I0.0086 J-0.0122
G1 X3.9647 Y7.2526
X3.9594 Y7.228
G3 X3.9612 Y7.2172 I0.0146 J-0.0031
X3.9869 Y7.2175 I0.0128 J0.0077 F50.
G1 X4.0153 Y7.271 F60.
X4.0178 Y7.2764
X4.0193 Y7.2822
X4.0198 Y7.2882
X4.0194 Y7.2942
X4.0188 Y7.2964
X4.0167 Y7.3003
X4.0127 Y7.3024
X4.0082 Y7.3019
G3 X3.9901 Y7.2852 I0.0163 J-0.0358
X3.9899 Y7.2715 I0.0126 J-0.007
X4.0153 Y7.271 I0.0128 J0.0067 F50.
G1 X4.0219 Y7.2835 F60.
X4.0253 Y7.2944
X4.0254 Y7.2952
X4.0253 Y7.2976
X4.0252 Y7.2984
X4.0238 Y7.3011
X4.0234 Y7.3016
X4.0216 Y7.3032
X4.0211 Y7.3036
X4.0184 Y7.3046
G3 X4.0037 Y7.3 I-0.0015 J-0.021
G1 X3.8304 Y7.1864
G3 X3.8325 Y7.1609 I0.0086 J-0.0122
G1 X3.8351 Y7.1596 Z-0.2097
X3.8377 Y7.1584 Z-0.2089
X3.84 Y7.1572 Z-0.2075
X3.842 Y7.1563 Z-0.2056
X3.8437 Y7.1555 Z-0.2034
X3.8449 Y7.1549 Z-0.2008
X3.8457 Y7.1545 Z-0.198
X3.8459 Y7.1544 Z-0.1951
G0 Z0.4
X0.0678 Y0.0204
Z0.1
G3 X-0.0678 Y-0.0204 Z0.0608 I-0.0678 J-0.0204 F50.
X0.0678 Y0.0204 Z0.0216 I0.0678 J0.0204
X-0.0678 Y-0.0204 Z-0.0176 I-0.0678 J-0.0204
X0.0678 Y0.0204 Z-0.0568 I0.0678 J0.0204
X-0.0678 Y-0.0204 Z-0.096 I-0.0678 J-0.0204
X0.0678 Y0.0204 Z-0.1352 I0.0678 J0.0204
X-0.0678 Y-0.0204 Z-0.1744 I-0.0678 J-0.0204
X0.0708 Y0. Z-0.21 I0.0678 J0.0204
X-0.0708 I-0.0708 J0.
X0.0708 I0.0708 J0.
X-0.08 Y0.123 I-0.0771 J0.0593 F60.
X0.0738 Y-0.1406 I0.0769 J-0.1318
X0.1376 Y-0.0678 I-0.0769 J0.1318
X-0.16 Y0.1797 I-0.1491 J0.1234
X-0.1124 Y-0.2228 I0.1417 J-0.1873
X0.1009 Y0.3155 I0.1067 J0.2691
X-0.0206 Y0.3355 I-0.1067 J-0.2692
X-0.1165 Y-0.3248 I0.0103 J-0.3386
X0.0962 Y0.4221 I0.1063 J0.3735
X-0.271 Y0.3363 I-0.1063 J-0.3735
X-0.443 Y0.028 I0.2157 J-0.3225
X0.444 Y-0.0848 I0.4476 J-0.0244
X0.2324 Y0.463 I-0.4162 J0.154
X-0.263 Y-0.4731 I-0.2477 J-0.4681
X0.0442 Y-0.5313 I0.2477 J0.4681
X0.5573 Y0.1787 I-0.0538 J0.5792
X-0.2149 Y0.5922 I-0.5668 J-0.1307
X0.1996 Y-0.6041 I0.2091 J-0.5975
X-0.0717 Y0.7262 I-0.214 J0.6492
X-0.2467 Y-0.6933 I0.0662 J-0.7287
X0.5987 Y0.5271 I0.2405 J0.7364
X-0.8289 Y0.0125 I-0.6239 J-0.5068
X0.5936 Y-0.5851 I0.8279 J-0.0211
X0.1366 Y0.9106 I-0.6019 J0.6338
G1 X-0.1206 Y0.9105
G3 X-0.9089 Y0.2022 I0.0865 J-0.889
G1 X-0.9105 Y-0.1548
G3 X-0.2064 Y-0.9089 I0.8853 J0.1209
G1 X0.1567 Y-0.9105
G3 X0.9085 Y-0.2648 I-0.1362 J0.9191
G1 X0.9105 Y0.3077
G3 X0.4386 Y0.9087 I-0.8223 J-0.1599
G1 X0.1366 Y0.9105
G3 X0.1239 Y0.9026 I0.0005 J-0.0149
X0.1405 Y0.8338 I0.0471 J-0.0251
X0.4191 Y0.8894 I0.1126 J0.1615
G1 X0.4268 Y0.9026 F50.
G2 X0.4394 Y0.9105 I0.0131 J-0.007
G1 X0.5622 F60.
G2 X0.9084 Y0.5964 I-0.1842 J-0.5509
G1 X0.9105 Y0.3077
G2 X0.9026 Y0.2951 I-0.0149 J0.0005
X0.8202 Y0.3208 I-0.0285 J0.0535
X0.8894 Y0.577 I0.175 J0.0902
G1 X0.9026 Y0.5847 F50.
G3 X0.9105 Y0.5973 I-0.007 J0.0131
G1 Y0.7009 F60.
G3 X0.7753 Y0.9105 I-0.3279 J-0.063
G1 X0.5622
G3 X0.5495 Y0.9026 I0.0005 J-0.0149
X0.5837 Y0.8244 I0.048 J-0.0256
X0.7548 Y0.8895 I0.04 J0.1523
X0.7627 Y0.9026 I-0.1311 J0.0872 F50.
G2 X0.7753 Y0.9105 I0.0131 J-0.007
G1 X0.8267 F60.
X0.8383 Y0.9112
G2 X0.9182 Y0.8773 I0.0193 J-0.0656
G3 X0.9105 Y0.7009 I0.508 J-0.1105
G2 X0.8813 Y0.6973 I-0.0149 J0.0005
G1 X0.8267 Y0.8877
X0.8254 Y0.8923 F50.
G2 X0.8383 Y0.9112 I0.0143 J0.0041
G3 X0.9009 Y0.9262 I-0.0055 J0.1613 F60.
G1 X0.9063 Y0.9288
X0.9128 Y0.9305
X0.9198 Y0.9313
X0.9271 Y0.9311
X0.9307 Y0.9304
X0.9341 Y0.9289
X0.9364 Y0.926
X0.9371 Y0.9224
X0.9361 Y0.9188
G3 X0.9182 Y0.8773 I0.0772 J-0.0579
G2 X0.9081 Y0.8663 I-0.0145 J0.0032
X0.8874 Y0.892 I-0.0053 J0.0169
X0.9079 Y0.9094 I0.0341 J-0.0196
X0.9229 Y0.9118 I0.0137 J-0.0369 F50.
G3 X0.9361 Y0.9188 I0.0005 J0.0149
G1 X0.9417 Y0.9286 F60.
X0.9445 Y0.934
X0.9447 Y0.9371
X0.9439 Y0.9412
X0.941 Y0.9443
X0.937 Y0.9455
X0.9329 Y0.9444
G3 X0.9276 Y0.9404 I0.0213 J-0.0331
X0.9279 Y0.9264 I0.0062 J-0.0068 F50.
X0.9417 Y0.9286 I0.0059 J0.0071
G1 X0.9438 Y0.9321 F60.
X0.9503 Y0.9426
X0.9533 Y0.9479
X0.9527 Y0.9507
X0.9507 Y0.9527
X0.9479 Y0.9533
X0.9453 Y0.9523
G3 X0.9421 Y0.9493 I0.0251 J-0.0303 F50.
X0.9426 Y0.9415 I0.0038 J-0.0037
X0.9503 Y0.9426 I0.0034 J0.0041
G1 X0.951 Y0.9437 F60.
X0.9573 Y0.9509
X0.9591 Y0.9533
X0.9589 Y0.9563
X0.957 Y0.9585
X0.954 Y0.9591
X0.9514 Y0.9577
G2 X0.9009 Y0.9262 I-0.2094 J0.2801
G3 X0.8991 Y0.9193 I0.0025 J-0.0043
X0.9061 Y0.9177 I0.0043 J0.0026
G1 X0.9186 Y0.9258
X0.9314 Y0.934
X0.9563 Y0.9501 F50.
X0.9573 Y0.9509
X0.961 Y0.9553 F60.
X0.9623 Y0.9565
X0.9644 Y0.9586
Y0.9617
X0.9624 Y0.9641
X0.9593 Y0.9647
X0.9566 Y0.9633
X0.9561 Y0.9627 F50.
X0.9623 Y0.9565
X0.9653 Y0.9592 F60.
X0.9682 Y0.9616
X0.9704 Y0.9636
X0.9705 Y0.9671
X0.9684 Y0.9698
X0.965 Y0.9706
X0.9619 Y0.969
X0.9615 Y0.9685 F50.
X0.9682 Y0.9616
X0.9751 Y0.9674 F60.
X0.9773 Y0.9694
Y0.9734
X0.9748 Y0.9764
X0.9709 Y0.9771
X0.9674 Y0.9752
Y0.9751 F50.
G3 X0.9751 Y0.9674 I0.0043 J-0.0034
G1 X0.9813 Y0.9726 F60.
X0.9835 Y0.9746
X0.9842 Y0.9782
X0.9828 Y0.9816
X0.9798 Y0.9837
X0.9761 Y0.9838
X0.973 Y0.9818
X0.9725 Y0.9812 F50.
G3 X0.9813 Y0.9726 I0.0049 J-0.0037
G1 X0.9882 Y0.9784 F60.
X0.9926 Y0.9825
X0.9929 Y0.9866
X0.991 Y0.9903
X0.9875 Y0.9924
X0.9833 Y0.9922
X0.9799 Y0.9899
X0.9783 Y0.9877 F50.
G3 X0.9882 Y0.9784 I0.0057 J-0.0039
G1 X0.9977 Y0.9865 F60.
X1.0021 Y0.9906
X1.0043 Y0.9961
Y0.9972
X1.003 Y1.0018
X0.9992 Y1.0047
X0.9945 Y1.005
X0.9905 Y1.0025
G3 X0.9862 Y0.9958 I0.0308 J-0.0245 F50.
X0.9977 Y0.9865 I0.0068 J-0.0034
G1 X1.0067 Y0.9942 F60.
X1.0071 Y0.9946
X1.0085 Y0.9972
X1.009 Y1.0004
X1.0082 Y1.0035
X1.008 Y1.0039
X1.0067 Y1.0058
G3 X0.9701 Y0.9784 I-0.0118 J-0.0224
G1 X0.9695 Y0.9768 Z-0.2097
X0.969 Y0.9754 Z-0.2089
X0.9685 Y0.9743 Z-0.2077
X0.9682 Y0.9736 Z-0.2062
X0.9681 Y0.9734 Z-0.2045
G0 Z0.4
X-0.0781 Y0.8942
Z-0.1802
G1 Z-0.1951 F50.
X-0.0784 Y0.8943 Z-0.198
X-0.0791 Y0.8948 Z-0.2008
X-0.0803 Y0.8955 Z-0.2034
X-0.0819 Y0.8964 Z-0.2056
X-0.0838 Y0.8976 Z-0.2075
X-0.086 Y0.8989 Z-0.2089
X-0.0884 Y0.9003 Z-0.2097
X-0.0909 Y0.9018 Z-0.21
G3 X-0.1206 Y0.9105 I-0.0318 J-0.0536
G1 X-0.421 F60.
G3 X-0.9085 Y0.4804 I0.2316 J-0.754
G1 X-0.9105 Y0.2025
G3 X-0.9026 Y0.1899 I0.0149 J0.0005
X-0.8117 Y0.2236 I0.0305 J0.0572
X-0.8894 Y0.4609 I-0.1835 J0.0713
G1 X-0.9026 Y0.4686 F50.
G2 X-0.9105 Y0.4813 I0.007 J0.0131
G1 Y0.6084 F60.
G2 X-0.6607 Y0.9093 I0.505 J-0.165
G1 X-0.421 Y0.9105
G2 X-0.4084 Y0.9026 I-0.0005 J-0.0149
X-0.4229 Y0.8453 I-0.0388 J-0.0207
X-0.6408 Y0.8895 I-0.0868 J0.1314
X-0.6487 Y0.9026 I0.1311 J0.0872 F50.
G3 X-0.6613 Y0.9105 I-0.0131 J-0.007
G1 X-0.7445 F60.
G3 X-0.9105 Y0.8133 I0.0277 J-0.2378
G1 Y0.6084
G3 X-0.8824 Y0.6019 I0.0149 J0.0005
G1 X-0.7322 Y0.8879
X-0.7318 Y0.8887 F50.
G3 X-0.7445 Y0.9105 I-0.0132 J0.0069
G1 X-0.8138 F60.
X-0.8369 Y0.9111
X-0.86 Y0.915
G3 X-0.9254 Y0.9024 I-0.0205 J-0.0698
G1 X-0.9246 Y0.898
G3 X-0.9131 Y0.8904 I0.013 J0.0073
G1 X-0.8966 Y0.8888
X-0.8647 Y0.8856
G3 X-0.8521 Y0.8906 I0.0015 J0.0148
X-0.86 Y0.915 I-0.0112 J0.0099 F50.
G2 X-0.9149 Y0.9338 I0.0085 J0.1143 F60.
G1 X-0.9202 Y0.9365
X-0.926 Y0.9381
X-0.932 Y0.9387
X-0.9345 Y0.9385
X-0.9382 Y0.9372
X-0.9408 Y0.9343
X-0.9417 Y0.9305
X-0.9406 Y0.9267
G3 X-0.9271 Y0.9136 I0.0334 J0.0209
X-0.9216 Y0.912 I0.0059 J0.0102
X-0.9149 Y0.9338 I0.0004 J0.0118 F50.
G1 X-0.9293 Y0.9421 F60.
X-0.939 Y0.9478
X-0.9442 Y0.9508
X-0.9475 Y0.9502
X-0.9499 Y0.948
X-0.9508 Y0.9447
X-0.9498 Y0.9415
X-0.9478 Y0.9389 F50.
G3 X-0.9384 Y0.9385 I0.0048 J0.004
X-0.939 Y0.9478 I-0.0045 J0.0044
G1 X-0.9483 Y0.9546 F60.
X-0.9533 Y0.958
X-0.9565 Y0.9569
X-0.958 Y0.9538
X-0.9569 Y0.9506
G3 X-0.9539 Y0.9478 I0.0285 J0.0272 F50.
G1 X-0.9466 Y0.9512
X-0.9483 Y0.9546
X-0.9491 Y0.9553 F60.
X-0.9524 Y0.9582
X-0.9547 Y0.9608
X-0.9568 Y0.963
X-0.9599 Y0.9632
X-0.9623 Y0.9613
X-0.9629 Y0.9583
X-0.9614 Y0.9556
X-0.9604 Y0.9548 F50.
X-0.9547 Y0.9608
X-0.9599 Y0.9668 F60.
X-0.962 Y0.9689
X-0.9654 Y0.969
X-0.9681 Y0.9668
X-0.9687 Y0.9634
X-0.9671 Y0.9604
X-0.9665 Y0.96 F50.
X-0.9599 Y0.9668
X-0.9656 Y0.9733 F60.
X-0.9677 Y0.9754
X-0.9716
X-0.9745 Y0.973
X-0.9752 Y0.9692
X-0.9733 Y0.9659
X-0.9731 Y0.9657 F50.
G3 X-0.9656 Y0.9733 I0.0033 J0.0042
G1 X-0.9701 Y0.9784 F60.
X-0.971 Y0.9795
X-0.9731 Y0.9817
X-0.9766 Y0.9822
X-0.9798 Y0.9808
X-0.9818 Y0.9778
X-0.9817 Y0.9743
X-0.9798 Y0.9713
X-0.9794 Y0.971 F50.
G3 X-0.971 Y0.9795 I0.0036 J0.0048
G1 X-0.9768 Y0.9863 F60.
X-0.9809 Y0.9907
X-0.9849 Y0.9909
X-0.9884 Y0.989
X-0.9904 Y0.9855
X-0.9902 Y0.9815
X-0.988 Y0.9782
X-0.9858 Y0.9766 F50.
G3 X-0.9768 Y0.9863 I0.0038 J0.0055
G1 X-0.9844 Y0.9953 F60.
X-0.9885 Y0.9997
X-0.9941 Y1.0019
X-0.9945
X-0.999 Y1.0006
X-1.0019 Y0.9969
X-1.0022 Y0.9922
X-0.9997 Y0.9881
G3 X-0.9937 Y0.9842 I0.0245 J0.0308 F50.
X-0.9844 Y0.9953 I0.0035 J0.0065
G1 X-0.9942 Y1.0067 F60.
X-0.9947 Y1.0072
X-0.9969 Y1.0084
X-0.9975 Y1.0086
X-1.0005 Y1.009
X-1.0037 Y1.0082
X-1.0061 Y1.0065
X-1.0067 Y1.0059
X-1.0082 Y1.0036
G3 X-0.9882 Y0.9784 I0.0208 J-0.004
X-0.9861 Y0.977 I0.0071 J0.0083
G1 X-0.9614 Y0.963
X-0.9588 Y0.9616
X-0.9571 Y0.9605
X-0.9556 Y0.9592
G2 X-0.9518 Y0.9526 I-0.0105 J-0.0106 F50.
G3 X-0.9431 Y0.9311 I0.1037 J0.029
G2 X-0.9105 Y0.8133 I-0.1847 J-0.1146 F60.
G3 X-0.888 Y0.801 I0.0149 J0.0005
G1 X-0.8855 Y0.8025 Z-0.2097
X-0.8831 Y0.8039 Z-0.2089
X-0.8809 Y0.8053 Z-0.2075
X-0.8789 Y0.8064 Z-0.2056
X-0.8773 Y0.8074 Z-0.2034
X-0.8761 Y0.8081 Z-0.2008
X-0.8754 Y0.8085 Z-0.198
X-0.8752 Y0.8087 Z-0.1951
G0 Z-0.1802
X-0.1642 Y-0.8942
G1 Z-0.1951 F50.
X-0.1645 Y-0.8943 Z-0.198
X-0.1652 Y-0.8948 Z-0.2008
X-0.1664 Y-0.8955 Z-0.2034
X-0.168 Y-0.8964 Z-0.2056
X-0.1699 Y-0.8976 Z-0.2075
X-0.1721 Y-0.8989 Z-0.2089
X-0.1745 Y-0.9003 Z-0.2097
X-0.177 Y-0.9018 Z-0.21
G2 X-0.2067 Y-0.9105 I-0.0318 J0.0536
G1 X-0.421 F60.
G2 X-0.8875 Y-0.514 I0.1887 J0.6948
X-0.9105 Y-0.484 I0.0144 J0.0348
G1 Y-0.1548
G2 X-0.9026 Y-0.1422 I0.0149 J-0.0005
X-0.8705 Y-0.1454 I0.0137 J-0.0257
X-0.8894 Y-0.4637 I-0.1247 J-0.1523
G1 X-0.9026 Y-0.4714 F50.
G3 X-0.9105 Y-0.484 I0.007 J-0.0131
G1 Y-0.607 F60.
G3 X-0.666 Y-0.9092 I0.4894 J0.1459
G1 X-0.421 Y-0.9105
G3 X-0.4084 Y-0.9026 I-0.0005 J0.0149
X-0.4195 Y-0.8516 I-0.0356 J0.019
X-0.6462 Y-0.8895 I-0.0957 J-0.1251
X-0.6541 Y-0.9026 I0.1311 J-0.0872 F50.
G2 X-0.6667 Y-0.9105 I-0.0131 J0.007
G1 X-0.7572 F60.
G2 X-0.9105 Y-0.8167 I0.0366 J0.2321
G1 Y-0.607
G2 X-0.8822 Y-0.6011 I0.0149 J-0.0005
G1 X-0.7449 Y-0.8879
X-0.7443 Y-0.8892 F50.
G2 X-0.7572 Y-0.9105 I-0.0134 J-0.0064
G3 X-0.8695 Y-0.9167 I-0.0374 J-0.346 F60.
G2 X-0.9254 Y-0.8992 I-0.0229 J0.0248
G3 X-0.9105 Y-0.8167 I-0.2434 J0.0865
G2 X-0.8812 Y-0.8133 I0.0149 J-0.0005
G1 X-0.86 Y-0.8917
X-0.8582 Y-0.8982 F50.
G2 X-0.8695 Y-0.9167 I-0.0144 J-0.0039
G3 X-0.918 Y-0.9356 I0.0144 J-0.1084 F60.
G1 X-0.9233 Y-0.9383
X-0.9292 Y-0.9395
X-0.9352 Y-0.9396
X-0.9358 Y-0.9395
X-0.9393 Y-0.9381
X-0.9417 Y-0.9351
X-0.9424 Y-0.9314
X-0.9414 Y-0.9278
X-0.9356 Y-0.918
X-0.9293 Y-0.9071
X-0.9254 Y-0.8992
G2 X-0.9127 Y-0.8915 I0.0131 J-0.0071
X-0.9056 Y-0.9149 I0.0003 J-0.0127
X-0.9131 Y-0.9186 I-0.0209 J0.0333
X-0.9282 Y-0.9209 I-0.0134 J0.037 F50.
G3 X-0.9414 Y-0.9278 I-0.0006 J-0.0149
G1 X-0.947 Y-0.9373 F60.
X-0.9498 Y-0.9427
X-0.949 Y-0.946
X-0.9467 Y-0.9485
X-0.9434 Y-0.9494
X-0.9401 Y-0.9485
G3 X-0.937 Y-0.9464 I-0.0213 J0.0331 F50.
X-0.9454 Y-0.9357 I-0.0042 J0.0053
X-0.947 Y-0.9373 I0.0042 J-0.0053
G1 X-0.9492 Y-0.9412 F60.
X-0.9524 Y-0.9456
X-0.9533 Y-0.9466
X-0.9552 Y-0.9489
Y-0.952
X-0.9534 Y-0.9545
X-0.9504 Y-0.9554
X-0.9475 Y-0.9543
X-0.9466 Y-0.9536 F50.
X-0.9499 Y-0.9451
X-0.9533 Y-0.9466
X-0.9587 Y-0.9525 F60.
X-0.9606 Y-0.9549
Y-0.9577
X-0.9588 Y-0.9599
X-0.956 Y-0.9606
X-0.9534 Y-0.9593
G3 X-0.9522 Y-0.9564 I-0.0037 J0.0034 F50.
G1 X-0.9531 Y-0.9553
X-0.9537 Y-0.9547
X-0.9531 Y-0.9539
X-0.9524 Y-0.9544
X-0.9521 Y-0.9561
X-0.9525 Y-0.9578
X-0.9534 Y-0.9593
X-0.9583 Y-0.9643 F60.
X-0.9604 Y-0.9664
X-0.9635
X-0.9658 Y-0.9643
X-0.9663 Y-0.9613
X-0.9648 Y-0.9586
G2 X-0.9619 Y-0.9575 I0.0031 J-0.0039 F50.
G1 X-0.9608 Y-0.9585
X-0.9602 Y-0.9592
X-0.9594 Y-0.9586
X-0.9598 Y-0.9579
X-0.9615 Y-0.9575
X-0.9633 Y-0.9578
X-0.9648 Y-0.9586
X-0.9701 Y-0.9631 F60.
X-0.9722 Y-0.9652
X-0.9725 Y-0.9688
X-0.9703 Y-0.9717
X-0.9667 Y-0.9724
X-0.9636 Y-0.9706
X-0.9631 Y-0.9699 F50.
X-0.9701 Y-0.9631
X-0.9766 Y-0.9686 F60.
X-0.9788 Y-0.9707
X-0.979 Y-0.9748
X-0.9765 Y-0.9781
X-0.9724 Y-0.9789
X-0.9688 Y-0.9768
X-0.9686 Y-0.9765 F50.
G3 X-0.9766 Y-0.9686 I-0.0045 J0.0034
G1 X-0.9841 Y-0.9749 F60.
X-0.9863 Y-0.977
X-0.9867 Y-0.9807
X-0.985 Y-0.9842
X-0.9818 Y-0.9861
X-0.978
X-0.9748 Y-0.984
G3 X-0.9754 Y-0.9771 I-0.0039 J0.0031 F50.
G1 X-0.9777 Y-0.9751
G3 X-0.9841 Y-0.9749 I-0.0033 J-0.0037
G1 X-0.9919 Y-0.9815 F60.
X-0.9941 Y-0.9836
X-0.9949 Y-0.9879
X-0.9932 Y-0.9919
X-0.9895 Y-0.9943
X-0.9852
X-0.9815 Y-0.9919
G3 X-0.9919 Y-0.9815 I-0.0058 J0.0046 F50.
G1 X-0.9999 Y-0.9883 F60.
X-1.0008 Y-0.989
X-1.0021 Y-0.9902
X-1.0042 Y-0.9922
X-1.0065 Y-0.9978
X-1.0067 Y-1.001
X-1.006 Y-1.0045
X-1.0038 Y-1.0074
X-1.0005 Y-1.0089
X-0.9994 Y-1.0081
X-0.9867 Y-0.9815
X-0.9842 Y-0.9763
X-0.9798 Y-0.975
X-0.9809 Y-0.9807 F50.
G3 X-1.0021 Y-0.9902 I0.0079 J-0.0461
G1 X-1.0066 Y-0.9941 F60.
X-1.0072 Y-0.9947
X-1.0083 Y-0.9967
X-1.0086 Y-0.9974
X-1.0089 Y-1.0001
Y-1.0007
X-1.0083 Y-1.0034
X-1.008 Y-1.004
X-1.0064 Y-1.0062
X-1.0059 Y-1.0067
X-1.0039 Y-1.0081
G3 X-0.9777 Y-0.9874 I0.0047 J0.0209
G1 X-0.9769 Y-0.9854 Z-0.2097
X-0.9761 Y-0.9836 Z-0.2087
X-0.9755 Y-0.9821 Z-0.2073
Y-0.9813 Z-0.2061
X-0.9754 Y-0.9807 Z-0.2048
Y-0.9805 Z-0.2036
Y-0.9804 Z-0.2024
G0 Z0.4
X0.1142 Y-0.8942
Z-0.1802
G1 Z-0.1951 F50.
X0.1144 Y-0.8943 Z-0.198
X0.1151 Y-0.8948 Z-0.2008
X0.1163 Y-0.8955 Z-0.2034
X0.1179 Y-0.8964 Z-0.2056
X0.1199 Y-0.8976 Z-0.2075
X0.1221 Y-0.8989 Z-0.2089
X0.1245 Y-0.9003 Z-0.2097
X0.127 Y-0.9018 Z-0.21
G3 X0.1567 Y-0.9105 I0.0318 J0.0536
G1 X0.4339 F60.
G3 X0.9076 Y-0.4991 I-0.2547 J0.7715
G1 X0.9105
Y-0.2654
G3 X0.9026 Y-0.2528 I-0.0149 J-0.0005
X0.8385 Y-0.272 I-0.0224 J-0.042
X0.8895 Y-0.4786 I0.1382 J-0.0755
X0.9026 Y-0.4864 I0.0872 J0.1311 F50.
G2 X0.9105 Y-0.4991 I-0.007 J-0.0131
G1 Y-0.607 F60.
G2 X0.6666 Y-0.909 I-0.4718 J0.1315
G1 X0.4339 Y-0.9105
G2 X0.4213 Y-0.9026 I0.0005 J0.0149
X0.4406 Y-0.8384 I0.042 J0.0224
X0.6469 Y-0.8895 I0.0753 J-0.1383
X0.6548 Y-0.9026 I-0.1311 J-0.0872 F50.
G3 X0.6674 Y-0.9105 I0.0131 J0.007
G1 X0.7574 F60.
G3 X0.9105 Y-0.8193 I-0.0318 J0.2275
G1 Y-0.607
G3 X0.8822 Y-0.6011 I-0.0149 J-0.0005
G1 X0.7451 Y-0.8879
X0.7445 Y-0.8892 F50.
G3 X0.7574 Y-0.9105 I0.0134 J-0.0064
G2 X0.8729 Y-0.9173 I0.0372 J-0.3552 F60.
G3 X0.9258 Y-0.8998 I0.0216 J0.0235
X0.8658 Y-0.8901 I-0.034 J-0.0198
X0.8633 Y-0.8929 I0.0104 J-0.0118
X0.8729 Y-0.9173 I0.0129 J-0.009 F50.
G2 X0.9191 Y-0.9362 I-0.0158 J-0.1042 F60.
G1 X0.9245 Y-0.939
X0.9304 Y-0.9401
X0.9347
X0.9387 Y-0.939
X0.9415 Y-0.9362
X0.9426 Y-0.9322
X0.9416 Y-0.9283
G3 X0.9319 Y-0.9177 I-0.0334 J-0.0209
X0.927 Y-0.9156 I-0.0068 J-0.009
X0.9191 Y-0.9362 I-0.0019 J-0.0111 F50.
G1 X0.9276 Y-0.9412 F60.
X0.9393 Y-0.9482
X0.9446 Y-0.951
X0.9478 Y-0.9504
X0.9502 Y-0.9481
X0.9509 Y-0.9449
X0.9497 Y-0.9418
G3 X0.9467 Y-0.9387 I-0.0299 J-0.0256 F50.
X0.9378 Y-0.9393 I-0.0041 J-0.0044
X0.9393 Y-0.9482 I0.0048 J-0.0037
G1 X0.9422 Y-0.95 F60.
X0.9455 Y-0.9523
X0.9488 Y-0.9551
X0.9511 Y-0.9569
X0.954 Y-0.9567
X0.9562 Y-0.9549
X0.9569 Y-0.9522
X0.9559 Y-0.9495
X0.9552 Y-0.9487 F50.
X0.9473 Y-0.9517
X0.9488 Y-0.9551
X0.9519 Y-0.9577 F60.
X0.9538 Y-0.9597
X0.956 Y-0.9617
X0.9589 Y-0.9618
X0.9612 Y-0.9601
X0.9619 Y-0.9572
X0.9606 Y-0.9546
G3 X0.9577 Y-0.9534 I-0.0033 J-0.0037 F50.
G1 X0.9566 Y-0.9543
X0.956 Y-0.9549
X0.9552 Y-0.9543
X0.9557 Y-0.9536
X0.9574 Y-0.9534
X0.9591 Y-0.9537
X0.9606 Y-0.9546
X0.9653 Y-0.9592 F60.
X0.9675 Y-0.9613
Y-0.9644
X0.9655 Y-0.9669
X0.9624 Y-0.9675
X0.9596 Y-0.9659
G2 X0.9586 Y-0.963 I0.0039 J0.0031 F50.
G1 Y-0.9629
X0.9588 Y-0.9622
X0.9595 Y-0.9619
X0.9602 Y-0.9613
X0.9597 Y-0.9605
X0.9589 Y-0.9609
X0.9586 Y-0.9626
X0.9588 Y-0.9644
X0.9596 Y-0.9659
X0.9642 Y-0.9713 F60.
X0.9662 Y-0.9735
X0.9699 Y-0.9738
X0.9729 Y-0.9715
X0.9737 Y-0.9679
X0.9718 Y-0.9646
X0.9712 Y-0.9641 F50.
G3 X0.9631 Y-0.9682 I-0.003 J-0.004
G1 X0.9634 Y-0.9698
X0.9642 Y-0.9713
X0.9699 Y-0.9781 F60.
X0.9719 Y-0.9803
X0.9753 Y-0.9807
X0.9784 Y-0.9792
X0.9802 Y-0.9763
X0.9801 Y-0.9729
X0.9782 Y-0.97
X0.978 Y-0.9699 F50.
G3 X0.9699 Y-0.9781 I-0.0036 J-0.0046
G1 X0.9755 Y-0.9847 F60.
X0.9796 Y-0.9891
X0.9835 Y-0.9893
X0.9868 Y-0.9874
X0.9887 Y-0.984
X0.9886 Y-0.9801
X0.9864 Y-0.9768
X0.9843 Y-0.9753 F50.
G3 X0.9755 Y-0.9847 I-0.0037 J-0.0054
G1 X0.9836 Y-0.9944 F60.
X0.9877 Y-0.9987
X0.9896 Y-0.9994
X0.9939 Y-0.9996
X0.9976 Y-0.9975
X0.9997 Y-0.9938
X0.9995 Y-0.9895
X0.9971 Y-0.986
G3 X0.9934 Y-0.9834 I-0.0244 J-0.0309 F50.
X0.9836 Y-0.9944 I-0.0039 J-0.0064
G1 X0.9929 Y-1.0053 F60.
X0.994 Y-1.0066
X0.9946 Y-1.0071
X0.9968 Y-1.0083
X0.9974 Y-1.0086
X1.0002 Y-1.0089
X1.0009
X1.0036 Y-1.0082
X1.006 Y-1.0066
X1.0066 Y-1.0059
X1.0081 Y-1.0038
X1.0083 Y-1.0034
X1.0089 Y-1.0007
Y-1.0002
X1.0086 Y-0.9974
X1.0084 Y-0.997
X1.0071 Y-0.9947
X1.0068 Y-0.9942
X0.9988 Y-0.9874
G3 X0.996 Y-0.9856 I-0.0078 J-0.0091
G2 X0.9939 Y-0.9844 I0.0062 J0.0136
G1 X0.9731 Y-0.9704
X0.9423 Y-0.9497
G2 X0.9358 Y-0.9367 I0.0083 J0.0124
G3 X0.9294 Y-0.9065 I-0.0622 J0.0027 F50.
G2 X0.9105 Y-0.8193 I0.2137 J0.092 F60.
G3 X0.9022 Y-0.8065 I-0.0149 J-0.0005
G1 X0.9 Y-0.8059 Z-0.2098
X0.8978 Y-0.8054 Z-0.2093
X0.8957 Y-0.8049 Z-0.2084
X0.8936 Y-0.8054 Z-0.207
X0.8917 Y-0.8058 Z-0.2053
X0.8902 Y-0.8062 Z-0.2033
X0.889 Y-0.8065 Z-0.201
X0.8882 Y-0.8069 Z-0.1981
X0.888 Y-0.807 Z-0.1951
G0 Z0.4
X2.4899 Y5.2158
Z-0.11
G3 X2.6074 Y5.1368 Z-0.1492 I0.0587 J-0.0395 F50.
X2.4899 Y5.2158 Z-0.1884 I-0.0587 J0.0395
X2.6074 Y5.1368 Z-0.2276 I0.0587 J-0.0395
X2.6194 Y5.1763 Z-0.235 I-0.0587 J0.0395
X2.4779 I-0.0708 J0.
X2.6194 I0.0708 J0.
X2.6389 Y5.2153 I-0.073 J0.0609 F60.
G1 X2.6373 Y5.2457
G3 X2.4483 Y5.2919 I-0.1069 J-0.0273
G1 X2.4544 Y5.1763
X2.4577 Y5.1301
X2.459 Y5.1069
X2.4613 Y5.099
X2.4642 Y5.0912
X2.4676 Y5.0837
X2.4716 Y5.0764
X2.4762 Y5.0695
X2.4813 Y5.0629
X2.4868 Y5.0568
X2.4928 Y5.0511
X2.4993 Y5.0458
X2.5061 Y5.0411
X2.5132 Y5.0369
X2.5207 Y5.0332
X2.5283 Y5.0302
X2.5363 Y5.0277
X2.5443 Y5.0258
X2.5525 Y5.0245
X2.5608 Y5.0239
X2.5691
X2.5773 Y5.0245
X2.5855 Y5.0257
X2.5936 Y5.0276
X2.6015 Y5.03
X2.6092 Y5.0331
X2.6167 Y5.0367
X2.6238 Y5.0409
X2.6306 Y5.0456
X2.6371 Y5.0509
X2.6375 Y5.0536
Y5.0563
X2.6369 Y5.059
X2.6359 Y5.0615
X2.6343 Y5.0639
X2.6324 Y5.0658
X2.6302 Y5.0675
X2.6277 Y5.0686
X2.6195 Y5.0715
X2.4809 Y5.1206
X2.4788 Y5.1213 F50.
G3 X2.459 Y5.1069 I-0.005 J-0.014
X2.647 Y5.0699 I0.094 J-0.0185 F60.
X2.6401 Y5.1281 I-0.094 J0.0185
G1 X2.641 Y5.1763
X2.6389 Y5.2153
G3 X2.6093 Y5.2166 I-0.0149 J-0.0008
X2.617 Y5.2077 I0.0077 J-0.0011
X2.6302 Y5.2156 I-0.0001 J0.0149
X2.6373 Y5.2457 I-0.0551 J0.0291 F50.
G1 X2.6334 Y5.3221 F60.
G3 X2.4427 Y5.3924 I-0.1205 J-0.0328
G1 X2.4485 Y5.2917
G3 X2.457 Y5.2795 I0.0148 J0.0013
X2.4971 Y5.3034 I0.012 J0.0255
X2.465 Y5.3714 I-0.0786 J0.0045
X2.4519 Y5.3793 I-0.0466 J-0.0635 F50.
G2 X2.4433 Y5.3915 I0.0063 J0.0135
G1 X2.4423 Y5.4115 F60.
G2 X2.6261 Y5.4666 I0.1096 J-0.0314
G1 X2.6334 Y5.3221
G2 X2.6082 Y5.3112 I-0.0149 J-0.0002
X2.6012 Y5.3207 I0.0245 J0.0253
X2.5886 Y5.3737 I0.1055 J0.0531
X2.6096 Y5.441 I0.1181 J0.
X2.6218 Y5.4558 I0.0971 J-0.0672 F50.
G3 X2.626 Y5.4664 I-0.0107 J0.0104
G1 X2.6246 Y5.4929 F60.
X2.6217 Y5.5007
X2.6183 Y5.5083
X2.6144 Y5.5156
X2.6099 Y5.5226
X2.605 Y5.5293
X2.5996 Y5.5356
X2.5937 Y5.5415
X2.5875 Y5.5469
X2.5809 Y5.5519
X2.5739 Y5.5565
X2.5667 Y5.5605
X2.5591 Y5.564
X2.5514 Y5.567
X2.5434 Y5.5694
X2.5353 Y5.5712
X2.5271 Y5.5724
X2.5189 Y5.5731
X2.5106
X2.5023 Y5.5726
X2.4941 Y5.5715
X2.4859 Y5.5698
X2.478 Y5.5675
X2.4702 Y5.5647
X2.4626 Y5.5613
X2.4553 Y5.5574
X2.4482 Y5.553
X2.4415 Y5.5481
X2.4352 Y5.5427
X2.4423 Y5.4115
G3 X2.4508 Y5.3993 I0.0148 J0.0013
X2.4645 Y5.4015 I0.0052 J0.0112
X2.4572 Y5.5224 I-0.0539 J0.0574
X2.444 Y5.5302 I-0.0465 J-0.0635 F50.
G2 X2.4355 Y5.5424 I0.0063 J0.0135
G1 X2.4341 Y5.5696 F60.
G2 X2.628 Y5.624 I0.1139 J-0.0333
G1 X2.6195 Y5.5927
X2.6218 Y5.5464
X2.6246 Y5.4929
G2 X2.6174 Y5.4799 I-0.0149 J-0.0003
X2.5731 Y5.4883 I-0.0174 J0.029
X2.6019 Y5.6073 I0.0625 J0.0479
X2.6163 Y5.6125 I0.0337 J-0.0712 F50.
G3 X2.627 Y5.6229 I-0.0037 J0.0144
G1 X2.6309 Y5.639 F60.
G3 X2.4618 Y5.7199 I-0.1087 J-0.0099
X2.4341 Y5.5696 I0.1554 J-0.1064
X2.4426 Y5.5574 I0.0148 J0.0013
X2.4522 Y5.5593 I0.0035 J0.0075
G1 X2.4554 Y5.5629
G3 X2.4701 Y5.6931 I-0.0903 J0.0761
X2.4622 Y5.7063 I-0.105 J-0.0541 F50.
G2 X2.461 Y5.7211 I0.0123 J0.0085
G1 X2.4664 Y5.7315 F60.
X2.497 Y5.7681
X2.5039 Y5.7737
X2.5111 Y5.7789
X2.5187 Y5.7836
X2.5266 Y5.7877
X2.5348 Y5.7912
X2.5432 Y5.7942
X2.5518 Y5.7965
X2.5605 Y5.7983
X2.5693 Y5.7994
X2.5782 Y5.8
X2.5871 Y5.7999
X2.596 Y5.7991
X2.6048 Y5.7978
X2.6135 Y5.7958
X2.622 Y5.7933
X2.6303 Y5.7901
X2.6384 Y5.7864
X2.6462 Y5.7821
X2.6537 Y5.7773
X2.6608 Y5.7719
X2.6675 Y5.7661
X2.6739 Y5.7598
X2.6797 Y5.7531
X2.6851 Y5.746
X2.6899 Y5.7386
X2.6943 Y5.7308
X2.698 Y5.7227
X2.7012 Y5.7144
G3 X2.6309 Y5.639 I1.5817 J-1.5438
G2 X2.6166 Y5.6349 I-0.0107 J0.0104
X2.6002 Y5.6782 I0.0068 J0.0274
X2.6698 Y5.7122 I0.0648 J-0.0447
X2.6849 Y5.7098 I-0.0047 J-0.0786 F50.
G3 X2.6992 Y5.7137 I0.0037 J0.0144
G1 X2.7124 Y5.7281 F60.
G3 X2.6021 Y5.8833 I-0.1018 J0.0444
X2.497 Y5.7681 I1.7397 J-1.6931
X2.4949 Y5.7533 I0.0117 J-0.0092
X2.5594 Y5.7355 I0.039 J0.0158
X2.6035 Y5.8542 I-0.0714 J0.0941
X2.5994 Y5.869 I-0.1155 J-0.0246 F50.
G2 X2.6021 Y5.8836 I0.014 J0.005
G1 X2.622 Y5.9053 F60.
X2.6295 Y5.9097
X2.6372 Y5.9134
X2.6452 Y5.9166
X2.6534 Y5.9192
X2.6618 Y5.9212
X2.6703 Y5.9226
X2.6788 Y5.9233
X2.6874 Y5.9234
X2.696 Y5.9229
X2.7045 Y5.9218
X2.713 Y5.92
X2.7212 Y5.9177
X2.7293 Y5.9147
X2.7372 Y5.9112
X2.7447 Y5.9071
X2.752 Y5.9024
X2.7588 Y5.8973
X2.7653 Y5.8916
X2.7714 Y5.8855
X2.777 Y5.879
X2.7821 Y5.8721
X2.7867 Y5.8648
X2.7907 Y5.8572
X2.7942 Y5.8493
X2.7971 Y5.8412
X2.7994 Y5.8329
X2.801 Y5.8245
G3 X2.7124 Y5.7281 I5.3873 J-5.0401
G2 X2.6981 Y5.7241 I-0.0106 J0.0105
X2.6884 Y5.7349 I0.0033 J0.0127
X2.771 Y5.8227 I0.0782 J0.0092
X2.7861 Y5.8204 I-0.0043 J-0.0786 F50.
G3 X2.8004 Y5.8244 I0.0037 J0.0144
G1 X2.8175 Y5.8431 F60.
X2.8208 Y5.851
X2.8234 Y5.859
X2.8255 Y5.8673
X2.827 Y5.8756
X2.8278 Y5.8841
X2.828 Y5.8926
X2.8276 Y5.901
X2.8266 Y5.9095
X2.825 Y5.9178
X2.8228 Y5.926
X2.8199 Y5.934
X2.8165 Y5.9418
X2.8126 Y5.9493
X2.8081 Y5.9565
X2.8031 Y5.9633
X2.7975 Y5.9698
X2.7916 Y5.9758
X2.7852 Y5.9814
X2.7784 Y5.9865
X2.7713 Y5.9911
X2.7638 Y5.9952
X2.7561 Y5.9987
X2.7481 Y6.0016
X2.74 Y6.004
X2.7317 Y6.0057
X2.7233 Y6.0069
X2.7148 Y6.0074
X2.6411 Y5.9263
X2.622 Y5.9053
G3 X2.6237 Y5.8843 I0.0113 J-0.0097
X2.6476 Y5.8816 I0.014 J0.0164
X2.7112 Y5.9767 I-0.0541 J0.105
X2.7113 Y5.9959 I-0.1177 J0.0099 F50.
G2 X2.7148 Y6.0067 I0.0149 J0.0012
G1 X2.7336 Y6.0274 F60.
X2.7411 Y6.0313
X2.7489 Y6.0347
X2.7569 Y6.0376
X2.7651 Y6.0398
X2.7734 Y6.0415
X2.7818 Y6.0425
X2.7903 Y6.0429
X2.7988 Y6.0427
X2.8073 Y6.0419
X2.8156 Y6.0405
X2.8239 Y6.0385
X2.832 Y6.0359
X2.8398 Y6.0327
X2.8474 Y6.0289
X2.8548 Y6.0246
X2.8617 Y6.0198
X2.8684 Y6.0145
X2.8746 Y6.0087
X2.8804 Y6.0025
X2.8857 Y5.9958
X2.8905 Y5.9888
X2.8948 Y5.9815
X2.8986 Y5.9739
X2.9017 Y5.966
X2.9044 Y5.958
X2.9064 Y5.9497
X2.9078 Y5.9413
X2.8424 Y5.8703
X2.8175 Y5.8431
G2 X2.7965 Y5.8429 I-0.0106 J0.0104
X2.7917 Y5.8703 I0.0166 J0.017
X2.8777 Y5.9351 I0.1063 J-0.0516
X2.8968 Y5.9368 I0.0203 J-0.1164 F50.
G3 X2.9073 Y5.9413 I-0.0001 J0.0149
G1 X2.9185 Y5.9535 F60.
X2.9271 Y5.9628
G3 X2.8237 Y6.1258 I-0.1112 J0.0437
G1 X2.7336 Y6.0274
G3 X2.7461 Y6.0029 I0.0114 J-0.0097
X2.7841 Y6.0199 I-0.005 J0.062
X2.8202 Y6.0957 I-0.0817 J0.0853
Y6.1149 I-0.1177 J0.0095 F50.
G2 X2.8237 Y6.1258 I0.0148 J0.0012
G1 X2.8261 Y6.1284 F60.
X2.8401 Y6.1435
X2.8472 Y6.1477
X2.8547 Y6.1513
X2.8624 Y6.1544
X2.8703 Y6.157
X2.8783 Y6.1589
X2.8865 Y6.1603
X2.8947 Y6.1611
X2.903 Y6.1613
X2.9113 Y6.1609
X2.9195 Y6.1599
X2.9277 Y6.1584
X2.9357 Y6.1562
X2.9435 Y6.1535
X2.9511 Y6.1502
X2.9585 Y6.1463
X2.9655 Y6.142
X2.9723 Y6.1372
X2.9786 Y6.1318
X2.9846 Y6.1261
X2.9901 Y6.1199
X2.9952 Y6.1134
X2.9998 Y6.1065
X3.0039 Y6.0993
X3.0075 Y6.0918
X3.0105 Y6.084
X3.0129 Y6.0761
X3.0148 Y6.068
X3.0161 Y6.0599
X2.9694 Y6.0091
X2.9648 Y6.0041
X2.9271 Y5.9628
G2 X2.9127 Y5.9589 I-0.0106 J0.0105
X2.904 Y5.9687 I0.003 J0.0115
G1 X2.9038 Y5.9701
G2 X2.9864 Y6.0582 I0.0782 J0.0095
X3.0015 Y6.0558 I-0.0045 J-0.0786 F50.
G3 X3.0159 Y6.0598 I0.0037 J0.0144
G1 X3.0331 Y6.0787 F60.
X3.0365 Y6.0865
X3.0394 Y6.0946
X3.0416 Y6.1028
X3.0432 Y6.1112
X3.0442 Y6.1197
X3.0445 Y6.1282
X3.0443 Y6.1367
X3.0434 Y6.1452
X3.0419 Y6.1536
X3.0397 Y6.1619
X3.037 Y6.17
X3.0337 Y6.1778
X3.0298 Y6.1854
X3.0254 Y6.1927
X3.0205 Y6.1997
X3.015 Y6.2062
X3.0091 Y6.2124
X3.0028 Y6.2181
X2.996 Y6.2233
X2.9889 Y6.2281
X2.9815 Y6.2322
X2.9738 Y6.2359
X2.9658 Y6.2389
X2.9576 Y6.2414
X2.9493 Y6.2432
X2.9409 Y6.2445
X2.9324 Y6.2451
G2 X2.8401 Y6.1435 I-4.9933 J4.4441
G3 X2.8524 Y6.1189 I0.0113 J-0.0098
X2.8967 Y6.1396 I-0.0049 J0.068
X2.9294 Y6.2142 I-0.0851 J0.0819
X2.9291 Y6.2334 I-0.1179 J0.0073 F50.
G2 X2.9323 Y6.2443 I0.0148 J0.0015
G1 X2.949 Y6.2633 F60.
X2.9564 Y6.2674
X2.9641 Y6.271
X2.9721 Y6.2741
X2.9803 Y6.2765
X2.9886 Y6.2783
X2.9971 Y6.2795
X3.0056 Y6.2801
X3.0141
X3.0226 Y6.2794
X3.0311 Y6.2781
X3.0394 Y6.2762
X3.0475 Y6.2737
X3.0555 Y6.2706
X3.0632 Y6.2669
X3.0706 Y6.2626
X3.0777 Y6.2579
X3.0844 Y6.2526
X3.0907 Y6.2468
X3.0965 Y6.2406
X3.1019 Y6.234
X3.1068 Y6.227
X3.1112 Y6.2197
X3.115 Y6.2121
X3.1182 Y6.2042
X3.1209 Y6.1961
X3.1229 Y6.1878
X3.1244 Y6.1794
G2 X3.0331 Y6.0787 I-5.7168 J5.0872
X3.0121 Y6.0785 I-0.0106 J0.0104
X3.0071 Y6.1049 I0.0165 J0.0168
X3.0941 Y6.173 I0.1078 J-0.0483
X3.1132 Y6.1748 I0.0208 J-0.1163 F50.
G3 X3.1237 Y6.1793 I-0.0002 J0.0149
G1 X3.1409 Y6.1984 F60.
X3.1443 Y6.2062
X3.147 Y6.2143
X3.1492 Y6.2225
X3.1507 Y6.2309
X3.1517 Y6.2393
X3.152 Y6.2478
X3.1517 Y6.2564
X3.1508 Y6.2648
X3.1492 Y6.2732
X3.1471 Y6.2814
X3.1443 Y6.2895
X3.141 Y6.2973
X3.1371 Y6.3049
X3.1326 Y6.3122
X3.1277 Y6.3191
X3.1222 Y6.3257
X3.1163 Y6.3318
X3.11 Y6.3375
X3.1032 Y6.3427
X3.0961 Y6.3474
X3.0887 Y6.3515
X3.081 Y6.3551
X3.073 Y6.3582
X3.0648 Y6.3606
X3.0565 Y6.3625
X3.0481 Y6.3637
X3.0396 Y6.3643
X3.011 Y6.3324
X2.9695 Y6.2867
X2.949 Y6.2633
G3 X2.962 Y6.239 I0.0115 J-0.0094
X2.9926 Y6.2516 I-0.0058 J0.0576
X3.036 Y6.3335 I-0.0743 J0.0919
X3.0361 Y6.3527 I-0.1177 J0.0099 F50.
G2 X3.0396 Y6.3636 I0.0149 J0.0012
G1 X3.0539 Y6.3792 F60.
X3.0572 Y6.3829
X3.0647 Y6.387
X3.0725 Y6.3905
X3.0805 Y6.3935
X3.0887 Y6.3958
X3.097 Y6.3975
X3.1055 Y6.3986
X3.114 Y6.3991
X3.1225 Y6.399
X3.131 Y6.3982
X3.1394 Y6.3969
X3.1477 Y6.3949
X3.1558 Y6.3923
X3.1638 Y6.3891
X3.1714 Y6.3854
X3.1788 Y6.3811
X3.1858 Y6.3762
X3.1924 Y6.3709
X3.1987 Y6.3651
X3.2045 Y6.3589
X3.2098 Y6.3522
X3.2147 Y6.3452
X3.219 Y6.3378
X3.2227 Y6.3302
X3.2259 Y6.3223
X3.2285 Y6.3142
X3.2305 Y6.3059
X3.2319 Y6.2975
X3.1409 Y6.1984
G2 X3.1153 Y6.2084 I-0.0107 J0.0104
X3.1248 Y6.2405 I0.0559 J0.001
X3.202 Y6.2911 I0.0982 J-0.0657
X3.2211 Y6.2929 I0.0209 J-0.1162 F50.
G3 X3.2316 Y6.2974 I-0.0002 J0.0149
G1 X3.2422 Y6.3092 F60.
X3.2482 Y6.3157
X3.2516 Y6.3233
X3.2544 Y6.331
X3.2567 Y6.3389
X3.2584 Y6.347
X3.2596 Y6.3552
X3.2601 Y6.3634
Y6.3717
X3.2595 Y6.3799
X3.2582 Y6.3881
X3.2564 Y6.3962
X3.2541 Y6.4041
X3.2512 Y6.4118
X3.2477 Y6.4193
X3.2437 Y6.4265
X3.2392 Y6.4335
X3.2343 Y6.4401
X3.2288 Y6.4463
X3.223 Y6.4521
X3.2167 Y6.4575
X3.2101 Y6.4624
X3.2031 Y6.4669
X3.1959 Y6.4708
X3.1884 Y6.4742
X3.1806 Y6.4771
X3.1727 Y6.4794
X3.1646 Y6.4811
X3.1564 Y6.4823
X3.1482 Y6.4829
X3.0962 Y6.4254
X3.0572 Y6.3829
G3 X3.07 Y6.3585 I0.0114 J-0.0096
X3.1058 Y6.3741 I-0.0054 J0.0615
X3.1446 Y6.4522 I-0.0789 J0.0879
X3.1447 Y6.4714 I-0.1177 J0.0098 F50.
G2 X3.1482 Y6.4822 I0.0149 J0.0012
G1 X3.1653 Y6.5009 F60.
X3.1728 Y6.5051
X3.1806 Y6.5086
X3.1886 Y6.5116
X3.1968 Y6.514
X3.2052 Y6.5158
X3.2137 Y6.5169
X3.2222 Y6.5174
X3.2307 Y6.5173
X3.2393 Y6.5166
X3.2477 Y6.5153
X3.256 Y6.5133
X3.2642 Y6.5107
X3.2721 Y6.5076
X3.2798 Y6.5038
X3.2872 Y6.4995
X3.2943 Y6.4947
X3.3009 Y6.4894
X3.3072 Y6.4836
X3.313 Y6.4773
X3.3184 Y6.4707
X3.3233 Y6.4636
X3.3276 Y6.4563
X3.3314 Y6.4486
X3.3346 Y6.4407
X3.3372 Y6.4325
X3.3392 Y6.4242
X3.3405 Y6.4158
G3 X3.2482 Y6.3157 I7.4824 J-6.9972
G2 X3.2227 Y6.3261 I-0.0106 J0.0105
X3.2338 Y6.3612 I0.0604 J0.0003
X3.3102 Y6.4095 I0.0965 J-0.0681
X3.3294 Y6.4112 I0.02 J-0.1164 F50.
G3 X3.3399 Y6.4157 I-0.0001 J0.0149
G1 X3.3576 Y6.4351 F60.
X3.361 Y6.4429
X3.3638 Y6.4509
X3.3659 Y6.4592
X3.3675 Y6.4675
X3.3685 Y6.476
X3.3688 Y6.4845
X3.3685 Y6.493
X3.3676 Y6.5015
X3.3661 Y6.5098
X3.3639 Y6.5181
X3.3612 Y6.5261
X3.3579 Y6.5339
X3.354 Y6.5415
X3.3496 Y6.5488
X3.3446 Y6.5557
X3.3392 Y6.5623
X3.3333 Y6.5684
X3.327 Y6.5741
X3.3202 Y6.5793
X3.3131 Y6.584
X3.3057 Y6.5881
X3.298 Y6.5917
X3.2901 Y6.5948
X3.2819 Y6.5972
X3.2736 Y6.5991
X3.2652 Y6.6003
X3.2567 Y6.6009
G2 X3.1653 Y6.5009 I-11.0012 J9.9643
G3 X3.1778 Y6.4764 I0.0113 J-0.0097
X3.209 Y6.4887 I-0.0045 J0.057
X3.253 Y6.5706 I-0.0736 J0.0923
X3.2531 Y6.5898 I-0.1176 J0.0105 F50.
G2 X3.2567 Y6.6006 I0.0149 J0.0011
G1 X3.2659 Y6.6105 F60.
X3.2721 Y6.6173
G2 X3.4477 Y6.5373 I0.0608 J-0.0994
X3.3576 Y6.4351 I-1.656 J1.3688
X3.3433 Y6.4311 I-0.0106 J0.0104
X3.3242 Y6.4864 I0.0087 J0.034
X3.4187 Y6.5327 I0.0938 J-0.0717
X3.4339 Y6.5317 I-0.0007 J-0.1181 F50.
G3 X3.4477 Y6.5373 I0.002 J0.0148
G1 X3.4672 Y6.5642 F60.
X3.4717 Y6.6001
G3 X3.2789 Y6.6156 I-0.0978 J-0.0093
G1 X3.2697 Y6.6193
X3.2604 Y6.6224
X3.2509 Y6.625
X3.2412 Y6.6269
X3.2314 Y6.6283
X3.2216 Y6.629
X3.2117 Y6.6291
X3.2019 Y6.6286
X3.1921 Y6.6275
X3.1823 Y6.6258
X3.1728 Y6.6235
X3.1633 Y6.6205
X3.1541 Y6.617
X3.1451 Y6.6129
X3.1364 Y6.6083
X3.128 Y6.6031
X3.12 Y6.5974
X3.1123 Y6.5913
X3.105 Y6.5846
X3.0982 Y6.5775
X3.0918 Y6.57
X3.0858 Y6.5621
X3.0804 Y6.5539
X3.0755 Y6.5453
X3.0712 Y6.5365
X3.0674 Y6.5274
G3 X2.7286 Y6.17 I3.5235 J-3.6802
G1 X2.5635 Y5.9896
G3 X2.3468 Y5.6978 I0.4361 J-0.5504
X2.3669 Y5.0581 I3.0944 J-0.2227
X2.5938 Y4.9085 I0.1853 J0.0341
X2.7341 Y5.1411 I-0.0416 J0.1837
X2.7234 Y5.5697 I-3.9203 J0.1166
G2 X3.353 Y6.2795 I9.6263 J-7.9044
G3 X3.5561 Y6.5419 I-0.4311 J0.5435
X3.2732 Y6.7463 I-0.1775 J0.0523
X2.8565 Y6.4592 I0.153 J-0.6679
G2 X2.7127 Y6.3008 I-19.25 J17.3236
G1 X2.4857 Y6.0527
X2.4239 Y5.985
X2.4033 Y5.9624
G3 X2.2521 Y5.4005 I0.406 J-0.4106
X2.2803 Y5.0139 I0.9905 J-0.122
G1 X2.3505 Y4.91
X2.3583 Y4.9003
X2.3665 Y4.8909
X2.3752 Y4.882
X2.3843 Y4.8734
X2.3937 Y4.8654
X2.4036 Y4.8578
X2.4138 Y4.8506
X2.4244 Y4.844
X2.4352 Y4.8379
X2.4463 Y4.8323
X2.4577 Y4.8273
X2.4693 Y4.8228
X2.4811 Y4.8188
X2.4931 Y4.8154
X2.5053 Y4.8127
X2.5175 Y4.8104
X2.5299 Y4.8088
X2.5423 Y4.8078
X2.5547 Y4.8074
X2.5672 Y4.8075
X2.5796 Y4.8083
X2.592 Y4.8097
X2.6043 Y4.8116
X2.6165 Y4.8141
X2.6285 Y4.8173
X2.6404 Y4.821
X2.6521 Y4.8252
X2.6636 Y4.83
X2.6748 Y4.8354
X2.6858 Y4.8413
X2.6965 Y4.8477
X2.7069 Y4.8546
X2.7169 Y4.862
X2.7265 Y4.8698
X2.7358 Y4.8782
X2.7446 Y4.8869
X2.7531 Y4.8961
X2.8041 Y4.9909
G3 X2.8183 Y5.473 I-0.9911 J0.2704
G2 X3.0033 Y5.7496 I0.634 J-0.2239
G1 X3.2475 Y6.0181
X3.4922 Y6.2862
X3.6334 Y6.552
X3.6366 Y6.564
X3.6393 Y6.5762
X3.6413 Y6.5885
X3.6427 Y6.6009
X3.6436 Y6.6133
X3.6437 Y6.6257
X3.6433 Y6.6382
X3.6423 Y6.6506
X3.6406 Y6.6629
X3.6383 Y6.6752
X3.6354 Y6.6873
X3.6319 Y6.6993
X3.6278 Y6.711
X3.6232 Y6.7226
X3.6179 Y6.7339
X3.6121 Y6.7449
X3.6058 Y6.7556
X3.599 Y6.766
X3.5916 Y6.7761
X3.5837 Y6.7857
X3.5754 Y6.795
X3.5666 Y6.8038
X3.5574 Y6.8122
X3.5478 Y6.8201
X3.5378 Y6.8275
X3.5274 Y6.8344
X3.5167 Y6.8408
X3.5057 Y6.8467
X3.4944 Y6.8519
X3.4829 Y6.8567
X3.4712 Y6.8608
X3.4592 Y6.8643
X3.4471 Y6.8673
X3.4349 Y6.8696
X3.4226 Y6.8714
X3.4102 Y6.8725
X3.3977 Y6.873
X3.3853 Y6.8728
X3.3728 Y6.8721
X3.3604 Y6.8707
X3.3482 Y6.8687
X2.7791 Y6.4973
G3 X2.173 Y5.8144 I2.3109 J-2.6615
X2.1541 Y5.2006 I2.0432 J-0.3699
G1 X2.2803 Y5.0139
G3 X2.2939 Y5.0079 I0.012 J0.0088
X2.3386 Y5.0686 I-0.0053 J0.0508
X2.183 Y5.1954 I-0.1545 J-0.0306
X2.1677 Y5.1946 I0.0011 J-0.1575 F50.
G2 X2.1541 Y5.2006 I-0.0016 J0.0148
G1 X2.0849 Y5.3031 F60.
G2 X2.338 Y6.1735 I0.7223 J0.262
X2.3861 Y6.2397 I0.1382 J-0.05
G1 X2.7791 Y6.4973
G2 X2.794 Y6.4976 I0.0077 J-0.0127
X2.8088 Y6.4717 I-0.0136 J-0.0249
X2.4147 Y6.2331 I-0.2754 J0.0101
G1 X2.401 Y6.24 F50.
G3 X2.3861 Y6.2397 I-0.0072 J-0.0131
G1 X2.1437 Y6.0808 F60.
G3 X1.9428 Y5.5134 I0.5019 J-0.497
G1 X2.0849 Y5.3031
G3 X2.0985 Y5.2971 I0.012 J0.0088
X2.1282 Y5.3251 I-0.0035 J0.0335
X1.9717 Y5.5082 I-0.1554 J0.0256
X1.9564 Y5.5074 I0.0011 J-0.1575 F50.
G2 X1.9428 Y5.5134 I-0.0016 J0.0148
G1 X1.8896 Y5.5922 F60.
G2 X1.9136 Y5.9293 I0.3917 J0.1414
G1 X1.9146 Y5.9304
X1.9157 Y5.9314
X2.1437 Y6.0808
G2 X2.1659 Y6.0645 I0.0077 J-0.0127
X2.014 Y5.9283 I-0.1755 J0.043
X1.9459 Y5.9293 I-0.0308 J0.2342
G1 X1.927 Y5.9331 F50.
G3 X1.9157 Y5.9314 I-0.0035 J-0.0145
G1 X1.8434 Y5.8839 F60.
G3 X1.7737 Y5.7638 I0.0827 J-0.1282
X1.7981 Y5.7643 I0.012 J0.0088
G1 X1.7994 Y5.7661
X1.8635 Y5.8629
X1.8649 Y5.8657
X1.8658 Y5.8687
X1.866 Y5.8718
G3 X1.8434 Y5.8839 I-0.0149 J-0.0006 F50.
X1.7461 Y5.8169 I0.1086 J-0.2618 F60.
G1 X1.745 Y5.8144
X1.7449 Y5.8138
Y5.811
X1.745 Y5.8106
X1.7497 Y5.7992
X1.8896 Y5.5922
G3 X1.9151 Y5.5947 I0.012 J0.0088
G1 X1.9163 Y5.5973 Z-0.2347
X1.9175 Y5.5999 Z-0.2339
X1.9186 Y5.6022 Z-0.2325
X1.9196 Y5.6042 Z-0.2306
X1.9204 Y5.6059 Z-0.2284
X1.9209 Y5.6072 Z-0.2258
X1.9213 Y5.6079 Z-0.223
X1.9214 Y5.6082 Z-0.2201
G0 Z-0.2052
X2.7697 Y4.9611
G1 Z-0.2201 F50.
X2.77 Y4.9612 Z-0.223
X2.7707 Y4.9617 Z-0.2258
X2.7719 Y4.9624 Z-0.2284
X2.7735 Y4.9633 Z-0.2306
X2.7754 Y4.9645 Z-0.2325
X2.7776 Y4.9659 Z-0.2339
X2.78 Y4.9673 Z-0.2347
X2.7825 Y4.9688 Z-0.235
G3 X2.8041 Y4.9909 I-0.0324 J0.0532
G1 X2.9062 Y5.1831 F60.
G3 X2.9393 Y5.5025 I-1.8488 J0.3527
G2 X3.3048 Y5.9296 I2.5414 J-1.8053
G1 X3.4922 Y6.2862
G3 X3.4911 Y6.301 I-0.0134 J0.0065
X3.4669 Y6.3119 I-0.0208 J-0.014
X3.2943 Y5.9588 I0.0314 J-0.2341
G1 X3.3024 Y5.9458 F50.
G2 X3.3035 Y5.931 I-0.0124 J-0.0083
G1 X3.1419 Y5.6269 F60.
G3 X3.0343 Y5.4244 I0.257 J-0.2665
G1 X3.0339 Y5.4235
X2.9062 Y5.1831
G2 X2.8784 Y5.1906 I-0.0129 J0.0074
G1 X2.8786 Y5.1931
G3 X2.8498 Y5.2003 I-0.0147 J0.0025
G1 X2.7605 Y4.9314
X2.7599 Y4.9287
X2.7597 Y4.926
G2 X2.7535 Y4.8957 I-0.0622 J-0.003 F50.
G1 X2.6997 Y4.7943 F60.
G2 X2.476 Y4.7242 I-0.1615 J0.1234
G1 X2.3505 Y4.91
G2 X2.35 Y4.9249 I0.0126 J0.0079
X2.4241 Y4.9435 I0.0454 J-0.0241
X2.482 Y4.7529 I-0.0877 J-0.1308
X2.4755 Y4.739 I-0.1457 J0.0598 F50.
G3 X2.476 Y4.7242 I0.0132 J-0.007
G1 X2.5068 Y4.6787 F60.
G3 X2.62 Y4.642 I0.0861 J0.0726
G1 X2.6211 Y4.6448
X2.6218 Y4.6477
Y4.6507
X2.6213 Y4.6536
X2.6203 Y4.6563
X2.6187 Y4.6588
X2.6168 Y4.6609
X2.6145 Y4.6626
X2.612 Y4.6638
X2.6058 Y4.6664
X2.5252 Y4.7003
X2.5219 Y4.7013
X2.5186 Y4.7015
G3 X2.5068 Y4.6787 I0.0008 J-0.0149 F50.
G1 X2.5596 Y4.6005 F60.
X2.5614 Y4.5981
X2.5623 Y4.597
X2.5661 Y4.5924
X2.5742 Y4.586
X2.5774 Y4.5841
X2.581 Y4.583
X2.5846 Y4.5837
X2.5876 Y4.586
G3 X2.5862 Y4.5932 I-0.0041 J0.0029
G1 X2.5835 Y4.5949
X2.569 Y4.6041 F50.
G3 X2.5623 Y4.597 I-0.0027 J-0.0042
X2.5885 Y4.582 I0.0201 J0.0046 F60.
X2.6014 Y4.6093 I-0.0062 J0.0196
G1 X2.6997 Y4.7943
G3 X2.6855 Y4.8158 I-0.0134 J0.0065
G1 X2.6826 Y4.8156 Z-0.2347
X2.6798 Y4.8155 Z-0.2339
X2.6772 Y4.8153 Z-0.2325
X2.675 Y4.8152 Z-0.2306
X2.6731 Y4.8151 Z-0.2284
X2.6718 Y4.815 Z-0.2258
X2.6709 Z-0.223
X2.6706 Z-0.2201
G0 Z-0.2052
X3.1474 Y5.6721
G1 Z-0.2201 F50.
X3.1475 Y5.6718 Z-0.223
Y5.671 Z-0.2258
X3.1476 Y5.6696 Z-0.2284
X3.1477 Y5.6677 Z-0.2306
X3.1478 Y5.6655 Z-0.2325
X3.1479 Y5.6629 Z-0.2339
X3.148 Y5.6601 Z-0.2347
X3.1482 Y5.6572 Z-0.235
G2 X3.1419 Y5.6269 I-0.0622 J-0.003
G1 X3.0339 Y5.4235 F60.
G2 X3.0207 Y5.416 I-0.0129 J0.0074
G1 X3.0178 Y5.4161 Z-0.2347
X3.015 Z-0.2339
X3.0124 Y5.4162 Z-0.2325
X3.0101 Z-0.2306
X3.0083 Z-0.2284
X3.0069 Y5.4163 Z-0.2258
X3.0061 Z-0.223
X3.0058 Z-0.2201
G0 Z-0.2052
X3.599 Y6.5221
G1 Z-0.2201 F50.
X3.5993 Y6.5223 Z-0.223
X3.6 Y6.5227 Z-0.2258
X3.6012 Y6.5235 Z-0.2284
X3.6027 Y6.5244 Z-0.2306
X3.6047 Y6.5256 Z-0.2325
X3.6069 Y6.5269 Z-0.2339
X3.6093 Y6.5284 Z-0.2347
X3.6117 Y6.5299 Z-0.235
G3 X3.6334 Y6.552 I-0.0324 J0.0532
G1 X3.6918 Y6.662 F60.
X3.6941 Y6.6736
X3.6958 Y6.6853
X3.6969 Y6.6971
X3.6974 Y6.7089
X3.6973 Y6.7208
X3.6966 Y6.7326
X3.6953 Y6.7444
X3.6935 Y6.756
X3.691 Y6.7676
X3.688 Y6.7791
X3.6844 Y6.7903
X3.6803 Y6.8014
X3.6756 Y6.8123
X3.6703 Y6.8229
X3.6646 Y6.8332
X3.6583 Y6.8432
X3.6515 Y6.8529
X3.6442 Y6.8623
X3.6365 Y6.8713
X3.6284 Y6.8798
X3.6198 Y6.888
X3.6108 Y6.8957
X3.6015 Y6.903
X3.5918 Y6.9097
X3.5818 Y6.916
X3.5714 Y6.9218
X3.5608 Y6.927
X3.55 Y6.9318
X3.5389 Y6.9359
X3.5276 Y6.9395
X3.5162 Y6.9425
X3.5046 Y6.945
X3.4929 Y6.9468
X3.4812 Y6.9481
X3.4795 Y6.955
X3.4774 Y6.9546
X3.4754 Y6.9537
X3.3479 Y6.8701
G3 X3.3417 Y6.8566 I0.0086 J-0.0122
X3.4011 Y6.8223 I0.0418 J0.0038
X3.4696 Y6.9249 I-0.0495 J0.1072
X3.4692 Y6.9402 I-0.118 J0.0046 F50.
G2 X3.4754 Y6.9537 I0.0148 J0.0013
G1 X3.5185 Y6.982 F60.
G2 X3.7759 Y6.8203 I0.0386 J-0.2242
G1 X3.6918 Y6.662
G2 X3.6789 Y6.6546 I-0.0129 J0.0074
X3.6454 Y6.6855 I0. J0.0335
X3.7477 Y6.8118 I0.1177 J0.0093
X3.763 Y6.8129 I0.0155 J-0.1171 F50.
G3 X3.7759 Y6.8203 I0. J0.0149
G1 X3.7964 Y6.859 F60.
G3 X3.6511 Y7.0689 I-0.1813 J0.0298
G1 X3.5185 Y6.982
G3 X3.5123 Y6.9684 I0.0086 J-0.0122
X3.567 Y6.9335 I0.0409 J0.0037
X3.6453 Y7.0401 I-0.0397 J0.1112
X3.6449 Y7.0554 I-0.118 J0.0046 F50.
G2 X3.6511 Y7.0689 I0.0148 J0.0013
G1 X3.6838 Y7.0903 F60.
G2 X3.8691 Y6.9957 I0.044 J-0.1425
G1 X3.7964 Y6.859
G2 X3.7836 Y6.8516 I-0.0129 J0.0074
X3.7438 Y6.9058 I-0.0001 J0.0417
X3.8409 Y6.9872 I0.1126 J-0.0357
X3.8562 Y6.9883 I0.0155 J-0.1171 F50.
G3 X3.8691 Y6.9957 I0. J0.0149
G1 X3.8852 Y7.0261 F60.
G3 X3.8055 Y7.171 I-0.1113 J0.0331
G1 X3.6838 Y7.0903
G3 X3.6776 Y7.0768 I0.0086 J-0.0122
X3.7416 Y7.0441 I0.0423 J0.0038
X3.7993 Y7.141 I-0.0603 J0.1016
X3.7989 Y7.1563 I-0.118 J0.0046 F50.
G2 X3.8052 Y7.1699 I0.0148 J0.0013
G1 X3.8304 Y7.1864 F60.
G2 X3.9485 Y7.1429 I0.0362 J-0.0836
G1 X3.8852 Y7.0261
G2 X3.8723 Y7.0186 I-0.0129 J0.0074
X3.8611 Y7.0262 I0. J0.0121
G1 X3.8607 Y7.0271
G2 X3.9187 Y7.1331 I0.0733 J0.0288
X3.9339 Y7.1346 I0.0153 J-0.0772 F50.
G3 X3.9468 Y7.1421 I0. J0.0149
G1 X3.9562 Y7.1597 F60.
G3 X3.9243 Y7.2495 I-0.0616 J0.0287
G1 X3.9219 Y7.2478
X3.9199 Y7.2457
X3.9184 Y7.2433
X3.9173 Y7.2407
X3.9167 Y7.238
Y7.2352
X3.9171 Y7.2326
X3.9194 Y7.2186
X3.9286 Y7.1646
X3.9293 Y7.1619
X3.9305 Y7.1594
G3 X3.9562 Y7.1597 I0.0128 J0.0077 F50.
G1 X3.9869 Y7.2175 F60.
G3 X3.9748 Y7.2811 I-0.0271 J0.0278
X3.9688 Y7.272 I0.0086 J-0.0122
G1 X3.9647 Y7.2526
X3.9594 Y7.228
G3 X3.9612 Y7.2172 I0.0146 J-0.0031
X3.9869 Y7.2175 I0.0128 J0.0077 F50.
G1 X4.0153 Y7.271 F60.
X4.0178 Y7.2764
X4.0193 Y7.2822
X4.0198 Y7.2882
X4.0194 Y7.2942
X4.0188 Y7.2964
X4.0167 Y7.3003
X4.0127 Y7.3024
X4.0082 Y7.3019
G3 X3.9901 Y7.2852 I0.0163 J-0.0358
X3.9899 Y7.2715 I0.0126 J-0.007
X4.0153 Y7.271 I0.0128 J0.0067 F50.
G1 X4.0219 Y7.2835 F60.
X4.0253 Y7.2944
X4.0254 Y7.2952
X4.0253 Y7.2976
X4.0252 Y7.2984
X4.0238 Y7.3011
X4.0234 Y7.3016
X4.0216 Y7.3032
X4.0211 Y7.3036
X4.0184 Y7.3046
G3 X4.0037 Y7.3 I-0.0015 J-0.021
G1 X3.8304 Y7.1864
G3 X3.8325 Y7.1609 I0.0086 J-0.0122
G1 X3.8351 Y7.1596 Z-0.2347
X3.8377 Y7.1584 Z-0.2339
X3.84 Y7.1572 Z-0.2325
X3.842 Y7.1563 Z-0.2306
X3.8437 Y7.1555 Z-0.2284
X3.8449 Y7.1549 Z-0.2258
X3.8457 Y7.1545 Z-0.223
X3.8459 Y7.1544 Z-0.2201
G0 Z0.4
X-0.0588 Y0.0394
Z-0.11
G3 X0.0587 Y-0.0395 Z-0.1492 I0.0587 J-0.0395 F50.
X-0.0588 Y0.0394 Z-0.1884 I-0.0587 J0.0395
X0.0587 Y-0.0395 Z-0.2276 I0.0587 J-0.0395
X0.0708 Y0. Z-0.235 I-0.0587 J0.0395
X-0.0708 I-0.0708 J0.
X0.0708 I0.0708 J0.
X-0.08 Y0.123 I-0.0771 J0.0593 F60.
X0.0738 Y-0.1406 I0.0769 J-0.1318
X0.1376 Y-0.0678 I-0.0769 J0.1318
X-0.16 Y0.1797 I-0.1491 J0.1234
X-0.1124 Y-0.2228 I0.1417 J-0.1873
X0.1009 Y0.3155 I0.1067 J0.2691
X-0.0206 Y0.3355 I-0.1067 J-0.2692
X-0.1165 Y-0.3248 I0.0103 J-0.3386
X0.0962 Y0.4221 I0.1063 J0.3735
X-0.271 Y0.3363 I-0.1063 J-0.3735
X-0.443 Y0.028 I0.2157 J-0.3225
X0.444 Y-0.0848 I0.4476 J-0.0244
X0.2324 Y0.463 I-0.4162 J0.154
X-0.263 Y-0.4731 I-0.2477 J-0.4681
X0.0442 Y-0.5313 I0.2477 J0.4681
X0.5573 Y0.1787 I-0.0538 J0.5792
X-0.2149 Y0.5922 I-0.5668 J-0.1307
X0.1996 Y-0.6041 I0.2091 J-0.5975
X-0.0717 Y0.7262 I-0.214 J0.6492
X-0.2467 Y-0.6933 I0.0662 J-0.7287
X0.5987 Y0.5271 I0.2405 J0.7364
X-0.8289 Y0.0125 I-0.6239 J-0.5068
X0.5936 Y-0.5851 I0.8279 J-0.0211
X0.1366 Y0.9106 I-0.6019 J0.6338
G1 X-0.1206 Y0.9105
G3 X-0.9089 Y0.2022 I0.0865 J-0.889
G1 X-0.9105 Y-0.1548
G3 X-0.2064 Y-0.9089 I0.8853 J0.1209
G1 X0.1567 Y-0.9105
G3 X0.9085 Y-0.2648 I-0.1362 J0.9191
G1 X0.9105 Y0.3077
G3 X0.4386 Y0.9087 I-0.8223 J-0.1599
G1 X0.1366 Y0.9105
G3 X0.1239 Y0.9026 I0.0005 J-0.0149
X0.1405 Y0.8338 I0.0471 J-0.0251
X0.4191 Y0.8894 I0.1126 J0.1615
G1 X0.4268 Y0.9026 F50.
G2 X0.4394 Y0.9105 I0.0131 J-0.007
G1 X0.5622 F60.
G2 X0.9084 Y0.5964 I-0.1842 J-0.5509
G1 X0.9105 Y0.3077
G2 X0.9026 Y0.2951 I-0.0149 J0.0005
X0.8202 Y0.3208 I-0.0285 J0.0535
X0.8894 Y0.577 I0.175 J0.0902
G1 X0.9026 Y0.5847 F50.
G3 X0.9105 Y0.5973 I-0.007 J0.0131
G1 Y0.7009 F60.
G3 X0.7753 Y0.9105 I-0.3279 J-0.063
G1 X0.5622
G3 X0.5495 Y0.9026 I0.0005 J-0.0149
X0.5837 Y0.8244 I0.048 J-0.0256
X0.7548 Y0.8895 I0.04 J0.1523
X0.7627 Y0.9026 I-0.1311 J0.0872 F50.
G2 X0.7753 Y0.9105 I0.0131 J-0.007
G1 X0.8267 F60.
X0.8383 Y0.9112
G2 X0.9182 Y0.8773 I0.0193 J-0.0656
G3 X0.9105 Y0.7009 I0.508 J-0.1105
G2 X0.8813 Y0.6973 I-0.0149 J0.0005
G1 X0.8267 Y0.8877
X0.8254 Y0.8923 F50.
G2 X0.8383 Y0.9112 I0.0143 J0.0041
G3 X0.9009 Y0.9262 I-0.0055 J0.1613 F60.
G1 X0.9063 Y0.9288
X0.9128 Y0.9305
X0.9198 Y0.9313
X0.9271 Y0.9311
X0.9307 Y0.9304
X0.9341 Y0.9289
X0.9364 Y0.926
X0.9371 Y0.9224
X0.9361 Y0.9188
G3 X0.9182 Y0.8773 I0.0772 J-0.0579
G2 X0.9081 Y0.8663 I-0.0145 J0.0032
X0.8874 Y0.892 I-0.0053 J0.0169
X0.9079 Y0.9094 I0.0341 J-0.0196
X0.9229 Y0.9118 I0.0137 J-0.0369 F50.
G3 X0.9361 Y0.9188 I0.0005 J0.0149
G1 X0.9417 Y0.9286 F60.
X0.9445 Y0.934
X0.9447 Y0.9371
X0.9439 Y0.9412
X0.941 Y0.9443
X0.937 Y0.9455
X0.9329 Y0.9444
G3 X0.9276 Y0.9404 I0.0213 J-0.0331
X0.9279 Y0.9264 I0.0062 J-0.0068 F50.
X0.9417 Y0.9286 I0.0059 J0.0071
G1 X0.9438 Y0.9321 F60.
X0.9503 Y0.9426
X0.9533 Y0.9479
X0.9527 Y0.9507
X0.9507 Y0.9527
X0.9479 Y0.9533
X0.9453 Y0.9523
G3 X0.9421 Y0.9493 I0.0251 J-0.0303 F50.
X0.9426 Y0.9415 I0.0038 J-0.0037
X0.9503 Y0.9426 I0.0034 J0.0041
G1 X0.951 Y0.9437 F60.
X0.9573 Y0.9509
X0.9591 Y0.9533
X0.9589 Y0.9563
X0.957 Y0.9585
X0.954 Y0.9591
X0.9514 Y0.9577
G2 X0.9009 Y0.9262 I-0.2094 J0.2801
G3 X0.8991 Y0.9193 I0.0025 J-0.0043
X0.9061 Y0.9177 I0.0043 J0.0026
G1 X0.9186 Y0.9258
X0.9314 Y0.934
X0.9563 Y0.9501 F50.
X0.9573 Y0.9509
X0.961 Y0.9553 F60.
X0.9623 Y0.9565
X0.9644 Y0.9586
Y0.9617
X0.9624 Y0.9641
X0.9593 Y0.9647
X0.9566 Y0.9633
X0.9561 Y0.9627 F50.
X0.9623 Y0.9565
X0.9653 Y0.9592 F60.
X0.9682 Y0.9616
X0.9704 Y0.9636
X0.9705 Y0.9671
X0.9684 Y0.9698
X0.965 Y0.9706
X0.9619 Y0.969
X0.9615 Y0.9685 F50.
X0.9682 Y0.9616
X0.9751 Y0.9674 F60.
X0.9773 Y0.9694
Y0.9734
X0.9748 Y0.9764
X0.9709 Y0.9771
X0.9674 Y0.9752
Y0.9751 F50.
G3 X0.9751 Y0.9674 I0.0043 J-0.0034
G1 X0.9813 Y0.9726 F60.
X0.9835 Y0.9746
X0.9842 Y0.9782
X0.9828 Y0.9816
X0.9798 Y0.9837
X0.9761 Y0.9838
X0.973 Y0.9818
X0.9725 Y0.9812 F50.
G3 X0.9813 Y0.9726 I0.0049 J-0.0037
G1 X0.9882 Y0.9784 F60.
X0.9926 Y0.9825
X0.9929 Y0.9866
X0.991 Y0.9903
X0.9875 Y0.9924
X0.9833 Y0.9922
X0.9799 Y0.9899
X0.9783 Y0.9877 F50.
G3 X0.9882 Y0.9784 I0.0057 J-0.0039
G1 X0.9977 Y0.9865 F60.
X1.0021 Y0.9906
X1.0043 Y0.9961
Y0.9972
X1.003 Y1.0018
X0.9992 Y1.0047
X0.9945 Y1.005
X0.9905 Y1.0025
G3 X0.9862 Y0.9958 I0.0308 J-0.0245 F50.
X0.9977 Y0.9865 I0.0068 J-0.0034
G1 X1.0067 Y0.9942 F60.
X1.0071 Y0.9946
X1.0085 Y0.9972
X1.009 Y1.0004
X1.0082 Y1.0035
X1.008 Y1.0039
X1.0067 Y1.0058
G3 X0.9701 Y0.9784 I-0.0118 J-0.0224
G1 X0.9695 Y0.9768 Z-0.2347
X0.969 Y0.9754 Z-0.2339
X0.9685 Y0.9743 Z-0.2327
X0.9682 Y0.9736 Z-0.2312
X0.9681 Y0.9734 Z-0.2295
G0 Z0.4
X-0.0781 Y0.8942
Z-0.2052
G1 Z-0.2201 F50.
X-0.0784 Y0.8943 Z-0.223
X-0.0791 Y0.8948 Z-0.2258
X-0.0803 Y0.8955 Z-0.2284
X-0.0819 Y0.8964 Z-0.2306
X-0.0838 Y0.8976 Z-0.2325
X-0.086 Y0.8989 Z-0.2339
X-0.0884 Y0.9003 Z-0.2347
X-0.0909 Y0.9018 Z-0.235
G3 X-0.1206 Y0.9105 I-0.0318 J-0.0536
G1 X-0.421 F60.
G3 X-0.9085 Y0.4804 I0.2316 J-0.754
G1 X-0.9105 Y0.2025
G3 X-0.9026 Y0.1899 I0.0149 J0.0005
X-0.8117 Y0.2236 I0.0305 J0.0572
X-0.8894 Y0.4609 I-0.1835 J0.0713
G1 X-0.9026 Y0.4686 F50.
G2 X-0.9105 Y0.4813 I0.007 J0.0131
G1 Y0.6084 F60.
G2 X-0.6607 Y0.9093 I0.505 J-0.165
G1 X-0.421 Y0.9105
G2 X-0.4084 Y0.9026 I-0.0005 J-0.0149
X-0.4229 Y0.8453 I-0.0388 J-0.0207
X-0.6408 Y0.8895 I-0.0868 J0.1314
X-0.6487 Y0.9026 I0.1311 J0.0872 F50.
G3 X-0.6613 Y0.9105 I-0.0131 J-0.007
G1 X-0.7445 F60.
G3 X-0.9105 Y0.8133 I0.0277 J-0.2378
G1 Y0.6084
G3 X-0.8824 Y0.6019 I0.0149 J0.0005
G1 X-0.7322 Y0.8879
X-0.7318 Y0.8887 F50.
G3 X-0.7445 Y0.9105 I-0.0132 J0.0069
G1 X-0.8138 F60.
X-0.8369 Y0.9111
X-0.86 Y0.915
G3 X-0.9254 Y0.9024 I-0.0205 J-0.0698
G1 X-0.9246 Y0.898
G3 X-0.9131 Y0.8904 I0.013 J0.0073
G1 X-0.8966 Y0.8888
X-0.8647 Y0.8856
G3 X-0.8521 Y0.8906 I0.0015 J0.0148
X-0.86 Y0.915 I-0.0112 J0.0099 F50.
G2 X-0.9149 Y0.9338 I0.0085 J0.1143 F60.
G1 X-0.9202 Y0.9365
X-0.926 Y0.9381
X-0.932 Y0.9387
X-0.9345 Y0.9385
X-0.9382 Y0.9372
X-0.9408 Y0.9343
X-0.9417 Y0.9305
X-0.9406 Y0.9267
G3 X-0.9271 Y0.9136 I0.0334 J0.0209
X-0.9216 Y0.912 I0.0059 J0.0102
X-0.9149 Y0.9338 I0.0004 J0.0118 F50.
G1 X-0.9293 Y0.9421 F60.
X-0.939 Y0.9478
X-0.9442 Y0.9508
X-0.9475 Y0.9502
X-0.9499 Y0.948
X-0.9508 Y0.9447
X-0.9498 Y0.9415
X-0.9478 Y0.9389 F50.
G3 X-0.9384 Y0.9385 I0.0048 J0.004
X-0.939 Y0.9478 I-0.0045 J0.0044
G1 X-0.9483 Y0.9546 F60.
X-0.9533 Y0.958
X-0.9565 Y0.9569
X-0.958 Y0.9538
X-0.9569 Y0.9506
G3 X-0.9539 Y0.9478 I0.0285 J0.0272 F50.
G1 X-0.9466 Y0.9512
X-0.9483 Y0.9546
X-0.9491 Y0.9553 F60.
X-0.9524 Y0.9582
X-0.9547 Y0.9608
X-0.9568 Y0.963
X-0.9599 Y0.9632
X-0.9623 Y0.9613
X-0.9629 Y0.9583
X-0.9614 Y0.9556
X-0.9604 Y0.9548 F50.
X-0.9547 Y0.9608
X-0.9599 Y0.9668 F60.
X-0.962 Y0.9689
X-0.9654 Y0.969
X-0.9681 Y0.9668
X-0.9687 Y0.9634
X-0.9671 Y0.9604
X-0.9665 Y0.96 F50.
X-0.9599 Y0.9668
X-0.9656 Y0.9733 F60.
X-0.9677 Y0.9754
X-0.9716
X-0.9745 Y0.973
X-0.9752 Y0.9692
X-0.9733 Y0.9659
X-0.9731 Y0.9657 F50.
G3 X-0.9656 Y0.9733 I0.0033 J0.0042
G1 X-0.9701 Y0.9784 F60.
X-0.971 Y0.9795
X-0.9731 Y0.9817
X-0.9766 Y0.9822
X-0.9798 Y0.9808
X-0.9818 Y0.9778
X-0.9817 Y0.9743
X-0.9798 Y0.9713
X-0.9794 Y0.971 F50.
G3 X-0.971 Y0.9795 I0.0036 J0.0048
G1 X-0.9768 Y0.9863 F60.
X-0.9809 Y0.9907
X-0.9849 Y0.9909
X-0.9884 Y0.989
X-0.9904 Y0.9855
X-0.9902 Y0.9815
X-0.988 Y0.9782
X-0.9858 Y0.9766 F50.
G3 X-0.9768 Y0.9863 I0.0038 J0.0055
G1 X-0.9844 Y0.9953 F60.
X-0.9885 Y0.9997
X-0.9941 Y1.0019
X-0.9945
X-0.999 Y1.0006
X-1.0019 Y0.9969
X-1.0022 Y0.9922
X-0.9997 Y0.9881
G3 X-0.9937 Y0.9842 I0.0245 J0.0308 F50.
X-0.9844 Y0.9953 I0.0035 J0.0065
G1 X-0.9942 Y1.0067 F60.
X-0.9947 Y1.0072
X-0.9969 Y1.0084
X-0.9975 Y1.0086
X-1.0005 Y1.009
X-1.0037 Y1.0082
X-1.0061 Y1.0065
X-1.0067 Y1.0059
X-1.0082 Y1.0036
G3 X-0.9882 Y0.9784 I0.0208 J-0.004
X-0.9861 Y0.977 I0.0071 J0.0083
G1 X-0.9614 Y0.963
X-0.9588 Y0.9616
X-0.9571 Y0.9605
X-0.9556 Y0.9592
G2 X-0.9518 Y0.9526 I-0.0105 J-0.0106 F50.
G3 X-0.9431 Y0.9311 I0.1037 J0.029
G2 X-0.9105 Y0.8133 I-0.1847 J-0.1146 F60.
G3 X-0.888 Y0.801 I0.0149 J0.0005
G1 X-0.8855 Y0.8025 Z-0.2347
X-0.8831 Y0.8039 Z-0.2339
X-0.8809 Y0.8053 Z-0.2325
X-0.8789 Y0.8064 Z-0.2306
X-0.8773 Y0.8074 Z-0.2284
X-0.8761 Y0.8081 Z-0.2258
X-0.8754 Y0.8085 Z-0.223
X-0.8752 Y0.8087 Z-0.2201
G0 Z-0.2052
X-0.1642 Y-0.8942
G1 Z-0.2201 F50.
X-0.1645 Y-0.8943 Z-0.223
X-0.1652 Y-0.8948 Z-0.2258
X-0.1664 Y-0.8955 Z-0.2284
X-0.168 Y-0.8964 Z-0.2306
X-0.1699 Y-0.8976 Z-0.2325
X-0.1721 Y-0.8989 Z-0.2339
X-0.1745 Y-0.9003 Z-0.2347
X-0.177 Y-0.9018 Z-0.235
G2 X-0.2067 Y-0.9105 I-0.0318 J0.0536
G1 X-0.421 F60.
G2 X-0.8875 Y-0.514 I0.1887 J0.6948
X-0.9105 Y-0.484 I0.0144 J0.0348
G1 Y-0.1548
G2 X-0.9026 Y-0.1422 I0.0149 J-0.0005
X-0.8705 Y-0.1454 I0.0137 J-0.0257
X-0.8894 Y-0.4637 I-0.1247 J-0.1523
G1 X-0.9026 Y-0.4714 F50.
G3 X-0.9105 Y-0.484 I0.007 J-0.0131
G1 Y-0.607 F60.
G3 X-0.666 Y-0.9092 I0.4894 J0.1459
G1 X-0.421 Y-0.9105
G3 X-0.4084 Y-0.9026 I-0.0005 J0.0149
X-0.4195 Y-0.8516 I-0.0356 J0.019
X-0.6462 Y-0.8895 I-0.0957 J-0.1251
X-0.6541 Y-0.9026 I0.1311 J-0.0872 F50.
G2 X-0.6667 Y-0.9105 I-0.0131 J0.007
G1 X-0.7572 F60.
G2 X-0.9105 Y-0.8167 I0.0366 J0.2321
G1 Y-0.607
G2 X-0.8822 Y-0.6011 I0.0149 J-0.0005
G1 X-0.7449 Y-0.8879
X-0.7443 Y-0.8892 F50.
G2 X-0.7572 Y-0.9105 I-0.0134 J-0.0064
G3 X-0.8695 Y-0.9167 I-0.0374 J-0.346 F60.
G2 X-0.9254 Y-0.8992 I-0.0229 J0.0248
G3 X-0.9105 Y-0.8167 I-0.2434 J0.0865
G2 X-0.8812 Y-0.8133 I0.0149 J-0.0005
G1 X-0.86 Y-0.8917
X-0.8582 Y-0.8982 F50.
G2 X-0.8695 Y-0.9167 I-0.0144 J-0.0039
G3 X-0.918 Y-0.9356 I0.0144 J-0.1084 F60.
G1 X-0.9233 Y-0.9383
X-0.9292 Y-0.9395
X-0.9352 Y-0.9396
X-0.9358 Y-0.9395
X-0.9393 Y-0.9381
X-0.9417 Y-0.9351
X-0.9424 Y-0.9314
X-0.9414 Y-0.9278
X-0.9356 Y-0.918
X-0.9293 Y-0.9071
X-0.9254 Y-0.8992
G2 X-0.9127 Y-0.8915 I0.0131 J-0.0071
X-0.9056 Y-0.9149 I0.0003 J-0.0127
X-0.9131 Y-0.9186 I-0.0209 J0.0333
X-0.9282 Y-0.9209 I-0.0134 J0.037 F50.
G3 X-0.9414 Y-0.9278 I-0.0006 J-0.0149
G1 X-0.947 Y-0.9373 F60.
X-0.9498 Y-0.9427
X-0.949 Y-0.946
X-0.9467 Y-0.9485
X-0.9434 Y-0.9494
X-0.9401 Y-0.9485
G3 X-0.937 Y-0.9464 I-0.0213 J0.0331 F50.
X-0.9454 Y-0.9357 I-0.0042 J0.0053
X-0.947 Y-0.9373 I0.0042 J-0.0053
G1 X-0.9492 Y-0.9412 F60.
X-0.9524 Y-0.9456
X-0.9533 Y-0.9466
X-0.9552 Y-0.9489
Y-0.952
X-0.9534 Y-0.9545
X-0.9504 Y-0.9554
X-0.9475 Y-0.9543
X-0.9466 Y-0.9536 F50.
X-0.9499 Y-0.9451
X-0.9533 Y-0.9466
X-0.9587 Y-0.9525 F60.
X-0.9606 Y-0.9549
Y-0.9577
X-0.9588 Y-0.9599
X-0.956 Y-0.9606
X-0.9534 Y-0.9593
G3 X-0.9522 Y-0.9564 I-0.0037 J0.0034 F50.
G1 X-0.9531 Y-0.9553
X-0.9537 Y-0.9547
X-0.9531 Y-0.9539
X-0.9524 Y-0.9544
X-0.9521 Y-0.9561
X-0.9525 Y-0.9578
X-0.9534 Y-0.9593
X-0.9583 Y-0.9643 F60.
X-0.9604 Y-0.9664
X-0.9635
X-0.9658 Y-0.9643
X-0.9663 Y-0.9613
X-0.9648 Y-0.9586
G2 X-0.9619 Y-0.9575 I0.0031 J-0.0039 F50.
G1 X-0.9608 Y-0.9585
X-0.9602 Y-0.9592
X-0.9594 Y-0.9586
X-0.9598 Y-0.9579
X-0.9615 Y-0.9575
X-0.9633 Y-0.9578
X-0.9648 Y-0.9586
X-0.9701 Y-0.9631 F60.
X-0.9722 Y-0.9652
X-0.9725 Y-0.9688
X-0.9703 Y-0.9717
X-0.9667 Y-0.9724
X-0.9636 Y-0.9706
X-0.9631 Y-0.9699 F50.
X-0.9701 Y-0.9631
X-0.9766 Y-0.9686 F60.
X-0.9788 Y-0.9707
X-0.979 Y-0.9748
X-0.9765 Y-0.9781
X-0.9724 Y-0.9789
X-0.9688 Y-0.9768
X-0.9686 Y-0.9765 F50.
G3 X-0.9766 Y-0.9686 I-0.0045 J0.0034
G1 X-0.9841 Y-0.9749 F60.
X-0.9863 Y-0.977
X-0.9867 Y-0.9807
X-0.985 Y-0.9842
X-0.9818 Y-0.9861
X-0.978
X-0.9748 Y-0.984
G3 X-0.9754 Y-0.9771 I-0.0039 J0.0031 F50.
G1 X-0.9777 Y-0.9751
G3 X-0.9841 Y-0.9749 I-0.0033 J-0.0037
G1 X-0.9919 Y-0.9815 F60.
X-0.9941 Y-0.9836
X-0.9949 Y-0.9879
X-0.9932 Y-0.9919
X-0.9895 Y-0.9943
X-0.9852
X-0.9815 Y-0.9919
G3 X-0.9919 Y-0.9815 I-0.0058 J0.0046 F50.
G1 X-0.9999 Y-0.9883 F60.
X-1.0008 Y-0.989
X-1.0021 Y-0.9902
X-1.0042 Y-0.9922
X-1.0065 Y-0.9978
X-1.0067 Y-1.001
X-1.006 Y-1.0045
X-1.0038 Y-1.0074
X-1.0005 Y-1.0089
X-0.9994 Y-1.0081
X-0.9867 Y-0.9815
X-0.9842 Y-0.9763
X-0.9798 Y-0.975
X-0.9809 Y-0.9807 F50.
G3 X-1.0021 Y-0.9902 I0.0079 J-0.0461
G1 X-1.0066 Y-0.9941 F60.
X-1.0072 Y-0.9947
X-1.0083 Y-0.9967
X-1.0086 Y-0.9974
X-1.0089 Y-1.0001
Y-1.0007
X-1.0083 Y-1.0034
X-1.008 Y-1.004
X-1.0064 Y-1.0062
X-1.0059 Y-1.0067
X-1.0039 Y-1.0081
G3 X-0.9777 Y-0.9874 I0.0047 J0.0209
G1 X-0.9769 Y-0.9854 Z-0.2347
X-0.9761 Y-0.9836 Z-0.2337
X-0.9755 Y-0.9821 Z-0.2323
Y-0.9813 Z-0.2311
X-0.9754 Y-0.9807 Z-0.2298
Y-0.9805 Z-0.2286
Y-0.9804 Z-0.2274
G0 Z0.4
X0.1142 Y-0.8942
Z-0.2052
G1 Z-0.2201 F50.
X0.1144 Y-0.8943 Z-0.223
X0.1151 Y-0.8948 Z-0.2258
X0.1163 Y-0.8955 Z-0.2284
X0.1179 Y-0.8964 Z-0.2306
X0.1199 Y-0.8976 Z-0.2325
X0.1221 Y-0.8989 Z-0.2339
X0.1245 Y-0.9003 Z-0.2347
X0.127 Y-0.9018 Z-0.235
G3 X0.1567 Y-0.9105 I0.0318 J0.0536
G1 X0.4339 F60.
G3 X0.9076 Y-0.4991 I-0.2547 J0.7715
G1 X0.9105
Y-0.2654
G3 X0.9026 Y-0.2528 I-0.0149 J-0.0005
X0.8385 Y-0.272 I-0.0224 J-0.042
X0.8895 Y-0.4786 I0.1382 J-0.0755
X0.9026 Y-0.4864 I0.0872 J0.1311 F50.
G2 X0.9105 Y-0.4991 I-0.007 J-0.0131
G1 Y-0.607 F60.
G2 X0.6666 Y-0.909 I-0.4718 J0.1315
G1 X0.4339 Y-0.9105
G2 X0.4213 Y-0.9026 I0.0005 J0.0149
X0.4406 Y-0.8384 I0.042 J0.0224
X0.6469 Y-0.8895 I0.0753 J-0.1383
X0.6548 Y-0.9026 I-0.1311 J-0.0872 F50.
G3 X0.6674 Y-0.9105 I0.0131 J0.007
G1 X0.7574 F60.
G3 X0.9105 Y-0.8193 I-0.0318 J0.2275
G1 Y-0.607
G3 X0.8822 Y-0.6011 I-0.0149 J-0.0005
G1 X0.7451 Y-0.8879
X0.7445 Y-0.8892 F50.
G3 X0.7574 Y-0.9105 I0.0134 J-0.0064
G2 X0.8729 Y-0.9173 I0.0372 J-0.3552 F60.
G3 X0.9258 Y-0.8998 I0.0216 J0.0235
X0.8658 Y-0.8901 I-0.034 J-0.0198
X0.8633 Y-0.8929 I0.0104 J-0.0118
X0.8729 Y-0.9173 I0.0129 J-0.009 F50.
G2 X0.9191 Y-0.9362 I-0.0158 J-0.1042 F60.
G1 X0.9245 Y-0.939
X0.9304 Y-0.9401
X0.9347
X0.9387 Y-0.939
X0.9415 Y-0.9362
X0.9426 Y-0.9322
X0.9416 Y-0.9283
G3 X0.9319 Y-0.9177 I-0.0334 J-0.0209
X0.927 Y-0.9156 I-0.0068 J-0.009
X0.9191 Y-0.9362 I-0.0019 J-0.0111 F50.
G1 X0.9276 Y-0.9412 F60.
X0.9393 Y-0.9482
X0.9446 Y-0.951
X0.9478 Y-0.9504
X0.9502 Y-0.9481
X0.9509 Y-0.9449
X0.9497 Y-0.9418
G3 X0.9467 Y-0.9387 I-0.0299 J-0.0256 F50.
X0.9378 Y-0.9393 I-0.0041 J-0.0044
X0.9393 Y-0.9482 I0.0048 J-0.0037
G1 X0.9422 Y-0.95 F60.
X0.9455 Y-0.9523
X0.9488 Y-0.9551
X0.9511 Y-0.9569
X0.954 Y-0.9567
X0.9562 Y-0.9549
X0.9569 Y-0.9522
X0.9559 Y-0.9495
X0.9552 Y-0.9487 F50.
X0.9473 Y-0.9517
X0.9488 Y-0.9551
X0.9519 Y-0.9577 F60.
X0.9538 Y-0.9597
X0.956 Y-0.9617
X0.9589 Y-0.9618
X0.9612 Y-0.9601
X0.9619 Y-0.9572
X0.9606 Y-0.9546
G3 X0.9577 Y-0.9534 I-0.0033 J-0.0037 F50.
G1 X0.9566 Y-0.9543
X0.956 Y-0.9549
X0.9552 Y-0.9543
X0.9557 Y-0.9536
X0.9574 Y-0.9534
X0.9591 Y-0.9537
X0.9606 Y-0.9546
X0.9653 Y-0.9592 F60.
X0.9675 Y-0.9613
Y-0.9644
X0.9655 Y-0.9669
X0.9624 Y-0.9675
X0.9596 Y-0.9659
G2 X0.9586 Y-0.963 I0.0039 J0.0031 F50.
G1 Y-0.9629
X0.9588 Y-0.9622
X0.9595 Y-0.9619
X0.9602 Y-0.9613
X0.9597 Y-0.9605
X0.9589 Y-0.9609
X0.9586 Y-0.9626
X0.9588 Y-0.9644
X0.9596 Y-0.9659
X0.9642 Y-0.9713 F60.
X0.9662 Y-0.9735
X0.9699 Y-0.9738
X0.9729 Y-0.9715
X0.9737 Y-0.9679
X0.9718 Y-0.9646
X0.9712 Y-0.9641 F50.
G3 X0.9631 Y-0.9682 I-0.003 J-0.004
G1 X0.9634 Y-0.9698
X0.9642 Y-0.9713
X0.9699 Y-0.9781 F60.
X0.9719 Y-0.9803
X0.9753 Y-0.9807
X0.9784 Y-0.9792
X0.9802 Y-0.9763
X0.9801 Y-0.9729
X0.9782 Y-0.97
X0.978 Y-0.9699 F50.
G3 X0.9699 Y-0.9781 I-0.0036 J-0.0046
G1 X0.9755 Y-0.9847 F60.
X0.9796 Y-0.9891
X0.9835 Y-0.9893
X0.9868 Y-0.9874
X0.9887 Y-0.984
X0.9886 Y-0.9801
X0.9864 Y-0.9768
X0.9843 Y-0.9753 F50.
G3 X0.9755 Y-0.9847 I-0.0037 J-0.0054
G1 X0.9836 Y-0.9944 F60.
X0.9877 Y-0.9987
X0.9896 Y-0.9994
X0.9939 Y-0.9996
X0.9976 Y-0.9975
X0.9997 Y-0.9938
X0.9995 Y-0.9895
X0.9971 Y-0.986
G3 X0.9934 Y-0.9834 I-0.0244 J-0.0309 F50.
X0.9836 Y-0.9944 I-0.0039 J-0.0064
G1 X0.9929 Y-1.0053 F60.
X0.994 Y-1.0066
X0.9946 Y-1.0071
X0.9968 Y-1.0083
X0.9974 Y-1.0086
X1.0002 Y-1.0089
X1.0009
X1.0036 Y-1.0082
X1.006 Y-1.0066
X1.0066 Y-1.0059
X1.0081 Y-1.0038
X1.0083 Y-1.0034
X1.0089 Y-1.0007
Y-1.0002
X1.0086 Y-0.9974
X1.0084 Y-0.997
X1.0071 Y-0.9947
X1.0068 Y-0.9942
X0.9988 Y-0.9874
G3 X0.996 Y-0.9856 I-0.0078 J-0.0091
G2 X0.9939 Y-0.9844 I0.0062 J0.0136
G1 X0.9731 Y-0.9704
X0.9423 Y-0.9497
G2 X0.9358 Y-0.9367 I0.0083 J0.0124
G3 X0.9294 Y-0.9065 I-0.0622 J0.0027 F50.
G2 X0.9105 Y-0.8193 I0.2137 J0.092 F60.
G3 X0.888 Y-0.807 I-0.0149 J-0.0005
G1 X0.8855 Y-0.8085 Z-0.2347
X0.8831 Y-0.81 Z-0.2339
X0.8809 Y-0.8113 Z-0.2325
X0.8789 Y-0.8125 Z-0.2306
X0.8773 Y-0.8134 Z-0.2284
X0.8761 Y-0.8141 Z-0.2258
X0.8754 Y-0.8145 Z-0.223
X0.8752 Y-0.8147 Z-0.2201
G0 Z0.6
(SHAPE THROUGH FINISHING PASS)
M7
G0 X2.9946 Y5.4241
Z0.6
Z0.2
G1 Z0.1 F13.333
Z-0.185
X2.9944 Y5.4239 Z-0.1906 F40.
X2.994 Y5.423 Z-0.1961
X2.9933 Y5.4217 Z-0.2015
X2.9923 Y5.4198 Z-0.2067
X2.991 Y5.4174 Z-0.2116
X2.9895 Y5.4145 Z-0.2162
X2.9877 Y5.4112 Z-0.2204
X2.9858 Y5.4075 Z-0.2241
X2.9836 Y5.4035 Z-0.2273
X2.9813 Y5.3991 Z-0.23
X2.9789 Y5.3946 Z-0.2322
X2.9764 Y5.3898 Z-0.2337
X2.9738 Y5.3849 Z-0.2347
X2.9711 Y5.38 Z-0.235
X2.9641 Y5.3668
G3 X3.0318 Y5.3875 I0.0235 J0.0442
G1 X4.0392 Y7.284 F50.
G3 X4.0027 Y7.3173 I-0.0225 J0.012
G1 X1.7395 Y5.8338
G3 X1.7323 Y5.7982 I0.014 J-0.0213
G1 X2.5582 Y4.5758
G3 X2.6018 Y4.5781 I0.0211 J0.0143
G1 X3.0318 Y5.3875
G3 X3.0111 Y5.4551 I-0.0442 J0.0235
G1 X3.0041 Y5.442
X3.0014 Y5.437 Z-0.2347
X2.9989 Y5.4322 Z-0.2337
X2.9963 Y5.4274 Z-0.2322
X2.9939 Y5.4228 Z-0.23
X2.9916 Y5.4185 Z-0.2273
X2.9894 Y5.4145 Z-0.2241
X2.9875 Y5.4108 Z-0.2204
X2.9857 Y5.4075 Z-0.2162
X2.9842 Y5.4046 Z-0.2116
X2.9829 Y5.4022 Z-0.2067
X2.9819 Y5.4003 Z-0.2015
X2.9812 Y5.3989 Z-0.1961
X2.9808 Y5.3981 Z-0.1906
X2.9806 Y5.3978 Z-0.185
G0 Z0.4
X0.8823 Y0.8836
Z0.2
G1 Z0.1 F13.333
Z-0.185
X0.8822 Y0.8833 Z-0.1906 F40.
X0.8821 Y0.8824 Z-0.1961
X0.8818 Y0.8809 Z-0.2015
X0.8814 Y0.8788 Z-0.2067
X0.8809 Y0.8761 Z-0.2116
X0.8803 Y0.8729 Z-0.2162
X0.8796 Y0.8693 Z-0.2204
X0.8788 Y0.8652 Z-0.2241
X0.8779 Y0.8607 Z-0.2273
X0.877 Y0.8558 Z-0.23
X0.876 Y0.8508 Z-0.2322
X0.875 Y0.8455 Z-0.2337
X0.874 Y0.84 Z-0.2347
X0.8729 Y0.8345 Z-0.235
X0.8701 Y0.8199
G3 X0.9286 Y0.8596 I0.0094 J0.0491
G2 X1.0127 Y0.9779 I0.1714 J-0.0328 F50.
G3 X0.9873 Y1.0221 I-0.0127 J0.0221
X0.9779 Y1.0127 I0.0127 J-0.0221
G2 X0.8268 Y0.9255 I-0.1511 J0.0873
G1 X-0.8268
G2 X-0.9779 Y1.0127 I0. J0.1745
G3 X-1.0221 Y0.9873 I-0.0221 J-0.0127
X-1.0127 Y0.9779 I0.0221 J0.0127
G2 X-0.9255 Y0.8268 I-0.0873 J-0.1511
G1 Y-0.8268
G2 X-1.0127 Y-0.9779 I-0.1745 J0.
G3 X-0.9873 Y-1.0221 I0.0127 J-0.0221
X-0.9779 Y-1.0127 I-0.0127 J0.0221
G2 X-0.8268 Y-0.9255 I0.1511 J-0.0873
G1 X0.8268
G2 X0.9779 Y-1.0127 I0. J-0.1745
G3 X1.0221 Y-0.9873 I0.0221 J0.0127
X1.0127 Y-0.9779 I-0.0221 J-0.0127
G2 X0.9255 Y-0.8268 I0.0873 J0.1511
G1 Y0.8268
G2 X0.9286 Y0.8596 I0.1745 J0.
G3 X0.8889 Y0.9181 I-0.0491 J0.0094
G1 X0.8861 Y0.9035
X0.8851 Y0.898 Z-0.2347
X0.884 Y0.8926 Z-0.2337
X0.883 Y0.8873 Z-0.2322
X0.882 Y0.8822 Z-0.23
X0.8811 Y0.8774 Z-0.2273
X0.8802 Y0.8729 Z-0.2241
X0.8795 Y0.8688 Z-0.2204
X0.8788 Y0.8651 Z-0.2162
X0.8781 Y0.8619 Z-0.2116
X0.8776 Y0.8592 Z-0.2067
X0.8772 Y0.8571 Z-0.2015
X0.8769 Y0.8556 Z-0.1961
X0.8768 Y0.8547 Z-0.1906
X0.8767 Y0.8544 Z-0.185
G0 Z0.6
(2D SLOT CUT)
M7
G0 X-1.9071 Y1.8717
Z0.6
Z0.2
G1 Z0.1 F13.333
X-2.0257 Y2.0754 Z0.0584 F40.
G2 X-2.2733 Y3.0292 Z-0.1175 I1.5766 J0.9182
X-1.4493 Y4.5195 I1.8242 J-0.0356 F55.
G1 X4.7879 Y8.608
G2 X5.2523 Y8.1843 I0.1779 J-0.2714
G1 X1.845 Y1.7701
G3 X1.8245 Y1.6877 I0.155 J-0.0823
G1 Y-1.5
G2 X1.5 Y-1.8245 I-0.3245 J0.
G1 X-1.5
G2 X-1.8245 Y-1.5 I0. J0.3245
G1 Y1.6825
G3 X-1.8483 Y1.7708 I-0.1755 J0.
G1 X-2.0257 Y2.0754
G2 X-2.2733 Y3.0292 I1.5766 J0.9182
X-1.904 Y4.0946 Z-0.235 I1.8242 J-0.0356 F40.
X-1.4493 Y4.5195 I1.4549 J-1.101 F55.
G1 X-0.972 Y4.8324
Z-0.135
X-0.3456 Y5.243
Z-0.235 F13.333
X3.263 Y7.6085 F55.
Z-0.135
X3.8895 Y8.0191
Z-0.235 F13.333
X4.7879 Y8.608 F55.
G2 X5.2523 Y8.1843 I0.1779 J-0.2714
G1 X4.6202 Y6.9943
Z-0.135
X4.2688 Y6.3328
Z-0.235 F13.333
X2.3762 Y2.7699 F55.
Z-0.135
X2.0248 Y2.1085
Z-0.235 F13.333
X1.845 Y1.7701 F55.
G3 X1.8245 Y1.6877 I0.155 J-0.0823
G1 Y0.4407
Z-0.135
Y-0.3083
Z-0.235 F13.333
Y-1.5 F55.
G2 X1.5 Y-1.8245 I-0.3245 J0.
G1 X0.3213
Z-0.135
X-0.4277
Z-0.235 F13.333
X-1.5 F55.
G2 X-1.8245 Y-1.5 I0. J0.3245
G1 Y-0.3643
Z-0.135
Y0.3847
Z-0.235 F13.333
Y1.6825 F55.
G3 X-1.8483 Y1.7708 I-0.1755 J0.
G1 X-2.0257 Y2.0754
G2 X-1.904 Y4.0946 I1.5766 J0.9182
G0 Z0.6
M9
G53 Z0.
M30
%
