%
(971-23-P-0065_STEEL CAPSTAN TERMINATION PLATE_1523)
(T1  D=0.1523 CR=0. - ZMIN=-0.145 - FLAT END MILL)
G90 G94 G17 G91.1
G64 P0.001 Q0.001
G20
G53 G0 Z0.
(.3 CIRCLUAR THROUGH HOLE)
M9
T1 M6
S22000 M3
G4 P10.
G54
M7
G0 X-3.5118 Y0.6118
G43 Z0.6 H1
G0 Z0.13
G1 Z0.0652 F40.
G18 G2 X-3.4966 Z0.05 I0.0152 K0.
G1 X-3.4889
G17 G3 X-3.4758 Y0.625 I0. J0.0132
X-3.5285 Z0. I-0.0263 J0.
X-3.4758 Z-0.05 I0.0263 J0.
X-3.5285 Z-0.1 I-0.0263 J0.
X-3.4771 Y0.6169 Z-0.145 I0.0263 J0.
X-3.5272 Y0.6331 I-0.0251 J0.0081
X-3.4771 Y0.6169 I0.0251 J-0.0081
X-3.4855 Y0.6335 I-0.0125 J0.0041
G1 X-3.4928 Y0.6358
X-3.4956 Y0.6367 Z-0.1447
X-3.4983 Y0.6376 Z-0.1438
X-3.5008 Y0.6384 Z-0.1424
X-3.503 Y0.6391 Z-0.1405
X-3.5048 Y0.6397 Z-0.1382
X-3.5061 Y0.6402 Z-0.1356
X-3.507 Y0.6404 Z-0.1327
X-3.5072 Y0.6405 Z-0.1298
G0 Z0.6
(2D SLOT CUT)
M7
G0 X-3.2134 Y0.5002
Z0.6
Z0.2
G1 Z0.1 F13.333
Y0.125 Z0.0339 F40.
G2 X-3.2895 Y0.0489 I-0.0761 J0.
G1 X-3.6896 Z-0.0578
G2 X-3.7658 Y0.125 I0. J0.0761
G1 Y0.2407 Z-0.0993
Z-0.045
Y0.5
Y0.793 F55.
Z-0.145 F13.333
Y0.875 F55.
G2 X-3.6896 Y0.9512 I0.0762 J0.
G1 X-3.2895
G2 X-3.2134 Y0.875 I0. J-0.0761
G1 Y0.8128
Z-0.045
Y0.2605
Z-0.145 F13.333
Y0.125 F55.
G2 X-3.2895 Y0.0489 I-0.0761 J0.
G1 X-3.6896
G2 X-3.7658 Y0.125 I0. J0.0761
G1 Y0.2407
Z-0.045
Y0.5
G0 Z0.6
M9
G53 Z0.
M30
%
