%
(CONERAMPSHARKFIN_250)
(T1  D=0.25 CR=0. - ZMIN=-0.5187 - FLAT END MILL)
G90 G94 G17 G91.1
G64 P0.001 Q0.001
G20
G53 G0 Z0.
(.3 CIRCULAR THROUGH HOLE)
M9
T1 M6
S13000 M3
G4 P10.
G54
M7
G0 X14.5408 Y11.1029
G43 Z0.6 H1
G0 Z0.2
G1 Z0.1241 F13.333
G3 X14.542 Y11.1023 Z0.1161 I0.0216 J0.0395 F55.
X14.5455 Y11.1007 Z0.1089 I0.0205 J0.0401
X14.5511 Y11.0988 Z0.1034 I0.017 J0.0417
X14.5584 Y11.0975 Z0.1 I0.0113 J0.0435
X14.5665 Y11.1872 Z0.0621 I0.004 J0.0448
X14.5584 Y11.0975 Z0.0242 I-0.004 J-0.0448
X14.5665 Y11.1872 Z-0.0136 I0.004 J0.0448
X14.5584 Y11.0975 Z-0.0515 I-0.004 J-0.0448
X14.5665 Y11.1872 Z-0.0894 I0.004 J0.0448
X14.5584 Y11.0975 Z-0.1273 I-0.004 J-0.0448
X14.6074 Y11.1403 Z-0.1468 I0.004 J0.0448
X14.5625 Y11.1874 Z-0.1662 I-0.045 J0.002
Y11.0374 I0. J-0.075 F60.
Y11.1874 I0. J0.075
Y11.0374 Z-0.2294 I0. J-0.075 F55.
Y11.1874 Z-0.2925 I0. J0.075
X14.494 Y11.0819 Z-0.3325 I0. J-0.075
X14.631 Y11.1429 I0.0685 J0.0305 F60.
X14.494 Y11.0819 I-0.0685 J-0.0305
X14.5048 Y11.0745 I0.0114 J0.0051
G1 X14.6124 Y11.0693
G3 X14.6173 Y11.0701 I0.0006 J0.0125
X14.5865 Y11.1546 Z-0.3704 I-0.0154 J0.0423 F55.
X14.6173 Y11.0701 Z-0.4083 I0.0154 J-0.0423
X14.5865 Y11.1546 Z-0.4461 I-0.0154 J0.0423
X14.6173 Y11.0701 Z-0.484 I0.0154 J-0.0423
X14.6469 Y11.1124 Z-0.4987 I-0.0154 J0.0423
X14.5875 I-0.0297 J0.
X14.6375 I0.025 J0. F60.
X14.4875 I-0.075 J0.
X14.6475 I0.08 J0.
X14.4775 I-0.085 J0.
X14.6475 I0.085 J0.
X14.6463 Y11.12 Z-0.4975 I-0.025 J0.
X14.6433 Y11.1262 Z-0.494 I-0.0238 J-0.0076
X14.6397 Y11.1305 Z-0.4884 I-0.0208 J-0.0139
X14.637 Y11.1327 Z-0.4815 I-0.0173 J-0.0181
X14.636 Y11.1334 Z-0.4737 I-0.0145 J-0.0204
G0 Z0.4
X14.5408 Y21.1743
Z0.2
G1 Z0.1241 F13.333
G3 X14.542 Y21.1737 Z0.1161 I0.0216 J0.0394 F55.
X14.5455 Y21.1721 Z0.1089 I0.0205 J0.0401
X14.5511 Y21.1702 Z0.1034 I0.017 J0.0417
X14.5584 Y21.1689 Z0.1 I0.0113 J0.0435
X14.5665 Y21.2586 Z0.0621 I0.004 J0.0448
X14.5584 Y21.1689 Z0.0242 I-0.004 J-0.0448
X14.5665 Y21.2586 Z-0.0136 I0.004 J0.0448
X14.5584 Y21.1689 Z-0.0515 I-0.004 J-0.0448
X14.5665 Y21.2586 Z-0.0894 I0.004 J0.0448
X14.5584 Y21.1689 Z-0.1273 I-0.004 J-0.0448
X14.6074 Y21.2117 Z-0.1468 I0.004 J0.0448
X14.5625 Y21.2587 Z-0.1662 I-0.045 J0.002
Y21.1087 I0. J-0.075 F60.
Y21.2587 I0. J0.075
Y21.1087 Z-0.2294 I0. J-0.075 F55.
Y21.2587 Z-0.2925 I0. J0.075
X14.494 Y21.1532 Z-0.3325 I0. J-0.075
X14.631 Y21.2142 I0.0685 J0.0305 F60.
X14.494 Y21.1532 I-0.0685 J-0.0305
X14.5048 Y21.1458 I0.0114 J0.0051
G1 X14.6124 Y21.1407
G3 X14.6173 Y21.1415 I0.0006 J0.0125
X14.5865 Y21.226 Z-0.3704 I-0.0154 J0.0423 F55.
X14.6173 Y21.1415 Z-0.4083 I0.0154 J-0.0423
X14.5865 Y21.226 Z-0.4461 I-0.0154 J0.0423
X14.6173 Y21.1415 Z-0.484 I0.0154 J-0.0423
X14.6469 Y21.1837 Z-0.4987 I-0.0154 J0.0423
X14.5875 I-0.0297 J0.
X14.6375 I0.025 J0. F60.
X14.4875 I-0.075 J0.
X14.6475 I0.08 J0.
X14.4775 I-0.085 J0.
X14.6475 I0.085 J0.
X14.647 Y21.1871 Z-0.4982 I-0.0112 J0.
X14.6456 Y21.1899 Z-0.4966 I-0.0107 J-0.0034
X14.644 Y21.1918 Z-0.4941 I-0.0093 J-0.0062
X14.6428 Y21.1928 Z-0.491 I-0.0077 J-0.0081
X14.6423 Y21.1932 Z-0.4876 I-0.0065 J-0.0091
G0 Z0.4
X0.7284 Y11.5027
Z0.2
G1 Z0.1241 F13.333
G3 X0.7295 Y11.5021 Z0.1161 I0.0216 J0.0395 F55.
X0.733 Y11.5005 Z0.1089 I0.0205 J0.0401
X0.7387 Y11.4986 Z0.1034 I0.017 J0.0417
X0.746 Y11.4973 Z0.1 I0.0113 J0.0435
X0.786 Y11.5151 Z0.0877 I0.004 J0.0448
X0.714 Y11.5691 Z0.0499 I-0.036 J0.027
Y11.5151 Z0.0343 I0.036 J-0.027
X0.786 Z0.012 I0.036 J0.027
X0.714 Y11.5691 Z-0.0259 I-0.036 J0.027
Y11.5151 Z-0.0414 I0.036 J-0.027
X0.786 Z-0.0638 I0.036 J0.027
X0.714 Y11.5691 Z-0.1017 I-0.036 J0.027
Y11.5151 Z-0.1172 I0.036 J-0.027
X0.786 Z-0.1395 I0.036 J0.027
X0.75 Y11.5871 Z-0.1662 I-0.036 J0.027
Y11.4371 I0. J-0.075 F60.
Y11.5871 I0. J0.075
Y11.4371 Z-0.2294 I0. J-0.075 F55.
Y11.5871 Z-0.2925 I0. J0.075
X0.6815 Y11.4816 Z-0.3325 I0. J-0.075
X0.8185 Y11.5426 I0.0685 J0.0305 F60.
X0.6815 Y11.4816 I-0.0685 J-0.0305
X0.6923 Y11.4742 I0.0114 J0.0051
G1 X0.7999 Y11.4691
G3 X0.8048 Y11.4698 I0.0006 J0.0125
X0.774 Y11.5544 Z-0.3704 I-0.0154 J0.0423 F55.
X0.8048 Y11.4698 Z-0.4083 I0.0154 J-0.0423
X0.774 Y11.5544 Z-0.4461 I-0.0154 J0.0423
X0.8048 Y11.4698 Z-0.484 I0.0154 J-0.0423
X0.8344 Y11.5121 Z-0.4987 I-0.0154 J0.0423
X0.775 I-0.0297 J0.
X0.825 I0.025 J0. F60.
X0.675 I-0.075 J0.
X0.835 I0.08 J0.
X0.665 I-0.085 J0.
X0.835 I0.085 J0.
X0.8345 Y11.5155 Z-0.4982 I-0.0112 J0.
X0.8331 Y11.5183 Z-0.4966 I-0.0107 J-0.0034
X0.8315 Y11.5202 Z-0.4941 I-0.0093 J-0.0062
X0.8303 Y11.5212 Z-0.491 I-0.0077 J-0.0081
X0.8299 Y11.5215 Z-0.4876 I-0.0065 J-0.0091
G0 Z0.4
X0.7284 Y1.4313
Z0.2
G1 Z0.1241 F13.333
G3 X0.7295 Y1.4307 Z0.1161 I0.0216 J0.0395 F55.
X0.733 Y1.4291 Z0.1089 I0.0205 J0.0401
X0.7387 Y1.4272 Z0.1034 I0.017 J0.0417
X0.746 Y1.4259 Z0.1 I0.0113 J0.0435
X0.754 Y1.5156 Z0.0621 I0.004 J0.0448
X0.746 Y1.4259 Z0.0242 I-0.004 J-0.0448
X0.754 Y1.5156 Z-0.0136 I0.004 J0.0448
X0.746 Y1.4259 Z-0.0515 I-0.004 J-0.0448
X0.754 Y1.5156 Z-0.0894 I0.004 J0.0448
X0.746 Y1.4259 Z-0.1273 I-0.004 J-0.0448
X0.795 Y1.4687 Z-0.1468 I0.004 J0.0448
X0.75 Y1.5157 Z-0.1662 I-0.045 J0.002
Y1.3657 I0. J-0.075 F60.
Y1.5157 I0. J0.075
Y1.3657 Z-0.2294 I0. J-0.075 F55.
Y1.5157 Z-0.2925 I0. J0.075
X0.6815 Y1.4102 Z-0.3325 I0. J-0.075
X0.8185 Y1.4712 I0.0685 J0.0305 F60.
X0.6815 Y1.4102 I-0.0685 J-0.0305
X0.6923 Y1.4028 I0.0114 J0.0051
G1 X0.7999 Y1.3977
G3 X0.8048 Y1.3985 I0.0006 J0.0125
X0.774 Y1.483 Z-0.3704 I-0.0154 J0.0423 F55.
X0.8048 Y1.3985 Z-0.4083 I0.0154 J-0.0423
X0.774 Y1.483 Z-0.4461 I-0.0154 J0.0423
X0.8048 Y1.3985 Z-0.484 I0.0154 J-0.0423
X0.8344 Y1.4407 Z-0.4987 I-0.0154 J0.0423
X0.775 I-0.0297 J0.
X0.825 I0.025 J0. F60.
X0.675 I-0.075 J0.
X0.835 I0.08 J0.
X0.665 I-0.085 J0.
X0.835 I0.085 J0.
X0.8345 Y1.4441 Z-0.4982 I-0.0112 J0.
X0.8331 Y1.4469 Z-0.4966 I-0.0107 J-0.0034
X0.8315 Y1.4488 Z-0.4941 I-0.0093 J-0.0062
X0.8303 Y1.4498 Z-0.491 I-0.0077 J-0.0081
X0.8299 Y1.4502 Z-0.4876 I-0.0065 J-0.0091
G0 Z0.6
(2D CONTOUR)
M7
G0 X-0.125 Y9.2741
Z0.6
Z0.2
G1 Z0.1 F13.333
Y11.3122 Z-0.2594
Y11.9026 F60.
G2 X-0.0717 Y12.005 I0.125 J0.
G1 X15.2408 Y22.7269
G2 X15.4375 Y22.6245 I0.0717 J-0.1024
G1 Y10.7219
G2 X15.3842 Y10.6195 I-0.125 J0.
G1 X0.0717 Y-0.1024
G2 X-0.125 Y0. I-0.0717 J0.1024
G1 Y11.3122
Y11.9026 Z-0.2669 F13.333
G2 X-0.0717 Y12.005 Z-0.2684 I0.125 J0.
G1 X12.0401 Y20.4857 Z-0.4562
X13.6561 Y21.6172
Z-0.4813
X15.2408 Y22.7269 Z-0.5059
G2 X15.4375 Y22.6245 Z-0.5094 I0.0717 J-0.1024
G1 Y21.8852 Z-0.5187
Y20.6899 F60.
Z-0.4562
Y18.4399
Z-0.5187 F13.333
Y14.5708 F60.
Z-0.4562
Y12.3208
Z-0.5187 F13.333
Y10.7219 F60.
G2 X15.3842 Y10.6195 I-0.125 J0.
G1 X13.5245 Y9.3174
Z-0.4562
X11.6814 Y8.0268
Z-0.5187 F13.333
X8.512 Y5.8076 F60.
Z-0.4562
X6.6689 Y4.517
Z-0.5187 F13.333
X3.4995 Y2.2978 F60.
Z-0.4562
X1.6564 Y1.0072
Z-0.5187 F13.333
X0.0717 Y-0.1024 F60.
G2 X-0.125 Y0. I-0.0717 J0.1024
G1 Y1.9346
Z-0.4562
Y4.1846
Z-0.5187 F13.333
Y8.0537 F60.
Z-0.4562
Y10.3037
Z-0.5187 F13.333
Y11.9026 F60.
G2 X-0.0717 Y12.005 I0.125 J0.
G1 X1.788 Y13.3071
Z-0.4562
X3.6311 Y14.5977
Z-0.5187 F13.333
X6.8005 Y16.8169 F60.
Z-0.4562
X8.6436 Y18.1075
Z-0.5187 F13.333
X11.813 Y20.3267 F60.
Z-0.4562
X13.6561 Y21.6172
Z-0.5187 F13.333
X15.2408 Y22.7269 F60.
G2 X15.4375 Y22.6245 I0.0717 J-0.1024
G1 Y21.8852
G0 Z0.6
M9
G53 Z0.
M30
%
