%
(HOLES_1875)
(T1  D=0.1554 CR=0. - ZMIN=-0.2025 - FLAT END MILL)
G90 G94 G17 G91.1
G64 P0.001 Q0.001
G20
G53 G0 Z0.
(BORE1)
M9
T1 M6
S13000 M3
G4 P10.
G54
M7
G0 X-0.0132 Y-0.0101
G43 Z0.6 H1
G0 Z0.08
G1 Z0.0155 F65.
G18 G2 X0.0024 Z0. I0.0155 K0.
G1 X0.0101
G17 G3 X0.0203 Y0. I0. J0.0101
X-0.0203 Z-0.01 I-0.0203 J0.
X0.0203 Z-0.02 I0.0203 J0.
X-0.0203 Z-0.03 I-0.0203 J0.
X0.0203 Z-0.04 I0.0203 J0.
X-0.0203 Z-0.05 I-0.0203 J0.
X0.0203 Z-0.06 I0.0203 J0.
X-0.0203 Z-0.07 I-0.0203 J0.
X0.0203 Z-0.08 I0.0203 J0.
X-0.0203 Z-0.09 I-0.0203 J0.
X0.0203 Z-0.1 I0.0203 J0.
X-0.0203 Z-0.11 I-0.0203 J0.
X0.0203 Z-0.12 I0.0203 J0.
X-0.0203 Z-0.13 I-0.0203 J0.
X0.0203 Z-0.14 I0.0203 J0.
X-0.0203 Z-0.15 I-0.0203 J0.
X0.0203 Z-0.16 I0.0203 J0.
X-0.0203 Z-0.17 I-0.0203 J0.
X0.0203 Z-0.18 I0.0203 J0.
X-0.0203 Z-0.19 I-0.0203 J0.
X0.0203 Z-0.2 I0.0203 J0.
X0.0144 Y0.0144 Z-0.2025 I-0.0203 J0.
X-0.0144 Y-0.0144 I-0.0144 J-0.0144
X0.0144 Y0.0144 I0.0144 J0.0144
X0. I-0.0072 J-0.0072
G1 X-0.0055 Y0.0089
X-0.0076 Y0.0067 Z-0.2022
X-0.0097 Y0.0047 Z-0.2013
X-0.0116 Y0.0028 Z-0.1999
X-0.0133 Y0.0011 Z-0.1979
X-0.0146 Y-0.0003 Z-0.1956
X-0.0156 Y-0.0013 Z-0.1929
X-0.0163 Y-0.0019 Z-0.19
X-0.0165 Y-0.0021 Z-0.187
G0 Z0.6
M9
G53 Z0.
M30
%
