%
(HOLES_250)
(971-16-P-0003_6MM_OPP1)
(T1  D=0.1554 CR=0. - ZMIN=-0.265 - FLAT END MILL)
G90 G94 G17 G91.1
G64 P0.001 Q0.001
G20
G53 G0 Z0.
(2D POCKET1)
M9
T1 M6
S13000 M3
G4 P10.
G54
M7
G0 X0.1026 Y-0.0546
G43 Z0.6 H1
G0 Z0.2
G1 Z0.1155 F65.
G3 X0.1034 Y-0.0539 Z0.1099 I-0.0497 J0.0546 F50.
X0.1055 Y-0.0519 Z0.1051 I-0.0504 J0.0539
X0.1086 Y-0.0486 Z0.1016 I-0.0525 J0.0519
X0.112 Y-0.0444 Z0.1 I-0.0556 J0.0486
X-0.006 Y0.0444 Z0.0756 I-0.059 J0.0444
X0.112 Y-0.0444 Z0.0513 I0.059 J-0.0444
X-0.006 Y0.0444 Z0.0269 I-0.059 J0.0444
X0.112 Y-0.0444 Z0.0025 I0.059 J-0.0444
X-0.006 Y0.0444 Z-0.0219 I-0.059 J0.0444
X0.112 Y-0.0444 Z-0.0462 I0.059 J-0.0444
X-0.006 Y0.0444 Z-0.0706 I-0.059 J0.0444
X0.112 Y-0.0444 Z-0.095 I0.059 J-0.0444
X0.1268 Y0. Z-0.1 I-0.059 J0.0444
X0.0203 I-0.0532 J0.
X0.1273 I0.0535 J0. F65.
X-0.1273 I-0.1273 J0.
X0.1273 I0.1273 J0.
X0.1214 Y0.0004 I-0.003 J0.
G1 X0.1199 Y-0.011
G3 X0.1258 Y-0.0118 I0.003 J-0.0004
X-0.0199 Y0.0118 Z-0.1244 I-0.0729 J0.0118 F50.
X0.047 Y-0.0736 Z-0.1372 I0.0729 J-0.0118
X0.1268 Y0. Z-0.15 I0.0059 J0.0736
X0.0203 I-0.0532 J0.
X0.1273 I0.0535 J0. F65.
X-0.1273 I-0.1273 J0.
X0.1273 I0.1273 J0.
X0.1262 Y0.0058 Z-0.1488 I-0.0155 J0.
X0.1236 Y0.0101 Z-0.1454 I-0.0144 J-0.0058
X0.1211 Y0.0124 Z-0.1404 I-0.0118 J-0.0101
X0.1202 Y0.0131 Z-0.1345 I-0.0094 J-0.0124
G0 Z0.6
(BORE1)
M7
G0 X-0.0132 Y-0.0101
Z0.6
Z-0.07
G1 Z-0.1345 F65.
G18 G2 X0.0024 Z-0.15 I0.0155 K0.
G1 X0.0101
G17 G3 X0.0203 Y0. I0. J0.0101
X-0.0203 Z-0.16 I-0.0203 J0. F45.
X0.0203 Z-0.17 I0.0203 J0.
X-0.0203 Z-0.18 I-0.0203 J0.
X0.0203 Z-0.19 I0.0203 J0.
X-0.0203 Z-0.2 I-0.0203 J0.
X0.0203 Z-0.21 I0.0203 J0.
X-0.0203 Z-0.22 I-0.0203 J0.
X0.0203 Z-0.23 I0.0203 J0.
X-0.0203 Z-0.24 I-0.0203 J0.
X0.0203 Z-0.25 I0.0203 J0.
X-0.0203 Z-0.26 I-0.0203 J0.
X0. Y-0.0203 Z-0.265 I0.0203 J0.
Y0.0203 I0. J0.0203
Y-0.0203 I0. J-0.0203
X0.0101 Y-0.0101 I0. J0.0101 F65.
G1 Y-0.0024
G19 G3 Y0.0132 Z-0.2495 J0. K0.0155
G0 Z0.6
G17
M9
G53 G0 Z0.
M30
%
