%
(HOLES_375)
(T1  D=0.1554 CR=0. - ZMIN=-0.39 - FLAT END MILL)
G90 G94 G17 G91.1
G64 P0.001 Q0.001
G20
G53 G0 Z0.
(2D POCKET1)
M9
T1 M6
S13000 M3
G4 P10.
G54
M7
G0 X0.1026 Y-0.0546
G43 Z0.6 H1
G0 Z0.2
G1 Z0.1155 F65.
G3 X0.1034 Y-0.0539 Z0.1099 I-0.0497 J0.0546 F50.
X0.1055 Y-0.0519 Z0.1051 I-0.0504 J0.0539
X0.1086 Y-0.0486 Z0.1016 I-0.0525 J0.0519
X0.112 Y-0.0444 Z0.1 I-0.0556 J0.0486
X-0.006 Y0.0444 Z0.0756 I-0.059 J0.0444
X0.112 Y-0.0444 Z0.0513 I0.059 J-0.0444
X-0.006 Y0.0444 Z0.0269 I-0.059 J0.0444
X0.112 Y-0.0444 Z0.0025 I0.059 J-0.0444
X-0.006 Y0.0444 Z-0.0219 I-0.059 J0.0444
X0.112 Y-0.0444 Z-0.0462 I0.059 J-0.0444
X-0.006 Y0.0444 Z-0.0706 I-0.059 J0.0444
X0.112 Y-0.0444 Z-0.095 I0.059 J-0.0444
X0.1268 Y0. Z-0.1 I-0.059 J0.0444
X0.0203 I-0.0532 J0.
X0.1273 I0.0535 J0. F65.
X-0.1273 I-0.1273 J0.
X0.1273 I0.1273 J0.
X0.1155 Y0.0011 I-0.0059 J0.
G1 X0.1115 Y-0.0204
G3 X0.123 Y-0.0234 I0.0058 J-0.0011
X-0.0171 Y0.0234 Z-0.1244 I-0.07 J0.0234 F50.
X0.123 Y-0.0234 Z-0.1487 I0.07 J-0.0234
X-0.0171 Y0.0234 Z-0.1731 I-0.07 J0.0234
X0.123 Y-0.0234 Z-0.1975 I0.07 J-0.0234
X0.1268 Y0. Z-0.2 I-0.07 J0.0234
X0.0203 I-0.0532 J0.
X0.1273 I0.0535 J0. F65.
X-0.1273 I-0.1273 J0.
X0.1273 I0.1273 J0.
X0.1203 Y0.0079 I-0.008 J0.
G1 X-0.01 Y0.0237
G3 X-0.0187 Y0.0177 I-0.001 J-0.0079
X0.1246 Y-0.0177 Z-0.2244 I0.0717 J-0.0177 F50.
X-0.0187 Y0.0177 Z-0.2487 I-0.0717 J0.0177
X0.0441 Y-0.0733 Z-0.2619 I0.0717 J-0.0177
X0.1268 Y0. Z-0.275 I0.0089 J0.0733
X0.0203 I-0.0532 J0.
X0.1273 I0.0535 J0. F65.
X-0.1273 I-0.1273 J0.
X0.1273 I0.1273 J0.
X0.1262 Y0.0058 Z-0.2738 I-0.0155 J0.
X0.1236 Y0.0101 Z-0.2704 I-0.0144 J-0.0058
X0.1211 Y0.0124 Z-0.2654 I-0.0118 J-0.0101
X0.1202 Y0.0131 Z-0.2595 I-0.0094 J-0.0124
G0 Z0.6
(BORE1)
M7
G0 X-0.0132 Y-0.0101
Z0.6
Z-0.195
G1 Z-0.2595 F65.
G18 G2 X0.0024 Z-0.275 I0.0155 K0.
G1 X0.0101
G17 G3 X0.0203 Y0. I0. J0.0101
X-0.0203 Z-0.285 I-0.0203 J0. F45.
X0.0203 Z-0.295 I0.0203 J0.
X-0.0203 Z-0.305 I-0.0203 J0.
X0.0203 Z-0.315 I0.0203 J0.
X-0.0203 Z-0.325 I-0.0203 J0.
X0.0203 Z-0.335 I0.0203 J0.
X-0.0203 Z-0.345 I-0.0203 J0.
X0.0203 Z-0.355 I0.0203 J0.
X-0.0203 Z-0.365 I-0.0203 J0.
X0.0203 Z-0.375 I0.0203 J0.
X-0.0203 Z-0.385 I-0.0203 J0.
X0. Y-0.0203 Z-0.39 I0.0203 J0.
Y0.0203 I0. J0.0203
Y-0.0203 I0. J-0.0203
X0.0101 Y-0.0101 I0. J0.0101 F65.
G1 Y-0.0024
G19 G3 Y0.0132 Z-0.3745 J0. K0.0155
G0 Z0.6
G17
M9
G53 G0 Z0.
M30
%
