%
(HOLES_125BRAKEPAD)
(971-16-P-0003_6MM_OPP1)
(T1  D=0.1548 CR=0. - ZMIN=-0.16 - FLAT END MILL)
G90 G94 G17 G91.1
G20
G53 G0 Z0.
(BORE1 2)
M9
T1 M6
S2500 M3
G4 P10.
G54
M7
G0 X-0.0129 Y-0.0103
G43 Z0.6 H1
G0 Z0.12
G1 Z0.0555 F1.
G18 G2 X0.0026 Z0.04 I0.0155 K0.
G1 X0.0103
G17 G3 X0.0206 Y0. I0. J0.0103
X-0.0206 Z0.0203 I-0.0206 J0. F2.
X0.0206 Z0.0006 I0.0206 J0.
X-0.0206 Z-0.0191 I-0.0206 J0.
X0.0206 Z-0.0387 I0.0206 J0.
X-0.0206 Z-0.0584 I-0.0206 J0.
X0.0206 Z-0.0781 I0.0206 J0.
X-0.0206 Z-0.0978 I-0.0206 J0.
X0.0206 Z-0.1175 I0.0206 J0.
X-0.0206 Z-0.1372 I-0.0206 J0.
X0.0206 Z-0.1569 I0.0206 J0.
X0.0181 Y0.0099 Z-0.16 I-0.0206 J0.
X-0.0181 Y-0.0099 I-0.0181 J-0.0099
X0.0181 Y0.0099 I0.0181 J0.0099
X0.0041 Y0.014 I-0.009 J-0.005 F1.
G1 X-0.0027 Y0.0103
X-0.0054 Y0.0088 Z-0.1597
X-0.0079 Y0.0074 Z-0.1588
X-0.0103 Y0.0061 Z-0.1574
X-0.0123 Y0.005 Z-0.1555
X-0.014 Y0.0041 Z-0.1531
X-0.0153 Y0.0034 Z-0.1504
X-0.016 Y0.0029 Z-0.1475
X-0.0163 Y0.0028 Z-0.1445
G0 Z0.6
M9
G53 Z0.
M30
%
