%
(HOLES_47)
(971-16-P-0003_6MM_OPP1)
(T1  D=0.25 CR=0. - ZMIN=-0.305 - FLAT END MILL)
G90 G94 G17 G91.1
G20
G53 G0 Z0.
(BORE1 1)
M9
T1 M6
S13000 M3
G4 P10.
G54
M7
G0 X0.0175 Y-0.025
G43 Z0.6 H1
G0 Z0.12
G1 Z0.065 F50.
G18 G2 X0.0425 Z0.04 I0.025 K0.
G1 X0.055
G17 G3 X0.08 Y0. I0. J0.025
X-0.08 Z0.0203 I-0.08 J0.
X0.08 Z0.0006 I0.08 J0.
X-0.08 Z-0.0191 I-0.08 J0.
X0.08 Z-0.0387 I0.08 J0.
X-0.08 Z-0.0584 I-0.08 J0.
X0.08 Z-0.0781 I0.08 J0.
X-0.08 Z-0.0978 I-0.08 J0.
X0.08 Z-0.1175 I0.08 J0.
X-0.08 Z-0.1372 I-0.08 J0.
X0.08 Z-0.1569 I0.08 J0.
X-0.08 Z-0.1765 I-0.08 J0.
X0.08 Z-0.1962 I0.08 J0.
X-0.08 Z-0.2159 I-0.08 J0.
X0.08 Z-0.2356 I0.08 J0.
X-0.08 Z-0.2553 I-0.08 J0.
X0.08 Z-0.275 I0.08 J0.
X-0.08 Z-0.2946 I-0.08 J0.
X0.0065 Y-0.0797 Z-0.305 I0.08 J0.
X-0.0065 Y0.0797 I-0.0065 J0.0797
X0.0065 Y-0.0797 I0.0065 J-0.0797
X0.0294 Y-0.0528 I-0.002 J0.0249
G1 X0.0284 Y-0.0403
X0.0281 Y-0.0364 Z-0.3047
X0.0278 Y-0.0326 Z-0.3038
X0.0275 Y-0.029 Z-0.3023
X0.0272 Y-0.0257 Z-0.3002
X0.0269 Y-0.0227 Z-0.2977
X0.0267 Y-0.0202 Z-0.2947
X0.0266 Y-0.0181 Z-0.2913
X0.0264 Y-0.0166 Z-0.2877
Y-0.0157 Z-0.2839
X0.0263 Y-0.0154 Z-0.28
G0 Z0.6
M9
G53 Z0.
M30
%
