%
(HOLES_3125)
(971-16-P-0003_6MM_OPP1)
(T1  D=0.1548 CR=0. - ZMIN=-0.3275 - FLAT END MILL)
G90 G94 G17 G91.1
G20
G53 G0 Z0.
(2D POCKET2)
M9
T1 M6
S13000 M3
G4 P10.
G54
M7
G0 X0.0675 Y-0.0712
G43 Z0.6 H1
G0 Z0.2
G1 Z0.0504 F65.
G3 X0.0685 Y-0.0709 Z0.0448 I-0.0185 J0.0712 F50.
X0.0713 Y-0.0701 Z0.04 I-0.0195 J0.0709
X0.0755 Y-0.0686 Z0.0366 I-0.0223 J0.0701
X0.0805 Y-0.0664 Z0.035 I-0.0265 J0.0686
X0.0175 Y0.0664 Z0.0107 I-0.0315 J0.0664
X0.0805 Y-0.0664 Z-0.0136 I0.0315 J-0.0664
X0.0175 Y0.0664 Z-0.0378 I-0.0315 J0.0664
X0.0805 Y-0.0664 Z-0.0621 I0.0315 J-0.0664
X0.1225 Y0. Z-0.0708 I-0.0315 J0.0664
X0.0245 I-0.049 J0.
X0.1226 I0.0491 J0. F65.
X-0.1226 I-0.1226 J0.
X0.1226 I0.1226 J0.
X0.1215 Y0.0058 Z-0.0697 I-0.0155 J0.
X0.1189 Y0.0101 Z-0.0663 I-0.0144 J-0.0058
X0.1165 Y0.0124 Z-0.0613 I-0.0118 J-0.0101
X0.1155 Y0.013 Z-0.0554 I-0.0093 J-0.0124
G0 Z0.4
X0.0675 Y-0.0712
Z0.2
G1 Z-0.0204 F65.
G3 X0.0685 Y-0.0709 Z-0.026 I-0.0185 J0.0712 F50.
X0.0713 Y-0.0701 Z-0.0308 I-0.0195 J0.0709
X0.0755 Y-0.0686 Z-0.0342 I-0.0223 J0.0701
X0.0805 Y-0.0664 Z-0.0358 I-0.0265 J0.0686
X0.0175 Y0.0664 Z-0.0601 I-0.0315 J0.0664
X0.0805 Y-0.0664 Z-0.0844 I0.0315 J-0.0664
X0.0175 Y0.0664 Z-0.1087 I-0.0315 J0.0664
X0.0805 Y-0.0664 Z-0.133 I0.0315 J-0.0664
X0.1225 Y0. Z-0.1417 I-0.0315 J0.0664
X0.0245 I-0.049 J0.
X0.1226 I0.0491 J0. F65.
X-0.1226 I-0.1226 J0.
X0.1226 I0.1226 J0.
X0.1215 Y0.0058 Z-0.1405 I-0.0155 J0.
X0.1189 Y0.0101 Z-0.1371 I-0.0144 J-0.0058
X0.1165 Y0.0124 Z-0.1321 I-0.0118 J-0.0101
X0.1155 Y0.013 Z-0.1262 I-0.0093 J-0.0124
G0 Z0.4
X0.0706 Y-0.0712
Z0.2
G1 Z-0.0913 F65.
G3 X0.0716 Y-0.0709 Z-0.0968 I-0.0185 J0.0712 F50.
X0.0744 Y-0.0701 Z-0.1016 I-0.0195 J0.0709
X0.0786 Y-0.0686 Z-0.1051 I-0.0223 J0.0701
X0.0836 Y-0.0664 Z-0.1067 I-0.0265 J0.0686
X0.0205 Y0.0664 Z-0.1309 I-0.0315 J0.0664
X0.0836 Y-0.0664 Z-0.1552 I0.0315 J-0.0664
X0.0205 Y0.0664 Z-0.1795 I-0.0315 J0.0664
X0.0836 Y-0.0664 Z-0.2038 I0.0315 J-0.0664
X0.1256 Y0. Z-0.2125 I-0.0315 J0.0664
X0.0245 I-0.0506 J0.
X0.1226 I0.0491 J0. F65.
X-0.1226 I-0.1226 J0.
X0.1276 I0.1251 J0.
X-0.1276 I-0.1276 J0.
X0.1276 I0.1276 J0.
X0.1265 Y0.0058 Z-0.2113 I-0.0155 J0.
X0.1239 Y0.0101 Z-0.208 I-0.0144 J-0.0058
X0.1215 Y0.0124 Z-0.2029 I-0.0118 J-0.0101
X0.1205 Y0.013 Z-0.197 I-0.0093 J-0.0124
G0 Z0.6
(BORE2)
M7
G0 X-0.0132 Y-0.0101
Z0.6
Z-0.1325
G1 Z-0.197 F65.
G18 G2 X0.0024 Z-0.2125 I0.0155 K0.
G1 X0.0101
G17 G3 X0.0203 Y0. I0. J0.0101
X-0.0203 Z-0.2475 I-0.0203 J0. F45.
X0.0203 Z-0.2825 I0.0203 J0.
X-0.0203 Z-0.3175 I-0.0203 J0.
X-0.0127 Y-0.0159 Z-0.3275 I0.0203 J0.
X0.0127 Y0.0159 I0.0127 J0.0159
X-0.0127 Y-0.0159 I-0.0127 J-0.0159
X0.0016 Y-0.0143 I0.0063 J0.0079 F65.
G1 X0.0065 Y-0.0082
X0.0083 Y-0.0058 Z-0.3272
X0.0102 Y-0.0035 Z-0.3263
X0.0118 Y-0.0014 Z-0.3249
X0.0133 Y0.0004 Z-0.3229
X0.0145 Y0.0019 Z-0.3206
X0.0154 Y0.003 Z-0.3179
X0.016 Y0.0037 Z-0.315
X0.0161 Y0.004 Z-0.312
G0 Z0.6
M9
G53 Z0.
M30
%
