%
(HOLES_250_WOOD)
(971-16-P-0003_6MM_OPP1)
(T1  D=0.1554 CR=0. - ZMIN=-0.265 - FLAT END MILL)
G90 G94 G17 G91.1
G64 P0.001 Q0.001
G20
G53 G0 Z0.
(BORE1)
M9
T1 M6
S13000 M3
G4 P10.
G54
M7
G0 X-0.0132 Y-0.0101
G43 Z0.6 H1
G0 Z0.08
G1 Z0.0155 F65.
G18 G2 X0.0024 Z0. I0.0155 K0.
G1 X0.0101
G17 G3 X0.0203 Y0. I0. J0.0101
X-0.0203 Z-0.035 I-0.0203 J0. F45.
X0.0203 Z-0.07 I0.0203 J0.
X-0.0203 Z-0.105 I-0.0203 J0.
X0.0203 Z-0.14 I0.0203 J0.
X-0.0203 Z-0.175 I-0.0203 J0.
X0.0203 Z-0.21 I0.0203 J0.
X-0.0203 Z-0.245 I-0.0203 J0.
X0.0045 Y-0.0198 Z-0.265 I0.0203 J0.
X-0.0045 Y0.0198 I-0.0045 J0.0198
X0.0045 Y-0.0198 I0.0045 J-0.0198
X0.0122 Y-0.0076 I-0.0023 J0.0099 F65.
G1 X0.0104 Y-0.0001
X0.0097 Y0.0029 Z-0.2647
X0.0091 Y0.0057 Z-0.2638
X0.0085 Y0.0084 Z-0.2624
X0.008 Y0.0107 Z-0.2604
X0.0075 Y0.0125 Z-0.2581
X0.0072 Y0.0139 Z-0.2554
X0.007 Y0.0148 Z-0.2525
Y0.0151 Z-0.2495
G0 Z0.6
M9
G53 Z0.
M30
%
