%
(500 WOOD 6MM HOLE PROFILE)
(971-16-P-0003_6MM_OPP1)
(T1  D=0.2362 CR=0. - ZMIN=-0.535 - FLAT END MILL)
G90 G94 G17 G91.1
G20
G53 G0 Z0.
(BORE1 1)
M9
T1 M6
S13000 M3
G4 P10.
G54
M7
G0 X0.0478 Y-0.0236
G43 Z0.6 H1
G0 Z0.12
G1 Z0.0636 F50.
G18 G2 X0.0715 Z0.04 I0.0236 K0.
G1 X0.0833
G17 G3 X0.1069 Y0. I0. J0.0236
X-0.1069 Z0.0203 I-0.1069 J0. F15.
X0.1069 Z0.0006 I0.1069 J0.
X-0.1069 Z-0.0191 I-0.1069 J0.
X0.1069 Z-0.0387 I0.1069 J0.
X-0.1069 Z-0.0584 I-0.1069 J0.
X0.1069 Z-0.0781 I0.1069 J0.
X-0.1069 Z-0.0978 I-0.1069 J0.
X0.1069 Z-0.1175 I0.1069 J0.
X-0.1069 Z-0.1372 I-0.1069 J0.
X0.1069 Z-0.1569 I0.1069 J0.
X-0.1069 Z-0.1765 I-0.1069 J0.
X0.1069 Z-0.1962 I0.1069 J0.
X-0.1069 Z-0.2159 I-0.1069 J0.
X0.1069 Z-0.2356 I0.1069 J0.
X-0.0712 Y0.0797 Z-0.25 I-0.1069 J0.
X0.0712 Y-0.0797 I0.0712 J-0.0797
X-0.0712 Y0.0797 I-0.0712 J0.0797
X-0.0731 Y0.0464 I0.0157 J-0.0176 F50.
G1 X-0.0652 Y0.0376
X-0.0628 Y0.0348 Z-0.2497
X-0.0604 Y0.0321 Z-0.2488
X-0.0581 Y0.0296 Z-0.2474
X-0.056 Y0.0272 Z-0.2455
X-0.0541 Y0.0251 Z-0.2431
X-0.0525 Y0.0233 Z-0.2403
X-0.0512 Y0.0219 Z-0.2371
X-0.0502 Y0.0208 Z-0.2337
X-0.0497 Y0.0202 Z-0.2301
X-0.0495 Y0.0199 Z-0.2264
G0 Z0.6
(BORE1 2)
M7
G0 X0. Y0.
Z0.6
Z0.0964
G1 Z0.04 F50.
X0.0034 Y-0.0034
G3 X0.0069 Y0. I0. J0.0034
X-0.0069 Z0.0203 I-0.0069 J0. F15.
X0.0069 Z0.0006 I0.0069 J0.
X-0.0069 Z-0.0191 I-0.0069 J0.
X0.0069 Z-0.0387 I0.0069 J0.
X-0.0069 Z-0.0584 I-0.0069 J0.
X0.0069 Z-0.0781 I0.0069 J0.
X-0.0069 Z-0.0978 I-0.0069 J0.
X0.0069 Z-0.1175 I0.0069 J0.
X-0.0069 Z-0.1372 I-0.0069 J0.
X0.0069 Z-0.1569 I0.0069 J0.
X-0.0069 Z-0.1765 I-0.0069 J0.
X0.0069 Z-0.1962 I0.0069 J0.
X-0.0069 Z-0.2159 I-0.0069 J0.
X0.0069 Z-0.2356 I0.0069 J0.
X-0.0069 Z-0.2553 I-0.0069 J0.
X0.0069 Z-0.275 I0.0069 J0.
X-0.0069 Z-0.2946 I-0.0069 J0.
X0.0069 Z-0.3143 I0.0069 J0.
X-0.0069 Z-0.334 I-0.0069 J0.
X0.0069 Z-0.3537 I0.0069 J0.
X-0.0069 Z-0.3734 I-0.0069 J0.
X0.0069 Z-0.3931 I0.0069 J0.
X-0.0069 Z-0.4128 I-0.0069 J0.
X0.0069 Z-0.4324 I0.0069 J0.
X-0.0069 Z-0.4521 I-0.0069 J0.
X0.0069 Z-0.4718 I0.0069 J0.
X-0.0069 Z-0.4915 I-0.0069 J0.
X0.0069 Z-0.5112 I0.0069 J0.
X-0.0069 Z-0.5309 I-0.0069 J0.
X-0.0054 Y-0.0042 Z-0.535 I0.0069 J0.
X0.0054 Y0.0042 I0.0054 J0.0042
X-0.0054 Y-0.0042 I-0.0054 J-0.0042
X-0.0006 Y-0.0048 I0.0027 J0.0021 F50.
G1 X0. Y0.
G0 Z0.6
M9
G53 Z0.
M30
%
