%
(HOLES_060)
(T1  D=0.1554 CR=0. - ZMIN=-0.075 - FLAT END MILL)
G90 G94 G17 G91.1
G64 P0.001 Q0.001
G20
G53 G0 Z0.
(BORE1)
M9
T1 M6
S13000 M3
G4 P10.
G54
M7
G0 X-0.0132 Y-0.0101
G43 Z0.6 H1
G0 Z0.08
G1 Z0.0155 F65.
G18 G2 X0.0024 Z0. I0.0155 K0.
G1 X0.0101
G17 G3 X0.0203 Y0. I0. J0.0101
X-0.0203 Z-0.01 I-0.0203 J0.
X0.0203 Z-0.02 I0.0203 J0.
X-0.0203 Z-0.03 I-0.0203 J0.
X0.0203 Z-0.04 I0.0203 J0.
X-0.0203 Z-0.05 I-0.0203 J0.
X0.0203 Z-0.06 I0.0203 J0.
X-0.0203 Z-0.07 I-0.0203 J0.
X0. Y-0.0203 Z-0.075 I0.0203 J0.
Y0.0203 I0. J0.0203
Y-0.0203 I0. J-0.0203
X0.0101 Y-0.0101 I0. J0.0101
G1 Y-0.0024
G19 G3 Y0.0132 Z-0.0595 J0. K0.0155
G0 Z0.6
G17
M9
G53 G0 Z0.
M30
%
