%
(HOLES_030)
(971-16-P-0003_6MM_OPP1)
(T1  D=0.1554 CR=0. - ZMIN=-0.0463 - FLAT END MILL)
G90 G94 G17 G91.1
G64 P0.001 Q0.001
G20
G53 G0 Z0.
(BORE2)
M9
T1 M6
S13000 M3
G4 P10.
G54
M7
G0 X-0.0132 Y-0.0101
G43 Z0.6 H1
G0 Z0.08
G1 Z0.0155 F65.
G18 G2 X0.0024 Z0. I0.0155 K0.
G1 X0.0101
G17 G3 X0.0203 Y0. I0. J0.0101
X-0.0203 Z-0.035 I-0.0203 J0. F45.
X-0.0108 Y-0.0172 Z-0.0462 I0.0203 J0.
X0.0108 Y0.0172 I0.0108 J0.0172
X-0.0108 Y-0.0172 I-0.0108 J-0.0172
X0.0032 Y-0.014 I0.0054 J0.0086 F65.
G1 X0.0073 Y-0.0074
X0.0089 Y-0.0048 Z-0.046
X0.0105 Y-0.0024 Z-0.0451
X0.0119 Y-0.0001 Z-0.0436
X0.0132 Y0.0019 Z-0.0417
X0.0142 Y0.0035 Z-0.0393
X0.015 Y0.0047 Z-0.0367
X0.0154 Y0.0055 Z-0.0337
X0.0156 Y0.0057 Z-0.0307
G0 Z0.6
M9
G53 Z0.
M30
%
