%
(_TILTED CONE PLATE_1508)
(T1  D=0.1508 CR=0. - ZMIN=-0.28 - FLAT END MILL)
G90 G94 G17 G91.1
G64 P0.001 Q0.001
G20
G53 G0 Z0.
(.3 CIRCLUAR THROUGH HOLE 2)
M9
T1 M6
S13000 M3
G4 P10.
G54
M7
G0 X-1.7284 Y3.4961
G43 Z0.6 H1
G0 Z0.1149
G1 Z0.05 F40.
X-1.7208
G3 X-1.7162 Y3.5007 I0. J0.0046
X-1.7347 Z0.0351 I-0.0092 J0.
X-1.7162 Z0.0201 I0.0092 J0.
X-1.7347 Z0.0052 I-0.0092 J0.
X-1.7162 Z-0.0097 I0.0092 J0.
X-1.7347 Z-0.0246 I-0.0092 J0.
X-1.7162 Z-0.0396 I0.0092 J0.
X-1.7347 Z-0.0545 I-0.0092 J0.
X-1.7162 Z-0.0694 I0.0092 J0.
X-1.7347 Z-0.0843 I-0.0092 J0.
X-1.7162 Z-0.0993 I0.0092 J0.
X-1.7347 Z-0.1142 I-0.0092 J0.
X-1.7162 Z-0.1291 I0.0092 J0.
X-1.7347 Z-0.144 I-0.0092 J0.
X-1.7162 Z-0.159 I0.0092 J0.
X-1.7347 Z-0.1739 I-0.0092 J0.
X-1.7162 Z-0.1888 I0.0092 J0.
X-1.7347 Z-0.2037 I-0.0092 J0.
X-1.7162 Z-0.2187 I0.0092 J0.
X-1.7347 Z-0.2336 I-0.0092 J0.
X-1.7162 Z-0.2485 I0.0092 J0.
X-1.7347 Z-0.2634 I-0.0092 J0.
X-1.7162 Z-0.2784 I0.0092 J0.
X-1.7167 Y3.5038 Z-0.28 I-0.0092 J0.
X-1.7341 Y3.4976 I-0.0087 J-0.0031
X-1.7167 Y3.5038 I0.0087 J0.0031
X-1.7227 Y3.5066 I-0.0043 J-0.0016
G1 X-1.7297 Y3.5041
G0 Z0.4
X-1.0837 Y3.9821
Z0.1149
G1 Z0.05 F40.
X-1.0761
G3 X-1.0715 Y3.9867 I0. J0.0046
X-1.09 Z0.0351 I-0.0092 J0.
X-1.0715 Z0.0201 I0.0092 J0.
X-1.09 Z0.0052 I-0.0092 J0.
X-1.0715 Z-0.0097 I0.0092 J0.
X-1.09 Z-0.0246 I-0.0092 J0.
X-1.0715 Z-0.0396 I0.0092 J0.
X-1.09 Z-0.0545 I-0.0092 J0.
X-1.0715 Z-0.0694 I0.0092 J0.
X-1.09 Z-0.0843 I-0.0092 J0.
X-1.0715 Z-0.0993 I0.0092 J0.
X-1.09 Z-0.1142 I-0.0092 J0.
X-1.0715 Z-0.1291 I0.0092 J0.
X-1.09 Z-0.144 I-0.0092 J0.
X-1.0715 Z-0.159 I0.0092 J0.
X-1.09 Z-0.1739 I-0.0092 J0.
X-1.0715 Z-0.1888 I0.0092 J0.
X-1.09 Z-0.2037 I-0.0092 J0.
X-1.0715 Z-0.2187 I0.0092 J0.
X-1.09 Z-0.2336 I-0.0092 J0.
X-1.0715 Z-0.2485 I0.0092 J0.
X-1.09 Z-0.2634 I-0.0092 J0.
X-1.0715 Z-0.2784 I0.0092 J0.
X-1.0721 Y3.9898 Z-0.28 I-0.0092 J0.
X-1.0895 Y3.9836 I-0.0087 J-0.0031
X-1.0721 Y3.9898 I0.0087 J0.0031
X-1.078 Y3.9926 I-0.0043 J-0.0016
G1 X-1.0851 Y3.99
G0 Z0.4
X-0.5977 Y3.3374
Z0.1149
G1 Z0.05 F40.
X-0.5902
G3 X-0.5855 Y3.342 I0. J0.0046
X-0.604 Z0.0351 I-0.0092 J0.
X-0.5855 Z0.0201 I0.0092 J0.
X-0.604 Z0.0052 I-0.0092 J0.
X-0.5855 Z-0.0097 I0.0092 J0.
X-0.604 Z-0.0246 I-0.0092 J0.
X-0.5855 Z-0.0396 I0.0092 J0.
X-0.604 Z-0.0545 I-0.0092 J0.
X-0.5855 Z-0.0694 I0.0092 J0.
X-0.604 Z-0.0843 I-0.0092 J0.
X-0.5855 Z-0.0993 I0.0092 J0.
X-0.604 Z-0.1142 I-0.0092 J0.
X-0.5855 Z-0.1291 I0.0092 J0.
X-0.604 Z-0.144 I-0.0092 J0.
X-0.5855 Z-0.159 I0.0092 J0.
X-0.604 Z-0.1739 I-0.0092 J0.
X-0.5855 Z-0.1888 I0.0092 J0.
X-0.604 Z-0.2037 I-0.0092 J0.
X-0.5855 Z-0.2187 I0.0092 J0.
X-0.604 Z-0.2336 I-0.0092 J0.
X-0.5855 Z-0.2485 I0.0092 J0.
X-0.604 Z-0.2634 I-0.0092 J0.
X-0.5855 Z-0.2784 I0.0092 J0.
X-0.5861 Y3.3451 Z-0.28 I-0.0092 J0.
X-0.6035 Y3.3389 I-0.0087 J-0.0031
X-0.5861 Y3.3451 I0.0087 J0.0031
X-0.592 Y3.3479 I-0.0043 J-0.0016
G1 X-0.5991 Y3.3454
G0 Z0.4
X-1.2424 Y2.8514
Z0.1149
G1 Z0.05 F40.
X-1.2348
G3 X-1.2302 Y2.856 I0. J0.0046
X-1.2487 Z0.0351 I-0.0092 J0.
X-1.2302 Z0.0201 I0.0092 J0.
X-1.2487 Z0.0052 I-0.0092 J0.
X-1.2302 Z-0.0097 I0.0092 J0.
X-1.2487 Z-0.0246 I-0.0092 J0.
X-1.2302 Z-0.0396 I0.0092 J0.
X-1.2487 Z-0.0545 I-0.0092 J0.
X-1.2302 Z-0.0694 I0.0092 J0.
X-1.2487 Z-0.0843 I-0.0092 J0.
X-1.2302 Z-0.0993 I0.0092 J0.
X-1.2487 Z-0.1142 I-0.0092 J0.
X-1.2302 Z-0.1291 I0.0092 J0.
X-1.2487 Z-0.144 I-0.0092 J0.
X-1.2302 Z-0.159 I0.0092 J0.
X-1.2487 Z-0.1739 I-0.0092 J0.
X-1.2302 Z-0.1888 I0.0092 J0.
X-1.2487 Z-0.2037 I-0.0092 J0.
X-1.2302 Z-0.2187 I0.0092 J0.
X-1.2487 Z-0.2336 I-0.0092 J0.
X-1.2302 Z-0.2485 I0.0092 J0.
X-1.2487 Z-0.2634 I-0.0092 J0.
X-1.2302 Z-0.2784 I0.0092 J0.
X-1.2308 Y2.8592 Z-0.28 I-0.0092 J0.
X-1.2482 Y2.8529 I-0.0087 J-0.0031
X-1.2308 Y2.8592 I0.0087 J0.0031
X-1.2367 Y2.862 I-0.0043 J-0.0016
G1 X-1.2438 Y2.8594
G0 Z0.4
X1.0528 Y1.7387
Z0.13
G1 Z0.0651 F40.
G18 G2 X1.0679 Z0.05 I0.0151 K0.
G1 X1.0754
G17 G3 X1.0867 Y1.75 I0. J0.0113
X1.0415 Z0.0327 I-0.0226 J0.
X1.0867 Z0.0154 I0.0226 J0.
X1.0415 Z-0.0018 I-0.0226 J0.
X1.0867 Z-0.0191 I0.0226 J0.
X1.0415 Z-0.0364 I-0.0226 J0.
X1.0867 Z-0.0537 I0.0226 J0.
X1.0415 Z-0.071 I-0.0226 J0.
X1.0867 Z-0.0882 I0.0226 J0.
X1.0415 Z-0.1055 I-0.0226 J0.
X1.0867 Z-0.1228 I0.0226 J0.
X1.0415 Z-0.1401 I-0.0226 J0.
X1.0867 Z-0.1574 I0.0226 J0.
X1.0415 Z-0.1746 I-0.0226 J0.
X1.0867 Z-0.1919 I0.0226 J0.
X1.0415 Z-0.2092 I-0.0226 J0.
X1.0867 Z-0.2265 I0.0226 J0.
X1.0415 Z-0.2438 I-0.0226 J0.
X1.0867 Z-0.261 I0.0226 J0.
X1.0607 Y1.7723 Z-0.2705 I-0.0226 J0.
X1.0426 Y1.7432 Z-0.28 I0.0034 J-0.0223
X1.0857 Y1.7568 I0.0216 J0.0068
X1.0426 Y1.7432 I-0.0216 J-0.0068
X1.0567 Y1.7358 I0.0108 J0.0034
G1 X1.0639 Y1.7381
X1.0667 Y1.739 Z-0.2797
X1.0694 Y1.7398 Z-0.2789
X1.0719 Y1.7406 Z-0.2775
X1.0741 Y1.7413 Z-0.2756
X1.0759 Y1.7419 Z-0.2733
X1.0772 Y1.7423 Z-0.2707
X1.078 Y1.7425 Z-0.2679
X1.0783 Y1.7426 Z-0.2649
G0 Z0.4
X2.0973 Y1.9566
Z0.1149
G1 Z0.05 F40.
X2.1048
G3 X2.1094 Y1.9612 I0. J0.0046
X2.0909 Z0.0351 I-0.0092 J0.
X2.1094 Z0.0201 I0.0092 J0.
X2.0909 Z0.0052 I-0.0092 J0.
X2.1094 Z-0.0097 I0.0092 J0.
X2.0909 Z-0.0246 I-0.0092 J0.
X2.1094 Z-0.0396 I0.0092 J0.
X2.0909 Z-0.0545 I-0.0092 J0.
X2.1094 Z-0.0694 I0.0092 J0.
X2.0909 Z-0.0843 I-0.0092 J0.
X2.1094 Z-0.0993 I0.0092 J0.
X2.0909 Z-0.1142 I-0.0092 J0.
X2.1094 Z-0.1291 I0.0092 J0.
X2.0909 Z-0.144 I-0.0092 J0.
X2.1094 Z-0.159 I0.0092 J0.
X2.0909 Z-0.1739 I-0.0092 J0.
X2.1094 Z-0.1888 I0.0092 J0.
X2.0909 Z-0.2037 I-0.0092 J0.
X2.1094 Z-0.2187 I0.0092 J0.
X2.0909 Z-0.2336 I-0.0092 J0.
X2.1094 Z-0.2485 I0.0092 J0.
X2.0909 Z-0.2634 I-0.0092 J0.
X2.1094 Z-0.2784 I0.0092 J0.
X2.1089 Y1.9643 Z-0.28 I-0.0092 J0.
X2.0915 Y1.9581 I-0.0087 J-0.0031
X2.1089 Y1.9643 I0.0087 J0.0031
X2.103 Y1.9671 I-0.0043 J-0.0016
G1 X2.0959 Y1.9645
G0 Z0.4
X2.8405 Y2.2719
Z0.1149
G1 Z0.05 F40.
X2.848
G3 X2.8526 Y2.2765 I0. J0.0046
X2.8341 Z0.0351 I-0.0092 J0.
X2.8526 Z0.0201 I0.0092 J0.
X2.8341 Z0.0052 I-0.0092 J0.
X2.8526 Z-0.0097 I0.0092 J0.
X2.8341 Z-0.0246 I-0.0092 J0.
X2.8526 Z-0.0396 I0.0092 J0.
X2.8341 Z-0.0545 I-0.0092 J0.
X2.8526 Z-0.0694 I0.0092 J0.
X2.8341 Z-0.0843 I-0.0092 J0.
X2.8526 Z-0.0993 I0.0092 J0.
X2.8341 Z-0.1142 I-0.0092 J0.
X2.8526 Z-0.1291 I0.0092 J0.
X2.8341 Z-0.144 I-0.0092 J0.
X2.8526 Z-0.159 I0.0092 J0.
X2.8341 Z-0.1739 I-0.0092 J0.
X2.8526 Z-0.1888 I0.0092 J0.
X2.8341 Z-0.2037 I-0.0092 J0.
X2.8526 Z-0.2187 I0.0092 J0.
X2.8341 Z-0.2336 I-0.0092 J0.
X2.8526 Z-0.2485 I0.0092 J0.
X2.8341 Z-0.2634 I-0.0092 J0.
X2.8526 Z-0.2784 I0.0092 J0.
X2.8521 Y2.2796 Z-0.28 I-0.0092 J0.
X2.8347 Y2.2734 I-0.0087 J-0.0031
X2.8521 Y2.2796 I0.0087 J0.0031
X2.8462 Y2.2824 I-0.0043 J-0.0016
G1 X2.8391 Y2.2799
G0 Z0.4
X2.5251 Y3.0151
Z0.1149
G1 Z0.05 F40.
X2.5327
G3 X2.5373 Y3.0197 I0. J0.0046
X2.5188 Z0.0351 I-0.0092 J0.
X2.5373 Z0.0201 I0.0092 J0.
X2.5188 Z0.0052 I-0.0092 J0.
X2.5373 Z-0.0097 I0.0092 J0.
X2.5188 Z-0.0246 I-0.0092 J0.
X2.5373 Z-0.0396 I0.0092 J0.
X2.5188 Z-0.0545 I-0.0092 J0.
X2.5373 Z-0.0694 I0.0092 J0.
X2.5188 Z-0.0843 I-0.0092 J0.
X2.5373 Z-0.0993 I0.0092 J0.
X2.5188 Z-0.1142 I-0.0092 J0.
X2.5373 Z-0.1291 I0.0092 J0.
X2.5188 Z-0.144 I-0.0092 J0.
X2.5373 Z-0.159 I0.0092 J0.
X2.5188 Z-0.1739 I-0.0092 J0.
X2.5373 Z-0.1888 I0.0092 J0.
X2.5188 Z-0.2037 I-0.0092 J0.
X2.5373 Z-0.2187 I0.0092 J0.
X2.5188 Z-0.2336 I-0.0092 J0.
X2.5373 Z-0.2485 I0.0092 J0.
X2.5188 Z-0.2634 I-0.0092 J0.
X2.5373 Z-0.2784 I0.0092 J0.
X2.5367 Y3.0228 Z-0.28 I-0.0092 J0.
X2.5193 Y3.0166 I-0.0087 J-0.0031
X2.5367 Y3.0228 I0.0087 J0.0031
X2.5308 Y3.0256 I-0.0043 J-0.0016
G1 X2.5237 Y3.0231
G0 Z0.4
X1.7819 Y2.6998
Z0.1149
G1 Z0.05 F40.
X1.7895
G3 X1.7941 Y2.7044 I0. J0.0046
X1.7756 Z0.0351 I-0.0092 J0.
X1.7941 Z0.0201 I0.0092 J0.
X1.7756 Z0.0052 I-0.0092 J0.
X1.7941 Z-0.0097 I0.0092 J0.
X1.7756 Z-0.0246 I-0.0092 J0.
X1.7941 Z-0.0396 I0.0092 J0.
X1.7756 Z-0.0545 I-0.0092 J0.
X1.7941 Z-0.0694 I0.0092 J0.
X1.7756 Z-0.0843 I-0.0092 J0.
X1.7941 Z-0.0993 I0.0092 J0.
X1.7756 Z-0.1142 I-0.0092 J0.
X1.7941 Z-0.1291 I0.0092 J0.
X1.7756 Z-0.144 I-0.0092 J0.
X1.7941 Z-0.159 I0.0092 J0.
X1.7756 Z-0.1739 I-0.0092 J0.
X1.7941 Z-0.1888 I0.0092 J0.
X1.7756 Z-0.2037 I-0.0092 J0.
X1.7941 Z-0.2187 I0.0092 J0.
X1.7756 Z-0.2336 I-0.0092 J0.
X1.7941 Z-0.2485 I0.0092 J0.
X1.7756 Z-0.2634 I-0.0092 J0.
X1.7941 Z-0.2784 I0.0092 J0.
X1.7935 Y2.7075 Z-0.28 I-0.0092 J0.
X1.7761 Y2.7013 I-0.0087 J-0.0031
X1.7935 Y2.7075 I0.0087 J0.0031
X1.7876 Y2.7103 I-0.0043 J-0.0016
G1 X1.7805 Y2.7077
G0 Z0.4
X3.5528 Y1.7387
Z0.13
G1 Z0.0651 F40.
G18 G2 X3.5679 Z0.05 I0.0151 K0.
G1 X3.5754
G17 G3 X3.5867 Y1.75 I0. J0.0113
X3.5415 Z0.0327 I-0.0226 J0.
X3.5867 Z0.0154 I0.0226 J0.
X3.5415 Z-0.0018 I-0.0226 J0.
X3.5867 Z-0.0191 I0.0226 J0.
X3.5415 Z-0.0364 I-0.0226 J0.
X3.5867 Z-0.0537 I0.0226 J0.
X3.5415 Z-0.071 I-0.0226 J0.
X3.5867 Z-0.0882 I0.0226 J0.
X3.5415 Z-0.1055 I-0.0226 J0.
X3.5867 Z-0.1228 I0.0226 J0.
X3.5415 Z-0.1401 I-0.0226 J0.
X3.5867 Z-0.1574 I0.0226 J0.
X3.5415 Z-0.1746 I-0.0226 J0.
X3.5867 Z-0.1919 I0.0226 J0.
X3.5415 Z-0.2092 I-0.0226 J0.
X3.5867 Z-0.2265 I0.0226 J0.
X3.5415 Z-0.2438 I-0.0226 J0.
X3.5867 Z-0.261 I0.0226 J0.
X3.5607 Y1.7723 Z-0.2705 I-0.0226 J0.
X3.5426 Y1.7432 Z-0.28 I0.0034 J-0.0223
X3.5857 Y1.7568 I0.0216 J0.0068
X3.5426 Y1.7432 I-0.0216 J-0.0068
X3.5567 Y1.7358 I0.0108 J0.0034
G1 X3.5639 Y1.7381
X3.5667 Y1.739 Z-0.2797
X3.5694 Y1.7398 Z-0.2789
X3.5719 Y1.7406 Z-0.2775
X3.5741 Y1.7413 Z-0.2756
X3.5759 Y1.7419 Z-0.2733
X3.5772 Y1.7423 Z-0.2707
X3.578 Y1.7425 Z-0.2679
X3.5783 Y1.7426 Z-0.2649
G0 Z0.4
X4.9887 Y1.4887
Z0.13
G1 Z0.0651 F40.
G18 G2 X5.0038 Z0.05 I0.0151 K0.
G1 X5.0113
G17 G3 X5.0226 Y1.5 I0. J0.0113
X4.9774 Z0.0327 I-0.0226 J0.
X5.0226 Z0.0154 I0.0226 J0.
X4.9774 Z-0.0018 I-0.0226 J0.
X5.0226 Z-0.0191 I0.0226 J0.
X4.9774 Z-0.0364 I-0.0226 J0.
X5.0226 Z-0.0537 I0.0226 J0.
X4.9774 Z-0.071 I-0.0226 J0.
X5.0226 Z-0.0882 I0.0226 J0.
X4.9774 Z-0.1055 I-0.0226 J0.
X5.0226 Z-0.1228 I0.0226 J0.
X4.9774 Z-0.1401 I-0.0226 J0.
X5.0226 Z-0.1574 I0.0226 J0.
X4.9774 Z-0.1746 I-0.0226 J0.
X5.0226 Z-0.1919 I0.0226 J0.
X4.9774 Z-0.2092 I-0.0226 J0.
X5.0226 Z-0.2265 I0.0226 J0.
X4.9774 Z-0.2438 I-0.0226 J0.
X5.0226 Z-0.261 I0.0226 J0.
X4.9966 Y1.5223 Z-0.2705 I-0.0226 J0.
X4.9784 Y1.4932 Z-0.28 I0.0034 J-0.0223
X5.0216 Y1.5068 I0.0216 J0.0068
X4.9784 Y1.4932 I-0.0216 J-0.0068
X4.9926 Y1.4858 I0.0108 J0.0034
G1 X4.9998 Y1.4881
X5.0026 Y1.489 Z-0.2797
X5.0053 Y1.4898 Z-0.2789
X5.0078 Y1.4906 Z-0.2775
X5.01 Y1.4913 Z-0.2756
X5.0118 Y1.4919 Z-0.2733
X5.0131 Y1.4923 Z-0.2707
X5.0139 Y1.4925 Z-0.2679
X5.0142 Y1.4926 Z-0.2649
G0 Z0.4
X4.9887 Y0.4887
Z0.13
G1 Z0.0651 F40.
G18 G2 X5.0038 Z0.05 I0.0151 K0.
G1 X5.0113
G17 G3 X5.0226 Y0.5 I0. J0.0113
X4.9774 Z0.0327 I-0.0226 J0.
X5.0226 Z0.0154 I0.0226 J0.
X4.9774 Z-0.0018 I-0.0226 J0.
X5.0226 Z-0.0191 I0.0226 J0.
X4.9774 Z-0.0364 I-0.0226 J0.
X5.0226 Z-0.0537 I0.0226 J0.
X4.9774 Z-0.071 I-0.0226 J0.
X5.0226 Z-0.0882 I0.0226 J0.
X4.9774 Z-0.1055 I-0.0226 J0.
X5.0226 Z-0.1228 I0.0226 J0.
X4.9774 Z-0.1401 I-0.0226 J0.
X5.0226 Z-0.1574 I0.0226 J0.
X4.9774 Z-0.1746 I-0.0226 J0.
X5.0226 Z-0.1919 I0.0226 J0.
X4.9774 Z-0.2092 I-0.0226 J0.
X5.0226 Z-0.2265 I0.0226 J0.
X4.9774 Z-0.2438 I-0.0226 J0.
X5.0226 Z-0.261 I0.0226 J0.
X4.9966 Y0.5223 Z-0.2705 I-0.0226 J0.
X4.9784 Y0.4932 Z-0.28 I0.0034 J-0.0223
X5.0216 Y0.5068 I0.0216 J0.0068
X4.9784 Y0.4932 I-0.0216 J-0.0068
X4.9926 Y0.4858 I0.0108 J0.0034
G1 X4.9998 Y0.4881
X5.0026 Y0.489 Z-0.2797
X5.0053 Y0.4898 Z-0.2789
X5.0078 Y0.4906 Z-0.2775
X5.01 Y0.4913 Z-0.2756
X5.0118 Y0.4919 Z-0.2733
X5.0131 Y0.4923 Z-0.2707
X5.0139 Y0.4925 Z-0.2679
X5.0142 Y0.4926 Z-0.2649
G0 Z0.4
X6.4887 Y0.9887
Z0.13
G1 Z0.0651 F40.
G18 G2 X6.5038 Z0.05 I0.0151 K0.
G1 X6.5113
G17 G3 X6.5226 Y1. I0. J0.0113
X6.4774 Z0.0327 I-0.0226 J0.
X6.5226 Z0.0154 I0.0226 J0.
X6.4774 Z-0.0018 I-0.0226 J0.
X6.5226 Z-0.0191 I0.0226 J0.
X6.4774 Z-0.0364 I-0.0226 J0.
X6.5226 Z-0.0537 I0.0226 J0.
X6.4774 Z-0.071 I-0.0226 J0.
X6.5226 Z-0.0882 I0.0226 J0.
X6.4774 Z-0.1055 I-0.0226 J0.
X6.5226 Z-0.1228 I0.0226 J0.
X6.4774 Z-0.1401 I-0.0226 J0.
X6.5226 Z-0.1574 I0.0226 J0.
X6.4774 Z-0.1746 I-0.0226 J0.
X6.5226 Z-0.1919 I0.0226 J0.
X6.4774 Z-0.2092 I-0.0226 J0.
X6.5226 Z-0.2265 I0.0226 J0.
X6.4774 Z-0.2438 I-0.0226 J0.
X6.5226 Z-0.261 I0.0226 J0.
X6.4966 Y1.0223 Z-0.2705 I-0.0226 J0.
X6.4784 Y0.9932 Z-0.28 I0.0034 J-0.0223
X6.5216 Y1.0068 I0.0216 J0.0068
X6.4784 Y0.9932 I-0.0216 J-0.0068
X6.4926 Y0.9858 I0.0108 J0.0034
G1 X6.4998 Y0.9881
X6.5026 Y0.989 Z-0.2797
X6.5053 Y0.9898 Z-0.2789
X6.5078 Y0.9906 Z-0.2775
X6.51 Y0.9913 Z-0.2756
X6.5118 Y0.9919 Z-0.2733
X6.5131 Y0.9923 Z-0.2707
X6.5139 Y0.9925 Z-0.2679
X6.5142 Y0.9926 Z-0.2649
G0 Z0.4
X7.9887 Y0.4887
Z0.13
G1 Z0.0651 F40.
G18 G2 X8.0038 Z0.05 I0.0151 K0.
G1 X8.0113
G17 G3 X8.0226 Y0.5 I0. J0.0113
X7.9774 Z0.0327 I-0.0226 J0.
X8.0226 Z0.0154 I0.0226 J0.
X7.9774 Z-0.0018 I-0.0226 J0.
X8.0226 Z-0.0191 I0.0226 J0.
X7.9774 Z-0.0364 I-0.0226 J0.
X8.0226 Z-0.0537 I0.0226 J0.
X7.9774 Z-0.071 I-0.0226 J0.
X8.0226 Z-0.0882 I0.0226 J0.
X7.9774 Z-0.1055 I-0.0226 J0.
X8.0226 Z-0.1228 I0.0226 J0.
X7.9774 Z-0.1401 I-0.0226 J0.
X8.0226 Z-0.1574 I0.0226 J0.
X7.9774 Z-0.1746 I-0.0226 J0.
X8.0226 Z-0.1919 I0.0226 J0.
X7.9774 Z-0.2092 I-0.0226 J0.
X8.0226 Z-0.2265 I0.0226 J0.
X7.9774 Z-0.2438 I-0.0226 J0.
X8.0226 Z-0.261 I0.0226 J0.
X7.9966 Y0.5223 Z-0.2705 I-0.0226 J0.
X7.9784 Y0.4932 Z-0.28 I0.0034 J-0.0223
X8.0216 Y0.5068 I0.0216 J0.0068
X7.9784 Y0.4932 I-0.0216 J-0.0068
X7.9926 Y0.4858 I0.0108 J0.0034
G1 X7.9998 Y0.4881
X8.0026 Y0.489 Z-0.2797
X8.0053 Y0.4898 Z-0.2789
X8.0078 Y0.4906 Z-0.2775
X8.01 Y0.4913 Z-0.2756
X8.0118 Y0.4919 Z-0.2733
X8.0131 Y0.4923 Z-0.2707
X8.0139 Y0.4925 Z-0.2679
X8.0142 Y0.4926 Z-0.2649
G0 Z0.4
X7.9887 Y1.4887
Z0.13
G1 Z0.0651 F40.
G18 G2 X8.0038 Z0.05 I0.0151 K0.
G1 X8.0113
G17 G3 X8.0226 Y1.5 I0. J0.0113
X7.9774 Z0.0327 I-0.0226 J0.
X8.0226 Z0.0154 I0.0226 J0.
X7.9774 Z-0.0018 I-0.0226 J0.
X8.0226 Z-0.0191 I0.0226 J0.
X7.9774 Z-0.0364 I-0.0226 J0.
X8.0226 Z-0.0537 I0.0226 J0.
X7.9774 Z-0.071 I-0.0226 J0.
X8.0226 Z-0.0882 I0.0226 J0.
X7.9774 Z-0.1055 I-0.0226 J0.
X8.0226 Z-0.1228 I0.0226 J0.
X7.9774 Z-0.1401 I-0.0226 J0.
X8.0226 Z-0.1574 I0.0226 J0.
X7.9774 Z-0.1746 I-0.0226 J0.
X8.0226 Z-0.1919 I0.0226 J0.
X7.9774 Z-0.2092 I-0.0226 J0.
X8.0226 Z-0.2265 I0.0226 J0.
X7.9774 Z-0.2438 I-0.0226 J0.
X8.0226 Z-0.261 I0.0226 J0.
X7.9966 Y1.5223 Z-0.2705 I-0.0226 J0.
X7.9784 Y1.4932 Z-0.28 I0.0034 J-0.0223
X8.0216 Y1.5068 I0.0216 J0.0068
X7.9784 Y1.4932 I-0.0216 J-0.0068
X7.9926 Y1.4858 I0.0108 J0.0034
G1 X7.9998 Y1.4881
X8.0026 Y1.489 Z-0.2797
X8.0053 Y1.4898 Z-0.2789
X8.0078 Y1.4906 Z-0.2775
X8.01 Y1.4913 Z-0.2756
X8.0118 Y1.4919 Z-0.2733
X8.0131 Y1.4923 Z-0.2707
X8.0139 Y1.4925 Z-0.2679
X8.0142 Y1.4926 Z-0.2649
G0 Z0.4
X9.4887 Y0.9887
Z0.13
G1 Z0.0651 F40.
G18 G2 X9.5038 Z0.05 I0.0151 K0.
G1 X9.5113
G17 G3 X9.5226 Y1. I0. J0.0113
X9.4774 Z0.0327 I-0.0226 J0.
X9.5226 Z0.0154 I0.0226 J0.
X9.4774 Z-0.0018 I-0.0226 J0.
X9.5226 Z-0.0191 I0.0226 J0.
X9.4774 Z-0.0364 I-0.0226 J0.
X9.5226 Z-0.0537 I0.0226 J0.
X9.4774 Z-0.071 I-0.0226 J0.
X9.5226 Z-0.0882 I0.0226 J0.
X9.4774 Z-0.1055 I-0.0226 J0.
X9.5226 Z-0.1228 I0.0226 J0.
X9.4774 Z-0.1401 I-0.0226 J0.
X9.5226 Z-0.1574 I0.0226 J0.
X9.4774 Z-0.1746 I-0.0226 J0.
X9.5226 Z-0.1919 I0.0226 J0.
X9.4774 Z-0.2092 I-0.0226 J0.
X9.5226 Z-0.2265 I0.0226 J0.
X9.4774 Z-0.2438 I-0.0226 J0.
X9.5226 Z-0.261 I0.0226 J0.
X9.4966 Y1.0223 Z-0.2705 I-0.0226 J0.
X9.4784 Y0.9932 Z-0.28 I0.0034 J-0.0223
X9.5216 Y1.0068 I0.0216 J0.0068
X9.4784 Y0.9932 I-0.0216 J-0.0068
X9.4926 Y0.9858 I0.0108 J0.0034
G1 X9.4998 Y0.9881
X9.5026 Y0.989 Z-0.2797
X9.5053 Y0.9898 Z-0.2789
X9.5078 Y0.9906 Z-0.2775
X9.51 Y0.9913 Z-0.2756
X9.5118 Y0.9919 Z-0.2733
X9.5131 Y0.9923 Z-0.2707
X9.5139 Y0.9925 Z-0.2679
X9.5142 Y0.9926 Z-0.2649
G0 Z0.4
X10.9887 Y1.4887
Z0.13
G1 Z0.0651 F40.
G18 G2 X11.0038 Z0.05 I0.0151 K0.
G1 X11.0113
G17 G3 X11.0226 Y1.5 I0. J0.0113
X10.9774 Z0.0327 I-0.0226 J0.
X11.0226 Z0.0154 I0.0226 J0.
X10.9774 Z-0.0018 I-0.0226 J0.
X11.0226 Z-0.0191 I0.0226 J0.
X10.9774 Z-0.0364 I-0.0226 J0.
X11.0226 Z-0.0537 I0.0226 J0.
X10.9774 Z-0.071 I-0.0226 J0.
X11.0226 Z-0.0882 I0.0226 J0.
X10.9774 Z-0.1055 I-0.0226 J0.
X11.0226 Z-0.1228 I0.0226 J0.
X10.9774 Z-0.1401 I-0.0226 J0.
X11.0226 Z-0.1574 I0.0226 J0.
X10.9774 Z-0.1746 I-0.0226 J0.
X11.0226 Z-0.1919 I0.0226 J0.
X10.9774 Z-0.2092 I-0.0226 J0.
X11.0226 Z-0.2265 I0.0226 J0.
X10.9774 Z-0.2438 I-0.0226 J0.
X11.0226 Z-0.261 I0.0226 J0.
X10.9966 Y1.5223 Z-0.2705 I-0.0226 J0.
X10.9784 Y1.4932 Z-0.28 I0.0034 J-0.0223
X11.0216 Y1.5068 I0.0216 J0.0068
X10.9784 Y1.4932 I-0.0216 J-0.0068
X10.9926 Y1.4858 I0.0108 J0.0034
G1 X10.9998 Y1.4881
X11.0026 Y1.489 Z-0.2797
X11.0053 Y1.4898 Z-0.2789
X11.0078 Y1.4906 Z-0.2775
X11.01 Y1.4913 Z-0.2756
X11.0118 Y1.4919 Z-0.2733
X11.0131 Y1.4923 Z-0.2707
X11.0139 Y1.4925 Z-0.2679
X11.0142 Y1.4926 Z-0.2649
G0 Z0.4
X10.9887 Y0.4887
Z0.13
G1 Z0.0651 F40.
G18 G2 X11.0038 Z0.05 I0.0151 K0.
G1 X11.0113
G17 G3 X11.0226 Y0.5 I0. J0.0113
X10.9774 Z0.0327 I-0.0226 J0.
X11.0226 Z0.0154 I0.0226 J0.
X10.9774 Z-0.0018 I-0.0226 J0.
X11.0226 Z-0.0191 I0.0226 J0.
X10.9774 Z-0.0364 I-0.0226 J0.
X11.0226 Z-0.0537 I0.0226 J0.
X10.9774 Z-0.071 I-0.0226 J0.
X11.0226 Z-0.0882 I0.0226 J0.
X10.9774 Z-0.1055 I-0.0226 J0.
X11.0226 Z-0.1228 I0.0226 J0.
X10.9774 Z-0.1401 I-0.0226 J0.
X11.0226 Z-0.1574 I0.0226 J0.
X10.9774 Z-0.1746 I-0.0226 J0.
X11.0226 Z-0.1919 I0.0226 J0.
X10.9774 Z-0.2092 I-0.0226 J0.
X11.0226 Z-0.2265 I0.0226 J0.
X10.9774 Z-0.2438 I-0.0226 J0.
X11.0226 Z-0.261 I0.0226 J0.
X10.9966 Y0.5223 Z-0.2705 I-0.0226 J0.
X10.9784 Y0.4932 Z-0.28 I0.0034 J-0.0223
X11.0216 Y0.5068 I0.0216 J0.0068
X10.9784 Y0.4932 I-0.0216 J-0.0068
X10.9926 Y0.4858 I0.0108 J0.0034
G1 X10.9998 Y0.4881
X11.0026 Y0.489 Z-0.2797
X11.0053 Y0.4898 Z-0.2789
X11.0078 Y0.4906 Z-0.2775
X11.01 Y0.4913 Z-0.2756
X11.0118 Y0.4919 Z-0.2733
X11.0131 Y0.4923 Z-0.2707
X11.0139 Y0.4925 Z-0.2679
X11.0142 Y0.4926 Z-0.2649
G0 Z0.6
(.3 CIRCULAR THROUGH HOLE)
M7
G0 X1.4538 Y0.2669
Z0.6
Z0.2
G1 Z0.1146 F13.333
G3 X1.4524 Y0.2665 Z0.1082 I0.0119 J-0.0434 F55.
X1.4487 Y0.2652 Z0.103 I0.0133 J-0.043
X1.4435 Y0.2627 Z0.1 I0.017 J-0.0417
X1.4879 Y0.1844 Z0.0621 I0.0222 J-0.0391
X1.4435 Y0.2627 Z0.0242 I-0.0222 J0.0391
X1.4879 Y0.1844 Z-0.0136 I0.0222 J-0.0391
X1.4435 Y0.2627 Z-0.0515 I-0.0222 J0.0391
X1.4879 Y0.1844 Z-0.0894 I0.0222 J-0.0391
X1.4435 Y0.2627 Z-0.1273 I-0.0222 J0.0391
X1.4207 Y0.2235 Z-0.14 I0.0222 J-0.0391
X1.4749 I0.0271 J0. F60.
X1.3207 I-0.0771 J0.
X1.5749 I0.1271 J0.
X1.2207 I-0.1771 J0.
X1.6749 I0.2271 J0.
X1.1207 I-0.2771 J0.
X1.7749 I0.3271 J0.
X1.0207 I-0.3771 J0.
X1.8749 I0.4271 J0.
X0.9207 I-0.4771 J0.
X1.8749 I0.4771 J0.
X1.866 Y0.231 I-0.0075 J0.
G1 X1.8109 Y0.2211
X1.4523 Y0.1939
X1.4407 Y0.1916
G3 X1.4397 Y0.1868 I0.0005 J-0.0026
X1.4916 Y0.2603 Z-0.1779 I0.026 J0.0367 F55.
X1.4397 Y0.1868 Z-0.2158 I-0.026 J-0.0367
X1.4916 Y0.2603 Z-0.2536 I0.026 J0.0367
X1.4207 Y0.2235 Z-0.28 I-0.026 J-0.0367
X1.4749 I0.0271 J0. F60.
X1.3207 I-0.0771 J0.
X1.5749 I0.1271 J0.
X1.2207 I-0.1771 J0.
X1.6749 I0.2271 J0.
X1.1207 I-0.2771 J0.
X1.7749 I0.3271 J0.
X1.0207 I-0.3771 J0.
X1.8749 I0.4271 J0.
X0.9207 I-0.4771 J0.
X1.8849 I0.4821 J0.
X0.9107 I-0.4871 J0.
X1.8849 I0.4871 J0.
X1.8838 Y0.2292 Z-0.2789 I-0.0151 J0.
X1.8813 Y0.2333 Z-0.2756 I-0.014 J-0.0056
X1.8789 Y0.2356 Z-0.2707 I-0.0115 J-0.0098
X1.8779 Y0.2362 Z-0.2649 I-0.0091 J-0.012
G0 Z0.4
X2.3881 Y2.5338
Z0.2
G1 Z0.1146 F13.333
G3 X2.3868 Y2.5334 Z0.1082 I0.0119 J-0.0434 F55.
X2.383 Y2.5321 Z0.103 I0.0133 J-0.043
X2.3778 Y2.5296 Z0.1 I0.017 J-0.0417
X2.4222 Y2.4513 Z0.0621 I0.0222 J-0.0391
X2.3778 Y2.5296 Z0.0242 I-0.0222 J0.0391
X2.4222 Y2.4513 Z-0.0136 I0.0222 J-0.0391
X2.3778 Y2.5296 Z-0.0515 I-0.0222 J0.0391
X2.4222 Y2.4513 Z-0.0894 I0.0222 J-0.0391
X2.3778 Y2.5296 Z-0.1273 I-0.0222 J0.0391
X2.355 Y2.4904 Z-0.14 I0.0222 J-0.0391
X2.3732 I0.0091 J0. F60.
X2.255 I-0.0591 J0.
X2.4732 I0.1091 J0.
X2.155 I-0.1591 J0.
X2.5732 I0.2091 J0.
X2.055 I-0.2591 J0.
X2.5732 I0.2591 J0.
X2.5654 Y2.498 I-0.0075 J0.
G1 X2.4618 Y2.4948
G3 X2.4589 Y2.4945 I-0.0006 J-0.0075
G1 X2.376 Y2.467
G3 X2.374 Y2.4537 I0.0024 J-0.0072
X2.426 Y2.5272 Z-0.1779 I0.026 J0.0367 F55.
X2.374 Y2.4537 Z-0.2158 I-0.026 J-0.0367
X2.426 Y2.5272 Z-0.2536 I0.026 J0.0367
X2.355 Y2.4904 Z-0.28 I-0.026 J-0.0367
X2.3732 I0.0091 J0. F60.
X2.255 I-0.0591 J0.
X2.4732 I0.1091 J0.
X2.155 I-0.1591 J0.
X2.5732 I0.2091 J0.
X2.055 I-0.2591 J0.
X2.5832 I0.2641 J0.
X2.045 I-0.2691 J0.
X2.5832 I0.2691 J0.
X2.5821 Y2.4961 Z-0.2789 I-0.0151 J0.
X2.5796 Y2.5002 Z-0.2756 I-0.014 J-0.0056
X2.5772 Y2.5025 Z-0.2707 I-0.0115 J-0.0098
X2.5763 Y2.5031 Z-0.2649 I-0.0091 J-0.012
G0 Z0.4
X-1.0861 Y3.4648
Z0.2
G1 Z0.1146 F13.333
G3 X-1.0875 Y3.4644 Z0.1082 I0.0119 J-0.0434 F55.
X-1.0912 Y3.463 Z0.103 I0.0133 J-0.043
X-1.0964 Y3.4605 Z0.1 I0.017 J-0.0417
X-1.052 Y3.3822 Z0.0621 I0.0222 J-0.0391
X-1.0964 Y3.4605 Z0.0242 I-0.0222 J0.0391
X-1.052 Y3.3822 Z-0.0136 I0.0222 J-0.0391
X-1.0964 Y3.4605 Z-0.0515 I-0.0222 J0.0391
X-1.052 Y3.3822 Z-0.0894 I0.0222 J-0.0391
X-1.0964 Y3.4605 Z-0.1273 I-0.0222 J0.0391
X-1.1192 Y3.4214 Z-0.14 I0.0222 J-0.0391
X-1.101 I0.0091 J0. F60.
X-1.2192 I-0.0591 J0.
X-1.001 I0.1091 J0.
X-1.3192 I-0.1591 J0.
X-0.901 I0.2091 J0.
X-1.4192 I-0.2591 J0.
X-0.901 I0.2591 J0.
X-0.9088 Y3.4289 I-0.0075 J0.
G1 X-1.0124 Y3.4258
G3 X-1.0154 Y3.4254 I-0.0006 J-0.0075
G1 X-1.0982 Y3.3979
G3 X-1.1002 Y3.3846 I0.0024 J-0.0072
X-1.0482 Y3.4581 Z-0.1779 I0.026 J0.0367 F55.
X-1.1002 Y3.3846 Z-0.2158 I-0.026 J-0.0367
X-1.0482 Y3.4581 Z-0.2536 I0.026 J0.0367
X-1.1192 Y3.4214 Z-0.28 I-0.026 J-0.0367
X-1.101 I0.0091 J0. F60.
X-1.2192 I-0.0591 J0.
X-1.001 I0.1091 J0.
X-1.3192 I-0.1591 J0.
X-0.901 I0.2091 J0.
X-1.4192 I-0.2591 J0.
X-0.891 I0.2641 J0.
X-1.4292 I-0.2691 J0.
X-0.891 I0.2691 J0.
X-0.8921 Y3.427 Z-0.2789 I-0.0151 J0.
X-0.8946 Y3.4312 Z-0.2756 I-0.014 J-0.0056
X-0.897 Y3.4334 Z-0.2707 I-0.0115 J-0.0098
X-0.898 Y3.4341 Z-0.2649 I-0.0091 J-0.012
G0 Z0.4
X-1.444 Y1.0434
Z0.2
G1 Z0.1146 F13.333
G3 X-1.4454 Y1.043 Z0.1082 I0.0119 J-0.0434 F55.
X-1.4491 Y1.0417 Z0.103 I0.0133 J-0.043
X-1.4543 Y1.0391 Z0.1 I0.017 J-0.0417
X-1.4099 Y0.9609 Z0.0621 I0.0222 J-0.0391
X-1.4543 Y1.0391 Z0.0242 I-0.0222 J0.0391
X-1.4099 Y0.9609 Z-0.0136 I0.0222 J-0.0391
X-1.4543 Y1.0391 Z-0.0515 I-0.0222 J0.0391
X-1.4099 Y0.9609 Z-0.0894 I0.0222 J-0.0391
X-1.4543 Y1.0391 Z-0.1273 I-0.0222 J0.0391
X-1.4771 Y1. Z-0.14 I0.0222 J-0.0391
X-1.4229 I0.0271 J0. F60.
X-1.5771 I-0.0771 J0.
X-1.3229 I0.1271 J0.
X-1.6771 I-0.1771 J0.
X-1.2229 I0.2271 J0.
X-1.7771 I-0.2771 J0.
X-1.1229 I0.3271 J0.
X-1.8771 I-0.3771 J0.
X-1.0229 I0.4271 J0.
X-1.9771 I-0.4771 J0.
X-1.0229 I0.4771 J0.
X-1.0318 Y1.0074 I-0.0075 J0.
G1 X-1.0869 Y0.9976
X-1.4455 Y0.9704
X-1.4571 Y0.968
G3 X-1.4581 Y0.9633 I0.0005 J-0.0026
X-1.4061 Y1.0367 Z-0.1779 I0.026 J0.0367 F55.
X-1.4581 Y0.9633 Z-0.2158 I-0.026 J-0.0367
X-1.4061 Y1.0367 Z-0.2536 I0.026 J0.0367
X-1.4771 Y1. Z-0.28 I-0.026 J-0.0367
X-1.4229 I0.0271 J0. F60.
X-1.5771 I-0.0771 J0.
X-1.3229 I0.1271 J0.
X-1.6771 I-0.1771 J0.
X-1.2229 I0.2271 J0.
X-1.7771 I-0.2771 J0.
X-1.1229 I0.3271 J0.
X-1.8771 I-0.3771 J0.
X-1.0229 I0.4271 J0.
X-1.9771 I-0.4771 J0.
X-1.0129 I0.4821 J0.
X-1.9871 I-0.4871 J0.
X-1.0129 I0.4871 J0.
X-1.014 Y1.0056 Z-0.2789 I-0.0151 J0.
X-1.0165 Y1.0098 Z-0.2756 I-0.014 J-0.0056
X-1.0189 Y1.012 Z-0.2707 I-0.0115 J-0.0098
X-1.0198 Y1.0127 Z-0.2649 I-0.0091 J-0.012
G0 Z0.6
(2D SLOT CUT)
M7
G0 X2.8775 Y-1.239
Z0.6
Z0.2
G1 Z0.1 F13.333
X1.6049 Y-1.4012 Z-0.1262 F40.
G2 X1.5271 Y-1.4092 Z-0.14 I-0.2071 J1.6248
X0.9739 Y-1.3585 I-0.1293 J1.6328 F55.
G1 X-1.9239 Y-0.5821
G2 X-3.0431 Y1.5492 I0.4239 J1.5821
G1 X-2.24 Y3.8057
G2 X-0.8634 Y4.5286 I1.0799 J-0.3843
G1 X2.4615 Y3.6377
G3 X2.6507 Y3.597 I0.4981 J1.859
G1 X11.8022 Y2.1086
G2 X12.0754 Y1.7874 I-0.0522 J-0.3212
G1 Y0.2202
G2 X11.7911 Y-0.1026 I-0.3254 J0.
G1 X1.6049 Y-1.4012
G2 X1.5271 Y-1.4092 I-0.2071 J1.6248
X0.9739 Y-1.3585 Z-0.1864 I-0.1293 J1.6328 F40.
G1 X-0.1149 Y-1.0668 Z-0.28
X-0.1858 Y-1.0478 F55.
Z-0.2
X-0.911 Y-0.8535
Z-0.28 F13.333
X-1.9239 Y-0.5821 F55.
G2 X-3.0431 Y1.5492 I0.4239 J1.5821
G1 X-2.74 Y2.4008
Z-0.2
X-2.4883 Y3.1081
Z-0.28 F13.333
X-2.24 Y3.8057 F55.
G2 X-0.8634 Y4.5286 I1.0799 J-0.3843
G1 X1.0641 Y4.0121
Z-0.2
X1.7894 Y3.8178
Z-0.28 F13.333
X2.4615 Y3.6377 F55.
G3 X2.6507 Y3.597 I0.4981 J1.859
G1 X8.8397 Y2.5904
Z-0.2
X9.5808 Y2.4699
Z-0.28 F13.333
X11.8022 Y2.1086 F55.
G2 X12.0754 Y1.7874 I-0.0522 J-0.3212
G1 Y0.2202
G2 X11.7911 Y-0.1026 I-0.3254 J0.
G1 X7.223 Y-0.685
Z-0.2
X6.4783 Y-0.7799
Z-0.28 F13.333
X1.6049 Y-1.4012 F55.
G2 X0.9739 Y-1.3585 I-0.2071 J1.6248
G1 X-0.1149 Y-1.0668
G0 Z0.6
M9
G53 Z0.
M30
%
