%
(971-23-P-0113_LAPTOP PLATE_1875)
(T1  D=0.1875 CR=0. - ZMIN=-0.53 - FLAT END MILL)
G90 G94 G17 G91.1
G64 P0.001 Q0.001
G20
G53 G0 Z0.
(.3 CIRCLUAR THROUGH HOLE 2)
M9
T1 M6
S13000 M3
G4 P10.
G54
M7
G0 X4.4471 Y6.905
G43 Z0.6 H1
G0 Z0.1113
G1 Z0.05 F60.
X4.4505 Y6.9016
G3 X4.4539 Y6.905 I0. J0.0034
X4.4404 Z0.0323 I-0.0067 J0. F80.
X4.4539 Z0.0146 I0.0068 J0.
X4.4404 Y6.9055 Z-0.0027 I-0.0068 J0.
X4.4539 Y6.9045 Z-0.0204 I0.0067 J-0.0005
X4.4479 Y6.9117 Z-0.0291 I-0.0067 J0.0005
X4.4463 Y6.8983 Z-0.0468 I-0.0008 J-0.0067
X4.4479 Y6.9117 Z-0.0645 I0.0008 J0.0067
X4.4463 Y6.8983 Z-0.0823 I-0.0008 J-0.0067
X4.4479 Y6.9117 Z-0.1 I0.0008 J0.0067
X4.4406 Y6.9065 Z-0.1082 I-0.0008 J-0.0067
X4.4537 Y6.9035 Z-0.1259 I0.0066 J-0.0015
X4.4406 Y6.9065 Z-0.1436 I-0.0066 J0.0015
X4.4536 Y6.9029 Z-0.1609 I0.0066 J-0.0015
X4.4407 Y6.9071 Z-0.1786 I-0.0064 J0.0021
X4.4536 Y6.9029 Z-0.1964 I0.0064 J-0.0021
X4.4409 Y6.9075 Z-0.2136 I-0.0064 J0.0021
X4.4534 Y6.9025 Z-0.2314 I0.0063 J-0.0025
X4.4409 Y6.9075 Z-0.2491 I-0.0063 J0.0025
X4.4532 Y6.902 Z-0.2664 I0.0063 J-0.0025
X4.4411 Y6.908 Z-0.2841 I-0.006 J0.003
X4.4439 Y6.8991 Z-0.2927 I0.006 J-0.003
X4.4504 Y6.9109 Z-0.3104 I0.0032 J0.0059
X4.4439 Y6.8991 Z-0.3282 I-0.0032 J-0.0059
X4.4504 Y6.9109 Z-0.3459 I0.0032 J0.0059
X4.4439 Y6.8991 Z-0.3636 I-0.0032 J-0.0059
X4.4526 Y6.9011 Z-0.3718 I0.0032 J0.0059
X4.4416 Y6.9089 Z-0.3895 I-0.0055 J0.0039
X4.443 Y6.8997 Z-0.3982 I0.0055 J-0.0039
X4.4512 Y6.9103 Z-0.4159 I0.0041 J0.0053
X4.443 Y6.8997 Z-0.4336 I-0.0041 J-0.0053
X4.4512 Y6.9103 Z-0.4513 I0.0041 J0.0053
X4.443 Y6.8997 Z-0.4691 I-0.0041 J-0.0053
X4.452 Y6.9003 Z-0.4773 I0.0041 J0.0053
X4.4423 Y6.9097 Z-0.495 I-0.0048 J0.0047
X4.4422 Y6.9003 Z-0.5036 I0.0048 J-0.0047
X4.452 Y6.9097 Z-0.5214 I0.0049 J0.0047
X4.4427 Y6.9101 Z-0.53 I-0.0049 J-0.0047
X4.4516 Y6.8999 I0.0045 J-0.0051
X4.4427 Y6.9101 I-0.0045 J0.0051
X4.4424 Y6.9053 I0.0022 J-0.0025 F60.
G1 X4.4471 Y6.905
G0 Z0.4
Y6.155
Z0.1113
G1 Z0.05 F60.
X4.4505 Y6.1516
G3 X4.4539 Y6.155 I0. J0.0034
X4.4404 Z0.0323 I-0.0067 J0. F80.
X4.4539 Z0.0146 I0.0067 J0.
X4.4404 Z-0.0032 I-0.0067 J0.
X4.4539 Z-0.0209 I0.0067 J0.
X4.4479 Y6.1617 Z-0.0291 I-0.0068 J0.
X4.4463 Y6.1483 Z-0.0468 I-0.0008 J-0.0067
X4.4538 Y6.154 Z-0.0555 I0.0008 J0.0067
X4.4405 Y6.156 Z-0.0732 I-0.0067 J0.001
X4.4538 Y6.154 Z-0.0909 I0.0067 J-0.001
X4.4405 Y6.156 Z-0.1086 I-0.0067 J0.001
X4.4538 Y6.154 Z-0.1263 I0.0067 J-0.001
X4.4405 Y6.156 Z-0.1441 I-0.0067 J0.001
X4.4538 Y6.154 Z-0.1618 I0.0067 J-0.001
X4.4405 Y6.156 Z-0.1795 I-0.0067 J0.001
X4.4538 Y6.154 Z-0.1972 I0.0067 J-0.001
X4.4409 Y6.1575 Z-0.2136 I-0.0067 J0.001
X4.4534 Y6.1525 Z-0.2314 I0.0063 J-0.0025
X4.4409 Y6.1575 Z-0.2491 I-0.0063 J0.0025
X4.4534 Y6.1525 Z-0.2668 I0.0063 J-0.0025
X4.4409 Y6.1575 Z-0.2845 I-0.0063 J0.0025
X4.4534 Y6.1525 Z-0.3022 I0.0063 J-0.0025
X4.4409 Y6.1575 Z-0.32 I-0.0063 J0.0025
X4.4534 Y6.1525 Z-0.3377 I0.0063 J-0.0025
X4.4409 Y6.1575 Z-0.3554 I-0.0063 J0.0025
X4.4534 Y6.1525 Z-0.3731 I0.0063 J-0.0025
X4.4409 Y6.1575 Z-0.3908 I-0.0063 J0.0025
X4.4534 Y6.1525 Z-0.4086 I0.0063 J-0.0025
X4.4409 Y6.1575 Z-0.4263 I-0.0063 J0.0025
X4.4534 Y6.1525 Z-0.444 I0.0063 J-0.0025
X4.4409 Y6.1575 Z-0.4617 I-0.0063 J0.0025
X4.4534 Y6.1525 Z-0.4794 I0.0063 J-0.0025
X4.4409 Y6.1575 Z-0.4972 I-0.0063 J0.0025
X4.4534 Y6.1525 Z-0.5149 I0.0063 J-0.0025
X4.4427 Y6.1601 Z-0.53 I-0.0063 J0.0025
X4.4516 Y6.1499 I0.0045 J-0.0051
X4.4427 Y6.1601 I-0.0045 J0.0051
X4.4424 Y6.1553 I0.0022 J-0.0025 F60.
G1 X4.4471 Y6.155
G0 Z0.4
Y5.405
Z0.1113
G1 Z0.05 F60.
X4.4505 Y5.4016
G3 X4.4539 Y5.405 I0. J0.0034
X4.4404 Z0.0323 I-0.0067 J0. F80.
X4.4539 Z0.0146 I0.0067 J0.
X4.4404 Z-0.0032 I-0.0067 J0.
X4.4539 Z-0.0209 I0.0067 J0.
X4.4479 Y5.4117 Z-0.0291 I-0.0068 J0.
X4.4463 Y5.3983 Z-0.0468 I-0.0008 J-0.0067
X4.4538 Y5.404 Z-0.0555 I0.0008 J0.0067
X4.4405 Y5.406 Z-0.0732 I-0.0067 J0.001
X4.4538 Y5.404 Z-0.0909 I0.0067 J-0.001
X4.4405 Y5.406 Z-0.1086 I-0.0067 J0.001
X4.4538 Y5.404 Z-0.1263 I0.0067 J-0.001
X4.4489 Y5.4115 Z-0.1345 I-0.0067 J0.001
X4.4453 Y5.3985 Z-0.1523 I-0.0018 J-0.0065
X4.4536 Y5.4029 Z-0.1609 I0.0018 J0.0065
X4.4407 Y5.4071 Z-0.1786 I-0.0064 J0.0021
X4.4448 Y5.3987 Z-0.1873 I0.0064 J-0.0021
X4.4494 Y5.4113 Z-0.205 I0.0023 J0.0063
X4.4448 Y5.3987 Z-0.2227 I-0.0023 J-0.0063
X4.4494 Y5.4113 Z-0.2404 I0.0023 J0.0063
X4.4448 Y5.3987 Z-0.2582 I-0.0023 J-0.0063
X4.4494 Y5.4113 Z-0.2759 I0.0023 J0.0063
X4.4448 Y5.3987 Z-0.2936 I-0.0023 J-0.0063
X4.4494 Y5.4113 Z-0.3113 I0.0023 J0.0063
X4.4448 Y5.3987 Z-0.329 I-0.0023 J-0.0063
X4.4494 Y5.4113 Z-0.3468 I0.0023 J0.0063
X4.4448 Y5.3987 Z-0.3645 I-0.0023 J-0.0063
X4.4494 Y5.4113 Z-0.3822 I0.0023 J0.0063
X4.443 Y5.3997 Z-0.3982 I-0.0023 J-0.0063
X4.4512 Y5.4103 Z-0.4159 I0.0041 J0.0053
X4.4419 Y5.4093 Z-0.4245 I-0.0041 J-0.0053
X4.4523 Y5.4007 Z-0.4423 I0.0052 J-0.0043
X4.4419 Y5.4093 Z-0.46 I-0.0052 J0.0043
X4.4523 Y5.4007 Z-0.4777 I0.0052 J-0.0043
X4.4419 Y5.4093 Z-0.4954 I-0.0052 J0.0043
X4.4523 Y5.4007 Z-0.5131 I0.0052 J-0.0043
X4.4427 Y5.4101 Z-0.53 I-0.0052 J0.0043
X4.4516 Y5.3999 I0.0045 J-0.0051
X4.4427 Y5.4101 I-0.0045 J0.0051
X4.4424 Y5.4053 I0.0022 J-0.0025 F60.
G1 X4.4471 Y5.405
G0 Z0.4
Y4.655
Z0.1113
G1 Z0.05 F60.
X4.4505 Y4.6516
G3 X4.4539 Y4.655 I0. J0.0034
X4.4404 Z0.0323 I-0.0067 J0. F80.
X4.4539 Z0.0146 I0.0067 J0.
X4.4404 Z-0.0032 I-0.0067 J0.
X4.4539 Z-0.0209 I0.0067 J0.
X4.4404 Z-0.0386 I-0.0067 J0.
X4.4539 Z-0.0563 I0.0067 J0.
X4.4404 Z-0.074 I-0.0067 J0.
X4.4539 Z-0.0918 I0.0067 J0.
X4.4404 Z-0.1095 I-0.0067 J0.
X4.4539 Z-0.1272 I0.0067 J0.
X4.4404 Z-0.1449 I-0.0067 J0.
X4.4539 Z-0.1627 I0.0067 J0.
X4.4404 Z-0.1804 I-0.0067 J0.
X4.4539 Z-0.1981 I0.0067 J0.
X4.4404 Z-0.2158 I-0.0067 J0.
X4.4539 Z-0.2335 I0.0067 J0.
X4.4404 Z-0.2513 I-0.0068 J0.
X4.4539 Z-0.269 I0.0068 J0.
X4.4404 Z-0.2867 I-0.0068 J0.
X4.4539 Z-0.3044 I0.0068 J0.
X4.4404 Z-0.3221 I-0.0068 J0.
X4.4539 Z-0.3399 I0.0068 J0.
X4.4404 Z-0.3576 I-0.0068 J0.
X4.4539 Z-0.3753 I0.0068 J0.
X4.4404 Z-0.393 I-0.0068 J0.
X4.4539 Z-0.4107 I0.0068 J0.
X4.4404 Z-0.4285 I-0.0068 J0.
X4.4539 Z-0.4462 I0.0068 J0.
X4.4404 Z-0.4639 I-0.0068 J0.
X4.4539 Z-0.4816 I0.0068 J0.
X4.4404 Z-0.4993 I-0.0068 J0.
X4.4539 Z-0.5171 I0.0068 J0.
X4.4427 Y4.6601 Z-0.53 I-0.0068 J0.
X4.4516 Y4.6499 I0.0045 J-0.0051
X4.4427 Y4.6601 I-0.0045 J0.0051
X4.4424 Y4.6553 I0.0022 J-0.0025 F60.
G1 X4.4471 Y4.655
G0 Z0.4
X4.2346 Y3.5144
Z-0.0888
G1 Z-0.15 F60.
G18 G2 X4.2534 Z-0.1688 I0.0187 K0.
G1 X4.2627
G17 G3 X4.2784 Y3.53 I0. J0.0156
X4.2159 Z-0.1908 I-0.0312 J0. F80.
X4.2784 Z-0.2128 I0.0312 J0.
X4.2159 Z-0.2349 I-0.0312 J0.
X4.2784 Z-0.2569 I0.0312 J0.
X4.2159 Z-0.279 I-0.0312 J0.
X4.2784 Z-0.301 I0.0312 J0.
X4.2159 Z-0.323 I-0.0312 J0.
X4.2784 Z-0.3451 I0.0312 J0.
X4.2159 Z-0.3671 I-0.0312 J0.
X4.2784 Z-0.3892 I0.0312 J0.
X4.2159 Z-0.4112 I-0.0312 J0.
X4.2784 Z-0.4332 I0.0312 J0.
X4.2159 Z-0.4553 I-0.0312 J0.
X4.2784 Z-0.4773 I0.0312 J0.
X4.2159 Z-0.4994 I-0.0312 J0.
X4.2784 Z-0.5214 I0.0312 J0.
X4.2577 Y3.5594 Z-0.53 I-0.0312 J0.
X4.2365 Y3.5006 I-0.0106 J-0.0294
X4.2577 Y3.5594 I0.0106 J0.0294
X4.2377 Y3.55 I-0.0053 J-0.0147 F60.
G1 X4.2345 Y3.5412
X4.2334 Y3.5381 Z-0.5297
X4.2324 Y3.5351 Z-0.5289
X4.2314 Y3.5324 Z-0.5275
X4.2305 Y3.5298 Z-0.5256
X4.2297 Y3.5277 Z-0.5233
X4.229 Y3.5259 Z-0.5206
X4.2286 Y3.5246 Z-0.5177
X4.2283 Y3.5238 Z-0.5145
X4.2282 Y3.5235 Z-0.5113
G0 Z0.4
X1.1971 Y4.655
Z0.1113
G1 Z0.05 F60.
X1.2005 Y4.6516
G3 X1.2039 Y4.655 I0. J0.0034
X1.1904 Z0.0323 I-0.0067 J0. F80.
X1.2039 Z0.0146 I0.0067 J0.
X1.1904 Z-0.0032 I-0.0067 J0.
X1.2039 Z-0.0209 I0.0067 J0.
X1.1904 Z-0.0386 I-0.0067 J0.
X1.2039 Z-0.0563 I0.0068 J0.
X1.1904 Z-0.074 I-0.0068 J0.
X1.2039 Z-0.0918 I0.0068 J0.
X1.1904 Z-0.1095 I-0.0068 J0.
X1.2039 Z-0.1272 I0.0068 J0.
X1.1904 Z-0.1449 I-0.0068 J0.
X1.2039 Z-0.1627 I0.0068 J0.
X1.1904 Z-0.1804 I-0.0068 J0.
X1.2039 Z-0.1981 I0.0068 J0.
X1.1904 Z-0.2158 I-0.0068 J0.
X1.2039 Z-0.2335 I0.0068 J0.
X1.1904 Z-0.2513 I-0.0068 J0.
X1.2039 Z-0.269 I0.0068 J0.
X1.1904 Z-0.2867 I-0.0068 J0.
X1.2039 Z-0.3044 I0.0068 J0.
X1.1904 Z-0.3221 I-0.0068 J0.
X1.2039 Z-0.3399 I0.0068 J0.
X1.1904 Z-0.3576 I-0.0068 J0.
X1.2039 Z-0.3753 I0.0068 J0.
X1.1904 Z-0.393 I-0.0068 J0.
X1.2039 Z-0.4107 I0.0068 J0.
X1.1904 Z-0.4285 I-0.0068 J0.
X1.2039 Z-0.4462 I0.0068 J0.
X1.1904 Z-0.4639 I-0.0068 J0.
X1.2039 Z-0.4816 I0.0068 J0.
X1.1904 Z-0.4993 I-0.0068 J0.
X1.2039 Z-0.5171 I0.0068 J0.
X1.1927 Y4.6601 Z-0.53 I-0.0068 J0.
X1.2016 Y4.6499 I0.0045 J-0.0051
X1.1927 Y4.6601 I-0.0045 J0.0051
X1.1924 Y4.6553 I0.0022 J-0.0025 F60.
G1 X1.1971 Y4.655
G0 Z0.4
Y5.405
Z0.1113
G1 Z0.05 F60.
X1.2005 Y5.4016
G3 X1.2039 Y5.405 I0. J0.0034
X1.1904 Z0.0323 I-0.0067 J0. F80.
X1.2039 Z0.0146 I0.0067 J0.
X1.1904 Z-0.0032 I-0.0067 J0.
X1.2039 Z-0.0209 I0.0067 J0.
X1.1904 Z-0.0386 I-0.0067 J0.
X1.2039 Z-0.0563 I0.0067 J0.
X1.1904 Z-0.074 I-0.0067 J0.
X1.2039 Z-0.0918 I0.0067 J0.
X1.1904 Z-0.1095 I-0.0067 J0.
X1.2039 Z-0.1272 I0.0067 J0.
X1.1904 Z-0.1449 I-0.0067 J0.
X1.2039 Z-0.1627 I0.0067 J0.
X1.1904 Z-0.1804 I-0.0067 J0.
X1.2039 Z-0.1981 I0.0067 J0.
X1.1904 Z-0.2158 I-0.0067 J0.
X1.2039 Z-0.2335 I0.0067 J0.
X1.1904 Z-0.2513 I-0.0067 J0.
X1.2039 Z-0.269 I0.0067 J0.
X1.1904 Z-0.2867 I-0.0067 J0.
X1.2039 Z-0.3044 I0.0067 J0.
X1.1904 Z-0.3221 I-0.0067 J0.
X1.2039 Z-0.3399 I0.0067 J0.
X1.1904 Z-0.3576 I-0.0067 J0.
X1.2039 Z-0.3753 I0.0067 J0.
X1.1904 Z-0.393 I-0.0067 J0.
X1.2039 Z-0.4107 I0.0067 J0.
X1.1904 Z-0.4285 I-0.0067 J0.
X1.2039 Z-0.4462 I0.0067 J0.
X1.1904 Z-0.4639 I-0.0067 J0.
X1.2039 Z-0.4816 I0.0067 J0.
X1.1904 Z-0.4993 I-0.0067 J0.
X1.2039 Z-0.5171 I0.0067 J0.
X1.1927 Y5.4101 Z-0.53 I-0.0067 J0.
X1.2016 Y5.3999 I0.0045 J-0.0051
X1.1927 Y5.4101 I-0.0045 J0.0051
X1.1924 Y5.4053 I0.0022 J-0.0025 F60.
G1 X1.1971 Y5.405
G0 Z0.4
Y6.155
Z0.1113
G1 Z0.05 F60.
X1.2005 Y6.1516
G3 X1.2039 Y6.155 I0. J0.0034
X1.1904 Z0.0323 I-0.0067 J0. F80.
X1.2039 Z0.0146 I0.0067 J0.
X1.1904 Z-0.0032 I-0.0067 J0.
X1.2039 Z-0.0209 I0.0067 J0.
X1.1904 Z-0.0386 I-0.0067 J0.
X1.2039 Z-0.0563 I0.0067 J0.
X1.1904 Z-0.074 I-0.0067 J0.
X1.2039 Z-0.0918 I0.0067 J0.
X1.1904 Z-0.1095 I-0.0067 J0.
X1.2039 Z-0.1272 I0.0067 J0.
X1.1904 Z-0.1449 I-0.0067 J0.
X1.2039 Z-0.1627 I0.0067 J0.
X1.1904 Z-0.1804 I-0.0067 J0.
X1.2039 Z-0.1981 I0.0067 J0.
X1.1909 Y6.1575 Z-0.2136 I-0.0067 J0.
X1.2034 Y6.1525 Z-0.2314 I0.0063 J-0.0025
X1.1909 Y6.1575 Z-0.2491 I-0.0063 J0.0025
X1.2034 Y6.1525 Z-0.2668 I0.0063 J-0.0025
X1.1909 Y6.1575 Z-0.2845 I-0.0063 J0.0025
X1.2034 Y6.1525 Z-0.3022 I0.0063 J-0.0025
X1.1909 Y6.1575 Z-0.32 I-0.0063 J0.0025
X1.2034 Y6.1525 Z-0.3377 I0.0063 J-0.0025
X1.1909 Y6.1575 Z-0.3554 I-0.0063 J0.0025
X1.2026 Y6.1511 Z-0.3718 I0.0063 J-0.0025
X1.1916 Y6.1589 Z-0.3895 I-0.0055 J0.0039
X1.2026 Y6.1511 Z-0.4073 I0.0055 J-0.0039
X1.1919 Y6.1593 Z-0.4245 I-0.0055 J0.0039
X1.2023 Y6.1507 Z-0.4423 I0.0052 J-0.0043
X1.1919 Y6.1593 Z-0.46 I-0.0052 J0.0043
X1.2023 Y6.1507 Z-0.4777 I0.0052 J-0.0043
X1.1919 Y6.1593 Z-0.4954 I-0.0052 J0.0043
X1.2023 Y6.1507 Z-0.5131 I0.0052 J-0.0043
X1.1927 Y6.1601 Z-0.53 I-0.0052 J0.0043
X1.2016 Y6.1499 I0.0045 J-0.0051
X1.1927 Y6.1601 I-0.0045 J0.0051
X1.1924 Y6.1553 I0.0022 J-0.0025 F60.
G1 X1.1971 Y6.155
G0 Z0.4
Y6.905
Z0.1113
G1 Z0.05 F60.
X1.2005 Y6.9016
G3 X1.2039 Y6.905 I0. J0.0034
X1.1904 Z0.0323 I-0.0067 J0. F80.
X1.2039 Z0.0146 I0.0068 J0.
X1.1904 Y6.9055 Z-0.0027 I-0.0068 J0.
X1.2039 Y6.9045 Z-0.0204 I0.0067 J-0.0005
X1.1904 Y6.9055 Z-0.0382 I-0.0067 J0.0005
X1.2038 Y6.904 Z-0.0555 I0.0067 J-0.0005
X1.1905 Y6.906 Z-0.0732 I-0.0067 J0.001
X1.2038 Y6.904 Z-0.0909 I0.0067 J-0.001
X1.1906 Y6.9065 Z-0.1082 I-0.0067 J0.001
X1.2037 Y6.9035 Z-0.1259 I0.0066 J-0.0015
X1.1906 Y6.9065 Z-0.1436 I-0.0066 J0.0015
X1.2036 Y6.9029 Z-0.1609 I0.0066 J-0.0015
X1.1907 Y6.9071 Z-0.1786 I-0.0064 J0.0021
X1.2036 Y6.9029 Z-0.1964 I0.0064 J-0.0021
X1.1909 Y6.9075 Z-0.2136 I-0.0064 J0.0021
X1.2034 Y6.9025 Z-0.2314 I0.0063 J-0.0025
X1.1909 Y6.9075 Z-0.2491 I-0.0063 J0.0025
X1.2032 Y6.902 Z-0.2664 I0.0063 J-0.0025
X1.1911 Y6.908 Z-0.2841 I-0.006 J0.003
X1.1939 Y6.8991 Z-0.2927 I0.006 J-0.003
X1.2004 Y6.9109 Z-0.3104 I0.0032 J0.0059
X1.1939 Y6.8991 Z-0.3282 I-0.0032 J-0.0059
X1.2004 Y6.9109 Z-0.3459 I0.0032 J0.0059
X1.1939 Y6.8991 Z-0.3636 I-0.0032 J-0.0059
X1.2026 Y6.9011 Z-0.3718 I0.0032 J0.0059
X1.1916 Y6.9089 Z-0.3895 I-0.0055 J0.0039
X1.2026 Y6.9011 Z-0.4073 I0.0055 J-0.0039
X1.1919 Y6.9093 Z-0.4245 I-0.0055 J0.0039
X1.2023 Y6.9007 Z-0.4423 I0.0052 J-0.0043
X1.1919 Y6.9093 Z-0.46 I-0.0052 J0.0043
X1.202 Y6.9003 Z-0.4773 I0.0052 J-0.0043
X1.1923 Y6.9097 Z-0.495 I-0.0048 J0.0047
X1.1922 Y6.9003 Z-0.5036 I0.0048 J-0.0047
X1.202 Y6.9097 Z-0.5214 I0.0049 J0.0047
X1.1927 Y6.9101 Z-0.53 I-0.0049 J-0.0047
X1.2016 Y6.8999 I0.0045 J-0.0051
X1.1927 Y6.9101 I-0.0045 J0.0051
X1.1924 Y6.9053 I0.0022 J-0.0025 F60.
G1 X1.1971 Y6.905
G0 Z0.4
X-1.5529
Z0.1113
G1 Z0.05 F60.
X-1.5495 Y6.9016
G3 X-1.5461 Y6.905 I0. J0.0034
X-1.5596 Z0.0323 I-0.0067 J0. F80.
X-1.5461 Z0.0146 I0.0067 J0.
X-1.5596 Y6.9055 Z-0.0027 I-0.0068 J0.
X-1.5461 Y6.9045 Z-0.0204 I0.0067 J-0.0005
X-1.5596 Y6.9055 Z-0.0382 I-0.0067 J0.0005
X-1.5462 Y6.904 Z-0.0555 I0.0067 J-0.0005
X-1.5595 Y6.906 Z-0.0732 I-0.0067 J0.001
X-1.5462 Y6.904 Z-0.0909 I0.0067 J-0.001
X-1.5594 Y6.9065 Z-0.1082 I-0.0067 J0.001
X-1.5463 Y6.9035 Z-0.1259 I0.0066 J-0.0015
X-1.5594 Y6.9065 Z-0.1436 I-0.0066 J0.0015
X-1.5464 Y6.9029 Z-0.1609 I0.0066 J-0.0015
X-1.5593 Y6.9071 Z-0.1786 I-0.0064 J0.0021
X-1.5552 Y6.8987 Z-0.1873 I0.0064 J-0.0021
X-1.5506 Y6.9113 Z-0.205 I0.0023 J0.0063
X-1.5552 Y6.8987 Z-0.2227 I-0.0023 J-0.0063
X-1.5506 Y6.9113 Z-0.2404 I0.0023 J0.0063
X-1.5552 Y6.8987 Z-0.2582 I-0.0023 J-0.0063
X-1.5468 Y6.902 Z-0.2664 I0.0023 J0.0063
X-1.5589 Y6.908 Z-0.2841 I-0.006 J0.003
X-1.5561 Y6.8991 Z-0.2927 I0.006 J-0.003
X-1.5496 Y6.9109 Z-0.3104 I0.0032 J0.0059
X-1.5561 Y6.8991 Z-0.3282 I-0.0032 J-0.0059
X-1.5496 Y6.9109 Z-0.3459 I0.0032 J0.0059
X-1.5561 Y6.8991 Z-0.3636 I-0.0032 J-0.0059
X-1.5474 Y6.9011 Z-0.3718 I0.0032 J0.0059
X-1.5584 Y6.9089 Z-0.3895 I-0.0055 J0.0039
X-1.5474 Y6.9011 Z-0.4073 I0.0055 J-0.0039
X-1.5581 Y6.9093 Z-0.4245 I-0.0055 J0.0039
X-1.5477 Y6.9007 Z-0.4423 I0.0052 J-0.0043
X-1.5581 Y6.9093 Z-0.46 I-0.0052 J0.0043
X-1.548 Y6.9003 Z-0.4773 I0.0052 J-0.0043
X-1.5577 Y6.9097 Z-0.495 I-0.0048 J0.0047
X-1.5578 Y6.9003 Z-0.5036 I0.0048 J-0.0047
X-1.548 Y6.9097 Z-0.5214 I0.0049 J0.0047
X-1.5573 Y6.9101 Z-0.53 I-0.0049 J-0.0047
X-1.5484 Y6.8999 I0.0045 J-0.0051
X-1.5573 Y6.9101 I-0.0045 J0.0051
X-1.5576 Y6.9053 I0.0022 J-0.0025 F60.
G1 X-1.5529 Y6.905
G0 Z0.4
Y6.155
Z0.1113
G1 Z0.05 F60.
X-1.5495 Y6.1516
G3 X-1.5461 Y6.155 I0. J0.0034
X-1.5596 Z0.0323 I-0.0067 J0. F80.
X-1.5461 Z0.0146 I0.0067 J0.
X-1.5596 Z-0.0032 I-0.0067 J0.
X-1.5461 Z-0.0209 I0.0067 J0.
X-1.5596 Z-0.0386 I-0.0067 J0.
X-1.5461 Z-0.0563 I0.0067 J0.
X-1.5596 Z-0.074 I-0.0067 J0.
X-1.5461 Z-0.0918 I0.0067 J0.
X-1.5596 Z-0.1095 I-0.0067 J0.
X-1.5461 Z-0.1272 I0.0067 J0.
X-1.5596 Z-0.1449 I-0.0067 J0.
X-1.5461 Z-0.1627 I0.0067 J0.
X-1.5596 Z-0.1804 I-0.0067 J0.
X-1.5461 Z-0.1981 I0.0067 J0.
X-1.5591 Y6.1575 Z-0.2136 I-0.0067 J0.
X-1.5466 Y6.1525 Z-0.2314 I0.0063 J-0.0025
X-1.5591 Y6.1575 Z-0.2491 I-0.0063 J0.0025
X-1.5466 Y6.1525 Z-0.2668 I0.0063 J-0.0025
X-1.5591 Y6.1575 Z-0.2845 I-0.0063 J0.0025
X-1.5466 Y6.1525 Z-0.3022 I0.0063 J-0.0025
X-1.5591 Y6.1575 Z-0.32 I-0.0063 J0.0025
X-1.5466 Y6.1525 Z-0.3377 I0.0063 J-0.0025
X-1.5591 Y6.1575 Z-0.3554 I-0.0063 J0.0025
X-1.5474 Y6.1511 Z-0.3718 I0.0063 J-0.0025
X-1.5584 Y6.1589 Z-0.3895 I-0.0055 J0.0039
X-1.5474 Y6.1511 Z-0.4073 I0.0055 J-0.0039
X-1.5581 Y6.1593 Z-0.4245 I-0.0055 J0.0039
X-1.5477 Y6.1507 Z-0.4423 I0.0052 J-0.0043
X-1.5581 Y6.1593 Z-0.46 I-0.0052 J0.0043
X-1.5477 Y6.1507 Z-0.4777 I0.0052 J-0.0043
X-1.5581 Y6.1593 Z-0.4954 I-0.0052 J0.0043
X-1.5477 Y6.1507 Z-0.5131 I0.0052 J-0.0043
X-1.5573 Y6.1601 Z-0.53 I-0.0052 J0.0043
X-1.5484 Y6.1499 I0.0045 J-0.0051
X-1.5573 Y6.1601 I-0.0045 J0.0051
X-1.5576 Y6.1553 I0.0022 J-0.0025 F60.
G1 X-1.5529 Y6.155
G0 Z0.4
Y5.405
Z0.1113
G1 Z0.05 F60.
X-1.5495 Y5.4016
G3 X-1.5461 Y5.405 I0. J0.0034
X-1.5596 Z0.0323 I-0.0067 J0. F80.
X-1.5461 Z0.0146 I0.0067 J0.
X-1.5596 Z-0.0032 I-0.0067 J0.
X-1.5461 Z-0.0209 I0.0067 J0.
X-1.5596 Z-0.0386 I-0.0067 J0.
X-1.5461 Z-0.0563 I0.0067 J0.
X-1.5596 Z-0.074 I-0.0067 J0.
X-1.5461 Z-0.0918 I0.0067 J0.
X-1.5596 Z-0.1095 I-0.0067 J0.
X-1.5461 Z-0.1272 I0.0067 J0.
X-1.5596 Z-0.1449 I-0.0067 J0.
X-1.5461 Z-0.1627 I0.0067 J0.
X-1.5596 Z-0.1804 I-0.0067 J0.
X-1.5461 Z-0.1981 I0.0067 J0.
X-1.5596 Z-0.2158 I-0.0067 J0.
X-1.5461 Z-0.2335 I0.0067 J0.
X-1.5596 Z-0.2513 I-0.0067 J0.
X-1.5461 Z-0.269 I0.0067 J0.
X-1.5596 Z-0.2867 I-0.0067 J0.
X-1.5461 Z-0.3044 I0.0067 J0.
X-1.5596 Z-0.3221 I-0.0067 J0.
X-1.5461 Z-0.3399 I0.0067 J0.
X-1.5596 Z-0.3576 I-0.0067 J0.
X-1.5461 Z-0.3753 I0.0067 J0.
X-1.5596 Z-0.393 I-0.0067 J0.
X-1.5461 Z-0.4107 I0.0067 J0.
X-1.5596 Z-0.4285 I-0.0067 J0.
X-1.5461 Z-0.4462 I0.0067 J0.
X-1.5596 Z-0.4639 I-0.0067 J0.
X-1.5461 Z-0.4816 I0.0067 J0.
X-1.5596 Z-0.4993 I-0.0067 J0.
X-1.5461 Z-0.5171 I0.0067 J0.
X-1.5573 Y5.4101 Z-0.53 I-0.0067 J0.
X-1.5484 Y5.3999 I0.0045 J-0.0051
X-1.5573 Y5.4101 I-0.0045 J0.0051
X-1.5576 Y5.4053 I0.0022 J-0.0025 F60.
G1 X-1.5529 Y5.405
G0 Z0.4
Y4.655
Z0.1113
G1 Z0.05 F60.
X-1.5495 Y4.6516
G3 X-1.5461 Y4.655 I0. J0.0034
X-1.5596 Z0.0323 I-0.0067 J0. F80.
X-1.5461 Z0.0146 I0.0067 J0.
X-1.5596 Z-0.0032 I-0.0067 J0.
X-1.5461 Z-0.0209 I0.0067 J0.
X-1.5596 Z-0.0386 I-0.0067 J0.
X-1.5461 Z-0.0563 I0.0067 J0.
X-1.5596 Z-0.074 I-0.0067 J0.
X-1.5461 Z-0.0918 I0.0067 J0.
X-1.5596 Z-0.1095 I-0.0067 J0.
X-1.5461 Z-0.1272 I0.0067 J0.
X-1.5596 Z-0.1449 I-0.0067 J0.
X-1.5461 Z-0.1627 I0.0067 J0.
X-1.5596 Z-0.1804 I-0.0067 J0.
X-1.5461 Z-0.1981 I0.0067 J0.
X-1.5596 Z-0.2158 I-0.0067 J0.
X-1.5461 Z-0.2335 I0.0067 J0.
X-1.5596 Z-0.2513 I-0.0068 J0.
X-1.5461 Z-0.269 I0.0068 J0.
X-1.5596 Z-0.2867 I-0.0068 J0.
X-1.5461 Z-0.3044 I0.0068 J0.
X-1.5596 Z-0.3221 I-0.0068 J0.
X-1.5461 Z-0.3399 I0.0068 J0.
X-1.5596 Z-0.3576 I-0.0068 J0.
X-1.5461 Z-0.3753 I0.0068 J0.
X-1.5596 Z-0.393 I-0.0068 J0.
X-1.5461 Z-0.4107 I0.0068 J0.
X-1.5596 Z-0.4285 I-0.0068 J0.
X-1.5461 Z-0.4462 I0.0068 J0.
X-1.5596 Z-0.4639 I-0.0068 J0.
X-1.5461 Z-0.4816 I0.0068 J0.
X-1.5596 Z-0.4993 I-0.0068 J0.
X-1.5461 Z-0.5171 I0.0068 J0.
X-1.5573 Y4.6601 Z-0.53 I-0.0068 J0.
X-1.5484 Y4.6499 I0.0045 J-0.0051
X-1.5573 Y4.6601 I-0.0045 J0.0051
X-1.5576 Y4.6553 I0.0022 J-0.0025 F60.
G1 X-1.5529 Y4.655
G0 Z0.4
X-4.8029 Y6.905
Z0.1113
G1 Z0.05 F60.
X-4.7995 Y6.9016
G3 X-4.7961 Y6.905 I0. J0.0034
X-4.8096 Z0.0323 I-0.0068 J0. F80.
X-4.7961 Z0.0146 I0.0068 J0.
X-4.8096 Y6.9055 Z-0.0027 I-0.0068 J0.
X-4.7962 Y6.9045 Z-0.0204 I0.0067 J-0.0005
X-4.8096 Y6.9055 Z-0.0382 I-0.0067 J0.0005
X-4.7962 Y6.9045 Z-0.0559 I0.0067 J-0.0005
X-4.8096 Y6.9055 Z-0.0736 I-0.0067 J0.0005
X-4.8042 Y6.8984 Z-0.0818 I0.0067 J-0.0005
X-4.8016 Y6.9116 Z-0.0995 I0.0013 J0.0066
X-4.8094 Y6.9065 Z-0.1082 I-0.0013 J-0.0066
X-4.7963 Y6.9035 Z-0.1259 I0.0066 J-0.0015
X-4.8094 Y6.9065 Z-0.1436 I-0.0066 J0.0015
X-4.7964 Y6.9029 Z-0.1609 I0.0066 J-0.0015
X-4.8093 Y6.9071 Z-0.1786 I-0.0064 J0.0021
X-4.7964 Y6.9029 Z-0.1964 I0.0064 J-0.0021
X-4.8093 Y6.9071 Z-0.2141 I-0.0064 J0.0021
X-4.7964 Y6.9029 Z-0.2318 I0.0064 J-0.0021
X-4.8093 Y6.9071 Z-0.2495 I-0.0064 J0.0021
X-4.7968 Y6.902 Z-0.2664 I0.0064 J-0.0021
X-4.8089 Y6.908 Z-0.2841 I-0.006 J0.003
X-4.7968 Y6.902 Z-0.3018 I0.006 J-0.003
X-4.8089 Y6.908 Z-0.3195 I-0.006 J0.003
X-4.7968 Y6.902 Z-0.3372 I0.006 J-0.003
X-4.7992 Y6.9107 Z-0.3455 I-0.006 J0.003
X-4.8066 Y6.8993 Z-0.3632 I-0.0037 J-0.0057
X-4.7974 Y6.9011 Z-0.3718 I0.0037 J0.0057
X-4.8084 Y6.9089 Z-0.3895 I-0.0055 J0.0039
X-4.7974 Y6.9011 Z-0.4073 I0.0055 J-0.0039
X-4.8081 Y6.9093 Z-0.4245 I-0.0055 J0.0039
X-4.7977 Y6.9007 Z-0.4423 I0.0052 J-0.0043
X-4.8081 Y6.9093 Z-0.46 I-0.0052 J0.0043
X-4.798 Y6.9003 Z-0.4773 I0.0052 J-0.0043
X-4.8077 Y6.9097 Z-0.495 I-0.0048 J0.0047
X-4.798 Y6.9003 Z-0.5127 I0.0048 J-0.0047
X-4.8073 Y6.9101 Z-0.53 I-0.0048 J0.0047
X-4.7984 Y6.8999 I0.0045 J-0.0051
X-4.8073 Y6.9101 I-0.0045 J0.0051
X-4.8076 Y6.9053 I0.0022 J-0.0025 F60.
G1 X-4.8029 Y6.905
G0 Z0.4
Y6.155
Z0.1113
G1 Z0.05 F60.
X-4.7995 Y6.1516
G3 X-4.7961 Y6.155 I0. J0.0034
X-4.8096 Z0.0323 I-0.0068 J0. F80.
X-4.7961 Z0.0146 I0.0068 J0.
X-4.8096 Z-0.0032 I-0.0068 J0.
X-4.7961 Z-0.0209 I0.0068 J0.
X-4.8096 Z-0.0386 I-0.0068 J0.
X-4.7962 Y6.154 Z-0.0555 I0.0068 J0.
X-4.8095 Y6.156 Z-0.0732 I-0.0067 J0.001
X-4.8042 Y6.1484 Z-0.0818 I0.0067 J-0.001
X-4.8016 Y6.1616 Z-0.0995 I0.0013 J0.0066
X-4.8042 Y6.1484 Z-0.1173 I-0.0013 J-0.0066
X-4.8016 Y6.1616 Z-0.135 I0.0013 J0.0066
X-4.8042 Y6.1484 Z-0.1527 I-0.0013 J-0.0066
X-4.7964 Y6.1529 Z-0.1609 I0.0013 J0.0066
X-4.8093 Y6.1571 Z-0.1786 I-0.0064 J0.0021
X-4.7964 Y6.1529 Z-0.1964 I0.0064 J-0.0021
X-4.8091 Y6.1575 Z-0.2136 I-0.0064 J0.0021
X-4.7966 Y6.1525 Z-0.2314 I0.0063 J-0.0025
X-4.8001 Y6.1612 Z-0.24 I-0.0063 J0.0025
X-4.8057 Y6.1488 Z-0.2577 I-0.0028 J-0.0062
X-4.8001 Y6.1612 Z-0.2754 I0.0028 J0.0062
X-4.8061 Y6.1491 Z-0.2927 I-0.0028 J-0.0062
X-4.7996 Y6.1609 Z-0.3104 I0.0032 J0.0059
X-4.8061 Y6.1491 Z-0.3282 I-0.0032 J-0.0059
X-4.7996 Y6.1609 Z-0.3459 I0.0032 J0.0059
X-4.8061 Y6.1491 Z-0.3636 I-0.0032 J-0.0059
X-4.7974 Y6.1511 Z-0.3718 I0.0032 J0.0059
X-4.8084 Y6.1589 Z-0.3895 I-0.0055 J0.0039
X-4.807 Y6.1497 Z-0.3982 I0.0055 J-0.0039
X-4.7988 Y6.1603 Z-0.4159 I0.0041 J0.0053
X-4.807 Y6.1497 Z-0.4336 I-0.0041 J-0.0053
X-4.7988 Y6.1603 Z-0.4513 I0.0041 J0.0053
X-4.807 Y6.1497 Z-0.4691 I-0.0041 J-0.0053
X-4.7988 Y6.1603 Z-0.4868 I0.0041 J0.0053
X-4.807 Y6.1497 Z-0.5045 I-0.0041 J-0.0053
X-4.7988 Y6.1603 Z-0.5222 I0.0041 J0.0053
X-4.8073 Y6.1601 Z-0.53 I-0.0041 J-0.0053
X-4.7984 Y6.1499 I0.0045 J-0.0051
X-4.8073 Y6.1601 I-0.0045 J0.0051
X-4.8076 Y6.1553 I0.0022 J-0.0025 F60.
G1 X-4.8029 Y6.155
G0 Z0.4
Y5.405
Z0.1113
G1 Z0.05 F60.
X-4.7995 Y5.4016
G3 X-4.7961 Y5.405 I0. J0.0034
X-4.8096 Z0.0323 I-0.0068 J0. F80.
X-4.7961 Z0.0146 I0.0068 J0.
X-4.8096 Z-0.0032 I-0.0068 J0.
X-4.7961 Z-0.0209 I0.0068 J0.
X-4.8096 Z-0.0386 I-0.0068 J0.
X-4.7962 Y5.404 Z-0.0555 I0.0068 J0.
X-4.8095 Y5.406 Z-0.0732 I-0.0067 J0.001
X-4.8042 Y5.3984 Z-0.0818 I0.0067 J-0.001
X-4.8016 Y5.4116 Z-0.0995 I0.0013 J0.0066
X-4.8042 Y5.3984 Z-0.1173 I-0.0013 J-0.0066
X-4.8016 Y5.4116 Z-0.135 I0.0013 J0.0066
X-4.8042 Y5.3984 Z-0.1527 I-0.0013 J-0.0066
X-4.7964 Y5.4029 Z-0.1609 I0.0013 J0.0066
X-4.8093 Y5.4071 Z-0.1786 I-0.0064 J0.0021
X-4.8052 Y5.3987 Z-0.1873 I0.0064 J-0.0021
X-4.8006 Y5.4113 Z-0.205 I0.0023 J0.0063
X-4.8052 Y5.3987 Z-0.2227 I-0.0023 J-0.0063
X-4.8006 Y5.4113 Z-0.2404 I0.0023 J0.0063
X-4.8052 Y5.3987 Z-0.2582 I-0.0023 J-0.0063
X-4.8006 Y5.4113 Z-0.2759 I0.0023 J0.0063
X-4.8052 Y5.3987 Z-0.2936 I-0.0023 J-0.0063
X-4.8006 Y5.4113 Z-0.3113 I0.0023 J0.0063
X-4.8052 Y5.3987 Z-0.329 I-0.0023 J-0.0063
X-4.8006 Y5.4113 Z-0.3468 I0.0023 J0.0063
X-4.8052 Y5.3987 Z-0.3645 I-0.0023 J-0.0063
X-4.8006 Y5.4113 Z-0.3822 I0.0023 J0.0063
X-4.8052 Y5.3987 Z-0.3999 I-0.0023 J-0.0063
X-4.8006 Y5.4113 Z-0.4176 I0.0023 J0.0063
X-4.8052 Y5.3987 Z-0.4354 I-0.0023 J-0.0063
X-4.8006 Y5.4113 Z-0.4531 I0.0023 J0.0063
X-4.8052 Y5.3987 Z-0.4708 I-0.0023 J-0.0063
X-4.8006 Y5.4113 Z-0.4885 I0.0023 J0.0063
X-4.8052 Y5.3987 Z-0.5062 I-0.0023 J-0.0063
X-4.8006 Y5.4113 Z-0.524 I0.0023 J0.0063
X-4.8073 Y5.4101 Z-0.53 I-0.0023 J-0.0063
X-4.7984 Y5.3999 I0.0045 J-0.0051
X-4.8073 Y5.4101 I-0.0045 J0.0051
X-4.8076 Y5.4053 I0.0022 J-0.0025 F60.
G1 X-4.8029 Y5.405
G0 Z0.4
Y4.655
Z0.1113
G1 Z0.05 F60.
X-4.7995 Y4.6516
G3 X-4.7961 Y4.655 I0. J0.0034
X-4.8096 Z0.0323 I-0.0068 J0. F80.
X-4.7961 Z0.0146 I0.0068 J0.
X-4.8096 Z-0.0032 I-0.0068 J0.
X-4.7961 Z-0.0209 I0.0068 J0.
X-4.8096 Z-0.0386 I-0.0068 J0.
X-4.7961 Z-0.0563 I0.0068 J0.
X-4.8096 Z-0.074 I-0.0068 J0.
X-4.7961 Z-0.0918 I0.0068 J0.
X-4.8096 Z-0.1095 I-0.0068 J0.
X-4.7961 Z-0.1272 I0.0068 J0.
X-4.8096 Z-0.1449 I-0.0068 J0.
X-4.7961 Z-0.1627 I0.0068 J0.
X-4.8096 Z-0.1804 I-0.0068 J0.
X-4.7961 Z-0.1981 I0.0068 J0.
X-4.8096 Z-0.2158 I-0.0068 J0.
X-4.7961 Z-0.2335 I0.0068 J0.
X-4.8096 Z-0.2513 I-0.0068 J0.
X-4.7961 Z-0.269 I0.0068 J0.
X-4.8096 Z-0.2867 I-0.0068 J0.
X-4.7961 Z-0.3044 I0.0068 J0.
X-4.8096 Z-0.3221 I-0.0068 J0.
X-4.7961 Z-0.3399 I0.0068 J0.
X-4.8096 Z-0.3576 I-0.0067 J0.
X-4.7961 Z-0.3753 I0.0067 J0.
X-4.8096 Z-0.393 I-0.0067 J0.
X-4.7961 Z-0.4107 I0.0067 J0.
X-4.8096 Z-0.4285 I-0.0067 J0.
X-4.7961 Z-0.4462 I0.0067 J0.
X-4.8096 Z-0.4639 I-0.0067 J0.
X-4.7961 Z-0.4816 I0.0067 J0.
X-4.8096 Z-0.4993 I-0.0067 J0.
X-4.7961 Z-0.5171 I0.0067 J0.
X-4.8073 Y4.6601 Z-0.53 I-0.0067 J0.
X-4.7984 Y4.6499 I0.0045 J-0.0051
X-4.8073 Y4.6601 I-0.0045 J0.0051
X-4.8076 Y4.6553 I0.0022 J-0.0025 F60.
G1 X-4.8029 Y4.655
G0 Z0.4
X-4.6154 Y3.0144
Z-0.0888
G1 Z-0.15 F60.
G18 G2 X-4.5966 Z-0.1688 I0.0187 K0.
G1 X-4.5873
G17 G3 X-4.5716 Y3.03 I0. J0.0156
X-4.6341 Z-0.1908 I-0.0313 J0. F80.
X-4.5716 Z-0.2128 I0.0313 J0.
X-4.6341 Z-0.2349 I-0.0313 J0.
X-4.5716 Z-0.2569 I0.0313 J0.
X-4.6341 Z-0.279 I-0.0313 J0.
X-4.5716 Z-0.301 I0.0313 J0.
X-4.6341 Z-0.323 I-0.0313 J0.
X-4.5716 Z-0.3451 I0.0313 J0.
X-4.6341 Z-0.3671 I-0.0313 J0.
X-4.5716 Z-0.3892 I0.0313 J0.
X-4.6341 Z-0.4112 I-0.0313 J0.
X-4.5716 Z-0.4332 I0.0312 J0.
X-4.6341 Z-0.4553 I-0.0312 J0.
X-4.5716 Z-0.4773 I0.0312 J0.
X-4.6341 Z-0.4994 I-0.0312 J0.
X-4.5716 Z-0.5214 I0.0312 J0.
X-4.5923 Y3.0594 Z-0.53 I-0.0312 J0.
X-4.6135 Y3.0006 I-0.0106 J-0.0294
X-4.5923 Y3.0594 I0.0106 J0.0294
X-4.6123 Y3.05 I-0.0053 J-0.0147 F60.
G1 X-4.6155 Y3.0412
X-4.6166 Y3.0381 Z-0.5297
X-4.6176 Y3.0351 Z-0.5289
X-4.6186 Y3.0324 Z-0.5275
X-4.6195 Y3.0298 Z-0.5256
X-4.6203 Y3.0277 Z-0.5233
X-4.621 Y3.0259 Z-0.5206
X-4.6214 Y3.0246 Z-0.5177
X-4.6217 Y3.0238 Z-0.5145
X-4.6218 Y3.0235 Z-0.5113
G0 Z0.4
X-5.5529 Y0.655
Z0.1113
G1 Z0.05 F60.
X-5.5495 Y0.6516
G3 X-5.5461 Y0.655 I0. J0.0034
X-5.5596 Z0.0323 I-0.0068 J0. F80.
X-5.5531 Y0.6483 Z0.0236 I0.0068 J0.
X-5.5526 Y0.6617 Z0.0059 I0.0003 J0.0067
X-5.5531 Y0.6483 Z-0.0118 I-0.0003 J-0.0067
X-5.5526 Y0.6617 Z-0.0295 I0.0003 J0.0067
X-5.5531 Y0.6483 Z-0.0472 I-0.0003 J-0.0067
X-5.5526 Y0.6617 Z-0.065 I0.0003 J0.0067
X-5.5531 Y0.6483 Z-0.0827 I-0.0003 J-0.0067
X-5.5526 Y0.6617 Z-0.1004 I0.0003 J0.0067
X-5.5531 Y0.6483 Z-0.1181 I-0.0003 J-0.0067
X-5.5511 Y0.6615 Z-0.1345 I0.0003 J0.0067
X-5.5547 Y0.6485 Z-0.1523 I-0.0018 J-0.0065
X-5.5511 Y0.6615 Z-0.17 I0.0018 J0.0065
X-5.5547 Y0.6485 Z-0.1877 I-0.0018 J-0.0065
X-5.5511 Y0.6615 Z-0.2054 I0.0018 J0.0065
X-5.5591 Y0.6575 Z-0.2136 I-0.0018 J-0.0065
X-5.5466 Y0.6525 Z-0.2314 I0.0063 J-0.0025
X-5.5501 Y0.6612 Z-0.24 I-0.0063 J0.0025
X-5.5557 Y0.6488 Z-0.2577 I-0.0028 J-0.0062
X-5.5468 Y0.652 Z-0.2664 I0.0028 J0.0062
X-5.5589 Y0.658 Z-0.2841 I-0.006 J0.003
X-5.5468 Y0.652 Z-0.3018 I0.006 J-0.003
X-5.5589 Y0.658 Z-0.3195 I-0.006 J0.003
X-5.5468 Y0.652 Z-0.3372 I0.006 J-0.003
X-5.5589 Y0.658 Z-0.355 I-0.006 J0.003
X-5.5468 Y0.652 Z-0.3727 I0.006 J-0.003
X-5.5589 Y0.658 Z-0.3904 I-0.006 J0.003
X-5.5468 Y0.652 Z-0.4081 I0.006 J-0.003
X-5.5589 Y0.658 Z-0.4259 I-0.006 J0.003
X-5.5468 Y0.652 Z-0.4436 I0.006 J-0.003
X-5.5589 Y0.658 Z-0.4613 I-0.006 J0.003
X-5.5468 Y0.652 Z-0.479 I0.006 J-0.003
X-5.5589 Y0.658 Z-0.4967 I-0.006 J0.003
X-5.5468 Y0.652 Z-0.5145 I0.006 J-0.003
X-5.5573 Y0.6601 Z-0.53 I-0.006 J0.003
X-5.5484 Y0.6499 I0.0045 J-0.0051
X-5.5573 Y0.6601 I-0.0045 J0.0051
X-5.5576 Y0.6553 I0.0022 J-0.0025 F60.
G1 X-5.5529 Y0.655
G0 Z0.4
Y-2.595
Z0.1113
G1 Z0.05 F60.
X-5.5495 Y-2.5984
G3 X-5.5461 Y-2.595 I0. J0.0034
X-5.5596 Z0.0323 I-0.0068 J0. F80.
X-5.5531 Y-2.6017 Z0.0236 I0.0068 J0.
X-5.5526 Y-2.5883 Z0.0059 I0.0003 J0.0067
X-5.5596 Y-2.5945 Z-0.0027 I-0.0003 J-0.0067
X-5.5462 Y-2.5955 Z-0.0204 I0.0067 J-0.0005
X-5.5596 Y-2.5945 Z-0.0382 I-0.0067 J0.0005
X-5.5462 Y-2.5955 Z-0.0559 I0.0067 J-0.0005
X-5.5596 Y-2.5945 Z-0.0736 I-0.0067 J0.0005
X-5.5542 Y-2.6016 Z-0.0818 I0.0067 J-0.0005
X-5.5516 Y-2.5884 Z-0.0995 I0.0013 J0.0066
X-5.5542 Y-2.6016 Z-0.1173 I-0.0013 J-0.0066
X-5.5511 Y-2.5885 Z-0.1345 I0.0013 J0.0066
X-5.5547 Y-2.6015 Z-0.1523 I-0.0018 J-0.0065
X-5.5464 Y-2.5971 Z-0.1609 I0.0018 J0.0065
X-5.5593 Y-2.5929 Z-0.1786 I-0.0064 J0.0021
X-5.5464 Y-2.5971 Z-0.1964 I0.0064 J-0.0021
X-5.5593 Y-2.5929 Z-0.2141 I-0.0064 J0.0021
X-5.5464 Y-2.5971 Z-0.2318 I0.0064 J-0.0021
X-5.5501 Y-2.5888 Z-0.24 I-0.0064 J0.0021
X-5.5557 Y-2.6012 Z-0.2577 I-0.0028 J-0.0062
X-5.5468 Y-2.598 Z-0.2664 I0.0028 J0.0062
X-5.5589 Y-2.592 Z-0.2841 I-0.006 J0.003
X-5.5468 Y-2.598 Z-0.3018 I0.006 J-0.003
X-5.5589 Y-2.592 Z-0.3195 I-0.006 J0.003
X-5.5468 Y-2.598 Z-0.3372 I0.006 J-0.003
X-5.5492 Y-2.5893 Z-0.3455 I-0.006 J0.003
X-5.5566 Y-2.6007 Z-0.3632 I-0.0037 J-0.0057
X-5.5474 Y-2.5989 Z-0.3718 I0.0037 J0.0057
X-5.5584 Y-2.5911 Z-0.3895 I-0.0055 J0.0039
X-5.5474 Y-2.5989 Z-0.4073 I0.0055 J-0.0039
X-5.5584 Y-2.5911 Z-0.425 I-0.0055 J0.0039
X-5.5474 Y-2.5989 Z-0.4427 I0.0055 J-0.0039
X-5.5584 Y-2.5911 Z-0.4604 I-0.0055 J0.0039
X-5.5474 Y-2.5989 Z-0.4781 I0.0055 J-0.0039
X-5.5584 Y-2.5911 Z-0.4959 I-0.0055 J0.0039
X-5.5474 Y-2.5989 Z-0.5136 I0.0055 J-0.0039
X-5.5573 Y-2.5899 Z-0.53 I-0.0055 J0.0039
X-5.5484 Y-2.6001 I0.0045 J-0.0051
X-5.5573 Y-2.5899 I-0.0045 J0.0051
X-5.5576 Y-2.5947 I0.0022 J-0.0025 F60.
G1 X-5.5529 Y-2.595
G0 Z0.4
X-4.6154 Y-4.9856
Z-0.0888
G1 Z-0.15 F60.
G18 G2 X-4.5966 Z-0.1688 I0.0187 K0.
G1 X-4.5873
G17 G3 X-4.5716 Y-4.97 I0. J0.0156
X-4.6341 Z-0.1908 I-0.0313 J0. F80.
X-4.5716 Z-0.2128 I0.0313 J0.
X-4.6341 Z-0.2349 I-0.0313 J0.
X-4.5716 Z-0.2569 I0.0313 J0.
X-4.6341 Z-0.279 I-0.0313 J0.
X-4.5716 Z-0.301 I0.0313 J0.
X-4.6341 Z-0.323 I-0.0313 J0.
X-4.5716 Z-0.3451 I0.0313 J0.
X-4.6341 Z-0.3671 I-0.0313 J0.
X-4.5716 Z-0.3892 I0.0313 J0.
X-4.6341 Z-0.4112 I-0.0313 J0.
X-4.5716 Z-0.4332 I0.0312 J0.
X-4.6341 Z-0.4553 I-0.0312 J0.
X-4.5716 Z-0.4773 I0.0312 J0.
X-4.6341 Z-0.4994 I-0.0312 J0.
X-4.5716 Z-0.5214 I0.0312 J0.
X-4.5923 Y-4.9406 Z-0.53 I-0.0312 J0.
X-4.6135 Y-4.9994 I-0.0106 J-0.0294
X-4.5923 Y-4.9406 I0.0106 J0.0294
X-4.6123 Y-4.95 I-0.0053 J-0.0147 F60.
G1 X-4.6155 Y-4.9588
X-4.6166 Y-4.9619 Z-0.5297
X-4.6176 Y-4.9649 Z-0.5289
X-4.6186 Y-4.9676 Z-0.5275
X-4.6195 Y-4.9702 Z-0.5256
X-4.6203 Y-4.9723 Z-0.5233
X-4.621 Y-4.9741 Z-0.5206
X-4.6214 Y-4.9754 Z-0.5177
X-4.6217 Y-4.9762 Z-0.5145
X-4.6218 Y-4.9765 Z-0.5113
G0 Z0.4
X-4.8029 Y-6.595
Z0.1113
G1 Z0.05 F60.
X-4.7995 Y-6.5984
G3 X-4.7961 Y-6.595 I0. J0.0034
X-4.8096 Z0.0323 I-0.0068 J0. F80.
X-4.7961 Z0.0146 I0.0068 J0.
X-4.8096 Z-0.0032 I-0.0068 J0.
X-4.7961 Z-0.0209 I0.0068 J0.
X-4.8096 Z-0.0386 I-0.0068 J0.
X-4.7961 Z-0.0563 I0.0068 J0.
X-4.8096 Z-0.074 I-0.0068 J0.
X-4.7961 Z-0.0918 I0.0068 J0.
X-4.8096 Z-0.1095 I-0.0068 J0.
X-4.7961 Z-0.1272 I0.0068 J0.
X-4.8096 Z-0.1449 I-0.0068 J0.
X-4.7961 Z-0.1627 I0.0068 J0.
X-4.8096 Z-0.1804 I-0.0068 J0.
X-4.7961 Z-0.1981 I0.0067 J0.
X-4.8096 Z-0.2158 I-0.0067 J0.
X-4.7961 Z-0.2335 I0.0067 J0.
X-4.8096 Z-0.2513 I-0.0067 J0.
X-4.7961 Z-0.269 I0.0067 J0.
X-4.8096 Z-0.2867 I-0.0067 J0.
X-4.7961 Z-0.3044 I0.0067 J0.
X-4.8096 Z-0.3221 I-0.0067 J0.
X-4.7961 Z-0.3399 I0.0067 J0.
X-4.8096 Z-0.3576 I-0.0067 J0.
X-4.7961 Z-0.3753 I0.0067 J0.
X-4.8096 Z-0.393 I-0.0067 J0.
X-4.7961 Z-0.4107 I0.0067 J0.
X-4.8096 Z-0.4285 I-0.0067 J0.
X-4.7961 Z-0.4462 I0.0067 J0.
X-4.8096 Z-0.4639 I-0.0067 J0.
X-4.7961 Z-0.4816 I0.0067 J0.
X-4.8096 Z-0.4993 I-0.0067 J0.
X-4.7961 Z-0.5171 I0.0067 J0.
X-4.8073 Y-6.5899 Z-0.53 I-0.0067 J0.
X-4.7984 Y-6.6001 I0.0045 J-0.0051
X-4.8073 Y-6.5899 I-0.0045 J0.0051
X-4.8076 Y-6.5947 I0.0022 J-0.0025 F60.
G1 X-4.8029 Y-6.595
G0 Z0.4
Y-7.345
Z0.1113
G1 Z0.05 F60.
X-4.7995 Y-7.3484
G3 X-4.7961 Y-7.345 I0. J0.0034
X-4.8096 Z0.0323 I-0.0068 J0. F80.
X-4.7961 Z0.0146 I0.0068 J0.
X-4.8096 Z-0.0032 I-0.0068 J0.
X-4.7961 Z-0.0209 I0.0068 J0.
X-4.8096 Z-0.0386 I-0.0068 J0.
X-4.7961 Z-0.0563 I0.0068 J0.
X-4.8096 Z-0.074 I-0.0068 J0.
X-4.7961 Z-0.0918 I0.0068 J0.
X-4.8096 Z-0.1095 I-0.0068 J0.
X-4.7961 Z-0.1272 I0.0068 J0.
X-4.8011 Y-7.3385 Z-0.1345 I-0.0068 J0.
X-4.8047 Y-7.3515 Z-0.1523 I-0.0018 J-0.0065
X-4.7964 Y-7.3471 Z-0.1609 I0.0018 J0.0065
X-4.8093 Y-7.3429 Z-0.1786 I-0.0064 J0.0021
X-4.7964 Y-7.3471 Z-0.1964 I0.0064 J-0.0021
X-4.8093 Y-7.3429 Z-0.2141 I-0.0064 J0.0021
X-4.7964 Y-7.3471 Z-0.2318 I0.0064 J-0.0021
X-4.8093 Y-7.3429 Z-0.2495 I-0.0064 J0.0021
X-4.7964 Y-7.3471 Z-0.2672 I0.0064 J-0.0021
X-4.8093 Y-7.3429 Z-0.285 I-0.0064 J0.0021
X-4.7964 Y-7.3471 Z-0.3027 I0.0064 J-0.0021
X-4.8093 Y-7.3429 Z-0.3204 I-0.0064 J0.0021
X-4.7964 Y-7.3471 Z-0.3381 I0.0064 J-0.0021
X-4.7992 Y-7.3393 Z-0.3455 I-0.0064 J0.0021
X-4.8066 Y-7.3507 Z-0.3632 I-0.0037 J-0.0057
X-4.7974 Y-7.3489 Z-0.3718 I0.0037 J0.0057
X-4.8084 Y-7.3411 Z-0.3895 I-0.0055 J0.0039
X-4.7974 Y-7.3489 Z-0.4073 I0.0055 J-0.0039
X-4.8081 Y-7.3407 Z-0.4245 I-0.0055 J0.0039
X-4.7977 Y-7.3493 Z-0.4423 I0.0052 J-0.0043
X-4.7984 Y-7.34 Z-0.4509 I-0.0052 J0.0043
X-4.8074 Y-7.35 Z-0.4686 I-0.0045 J-0.005
X-4.7984 Y-7.34 Z-0.4864 I0.0045 J0.005
X-4.8074 Y-7.35 Z-0.5041 I-0.0045 J-0.005
X-4.7984 Y-7.34 Z-0.5218 I0.0045 J0.005
X-4.8073 Y-7.3399 Z-0.53 I-0.0045 J-0.005
X-4.7984 Y-7.3501 I0.0045 J-0.0051
X-4.8073 Y-7.3399 I-0.0045 J0.0051
X-4.8076 Y-7.3447 I0.0022 J-0.0025 F60.
G1 X-4.8029 Y-7.345
G0 Z0.4
Y-8.095
Z0.1113
G1 Z0.05 F60.
X-4.7995 Y-8.0984
G3 X-4.7961 Y-8.095 I0. J0.0034
X-4.8096 Z0.0323 I-0.0068 J0. F80.
X-4.7961 Z0.0146 I0.0068 J0.
X-4.8096 Y-8.0945 Z-0.0027 I-0.0068 J0.
X-4.7962 Y-8.0955 Z-0.0204 I0.0067 J-0.0005
X-4.8096 Y-8.0945 Z-0.0382 I-0.0067 J0.0005
X-4.7962 Y-8.0955 Z-0.0559 I0.0067 J-0.0005
X-4.8096 Y-8.0945 Z-0.0736 I-0.0067 J0.0005
X-4.8042 Y-8.1016 Z-0.0818 I0.0067 J-0.0005
X-4.8016 Y-8.0884 Z-0.0995 I0.0013 J0.0066
X-4.8094 Y-8.0935 Z-0.1082 I-0.0013 J-0.0066
X-4.7963 Y-8.0965 Z-0.1259 I0.0066 J-0.0015
X-4.8094 Y-8.0935 Z-0.1436 I-0.0066 J0.0015
X-4.7964 Y-8.0971 Z-0.1609 I0.0066 J-0.0015
X-4.8093 Y-8.0929 Z-0.1786 I-0.0064 J0.0021
X-4.7964 Y-8.0971 Z-0.1964 I0.0064 J-0.0021
X-4.8093 Y-8.0929 Z-0.2141 I-0.0064 J0.0021
X-4.7964 Y-8.0971 Z-0.2318 I0.0064 J-0.0021
X-4.8093 Y-8.0929 Z-0.2495 I-0.0064 J0.0021
X-4.7968 Y-8.098 Z-0.2664 I0.0064 J-0.0021
X-4.8089 Y-8.092 Z-0.2841 I-0.006 J0.003
X-4.7968 Y-8.098 Z-0.3018 I0.006 J-0.003
X-4.8089 Y-8.092 Z-0.3195 I-0.006 J0.003
X-4.7968 Y-8.098 Z-0.3372 I0.006 J-0.003
X-4.7992 Y-8.0893 Z-0.3455 I-0.006 J0.003
X-4.8066 Y-8.1007 Z-0.3632 I-0.0037 J-0.0057
X-4.7974 Y-8.0989 Z-0.3718 I0.0037 J0.0057
X-4.8084 Y-8.0911 Z-0.3895 I-0.0055 J0.0039
X-4.7974 Y-8.0989 Z-0.4073 I0.0055 J-0.0039
X-4.8081 Y-8.0907 Z-0.4245 I-0.0055 J0.0039
X-4.7977 Y-8.0993 Z-0.4423 I0.0052 J-0.0043
X-4.8081 Y-8.0907 Z-0.46 I-0.0052 J0.0043
X-4.798 Y-8.0997 Z-0.4773 I0.0052 J-0.0043
X-4.8077 Y-8.0903 Z-0.495 I-0.0048 J0.0047
X-4.798 Y-8.0997 Z-0.5127 I0.0048 J-0.0047
X-4.8073 Y-8.0899 Z-0.53 I-0.0048 J0.0047
X-4.7984 Y-8.1001 I0.0045 J-0.0051
X-4.8073 Y-8.0899 I-0.0045 J0.0051
X-4.8076 Y-8.0947 I0.0022 J-0.0025 F60.
G1 X-4.8029 Y-8.095
G0 Z0.4
Y-8.845
Z0.1113
G1 Z0.05 F60.
X-4.8063 Y-8.8416
G3 X-4.8096 Y-8.845 I0. J-0.0034
X-4.7961 Z0.0323 I0.0067 J0. F80.
X-4.8096 Z0.0146 I-0.0068 J0.
X-4.7961 Y-8.8455 Z-0.0027 I0.0068 J0.
X-4.8096 Y-8.8445 Z-0.0204 I-0.0067 J0.0005
X-4.8037 Y-8.8517 Z-0.0291 I0.0067 J-0.0005
X-4.8021 Y-8.8383 Z-0.0468 I0.0008 J0.0067
X-4.8037 Y-8.8517 Z-0.0645 I-0.0008 J-0.0067
X-4.8021 Y-8.8383 Z-0.0823 I0.0008 J0.0067
X-4.8037 Y-8.8517 Z-0.1 I-0.0008 J-0.0067
X-4.7963 Y-8.8465 Z-0.1082 I0.0008 J0.0067
X-4.8094 Y-8.8435 Z-0.1259 I-0.0066 J0.0015
X-4.7963 Y-8.8465 Z-0.1436 I0.0066 J-0.0015
X-4.8093 Y-8.8429 Z-0.1609 I-0.0066 J0.0015
X-4.7964 Y-8.8471 Z-0.1786 I0.0064 J-0.0021
X-4.8006 Y-8.8387 Z-0.1873 I-0.0064 J0.0021
X-4.8052 Y-8.8513 Z-0.205 I-0.0023 J-0.0063
X-4.8006 Y-8.8387 Z-0.2227 I0.0023 J0.0063
X-4.8052 Y-8.8513 Z-0.2404 I-0.0023 J-0.0063
X-4.8006 Y-8.8387 Z-0.2582 I0.0023 J0.0063
X-4.8089 Y-8.842 Z-0.2664 I-0.0023 J-0.0063
X-4.7968 Y-8.848 Z-0.2841 I0.006 J-0.003
X-4.7996 Y-8.8391 Z-0.2927 I-0.006 J0.003
X-4.8061 Y-8.8509 Z-0.3104 I-0.0032 J-0.0059
X-4.7996 Y-8.8391 Z-0.3282 I0.0032 J0.0059
X-4.8061 Y-8.8509 Z-0.3459 I-0.0032 J-0.0059
X-4.7996 Y-8.8391 Z-0.3636 I0.0032 J0.0059
X-4.8061 Y-8.8509 Z-0.3813 I-0.0032 J-0.0059
X-4.7996 Y-8.8391 Z-0.3991 I0.0032 J0.0059
X-4.8061 Y-8.8509 Z-0.4168 I-0.0032 J-0.0059
X-4.7977 Y-8.8493 Z-0.4245 I0.0032 J0.0059
X-4.8081 Y-8.8407 Z-0.4423 I-0.0052 J0.0043
X-4.8074 Y-8.85 Z-0.4509 I0.0052 J-0.0043
X-4.7984 Y-8.84 Z-0.4686 I0.0045 J0.005
X-4.8077 Y-8.8403 Z-0.4773 I-0.0045 J-0.005
X-4.798 Y-8.8497 Z-0.495 I0.0048 J-0.0047
Y-8.8403 Z-0.5036 I-0.0048 J0.0047
X-4.8078 Y-8.8497 Z-0.5214 I-0.0049 J-0.0047
X-4.7984 Y-8.8501 Z-0.53 I0.0049 J0.0047
X-4.8073 Y-8.8399 I-0.0045 J0.0051
X-4.7984 Y-8.8501 I0.0045 J-0.0051
X-4.7981 Y-8.8453 I-0.0022 J0.0025 F60.
G1 X-4.8029 Y-8.845
G0 Z0.4
X-1.5529 Y-6.595
Z0.1113
G1 Z0.05 F60.
X-1.5563 Y-6.5916
G3 X-1.5596 Y-6.595 I0. J-0.0034
X-1.5461 Z0.0323 I0.0068 J0. F80.
X-1.5596 Z0.0146 I-0.0068 J0.
X-1.5461 Z-0.0032 I0.0068 J0.
X-1.5596 Z-0.0209 I-0.0068 J0.
X-1.5461 Z-0.0386 I0.0068 J0.
X-1.5596 Z-0.0563 I-0.0068 J0.
X-1.5461 Z-0.074 I0.0068 J0.
X-1.5596 Z-0.0918 I-0.0068 J0.
X-1.5461 Z-0.1095 I0.0068 J0.
X-1.5596 Z-0.1272 I-0.0068 J0.
X-1.5461 Z-0.1449 I0.0068 J0.
X-1.5596 Z-0.1627 I-0.0067 J0.
X-1.5461 Z-0.1804 I0.0067 J0.
X-1.5596 Z-0.1981 I-0.0067 J0.
X-1.5461 Z-0.2158 I0.0067 J0.
X-1.5596 Z-0.2335 I-0.0067 J0.
X-1.5461 Z-0.2513 I0.0067 J0.
X-1.5596 Z-0.269 I-0.0067 J0.
X-1.5461 Z-0.2867 I0.0067 J0.
X-1.5596 Z-0.3044 I-0.0067 J0.
X-1.5461 Z-0.3221 I0.0067 J0.
X-1.5596 Z-0.3399 I-0.0067 J0.
X-1.5461 Z-0.3576 I0.0067 J0.
X-1.5596 Z-0.3753 I-0.0067 J0.
X-1.5461 Z-0.393 I0.0067 J0.
X-1.5596 Z-0.4107 I-0.0067 J0.
X-1.5461 Z-0.4285 I0.0067 J0.
X-1.5596 Z-0.4462 I-0.0067 J0.
X-1.5461 Z-0.4639 I0.0067 J0.
X-1.5596 Z-0.4816 I-0.0067 J0.
X-1.5461 Z-0.4993 I0.0067 J0.
X-1.5596 Z-0.5171 I-0.0067 J0.
X-1.5484 Y-6.6001 Z-0.53 I0.0067 J0.
X-1.5573 Y-6.5899 I-0.0045 J0.0051
X-1.5484 Y-6.6001 I0.0045 J-0.0051
X-1.5481 Y-6.5953 I-0.0022 J0.0025 F60.
G1 X-1.5529 Y-6.595
G0 Z0.4
Y-7.345
Z0.1113
G1 Z0.05 F60.
X-1.5563 Y-7.3416
G3 X-1.5596 Y-7.345 I0. J-0.0034
X-1.5461 Z0.0323 I0.0068 J0. F80.
X-1.5596 Z0.0146 I-0.0068 J0.
X-1.5461 Z-0.0032 I0.0068 J0.
X-1.5596 Z-0.0209 I-0.0068 J0.
X-1.5461 Z-0.0386 I0.0068 J0.
X-1.5595 Y-7.344 Z-0.0555 I-0.0068 J0.
X-1.5462 Y-7.346 Z-0.0732 I0.0067 J-0.001
X-1.5516 Y-7.3384 Z-0.0818 I-0.0067 J0.001
X-1.5542 Y-7.3516 Z-0.0995 I-0.0013 J-0.0066
X-1.5516 Y-7.3384 Z-0.1173 I0.0013 J0.0066
X-1.5542 Y-7.3516 Z-0.135 I-0.0013 J-0.0066
X-1.5516 Y-7.3384 Z-0.1527 I0.0013 J0.0066
X-1.5593 Y-7.3429 Z-0.1609 I-0.0013 J-0.0066
X-1.5464 Y-7.3471 Z-0.1786 I0.0064 J-0.0021
X-1.5506 Y-7.3387 Z-0.1873 I-0.0064 J0.0021
X-1.5552 Y-7.3513 Z-0.205 I-0.0023 J-0.0063
X-1.5506 Y-7.3387 Z-0.2227 I0.0023 J0.0063
X-1.5552 Y-7.3513 Z-0.2404 I-0.0023 J-0.0063
X-1.5506 Y-7.3387 Z-0.2582 I0.0023 J0.0063
X-1.5552 Y-7.3513 Z-0.2759 I-0.0023 J-0.0063
X-1.5506 Y-7.3387 Z-0.2936 I0.0023 J0.0063
X-1.5552 Y-7.3513 Z-0.3113 I-0.0023 J-0.0063
X-1.5506 Y-7.3387 Z-0.329 I0.0023 J0.0063
X-1.5552 Y-7.3513 Z-0.3468 I-0.0023 J-0.0063
X-1.5506 Y-7.3387 Z-0.3645 I0.0023 J0.0063
X-1.5552 Y-7.3513 Z-0.3822 I-0.0023 J-0.0063
X-1.5506 Y-7.3387 Z-0.3999 I0.0023 J0.0063
X-1.5552 Y-7.3513 Z-0.4176 I-0.0023 J-0.0063
X-1.5506 Y-7.3387 Z-0.4354 I0.0023 J0.0063
X-1.5552 Y-7.3513 Z-0.4531 I-0.0023 J-0.0063
X-1.5506 Y-7.3387 Z-0.4708 I0.0023 J0.0063
X-1.5552 Y-7.3513 Z-0.4885 I-0.0023 J-0.0063
X-1.5506 Y-7.3387 Z-0.5062 I0.0023 J0.0063
X-1.5552 Y-7.3513 Z-0.524 I-0.0023 J-0.0063
X-1.5484 Y-7.3501 Z-0.53 I0.0023 J0.0063
X-1.5573 Y-7.3399 I-0.0045 J0.0051
X-1.5484 Y-7.3501 I0.0045 J-0.0051
X-1.5481 Y-7.3453 I-0.0022 J0.0025 F60.
G1 X-1.5529 Y-7.345
G0 Z0.4
Y-8.095
Z0.1113
G1 Z0.05 F60.
X-1.5495 Y-8.0984
G3 X-1.5461 Y-8.095 I0. J0.0034
X-1.5596 Z0.0323 I-0.0067 J0. F80.
X-1.5461 Z0.0146 I0.0067 J0.
X-1.5596 Y-8.0945 Z-0.0027 I-0.0068 J0.
X-1.5461 Y-8.0955 Z-0.0204 I0.0067 J-0.0005
X-1.5596 Y-8.0945 Z-0.0382 I-0.0067 J0.0005
X-1.5462 Y-8.096 Z-0.0555 I0.0067 J-0.0005
X-1.5595 Y-8.094 Z-0.0732 I-0.0067 J0.001
X-1.5462 Y-8.096 Z-0.0909 I0.0067 J-0.001
X-1.5594 Y-8.0935 Z-0.1082 I-0.0067 J0.001
X-1.5463 Y-8.0965 Z-0.1259 I0.0066 J-0.0015
X-1.5594 Y-8.0935 Z-0.1436 I-0.0066 J0.0015
X-1.5464 Y-8.0971 Z-0.1609 I0.0066 J-0.0015
X-1.5593 Y-8.0929 Z-0.1786 I-0.0064 J0.0021
X-1.5552 Y-8.1013 Z-0.1873 I0.0064 J-0.0021
X-1.5506 Y-8.0887 Z-0.205 I0.0023 J0.0063
X-1.5552 Y-8.1013 Z-0.2227 I-0.0023 J-0.0063
X-1.5506 Y-8.0887 Z-0.2404 I0.0023 J0.0063
X-1.5552 Y-8.1013 Z-0.2582 I-0.0023 J-0.0063
X-1.5468 Y-8.098 Z-0.2664 I0.0023 J0.0063
X-1.5589 Y-8.092 Z-0.2841 I-0.006 J0.003
X-1.5561 Y-8.1009 Z-0.2927 I0.006 J-0.003
X-1.5496 Y-8.0891 Z-0.3104 I0.0032 J0.0059
X-1.5561 Y-8.1009 Z-0.3282 I-0.0032 J-0.0059
X-1.5496 Y-8.0891 Z-0.3459 I0.0032 J0.0059
X-1.5561 Y-8.1009 Z-0.3636 I-0.0032 J-0.0059
X-1.5474 Y-8.0989 Z-0.3718 I0.0032 J0.0059
X-1.5584 Y-8.0911 Z-0.3895 I-0.0055 J0.0039
X-1.5474 Y-8.0989 Z-0.4073 I0.0055 J-0.0039
X-1.5581 Y-8.0907 Z-0.4245 I-0.0055 J0.0039
X-1.5477 Y-8.0993 Z-0.4423 I0.0052 J-0.0043
X-1.5581 Y-8.0907 Z-0.46 I-0.0052 J0.0043
X-1.548 Y-8.0997 Z-0.4773 I0.0052 J-0.0043
X-1.5577 Y-8.0903 Z-0.495 I-0.0048 J0.0047
X-1.5578 Y-8.0997 Z-0.5036 I0.0048 J-0.0047
X-1.548 Y-8.0903 Z-0.5214 I0.0049 J0.0047
X-1.5573 Y-8.0899 Z-0.53 I-0.0049 J-0.0047
X-1.5484 Y-8.1001 I0.0045 J-0.0051
X-1.5573 Y-8.0899 I-0.0045 J0.0051
X-1.5576 Y-8.0947 I0.0022 J-0.0025 F60.
G1 X-1.5529 Y-8.095
G0 Z0.4
Y-8.845
Z0.1113
G1 Z0.05 F60.
X-1.5495 Y-8.8484
G3 X-1.5461 Y-8.845 I0. J0.0034
X-1.5596 Z0.0323 I-0.0067 J0. F80.
X-1.5461 Z0.0146 I0.0067 J0.
X-1.5596 Z-0.0032 I-0.0067 J0.
X-1.5461 Z-0.0209 I0.0067 J0.
X-1.5596 Z-0.0386 I-0.0067 J0.
X-1.5461 Z-0.0563 I0.0067 J0.
X-1.5596 Z-0.074 I-0.0067 J0.
X-1.5461 Z-0.0918 I0.0067 J0.
X-1.5596 Z-0.1095 I-0.0067 J0.
X-1.5461 Z-0.1272 I0.0067 J0.
X-1.5596 Z-0.1449 I-0.0067 J0.
X-1.5461 Z-0.1627 I0.0067 J0.
X-1.5596 Z-0.1804 I-0.0067 J0.
X-1.5461 Z-0.1981 I0.0067 J0.
X-1.5591 Y-8.8425 Z-0.2136 I-0.0067 J0.
X-1.5466 Y-8.8475 Z-0.2314 I0.0063 J-0.0025
X-1.5591 Y-8.8425 Z-0.2491 I-0.0063 J0.0025
X-1.5466 Y-8.8475 Z-0.2668 I0.0063 J-0.0025
X-1.5591 Y-8.8425 Z-0.2845 I-0.0063 J0.0025
X-1.5466 Y-8.8475 Z-0.3022 I0.0063 J-0.0025
X-1.5591 Y-8.8425 Z-0.32 I-0.0063 J0.0025
X-1.5466 Y-8.8475 Z-0.3377 I0.0063 J-0.0025
X-1.5591 Y-8.8425 Z-0.3554 I-0.0063 J0.0025
X-1.5474 Y-8.8489 Z-0.3718 I0.0063 J-0.0025
X-1.5584 Y-8.8411 Z-0.3895 I-0.0055 J0.0039
X-1.5474 Y-8.8489 Z-0.4073 I0.0055 J-0.0039
X-1.5581 Y-8.8407 Z-0.4245 I-0.0055 J0.0039
X-1.5477 Y-8.8493 Z-0.4423 I0.0052 J-0.0043
X-1.5581 Y-8.8407 Z-0.46 I-0.0052 J0.0043
X-1.5477 Y-8.8493 Z-0.4777 I0.0052 J-0.0043
X-1.5581 Y-8.8407 Z-0.4954 I-0.0052 J0.0043
X-1.5477 Y-8.8493 Z-0.5131 I0.0052 J-0.0043
X-1.5573 Y-8.8399 Z-0.53 I-0.0052 J0.0043
X-1.5484 Y-8.8501 I0.0045 J-0.0051
X-1.5573 Y-8.8399 I-0.0045 J0.0051
X-1.5576 Y-8.8447 I0.0022 J-0.0025 F60.
G1 X-1.5529 Y-8.845
G0 Z0.4
X1.1971
Z0.1113
G1 Z0.05 F60.
X1.2005 Y-8.8484
G3 X1.2039 Y-8.845 I0. J0.0034
X1.1904 Z0.0323 I-0.0067 J0. F80.
X1.2039 Z0.0146 I0.0067 J0.
X1.1904 Z-0.0032 I-0.0067 J0.
X1.2039 Z-0.0209 I0.0067 J0.
X1.1904 Z-0.0386 I-0.0067 J0.
X1.2039 Z-0.0563 I0.0067 J0.
X1.1904 Z-0.074 I-0.0067 J0.
X1.2039 Z-0.0918 I0.0067 J0.
X1.1904 Z-0.1095 I-0.0067 J0.
X1.2039 Z-0.1272 I0.0067 J0.
X1.1904 Z-0.1449 I-0.0067 J0.
X1.2039 Z-0.1627 I0.0067 J0.
X1.1904 Z-0.1804 I-0.0067 J0.
X1.2039 Z-0.1981 I0.0067 J0.
X1.1909 Y-8.8425 Z-0.2136 I-0.0067 J0.
X1.2034 Y-8.8475 Z-0.2314 I0.0063 J-0.0025
X1.1909 Y-8.8425 Z-0.2491 I-0.0063 J0.0025
X1.2034 Y-8.8475 Z-0.2668 I0.0063 J-0.0025
X1.1909 Y-8.8425 Z-0.2845 I-0.0063 J0.0025
X1.2034 Y-8.8475 Z-0.3022 I0.0063 J-0.0025
X1.1909 Y-8.8425 Z-0.32 I-0.0063 J0.0025
X1.2034 Y-8.8475 Z-0.3377 I0.0063 J-0.0025
X1.1909 Y-8.8425 Z-0.3554 I-0.0063 J0.0025
X1.2026 Y-8.8489 Z-0.3718 I0.0063 J-0.0025
X1.1916 Y-8.8411 Z-0.3895 I-0.0055 J0.0039
X1.2026 Y-8.8489 Z-0.4073 I0.0055 J-0.0039
X1.1919 Y-8.8407 Z-0.4245 I-0.0055 J0.0039
X1.2023 Y-8.8493 Z-0.4423 I0.0052 J-0.0043
X1.1919 Y-8.8407 Z-0.46 I-0.0052 J0.0043
X1.2023 Y-8.8493 Z-0.4777 I0.0052 J-0.0043
X1.1919 Y-8.8407 Z-0.4954 I-0.0052 J0.0043
X1.2023 Y-8.8493 Z-0.5131 I0.0052 J-0.0043
X1.1927 Y-8.8399 Z-0.53 I-0.0052 J0.0043
X1.2016 Y-8.8501 I0.0045 J-0.0051
X1.1927 Y-8.8399 I-0.0045 J0.0051
X1.1924 Y-8.8447 I0.0022 J-0.0025 F60.
G1 X1.1971 Y-8.845
G0 Z0.4
Y-8.095
Z0.1113
G1 Z0.05 F60.
X1.2005 Y-8.0984
G3 X1.2039 Y-8.095 I0. J0.0034
X1.1904 Z0.0323 I-0.0067 J0. F80.
X1.2039 Z0.0146 I0.0068 J0.
X1.1904 Y-8.0945 Z-0.0027 I-0.0068 J0.
X1.2039 Y-8.0955 Z-0.0204 I0.0067 J-0.0005
X1.1904 Y-8.0945 Z-0.0382 I-0.0067 J0.0005
X1.2038 Y-8.096 Z-0.0555 I0.0067 J-0.0005
X1.1905 Y-8.094 Z-0.0732 I-0.0067 J0.001
X1.2038 Y-8.096 Z-0.0909 I0.0067 J-0.001
X1.1906 Y-8.0935 Z-0.1082 I-0.0067 J0.001
X1.2037 Y-8.0965 Z-0.1259 I0.0066 J-0.0015
X1.1906 Y-8.0935 Z-0.1436 I-0.0066 J0.0015
X1.2036 Y-8.0971 Z-0.1609 I0.0066 J-0.0015
X1.1907 Y-8.0929 Z-0.1786 I-0.0064 J0.0021
X1.2036 Y-8.0971 Z-0.1964 I0.0064 J-0.0021
X1.1909 Y-8.0925 Z-0.2136 I-0.0064 J0.0021
X1.2034 Y-8.0975 Z-0.2314 I0.0063 J-0.0025
X1.1909 Y-8.0925 Z-0.2491 I-0.0063 J0.0025
X1.2032 Y-8.098 Z-0.2664 I0.0063 J-0.0025
X1.1911 Y-8.092 Z-0.2841 I-0.006 J0.003
X1.1939 Y-8.1009 Z-0.2927 I0.006 J-0.003
X1.2004 Y-8.0891 Z-0.3104 I0.0032 J0.0059
X1.1939 Y-8.1009 Z-0.3282 I-0.0032 J-0.0059
X1.2004 Y-8.0891 Z-0.3459 I0.0032 J0.0059
X1.1939 Y-8.1009 Z-0.3636 I-0.0032 J-0.0059
X1.2026 Y-8.0989 Z-0.3718 I0.0032 J0.0059
X1.1916 Y-8.0911 Z-0.3895 I-0.0055 J0.0039
X1.2026 Y-8.0989 Z-0.4073 I0.0055 J-0.0039
X1.1919 Y-8.0907 Z-0.4245 I-0.0055 J0.0039
X1.2023 Y-8.0993 Z-0.4423 I0.0052 J-0.0043
X1.1919 Y-8.0907 Z-0.46 I-0.0052 J0.0043
X1.202 Y-8.0997 Z-0.4773 I0.0052 J-0.0043
X1.1923 Y-8.0903 Z-0.495 I-0.0048 J0.0047
X1.1922 Y-8.0997 Z-0.5036 I0.0048 J-0.0047
X1.202 Y-8.0903 Z-0.5214 I0.0049 J0.0047
X1.1927 Y-8.0899 Z-0.53 I-0.0049 J-0.0047
X1.2016 Y-8.1001 I0.0045 J-0.0051
X1.1927 Y-8.0899 I-0.0045 J0.0051
X1.1924 Y-8.0947 I0.0022 J-0.0025 F60.
G1 X1.1971 Y-8.095
G0 Z0.4
Y-7.345
Z0.1113
G1 Z0.05 F60.
X1.2005 Y-7.3484
G3 X1.2039 Y-7.345 I0. J0.0034
X1.1904 Z0.0323 I-0.0067 J0. F80.
X1.2039 Z0.0146 I0.0067 J0.
X1.1904 Z-0.0032 I-0.0067 J0.
X1.2039 Z-0.0209 I0.0067 J0.
X1.1904 Z-0.0386 I-0.0067 J0.
X1.2039 Z-0.0563 I0.0067 J0.
X1.1904 Z-0.074 I-0.0067 J0.
X1.2039 Z-0.0918 I0.0067 J0.
X1.1904 Z-0.1095 I-0.0067 J0.
X1.2039 Z-0.1272 I0.0067 J0.
X1.1904 Z-0.1449 I-0.0067 J0.
X1.2036 Y-7.3471 Z-0.1609 I0.0067 J0.
X1.1907 Y-7.3429 Z-0.1786 I-0.0064 J0.0021
X1.2036 Y-7.3471 Z-0.1964 I0.0064 J-0.0021
X1.1907 Y-7.3429 Z-0.2141 I-0.0064 J0.0021
X1.2036 Y-7.3471 Z-0.2318 I0.0064 J-0.0021
X1.1907 Y-7.3429 Z-0.2495 I-0.0064 J0.0021
X1.2036 Y-7.3471 Z-0.2672 I0.0064 J-0.0021
X1.1907 Y-7.3429 Z-0.285 I-0.0064 J0.0021
X1.2036 Y-7.3471 Z-0.3027 I0.0064 J-0.0021
X1.1907 Y-7.3429 Z-0.3204 I-0.0064 J0.0021
X1.2036 Y-7.3471 Z-0.3381 I0.0064 J-0.0021
X1.1907 Y-7.3429 Z-0.3558 I-0.0064 J0.0021
X1.2036 Y-7.3471 Z-0.3736 I0.0064 J-0.0021
X1.1907 Y-7.3429 Z-0.3913 I-0.0064 J0.0021
X1.2036 Y-7.3471 Z-0.409 I0.0064 J-0.0021
X1.1919 Y-7.3407 Z-0.4245 I-0.0064 J0.0021
X1.2023 Y-7.3493 Z-0.4423 I0.0052 J-0.0043
X1.2016 Y-7.34 Z-0.4509 I-0.0052 J0.0043
X1.1926 Y-7.35 Z-0.4686 I-0.0045 J-0.005
X1.2016 Y-7.34 Z-0.4864 I0.0045 J0.005
X1.1926 Y-7.35 Z-0.5041 I-0.0045 J-0.005
X1.2016 Y-7.34 Z-0.5218 I0.0045 J0.005
X1.1927 Y-7.3399 Z-0.53 I-0.0045 J-0.005
X1.2016 Y-7.3501 I0.0045 J-0.0051
X1.1927 Y-7.3399 I-0.0045 J0.0051
X1.1924 Y-7.3447 I0.0022 J-0.0025 F60.
G1 X1.1971 Y-7.345
G0 Z0.4
Y-6.595
Z0.1113
G1 Z0.05 F60.
X1.2005 Y-6.5984
G3 X1.2039 Y-6.595 I0. J0.0034
X1.1904 Z0.0323 I-0.0067 J0. F80.
X1.2039 Z0.0146 I0.0067 J0.
X1.1904 Z-0.0032 I-0.0067 J0.
X1.2039 Z-0.0209 I0.0067 J0.
X1.1904 Z-0.0386 I-0.0067 J0.
X1.2039 Z-0.0563 I0.0067 J0.
X1.1904 Z-0.074 I-0.0067 J0.
X1.2039 Z-0.0918 I0.0067 J0.
X1.1904 Z-0.1095 I-0.0067 J0.
X1.2039 Z-0.1272 I0.0067 J0.
X1.1904 Z-0.1449 I-0.0067 J0.
X1.2039 Z-0.1627 I0.0067 J0.
X1.1904 Z-0.1804 I-0.0067 J0.
X1.2039 Z-0.1981 I0.0067 J0.
X1.1904 Z-0.2158 I-0.0067 J0.
X1.2039 Z-0.2335 I0.0067 J0.
X1.1904 Z-0.2513 I-0.0067 J0.
X1.2039 Z-0.269 I0.0067 J0.
X1.1904 Z-0.2867 I-0.0067 J0.
X1.2039 Z-0.3044 I0.0067 J0.
X1.1904 Z-0.3221 I-0.0067 J0.
X1.2039 Z-0.3399 I0.0067 J0.
X1.1904 Z-0.3576 I-0.0067 J0.
X1.2039 Z-0.3753 I0.0067 J0.
X1.1904 Z-0.393 I-0.0067 J0.
X1.2039 Z-0.4107 I0.0067 J0.
X1.1904 Z-0.4285 I-0.0067 J0.
X1.2039 Z-0.4462 I0.0067 J0.
X1.1904 Z-0.4639 I-0.0067 J0.
X1.2039 Z-0.4816 I0.0067 J0.
X1.1904 Z-0.4993 I-0.0067 J0.
X1.2039 Z-0.5171 I0.0067 J0.
X1.1927 Y-6.5899 Z-0.53 I-0.0067 J0.
X1.2016 Y-6.6001 I0.0045 J-0.0051
X1.1927 Y-6.5899 I-0.0045 J0.0051
X1.1924 Y-6.5947 I0.0022 J-0.0025 F60.
G1 X1.1971 Y-6.595
G0 Z0.4
X4.2346 Y-5.4856
Z-0.0888
G1 Z-0.15 F60.
G18 G2 X4.2534 Z-0.1688 I0.0187 K0.
G1 X4.2627
G17 G3 X4.2784 Y-5.47 I0. J0.0156
X4.2159 Z-0.1908 I-0.0312 J0. F80.
X4.2784 Z-0.2128 I0.0312 J0.
X4.2159 Z-0.2349 I-0.0312 J0.
X4.2784 Z-0.2569 I0.0312 J0.
X4.2159 Z-0.279 I-0.0312 J0.
X4.2784 Z-0.301 I0.0312 J0.
X4.2159 Z-0.323 I-0.0312 J0.
X4.2784 Z-0.3451 I0.0312 J0.
X4.2159 Z-0.3671 I-0.0312 J0.
X4.2784 Z-0.3892 I0.0312 J0.
X4.2159 Z-0.4112 I-0.0312 J0.
X4.2784 Z-0.4332 I0.0312 J0.
X4.2159 Z-0.4553 I-0.0312 J0.
X4.2784 Z-0.4773 I0.0312 J0.
X4.2159 Z-0.4994 I-0.0312 J0.
X4.2784 Z-0.5214 I0.0312 J0.
X4.2577 Y-5.4406 Z-0.53 I-0.0312 J0.
X4.2365 Y-5.4994 I-0.0106 J-0.0294
X4.2577 Y-5.4406 I0.0106 J0.0294
X4.2377 Y-5.45 I-0.0053 J-0.0147 F60.
G1 X4.2345 Y-5.4588
X4.2334 Y-5.4619 Z-0.5297
X4.2324 Y-5.4649 Z-0.5289
X4.2314 Y-5.4676 Z-0.5275
X4.2305 Y-5.4702 Z-0.5256
X4.2297 Y-5.4723 Z-0.5233
X4.229 Y-5.4741 Z-0.5206
X4.2286 Y-5.4754 Z-0.5177
X4.2283 Y-5.4762 Z-0.5145
X4.2282 Y-5.4765 Z-0.5113
G0 Z0.4
X4.4471 Y-6.595
Z0.1113
G1 Z0.05 F60.
X4.4505 Y-6.5984
G3 X4.4539 Y-6.595 I0. J0.0034
X4.4404 Z0.0323 I-0.0067 J0. F80.
X4.4539 Z0.0146 I0.0067 J0.
X4.4404 Z-0.0032 I-0.0067 J0.
X4.4539 Z-0.0209 I0.0067 J0.
X4.4404 Z-0.0386 I-0.0067 J0.
X4.4539 Z-0.0563 I0.0067 J0.
X4.4404 Z-0.074 I-0.0067 J0.
X4.4539 Z-0.0918 I0.0067 J0.
X4.4404 Z-0.1095 I-0.0067 J0.
X4.4539 Z-0.1272 I0.0067 J0.
X4.4404 Z-0.1449 I-0.0067 J0.
X4.4539 Z-0.1627 I0.0067 J0.
X4.4404 Z-0.1804 I-0.0067 J0.
X4.4539 Z-0.1981 I0.0067 J0.
X4.4404 Z-0.2158 I-0.0067 J0.
X4.4539 Z-0.2335 I0.0067 J0.
X4.4404 Z-0.2513 I-0.0067 J0.
X4.4539 Z-0.269 I0.0067 J0.
X4.4404 Z-0.2867 I-0.0067 J0.
X4.4539 Z-0.3044 I0.0067 J0.
X4.4404 Z-0.3221 I-0.0067 J0.
X4.4539 Z-0.3399 I0.0067 J0.
X4.4404 Z-0.3576 I-0.0067 J0.
X4.4539 Z-0.3753 I0.0067 J0.
X4.4404 Z-0.393 I-0.0067 J0.
X4.4539 Z-0.4107 I0.0067 J0.
X4.4404 Z-0.4285 I-0.0067 J0.
X4.4539 Z-0.4462 I0.0067 J0.
X4.4404 Z-0.4639 I-0.0067 J0.
X4.4539 Z-0.4816 I0.0067 J0.
X4.4404 Z-0.4993 I-0.0067 J0.
X4.4539 Z-0.5171 I0.0067 J0.
X4.4427 Y-6.5899 Z-0.53 I-0.0067 J0.
X4.4516 Y-6.6001 I0.0045 J-0.0051
X4.4427 Y-6.5899 I-0.0045 J0.0051
X4.4424 Y-6.5947 I0.0022 J-0.0025 F60.
G1 X4.4471 Y-6.595
G0 Z0.4
Y-7.345
Z0.1113
G1 Z0.05 F60.
X4.4505 Y-7.3484
G3 X4.4539 Y-7.345 I0. J0.0034
X4.4404 Z0.0323 I-0.0067 J0. F80.
X4.4539 Z0.0146 I0.0067 J0.
X4.4404 Z-0.0032 I-0.0067 J0.
X4.4539 Z-0.0209 I0.0067 J0.
X4.4404 Z-0.0386 I-0.0067 J0.
X4.4539 Z-0.0563 I0.0067 J0.
X4.4404 Z-0.074 I-0.0067 J0.
X4.4539 Z-0.0918 I0.0067 J0.
X4.4404 Z-0.1095 I-0.0067 J0.
X4.4539 Z-0.1272 I0.0067 J0.
X4.4404 Z-0.1449 I-0.0067 J0.
X4.4539 Z-0.1627 I0.0067 J0.
X4.4404 Z-0.1804 I-0.0067 J0.
X4.4539 Z-0.1981 I0.0067 J0.
X4.4404 Z-0.2158 I-0.0067 J0.
X4.4539 Z-0.2335 I0.0067 J0.
X4.4404 Z-0.2513 I-0.0067 J0.
X4.4539 Z-0.269 I0.0067 J0.
X4.4404 Z-0.2867 I-0.0067 J0.
X4.4539 Z-0.3044 I0.0067 J0.
X4.4404 Z-0.3221 I-0.0067 J0.
X4.4539 Z-0.3399 I0.0067 J0.
X4.4404 Z-0.3576 I-0.0067 J0.
X4.4526 Y-7.3489 Z-0.3718 I0.0067 J0.
X4.4416 Y-7.3411 Z-0.3895 I-0.0055 J0.0039
X4.443 Y-7.3503 Z-0.3982 I0.0055 J-0.0039
X4.4512 Y-7.3397 Z-0.4159 I0.0041 J0.0053
X4.443 Y-7.3503 Z-0.4336 I-0.0041 J-0.0053
X4.4516 Y-7.34 Z-0.4509 I0.0041 J0.0053
X4.4426 Y-7.35 Z-0.4686 I-0.0045 J-0.005
X4.4516 Y-7.34 Z-0.4864 I0.0045 J0.005
X4.4422 Y-7.3497 Z-0.5036 I-0.0045 J-0.005
X4.452 Y-7.3403 Z-0.5214 I0.0049 J0.0047
X4.4427 Y-7.3399 Z-0.53 I-0.0049 J-0.0047
X4.4516 Y-7.3501 I0.0045 J-0.0051
X4.4427 Y-7.3399 I-0.0045 J0.0051
X4.4424 Y-7.3447 I0.0022 J-0.0025 F60.
G1 X4.4471 Y-7.345
G0 Z0.4
Y-8.095
Z0.1113
G1 Z0.05 F60.
X4.4505 Y-8.0984
G3 X4.4539 Y-8.095 I0. J0.0034
X4.4404 Z0.0323 I-0.0067 J0. F80.
X4.4539 Z0.0146 I0.0068 J0.
X4.4404 Y-8.0945 Z-0.0027 I-0.0068 J0.
X4.4539 Y-8.0955 Z-0.0204 I0.0067 J-0.0005
X4.4479 Y-8.0883 Z-0.0291 I-0.0067 J0.0005
X4.4463 Y-8.1017 Z-0.0468 I-0.0008 J-0.0067
X4.4479 Y-8.0883 Z-0.0645 I0.0008 J0.0067
X4.4463 Y-8.1017 Z-0.0823 I-0.0008 J-0.0067
X4.4479 Y-8.0883 Z-0.1 I0.0008 J0.0067
X4.4406 Y-8.0935 Z-0.1082 I-0.0008 J-0.0067
X4.4537 Y-8.0965 Z-0.1259 I0.0066 J-0.0015
X4.4406 Y-8.0935 Z-0.1436 I-0.0066 J0.0015
X4.4536 Y-8.0971 Z-0.1609 I0.0066 J-0.0015
X4.4407 Y-8.0929 Z-0.1786 I-0.0064 J0.0021
X4.4536 Y-8.0971 Z-0.1964 I0.0064 J-0.0021
X4.4409 Y-8.0925 Z-0.2136 I-0.0064 J0.0021
X4.4534 Y-8.0975 Z-0.2314 I0.0063 J-0.0025
X4.4409 Y-8.0925 Z-0.2491 I-0.0063 J0.0025
X4.4532 Y-8.098 Z-0.2664 I0.0063 J-0.0025
X4.4411 Y-8.092 Z-0.2841 I-0.006 J0.003
X4.4439 Y-8.1009 Z-0.2927 I0.006 J-0.003
X4.4504 Y-8.0891 Z-0.3104 I0.0032 J0.0059
X4.4439 Y-8.1009 Z-0.3282 I-0.0032 J-0.0059
X4.4504 Y-8.0891 Z-0.3459 I0.0032 J0.0059
X4.4439 Y-8.1009 Z-0.3636 I-0.0032 J-0.0059
X4.4526 Y-8.0989 Z-0.3718 I0.0032 J0.0059
X4.4416 Y-8.0911 Z-0.3895 I-0.0055 J0.0039
X4.443 Y-8.1003 Z-0.3982 I0.0055 J-0.0039
X4.4512 Y-8.0897 Z-0.4159 I0.0041 J0.0053
X4.443 Y-8.1003 Z-0.4336 I-0.0041 J-0.0053
X4.4512 Y-8.0897 Z-0.4513 I0.0041 J0.0053
X4.443 Y-8.1003 Z-0.4691 I-0.0041 J-0.0053
X4.452 Y-8.0997 Z-0.4773 I0.0041 J0.0053
X4.4423 Y-8.0903 Z-0.495 I-0.0048 J0.0047
X4.4422 Y-8.0997 Z-0.5036 I0.0048 J-0.0047
X4.452 Y-8.0903 Z-0.5214 I0.0049 J0.0047
X4.4427 Y-8.0899 Z-0.53 I-0.0049 J-0.0047
X4.4516 Y-8.1001 I0.0045 J-0.0051
X4.4427 Y-8.0899 I-0.0045 J0.0051
X4.4424 Y-8.0947 I0.0022 J-0.0025 F60.
G1 X4.4471 Y-8.095
G0 Z0.4
Y-8.845
Z0.1113
G1 Z0.05 F60.
X4.4505 Y-8.8484
G3 X4.4539 Y-8.845 I0. J0.0034
X4.4404 Z0.0323 I-0.0067 J0. F80.
X4.4539 Z0.0146 I0.0067 J0.
X4.4404 Z-0.0032 I-0.0067 J0.
X4.4539 Z-0.0209 I0.0067 J0.
X4.4479 Y-8.8383 Z-0.0291 I-0.0068 J0.
X4.4463 Y-8.8517 Z-0.0468 I-0.0008 J-0.0067
X4.4538 Y-8.846 Z-0.0555 I0.0008 J0.0067
X4.4405 Y-8.844 Z-0.0732 I-0.0067 J0.001
X4.4538 Y-8.846 Z-0.0909 I0.0067 J-0.001
X4.4405 Y-8.844 Z-0.1086 I-0.0067 J0.001
X4.4538 Y-8.846 Z-0.1263 I0.0067 J-0.001
X4.4405 Y-8.844 Z-0.1441 I-0.0067 J0.001
X4.4538 Y-8.846 Z-0.1618 I0.0067 J-0.001
X4.4405 Y-8.844 Z-0.1795 I-0.0067 J0.001
X4.4538 Y-8.846 Z-0.1972 I0.0067 J-0.001
X4.4409 Y-8.8425 Z-0.2136 I-0.0067 J0.001
X4.4534 Y-8.8475 Z-0.2314 I0.0063 J-0.0025
X4.4409 Y-8.8425 Z-0.2491 I-0.0063 J0.0025
X4.4534 Y-8.8475 Z-0.2668 I0.0063 J-0.0025
X4.4409 Y-8.8425 Z-0.2845 I-0.0063 J0.0025
X4.4534 Y-8.8475 Z-0.3022 I0.0063 J-0.0025
X4.4409 Y-8.8425 Z-0.32 I-0.0063 J0.0025
X4.4534 Y-8.8475 Z-0.3377 I0.0063 J-0.0025
X4.4409 Y-8.8425 Z-0.3554 I-0.0063 J0.0025
X4.4534 Y-8.8475 Z-0.3731 I0.0063 J-0.0025
X4.4409 Y-8.8425 Z-0.3908 I-0.0063 J0.0025
X4.4534 Y-8.8475 Z-0.4086 I0.0063 J-0.0025
X4.4409 Y-8.8425 Z-0.4263 I-0.0063 J0.0025
X4.4534 Y-8.8475 Z-0.444 I0.0063 J-0.0025
X4.4409 Y-8.8425 Z-0.4617 I-0.0063 J0.0025
X4.4534 Y-8.8475 Z-0.4794 I0.0063 J-0.0025
X4.4409 Y-8.8425 Z-0.4972 I-0.0063 J0.0025
X4.4534 Y-8.8475 Z-0.5149 I0.0063 J-0.0025
X4.4427 Y-8.8399 Z-0.53 I-0.0063 J0.0025
X4.4516 Y-8.8501 I0.0045 J-0.0051
X4.4427 Y-8.8399 I-0.0045 J0.0051
X4.4424 Y-8.8447 I0.0022 J-0.0025 F60.
G1 X4.4471 Y-8.845
G0 Z0.4
X5.1971 Y-2.595
Z0.1113
G1 Z0.05 F60.
X5.2005 Y-2.5984
G3 X5.2039 Y-2.595 I0. J0.0034
X5.1904 Z0.0323 I-0.0067 J0. F80.
X5.1969 Y-2.6017 Z0.0236 I0.0067 J0.
X5.1974 Y-2.5883 Z0.0059 I0.0003 J0.0067
X5.1969 Y-2.6017 Z-0.0118 I-0.0003 J-0.0067
X5.1979 Y-2.5883 Z-0.0291 I0.0003 J0.0067
X5.1963 Y-2.6017 Z-0.0468 I-0.0008 J-0.0067
X5.1979 Y-2.5883 Z-0.0645 I0.0008 J0.0067
X5.1958 Y-2.6016 Z-0.0818 I-0.0008 J-0.0067
X5.1984 Y-2.5884 Z-0.0995 I0.0013 J0.0066
X5.1906 Y-2.5935 Z-0.1082 I-0.0013 J-0.0066
X5.2037 Y-2.5965 Z-0.1259 I0.0066 J-0.0015
X5.1906 Y-2.5935 Z-0.1436 I-0.0066 J0.0015
X5.2037 Y-2.5965 Z-0.1613 I0.0066 J-0.0015
X5.1906 Y-2.5935 Z-0.1791 I-0.0066 J0.0015
X5.2037 Y-2.5965 Z-0.1968 I0.0066 J-0.0015
X5.1906 Y-2.5935 Z-0.2145 I-0.0066 J0.0015
X5.2037 Y-2.5965 Z-0.2322 I0.0066 J-0.0015
X5.1906 Y-2.5935 Z-0.2499 I-0.0066 J0.0015
X5.2037 Y-2.5965 Z-0.2677 I0.0066 J-0.0015
X5.1906 Y-2.5935 Z-0.2854 I-0.0066 J0.0015
X5.2037 Y-2.5965 Z-0.3031 I0.0066 J-0.0015
X5.1906 Y-2.5935 Z-0.3208 I-0.0066 J0.0015
X5.2037 Y-2.5965 Z-0.3386 I0.0066 J-0.0015
X5.1906 Y-2.5935 Z-0.3563 I-0.0066 J0.0015
X5.2037 Y-2.5965 Z-0.374 I0.0066 J-0.0015
X5.1906 Y-2.5935 Z-0.3917 I-0.0066 J0.0015
X5.2037 Y-2.5965 Z-0.4094 I0.0066 J-0.0015
X5.1906 Y-2.5935 Z-0.4272 I-0.0066 J0.0015
X5.2037 Y-2.5965 Z-0.4449 I0.0066 J-0.0015
X5.1906 Y-2.5935 Z-0.4626 I-0.0066 J0.0015
X5.2037 Y-2.5965 Z-0.4803 I0.0066 J-0.0015
X5.1906 Y-2.5935 Z-0.498 I-0.0066 J0.0015
X5.2037 Y-2.5965 Z-0.5158 I0.0066 J-0.0015
X5.1927 Y-2.5899 Z-0.53 I-0.0066 J0.0015
X5.2016 Y-2.6001 I0.0045 J-0.0051
X5.1927 Y-2.5899 I-0.0045 J0.0051
X5.1924 Y-2.5947 I0.0022 J-0.0025 F60.
G1 X5.1971 Y-2.595
G0 Z0.4
Y0.655
Z0.1113
G1 Z0.05 F60.
X5.2005 Y0.6516
G3 X5.2039 Y0.655 I0. J0.0034
X5.1904 Z0.0323 I-0.0067 J0. F80.
X5.1969 Y0.6483 Z0.0236 I0.0067 J0.
X5.1974 Y0.6617 Z0.0059 I0.0003 J0.0067
X5.1969 Y0.6483 Z-0.0118 I-0.0003 J-0.0067
X5.1974 Y0.6617 Z-0.0295 I0.0003 J0.0067
X5.1969 Y0.6483 Z-0.0472 I-0.0003 J-0.0067
X5.1974 Y0.6617 Z-0.065 I0.0003 J0.0067
X5.1969 Y0.6483 Z-0.0827 I-0.0003 J-0.0067
X5.1974 Y0.6617 Z-0.1004 I0.0003 J0.0067
X5.1969 Y0.6483 Z-0.1181 I-0.0003 J-0.0067
X5.1974 Y0.6617 Z-0.1359 I0.0003 J0.0067
X5.1969 Y0.6483 Z-0.1536 I-0.0003 J-0.0067
X5.1974 Y0.6617 Z-0.1713 I0.0003 J0.0067
X5.1969 Y0.6483 Z-0.189 I-0.0003 J-0.0067
X5.1974 Y0.6617 Z-0.2067 I0.0003 J0.0067
X5.1969 Y0.6483 Z-0.2245 I-0.0003 J-0.0067
X5.1974 Y0.6617 Z-0.2422 I0.0003 J0.0067
X5.1969 Y0.6483 Z-0.2599 I-0.0003 J-0.0067
X5.1974 Y0.6617 Z-0.2776 I0.0003 J0.0067
X5.1969 Y0.6483 Z-0.2953 I-0.0003 J-0.0067
X5.1974 Y0.6617 Z-0.3131 I0.0003 J0.0067
X5.1969 Y0.6483 Z-0.3308 I-0.0003 J-0.0067
X5.1974 Y0.6617 Z-0.3485 I0.0003 J0.0067
X5.1969 Y0.6483 Z-0.3662 I-0.0003 J-0.0067
X5.1974 Y0.6617 Z-0.3839 I0.0003 J0.0067
X5.1969 Y0.6483 Z-0.4017 I-0.0003 J-0.0067
X5.1974 Y0.6617 Z-0.4194 I0.0003 J0.0067
X5.1969 Y0.6483 Z-0.4371 I-0.0003 J-0.0067
X5.1974 Y0.6617 Z-0.4548 I0.0003 J0.0067
X5.1969 Y0.6483 Z-0.4725 I-0.0003 J-0.0067
X5.1974 Y0.6617 Z-0.4903 I0.0003 J0.0067
X5.1969 Y0.6483 Z-0.508 I-0.0003 J-0.0067
X5.1974 Y0.6617 Z-0.5257 I0.0003 J0.0067
X5.1927 Y0.6601 Z-0.53 I-0.0003 J-0.0067
X5.2016 Y0.6499 I0.0045 J-0.0051
X5.1927 Y0.6601 I-0.0045 J0.0051
X5.1924 Y0.6553 I0.0022 J-0.0025 F60.
G1 X5.1971 Y0.655
G0 Z0.6
(.3 CIRCULAR POCKET)
M7
G0 X-4.639 Y2.985
Z0.6
Z0.2
G1 Z0.1181 F13.333
G3 X-4.638 Z0.1121 I0.0018 J0.045
X-4.6351 Z0.1067 I0.0008 J0.045
X-4.6307 Y2.9855 Z0.1025 I-0.002 J0.045
X-4.6252 Y2.9866 Z0.1 I-0.0065 J0.0445
X-4.6491 Y3.0734 Z0.0621 I-0.0119 J0.0434
X-4.6252 Y2.9866 Z0.0242 I0.0119 J-0.0434
X-4.6491 Y3.0734 Z-0.0136 I-0.0119 J0.0434
X-4.6252 Y2.9866 Z-0.0515 I0.0119 J-0.0434
X-4.6491 Y3.0734 Z-0.0894 I-0.0119 J0.0434
X-4.6252 Y2.9866 Z-0.1273 I0.0119 J-0.0434
X-4.6491 Y3.0734 Z-0.1652 I-0.0119 J0.0434
X-4.6252 Y2.9866 Z-0.203 I0.0119 J-0.0434
X-4.5922 Y3.03 Z-0.2188 I-0.0119 J0.0434
X-4.6136 I-0.0107 J0. F80.
X-4.4922 I0.0607 J0.
X-4.7136 I-0.1107 J0.
X-4.4922 I0.1107 J0.
G2 X-4.456 Y3.0933 I0.0734 J0.
G3 X-4.4438 Y3.1652 I-0.0241 J0.041
X-4.8116 Y3.03 I-0.1591 J-0.1352
X-4.3941 I0.2088 J0.
X-4.4438 Y3.1652 I-0.2087 J0.
G2 X-4.4449 Y3.174 I0.0062 J0.0052
G3 X-4.4463 Y3.1827 I-0.0069 J0.0034
X-4.8216 Y3.03 I-0.1566 J-0.1527
X-4.3841 I0.2188 J0.
X-4.4463 Y3.1827 I-0.2188 J0.
X-4.4522 Y3.1868 Z-0.2173 I-0.0134 J-0.0131 F60.
X-4.458 Y3.1883 Z-0.2133 I-0.0076 J-0.0172
X-4.4621 Y3.1882 Z-0.2072 I-0.0017 J-0.0187
X-4.4635 Y3.188 Z-0.2 I0.0024 J-0.0186
G0 Z0.4
X-4.639 Y-5.015
Z0.2
G1 Z0.1181 F13.333
G3 X-4.638 Z0.1121 I0.0018 J0.045
X-4.6351 Z0.1067 I0.0008 J0.045
X-4.6307 Y-5.0145 Z0.1025 I-0.002 J0.045
X-4.6252 Y-5.0134 Z0.1 I-0.0065 J0.0445
X-4.6491 Y-4.9266 Z0.0621 I-0.0119 J0.0434
X-4.6252 Y-5.0134 Z0.0242 I0.0119 J-0.0434
X-4.6491 Y-4.9266 Z-0.0136 I-0.0119 J0.0434
X-4.6252 Y-5.0134 Z-0.0515 I0.0119 J-0.0434
X-4.6491 Y-4.9266 Z-0.0894 I-0.0119 J0.0434
X-4.6252 Y-5.0134 Z-0.1273 I0.0119 J-0.0434
X-4.6491 Y-4.9266 Z-0.1652 I-0.0119 J0.0434
X-4.6252 Y-5.0134 Z-0.203 I0.0119 J-0.0434
X-4.5922 Y-4.97 Z-0.2188 I-0.0119 J0.0434
X-4.6136 I-0.0107 J0. F80.
X-4.4922 I0.0607 J0.
X-4.7136 I-0.1107 J0.
X-4.4922 I0.1107 J0.
G2 X-4.456 Y-4.9067 I0.0734 J0.
G3 X-4.4438 Y-4.8348 I-0.0241 J0.041
X-4.8116 Y-4.97 I-0.1591 J-0.1352
X-4.3941 I0.2088 J0.
X-4.4438 Y-4.8348 I-0.2087 J0.
G2 X-4.4449 Y-4.826 I0.0062 J0.0052
G3 X-4.4463 Y-4.8173 I-0.0069 J0.0034
X-4.8216 Y-4.97 I-0.1566 J-0.1527
X-4.3841 I0.2188 J0.
X-4.4463 Y-4.8173 I-0.2188 J0.
X-4.4522 Y-4.8132 Z-0.2173 I-0.0134 J-0.0131 F60.
X-4.458 Y-4.8117 Z-0.2133 I-0.0076 J-0.0172
X-4.4621 Y-4.8118 Z-0.2072 I-0.0017 J-0.0187
X-4.4635 Y-4.812 Z-0.2 I0.0024 J-0.0186
G0 Z0.4
X4.211 Y-5.515
Z0.2
G1 Z0.1181 F13.333
G3 X4.212 Z0.1121 I0.0018 J0.045
X4.2149 Z0.1067 I0.0008 J0.045
X4.2193 Y-5.5145 Z0.1025 I-0.002 J0.045
X4.2248 Y-5.5134 Z0.1 I-0.0065 J0.0445
X4.2009 Y-5.4266 Z0.0621 I-0.0119 J0.0434
X4.2248 Y-5.5134 Z0.0242 I0.0119 J-0.0434
X4.2009 Y-5.4266 Z-0.0136 I-0.0119 J0.0434
X4.2248 Y-5.5134 Z-0.0515 I0.0119 J-0.0434
X4.2009 Y-5.4266 Z-0.0894 I-0.0119 J0.0434
X4.2248 Y-5.5134 Z-0.1273 I0.0119 J-0.0434
X4.2009 Y-5.4266 Z-0.1652 I-0.0119 J0.0434
X4.2248 Y-5.5134 Z-0.203 I0.0119 J-0.0434
X4.2578 Y-5.47 Z-0.2188 I-0.0119 J0.0434
X4.2364 I-0.0107 J0. F80.
X4.3578 I0.0607 J0.
X4.1364 I-0.1107 J0.
X4.3578 I0.1107 J0.
G2 X4.394 Y-5.4067 I0.0734 J0.
G3 X4.4062 Y-5.3348 I-0.0241 J0.041
X4.0384 Y-5.47 I-0.1591 J-0.1352
X4.4559 I0.2087 J0.
X4.4062 Y-5.3348 I-0.2087 J0.
G2 X4.4051 Y-5.326 I0.0062 J0.0052
G3 X4.4037 Y-5.3173 I-0.0069 J0.0034
X4.0284 Y-5.47 I-0.1566 J-0.1527
X4.4659 I0.2187 J0.
X4.4037 Y-5.3173 I-0.2187 J0.
X4.3978 Y-5.3132 Z-0.2173 I-0.0134 J-0.0131 F60.
X4.392 Y-5.3117 Z-0.2133 I-0.0076 J-0.0172
X4.3879 Y-5.3118 Z-0.2072 I-0.0017 J-0.0187
X4.3865 Y-5.312 Z-0.2 I0.0024 J-0.0186
G0 Z0.4
X4.211 Y3.485
Z0.2
G1 Z0.1181 F13.333
G3 X4.212 Z0.1121 I0.0018 J0.045
X4.2149 Z0.1067 I0.0008 J0.045
X4.2193 Y3.4855 Z0.1025 I-0.002 J0.045
X4.2248 Y3.4866 Z0.1 I-0.0065 J0.0445
X4.2009 Y3.5734 Z0.0621 I-0.0119 J0.0434
X4.2248 Y3.4866 Z0.0242 I0.0119 J-0.0434
X4.2009 Y3.5734 Z-0.0136 I-0.0119 J0.0434
X4.2248 Y3.4866 Z-0.0515 I0.0119 J-0.0434
X4.2009 Y3.5734 Z-0.0894 I-0.0119 J0.0434
X4.2248 Y3.4866 Z-0.1273 I0.0119 J-0.0434
X4.2009 Y3.5734 Z-0.1652 I-0.0119 J0.0434
X4.2248 Y3.4866 Z-0.203 I0.0119 J-0.0434
X4.2578 Y3.53 Z-0.2188 I-0.0119 J0.0434
X4.2364 I-0.0107 J0. F80.
X4.3578 I0.0607 J0.
X4.1364 I-0.1107 J0.
X4.3578 I0.1107 J0.
G2 X4.394 Y3.5933 I0.0734 J0.
G3 X4.4062 Y3.6652 I-0.0241 J0.041
X4.0384 Y3.53 I-0.1591 J-0.1352
X4.4559 I0.2087 J0.
X4.4062 Y3.6652 I-0.2087 J0.
G2 X4.4051 Y3.674 I0.0062 J0.0052
G3 X4.4037 Y3.6827 I-0.0069 J0.0034
X4.0284 Y3.53 I-0.1566 J-0.1527
X4.4659 I0.2187 J0.
X4.4037 Y3.6827 I-0.2187 J0.
X4.3978 Y3.6868 Z-0.2173 I-0.0134 J-0.0131 F60.
X4.392 Y3.6883 Z-0.2133 I-0.0076 J-0.0172
X4.3879 Y3.6882 Z-0.2072 I-0.0017 J-0.0187
X4.3865 Y3.688 Z-0.2 I0.0024 J-0.0186
G0 Z0.6
(2D SLOT CUT)
M7
G0 X-6.0779 Y-3.062
Z0.6
Z0.2
G1 Z0.119 F13.333
G18 G2 X-6.0591 Z0.1003 I0.0188 K0. F60.
G1 X-6.0404
G17 G3 X-6.0216 Y-3.0433 I0. J0.0187
G1 Y-0.9733 Z-0.2647 F13.333
G19 G3 Y-0.97 Z-0.265 J0.0033 K0.0185
G1 Y6.655 F80.
G17 G2 X-5.3029 Y7.3737 I0.7188 J0.
G1 X4.9471
G2 X5.6659 Y6.655 I0. J-0.7187
G1 Y-8.595
G2 X4.9471 Y-9.3137 I-0.7188 J0.
G1 X-5.3029
G2 X-6.0216 Y-8.595 I0. J0.7187
G1 Y-0.97
Y1.6434 Z-0.4062 F13.333
Z-0.405
Y2.8309
Z-0.4704
Y3.9339 Z-0.53
Y6.655 F80.
G2 X-5.3029 Y7.3737 I0.7188 J0.
G1 X-3.2369
Z-0.405
X-2.0494
Z-0.53 F13.333
X1.9362 F80.
Z-0.405
X3.1237
Z-0.53 F13.333
X4.9471 F80.
G2 X5.6659 Y6.655 I0. J-0.7187
G1 Y1.8739
Z-0.405
Y0.6864
Z-0.53 F13.333
Y-3.9346 F80.
Z-0.405
Y-5.1221
Z-0.53 F13.333
Y-8.595 F80.
G2 X4.9471 Y-9.3137 I-0.7188 J0.
G1 X2.2611
Z-0.405
X1.0736
Z-0.53 F13.333
X-2.4777 F80.
Z-0.405
X-3.6652
Z-0.53 F13.333
X-5.3029 F80.
G2 X-6.0216 Y-8.595 I0. J0.7187
G1 Y-3.8135
Z-0.405
Y-2.626
Z-0.53 F13.333
Y1.6434 F80.
Z-0.405
Y2.8309
Z-0.53 F13.333
Y3.9339 F80.
G3 X-6.0404 Y3.9527 I-0.0188 J0. F60.
G1 X-6.0591
G18 G3 X-6.0779 Z-0.5113 I0. K0.0187
G0 Z0.6
G17
M9
G53 G0 Z0.
M30
%
