%
(971-23-P-0052_CAPSTAN CABLE PLATE_1511)
(T1  D=0.1511 CR=0. - ZMIN=-0.28 - FLAT END MILL)
G90 G94 G17 G91.1
G64 P0.001 Q0.001
G20
G53 G0 Z0.
(.3 CIRCLUAR THROUGH HOLE 2)
M9
T1 M6
S22000 M3
G4 P10.
G54
M7
G0 X-2.9438 Y2.3474
G43 Z0.6 H1
G0 Z0.13
G1 Z0.0651 F40.
G19 G3 Y2.3625 Z0.05 J0.0151 K0.
G1 Y2.37
G17 G3 X-2.9563 Y2.3825 I-0.0125 J0.
Y2.3326 Z0.0323 I0. J-0.025
Y2.3825 Z0.0146 I0. J0.025
Y2.3326 Z-0.0032 I0. J-0.025
Y2.3825 Z-0.0209 I0. J0.025
Y2.3326 Z-0.0386 I0. J-0.025
Y2.3825 Z-0.0563 I0. J0.025
Y2.3326 Z-0.074 I0. J-0.025
Y2.3825 Z-0.0918 I0. J0.025
Y2.3326 Z-0.1095 I0. J-0.025
Y2.3825 Z-0.1272 I0. J0.025
Y2.3326 Z-0.1449 I0. J-0.025
Y2.3825 Z-0.1627 I0. J0.025
Y2.3326 Z-0.1804 I0. J-0.025
Y2.3825 Z-0.1981 I0. J0.025
Y2.3326 Z-0.2158 I0. J-0.025
Y2.3825 Z-0.2335 I0. J0.025
Y2.3326 Z-0.2513 I0. J-0.025
Y2.3825 Z-0.269 I0. J0.025
X-2.9794 Y2.3482 Z-0.28 I0. J-0.025
X-2.9332 Y2.3669 I0.0231 J0.0093
X-2.9794 Y2.3482 I-0.0231 J-0.0093
X-2.9632 Y2.3413 I0.0116 J0.0047
G1 X-2.9562 Y2.3442
X-2.9535 Y2.3453 Z-0.2797
X-2.9508 Y2.3463 Z-0.2788
X-2.9484 Y2.3473 Z-0.2775
X-2.9463 Y2.3482 Z-0.2756
X-2.9445 Y2.3489 Z-0.2733
X-2.9432 Y2.3494 Z-0.2707
X-2.9425 Y2.3497 Z-0.2678
X-2.9422 Y2.3498 Z-0.2649
G0 Z0.4
X-1.6315 Y3.3932
Z0.13
G1 Z0.0651 F40.
G19 G3 Y3.4083 Z0.05 J0.0151 K0.
G1 Y3.4159
G17 G3 X-1.6406 Y3.425 I-0.0091 J0.
Y3.3886 Z0.0335 I0. J-0.0182
Y3.425 Z0.0169 I0. J0.0182
Y3.3886 Z0.0004 I0. J-0.0182
Y3.425 Z-0.0161 I0. J0.0182
Y3.3886 Z-0.0327 I0. J-0.0182
Y3.425 Z-0.0492 I0. J0.0182
Y3.3886 Z-0.0657 I0. J-0.0182
Y3.425 Z-0.0822 I0. J0.0182
Y3.3886 Z-0.0988 I0. J-0.0182
Y3.425 Z-0.1153 I0. J0.0182
Y3.3886 Z-0.1318 I0. J-0.0182
Y3.425 Z-0.1484 I0. J0.0182
Y3.3886 Z-0.1649 I0. J-0.0182
Y3.425 Z-0.1814 I0. J0.0182
Y3.3886 Z-0.198 I0. J-0.0182
Y3.425 Z-0.2145 I0. J0.0182
Y3.3886 Z-0.231 I0. J-0.0182
Y3.425 Z-0.2476 I0. J0.0182
Y3.3886 Z-0.2641 I0. J-0.0182
X-1.6385 Y3.4249 Z-0.28 I0. J0.0182
X-1.6427 Y3.3887 I-0.0021 J-0.0181
X-1.6385 Y3.4249 I0.0021 J0.0181
X-1.6486 Y3.4169 I-0.0011 J-0.009
G1 X-1.6495 Y3.4094
X-1.6498 Y3.4065 Z-0.2797
X-1.6502 Y3.4036 Z-0.2788
X-1.6505 Y3.401 Z-0.2775
X-1.6507 Y3.3988 Z-0.2756
X-1.6509 Y3.3969 Z-0.2733
X-1.6511 Y3.3955 Z-0.2707
X-1.6512 Y3.3947 Z-0.2678
Y3.3944 Z-0.2649
G0 Z0.4
X0.0125 Y3.7711
Z0.13
G1 Z0.0651 F40.
G19 G3 Y3.7862 Z0.05 J0.0151 K0.
G1 Y3.7937
G17 G3 X0. Y3.8062 I-0.0125 J0.
Y3.7563 Z0.0323 I0. J-0.025
Y3.8062 Z0.0146 I0. J0.025
Y3.7563 Z-0.0032 I0. J-0.025
Y3.8062 Z-0.0209 I0. J0.025
Y3.7563 Z-0.0386 I0. J-0.025
Y3.8062 Z-0.0563 I0. J0.025
Y3.7563 Z-0.074 I0. J-0.025
Y3.8062 Z-0.0918 I0. J0.025
Y3.7563 Z-0.1095 I0. J-0.025
Y3.8062 Z-0.1272 I0. J0.025
Y3.7563 Z-0.1449 I0. J-0.025
Y3.8062 Z-0.1627 I0. J0.025
Y3.7563 Z-0.1804 I0. J-0.025
Y3.8062 Z-0.1981 I0. J0.025
Y3.7563 Z-0.2158 I0. J-0.025
Y3.8062 Z-0.2335 I0. J0.0249
Y3.7563 Z-0.2513 I0. J-0.0249
Y3.8062 Z-0.269 I0. J0.0249
X-0.0231 Y3.7719 Z-0.28 I0. J-0.0249
X0.0231 Y3.7906 I0.0231 J0.0093
X-0.0231 Y3.7719 I-0.0231 J-0.0093
X-0.0069 Y3.765 I0.0116 J0.0047
G1 X0.0001 Y3.7678
X0.0028 Y3.7689 Z-0.2797
X0.0055 Y3.77 Z-0.2788
X0.0079 Y3.771 Z-0.2775
X0.01 Y3.7718 Z-0.2756
X0.0118 Y3.7725 Z-0.2733
X0.0131 Y3.7731 Z-0.2707
X0.0138 Y3.7734 Z-0.2678
X0.0141 Y3.7735 Z-0.2649
G0 Z0.4
X1.6497 Y3.3932
Z0.13
G1 Z0.0651 F40.
G19 G3 Y3.4083 Z0.05 J0.0151 K0.
G1 Y3.4159
G17 G3 X1.6406 Y3.425 I-0.0091 J0.
Y3.3886 Z0.0335 I0. J-0.0182
Y3.425 Z0.0169 I0. J0.0182
Y3.3886 Z0.0004 I0. J-0.0182
Y3.425 Z-0.0161 I0. J0.0182
Y3.3886 Z-0.0327 I0. J-0.0182
Y3.425 Z-0.0492 I0. J0.0182
Y3.3886 Z-0.0657 I0. J-0.0182
Y3.425 Z-0.0822 I0. J0.0182
Y3.3886 Z-0.0988 I0. J-0.0182
Y3.425 Z-0.1153 I0. J0.0182
Y3.3886 Z-0.1318 I0. J-0.0182
Y3.425 Z-0.1484 I0. J0.0182
Y3.3886 Z-0.1649 I0. J-0.0182
Y3.425 Z-0.1814 I0. J0.0182
Y3.3886 Z-0.198 I0. J-0.0182
Y3.425 Z-0.2145 I0. J0.0182
Y3.3886 Z-0.231 I0. J-0.0182
Y3.425 Z-0.2476 I0. J0.0182
Y3.3886 Z-0.2641 I0. J-0.0182
X1.6427 Y3.4249 Z-0.28 I0. J0.0182
X1.6385 Y3.3887 I-0.0021 J-0.0181
X1.6427 Y3.4249 I0.0021 J0.0181
X1.6326 Y3.4169 I-0.0011 J-0.009
G1 X1.6318 Y3.4094
X1.6314 Y3.4065 Z-0.2797
X1.6311 Y3.4036 Z-0.2788
X1.6308 Y3.401 Z-0.2775
X1.6305 Y3.3988 Z-0.2756
X1.6303 Y3.3969 Z-0.2733
X1.6301 Y3.3955 Z-0.2707
X1.63 Y3.3947 Z-0.2678
Y3.3944 Z-0.2649
G0 Z0.4
X2.9688 Y2.3474
Z0.13
G1 Z0.0651 F40.
G19 G3 Y2.3625 Z0.05 J0.0151 K0.
G1 Y2.37
G17 G3 X2.9563 Y2.3825 I-0.0125 J0.
Y2.3326 Z0.0323 I0. J-0.025
Y2.3825 Z0.0146 I0. J0.025
Y2.3326 Z-0.0032 I0. J-0.025
Y2.3825 Z-0.0209 I0. J0.025
Y2.3326 Z-0.0386 I0. J-0.025
Y2.3825 Z-0.0563 I0. J0.025
Y2.3326 Z-0.074 I0. J-0.025
Y2.3825 Z-0.0918 I0. J0.025
Y2.3326 Z-0.1095 I0. J-0.025
Y2.3825 Z-0.1272 I0. J0.025
Y2.3326 Z-0.1449 I0. J-0.025
Y2.3825 Z-0.1627 I0. J0.025
Y2.3326 Z-0.1804 I0. J-0.025
Y2.3825 Z-0.1981 I0. J0.025
Y2.3326 Z-0.2158 I0. J-0.025
Y2.3825 Z-0.2335 I0. J0.025
Y2.3326 Z-0.2513 I0. J-0.025
Y2.3825 Z-0.269 I0. J0.025
X2.9332 Y2.3482 Z-0.28 I0. J-0.025
X2.9794 Y2.3669 I0.0231 J0.0093
X2.9332 Y2.3482 I-0.0231 J-0.0093
X2.9494 Y2.3413 I0.0116 J0.0047
G1 X2.9564 Y2.3442
X2.9591 Y2.3453 Z-0.2797
X2.9618 Y2.3463 Z-0.2788
X2.9642 Y2.3473 Z-0.2775
X2.9663 Y2.3482 Z-0.2756
X2.9681 Y2.3489 Z-0.2733
X2.9694 Y2.3494 Z-0.2707
X2.9701 Y2.3497 Z-0.2678
X2.9704 Y2.3498 Z-0.2649
G0 Z0.4
X3.8183 Y0.3185
Z0.13
G1 Z0.0651 F40.
G19 G3 Y0.3337 Z0.05 J0.0151 K0.
G1 Y0.3412
G17 G3 X3.8092 Y0.3503 I-0.0091 J0.
Y0.3139 Z0.0335 I0. J-0.0182
Y0.3503 Z0.0169 I0. J0.0182
Y0.3139 Z0.0004 I0. J-0.0182
Y0.3503 Z-0.0161 I0. J0.0182
Y0.3139 Z-0.0327 I0. J-0.0182
Y0.3503 Z-0.0492 I0. J0.0182
Y0.3139 Z-0.0657 I0. J-0.0182
Y0.3503 Z-0.0822 I0. J0.0182
Y0.3139 Z-0.0988 I0. J-0.0182
Y0.3503 Z-0.1153 I0. J0.0182
Y0.3139 Z-0.1318 I0. J-0.0182
Y0.3503 Z-0.1484 I0. J0.0182
Y0.3139 Z-0.1649 I0. J-0.0182
Y0.3503 Z-0.1814 I0. J0.0182
Y0.3139 Z-0.198 I0. J-0.0182
Y0.3503 Z-0.2145 I0. J0.0182
Y0.3139 Z-0.231 I0. J-0.0182
Y0.3503 Z-0.2476 I0. J0.0182
Y0.3139 Z-0.2641 I0. J-0.0182
X3.8113 Y0.3502 Z-0.28 I0. J0.0182
X3.8071 Y0.314 I-0.0021 J-0.0181
X3.8113 Y0.3502 I0.0021 J0.0181
X3.8012 Y0.3422 I-0.0011 J-0.009
G1 X3.8003 Y0.3347
X3.8 Y0.3318 Z-0.2797
X3.7997 Y0.329 Z-0.2788
X3.7994 Y0.3264 Z-0.2775
X3.7991 Y0.3241 Z-0.2756
X3.7989 Y0.3222 Z-0.2733
X3.7987 Y0.3208 Z-0.2707
X3.7986 Y0.32 Z-0.2678
Y0.3197 Z-0.2649
G0 Z0.4
X3.703 Y-0.3316
Z0.13
G1 Z0.0651 F40.
G19 G3 Y-0.3165 Z0.05 J0.0151 K0.
G1 Y-0.3089
G17 G3 X3.6939 Y-0.2998 I-0.0091 J0.
Y-0.3362 Z0.0335 I0. J-0.0182
Y-0.2998 Z0.0169 I0. J0.0182
Y-0.3362 Z0.0004 I0. J-0.0182
Y-0.2998 Z-0.0161 I0. J0.0182
Y-0.3362 Z-0.0327 I0. J-0.0182
Y-0.2998 Z-0.0492 I0. J0.0182
Y-0.3362 Z-0.0657 I0. J-0.0182
Y-0.2998 Z-0.0822 I0. J0.0182
Y-0.3362 Z-0.0988 I0. J-0.0182
Y-0.2998 Z-0.1153 I0. J0.0182
Y-0.3362 Z-0.1318 I0. J-0.0182
Y-0.2998 Z-0.1484 I0. J0.0182
Y-0.3362 Z-0.1649 I0. J-0.0182
Y-0.2998 Z-0.1814 I0. J0.0182
Y-0.3362 Z-0.198 I0. J-0.0182
Y-0.2998 Z-0.2145 I0. J0.0182
Y-0.3362 Z-0.231 I0. J-0.0182
Y-0.2998 Z-0.2476 I0. J0.0182
Y-0.3362 Z-0.2641 I0. J-0.0182
X3.6961 Y-0.3 Z-0.28 I0. J0.0182
X3.6918 Y-0.3361 I-0.0021 J-0.0181
X3.6961 Y-0.3 I0.0021 J0.0181
X3.686 Y-0.3079 I-0.0011 J-0.009
G1 X3.6851 Y-0.3154
X3.6847 Y-0.3184 Z-0.2797
X3.6844 Y-0.3212 Z-0.2788
X3.6841 Y-0.3238 Z-0.2775
X3.6838 Y-0.3261 Z-0.2756
X3.6836 Y-0.3279 Z-0.2733
X3.6835 Y-0.3293 Z-0.2707
X3.6834 Y-0.3302 Z-0.2678
X3.6833 Y-0.3304 Z-0.2649
G0 Z0.4
X3.6989 Y-0.8516
Z0.13
G1 Z0.0651 F40.
G19 G3 Y-0.8365 Z0.05 J0.0151 K0.
G1 Y-0.8289
G17 G3 X3.6864 Y-0.8165 I-0.0125 J0.
Y-0.8664 Z0.0323 I0. J-0.0249
Y-0.8165 Z0.0146 I0. J0.025
Y-0.8664 Z-0.0032 I0. J-0.025
Y-0.8165 Z-0.0209 I0. J0.025
Y-0.8664 Z-0.0386 I0. J-0.025
Y-0.8165 Z-0.0563 I0. J0.025
Y-0.8664 Z-0.074 I0. J-0.025
Y-0.8165 Z-0.0918 I0. J0.025
Y-0.8664 Z-0.1095 I0. J-0.025
Y-0.8165 Z-0.1272 I0. J0.025
Y-0.8664 Z-0.1449 I0. J-0.025
Y-0.8165 Z-0.1627 I0. J0.025
Y-0.8664 Z-0.1804 I0. J-0.025
Y-0.8165 Z-0.1981 I0. J0.025
Y-0.8664 Z-0.2158 I0. J-0.025
Y-0.8165 Z-0.2335 I0. J0.025
Y-0.8664 Z-0.2513 I0. J-0.025
Y-0.8165 Z-0.269 I0. J0.025
X3.6633 Y-0.8507 Z-0.28 I0. J-0.025
X3.7096 Y-0.8321 I0.0231 J0.0093
X3.6633 Y-0.8507 I-0.0231 J-0.0093
X3.6795 Y-0.8576 I0.0116 J0.0047
G1 X3.6866 Y-0.8548
X3.6893 Y-0.8537 Z-0.2797
X3.6919 Y-0.8527 Z-0.2788
X3.6943 Y-0.8517 Z-0.2775
X3.6965 Y-0.8508 Z-0.2756
X3.6982 Y-0.8501 Z-0.2733
X3.6995 Y-0.8496 Z-0.2707
X3.7003 Y-0.8493 Z-0.2678
X3.7006 Y-0.8492 Z-0.2649
G0 Z0.4
X2.9654 Y-2.3711
Z0.13
G1 Z0.0651 F40.
G19 G3 Y-2.356 Z0.05 J0.0151 K0.
G1 Y-2.3485
G17 G3 X2.9563 Y-2.3394 I-0.0091 J0.
Y-2.3758 Z0.0335 I0. J-0.0182
Y-2.3394 Z0.0169 I0. J0.0182
Y-2.3758 Z0.0004 I0. J-0.0182
Y-2.3394 Z-0.0161 I0. J0.0182
Y-2.3758 Z-0.0327 I0. J-0.0182
Y-2.3394 Z-0.0492 I0. J0.0182
Y-2.3758 Z-0.0657 I0. J-0.0182
Y-2.3394 Z-0.0822 I0. J0.0182
Y-2.3758 Z-0.0988 I0. J-0.0182
Y-2.3394 Z-0.1153 I0. J0.0182
Y-2.3758 Z-0.1318 I0. J-0.0182
Y-2.3394 Z-0.1484 I0. J0.0182
Y-2.3758 Z-0.1649 I0. J-0.0182
Y-2.3394 Z-0.1814 I0. J0.0182
Y-2.3758 Z-0.198 I0. J-0.0182
Y-2.3394 Z-0.2145 I0. J0.0182
Y-2.3758 Z-0.231 I0. J-0.0182
Y-2.3394 Z-0.2476 I0. J0.0182
Y-2.3758 Z-0.2641 I0. J-0.0182
X2.9584 Y-2.3395 Z-0.28 I0. J0.0182
X2.9542 Y-2.3756 I-0.0021 J-0.0181
X2.9584 Y-2.3395 I0.0021 J0.0181
X2.9483 Y-2.3475 I-0.0011 J-0.009
G1 X2.9474 Y-2.355
X2.9471 Y-2.3579 Z-0.2797
X2.9468 Y-2.3607 Z-0.2788
X2.9465 Y-2.3633 Z-0.2775
X2.9462 Y-2.3656 Z-0.2756
X2.946 Y-2.3675 Z-0.2733
X2.9458 Y-2.3688 Z-0.2707
X2.9457 Y-2.3697 Z-0.2678
Y-2.37 Z-0.2649
G0 Z0.4
X1.6531 Y-3.417
Z0.13
G1 Z0.0651 F40.
G19 G3 Y-3.4019 Z0.05 J0.0151 K0.
G1 Y-3.3943
G17 G3 X1.6406 Y-3.3818 I-0.0125 J0.
Y-3.4317 Z0.0323 I0. J-0.0249
Y-3.3818 Z0.0146 I0. J0.0249
Y-3.4317 Z-0.0032 I0. J-0.0249
Y-3.3818 Z-0.0209 I0. J0.0249
Y-3.4317 Z-0.0386 I0. J-0.0249
Y-3.3818 Z-0.0563 I0. J0.0249
Y-3.4317 Z-0.074 I0. J-0.0249
Y-3.3818 Z-0.0918 I0. J0.0249
Y-3.4317 Z-0.1095 I0. J-0.0249
Y-3.3818 Z-0.1272 I0. J0.025
Y-3.4317 Z-0.1449 I0. J-0.025
Y-3.3818 Z-0.1627 I0. J0.025
Y-3.4317 Z-0.1804 I0. J-0.025
Y-3.3818 Z-0.1981 I0. J0.025
Y-3.4317 Z-0.2158 I0. J-0.025
Y-3.3818 Z-0.2335 I0. J0.025
Y-3.4317 Z-0.2513 I0. J-0.025
Y-3.3818 Z-0.269 I0. J0.025
X1.6175 Y-3.4161 Z-0.28 I0. J-0.025
X1.6638 Y-3.3974 I0.0231 J0.0093
X1.6175 Y-3.4161 I-0.0231 J-0.0093
X1.6337 Y-3.423 I0.0116 J0.0047
G1 X1.6407 Y-3.4202
X1.6435 Y-3.4191 Z-0.2797
X1.6461 Y-3.418 Z-0.2788
X1.6485 Y-3.4171 Z-0.2775
X1.6506 Y-3.4162 Z-0.2756
X1.6524 Y-3.4155 Z-0.2733
X1.6537 Y-3.415 Z-0.2707
X1.6545 Y-3.4147 Z-0.2678
X1.6547 Y-3.4145 Z-0.2649
G0 Z0.4
X0.0091 Y-3.7948
Z0.13
G1 Z0.0651 F40.
G19 G3 Y-3.7797 Z0.05 J0.0151 K0.
G1 Y-3.7721
G17 G3 X0. Y-3.763 I-0.0091 J0.
Y-3.7994 Z0.0335 I0. J-0.0182
Y-3.763 Z0.0169 I0. J0.0182
Y-3.7994 Z0.0004 I0. J-0.0182
Y-3.763 Z-0.0161 I0. J0.0182
Y-3.7994 Z-0.0327 I0. J-0.0182
Y-3.763 Z-0.0492 I0. J0.0182
Y-3.7994 Z-0.0657 I0. J-0.0182
Y-3.763 Z-0.0822 I0. J0.0182
Y-3.7994 Z-0.0988 I0. J-0.0182
Y-3.763 Z-0.1153 I0. J0.0182
Y-3.7994 Z-0.1318 I0. J-0.0182
Y-3.763 Z-0.1484 I0. J0.0182
Y-3.7994 Z-0.1649 I0. J-0.0182
Y-3.763 Z-0.1814 I0. J0.0182
Y-3.7994 Z-0.198 I0. J-0.0182
Y-3.763 Z-0.2145 I0. J0.0182
Y-3.7994 Z-0.231 I0. J-0.0182
Y-3.763 Z-0.2476 I0. J0.0182
Y-3.7994 Z-0.2641 I0. J-0.0182
X0.0021 Y-3.7632 Z-0.28 I0. J0.0182
X-0.0021 Y-3.7993 I-0.0021 J-0.0181
X0.0021 Y-3.7632 I0.0021 J0.0181
X-0.008 Y-3.7712 I-0.0011 J-0.009
G1 X-0.0089 Y-3.7787
X-0.0092 Y-3.7816 Z-0.2797
X-0.0095 Y-3.7844 Z-0.2788
X-0.0098 Y-3.787 Z-0.2775
X-0.0101 Y-3.7893 Z-0.2756
X-0.0103 Y-3.7911 Z-0.2733
X-0.0105 Y-3.7925 Z-0.2707
X-0.0106 Y-3.7934 Z-0.2678
Y-3.7937 Z-0.2649
G0 Z0.4
X-1.6281 Y-3.417
Z0.13
G1 Z0.0651 F40.
G19 G3 Y-3.4019 Z0.05 J0.0151 K0.
G1 Y-3.3943
G17 G3 X-1.6406 Y-3.3818 I-0.0125 J0.
Y-3.4317 Z0.0323 I0. J-0.0249
Y-3.3818 Z0.0146 I0. J0.0249
Y-3.4317 Z-0.0032 I0. J-0.0249
Y-3.3818 Z-0.0209 I0. J0.0249
Y-3.4317 Z-0.0386 I0. J-0.0249
Y-3.3818 Z-0.0563 I0. J0.0249
Y-3.4317 Z-0.074 I0. J-0.0249
Y-3.3818 Z-0.0918 I0. J0.0249
Y-3.4317 Z-0.1095 I0. J-0.0249
Y-3.3818 Z-0.1272 I0. J0.025
Y-3.4317 Z-0.1449 I0. J-0.025
Y-3.3818 Z-0.1627 I0. J0.025
Y-3.4317 Z-0.1804 I0. J-0.025
Y-3.3818 Z-0.1981 I0. J0.025
Y-3.4317 Z-0.2158 I0. J-0.025
Y-3.3818 Z-0.2335 I0. J0.025
Y-3.4317 Z-0.2513 I0. J-0.025
Y-3.3818 Z-0.269 I0. J0.025
X-1.6638 Y-3.4161 Z-0.28 I0. J-0.025
X-1.6175 Y-3.3974 I0.0231 J0.0093
X-1.6638 Y-3.4161 I-0.0231 J-0.0093
X-1.6475 Y-3.423 I0.0116 J0.0047
G1 X-1.6405 Y-3.4202
X-1.6378 Y-3.4191 Z-0.2797
X-1.6352 Y-3.418 Z-0.2788
X-1.6327 Y-3.4171 Z-0.2775
X-1.6306 Y-3.4162 Z-0.2756
X-1.6289 Y-3.4155 Z-0.2733
X-1.6276 Y-3.415 Z-0.2707
X-1.6268 Y-3.4147 Z-0.2678
X-1.6265 Y-3.4145 Z-0.2649
G0 Z0.4
X-2.9472 Y-2.3711
Z0.13
G1 Z0.0651 F40.
G19 G3 Y-2.356 Z0.05 J0.0151 K0.
G1 Y-2.3485
G17 G3 X-2.9563 Y-2.3394 I-0.0091 J0.
Y-2.3758 Z0.0335 I0. J-0.0182
Y-2.3394 Z0.0169 I0. J0.0182
Y-2.3758 Z0.0004 I0. J-0.0182
Y-2.3394 Z-0.0161 I0. J0.0182
Y-2.3758 Z-0.0327 I0. J-0.0182
Y-2.3394 Z-0.0492 I0. J0.0182
Y-2.3758 Z-0.0657 I0. J-0.0182
Y-2.3394 Z-0.0822 I0. J0.0182
Y-2.3758 Z-0.0988 I0. J-0.0182
Y-2.3394 Z-0.1153 I0. J0.0182
Y-2.3758 Z-0.1318 I0. J-0.0182
Y-2.3394 Z-0.1484 I0. J0.0182
Y-2.3758 Z-0.1649 I0. J-0.0182
Y-2.3394 Z-0.1814 I0. J0.0182
Y-2.3758 Z-0.198 I0. J-0.0182
Y-2.3394 Z-0.2145 I0. J0.0182
Y-2.3758 Z-0.231 I0. J-0.0182
Y-2.3394 Z-0.2476 I0. J0.0182
Y-2.3758 Z-0.2641 I0. J-0.0182
X-2.9542 Y-2.3395 Z-0.28 I0. J0.0182
X-2.9584 Y-2.3756 I-0.0021 J-0.0181
X-2.9542 Y-2.3395 I0.0021 J0.0181
X-2.9643 Y-2.3475 I-0.0011 J-0.009
G1 X-2.9652 Y-2.355
X-2.9655 Y-2.3579 Z-0.2797
X-2.9658 Y-2.3607 Z-0.2788
X-2.9661 Y-2.3633 Z-0.2775
X-2.9664 Y-2.3656 Z-0.2756
X-2.9666 Y-2.3675 Z-0.2733
X-2.9668 Y-2.3688 Z-0.2707
X-2.9669 Y-2.3697 Z-0.2678
Y-2.37 Z-0.2649
G0 Z0.4
X-3.674 Y-0.8516
Z0.13
G1 Z0.0651 F40.
G19 G3 Y-0.8365 Z0.05 J0.0151 K0.
G1 Y-0.8289
G17 G3 X-3.6864 Y-0.8165 I-0.0125 J0.
Y-0.8664 Z0.0323 I0. J-0.0249
Y-0.8165 Z0.0146 I0. J0.025
Y-0.8664 Z-0.0032 I0. J-0.025
Y-0.8165 Z-0.0209 I0. J0.025
Y-0.8664 Z-0.0386 I0. J-0.025
Y-0.8165 Z-0.0563 I0. J0.025
Y-0.8664 Z-0.074 I0. J-0.025
Y-0.8165 Z-0.0918 I0. J0.025
Y-0.8664 Z-0.1095 I0. J-0.025
Y-0.8165 Z-0.1272 I0. J0.025
Y-0.8664 Z-0.1449 I0. J-0.025
Y-0.8165 Z-0.1627 I0. J0.025
Y-0.8664 Z-0.1804 I0. J-0.025
Y-0.8165 Z-0.1981 I0. J0.025
Y-0.8664 Z-0.2158 I0. J-0.025
Y-0.8165 Z-0.2335 I0. J0.025
Y-0.8664 Z-0.2513 I0. J-0.025
Y-0.8165 Z-0.269 I0. J0.025
X-3.7096 Y-0.8507 Z-0.28 I0. J-0.025
X-3.6633 Y-0.8321 I0.0231 J0.0093
X-3.7096 Y-0.8507 I-0.0231 J-0.0093
X-3.6933 Y-0.8576 I0.0116 J0.0047
G1 X-3.6863 Y-0.8548
X-3.6836 Y-0.8537 Z-0.2797
X-3.681 Y-0.8527 Z-0.2788
X-3.6786 Y-0.8517 Z-0.2775
X-3.6764 Y-0.8508 Z-0.2756
X-3.6747 Y-0.8501 Z-0.2733
X-3.6734 Y-0.8496 Z-0.2707
X-3.6726 Y-0.8493 Z-0.2678
X-3.6723 Y-0.8492 Z-0.2649
G0 Z0.4
X-3.6848 Y-0.3316
Z0.13
G1 Z0.0651 F40.
G19 G3 Y-0.3165 Z0.05 J0.0151 K0.
G1 Y-0.3089
G17 G3 X-3.6939 Y-0.2998 I-0.0091 J0.
Y-0.3362 Z0.0335 I0. J-0.0182
Y-0.2998 Z0.0169 I0. J0.0182
Y-0.3362 Z0.0004 I0. J-0.0182
Y-0.2998 Z-0.0161 I0. J0.0182
Y-0.3362 Z-0.0327 I0. J-0.0182
Y-0.2998 Z-0.0492 I0. J0.0182
Y-0.3362 Z-0.0657 I0. J-0.0182
Y-0.2998 Z-0.0822 I0. J0.0182
Y-0.3362 Z-0.0988 I0. J-0.0182
Y-0.2998 Z-0.1153 I0. J0.0182
Y-0.3362 Z-0.1318 I0. J-0.0182
Y-0.2998 Z-0.1484 I0. J0.0182
Y-0.3362 Z-0.1649 I0. J-0.0182
Y-0.2998 Z-0.1814 I0. J0.0182
Y-0.3362 Z-0.198 I0. J-0.0182
Y-0.2998 Z-0.2145 I0. J0.0182
Y-0.3362 Z-0.231 I0. J-0.0182
Y-0.2998 Z-0.2476 I0. J0.0182
Y-0.3362 Z-0.2641 I0. J-0.0182
X-3.6918 Y-0.3 Z-0.28 I0. J0.0182
X-3.6961 Y-0.3361 I-0.0021 J-0.0181
X-3.6918 Y-0.3 I0.0021 J0.0181
X-3.7019 Y-0.3079 I-0.0011 J-0.009
G1 X-3.7028 Y-0.3154
X-3.7032 Y-0.3184 Z-0.2797
X-3.7035 Y-0.3212 Z-0.2788
X-3.7038 Y-0.3238 Z-0.2775
X-3.7041 Y-0.3261 Z-0.2756
X-3.7043 Y-0.3279 Z-0.2733
X-3.7044 Y-0.3293 Z-0.2707
X-3.7045 Y-0.3302 Z-0.2678
X-3.7046 Y-0.3304 Z-0.2649
G0 Z0.4
X-3.8001 Y0.3185
Z0.13
G1 Z0.0651 F40.
G19 G3 Y0.3337 Z0.05 J0.0151 K0.
G1 Y0.3412
G17 G3 X-3.8092 Y0.3503 I-0.0091 J0.
Y0.3139 Z0.0335 I0. J-0.0182
Y0.3503 Z0.0169 I0. J0.0182
Y0.3139 Z0.0004 I0. J-0.0182
Y0.3503 Z-0.0161 I0. J0.0182
Y0.3139 Z-0.0327 I0. J-0.0182
Y0.3503 Z-0.0492 I0. J0.0182
Y0.3139 Z-0.0657 I0. J-0.0182
Y0.3503 Z-0.0822 I0. J0.0182
Y0.3139 Z-0.0988 I0. J-0.0182
Y0.3503 Z-0.1153 I0. J0.0182
Y0.3139 Z-0.1318 I0. J-0.0182
Y0.3503 Z-0.1484 I0. J0.0182
Y0.3139 Z-0.1649 I0. J-0.0182
Y0.3503 Z-0.1814 I0. J0.0182
Y0.3139 Z-0.198 I0. J-0.0182
Y0.3503 Z-0.2145 I0. J0.0182
Y0.3139 Z-0.231 I0. J-0.0182
Y0.3503 Z-0.2476 I0. J0.0182
Y0.3139 Z-0.2641 I0. J-0.0182
X-3.8071 Y0.3502 Z-0.28 I0. J0.0182
X-3.8113 Y0.314 I-0.0021 J-0.0181
X-3.8071 Y0.3502 I0.0021 J0.0181
X-3.8172 Y0.3422 I-0.0011 J-0.009
G1 X-3.818 Y0.3347
X-3.8184 Y0.3318 Z-0.2797
X-3.8187 Y0.329 Z-0.2788
X-3.819 Y0.3264 Z-0.2775
X-3.8193 Y0.3241 Z-0.2756
X-3.8195 Y0.3222 Z-0.2733
X-3.8197 Y0.3208 Z-0.2707
X-3.8198 Y0.32 Z-0.2678
Y0.3197 Z-0.2649
G0 Z0.6
(2D SLOT CUT)
M7
G0 X3.6584 Y0.5422
Z0.6
Z0.2
G1 Z0.1 F13.333
X3.6593 Y0.5377 Z0.0992 F30.
G2 X3.6558 Y0.5325 Z0.098 I-0.0044 J-0.0009
G1 X3.565 Y0.5145 Z0.0816
G3 X3.5056 Y0.4258 Z0.0607 I0.0147 J-0.0741
X3.7717 Y0.01 Z-0.0284 I0.6627 J0.1311
G2 X3.9366 Y-0.1574 Z-0.07 I-0.4195 J-0.5783
G3 X3.7717 Y0.01 I-0.5844 J-0.411
G2 X3.5056 Y0.4258 I0.3967 J0.5469
X3.565 Y0.5145 I0.0741 J0.0147
G1 X3.6558 Y0.5325
G3 X3.6593 Y0.5377 I-0.0009 J0.0044
G1 X3.576 Y0.9587
G3 X3.4811 Y1.1935 I-0.6616 J-0.1309
G2 X3.4607 Y1.2349 I0.1685 J0.1087
G3 X3.0713 Y2.017 I-3.4607 J-1.2349
X3.0203 Y2.0384 I-0.0413 J-0.0271
G2 X2.6593 Y2.491 I-0.064 J0.3192
G3 X2.6499 Y2.5455 I-0.0451 J0.0203
X1.892 Y3.1499 I-2.6499 J-2.5455
X1.8368 Y3.147 I-0.0255 J-0.0424
G2 X1.3152 Y3.3981 I-0.1961 J0.2598
G3 X1.283 Y3.4432 I-0.0494 J-0.0013
X0.338 Y3.6589 I-1.283 J-3.4432
X0.2895 Y3.6323 I-0.0045 J-0.0492
G2 X-0.2895 I-0.2895 J0.149
G3 X-0.338 Y3.6589 I-0.044 J-0.0226
X-1.283 Y3.4432 I0.338 J-3.6589
X-1.3152 Y3.3981 I0.0173 J-0.0463
G2 X-1.8368 Y3.147 I-0.3254 J0.0086
G3 X-1.892 Y3.1499 I-0.0298 J-0.0395
X-2.6499 Y2.5455 I1.892 J-3.1499
X-2.6593 Y2.491 I0.0357 J-0.0343
G2 X-3.0203 Y2.0384 I-0.297 J-0.1334
G3 X-3.0713 Y2.017 I-0.0097 J-0.0485
X-3.4607 Y1.2349 I3.0713 J-2.017
G2 X-3.4811 Y1.1935 I-0.1889 J0.0674
G3 X-3.576 Y0.9587 I0.5667 J-0.3657
G1 X-3.6593 Y0.5377
G3 X-3.6558 Y0.5325 I0.0044 J-0.0009
G1 X-3.2633 Y0.4549
G2 X-3.2038 Y0.3661 I-0.0147 J-0.0741
G1 X-3.3831 Y-0.54
G3 X-3.3821 Y-0.7095 I0.4164 J-0.0824
X-3.3691 Y-0.769 I3.3821 J0.7096
G2 X-3.4768 Y-1.0905 I-0.3174 J-0.0724
G3 X-3.4919 Y-1.1437 I0.0318 J-0.0378
X-3.0713 Y-2.017 I3.4919 J1.1437
X-3.0203 Y-2.0384 I0.0413 J0.0271
G2 X-2.6593 Y-2.491 I0.064 J-0.3192
G3 X-2.6499 Y-2.5455 I0.0451 J-0.0203
X-1.892 Y-3.1499 I2.6499 J2.5455
X-1.8368 Y-3.147 I0.0255 J0.0424
G2 X-1.3152 Y-3.3981 I0.1961 J-0.2598
G3 X-1.283 Y-3.4432 I0.0494 J0.0013
X-0.338 Y-3.6589 I1.283 J3.4432
X-0.2895 Y-3.6323 I0.0045 J0.0492
G2 X0.2895 I0.2895 J-0.149
G3 X0.338 Y-3.6589 I0.044 J0.0226
X1.283 Y-3.4432 I-0.338 J3.6589
X1.3152 Y-3.3981 I-0.0173 J0.0463
G2 X1.8368 Y-3.147 I0.3254 J-0.0086
G3 X1.892 Y-3.1499 I0.0298 J0.0395
X2.6499 Y-2.5455 I-1.892 J3.1499
X2.6593 Y-2.491 I-0.0357 J0.0343
G2 X3.0203 Y-2.0384 I0.297 J0.1334
G3 X3.0713 Y-2.017 I0.0097 J0.0485
X3.4919 Y-1.1437 I-3.0713 J2.017
X3.4768 Y-1.0905 I-0.047 J0.0154
G2 X3.3691 Y-0.769 I0.2097 J0.249
G3 X3.3821 Y-0.7095 I-3.369 J0.7691
X3.3831 Y-0.54 I-0.4154 J0.0871
G1 X3.2038 Y0.3661
G2 X3.2633 Y0.4549 I0.0741 J0.0147
G1 X3.3786 Y0.4777
G2 X3.4674 Y0.4182 I0.0147 J-0.0741
G3 X3.7488 Y-0.0215 I0.7009 J0.1386
G2 X4.0182 Y-0.6813 I-0.3966 J-0.5469
G3 X3.7488 Y-0.0215 Z-0.0719 I-0.6661 J0.1129
G2 X3.4674 Y0.4182 Z-0.0733 I0.4195 J0.5783
G3 X3.3786 Y0.4777 Z-0.0736 I-0.0741 J-0.0147
G1 X3.2633 Y0.4549 Z-0.0739
G3 X3.2038 Y0.3661 Z-0.0742 I0.0147 J-0.0741
G1 X3.3831 Y-0.54 Z-0.0765
G2 X3.3821 Y-0.7095 Z-0.077 I-0.4164 J-0.0824
X3.3691 Y-0.769 Z-0.0771 I-3.3821 J0.7096
G3 X3.4768 Y-1.0905 Z-0.078 I0.3174 J-0.0724
G2 X3.4919 Y-1.1437 Z-0.0782 I-0.0318 J-0.0378
X3.0713 Y-2.017 Z-0.0806 I-3.4919 J1.1437
X3.0203 Y-2.0384 Z-0.0808 I-0.0413 J0.0271
G3 X2.6593 Y-2.491 Z-0.0826 I-0.064 J-0.3192
G2 X2.6499 Y-2.5455 Z-0.0828 I-0.0451 J-0.0203
X1.892 Y-3.1499 Z-0.0852 I-2.6499 J2.5455
X1.8368 Y-3.147 Z-0.0854 I-0.0255 J0.0424
G3 X1.3152 Y-3.3981 Z-0.0872 I-0.1961 J-0.2598
G2 X1.283 Y-3.4432 Z-0.0873 I-0.0494 J0.0013
X0.338 Y-3.6589 Z-0.0898 I-1.283 J3.4432
X0.2895 Y-3.6323 Z-0.09 I-0.0045 J0.0492
G3 X-0.2895 Z-0.0918 I-0.2895 J-0.149
G2 X-0.338 Y-3.6589 Z-0.0919 I-0.044 J0.0226
X-1.283 Y-3.4432 Z-0.0944 I0.338 J3.6589
X-1.3152 Y-3.3981 Z-0.0946 I0.0173 J0.0463
G3 X-1.8368 Y-3.147 Z-0.0964 I-0.3254 J-0.0086
G2 X-1.892 Y-3.1499 Z-0.0965 I-0.0298 J0.0395
X-2.6499 Y-2.5455 Z-0.099 I1.892 J3.1499
X-2.6593 Y-2.491 Z-0.0991 I0.0357 J0.0343
G3 X-3.0203 Y-2.0384 Z-0.101 I-0.297 J0.1334
G2 X-3.0713 Y-2.017 Z-0.1011 I-0.0097 J0.0485
X-3.4919 Y-1.1437 Z-0.1036 I3.0713 J2.017
X-3.4768 Y-1.0905 Z-0.1037 I0.047 J0.0154
G3 X-3.3691 Y-0.769 Z-0.1046 I-0.2097 J0.249
G2 X-3.3821 Y-0.7095 Z-0.1048 I3.369 J0.769
X-3.3831 Y-0.54 Z-0.1052 I0.4154 J0.0871
G1 X-3.2038 Y0.3661 Z-0.1076
G3 X-3.2633 Y0.4549 Z-0.1079 I-0.0741 J0.0147
G1 X-3.6558 Y0.5325 Z-0.1089
G2 X-3.6593 Y0.5377 I0.0009 J0.0044
G1 X-3.576 Y0.9587 Z-0.11
G2 X-3.4811 Y1.1935 Z-0.1107 I0.6616 J-0.1309
G3 X-3.4607 Y1.2349 Z-0.1108 I-0.1685 J0.1087
G2 X-3.0713 Y2.017 Z-0.113 I3.4607 J-1.2349
X-3.0203 Y2.0384 Z-0.1132 I0.0413 J-0.0271
G3 X-2.6593 Y2.491 Z-0.115 I0.064 J0.3192
G2 X-2.6499 Y2.5455 Z-0.1151 I0.0451 J0.0203
X-1.892 Y3.1499 Z-0.1176 I2.6499 J-2.5455
X-1.8368 Y3.147 Z-0.1177 I0.0255 J-0.0424
G3 X-1.3152 Y3.3981 Z-0.1196 I0.1961 J0.2598
G2 X-1.283 Y3.4432 Z-0.1197 I0.0494 J-0.0013
X-0.338 Y3.6589 Z-0.1222 I1.283 J-3.4432
X-0.2895 Y3.6323 Z-0.1223 I0.0045 J-0.0492
G3 X0.2895 Z-0.1241 I0.2895 J0.149
G2 X0.338 Y3.6589 Z-0.1243 I0.044 J-0.0226
X1.283 Y3.4432 Z-0.1268 I-0.338 J-3.6589
X1.3152 Y3.3981 Z-0.1269 I-0.0173 J-0.0463
G3 X1.8368 Y3.147 Z-0.1287 I0.3254 J0.0086
G2 X1.892 Y3.1499 Z-0.1289 I0.0298 J-0.0395
X2.6499 Y2.5455 Z-0.1314 I-1.892 J-3.1499
X2.6593 Y2.491 Z-0.1315 I-0.0357 J-0.0343
G3 X3.0203 Y2.0384 Z-0.1333 I0.297 J-0.1334
G2 X3.0713 Y2.017 Z-0.1335 I0.0097 J-0.0485
X3.4607 Y1.2349 Z-0.1357 I-3.0713 J-2.017
G3 X3.4811 Y1.1935 Z-0.1358 I0.1889 J0.0674
G2 X3.576 Y0.9587 Z-0.1365 I-0.5667 J-0.3657
G1 X3.6593 Y0.5377 Z-0.1376
G2 X3.6558 Y0.5325 I-0.0044 J-0.0009
G1 X3.565 Y0.5145 Z-0.1378
G3 X3.5056 Y0.4258 Z-0.1381 I0.0147 J-0.0741
X3.7717 Y0.01 Z-0.1394 I0.6627 J0.1311
G2 X3.9366 Y-0.1574 Z-0.14 I-0.4195 J-0.5783
G3 X3.7717 Y0.01 I-0.5844 J-0.411
G2 X3.5056 Y0.4258 I0.3967 J0.5469
X3.565 Y0.5145 I0.0741 J0.0147
G1 X3.6558 Y0.5325
G3 X3.6593 Y0.5377 I-0.0009 J0.0044
G1 X3.576 Y0.9587
G3 X3.4811 Y1.1935 I-0.6616 J-0.1309
G2 X3.4607 Y1.2349 I0.1685 J0.1087
G3 X3.0713 Y2.017 I-3.4607 J-1.2349
X3.0203 Y2.0384 I-0.0413 J-0.0271
G2 X2.6593 Y2.491 I-0.064 J0.3192
G3 X2.6499 Y2.5455 I-0.0451 J0.0203
X1.892 Y3.1499 I-2.6499 J-2.5455
X1.8368 Y3.147 I-0.0255 J-0.0424
G2 X1.3152 Y3.3981 I-0.1961 J0.2598
G3 X1.283 Y3.4432 I-0.0494 J-0.0013
X0.338 Y3.6589 I-1.283 J-3.4432
X0.2895 Y3.6323 I-0.0045 J-0.0492
G2 X-0.2895 I-0.2895 J0.149
G3 X-0.338 Y3.6589 I-0.044 J-0.0226
X-1.283 Y3.4432 I0.338 J-3.6589
X-1.3152 Y3.3981 I0.0173 J-0.0463
G2 X-1.8368 Y3.147 I-0.3254 J0.0086
G3 X-1.892 Y3.1499 I-0.0298 J-0.0395
X-2.6499 Y2.5455 I1.892 J-3.1499
X-2.6593 Y2.491 I0.0357 J-0.0343
G2 X-3.0203 Y2.0384 I-0.297 J-0.1334
G3 X-3.0713 Y2.017 I-0.0097 J-0.0485
X-3.4607 Y1.2349 I3.0713 J-2.017
G2 X-3.4811 Y1.1935 I-0.1889 J0.0674
G3 X-3.576 Y0.9587 I0.5667 J-0.3657
G1 X-3.6593 Y0.5377
G3 X-3.6558 Y0.5325 I0.0044 J-0.0009
G1 X-3.2633 Y0.4549
G2 X-3.2038 Y0.3661 I-0.0147 J-0.0741
G1 X-3.3831 Y-0.54
G3 X-3.3821 Y-0.7095 I0.4164 J-0.0824
X-3.3691 Y-0.769 I3.3821 J0.7096
G2 X-3.4768 Y-1.0905 I-0.3174 J-0.0724
G3 X-3.4919 Y-1.1437 I0.0318 J-0.0378
X-3.0713 Y-2.017 I3.4919 J1.1437
X-3.0203 Y-2.0384 I0.0413 J0.0271
G2 X-2.6593 Y-2.491 I0.064 J-0.3192
G3 X-2.6499 Y-2.5455 I0.0451 J-0.0203
X-1.892 Y-3.1499 I2.6499 J2.5455
X-1.8368 Y-3.147 I0.0255 J0.0424
G2 X-1.3152 Y-3.3981 I0.1961 J-0.2598
G3 X-1.283 Y-3.4432 I0.0494 J0.0013
X-0.338 Y-3.6589 I1.283 J3.4432
X-0.2895 Y-3.6323 I0.0045 J0.0492
G2 X0.2895 I0.2895 J-0.149
G3 X0.338 Y-3.6589 I0.044 J0.0226
X1.283 Y-3.4432 I-0.338 J3.6589
X1.3152 Y-3.3981 I-0.0173 J0.0463
G2 X1.8368 Y-3.147 I0.3254 J-0.0086
G3 X1.892 Y-3.1499 I0.0298 J0.0395
X2.6499 Y-2.5455 I-1.892 J3.1499
X2.6593 Y-2.491 I-0.0357 J0.0343
G2 X3.0203 Y-2.0384 I0.297 J0.1334
G3 X3.0713 Y-2.017 I0.0097 J0.0485
X3.4919 Y-1.1437 I-3.0713 J2.017
X3.4768 Y-1.0905 I-0.047 J0.0154
G2 X3.3691 Y-0.769 I0.2097 J0.249
G3 X3.3821 Y-0.7095 I-3.369 J0.7691
X3.3831 Y-0.54 I-0.4154 J0.0871
G1 X3.2038 Y0.3661
G2 X3.2633 Y0.4549 I0.0741 J0.0147
G1 X3.3786 Y0.4777
G2 X3.4674 Y0.4182 I0.0147 J-0.0741
G3 X3.7488 Y-0.0215 I0.7009 J0.1386
G2 X4.0182 Y-0.6813 I-0.3966 J-0.5469
G3 X3.7488 Y-0.0215 Z-0.1419 I-0.6661 J0.1129
G2 X3.4674 Y0.4182 Z-0.1433 I0.4195 J0.5783
G3 X3.3786 Y0.4777 Z-0.1436 I-0.0741 J-0.0147
G1 X3.2633 Y0.4549 Z-0.1439
G3 X3.2038 Y0.3661 Z-0.1442 I0.0147 J-0.0741
G1 X3.3831 Y-0.54 Z-0.1465
G2 X3.3821 Y-0.7095 Z-0.147 I-0.4164 J-0.0824
X3.3691 Y-0.769 Z-0.1471 I-3.3821 J0.7096
G3 X3.4768 Y-1.0905 Z-0.148 I0.3174 J-0.0724
G2 X3.4919 Y-1.1437 Z-0.1482 I-0.0318 J-0.0378
X3.0713 Y-2.017 Z-0.1506 I-3.4919 J1.1437
X3.0203 Y-2.0384 Z-0.1508 I-0.0413 J0.0271
G3 X2.6593 Y-2.491 Z-0.1526 I-0.064 J-0.3192
G2 X2.6499 Y-2.5455 Z-0.1528 I-0.0451 J-0.0203
X1.892 Y-3.1499 Z-0.1552 I-2.6499 J2.5455
X1.8368 Y-3.147 Z-0.1554 I-0.0255 J0.0424
G3 X1.3152 Y-3.3981 Z-0.1572 I-0.1961 J-0.2598
G2 X1.283 Y-3.4432 Z-0.1573 I-0.0494 J0.0013
X0.338 Y-3.6589 Z-0.1598 I-1.283 J3.4432
X0.2895 Y-3.6323 Z-0.16 I-0.0045 J0.0492
G3 X-0.2895 Z-0.1618 I-0.2895 J-0.149
G2 X-0.338 Y-3.6589 Z-0.1619 I-0.044 J0.0226
X-1.283 Y-3.4432 Z-0.1644 I0.338 J3.6589
X-1.3152 Y-3.3981 Z-0.1646 I0.0173 J0.0463
G3 X-1.8368 Y-3.147 Z-0.1664 I-0.3254 J-0.0086
G2 X-1.892 Y-3.1499 Z-0.1665 I-0.0298 J0.0395
X-2.6499 Y-2.5455 Z-0.169 I1.892 J3.1499
X-2.6593 Y-2.491 Z-0.1691 I0.0357 J0.0343
G3 X-3.0203 Y-2.0384 Z-0.171 I-0.297 J0.1334
G2 X-3.0713 Y-2.017 Z-0.1711 I-0.0097 J0.0485
X-3.4919 Y-1.1437 Z-0.1736 I3.0713 J2.017
X-3.4768 Y-1.0905 Z-0.1737 I0.047 J0.0154
G3 X-3.3691 Y-0.769 Z-0.1746 I-0.2097 J0.249
G2 X-3.3821 Y-0.7095 Z-0.1748 I3.369 J0.769
X-3.3831 Y-0.54 Z-0.1752 I0.4154 J0.0871
G1 X-3.2038 Y0.3661 Z-0.1776
G3 X-3.2633 Y0.4549 Z-0.1779 I-0.0741 J0.0147
G1 X-3.6558 Y0.5325 Z-0.1789
G2 X-3.6593 Y0.5377 I0.0009 J0.0044
G1 X-3.576 Y0.9587 Z-0.18
G2 X-3.4811 Y1.1935 Z-0.1807 I0.6616 J-0.1309
G3 X-3.4607 Y1.2349 Z-0.1808 I-0.1685 J0.1087
G2 X-3.0713 Y2.017 Z-0.183 I3.4607 J-1.2349
X-3.0203 Y2.0384 Z-0.1832 I0.0413 J-0.0271
G3 X-2.6593 Y2.491 Z-0.185 I0.064 J0.3192
G2 X-2.6499 Y2.5455 Z-0.1851 I0.0451 J0.0203
X-1.892 Y3.1499 Z-0.1876 I2.6499 J-2.5455
X-1.8368 Y3.147 Z-0.1877 I0.0255 J-0.0424
G3 X-1.3152 Y3.3981 Z-0.1896 I0.1961 J0.2598
G2 X-1.283 Y3.4432 Z-0.1897 I0.0494 J-0.0013
X-0.338 Y3.6589 Z-0.1922 I1.283 J-3.4432
X-0.2895 Y3.6323 Z-0.1923 I0.0045 J-0.0492
G3 X0.2895 Z-0.1941 I0.2895 J0.149
G2 X0.338 Y3.6589 Z-0.1943 I0.044 J-0.0226
X1.283 Y3.4432 Z-0.1968 I-0.338 J-3.6589
X1.3152 Y3.3981 Z-0.1969 I-0.0173 J-0.0463
G3 X1.8368 Y3.147 Z-0.1987 I0.3254 J0.0086
G2 X1.892 Y3.1499 Z-0.1989 I0.0298 J-0.0395
X2.6499 Y2.5455 Z-0.2014 I-1.892 J-3.1499
X2.6593 Y2.491 Z-0.2015 I-0.0357 J-0.0343
G3 X3.0203 Y2.0384 Z-0.2033 I0.297 J-0.1334
G2 X3.0713 Y2.017 Z-0.2035 I0.0097 J-0.0485
X3.4607 Y1.2349 Z-0.2057 I-3.0713 J-2.017
G3 X3.4811 Y1.1935 Z-0.2058 I0.1889 J0.0674
G2 X3.576 Y0.9587 Z-0.2065 I-0.5667 J-0.3657
G1 X3.6593 Y0.5377 Z-0.2076
G2 X3.6558 Y0.5325 I-0.0044 J-0.0009
G1 X3.565 Y0.5145 Z-0.2078
G3 X3.5056 Y0.4258 Z-0.2081 I0.0147 J-0.0741
X3.7717 Y0.01 Z-0.2094 I0.6627 J0.1311
G2 X3.9366 Y-0.1574 Z-0.21 I-0.4195 J-0.5783
G3 X3.7717 Y0.01 I-0.5844 J-0.411
G2 X3.5056 Y0.4258 I0.3967 J0.5469
X3.565 Y0.5145 I0.0741 J0.0147
G1 X3.6558 Y0.5325
G3 X3.6593 Y0.5377 I-0.0009 J0.0044
G1 X3.576 Y0.9587
G3 X3.4811 Y1.1935 I-0.6616 J-0.1309
G2 X3.4607 Y1.2349 I0.1685 J0.1087
G3 X3.0713 Y2.017 I-3.4607 J-1.2349
X3.0203 Y2.0384 I-0.0413 J-0.0271
G2 X2.6593 Y2.491 I-0.064 J0.3192
G3 X2.6499 Y2.5455 I-0.0451 J0.0203
X1.892 Y3.1499 I-2.6499 J-2.5455
X1.8368 Y3.147 I-0.0255 J-0.0424
G2 X1.3152 Y3.3981 I-0.1961 J0.2598
G3 X1.283 Y3.4432 I-0.0494 J-0.0013
X0.338 Y3.6589 I-1.283 J-3.4432
X0.2895 Y3.6323 I-0.0045 J-0.0492
G2 X-0.2895 I-0.2895 J0.149
G3 X-0.338 Y3.6589 I-0.044 J-0.0226
X-1.283 Y3.4432 I0.338 J-3.6589
X-1.3152 Y3.3981 I0.0173 J-0.0463
G2 X-1.8368 Y3.147 I-0.3254 J0.0086
G3 X-1.892 Y3.1499 I-0.0298 J-0.0395
X-2.6499 Y2.5455 I1.892 J-3.1499
X-2.6593 Y2.491 I0.0357 J-0.0343
G2 X-3.0203 Y2.0384 I-0.297 J-0.1334
G3 X-3.0713 Y2.017 I-0.0097 J-0.0485
X-3.4607 Y1.2349 I3.0713 J-2.017
G2 X-3.4811 Y1.1935 I-0.1889 J0.0674
G3 X-3.576 Y0.9587 I0.5667 J-0.3657
G1 X-3.6593 Y0.5377
G3 X-3.6558 Y0.5325 I0.0044 J-0.0009
G1 X-3.2633 Y0.4549
G2 X-3.2038 Y0.3661 I-0.0147 J-0.0741
G1 X-3.3831 Y-0.54
G3 X-3.3821 Y-0.7095 I0.4164 J-0.0824
X-3.3691 Y-0.769 I3.3821 J0.7096
G2 X-3.4768 Y-1.0905 I-0.3174 J-0.0724
G3 X-3.4919 Y-1.1437 I0.0318 J-0.0378
X-3.0713 Y-2.017 I3.4919 J1.1437
X-3.0203 Y-2.0384 I0.0413 J0.0271
G2 X-2.6593 Y-2.491 I0.064 J-0.3192
G3 X-2.6499 Y-2.5455 I0.0451 J-0.0203
X-1.892 Y-3.1499 I2.6499 J2.5455
X-1.8368 Y-3.147 I0.0255 J0.0424
G2 X-1.3152 Y-3.3981 I0.1961 J-0.2598
G3 X-1.283 Y-3.4432 I0.0494 J0.0013
X-0.338 Y-3.6589 I1.283 J3.4432
X-0.2895 Y-3.6323 I0.0045 J0.0492
G2 X0.2895 I0.2895 J-0.149
G3 X0.338 Y-3.6589 I0.044 J0.0226
X1.283 Y-3.4432 I-0.338 J3.6589
X1.3152 Y-3.3981 I-0.0173 J0.0463
G2 X1.8368 Y-3.147 I0.3254 J-0.0086
G3 X1.892 Y-3.1499 I0.0298 J0.0395
X2.6499 Y-2.5455 I-1.892 J3.1499
X2.6593 Y-2.491 I-0.0357 J0.0343
G2 X3.0203 Y-2.0384 I0.297 J0.1334
G3 X3.0713 Y-2.017 I0.0097 J0.0485
X3.4919 Y-1.1437 I-3.0713 J2.017
X3.4768 Y-1.0905 I-0.047 J0.0154
G2 X3.3691 Y-0.769 I0.2097 J0.249
G3 X3.3821 Y-0.7095 I-3.369 J0.7691
X3.3831 Y-0.54 I-0.4154 J0.0871
G1 X3.2038 Y0.3661
G2 X3.2633 Y0.4549 I0.0741 J0.0147
G1 X3.3786 Y0.4777
G2 X3.4674 Y0.4182 I0.0147 J-0.0741
G3 X3.7488 Y-0.0215 I0.7009 J0.1386
G2 X4.0182 Y-0.6813 I-0.3966 J-0.5469
G3 X3.7488 Y-0.0215 Z-0.2119 I-0.6661 J0.1129
G2 X3.4674 Y0.4182 Z-0.2133 I0.4195 J0.5783
G3 X3.3786 Y0.4777 Z-0.2136 I-0.0741 J-0.0147
G1 X3.2633 Y0.4549 Z-0.2139
G3 X3.2038 Y0.3661 Z-0.2142 I0.0147 J-0.0741
G1 X3.3831 Y-0.54 Z-0.2165
G2 X3.3821 Y-0.7095 Z-0.217 I-0.4164 J-0.0824
X3.3691 Y-0.769 Z-0.2171 I-3.3821 J0.7096
G3 X3.4768 Y-1.0905 Z-0.218 I0.3174 J-0.0724
G2 X3.4919 Y-1.1437 Z-0.2182 I-0.0318 J-0.0378
X3.0713 Y-2.017 Z-0.2206 I-3.4919 J1.1437
X3.0203 Y-2.0384 Z-0.2208 I-0.0413 J0.0271
G3 X2.6593 Y-2.491 Z-0.2226 I-0.064 J-0.3192
G2 X2.6499 Y-2.5455 Z-0.2228 I-0.0451 J-0.0203
X1.892 Y-3.1499 Z-0.2252 I-2.6499 J2.5455
X1.8368 Y-3.147 Z-0.2254 I-0.0255 J0.0424
G3 X1.3152 Y-3.3981 Z-0.2272 I-0.1961 J-0.2598
G2 X1.283 Y-3.4432 Z-0.2273 I-0.0494 J0.0013
X0.338 Y-3.6589 Z-0.2298 I-1.283 J3.4432
X0.2895 Y-3.6323 Z-0.23 I-0.0045 J0.0492
G3 X-0.2895 Z-0.2318 I-0.2895 J-0.149
G2 X-0.338 Y-3.6589 Z-0.2319 I-0.044 J0.0226
X-1.283 Y-3.4432 Z-0.2344 I0.338 J3.6589
X-1.3152 Y-3.3981 Z-0.2346 I0.0173 J0.0463
G3 X-1.8368 Y-3.147 Z-0.2364 I-0.3254 J-0.0086
G2 X-1.892 Y-3.1499 Z-0.2365 I-0.0298 J0.0395
X-2.6499 Y-2.5455 Z-0.239 I1.892 J3.1499
X-2.6593 Y-2.491 Z-0.2391 I0.0357 J0.0343
G3 X-3.0203 Y-2.0384 Z-0.241 I-0.297 J0.1334
G2 X-3.0713 Y-2.017 Z-0.2411 I-0.0097 J0.0485
X-3.4919 Y-1.1437 Z-0.2436 I3.0713 J2.017
X-3.4768 Y-1.0905 Z-0.2437 I0.047 J0.0154
G3 X-3.3691 Y-0.769 Z-0.2446 I-0.2097 J0.249
G2 X-3.3821 Y-0.7095 Z-0.2448 I3.369 J0.769
X-3.3831 Y-0.54 Z-0.2452 I0.4154 J0.0871
G1 X-3.2038 Y0.3661 Z-0.2476
G3 X-3.2633 Y0.4549 Z-0.2479 I-0.0741 J0.0147
G1 X-3.6558 Y0.5325 Z-0.2489
G2 X-3.6593 Y0.5377 I0.0009 J0.0044
G1 X-3.576 Y0.9587 Z-0.25
G2 X-3.4811 Y1.1935 Z-0.2507 I0.6616 J-0.1309
G3 X-3.4607 Y1.2349 Z-0.2508 I-0.1685 J0.1087
G2 X-3.0713 Y2.017 Z-0.253 I3.4607 J-1.2349
X-3.0203 Y2.0384 Z-0.2532 I0.0413 J-0.0271
G3 X-2.6593 Y2.491 Z-0.255 I0.064 J0.3192
G2 X-2.6499 Y2.5455 Z-0.2551 I0.0451 J0.0203
X-1.892 Y3.1499 Z-0.2576 I2.6499 J-2.5455
X-1.8368 Y3.147 Z-0.2577 I0.0255 J-0.0424
G3 X-1.3152 Y3.3981 Z-0.2596 I0.1961 J0.2598
G2 X-1.283 Y3.4432 Z-0.2597 I0.0494 J-0.0013
X-0.338 Y3.6589 Z-0.2622 I1.283 J-3.4432
X-0.2895 Y3.6323 Z-0.2623 I0.0045 J-0.0492
G3 X0.2895 Z-0.2641 I0.2895 J0.149
G2 X0.338 Y3.6589 Z-0.2643 I0.044 J-0.0226
X1.283 Y3.4432 Z-0.2668 I-0.338 J-3.6589
X1.3152 Y3.3981 Z-0.2669 I-0.0173 J-0.0463
G3 X1.8368 Y3.147 Z-0.2687 I0.3254 J0.0086
G2 X1.892 Y3.1499 Z-0.2689 I0.0298 J-0.0395
X2.6499 Y2.5455 Z-0.2714 I-1.892 J-3.1499
X2.6593 Y2.491 Z-0.2715 I-0.0357 J-0.0343
G3 X3.0203 Y2.0384 Z-0.2733 I0.297 J-0.1334
G2 X3.0713 Y2.017 Z-0.2735 I0.0097 J-0.0485
X3.4607 Y1.2349 Z-0.2757 I-3.0713 J-2.017
G3 X3.4811 Y1.1935 Z-0.2758 I0.1889 J0.0674
G2 X3.576 Y0.9587 Z-0.2765 I-0.5667 J-0.3657
G1 X3.6593 Y0.5377 Z-0.2776
G2 X3.6558 Y0.5325 I-0.0044 J-0.0009
G1 X3.565 Y0.5145 Z-0.2778
G3 X3.5056 Y0.4258 Z-0.2781 I0.0147 J-0.0741
X3.7717 Y0.01 Z-0.2794 I0.6627 J0.1311
G2 X3.9366 Y-0.1574 Z-0.28 I-0.4195 J-0.5783
G3 X3.7717 Y0.01 I-0.5844 J-0.411
G2 X3.5056 Y0.4258 I0.3967 J0.5469
X3.565 Y0.5145 I0.0741 J0.0147
G1 X3.6558 Y0.5325
G3 X3.6593 Y0.5377 I-0.0009 J0.0044
G1 X3.576 Y0.9587
G3 X3.4811 Y1.1935 I-0.6616 J-0.1309
G2 X3.4607 Y1.2349 I0.1685 J0.1087
G3 X3.0713 Y2.017 I-3.4607 J-1.2349
X3.0203 Y2.0384 I-0.0413 J-0.0271
G2 X2.6593 Y2.491 I-0.064 J0.3192
G3 X2.6499 Y2.5455 I-0.0451 J0.0203
X1.892 Y3.1499 I-2.6499 J-2.5455
X1.8368 Y3.147 I-0.0255 J-0.0424
G2 X1.3152 Y3.3981 I-0.1961 J0.2598
G3 X1.283 Y3.4432 I-0.0494 J-0.0013
X0.338 Y3.6589 I-1.283 J-3.4432
X0.2895 Y3.6323 I-0.0045 J-0.0492
G2 X-0.2895 I-0.2895 J0.149
G3 X-0.338 Y3.6589 I-0.044 J-0.0226
X-1.283 Y3.4432 I0.338 J-3.6589
X-1.3152 Y3.3981 I0.0173 J-0.0463
G2 X-1.8368 Y3.147 I-0.3254 J0.0086
G3 X-1.892 Y3.1499 I-0.0298 J-0.0395
X-2.6499 Y2.5455 I1.892 J-3.1499
X-2.6593 Y2.491 I0.0357 J-0.0343
G2 X-3.0203 Y2.0384 I-0.297 J-0.1334
G3 X-3.0713 Y2.017 I-0.0097 J-0.0485
X-3.4607 Y1.2349 I3.0713 J-2.017
G2 X-3.4811 Y1.1935 I-0.1889 J0.0674
G3 X-3.576 Y0.9587 I0.5667 J-0.3657
G1 X-3.6593 Y0.5377
G3 X-3.6558 Y0.5325 I0.0044 J-0.0009
G1 X-3.2633 Y0.4549
G2 X-3.2038 Y0.3661 I-0.0147 J-0.0741
G1 X-3.3831 Y-0.54
G3 X-3.3821 Y-0.7095 I0.4164 J-0.0824
X-3.3691 Y-0.769 I3.3821 J0.7096
G2 X-3.4768 Y-1.0905 I-0.3174 J-0.0724
G3 X-3.4919 Y-1.1437 I0.0318 J-0.0378
X-3.0713 Y-2.017 I3.4919 J1.1437
X-3.0203 Y-2.0384 I0.0413 J0.0271
G2 X-2.6593 Y-2.491 I0.064 J-0.3192
G3 X-2.6499 Y-2.5455 I0.0451 J-0.0203
X-1.892 Y-3.1499 I2.6499 J2.5455
X-1.8368 Y-3.147 I0.0255 J0.0424
G2 X-1.3152 Y-3.3981 I0.1961 J-0.2598
G3 X-1.283 Y-3.4432 I0.0494 J0.0013
X-0.338 Y-3.6589 I1.283 J3.4432
X-0.2895 Y-3.6323 I0.0045 J0.0492
G2 X0.2895 I0.2895 J-0.149
G3 X0.338 Y-3.6589 I0.044 J0.0226
X1.283 Y-3.4432 I-0.338 J3.6589
X1.3152 Y-3.3981 I-0.0173 J0.0463
G2 X1.8368 Y-3.147 I0.3254 J-0.0086
G3 X1.892 Y-3.1499 I0.0298 J0.0395
X2.6499 Y-2.5455 I-1.892 J3.1499
X2.6593 Y-2.491 I-0.0357 J0.0343
G2 X3.0203 Y-2.0384 I0.297 J0.1334
G3 X3.0713 Y-2.017 I0.0097 J0.0485
X3.4919 Y-1.1437 I-3.0713 J2.017
X3.4768 Y-1.0905 I-0.047 J0.0154
G2 X3.3691 Y-0.769 I0.2097 J0.249
G3 X3.3821 Y-0.7095 I-3.369 J0.7691
X3.3831 Y-0.54 I-0.4154 J0.0871
G1 X3.2038 Y0.3661
G2 X3.2633 Y0.4549 I0.0741 J0.0147
G1 X3.3786 Y0.4777
G2 X3.4674 Y0.4182 I0.0147 J-0.0741
G3 X3.7488 Y-0.0215 I0.7009 J0.1386
G2 X4.0182 Y-0.6813 I-0.3966 J-0.5469
G0 Z0.6
(2D SLOT CUT 2)
M7
G0 X3.7467 Y-1.604
Z0.6
Z0.2
G1 Z0.1 F13.333
G3 X4.0182 Y-0.6813 Z-0.07 I-3.7467 J1.6039 F30.
G2 X-4.0182 Y0.6811 I-4.0182 J0.6812
X4.0739 Y-0.1161 I4.0182 J-0.6812
G3 X-4.0739 Y0.1159 Z-0.1058 I-4.0739 J0.116
X4.0182 Y-0.6813 Z-0.14 I4.0739 J-0.116
G2 X-4.0182 Y0.6811 I-4.0182 J0.6812
X4.0739 Y-0.1161 I4.0182 J-0.6812
G3 X-4.0739 Y0.1159 I-4.0739 J0.116
X2.2116 Y-3.4234 I4.0739 J-0.116
G1 Z-0.2006
G3 X3.4369 Y-2.1904 I-2.2116 J3.4233
G1 Z-0.2
G3 X3.7805 Y-1.5225 I-3.4369 J2.1903
G1 Z-0.2076 F13.333
G3 X4.0182 Y-0.6813 I-3.7805 J1.5224 F30.
G1 Z-0.21 F13.333
G2 X3.7805 Y-1.5225 I-4.0182 J0.6812 F30.
G1 Z-0.2
G2 X3.4369 Y-2.1904 I-3.7805 J1.5224
G1 Z-0.21 F13.333
G2 X2.2116 Y-3.4234 I-3.4369 J2.1903 F30.
G1 Z-0.2
G2 X1.5458 Y-3.7711 I-2.2116 J3.4233
G1 Z-0.21 F13.333
G2 X-0.1662 Y-4.0722 I-1.5458 J3.771 F30.
G1 Z-0.2
G2 X-0.9107 Y-3.9726 I0.1662 J4.0722
G1 Z-0.21 F13.333
G2 X-2.4833 Y-3.2317 I0.9107 J3.9725 F30.
G1 Z-0.2
G2 X-3.0341 Y-2.7212 I2.4833 J3.2317
G1 Z-0.21 F13.333
G2 X-3.8921 Y-1.2093 I3.0341 J2.7211 F30.
G1 Z-0.2
G2 X-4.0479 Y-0.4745 I3.892 J1.2092
G1 Z-0.21 F13.333
G2 X-3.8774 Y1.2554 I4.0479 J0.4745 F30.
G1 Z-0.2
G2 X-3.5811 Y1.9456 I3.8774 J-1.2555
G1 Z-0.21 F13.333
G2 X-2.4447 Y3.2609 I3.5811 J-1.9457 F30.
G1 Z-0.2
G2 X-1.8047 Y3.6541 I2.4447 J-3.261
G1 Z-0.21 F13.333
G2 X-0.1179 Y4.0738 I1.8047 J-3.6542 F30.
G1 Z-0.2
G2 X0.6317 Y4.0262 I0.1179 J-4.0739
G1 Z-0.21 F13.333
G2 X2.252 Y3.3968 I-0.6317 J-4.0263 F30.
G1 Z-0.2
G2 X2.8371 Y2.9259 I-2.252 J-3.3969
G1 Z-0.21 F13.333
G2 X3.7983 Y1.4775 I-2.8371 J-2.9259 F30.
G1 Z-0.2
G2 X4.0049 Y0.7554 I-3.7983 J-1.4776
G1 Z-0.21 F13.333
G2 X4.0739 Y-0.1161 I-4.0049 J-0.7555 F30.
G3 X4.0049 Y0.7554 I-4.0739 J0.116
G1 Z-0.2
G3 X3.7983 Y1.4775 I-4.0049 J-0.7555
G1 Z-0.2146 F13.333
G3 X2.8371 Y2.9259 I-3.7983 J-1.4776 F30.
G1 Z-0.2
G3 X2.252 Y3.3968 I-2.8371 J-2.9259
G1 Z-0.2216 F13.333
G3 X0.6317 Y4.0262 I-2.252 J-3.3969 F30.
G1 Z-0.2
G3 X-0.1179 Y4.0738 I-0.6317 J-4.0263
G1 Z-0.2286 F13.333
G3 X-1.8047 Y3.6541 I0.1179 J-4.0739 F30.
G1 Z-0.2
G3 X-2.4447 Y3.2609 I1.8047 J-3.6542
G1 Z-0.2356 F13.333
G3 X-3.5811 Y1.9456 I2.4447 J-3.261 F30.
G1 Z-0.2
G3 X-3.8774 Y1.2554 I3.5811 J-1.9457
G1 Z-0.2426 F13.333
G3 X-4.0479 Y-0.4745 I3.8774 J-1.2555 F30.
G1 Z-0.2
G3 X-3.8921 Y-1.2093 I4.0479 J0.4745
G1 Z-0.2496 F13.333
G3 X-3.0341 Y-2.7212 I3.892 J1.2092 F30.
G1 Z-0.2
G3 X-2.4833 Y-3.2317 I3.0341 J2.7211
G1 Z-0.2566 F13.333
G3 X-0.9107 Y-3.9726 I2.4833 J3.2317 F30.
G1 Z-0.2
G3 X-0.1662 Y-4.0722 I0.9107 J3.9725
G1 Z-0.2636 F13.333
G3 X1.5458 Y-3.7711 I0.1662 J4.0722 F30.
G1 Z-0.2
G3 X2.2116 Y-3.4234 I-1.5458 J3.771
G1 Z-0.2706 F13.333
G3 X3.4369 Y-2.1904 I-2.2116 J3.4233 F30.
G1 Z-0.2
G3 X3.7805 Y-1.5225 I-3.4369 J2.1903
G1 Z-0.2776 F13.333
G3 X4.0182 Y-0.6813 I-3.7805 J1.5224 F30.
G1 Z-0.28 F13.333
G2 X3.7805 Y-1.5225 I-4.0182 J0.6812 F30.
G1 Z-0.2
G2 X3.4369 Y-2.1904 I-3.7805 J1.5224
G1 Z-0.28 F13.333
G2 X2.2116 Y-3.4234 I-3.4369 J2.1903 F30.
G1 Z-0.2
G2 X1.5458 Y-3.7711 I-2.2116 J3.4233
G1 Z-0.28 F13.333
G2 X-0.1662 Y-4.0722 I-1.5458 J3.771 F30.
G1 Z-0.2
G2 X-0.9107 Y-3.9726 I0.1662 J4.0722
G1 Z-0.28 F13.333
G2 X-2.4833 Y-3.2317 I0.9107 J3.9725 F30.
G1 Z-0.2
G2 X-3.0341 Y-2.7212 I2.4833 J3.2317
G1 Z-0.28 F13.333
G2 X-3.8921 Y-1.2093 I3.0341 J2.7211 F30.
G1 Z-0.2
G2 X-4.0479 Y-0.4745 I3.892 J1.2092
G1 Z-0.28 F13.333
G2 X-3.8774 Y1.2554 I4.0479 J0.4745 F30.
G1 Z-0.2
G2 X-3.5811 Y1.9456 I3.8774 J-1.2555
G1 Z-0.28 F13.333
G2 X-2.4447 Y3.2609 I3.5811 J-1.9457 F30.
G1 Z-0.2
G2 X-1.8047 Y3.6541 I2.4447 J-3.261
G1 Z-0.28 F13.333
G2 X-0.1179 Y4.0738 I1.8047 J-3.6542 F30.
G1 Z-0.2
G2 X0.6317 Y4.0262 I0.1179 J-4.0739
G1 Z-0.28 F13.333
G2 X2.252 Y3.3968 I-0.6317 J-4.0263 F30.
G1 Z-0.2
G2 X2.8371 Y2.9259 I-2.252 J-3.3969
G1 Z-0.28 F13.333
G2 X3.7983 Y1.4775 I-2.8371 J-2.9259 F30.
G1 Z-0.2
G2 X4.0049 Y0.7554 I-3.7983 J-1.4776
G1 Z-0.28 F13.333
G2 X4.0739 Y-0.1161 I-4.0049 J-0.7555 F30.
G0 Z0.6
M9
G53 Z0.
M30
%
