%
(971-23-P-0052_CAPSTAN CABLE PLATE_1494)
(T1  D=0.1494 CR=0. - ZMIN=-0.28 - FLAT END MILL)
G90 G94 G17 G91.1
G64 P0.001 Q0.001
G20
G53 G0 Z0.
(.3 CIRCLUAR THROUGH HOLE 2)
M9
T1 M6
S22000 M3
G4 P10.
G54
M7
G0 X-3.7997 Y0.3192
G43 Z0.6 H1
G0 Z0.13
G1 Z0.0649 F40.
G19 G3 Y0.3342 Z0.05 J0.0149 K0.
G1 Y0.3416
G17 G3 X-3.8092 Y0.3512 I-0.0095 J0.
Y0.3131 Z0.0335 I0. J-0.0191
Y0.3512 Z0.0169 I0. J0.0191
Y0.3131 Z0.0004 I0. J-0.0191
Y0.3512 Z-0.0161 I0. J0.0191
Y0.3131 Z-0.0327 I0. J-0.0191
Y0.3512 Z-0.0492 I0. J0.0191
Y0.3131 Z-0.0657 I0. J-0.0191
Y0.3512 Z-0.0822 I0. J0.0191
Y0.3131 Z-0.0988 I0. J-0.0191
Y0.3512 Z-0.1153 I0. J0.0191
Y0.3131 Z-0.1318 I0. J-0.0191
Y0.3512 Z-0.1484 I0. J0.0191
Y0.3131 Z-0.1649 I0. J-0.0191
Y0.3512 Z-0.1814 I0. J0.0191
Y0.3131 Z-0.198 I0. J-0.019
Y0.3512 Z-0.2145 I0. J0.019
Y0.3131 Z-0.231 I0. J-0.019
Y0.3512 Z-0.2476 I0. J0.019
Y0.3131 Z-0.2641 I0. J-0.019
X-3.807 Y0.351 Z-0.28 I0. J0.019
X-3.8114 Y0.3132 I-0.0022 J-0.0189
X-3.807 Y0.351 I0.0022 J0.0189
X-3.8175 Y0.3427 I-0.0011 J-0.0095
G1 X-3.8184 Y0.3353
X-3.8187 Y0.3324 Z-0.2797
X-3.8191 Y0.3296 Z-0.2789
X-3.8194 Y0.327 Z-0.2775
X-3.8196 Y0.3248 Z-0.2756
X-3.8199 Y0.3229 Z-0.2734
X-3.82 Y0.3215 Z-0.2708
X-3.8201 Y0.3207 Z-0.268
Y0.3204 Z-0.2651
G0 Z0.4
X-3.6844 Y-0.3309
Z0.13
G1 Z0.0649 F40.
G19 G3 Y-0.316 Z0.05 J0.0149 K0.
G1 Y-0.3085
G17 G3 X-3.6939 Y-0.299 I-0.0095 J0.
Y-0.3371 Z0.0335 I0. J-0.0191
Y-0.299 Z0.0169 I0. J0.0191
Y-0.3371 Z0.0004 I0. J-0.0191
Y-0.299 Z-0.0161 I0. J0.0191
Y-0.3371 Z-0.0327 I0. J-0.0191
Y-0.299 Z-0.0492 I0. J0.0191
Y-0.3371 Z-0.0657 I0. J-0.0191
Y-0.299 Z-0.0822 I0. J0.0191
Y-0.3371 Z-0.0988 I0. J-0.0191
Y-0.299 Z-0.1153 I0. J0.0191
Y-0.3371 Z-0.1318 I0. J-0.0191
Y-0.299 Z-0.1484 I0. J0.0191
Y-0.3371 Z-0.1649 I0. J-0.0191
Y-0.299 Z-0.1814 I0. J0.0191
Y-0.3371 Z-0.198 I0. J-0.0191
Y-0.299 Z-0.2145 I0. J0.0191
Y-0.3371 Z-0.231 I0. J-0.0191
Y-0.299 Z-0.2476 I0. J0.0191
Y-0.3371 Z-0.2641 I0. J-0.0191
X-3.6917 Y-0.2991 Z-0.28 I0. J0.0191
X-3.6962 Y-0.337 I-0.0022 J-0.0189
X-3.6917 Y-0.2991 I0.0022 J0.0189
X-3.7023 Y-0.3075 I-0.0011 J-0.0095
G1 X-3.7032 Y-0.3149
X-3.7035 Y-0.3178 Z-0.2797
X-3.7038 Y-0.3206 Z-0.2789
X-3.7041 Y-0.3231 Z-0.2775
X-3.7044 Y-0.3254 Z-0.2756
X-3.7046 Y-0.3272 Z-0.2734
X-3.7048 Y-0.3286 Z-0.2708
X-3.7049 Y-0.3294 Z-0.268
Y-0.3297 Z-0.2651
G0 Z0.4
X-3.6735 Y-0.8509
Z0.13
G1 Z0.0649 F40.
G19 G3 Y-0.836 Z0.05 J0.0149 K0.
G1 Y-0.8285
G17 G3 X-3.6864 Y-0.8156 I-0.0129 J0.
Y-0.8672 Z0.0323 I0. J-0.0258
Y-0.8156 Z0.0146 I0. J0.0258
Y-0.8672 Z-0.0032 I0. J-0.0258
Y-0.8156 Z-0.0209 I0. J0.0258
Y-0.8672 Z-0.0386 I0. J-0.0258
Y-0.8156 Z-0.0563 I0. J0.0258
Y-0.8672 Z-0.074 I0. J-0.0258
Y-0.8156 Z-0.0918 I0. J0.0258
Y-0.8672 Z-0.1095 I0. J-0.0258
Y-0.8156 Z-0.1272 I0. J0.0258
Y-0.8672 Z-0.1449 I0. J-0.0258
Y-0.8156 Z-0.1627 I0. J0.0258
Y-0.8672 Z-0.1804 I0. J-0.0258
Y-0.8156 Z-0.1981 I0. J0.0258
Y-0.8672 Z-0.2158 I0. J-0.0258
Y-0.8156 Z-0.2335 I0. J0.0258
Y-0.8672 Z-0.2513 I0. J-0.0258
Y-0.8156 Z-0.269 I0. J0.0258
X-3.7104 Y-0.8511 Z-0.28 I0. J-0.0258
X-3.6625 Y-0.8318 I0.0239 J0.0097
X-3.7104 Y-0.8511 I-0.0239 J-0.0097
X-3.6936 Y-0.8582 I0.012 J0.0048
G1 X-3.6867 Y-0.8554
X-3.684 Y-0.8543 Z-0.2797
X-3.6814 Y-0.8533 Z-0.2789
X-3.679 Y-0.8523 Z-0.2775
X-3.6769 Y-0.8514 Z-0.2756
X-3.6751 Y-0.8508 Z-0.2734
X-3.6739 Y-0.8502 Z-0.2708
X-3.6731 Y-0.8499 Z-0.268
X-3.6728 Y-0.8498 Z-0.2651
G0 Z0.4
X-2.9468 Y-2.3705
Z0.13
G1 Z0.0649 F40.
G19 G3 Y-2.3555 Z0.05 J0.0149 K0.
G1 Y-2.348
G17 G3 X-2.9563 Y-2.3385 I-0.0095 J0.
Y-2.3766 Z0.0335 I0. J-0.019
Y-2.3385 Z0.0169 I0. J0.019
Y-2.3766 Z0.0004 I0. J-0.019
Y-2.3385 Z-0.0161 I0. J0.019
Y-2.3766 Z-0.0327 I0. J-0.019
Y-2.3385 Z-0.0492 I0. J0.019
Y-2.3766 Z-0.0657 I0. J-0.019
Y-2.3385 Z-0.0822 I0. J0.019
Y-2.3766 Z-0.0988 I0. J-0.019
Y-2.3385 Z-0.1153 I0. J0.019
Y-2.3766 Z-0.1318 I0. J-0.019
Y-2.3385 Z-0.1484 I0. J0.019
Y-2.3766 Z-0.1649 I0. J-0.019
Y-2.3385 Z-0.1814 I0. J0.019
Y-2.3766 Z-0.198 I0. J-0.019
Y-2.3385 Z-0.2145 I0. J0.019
Y-2.3766 Z-0.231 I0. J-0.019
Y-2.3385 Z-0.2476 I0. J0.019
Y-2.3766 Z-0.2641 I0. J-0.019
X-2.9541 Y-2.3387 Z-0.28 I0. J0.019
X-2.9585 Y-2.3765 I-0.0022 J-0.0189
X-2.9541 Y-2.3387 I0.0022 J0.0189
X-2.9647 Y-2.347 I-0.0011 J-0.0095
G1 X-2.9655 Y-2.3544
X-2.9659 Y-2.3573 Z-0.2797
X-2.9662 Y-2.3601 Z-0.2789
X-2.9665 Y-2.3627 Z-0.2775
X-2.9667 Y-2.3649 Z-0.2756
X-2.967 Y-2.3668 Z-0.2734
X-2.9671 Y-2.3681 Z-0.2708
X-2.9672 Y-2.369 Z-0.268
X-2.9673 Y-2.3693 Z-0.2651
G0 Z0.4
X-1.6277 Y-3.4163
Z0.13
G1 Z0.0649 F40.
G19 G3 Y-3.4014 Z0.05 J0.0149 K0.
G1 Y-3.3939
G17 G3 X-1.6406 Y-3.381 I-0.0129 J0.
Y-3.4326 Z0.0323 I0. J-0.0258
Y-3.381 Z0.0146 I0. J0.0258
Y-3.4326 Z-0.0032 I0. J-0.0258
Y-3.381 Z-0.0209 I0. J0.0258
Y-3.4326 Z-0.0386 I0. J-0.0258
Y-3.381 Z-0.0563 I0. J0.0258
Y-3.4326 Z-0.074 I0. J-0.0258
Y-3.381 Z-0.0918 I0. J0.0258
Y-3.4326 Z-0.1095 I0. J-0.0258
Y-3.381 Z-0.1272 I0. J0.0258
Y-3.4326 Z-0.1449 I0. J-0.0258
Y-3.381 Z-0.1627 I0. J0.0258
Y-3.4326 Z-0.1804 I0. J-0.0258
Y-3.381 Z-0.1981 I0. J0.0258
Y-3.4326 Z-0.2158 I0. J-0.0258
Y-3.381 Z-0.2335 I0. J0.0258
Y-3.4326 Z-0.2513 I0. J-0.0258
Y-3.381 Z-0.269 I0. J0.0258
X-1.6645 Y-3.4164 Z-0.28 I0. J-0.0258
X-1.6167 Y-3.3971 I0.0239 J0.0097
X-1.6645 Y-3.4164 I-0.0239 J-0.0097
X-1.6478 Y-3.4236 I0.012 J0.0048
G1 X-1.6408 Y-3.4208
X-1.6381 Y-3.4197 Z-0.2797
X-1.6355 Y-3.4186 Z-0.2789
X-1.6331 Y-3.4177 Z-0.2775
X-1.631 Y-3.4168 Z-0.2756
X-1.6293 Y-3.4161 Z-0.2734
X-1.628 Y-3.4156 Z-0.2708
X-1.6272 Y-3.4153 Z-0.268
X-1.627 Y-3.4152 Z-0.2651
G0 Z0.4
X0.0095 Y-3.7941
Z0.13
G1 Z0.0649 F40.
G19 G3 Y-3.7792 Z0.05 J0.0149 K0.
G1 Y-3.7717
G17 G3 X0. Y-3.7622 I-0.0095 J0.
Y-3.8003 Z0.0335 I0. J-0.019
Y-3.7622 Z0.0169 I0. J0.019
Y-3.8003 Z0.0004 I0. J-0.019
Y-3.7622 Z-0.0161 I0. J0.019
Y-3.8003 Z-0.0327 I0. J-0.019
Y-3.7622 Z-0.0492 I0. J0.019
Y-3.8003 Z-0.0657 I0. J-0.019
Y-3.7622 Z-0.0822 I0. J0.019
Y-3.8003 Z-0.0988 I0. J-0.019
Y-3.7622 Z-0.1153 I0. J0.019
Y-3.8003 Z-0.1318 I0. J-0.019
Y-3.7622 Z-0.1484 I0. J0.019
Y-3.8003 Z-0.1649 I0. J-0.019
Y-3.7622 Z-0.1814 I0. J0.019
Y-3.8003 Z-0.198 I0. J-0.019
Y-3.7622 Z-0.2145 I0. J0.019
Y-3.8003 Z-0.231 I0. J-0.019
Y-3.7622 Z-0.2476 I0. J0.019
Y-3.8003 Z-0.2641 I0. J-0.019
X0.0022 Y-3.7623 Z-0.28 I0. J0.019
X-0.0022 Y-3.8002 I-0.0022 J-0.0189
X0.0022 Y-3.7623 I0.0022 J0.0189
X-0.0084 Y-3.7707 I-0.0011 J-0.0095
G1 X-0.0092 Y-3.7781
X-0.0096 Y-3.781 Z-0.2797
X-0.0099 Y-3.7838 Z-0.2789
X-0.0102 Y-3.7863 Z-0.2775
X-0.0104 Y-3.7886 Z-0.2756
X-0.0107 Y-3.7904 Z-0.2734
X-0.0108 Y-3.7918 Z-0.2708
X-0.0109 Y-3.7927 Z-0.268
X-0.011 Y-3.7929 Z-0.2651
G0 Z0.4
X1.6535 Y-3.4163
Z0.13
G1 Z0.0649 F40.
G19 G3 Y-3.4014 Z0.05 J0.0149 K0.
G1 Y-3.3939
G17 G3 X1.6406 Y-3.381 I-0.0129 J0.
Y-3.4326 Z0.0323 I0. J-0.0258
Y-3.381 Z0.0146 I0. J0.0258
Y-3.4326 Z-0.0032 I0. J-0.0258
Y-3.381 Z-0.0209 I0. J0.0258
Y-3.4326 Z-0.0386 I0. J-0.0258
Y-3.381 Z-0.0563 I0. J0.0258
Y-3.4326 Z-0.074 I0. J-0.0258
Y-3.381 Z-0.0918 I0. J0.0258
Y-3.4326 Z-0.1095 I0. J-0.0258
Y-3.381 Z-0.1272 I0. J0.0258
Y-3.4326 Z-0.1449 I0. J-0.0258
Y-3.381 Z-0.1627 I0. J0.0258
Y-3.4326 Z-0.1804 I0. J-0.0258
Y-3.381 Z-0.1981 I0. J0.0258
Y-3.4326 Z-0.2158 I0. J-0.0258
Y-3.381 Z-0.2335 I0. J0.0258
Y-3.4326 Z-0.2513 I0. J-0.0258
Y-3.381 Z-0.269 I0. J0.0258
X1.6167 Y-3.4164 Z-0.28 I0. J-0.0258
X1.6645 Y-3.3971 I0.0239 J0.0097
X1.6167 Y-3.4164 I-0.0239 J-0.0097
X1.6335 Y-3.4236 I0.012 J0.0048
G1 X1.6404 Y-3.4208
X1.6431 Y-3.4197 Z-0.2797
X1.6457 Y-3.4186 Z-0.2789
X1.6481 Y-3.4177 Z-0.2775
X1.6502 Y-3.4168 Z-0.2756
X1.6519 Y-3.4161 Z-0.2734
X1.6532 Y-3.4156 Z-0.2708
X1.654 Y-3.4153 Z-0.268
X1.6543 Y-3.4152 Z-0.2651
G0 Z0.4
X2.9658 Y-2.3705
Z0.13
G1 Z0.0649 F40.
G19 G3 Y-2.3555 Z0.05 J0.0149 K0.
G1 Y-2.348
G17 G3 X2.9563 Y-2.3385 I-0.0095 J0.
Y-2.3766 Z0.0335 I0. J-0.019
Y-2.3385 Z0.0169 I0. J0.019
Y-2.3766 Z0.0004 I0. J-0.019
Y-2.3385 Z-0.0161 I0. J0.019
Y-2.3766 Z-0.0327 I0. J-0.019
Y-2.3385 Z-0.0492 I0. J0.019
Y-2.3766 Z-0.0657 I0. J-0.019
Y-2.3385 Z-0.0822 I0. J0.019
Y-2.3766 Z-0.0988 I0. J-0.019
Y-2.3385 Z-0.1153 I0. J0.019
Y-2.3766 Z-0.1318 I0. J-0.019
Y-2.3385 Z-0.1484 I0. J0.019
Y-2.3766 Z-0.1649 I0. J-0.019
Y-2.3385 Z-0.1814 I0. J0.019
Y-2.3766 Z-0.198 I0. J-0.019
Y-2.3385 Z-0.2145 I0. J0.019
Y-2.3766 Z-0.231 I0. J-0.019
Y-2.3385 Z-0.2476 I0. J0.019
Y-2.3766 Z-0.2641 I0. J-0.019
X2.9585 Y-2.3387 Z-0.28 I0. J0.019
X2.9541 Y-2.3765 I-0.0022 J-0.0189
X2.9585 Y-2.3387 I0.0022 J0.0189
X2.9479 Y-2.347 I-0.0011 J-0.0095
G1 X2.9471 Y-2.3544
X2.9467 Y-2.3573 Z-0.2797
X2.9464 Y-2.3601 Z-0.2789
X2.9461 Y-2.3627 Z-0.2775
X2.9459 Y-2.3649 Z-0.2756
X2.9456 Y-2.3668 Z-0.2734
X2.9455 Y-2.3681 Z-0.2708
X2.9454 Y-2.369 Z-0.268
X2.9453 Y-2.3693 Z-0.2651
G0 Z0.4
X3.6993 Y-0.8509
Z0.13
G1 Z0.0649 F40.
G19 G3 Y-0.836 Z0.05 J0.0149 K0.
G1 Y-0.8285
G17 G3 X3.6864 Y-0.8156 I-0.0129 J0.
Y-0.8672 Z0.0323 I0. J-0.0258
Y-0.8156 Z0.0146 I0. J0.0258
Y-0.8672 Z-0.0032 I0. J-0.0258
Y-0.8156 Z-0.0209 I0. J0.0258
Y-0.8672 Z-0.0386 I0. J-0.0258
Y-0.8156 Z-0.0563 I0. J0.0258
Y-0.8672 Z-0.074 I0. J-0.0258
Y-0.8156 Z-0.0918 I0. J0.0258
Y-0.8672 Z-0.1095 I0. J-0.0258
Y-0.8156 Z-0.1272 I0. J0.0258
Y-0.8672 Z-0.1449 I0. J-0.0258
Y-0.8156 Z-0.1627 I0. J0.0258
Y-0.8672 Z-0.1804 I0. J-0.0258
Y-0.8156 Z-0.1981 I0. J0.0258
Y-0.8672 Z-0.2158 I0. J-0.0258
Y-0.8156 Z-0.2335 I0. J0.0258
Y-0.8672 Z-0.2513 I0. J-0.0258
Y-0.8156 Z-0.269 I0. J0.0258
X3.6625 Y-0.8511 Z-0.28 I0. J-0.0258
X3.7104 Y-0.8318 I0.0239 J0.0097
X3.6625 Y-0.8511 I-0.0239 J-0.0097
X3.6793 Y-0.8582 I0.012 J0.0048
G1 X3.6862 Y-0.8554
X3.6889 Y-0.8543 Z-0.2797
X3.6915 Y-0.8533 Z-0.2789
X3.6939 Y-0.8523 Z-0.2775
X3.696 Y-0.8514 Z-0.2756
X3.6978 Y-0.8508 Z-0.2734
X3.699 Y-0.8502 Z-0.2708
X3.6998 Y-0.8499 Z-0.268
X3.7001 Y-0.8498 Z-0.2651
G0 Z0.4
X3.7035 Y-0.3309
Z0.13
G1 Z0.0649 F40.
G19 G3 Y-0.316 Z0.05 J0.0149 K0.
G1 Y-0.3085
G17 G3 X3.6939 Y-0.299 I-0.0095 J0.
Y-0.3371 Z0.0335 I0. J-0.0191
Y-0.299 Z0.0169 I0. J0.0191
Y-0.3371 Z0.0004 I0. J-0.0191
Y-0.299 Z-0.0161 I0. J0.0191
Y-0.3371 Z-0.0327 I0. J-0.0191
Y-0.299 Z-0.0492 I0. J0.0191
Y-0.3371 Z-0.0657 I0. J-0.0191
Y-0.299 Z-0.0822 I0. J0.0191
Y-0.3371 Z-0.0988 I0. J-0.0191
Y-0.299 Z-0.1153 I0. J0.0191
Y-0.3371 Z-0.1318 I0. J-0.0191
Y-0.299 Z-0.1484 I0. J0.0191
Y-0.3371 Z-0.1649 I0. J-0.0191
Y-0.299 Z-0.1814 I0. J0.0191
Y-0.3371 Z-0.198 I0. J-0.0191
Y-0.299 Z-0.2145 I0. J0.0191
Y-0.3371 Z-0.231 I0. J-0.0191
Y-0.299 Z-0.2476 I0. J0.0191
Y-0.3371 Z-0.2641 I0. J-0.0191
X3.6962 Y-0.2991 Z-0.28 I0. J0.0191
X3.6917 Y-0.337 I-0.0022 J-0.0189
X3.6962 Y-0.2991 I0.0022 J0.0189
X3.6856 Y-0.3075 I-0.0011 J-0.0095
G1 X3.6847 Y-0.3149
X3.6844 Y-0.3178 Z-0.2797
X3.6841 Y-0.3206 Z-0.2789
X3.6838 Y-0.3231 Z-0.2775
X3.6835 Y-0.3254 Z-0.2756
X3.6833 Y-0.3272 Z-0.2734
X3.6831 Y-0.3286 Z-0.2708
X3.683 Y-0.3294 Z-0.268
Y-0.3297 Z-0.2651
G0 Z0.4
X3.8187 Y0.3192
Z0.13
G1 Z0.0649 F40.
G19 G3 Y0.3342 Z0.05 J0.0149 K0.
G1 Y0.3416
G17 G3 X3.8092 Y0.3512 I-0.0095 J0.
Y0.3131 Z0.0335 I0. J-0.0191
Y0.3512 Z0.0169 I0. J0.0191
Y0.3131 Z0.0004 I0. J-0.0191
Y0.3512 Z-0.0161 I0. J0.0191
Y0.3131 Z-0.0327 I0. J-0.0191
Y0.3512 Z-0.0492 I0. J0.0191
Y0.3131 Z-0.0657 I0. J-0.0191
Y0.3512 Z-0.0822 I0. J0.0191
Y0.3131 Z-0.0988 I0. J-0.0191
Y0.3512 Z-0.1153 I0. J0.0191
Y0.3131 Z-0.1318 I0. J-0.0191
Y0.3512 Z-0.1484 I0. J0.0191
Y0.3131 Z-0.1649 I0. J-0.0191
Y0.3512 Z-0.1814 I0. J0.0191
Y0.3131 Z-0.198 I0. J-0.019
Y0.3512 Z-0.2145 I0. J0.019
Y0.3131 Z-0.231 I0. J-0.019
Y0.3512 Z-0.2476 I0. J0.019
Y0.3131 Z-0.2641 I0. J-0.019
X3.8114 Y0.351 Z-0.28 I0. J0.019
X3.807 Y0.3132 I-0.0022 J-0.0189
X3.8114 Y0.351 I0.0022 J0.0189
X3.8008 Y0.3427 I-0.0011 J-0.0095
G1 X3.8 Y0.3353
X3.7996 Y0.3324 Z-0.2797
X3.7993 Y0.3296 Z-0.2789
X3.799 Y0.327 Z-0.2775
X3.7987 Y0.3248 Z-0.2756
X3.7985 Y0.3229 Z-0.2734
X3.7984 Y0.3215 Z-0.2708
X3.7983 Y0.3207 Z-0.268
X3.7982 Y0.3204 Z-0.2651
G0 Z0.4
X2.9692 Y2.3481
Z0.13
G1 Z0.0649 F40.
G19 G3 Y2.363 Z0.05 J0.0149 K0.
G1 Y2.3705
G17 G3 X2.9563 Y2.3834 I-0.0129 J0.
Y2.3318 Z0.0323 I0. J-0.0258
Y2.3834 Z0.0146 I0. J0.0258
Y2.3318 Z-0.0032 I0. J-0.0258
Y2.3834 Z-0.0209 I0. J0.0258
Y2.3318 Z-0.0386 I0. J-0.0258
Y2.3834 Z-0.0563 I0. J0.0258
Y2.3318 Z-0.074 I0. J-0.0258
Y2.3834 Z-0.0918 I0. J0.0258
Y2.3318 Z-0.1095 I0. J-0.0258
Y2.3834 Z-0.1272 I0. J0.0258
Y2.3318 Z-0.1449 I0. J-0.0258
Y2.3834 Z-0.1627 I0. J0.0258
Y2.3318 Z-0.1804 I0. J-0.0258
Y2.3834 Z-0.1981 I0. J0.0258
Y2.3318 Z-0.2158 I0. J-0.0258
Y2.3834 Z-0.2335 I0. J0.0258
Y2.3318 Z-0.2513 I0. J-0.0258
Y2.3834 Z-0.269 I0. J0.0258
X2.9324 Y2.3479 Z-0.28 I0. J-0.0258
X2.9802 Y2.3672 I0.0239 J0.0097
X2.9324 Y2.3479 I-0.0239 J-0.0097
X2.9492 Y2.3408 I0.012 J0.0048
G1 X2.9561 Y2.3436
X2.9588 Y2.3447 Z-0.2797
X2.9614 Y2.3457 Z-0.2789
X2.9638 Y2.3467 Z-0.2775
X2.9659 Y2.3475 Z-0.2756
X2.9676 Y2.3482 Z-0.2734
X2.9689 Y2.3487 Z-0.2708
X2.9697 Y2.3491 Z-0.268
X2.9699 Y2.3492 Z-0.2651
G0 Z0.4
X1.6501 Y3.3939
Z0.13
G1 Z0.0649 F40.
G19 G3 Y3.4088 Z0.05 J0.0149 K0.
G1 Y3.4163
G17 G3 X1.6406 Y3.4258 I-0.0095 J0.
Y3.3877 Z0.0335 I0. J-0.0191
Y3.4258 Z0.0169 I0. J0.0191
Y3.3877 Z0.0004 I0. J-0.0191
Y3.4258 Z-0.0161 I0. J0.0191
Y3.3877 Z-0.0327 I0. J-0.0191
Y3.4258 Z-0.0492 I0. J0.0191
Y3.3877 Z-0.0657 I0. J-0.0191
Y3.4258 Z-0.0822 I0. J0.0191
Y3.3877 Z-0.0988 I0. J-0.0191
Y3.4258 Z-0.1153 I0. J0.0191
Y3.3877 Z-0.1318 I0. J-0.0191
Y3.4258 Z-0.1484 I0. J0.0191
Y3.3877 Z-0.1649 I0. J-0.0191
Y3.4258 Z-0.1814 I0. J0.0191
Y3.3877 Z-0.198 I0. J-0.0191
Y3.4258 Z-0.2145 I0. J0.0191
Y3.3877 Z-0.231 I0. J-0.0191
Y3.4258 Z-0.2476 I0. J0.0191
Y3.3877 Z-0.2641 I0. J-0.0191
X1.6428 Y3.4257 Z-0.28 I0. J0.0191
X1.6384 Y3.3879 I-0.0022 J-0.0189
X1.6428 Y3.4257 I0.0022 J0.0189
X1.6323 Y3.4174 I-0.0011 J-0.0095
G1 X1.6314 Y3.4099
X1.6311 Y3.407 Z-0.2797
X1.6307 Y3.4043 Z-0.2789
X1.6304 Y3.4017 Z-0.2775
X1.6302 Y3.3994 Z-0.2756
X1.63 Y3.3976 Z-0.2734
X1.6298 Y3.3962 Z-0.2708
X1.6297 Y3.3954 Z-0.268
Y3.3951 Z-0.2651
G0 Z0.4
X0.0129 Y3.7717
Z0.13
G1 Z0.0649 F40.
G19 G3 Y3.7867 Z0.05 J0.0149 K0.
G1 Y3.7941
G17 G3 X0. Y3.8071 I-0.0129 J0.
Y3.7554 Z0.0323 I0. J-0.0258
Y3.8071 Z0.0146 I0. J0.0258
Y3.7554 Z-0.0032 I0. J-0.0258
Y3.8071 Z-0.0209 I0. J0.0258
Y3.7554 Z-0.0386 I0. J-0.0258
Y3.8071 Z-0.0563 I0. J0.0258
Y3.7554 Z-0.074 I0. J-0.0258
Y3.807 Z-0.0918 I0. J0.0258
Y3.7554 Z-0.1095 I0. J-0.0258
Y3.807 Z-0.1272 I0. J0.0258
Y3.7554 Z-0.1449 I0. J-0.0258
Y3.807 Z-0.1627 I0. J0.0258
Y3.7554 Z-0.1804 I0. J-0.0258
Y3.807 Z-0.1981 I0. J0.0258
Y3.7554 Z-0.2158 I0. J-0.0258
Y3.807 Z-0.2335 I0. J0.0258
Y3.7554 Z-0.2513 I0. J-0.0258
Y3.807 Z-0.269 I0. J0.0258
X-0.0239 Y3.7716 Z-0.28 I0. J-0.0258
X0.0239 Y3.7909 I0.0239 J0.0097
X-0.0239 Y3.7716 I-0.0239 J-0.0097
X-0.0071 Y3.7645 I0.012 J0.0048
G1 X-0.0002 Y3.7673
X0.0025 Y3.7683 Z-0.2797
X0.0051 Y3.7694 Z-0.2789
X0.0075 Y3.7704 Z-0.2775
X0.0096 Y3.7712 Z-0.2756
X0.0113 Y3.7719 Z-0.2734
X0.0126 Y3.7724 Z-0.2708
X0.0134 Y3.7727 Z-0.268
X0.0136 Y3.7728 Z-0.2651
G0 Z0.4
X-1.6311 Y3.3939
Z0.13
G1 Z0.0649 F40.
G19 G3 Y3.4088 Z0.05 J0.0149 K0.
G1 Y3.4163
G17 G3 X-1.6406 Y3.4258 I-0.0095 J0.
Y3.3877 Z0.0335 I0. J-0.0191
Y3.4258 Z0.0169 I0. J0.0191
Y3.3877 Z0.0004 I0. J-0.0191
Y3.4258 Z-0.0161 I0. J0.0191
Y3.3877 Z-0.0327 I0. J-0.0191
Y3.4258 Z-0.0492 I0. J0.0191
Y3.3877 Z-0.0657 I0. J-0.0191
Y3.4258 Z-0.0822 I0. J0.0191
Y3.3877 Z-0.0988 I0. J-0.0191
Y3.4258 Z-0.1153 I0. J0.0191
Y3.3877 Z-0.1318 I0. J-0.0191
Y3.4258 Z-0.1484 I0. J0.0191
Y3.3877 Z-0.1649 I0. J-0.0191
Y3.4258 Z-0.1814 I0. J0.0191
Y3.3877 Z-0.198 I0. J-0.0191
Y3.4258 Z-0.2145 I0. J0.0191
Y3.3877 Z-0.231 I0. J-0.0191
Y3.4258 Z-0.2476 I0. J0.0191
Y3.3877 Z-0.2641 I0. J-0.0191
X-1.6384 Y3.4257 Z-0.28 I0. J0.0191
X-1.6428 Y3.3879 I-0.0022 J-0.0189
X-1.6384 Y3.4257 I0.0022 J0.0189
X-1.649 Y3.4174 I-0.0011 J-0.0095
G1 X-1.6498 Y3.4099
X-1.6502 Y3.407 Z-0.2797
X-1.6505 Y3.4043 Z-0.2789
X-1.6508 Y3.4017 Z-0.2775
X-1.6511 Y3.3994 Z-0.2756
X-1.6513 Y3.3976 Z-0.2734
X-1.6514 Y3.3962 Z-0.2708
X-1.6515 Y3.3954 Z-0.268
X-1.6516 Y3.3951 Z-0.2651
G0 Z0.4
X-2.9434 Y2.3481
Z0.13
G1 Z0.0649 F40.
G19 G3 Y2.363 Z0.05 J0.0149 K0.
G1 Y2.3705
G17 G3 X-2.9563 Y2.3834 I-0.0129 J0.
Y2.3318 Z0.0323 I0. J-0.0258
Y2.3834 Z0.0146 I0. J0.0258
Y2.3318 Z-0.0032 I0. J-0.0258
Y2.3834 Z-0.0209 I0. J0.0258
Y2.3318 Z-0.0386 I0. J-0.0258
Y2.3834 Z-0.0563 I0. J0.0258
Y2.3318 Z-0.074 I0. J-0.0258
Y2.3834 Z-0.0918 I0. J0.0258
Y2.3318 Z-0.1095 I0. J-0.0258
Y2.3834 Z-0.1272 I0. J0.0258
Y2.3318 Z-0.1449 I0. J-0.0258
Y2.3834 Z-0.1627 I0. J0.0258
Y2.3318 Z-0.1804 I0. J-0.0258
Y2.3834 Z-0.1981 I0. J0.0258
Y2.3318 Z-0.2158 I0. J-0.0258
Y2.3834 Z-0.2335 I0. J0.0258
Y2.3318 Z-0.2513 I0. J-0.0258
Y2.3834 Z-0.269 I0. J0.0258
X-2.9802 Y2.3479 Z-0.28 I0. J-0.0258
X-2.9324 Y2.3672 I0.0239 J0.0097
X-2.9802 Y2.3479 I-0.0239 J-0.0097
X-2.9634 Y2.3408 I0.012 J0.0048
G1 X-2.9565 Y2.3436
X-2.9538 Y2.3447 Z-0.2797
X-2.9512 Y2.3457 Z-0.2789
X-2.9488 Y2.3467 Z-0.2775
X-2.9467 Y2.3475 Z-0.2756
X-2.945 Y2.3482 Z-0.2734
X-2.9437 Y2.3487 Z-0.2708
X-2.9429 Y2.3491 Z-0.268
X-2.9427 Y2.3492 Z-0.2651
G0 Z0.6
(2D SLOT CUT)
M7
G0 X3.6592 Y0.5427
Z0.6
Z0.2
G1 Z0.1 F13.333
X3.6601 Y0.5379 Z0.0991 F30.
G2 X3.6559 Y0.5317 Z0.0977 I-0.0052 J-0.001
G1 X3.5652 Y0.5137 Z0.0814
G3 X3.5064 Y0.4259 Z0.0607 I0.0145 J-0.0733
X3.7721 Y0.0107 Z-0.0283 I0.6619 J0.1309
G2 X3.9373 Y-0.1569 Z-0.07 I-0.42 J-0.579
G3 X3.7721 Y0.0107 I-0.5851 J-0.4115
G2 X3.5064 Y0.4259 I0.3962 J0.5462
X3.5652 Y0.5137 I0.0733 J0.0145
G1 X3.6559 Y0.5317
G3 X3.6601 Y0.5379 I-0.001 J0.0052
G1 X3.5768 Y0.9589
G3 X3.4818 Y1.194 I-0.6625 J-0.131
G2 X3.4615 Y1.2352 I0.1678 J0.1083
G3 X3.0721 Y2.0175 I-3.4615 J-1.2352
X3.0201 Y2.0392 I-0.042 J-0.0276
G2 X2.6601 Y2.4906 I-0.0638 J0.3184
G3 X2.6505 Y2.5461 I-0.0459 J0.0206
X1.8925 Y3.1506 I-2.6505 J-2.5461
X1.8363 Y3.1476 I-0.0259 J-0.0431
G2 X1.316 Y3.3982 I-0.1956 J0.2591
G3 X1.2833 Y3.444 I-0.0503 J-0.0013
X0.3381 Y3.6597 I-1.2833 J-3.444
X0.2887 Y3.6327 I-0.0046 J-0.0501
G2 X-0.2887 I-0.2887 J0.1486
G3 X-0.3381 Y3.6597 I-0.0447 J-0.023
X-1.2833 Y3.444 I0.338 J-3.6597
X-1.316 Y3.3982 I0.0176 J-0.0471
G2 X-1.8363 Y3.1476 I-0.3246 J0.0086
G3 X-1.8925 Y3.1506 I-0.0303 J-0.0401
X-2.6505 Y2.5461 I1.8925 J-3.1506
X-2.6601 Y2.4906 I0.0363 J-0.0348
G2 X-3.0201 Y2.0392 I-0.2962 J-0.1331
G3 X-3.0721 Y2.0175 I-0.0099 J-0.0493
X-3.4615 Y1.2352 I3.0721 J-2.0175
G2 X-3.4818 Y1.194 I-0.1881 J0.0671
G3 X-3.5768 Y0.9589 I0.5674 J-0.3661
G1 X-3.6601 Y0.5379
G3 X-3.6559 Y0.5317 I0.0052 J-0.001
G1 X-3.2635 Y0.454
G2 X-3.2047 Y0.3663 I-0.0145 J-0.0733
G1 X-3.3839 Y-0.5398
G3 X-3.3829 Y-0.7097 I0.4172 J-0.0825
X-3.3699 Y-0.7692 I3.3829 J0.7097
G2 X-3.4773 Y-1.0898 I-0.3166 J-0.0723
G3 X-3.4927 Y-1.1439 I0.0324 J-0.0385
X-3.0721 Y-2.0175 I3.4927 J1.1439
X-3.0201 Y-2.0392 I0.042 J0.0276
G2 X-2.6601 Y-2.4906 I0.0638 J-0.3184
G3 X-2.6505 Y-2.5461 I0.0459 J-0.0206
X-1.8925 Y-3.1506 I2.6505 J2.5461
X-1.8363 Y-3.1476 I0.0259 J0.0431
G2 X-1.316 Y-3.3982 I0.1956 J-0.2591
G3 X-1.2833 Y-3.444 I0.0503 J0.0013
X-0.3381 Y-3.6597 I1.2833 J3.444
X-0.2887 Y-3.6327 I0.0046 J0.0501
G2 X0.2887 I0.2887 J-0.1486
G3 X0.3381 Y-3.6597 I0.0447 J0.023
X1.2833 Y-3.444 I-0.338 J3.6597
X1.316 Y-3.3982 I-0.0176 J0.0471
G2 X1.8363 Y-3.1476 I0.3246 J-0.0086
G3 X1.8925 Y-3.1506 I0.0303 J0.0401
X2.6505 Y-2.5461 I-1.8925 J3.1506
X2.6601 Y-2.4906 I-0.0363 J0.0348
G2 X3.0201 Y-2.0392 I0.2962 J0.1331
G3 X3.0721 Y-2.0175 I0.0099 J0.0493
X3.4927 Y-1.1439 I-3.0721 J2.0175
X3.4773 Y-1.0898 I-0.0478 J0.0157
G2 X3.3699 Y-0.7692 I0.2091 J0.2484
G3 X3.3829 Y-0.7097 I-3.3699 J0.7692
X3.3839 Y-0.5398 I-0.4162 J0.0873
G1 X3.2047 Y0.3663
G2 X3.2635 Y0.454 I0.0733 J0.0145
G1 X3.3788 Y0.4768
G2 X3.4666 Y0.4181 I0.0145 J-0.0733
G3 X3.7483 Y-0.0222 I0.7017 J0.1388
G2 X4.0174 Y-0.6811 I-0.3961 J-0.5462
G3 X3.7483 Y-0.0222 Z-0.0719 I-0.6652 J0.1128
G2 X3.4666 Y0.4181 Z-0.0733 I0.42 J0.579
G3 X3.3788 Y0.4768 Z-0.0736 I-0.0733 J-0.0145
G1 X3.2635 Y0.454 Z-0.0739
G3 X3.2047 Y0.3663 Z-0.0742 I0.0145 J-0.0733
G1 X3.3839 Y-0.5398 Z-0.0765
G2 X3.3829 Y-0.7097 Z-0.077 I-0.4172 J-0.0825
X3.3699 Y-0.7692 Z-0.0771 I-3.3829 J0.7097
G3 X3.4773 Y-1.0898 Z-0.078 I0.3166 J-0.0723
G2 X3.4927 Y-1.1439 Z-0.0782 I-0.0324 J-0.0385
X3.0721 Y-2.0175 Z-0.0806 I-3.4927 J1.1439
X3.0201 Y-2.0392 Z-0.0808 I-0.042 J0.0276
G3 X2.6601 Y-2.4906 Z-0.0826 I-0.0638 J-0.3184
G2 X2.6505 Y-2.5461 Z-0.0828 I-0.0459 J-0.0206
X1.8925 Y-3.1506 Z-0.0852 I-2.6505 J2.5461
X1.8363 Y-3.1476 Z-0.0854 I-0.0259 J0.0431
G3 X1.316 Y-3.3982 Z-0.0872 I-0.1956 J-0.2591
G2 X1.2833 Y-3.444 Z-0.0873 I-0.0503 J0.0013
X0.3381 Y-3.6597 Z-0.0898 I-1.2833 J3.444
X0.2887 Y-3.6327 Z-0.09 I-0.0046 J0.0501
G3 X-0.2887 Z-0.0918 I-0.2887 J-0.1486
G2 X-0.3381 Y-3.6597 Z-0.0919 I-0.0447 J0.023
X-1.2833 Y-3.444 Z-0.0944 I0.338 J3.6597
X-1.316 Y-3.3982 Z-0.0946 I0.0176 J0.0471
G3 X-1.8363 Y-3.1476 Z-0.0964 I-0.3246 J-0.0086
G2 X-1.8925 Y-3.1506 Z-0.0965 I-0.0303 J0.0401
X-2.6505 Y-2.5461 Z-0.099 I1.8925 J3.1506
X-2.6601 Y-2.4906 Z-0.0991 I0.0363 J0.0348
G3 X-3.0201 Y-2.0392 Z-0.101 I-0.2962 J0.1331
G2 X-3.0721 Y-2.0175 Z-0.1011 I-0.0099 J0.0493
X-3.4927 Y-1.1439 Z-0.1036 I3.0721 J2.0175
X-3.4773 Y-1.0898 Z-0.1037 I0.0478 J0.0157
G3 X-3.3699 Y-0.7692 Z-0.1046 I-0.2091 J0.2484
G2 X-3.3829 Y-0.7097 Z-0.1048 I3.3699 J0.7692
X-3.3839 Y-0.5398 Z-0.1052 I0.4162 J0.0873
G1 X-3.2047 Y0.3663 Z-0.1076
G3 X-3.2635 Y0.454 Z-0.1079 I-0.0733 J0.0145
G1 X-3.6559 Y0.5317 Z-0.1089
G2 X-3.6601 Y0.5379 I0.001 J0.0052
G1 X-3.5768 Y0.9589 Z-0.11
G2 X-3.4818 Y1.194 Z-0.1107 I0.6625 J-0.131
G3 X-3.4615 Y1.2352 Z-0.1108 I-0.1678 J0.1083
G2 X-3.0721 Y2.0175 Z-0.113 I3.4615 J-1.2352
X-3.0201 Y2.0392 Z-0.1132 I0.042 J-0.0276
G3 X-2.6601 Y2.4906 Z-0.115 I0.0638 J0.3184
G2 X-2.6505 Y2.5461 Z-0.1151 I0.0459 J0.0206
X-1.8925 Y3.1506 Z-0.1176 I2.6505 J-2.5461
X-1.8363 Y3.1476 Z-0.1177 I0.0259 J-0.0431
G3 X-1.316 Y3.3982 Z-0.1196 I0.1956 J0.2591
G2 X-1.2833 Y3.444 Z-0.1197 I0.0503 J-0.0013
X-0.3381 Y3.6597 Z-0.1222 I1.2833 J-3.444
X-0.2887 Y3.6327 Z-0.1223 I0.0046 J-0.0501
G3 X0.2887 Z-0.1241 I0.2887 J0.1486
G2 X0.3381 Y3.6597 Z-0.1243 I0.0447 J-0.023
X1.2833 Y3.444 Z-0.1268 I-0.338 J-3.6597
X1.316 Y3.3982 Z-0.1269 I-0.0176 J-0.0471
G3 X1.8363 Y3.1476 Z-0.1287 I0.3246 J0.0086
G2 X1.8925 Y3.1506 Z-0.1289 I0.0303 J-0.0401
X2.6505 Y2.5461 Z-0.1314 I-1.8925 J-3.1506
X2.6601 Y2.4906 Z-0.1315 I-0.0363 J-0.0348
G3 X3.0201 Y2.0392 Z-0.1333 I0.2962 J-0.1331
G2 X3.0721 Y2.0175 Z-0.1335 I0.0099 J-0.0493
X3.4615 Y1.2352 Z-0.1357 I-3.0721 J-2.0175
G3 X3.4818 Y1.194 Z-0.1358 I0.1881 J0.0671
G2 X3.5768 Y0.9589 Z-0.1365 I-0.5674 J-0.3661
G1 X3.6601 Y0.5379 Z-0.1376
G2 X3.6559 Y0.5317 I-0.0052 J-0.001
G1 X3.5652 Y0.5137 Z-0.1378
G3 X3.5064 Y0.4259 Z-0.1381 I0.0145 J-0.0733
X3.7721 Y0.0107 Z-0.1394 I0.6619 J0.1309
G2 X3.9373 Y-0.1569 Z-0.14 I-0.42 J-0.579
G3 X3.7721 Y0.0107 I-0.5851 J-0.4115
G2 X3.5064 Y0.4259 I0.3962 J0.5462
X3.5652 Y0.5137 I0.0733 J0.0145
G1 X3.6559 Y0.5317
G3 X3.6601 Y0.5379 I-0.001 J0.0052
G1 X3.5768 Y0.9589
G3 X3.4818 Y1.194 I-0.6625 J-0.131
G2 X3.4615 Y1.2352 I0.1678 J0.1083
G3 X3.0721 Y2.0175 I-3.4615 J-1.2352
X3.0201 Y2.0392 I-0.042 J-0.0276
G2 X2.6601 Y2.4906 I-0.0638 J0.3184
G3 X2.6505 Y2.5461 I-0.0459 J0.0206
X1.8925 Y3.1506 I-2.6505 J-2.5461
X1.8363 Y3.1476 I-0.0259 J-0.0431
G2 X1.316 Y3.3982 I-0.1956 J0.2591
G3 X1.2833 Y3.444 I-0.0503 J-0.0013
X0.3381 Y3.6597 I-1.2833 J-3.444
X0.2887 Y3.6327 I-0.0046 J-0.0501
G2 X-0.2887 I-0.2887 J0.1486
G3 X-0.3381 Y3.6597 I-0.0447 J-0.023
X-1.2833 Y3.444 I0.338 J-3.6597
X-1.316 Y3.3982 I0.0176 J-0.0471
G2 X-1.8363 Y3.1476 I-0.3246 J0.0086
G3 X-1.8925 Y3.1506 I-0.0303 J-0.0401
X-2.6505 Y2.5461 I1.8925 J-3.1506
X-2.6601 Y2.4906 I0.0363 J-0.0348
G2 X-3.0201 Y2.0392 I-0.2962 J-0.1331
G3 X-3.0721 Y2.0175 I-0.0099 J-0.0493
X-3.4615 Y1.2352 I3.0721 J-2.0175
G2 X-3.4818 Y1.194 I-0.1881 J0.0671
G3 X-3.5768 Y0.9589 I0.5674 J-0.3661
G1 X-3.6601 Y0.5379
G3 X-3.6559 Y0.5317 I0.0052 J-0.001
G1 X-3.2635 Y0.454
G2 X-3.2047 Y0.3663 I-0.0145 J-0.0733
G1 X-3.3839 Y-0.5398
G3 X-3.3829 Y-0.7097 I0.4172 J-0.0825
X-3.3699 Y-0.7692 I3.3829 J0.7097
G2 X-3.4773 Y-1.0898 I-0.3166 J-0.0723
G3 X-3.4927 Y-1.1439 I0.0324 J-0.0385
X-3.0721 Y-2.0175 I3.4927 J1.1439
X-3.0201 Y-2.0392 I0.042 J0.0276
G2 X-2.6601 Y-2.4906 I0.0638 J-0.3184
G3 X-2.6505 Y-2.5461 I0.0459 J-0.0206
X-1.8925 Y-3.1506 I2.6505 J2.5461
X-1.8363 Y-3.1476 I0.0259 J0.0431
G2 X-1.316 Y-3.3982 I0.1956 J-0.2591
G3 X-1.2833 Y-3.444 I0.0503 J0.0013
X-0.3381 Y-3.6597 I1.2833 J3.444
X-0.2887 Y-3.6327 I0.0046 J0.0501
G2 X0.2887 I0.2887 J-0.1486
G3 X0.3381 Y-3.6597 I0.0447 J0.023
X1.2833 Y-3.444 I-0.338 J3.6597
X1.316 Y-3.3982 I-0.0176 J0.0471
G2 X1.8363 Y-3.1476 I0.3246 J-0.0086
G3 X1.8925 Y-3.1506 I0.0303 J0.0401
X2.6505 Y-2.5461 I-1.8925 J3.1506
X2.6601 Y-2.4906 I-0.0363 J0.0348
G2 X3.0201 Y-2.0392 I0.2962 J0.1331
G3 X3.0721 Y-2.0175 I0.0099 J0.0493
X3.4927 Y-1.1439 I-3.0721 J2.0175
X3.4773 Y-1.0898 I-0.0478 J0.0157
G2 X3.3699 Y-0.7692 I0.2091 J0.2484
G3 X3.3829 Y-0.7097 I-3.3699 J0.7692
X3.3839 Y-0.5398 I-0.4162 J0.0873
G1 X3.2047 Y0.3663
G2 X3.2635 Y0.454 I0.0733 J0.0145
G1 X3.3788 Y0.4768
G2 X3.4666 Y0.4181 I0.0145 J-0.0733
G3 X3.7483 Y-0.0222 I0.7017 J0.1388
G2 X4.0174 Y-0.6811 I-0.3961 J-0.5462
G3 X3.7483 Y-0.0222 Z-0.1419 I-0.6652 J0.1128
G2 X3.4666 Y0.4181 Z-0.1433 I0.42 J0.579
G3 X3.3788 Y0.4768 Z-0.1436 I-0.0733 J-0.0145
G1 X3.2635 Y0.454 Z-0.1439
G3 X3.2047 Y0.3663 Z-0.1442 I0.0145 J-0.0733
G1 X3.3839 Y-0.5398 Z-0.1465
G2 X3.3829 Y-0.7097 Z-0.147 I-0.4172 J-0.0825
X3.3699 Y-0.7692 Z-0.1471 I-3.3829 J0.7097
G3 X3.4773 Y-1.0898 Z-0.148 I0.3166 J-0.0723
G2 X3.4927 Y-1.1439 Z-0.1482 I-0.0324 J-0.0385
X3.0721 Y-2.0175 Z-0.1506 I-3.4927 J1.1439
X3.0201 Y-2.0392 Z-0.1508 I-0.042 J0.0276
G3 X2.6601 Y-2.4906 Z-0.1526 I-0.0638 J-0.3184
G2 X2.6505 Y-2.5461 Z-0.1528 I-0.0459 J-0.0206
X1.8925 Y-3.1506 Z-0.1552 I-2.6505 J2.5461
X1.8363 Y-3.1476 Z-0.1554 I-0.0259 J0.0431
G3 X1.316 Y-3.3982 Z-0.1572 I-0.1956 J-0.2591
G2 X1.2833 Y-3.444 Z-0.1573 I-0.0503 J0.0013
X0.3381 Y-3.6597 Z-0.1598 I-1.2833 J3.444
X0.2887 Y-3.6327 Z-0.16 I-0.0046 J0.0501
G3 X-0.2887 Z-0.1618 I-0.2887 J-0.1486
G2 X-0.3381 Y-3.6597 Z-0.1619 I-0.0447 J0.023
X-1.2833 Y-3.444 Z-0.1644 I0.338 J3.6597
X-1.316 Y-3.3982 Z-0.1646 I0.0176 J0.0471
G3 X-1.8363 Y-3.1476 Z-0.1664 I-0.3246 J-0.0086
G2 X-1.8925 Y-3.1506 Z-0.1665 I-0.0303 J0.0401
X-2.6505 Y-2.5461 Z-0.169 I1.8925 J3.1506
X-2.6601 Y-2.4906 Z-0.1691 I0.0363 J0.0348
G3 X-3.0201 Y-2.0392 Z-0.171 I-0.2962 J0.1331
G2 X-3.0721 Y-2.0175 Z-0.1711 I-0.0099 J0.0493
X-3.4927 Y-1.1439 Z-0.1736 I3.0721 J2.0175
X-3.4773 Y-1.0898 Z-0.1737 I0.0478 J0.0157
G3 X-3.3699 Y-0.7692 Z-0.1746 I-0.2091 J0.2484
G2 X-3.3829 Y-0.7097 Z-0.1748 I3.3699 J0.7692
X-3.3839 Y-0.5398 Z-0.1752 I0.4162 J0.0873
G1 X-3.2047 Y0.3663 Z-0.1776
G3 X-3.2635 Y0.454 Z-0.1779 I-0.0733 J0.0145
G1 X-3.6559 Y0.5317 Z-0.1789
G2 X-3.6601 Y0.5379 I0.001 J0.0052
G1 X-3.5768 Y0.9589 Z-0.18
G2 X-3.4818 Y1.194 Z-0.1807 I0.6625 J-0.131
G3 X-3.4615 Y1.2352 Z-0.1808 I-0.1678 J0.1083
G2 X-3.0721 Y2.0175 Z-0.183 I3.4615 J-1.2352
X-3.0201 Y2.0392 Z-0.1832 I0.042 J-0.0276
G3 X-2.6601 Y2.4906 Z-0.185 I0.0638 J0.3184
G2 X-2.6505 Y2.5461 Z-0.1851 I0.0459 J0.0206
X-1.8925 Y3.1506 Z-0.1876 I2.6505 J-2.5461
X-1.8363 Y3.1476 Z-0.1877 I0.0259 J-0.0431
G3 X-1.316 Y3.3982 Z-0.1896 I0.1956 J0.2591
G2 X-1.2833 Y3.444 Z-0.1897 I0.0503 J-0.0013
X-0.3381 Y3.6597 Z-0.1922 I1.2833 J-3.444
X-0.2887 Y3.6327 Z-0.1923 I0.0046 J-0.0501
G3 X0.2887 Z-0.1941 I0.2887 J0.1486
G2 X0.3381 Y3.6597 Z-0.1943 I0.0447 J-0.023
X1.2833 Y3.444 Z-0.1968 I-0.338 J-3.6597
X1.316 Y3.3982 Z-0.1969 I-0.0176 J-0.0471
G3 X1.8363 Y3.1476 Z-0.1987 I0.3246 J0.0086
G2 X1.8925 Y3.1506 Z-0.1989 I0.0303 J-0.0401
X2.6505 Y2.5461 Z-0.2014 I-1.8925 J-3.1506
X2.6601 Y2.4906 Z-0.2015 I-0.0363 J-0.0348
G3 X3.0201 Y2.0392 Z-0.2033 I0.2962 J-0.1331
G2 X3.0721 Y2.0175 Z-0.2035 I0.0099 J-0.0493
X3.4615 Y1.2352 Z-0.2057 I-3.0721 J-2.0175
G3 X3.4818 Y1.194 Z-0.2058 I0.1881 J0.0671
G2 X3.5768 Y0.9589 Z-0.2065 I-0.5674 J-0.3661
G1 X3.6601 Y0.5379 Z-0.2076
G2 X3.6559 Y0.5317 I-0.0052 J-0.001
G1 X3.5652 Y0.5137 Z-0.2078
G3 X3.5064 Y0.4259 Z-0.2081 I0.0145 J-0.0733
X3.7721 Y0.0107 Z-0.2094 I0.6619 J0.1309
G2 X3.9373 Y-0.1569 Z-0.21 I-0.42 J-0.579
G3 X3.7721 Y0.0107 I-0.5851 J-0.4115
G2 X3.5064 Y0.4259 I0.3962 J0.5462
X3.5652 Y0.5137 I0.0733 J0.0145
G1 X3.6559 Y0.5317
G3 X3.6601 Y0.5379 I-0.001 J0.0052
G1 X3.5768 Y0.9589
G3 X3.4818 Y1.194 I-0.6625 J-0.131
G2 X3.4615 Y1.2352 I0.1678 J0.1083
G3 X3.0721 Y2.0175 I-3.4615 J-1.2352
X3.0201 Y2.0392 I-0.042 J-0.0276
G2 X2.6601 Y2.4906 I-0.0638 J0.3184
G3 X2.6505 Y2.5461 I-0.0459 J0.0206
X1.8925 Y3.1506 I-2.6505 J-2.5461
X1.8363 Y3.1476 I-0.0259 J-0.0431
G2 X1.316 Y3.3982 I-0.1956 J0.2591
G3 X1.2833 Y3.444 I-0.0503 J-0.0013
X0.3381 Y3.6597 I-1.2833 J-3.444
X0.2887 Y3.6327 I-0.0046 J-0.0501
G2 X-0.2887 I-0.2887 J0.1486
G3 X-0.3381 Y3.6597 I-0.0447 J-0.023
X-1.2833 Y3.444 I0.338 J-3.6597
X-1.316 Y3.3982 I0.0176 J-0.0471
G2 X-1.8363 Y3.1476 I-0.3246 J0.0086
G3 X-1.8925 Y3.1506 I-0.0303 J-0.0401
X-2.6505 Y2.5461 I1.8925 J-3.1506
X-2.6601 Y2.4906 I0.0363 J-0.0348
G2 X-3.0201 Y2.0392 I-0.2962 J-0.1331
G3 X-3.0721 Y2.0175 I-0.0099 J-0.0493
X-3.4615 Y1.2352 I3.0721 J-2.0175
G2 X-3.4818 Y1.194 I-0.1881 J0.0671
G3 X-3.5768 Y0.9589 I0.5674 J-0.3661
G1 X-3.6601 Y0.5379
G3 X-3.6559 Y0.5317 I0.0052 J-0.001
G1 X-3.2635 Y0.454
G2 X-3.2047 Y0.3663 I-0.0145 J-0.0733
G1 X-3.3839 Y-0.5398
G3 X-3.3829 Y-0.7097 I0.4172 J-0.0825
X-3.3699 Y-0.7692 I3.3829 J0.7097
G2 X-3.4773 Y-1.0898 I-0.3166 J-0.0723
G3 X-3.4927 Y-1.1439 I0.0324 J-0.0385
X-3.0721 Y-2.0175 I3.4927 J1.1439
X-3.0201 Y-2.0392 I0.042 J0.0276
G2 X-2.6601 Y-2.4906 I0.0638 J-0.3184
G3 X-2.6505 Y-2.5461 I0.0459 J-0.0206
X-1.8925 Y-3.1506 I2.6505 J2.5461
X-1.8363 Y-3.1476 I0.0259 J0.0431
G2 X-1.316 Y-3.3982 I0.1956 J-0.2591
G3 X-1.2833 Y-3.444 I0.0503 J0.0013
X-0.3381 Y-3.6597 I1.2833 J3.444
X-0.2887 Y-3.6327 I0.0046 J0.0501
G2 X0.2887 I0.2887 J-0.1486
G3 X0.3381 Y-3.6597 I0.0447 J0.023
X1.2833 Y-3.444 I-0.338 J3.6597
X1.316 Y-3.3982 I-0.0176 J0.0471
G2 X1.8363 Y-3.1476 I0.3246 J-0.0086
G3 X1.8925 Y-3.1506 I0.0303 J0.0401
X2.6505 Y-2.5461 I-1.8925 J3.1506
X2.6601 Y-2.4906 I-0.0363 J0.0348
G2 X3.0201 Y-2.0392 I0.2962 J0.1331
G3 X3.0721 Y-2.0175 I0.0099 J0.0493
X3.4927 Y-1.1439 I-3.0721 J2.0175
X3.4773 Y-1.0898 I-0.0478 J0.0157
G2 X3.3699 Y-0.7692 I0.2091 J0.2484
G3 X3.3829 Y-0.7097 I-3.3699 J0.7692
X3.3839 Y-0.5398 I-0.4162 J0.0873
G1 X3.2047 Y0.3663
G2 X3.2635 Y0.454 I0.0733 J0.0145
G1 X3.3788 Y0.4768
G2 X3.4666 Y0.4181 I0.0145 J-0.0733
G3 X3.7483 Y-0.0222 I0.7017 J0.1388
G2 X4.0174 Y-0.6811 I-0.3961 J-0.5462
G3 X3.7483 Y-0.0222 Z-0.2119 I-0.6652 J0.1128
G2 X3.4666 Y0.4181 Z-0.2133 I0.42 J0.579
G3 X3.3788 Y0.4768 Z-0.2136 I-0.0733 J-0.0145
G1 X3.2635 Y0.454 Z-0.2139
G3 X3.2047 Y0.3663 Z-0.2142 I0.0145 J-0.0733
G1 X3.3839 Y-0.5398 Z-0.2165
G2 X3.3829 Y-0.7097 Z-0.217 I-0.4172 J-0.0825
X3.3699 Y-0.7692 Z-0.2171 I-3.3829 J0.7097
G3 X3.4773 Y-1.0898 Z-0.218 I0.3166 J-0.0723
G2 X3.4927 Y-1.1439 Z-0.2182 I-0.0324 J-0.0385
X3.0721 Y-2.0175 Z-0.2206 I-3.4927 J1.1439
X3.0201 Y-2.0392 Z-0.2208 I-0.042 J0.0276
G3 X2.6601 Y-2.4906 Z-0.2226 I-0.0638 J-0.3184
G2 X2.6505 Y-2.5461 Z-0.2228 I-0.0459 J-0.0206
X1.8925 Y-3.1506 Z-0.2252 I-2.6505 J2.5461
X1.8363 Y-3.1476 Z-0.2254 I-0.0259 J0.0431
G3 X1.316 Y-3.3982 Z-0.2272 I-0.1956 J-0.2591
G2 X1.2833 Y-3.444 Z-0.2273 I-0.0503 J0.0013
X0.3381 Y-3.6597 Z-0.2298 I-1.2833 J3.444
X0.2887 Y-3.6327 Z-0.23 I-0.0046 J0.0501
G3 X-0.2887 Z-0.2318 I-0.2887 J-0.1486
G2 X-0.3381 Y-3.6597 Z-0.2319 I-0.0447 J0.023
X-1.2833 Y-3.444 Z-0.2344 I0.338 J3.6597
X-1.316 Y-3.3982 Z-0.2346 I0.0176 J0.0471
G3 X-1.8363 Y-3.1476 Z-0.2364 I-0.3246 J-0.0086
G2 X-1.8925 Y-3.1506 Z-0.2365 I-0.0303 J0.0401
X-2.6505 Y-2.5461 Z-0.239 I1.8925 J3.1506
X-2.6601 Y-2.4906 Z-0.2391 I0.0363 J0.0348
G3 X-3.0201 Y-2.0392 Z-0.241 I-0.2962 J0.1331
G2 X-3.0721 Y-2.0175 Z-0.2411 I-0.0099 J0.0493
X-3.4927 Y-1.1439 Z-0.2436 I3.0721 J2.0175
X-3.4773 Y-1.0898 Z-0.2437 I0.0478 J0.0157
G3 X-3.3699 Y-0.7692 Z-0.2446 I-0.2091 J0.2484
G2 X-3.3829 Y-0.7097 Z-0.2448 I3.3699 J0.7692
X-3.3839 Y-0.5398 Z-0.2452 I0.4162 J0.0873
G1 X-3.2047 Y0.3663 Z-0.2476
G3 X-3.2635 Y0.454 Z-0.2479 I-0.0733 J0.0145
G1 X-3.6559 Y0.5317 Z-0.2489
G2 X-3.6601 Y0.5379 I0.001 J0.0052
G1 X-3.5768 Y0.9589 Z-0.25
G2 X-3.4818 Y1.194 Z-0.2507 I0.6625 J-0.131
G3 X-3.4615 Y1.2352 Z-0.2508 I-0.1678 J0.1083
G2 X-3.0721 Y2.0175 Z-0.253 I3.4615 J-1.2352
X-3.0201 Y2.0392 Z-0.2532 I0.042 J-0.0276
G3 X-2.6601 Y2.4906 Z-0.255 I0.0638 J0.3184
G2 X-2.6505 Y2.5461 Z-0.2551 I0.0459 J0.0206
X-1.8925 Y3.1506 Z-0.2576 I2.6505 J-2.5461
X-1.8363 Y3.1476 Z-0.2577 I0.0259 J-0.0431
G3 X-1.316 Y3.3982 Z-0.2596 I0.1956 J0.2591
G2 X-1.2833 Y3.444 Z-0.2597 I0.0503 J-0.0013
X-0.3381 Y3.6597 Z-0.2622 I1.2833 J-3.444
X-0.2887 Y3.6327 Z-0.2623 I0.0046 J-0.0501
G3 X0.2887 Z-0.2641 I0.2887 J0.1486
G2 X0.3381 Y3.6597 Z-0.2643 I0.0447 J-0.023
X1.2833 Y3.444 Z-0.2668 I-0.338 J-3.6597
X1.316 Y3.3982 Z-0.2669 I-0.0176 J-0.0471
G3 X1.8363 Y3.1476 Z-0.2687 I0.3246 J0.0086
G2 X1.8925 Y3.1506 Z-0.2689 I0.0303 J-0.0401
X2.6505 Y2.5461 Z-0.2714 I-1.8925 J-3.1506
X2.6601 Y2.4906 Z-0.2715 I-0.0363 J-0.0348
G3 X3.0201 Y2.0392 Z-0.2733 I0.2962 J-0.1331
G2 X3.0721 Y2.0175 Z-0.2735 I0.0099 J-0.0493
X3.4615 Y1.2352 Z-0.2757 I-3.0721 J-2.0175
G3 X3.4818 Y1.194 Z-0.2758 I0.1881 J0.0671
G2 X3.5768 Y0.9589 Z-0.2765 I-0.5674 J-0.3661
G1 X3.6601 Y0.5379 Z-0.2776
G2 X3.6559 Y0.5317 I-0.0052 J-0.001
G1 X3.5652 Y0.5137 Z-0.2778
G3 X3.5064 Y0.4259 Z-0.2781 I0.0145 J-0.0733
X3.7721 Y0.0107 Z-0.2794 I0.6619 J0.1309
G2 X3.9373 Y-0.1569 Z-0.28 I-0.42 J-0.579
G3 X3.7721 Y0.0107 I-0.5851 J-0.4115
G2 X3.5064 Y0.4259 I0.3962 J0.5462
X3.5652 Y0.5137 I0.0733 J0.0145
G1 X3.6559 Y0.5317
G3 X3.6601 Y0.5379 I-0.001 J0.0052
G1 X3.5768 Y0.9589
G3 X3.4818 Y1.194 I-0.6625 J-0.131
G2 X3.4615 Y1.2352 I0.1678 J0.1083
G3 X3.0721 Y2.0175 I-3.4615 J-1.2352
X3.0201 Y2.0392 I-0.042 J-0.0276
G2 X2.6601 Y2.4906 I-0.0638 J0.3184
G3 X2.6505 Y2.5461 I-0.0459 J0.0206
X1.8925 Y3.1506 I-2.6505 J-2.5461
X1.8363 Y3.1476 I-0.0259 J-0.0431
G2 X1.316 Y3.3982 I-0.1956 J0.2591
G3 X1.2833 Y3.444 I-0.0503 J-0.0013
X0.3381 Y3.6597 I-1.2833 J-3.444
X0.2887 Y3.6327 I-0.0046 J-0.0501
G2 X-0.2887 I-0.2887 J0.1486
G3 X-0.3381 Y3.6597 I-0.0447 J-0.023
X-1.2833 Y3.444 I0.338 J-3.6597
X-1.316 Y3.3982 I0.0176 J-0.0471
G2 X-1.8363 Y3.1476 I-0.3246 J0.0086
G3 X-1.8925 Y3.1506 I-0.0303 J-0.0401
X-2.6505 Y2.5461 I1.8925 J-3.1506
X-2.6601 Y2.4906 I0.0363 J-0.0348
G2 X-3.0201 Y2.0392 I-0.2962 J-0.1331
G3 X-3.0721 Y2.0175 I-0.0099 J-0.0493
X-3.4615 Y1.2352 I3.0721 J-2.0175
G2 X-3.4818 Y1.194 I-0.1881 J0.0671
G3 X-3.5768 Y0.9589 I0.5674 J-0.3661
G1 X-3.6601 Y0.5379
G3 X-3.6559 Y0.5317 I0.0052 J-0.001
G1 X-3.2635 Y0.454
G2 X-3.2047 Y0.3663 I-0.0145 J-0.0733
G1 X-3.3839 Y-0.5398
G3 X-3.3829 Y-0.7097 I0.4172 J-0.0825
X-3.3699 Y-0.7692 I3.3829 J0.7097
G2 X-3.4773 Y-1.0898 I-0.3166 J-0.0723
G3 X-3.4927 Y-1.1439 I0.0324 J-0.0385
X-3.0721 Y-2.0175 I3.4927 J1.1439
X-3.0201 Y-2.0392 I0.042 J0.0276
G2 X-2.6601 Y-2.4906 I0.0638 J-0.3184
G3 X-2.6505 Y-2.5461 I0.0459 J-0.0206
X-1.8925 Y-3.1506 I2.6505 J2.5461
X-1.8363 Y-3.1476 I0.0259 J0.0431
G2 X-1.316 Y-3.3982 I0.1956 J-0.2591
G3 X-1.2833 Y-3.444 I0.0503 J0.0013
X-0.3381 Y-3.6597 I1.2833 J3.444
X-0.2887 Y-3.6327 I0.0046 J0.0501
G2 X0.2887 I0.2887 J-0.1486
G3 X0.3381 Y-3.6597 I0.0447 J0.023
X1.2833 Y-3.444 I-0.338 J3.6597
X1.316 Y-3.3982 I-0.0176 J0.0471
G2 X1.8363 Y-3.1476 I0.3246 J-0.0086
G3 X1.8925 Y-3.1506 I0.0303 J0.0401
X2.6505 Y-2.5461 I-1.8925 J3.1506
X2.6601 Y-2.4906 I-0.0363 J0.0348
G2 X3.0201 Y-2.0392 I0.2962 J0.1331
G3 X3.0721 Y-2.0175 I0.0099 J0.0493
X3.4927 Y-1.1439 I-3.0721 J2.0175
X3.4773 Y-1.0898 I-0.0478 J0.0157
G2 X3.3699 Y-0.7692 I0.2091 J0.2484
G3 X3.3829 Y-0.7097 I-3.3699 J0.7692
X3.3839 Y-0.5398 I-0.4162 J0.0873
G1 X3.2047 Y0.3663
G2 X3.2635 Y0.454 I0.0733 J0.0145
G1 X3.3788 Y0.4768
G2 X3.4666 Y0.4181 I0.0145 J-0.0733
G3 X3.7483 Y-0.0222 I0.7017 J0.1388
G2 X4.0174 Y-0.6811 I-0.3961 J-0.5462
G0 Z0.6
(2D SLOT CUT 2)
M7
G0 X3.7458 Y-1.6038
Z0.6
Z0.2
G1 Z0.1 F13.333
G3 X4.0174 Y-0.6811 Z-0.07 I-3.7458 J1.6038 F30.
G2 X-4.0174 Y0.681 I-4.0174 J0.681
X4.0731 Y-0.116 I4.0174 J-0.681
G3 X-4.0731 Y0.1159 Z-0.1058 I-4.0731 J0.116
X4.0174 Y-0.6811 Z-0.14 I4.0731 J-0.116
G2 X-4.0174 Y0.681 I-4.0174 J0.681
X4.0731 Y-0.116 I4.0174 J-0.681
G3 X-4.0731 Y0.1159 I-4.0731 J0.116
X2.2105 Y-3.4231 I4.0731 J-0.116
G1 Z-0.2005
G3 X3.4366 Y-2.1893 I-2.2105 J3.423
G1 Z-0.2
G3 X3.7794 Y-1.5229 I-3.4366 J2.1892
G1 Z-0.2075 F13.333
G3 X4.0174 Y-0.6811 I-3.7795 J1.5228 F30.
G1 Z-0.21 F13.333
G2 X3.7794 Y-1.5229 I-4.0174 J0.681 F30.
G1 Z-0.2
G2 X3.4366 Y-2.1893 I-3.7795 J1.5228
G1 Z-0.21 F13.333
G2 X2.2105 Y-3.4231 I-3.4366 J2.1892 F30.
G1 Z-0.2
G2 X1.5462 Y-3.77 I-2.2105 J3.423
G1 Z-0.21 F13.333
G2 X-0.167 Y-4.0714 I-1.5462 J3.77 F30.
G1 Z-0.2
G2 X-0.9098 Y-3.9719 I0.167 J4.0713
G1 Z-0.21 F13.333
G2 X-2.4834 Y-3.2306 I0.9098 J3.9719 F30.
G1 Z-0.2
G2 X-3.033 Y-2.7212 I2.4834 J3.2305
G1 Z-0.21 F13.333
G2 X-3.8915 Y-1.2083 I3.033 J2.7211 F30.
G1 Z-0.2
G2 X-4.0469 Y-0.4752 I3.8915 J1.2082
G1 Z-0.21 F13.333
G2 X-3.8763 Y1.2559 I4.0469 J0.4751 F30.
G1 Z-0.2
G2 X-3.5808 Y1.9445 I3.8763 J-1.2559
G1 Z-0.21 F13.333
G2 X-2.4435 Y3.2607 I3.5808 J-1.9446 F30.
G1 Z-0.2
G2 X-1.8051 Y3.653 I2.4435 J-3.2607
G1 Z-0.21 F13.333
G2 X-0.1171 Y4.073 I1.805 J-3.6531 F30.
G1 Z-0.2
G2 X0.6308 Y4.0255 I0.1171 J-4.073
G1 Z-0.21 F13.333
G2 X2.2521 Y3.3957 I-0.6308 J-4.0256 F30.
G1 Z-0.2
G2 X2.8359 Y2.9258 I-2.2522 J-3.3957
G1 Z-0.21 F13.333
G2 X3.7978 Y1.4765 I-2.8359 J-2.9259 F30.
G1 Z-0.2
G2 X4.0039 Y0.756 I-3.7978 J-1.4766
G1 Z-0.21 F13.333
G2 X4.0731 Y-0.116 I-4.004 J-0.7561 F30.
G3 X4.0039 Y0.756 I-4.0731 J0.116
G1 Z-0.2
G3 X3.7978 Y1.4765 I-4.004 J-0.7561
G1 Z-0.2145 F13.333
G3 X2.8359 Y2.9258 I-3.7978 J-1.4766 F30.
G1 Z-0.2
G3 X2.2521 Y3.3957 I-2.8359 J-2.9259
G1 Z-0.2215 F13.333
G3 X0.6308 Y4.0255 I-2.2522 J-3.3957 F30.
G1 Z-0.2
G3 X-0.1171 Y4.073 I-0.6308 J-4.0256
G1 Z-0.2285 F13.333
G3 X-1.8051 Y3.653 I0.1171 J-4.073 F30.
G1 Z-0.2
G3 X-2.4435 Y3.2607 I1.805 J-3.6531
G1 Z-0.2355 F13.333
G3 X-3.5808 Y1.9445 I2.4435 J-3.2607 F30.
G1 Z-0.2
G3 X-3.8763 Y1.2559 I3.5808 J-1.9446
G1 Z-0.2425 F13.333
G3 X-4.0469 Y-0.4752 I3.8763 J-1.2559 F30.
G1 Z-0.2
G3 X-3.8915 Y-1.2083 I4.0469 J0.4751
G1 Z-0.2495 F13.333
G3 X-3.033 Y-2.7212 I3.8915 J1.2082 F30.
G1 Z-0.2
G3 X-2.4834 Y-3.2306 I3.033 J2.7211
G1 Z-0.2565 F13.333
G3 X-0.9098 Y-3.9719 I2.4834 J3.2305 F30.
G1 Z-0.2
G3 X-0.167 Y-4.0714 I0.9098 J3.9719
G1 Z-0.2635 F13.333
G3 X1.5462 Y-3.77 I0.167 J4.0713 F30.
G1 Z-0.2
G3 X2.2105 Y-3.4231 I-1.5462 J3.77
G1 Z-0.2705 F13.333
G3 X3.4366 Y-2.1893 I-2.2105 J3.423 F30.
G1 Z-0.2
G3 X3.7794 Y-1.5229 I-3.4366 J2.1892
G1 Z-0.2775 F13.333
G3 X4.0174 Y-0.6811 I-3.7795 J1.5228 F30.
G1 Z-0.28 F13.333
G2 X3.7794 Y-1.5229 I-4.0174 J0.681 F30.
G1 Z-0.2
G2 X3.4366 Y-2.1893 I-3.7795 J1.5228
G1 Z-0.28 F13.333
G2 X2.2105 Y-3.4231 I-3.4366 J2.1892 F30.
G1 Z-0.2
G2 X1.5462 Y-3.77 I-2.2105 J3.423
G1 Z-0.28 F13.333
G2 X-0.167 Y-4.0714 I-1.5462 J3.77 F30.
G1 Z-0.2
G2 X-0.9098 Y-3.9719 I0.167 J4.0713
G1 Z-0.28 F13.333
G2 X-2.4834 Y-3.2306 I0.9098 J3.9719 F30.
G1 Z-0.2
G2 X-3.033 Y-2.7212 I2.4834 J3.2305
G1 Z-0.28 F13.333
G2 X-3.8915 Y-1.2083 I3.033 J2.7211 F30.
G1 Z-0.2
G2 X-4.0469 Y-0.4752 I3.8915 J1.2082
G1 Z-0.28 F13.333
G2 X-3.8763 Y1.2559 I4.0469 J0.4751 F30.
G1 Z-0.2
G2 X-3.5808 Y1.9445 I3.8763 J-1.2559
G1 Z-0.28 F13.333
G2 X-2.4435 Y3.2607 I3.5808 J-1.9446 F30.
G1 Z-0.2
G2 X-1.8051 Y3.653 I2.4435 J-3.2607
G1 Z-0.28 F13.333
G2 X-0.1171 Y4.073 I1.805 J-3.6531 F30.
G1 Z-0.2
G2 X0.6308 Y4.0255 I0.1171 J-4.073
G1 Z-0.28 F13.333
G2 X2.2521 Y3.3957 I-0.6308 J-4.0256 F30.
G1 Z-0.2
G2 X2.8359 Y2.9258 I-2.2522 J-3.3957
G1 Z-0.28 F13.333
G2 X3.7978 Y1.4765 I-2.8359 J-2.9259 F30.
G1 Z-0.2
G2 X4.0039 Y0.756 I-3.7978 J-1.4766
G1 Z-0.28 F13.333
G2 X4.0731 Y-0.116 I-4.004 J-0.7561 F30.
G0 Z0.6
M9
G53 Z0.
M30
%
