%
(971-23-P-0052_CAPSTAN CABLE PLATE_1540)
(T1  D=0.154 CR=0. - ZMIN=-0.28 - FLAT END MILL)
G90 G94 G17 G91.1
G64 P0.001 Q0.001
G20
G53 G0 Z0.
(.3 CIRCLUAR THROUGH HOLE 2)
M9
T1 M6
S22000 M3
G4 P10.
G54
M7
G0 X-3.8008 Y0.3328
G43 Z0.6 H1
G0 Z0.1146
G1 Z0.05 F40.
Y0.3405
G3 X-3.8092 Y0.3489 I-0.0084 J0.
Y0.3154 Z0.0335 I0. J-0.0168
Y0.3489 Z0.0169 I0. J0.0168
Y0.3154 Z0.0004 I0. J-0.0168
Y0.3489 Z-0.0161 I0. J0.0168
Y0.3154 Z-0.0327 I0. J-0.0168
Y0.3489 Z-0.0492 I0. J0.0168
Y0.3154 Z-0.0657 I0. J-0.0168
Y0.3489 Z-0.0822 I0. J0.0168
Y0.3154 Z-0.0988 I0. J-0.0168
Y0.3489 Z-0.1153 I0. J0.0168
Y0.3154 Z-0.1318 I0. J-0.0168
Y0.3489 Z-0.1484 I0. J0.0168
Y0.3154 Z-0.1649 I0. J-0.0168
Y0.3489 Z-0.1814 I0. J0.0168
Y0.3154 Z-0.198 I0. J-0.0168
Y0.3489 Z-0.2145 I0. J0.0168
Y0.3154 Z-0.231 I0. J-0.0168
Y0.3489 Z-0.2476 I0. J0.0168
Y0.3154 Z-0.2641 I0. J-0.0168
X-3.8072 Y0.3487 Z-0.28 I0. J0.0168
X-3.8111 Y0.3155 I-0.0019 J-0.0166
X-3.8072 Y0.3487 I0.0019 J0.0166
X-3.8165 Y0.3414 I-0.001 J-0.0083
G1 X-3.8174 Y0.3338
G0 Z0.4
X-3.6856 Y-0.3174
Z0.1146
G1 Z0.05 F40.
Y-0.3097
G3 X-3.6939 Y-0.3013 I-0.0084 J0.
Y-0.3348 Z0.0335 I0. J-0.0168
Y-0.3013 Z0.0169 I0. J0.0168
Y-0.3348 Z0.0004 I0. J-0.0168
Y-0.3013 Z-0.0161 I0. J0.0168
Y-0.3348 Z-0.0327 I0. J-0.0168
Y-0.3013 Z-0.0492 I0. J0.0168
Y-0.3348 Z-0.0657 I0. J-0.0168
Y-0.3013 Z-0.0822 I0. J0.0168
Y-0.3348 Z-0.0988 I0. J-0.0168
Y-0.3013 Z-0.1153 I0. J0.0168
Y-0.3348 Z-0.1318 I0. J-0.0168
Y-0.3013 Z-0.1484 I0. J0.0168
Y-0.3348 Z-0.1649 I0. J-0.0168
Y-0.3013 Z-0.1814 I0. J0.0168
Y-0.3348 Z-0.198 I0. J-0.0168
Y-0.3013 Z-0.2145 I0. J0.0168
Y-0.3348 Z-0.231 I0. J-0.0168
Y-0.3013 Z-0.2476 I0. J0.0168
Y-0.3348 Z-0.2641 I0. J-0.0168
X-3.692 Y-0.3014 Z-0.28 I0. J0.0168
X-3.6959 Y-0.3347 I-0.0019 J-0.0166
X-3.692 Y-0.3014 I0.0019 J0.0166
X-3.7013 Y-0.3087 I-0.001 J-0.0083
G1 X-3.7022 Y-0.3164
G0 Z0.4
X-3.6747 Y-0.8528
Z0.13
G1 Z0.0654 F40.
G19 G3 Y-0.8374 Z0.05 J0.0154 K0.
G1 Y-0.8297
G17 G3 X-3.6864 Y-0.8179 I-0.0118 J0.
Y-0.8649 Z0.0323 I0. J-0.0235
Y-0.8179 Z0.0146 I0. J0.0235
Y-0.8649 Z-0.0032 I0. J-0.0235
Y-0.8179 Z-0.0209 I0. J0.0235
Y-0.8649 Z-0.0386 I0. J-0.0235
Y-0.8179 Z-0.0563 I0. J0.0235
Y-0.8649 Z-0.074 I0. J-0.0235
Y-0.8179 Z-0.0918 I0. J0.0235
Y-0.8649 Z-0.1095 I0. J-0.0235
Y-0.8179 Z-0.1272 I0. J0.0235
Y-0.8649 Z-0.1449 I0. J-0.0235
Y-0.8179 Z-0.1627 I0. J0.0235
Y-0.8649 Z-0.1804 I0. J-0.0235
Y-0.8179 Z-0.1981 I0. J0.0235
Y-0.8649 Z-0.2158 I0. J-0.0235
Y-0.8179 Z-0.2335 I0. J0.0235
Y-0.8649 Z-0.2513 I0. J-0.0235
Y-0.8179 Z-0.269 I0. J0.0235
X-3.7082 Y-0.8502 Z-0.28 I0. J-0.0235
X-3.6647 Y-0.8326 I0.0218 J0.0088
X-3.7082 Y-0.8502 I-0.0218 J-0.0088
X-3.6929 Y-0.8567 I0.0109 J0.0044
G1 X-3.6858 Y-0.8538
X-3.683 Y-0.8527 Z-0.2797
X-3.6803 Y-0.8516 Z-0.2788
X-3.6779 Y-0.8506 Z-0.2774
X-3.6757 Y-0.8497 Z-0.2755
X-3.6739 Y-0.849 Z-0.2732
X-3.6726 Y-0.8485 Z-0.2705
X-3.6718 Y-0.8482 Z-0.2676
X-3.6715 Y-0.8481 Z-0.2646
G0 Z0.4
X-2.9479 Y-2.3569
Z0.1146
G1 Z0.05 F40.
Y-2.3492
G3 X-2.9563 Y-2.3408 I-0.0084 J0.
Y-2.3743 Z0.0335 I0. J-0.0167
Y-2.3408 Z0.0169 I0. J0.0167
Y-2.3743 Z0.0004 I0. J-0.0167
Y-2.3408 Z-0.0161 I0. J0.0167
Y-2.3743 Z-0.0327 I0. J-0.0167
Y-2.3408 Z-0.0492 I0. J0.0167
Y-2.3743 Z-0.0657 I0. J-0.0167
Y-2.3408 Z-0.0822 I0. J0.0167
Y-2.3743 Z-0.0988 I0. J-0.0167
Y-2.3408 Z-0.1153 I0. J0.0167
Y-2.3743 Z-0.1318 I0. J-0.0167
Y-2.3408 Z-0.1484 I0. J0.0167
Y-2.3743 Z-0.1649 I0. J-0.0167
Y-2.3408 Z-0.1814 I0. J0.0168
Y-2.3743 Z-0.198 I0. J-0.0168
Y-2.3408 Z-0.2145 I0. J0.0168
Y-2.3743 Z-0.231 I0. J-0.0168
Y-2.3408 Z-0.2476 I0. J0.0168
Y-2.3743 Z-0.2641 I0. J-0.0168
X-2.9544 Y-2.3409 Z-0.28 I0. J0.0168
X-2.9582 Y-2.3742 I-0.0019 J-0.0166
X-2.9544 Y-2.3409 I0.0019 J0.0166
X-2.9636 Y-2.3483 I-0.001 J-0.0083
G1 X-2.9645 Y-2.3559
G0 Z0.4
X-1.6289 Y-3.4181
Z0.13
G1 Z0.0654 F40.
G19 G3 Y-3.4027 Z0.05 J0.0154 K0.
G1 Y-3.395
G17 G3 X-1.6406 Y-3.3833 I-0.0118 J0.
Y-3.4303 Z0.0323 I0. J-0.0235
Y-3.3833 Z0.0146 I0. J0.0235
Y-3.4303 Z-0.0032 I0. J-0.0235
Y-3.3833 Z-0.0209 I0. J0.0235
Y-3.4303 Z-0.0386 I0. J-0.0235
Y-3.3833 Z-0.0563 I0. J0.0235
Y-3.4303 Z-0.074 I0. J-0.0235
Y-3.3833 Z-0.0918 I0. J0.0235
Y-3.4303 Z-0.1095 I0. J-0.0235
Y-3.3833 Z-0.1272 I0. J0.0235
Y-3.4303 Z-0.1449 I0. J-0.0235
Y-3.3833 Z-0.1627 I0. J0.0235
Y-3.4303 Z-0.1804 I0. J-0.0235
Y-3.3833 Z-0.1981 I0. J0.0235
Y-3.4303 Z-0.2158 I0. J-0.0235
Y-3.3833 Z-0.2335 I0. J0.0235
Y-3.4303 Z-0.2513 I0. J-0.0235
Y-3.3833 Z-0.269 I0. J0.0235
X-1.6624 Y-3.4156 Z-0.28 I0. J-0.0235
X-1.6188 Y-3.398 I0.0218 J0.0088
X-1.6624 Y-3.4156 I-0.0218 J-0.0088
X-1.6471 Y-3.4221 I0.0109 J0.0044
G1 X-1.64 Y-3.4192
X-1.6372 Y-3.4181 Z-0.2797
X-1.6345 Y-3.417 Z-0.2788
X-1.632 Y-3.416 Z-0.2774
X-1.6299 Y-3.4151 Z-0.2755
X-1.6281 Y-3.4144 Z-0.2732
X-1.6268 Y-3.4139 Z-0.2705
X-1.626 Y-3.4135 Z-0.2676
X-1.6257 Y-3.4134 Z-0.2646
G0 Z0.4
X0.0084 Y-3.7806
Z0.1146
G1 Z0.05 F40.
Y-3.7729
G3 X0. Y-3.7645 I-0.0084 J0.
Y-3.798 Z0.0335 I0. J-0.0167
Y-3.7645 Z0.0169 I0. J0.0167
Y-3.798 Z0.0004 I0. J-0.0167
Y-3.7645 Z-0.0161 I0. J0.0167
Y-3.798 Z-0.0327 I0. J-0.0167
Y-3.7645 Z-0.0492 I0. J0.0167
Y-3.798 Z-0.0657 I0. J-0.0167
Y-3.7645 Z-0.0822 I0. J0.0167
Y-3.798 Z-0.0988 I0. J-0.0167
Y-3.7645 Z-0.1153 I0. J0.0167
Y-3.798 Z-0.1318 I0. J-0.0167
Y-3.7645 Z-0.1484 I0. J0.0167
Y-3.798 Z-0.1649 I0. J-0.0167
Y-3.7645 Z-0.1814 I0. J0.0167
Y-3.798 Z-0.198 I0. J-0.0167
Y-3.7645 Z-0.2145 I0. J0.0167
Y-3.798 Z-0.231 I0. J-0.0167
Y-3.7645 Z-0.2476 I0. J0.0167
Y-3.798 Z-0.2641 I0. J-0.0167
X0.0019 Y-3.7646 Z-0.28 I0. J0.0167
X-0.0019 Y-3.7979 I-0.0019 J-0.0166
X0.0019 Y-3.7646 I0.0019 J0.0166
X-0.0073 Y-3.772 I-0.001 J-0.0083
G1 X-0.0082 Y-3.7796
G0 Z0.4
X1.6524 Y-3.4181
Z0.13
G1 Z0.0654 F40.
G19 G3 Y-3.4027 Z0.05 J0.0154 K0.
G1 Y-3.395
G17 G3 X1.6406 Y-3.3833 I-0.0118 J0.
Y-3.4303 Z0.0323 I0. J-0.0235
Y-3.3833 Z0.0146 I0. J0.0235
Y-3.4303 Z-0.0032 I0. J-0.0235
Y-3.3833 Z-0.0209 I0. J0.0235
Y-3.4303 Z-0.0386 I0. J-0.0235
Y-3.3833 Z-0.0563 I0. J0.0235
Y-3.4303 Z-0.074 I0. J-0.0235
Y-3.3833 Z-0.0918 I0. J0.0235
Y-3.4303 Z-0.1095 I0. J-0.0235
Y-3.3833 Z-0.1272 I0. J0.0235
Y-3.4303 Z-0.1449 I0. J-0.0235
Y-3.3833 Z-0.1627 I0. J0.0235
Y-3.4303 Z-0.1804 I0. J-0.0235
Y-3.3833 Z-0.1981 I0. J0.0235
Y-3.4303 Z-0.2158 I0. J-0.0235
Y-3.3833 Z-0.2335 I0. J0.0235
Y-3.4303 Z-0.2513 I0. J-0.0235
Y-3.3833 Z-0.269 I0. J0.0235
X1.6188 Y-3.4156 Z-0.28 I0. J-0.0235
X1.6624 Y-3.398 I0.0218 J0.0088
X1.6188 Y-3.4156 I-0.0218 J-0.0088
X1.6341 Y-3.4221 I0.0109 J0.0044
G1 X1.6413 Y-3.4192
X1.6441 Y-3.4181 Z-0.2797
X1.6467 Y-3.417 Z-0.2788
X1.6492 Y-3.416 Z-0.2774
X1.6514 Y-3.4151 Z-0.2755
X1.6531 Y-3.4144 Z-0.2732
X1.6545 Y-3.4139 Z-0.2705
X1.6553 Y-3.4135 Z-0.2676
X1.6555 Y-3.4134 Z-0.2646
G0 Z0.4
X2.9647 Y-2.3569
Z0.1146
G1 Z0.05 F40.
Y-2.3492
G3 X2.9563 Y-2.3408 I-0.0084 J0.
Y-2.3743 Z0.0335 I0. J-0.0167
Y-2.3408 Z0.0169 I0. J0.0167
Y-2.3743 Z0.0004 I0. J-0.0167
Y-2.3408 Z-0.0161 I0. J0.0167
Y-2.3743 Z-0.0327 I0. J-0.0167
Y-2.3408 Z-0.0492 I0. J0.0167
Y-2.3743 Z-0.0657 I0. J-0.0167
Y-2.3408 Z-0.0822 I0. J0.0167
Y-2.3743 Z-0.0988 I0. J-0.0167
Y-2.3408 Z-0.1153 I0. J0.0167
Y-2.3743 Z-0.1318 I0. J-0.0167
Y-2.3408 Z-0.1484 I0. J0.0167
Y-2.3743 Z-0.1649 I0. J-0.0167
Y-2.3408 Z-0.1814 I0. J0.0168
Y-2.3743 Z-0.198 I0. J-0.0168
Y-2.3408 Z-0.2145 I0. J0.0168
Y-2.3743 Z-0.231 I0. J-0.0168
Y-2.3408 Z-0.2476 I0. J0.0168
Y-2.3743 Z-0.2641 I0. J-0.0168
X2.9582 Y-2.3409 Z-0.28 I0. J0.0168
X2.9544 Y-2.3742 I-0.0019 J-0.0166
X2.9582 Y-2.3409 I0.0019 J0.0166
X2.949 Y-2.3483 I-0.001 J-0.0083
G1 X2.9481 Y-2.3559
G0 Z0.4
X3.6982 Y-0.8528
Z0.13
G1 Z0.0654 F40.
G19 G3 Y-0.8374 Z0.05 J0.0154 K0.
G1 Y-0.8297
G17 G3 X3.6864 Y-0.8179 I-0.0117 J0.
Y-0.8649 Z0.0323 I0. J-0.0235
Y-0.8179 Z0.0146 I0. J0.0235
Y-0.8649 Z-0.0032 I0. J-0.0235
Y-0.8179 Z-0.0209 I0. J0.0235
Y-0.8649 Z-0.0386 I0. J-0.0235
Y-0.8179 Z-0.0563 I0. J0.0235
Y-0.8649 Z-0.074 I0. J-0.0235
Y-0.8179 Z-0.0918 I0. J0.0235
Y-0.8649 Z-0.1095 I0. J-0.0235
Y-0.8179 Z-0.1272 I0. J0.0235
Y-0.8649 Z-0.1449 I0. J-0.0235
Y-0.8179 Z-0.1627 I0. J0.0235
Y-0.8649 Z-0.1804 I0. J-0.0235
Y-0.8179 Z-0.1981 I0. J0.0235
Y-0.8649 Z-0.2158 I0. J-0.0235
Y-0.8179 Z-0.2335 I0. J0.0235
Y-0.8649 Z-0.2513 I0. J-0.0235
Y-0.8179 Z-0.269 I0. J0.0235
X3.6647 Y-0.8502 Z-0.28 I0. J-0.0235
X3.7082 Y-0.8326 I0.0218 J0.0088
X3.6647 Y-0.8502 I-0.0218 J-0.0088
X3.6799 Y-0.8567 I0.0109 J0.0044
G1 X3.6871 Y-0.8538
X3.6899 Y-0.8527 Z-0.2797
X3.6926 Y-0.8516 Z-0.2788
X3.695 Y-0.8506 Z-0.2774
X3.6972 Y-0.8497 Z-0.2755
X3.699 Y-0.849 Z-0.2732
X3.7003 Y-0.8485 Z-0.2705
X3.7011 Y-0.8482 Z-0.2676
X3.7014 Y-0.8481 Z-0.2646
G0 Z0.4
X3.7023 Y-0.3174
Z0.1146
G1 Z0.05 F40.
Y-0.3097
G3 X3.6939 Y-0.3013 I-0.0084 J0.
Y-0.3348 Z0.0335 I0. J-0.0168
Y-0.3013 Z0.0169 I0. J0.0168
Y-0.3348 Z0.0004 I0. J-0.0168
Y-0.3013 Z-0.0161 I0. J0.0168
Y-0.3348 Z-0.0327 I0. J-0.0168
Y-0.3013 Z-0.0492 I0. J0.0168
Y-0.3348 Z-0.0657 I0. J-0.0168
Y-0.3013 Z-0.0822 I0. J0.0168
Y-0.3348 Z-0.0988 I0. J-0.0168
Y-0.3013 Z-0.1153 I0. J0.0168
Y-0.3348 Z-0.1318 I0. J-0.0168
Y-0.3013 Z-0.1484 I0. J0.0168
Y-0.3348 Z-0.1649 I0. J-0.0168
Y-0.3013 Z-0.1814 I0. J0.0168
Y-0.3348 Z-0.198 I0. J-0.0168
Y-0.3013 Z-0.2145 I0. J0.0168
Y-0.3348 Z-0.231 I0. J-0.0168
Y-0.3013 Z-0.2476 I0. J0.0168
Y-0.3348 Z-0.2641 I0. J-0.0168
X3.6959 Y-0.3014 Z-0.28 I0. J0.0168
X3.692 Y-0.3347 I-0.0019 J-0.0166
X3.6959 Y-0.3014 I0.0019 J0.0166
X3.6866 Y-0.3087 I-0.001 J-0.0083
G1 X3.6857 Y-0.3164
G0 Z0.4
X3.8176 Y0.3328
Z0.1146
G1 Z0.05 F40.
Y0.3405
G3 X3.8092 Y0.3489 I-0.0084 J0.
Y0.3154 Z0.0335 I0. J-0.0168
Y0.3489 Z0.0169 I0. J0.0168
Y0.3154 Z0.0004 I0. J-0.0168
Y0.3489 Z-0.0161 I0. J0.0168
Y0.3154 Z-0.0327 I0. J-0.0168
Y0.3489 Z-0.0492 I0. J0.0168
Y0.3154 Z-0.0657 I0. J-0.0168
Y0.3489 Z-0.0822 I0. J0.0168
Y0.3154 Z-0.0988 I0. J-0.0168
Y0.3489 Z-0.1153 I0. J0.0168
Y0.3154 Z-0.1318 I0. J-0.0168
Y0.3489 Z-0.1484 I0. J0.0168
Y0.3154 Z-0.1649 I0. J-0.0168
Y0.3489 Z-0.1814 I0. J0.0168
Y0.3154 Z-0.198 I0. J-0.0168
Y0.3489 Z-0.2145 I0. J0.0168
Y0.3154 Z-0.231 I0. J-0.0168
Y0.3489 Z-0.2476 I0. J0.0168
Y0.3154 Z-0.2641 I0. J-0.0168
X3.8111 Y0.3487 Z-0.28 I0. J0.0168
X3.8072 Y0.3155 I-0.0019 J-0.0166
X3.8111 Y0.3487 I0.0019 J0.0166
X3.8018 Y0.3414 I-0.001 J-0.0083
G1 X3.8009 Y0.3338
G0 Z0.4
X2.9681 Y2.3462
Z0.13
G1 Z0.0654 F40.
G19 G3 Y2.3616 Z0.05 J0.0154 K0.
G1 Y2.3693
G17 G3 X2.9563 Y2.3811 I-0.0118 J0.
Y2.3341 Z0.0323 I0. J-0.0235
Y2.3811 Z0.0146 I0. J0.0235
Y2.3341 Z-0.0032 I0. J-0.0235
Y2.3811 Z-0.0209 I0. J0.0235
Y2.3341 Z-0.0386 I0. J-0.0235
Y2.3811 Z-0.0563 I0. J0.0235
Y2.3341 Z-0.074 I0. J-0.0235
Y2.3811 Z-0.0918 I0. J0.0235
Y2.3341 Z-0.1095 I0. J-0.0235
Y2.3811 Z-0.1272 I0. J0.0235
Y2.3341 Z-0.1449 I0. J-0.0235
Y2.3811 Z-0.1627 I0. J0.0235
Y2.3341 Z-0.1804 I0. J-0.0235
Y2.3811 Z-0.1981 I0. J0.0235
Y2.3341 Z-0.2158 I0. J-0.0235
Y2.3811 Z-0.2335 I0. J0.0235
Y2.3341 Z-0.2513 I0. J-0.0235
Y2.3811 Z-0.269 I0. J0.0235
X2.9345 Y2.3488 Z-0.28 I0. J-0.0235
X2.9781 Y2.3664 I0.0218 J0.0088
X2.9345 Y2.3488 I-0.0218 J-0.0088
X2.9498 Y2.3423 I0.0109 J0.0044
G1 X2.9569 Y2.3452
X2.9597 Y2.3463 Z-0.2797
X2.9624 Y2.3474 Z-0.2788
X2.9649 Y2.3484 Z-0.2774
X2.967 Y2.3492 Z-0.2755
X2.9688 Y2.35 Z-0.2732
X2.9701 Y2.3505 Z-0.2705
X2.9709 Y2.3508 Z-0.2676
X2.9712 Y2.3509 Z-0.2646
G0 Z0.4
X1.649 Y3.4075
Z0.1146
G1 Z0.05 F40.
Y3.4152
G3 X1.6406 Y3.4235 I-0.0084 J0.
Y3.39 Z0.0335 I0. J-0.0168
Y3.4235 Z0.0169 I0. J0.0168
Y3.39 Z0.0004 I0. J-0.0168
Y3.4235 Z-0.0161 I0. J0.0168
Y3.39 Z-0.0327 I0. J-0.0168
Y3.4235 Z-0.0492 I0. J0.0168
Y3.39 Z-0.0657 I0. J-0.0168
Y3.4235 Z-0.0822 I0. J0.0168
Y3.39 Z-0.0988 I0. J-0.0168
Y3.4235 Z-0.1153 I0. J0.0168
Y3.39 Z-0.1318 I0. J-0.0168
Y3.4235 Z-0.1484 I0. J0.0168
Y3.39 Z-0.1649 I0. J-0.0168
Y3.4235 Z-0.1814 I0. J0.0168
Y3.39 Z-0.198 I0. J-0.0168
Y3.4235 Z-0.2145 I0. J0.0168
Y3.39 Z-0.231 I0. J-0.0168
Y3.4235 Z-0.2476 I0. J0.0168
Y3.39 Z-0.2641 I0. J-0.0168
X1.6426 Y3.4234 Z-0.28 I0. J0.0168
X1.6387 Y3.3902 I-0.0019 J-0.0166
X1.6426 Y3.4234 I0.0019 J0.0166
X1.6333 Y3.4161 I-0.001 J-0.0083
G1 X1.6324 Y3.4084
G0 Z0.4
X0.0117 Y3.7699
Z0.13
G1 Z0.0654 F40.
G19 G3 Y3.7853 Z0.05 J0.0154 K0.
G1 Y3.793
G17 G3 X0. Y3.8047 I-0.0117 J0.
Y3.7577 Z0.0323 I0. J-0.0235
Y3.8047 Z0.0146 I0. J0.0235
Y3.7577 Z-0.0032 I0. J-0.0235
Y3.8047 Z-0.0209 I0. J0.0235
Y3.7577 Z-0.0386 I0. J-0.0235
Y3.8047 Z-0.0563 I0. J0.0235
Y3.7577 Z-0.074 I0. J-0.0235
Y3.8047 Z-0.0918 I0. J0.0235
Y3.7577 Z-0.1095 I0. J-0.0235
Y3.8047 Z-0.1272 I0. J0.0235
Y3.7577 Z-0.1449 I0. J-0.0235
Y3.8047 Z-0.1627 I0. J0.0235
Y3.7577 Z-0.1804 I0. J-0.0235
Y3.8047 Z-0.1981 I0. J0.0235
Y3.7577 Z-0.2158 I0. J-0.0235
Y3.8047 Z-0.2335 I0. J0.0235
Y3.7577 Z-0.2513 I0. J-0.0235
Y3.8047 Z-0.269 I0. J0.0235
X-0.0218 Y3.7725 Z-0.28 I0. J-0.0235
X0.0218 Y3.79 I0.0218 J0.0088
X-0.0218 Y3.7725 I-0.0218 J-0.0088
X-0.0065 Y3.766 I0.0109 J0.0044
G1 X0.0006 Y3.7688
X0.0034 Y3.77 Z-0.2797
X0.0061 Y3.771 Z-0.2788
X0.0086 Y3.772 Z-0.2774
X0.0107 Y3.7729 Z-0.2755
X0.0125 Y3.7736 Z-0.2732
X0.0138 Y3.7742 Z-0.2705
X0.0146 Y3.7745 Z-0.2676
X0.0149 Y3.7746 Z-0.2646
G0 Z0.4
X-1.6322 Y3.4075
Z0.1146
G1 Z0.05 F40.
Y3.4152
G3 X-1.6406 Y3.4235 I-0.0084 J0.
Y3.39 Z0.0335 I0. J-0.0168
Y3.4235 Z0.0169 I0. J0.0168
Y3.39 Z0.0004 I0. J-0.0168
Y3.4235 Z-0.0161 I0. J0.0168
Y3.39 Z-0.0327 I0. J-0.0168
Y3.4235 Z-0.0492 I0. J0.0168
Y3.39 Z-0.0657 I0. J-0.0168
Y3.4235 Z-0.0822 I0. J0.0168
Y3.39 Z-0.0988 I0. J-0.0168
Y3.4235 Z-0.1153 I0. J0.0168
Y3.39 Z-0.1318 I0. J-0.0168
Y3.4235 Z-0.1484 I0. J0.0168
Y3.39 Z-0.1649 I0. J-0.0168
Y3.4235 Z-0.1814 I0. J0.0168
Y3.39 Z-0.198 I0. J-0.0168
Y3.4235 Z-0.2145 I0. J0.0168
Y3.39 Z-0.231 I0. J-0.0168
Y3.4235 Z-0.2476 I0. J0.0168
Y3.39 Z-0.2641 I0. J-0.0168
X-1.6387 Y3.4234 Z-0.28 I0. J0.0168
X-1.6426 Y3.3902 I-0.0019 J-0.0166
X-1.6387 Y3.4234 I0.0019 J0.0166
X-1.648 Y3.4161 I-0.001 J-0.0083
G1 X-1.6489 Y3.4084
G0 Z0.4
X-2.9446 Y2.3462
Z0.13
G1 Z0.0654 F40.
G19 G3 Y2.3616 Z0.05 J0.0154 K0.
G1 Y2.3693
G17 G3 X-2.9563 Y2.3811 I-0.0117 J0.
Y2.3341 Z0.0323 I0. J-0.0235
Y2.3811 Z0.0146 I0. J0.0235
Y2.3341 Z-0.0032 I0. J-0.0235
Y2.3811 Z-0.0209 I0. J0.0235
Y2.3341 Z-0.0386 I0. J-0.0235
Y2.3811 Z-0.0563 I0. J0.0235
Y2.3341 Z-0.074 I0. J-0.0235
Y2.3811 Z-0.0918 I0. J0.0235
Y2.3341 Z-0.1095 I0. J-0.0235
Y2.3811 Z-0.1272 I0. J0.0235
Y2.3341 Z-0.1449 I0. J-0.0235
Y2.3811 Z-0.1627 I0. J0.0235
Y2.3341 Z-0.1804 I0. J-0.0235
Y2.3811 Z-0.1981 I0. J0.0235
Y2.3341 Z-0.2158 I0. J-0.0235
Y2.3811 Z-0.2335 I0. J0.0235
Y2.3341 Z-0.2513 I0. J-0.0235
Y2.3811 Z-0.269 I0. J0.0235
X-2.9781 Y2.3488 Z-0.28 I0. J-0.0235
X-2.9345 Y2.3664 I0.0218 J0.0088
X-2.9781 Y2.3488 I-0.0218 J-0.0088
X-2.9628 Y2.3423 I0.0109 J0.0044
G1 X-2.9557 Y2.3452
X-2.9529 Y2.3463 Z-0.2797
X-2.9502 Y2.3474 Z-0.2788
X-2.9477 Y2.3484 Z-0.2774
X-2.9456 Y2.3492 Z-0.2755
X-2.9438 Y2.35 Z-0.2732
X-2.9425 Y2.3505 Z-0.2705
X-2.9417 Y2.3508 Z-0.2676
X-2.9414 Y2.3509 Z-0.2646
G0 Z0.6
(2D SLOT CUT)
M7
G0 X3.6571 Y0.5413
Z0.6
Z0.2
G1 Z0.1 F13.333
X3.6579 Y0.5374 Z0.0993 F30.
G2 X3.6555 Y0.5339 Z0.0985 I-0.0029 J-0.0006
G1 X3.5648 Y0.516 Z0.0822
G3 X3.5042 Y0.4255 Z0.0608 I0.0149 J-0.0755
X3.7708 Y0.0088 Z-0.0285 I0.6641 J0.1314
G2 X3.9354 Y-0.1582 Z-0.07 I-0.4186 J-0.5772
G3 X3.7708 Y0.0088 I-0.5832 J-0.4101
G2 X3.5042 Y0.4255 I0.3975 J0.548
X3.5648 Y0.516 I0.0755 J0.0149
G1 X3.6555 Y0.5339
G3 X3.6579 Y0.5374 I-0.0006 J0.0029
G1 X3.5746 Y0.9585
G3 X3.4799 Y1.1928 I-0.6602 J-0.1306
G2 X3.4594 Y1.2344 I0.1697 J0.1095
G3 X3.0701 Y2.0162 I-3.4594 J-1.2344
X3.0206 Y2.037 I-0.0401 J-0.0263
G2 X2.658 Y2.4916 I-0.0643 J0.3206
G3 X2.6489 Y2.5445 I-0.0438 J0.0197
X1.8913 Y3.1486 I-2.6489 J-2.5445
X1.8376 Y3.1458 I-0.0247 J-0.0411
G2 X1.3137 Y3.3981 I-0.197 J0.261
G3 X1.2825 Y3.4418 I-0.048 J-0.0013
X0.3378 Y3.6574 I-1.2825 J-3.4418
X0.2907 Y3.6316 I-0.0044 J-0.0478
G2 X-0.2907 I-0.2907 J0.1496
G3 X-0.3378 Y3.6574 I-0.0427 J-0.022
X-1.2825 Y3.4418 I0.3378 J-3.6574
X-1.3137 Y3.3981 I0.0168 J-0.045
G2 X-1.8376 Y3.1458 I-0.3269 J0.0087
G3 X-1.8913 Y3.1486 I-0.0289 J-0.0383
X-2.6489 Y2.5445 I1.8913 J-3.1486
X-2.658 Y2.4916 I0.0346 J-0.0333
G2 X-3.0206 Y2.037 I-0.2983 J-0.134
G3 X-3.0701 Y2.0162 I-0.0094 J-0.0471
X-3.4594 Y1.2344 I3.0701 J-2.0162
G2 X-3.4799 Y1.1928 I-0.1903 J0.0679
G3 X-3.5746 Y0.9585 I0.5655 J-0.3649
G1 X-3.6579 Y0.5374
G3 X-3.6555 Y0.5339 I0.0029 J-0.0006
G1 X-3.263 Y0.4563
G2 X-3.2024 Y0.3658 I-0.0149 J-0.0755
G1 X-3.3816 Y-0.5403
G3 X-3.3807 Y-0.7092 I0.415 J-0.0821
X-3.3676 Y-0.7686 I3.3806 J0.7093
G2 X-3.4759 Y-1.0916 I-0.3188 J-0.0728
G3 X-3.4906 Y-1.1432 I0.0309 J-0.0367
X-3.0701 Y-2.0162 I3.4906 J1.1432
X-3.0206 Y-2.037 I0.0401 J0.0263
G2 X-2.658 Y-2.4916 I0.0643 J-0.3206
G3 X-2.6489 Y-2.5445 I0.0438 J-0.0197
X-1.8913 Y-3.1486 I2.6489 J2.5445
X-1.8376 Y-3.1458 I0.0247 J0.0411
G2 X-1.3137 Y-3.3981 I0.197 J-0.261
G3 X-1.2825 Y-3.4418 I0.048 J0.0013
X-0.3378 Y-3.6574 I1.2825 J3.4418
X-0.2907 Y-3.6316 I0.0044 J0.0478
G2 X0.2907 I0.2907 J-0.1496
G3 X0.3378 Y-3.6574 I0.0427 J0.022
X1.2825 Y-3.4418 I-0.3378 J3.6574
X1.3137 Y-3.3981 I-0.0168 J0.045
G2 X1.8376 Y-3.1458 I0.3269 J-0.0087
G3 X1.8913 Y-3.1486 I0.0289 J0.0383
X2.6489 Y-2.5445 I-1.8913 J3.1486
X2.658 Y-2.4916 I-0.0346 J0.0333
G2 X3.0206 Y-2.037 I0.2983 J0.134
G3 X3.0701 Y-2.0162 I0.0094 J0.0471
X3.4906 Y-1.1432 I-3.0701 J2.0162
X3.4759 Y-1.0916 I-0.0456 J0.0149
G2 X3.3676 Y-0.7686 I0.2106 J0.2502
G3 X3.3807 Y-0.7092 I-3.3676 J0.7687
X3.3816 Y-0.5403 I-0.414 J0.0868
G1 X3.2024 Y0.3658
G2 X3.263 Y0.4563 I0.0755 J0.0149
G1 X3.3784 Y0.4791
G2 X3.4688 Y0.4185 I0.0149 J-0.0755
G3 X3.7497 Y-0.0203 I0.6995 J0.1384
G2 X4.0197 Y-0.6815 I-0.3975 J-0.548
G3 X3.7497 Y-0.0203 Z-0.0719 I-0.6675 J0.1131
G2 X3.4688 Y0.4185 Z-0.0733 I0.4186 J0.5772
G3 X3.3784 Y0.4791 Z-0.0736 I-0.0755 J-0.0149
G1 X3.263 Y0.4563 Z-0.0739
G3 X3.2024 Y0.3658 Z-0.0742 I0.0149 J-0.0755
G1 X3.3816 Y-0.5403 Z-0.0765
G2 X3.3807 Y-0.7092 Z-0.077 I-0.415 J-0.0821
X3.3676 Y-0.7686 Z-0.0771 I-3.3806 J0.7093
G3 X3.4759 Y-1.0916 Z-0.078 I0.3188 J-0.0728
G2 X3.4906 Y-1.1432 Z-0.0782 I-0.0309 J-0.0367
X3.0701 Y-2.0162 Z-0.0807 I-3.4906 J1.1432
X3.0206 Y-2.037 Z-0.0808 I-0.0401 J0.0263
G3 X2.658 Y-2.4916 Z-0.0826 I-0.0643 J-0.3206
G2 X2.6489 Y-2.5445 Z-0.0828 I-0.0438 J-0.0197
X1.8913 Y-3.1486 Z-0.0852 I-2.6489 J2.5445
X1.8376 Y-3.1458 Z-0.0854 I-0.0247 J0.0411
G3 X1.3137 Y-3.3981 Z-0.0872 I-0.197 J-0.261
G2 X1.2825 Y-3.4418 Z-0.0874 I-0.048 J0.0013
X0.3378 Y-3.6574 Z-0.0898 I-1.2825 J3.4418
X0.2907 Y-3.6316 Z-0.09 I-0.0044 J0.0478
G3 X-0.2907 Z-0.0918 I-0.2907 J-0.1496
G2 X-0.3378 Y-3.6574 Z-0.0919 I-0.0427 J0.022
X-1.2825 Y-3.4418 Z-0.0944 I0.3378 J3.6574
X-1.3137 Y-3.3981 Z-0.0946 I0.0168 J0.045
G3 X-1.8376 Y-3.1458 Z-0.0964 I-0.3269 J-0.0087
G2 X-1.8913 Y-3.1486 Z-0.0965 I-0.0289 J0.0383
X-2.6489 Y-2.5445 Z-0.099 I1.8913 J3.1486
X-2.658 Y-2.4916 Z-0.0991 I0.0346 J0.0333
G3 X-3.0206 Y-2.037 Z-0.101 I-0.2983 J0.134
G2 X-3.0701 Y-2.0162 Z-0.1011 I-0.0094 J0.0471
X-3.4906 Y-1.1432 Z-0.1036 I3.0701 J2.0162
X-3.4759 Y-1.0916 Z-0.1037 I0.0456 J0.0149
G3 X-3.3676 Y-0.7686 Z-0.1046 I-0.2106 J0.2502
G2 X-3.3807 Y-0.7092 Z-0.1048 I3.3676 J0.7687
X-3.3816 Y-0.5403 Z-0.1052 I0.414 J0.0868
G1 X-3.2024 Y0.3658 Z-0.1076
G3 X-3.263 Y0.4563 Z-0.1079 I-0.0755 J0.0149
G1 X-3.6555 Y0.5339 Z-0.1089
G2 X-3.6579 Y0.5374 I0.0006 J0.0029
G1 X-3.5746 Y0.9585 Z-0.11
G2 X-3.4799 Y1.1928 Z-0.1107 I0.6602 J-0.1306
G3 X-3.4594 Y1.2344 Z-0.1108 I-0.1697 J0.1095
G2 X-3.0701 Y2.0162 Z-0.113 I3.4594 J-1.2344
X-3.0206 Y2.037 Z-0.1132 I0.0401 J-0.0263
G3 X-2.658 Y2.4916 Z-0.115 I0.0643 J0.3206
G2 X-2.6489 Y2.5445 Z-0.1151 I0.0438 J0.0197
X-1.8913 Y3.1486 Z-0.1176 I2.6489 J-2.5445
X-1.8376 Y3.1458 Z-0.1177 I0.0247 J-0.0411
G3 X-1.3137 Y3.3981 Z-0.1196 I0.197 J0.261
G2 X-1.2825 Y3.4418 Z-0.1197 I0.048 J-0.0013
X-0.3378 Y3.6574 Z-0.1222 I1.2825 J-3.4418
X-0.2907 Y3.6316 Z-0.1223 I0.0044 J-0.0478
G3 X0.2907 Z-0.1242 I0.2907 J0.1496
G2 X0.3378 Y3.6574 Z-0.1243 I0.0427 J-0.022
X1.2825 Y3.4418 Z-0.1268 I-0.3378 J-3.6574
X1.3137 Y3.3981 Z-0.1269 I-0.0168 J-0.045
G3 X1.8376 Y3.1458 Z-0.1287 I0.3269 J0.0087
G2 X1.8913 Y3.1486 Z-0.1289 I0.0289 J-0.0383
X2.6489 Y2.5445 Z-0.1314 I-1.8913 J-3.1486
X2.658 Y2.4916 Z-0.1315 I-0.0346 J-0.0333
G3 X3.0206 Y2.037 Z-0.1333 I0.2983 J-0.134
G2 X3.0701 Y2.0162 Z-0.1335 I0.0094 J-0.0471
X3.4594 Y1.2344 Z-0.1357 I-3.0701 J-2.0162
G3 X3.4799 Y1.1928 Z-0.1358 I0.1903 J0.0679
G2 X3.5746 Y0.9585 Z-0.1365 I-0.5655 J-0.3649
G1 X3.6579 Y0.5374 Z-0.1376
G2 X3.6555 Y0.5339 I-0.0029 J-0.0006
G1 X3.5648 Y0.516 Z-0.1378
G3 X3.5042 Y0.4255 Z-0.1381 I0.0149 J-0.0755
X3.7708 Y0.0088 Z-0.1394 I0.6641 J0.1314
G2 X3.9354 Y-0.1582 Z-0.14 I-0.4186 J-0.5772
G3 X3.7708 Y0.0088 I-0.5832 J-0.4101
G2 X3.5042 Y0.4255 I0.3975 J0.548
X3.5648 Y0.516 I0.0755 J0.0149
G1 X3.6555 Y0.5339
G3 X3.6579 Y0.5374 I-0.0006 J0.0029
G1 X3.5746 Y0.9585
G3 X3.4799 Y1.1928 I-0.6602 J-0.1306
G2 X3.4594 Y1.2344 I0.1697 J0.1095
G3 X3.0701 Y2.0162 I-3.4594 J-1.2344
X3.0206 Y2.037 I-0.0401 J-0.0263
G2 X2.658 Y2.4916 I-0.0643 J0.3206
G3 X2.6489 Y2.5445 I-0.0438 J0.0197
X1.8913 Y3.1486 I-2.6489 J-2.5445
X1.8376 Y3.1458 I-0.0247 J-0.0411
G2 X1.3137 Y3.3981 I-0.197 J0.261
G3 X1.2825 Y3.4418 I-0.048 J-0.0013
X0.3378 Y3.6574 I-1.2825 J-3.4418
X0.2907 Y3.6316 I-0.0044 J-0.0478
G2 X-0.2907 I-0.2907 J0.1496
G3 X-0.3378 Y3.6574 I-0.0427 J-0.022
X-1.2825 Y3.4418 I0.3378 J-3.6574
X-1.3137 Y3.3981 I0.0168 J-0.045
G2 X-1.8376 Y3.1458 I-0.3269 J0.0087
G3 X-1.8913 Y3.1486 I-0.0289 J-0.0383
X-2.6489 Y2.5445 I1.8913 J-3.1486
X-2.658 Y2.4916 I0.0346 J-0.0333
G2 X-3.0206 Y2.037 I-0.2983 J-0.134
G3 X-3.0701 Y2.0162 I-0.0094 J-0.0471
X-3.4594 Y1.2344 I3.0701 J-2.0162
G2 X-3.4799 Y1.1928 I-0.1903 J0.0679
G3 X-3.5746 Y0.9585 I0.5655 J-0.3649
G1 X-3.6579 Y0.5374
G3 X-3.6555 Y0.5339 I0.0029 J-0.0006
G1 X-3.263 Y0.4563
G2 X-3.2024 Y0.3658 I-0.0149 J-0.0755
G1 X-3.3816 Y-0.5403
G3 X-3.3807 Y-0.7092 I0.415 J-0.0821
X-3.3676 Y-0.7686 I3.3806 J0.7093
G2 X-3.4759 Y-1.0916 I-0.3188 J-0.0728
G3 X-3.4906 Y-1.1432 I0.0309 J-0.0367
X-3.0701 Y-2.0162 I3.4906 J1.1432
X-3.0206 Y-2.037 I0.0401 J0.0263
G2 X-2.658 Y-2.4916 I0.0643 J-0.3206
G3 X-2.6489 Y-2.5445 I0.0438 J-0.0197
X-1.8913 Y-3.1486 I2.6489 J2.5445
X-1.8376 Y-3.1458 I0.0247 J0.0411
G2 X-1.3137 Y-3.3981 I0.197 J-0.261
G3 X-1.2825 Y-3.4418 I0.048 J0.0013
X-0.3378 Y-3.6574 I1.2825 J3.4418
X-0.2907 Y-3.6316 I0.0044 J0.0478
G2 X0.2907 I0.2907 J-0.1496
G3 X0.3378 Y-3.6574 I0.0427 J0.022
X1.2825 Y-3.4418 I-0.3378 J3.6574
X1.3137 Y-3.3981 I-0.0168 J0.045
G2 X1.8376 Y-3.1458 I0.3269 J-0.0087
G3 X1.8913 Y-3.1486 I0.0289 J0.0383
X2.6489 Y-2.5445 I-1.8913 J3.1486
X2.658 Y-2.4916 I-0.0346 J0.0333
G2 X3.0206 Y-2.037 I0.2983 J0.134
G3 X3.0701 Y-2.0162 I0.0094 J0.0471
X3.4906 Y-1.1432 I-3.0701 J2.0162
X3.4759 Y-1.0916 I-0.0456 J0.0149
G2 X3.3676 Y-0.7686 I0.2106 J0.2502
G3 X3.3807 Y-0.7092 I-3.3676 J0.7687
X3.3816 Y-0.5403 I-0.414 J0.0868
G1 X3.2024 Y0.3658
G2 X3.263 Y0.4563 I0.0755 J0.0149
G1 X3.3784 Y0.4791
G2 X3.4688 Y0.4185 I0.0149 J-0.0755
G3 X3.7497 Y-0.0203 I0.6995 J0.1384
G2 X4.0197 Y-0.6815 I-0.3975 J-0.548
G3 X3.7497 Y-0.0203 Z-0.1419 I-0.6675 J0.1131
G2 X3.4688 Y0.4185 Z-0.1433 I0.4186 J0.5772
G3 X3.3784 Y0.4791 Z-0.1436 I-0.0755 J-0.0149
G1 X3.263 Y0.4563 Z-0.1439
G3 X3.2024 Y0.3658 Z-0.1442 I0.0149 J-0.0755
G1 X3.3816 Y-0.5403 Z-0.1465
G2 X3.3807 Y-0.7092 Z-0.147 I-0.415 J-0.0821
X3.3676 Y-0.7686 Z-0.1471 I-3.3806 J0.7093
G3 X3.4759 Y-1.0916 Z-0.148 I0.3188 J-0.0728
G2 X3.4906 Y-1.1432 Z-0.1482 I-0.0309 J-0.0367
X3.0701 Y-2.0162 Z-0.1507 I-3.4906 J1.1432
X3.0206 Y-2.037 Z-0.1508 I-0.0401 J0.0263
G3 X2.658 Y-2.4916 Z-0.1526 I-0.0643 J-0.3206
G2 X2.6489 Y-2.5445 Z-0.1528 I-0.0438 J-0.0197
X1.8913 Y-3.1486 Z-0.1552 I-2.6489 J2.5445
X1.8376 Y-3.1458 Z-0.1554 I-0.0247 J0.0411
G3 X1.3137 Y-3.3981 Z-0.1572 I-0.197 J-0.261
G2 X1.2825 Y-3.4418 Z-0.1574 I-0.048 J0.0013
X0.3378 Y-3.6574 Z-0.1598 I-1.2825 J3.4418
X0.2907 Y-3.6316 Z-0.16 I-0.0044 J0.0478
G3 X-0.2907 Z-0.1618 I-0.2907 J-0.1496
G2 X-0.3378 Y-3.6574 Z-0.1619 I-0.0427 J0.022
X-1.2825 Y-3.4418 Z-0.1644 I0.3378 J3.6574
X-1.3137 Y-3.3981 Z-0.1646 I0.0168 J0.045
G3 X-1.8376 Y-3.1458 Z-0.1664 I-0.3269 J-0.0087
G2 X-1.8913 Y-3.1486 Z-0.1665 I-0.0289 J0.0383
X-2.6489 Y-2.5445 Z-0.169 I1.8913 J3.1486
X-2.658 Y-2.4916 Z-0.1691 I0.0346 J0.0333
G3 X-3.0206 Y-2.037 Z-0.171 I-0.2983 J0.134
G2 X-3.0701 Y-2.0162 Z-0.1711 I-0.0094 J0.0471
X-3.4906 Y-1.1432 Z-0.1736 I3.0701 J2.0162
X-3.4759 Y-1.0916 Z-0.1737 I0.0456 J0.0149
G3 X-3.3676 Y-0.7686 Z-0.1746 I-0.2106 J0.2502
G2 X-3.3807 Y-0.7092 Z-0.1748 I3.3676 J0.7687
X-3.3816 Y-0.5403 Z-0.1752 I0.414 J0.0868
G1 X-3.2024 Y0.3658 Z-0.1776
G3 X-3.263 Y0.4563 Z-0.1779 I-0.0755 J0.0149
G1 X-3.6555 Y0.5339 Z-0.1789
G2 X-3.6579 Y0.5374 I0.0006 J0.0029
G1 X-3.5746 Y0.9585 Z-0.18
G2 X-3.4799 Y1.1928 Z-0.1807 I0.6602 J-0.1306
G3 X-3.4594 Y1.2344 Z-0.1808 I-0.1697 J0.1095
G2 X-3.0701 Y2.0162 Z-0.183 I3.4594 J-1.2344
X-3.0206 Y2.037 Z-0.1832 I0.0401 J-0.0263
G3 X-2.658 Y2.4916 Z-0.185 I0.0643 J0.3206
G2 X-2.6489 Y2.5445 Z-0.1851 I0.0438 J0.0197
X-1.8913 Y3.1486 Z-0.1876 I2.6489 J-2.5445
X-1.8376 Y3.1458 Z-0.1877 I0.0247 J-0.0411
G3 X-1.3137 Y3.3981 Z-0.1896 I0.197 J0.261
G2 X-1.2825 Y3.4418 Z-0.1897 I0.048 J-0.0013
X-0.3378 Y3.6574 Z-0.1922 I1.2825 J-3.4418
X-0.2907 Y3.6316 Z-0.1923 I0.0044 J-0.0478
G3 X0.2907 Z-0.1942 I0.2907 J0.1496
G2 X0.3378 Y3.6574 Z-0.1943 I0.0427 J-0.022
X1.2825 Y3.4418 Z-0.1968 I-0.3378 J-3.6574
X1.3137 Y3.3981 Z-0.1969 I-0.0168 J-0.045
G3 X1.8376 Y3.1458 Z-0.1987 I0.3269 J0.0087
G2 X1.8913 Y3.1486 Z-0.1989 I0.0289 J-0.0383
X2.6489 Y2.5445 Z-0.2014 I-1.8913 J-3.1486
X2.658 Y2.4916 Z-0.2015 I-0.0346 J-0.0333
G3 X3.0206 Y2.037 Z-0.2033 I0.2983 J-0.134
G2 X3.0701 Y2.0162 Z-0.2035 I0.0094 J-0.0471
X3.4594 Y1.2344 Z-0.2057 I-3.0701 J-2.0162
G3 X3.4799 Y1.1928 Z-0.2058 I0.1903 J0.0679
G2 X3.5746 Y0.9585 Z-0.2065 I-0.5655 J-0.3649
G1 X3.6579 Y0.5374 Z-0.2076
G2 X3.6555 Y0.5339 I-0.0029 J-0.0006
G1 X3.5648 Y0.516 Z-0.2078
G3 X3.5042 Y0.4255 Z-0.2081 I0.0149 J-0.0755
X3.7708 Y0.0088 Z-0.2094 I0.6641 J0.1314
G2 X3.9354 Y-0.1582 Z-0.21 I-0.4186 J-0.5772
G3 X3.7708 Y0.0088 I-0.5832 J-0.4101
G2 X3.5042 Y0.4255 I0.3975 J0.548
X3.5648 Y0.516 I0.0755 J0.0149
G1 X3.6555 Y0.5339
G3 X3.6579 Y0.5374 I-0.0006 J0.0029
G1 X3.5746 Y0.9585
G3 X3.4799 Y1.1928 I-0.6602 J-0.1306
G2 X3.4594 Y1.2344 I0.1697 J0.1095
G3 X3.0701 Y2.0162 I-3.4594 J-1.2344
X3.0206 Y2.037 I-0.0401 J-0.0263
G2 X2.658 Y2.4916 I-0.0643 J0.3206
G3 X2.6489 Y2.5445 I-0.0438 J0.0197
X1.8913 Y3.1486 I-2.6489 J-2.5445
X1.8376 Y3.1458 I-0.0247 J-0.0411
G2 X1.3137 Y3.3981 I-0.197 J0.261
G3 X1.2825 Y3.4418 I-0.048 J-0.0013
X0.3378 Y3.6574 I-1.2825 J-3.4418
X0.2907 Y3.6316 I-0.0044 J-0.0478
G2 X-0.2907 I-0.2907 J0.1496
G3 X-0.3378 Y3.6574 I-0.0427 J-0.022
X-1.2825 Y3.4418 I0.3378 J-3.6574
X-1.3137 Y3.3981 I0.0168 J-0.045
G2 X-1.8376 Y3.1458 I-0.3269 J0.0087
G3 X-1.8913 Y3.1486 I-0.0289 J-0.0383
X-2.6489 Y2.5445 I1.8913 J-3.1486
X-2.658 Y2.4916 I0.0346 J-0.0333
G2 X-3.0206 Y2.037 I-0.2983 J-0.134
G3 X-3.0701 Y2.0162 I-0.0094 J-0.0471
X-3.4594 Y1.2344 I3.0701 J-2.0162
G2 X-3.4799 Y1.1928 I-0.1903 J0.0679
G3 X-3.5746 Y0.9585 I0.5655 J-0.3649
G1 X-3.6579 Y0.5374
G3 X-3.6555 Y0.5339 I0.0029 J-0.0006
G1 X-3.263 Y0.4563
G2 X-3.2024 Y0.3658 I-0.0149 J-0.0755
G1 X-3.3816 Y-0.5403
G3 X-3.3807 Y-0.7092 I0.415 J-0.0821
X-3.3676 Y-0.7686 I3.3806 J0.7093
G2 X-3.4759 Y-1.0916 I-0.3188 J-0.0728
G3 X-3.4906 Y-1.1432 I0.0309 J-0.0367
X-3.0701 Y-2.0162 I3.4906 J1.1432
X-3.0206 Y-2.037 I0.0401 J0.0263
G2 X-2.658 Y-2.4916 I0.0643 J-0.3206
G3 X-2.6489 Y-2.5445 I0.0438 J-0.0197
X-1.8913 Y-3.1486 I2.6489 J2.5445
X-1.8376 Y-3.1458 I0.0247 J0.0411
G2 X-1.3137 Y-3.3981 I0.197 J-0.261
G3 X-1.2825 Y-3.4418 I0.048 J0.0013
X-0.3378 Y-3.6574 I1.2825 J3.4418
X-0.2907 Y-3.6316 I0.0044 J0.0478
G2 X0.2907 I0.2907 J-0.1496
G3 X0.3378 Y-3.6574 I0.0427 J0.022
X1.2825 Y-3.4418 I-0.3378 J3.6574
X1.3137 Y-3.3981 I-0.0168 J0.045
G2 X1.8376 Y-3.1458 I0.3269 J-0.0087
G3 X1.8913 Y-3.1486 I0.0289 J0.0383
X2.6489 Y-2.5445 I-1.8913 J3.1486
X2.658 Y-2.4916 I-0.0346 J0.0333
G2 X3.0206 Y-2.037 I0.2983 J0.134
G3 X3.0701 Y-2.0162 I0.0094 J0.0471
X3.4906 Y-1.1432 I-3.0701 J2.0162
X3.4759 Y-1.0916 I-0.0456 J0.0149
G2 X3.3676 Y-0.7686 I0.2106 J0.2502
G3 X3.3807 Y-0.7092 I-3.3676 J0.7687
X3.3816 Y-0.5403 I-0.414 J0.0868
G1 X3.2024 Y0.3658
G2 X3.263 Y0.4563 I0.0755 J0.0149
G1 X3.3784 Y0.4791
G2 X3.4688 Y0.4185 I0.0149 J-0.0755
G3 X3.7497 Y-0.0203 I0.6995 J0.1384
G2 X4.0197 Y-0.6815 I-0.3975 J-0.548
G3 X3.7497 Y-0.0203 Z-0.2119 I-0.6675 J0.1131
G2 X3.4688 Y0.4185 Z-0.2133 I0.4186 J0.5772
G3 X3.3784 Y0.4791 Z-0.2136 I-0.0755 J-0.0149
G1 X3.263 Y0.4563 Z-0.2139
G3 X3.2024 Y0.3658 Z-0.2142 I0.0149 J-0.0755
G1 X3.3816 Y-0.5403 Z-0.2165
G2 X3.3807 Y-0.7092 Z-0.217 I-0.415 J-0.0821
X3.3676 Y-0.7686 Z-0.2171 I-3.3806 J0.7093
G3 X3.4759 Y-1.0916 Z-0.218 I0.3188 J-0.0728
G2 X3.4906 Y-1.1432 Z-0.2182 I-0.0309 J-0.0367
X3.0701 Y-2.0162 Z-0.2207 I-3.4906 J1.1432
X3.0206 Y-2.037 Z-0.2208 I-0.0401 J0.0263
G3 X2.658 Y-2.4916 Z-0.2226 I-0.0643 J-0.3206
G2 X2.6489 Y-2.5445 Z-0.2228 I-0.0438 J-0.0197
X1.8913 Y-3.1486 Z-0.2252 I-2.6489 J2.5445
X1.8376 Y-3.1458 Z-0.2254 I-0.0247 J0.0411
G3 X1.3137 Y-3.3981 Z-0.2272 I-0.197 J-0.261
G2 X1.2825 Y-3.4418 Z-0.2274 I-0.048 J0.0013
X0.3378 Y-3.6574 Z-0.2298 I-1.2825 J3.4418
X0.2907 Y-3.6316 Z-0.23 I-0.0044 J0.0478
G3 X-0.2907 Z-0.2318 I-0.2907 J-0.1496
G2 X-0.3378 Y-3.6574 Z-0.2319 I-0.0427 J0.022
X-1.2825 Y-3.4418 Z-0.2344 I0.3378 J3.6574
X-1.3137 Y-3.3981 Z-0.2346 I0.0168 J0.045
G3 X-1.8376 Y-3.1458 Z-0.2364 I-0.3269 J-0.0087
G2 X-1.8913 Y-3.1486 Z-0.2365 I-0.0289 J0.0383
X-2.6489 Y-2.5445 Z-0.239 I1.8913 J3.1486
X-2.658 Y-2.4916 Z-0.2391 I0.0346 J0.0333
G3 X-3.0206 Y-2.037 Z-0.241 I-0.2983 J0.134
G2 X-3.0701 Y-2.0162 Z-0.2411 I-0.0094 J0.0471
X-3.4906 Y-1.1432 Z-0.2436 I3.0701 J2.0162
X-3.4759 Y-1.0916 Z-0.2437 I0.0456 J0.0149
G3 X-3.3676 Y-0.7686 Z-0.2446 I-0.2106 J0.2502
G2 X-3.3807 Y-0.7092 Z-0.2448 I3.3676 J0.7687
X-3.3816 Y-0.5403 Z-0.2452 I0.414 J0.0868
G1 X-3.2024 Y0.3658 Z-0.2476
G3 X-3.263 Y0.4563 Z-0.2479 I-0.0755 J0.0149
G1 X-3.6555 Y0.5339 Z-0.2489
G2 X-3.6579 Y0.5374 I0.0006 J0.0029
G1 X-3.5746 Y0.9585 Z-0.25
G2 X-3.4799 Y1.1928 Z-0.2507 I0.6602 J-0.1306
G3 X-3.4594 Y1.2344 Z-0.2508 I-0.1697 J0.1095
G2 X-3.0701 Y2.0162 Z-0.253 I3.4594 J-1.2344
X-3.0206 Y2.037 Z-0.2532 I0.0401 J-0.0263
G3 X-2.658 Y2.4916 Z-0.255 I0.0643 J0.3206
G2 X-2.6489 Y2.5445 Z-0.2551 I0.0438 J0.0197
X-1.8913 Y3.1486 Z-0.2576 I2.6489 J-2.5445
X-1.8376 Y3.1458 Z-0.2577 I0.0247 J-0.0411
G3 X-1.3137 Y3.3981 Z-0.2596 I0.197 J0.261
G2 X-1.2825 Y3.4418 Z-0.2597 I0.048 J-0.0013
X-0.3378 Y3.6574 Z-0.2622 I1.2825 J-3.4418
X-0.2907 Y3.6316 Z-0.2623 I0.0044 J-0.0478
G3 X0.2907 Z-0.2642 I0.2907 J0.1496
G2 X0.3378 Y3.6574 Z-0.2643 I0.0427 J-0.022
X1.2825 Y3.4418 Z-0.2668 I-0.3378 J-3.6574
X1.3137 Y3.3981 Z-0.2669 I-0.0168 J-0.045
G3 X1.8376 Y3.1458 Z-0.2687 I0.3269 J0.0087
G2 X1.8913 Y3.1486 Z-0.2689 I0.0289 J-0.0383
X2.6489 Y2.5445 Z-0.2714 I-1.8913 J-3.1486
X2.658 Y2.4916 Z-0.2715 I-0.0346 J-0.0333
G3 X3.0206 Y2.037 Z-0.2733 I0.2983 J-0.134
G2 X3.0701 Y2.0162 Z-0.2735 I0.0094 J-0.0471
X3.4594 Y1.2344 Z-0.2757 I-3.0701 J-2.0162
G3 X3.4799 Y1.1928 Z-0.2758 I0.1903 J0.0679
G2 X3.5746 Y0.9585 Z-0.2765 I-0.5655 J-0.3649
G1 X3.6579 Y0.5374 Z-0.2776
G2 X3.6555 Y0.5339 I-0.0029 J-0.0006
G1 X3.5648 Y0.516 Z-0.2778
G3 X3.5042 Y0.4255 Z-0.2781 I0.0149 J-0.0755
X3.7708 Y0.0088 Z-0.2794 I0.6641 J0.1314
G2 X3.9354 Y-0.1582 Z-0.28 I-0.4186 J-0.5772
G3 X3.7708 Y0.0088 I-0.5832 J-0.4101
G2 X3.5042 Y0.4255 I0.3975 J0.548
X3.5648 Y0.516 I0.0755 J0.0149
G1 X3.6555 Y0.5339
G3 X3.6579 Y0.5374 I-0.0006 J0.0029
G1 X3.5746 Y0.9585
G3 X3.4799 Y1.1928 I-0.6602 J-0.1306
G2 X3.4594 Y1.2344 I0.1697 J0.1095
G3 X3.0701 Y2.0162 I-3.4594 J-1.2344
X3.0206 Y2.037 I-0.0401 J-0.0263
G2 X2.658 Y2.4916 I-0.0643 J0.3206
G3 X2.6489 Y2.5445 I-0.0438 J0.0197
X1.8913 Y3.1486 I-2.6489 J-2.5445
X1.8376 Y3.1458 I-0.0247 J-0.0411
G2 X1.3137 Y3.3981 I-0.197 J0.261
G3 X1.2825 Y3.4418 I-0.048 J-0.0013
X0.3378 Y3.6574 I-1.2825 J-3.4418
X0.2907 Y3.6316 I-0.0044 J-0.0478
G2 X-0.2907 I-0.2907 J0.1496
G3 X-0.3378 Y3.6574 I-0.0427 J-0.022
X-1.2825 Y3.4418 I0.3378 J-3.6574
X-1.3137 Y3.3981 I0.0168 J-0.045
G2 X-1.8376 Y3.1458 I-0.3269 J0.0087
G3 X-1.8913 Y3.1486 I-0.0289 J-0.0383
X-2.6489 Y2.5445 I1.8913 J-3.1486
X-2.658 Y2.4916 I0.0346 J-0.0333
G2 X-3.0206 Y2.037 I-0.2983 J-0.134
G3 X-3.0701 Y2.0162 I-0.0094 J-0.0471
X-3.4594 Y1.2344 I3.0701 J-2.0162
G2 X-3.4799 Y1.1928 I-0.1903 J0.0679
G3 X-3.5746 Y0.9585 I0.5655 J-0.3649
G1 X-3.6579 Y0.5374
G3 X-3.6555 Y0.5339 I0.0029 J-0.0006
G1 X-3.263 Y0.4563
G2 X-3.2024 Y0.3658 I-0.0149 J-0.0755
G1 X-3.3816 Y-0.5403
G3 X-3.3807 Y-0.7092 I0.415 J-0.0821
X-3.3676 Y-0.7686 I3.3806 J0.7093
G2 X-3.4759 Y-1.0916 I-0.3188 J-0.0728
G3 X-3.4906 Y-1.1432 I0.0309 J-0.0367
X-3.0701 Y-2.0162 I3.4906 J1.1432
X-3.0206 Y-2.037 I0.0401 J0.0263
G2 X-2.658 Y-2.4916 I0.0643 J-0.3206
G3 X-2.6489 Y-2.5445 I0.0438 J-0.0197
X-1.8913 Y-3.1486 I2.6489 J2.5445
X-1.8376 Y-3.1458 I0.0247 J0.0411
G2 X-1.3137 Y-3.3981 I0.197 J-0.261
G3 X-1.2825 Y-3.4418 I0.048 J0.0013
X-0.3378 Y-3.6574 I1.2825 J3.4418
X-0.2907 Y-3.6316 I0.0044 J0.0478
G2 X0.2907 I0.2907 J-0.1496
G3 X0.3378 Y-3.6574 I0.0427 J0.022
X1.2825 Y-3.4418 I-0.3378 J3.6574
X1.3137 Y-3.3981 I-0.0168 J0.045
G2 X1.8376 Y-3.1458 I0.3269 J-0.0087
G3 X1.8913 Y-3.1486 I0.0289 J0.0383
X2.6489 Y-2.5445 I-1.8913 J3.1486
X2.658 Y-2.4916 I-0.0346 J0.0333
G2 X3.0206 Y-2.037 I0.2983 J0.134
G3 X3.0701 Y-2.0162 I0.0094 J0.0471
X3.4906 Y-1.1432 I-3.0701 J2.0162
X3.4759 Y-1.0916 I-0.0456 J0.0149
G2 X3.3676 Y-0.7686 I0.2106 J0.2502
G3 X3.3807 Y-0.7092 I-3.3676 J0.7687
X3.3816 Y-0.5403 I-0.414 J0.0868
G1 X3.2024 Y0.3658
G2 X3.263 Y0.4563 I0.0755 J0.0149
G1 X3.3784 Y0.4791
G2 X3.4688 Y0.4185 I0.0149 J-0.0755
G3 X3.7497 Y-0.0203 I0.6995 J0.1384
G2 X4.0197 Y-0.6815 I-0.3975 J-0.548
G0 Z0.6
(2D SLOT CUT 2)
M7
G0 X3.7481 Y-1.6043
Z0.6
Z0.2
G1 Z0.1 F13.333
G3 X4.0197 Y-0.6815 Z-0.07 I-3.7482 J1.6042 F30.
G2 X-4.0197 Y0.6813 I-4.0197 J0.6814
X4.0754 Y-0.1161 I4.0197 J-0.6814
G3 X-4.0754 Y0.1159 Z-0.1058 I-4.0754 J0.116
X4.0197 Y-0.6815 Z-0.14 I4.0754 J-0.116
G2 X-4.0197 Y0.6813 I-4.0197 J0.6814
X4.0754 Y-0.1161 I4.0197 J-0.6814
G3 X-4.0754 Y0.1159 I-4.0754 J0.116
X2.2135 Y-3.4239 I4.0754 J-0.116
G1 Z-0.2006
G3 X3.4375 Y-2.1923 I-2.2135 J3.4238
G1 Z-0.2
G3 X3.7824 Y-1.5218 I-3.4375 J2.1922
G1 Z-0.2076 F13.333
G3 X4.0197 Y-0.6815 I-3.7824 J1.5217 F30.
G1 Z-0.21 F13.333
G2 X3.7824 Y-1.5218 I-4.0197 J0.6814 F30.
G1 Z-0.2
G2 X3.4375 Y-2.1923 I-3.7824 J1.5217
G1 Z-0.21 F13.333
G2 X2.2135 Y-3.4239 I-3.4375 J2.1922 F30.
G1 Z-0.2
G2 X1.5451 Y-3.773 I-2.2135 J3.4238
G1 Z-0.21 F13.333
G2 X-0.165 Y-4.0737 I-1.5451 J3.7729 F30.
G1 Z-0.2
G2 X-0.9123 Y-3.9737 I0.165 J4.0737
G1 Z-0.21 F13.333
G2 X-2.4831 Y-3.2337 I0.9123 J3.9736 F30.
G1 Z-0.2
G2 X-3.0361 Y-2.7211 I2.4831 J3.2336
G1 Z-0.21 F13.333
G2 X-3.893 Y-1.211 I3.0361 J2.7211 F30.
G1 Z-0.2
G2 X-4.0495 Y-0.4734 I3.893 J1.2109
G1 Z-0.21 F13.333
G2 X-3.8792 Y1.2546 I4.0494 J0.4733 F30.
G1 Z-0.2
G2 X-3.5818 Y1.9475 I3.8792 J-1.2546
G1 Z-0.21 F13.333
G2 X-2.4466 Y3.2612 I3.5818 J-1.9475 F30.
G1 Z-0.2
G2 X-1.8042 Y3.656 I2.4466 J-3.2613
G1 Z-0.21 F13.333
G2 X-0.1193 Y4.0752 I1.8042 J-3.6561 F30.
G1 Z-0.2
G2 X0.6332 Y4.0275 I0.1193 J-4.0753
G1 Z-0.21 F13.333
G2 X2.2517 Y3.3987 I-0.6332 J-4.0275 F30.
G1 Z-0.2
G2 X2.839 Y2.926 I-2.2517 J-3.3988
G1 Z-0.21 F13.333
G2 X3.7991 Y1.4793 I-2.8391 J-2.9261 F30.
G1 Z-0.2
G2 X4.0066 Y0.7544 I-3.7992 J-1.4793
G1 Z-0.21 F13.333
G2 X4.0754 Y-0.1161 I-4.0066 J-0.7544 F30.
G3 X4.0066 Y0.7544 I-4.0754 J0.116
G1 Z-0.2
G3 X3.7991 Y1.4793 I-4.0066 J-0.7544
G1 Z-0.2146 F13.333
G3 X2.839 Y2.926 I-3.7992 J-1.4793 F30.
G1 Z-0.2
G3 X2.2517 Y3.3987 I-2.8391 J-2.9261
G1 Z-0.2216 F13.333
G3 X0.6332 Y4.0275 I-2.2517 J-3.3988 F30.
G1 Z-0.2
G3 X-0.1193 Y4.0752 I-0.6332 J-4.0275
G1 Z-0.2286 F13.333
G3 X-1.8042 Y3.656 I0.1193 J-4.0753 F30.
G1 Z-0.2
G3 X-2.4466 Y3.2612 I1.8042 J-3.6561
G1 Z-0.2356 F13.333
G3 X-3.5818 Y1.9475 I2.4466 J-3.2613 F30.
G1 Z-0.2
G3 X-3.8792 Y1.2546 I3.5818 J-1.9475
G1 Z-0.2426 F13.333
G3 X-4.0495 Y-0.4734 I3.8792 J-1.2546 F30.
G1 Z-0.2
G3 X-3.893 Y-1.211 I4.0494 J0.4733
G1 Z-0.2496 F13.333
G3 X-3.0361 Y-2.7211 I3.893 J1.2109 F30.
G1 Z-0.2
G3 X-2.4831 Y-3.2337 I3.0361 J2.7211
G1 Z-0.2566 F13.333
G3 X-0.9123 Y-3.9737 I2.4831 J3.2336 F30.
G1 Z-0.2
G3 X-0.165 Y-4.0737 I0.9123 J3.9736
G1 Z-0.2636 F13.333
G3 X1.5451 Y-3.773 I0.165 J4.0737 F30.
G1 Z-0.2
G3 X2.2135 Y-3.4239 I-1.5451 J3.7729
G1 Z-0.2706 F13.333
G3 X3.4375 Y-2.1923 I-2.2135 J3.4238 F30.
G1 Z-0.2
G3 X3.7824 Y-1.5218 I-3.4375 J2.1922
G1 Z-0.2776 F13.333
G3 X4.0197 Y-0.6815 I-3.7824 J1.5217 F30.
G1 Z-0.28 F13.333
G2 X3.7824 Y-1.5218 I-4.0197 J0.6814 F30.
G1 Z-0.2
G2 X3.4375 Y-2.1923 I-3.7824 J1.5217
G1 Z-0.28 F13.333
G2 X2.2135 Y-3.4239 I-3.4375 J2.1922 F30.
G1 Z-0.2
G2 X1.5451 Y-3.773 I-2.2135 J3.4238
G1 Z-0.28 F13.333
G2 X-0.165 Y-4.0737 I-1.5451 J3.7729 F30.
G1 Z-0.2
G2 X-0.9123 Y-3.9737 I0.165 J4.0737
G1 Z-0.28 F13.333
G2 X-2.4831 Y-3.2337 I0.9123 J3.9736 F30.
G1 Z-0.2
G2 X-3.0361 Y-2.7211 I2.4831 J3.2336
G1 Z-0.28 F13.333
G2 X-3.893 Y-1.211 I3.0361 J2.7211 F30.
G1 Z-0.2
G2 X-4.0495 Y-0.4734 I3.893 J1.2109
G1 Z-0.28 F13.333
G2 X-3.8792 Y1.2546 I4.0494 J0.4733 F30.
G1 Z-0.2
G2 X-3.5818 Y1.9475 I3.8792 J-1.2546
G1 Z-0.28 F13.333
G2 X-2.4466 Y3.2612 I3.5818 J-1.9475 F30.
G1 Z-0.2
G2 X-1.8042 Y3.656 I2.4466 J-3.2613
G1 Z-0.28 F13.333
G2 X-0.1193 Y4.0752 I1.8042 J-3.6561 F30.
G1 Z-0.2
G2 X0.6332 Y4.0275 I0.1193 J-4.0753
G1 Z-0.28 F13.333
G2 X2.2517 Y3.3987 I-0.6332 J-4.0275 F30.
G1 Z-0.2
G2 X2.839 Y2.926 I-2.2517 J-3.3988
G1 Z-0.28 F13.333
G2 X3.7991 Y1.4793 I-2.8391 J-2.9261 F30.
G1 Z-0.2
G2 X4.0066 Y0.7544 I-3.7992 J-1.4793
G1 Z-0.28 F13.333
G2 X4.0754 Y-0.1161 I-4.0066 J-0.7544 F30.
G0 Z0.6
M9
G53 Z0.
M30
%
