%
(971-23-P-0052_CAPSTAN CABLE PLATE_1492)
(T1  D=0.1492 CR=0. - ZMIN=-0.28 - FLAT END MILL)
G90 G94 G17 G91.1
G64 P0.001 Q0.001
G20
G53 G0 Z0.
(.3 CIRCLUAR THROUGH HOLE 2)
M9
T1 M6
S22000 M3
G4 P10.
G54
M7
G0 X-2.9434 Y2.3481
G43 Z0.6 H1
G0 Z0.13
G1 Z0.0649 F40.
G19 G3 Y2.3631 Z0.05 J0.0149 K0.
G1 Y2.3705
G17 G3 X-2.9563 Y2.3835 I-0.0129 J0.
Y2.3317 Z0.0323 I0. J-0.0259
Y2.3835 Z0.0146 I0. J0.0259
Y2.3317 Z-0.0032 I0. J-0.0259
Y2.3835 Z-0.0209 I0. J0.0259
Y2.3317 Z-0.0386 I0. J-0.0259
Y2.3835 Z-0.0563 I0. J0.0259
Y2.3317 Z-0.074 I0. J-0.0259
Y2.3835 Z-0.0918 I0. J0.0259
Y2.3317 Z-0.1095 I0. J-0.0259
Y2.3835 Z-0.1272 I0. J0.0259
Y2.3317 Z-0.1449 I0. J-0.0259
Y2.3835 Z-0.1627 I0. J0.0259
Y2.3317 Z-0.1804 I0. J-0.0259
Y2.3835 Z-0.1981 I0. J0.0259
Y2.3317 Z-0.2158 I0. J-0.0259
Y2.3835 Z-0.2335 I0. J0.0259
Y2.3317 Z-0.2513 I0. J-0.0259
Y2.3835 Z-0.269 I0. J0.0259
X-2.9803 Y2.3479 Z-0.28 I0. J-0.0259
X-2.9323 Y2.3673 I0.024 J0.0097
X-2.9803 Y2.3479 I-0.024 J-0.0097
X-2.9635 Y2.3407 I0.012 J0.0048
G1 X-2.9565 Y2.3435
X-2.9538 Y2.3446 Z-0.2797
X-2.9512 Y2.3456 Z-0.2789
X-2.9489 Y2.3466 Z-0.2775
X-2.9468 Y2.3475 Z-0.2756
X-2.945 Y2.3482 Z-0.2734
X-2.9438 Y2.3487 Z-0.2708
X-2.943 Y2.349 Z-0.268
X-2.9427 Y2.3491 Z-0.2651
G0 Z0.4
X-1.631 Y3.394
Z0.13
G1 Z0.0649 F40.
G19 G3 Y3.4089 Z0.05 J0.0149 K0.
G1 Y3.4164
G17 G3 X-1.6406 Y3.4259 I-0.0096 J0.
Y3.3876 Z0.0335 I0. J-0.0192
Y3.4259 Z0.0169 I0. J0.0192
Y3.3876 Z0.0004 I0. J-0.0192
Y3.4259 Z-0.0161 I0. J0.0192
Y3.3876 Z-0.0327 I0. J-0.0192
Y3.4259 Z-0.0492 I0. J0.0192
Y3.3876 Z-0.0657 I0. J-0.0192
Y3.4259 Z-0.0822 I0. J0.0192
Y3.3876 Z-0.0988 I0. J-0.0192
Y3.4259 Z-0.1153 I0. J0.0192
Y3.3876 Z-0.1318 I0. J-0.0192
Y3.4259 Z-0.1484 I0. J0.0192
Y3.3876 Z-0.1649 I0. J-0.0192
Y3.4259 Z-0.1814 I0. J0.0192
Y3.3876 Z-0.198 I0. J-0.0192
Y3.4259 Z-0.2145 I0. J0.0192
Y3.3876 Z-0.231 I0. J-0.0192
Y3.4259 Z-0.2476 I0. J0.0192
Y3.3876 Z-0.2641 I0. J-0.0192
X-1.6384 Y3.4258 Z-0.28 I0. J0.0192
X-1.6428 Y3.3878 I-0.0022 J-0.019
X-1.6384 Y3.4258 I0.0022 J0.019
X-1.649 Y3.4174 I-0.0011 J-0.0095
G1 X-1.6499 Y3.41
X-1.6502 Y3.4071 Z-0.2797
X-1.6506 Y3.4043 Z-0.2789
X-1.6509 Y3.4018 Z-0.2775
X-1.6511 Y3.3995 Z-0.2756
X-1.6513 Y3.3977 Z-0.2734
X-1.6515 Y3.3963 Z-0.2708
X-1.6516 Y3.3955 Z-0.268
Y3.3952 Z-0.2651
G0 Z0.4
X0.0129 Y3.7718
Z0.13
G1 Z0.0649 F40.
G19 G3 Y3.7867 Z0.05 J0.0149 K0.
G1 Y3.7942
G17 G3 X0. Y3.8071 I-0.0129 J0.
Y3.7553 Z0.0323 I0. J-0.0259
Y3.8071 Z0.0146 I0. J0.0259
Y3.7553 Z-0.0032 I0. J-0.0259
Y3.8071 Z-0.0209 I0. J0.0259
Y3.7553 Z-0.0386 I0. J-0.0259
Y3.8071 Z-0.0563 I0. J0.0259
Y3.7553 Z-0.074 I0. J-0.0259
Y3.8071 Z-0.0918 I0. J0.0259
Y3.7553 Z-0.1095 I0. J-0.0259
Y3.8071 Z-0.1272 I0. J0.0259
Y3.7553 Z-0.1449 I0. J-0.0259
Y3.8071 Z-0.1627 I0. J0.0259
Y3.7553 Z-0.1804 I0. J-0.0259
Y3.8071 Z-0.1981 I0. J0.0259
Y3.7553 Z-0.2158 I0. J-0.0259
Y3.8071 Z-0.2335 I0. J0.0259
Y3.7553 Z-0.2513 I0. J-0.0259
Y3.8071 Z-0.269 I0. J0.0259
X-0.024 Y3.7716 Z-0.28 I0. J-0.0259
X0.024 Y3.7909 I0.024 J0.0097
X-0.024 Y3.7716 I-0.024 J-0.0097
X-0.0072 Y3.7644 I0.012 J0.0048
G1 X-0.0002 Y3.7672
X0.0025 Y3.7683 Z-0.2797
X0.0051 Y3.7693 Z-0.2789
X0.0074 Y3.7703 Z-0.2775
X0.0095 Y3.7711 Z-0.2756
X0.0113 Y3.7718 Z-0.2734
X0.0125 Y3.7723 Z-0.2708
X0.0133 Y3.7727 Z-0.268
X0.0136 Y3.7728 Z-0.2651
G0 Z0.4
X1.6502 Y3.394
Z0.13
G1 Z0.0649 F40.
G19 G3 Y3.4089 Z0.05 J0.0149 K0.
G1 Y3.4164
G17 G3 X1.6406 Y3.4259 I-0.0096 J0.
Y3.3876 Z0.0335 I0. J-0.0192
Y3.4259 Z0.0169 I0. J0.0192
Y3.3876 Z0.0004 I0. J-0.0192
Y3.4259 Z-0.0161 I0. J0.0192
Y3.3876 Z-0.0327 I0. J-0.0192
Y3.4259 Z-0.0492 I0. J0.0192
Y3.3876 Z-0.0657 I0. J-0.0192
Y3.4259 Z-0.0822 I0. J0.0192
Y3.3876 Z-0.0988 I0. J-0.0192
Y3.4259 Z-0.1153 I0. J0.0192
Y3.3876 Z-0.1318 I0. J-0.0192
Y3.4259 Z-0.1484 I0. J0.0192
Y3.3876 Z-0.1649 I0. J-0.0192
Y3.4259 Z-0.1814 I0. J0.0192
Y3.3876 Z-0.198 I0. J-0.0192
Y3.4259 Z-0.2145 I0. J0.0192
Y3.3876 Z-0.231 I0. J-0.0192
Y3.4259 Z-0.2476 I0. J0.0192
Y3.3876 Z-0.2641 I0. J-0.0192
X1.6428 Y3.4258 Z-0.28 I0. J0.0192
X1.6384 Y3.3878 I-0.0022 J-0.019
X1.6428 Y3.4258 I0.0022 J0.019
X1.6322 Y3.4174 I-0.0011 J-0.0095
G1 X1.6314 Y3.41
X1.631 Y3.4071 Z-0.2797
X1.6307 Y3.4043 Z-0.2789
X1.6304 Y3.4018 Z-0.2775
X1.6301 Y3.3995 Z-0.2756
X1.6299 Y3.3977 Z-0.2734
X1.6298 Y3.3963 Z-0.2708
X1.6297 Y3.3955 Z-0.268
X1.6296 Y3.3952 Z-0.2651
G0 Z0.4
X2.9693 Y2.3481
Z0.13
G1 Z0.0649 F40.
G19 G3 Y2.3631 Z0.05 J0.0149 K0.
G1 Y2.3705
G17 G3 X2.9563 Y2.3835 I-0.013 J0.
Y2.3317 Z0.0323 I0. J-0.0259
Y2.3835 Z0.0146 I0. J0.0259
Y2.3317 Z-0.0032 I0. J-0.0259
Y2.3835 Z-0.0209 I0. J0.0259
Y2.3317 Z-0.0386 I0. J-0.0259
Y2.3835 Z-0.0563 I0. J0.0259
Y2.3317 Z-0.074 I0. J-0.0259
Y2.3835 Z-0.0918 I0. J0.0259
Y2.3317 Z-0.1095 I0. J-0.0259
Y2.3835 Z-0.1272 I0. J0.0259
Y2.3317 Z-0.1449 I0. J-0.0259
Y2.3835 Z-0.1627 I0. J0.0259
Y2.3317 Z-0.1804 I0. J-0.0259
Y2.3835 Z-0.1981 I0. J0.0259
Y2.3317 Z-0.2158 I0. J-0.0259
Y2.3835 Z-0.2335 I0. J0.0259
Y2.3317 Z-0.2513 I0. J-0.0259
Y2.3835 Z-0.269 I0. J0.0259
X2.9323 Y2.3479 Z-0.28 I0. J-0.0259
X2.9803 Y2.3673 I0.024 J0.0097
X2.9323 Y2.3479 I-0.024 J-0.0097
X2.9491 Y2.3407 I0.012 J0.0048
G1 X2.9561 Y2.3435
X2.9588 Y2.3446 Z-0.2797
X2.9614 Y2.3456 Z-0.2789
X2.9637 Y2.3466 Z-0.2775
X2.9658 Y2.3475 Z-0.2756
X2.9676 Y2.3482 Z-0.2734
X2.9688 Y2.3487 Z-0.2708
X2.9696 Y2.349 Z-0.268
X2.9699 Y2.3491 Z-0.2651
G0 Z0.4
X3.8188 Y0.3193
Z0.13
G1 Z0.0649 F40.
G19 G3 Y0.3342 Z0.05 J0.0149 K0.
G1 Y0.3417
G17 G3 X3.8092 Y0.3513 I-0.0096 J0.
Y0.313 Z0.0335 I0. J-0.0192
Y0.3513 Z0.0169 I0. J0.0192
Y0.313 Z0.0004 I0. J-0.0192
Y0.3513 Z-0.0161 I0. J0.0192
Y0.313 Z-0.0327 I0. J-0.0192
Y0.3513 Z-0.0492 I0. J0.0192
Y0.313 Z-0.0657 I0. J-0.0192
Y0.3513 Z-0.0822 I0. J0.0192
Y0.313 Z-0.0988 I0. J-0.0192
Y0.3513 Z-0.1153 I0. J0.0192
Y0.313 Z-0.1318 I0. J-0.0192
Y0.3513 Z-0.1484 I0. J0.0192
Y0.313 Z-0.1649 I0. J-0.0192
Y0.3513 Z-0.1814 I0. J0.0192
Y0.313 Z-0.198 I0. J-0.0192
Y0.3513 Z-0.2145 I0. J0.0192
Y0.313 Z-0.231 I0. J-0.0192
Y0.3513 Z-0.2476 I0. J0.0192
Y0.313 Z-0.2641 I0. J-0.0192
X3.8114 Y0.3511 Z-0.28 I0. J0.0192
X3.807 Y0.3131 I-0.0022 J-0.019
X3.8114 Y0.3511 I0.0022 J0.019
X3.8008 Y0.3427 I-0.0011 J-0.0095
G1 X3.7999 Y0.3353
X3.7996 Y0.3324 Z-0.2797
X3.7993 Y0.3297 Z-0.2789
X3.799 Y0.3271 Z-0.2775
X3.7987 Y0.3248 Z-0.2756
X3.7985 Y0.323 Z-0.2734
X3.7983 Y0.3216 Z-0.2708
X3.7982 Y0.3208 Z-0.268
Y0.3205 Z-0.2651
G0 Z0.4
X3.7035 Y-0.3308
Z0.13
G1 Z0.0649 F40.
G19 G3 Y-0.3159 Z0.05 J0.0149 K0.
G1 Y-0.3085
G17 G3 X3.6939 Y-0.2989 I-0.0096 J0.
Y-0.3372 Z0.0335 I0. J-0.0192
Y-0.2989 Z0.0169 I0. J0.0192
Y-0.3372 Z0.0004 I0. J-0.0192
Y-0.2989 Z-0.0161 I0. J0.0192
Y-0.3372 Z-0.0327 I0. J-0.0192
Y-0.2989 Z-0.0492 I0. J0.0192
Y-0.3372 Z-0.0657 I0. J-0.0192
Y-0.2989 Z-0.0822 I0. J0.0192
Y-0.3372 Z-0.0988 I0. J-0.0192
Y-0.2989 Z-0.1153 I0. J0.0192
Y-0.3372 Z-0.1318 I0. J-0.0192
Y-0.2989 Z-0.1484 I0. J0.0192
Y-0.3372 Z-0.1649 I0. J-0.0192
Y-0.2989 Z-0.1814 I0. J0.0192
Y-0.3372 Z-0.198 I0. J-0.0192
Y-0.2989 Z-0.2145 I0. J0.0192
Y-0.3372 Z-0.231 I0. J-0.0192
Y-0.2989 Z-0.2476 I0. J0.0192
Y-0.3372 Z-0.2641 I0. J-0.0192
X3.6962 Y-0.299 Z-0.28 I0. J0.0192
X3.6917 Y-0.3371 I-0.0022 J-0.019
X3.6962 Y-0.299 I0.0022 J0.019
X3.6856 Y-0.3074 I-0.0011 J-0.0095
G1 X3.6847 Y-0.3148
X3.6843 Y-0.3177 Z-0.2797
X3.684 Y-0.3205 Z-0.2789
X3.6837 Y-0.3231 Z-0.2775
X3.6835 Y-0.3253 Z-0.2756
X3.6832 Y-0.3271 Z-0.2734
X3.6831 Y-0.3285 Z-0.2708
X3.683 Y-0.3294 Z-0.268
Y-0.3296 Z-0.2651
G0 Z0.4
X3.6994 Y-0.8508
Z0.13
G1 Z0.0649 F40.
G19 G3 Y-0.8359 Z0.05 J0.0149 K0.
G1 Y-0.8285
G17 G3 X3.6864 Y-0.8155 I-0.0129 J0.
Y-0.8673 Z0.0323 I0. J-0.0259
Y-0.8155 Z0.0146 I0. J0.0259
Y-0.8673 Z-0.0032 I0. J-0.0259
Y-0.8155 Z-0.0209 I0. J0.0259
Y-0.8673 Z-0.0386 I0. J-0.0259
Y-0.8155 Z-0.0563 I0. J0.0259
Y-0.8673 Z-0.074 I0. J-0.0259
Y-0.8155 Z-0.0918 I0. J0.0259
Y-0.8673 Z-0.1095 I0. J-0.0259
Y-0.8155 Z-0.1272 I0. J0.0259
Y-0.8673 Z-0.1449 I0. J-0.0259
Y-0.8155 Z-0.1627 I0. J0.0259
Y-0.8673 Z-0.1804 I0. J-0.0259
Y-0.8155 Z-0.1981 I0. J0.0259
Y-0.8673 Z-0.2158 I0. J-0.0259
Y-0.8155 Z-0.2335 I0. J0.0259
Y-0.8673 Z-0.2513 I0. J-0.0259
Y-0.8155 Z-0.269 I0. J0.0259
X3.6624 Y-0.8511 Z-0.28 I0. J-0.0259
X3.7105 Y-0.8317 I0.024 J0.0097
X3.6624 Y-0.8511 I-0.024 J-0.0097
X3.6793 Y-0.8583 I0.012 J0.0048
G1 X3.6862 Y-0.8555
X3.6889 Y-0.8544 Z-0.2797
X3.6915 Y-0.8533 Z-0.2789
X3.6939 Y-0.8524 Z-0.2775
X3.696 Y-0.8515 Z-0.2756
X3.6977 Y-0.8508 Z-0.2734
X3.699 Y-0.8503 Z-0.2708
X3.6998 Y-0.85 Z-0.268
X3.7 Y-0.8499 Z-0.2651
G0 Z0.4
X2.9659 Y-2.3704
Z0.13
G1 Z0.0649 F40.
G19 G3 Y-2.3555 Z0.05 J0.0149 K0.
G1 Y-2.348
G17 G3 X2.9563 Y-2.3384 I-0.0096 J0.
Y-2.3767 Z0.0335 I0. J-0.0191
Y-2.3384 Z0.0169 I0. J0.0191
Y-2.3767 Z0.0004 I0. J-0.0191
Y-2.3384 Z-0.0161 I0. J0.0191
Y-2.3767 Z-0.0327 I0. J-0.0191
Y-2.3384 Z-0.0492 I0. J0.0191
Y-2.3767 Z-0.0657 I0. J-0.0191
Y-2.3384 Z-0.0822 I0. J0.0191
Y-2.3767 Z-0.0988 I0. J-0.0191
Y-2.3384 Z-0.1153 I0. J0.0191
Y-2.3767 Z-0.1318 I0. J-0.0191
Y-2.3384 Z-0.1484 I0. J0.0191
Y-2.3767 Z-0.1649 I0. J-0.0191
Y-2.3384 Z-0.1814 I0. J0.0191
Y-2.3767 Z-0.198 I0. J-0.0191
Y-2.3384 Z-0.2145 I0. J0.0192
Y-2.3767 Z-0.231 I0. J-0.0192
Y-2.3384 Z-0.2476 I0. J0.0192
Y-2.3767 Z-0.2641 I0. J-0.0192
X2.9585 Y-2.3386 Z-0.28 I0. J0.0192
X2.9541 Y-2.3766 I-0.0022 J-0.019
X2.9585 Y-2.3386 I0.0022 J0.019
X2.9479 Y-2.3469 I-0.0011 J-0.0095
G1 X2.947 Y-2.3544
X2.9467 Y-2.3572 Z-0.2797
X2.9464 Y-2.36 Z-0.2789
X2.9461 Y-2.3626 Z-0.2775
X2.9458 Y-2.3648 Z-0.2756
X2.9456 Y-2.3667 Z-0.2734
X2.9454 Y-2.368 Z-0.2708
X2.9453 Y-2.3689 Z-0.268
Y-2.3692 Z-0.2651
G0 Z0.4
X1.6536 Y-3.4162
Z0.13
G1 Z0.0649 F40.
G19 G3 Y-3.4013 Z0.05 J0.0149 K0.
G1 Y-3.3938
G17 G3 X1.6406 Y-3.3809 I-0.0129 J0.
Y-3.4327 Z0.0323 I0. J-0.0259
Y-3.3809 Z0.0146 I0. J0.0259
Y-3.4327 Z-0.0032 I0. J-0.0259
Y-3.3809 Z-0.0209 I0. J0.0259
Y-3.4327 Z-0.0386 I0. J-0.0259
Y-3.3809 Z-0.0563 I0. J0.0259
Y-3.4327 Z-0.074 I0. J-0.0259
Y-3.3809 Z-0.0918 I0. J0.0259
Y-3.4327 Z-0.1095 I0. J-0.0259
Y-3.3809 Z-0.1272 I0. J0.0259
Y-3.4327 Z-0.1449 I0. J-0.0259
Y-3.3809 Z-0.1627 I0. J0.0259
Y-3.4327 Z-0.1804 I0. J-0.0259
Y-3.3809 Z-0.1981 I0. J0.0259
Y-3.4327 Z-0.2158 I0. J-0.0259
Y-3.3809 Z-0.2335 I0. J0.0259
Y-3.4327 Z-0.2513 I0. J-0.0259
Y-3.3809 Z-0.269 I0. J0.0259
X1.6166 Y-3.4165 Z-0.28 I0. J-0.0259
X1.6646 Y-3.3971 I0.024 J0.0097
X1.6166 Y-3.4165 I-0.024 J-0.0097
X1.6335 Y-3.4236 I0.012 J0.0048
G1 X1.6404 Y-3.4209
X1.6431 Y-3.4198 Z-0.2797
X1.6457 Y-3.4187 Z-0.2789
X1.6481 Y-3.4177 Z-0.2775
X1.6502 Y-3.4169 Z-0.2756
X1.6519 Y-3.4162 Z-0.2734
X1.6532 Y-3.4157 Z-0.2708
X1.6539 Y-3.4154 Z-0.268
X1.6542 Y-3.4153 Z-0.2651
G0 Z0.4
X0.0096 Y-3.7941
Z0.13
G1 Z0.0649 F40.
G19 G3 Y-3.7791 Z0.05 J0.0149 K0.
G1 Y-3.7717
G17 G3 X0. Y-3.7621 I-0.0096 J0.
Y-3.8004 Z0.0335 I0. J-0.0191
Y-3.7621 Z0.0169 I0. J0.0191
Y-3.8004 Z0.0004 I0. J-0.0191
Y-3.7621 Z-0.0161 I0. J0.0191
Y-3.8004 Z-0.0327 I0. J-0.0191
Y-3.7621 Z-0.0492 I0. J0.0191
Y-3.8004 Z-0.0657 I0. J-0.0191
Y-3.7621 Z-0.0822 I0. J0.0191
Y-3.8004 Z-0.0988 I0. J-0.0191
Y-3.7621 Z-0.1153 I0. J0.0191
Y-3.8004 Z-0.1318 I0. J-0.0191
Y-3.7621 Z-0.1484 I0. J0.0191
Y-3.8004 Z-0.1649 I0. J-0.0191
Y-3.7621 Z-0.1814 I0. J0.0191
Y-3.8004 Z-0.198 I0. J-0.0191
Y-3.7621 Z-0.2145 I0. J0.0191
Y-3.8004 Z-0.231 I0. J-0.0191
Y-3.7621 Z-0.2476 I0. J0.0191
Y-3.8004 Z-0.2641 I0. J-0.0191
X0.0022 Y-3.7622 Z-0.28 I0. J0.0191
X-0.0022 Y-3.8003 I-0.0022 J-0.019
X0.0022 Y-3.7622 I0.0022 J0.019
X-0.0084 Y-3.7706 I-0.0011 J-0.0095
G1 X-0.0093 Y-3.778
X-0.0096 Y-3.7809 Z-0.2797
X-0.0099 Y-3.7837 Z-0.2789
X-0.0102 Y-3.7863 Z-0.2775
X-0.0105 Y-3.7885 Z-0.2756
X-0.0107 Y-3.7904 Z-0.2734
X-0.0109 Y-3.7917 Z-0.2708
X-0.011 Y-3.7926 Z-0.268
Y-3.7929 Z-0.2651
G0 Z0.4
X-1.6277 Y-3.4162
Z0.13
G1 Z0.0649 F40.
G19 G3 Y-3.4013 Z0.05 J0.0149 K0.
G1 Y-3.3938
G17 G3 X-1.6406 Y-3.3809 I-0.0129 J0.
Y-3.4327 Z0.0323 I0. J-0.0259
Y-3.3809 Z0.0146 I0. J0.0259
Y-3.4327 Z-0.0032 I0. J-0.0259
Y-3.3809 Z-0.0209 I0. J0.0259
Y-3.4327 Z-0.0386 I0. J-0.0259
Y-3.3809 Z-0.0563 I0. J0.0259
Y-3.4327 Z-0.074 I0. J-0.0259
Y-3.3809 Z-0.0918 I0. J0.0259
Y-3.4327 Z-0.1095 I0. J-0.0259
Y-3.3809 Z-0.1272 I0. J0.0259
Y-3.4327 Z-0.1449 I0. J-0.0259
Y-3.3809 Z-0.1627 I0. J0.0259
Y-3.4327 Z-0.1804 I0. J-0.0259
Y-3.3809 Z-0.1981 I0. J0.0259
Y-3.4327 Z-0.2158 I0. J-0.0259
Y-3.3809 Z-0.2335 I0. J0.0259
Y-3.4327 Z-0.2513 I0. J-0.0259
Y-3.3809 Z-0.269 I0. J0.0259
X-1.6646 Y-3.4165 Z-0.28 I0. J-0.0259
X-1.6166 Y-3.3971 I0.024 J0.0097
X-1.6646 Y-3.4165 I-0.024 J-0.0097
X-1.6478 Y-3.4236 I0.012 J0.0048
G1 X-1.6409 Y-3.4209
X-1.6382 Y-3.4198 Z-0.2797
X-1.6356 Y-3.4187 Z-0.2789
X-1.6332 Y-3.4177 Z-0.2775
X-1.6311 Y-3.4169 Z-0.2756
X-1.6294 Y-3.4162 Z-0.2734
X-1.6281 Y-3.4157 Z-0.2708
X-1.6273 Y-3.4154 Z-0.268
X-1.627 Y-3.4153 Z-0.2651
G0 Z0.4
X-2.9467 Y-2.3704
Z0.13
G1 Z0.0649 F40.
G19 G3 Y-2.3555 Z0.05 J0.0149 K0.
G1 Y-2.348
G17 G3 X-2.9563 Y-2.3384 I-0.0096 J0.
Y-2.3767 Z0.0335 I0. J-0.0191
Y-2.3384 Z0.0169 I0. J0.0191
Y-2.3767 Z0.0004 I0. J-0.0191
Y-2.3384 Z-0.0161 I0. J0.0191
Y-2.3767 Z-0.0327 I0. J-0.0191
Y-2.3384 Z-0.0492 I0. J0.0191
Y-2.3767 Z-0.0657 I0. J-0.0191
Y-2.3384 Z-0.0822 I0. J0.0191
Y-2.3767 Z-0.0988 I0. J-0.0191
Y-2.3384 Z-0.1153 I0. J0.0191
Y-2.3767 Z-0.1318 I0. J-0.0191
Y-2.3384 Z-0.1484 I0. J0.0191
Y-2.3767 Z-0.1649 I0. J-0.0191
Y-2.3384 Z-0.1814 I0. J0.0191
Y-2.3767 Z-0.198 I0. J-0.0191
Y-2.3384 Z-0.2145 I0. J0.0192
Y-2.3767 Z-0.231 I0. J-0.0192
Y-2.3384 Z-0.2476 I0. J0.0192
Y-2.3767 Z-0.2641 I0. J-0.0192
X-2.9541 Y-2.3386 Z-0.28 I0. J0.0192
X-2.9585 Y-2.3766 I-0.0022 J-0.019
X-2.9541 Y-2.3386 I0.0022 J0.019
X-2.9647 Y-2.3469 I-0.0011 J-0.0095
G1 X-2.9656 Y-2.3544
X-2.9659 Y-2.3572 Z-0.2797
X-2.9662 Y-2.36 Z-0.2789
X-2.9665 Y-2.3626 Z-0.2775
X-2.9668 Y-2.3648 Z-0.2756
X-2.967 Y-2.3667 Z-0.2734
X-2.9672 Y-2.368 Z-0.2708
X-2.9673 Y-2.3689 Z-0.268
Y-2.3692 Z-0.2651
G0 Z0.4
X-3.6735 Y-0.8508
Z0.13
G1 Z0.0649 F40.
G19 G3 Y-0.8359 Z0.05 J0.0149 K0.
G1 Y-0.8285
G17 G3 X-3.6864 Y-0.8155 I-0.013 J0.
Y-0.8673 Z0.0323 I0. J-0.0259
Y-0.8155 Z0.0146 I0. J0.0259
Y-0.8673 Z-0.0032 I0. J-0.0259
Y-0.8155 Z-0.0209 I0. J0.0259
Y-0.8673 Z-0.0386 I0. J-0.0259
Y-0.8155 Z-0.0563 I0. J0.0259
Y-0.8673 Z-0.074 I0. J-0.0259
Y-0.8155 Z-0.0918 I0. J0.0259
Y-0.8673 Z-0.1095 I0. J-0.0259
Y-0.8155 Z-0.1272 I0. J0.0259
Y-0.8673 Z-0.1449 I0. J-0.0259
Y-0.8155 Z-0.1627 I0. J0.0259
Y-0.8673 Z-0.1804 I0. J-0.0259
Y-0.8155 Z-0.1981 I0. J0.0259
Y-0.8673 Z-0.2158 I0. J-0.0259
Y-0.8155 Z-0.2335 I0. J0.0259
Y-0.8673 Z-0.2513 I0. J-0.0259
Y-0.8155 Z-0.269 I0. J0.0259
X-3.7105 Y-0.8511 Z-0.28 I0. J-0.0259
X-3.6624 Y-0.8317 I0.024 J0.0097
X-3.7105 Y-0.8511 I-0.024 J-0.0097
X-3.6936 Y-0.8583 I0.012 J0.0048
G1 X-3.6867 Y-0.8555
X-3.684 Y-0.8544 Z-0.2797
X-3.6814 Y-0.8533 Z-0.2789
X-3.679 Y-0.8524 Z-0.2775
X-3.6769 Y-0.8515 Z-0.2756
X-3.6752 Y-0.8508 Z-0.2734
X-3.6739 Y-0.8503 Z-0.2708
X-3.6731 Y-0.85 Z-0.268
X-3.6729 Y-0.8499 Z-0.2651
G0 Z0.4
X-3.6844 Y-0.3308
Z0.13
G1 Z0.0649 F40.
G19 G3 Y-0.3159 Z0.05 J0.0149 K0.
G1 Y-0.3085
G17 G3 X-3.6939 Y-0.2989 I-0.0096 J0.
Y-0.3372 Z0.0335 I0. J-0.0192
Y-0.2989 Z0.0169 I0. J0.0192
Y-0.3372 Z0.0004 I0. J-0.0192
Y-0.2989 Z-0.0161 I0. J0.0192
Y-0.3372 Z-0.0327 I0. J-0.0192
Y-0.2989 Z-0.0492 I0. J0.0192
Y-0.3372 Z-0.0657 I0. J-0.0192
Y-0.2989 Z-0.0822 I0. J0.0192
Y-0.3372 Z-0.0988 I0. J-0.0192
Y-0.2989 Z-0.1153 I0. J0.0192
Y-0.3372 Z-0.1318 I0. J-0.0192
Y-0.2989 Z-0.1484 I0. J0.0192
Y-0.3372 Z-0.1649 I0. J-0.0192
Y-0.2989 Z-0.1814 I0. J0.0192
Y-0.3372 Z-0.198 I0. J-0.0192
Y-0.2989 Z-0.2145 I0. J0.0192
Y-0.3372 Z-0.231 I0. J-0.0192
Y-0.2989 Z-0.2476 I0. J0.0192
Y-0.3372 Z-0.2641 I0. J-0.0192
X-3.6917 Y-0.299 Z-0.28 I0. J0.0192
X-3.6962 Y-0.3371 I-0.0022 J-0.019
X-3.6917 Y-0.299 I0.0022 J0.019
X-3.7023 Y-0.3074 I-0.0011 J-0.0095
G1 X-3.7032 Y-0.3148
X-3.7036 Y-0.3177 Z-0.2797
X-3.7039 Y-0.3205 Z-0.2789
X-3.7042 Y-0.3231 Z-0.2775
X-3.7044 Y-0.3253 Z-0.2756
X-3.7047 Y-0.3271 Z-0.2734
X-3.7048 Y-0.3285 Z-0.2708
X-3.7049 Y-0.3294 Z-0.268
Y-0.3296 Z-0.2651
G0 Z0.4
X-3.7996 Y0.3193
Z0.13
G1 Z0.0649 F40.
G19 G3 Y0.3342 Z0.05 J0.0149 K0.
G1 Y0.3417
G17 G3 X-3.8092 Y0.3513 I-0.0096 J0.
Y0.313 Z0.0335 I0. J-0.0192
Y0.3513 Z0.0169 I0. J0.0192
Y0.313 Z0.0004 I0. J-0.0192
Y0.3513 Z-0.0161 I0. J0.0192
Y0.313 Z-0.0327 I0. J-0.0192
Y0.3513 Z-0.0492 I0. J0.0192
Y0.313 Z-0.0657 I0. J-0.0192
Y0.3513 Z-0.0822 I0. J0.0192
Y0.313 Z-0.0988 I0. J-0.0192
Y0.3513 Z-0.1153 I0. J0.0192
Y0.313 Z-0.1318 I0. J-0.0192
Y0.3513 Z-0.1484 I0. J0.0192
Y0.313 Z-0.1649 I0. J-0.0192
Y0.3513 Z-0.1814 I0. J0.0192
Y0.313 Z-0.198 I0. J-0.0192
Y0.3513 Z-0.2145 I0. J0.0192
Y0.313 Z-0.231 I0. J-0.0192
Y0.3513 Z-0.2476 I0. J0.0192
Y0.313 Z-0.2641 I0. J-0.0192
X-3.807 Y0.3511 Z-0.28 I0. J0.0192
X-3.8114 Y0.3131 I-0.0022 J-0.019
X-3.807 Y0.3511 I0.0022 J0.019
X-3.8176 Y0.3427 I-0.0011 J-0.0095
G1 X-3.8184 Y0.3353
X-3.8188 Y0.3324 Z-0.2797
X-3.8191 Y0.3297 Z-0.2789
X-3.8194 Y0.3271 Z-0.2775
X-3.8197 Y0.3248 Z-0.2756
X-3.8199 Y0.323 Z-0.2734
X-3.8201 Y0.3216 Z-0.2708
X-3.8202 Y0.3208 Z-0.268
Y0.3205 Z-0.2651
G0 Z0.6
(2D SLOT CUT)
M7
G0 X3.6592 Y0.5428
Z0.6
Z0.2
G1 Z0.1 F13.333
X3.6602 Y0.5379 Z0.0991 F30.
G2 X3.656 Y0.5316 Z0.0976 I-0.0053 J-0.001
G1 X3.5652 Y0.5136 Z0.0813
G3 X3.5065 Y0.426 Z0.0607 I0.0145 J-0.0732
X3.7722 Y0.0108 Z-0.0283 I0.6618 J0.1309
G2 X3.9374 Y-0.1568 Z-0.07 I-0.42 J-0.5791
G3 X3.7722 Y0.0108 I-0.5852 J-0.4115
G2 X3.5065 Y0.426 I0.3961 J0.5461
X3.5652 Y0.5136 I0.0732 J0.0145
G1 X3.656 Y0.5316
G3 X3.6602 Y0.5379 I-0.001 J0.0053
G1 X3.5769 Y0.9589
G3 X3.4819 Y1.1941 I-0.6626 J-0.131
G2 X3.4616 Y1.2352 I0.1677 J0.1082
G3 X3.0721 Y2.0176 I-3.4616 J-1.2352
X3.0201 Y2.0393 I-0.0421 J-0.0277
G2 X2.6602 Y2.4906 I-0.0638 J0.3183
G3 X2.6506 Y2.5462 I-0.046 J0.0207
X1.8925 Y3.1507 I-2.6506 J-2.5462
X1.8362 Y3.1477 I-0.026 J-0.0432
G2 X1.3161 Y3.3982 I-0.1956 J0.2591
G3 X1.2834 Y3.4441 I-0.0504 J-0.0013
X0.3381 Y3.6598 I-1.2833 J-3.4441
X0.2886 Y3.6327 I-0.0046 J-0.0502
G2 X-0.2886 I-0.2886 J0.1485
G3 X-0.3381 Y3.6598 I-0.0448 J-0.0231
X-1.2834 Y3.4441 I0.3381 J-3.6598
X-1.3161 Y3.3982 I0.0176 J-0.0472
G2 X-1.8362 Y3.1477 I-0.3245 J0.0086
G3 X-1.8925 Y3.1507 I-0.0304 J-0.0402
X-2.6506 Y2.5462 I1.8925 J-3.1507
X-2.6602 Y2.4906 I0.0363 J-0.0349
G2 X-3.0201 Y2.0393 I-0.2961 J-0.133
G3 X-3.0721 Y2.0176 I-0.0099 J-0.0494
X-3.4616 Y1.2352 I3.0721 J-2.0176
G2 X-3.4819 Y1.1941 I-0.188 J0.0671
G3 X-3.5769 Y0.9589 I0.5675 J-0.3662
G1 X-3.6602 Y0.5379
G3 X-3.656 Y0.5316 I0.0053 J-0.001
G1 X-3.2635 Y0.4539
G2 X-3.2048 Y0.3663 I-0.0145 J-0.0732
G1 X-3.384 Y-0.5398
G3 X-3.383 Y-0.7097 I0.4173 J-0.0825
X-3.37 Y-0.7692 I3.383 J0.7098
G2 X-3.4774 Y-1.0897 I-0.3165 J-0.0722
G3 X-3.4928 Y-1.144 I0.0325 J-0.0386
X-3.0721 Y-2.0176 I3.4928 J1.144
X-3.0201 Y-2.0393 I0.0421 J0.0277
G2 X-2.6602 Y-2.4906 I0.0638 J-0.3183
G3 X-2.6506 Y-2.5462 I0.046 J-0.0207
X-1.8925 Y-3.1507 I2.6506 J2.5462
X-1.8362 Y-3.1477 I0.026 J0.0432
G2 X-1.3161 Y-3.3982 I0.1956 J-0.2591
G3 X-1.2834 Y-3.4441 I0.0504 J0.0013
X-0.3381 Y-3.6598 I1.2833 J3.4441
X-0.2886 Y-3.6327 I0.0046 J0.0502
G2 X0.2886 I0.2886 J-0.1485
G3 X0.3381 Y-3.6598 I0.0448 J0.0231
X1.2834 Y-3.4441 I-0.3381 J3.6598
X1.3161 Y-3.3982 I-0.0176 J0.0472
G2 X1.8362 Y-3.1477 I0.3245 J-0.0086
G3 X1.8925 Y-3.1507 I0.0304 J0.0402
X2.6506 Y-2.5462 I-1.8925 J3.1507
X2.6602 Y-2.4906 I-0.0363 J0.0349
G2 X3.0201 Y-2.0393 I0.2961 J0.133
G3 X3.0721 Y-2.0176 I0.0099 J0.0494
X3.4928 Y-1.144 I-3.0721 J2.0176
X3.4774 Y-1.0897 I-0.0479 J0.0157
G2 X3.37 Y-0.7692 I0.209 J0.2483
G3 X3.383 Y-0.7097 I-3.37 J0.7693
X3.384 Y-0.5398 I-0.4163 J0.0873
G1 X3.2048 Y0.3663
G2 X3.2635 Y0.4539 I0.0732 J0.0145
G1 X3.3788 Y0.4767
G2 X3.4665 Y0.418 I0.0145 J-0.0732
G3 X3.7482 Y-0.0223 I0.7018 J0.1388
G2 X4.0173 Y-0.6811 I-0.3961 J-0.5461
G3 X3.7482 Y-0.0223 Z-0.0719 I-0.6651 J0.1127
G2 X3.4665 Y0.418 Z-0.0733 I0.4201 J0.5791
G3 X3.3788 Y0.4767 Z-0.0736 I-0.0732 J-0.0145
G1 X3.2635 Y0.4539 Z-0.0739
G3 X3.2048 Y0.3663 Z-0.0742 I0.0145 J-0.0732
G1 X3.384 Y-0.5398 Z-0.0765
G2 X3.383 Y-0.7097 Z-0.077 I-0.4173 J-0.0825
X3.37 Y-0.7692 Z-0.0771 I-3.383 J0.7098
G3 X3.4774 Y-1.0897 Z-0.078 I0.3165 J-0.0722
G2 X3.4928 Y-1.144 Z-0.0782 I-0.0325 J-0.0386
X3.0721 Y-2.0176 Z-0.0806 I-3.4928 J1.144
X3.0201 Y-2.0393 Z-0.0808 I-0.0421 J0.0277
G3 X2.6602 Y-2.4906 Z-0.0826 I-0.0638 J-0.3183
G2 X2.6506 Y-2.5462 Z-0.0828 I-0.046 J-0.0207
X1.8925 Y-3.1507 Z-0.0852 I-2.6506 J2.5462
X1.8362 Y-3.1477 Z-0.0854 I-0.026 J0.0432
G3 X1.3161 Y-3.3982 Z-0.0872 I-0.1956 J-0.2591
G2 X1.2834 Y-3.4441 Z-0.0873 I-0.0504 J0.0013
X0.3381 Y-3.6598 Z-0.0898 I-1.2833 J3.4441
X0.2886 Y-3.6327 Z-0.09 I-0.0046 J0.0502
G3 X-0.2886 Z-0.0918 I-0.2886 J-0.1485
G2 X-0.3381 Y-3.6598 Z-0.0919 I-0.0448 J0.0231
X-1.2834 Y-3.4441 Z-0.0944 I0.3381 J3.6598
X-1.3161 Y-3.3982 Z-0.0946 I0.0176 J0.0472
G3 X-1.8362 Y-3.1477 Z-0.0964 I-0.3245 J-0.0086
G2 X-1.8925 Y-3.1507 Z-0.0965 I-0.0304 J0.0402
X-2.6506 Y-2.5462 Z-0.099 I1.8925 J3.1507
X-2.6602 Y-2.4906 Z-0.0991 I0.0363 J0.0349
G3 X-3.0201 Y-2.0393 Z-0.101 I-0.2961 J0.133
G2 X-3.0721 Y-2.0176 Z-0.1011 I-0.0099 J0.0494
X-3.4928 Y-1.144 Z-0.1036 I3.0721 J2.0176
X-3.4774 Y-1.0897 Z-0.1037 I0.0479 J0.0157
G3 X-3.37 Y-0.7692 Z-0.1046 I-0.209 J0.2483
G2 X-3.383 Y-0.7097 Z-0.1048 I3.37 J0.7693
X-3.384 Y-0.5398 Z-0.1052 I0.4163 J0.0873
G1 X-3.2048 Y0.3663 Z-0.1076
G3 X-3.2635 Y0.4539 Z-0.1079 I-0.0732 J0.0145
G1 X-3.656 Y0.5316 Z-0.1089
G2 X-3.6602 Y0.5379 I0.001 J0.0053
G1 X-3.5769 Y0.9589 Z-0.11
G2 X-3.4819 Y1.1941 Z-0.1107 I0.6626 J-0.131
G3 X-3.4616 Y1.2352 Z-0.1108 I-0.1677 J0.1082
G2 X-3.0721 Y2.0176 Z-0.113 I3.4616 J-1.2352
X-3.0201 Y2.0393 Z-0.1132 I0.0421 J-0.0277
G3 X-2.6602 Y2.4906 Z-0.115 I0.0638 J0.3183
G2 X-2.6506 Y2.5462 Z-0.1151 I0.046 J0.0207
X-1.8925 Y3.1507 Z-0.1176 I2.6506 J-2.5462
X-1.8362 Y3.1477 Z-0.1177 I0.026 J-0.0432
G3 X-1.3161 Y3.3982 Z-0.1196 I0.1956 J0.2591
G2 X-1.2834 Y3.4441 Z-0.1197 I0.0504 J-0.0013
X-0.3381 Y3.6598 Z-0.1222 I1.2833 J-3.4441
X-0.2886 Y3.6327 Z-0.1223 I0.0046 J-0.0502
G3 X0.2886 Z-0.1241 I0.2886 J0.1485
G2 X0.3381 Y3.6598 Z-0.1243 I0.0448 J-0.0231
X1.2834 Y3.4441 Z-0.1268 I-0.3381 J-3.6598
X1.3161 Y3.3982 Z-0.1269 I-0.0176 J-0.0472
G3 X1.8362 Y3.1477 Z-0.1287 I0.3245 J0.0086
G2 X1.8925 Y3.1507 Z-0.1289 I0.0304 J-0.0402
X2.6506 Y2.5462 Z-0.1314 I-1.8925 J-3.1507
X2.6602 Y2.4906 Z-0.1315 I-0.0363 J-0.0349
G3 X3.0201 Y2.0393 Z-0.1333 I0.2961 J-0.133
G2 X3.0721 Y2.0176 Z-0.1335 I0.0099 J-0.0494
X3.4616 Y1.2352 Z-0.1357 I-3.0721 J-2.0176
G3 X3.4819 Y1.1941 Z-0.1358 I0.188 J0.0671
G2 X3.5769 Y0.9589 Z-0.1365 I-0.5675 J-0.3662
G1 X3.6602 Y0.5379 Z-0.1376
G2 X3.656 Y0.5316 I-0.0053 J-0.001
G1 X3.5652 Y0.5136 Z-0.1378
G3 X3.5065 Y0.426 Z-0.1381 I0.0145 J-0.0732
X3.7722 Y0.0108 Z-0.1394 I0.6618 J0.1309
G2 X3.9374 Y-0.1568 Z-0.14 I-0.42 J-0.5791
G3 X3.7722 Y0.0108 I-0.5852 J-0.4115
G2 X3.5065 Y0.426 I0.3961 J0.5461
X3.5652 Y0.5136 I0.0732 J0.0145
G1 X3.656 Y0.5316
G3 X3.6602 Y0.5379 I-0.001 J0.0053
G1 X3.5769 Y0.9589
G3 X3.4819 Y1.1941 I-0.6626 J-0.131
G2 X3.4616 Y1.2352 I0.1677 J0.1082
G3 X3.0721 Y2.0176 I-3.4616 J-1.2352
X3.0201 Y2.0393 I-0.0421 J-0.0277
G2 X2.6602 Y2.4906 I-0.0638 J0.3183
G3 X2.6506 Y2.5462 I-0.046 J0.0207
X1.8925 Y3.1507 I-2.6506 J-2.5462
X1.8362 Y3.1477 I-0.026 J-0.0432
G2 X1.3161 Y3.3982 I-0.1956 J0.2591
G3 X1.2834 Y3.4441 I-0.0504 J-0.0013
X0.3381 Y3.6598 I-1.2833 J-3.4441
X0.2886 Y3.6327 I-0.0046 J-0.0502
G2 X-0.2886 I-0.2886 J0.1485
G3 X-0.3381 Y3.6598 I-0.0448 J-0.0231
X-1.2834 Y3.4441 I0.3381 J-3.6598
X-1.3161 Y3.3982 I0.0176 J-0.0472
G2 X-1.8362 Y3.1477 I-0.3245 J0.0086
G3 X-1.8925 Y3.1507 I-0.0304 J-0.0402
X-2.6506 Y2.5462 I1.8925 J-3.1507
X-2.6602 Y2.4906 I0.0363 J-0.0349
G2 X-3.0201 Y2.0393 I-0.2961 J-0.133
G3 X-3.0721 Y2.0176 I-0.0099 J-0.0494
X-3.4616 Y1.2352 I3.0721 J-2.0176
G2 X-3.4819 Y1.1941 I-0.188 J0.0671
G3 X-3.5769 Y0.9589 I0.5675 J-0.3662
G1 X-3.6602 Y0.5379
G3 X-3.656 Y0.5316 I0.0053 J-0.001
G1 X-3.2635 Y0.4539
G2 X-3.2048 Y0.3663 I-0.0145 J-0.0732
G1 X-3.384 Y-0.5398
G3 X-3.383 Y-0.7097 I0.4173 J-0.0825
X-3.37 Y-0.7692 I3.383 J0.7098
G2 X-3.4774 Y-1.0897 I-0.3165 J-0.0722
G3 X-3.4928 Y-1.144 I0.0325 J-0.0386
X-3.0721 Y-2.0176 I3.4928 J1.144
X-3.0201 Y-2.0393 I0.0421 J0.0277
G2 X-2.6602 Y-2.4906 I0.0638 J-0.3183
G3 X-2.6506 Y-2.5462 I0.046 J-0.0207
X-1.8925 Y-3.1507 I2.6506 J2.5462
X-1.8362 Y-3.1477 I0.026 J0.0432
G2 X-1.3161 Y-3.3982 I0.1956 J-0.2591
G3 X-1.2834 Y-3.4441 I0.0504 J0.0013
X-0.3381 Y-3.6598 I1.2833 J3.4441
X-0.2886 Y-3.6327 I0.0046 J0.0502
G2 X0.2886 I0.2886 J-0.1485
G3 X0.3381 Y-3.6598 I0.0448 J0.0231
X1.2834 Y-3.4441 I-0.3381 J3.6598
X1.3161 Y-3.3982 I-0.0176 J0.0472
G2 X1.8362 Y-3.1477 I0.3245 J-0.0086
G3 X1.8925 Y-3.1507 I0.0304 J0.0402
X2.6506 Y-2.5462 I-1.8925 J3.1507
X2.6602 Y-2.4906 I-0.0363 J0.0349
G2 X3.0201 Y-2.0393 I0.2961 J0.133
G3 X3.0721 Y-2.0176 I0.0099 J0.0494
X3.4928 Y-1.144 I-3.0721 J2.0176
X3.4774 Y-1.0897 I-0.0479 J0.0157
G2 X3.37 Y-0.7692 I0.209 J0.2483
G3 X3.383 Y-0.7097 I-3.37 J0.7693
X3.384 Y-0.5398 I-0.4163 J0.0873
G1 X3.2048 Y0.3663
G2 X3.2635 Y0.4539 I0.0732 J0.0145
G1 X3.3788 Y0.4767
G2 X3.4665 Y0.418 I0.0145 J-0.0732
G3 X3.7482 Y-0.0223 I0.7018 J0.1388
G2 X4.0173 Y-0.6811 I-0.3961 J-0.5461
G3 X3.7482 Y-0.0223 Z-0.1419 I-0.6651 J0.1127
G2 X3.4665 Y0.418 Z-0.1433 I0.4201 J0.5791
G3 X3.3788 Y0.4767 Z-0.1436 I-0.0732 J-0.0145
G1 X3.2635 Y0.4539 Z-0.1439
G3 X3.2048 Y0.3663 Z-0.1442 I0.0145 J-0.0732
G1 X3.384 Y-0.5398 Z-0.1465
G2 X3.383 Y-0.7097 Z-0.147 I-0.4173 J-0.0825
X3.37 Y-0.7692 Z-0.1471 I-3.383 J0.7098
G3 X3.4774 Y-1.0897 Z-0.148 I0.3165 J-0.0722
G2 X3.4928 Y-1.144 Z-0.1482 I-0.0325 J-0.0386
X3.0721 Y-2.0176 Z-0.1506 I-3.4928 J1.144
X3.0201 Y-2.0393 Z-0.1508 I-0.0421 J0.0277
G3 X2.6602 Y-2.4906 Z-0.1526 I-0.0638 J-0.3183
G2 X2.6506 Y-2.5462 Z-0.1528 I-0.046 J-0.0207
X1.8925 Y-3.1507 Z-0.1552 I-2.6506 J2.5462
X1.8362 Y-3.1477 Z-0.1554 I-0.026 J0.0432
G3 X1.3161 Y-3.3982 Z-0.1572 I-0.1956 J-0.2591
G2 X1.2834 Y-3.4441 Z-0.1573 I-0.0504 J0.0013
X0.3381 Y-3.6598 Z-0.1598 I-1.2833 J3.4441
X0.2886 Y-3.6327 Z-0.16 I-0.0046 J0.0502
G3 X-0.2886 Z-0.1618 I-0.2886 J-0.1485
G2 X-0.3381 Y-3.6598 Z-0.1619 I-0.0448 J0.0231
X-1.2834 Y-3.4441 Z-0.1644 I0.3381 J3.6598
X-1.3161 Y-3.3982 Z-0.1646 I0.0176 J0.0472
G3 X-1.8362 Y-3.1477 Z-0.1664 I-0.3245 J-0.0086
G2 X-1.8925 Y-3.1507 Z-0.1665 I-0.0304 J0.0402
X-2.6506 Y-2.5462 Z-0.169 I1.8925 J3.1507
X-2.6602 Y-2.4906 Z-0.1691 I0.0363 J0.0349
G3 X-3.0201 Y-2.0393 Z-0.171 I-0.2961 J0.133
G2 X-3.0721 Y-2.0176 Z-0.1711 I-0.0099 J0.0494
X-3.4928 Y-1.144 Z-0.1736 I3.0721 J2.0176
X-3.4774 Y-1.0897 Z-0.1737 I0.0479 J0.0157
G3 X-3.37 Y-0.7692 Z-0.1746 I-0.209 J0.2483
G2 X-3.383 Y-0.7097 Z-0.1748 I3.37 J0.7693
X-3.384 Y-0.5398 Z-0.1752 I0.4163 J0.0873
G1 X-3.2048 Y0.3663 Z-0.1776
G3 X-3.2635 Y0.4539 Z-0.1779 I-0.0732 J0.0145
G1 X-3.656 Y0.5316 Z-0.1789
G2 X-3.6602 Y0.5379 I0.001 J0.0053
G1 X-3.5769 Y0.9589 Z-0.18
G2 X-3.4819 Y1.1941 Z-0.1807 I0.6626 J-0.131
G3 X-3.4616 Y1.2352 Z-0.1808 I-0.1677 J0.1082
G2 X-3.0721 Y2.0176 Z-0.183 I3.4616 J-1.2352
X-3.0201 Y2.0393 Z-0.1832 I0.0421 J-0.0277
G3 X-2.6602 Y2.4906 Z-0.185 I0.0638 J0.3183
G2 X-2.6506 Y2.5462 Z-0.1851 I0.046 J0.0207
X-1.8925 Y3.1507 Z-0.1876 I2.6506 J-2.5462
X-1.8362 Y3.1477 Z-0.1877 I0.026 J-0.0432
G3 X-1.3161 Y3.3982 Z-0.1896 I0.1956 J0.2591
G2 X-1.2834 Y3.4441 Z-0.1897 I0.0504 J-0.0013
X-0.3381 Y3.6598 Z-0.1922 I1.2833 J-3.4441
X-0.2886 Y3.6327 Z-0.1923 I0.0046 J-0.0502
G3 X0.2886 Z-0.1941 I0.2886 J0.1485
G2 X0.3381 Y3.6598 Z-0.1943 I0.0448 J-0.0231
X1.2834 Y3.4441 Z-0.1968 I-0.3381 J-3.6598
X1.3161 Y3.3982 Z-0.1969 I-0.0176 J-0.0472
G3 X1.8362 Y3.1477 Z-0.1987 I0.3245 J0.0086
G2 X1.8925 Y3.1507 Z-0.1989 I0.0304 J-0.0402
X2.6506 Y2.5462 Z-0.2014 I-1.8925 J-3.1507
X2.6602 Y2.4906 Z-0.2015 I-0.0363 J-0.0349
G3 X3.0201 Y2.0393 Z-0.2033 I0.2961 J-0.133
G2 X3.0721 Y2.0176 Z-0.2035 I0.0099 J-0.0494
X3.4616 Y1.2352 Z-0.2057 I-3.0721 J-2.0176
G3 X3.4819 Y1.1941 Z-0.2058 I0.188 J0.0671
G2 X3.5769 Y0.9589 Z-0.2065 I-0.5675 J-0.3662
G1 X3.6602 Y0.5379 Z-0.2076
G2 X3.656 Y0.5316 I-0.0053 J-0.001
G1 X3.5652 Y0.5136 Z-0.2078
G3 X3.5065 Y0.426 Z-0.2081 I0.0145 J-0.0732
X3.7722 Y0.0108 Z-0.2094 I0.6618 J0.1309
G2 X3.9374 Y-0.1568 Z-0.21 I-0.42 J-0.5791
G3 X3.7722 Y0.0108 I-0.5852 J-0.4115
G2 X3.5065 Y0.426 I0.3961 J0.5461
X3.5652 Y0.5136 I0.0732 J0.0145
G1 X3.656 Y0.5316
G3 X3.6602 Y0.5379 I-0.001 J0.0053
G1 X3.5769 Y0.9589
G3 X3.4819 Y1.1941 I-0.6626 J-0.131
G2 X3.4616 Y1.2352 I0.1677 J0.1082
G3 X3.0721 Y2.0176 I-3.4616 J-1.2352
X3.0201 Y2.0393 I-0.0421 J-0.0277
G2 X2.6602 Y2.4906 I-0.0638 J0.3183
G3 X2.6506 Y2.5462 I-0.046 J0.0207
X1.8925 Y3.1507 I-2.6506 J-2.5462
X1.8362 Y3.1477 I-0.026 J-0.0432
G2 X1.3161 Y3.3982 I-0.1956 J0.2591
G3 X1.2834 Y3.4441 I-0.0504 J-0.0013
X0.3381 Y3.6598 I-1.2833 J-3.4441
X0.2886 Y3.6327 I-0.0046 J-0.0502
G2 X-0.2886 I-0.2886 J0.1485
G3 X-0.3381 Y3.6598 I-0.0448 J-0.0231
X-1.2834 Y3.4441 I0.3381 J-3.6598
X-1.3161 Y3.3982 I0.0176 J-0.0472
G2 X-1.8362 Y3.1477 I-0.3245 J0.0086
G3 X-1.8925 Y3.1507 I-0.0304 J-0.0402
X-2.6506 Y2.5462 I1.8925 J-3.1507
X-2.6602 Y2.4906 I0.0363 J-0.0349
G2 X-3.0201 Y2.0393 I-0.2961 J-0.133
G3 X-3.0721 Y2.0176 I-0.0099 J-0.0494
X-3.4616 Y1.2352 I3.0721 J-2.0176
G2 X-3.4819 Y1.1941 I-0.188 J0.0671
G3 X-3.5769 Y0.9589 I0.5675 J-0.3662
G1 X-3.6602 Y0.5379
G3 X-3.656 Y0.5316 I0.0053 J-0.001
G1 X-3.2635 Y0.4539
G2 X-3.2048 Y0.3663 I-0.0145 J-0.0732
G1 X-3.384 Y-0.5398
G3 X-3.383 Y-0.7097 I0.4173 J-0.0825
X-3.37 Y-0.7692 I3.383 J0.7098
G2 X-3.4774 Y-1.0897 I-0.3165 J-0.0722
G3 X-3.4928 Y-1.144 I0.0325 J-0.0386
X-3.0721 Y-2.0176 I3.4928 J1.144
X-3.0201 Y-2.0393 I0.0421 J0.0277
G2 X-2.6602 Y-2.4906 I0.0638 J-0.3183
G3 X-2.6506 Y-2.5462 I0.046 J-0.0207
X-1.8925 Y-3.1507 I2.6506 J2.5462
X-1.8362 Y-3.1477 I0.026 J0.0432
G2 X-1.3161 Y-3.3982 I0.1956 J-0.2591
G3 X-1.2834 Y-3.4441 I0.0504 J0.0013
X-0.3381 Y-3.6598 I1.2833 J3.4441
X-0.2886 Y-3.6327 I0.0046 J0.0502
G2 X0.2886 I0.2886 J-0.1485
G3 X0.3381 Y-3.6598 I0.0448 J0.0231
X1.2834 Y-3.4441 I-0.3381 J3.6598
X1.3161 Y-3.3982 I-0.0176 J0.0472
G2 X1.8362 Y-3.1477 I0.3245 J-0.0086
G3 X1.8925 Y-3.1507 I0.0304 J0.0402
X2.6506 Y-2.5462 I-1.8925 J3.1507
X2.6602 Y-2.4906 I-0.0363 J0.0349
G2 X3.0201 Y-2.0393 I0.2961 J0.133
G3 X3.0721 Y-2.0176 I0.0099 J0.0494
X3.4928 Y-1.144 I-3.0721 J2.0176
X3.4774 Y-1.0897 I-0.0479 J0.0157
G2 X3.37 Y-0.7692 I0.209 J0.2483
G3 X3.383 Y-0.7097 I-3.37 J0.7693
X3.384 Y-0.5398 I-0.4163 J0.0873
G1 X3.2048 Y0.3663
G2 X3.2635 Y0.4539 I0.0732 J0.0145
G1 X3.3788 Y0.4767
G2 X3.4665 Y0.418 I0.0145 J-0.0732
G3 X3.7482 Y-0.0223 I0.7018 J0.1388
G2 X4.0173 Y-0.6811 I-0.3961 J-0.5461
G3 X3.7482 Y-0.0223 Z-0.2119 I-0.6651 J0.1127
G2 X3.4665 Y0.418 Z-0.2133 I0.4201 J0.5791
G3 X3.3788 Y0.4767 Z-0.2136 I-0.0732 J-0.0145
G1 X3.2635 Y0.4539 Z-0.2139
G3 X3.2048 Y0.3663 Z-0.2142 I0.0145 J-0.0732
G1 X3.384 Y-0.5398 Z-0.2165
G2 X3.383 Y-0.7097 Z-0.217 I-0.4173 J-0.0825
X3.37 Y-0.7692 Z-0.2171 I-3.383 J0.7098
G3 X3.4774 Y-1.0897 Z-0.218 I0.3165 J-0.0722
G2 X3.4928 Y-1.144 Z-0.2182 I-0.0325 J-0.0386
X3.0721 Y-2.0176 Z-0.2206 I-3.4928 J1.144
X3.0201 Y-2.0393 Z-0.2208 I-0.0421 J0.0277
G3 X2.6602 Y-2.4906 Z-0.2226 I-0.0638 J-0.3183
G2 X2.6506 Y-2.5462 Z-0.2228 I-0.046 J-0.0207
X1.8925 Y-3.1507 Z-0.2252 I-2.6506 J2.5462
X1.8362 Y-3.1477 Z-0.2254 I-0.026 J0.0432
G3 X1.3161 Y-3.3982 Z-0.2272 I-0.1956 J-0.2591
G2 X1.2834 Y-3.4441 Z-0.2273 I-0.0504 J0.0013
X0.3381 Y-3.6598 Z-0.2298 I-1.2833 J3.4441
X0.2886 Y-3.6327 Z-0.23 I-0.0046 J0.0502
G3 X-0.2886 Z-0.2318 I-0.2886 J-0.1485
G2 X-0.3381 Y-3.6598 Z-0.2319 I-0.0448 J0.0231
X-1.2834 Y-3.4441 Z-0.2344 I0.3381 J3.6598
X-1.3161 Y-3.3982 Z-0.2346 I0.0176 J0.0472
G3 X-1.8362 Y-3.1477 Z-0.2364 I-0.3245 J-0.0086
G2 X-1.8925 Y-3.1507 Z-0.2365 I-0.0304 J0.0402
X-2.6506 Y-2.5462 Z-0.239 I1.8925 J3.1507
X-2.6602 Y-2.4906 Z-0.2391 I0.0363 J0.0349
G3 X-3.0201 Y-2.0393 Z-0.241 I-0.2961 J0.133
G2 X-3.0721 Y-2.0176 Z-0.2411 I-0.0099 J0.0494
X-3.4928 Y-1.144 Z-0.2436 I3.0721 J2.0176
X-3.4774 Y-1.0897 Z-0.2437 I0.0479 J0.0157
G3 X-3.37 Y-0.7692 Z-0.2446 I-0.209 J0.2483
G2 X-3.383 Y-0.7097 Z-0.2448 I3.37 J0.7693
X-3.384 Y-0.5398 Z-0.2452 I0.4163 J0.0873
G1 X-3.2048 Y0.3663 Z-0.2476
G3 X-3.2635 Y0.4539 Z-0.2479 I-0.0732 J0.0145
G1 X-3.656 Y0.5316 Z-0.2489
G2 X-3.6602 Y0.5379 I0.001 J0.0053
G1 X-3.5769 Y0.9589 Z-0.25
G2 X-3.4819 Y1.1941 Z-0.2507 I0.6626 J-0.131
G3 X-3.4616 Y1.2352 Z-0.2508 I-0.1677 J0.1082
G2 X-3.0721 Y2.0176 Z-0.253 I3.4616 J-1.2352
X-3.0201 Y2.0393 Z-0.2532 I0.0421 J-0.0277
G3 X-2.6602 Y2.4906 Z-0.255 I0.0638 J0.3183
G2 X-2.6506 Y2.5462 Z-0.2551 I0.046 J0.0207
X-1.8925 Y3.1507 Z-0.2576 I2.6506 J-2.5462
X-1.8362 Y3.1477 Z-0.2577 I0.026 J-0.0432
G3 X-1.3161 Y3.3982 Z-0.2596 I0.1956 J0.2591
G2 X-1.2834 Y3.4441 Z-0.2597 I0.0504 J-0.0013
X-0.3381 Y3.6598 Z-0.2622 I1.2833 J-3.4441
X-0.2886 Y3.6327 Z-0.2623 I0.0046 J-0.0502
G3 X0.2886 Z-0.2641 I0.2886 J0.1485
G2 X0.3381 Y3.6598 Z-0.2643 I0.0448 J-0.0231
X1.2834 Y3.4441 Z-0.2668 I-0.3381 J-3.6598
X1.3161 Y3.3982 Z-0.2669 I-0.0176 J-0.0472
G3 X1.8362 Y3.1477 Z-0.2687 I0.3245 J0.0086
G2 X1.8925 Y3.1507 Z-0.2689 I0.0304 J-0.0402
X2.6506 Y2.5462 Z-0.2714 I-1.8925 J-3.1507
X2.6602 Y2.4906 Z-0.2715 I-0.0363 J-0.0349
G3 X3.0201 Y2.0393 Z-0.2733 I0.2961 J-0.133
G2 X3.0721 Y2.0176 Z-0.2735 I0.0099 J-0.0494
X3.4616 Y1.2352 Z-0.2757 I-3.0721 J-2.0176
G3 X3.4819 Y1.1941 Z-0.2758 I0.188 J0.0671
G2 X3.5769 Y0.9589 Z-0.2765 I-0.5675 J-0.3662
G1 X3.6602 Y0.5379 Z-0.2776
G2 X3.656 Y0.5316 I-0.0053 J-0.001
G1 X3.5652 Y0.5136 Z-0.2778
G3 X3.5065 Y0.426 Z-0.2781 I0.0145 J-0.0732
X3.7722 Y0.0108 Z-0.2794 I0.6618 J0.1309
G2 X3.9374 Y-0.1568 Z-0.28 I-0.42 J-0.5791
G3 X3.7722 Y0.0108 I-0.5852 J-0.4115
G2 X3.5065 Y0.426 I0.3961 J0.5461
X3.5652 Y0.5136 I0.0732 J0.0145
G1 X3.656 Y0.5316
G3 X3.6602 Y0.5379 I-0.001 J0.0053
G1 X3.5769 Y0.9589
G3 X3.4819 Y1.1941 I-0.6626 J-0.131
G2 X3.4616 Y1.2352 I0.1677 J0.1082
G3 X3.0721 Y2.0176 I-3.4616 J-1.2352
X3.0201 Y2.0393 I-0.0421 J-0.0277
G2 X2.6602 Y2.4906 I-0.0638 J0.3183
G3 X2.6506 Y2.5462 I-0.046 J0.0207
X1.8925 Y3.1507 I-2.6506 J-2.5462
X1.8362 Y3.1477 I-0.026 J-0.0432
G2 X1.3161 Y3.3982 I-0.1956 J0.2591
G3 X1.2834 Y3.4441 I-0.0504 J-0.0013
X0.3381 Y3.6598 I-1.2833 J-3.4441
X0.2886 Y3.6327 I-0.0046 J-0.0502
G2 X-0.2886 I-0.2886 J0.1485
G3 X-0.3381 Y3.6598 I-0.0448 J-0.0231
X-1.2834 Y3.4441 I0.3381 J-3.6598
X-1.3161 Y3.3982 I0.0176 J-0.0472
G2 X-1.8362 Y3.1477 I-0.3245 J0.0086
G3 X-1.8925 Y3.1507 I-0.0304 J-0.0402
X-2.6506 Y2.5462 I1.8925 J-3.1507
X-2.6602 Y2.4906 I0.0363 J-0.0349
G2 X-3.0201 Y2.0393 I-0.2961 J-0.133
G3 X-3.0721 Y2.0176 I-0.0099 J-0.0494
X-3.4616 Y1.2352 I3.0721 J-2.0176
G2 X-3.4819 Y1.1941 I-0.188 J0.0671
G3 X-3.5769 Y0.9589 I0.5675 J-0.3662
G1 X-3.6602 Y0.5379
G3 X-3.656 Y0.5316 I0.0053 J-0.001
G1 X-3.2635 Y0.4539
G2 X-3.2048 Y0.3663 I-0.0145 J-0.0732
G1 X-3.384 Y-0.5398
G3 X-3.383 Y-0.7097 I0.4173 J-0.0825
X-3.37 Y-0.7692 I3.383 J0.7098
G2 X-3.4774 Y-1.0897 I-0.3165 J-0.0722
G3 X-3.4928 Y-1.144 I0.0325 J-0.0386
X-3.0721 Y-2.0176 I3.4928 J1.144
X-3.0201 Y-2.0393 I0.0421 J0.0277
G2 X-2.6602 Y-2.4906 I0.0638 J-0.3183
G3 X-2.6506 Y-2.5462 I0.046 J-0.0207
X-1.8925 Y-3.1507 I2.6506 J2.5462
X-1.8362 Y-3.1477 I0.026 J0.0432
G2 X-1.3161 Y-3.3982 I0.1956 J-0.2591
G3 X-1.2834 Y-3.4441 I0.0504 J0.0013
X-0.3381 Y-3.6598 I1.2833 J3.4441
X-0.2886 Y-3.6327 I0.0046 J0.0502
G2 X0.2886 I0.2886 J-0.1485
G3 X0.3381 Y-3.6598 I0.0448 J0.0231
X1.2834 Y-3.4441 I-0.3381 J3.6598
X1.3161 Y-3.3982 I-0.0176 J0.0472
G2 X1.8362 Y-3.1477 I0.3245 J-0.0086
G3 X1.8925 Y-3.1507 I0.0304 J0.0402
X2.6506 Y-2.5462 I-1.8925 J3.1507
X2.6602 Y-2.4906 I-0.0363 J0.0349
G2 X3.0201 Y-2.0393 I0.2961 J0.133
G3 X3.0721 Y-2.0176 I0.0099 J0.0494
X3.4928 Y-1.144 I-3.0721 J2.0176
X3.4774 Y-1.0897 I-0.0479 J0.0157
G2 X3.37 Y-0.7692 I0.209 J0.2483
G3 X3.383 Y-0.7097 I-3.37 J0.7693
X3.384 Y-0.5398 I-0.4163 J0.0873
G1 X3.2048 Y0.3663
G2 X3.2635 Y0.4539 I0.0732 J0.0145
G1 X3.3788 Y0.4767
G2 X3.4665 Y0.418 I0.0145 J-0.0732
G3 X3.7482 Y-0.0223 I0.7018 J0.1388
G2 X4.0173 Y-0.6811 I-0.3961 J-0.5461
G0 Z0.6
(2D SLOT CUT 2)
M7
G0 X3.7457 Y-1.6038
Z0.6
Z0.2
G1 Z0.1 F13.333
G3 X4.0173 Y-0.6811 Z-0.07 I-3.7457 J1.6038 F30.
G2 X-4.0173 Y0.6809 I-4.0173 J0.681
X4.073 Y-0.116 I4.0173 J-0.681
G3 X-4.073 Y0.1159 Z-0.1058 I-4.073 J0.1159
X4.0173 Y-0.6811 Z-0.14 I4.073 J-0.1159
G2 X-4.0173 Y0.6809 I-4.0173 J0.681
X4.073 Y-0.116 I4.0173 J-0.681
G3 X-4.073 Y0.1159 Z-0.1758 I-4.073 J0.1159
X2.0429 Y-3.5255 Z-0.2 I4.073 J-0.1159
X2.2103 Y-3.4231 I-2.0429 J3.5255
G1 Z-0.2005 F13.333
G3 X3.4366 Y-2.1892 Z-0.2055 I-2.2103 J3.423 F30.
G1 Z-0.2
G3 X3.7793 Y-1.523 I-3.4366 J2.1891
G1 Z-0.2075 F13.333
G3 X4.0173 Y-0.6811 Z-0.21 I-3.7793 J1.5229 F30.
G2 X3.7793 Y-1.523 I-4.0173 J0.681
G1 Z-0.2
G2 X3.4366 Y-2.1892 I-3.7793 J1.5229
G1 Z-0.21 F13.333
G2 X2.2103 Y-3.4231 I-3.4366 J2.1891 F30.
G1 Z-0.2
G2 X1.5462 Y-3.7699 I-2.2103 J3.423
G1 Z-0.21 F13.333
G2 X-0.1671 Y-4.0713 I-1.5462 J3.7698 F30.
G1 Z-0.2
G2 X-0.9096 Y-3.9719 I0.1671 J4.0712
G1 Z-0.21 F13.333
G2 X-2.4834 Y-3.2305 I0.9096 J3.9718 F30.
G1 Z-0.2
G2 X-3.0329 Y-2.7212 I2.4834 J3.2304
G1 Z-0.21 F13.333
G2 X-3.8914 Y-1.2082 I3.0328 J2.7211 F30.
G1 Z-0.2
G2 X-4.0468 Y-0.4753 I3.8914 J1.2081
G1 Z-0.21 F13.333
G2 X-3.8762 Y1.2559 I4.0468 J0.4752 F30.
G1 Z-0.2
G2 X-3.5807 Y1.9444 I3.8762 J-1.256
G1 Z-0.21 F13.333
G2 X-2.4434 Y3.2606 I3.5807 J-1.9445 F30.
G1 Z-0.2
G2 X-1.8051 Y3.6529 I2.4434 J-3.2607
G1 Z-0.21 F13.333
G2 X-0.117 Y4.0729 I1.8051 J-3.653 F30.
G1 Z-0.2
G2 X0.6307 Y4.0254 I0.117 J-4.0729
G1 Z-0.21 F13.333
G2 X2.2522 Y3.3955 I-0.6307 J-4.0255 F30.
G1 Z-0.2
G2 X2.8358 Y2.9258 I-2.2522 J-3.3956
G1 Z-0.21 F13.333
G2 X3.7977 Y1.4764 I-2.8358 J-2.9259 F30.
G1 Z-0.2
G2 X4.0038 Y0.7561 I-3.7977 J-1.4764
G1 Z-0.21 F13.333
G2 X4.073 Y-0.116 I-4.0038 J-0.7562 F30.
G3 X4.0038 Y0.7561 Z-0.2125 I-4.073 J0.1159
G1 Z-0.2
G3 X3.7977 Y1.4764 I-4.0038 J-0.7562
G1 Z-0.2145 F13.333
G3 X2.8358 Y2.9258 Z-0.2195 I-3.7977 J-1.4764 F30.
G1 Z-0.2
G3 X2.2522 Y3.3955 I-2.8358 J-2.9259
G1 Z-0.2215 F13.333
G3 X0.6307 Y4.0254 Z-0.2265 I-2.2522 J-3.3956 F30.
G1 Z-0.2
G3 X-0.117 Y4.0729 I-0.6307 J-4.0255
G1 Z-0.2285 F13.333
G3 X-1.8051 Y3.6529 Z-0.2335 I0.117 J-4.0729 F30.
G1 Z-0.2
G3 X-2.4434 Y3.2606 I1.8051 J-3.653
G1 Z-0.2355 F13.333
G3 X-3.5807 Y1.9444 Z-0.2405 I2.4434 J-3.2607 F30.
G1 Z-0.2
G3 X-3.8762 Y1.2559 I3.5807 J-1.9445
G1 Z-0.2425 F13.333
G3 X-4.0468 Y-0.4753 Z-0.2475 I3.8762 J-1.256 F30.
G1 Z-0.2
G3 X-3.8914 Y-1.2082 I4.0468 J0.4752
G1 Z-0.2495 F13.333
G3 X-3.0329 Y-2.7212 Z-0.2545 I3.8914 J1.2081 F30.
G1 Z-0.2
G3 X-2.4834 Y-3.2305 I3.0328 J2.7211
G1 Z-0.2565 F13.333
G3 X-0.9096 Y-3.9719 Z-0.2615 I2.4834 J3.2304 F30.
G1 Z-0.2
G3 X-0.1671 Y-4.0713 I0.9096 J3.9718
G1 Z-0.2635 F13.333
G3 X1.5462 Y-3.7699 Z-0.2685 I0.1671 J4.0712 F30.
G1 Z-0.2
G3 X2.2103 Y-3.4231 I-1.5462 J3.7698
G1 Z-0.2705 F13.333
G3 X3.4366 Y-2.1892 Z-0.2755 I-2.2103 J3.423 F30.
G1 Z-0.2
G3 X3.7793 Y-1.523 I-3.4366 J2.1891
G1 Z-0.2775 F13.333
G3 X4.0173 Y-0.6811 Z-0.28 I-3.7793 J1.5229 F30.
G2 X3.7793 Y-1.523 I-4.0173 J0.681
G1 Z-0.2
G2 X3.4366 Y-2.1892 I-3.7793 J1.5229
G1 Z-0.28 F13.333
G2 X2.2103 Y-3.4231 I-3.4366 J2.1891 F30.
G1 Z-0.2
G2 X1.5462 Y-3.7699 I-2.2103 J3.423
G1 Z-0.28 F13.333
G2 X-0.1671 Y-4.0713 I-1.5462 J3.7698 F30.
G1 Z-0.2
G2 X-0.9096 Y-3.9719 I0.1671 J4.0712
G1 Z-0.28 F13.333
G2 X-2.4834 Y-3.2305 I0.9096 J3.9718 F30.
G1 Z-0.2
G2 X-3.0329 Y-2.7212 I2.4834 J3.2304
G1 Z-0.28 F13.333
G2 X-3.8914 Y-1.2082 I3.0328 J2.7211 F30.
G1 Z-0.2
G2 X-4.0468 Y-0.4753 I3.8914 J1.2081
G1 Z-0.28 F13.333
G2 X-3.8762 Y1.2559 I4.0468 J0.4752 F30.
G1 Z-0.2
G2 X-3.5807 Y1.9444 I3.8762 J-1.256
G1 Z-0.28 F13.333
G2 X-2.4434 Y3.2606 I3.5807 J-1.9445 F30.
G1 Z-0.2
G2 X-1.8051 Y3.6529 I2.4434 J-3.2607
G1 Z-0.28 F13.333
G2 X-0.117 Y4.0729 I1.8051 J-3.653 F30.
G1 Z-0.2
G2 X0.6307 Y4.0254 I0.117 J-4.0729
G1 Z-0.28 F13.333
G2 X2.2522 Y3.3955 I-0.6307 J-4.0255 F30.
G1 Z-0.2
G2 X2.8358 Y2.9258 I-2.2522 J-3.3956
G1 Z-0.28 F13.333
G2 X3.7977 Y1.4764 I-2.8358 J-2.9259 F30.
G1 Z-0.2
G2 X4.0038 Y0.7561 I-3.7977 J-1.4764
G1 Z-0.28 F13.333
G2 X4.073 Y-0.116 I-4.0038 J-0.7562 F30.
G0 Z0.6
M9
G53 Z0.
M30
%
