%
(971-23-P-0068_ARM GEARBOX PLATE 2_1565 ONE PASS)
(T1  D=0.1565 CR=0. - ZMIN=-0.2075 - FLAT END MILL)
G90 G94 G17 G91.1
G64 P0.001 Q0.001
G20
G53 G0 Z0.
(.3 CIRCLUAR THROUGH HOLE 2)
M9
T1 M6
S22000 M3
G4 P10.
G54
M7
G0 X-69.8769 Y14.2041
G43 Z0.6 H1
G0 Z0.13
G1 Z0.0657 F40.
G18 G2 X-69.8613 Z0.05 I0.0157 K0.
G1 X-69.8535
G17 G3 X-69.8423 Y14.2152 I0. J0.0111
X-69.8868 Z0. I-0.0223 J0.
X-69.8423 Z-0.05 I0.0223 J0.
X-69.8698 Y14.2369 Z-0.0788 I-0.0223 J0.
X-69.8594 Y14.1936 Z-0.1288 I0.0052 J-0.0216
X-69.8444 Y14.2059 Z-0.1431 I-0.0052 J0.0216
X-69.8848 Y14.2245 Z-0.1931 I-0.0202 J0.0093
X-69.8844 Y14.2051 Z-0.2075 I0.0202 J-0.0093
X-69.8448 Y14.2253 I0.0198 J0.0101
X-69.8844 Y14.2051 I-0.0198 J-0.0101
X-69.8695 Y14.2003 I0.0099 J0.0051
G1 X-69.8625 Y14.2038
X-69.8598 Y14.2052 Z-0.2072
X-69.8571 Y14.2065 Z-0.2063
X-69.8547 Y14.2078 Z-0.2049
X-69.8526 Y14.2088 Z-0.2029
X-69.8509 Y14.2097 Z-0.2005
X-69.8496 Y14.2104 Z-0.1978
X-69.8488 Y14.2108 Z-0.1949
X-69.8485 Y14.2109 Z-0.1919
G0 Z0.4
X-71.1999 Y13.4889
Z0.13
G1 Z0.0657 F40.
G18 G2 X-71.1842 Z0.05 I0.0156 K0.
G1 X-71.1764
G17 G3 X-71.1652 Y13.5 I0. J0.0111
X-71.2097 Z0. I-0.0223 J0.
X-71.1652 Z-0.05 I0.0223 J0.
X-71.1927 Y13.5216 Z-0.0788 I-0.0223 J0.
X-71.1823 Y13.4784 Z-0.1288 I0.0052 J-0.0216
X-71.1673 Y13.4907 Z-0.1431 I-0.0052 J0.0216
X-71.2077 Y13.5093 Z-0.1931 I-0.0202 J0.0093
X-71.2073 Y13.4899 Z-0.2075 I0.0202 J-0.0093
X-71.1677 Y13.5101 I0.0198 J0.0101
X-71.2073 Y13.4899 I-0.0198 J-0.0101
X-71.1924 Y13.485 I0.0099 J0.0051
G1 X-71.1854 Y13.4886
X-71.1827 Y13.49 Z-0.2072
X-71.1801 Y13.4913 Z-0.2063
X-71.1776 Y13.4925 Z-0.2049
X-71.1755 Y13.4936 Z-0.2029
X-71.1738 Y13.4945 Z-0.2005
X-71.1725 Y13.4952 Z-0.1978
X-71.1717 Y13.4956 Z-0.1949
X-71.1714 Y13.4957 Z-0.1919
G0 Z0.4
X-71.4429 Y11.9889
Z0.13
G1 Z0.0657 F40.
G18 G2 X-71.4272 Z0.05 I0.0157 K0.
G1 X-71.4194
G17 G3 X-71.4083 Y12. I0. J0.0111
X-71.4528 Z0. I-0.0223 J0.
X-71.4443 Y11.9825 Z-0.0144 I0.0222 J0.
X-71.4168 Y12.0175 Z-0.0644 I0.0138 J0.0175
X-71.4357 Y12.0216 Z-0.0788 I-0.0138 J-0.0175
X-71.4254 Y11.9784 Z-0.1288 I0.0052 J-0.0216
X-71.4103 Y11.9907 Z-0.1431 I-0.0052 J0.0216
X-71.4508 Y12.0093 Z-0.1931 I-0.0202 J0.0093
X-71.4504 Y11.9899 Z-0.2075 I0.0202 J-0.0093
X-71.4107 Y12.0101 I0.0198 J0.0101
X-71.4504 Y11.9899 I-0.0198 J-0.0101
X-71.4354 Y11.985 I0.0099 J0.0051
G1 X-71.4284 Y11.9886
X-71.4257 Y11.99 Z-0.2072
X-71.4231 Y11.9913 Z-0.2063
X-71.4207 Y11.9925 Z-0.2049
X-71.4186 Y11.9936 Z-0.2029
X-71.4168 Y11.9945 Z-0.2005
X-71.4156 Y11.9952 Z-0.1978
X-71.4148 Y11.9956 Z-0.1949
X-71.4145 Y11.9957 Z-0.1919
G0 Z0.4
X-68.5799 Y11.7713
Z0.13
G1 Z0.0657 F40.
G18 G2 X-68.5642 Z0.05 I0.0157 K0.
G1 X-68.5564
G17 G3 X-68.5452 Y11.7824 I0. J0.0111
X-68.5898 Z0. I-0.0223 J0.
X-68.5813 Y11.7649 Z-0.0144 I0.0223 J0.
X-68.5537 Y11.7999 Z-0.0644 I0.0138 J0.0175
X-68.5727 Y11.804 Z-0.0788 I-0.0138 J-0.0175
X-68.5623 Y11.7607 Z-0.1288 I0.0052 J-0.0216
X-68.5473 Y11.7731 Z-0.1431 I-0.0052 J0.0216
X-68.5877 Y11.7917 Z-0.1931 I-0.0202 J0.0093
X-68.5873 Y11.7723 Z-0.2075 I0.0202 J-0.0093
X-68.5477 Y11.7925 I0.0198 J0.0101
X-68.5873 Y11.7723 I-0.0198 J-0.0101
X-68.5724 Y11.7674 I0.0099 J0.0051
G1 X-68.5654 Y11.771
X-68.5627 Y11.7724 Z-0.2072
X-68.5601 Y11.7737 Z-0.2063
X-68.5576 Y11.7749 Z-0.2049
X-68.5555 Y11.776 Z-0.2029
X-68.5538 Y11.7769 Z-0.2005
X-68.5525 Y11.7775 Z-0.1978
X-68.5517 Y11.7779 Z-0.1949
X-68.5514 Y11.7781 Z-0.1919
G0 Z0.4
X-67.6998 Y11.9889
Z0.13
G1 Z0.0657 F40.
G18 G2 X-67.6842 Z0.05 I0.0156 K0.
G1 X-67.6764
G17 G3 X-67.6653 Y12. I0. J0.0111
X-67.7097 Z0. I-0.0222 J0.
X-67.7013 Y11.9825 Z-0.0144 I0.0223 J0.
X-67.6737 Y12.0175 Z-0.0644 I0.0138 J0.0175
X-67.6927 Y12.0216 Z-0.0788 I-0.0138 J-0.0175
X-67.6823 Y11.9784 Z-0.1288 I0.0052 J-0.0216
X-67.6927 Y12.0216 Z-0.1788 I-0.0052 J0.0216
X-67.7073 Y11.9899 Z-0.2075 I0.0052 J-0.0216
X-67.6677 Y12.0101 I0.0198 J0.0101
X-67.7073 Y11.9899 I-0.0198 J-0.0101
X-67.6924 Y11.985 I0.0099 J0.0051
G1 X-67.6854 Y11.9886
X-67.6827 Y11.99 Z-0.2072
X-67.6801 Y11.9913 Z-0.2063
X-67.6776 Y11.9925 Z-0.2049
X-67.6755 Y11.9936 Z-0.2029
X-67.6738 Y11.9945 Z-0.2005
X-67.6725 Y11.9952 Z-0.1978
X-67.6717 Y11.9956 Z-0.1949
X-67.6714 Y11.9957 Z-0.1919
G0 Z0.4
X-67.6998 Y10.9889
Z0.13
G1 Z0.0657 F40.
G18 G2 X-67.6842 Z0.05 I0.0156 K0.
G1 X-67.6764
G17 G3 X-67.6653 Y11. I0. J0.0111
X-67.7097 Z0. I-0.0222 J0.
X-67.7013 Y10.9825 Z-0.0144 I0.0223 J0.
X-67.6737 Y11.0175 Z-0.0644 I0.0138 J0.0175
X-67.6927 Y11.0216 Z-0.0788 I-0.0138 J-0.0175
X-67.6823 Y10.9784 Z-0.1288 I0.0052 J-0.0216
X-67.6927 Y11.0216 Z-0.1788 I-0.0052 J0.0216
X-67.7073 Y10.9899 Z-0.2075 I0.0052 J-0.0216
X-67.6677 Y11.0101 I0.0198 J0.0101
X-67.7073 Y10.9899 I-0.0198 J-0.0101
X-67.6924 Y10.985 I0.0099 J0.0051
G1 X-67.6854 Y10.9886
X-67.6827 Y10.99 Z-0.2072
X-67.6801 Y10.9913 Z-0.2063
X-67.6776 Y10.9925 Z-0.2049
X-67.6755 Y10.9936 Z-0.2029
X-67.6738 Y10.9945 Z-0.2005
X-67.6725 Y10.9952 Z-0.1978
X-67.6717 Y10.9956 Z-0.1949
X-67.6714 Y10.9957 Z-0.1919
G0 Z0.4
X-68.824 Y9.6652
Z0.1143
G1 Z0.05 F40.
X-68.8234 Y9.6645
G3 X-68.8228 Y9.6652 I0. J0.0006
X-68.8253 Z0. I-0.0012 J0.
X-68.8248 Y9.6642 Z-0.0144 I0.0012 J0.
X-68.8232 Y9.6661 Z-0.0644 I0.0008 J0.001
X-68.8243 Y9.6664 Z-0.0788 I-0.0008 J-0.001
X-68.8237 Y9.6639 Z-0.1287 I0.0003 J-0.0012
X-68.8229 Y9.6646 Z-0.1431 I-0.0003 J0.0012
X-68.8251 Y9.6657 Z-0.1931 I-0.0011 J0.0005
Y9.6646 Z-0.2075 I0.0011 J-0.0005
X-68.8229 Y9.6657 I0.0011 J0.0006
X-68.8251 Y9.6646 I-0.0011 J-0.0006
X-68.8243 Y9.6643 I0.0006 J0.0003
G1 X-68.824 Y9.6652
G0 Z0.4
X-70.351 Y10.2209
Z0.1143
G1 Z0.05 F40.
X-70.3504 Y10.2203
G3 X-70.3498 Y10.2209 I0. J0.0006
X-70.3523 Z0. I-0.0012 J0.
X-70.3518 Y10.22 Z-0.0144 I0.0012 J0.
X-70.3502 Y10.2219 Z-0.0644 I0.0008 J0.001
X-70.3513 Y10.2222 Z-0.0788 I-0.0008 J-0.001
X-70.3507 Y10.2197 Z-0.1288 I0.0003 J-0.0012
X-70.3499 Y10.2204 Z-0.1431 I-0.0003 J0.0012
X-70.3521 Y10.2215 Z-0.1931 I-0.0011 J0.0005
Y10.2204 Z-0.2075 I0.0011 J-0.0005
X-70.3499 Y10.2215 I0.0011 J0.0006
X-70.3521 Y10.2204 I-0.0011 J-0.0006
X-70.3513 Y10.2201 I0.0006 J0.0003
G1 X-70.351 Y10.2209
G0 Z0.4
X-71.6374 Y9.4889
Z0.13
G1 Z0.0657 F40.
G18 G2 X-71.6217 Z0.05 I0.0157 K0.
G1 X-71.6139
G17 G3 X-71.6027 Y9.5 I0. J0.0111
X-71.6473 Z0. I-0.0223 J0.
X-71.6388 Y9.4825 Z-0.0144 I0.0223 J0.
X-71.6112 Y9.5175 Z-0.0644 I0.0138 J0.0175
X-71.6388 Y9.4825 Z-0.1144 I-0.0138 J-0.0175
X-71.6048 Y9.4907 Z-0.1431 I0.0138 J0.0175
X-71.6452 Y9.5093 Z-0.1931 I-0.0202 J0.0093
X-71.6448 Y9.4899 Z-0.2075 I0.0202 J-0.0093
X-71.6052 Y9.5101 I0.0198 J0.0101
X-71.6448 Y9.4899 I-0.0198 J-0.0101
X-71.6299 Y9.485 I0.0099 J0.0051
G1 X-71.6229 Y9.4886
X-71.6202 Y9.49 Z-0.2072
X-71.6176 Y9.4913 Z-0.2063
X-71.6151 Y9.4925 Z-0.2049
X-71.613 Y9.4936 Z-0.2029
X-71.6113 Y9.4945 Z-0.2005
X-71.61 Y9.4952 Z-0.1978
X-71.6092 Y9.4956 Z-0.1949
X-71.6089 Y9.4957 Z-0.1919
G0 Z0.4
X-72.6914 Y9.694
Z0.1143
G1 Z0.05 F40.
X-72.6908 Y9.6934
G3 X-72.6901 Y9.694 I0. J0.0006
X-72.6926 Z0. I-0.0012 J0.
X-72.6922 Y9.6931 Z-0.0144 I0.0012 J0.
X-72.6906 Y9.695 Z-0.0644 I0.0008 J0.001
X-72.6917 Y9.6953 Z-0.0788 I-0.0008 J-0.001
X-72.6911 Y9.6928 Z-0.1288 I0.0003 J-0.0012
X-72.6902 Y9.6935 Z-0.1431 I-0.0003 J0.0012
X-72.6925 Y9.6946 Z-0.1931 I-0.0011 J0.0005
Y9.6935 Z-0.2075 I0.0011 J-0.0005
X-72.6903 Y9.6946 I0.0011 J0.0006
X-72.6925 Y9.6935 I-0.0011 J-0.0006
X-72.6917 Y9.6932 I0.0006 J0.0003
G1 X-72.6914 Y9.694
G0 Z0.4
X-74.2917 Y9.4119
Z0.1143
G1 Z0.05 F40.
X-74.2911 Y9.4112
G3 X-74.2904 Y9.4119 I0. J0.0006
X-74.2929 Z0. I-0.0012 J0.
X-74.2925 Y9.4109 Z-0.0144 I0.0012 J0.
X-74.2909 Y9.4128 Z-0.0644 I0.0008 J0.001
X-74.292 Y9.4131 Z-0.0788 I-0.0008 J-0.001
X-74.2914 Y9.4106 Z-0.1288 I0.0003 J-0.0012
X-74.2906 Y9.4113 Z-0.1431 I-0.0003 J0.0012
X-74.2928 Y9.4124 Z-0.1931 I-0.0011 J0.0005
Y9.4113 Z-0.2075 I0.0011 J-0.0005
X-74.2906 Y9.4124 I0.0011 J0.0006
X-74.2928 Y9.4113 I-0.0011 J-0.0006
X-74.292 Y9.411 I0.0006 J0.0003
G1 X-74.2917 Y9.4119
G0 Z0.4
X-74.6999 Y10.9889
Z0.13
G1 Z0.0657 F40.
G18 G2 X-74.6842 Z0.05 I0.0157 K0.
G1 X-74.6764
G17 G3 X-74.6652 Y11. I0. J0.0111
X-74.7098 Z0. I-0.0223 J0.
X-74.6652 Z-0.05 I0.0223 J0.
X-74.6927 Y11.0216 Z-0.0788 I-0.0223 J0.
X-74.6823 Y10.9784 Z-0.1288 I0.0052 J-0.0216
X-74.6673 Y10.9907 Z-0.1431 I-0.0052 J0.0216
X-74.7077 Y11.0093 Z-0.1931 I-0.0202 J0.0093
X-74.7073 Y10.9899 Z-0.2075 I0.0202 J-0.0093
X-74.6677 Y11.0101 I0.0198 J0.0101
X-74.7073 Y10.9899 I-0.0198 J-0.0101
X-74.6924 Y10.985 I0.0099 J0.0051
G1 X-74.6854 Y10.9886
X-74.6827 Y10.99 Z-0.2072
X-74.6801 Y10.9913 Z-0.2063
X-74.6776 Y10.9925 Z-0.2049
X-74.6755 Y10.9936 Z-0.2029
X-74.6738 Y10.9945 Z-0.2005
X-74.6725 Y10.9952 Z-0.1978
X-74.6717 Y10.9956 Z-0.1949
X-74.6714 Y10.9957 Z-0.1919
G0 Z0.4
X-74.8229 Y11.9889
Z0.13
G1 Z0.0657 F40.
G18 G2 X-74.8072 Z0.05 I0.0156 K0.
G1 X-74.7994
G17 G3 X-74.7883 Y12. I0. J0.0111
X-74.8328 Z0. I-0.0223 J0.
X-74.8243 Y11.9825 Z-0.0144 I0.0222 J0.
X-74.7968 Y12.0175 Z-0.0644 I0.0138 J0.0175
X-74.8157 Y12.0216 Z-0.0788 I-0.0138 J-0.0175
X-74.8053 Y11.9784 Z-0.1287 I0.0052 J-0.0216
X-74.7903 Y11.9907 Z-0.1431 I-0.0052 J0.0216
X-74.8307 Y12.0093 Z-0.1931 I-0.0202 J0.0093
X-74.8304 Y11.9899 Z-0.2075 I0.0202 J-0.0093
X-74.7907 Y12.0101 I0.0198 J0.0101
X-74.8304 Y11.9899 I-0.0198 J-0.0101
X-74.8154 Y11.985 I0.0099 J0.0051
G1 X-74.8084 Y11.9886
X-74.8057 Y11.99 Z-0.2072
X-74.8031 Y11.9913 Z-0.2063
X-74.8007 Y11.9925 Z-0.2049
X-74.7986 Y11.9936 Z-0.2029
X-74.7968 Y11.9945 Z-0.2005
X-74.7955 Y11.9952 Z-0.1978
X-74.7947 Y11.9956 Z-0.1949
X-74.7945 Y11.9957 Z-0.1919
G0 Z0.4
X-73.8602 Y14.6594
Z0.13
G1 Z0.0657 F40.
G18 G2 X-73.8445 Z0.05 I0.0157 K0.
G1 X-73.8367
G17 G3 X-73.8256 Y14.6705 I0. J0.0111
X-73.8701 Z0. I-0.0223 J0.
X-73.8256 Z-0.05 I0.0223 J0.
X-73.8701 Z-0.1 I-0.0223 J0.
X-73.8276 Y14.6612 Z-0.1431 I0.0223 J0.
X-73.868 Y14.6798 Z-0.1931 I-0.0202 J0.0093
X-73.8676 Y14.6604 Z-0.2075 I0.0202 J-0.0093
X-73.828 Y14.6806 I0.0198 J0.0101
X-73.8676 Y14.6604 I-0.0198 J-0.0101
X-73.8527 Y14.6555 I0.0099 J0.005
G1 X-73.8457 Y14.6591
X-73.843 Y14.6605 Z-0.2072
X-73.8404 Y14.6618 Z-0.2063
X-73.838 Y14.663 Z-0.2049
X-73.8358 Y14.6641 Z-0.2029
X-73.8341 Y14.665 Z-0.2005
X-73.8328 Y14.6657 Z-0.1978
X-73.832 Y14.6661 Z-0.1949
X-73.8318 Y14.6662 Z-0.1919
G0 Z0.4
X-75.007 Y7.6645
Z0.13
G1 Z0.0657 F40.
G18 G2 X-74.9913 Z0.05 I0.0157 K0.
G1 X-74.9835
G17 G3 X-74.9724 Y7.6757 I0. J0.0111
X-75.0169 Z0. I-0.0223 J0.
X-75.0084 Y7.6582 Z-0.0144 I0.0222 J0.
X-74.9808 Y7.6931 Z-0.0644 I0.0138 J0.0175
X-74.9998 Y7.6973 Z-0.0788 I-0.0138 J-0.0175
X-74.9894 Y7.654 Z-0.1288 I0.0052 J-0.0216
X-74.9744 Y7.6663 Z-0.1431 I-0.0052 J0.0216
X-75.0148 Y7.685 Z-0.1931 I-0.0202 J0.0093
X-75.0144 Y7.6656 Z-0.2075 I0.0202 J-0.0093
X-74.9748 Y7.6858 I0.0198 J0.0101
X-75.0144 Y7.6656 I-0.0198 J-0.0101
X-74.9995 Y7.6607 I0.0099 J0.0051
G1 X-74.9925 Y7.6642
X-74.9898 Y7.6656 Z-0.2072
X-74.9872 Y7.667 Z-0.2063
X-74.9848 Y7.6682 Z-0.2049
X-74.9826 Y7.6693 Z-0.2029
X-74.9809 Y7.6702 Z-0.2005
X-74.9796 Y7.6708 Z-0.1978
X-74.9788 Y7.6712 Z-0.1949
X-74.9786 Y7.6713 Z-0.1919
G0 Z0.4
X-74.9908 Y7.1889
Z0.13
G1 Z0.0657 F40.
G18 G2 X-74.9751 Z0.05 I0.0157 K0.
G1 X-74.9673
G17 G3 X-74.9562 Y7.2 I0. J0.0111
X-75.0007 Z0. I-0.0223 J0.
X-74.9922 Y7.1825 Z-0.0144 I0.0223 J0.
X-74.9647 Y7.2175 Z-0.0644 I0.0138 J0.0175
X-74.9922 Y7.1825 Z-0.1144 I-0.0138 J-0.0175
X-74.9647 Y7.2175 Z-0.1644 I0.0138 J0.0175
X-74.9983 Y7.1899 Z-0.2075 I-0.0138 J-0.0175
X-74.9586 Y7.2101 I0.0198 J0.0101
X-74.9983 Y7.1899 I-0.0198 J-0.0101
X-74.9833 Y7.185 I0.0099 J0.0051
G1 X-74.9763 Y7.1886
X-74.9736 Y7.19 Z-0.2072
X-74.971 Y7.1913 Z-0.2063
X-74.9686 Y7.1925 Z-0.2049
X-74.9665 Y7.1936 Z-0.2029
X-74.9647 Y7.1945 Z-0.2005
X-74.9634 Y7.1952 Z-0.1978
X-74.9626 Y7.1956 Z-0.1949
X-74.9624 Y7.1957 Z-0.1919
G0 Z0.4
X-71.2605 Y5.4411
Z0.13
G1 Z0.0657 F40.
G18 G3 X-71.2761 Z0.05 I-0.0156 K0.
G1 X-71.2839
G17 G3 X-71.2951 Y5.43 I0. J-0.0111
X-71.2506 Z0. I0.0223 J0.
X-71.259 Y5.4475 Z-0.0144 I-0.0223 J0.
X-71.2866 Y5.4125 Z-0.0644 I-0.0138 J-0.0175
X-71.2676 Y5.4084 Z-0.0788 I0.0138 J0.0175
X-71.278 Y5.4516 Z-0.1288 I-0.0052 J0.0216
X-71.293 Y5.4393 Z-0.1431 I0.0052 J-0.0216
X-71.2526 Y5.4207 Z-0.1931 I0.0202 J-0.0093
X-71.253 Y5.4401 Z-0.2075 I-0.0202 J0.0093
X-71.2926 Y5.4199 I-0.0198 J-0.0101
X-71.253 Y5.4401 I0.0198 J0.0101
X-71.2679 Y5.445 I-0.0099 J-0.0051
G1 X-71.2749 Y5.4414
X-71.2776 Y5.44 Z-0.2072
X-71.2803 Y5.4387 Z-0.2063
X-71.2827 Y5.4375 Z-0.2049
X-71.2848 Y5.4364 Z-0.2029
X-71.2865 Y5.4355 Z-0.2005
X-71.2878 Y5.4348 Z-0.1978
X-71.2886 Y5.4344 Z-0.1949
X-71.2889 Y5.4343 Z-0.1919
G0 Z0.4
X-70.3338 Y4.4818
Z0.13
G1 Z0.0657 F40.
G18 G3 X-70.3494 Z0.05 I-0.0157 K0.
G1 X-70.3573
G17 G3 X-70.3684 Y4.4707 I0. J-0.0111
X-70.3239 Z0. I0.0223 J0.
X-70.3684 Z-0.05 I-0.0223 J0.
X-70.3409 Y4.4491 Z-0.0788 I0.0223 J0.
X-70.3513 Y4.4923 Z-0.1288 I-0.0052 J0.0216
X-70.3663 Y4.48 Z-0.1431 I0.0052 J-0.0216
X-70.3259 Y4.4614 Z-0.1931 I0.0202 J-0.0093
X-70.3263 Y4.4808 Z-0.2075 I-0.0202 J0.0093
X-70.366 Y4.4606 I-0.0198 J-0.0101
X-70.3263 Y4.4808 I0.0198 J0.0101
X-70.3413 Y4.4857 I-0.0099 J-0.0051
G1 X-70.3482 Y4.4821
X-70.351 Y4.4807 Z-0.2072
X-70.3536 Y4.4794 Z-0.2063
X-70.356 Y4.4782 Z-0.2049
X-70.3581 Y4.4771 Z-0.2029
X-70.3598 Y4.4762 Z-0.2005
X-70.3611 Y4.4755 Z-0.1978
X-70.3619 Y4.4751 Z-0.1949
X-70.3622 Y4.475 Z-0.1919
G0 Z0.4
X-70.3874 Y3.1139
Z0.13
G1 Z0.0657 F40.
G18 G2 X-70.3717 Z0.05 I0.0157 K0.
G1 X-70.3639
G17 G3 X-70.3527 Y3.125 I0. J0.0111
X-70.3973 Z0. I-0.0223 J0.
X-70.3888 Y3.1075 Z-0.0144 I0.0222 J0.
X-70.3612 Y3.1425 Z-0.0644 I0.0138 J0.0175
X-70.3888 Y3.1075 Z-0.1144 I-0.0138 J-0.0175
X-70.3548 Y3.1157 Z-0.1431 I0.0138 J0.0175
X-70.3952 Y3.1343 Z-0.1931 I-0.0202 J0.0093
X-70.3948 Y3.1149 Z-0.2075 I0.0202 J-0.0093
X-70.3552 Y3.1351 I0.0198 J0.0101
X-70.3948 Y3.1149 I-0.0198 J-0.0101
X-70.3799 Y3.11 I0.0099 J0.0051
G1 X-70.3729 Y3.1136
X-70.3702 Y3.115 Z-0.2072
X-70.3676 Y3.1163 Z-0.2063
X-70.3651 Y3.1175 Z-0.2049
X-70.363 Y3.1186 Z-0.2029
X-70.3613 Y3.1195 Z-0.2005
X-70.36 Y3.1202 Z-0.1978
X-70.3592 Y3.1206 Z-0.1949
X-70.3589 Y3.1207 Z-0.1919
G0 Z0.4
X-70.3874 Y1.8639
Z0.13
G1 Z0.0657 F40.
G18 G2 X-70.3717 Z0.05 I0.0157 K0.
G1 X-70.3639
G17 G3 X-70.3527 Y1.875 I0. J0.0111
X-70.3973 Z0. I-0.0223 J0.
X-70.3888 Y1.8575 Z-0.0144 I0.0222 J0.
X-70.3612 Y1.8925 Z-0.0644 I0.0138 J0.0175
X-70.3888 Y1.8575 Z-0.1144 I-0.0138 J-0.0175
X-70.3548 Y1.8657 Z-0.1431 I0.0138 J0.0175
X-70.3952 Y1.8843 Z-0.1931 I-0.0202 J0.0093
X-70.3948 Y1.8649 Z-0.2075 I0.0202 J-0.0093
X-70.3552 Y1.8851 I0.0198 J0.0101
X-70.3948 Y1.8649 I-0.0198 J-0.0101
X-70.3799 Y1.86 I0.0099 J0.0051
G1 X-70.3729 Y1.8636
X-70.3702 Y1.865 Z-0.2072
X-70.3676 Y1.8663 Z-0.2063
X-70.3651 Y1.8675 Z-0.2049
X-70.363 Y1.8686 Z-0.2029
X-70.3613 Y1.8695 Z-0.2005
X-70.36 Y1.8702 Z-0.1978
X-70.3592 Y1.8706 Z-0.1949
X-70.3589 Y1.8707 Z-0.1919
G0 Z0.4
X-68.8873 Y1.8639
Z0.13
G1 Z0.0657 F40.
G18 G2 X-68.8717 Z0.05 I0.0156 K0.
G1 X-68.8639
G17 G3 X-68.8528 Y1.875 I0. J0.0111
X-68.8973 Z0. I-0.0223 J0.
X-68.8888 Y1.8575 Z-0.0144 I0.0222 J0.
X-68.8612 Y1.8925 Z-0.0644 I0.0138 J0.0175
X-68.8802 Y1.8966 Z-0.0788 I-0.0138 J-0.0175
X-68.8698 Y1.8534 Z-0.1287 I0.0052 J-0.0216
X-68.8548 Y1.8657 Z-0.1431 I-0.0052 J0.0216
X-68.8952 Y1.8843 Z-0.1931 I-0.0202 J0.0093
X-68.8948 Y1.8649 Z-0.2075 I0.0202 J-0.0093
X-68.8552 Y1.8851 I0.0198 J0.0101
X-68.8948 Y1.8649 I-0.0198 J-0.0101
X-68.8799 Y1.86 I0.0099 J0.0051
G1 X-68.8729 Y1.8636
X-68.8702 Y1.865 Z-0.2072
X-68.8676 Y1.8663 Z-0.2063
X-68.8651 Y1.8675 Z-0.2049
X-68.863 Y1.8686 Z-0.2029
X-68.8613 Y1.8695 Z-0.2005
X-68.86 Y1.8702 Z-0.1978
X-68.8592 Y1.8706 Z-0.1949
X-68.8589 Y1.8707 Z-0.1919
G0 Z0.4
X-68.8873 Y3.1139
Z0.13
G1 Z0.0657 F40.
G18 G2 X-68.8717 Z0.05 I0.0156 K0.
G1 X-68.8639
G17 G3 X-68.8528 Y3.125 I0. J0.0111
X-68.8973 Z0. I-0.0223 J0.
X-68.8888 Y3.1075 Z-0.0144 I0.0222 J0.
X-68.8612 Y3.1425 Z-0.0644 I0.0138 J0.0175
X-68.8802 Y3.1466 Z-0.0788 I-0.0138 J-0.0175
X-68.8698 Y3.1034 Z-0.1287 I0.0052 J-0.0216
X-68.8548 Y3.1157 Z-0.1431 I-0.0052 J0.0216
X-68.8952 Y3.1343 Z-0.1931 I-0.0202 J0.0093
X-68.8948 Y3.1149 Z-0.2075 I0.0202 J-0.0093
X-68.8552 Y3.1351 I0.0198 J0.0101
X-68.8948 Y3.1149 I-0.0198 J-0.0101
X-68.8799 Y3.11 I0.0099 J0.0051
G1 X-68.8729 Y3.1136
X-68.8702 Y3.115 Z-0.2072
X-68.8676 Y3.1163 Z-0.2063
X-68.8651 Y3.1175 Z-0.2049
X-68.863 Y3.1186 Z-0.2029
X-68.8613 Y3.1195 Z-0.2005
X-68.86 Y3.1202 Z-0.1978
X-68.8592 Y3.1206 Z-0.1949
X-68.8589 Y3.1207 Z-0.1919
G0 Z0.4
X-68.3785 Y4.9024
Z0.13
G1 Z0.0657 F40.
G18 G3 X-68.3942 Z0.05 I-0.0157 K0.
G1 X-68.402
G17 G3 X-68.4131 Y4.8913 I0. J-0.0111
X-68.3686 Z0. I0.0223 J0.
X-68.3771 Y4.9088 Z-0.0144 I-0.0222 J0.
X-68.4046 Y4.8738 Z-0.0644 I-0.0138 J-0.0175
X-68.3857 Y4.8697 Z-0.0788 I0.0138 J0.0175
X-68.3961 Y4.9129 Z-0.1288 I-0.0052 J0.0216
X-68.4111 Y4.9006 Z-0.1431 I0.0052 J-0.0216
X-68.3707 Y4.882 Z-0.1931 I0.0202 J-0.0093
X-68.371 Y4.9014 Z-0.2075 I-0.0202 J0.0093
X-68.4107 Y4.8812 I-0.0198 J-0.0101
X-68.371 Y4.9014 I0.0198 J0.0101
X-68.386 Y4.9063 I-0.0099 J-0.0051
G1 X-68.393 Y4.9027
X-68.3957 Y4.9013 Z-0.2072
X-68.3983 Y4.9 Z-0.2063
X-68.4007 Y4.8988 Z-0.2049
X-68.4028 Y4.8977 Z-0.2029
X-68.4046 Y4.8968 Z-0.2005
X-68.4059 Y4.8961 Z-0.1978
X-68.4067 Y4.8957 Z-0.1949
X-68.4069 Y4.8956 Z-0.1919
G0 Z0.6
(.3 CIRCULAR THROUGH HOLE 2)
M7
G0 X-73.4581 Y9.5794
Z0.6
Z0.2
G1 Z0.1151 F13.333
G3 X-73.459 Y9.5782 Z0.1085 I0.0364 J-0.0264 F55.
X-73.4611 Y9.5747 Z0.1031 I0.0373 J-0.0252
X-73.4637 Y9.5692 Z0.1 I0.0394 J-0.0217
X-73.3797 Y9.5367 Z0.0621 I0.042 J-0.0163
X-73.4637 Y9.5692 Z0.0242 I-0.042 J0.0163
X-73.3797 Y9.5367 Z-0.0136 I0.042 J-0.0163
X-73.4637 Y9.5692 Z-0.0515 I-0.042 J0.0163
X-73.3797 Y9.5367 Z-0.0894 I0.042 J-0.0163
X-73.4637 Y9.5692 Z-0.1273 I-0.042 J0.0163
X-73.3797 Y9.5367 Z-0.1652 I0.042 J-0.0163
X-73.4637 Y9.5692 Z-0.203 I-0.042 J0.0163
X-73.4667 Y9.553 Z-0.2075 I0.042 J-0.0163
X-73.4164 I0.0252 J0. F60.
X-73.5667 I-0.0752 J0.
X-73.3164 I0.1252 J0.
X-73.6667 I-0.1752 J0.
X-73.2164 I0.2252 J0.
X-73.7667 I-0.2752 J0.
X-73.1164 I0.3252 J0.
X-73.8667 I-0.3752 J0.
X-73.1164 I0.3752 J0.
G2 X-73.073 Y9.6225 I0.0774 J0.
G3 X-73.041 Y9.6979 I-0.0275 J0.0562
X-73.9649 Y9.553 I-0.4506 J-0.1451
X-73.0182 I0.4734 J0.0002
X-73.041 Y9.6979 I-0.4734 J-0.0002
G2 X-73.0385 Y9.7065 I0.0077 J0.0025
G3 X-73.0363 Y9.7151 I-0.0052 J0.006
X-73.9749 Y9.553 I-0.4553 J-0.1624
X-73.0082 I0.4834 J0.0002
X-73.0363 Y9.7151 I-0.4834 J-0.0002
X-73.0393 Y9.7203 Z-0.2063 I-0.0147 J-0.0053
X-73.0432 Y9.7235 Z-0.2029 I-0.0117 J-0.0104
X-73.0463 Y9.7248 Z-0.1978 I-0.0078 J-0.0136
X-73.0475 Y9.7251 Z-0.1919 I-0.0047 J-0.0149
G0 Z0.4
X-73.4709 Y7.5264
Z0.2
G1 Z0.1151 F13.333
G3 X-73.4717 Y7.5252 Z0.1085 I0.0364 J-0.0264 F55.
X-73.4739 Y7.5217 Z0.1031 I0.0373 J-0.0252
X-73.4764 Y7.5163 Z0.1 I0.0394 J-0.0217
X-73.3925 Y7.4837 Z0.0621 I0.042 J-0.0163
X-73.4764 Y7.5163 Z0.0242 I-0.042 J0.0163
X-73.3925 Y7.4837 Z-0.0136 I0.042 J-0.0163
X-73.4764 Y7.5163 Z-0.0515 I-0.042 J0.0163
X-73.3925 Y7.4837 Z-0.0894 I0.042 J-0.0163
X-73.4764 Y7.5163 Z-0.1273 I-0.042 J0.0163
X-73.3925 Y7.4837 Z-0.1652 I0.042 J-0.0163
X-73.4764 Y7.5163 Z-0.203 I-0.042 J0.0163
X-73.4795 Y7.5 Z-0.2075 I0.042 J-0.0163
X-73.4323 I0.0236 J0. F60.
X-73.5795 I-0.0736 J0.
X-73.3323 I0.1236 J0.
X-73.6795 I-0.1736 J0.
X-73.2323 I0.2236 J0.
X-73.7795 I-0.2736 J0.
X-73.1323 I0.3236 J0.
X-73.8795 I-0.3736 J0.
X-73.0323 I0.4236 J0.
X-73.9795 I-0.4736 J0.
X-73.0223 I0.4786 J0.
X-73.9895 I-0.4836 J0.
X-73.0223 I0.4836 J0.
X-73.0235 Y7.5058 Z-0.2063 I-0.0156 J0.
X-73.0261 Y7.5102 Z-0.2029 I-0.0145 J-0.0058
X-73.0286 Y7.5125 Z-0.1978 I-0.0119 J-0.0102
X-73.0295 Y7.5132 Z-0.1919 I-0.0094 J-0.0125
G0 Z0.4
X-71.58 Y7.3763
Z0.2
G1 Z0.1151 F13.333
G3 X-71.5792 Y7.3775 Z0.1085 I-0.0364 J0.0264 F55.
X-71.577 Y7.381 Z0.1031 I-0.0373 J0.0252
X-71.5745 Y7.3864 Z0.1 I-0.0394 J0.0217
X-71.6584 Y7.4189 Z0.0621 I-0.042 J0.0163
X-71.5745 Y7.3864 Z0.0242 I0.042 J-0.0163
X-71.6584 Y7.4189 Z-0.0136 I-0.042 J0.0163
X-71.5745 Y7.3864 Z-0.0515 I0.042 J-0.0163
X-71.6584 Y7.4189 Z-0.0894 I-0.042 J0.0163
X-71.5745 Y7.3864 Z-0.1273 I0.042 J-0.0163
X-71.6584 Y7.4189 Z-0.1652 I-0.042 J0.0163
X-71.5745 Y7.3864 Z-0.203 I0.042 J-0.0163
X-71.5714 Y7.4027 Z-0.2075 I-0.042 J0.0163
X-71.6329 I-0.0307 J0. F60.
X-71.5714 I0.0307 J0.
G2 X-71.5502 Y7.4428 I0.0485 J0.
G3 X-71.5517 Y7.4881 I-0.0151 J0.0222
X-71.7015 Y7.4027 I-0.0504 J-0.0856
X-71.5028 I0.0994 J0.0002
X-71.5517 Y7.4881 I-0.0993 J-0.0002
G2 X-71.5556 Y7.4959 I0.0041 J0.0069
G3 X-71.56 Y7.5034 I-0.0072 J0.0008
X-71.7115 Y7.4027 I-0.0421 J-0.1009
X-71.4928 I0.1093 J0.0002
X-71.56 Y7.5034 I-0.1093 J-0.0002
X-71.5659 Y7.5046 Z-0.2063 I-0.006 J-0.0144
X-71.5709 Y7.5038 Z-0.2029 I-0.0002 J-0.0156
X-71.574 Y7.5025 Z-0.1978 I0.0048 J-0.0149
X-71.575 Y7.5018 Z-0.1919 I0.0079 J-0.0135
G0 Z0.4
X-71.432 Y6.3899
Z0.2
G1 Z0.1151 F13.333
G3 X-71.4312 Y6.3911 Z0.1085 I-0.0364 J0.0264 F55.
X-71.429 Y6.3946 Z0.1031 I-0.0373 J0.0252
X-71.4265 Y6.4001 Z0.1 I-0.0394 J0.0217
X-71.4235 Y6.4163 Z0.0955 I-0.042 J0.0163
X-71.5135 Z0.0577 I-0.045 J0.
X-71.4235 Z0.0198 I0.045 J0.
X-71.5135 Z-0.0181 I-0.045 J0.
X-71.4235 Z-0.056 I0.045 J0.
X-71.5135 Z-0.0939 I-0.045 J0.
X-71.4235 Z-0.1317 I0.045 J0.
X-71.5135 Z-0.1696 I-0.045 J0.
X-71.4235 Z-0.2075 I0.045 J0.
X-71.4517 I-0.0141 J0. F60.
X-71.3235 I0.0641 J0.
X-71.5517 I-0.1141 J0.
X-71.2235 I0.1641 J0.
X-71.6517 I-0.2141 J0.
X-71.2235 I0.2141 J0.
G2 X-71.183 Y6.4835 I0.076 J0.
G3 X-71.1594 Y6.5582 I-0.0261 J0.0493
X-71.7499 Y6.4163 I-0.2782 J-0.1421
X-71.1253 I0.3123 J0.0002
X-71.1594 Y6.5582 I-0.3123 J-0.0002
G2 X-71.1584 Y6.5671 I0.0072 J0.0037
G3 X-71.1577 Y6.576 I-0.006 J0.005
X-71.7599 Y6.4163 I-0.2799 J-0.1598
X-71.1153 I0.3223 J0.0002
X-71.1577 Y6.576 I-0.3223 J-0.0002
X-71.1615 Y6.5805 Z-0.2063 I-0.0136 J-0.0078
X-71.166 Y6.5829 Z-0.2029 I-0.0097 J-0.0123
X-71.1693 Y6.5837 Z-0.1978 I-0.0053 J-0.0147
X-71.1704 Y6.5838 Z-0.1919 I-0.002 J-0.0155
G0 Z0.4
X-69.6811 Y6.3235
Z0.2
G1 Z0.1151 F13.333
G3 X-69.682 Y6.3223 Z0.1085 I0.0364 J-0.0264 F55.
X-69.6841 Y6.3187 Z0.1031 I0.0373 J-0.0252
X-69.6867 Y6.3133 Z0.1 I0.0394 J-0.0217
X-69.6027 Y6.2808 Z0.0621 I0.042 J-0.0163
X-69.6867 Y6.3133 Z0.0242 I-0.042 J0.0163
X-69.6027 Y6.2808 Z-0.0136 I0.042 J-0.0163
X-69.6867 Y6.3133 Z-0.0515 I-0.042 J0.0163
X-69.6027 Y6.2808 Z-0.0894 I0.042 J-0.0163
X-69.6867 Y6.3133 Z-0.1273 I-0.042 J0.0163
X-69.6027 Y6.2808 Z-0.1652 I0.042 J-0.0163
X-69.6867 Y6.3133 Z-0.203 I-0.042 J0.0163
X-69.6897 Y6.297 Z-0.2075 I0.042 J-0.0163
X-69.6426 I0.0236 J0. F60.
X-69.7897 I-0.0736 J0.
X-69.5426 I0.1236 J0.
X-69.8897 I-0.1736 J0.
X-69.4426 I0.2236 J0.
X-69.9897 I-0.2736 J0.
X-69.3426 I0.3236 J0.
X-70.0897 I-0.3736 J0.
X-69.2426 I0.4236 J0.
X-70.1897 I-0.4736 J0.
X-69.2326 I0.4786 J0.
X-70.1997 I-0.4836 J0.
X-69.2326 I0.4836 J0.
X-69.2337 Y6.3029 Z-0.2063 I-0.0156 J0.
X-69.2363 Y6.3072 Z-0.2029 I-0.0145 J-0.0058
X-69.2388 Y6.3095 Z-0.1978 I-0.0119 J-0.0102
X-69.2398 Y6.3102 Z-0.1919 I-0.0094 J-0.0125
G0 Z0.4
X-69.3649 Y4.6546
Z0.2
G1 Z0.1151 F13.333
G3 X-69.3641 Y4.6558 Z0.1085 I-0.0364 J0.0264 F55.
X-69.3619 Y4.6593 Z0.1031 I-0.0373 J0.0252
X-69.3594 Y4.6647 Z0.1 I-0.0394 J0.0217
X-69.3564 Y4.681 Z0.0955 I-0.042 J0.0163
X-69.4464 Z0.0577 I-0.045 J0.
X-69.3564 Z0.0198 I0.045 J0.
X-69.4464 Z-0.0181 I-0.045 J0.
X-69.3564 Z-0.056 I0.045 J0.
X-69.4464 Z-0.0939 I-0.045 J0.
X-69.3564 Z-0.1317 I0.045 J0.
X-69.4464 Z-0.1696 I-0.045 J0.
X-69.3564 Z-0.2075 I0.045 J0.
X-69.3806 I-0.0121 J0. F60.
X-69.2564 I0.0621 J0.
X-69.4806 I-0.1121 J0.
X-69.1564 I0.1621 J0.
X-69.5807 I-0.2121 J0.
X-69.0564 I0.2621 J0.
X-69.6806 I-0.3121 J0.
X-69.0464 I0.3171 J0.
X-69.6906 I-0.3221 J0.
X-69.0464 I0.3221 J0.
X-69.0475 Y4.6868 Z-0.2063 I-0.0156 J0.
X-69.0501 Y4.6912 Z-0.2029 I-0.0145 J-0.0058
X-69.0526 Y4.6935 Z-0.1978 I-0.0119 J-0.0102
X-69.0536 Y4.6942 Z-0.1919 I-0.0094 J-0.0125
G0 Z0.4
X-70.4479 Y8.0659
Z0.2
G1 Z0.1151 F13.333
G3 X-70.4487 Y8.0647 Z0.1085 I0.0364 J-0.0264 F55.
X-70.4509 Y8.0611 Z0.1031 I0.0373 J-0.0252
X-70.4534 Y8.0557 Z0.1 I0.0394 J-0.0217
X-70.4565 Y8.0394 Z0.0955 I0.042 J-0.0163
X-70.3665 Z0.0577 I0.045 J0.
X-70.4565 Z0.0198 I-0.045 J0.
X-70.3665 Z-0.0181 I0.045 J0.
X-70.4565 Z-0.056 I-0.045 J0.
X-70.3665 Z-0.0939 I0.045 J0.
X-70.4565 Z-0.1317 I-0.045 J0.
X-70.3665 Z-0.1696 I0.045 J0.
X-70.4565 Z-0.2075 I-0.045 J0.
X-70.4061 I0.0252 J0. F60.
X-70.5565 I-0.0752 J0.
X-70.3061 I0.1252 J0.
X-70.6565 I-0.1752 J0.
X-70.2061 I0.2252 J0.
X-70.7565 I-0.2752 J0.
X-70.1061 I0.3252 J0.
X-70.8565 I-0.3752 J0.
X-70.1061 I0.3752 J0.
G2 X-70.0628 Y8.109 I0.0774 J0.
G3 X-70.0307 Y8.1844 I-0.0275 J0.0562
X-70.9547 Y8.0394 I-0.4506 J-0.1451
X-70.0079 I0.4734 J0.0002
X-70.0307 Y8.1844 I-0.4734 J-0.0002
G2 X-70.0283 Y8.193 I0.0077 J0.0025
G3 X-70.026 Y8.2016 I-0.0052 J0.006
X-70.9647 Y8.0394 I-0.4553 J-0.1624
X-69.9979 I0.4834 J0.0002
X-70.026 Y8.2016 I-0.4834 J-0.0002
X-70.0291 Y8.2068 Z-0.2063 I-0.0147 J-0.0053
X-70.033 Y8.21 Z-0.2029 I-0.0117 J-0.0104
X-70.0361 Y8.2113 Z-0.1978 I-0.0078 J-0.0136
X-70.0372 Y8.2116 Z-0.1919 I-0.0047 J-0.0149
G0 Z0.4
X-69.5524 Y9.9695
Z0.2
G1 Z0.1151 F13.333
G3 X-69.5532 Y9.9683 Z0.1085 I0.0364 J-0.0264 F55.
X-69.5554 Y9.9648 Z0.1031 I0.0373 J-0.0252
X-69.5579 Y9.9593 Z0.1 I0.0394 J-0.0217
X-69.474 Y9.9268 Z0.0621 I0.042 J-0.0163
X-69.5579 Y9.9593 Z0.0242 I-0.042 J0.0163
X-69.474 Y9.9268 Z-0.0136 I0.042 J-0.0163
X-69.5579 Y9.9593 Z-0.0515 I-0.042 J0.0163
X-69.474 Y9.9268 Z-0.0894 I0.042 J-0.0163
X-69.5579 Y9.9593 Z-0.1273 I-0.042 J0.0163
X-69.474 Y9.9268 Z-0.1652 I0.042 J-0.0163
X-69.5579 Y9.9593 Z-0.203 I-0.042 J0.0163
X-69.561 Y9.9431 Z-0.2075 I0.042 J-0.0163
X-69.5138 I0.0236 J0. F60.
X-69.661 I-0.0736 J0.
X-69.4138 I0.1236 J0.
X-69.761 I-0.1736 J0.
X-69.3138 I0.2236 J0.
X-69.861 I-0.2736 J0.
X-69.2138 I0.3236 J0.
X-69.961 I-0.3736 J0.
X-69.1138 I0.4236 J0.
X-70.061 I-0.4736 J0.
X-69.1038 I0.4786 J0.
X-70.071 I-0.4836 J0.
X-69.1038 I0.4836 J0.
X-69.105 Y9.9489 Z-0.2063 I-0.0156 J0.
X-69.1076 Y9.9532 Z-0.2029 I-0.0145 J-0.0058
X-69.1101 Y9.9556 Z-0.1978 I-0.0119 J-0.0102
X-69.111 Y9.9562 Z-0.1919 I-0.0094 J-0.0125
G0 Z0.4
X-69.4115 Y14.4424
Z0.2
G1 Z0.1151 F13.333
G3 X-69.4107 Y14.4436 Z0.1085 I-0.0364 J0.0264 F55.
X-69.4085 Y14.4471 Z0.1031 I-0.0373 J0.0252
X-69.406 Y14.4526 Z0.1 I-0.0394 J0.0217
X-69.4899 Y14.4851 Z0.0621 I-0.042 J0.0163
X-69.406 Y14.4526 Z0.0242 I0.042 J-0.0163
X-69.4899 Y14.4851 Z-0.0136 I-0.042 J0.0163
X-69.406 Y14.4526 Z-0.0515 I0.042 J-0.0163
X-69.4899 Y14.4851 Z-0.0894 I-0.042 J0.0163
X-69.406 Y14.4526 Z-0.1273 I0.042 J-0.0163
X-69.4899 Y14.4851 Z-0.1652 I-0.042 J0.0163
X-69.406 Y14.4526 Z-0.203 I0.042 J-0.0163
X-69.4029 Y14.4688 Z-0.2075 I-0.042 J0.0163
X-69.4644 I-0.0307 J0. F60.
X-69.4029 I0.0307 J0.
G2 X-69.3817 Y14.5089 I0.0485 J0.
G3 X-69.3832 Y14.5542 I-0.0151 J0.0222
X-69.533 Y14.4688 I-0.0504 J-0.0856
X-69.3343 I0.0993 J0.0002
X-69.3832 Y14.5542 I-0.0993 J-0.0002
G2 X-69.3871 Y14.562 I0.0041 J0.0069
G3 X-69.3915 Y14.5695 I-0.0072 J0.0008
X-69.543 Y14.4688 I-0.0421 J-0.1009
X-69.3243 I0.1093 J0.0002
X-69.3915 Y14.5695 I-0.1093 J-0.0002
X-69.3974 Y14.5707 Z-0.2063 I-0.006 J-0.0144
X-69.4024 Y14.57 Z-0.2029 I-0.0002 J-0.0156
X-69.4055 Y14.5686 Z-0.1978 I0.0048 J-0.0149
X-69.4065 Y14.568 Z-0.1919 I0.0079 J-0.0135
G0 Z0.4
X-73.4355 Y14.9931
Z0.2
G1 Z0.1151 F13.333
G3 X-73.4363 Y14.9919 Z0.1085 I0.0364 J-0.0264 F55.
X-73.4385 Y14.9884 Z0.1031 I0.0373 J-0.0252
X-73.441 Y14.9829 Z0.1 I0.0394 J-0.0217
X-73.3571 Y14.9504 Z0.0621 I0.042 J-0.0163
X-73.441 Y14.9829 Z0.0242 I-0.042 J0.0163
X-73.3571 Y14.9504 Z-0.0136 I0.042 J-0.0163
X-73.441 Y14.9829 Z-0.0515 I-0.042 J0.0163
X-73.3571 Y14.9504 Z-0.0894 I0.042 J-0.0163
X-73.441 Y14.9829 Z-0.1273 I-0.042 J0.0163
X-73.3571 Y14.9504 Z-0.1652 I0.042 J-0.0163
X-73.441 Y14.9829 Z-0.203 I-0.042 J0.0163
X-73.444 Y14.9667 Z-0.2075 I0.042 J-0.0163
X-73.3457 I0.0492 J0. F60.
X-73.544 I-0.0992 J0.
X-73.3357 I0.1041 J0.
X-73.554 I-0.1092 J0.
X-73.3357 I0.1092 J0.
X-73.3369 Y14.9725 Z-0.2063 I-0.0156 J0.
X-73.3395 Y14.9769 Z-0.2029 I-0.0145 J-0.0058
X-73.3419 Y14.9792 Z-0.1978 I-0.0119 J-0.0102
X-73.3429 Y14.9799 Z-0.1919 I-0.0094 J-0.0125
G0 Z0.6
(SHAPE THROUGH FINISHING PASS 2)
M7
G0 X-71.8364 Y8.5078
Z0.6
Z0.2
G1 Z0.1 F13.333
Z-0.1575
Y8.5075 Z-0.1631 F40.
X-71.8363 Y8.5066 Z-0.1686
Y8.505 Z-0.174
Y8.5029 Z-0.1792
Y8.5002 Z-0.1841
X-71.8362 Y8.4969 Z-0.1887
Y8.4932 Z-0.1929
Y8.489 Z-0.1966
X-71.8361 Y8.4844 Z-0.1998
X-71.836 Y8.4795 Z-0.2025
Y8.4744 Z-0.2047
X-71.8359 Y8.469 Z-0.2062
Y8.4634 Z-0.2072
X-71.8358 Y8.4578 Z-0.2075
X-71.8356 Y8.4422
G3 X-71.7862 Y8.4927 I-0.0005 J0.05
G1 X-71.7924 Y9.0666 F50.
G3 X-71.7954 Y9.0678 I-0.0017 J0.
G1 X-72.3324 Y8.4967
G3 X-72.3325 Y8.4943 I0.0013 J-0.0012
G1 X-71.7822 Y7.8684
G3 X-71.7794 Y7.8695 I0.0012 J0.0011
G1 X-71.7862 Y8.4927
G3 X-71.8367 Y8.5422 I-0.05 J-0.0005
G1 X-71.8366 Y8.5265
X-71.8365 Y8.5209 Z-0.2072
X-71.8364 Y8.5154 Z-0.2062
Y8.51 Z-0.2047
X-71.8363 Y8.5048 Z-0.2025
Y8.4999 Z-0.1998
X-71.8362 Y8.4954 Z-0.1966
Y8.4912 Z-0.1929
X-71.8361 Y8.4874 Z-0.1887
Y8.4842 Z-0.1841
Y8.4815 Z-0.1792
X-71.836 Y8.4793 Z-0.174
Y8.4778 Z-0.1686
Y8.4769 Z-0.1631
Y8.4765 Z-0.1575
G0 Z0.4
X-71.2095 Y8.5294
Z0.2
G1 Z0.1 F13.333
Z-0.1575
X-71.2097 Y8.5291 Z-0.1631 F40.
X-71.2102 Y8.5283 Z-0.1686
X-71.211 Y8.527 Z-0.174
X-71.2122 Y8.5252 Z-0.1792
X-71.2137 Y8.523 Z-0.1841
X-71.2154 Y8.5202 Z-0.1887
X-71.2175 Y8.5171 Z-0.1929
X-71.2197 Y8.5136 Z-0.1966
X-71.2222 Y8.5097 Z-0.1998
X-71.2249 Y8.5056 Z-0.2025
X-71.2277 Y8.5013 Z-0.2047
X-71.2306 Y8.4967 Z-0.2062
X-71.2336 Y8.4921 Z-0.2072
X-71.2366 Y8.4874 Z-0.2075
X-71.2452 Y8.4743
G3 X-71.176 Y8.4891 I0.0272 J0.042
G2 X-71.1168 Y8.5695 I0.695 J-0.4494 F50.
G1 Y8.5696
G3 X-71.1167 Y8.5718 I-0.0013 J0.0011
G1 X-71.4443 Y8.9903
G3 X-71.4473 Y8.9892 I-0.0013 J-0.001
G1 X-71.4347 Y7.8251
G3 X-71.4337 Y7.8235 I0.0017 J0.
G1 X-71.4334 Y7.8234
G2 X-71.3235 Y7.76 I-0.1693 J-0.4206
G3 X-71.3215 Y7.7599 I0.0011 J0.0014
G1 X-71.2715 Y7.7884
X-71.2711 Y7.7886
G3 X-71.2703 Y7.7906 I-0.0009 J0.0015
G2 X-71.176 Y8.4891 I0.7893 J0.249
G3 X-71.1908 Y8.5582 I-0.042 J0.0272
G1 X-71.1993 Y8.5451
X-71.2024 Y8.5404 Z-0.2072
X-71.2054 Y8.5357 Z-0.2062
X-71.2083 Y8.5312 Z-0.2047
X-71.2111 Y8.5269 Z-0.2025
X-71.2138 Y8.5228 Z-0.1998
X-71.2163 Y8.5189 Z-0.1966
X-71.2185 Y8.5154 Z-0.1929
X-71.2206 Y8.5123 Z-0.1887
X-71.2223 Y8.5095 Z-0.1841
X-71.2238 Y8.5073 Z-0.1792
X-71.225 Y8.5055 Z-0.174
X-71.2258 Y8.5042 Z-0.1686
X-71.2263 Y8.5034 Z-0.1631
X-71.2265 Y8.5031 Z-0.1575
G0 Z0.4
X-70.6207 Y8.9059
Z0.2
G1 Z0.1 F13.333
Z-0.1575
X-70.621 Z-0.1631 F40.
X-70.6219 Y8.9057 Z-0.1686
X-70.6234 Y8.9054 Z-0.174
X-70.6255 Y8.9051 Z-0.1792
X-70.6282 Y8.9046 Z-0.1841
X-70.6314 Y8.904 Z-0.1887
X-70.6351 Y8.9034 Z-0.1929
X-70.6392 Y8.9026 Z-0.1966
X-70.6437 Y8.9018 Z-0.1998
X-70.6485 Y8.901 Z-0.2025
X-70.6536 Y8.9 Z-0.2047
X-70.6589 Y8.8991 Z-0.2062
X-70.6644 Y8.8981 Z-0.2072
X-70.6699 Y8.8971 Z-0.2075
X-70.6853 Y8.8944
G3 X-70.6273 Y8.854 I0.0492 J0.0088
G2 X-70.2945 Y8.8456 I0.1459 J-0.8145 F50.
G1 Y8.8455
G3 X-70.2925 Y8.8465 I0.0004 J0.0017
G1 X-70.0878 Y9.2822
G3 X-70.0883 Y9.2843 I-0.0016 J0.0007
G2 X-70.3753 Y9.69 I0.5009 J0.6587
G3 X-70.3772 Y9.6913 I-0.0018 J-0.0006
G1 X-70.3773
X-71.271 Y9.602
X-71.2711
G3 X-71.2727 Y9.5997 I0.0002 J-0.0018
G2 X-71.2898 Y9.3525 I-0.3525 J-0.0999
G1 Y9.3524
G3 X-71.2896 Y9.3506 I0.0016 J-0.0007
G1 X-70.8459 Y8.7839
G3 X-70.8437 Y8.7834 I0.0014 J0.0011
G2 X-70.6273 Y8.854 I0.3623 J-0.744
G3 X-70.5869 Y8.912 I-0.0088 J0.0492
G1 X-70.6023 Y8.9092
X-70.6078 Y8.9083 Z-0.2072
X-70.6132 Y8.9073 Z-0.2062
X-70.6185 Y8.9063 Z-0.2047
X-70.6236 Y8.9054 Z-0.2025
X-70.6284 Y8.9046 Z-0.1998
X-70.6329 Y8.9037 Z-0.1966
X-70.6371 Y8.903 Z-0.1929
X-70.6407 Y8.9023 Z-0.1887
X-70.6439 Y8.9018 Z-0.1841
X-70.6466 Y8.9013 Z-0.1792
X-70.6487 Y8.9009 Z-0.174
X-70.6502 Y8.9006 Z-0.1686
X-70.6512 Y8.9005 Z-0.1631
X-70.6515 Y8.9004 Z-0.1575
G0 Z0.4
X-68.6961 Y9.0987
Z0.2
G1 Z0.1 F13.333
Z-0.1575
X-68.696 Y9.0984 Z-0.1631 F40.
X-68.6954 Y9.0976 Z-0.1686
X-68.6945 Y9.0964 Z-0.174
X-68.6933 Y9.0946 Z-0.1792
X-68.6917 Y9.0924 Z-0.1841
X-68.6899 Y9.0898 Z-0.1887
X-68.6877 Y9.0867 Z-0.1929
X-68.6853 Y9.0833 Z-0.1966
X-68.6827 Y9.0796 Z-0.1998
X-68.6798 Y9.0755 Z-0.2025
X-68.6768 Y9.0713 Z-0.2047
X-68.6737 Y9.0669 Z-0.2062
X-68.6705 Y9.0624 Z-0.2072
X-68.6673 Y9.0578 Z-0.2075
X-68.6583 Y9.045
G3 X-68.6463 Y9.1147 I-0.0288 J0.0409
G1 X-68.7915 Y9.3206 F50.
G3 X-68.7931 Y9.3213 I-0.0014 J-0.001
G2 X-68.994 Y9.3646 I-0.031 J0.3439
G3 X-68.996 Y9.3643 I-0.0008 J-0.0015
G2 X-69.7744 Y9.137 I-0.5914 J0.5787
G3 X-69.7764 Y9.136 I-0.0004 J-0.0017
G1 X-69.9811 Y8.7003
G3 X-69.9806 Y8.6982 I0.0016 J-0.0007
G2 X-69.715 Y8.3521 I-0.5003 J-0.659
G3 X-69.7131 Y8.351 I0.0016 J0.0006
G1 X-68.2897 Y8.6047
X-68.2895
G3 X-68.2884 Y8.6074 I-0.0003 J0.0017
G1 X-68.6463 Y9.1147
G3 X-68.7159 Y9.1267 I-0.0409 J-0.0288
G1 X-68.7069 Y9.1139
X-68.7037 Y9.1094 Z-0.2072
X-68.7005 Y9.1049 Z-0.2062
X-68.6974 Y9.1005 Z-0.2047
X-68.6944 Y9.0962 Z-0.2025
X-68.6916 Y9.0922 Z-0.1998
X-68.6889 Y9.0885 Z-0.1966
X-68.6865 Y9.0851 Z-0.1929
X-68.6844 Y9.082 Z-0.1887
X-68.6825 Y9.0794 Z-0.1841
X-68.6809 Y9.0771 Z-0.1792
X-68.6797 Y9.0754 Z-0.174
X-68.6788 Y9.0741 Z-0.1686
X-68.6783 Y9.0734 Z-0.1631
X-68.6781 Y9.0731 Z-0.1575
G0 Z0.4
X-67.7534 Y9.4916
Z0.2
G1 Z0.1 F13.333
Z-0.1575
G19 G2 Y9.4416 Z-0.2075 J-0.05 K0. F40.
G1 Y9.4259
G17 G3 X-67.7034 Y9.4759 I0. J0.05
G1 Y10.0456 F50.
G3 X-67.7059 Y10.0471 I-0.0017 J0.
G1 X-68.4784 Y9.6497
G3 X-68.4793 Y9.6482 I0.0008 J-0.0016
G2 X-68.5104 Y9.5207 I-0.3448 J0.0164
G1 X-68.5105 Y9.5204
G3 X-68.5104 Y9.5187 I0.0015 J-0.0007
G1 X-67.9873 Y8.7774
G3 X-67.9855 Y8.7767 I0.0014 J0.001
G2 X-67.9019 Y8.7857 I0.0833 J-0.3818
G1 X-67.7052
G3 X-67.7034 Y8.7874 I0. J0.0017
G1 Y9.4759
G3 X-67.7534 Y9.5259 I-0.05 J0.
G1 Y9.5103
G19 G2 Y9.4603 Z-0.1575 J0. K0.05
G0 Z0.4
X-67.9094 Y10.4638
Z0.2
G1 Z0.1 F13.333
Z-0.1575
G2 Y10.4138 Z-0.2075 J-0.05 K0. F40.
G1 Y10.3982
G17 G3 X-67.8594 Y10.4482 I0. J0.05
G1 Y10.6754 F50.
G3 X-67.8604 Y10.6771 I-0.0019 J0.
G1 X-67.8607 Y10.6772
G2 X-67.8857 Y10.692 I0.1735 J0.3227
G3 X-67.8875 I-0.001 J-0.0015
G1 X-68.7953 Y10.187
G3 X-68.7961 Y10.185 I0.0009 J-0.0015
G1 X-68.796 Y10.1848
G2 X-68.7625 Y10.0063 I-0.7916 J-0.2408
G3 X-68.761 Y10.0046 I0.0018 J0.0002
G1 X-68.7609
G2 X-68.6373 Y9.9557 I-0.0629 J-0.3395
G3 X-68.6357 Y9.9556 I0.0009 J0.0014
G1 X-67.8606 Y10.3544
X-67.8604 Y10.3545
G3 X-67.8594 Y10.3562 I-0.0009 J0.0017
G1 Y10.4482
G3 X-67.9094 Y10.4982 I-0.05 J0.
G1 Y10.4825
G19 G2 Y10.4325 Z-0.1575 J0. K0.05
G0 Z0.4
X-68.491 Y10.807
Z0.2
G1 Z0.1 F13.333
Z-0.1575
X-68.4913 Y10.8069 Z-0.1631 F40.
X-68.4921 Y10.8064 Z-0.1686
X-68.4935 Y10.8056 Z-0.174
X-68.4954 Y10.8046 Z-0.1792
X-68.4977 Y10.8033 Z-0.1841
X-68.5006 Y10.8017 Z-0.1887
X-68.5038 Y10.7999 Z-0.1929
X-68.5075 Y10.7979 Z-0.1966
X-68.5115 Y10.7956 Z-0.1998
X-68.5158 Y10.7933 Z-0.2025
X-68.5203 Y10.7907 Z-0.2047
X-68.525 Y10.7881 Z-0.2062
X-68.5298 Y10.7854 Z-0.2072
X-68.5347 Y10.7827 Z-0.2075
X-68.5484 Y10.7751
G17 G3 X-68.4804 Y10.7557 I0.0437 J0.0243
G1 X-68.0547 Y10.9925 F50.
G3 X-68.0538 Y10.9941 I-0.0009 J0.0015
G2 X-68.0438 Y11.0853 I0.3664 J0.0058
G1 Y11.0855
G3 X-68.0442 Y11.0871 I-0.0016 J0.0004
G1 X-68.4394 Y11.4383
G3 X-68.4412 Y11.4386 I-0.0012 J-0.0013
G2 X-68.8586 Y11.56 I-0.1264 J0.3438
G3 X-68.8617 Y11.5595 I-0.0014 J-0.0011
G1 X-69.1656 Y10.6566
Y10.6565
G3 X-69.165 Y10.6546 I0.0015 J-0.0005
G1 X-69.1647 Y10.6545
G2 X-68.9647 Y10.4879 I-0.423 J-0.7112
G3 X-68.9625 Y10.4875 I0.0013 J0.0012
G1 Y10.4876
X-68.4804 Y10.7557
G3 X-68.461 Y10.8237 I-0.0243 J0.0437
G1 X-68.4747 Y10.8161
X-68.4796 Y10.8134 Z-0.2072
X-68.4844 Y10.8107 Z-0.2062
X-68.4891 Y10.8081 Z-0.2047
X-68.4937 Y10.8056 Z-0.2025
X-68.4979 Y10.8032 Z-0.1998
X-68.5019 Y10.8009 Z-0.1966
X-68.5056 Y10.7989 Z-0.1929
X-68.5089 Y10.7971 Z-0.1887
X-68.5117 Y10.7955 Z-0.1841
X-68.5141 Y10.7942 Z-0.1792
X-68.5159 Y10.7932 Z-0.174
X-68.5173 Y10.7924 Z-0.1686
X-68.5181 Y10.792 Z-0.1631
X-68.5184 Y10.7918 Z-0.1575
G0 Z0.4
X-68.0454 Y11.787
Z0.2
G1 Z0.1 F13.333
Z-0.1575
X-68.0453 Y11.7867 Z-0.1631 F40.
X-68.0448 Y11.7859 Z-0.1686
X-68.0439 Y11.7846 Z-0.174
X-68.0427 Y11.7828 Z-0.1792
X-68.0413 Y11.7805 Z-0.1841
X-68.0395 Y11.7778 Z-0.1887
X-68.0375 Y11.7747 Z-0.1929
X-68.0352 Y11.7712 Z-0.1966
X-68.0327 Y11.7673 Z-0.1998
X-68.0301 Y11.7632 Z-0.2025
X-68.0272 Y11.7588 Z-0.2047
X-68.0243 Y11.7543 Z-0.2062
X-68.0213 Y11.7497 Z-0.2072
X-68.0183 Y11.745 Z-0.2075
X-68.0098 Y11.7318
G3 X-67.995 Y11.801 I-0.0272 J0.042
G2 X-68.0534 Y11.9842 I0.3076 J0.199 F50.
G3 X-68.0544 Y11.9857 I-0.0017 J-0.0001
G1 X-68.4209 Y12.1622
G3 X-68.4229 Y12.1619 I-0.0008 J-0.0016
G2 X-68.4567 Y12.1344 I-0.3034 J0.3382
G1 X-68.4569 Y12.1343
G3 X-68.4564 Y12.1314 I0.001 J-0.0013
G1 X-68.4562 Y12.1313
G2 X-68.2113 Y11.6972 I-0.1112 J-0.3489
G3 X-68.2107 Y11.6955 I0.0018 J-0.0004
G1 X-68.2106 Y11.6953
X-67.8625 Y11.3856
G3 X-67.8594 Y11.387 I0.0013 J0.0014
G1 Y11.6754
G3 X-67.8604 Y11.6771 I-0.0019 J0.
G1 X-67.8606 Y11.6772
G2 X-67.995 Y11.801 I0.1732 J0.3228
G3 X-68.0641 Y11.8158 I-0.042 J-0.0272
G1 X-68.0556 Y11.8027
X-68.0526 Y11.798 Z-0.2072
X-68.0495 Y11.7933 Z-0.2062
X-68.0466 Y11.7888 Z-0.2047
X-68.0438 Y11.7844 Z-0.2025
X-68.0411 Y11.7803 Z-0.1998
X-68.0387 Y11.7765 Z-0.1966
X-68.0364 Y11.773 Z-0.1929
X-68.0344 Y11.7698 Z-0.1887
X-68.0326 Y11.7671 Z-0.1841
X-68.0311 Y11.7648 Z-0.1792
X-68.03 Y11.763 Z-0.174
X-68.0291 Y11.7617 Z-0.1686
X-68.0286 Y11.7609 Z-0.1631
X-68.0284 Y11.7607 Z-0.1575
G0 Z0.4
X-67.9094 Y12.4221
Z0.2
G1 Z0.1 F13.333
Z-0.1575
G19 G2 Y12.3721 Z-0.2075 J-0.05 K0. F40.
G1 Y12.3565
G17 G3 X-67.8594 Y12.4065 I0. J0.05
G1 Y12.4824 F50.
G3 X-67.8613 Y12.4843 I-0.0019 J0.
G1 X-67.8614
X-67.8697
G2 X-68.197 Y12.6613 I-0.0002 J0.3908
G1 X-68.3509 Y12.8966
G3 X-68.354 Y12.8952 I-0.0014 J-0.0009
G2 X-68.2798 Y12.5826 I-3.0766 J-0.8959
G1 X-68.2797 Y12.5825
G2 X-68.2731 Y12.4739 I-0.4467 J-0.0819
G3 X-68.2721 Y12.4722 I0.0018 J-0.0001
G1 X-68.272
X-67.9052 Y12.2957
G3 X-67.9035 Y12.2959 I0.0007 J0.0015
G2 X-67.8605 Y12.3229 I0.2156 J-0.2962
G1 X-67.8604
G3 X-67.8594 Y12.3246 I-0.0009 J0.0017
G1 Y12.4065
G3 X-67.9094 Y12.4565 I-0.05 J0.
G1 Y12.4408
G19 G2 Y12.3908 Z-0.1575 J0. K0.05
G0 Z0.4
X-68.6661 Y12.5158
Z0.2
G1 Z0.1 F13.333
Z-0.1575
Y12.5155 Z-0.1631 F40.
Y12.5146 Z-0.1686
Y12.513 Z-0.174
Y12.5109 Z-0.1792
Y12.5082 Z-0.1841
Y12.5049 Z-0.1887
Y12.5012 Z-0.1929
X-68.666 Y12.497 Z-0.1966
Y12.4924 Z-0.1998
Y12.4875 Z-0.2025
Y12.4823 Z-0.2047
Y12.477 Z-0.2062
Y12.4714 Z-0.2072
X-68.6659 Y12.4658 Z-0.2075
Y12.4502
G17 G3 X-68.616 Y12.5003 I-0.0001 J0.05
X-68.6179 Y12.5201 I-0.1103 J-0.0003 F50.
X-69.1011 Y13.66 I-2.8128 J-0.52
X-69.2808 Y13.532 I-0.0898 J-0.064
G2 X-68.8349 Y12.4799 I-2.15 J-1.5318
G3 X-68.616 Y12.5003 I0.1085 J0.0201
X-68.6662 Y12.5502 I-0.05 J-0.0002
G1 Y12.5345
X-68.6661 Y12.5289 Z-0.2072
Y12.5234 Z-0.2062
Y12.518 Z-0.2047
Y12.5128 Z-0.2025
Y12.5079 Z-0.1998
Y12.5034 Z-0.1966
X-68.666 Y12.4992 Z-0.1929
Y12.4954 Z-0.1887
Y12.4922 Z-0.1841
Y12.4895 Z-0.1792
Y12.4873 Z-0.174
Y12.4858 Z-0.1686
Y12.4848 Z-0.1631
Y12.4845 Z-0.1575
G0 Z0.4
X-69.1676 Y11.8852
Z0.2
G1 Z0.1 F13.333
Z-0.1575
X-69.1677 Y11.8849 Z-0.1631 F40.
X-69.168 Y11.884 Z-0.1686
X-69.1685 Y11.8825 Z-0.174
X-69.1692 Y11.8805 Z-0.1792
X-69.17 Y11.8779 Z-0.1841
X-69.1711 Y11.8748 Z-0.1887
X-69.1723 Y11.8713 Z-0.1929
X-69.1736 Y11.8673 Z-0.1966
X-69.1751 Y11.863 Z-0.1998
X-69.1766 Y11.8583 Z-0.2025
X-69.1783 Y11.8534 Z-0.2047
X-69.18 Y11.8483 Z-0.2062
X-69.1818 Y11.8431 Z-0.2072
X-69.1836 Y11.8378 Z-0.2075
X-69.1886 Y11.823
G3 X-69.1252 Y11.8544 I0.016 J0.0474
G1 X-69.0238 Y12.1551 F50.
G3 X-69.0244 Y12.157 I-0.0017 J0.0005
G1 X-69.0247 Y12.1573
G2 X-69.1078 Y12.2534 I0.2986 J0.3424
G3 X-69.1097 Y12.2542 I-0.0015 J-0.001
G1 X-69.1098
X-69.3348 Y12.2126
G3 X-69.336 Y12.2115 I0.0003 J-0.0016
G1 X-69.3361 Y12.2113
G2 X-69.4993 Y12.0072 I-0.3488 J0.1116
G3 X-69.5002 Y12.0056 I0.0009 J-0.0015
G1 X-69.4541 Y10.8886
G3 X-69.4509 Y10.8881 I0.0016 J0.0001
G1 X-69.1252 Y11.8544
G3 X-69.1566 Y11.9177 I-0.0474 J0.016
G1 X-69.1616 Y11.9029
X-69.1634 Y11.8976 Z-0.2072
X-69.1652 Y11.8923 Z-0.2062
X-69.1669 Y11.8872 Z-0.2047
X-69.1685 Y11.8823 Z-0.2025
X-69.1701 Y11.8777 Z-0.1998
X-69.1716 Y11.8733 Z-0.1966
X-69.1729 Y11.8694 Z-0.1929
X-69.1741 Y11.8658 Z-0.1887
X-69.1751 Y11.8628 Z-0.1841
X-69.176 Y11.8602 Z-0.1792
X-69.1767 Y11.8582 Z-0.174
X-69.1772 Y11.8567 Z-0.1686
X-69.1775 Y11.8558 Z-0.1631
X-69.1776 Y11.8555 Z-0.1575
G0 Z0.4
X-69.8789 Y11.6324
Z0.2
G1 Z0.1 F13.333
Z-0.1575
Y11.6321 Z-0.1631 F40.
Y11.6311 Z-0.1686
X-69.8788 Y11.6296 Z-0.174
X-69.8787 Y11.6274 Z-0.1792
X-69.8786 Y11.6247 Z-0.1841
X-69.8785 Y11.6215 Z-0.1887
X-69.8783 Y11.6178 Z-0.1929
X-69.8782 Y11.6136 Z-0.1966
X-69.878 Y11.609 Z-0.1998
X-69.8778 Y11.6041 Z-0.2025
X-69.8776 Y11.5989 Z-0.2047
X-69.8773 Y11.5935 Z-0.2062
X-69.8771 Y11.588 Z-0.2072
X-69.8769 Y11.5824 Z-0.2075
X-69.8763 Y11.5668
G3 X-69.8283 Y11.6188 I-0.002 J0.05
G1 X-69.8435 Y11.9915 F50.
G3 X-69.8445 Y11.993 I-0.0017 J-0.0001
G1 X-69.8447
G2 X-69.9713 Y12.094 I0.1593 J0.3299
G3 X-69.9729 Y12.0946 I-0.0013 J-0.001
G1 X-71.0803 Y11.8899
G3 X-71.0817 Y11.8887 I0.0003 J-0.0018
G2 X-71.086 Y11.8758 I-0.35 J0.1082
X-71.0863 Y11.875 I-0.0738 J0.0259
G3 X-71.0859 Y11.8733 I0.0016 J-0.0006
G1 X-71.0858 Y11.8732
X-70.0004 Y10.6618
G3 X-69.9983 Y10.6614 I0.0013 J0.0011
G2 X-69.7941 Y10.7444 I0.4108 J-0.7184
G3 X-69.7927 Y10.7461 I-0.0005 J0.0017
G1 X-69.8283 Y11.6188
G3 X-69.8803 Y11.6667 I-0.05 J-0.002
G1 X-69.8797 Y11.6511
X-69.8795 Y11.6455 Z-0.2072
X-69.8792 Y11.64 Z-0.2062
X-69.879 Y11.6346 Z-0.2047
X-69.8788 Y11.6294 Z-0.2025
X-69.8786 Y11.6245 Z-0.1998
X-69.8784 Y11.6199 Z-0.1966
X-69.8783 Y11.6157 Z-0.1929
X-69.8781 Y11.612 Z-0.1887
X-69.878 Y11.6088 Z-0.1841
X-69.8779 Y11.6061 Z-0.1792
X-69.8778 Y11.6039 Z-0.174
X-69.8777 Y11.6024 Z-0.1686
Y11.6014 Z-0.1631
Y11.6011 Z-0.1575
G0 Z0.4
X-70.1858 Y12.5447
Z0.2
G1 Z0.1 F13.333
Z-0.1575
X-70.1857 Y12.5444 Z-0.1631 F40.
X-70.1853 Y12.5436 Z-0.1686
X-70.1847 Y12.5422 Z-0.174
X-70.1839 Y12.5402 Z-0.1792
X-70.1828 Y12.5377 Z-0.1841
X-70.1815 Y12.5347 Z-0.1887
X-70.1801 Y12.5313 Z-0.1929
X-70.1784 Y12.5274 Z-0.1966
X-70.1767 Y12.5232 Z-0.1998
X-70.1747 Y12.5187 Z-0.2025
X-70.1727 Y12.5139 Z-0.2047
X-70.1706 Y12.5089 Z-0.2062
X-70.1685 Y12.5039 Z-0.2072
X-70.1663 Y12.4987 Z-0.2075
X-70.1602 Y12.4843
G3 X-70.1337 Y12.5499 I-0.0195 J0.046
X-70.1913 Y12.6696 I-1.2969 J-0.5502 F50.
X-70.1936 Y12.6702 I-0.0014 J-0.0008
G1 X-70.6924 Y12.3148
G3 X-70.691 Y12.3116 I0.001 J-0.0014
G1 X-70.089 Y12.423
G3 X-70.0876 Y12.4253 I-0.0003 J0.0018
X-70.1337 Y12.5499 I-1.343 J-0.4256
X-70.1992 Y12.5764 I-0.046 J-0.0195
G1 X-70.1931 Y12.562
X-70.1909 Y12.5568 Z-0.2072
X-70.1888 Y12.5517 Z-0.2062
X-70.1866 Y12.5467 Z-0.2047
X-70.1846 Y12.542 Z-0.2025
X-70.1827 Y12.5375 Z-0.1998
X-70.1809 Y12.5333 Z-0.1966
X-70.1793 Y12.5294 Z-0.1929
X-70.1778 Y12.526 Z-0.1887
X-70.1766 Y12.523 Z-0.1841
X-70.1755 Y12.5205 Z-0.1792
X-70.1747 Y12.5185 Z-0.174
X-70.1741 Y12.5171 Z-0.1686
X-70.1737 Y12.5162 Z-0.1631
X-70.1736 Y12.5159 Z-0.1575
G0 Z0.4
X-71.1203 Y12.4937
Z0.2
G1 Z0.1 F13.333
Z-0.1575
X-71.1206 Y12.4935 Z-0.1631 F40.
X-71.1214 Y12.493 Z-0.1686
X-71.1226 Y12.4921 Z-0.174
X-71.1244 Y12.4908 Z-0.1792
X-71.1266 Y12.4893 Z-0.1841
X-71.1292 Y12.4874 Z-0.1887
X-71.1323 Y12.4852 Z-0.1929
X-71.1357 Y12.4828 Z-0.1966
X-71.1394 Y12.4801 Z-0.1998
X-71.1434 Y12.4773 Z-0.2025
X-71.1476 Y12.4743 Z-0.2047
X-71.152 Y12.4711 Z-0.2062
X-71.1565 Y12.4679 Z-0.2072
X-71.1611 Y12.4647 Z-0.2075
X-71.1738 Y12.4556
G3 X-71.1041 Y12.4439 I0.0407 J0.029
G1 X-70.3491 Y12.9818 F50.
G3 X-70.3485 Y12.9834 I-0.001 J0.0013
G2 X-70.3489 Y12.9873 I0.0776 J0.0102
G3 X-70.3497 Y12.988 I-0.0015 J-0.001
G1 X-70.9478 Y13.2217
G3 X-70.9496 Y13.2214 I-0.0007 J-0.0016
G2 X-71.5373 Y13.391 I-0.238 J0.2786
G3 X-71.5386 Y13.3922 I-0.0017 J-0.0005
G1 X-71.9619 Y13.4733
G3 X-71.9639 Y13.4707 I-0.0003 J-0.0018
G2 X-71.8256 Y13.1652 I-2.8457 J-1.473
G1 X-71.8255
G2 X-71.8488 Y12.7847 I-0.4233 J-0.1651
G3 X-71.8486 Y12.7827 I0.0015 J-0.0008
G1 X-71.8485 Y12.7826
X-71.5028 Y12.36
G3 X-71.5012 Y12.3594 I0.0013 J0.0011
G2 X-71.268 Y12.3282 I0.0706 J-0.3594
G3 X-71.2663 Y12.3283 I0.0008 J0.0016
G1 X-71.1041 Y12.4439
G3 X-71.0924 Y12.5136 I-0.029 J0.0407
G1 X-71.1051 Y12.5046
X-71.1097 Y12.5013 Z-0.2072
X-71.1142 Y12.4981 Z-0.2062
X-71.1186 Y12.495 Z-0.2047
X-71.1228 Y12.492 Z-0.2025
X-71.1268 Y12.4891 Z-0.1998
X-71.1305 Y12.4865 Z-0.1966
X-71.1339 Y12.484 Z-0.1929
X-71.137 Y12.4819 Z-0.1887
X-71.1396 Y12.48 Z-0.1841
X-71.1418 Y12.4784 Z-0.1792
X-71.1436 Y12.4772 Z-0.174
X-71.1448 Y12.4763 Z-0.1686
X-71.1456 Y12.4757 Z-0.1631
X-71.1458 Y12.4755 Z-0.1575
G0 Z0.4
X-72.0309 Y11.6321
Z0.2
G1 Z0.1 F13.333
Z-0.1575
X-72.0311 Y11.6318 Z-0.1631 F40.
X-72.0317 Y11.6311 Z-0.1686
X-72.0327 Y11.6299 Z-0.174
X-72.0341 Y11.6283 Z-0.1792
X-72.0358 Y11.6262 Z-0.1841
X-72.0379 Y11.6237 Z-0.1887
X-72.0403 Y11.6209 Z-0.1929
X-72.043 Y11.6177 Z-0.1966
X-72.0459 Y11.6142 Z-0.1998
X-72.0491 Y11.6104 Z-0.2025
X-72.0524 Y11.6064 Z-0.2047
X-72.0559 Y11.6023 Z-0.2062
X-72.0595 Y11.5981 Z-0.2072
X-72.0631 Y11.5938 Z-0.2075
X-72.0732 Y11.5818
G3 X-72.0027 Y11.5879 I0.0322 J0.0382
G1 X-71.7713 Y11.8627 F50.
X-71.7711 Y11.8629
G3 X-71.7708 Y11.8646 I-0.0013 J0.0011
G2 X-71.7688 Y12.1402 I0.3401 J0.1353
G3 X-71.7691 Y12.142 I-0.0016 J0.0006
G1 X-71.7692 Y12.1422
X-72.1149 Y12.5648
G3 X-72.1167 Y12.5653 I-0.0013 J-0.0011
G2 X-72.577 Y12.686 I-0.132 J0.4346
G3 X-72.579 Y12.6865 I-0.0013 J-0.0012
G1 X-72.7924 Y12.6032
G3 X-72.7936 Y12.6017 I0.0006 J-0.0017
G2 X-73.0199 Y12.3059 I-0.3636 J0.0436
G3 X-73.021 Y12.3044 I0.0006 J-0.0016
G1 X-73.2332 Y10.3406
G3 X-73.2321 Y10.3387 I0.0017 J-0.0002
G2 X-73.103 Y10.2835 I-0.2597 J-0.7856
G3 X-73.1008 Y10.2839 I0.0009 J0.0015
G1 X-72.0027 Y11.5879
G3 X-72.0087 Y11.6583 I-0.0382 J0.0322
G1 X-72.0188 Y11.6464
X-72.0224 Y11.6421 Z-0.2072
X-72.026 Y11.6379 Z-0.2062
X-72.0295 Y11.6337 Z-0.2047
X-72.0328 Y11.6298 Z-0.2025
X-72.036 Y11.626 Z-0.1998
X-72.0389 Y11.6225 Z-0.1966
X-72.0416 Y11.6193 Z-0.1929
X-72.044 Y11.6165 Z-0.1887
X-72.0461 Y11.614 Z-0.1841
X-72.0478 Y11.6119 Z-0.1792
X-72.0492 Y11.6103 Z-0.174
X-72.0502 Y11.6091 Z-0.1686
X-72.0508 Y11.6084 Z-0.1631
X-72.051 Y11.6081 Z-0.1575
G0 Z0.4
X-71.8042 Y10.2451
Z0.2
G1 Z0.1 F13.333
Z-0.1575
Y10.2448 Z-0.1631 F40.
X-71.8043 Y10.2439 Z-0.1686
X-71.8044 Y10.2423 Z-0.174
X-71.8046 Y10.2402 Z-0.1792
X-71.8049 Y10.2375 Z-0.1841
X-71.8051 Y10.2343 Z-0.1887
X-71.8055 Y10.2305 Z-0.1929
X-71.8058 Y10.2264 Z-0.1966
X-71.8062 Y10.2218 Z-0.1998
X-71.8066 Y10.2169 Z-0.2025
X-71.8071 Y10.2118 Z-0.2047
X-71.8075 Y10.2064 Z-0.2062
X-71.808 Y10.2009 Z-0.2072
X-71.8085 Y10.1953 Z-0.2075
X-71.8098 Y10.1797
G3 X-71.7557 Y10.2253 I0.0043 J0.0498
G1 X-71.6488 Y11.4688 F50.
G3 X-71.652 Y11.4701 I-0.0018 J0.0001
G1 X-72.8377 Y10.0625
G3 Y10.0601 I0.0015 J-0.0012
G2 X-72.8087 Y10.0202 I-0.6536 J-0.5071
G3 X-72.8065 Y10.0195 I0.0015 J0.001
G1 X-72.8064
G2 X-72.3777 Y9.8383 I0.115 J-0.3255
G3 X-72.3759 Y9.8373 I0.0016 J0.0008
G1 X-71.7857 Y9.8963
X-71.7855
G3 X-71.7839 Y9.898 I-0.0002 J0.0018
G1 X-71.7557 Y10.2253
G3 X-71.8013 Y10.2794 I-0.0498 J0.0043
G1 X-71.8026 Y10.2638
X-71.8031 Y10.2582 Z-0.2072
X-71.8036 Y10.2527 Z-0.2062
X-71.804 Y10.2473 Z-0.2047
X-71.8045 Y10.2421 Z-0.2025
X-71.8049 Y10.2373 Z-0.1998
X-71.8053 Y10.2327 Z-0.1966
X-71.8056 Y10.2285 Z-0.1929
X-71.8059 Y10.2248 Z-0.1887
X-71.8062 Y10.2216 Z-0.1841
X-71.8065 Y10.2189 Z-0.1792
X-71.8066 Y10.2167 Z-0.174
X-71.8068 Y10.2152 Z-0.1686
X-71.8069 Y10.2143 Z-0.1631
Y10.2139 Z-0.1575
G0 Z0.4
X-70.6723 Y10.4518
Z0.2
G1 Z0.1 F13.333
Z-0.1575
X-70.6725 Y10.4515 Z-0.1631 F40.
X-70.673 Y10.4507 Z-0.1686
X-70.6738 Y10.4494 Z-0.174
X-70.675 Y10.4477 Z-0.1792
X-70.6765 Y10.4454 Z-0.1841
X-70.6783 Y10.4427 Z-0.1887
X-70.6804 Y10.4396 Z-0.1929
X-70.6827 Y10.4361 Z-0.1966
X-70.6852 Y10.4323 Z-0.1998
X-70.6879 Y10.4282 Z-0.2025
X-70.6907 Y10.4238 Z-0.2047
X-70.6937 Y10.4193 Z-0.2062
X-70.6968 Y10.4147 Z-0.2072
X-70.6998 Y10.4101 Z-0.2075
X-70.7085 Y10.397
G3 X-70.6392 Y10.4112 I0.0275 J0.0417
G2 X-70.3797 Y10.565 I0.2881 J-0.1901 F50.
G1 X-70.3794 Y10.5651
G3 X-70.3783 Y10.5679 I-0.0001 J0.0017
G1 X-70.3784
X-71.2905 Y11.586
G3 X-71.2937 Y11.5849 I-0.0013 J-0.0012
G1 X-71.4358 Y9.9334
G3 X-71.4338 Y9.9314 I0.0018 J-0.0001
G1 X-70.629 Y10.0118
G3 X-70.6277 Y10.0146 I-0.0002 J0.0017
G2 X-70.6392 Y10.4112 I0.2766 J0.2064
G3 X-70.6534 Y10.4805 I-0.0417 J0.0275
G1 X-70.662 Y10.4674
X-70.6651 Y10.4627 Z-0.2072
X-70.6681 Y10.4581 Z-0.2062
X-70.6711 Y10.4536 Z-0.2047
X-70.6739 Y10.4493 Z-0.2025
X-70.6766 Y10.4452 Z-0.1998
X-70.6792 Y10.4414 Z-0.1966
X-70.6815 Y10.4379 Z-0.1929
X-70.6835 Y10.4348 Z-0.1887
X-70.6853 Y10.4321 Z-0.1841
X-70.6868 Y10.4298 Z-0.1792
X-70.688 Y10.428 Z-0.174
X-70.6888 Y10.4267 Z-0.1686
X-70.6894 Y10.4259 Z-0.1631
X-70.6895 Y10.4257 Z-0.1575
G0 Z0.4
X-72.3704 Y9.0313
Z0.2
G1 Z0.1 F13.333
Z-0.1575
X-72.3706 Y9.031 Z-0.1631 F40.
X-72.3713 Y9.0304 Z-0.1686
X-72.3723 Y9.0292 Z-0.174
X-72.3738 Y9.0277 Z-0.1792
X-72.3757 Y9.0257 Z-0.1841
X-72.3779 Y9.0233 Z-0.1887
X-72.3804 Y9.0206 Z-0.1929
X-72.3833 Y9.0176 Z-0.1966
X-72.3864 Y9.0142 Z-0.1998
X-72.3898 Y9.0107 Z-0.2025
X-72.3934 Y9.0069 Z-0.2047
X-72.397 Y9.003 Z-0.2062
X-72.4008 Y8.9989 Z-0.2072
X-72.4047 Y8.9949 Z-0.2075
X-72.4154 Y8.9835
G3 X-72.3447 Y8.9856 I0.0343 J0.0364
G1 X-71.9725 Y9.3814 F50.
G3 X-71.9721 Y9.383 I-0.0012 J0.0011
G1 X-71.9722 Y9.3833
G2 X-71.9902 Y9.528 I0.347 J0.1167
G1 Y9.5282
G3 X-71.992 Y9.53 I-0.0016 J0.0001
G1 X-71.9922 Y9.5299
X-72.4138 Y9.4878
G3 X-72.4149 Y9.4871 I0.0002 J-0.0016
G2 X-72.6883 Y9.3488 I-0.2764 J0.2069
G3 X-72.69 Y9.3475 I0. J-0.0018
G2 X-72.8273 Y9.0596 I-0.8013 J0.2056
G3 X-72.8272 Y9.0576 I0.0013 J-0.001
G1 X-72.827 Y9.0573
X-72.5629 Y8.7566
G3 X-72.5602 Y8.7565 I0.0014 J0.0012
G1 Y8.7566
X-72.3447 Y8.9856
G3 X-72.3469 Y9.0563 I-0.0364 J0.0343
G1 X-72.3576 Y9.0449
X-72.3614 Y9.0408 Z-0.2072
X-72.3652 Y9.0368 Z-0.2062
X-72.3689 Y9.0329 Z-0.2047
X-72.3725 Y9.0291 Z-0.2025
X-72.3758 Y9.0255 Z-0.1998
X-72.379 Y9.0222 Z-0.1966
X-72.3818 Y9.0191 Z-0.1929
X-72.3844 Y9.0164 Z-0.1887
X-72.3866 Y9.0141 Z-0.1841
X-72.3885 Y9.0121 Z-0.1792
X-72.3899 Y9.0105 Z-0.174
X-72.391 Y9.0094 Z-0.1686
X-72.3916 Y9.0087 Z-0.1631
X-72.3919 Y9.0085 Z-0.1575
G0 Z0.4
X-72.9811 Y8.6357
Z0.2
G1 Z0.1 F13.333
Z-0.1575
X-72.9809 Y8.6354 Z-0.1631 F40.
X-72.9802 Y8.6347 Z-0.1686
X-72.9792 Y8.6336 Z-0.174
X-72.9778 Y8.632 Z-0.1792
X-72.976 Y8.6299 Z-0.1841
X-72.9739 Y8.6275 Z-0.1887
X-72.9714 Y8.6247 Z-0.1929
X-72.9686 Y8.6215 Z-0.1966
X-72.9656 Y8.6181 Z-0.1998
X-72.9624 Y8.6144 Z-0.2025
X-72.959 Y8.6105 Z-0.2047
X-72.9554 Y8.6065 Z-0.2062
X-72.9518 Y8.6023 Z-0.2072
X-72.9481 Y8.5981 Z-0.2075
X-72.9377 Y8.5864
G3 X-72.9332 Y8.6569 I-0.033 J0.0376
G1 X-73.0855 Y8.8303 F50.
G3 X-73.0878 Y8.8307 I-0.0014 J-0.0012
G2 X-73.3239 Y8.7426 I-0.4038 J0.7222
G3 X-73.3253 Y8.741 I0.0003 J-0.0017
G1 X-73.3281 Y8.3097
Y8.3096
G3 X-73.3267 Y8.3079 I0.0017 J0.
G2 X-73.0777 Y8.2082 I-0.1788 J-0.808
G3 X-73.0755 Y8.2085 I0.0009 J0.0015
G1 X-72.7995 Y8.5022
Y8.5023
G3 X-72.7994 Y8.5047 I-0.0013 J0.0012
G1 X-72.9332 Y8.6569
G3 X-73.0037 Y8.6615 I-0.0376 J-0.033
G1 X-72.9934 Y8.6497
X-72.9897 Y8.6455 Z-0.2072
X-72.9861 Y8.6414 Z-0.2062
X-72.9825 Y8.6373 Z-0.2047
X-72.9791 Y8.6334 Z-0.2025
X-72.9759 Y8.6297 Z-0.1998
X-72.9728 Y8.6263 Z-0.1966
X-72.9701 Y8.6232 Z-0.1929
X-72.9676 Y8.6204 Z-0.1887
X-72.9655 Y8.6179 Z-0.1841
X-72.9637 Y8.6159 Z-0.1792
X-72.9623 Y8.6143 Z-0.174
X-72.9612 Y8.6131 Z-0.1686
X-72.9606 Y8.6124 Z-0.1631
X-72.9604 Y8.6122 Z-0.1575
G0 Z0.4
X-72.0964 Y7.4996
Z0.2
G1 Z0.1 F13.333
Z-0.1575
Y7.4993 Z-0.1631 F40.
X-72.0966 Y7.4983 Z-0.1686
X-72.0968 Y7.4968 Z-0.174
X-72.0972 Y7.4947 Z-0.1792
X-72.0976 Y7.492 Z-0.1841
X-72.0981 Y7.4888 Z-0.1887
X-72.0987 Y7.4851 Z-0.1929
X-72.0994 Y7.481 Z-0.1966
X-72.1001 Y7.4765 Z-0.1998
X-72.1009 Y7.4717 Z-0.2025
X-72.1018 Y7.4665 Z-0.2047
X-72.1026 Y7.4612 Z-0.2062
X-72.1035 Y7.4558 Z-0.2072
X-72.1044 Y7.4502 Z-0.2075
X-72.107 Y7.4348
G3 X-72.0495 Y7.476 I0.0081 J0.0493
G2 X-72.0088 Y7.6032 I0.4472 J-0.0734 F50.
G1 X-72.0087 Y7.6033
G3 X-72.0089 Y7.6052 I-0.0016 J0.0008
G1 X-72.569 Y8.2423
G3 X-72.5714 Y8.2424 I-0.0012 J-0.0011
G1 X-72.8249 Y7.9729
G3 X-72.825 Y7.9707 I0.0013 J-0.0012
G1 Y7.9706
G2 X-72.7085 Y7.2781 I-0.6809 J-0.4706
G1 Y7.2779
G3 X-72.7078 Y7.276 I0.0015 J-0.0004
G1 X-71.929 Y6.8681
Y6.868
G3 X-71.9268 Y6.8684 I0.0009 J0.0016
G2 X-71.7849 Y6.9849 I0.4897 J-0.4518
G3 X-71.7851 Y6.988 I-0.0009 J0.0015
G2 X-72.0495 Y7.476 I0.1828 J0.4147
G3 X-72.0908 Y7.5335 I-0.0493 J0.0081
G1 X-72.0933 Y7.518
X-72.0942 Y7.5125 Z-0.2072
X-72.0951 Y7.5071 Z-0.2062
X-72.096 Y7.5017 Z-0.2047
X-72.0968 Y7.4966 Z-0.2025
X-72.0976 Y7.4918 Z-0.1998
X-72.0984 Y7.4873 Z-0.1966
X-72.099 Y7.4831 Z-0.1929
X-72.0997 Y7.4795 Z-0.1887
X-72.1002 Y7.4763 Z-0.1841
X-72.1006 Y7.4736 Z-0.1792
X-72.101 Y7.4715 Z-0.174
X-72.1012 Y7.4699 Z-0.1686
X-72.1014 Y7.469 Z-0.1631
Y7.4687 Z-0.1575
G0 Z0.4
X-72.3984 Y6.6692
Z0.2
G1 Z0.1 F13.333
Z-0.1575
X-72.3981 Y6.669 Z-0.1631 F40.
X-72.3973 Y6.6686 Z-0.1686
X-72.3959 Y6.6679 Z-0.174
X-72.394 Y6.6669 Z-0.1792
X-72.3916 Y6.6656 Z-0.1841
X-72.3888 Y6.6641 Z-0.1887
X-72.3854 Y6.6624 Z-0.1929
X-72.3817 Y6.6604 Z-0.1966
X-72.3777 Y6.6583 Z-0.1998
X-72.3733 Y6.656 Z-0.2025
X-72.3688 Y6.6536 Z-0.2047
X-72.364 Y6.6511 Z-0.2062
X-72.3591 Y6.6486 Z-0.2072
X-72.3541 Y6.646 Z-0.2075
X-72.3403 Y6.6387
G3 X-72.3613 Y6.7062 I-0.0443 J0.0232
G1 X-72.8674 Y6.9714 F50.
X-72.8675
G3 X-72.8697 Y6.9709 I-0.0009 J-0.0016
G2 X-72.9662 Y6.8726 I-0.6368 J0.5285
G1 X-72.9664 Y6.8725
G3 X-72.9668 Y6.8705 I0.0011 J-0.0012
G1 X-72.9667 Y6.8703
X-72.6449 Y6.2796
G3 X-72.6443 Y6.279 I0.0016 J0.0009
G2 X-72.6437 Y6.2786 I-0.0419 J-0.0661
X-72.5371 Y6.2028 I-0.8201 J-1.2672
G3 X-72.5355 Y6.2026 I0.001 J0.0013
G1 X-72.1027 Y6.3589
G3 X-72.1016 Y6.3606 I-0.0006 J0.0015
G1 Y6.3608
G2 X-72.0878 Y6.5615 I0.6642 J0.0551
G3 X-72.0886 Y6.5633 I-0.0016 J0.0004
G1 X-72.0887
X-72.3613 Y6.7062
G3 X-72.4288 Y6.6851 I-0.0232 J-0.0443
G1 X-72.415 Y6.6778
X-72.41 Y6.6753 Z-0.2072
X-72.4051 Y6.6727 Z-0.2062
X-72.4004 Y6.6702 Z-0.2047
X-72.3958 Y6.6678 Z-0.2025
X-72.3914 Y6.6655 Z-0.1998
X-72.3874 Y6.6634 Z-0.1966
X-72.3837 Y6.6614 Z-0.1929
X-72.3804 Y6.6597 Z-0.1887
X-72.3775 Y6.6582 Z-0.1841
X-72.3751 Y6.6569 Z-0.1792
X-72.3732 Y6.6559 Z-0.174
X-72.3718 Y6.6552 Z-0.1686
X-72.371 Y6.6548 Z-0.1631
X-72.3707 Y6.6546 Z-0.1575
G0 Z0.4
X-71.8435 Y5.826
Z0.2
G1 Z0.1 F13.333
Z-0.1575
X-71.8433 Y5.8258 Z-0.1631 F40.
X-71.8425 Y5.8253 Z-0.1686
X-71.8412 Y5.8244 Z-0.174
X-71.8394 Y5.8233 Z-0.1792
X-71.8371 Y5.8218 Z-0.1841
X-71.8344 Y5.82 Z-0.1887
X-71.8313 Y5.818 Z-0.1929
X-71.8278 Y5.8157 Z-0.1966
X-71.824 Y5.8132 Z-0.1998
X-71.8199 Y5.8105 Z-0.2025
X-71.8155 Y5.8076 Z-0.2047
X-71.811 Y5.8047 Z-0.2062
X-71.8064 Y5.8016 Z-0.2072
X-71.8017 Y5.7986 Z-0.2075
X-71.7886 Y5.79
G3 X-71.803 Y5.8592 I-0.0418 J0.0274
G2 X-71.9838 Y6.0347 I0.3654 J0.5573 F50.
G3 X-71.9857 Y6.0354 I-0.0014 J-0.001
G1 X-72.2663 Y5.934
G3 X-72.2671 Y5.9313 I0.0006 J-0.0016
G2 X-72.0566 Y5.5571 I-1.1969 J-0.9195
G3 X-72.0557 Y5.5561 I0.0017 J0.0007
G1 X-72.0554 Y5.556
X-71.6353 Y5.362
G3 X-71.6329 Y5.3639 I0.0007 J0.0016
G2 X-71.4967 Y5.7199 I0.3601 J0.0663
G3 X-71.4961 Y5.7215 I-0.001 J0.0013
G2 X-71.4962 Y5.7224 I0.0772 J0.013
G1 X-71.5008 Y5.7518
G3 X-71.5024 Y5.7533 I-0.0018 J-0.0004
G1 X-71.5025
G2 X-71.803 Y5.8592 I0.0649 J0.6632
G3 X-71.8723 Y5.8448 I-0.0274 J-0.0418
G1 X-71.8592 Y5.8362
X-71.8545 Y5.8332 Z-0.2072
X-71.8499 Y5.8301 Z-0.2062
X-71.8454 Y5.8272 Z-0.2047
X-71.841 Y5.8243 Z-0.2025
X-71.8369 Y5.8216 Z-0.1998
X-71.8331 Y5.8191 Z-0.1966
X-71.8296 Y5.8168 Z-0.1929
X-71.8265 Y5.8148 Z-0.1887
X-71.8238 Y5.813 Z-0.1841
X-71.8215 Y5.8115 Z-0.1792
X-71.8197 Y5.8104 Z-0.174
X-71.8184 Y5.8095 Z-0.1686
X-71.8176 Y5.809 Z-0.1631
X-71.8174 Y5.8088 Z-0.1575
G0 Z0.4
X-70.6783 Y6.0152
Z0.2
G1 Z0.1 F13.333
Z-0.1575
X-70.6785 Y6.0151 Z-0.1631 F40.
X-70.6793 Y6.0146 Z-0.1686
X-70.6807 Y6.0139 Z-0.174
X-70.6826 Y6.0128 Z-0.1792
X-70.685 Y6.0115 Z-0.1841
X-70.6878 Y6.0099 Z-0.1887
X-70.6911 Y6.0081 Z-0.1929
X-70.6947 Y6.0061 Z-0.1966
X-70.6987 Y6.0039 Z-0.1998
X-70.703 Y6.0015 Z-0.2025
X-70.7075 Y5.9989 Z-0.2047
X-70.7122 Y5.9963 Z-0.2062
X-70.717 Y5.9936 Z-0.2072
X-70.7219 Y5.9909 Z-0.2075
X-70.7356 Y5.9833
G3 X-70.6676 Y5.9639 I0.0437 J0.0243
G1 X-70.5083 Y6.0527 F50.
G3 X-70.5075 Y6.0547 I-0.0009 J0.0015
G1 Y6.0548
G2 X-70.5353 Y6.18 I0.7915 J0.2416
G3 X-70.5369 Y6.1815 I-0.0017 J-0.0002
G1 X-70.8058 Y6.2002
G3 X-70.8075 Y6.199 I-0.0001 J-0.0017
G2 X-71.1607 Y5.8104 I-0.6297 J0.2175
G3 X-71.1618 Y5.8084 I0.0008 J-0.0017
G1 X-71.1567 Y5.7785
G3 X-71.1555 Y5.777 I0.0018 J0.0003
G2 X-71.155 Y5.7769 I-0.0249 J-0.0742
X-71.075 Y5.7381 I-0.1183 J-0.3466
G3 X-71.0732 I0.001 J0.0015
G1 X-71.0731
X-70.6676 Y5.9639
G3 X-70.6482 Y6.032 I-0.0243 J0.0437
G1 X-70.6619 Y6.0243
X-70.6668 Y6.0216 Z-0.2072
X-70.6716 Y6.0189 Z-0.2062
X-70.6763 Y6.0163 Z-0.2047
X-70.6809 Y6.0138 Z-0.2025
X-70.6852 Y6.0114 Z-0.1998
X-70.6892 Y6.0092 Z-0.1966
X-70.6928 Y6.0071 Z-0.1929
X-70.6961 Y6.0053 Z-0.1887
X-70.6989 Y6.0037 Z-0.1841
X-70.7013 Y6.0024 Z-0.1792
X-70.7031 Y6.0014 Z-0.174
X-70.7045 Y6.0006 Z-0.1686
X-70.7053 Y6.0002 Z-0.1631
X-70.7056 Y6. Z-0.1575
G0 Z0.4
X-70.3416 Y5.1651
Z0.2
G1 Z0.1 F13.333
Z-0.1575
X-70.3417 Y5.1648 Z-0.1631 F40.
X-70.342 Y5.164 Z-0.1686
X-70.3425 Y5.1625 Z-0.174
X-70.3432 Y5.1605 Z-0.1792
X-70.3441 Y5.1579 Z-0.1841
X-70.3451 Y5.1548 Z-0.1887
X-70.3463 Y5.1513 Z-0.1929
X-70.3477 Y5.1474 Z-0.1966
X-70.3492 Y5.143 Z-0.1998
X-70.3508 Y5.1384 Z-0.2025
X-70.3525 Y5.1335 Z-0.2047
X-70.3542 Y5.1284 Z-0.2062
X-70.356 Y5.1232 Z-0.2072
X-70.3579 Y5.1179 Z-0.2075
X-70.363 Y5.1031
G3 X-70.2994 Y5.134 I0.0163 J0.0473
G1 X-70.1433 Y5.5866 F50.
G3 X-70.144 Y5.5887 I-0.0016 J0.0006
G2 X-70.3387 Y5.7518 I0.4277 J0.7085
G3 X-70.3408 Y5.7522 I-0.0013 J-0.0011
G1 X-70.9056 Y5.4376
X-70.9058 Y5.4375
G3 X-70.9068 Y5.4358 I0.0009 J-0.0017
G2 X-71.0895 Y5.1129 I-0.3661 J-0.006
G3 X-71.0893 Y5.1098 I0.0009 J-0.0015
G1 X-71.0892
X-70.5861 Y4.8774
G2 X-70.4856 Y4.8104 I-0.1639 J-0.3547
G3 X-70.4838 Y4.8101 I0.0012 J0.0013
G1 X-70.4837
G2 X-70.4045 Y4.8322 I0.1377 J-0.3394
G3 X-70.4031 Y4.8334 I-0.0003 J0.0017
G1 Y4.8335
X-70.2994 Y5.134
G3 X-70.3304 Y5.1976 I-0.0473 J0.0163
G1 X-70.3355 Y5.1828
X-70.3373 Y5.1775 Z-0.2072
X-70.3391 Y5.1723 Z-0.2062
X-70.3409 Y5.1672 Z-0.2047
X-70.3425 Y5.1623 Z-0.2025
X-70.3441 Y5.1577 Z-0.1998
X-70.3456 Y5.1534 Z-0.1966
X-70.347 Y5.1494 Z-0.1929
X-70.3482 Y5.1459 Z-0.1887
X-70.3493 Y5.1428 Z-0.1841
X-70.3502 Y5.1402 Z-0.1792
X-70.3509 Y5.1382 Z-0.174
X-70.3514 Y5.1367 Z-0.1686
X-70.3517 Y5.1359 Z-0.1631
X-70.3518 Y5.1356 Z-0.1575
G0 Z0.4
X-70.1173 Y3.9322
Z0.2
G1 Z0.1 F13.333
Z-0.1575
X-70.1175 Y3.932 Z-0.1631 F40.
X-70.118 Y3.9312 Z-0.1686
X-70.1188 Y3.9299 Z-0.174
X-70.12 Y3.9281 Z-0.1792
X-70.1215 Y3.9258 Z-0.1841
X-70.1232 Y3.9231 Z-0.1887
X-70.1253 Y3.9199 Z-0.1929
X-70.1275 Y3.9164 Z-0.1966
X-70.13 Y3.9126 Z-0.1998
X-70.1327 Y3.9085 Z-0.2025
X-70.1355 Y3.9041 Z-0.2047
X-70.1384 Y3.8996 Z-0.2062
X-70.1414 Y3.8949 Z-0.2072
X-70.1445 Y3.8902 Z-0.2075
X-70.153 Y3.8771
G3 X-70.0838 Y3.8919 I0.0272 J0.042
G1 X-69.8633 Y4.2328 F50.
X-69.8632 Y4.2331
G3 X-69.8633 Y4.2351 I-0.0014 J0.0009
G2 X-69.9609 Y4.3763 I0.4947 J0.4462
G3 X-69.9629 Y4.3772 I-0.0016 J-0.0008
G1 X-69.9631
X-69.9928 Y4.3708
G3 X-69.9941 Y4.3696 I0.0004 J-0.0017
G1 Y4.3695
G2 X-70.3574 Y4.1046 I-0.352 J0.1012
G3 X-70.3592 Y4.1029 I0. J-0.0017
G1 Y3.4926
Y3.4925
G3 X-70.3576 Y3.4908 I0.0017 J0.
G2 X-70.3449 Y3.49 I-0.017 J-0.3659
G3 X-70.3432 Y3.4908 I0.0001 J0.0018
G1 X-70.0838 Y3.8919
G3 X-70.0987 Y3.9611 I-0.042 J0.0272
G1 X-70.1072 Y3.9479
X-70.1102 Y3.9432 Z-0.2072
X-70.1132 Y3.9386 Z-0.2062
X-70.1161 Y3.9341 Z-0.2047
X-70.1189 Y3.9297 Z-0.2025
X-70.1216 Y3.9256 Z-0.1998
X-70.1241 Y3.9217 Z-0.1966
X-70.1264 Y3.9182 Z-0.1929
X-70.1284 Y3.9151 Z-0.1887
X-70.1302 Y3.9124 Z-0.1841
X-70.1316 Y3.9101 Z-0.1792
X-70.1328 Y3.9083 Z-0.174
X-70.1336 Y3.907 Z-0.1686
X-70.1341 Y3.9062 Z-0.1631
X-70.1343 Y3.9059 Z-0.1575
G0 Z0.4
X-69.2848 Y3.6824
Z0.2
G1 Z0.1 F13.333
Z-0.1575
X-69.2847 Y3.6821 Z-0.1631 F40.
X-69.2845 Y3.6812 Z-0.1686
X-69.284 Y3.6798 Z-0.174
X-69.2833 Y3.6777 Z-0.1792
X-69.2825 Y3.6751 Z-0.1841
X-69.2815 Y3.672 Z-0.1887
X-69.2804 Y3.6685 Z-0.1929
X-69.2791 Y3.6645 Z-0.1966
X-69.2778 Y3.6601 Z-0.1998
X-69.2763 Y3.6554 Z-0.2025
X-69.2747 Y3.6505 Z-0.2047
X-69.2731 Y3.6454 Z-0.2062
X-69.2714 Y3.6401 Z-0.2072
X-69.2697 Y3.6348 Z-0.2075
X-69.265 Y3.6198
G3 X-69.2324 Y3.6826 I-0.0151 J0.0477
G1 X-69.3376 Y4.0142 F50.
Y4.0143
G3 X-69.3392 Y4.0154 I-0.0015 J-0.0005
G2 X-69.5724 Y4.0467 I-0.0293 J0.6656
G3 X-69.5745 Y4.046 I-0.0006 J-0.0017
G1 X-70.0543 Y3.3041
G3 X-70.0544 Y3.3022 I0.0016 J-0.001
G2 X-70.0523 Y3.2982 I-0.0685 J-0.0379
X-70.052 Y3.2975 I-0.3304 J-0.1584
G3 X-70.0508 Y3.297 I0.0012 J0.0012
G1 X-69.1992
G3 X-69.1977 Y3.2979 I0. J0.0017
G2 X-69.1377 Y3.3803 I0.3233 J-0.1724
G1 X-69.1375 Y3.3805
G3 X-69.1371 Y3.3821 I-0.0011 J0.0011
G1 X-69.1372 Y3.3822
X-69.2324 Y3.6826
G3 X-69.2952 Y3.7152 I-0.0477 J-0.0151
G1 X-69.2905 Y3.7003
X-69.2888 Y3.6949 Z-0.2072
X-69.2871 Y3.6896 Z-0.2062
X-69.2855 Y3.6845 Z-0.2047
X-69.2839 Y3.6796 Z-0.2025
X-69.2824 Y3.6749 Z-0.1998
X-69.2811 Y3.6705 Z-0.1966
X-69.2798 Y3.6666 Z-0.1929
X-69.2787 Y3.663 Z-0.1887
X-69.2777 Y3.6599 Z-0.1841
X-69.2769 Y3.6573 Z-0.1792
X-69.2762 Y3.6553 Z-0.174
X-69.2758 Y3.6538 Z-0.1686
X-69.2755 Y3.6529 Z-0.1631
X-69.2754 Y3.6526 Z-0.1575
G0 Z0.4
X-68.6183 Y3.963
Z0.2
G1 Z0.1 F13.333
Z-0.1575
X-68.6185 Y3.9628 Z-0.1631 F40.
X-68.6191 Y3.962 Z-0.1686
X-68.6199 Y3.9607 Z-0.174
X-68.6212 Y3.959 Z-0.1792
X-68.6227 Y3.9568 Z-0.1841
X-68.6246 Y3.9541 Z-0.1887
X-68.6267 Y3.951 Z-0.1929
X-68.6291 Y3.9476 Z-0.1966
X-68.6317 Y3.9438 Z-0.1998
X-68.6345 Y3.9398 Z-0.2025
X-68.6374 Y3.9355 Z-0.2047
X-68.6405 Y3.9311 Z-0.2062
X-68.6437 Y3.9266 Z-0.2072
X-68.6469 Y3.922 Z-0.2075
X-68.6558 Y3.9091
G3 X-68.5862 Y3.9217 I0.0285 J0.0411
G1 X-68.4851 Y4.0672 F50.
G3 X-68.3031 Y4.5333 I-0.8834 J0.6136
X-68.3051 Y4.5352 I-0.0016 J0.0003
G2 X-68.6703 Y4.6543 I-0.0858 J0.3561
G3 X-68.6719 Y4.6549 I-0.0013 J-0.0011
G1 X-68.7016 Y4.6485
G3 X-68.703 Y4.6469 I0.0004 J-0.0017
G1 Y4.6468
G2 X-69.0089 Y4.1202 I-0.6654 J0.0344
G3 X-69.0096 Y4.1181 I0.001 J-0.0015
G1 X-68.8353 Y3.5682
G3 X-68.832 Y3.5677 I0.0017 J0.0005
G1 X-68.5862 Y3.9217
G3 X-68.5987 Y3.9913 I-0.0411 J0.0285
G1 X-68.6077 Y3.9784
X-68.6109 Y3.9738 Z-0.2072
X-68.614 Y3.9693 Z-0.2062
X-68.6171 Y3.9648 Z-0.2047
X-68.62 Y3.9606 Z-0.2025
X-68.6228 Y3.9566 Z-0.1998
X-68.6255 Y3.9528 Z-0.1966
X-68.6278 Y3.9494 Z-0.1929
X-68.63 Y3.9463 Z-0.1887
X-68.6318 Y3.9436 Z-0.1841
X-68.6334 Y3.9414 Z-0.1792
X-68.6346 Y3.9396 Z-0.174
X-68.6355 Y3.9384 Z-0.1686
X-68.636 Y3.9376 Z-0.1631
X-68.6362 Y3.9373 Z-0.1575
G0 Z0.4
X-69.6793 Y2.903
Z0.2
G1 Z0.1 F13.333
Z-0.1575
G18 G2 X-69.6293 Z-0.2075 I0.05 K0. F40.
G1 X-69.6136
G17 G3 X-69.6636 Y2.953 I-0.05 J0.
G1 X-70.0508 F50.
G3 X-70.0523 Y2.9521 I0. J-0.0017
G2 X-70.3575 Y2.7592 I-0.3229 J0.1729
G3 X-70.3592 Y2.7575 I0.0001 J-0.0017
G1 Y2.7574
Y2.2426
Y2.2425
G3 X-70.3575 Y2.2408 I0.0017 J0.
G2 X-70.0092 Y1.8924 I-0.0176 J-0.3659
G3 X-70.0075 Y1.8908 I0.0018 J0.0001
G1 X-69.2425
G3 X-69.2408 Y1.8924 I0. J0.0018
G2 X-68.8925 Y2.2408 I0.3659 J-0.0175
G3 X-68.8908 Y2.2425 I-0.0001 J0.0017
G1 Y2.2426
Y2.7574
Y2.7575
G3 X-68.8925 Y2.7592 I-0.0017 J0.
G2 X-69.1977 Y2.9521 I0.0176 J0.3659
G3 X-69.1992 Y2.953 I-0.0015 J-0.0008
G1 X-69.6636
G3 X-69.7136 Y2.903 I0. J-0.05
G1 X-69.698
G18 G2 X-69.648 Z-0.1575 I0. K0.05
G0 Z0.4
X-68.3428 Y6.8172
Z0.2
G1 Z0.1 F13.333
Z-0.1575
G19 G2 Y6.7672 Z-0.2075 J-0.05 K0. F40.
G1 Y6.7515
G17 G3 X-68.2928 Y6.8015 I0. J0.05
G1 Y7.8176 F50.
G3 X-68.296 Y7.8187 I-0.0018 J0.
G1 X-68.2961
X-69.0787 Y6.827
G3 X-69.0786 Y6.8246 I0.0015 J-0.0012
G2 X-69.0348 Y5.8272 I-0.6375 J-0.5277
G1 X-69.0349 Y5.8271
G3 X-69.0347 Y5.8249 I0.0014 J-0.001
G1 X-68.4883 Y5.2453
G3 X-68.4866 Y5.2448 I0.0013 J0.0012
G2 X-68.2949 I0.0958 J-0.3535
G3 X-68.2928 Y5.2464 I0.0004 J0.0016
G1 Y6.8015
G3 X-68.3428 Y6.8515 I-0.05 J0.
G1 Y6.8359
G19 G2 Y6.7859 Z-0.1575 J0. K0.05
G0 Z0.4
X-69.0567 Y7.4907
Z0.2
G1 Z0.1 F13.333
Z-0.1575
X-69.0569 Y7.4905 Z-0.1631 F40.
X-69.0575 Y7.4897 Z-0.1686
X-69.0585 Y7.4885 Z-0.174
X-69.0598 Y7.4868 Z-0.1792
X-69.0615 Y7.4847 Z-0.1841
X-69.0635 Y7.4822 Z-0.1887
X-69.0658 Y7.4792 Z-0.1929
X-69.0684 Y7.476 Z-0.1966
X-69.0712 Y7.4724 Z-0.1998
X-69.0743 Y7.4685 Z-0.2025
X-69.0775 Y7.4644 Z-0.2047
X-69.0808 Y7.4602 Z-0.2062
X-69.0842 Y7.4559 Z-0.2072
X-69.0877 Y7.4515 Z-0.2075
X-69.0974 Y7.4392
G17 G3 X-69.0272 Y7.4475 I0.031 J0.0392
G1 X-68.4087 Y8.2308 F50.
G3 X-68.4105 Y8.2337 I-0.0014 J0.0011
G1 X-69.6527 Y8.0124
G3 X-69.6541 Y8.0107 I0.0003 J-0.0017
G2 X-69.9971 Y7.3683 I-0.827 J0.0289
G3 X-69.9977 Y7.3662 I0.001 J-0.0014
G1 X-69.9976
X-69.8847 Y7.1086
G3 X-69.8827 Y7.1076 I0.0016 J0.0007
G2 X-69.3509 Y7.0396 I0.1666 J-0.8105
G3 X-69.3488 Y7.0401 I0.0007 J0.0015
G1 X-69.0272 Y7.4475
G3 X-69.0354 Y7.5177 I-0.0392 J0.031
G1 X-69.0451 Y7.5054
X-69.0486 Y7.501 Z-0.2072
X-69.052 Y7.4967 Z-0.2062
X-69.0554 Y7.4924 Z-0.2047
X-69.0586 Y7.4884 Z-0.2025
X-69.0616 Y7.4845 Z-0.1998
X-69.0645 Y7.4809 Z-0.1966
X-69.067 Y7.4777 Z-0.1929
X-69.0694 Y7.4747 Z-0.1887
X-69.0714 Y7.4722 Z-0.1841
X-69.0731 Y7.4701 Z-0.1792
X-69.0744 Y7.4684 Z-0.174
X-69.0753 Y7.4671 Z-0.1686
X-69.0759 Y7.4664 Z-0.1631
X-69.0761 Y7.4662 Z-0.1575
G0 Z0.4
X-70.417 Y6.8253
Z0.2
G1 Z0.1 F13.333
Z-0.1575
X-70.4172 Y6.825 Z-0.1631 F40.
X-70.4177 Y6.8243 Z-0.1686
X-70.4186 Y6.823 Z-0.174
X-70.4199 Y6.8213 Z-0.1792
X-70.4215 Y6.8191 Z-0.1841
X-70.4234 Y6.8165 Z-0.1887
X-70.4256 Y6.8134 Z-0.1929
X-70.428 Y6.8101 Z-0.1966
X-70.4307 Y6.8064 Z-0.1998
X-70.4336 Y6.8024 Z-0.2025
X-70.4367 Y6.7982 Z-0.2047
X-70.4398 Y6.7938 Z-0.2062
X-70.4431 Y6.7894 Z-0.2072
X-70.4464 Y6.7848 Z-0.2075
X-70.4556 Y6.7722
G3 X-70.3857 Y6.7832 I0.0294 J0.0405
G2 X-70.2002 Y6.9681 I0.6694 J-0.4864 F50.
G3 X-70.1996 Y6.9703 I-0.001 J0.0014
G1 X-70.3126 Y7.2279
G3 X-70.3145 Y7.2289 I-0.0016 J-0.0007
G1 X-70.3146
G2 X-70.7424 Y7.2543 I-0.1665 J0.8106
G1 X-70.7426 Y7.2544
G3 X-70.7447 Y7.2536 I-0.0006 J-0.0017
G1 X-70.9617 Y6.8848
X-70.9618 Y6.8846
G3 X-70.9616 Y6.8824 I0.0016 J-0.001
G2 X-70.7839 Y6.5448 I-0.4758 J-0.4661
G3 X-70.7822 Y6.5434 I0.0018 J0.0004
G1 X-70.782 Y6.5433
X-70.5132 Y6.5247
G3 X-70.5114 Y6.5259 I0.0001 J0.0017
G1 Y6.526
G2 X-70.3857 Y6.7832 I0.7951 J-0.2291
G3 X-70.3968 Y6.8531 I-0.0404 J0.0294
G1 X-70.406 Y6.8404
X-70.4093 Y6.8359 Z-0.2072
X-70.4125 Y6.8314 Z-0.2062
X-70.4157 Y6.8271 Z-0.2047
X-70.4187 Y6.8229 Z-0.2025
X-70.4216 Y6.8189 Z-0.1998
X-70.4243 Y6.8152 Z-0.1966
X-70.4268 Y6.8118 Z-0.1929
X-70.429 Y6.8088 Z-0.1887
X-70.4309 Y6.8062 Z-0.1841
X-70.4325 Y6.804 Z-0.1792
X-70.4337 Y6.8022 Z-0.174
X-70.4346 Y6.801 Z-0.1686
X-70.4352 Y6.8002 Z-0.1631
X-70.4354 Y6.8 Z-0.1575
G0 Z0.4
X-73.2878 Y6.6362
Z0.2
G1 Z0.1 F13.333
Z-0.1575
X-73.2877 Y6.636 Z-0.1631 F40.
X-73.2872 Y6.6351 Z-0.1686
X-73.2865 Y6.6338 Z-0.174
X-73.2854 Y6.6319 Z-0.1792
X-73.2841 Y6.6295 Z-0.1841
X-73.2826 Y6.6267 Z-0.1887
X-73.2808 Y6.6234 Z-0.1929
X-73.2788 Y6.6197 Z-0.1966
X-73.2766 Y6.6157 Z-0.1998
X-73.2743 Y6.6114 Z-0.2025
X-73.2718 Y6.6068 Z-0.2047
X-73.2692 Y6.6021 Z-0.2062
X-73.2666 Y6.5973 Z-0.2072
X-73.2639 Y6.5923 Z-0.2075
X-73.2564 Y6.5786
G3 X-73.2364 Y6.6464 I-0.0239 J0.0439
G1 X-73.2687 Y6.7057 F50.
G3 X-73.2708 Y6.7066 I-0.0016 J-0.0009
G2 X-74.2642 Y7.1686 I-0.2351 J0.7934
G3 X-74.2661 Y7.1695 I-0.0016 J-0.0007
G1 X-74.6261 Y7.0962
X-74.6262
G3 X-74.6274 Y7.0951 I0.0003 J-0.0016
G2 X-74.6277 Y7.094 I-0.075 J0.0224
X-74.6368 Y7.0683 I-0.3494 J0.1095
G3 X-74.6361 Y7.0662 I0.0018 J-0.0005
G1 X-73.9366 Y6.6011
X-73.9365 Y6.601
G3 X-73.9358 Y6.6007 I0.0009 J0.0014
G1 X-73.2558 Y6.5063
X-73.2557
G2 X-73.1536 Y6.4884 I-0.2087 J-1.4948
G3 X-73.1517 Y6.4909 I0.0004 J0.0017
G1 X-73.1518 Y6.491
X-73.2364 Y6.6464
G3 X-73.3042 Y6.6664 I-0.0439 J-0.0239
G1 X-73.2967 Y6.6527
X-73.2941 Y6.6478 Z-0.2072
X-73.2914 Y6.6429 Z-0.2062
X-73.2888 Y6.6382 Z-0.2047
X-73.2864 Y6.6336 Z-0.2025
X-73.284 Y6.6293 Z-0.1998
X-73.2818 Y6.6253 Z-0.1966
X-73.2798 Y6.6216 Z-0.1929
X-73.2781 Y6.6183 Z-0.1887
X-73.2765 Y6.6155 Z-0.1841
X-73.2752 Y6.6131 Z-0.1792
X-73.2742 Y6.6112 Z-0.174
X-73.2734 Y6.6099 Z-0.1686
X-73.273 Y6.609 Z-0.1631
X-73.2728 Y6.6088 Z-0.1575
G0 Z0.4
X-73.7211 Y8.4794
Z0.2
G1 Z0.1 F13.333
Z-0.1575
Y8.4791 Z-0.1631 F40.
Y8.4781 Z-0.1686
Y8.4766 Z-0.174
X-73.7212 Y8.4744 Z-0.1792
Y8.4717 Z-0.1841
Y8.4685 Z-0.1887
Y8.4647 Z-0.1929
X-73.7213 Y8.4606 Z-0.1966
Y8.456 Z-0.1998
Y8.4511 Z-0.2025
X-73.7214 Y8.4459 Z-0.2047
Y8.4405 Z-0.2062
Y8.435 Z-0.2072
X-73.7215 Y8.4294 Z-0.2075
X-73.7216 Y8.4137
G3 X-73.6712 Y8.4634 I0.0004 J0.05
G1 X-73.6692 Y8.7434 F50.
G3 X-73.6705 Y8.7451 I-0.0017 J0.
G2 X-73.8618 Y8.813 I0.1791 J0.8079
G3 X-73.8641 Y8.8125 I-0.0008 J-0.0016
G1 X-74.6574 Y7.8214
X-74.6576 Y7.8211
G3 X-74.6579 Y7.8194 I0.0013 J-0.0011
G2 X-74.7074 Y7.4486 I-0.3366 J-0.1438
G3 X-74.7075 Y7.4462 I0.0015 J-0.0012
G2 X-74.6973 Y7.4349 I-0.2677 J-0.2498
X-74.6964 Y7.4339 I-0.0594 J-0.051
G3 X-74.6948 Y7.4333 I0.0013 J0.0011
G1 X-74.3347 Y7.5066
G3 X-74.3334 Y7.5083 I-0.0004 J0.0017
G1 Y7.5084
G2 X-73.6737 Y8.3103 I0.8275 J-0.0084
G3 X-73.6723 Y8.312 I-0.0003 J0.0017
G1 X-73.6712 Y8.4634
G3 X-73.7209 Y8.5137 I-0.05 J0.0004
G1 X-73.721 Y8.4981
Y8.4925 Z-0.2072
X-73.7211 Y8.487 Z-0.2062
Y8.4816 Z-0.2047
Y8.4764 Z-0.2025
X-73.7212 Y8.4715 Z-0.1998
Y8.4669 Z-0.1966
Y8.4627 Z-0.1929
X-73.7213 Y8.459 Z-0.1887
Y8.4558 Z-0.1841
Y8.453 Z-0.1792
Y8.4509 Z-0.174
Y8.4493 Z-0.1686
Y8.4484 Z-0.1631
X-73.7214 Y8.4481 Z-0.1575
G0 Z0.4
X-74.3678 Y8.8139
Z0.2
G1 Z0.1 F13.333
Z-0.1575
X-74.368 Y8.8137 Z-0.1631 F40.
X-74.3685 Y8.8129 Z-0.1686
X-74.3695 Y8.8117 Z-0.174
X-74.3709 Y8.81 Z-0.1792
X-74.3726 Y8.8079 Z-0.1841
X-74.3746 Y8.8054 Z-0.1887
X-74.3769 Y8.8025 Z-0.1929
X-74.3795 Y8.7992 Z-0.1966
X-74.3824 Y8.7956 Z-0.1998
X-74.3854 Y8.7918 Z-0.2025
X-74.3887 Y8.7878 Z-0.2047
X-74.3921 Y8.7836 Z-0.2062
X-74.3955 Y8.7792 Z-0.2072
X-74.399 Y8.7749 Z-0.2075
X-74.4088 Y8.7626
G3 X-74.3385 Y8.7704 I0.0312 J0.039
G1 X-74.1327 Y9.0275 F50.
X-74.1326 Y9.0276
G3 Y9.0296 I-0.0012 J0.001
G1 X-74.1328 Y9.0298
G2 X-74.1744 Y9.0858 I0.6423 J0.5219
G3 X-74.1765 Y9.0864 I-0.0015 J-0.001
G1 X-74.1767
G2 X-74.4068 Y9.7374 I-0.1151 J0.3255
X-74.2948 Y9.7571 I0.1151 J-0.3255
G3 X-74.2931 Y9.7584 I0. J0.0018
G2 X-74.1406 Y10.066 I0.8016 J-0.2058
G3 X-74.1407 Y10.0684 I-0.0015 J0.0012
G1 X-74.552 Y10.5659
G3 X-74.5552 Y10.5649 I-0.0014 J-0.0011
G1 X-74.7701 Y8.2364
G3 X-74.767 Y8.2351 I0.0017 J-0.0002
G1 Y8.2352
X-74.3385 Y8.7704
G3 X-74.3463 Y8.8407 I-0.039 J0.0312
G1 X-74.3561 Y8.8285
X-74.3596 Y8.8241 Z-0.2072
X-74.363 Y8.8198 Z-0.2062
X-74.3664 Y8.8156 Z-0.2047
X-74.3696 Y8.8116 Z-0.2025
X-74.3727 Y8.8077 Z-0.1998
X-74.3756 Y8.8042 Z-0.1966
X-74.3782 Y8.8009 Z-0.1929
X-74.3805 Y8.798 Z-0.1887
X-74.3825 Y8.7954 Z-0.1841
X-74.3842 Y8.7933 Z-0.1792
X-74.3856 Y8.7917 Z-0.174
X-74.3865 Y8.7904 Z-0.1686
X-74.3871 Y8.7897 Z-0.1631
X-74.3873 Y8.7895 Z-0.1575
G0 Z0.4
X-75.0409 Y9.587
Z0.2
G1 Z0.1 F13.333
Z-0.1575
Y9.5866 Z-0.1631 F40.
X-75.041 Y9.5857 Z-0.1686
X-75.0411 Y9.5842 Z-0.174
X-75.0413 Y9.582 Z-0.1792
X-75.0416 Y9.5793 Z-0.1841
X-75.0419 Y9.5761 Z-0.1887
X-75.0422 Y9.5724 Z-0.1929
X-75.0426 Y9.5682 Z-0.1966
X-75.043 Y9.5637 Z-0.1998
X-75.0435 Y9.5588 Z-0.2025
X-75.044 Y9.5536 Z-0.2047
X-75.0445 Y9.5483 Z-0.2062
X-75.045 Y9.5427 Z-0.2072
X-75.0455 Y9.5372 Z-0.2075
X-75.0469 Y9.5216
G3 X-74.9925 Y9.5668 I0.0046 J0.0498
G1 X-74.9027 Y10.5394 F50.
Y10.5395
G3 X-74.9058 Y10.541 I-0.0018 J0.0002
G1 X-74.9059 Y10.5409
X-75.2559 Y10.193
X-75.256 Y10.1929
G3 X-75.2565 Y10.1911 I0.0012 J-0.0013
G2 X-75.5526 Y9.7243 I-0.351 J-0.1047
G3 X-75.5541 Y9.7241 I0.139 J-0.8727
G2 X-75.555 Y9.7239 I-0.0124 J0.0773
G3 X-75.5564 Y9.7217 I0.0003 J-0.0017
G1 X-75.0981 Y8.4626
G3 X-75.0945 Y8.463 I0.0018 J0.0006
G1 X-74.9925 Y9.5668
G3 X-75.0377 Y9.6212 I-0.0498 J0.0046
G1 X-75.0392 Y9.6056
X-75.0397 Y9.6 Z-0.2072
X-75.0402 Y9.5945 Z-0.2062
X-75.0407 Y9.5891 Z-0.2047
X-75.0412 Y9.584 Z-0.2025
X-75.0416 Y9.5791 Z-0.1998
X-75.042 Y9.5745 Z-0.1966
X-75.0424 Y9.5704 Z-0.1929
X-75.0428 Y9.5667 Z-0.1887
X-75.0431 Y9.5634 Z-0.1841
X-75.0433 Y9.5607 Z-0.1792
X-75.0435 Y9.5586 Z-0.174
X-75.0436 Y9.557 Z-0.1686
X-75.0437 Y9.5561 Z-0.1631
X-75.0438 Y9.5558 Z-0.1575
G0 Z0.4
X-75.636 Y8.7887
Z0.2
G1 Z0.1 F13.333
Z-0.1575
X-75.6359 Y8.7884 Z-0.1631 F40.
X-75.6355 Y8.7876 Z-0.1686
X-75.635 Y8.7861 Z-0.174
X-75.6343 Y8.7841 Z-0.1792
X-75.6333 Y8.7815 Z-0.1841
X-75.6322 Y8.7785 Z-0.1887
X-75.631 Y8.775 Z-0.1929
X-75.6295 Y8.7711 Z-0.1966
X-75.628 Y8.7668 Z-0.1998
X-75.6263 Y8.7621 Z-0.2025
X-75.6245 Y8.7573 Z-0.2047
X-75.6227 Y8.7522 Z-0.2062
X-75.6208 Y8.747 Z-0.2072
X-75.6189 Y8.7418 Z-0.2075
X-75.6135 Y8.7271
G3 X-75.5836 Y8.7911 I-0.0171 J0.047
G1 X-75.8794 Y9.604 F50.
G3 X-75.882 Y9.605 I-0.0017 J-0.0006
G1 X-75.8821 Y9.6049
G3 X-76.0257 Y9.4958 I0.4601 J-0.7546
G2 X-76.1902 Y9.4073 I-0.2502 J0.2676
G3 X-76.1916 Y9.4053 I0.0005 J-0.0018
G1 X-76.1137 Y8.766
G3 X-75.9399 Y8.3839 I0.6917 J0.084
G1 X-75.3584 Y7.7385
G3 X-75.3554 Y7.7394 I0.0013 J0.0012
G1 Y7.7395
G2 X-75.2675 Y7.9197 I0.3607 J-0.0643
G3 X-75.2672 Y7.9216 I-0.0014 J0.0012
G1 Y7.9217
X-75.5836 Y8.7911
G3 X-75.6477 Y8.821 I-0.047 J-0.0171
G1 X-75.6424 Y8.8063
X-75.6404 Y8.8011 Z-0.2072
X-75.6386 Y8.7959 Z-0.2062
X-75.6367 Y8.7908 Z-0.2047
X-75.6349 Y8.7859 Z-0.2025
X-75.6333 Y8.7813 Z-0.1998
X-75.6317 Y8.777 Z-0.1966
X-75.6303 Y8.7731 Z-0.1929
X-75.629 Y8.7696 Z-0.1887
X-75.6279 Y8.7665 Z-0.1841
X-75.627 Y8.764 Z-0.1792
X-75.6262 Y8.762 Z-0.174
X-75.6257 Y8.7605 Z-0.1686
X-75.6254 Y8.7596 Z-0.1631
X-75.6253 Y8.7593 Z-0.1575
G0 Z0.4
X-75.1038 Y11.0129
Z0.2
G1 Z0.1 F13.333
Z-0.1575
Y11.0126 Z-0.1631 F40.
Y11.0117 Z-0.1686
Y11.0101 Z-0.174
Y11.008 Z-0.1792
X-75.1037 Y11.0053 Z-0.1841
Y11.002 Z-0.1887
Y10.9983 Z-0.1929
Y10.9941 Z-0.1966
X-75.1036 Y10.9895 Z-0.1998
Y10.9846 Z-0.2025
Y10.9795 Z-0.2047
X-75.1035 Y10.9741 Z-0.2062
Y10.9685 Z-0.2072
Y10.9629 Z-0.2075
X-75.1033 Y10.9473
G3 X-75.0537 Y10.9976 I-0.0003 J0.05
G2 X-74.8987 Y11.2993 I0.3663 J0.0024 F50.
G1 X-74.8985 Y11.2994
G3 X-74.8978 Y11.3011 I-0.001 J0.0015
G1 X-74.9414 Y11.6569
G3 X-74.9426 Y11.6583 I-0.0018 J-0.0002
G1 X-74.9428 Y11.6584
G2 X-75.1761 Y11.9765 I0.1322 J0.3416
G3 X-75.1793 Y11.9771 I-0.0017 J-0.0001
G1 X-75.9352 Y10.386
X-75.9353 Y10.3859
G3 X-75.9333 Y10.3836 I0.0015 J-0.0007
G2 X-75.6616 Y10.4487 I0.511 J-1.5334
X-75.5003 Y10.4367 I0.0541 J-0.3622
G1 X-75.5002 Y10.4366
G3 X-75.4985 Y10.4371 I0.0005 J0.0017
G1 X-75.039 Y10.8934
X-75.0389 Y10.8936
G3 X-75.0384 Y10.8953 I-0.0013 J0.0013
G2 X-75.0537 Y10.9976 I0.351 J0.1047
G3 X-75.104 Y11.0473 I-0.05 J-0.0003
G1 X-75.1039 Y11.0316
Y11.026 Z-0.2072
X-75.1038 Y11.0205 Z-0.2062
Y11.0151 Z-0.2047
Y11.01 Z-0.2025
X-75.1037 Y11.005 Z-0.1998
Y11.0005 Z-0.1966
Y10.9963 Z-0.1929
X-75.1036 Y10.9926 Z-0.1887
Y10.9893 Z-0.1841
Y10.9866 Z-0.1792
Y10.9845 Z-0.174
Y10.9829 Z-0.1686
Y10.982 Z-0.1631
Y10.9816 Z-0.1575
G0 Z0.4
X-73.5013 Y11.5272
Z0.2
G1 Z0.1 F13.333
Z-0.1575
Y11.5269 Z-0.1631 F40.
X-73.5014 Y11.526 Z-0.1686
X-73.5016 Y11.5244 Z-0.174
X-73.5018 Y11.5223 Z-0.1792
X-73.5021 Y11.5196 Z-0.1841
X-73.5024 Y11.5164 Z-0.1887
X-73.5028 Y11.5127 Z-0.1929
X-73.5033 Y11.5085 Z-0.1966
X-73.5038 Y11.504 Z-0.1998
X-73.5043 Y11.4991 Z-0.2025
X-73.5049 Y11.4939 Z-0.2047
X-73.5055 Y11.4886 Z-0.2062
X-73.506 Y11.4831 Z-0.2072
X-73.5067 Y11.4775 Z-0.2075
X-73.5083 Y11.462
G3 X-73.4532 Y11.5063 I0.0054 J0.0497
G1 X-73.3628 Y12.3413 F50.
G3 X-73.3636 Y12.3429 I-0.0017 J0.0002
G2 X-73.364 Y12.3432 I0.0439 J0.0648
X-73.3949 Y12.367 I0.2075 J0.3018
G3 X-73.3967 Y12.3673 I-0.0011 J-0.0014
G1 X-74.4457 Y11.9578
G3 X-74.4467 Y11.9565 I0.0006 J-0.0015
G1 Y11.9563
G2 X-74.5994 Y11.7007 I-0.3638 J0.0439
G1 X-74.5995 Y11.7006
G3 X-74.6003 Y11.6989 I0.001 J-0.0015
G1 X-74.5566 Y11.3431
G3 X-74.5555 Y11.3417 I0.0018 J0.0002
G1 X-74.5552 Y11.3416
G2 X-74.3484 Y10.8613 I-0.1322 J-0.3416
G1 X-74.3485 Y10.8612
G3 X-74.3482 Y10.8594 I0.0017 J-0.0007
G1 X-73.8756 Y10.2876
G3 X-73.8734 Y10.2871 I0.0013 J0.0011
G2 X-73.577 Y10.376 I0.3817 J-0.7343
G3 X-73.5754 Y10.3776 I-0.0002 J0.0018
G1 X-73.4532 Y11.5063
G3 X-73.4976 Y11.5614 I-0.0497 J0.0054
G1 X-73.4993 Y11.5458
X-73.4999 Y11.5402 Z-0.2072
X-73.5005 Y11.5348 Z-0.2062
X-73.501 Y11.5294 Z-0.2047
X-73.5016 Y11.5242 Z-0.2025
X-73.5021 Y11.5194 Z-0.1998
X-73.5026 Y11.5148 Z-0.1966
X-73.5031 Y11.5107 Z-0.1929
X-73.5035 Y11.507 Z-0.1887
X-73.5038 Y11.5037 Z-0.1841
X-73.5041 Y11.501 Z-0.1792
X-73.5043 Y11.4989 Z-0.174
X-73.5045 Y11.4974 Z-0.1686
X-73.5046 Y11.4964 Z-0.1631
Y11.4961 Z-0.1575
G0 Z0.4
X-73.7251 Y12.8175
Z0.2
G1 Z0.1 F13.333
Z-0.1575
X-73.7249 Y12.8172 Z-0.1631 F40.
X-73.7243 Y12.8165 Z-0.1686
X-73.7234 Y12.8152 Z-0.174
X-73.7221 Y12.8135 Z-0.1792
X-73.7205 Y12.8113 Z-0.1841
X-73.7186 Y12.8087 Z-0.1887
X-73.7164 Y12.8057 Z-0.1929
X-73.7139 Y12.8023 Z-0.1966
X-73.7112 Y12.7986 Z-0.1998
X-73.7083 Y12.7947 Z-0.2025
X-73.7052 Y12.7905 Z-0.2047
X-73.7021 Y12.7862 Z-0.2062
X-73.6988 Y12.7817 Z-0.2072
X-73.6955 Y12.7772 Z-0.2075
X-73.6862 Y12.7646
G3 X-73.6755 Y12.8345 I-0.0296 J0.0403
X-73.801 Y12.9827 I-1.1354 J-0.8341 F50.
X-73.8038 Y12.9826 I-0.0013 J-0.0013
G1 X-73.8039 Y12.9825
X-74.2711 Y12.3988
G3 X-74.2691 Y12.396 I0.0014 J-0.0011
G1 X-74.269
X-73.5726 Y12.6679
G3 X-73.5716 Y12.6705 I-0.0007 J0.0017
X-73.6755 Y12.8345 I-1.2393 J-0.6701
X-73.7454 Y12.8452 I-0.0403 J-0.0296
G1 X-73.7361 Y12.8326
X-73.7328 Y12.8281 Z-0.2072
X-73.7296 Y12.8236 Z-0.2062
X-73.7264 Y12.8193 Z-0.2047
X-73.7233 Y12.8151 Z-0.2025
X-73.7204 Y12.8111 Z-0.1998
X-73.7177 Y12.8074 Z-0.1966
X-73.7152 Y12.8041 Z-0.1929
X-73.713 Y12.8011 Z-0.1887
X-73.7111 Y12.7985 Z-0.1841
X-73.7095 Y12.7963 Z-0.1792
X-73.7082 Y12.7945 Z-0.174
X-73.7073 Y12.7933 Z-0.1686
X-73.7067 Y12.7925 Z-0.1631
X-73.7065 Y12.7923 Z-0.1575
G0 Z0.4
X-74.1151 Y13.3377
Z0.2
G1 Z0.1 F13.333
Z-0.1575
Y13.3374 Z-0.1631 F40.
X-74.1149 Y13.3365 Z-0.1686
X-74.1147 Y13.3349 Z-0.174
X-74.1143 Y13.3328 Z-0.1792
X-74.1139 Y13.3301 Z-0.1841
X-74.1134 Y13.3269 Z-0.1887
X-74.1129 Y13.3232 Z-0.1929
X-74.1122 Y13.3191 Z-0.1966
X-74.1115 Y13.3146 Z-0.1998
X-74.1108 Y13.3097 Z-0.2025
X-74.11 Y13.3046 Z-0.2047
X-74.1092 Y13.2993 Z-0.2062
X-74.1083 Y13.2938 Z-0.2072
X-74.1075 Y13.2883 Z-0.2075
X-74.1051 Y13.2728
G3 X-74.0633 Y13.3299 I-0.0076 J0.0494
G2 X-73.9099 Y13.6869 I0.3621 J0.0559 F50.
X-73.9096 Y13.6871 I0.0446 J-0.0643
G3 X-73.9089 Y13.6887 I-0.001 J0.0014
G1 X-73.9821 Y14.3287
G3 X-73.9832 Y14.3301 I-0.0018 J-0.0002
G1 X-73.9833 Y14.3302
G2 X-74.0443 Y14.3614 I0.1356 J0.3404
G3 X-74.0466 Y14.3607 I-0.0009 J-0.0014
G1 X-75.0258 Y12.3004
G3 X-75.023 Y12.2982 I0.0017 J-0.0008
G2 X-74.7438 Y12.3602 I0.2127 J-0.2981
G3 X-74.7422 Y12.3608 I0.0003 J0.0016
G1 X-74.0383 Y13.2399
G3 X-74.0381 Y13.2417 I-0.0014 J0.0011
G2 X-74.0633 Y13.3299 I0.3369 J0.144
G3 X-74.1203 Y13.3717 I-0.0494 J-0.0076
G1 X-74.118 Y13.3562
X-74.1171 Y13.3507 Z-0.2072
X-74.1163 Y13.3452 Z-0.2062
X-74.1154 Y13.3399 Z-0.2047
X-74.1146 Y13.3348 Z-0.2025
X-74.1139 Y13.3299 Z-0.1998
X-74.1132 Y13.3254 Z-0.1966
X-74.1126 Y13.3213 Z-0.1929
X-74.112 Y13.3176 Z-0.1887
X-74.1115 Y13.3144 Z-0.1841
X-74.1111 Y13.3117 Z-0.1792
X-74.1108 Y13.3096 Z-0.174
X-74.1105 Y13.308 Z-0.1686
X-74.1104 Y13.3071 Z-0.1631
X-74.1103 Y13.3068 Z-0.1575
G0 Z0.4
X-73.5542 Y14.3491
Z0.2
G1 Z0.1 F13.333
Z-0.1575
X-73.5544 Y14.3488 Z-0.1631 F40.
X-73.5547 Y14.3479 Z-0.1686
X-73.5553 Y14.3465 Z-0.174
X-73.5561 Y14.3445 Z-0.1792
X-73.5571 Y14.342 Z-0.1841
X-73.5583 Y14.3389 Z-0.1887
X-73.5597 Y14.3355 Z-0.1929
X-73.5613 Y14.3316 Z-0.1966
X-73.563 Y14.3274 Z-0.1998
X-73.5648 Y14.3228 Z-0.2025
X-73.5667 Y14.318 Z-0.2047
X-73.5687 Y14.313 Z-0.2062
X-73.5708 Y14.3079 Z-0.2072
X-73.5729 Y14.3027 Z-0.2075
X-73.5787 Y14.2881
G3 X-73.5137 Y14.3159 I0.0186 J0.0464
G2 X-73.4171 Y14.4641 I0.4215 J-0.1692 F50.
G3 X-73.4168 Y14.4661 I-0.0014 J0.0013
G1 X-73.4368 Y14.5123
X-73.4369 Y14.5125
G3 X-73.4384 Y14.5135 I-0.0015 J-0.0006
G2 X-73.5133 Y14.5186 I-0.0069 J0.4532
G3 X-73.5151 Y14.5176 I-0.0003 J-0.0018
G2 X-73.6393 Y14.3694 I-0.3328 J0.1526
X-73.6396 Y14.3691 I-0.0446 J0.0643
G3 X-73.6403 Y14.3675 I0.001 J-0.0014
G1 X-73.5778 Y13.8201
G3 X-73.5745 Y13.8192 I0.0018 J0.0002
G1 X-73.4899 Y13.9252
X-73.4898 Y13.9253
G3 X-73.4896 Y13.927 I-0.0012 J0.0009
G1 X-73.4898 Y13.9272
G2 X-73.5137 Y14.3159 I0.3976 J0.2195
G3 X-73.5415 Y14.3809 I-0.0464 J0.0186
G1 X-73.5473 Y14.3664
X-73.5494 Y14.3612 Z-0.2072
X-73.5514 Y14.3561 Z-0.2062
X-73.5534 Y14.3511 Z-0.2047
X-73.5554 Y14.3463 Z-0.2025
X-73.5572 Y14.3417 Z-0.1998
X-73.5589 Y14.3375 Z-0.1966
X-73.5604 Y14.3336 Z-0.1929
X-73.5618 Y14.3301 Z-0.1887
X-73.563 Y14.3271 Z-0.1841
X-73.5641 Y14.3246 Z-0.1792
X-73.5649 Y14.3226 Z-0.174
X-73.5654 Y14.3212 Z-0.1686
X-73.5658 Y14.3203 Z-0.1631
X-73.5659 Y14.32 Z-0.1575
G0 Z0.4
X-73.0665 Y14.2039
Z0.2
G1 Z0.1 F13.333
Z-0.1575
X-73.0663 Y14.2037 Z-0.1631 F40.
X-73.0655 Y14.2031 Z-0.1686
X-73.0643 Y14.2021 Z-0.174
X-73.0627 Y14.2008 Z-0.1792
X-73.0605 Y14.1991 Z-0.1841
X-73.058 Y14.197 Z-0.1887
X-73.0551 Y14.1947 Z-0.1929
X-73.0518 Y14.1921 Z-0.1966
X-73.0483 Y14.1892 Z-0.1998
X-73.0444 Y14.1861 Z-0.2025
X-73.0404 Y14.1829 Z-0.2047
X-73.0362 Y14.1795 Z-0.2062
X-73.0319 Y14.1761 Z-0.2072
X-73.0275 Y14.1725 Z-0.2075
X-73.0153 Y14.1627
G3 X-73.023 Y14.233 I-0.039 J0.0313
X-73.1782 Y14.216 I-0.0691 J-0.086 F50.
X-73.161 Y14.0608 I0.0861 J-0.069
G1 X-73.1609
G2 X-72.3515 Y12.9599 I-1.6496 J-2.0609
G3 X-72.2087 Y12.8973 I0.1027 J0.0401
X-72.1461 Y13.0401 I-0.0401 J0.1027
X-73.0229 Y14.233 I-2.6646 J-1.0399
G1 X-73.023
G3 X-73.0933 Y14.2254 I-0.0313 J-0.039
G1 X-73.0811 Y14.2156
X-73.0767 Y14.2121 Z-0.2072
X-73.0724 Y14.2086 Z-0.2062
X-73.0682 Y14.2052 Z-0.2047
X-73.0642 Y14.202 Z-0.2025
X-73.0604 Y14.1989 Z-0.1998
X-73.0568 Y14.196 Z-0.1966
X-73.0535 Y14.1934 Z-0.1929
X-73.0506 Y14.1911 Z-0.1887
X-73.0481 Y14.1891 Z-0.1841
X-73.046 Y14.1874 Z-0.1792
X-73.0443 Y14.186 Z-0.174
X-73.0431 Y14.185 Z-0.1686
X-73.0424 Y14.1845 Z-0.1631
X-73.0421 Y14.1843 Z-0.1575
G0 Z0.4
X-71.3697 Y13.8747
Z0.2
G1 Z0.1 F13.333
Z-0.1575
X-71.37 Y13.8745 Z-0.1631 F40.
X-71.3708 Y13.8741 Z-0.1686
X-71.3722 Y13.8734 Z-0.174
X-71.3741 Y13.8724 Z-0.1792
X-71.3765 Y13.8711 Z-0.1841
X-71.3793 Y13.8696 Z-0.1887
X-71.3826 Y13.8678 Z-0.1929
X-71.3863 Y13.8658 Z-0.1966
X-71.3904 Y13.8637 Z-0.1998
X-71.3947 Y13.8614 Z-0.2025
X-71.3993 Y13.8589 Z-0.2047
X-71.404 Y13.8564 Z-0.2062
X-71.4089 Y13.8538 Z-0.2072
X-71.4138 Y13.8512 Z-0.2075
X-71.4277 Y13.8438
G3 X-71.36 Y13.8232 I0.0441 J0.0235
G2 X-70.9857 Y13.8057 I0.1724 J-0.3232 F50.
G3 X-70.984 Y13.8056 I0.0009 J0.0014
G1 X-70.2319 Y14.2121
G3 X-70.231 Y14.2137 I-0.0009 J0.0015
G1 Y14.2138
G2 X-69.9347 Y14.5747 I0.3663 J0.0013
G3 X-69.9348 Y14.5781 I-0.0003 J0.0017
G1 X-72.9899 Y14.9573
G3 X-72.9919 Y14.9556 I-0.0002 J-0.0017
G2 X-73.1203 Y14.6505 I-0.453 J0.011
G3 X-73.1206 Y14.6484 I0.0014 J-0.0013
G1 X-73.1006 Y14.6023
X-73.1005 Y14.6021
G3 X-73.099 Y14.6011 I0.0015 J0.0006
G2 X-72.8082 Y14.5015 I0.007 J-0.4542
X-72.2097 Y13.8715 I-2.0025 J-2.5015
G3 X-72.2086 Y13.8708 I0.0014 J0.001
G1 X-72.2085
X-71.4739 Y13.73
X-71.4738
G3 X-71.4722 Y13.7306 I0.0003 J0.0016
G2 X-71.36 Y13.8232 I0.2847 J-0.2306
G3 X-71.3394 Y13.8909 I-0.0235 J0.0441
G1 X-71.3532 Y13.8835
X-71.3582 Y13.8809 Z-0.2072
X-71.363 Y13.8783 Z-0.2062
X-71.3678 Y13.8757 Z-0.2047
X-71.3724 Y13.8733 Z-0.2025
X-71.3767 Y13.871 Z-0.1998
X-71.3807 Y13.8688 Z-0.1966
X-71.3844 Y13.8669 Z-0.1929
X-71.3877 Y13.8651 Z-0.1887
X-71.3906 Y13.8636 Z-0.1841
X-71.393 Y13.8623 Z-0.1792
X-71.3949 Y13.8613 Z-0.174
X-71.3962 Y13.8605 Z-0.1686
X-71.3971 Y13.8601 Z-0.1631
X-71.3973 Y13.86 Z-0.1575
G0 Z0.4
X-70.1549 Y13.5547
Z0.2
G1 Z0.1 F13.333
Z-0.1575
X-70.155 Y13.5544 Z-0.1631 F40.
X-70.1551 Y13.5535 Z-0.1686
X-70.1552 Y13.5519 Z-0.174
X-70.1554 Y13.5498 Z-0.1792
X-70.1557 Y13.5471 Z-0.1841
X-70.1561 Y13.5439 Z-0.1887
X-70.1564 Y13.5402 Z-0.1929
X-70.1569 Y13.536 Z-0.1966
X-70.1573 Y13.5315 Z-0.1998
X-70.1578 Y13.5266 Z-0.2025
X-70.1583 Y13.5214 Z-0.2047
X-70.1589 Y13.5161 Z-0.2062
X-70.1595 Y13.5106 Z-0.2072
X-70.16 Y13.505 Z-0.2075
X-70.1616 Y13.4894
G3 X-70.1068 Y13.5341 I0.0051 J0.0497
G1 X-70.0688 Y13.9062 F50.
G3 X-70.0714 Y13.9079 I-0.0017 J0.0002
G1 X-70.0715
X-70.7761 Y13.527
G3 X-70.7758 Y13.5238 I0.0009 J-0.0016
G1 X-70.2247 Y13.3084
G3 X-70.2229 Y13.3087 I0.0007 J0.0016
G1 X-70.2228
G2 X-70.1246 Y13.3687 I0.2376 J-0.2787
G3 X-70.1235 Y13.3701 I-0.0007 J0.0016
G1 Y13.3703
X-70.1068 Y13.5341
G3 X-70.1514 Y13.5889 I-0.0497 J0.0051
G1 X-70.153 Y13.5733
X-70.1536 Y13.5678 Z-0.2072
X-70.1542 Y13.5623 Z-0.2062
X-70.1547 Y13.5569 Z-0.2047
X-70.1552 Y13.5518 Z-0.2025
X-70.1557 Y13.5469 Z-0.1998
X-70.1562 Y13.5423 Z-0.1966
X-70.1566 Y13.5382 Z-0.1929
X-70.157 Y13.5344 Z-0.1887
X-70.1573 Y13.5312 Z-0.1841
X-70.1576 Y13.5285 Z-0.1792
X-70.1578 Y13.5264 Z-0.174
X-70.158 Y13.5248 Z-0.1686
X-70.1581 Y13.5239 Z-0.1631
Y13.5236 Z-0.1575
G0 Z0.4
X-69.6354 Y13.8348
Z0.2
G1 Z0.1 F13.333
Z-0.1575
X-69.6356 Y13.8345 Z-0.1631 F40.
X-69.636 Y13.8337 Z-0.1686
X-69.6367 Y13.8323 Z-0.174
X-69.6376 Y13.8304 Z-0.1792
X-69.6388 Y13.828 Z-0.1841
X-69.6403 Y13.8251 Z-0.1887
X-69.642 Y13.8217 Z-0.1929
X-69.6438 Y13.818 Z-0.1966
X-69.6459 Y13.8139 Z-0.1998
X-69.6481 Y13.8095 Z-0.2025
X-69.6504 Y13.8049 Z-0.2047
X-69.6528 Y13.8 Z-0.2062
X-69.6552 Y13.7951 Z-0.2072
X-69.6577 Y13.7901 Z-0.2075
X-69.6647 Y13.7761
G3 X-69.5977 Y13.7985 I0.0223 J0.0447
G2 X-69.4701 Y13.9543 I0.4066 J-0.2028 F50.
G3 X-69.4695 Y13.9561 I-0.0011 J0.0014
G1 X-69.4867 Y14.0173
X-69.4868 Y14.0176
G3 X-69.4883 Y14.0189 I-0.0017 J-0.0005
G2 X-69.5471 Y14.03 I0.0545 J0.4499
G1 X-69.5472
G3 X-69.5491 Y14.0292 I-0.0004 J-0.0017
G2 X-69.725 Y13.8767 I-0.3154 J0.186
G3 X-69.7261 Y13.8752 I0.0007 J-0.0016
G1 Y13.875
X-69.7753 Y13.3946
G3 X-69.7723 Y13.3928 I0.0019 J-0.0002
G1 X-69.6345 Y13.4913
X-69.6342 Y13.4915
G3 X-69.6337 Y13.493 I-0.0009 J0.0012
G1 Y13.4933
G2 X-69.5977 Y13.7985 I0.4427 J0.1025
G3 X-69.6201 Y13.8656 I-0.0447 J0.0223
G1 X-69.6271 Y13.8516
X-69.6296 Y13.8466 Z-0.2072
X-69.632 Y13.8416 Z-0.2062
X-69.6344 Y13.8368 Z-0.2047
X-69.6368 Y13.8321 Z-0.2025
X-69.6389 Y13.8278 Z-0.1998
X-69.641 Y13.8237 Z-0.1966
X-69.6429 Y13.8199 Z-0.1929
X-69.6445 Y13.8166 Z-0.1887
X-69.646 Y13.8137 Z-0.1841
X-69.6472 Y13.8113 Z-0.1792
X-69.6481 Y13.8093 Z-0.174
X-69.6488 Y13.8079 Z-0.1686
X-69.6492 Y13.8071 Z-0.1631
X-69.6494 Y13.8068 Z-0.1575
G0 Z0.4
X-69.4744 Y13.1033
Z0.2
G1 Z0.1 F13.333
Z-0.1575
X-69.4742 Y13.103 Z-0.1631 F40.
X-69.4738 Y13.1022 Z-0.1686
X-69.473 Y13.1008 Z-0.174
X-69.472 Y13.0989 Z-0.1792
X-69.4707 Y13.0966 Z-0.1841
X-69.4691 Y13.0937 Z-0.1887
X-69.4673 Y13.0905 Z-0.1929
X-69.4653 Y13.0868 Z-0.1966
X-69.463 Y13.0828 Z-0.1998
X-69.4607 Y13.0785 Z-0.2025
X-69.4581 Y13.074 Z-0.2047
X-69.4555 Y13.0693 Z-0.2062
X-69.4528 Y13.0644 Z-0.2072
X-69.4501 Y13.0595 Z-0.2075
X-69.4425 Y13.0459
G3 X-69.4231 Y13.1138 I-0.0243 J0.0437
X-69.4654 Y13.1869 I-2.0075 J-1.1141 F50.
X-69.468 Y13.1875 I-0.0015 J-0.0009
G1 X-69.5912 Y13.0996
Y13.0995
G3 X-69.5918 Y13.0971 I0.0011 J-0.0015
G2 X-69.3634 Y12.5588 I-1.8387 J-1.0975
G1 Y12.5587
G3 X-69.3615 Y12.5575 I0.0017 J0.0004
G1 X-69.2127 Y12.585
X-69.2126
G3 X-69.2111 Y12.5873 I-0.0003 J0.0018
X-69.4231 Y13.1138 I-2.2195 J-0.5876
X-69.4911 Y13.1333 I-0.0437 J-0.0243
G1 X-69.4835 Y13.1196
X-69.4807 Y13.1147 Z-0.2072
X-69.4781 Y13.1099 Z-0.2062
X-69.4755 Y13.1052 Z-0.2047
X-69.4729 Y13.1006 Z-0.2025
X-69.4706 Y13.0964 Z-0.1998
X-69.4683 Y13.0924 Z-0.1966
X-69.4663 Y13.0887 Z-0.1929
X-69.4645 Y13.0854 Z-0.1887
X-69.4629 Y13.0826 Z-0.1841
X-69.4616 Y13.0802 Z-0.1792
X-69.4606 Y13.0783 Z-0.174
X-69.4598 Y13.077 Z-0.1686
X-69.4594 Y13.0762 Z-0.1631
X-69.4592 Y13.0759 Z-0.1575
G0 Z0.4
X-72.8308 Y13.0603
Z0.2
G1 Z0.1 F13.333
Z-0.1575
X-72.8307 Y13.06 Z-0.1631 F40.
X-72.8303 Y13.0592 Z-0.1686
X-72.8295 Y13.0578 Z-0.174
X-72.8285 Y13.0559 Z-0.1792
X-72.8273 Y13.0535 Z-0.1841
X-72.8258 Y13.0506 Z-0.1887
X-72.824 Y13.0473 Z-0.1929
X-72.8221 Y13.0436 Z-0.1966
X-72.8199 Y13.0396 Z-0.1998
X-72.8176 Y13.0352 Z-0.2025
X-72.8152 Y13.0306 Z-0.2047
X-72.8127 Y13.0259 Z-0.2062
X-72.8101 Y13.021 Z-0.2072
X-72.8075 Y13.016 Z-0.2075
X-72.8002 Y13.0022
G3 X-72.7793 Y13.0697 I-0.0233 J0.0442
X-73.2443 Y13.6784 I-2.0313 J-1.0698 F50.
X-73.2468 Y13.6782 I-0.0012 J-0.0013
G1 X-73.3412 Y13.5601
X-73.3414 Y13.5599
G3 X-73.3412 Y13.5577 I0.0012 J-0.001
G2 X-72.8856 Y12.9378 I-1.4695 J-1.5576
G3 X-72.8833 Y12.9369 I0.0016 J0.0008
G1 X-72.8832
X-72.7423 Y12.992
G3 X-72.7414 Y12.9944 I-0.0006 J0.0016
X-72.7793 Y13.0697 I-2.0692 J-0.9944
X-72.8468 Y13.0907 I-0.0442 J-0.0233
G1 X-72.8395 Y13.0768
X-72.8369 Y13.0719 Z-0.2072
X-72.8344 Y13.067 Z-0.2062
X-72.8319 Y13.0622 Z-0.2047
X-72.8294 Y13.0576 Z-0.2025
X-72.8272 Y13.0533 Z-0.1998
X-72.825 Y13.0492 Z-0.1966
X-72.8231 Y13.0455 Z-0.1929
X-72.8213 Y13.0422 Z-0.1887
X-72.8198 Y13.0394 Z-0.1841
X-72.8186 Y13.037 Z-0.1792
X-72.8176 Y13.0351 Z-0.174
X-72.8168 Y13.0337 Z-0.1686
X-72.8164 Y13.0328 Z-0.1631
X-72.8162 Y13.0326 Z-0.1575
G0 Z0.6
(2D SLOT CUT 2)
M7
G0 X-71.1849 Y7.2255
Z0.6
Z0.2
G1 Z0.1 F13.333
G2 X-71.2945 Y7.0699 Z0.0662 I-0.4173 J0.1774 F40.
G3 X-71.2937 Y7.0669 Z0.0655 I0.0012 J-0.0013
G2 X-71.2603 Y7.0586 Z0.0594 I-0.1436 J-0.6505
G3 X-71.2584 Y7.0594 Z0.059 I0.0005 J0.0017
G1 X-71.0411 Y7.4281 Z-0.0164
G3 X-71.0414 Y7.4302 Z-0.0168 I-0.0014 J0.0008
G2 X-71.0417 Y7.4305 Z-0.0169 I0.0528 J0.0578
X-71.0991 Y7.4891 Z-0.0314 I0.5623 J0.6072
G3 X-71.1014 Y7.4895 Z-0.0318 I-0.0014 J-0.0012
G1 X-71.1514 Y7.4609 Z-0.042
X-71.1515
G3 X-71.1523 Y7.4593 Z-0.0423 I0.0008 J-0.0014
G1 Y7.4591 Z-0.0424
G2 X-71.2945 Y7.0699 Z-0.1182 I-0.45 J-0.0561
G3 X-71.2937 Y7.0669 Z-0.1189 I0.0012 J-0.0013
G2 X-71.2603 Y7.0586 Z-0.125 I-0.1436 J-0.6505
G3 X-71.2584 Y7.0594 Z-0.1254 I0.0005 J0.0017
G1 X-71.0411 Y7.4281 Z-0.2008
G3 X-71.0414 Y7.4302 Z-0.2012 I-0.0014 J0.0008
G2 X-71.0417 Y7.4305 Z-0.2013 I0.0528 J0.0578
X-71.0669 Y7.4548 Z-0.2075 I0.5623 J0.6072
X-71.0991 Y7.4891 I0.5875 J0.5829 F55.
G3 X-71.1014 Y7.4895 I-0.0014 J-0.0012
G1 X-71.1514 Y7.4609
X-71.1515
G3 X-71.1523 Y7.4593 I0.0008 J-0.0014
G1 Y7.4591
G2 X-71.2945 Y7.0699 I-0.45 J-0.0561
G3 X-71.2937 Y7.0669 I0.0012 J-0.0013
G2 X-71.2603 Y7.0586 I-0.1436 J-0.6505
G3 X-71.2584 Y7.0594 I0.0005 J0.0017
G1 X-71.0411 Y7.4281
G3 X-71.0414 Y7.4302 I-0.0014 J0.0008
G2 X-71.0417 Y7.4305 I0.0528 J0.0578
X-71.0669 Y7.4548 I0.5623 J0.6072
G0 Z0.4
X-67.3592 Y10.3875
Z0.2
G1 Z0.1 F13.333
Y8.6449 Z-0.2073 F40.
Y8.6448
G2 Y8.6436 Z-0.2075 I-0.2033 J0.0002
X-67.5626 Y8.4416 I-0.2033 J0.0014 F55.
G1 X-67.902
G3 X-67.9489 Y8.3948 I0. J-0.0468
G1 Y6.5532
Z-0.1075
Y5.7968
Z-0.2075 F13.333
Y4.681 F55.
G2 X-68.2027 Y3.8709 I-1.4196 J-0.0001
G1 X-68.5469 Y3.3755
Y1.75
G2 X-68.7499 Y1.5467 I-0.2032 J-0.0001
G1 X-68.75
X-69.2627
Z-0.1075
X-70.0192
Z-0.2075 F13.333
X-70.5 F55.
G2 X-70.7034 Y1.7499 I-0.0001 J0.2033
G1 Y1.75
Y2.6968
Z-0.1075
Y3.4533
Z-0.2075 F13.333
Y4.5226 F55.
Y4.5227
G3 X-70.7305 Y4.5651 I-0.0467 J0.0001
G1 X-72.2537 Y5.2685
X-72.2538
G2 X-72.3607 Y5.3875 I0.0854 J0.1843
G3 X-73.3033 Y6.1655 I-1.103 J-0.3762
G1 X-74.0155 Y6.2645
G2 X-74.1 Y6.2966 I0.028 J0.2013
G1 X-74.4583 Y6.5349
Z-0.1075
X-75.0882 Y6.9538
Z-0.2075 F13.333
X-75.1256 Y6.9787 F55.
G2 X-75.1758 Y7.0221 I0.1472 J0.2213
G1 X-76.1951 Y8.1536
G2 X-76.4552 Y8.7244 I0.773 J0.6969
G1 X-76.5773 Y9.7266
G2 X-76.5502 Y9.8937 I0.3013 J0.0369
G1 X-76.0431 Y10.9609
Z-0.1075
X-75.7184 Y11.6442
Z-0.2075 F13.333
X-74.8141 Y13.5472 F55.
Z-0.1075
X-74.4894 Y14.2305
Z-0.2075 F13.333
X-74.2006 Y14.8382 F55.
G2 X-74.0795 Y14.9852 I0.3532 J-0.1674
G1 X-74.0794 Y14.9853
X-73.6763 Y15.2815
G2 X-73.3967 Y15.3545 I0.2315 J-0.3148
G1 X-72.9752 Y15.3021
Z-0.1075
X-72.2244 Y15.209
Z-0.2075 F13.333
X-71.4649 Y15.1147 F55.
Z-0.1075
X-70.7142 Y15.0215
Z-0.2075 F13.333
X-69.3856 Y14.8566 F55.
G2 X-69.1065 Y14.6825 I-0.0481 J-0.3879
G1 X-67.9089 Y12.8494
G3 X-67.8697 Y12.8283 I0.0392 J0.0256
G1 X-67.5626
G2 X-67.3592 Y12.6251 I0.0001 J-0.2033
G1 Y12.625
Y11.9303
Z-0.1075
Y11.1738
Z-0.2075 F13.333
Y8.6449 F55.
Y8.6448
G2 Y8.6436 I-0.2033 J0.0002
G0 Z0.4
X-69.2676 Y5.5707
Z0.2
G1 Z0.1 F13.333
X-69.2849 Y5.589 Z0.0955 F40.
X-69.285 Y5.5891
G3 X-69.2872 Y5.5894 Z0.0951 I-0.0013 J-0.0012
G1 X-69.2874 Y5.5893
G2 X-69.3764 Y5.5425 Z0.0773 I-0.429 J0.7076
G3 X-69.3774 Y5.5405 Z0.0769 I0.0008 J-0.0017
G1 X-69.3361 Y5.3478 Z0.0421
G3 X-69.3344 Y5.3464 Z0.0417 I0.0018 J0.0004
G1 X-69.3341
G2 X-68.7761 Y4.9857 Z-0.081 I-0.0344 J-0.6653
G3 X-68.7741 Y4.9848 Z-0.0814 I0.0016 J0.0008
G1 X-68.7739
X-68.7442 Y4.9912 Z-0.0868
G3 X-68.7429 Y4.9924 Z-0.0871 I-0.0004 J0.0017
G2 X-68.7425 Y4.9938 Z-0.0874 I0.0752 J-0.0215
X-68.738 Y5.0077 Z-0.09 I0.35 J-0.1075
G3 X-68.7384 Y5.0093 Z-0.0903 I-0.0018 J0.0004
G1 X-69.1944 Y5.4931 Z-0.2075
X-69.2849 Y5.589 F55.
X-69.285 Y5.5891
G3 X-69.2872 Y5.5894 I-0.0013 J-0.0012
G1 X-69.2874 Y5.5893
G2 X-69.3764 Y5.5425 I-0.429 J0.7076
G3 X-69.3774 Y5.5405 I0.0008 J-0.0017
G1 X-69.3361 Y5.3478
G3 X-69.3344 Y5.3464 I0.0018 J0.0004
G1 X-69.3341
G2 X-68.7761 Y4.9857 I-0.0344 J-0.6653
G3 X-68.7741 Y4.9848 I0.0016 J0.0008
G1 X-68.7739
X-68.7442 Y4.9912
G3 X-68.7429 Y4.9924 I-0.0004 J0.0017
G2 X-68.7425 Y4.9938 I0.0752 J-0.0215
X-68.738 Y5.0077 I0.35 J-0.1075
G3 X-68.7384 Y5.0093 I-0.0018 J0.0004
G1 X-69.1944 Y5.4931
G0 Z0.4
X-69.7084 Y5.4427
Z0.2
G1 Z0.1 F13.333
X-69.7139 Y5.468 Z0.0954 F40.
Y5.4683
G3 X-69.7155 Y5.4695 Z0.095 I-0.0016 J-0.0003
G2 X-69.816 Y5.4756 Z0.0772 I-0.0008 J0.8275
G3 X-69.8178 Y5.4744 Z0.0768 I-0.0002 J-0.0017
G1 X-70.0776 Y4.7213 Z-0.0636
G3 X-70.0773 Y4.7195 Z-0.064 I0.0016 J-0.0006
G1 X-70.0772
G2 X-70.0668 Y4.7077 Z-0.0668 I-0.2688 J-0.2488
G3 X-70.0651 Y4.7071 Z-0.0671 I0.0013 J0.0011
G1 X-70.0353 Y4.7135 Z-0.0725
G3 X-70.0341 Y4.715 Z-0.0728 I-0.0003 J0.0015
G1 X-70.034 Y4.7151 Z-0.0729
G2 X-69.6732 Y5.2735 Z-0.1956 I0.6655 J-0.0343
G3 X-69.6722 Y5.2755 Z-0.196 I-0.0008 J0.0016
G1 X-69.686 Y5.3392 Z-0.2075
X-69.7139 Y5.468 F55.
Y5.4683
G3 X-69.7155 Y5.4695 I-0.0016 J-0.0003
G2 X-69.816 Y5.4756 I-0.0008 J0.8275
G3 X-69.8178 Y5.4744 I-0.0002 J-0.0017
G1 X-70.0776 Y4.7213
G3 X-70.0773 Y4.7195 I0.0016 J-0.0006
G1 X-70.0772
G2 X-70.0668 Y4.7077 I-0.2688 J-0.2488
G3 X-70.0651 Y4.7071 I0.0013 J0.0011
G1 X-70.0353 Y4.7135
G3 X-70.0341 Y4.715 I-0.0003 J0.0015
G1 X-70.034 Y4.7151
G2 X-69.6732 Y5.2735 I0.6655 J-0.0343
G3 X-69.6722 Y5.2755 I-0.0008 J0.0016
G1 X-69.686 Y5.3392
G0 Z0.4
X-69.9356 Y12.9978
Z0.2
G1 Z0.1 F13.333
G3 X-69.9669 Y13.0431 Z0.0903 I-1.495 J-0.9979 F40.
X-69.998 Y13.0483 Z0.0841 I-0.0182 J-0.0129
X-70.0032 Y13.0172 Z0.078 I0.0129 J-0.0182
G2 X-69.7069 Y12.3187 Z-0.0569 I-1.4274 J-1.0175
G3 X-69.681 Y12.3008 Z-0.0631 I0.0219 J0.004
X-69.6632 Y12.3268 Z-0.0692 I-0.004 J0.0219
X-69.9669 Y13.0431 Z-0.2075 I-1.7675 J-0.3269
X-70.0032 Y13.0172 I-0.0182 J-0.0129 F55.
G2 X-69.7069 Y12.3187 I-1.4274 J-1.0175
G3 X-69.681 Y12.3008 I0.0219 J0.004
X-69.6632 Y12.3268 I-0.004 J0.0219
X-69.9669 Y13.0431 I-1.7675 J-0.3269
G0 Z0.4
X-69.1553 Y14.1107
Z0.2
G1 Z0.1 F13.333
G3 Y14.1096 Z0.0998 I0.0017 J-0.0006 F40.
G1 Y14.1095
X-69.1384 Y14.0483 Z0.0886
G3 X-69.1369 Y14.047 Z0.0882 I0.0017 J0.0005
G1 X-69.1368
G2 X-69.1023 Y14.0415 Z0.082 I-0.0539 J-0.4511
G3 X-69.1005 Y14.0441 Z0.0813 I0.0003 J0.0017
G1 X-69.1006 Y14.0442
X-69.147 Y14.1153 Z0.0664
G3 X-69.1494 Y14.1157 Z0.0659 I-0.0014 J-0.0009
G2 X-69.1543 Y14.1118 Z0.0648 I-0.2856 J0.3522
X-69.1547 Y14.1115 Z0.0647 I-0.0484 J0.0615
G3 X-69.1553 Y14.1096 Z0.0643 I0.0011 J-0.0014
G1 Y14.1095
X-69.1384 Y14.0483 Z0.0531
G3 X-69.1369 Y14.047 Z0.0527 I0.0017 J0.0005
G1 X-69.1368
G2 X-69.1023 Y14.0415 Z0.0465 I-0.0539 J-0.4511
G3 X-69.1005 Y14.0441 Z0.0458 I0.0003 J0.0017
G1 X-69.1006 Y14.0442
X-69.147 Y14.1153 Z0.0309
G3 X-69.1494 Y14.1157 Z0.0304 I-0.0014 J-0.0009
G2 X-69.1543 Y14.1118 Z0.0293 I-0.2856 J0.3522
X-69.1547 Y14.1115 Z0.0292 I-0.0484 J0.0615
G3 X-69.1553 Y14.1096 Z0.0288 I0.0011 J-0.0014
G1 Y14.1095
X-69.1384 Y14.0483 Z0.0176
G3 X-69.1369 Y14.047 Z0.0172 I0.0017 J0.0005
G1 X-69.1368
G2 X-69.1023 Y14.0415 Z0.011 I-0.0539 J-0.4511
G3 X-69.1005 Y14.0441 Z0.0103 I0.0003 J0.0017
G1 X-69.1006 Y14.0442
X-69.147 Y14.1153 Z-0.0046
G3 X-69.1494 Y14.1157 Z-0.0051 I-0.0014 J-0.0009
G2 X-69.1543 Y14.1118 Z-0.0062 I-0.2856 J0.3522
X-69.1547 Y14.1115 Z-0.0063 I-0.0484 J0.0615
G3 X-69.1553 Y14.1096 Z-0.0067 I0.0011 J-0.0014
G1 Y14.1095
X-69.1384 Y14.0483 Z-0.0179
G3 X-69.1369 Y14.047 Z-0.0183 I0.0017 J0.0005
G1 X-69.1368
G2 X-69.1023 Y14.0415 Z-0.0244 I-0.0539 J-0.4511
G3 X-69.1005 Y14.0441 Z-0.0251 I0.0003 J0.0017
G1 X-69.1006 Y14.0442 Z-0.0252
X-69.147 Y14.1153 Z-0.0401
G3 X-69.1494 Y14.1157 Z-0.0406 I-0.0014 J-0.0009
G2 X-69.1543 Y14.1118 Z-0.0417 I-0.2856 J0.3522
X-69.1547 Y14.1115 Z-0.0418 I-0.0484 J0.0615
G3 X-69.1553 Y14.1096 Z-0.0422 I0.0011 J-0.0014
G1 Y14.1095
X-69.1384 Y14.0483 Z-0.0534
G3 X-69.1369 Y14.047 Z-0.0538 I0.0017 J0.0005
G1 X-69.1368
G2 X-69.1023 Y14.0415 Z-0.0599 I-0.0539 J-0.4511
G3 X-69.1005 Y14.0441 Z-0.0606 I0.0003 J0.0017
G1 X-69.1006 Y14.0442 Z-0.0607
X-69.147 Y14.1153 Z-0.0756
G3 X-69.1494 Y14.1157 Z-0.0761 I-0.0014 J-0.0009
G2 X-69.1543 Y14.1118 Z-0.0772 I-0.2856 J0.3522
X-69.1547 Y14.1115 Z-0.0773 I-0.0484 J0.0615
G3 X-69.1553 Y14.1096 Z-0.0777 I0.0011 J-0.0014
G1 Y14.1095
X-69.1384 Y14.0483 Z-0.0889
G3 X-69.1369 Y14.047 Z-0.0893 I0.0017 J0.0005
G1 X-69.1368
G2 X-69.1023 Y14.0415 Z-0.0954 I-0.0539 J-0.4511
G3 X-69.1005 Y14.0441 Z-0.0961 I0.0003 J0.0017
G1 X-69.1006 Y14.0442
X-69.147 Y14.1153 Z-0.1111
G3 X-69.1494 Y14.1157 Z-0.1116 I-0.0014 J-0.0009
G2 X-69.1543 Y14.1118 Z-0.1127 I-0.2856 J0.3522
X-69.1547 Y14.1115 Z-0.1128 I-0.0484 J0.0615
G3 X-69.1553 Y14.1096 Z-0.1132 I0.0011 J-0.0014
G1 Y14.1095
X-69.1384 Y14.0483 Z-0.1244
G3 X-69.1369 Y14.047 Z-0.1248 I0.0017 J0.0005
G1 X-69.1368
G2 X-69.1023 Y14.0415 Z-0.1309 I-0.0539 J-0.4511
G3 X-69.1005 Y14.0441 Z-0.1316 I0.0003 J0.0017
G1 X-69.1006 Y14.0442
X-69.147 Y14.1153 Z-0.1466
G3 X-69.1494 Y14.1157 Z-0.1471 I-0.0014 J-0.0009
G2 X-69.1543 Y14.1118 Z-0.1482 I-0.2856 J0.3522
X-69.1547 Y14.1115 Z-0.1483 I-0.0484 J0.0615
G3 X-69.1553 Y14.1096 Z-0.1487 I0.0011 J-0.0014
G1 Y14.1095
X-69.1384 Y14.0483 Z-0.1599
G3 X-69.1369 Y14.047 Z-0.1603 I0.0017 J0.0005
G1 X-69.1368
G2 X-69.1023 Y14.0415 Z-0.1664 I-0.0539 J-0.4511
G3 X-69.1005 Y14.0441 Z-0.1671 I0.0003 J0.0017
G1 X-69.1006 Y14.0442
X-69.147 Y14.1153 Z-0.1821
G3 X-69.1494 Y14.1157 Z-0.1826 I-0.0014 J-0.0009
G2 X-69.1543 Y14.1118 Z-0.1837 I-0.2856 J0.3522
X-69.1547 Y14.1115 Z-0.1838 I-0.0484 J0.0615
G3 X-69.1553 Y14.1096 Z-0.1842 I0.0011 J-0.0014
G1 Y14.1095
X-69.1384 Y14.0483 Z-0.1954
G3 X-69.1369 Y14.047 Z-0.1957 I0.0017 J0.0005
G1 X-69.1368 Z-0.1958
G2 X-69.1023 Y14.0415 Z-0.2019 I-0.0539 J-0.4511
G3 X-69.1005 Y14.0441 Z-0.2026 I0.0003 J0.0017
G1 X-69.1006 Y14.0442
X-69.1156 Y14.0672 Z-0.2075
X-69.147 Y14.1153 F55.
G3 X-69.1494 Y14.1157 I-0.0014 J-0.0009
G2 X-69.1543 Y14.1118 I-0.2856 J0.3522
X-69.1547 Y14.1115 I-0.0484 J0.0615
G3 X-69.1553 Y14.1096 I0.0011 J-0.0014
G1 Y14.1095
X-69.1384 Y14.0483
G3 X-69.1369 Y14.047 I0.0017 J0.0005
G1 X-69.1368
G2 X-69.1023 Y14.0415 I-0.0539 J-0.4511
G3 X-69.1005 Y14.0441 I0.0003 J0.0017
G1 X-69.1006 Y14.0442
X-69.1156 Y14.0672
G0 Z0.4
X-73.2453 Y12.8833
Z0.2
G1 Z0.1 F13.333
G3 X-73.6874 Y13.403 Z-0.021 I-1.5652 J-0.8835 F40.
X-73.7152 Y13.3683 Z-0.0333 I-0.0138 J-0.0174
G2 X-73.1779 Y12.6374 Z-0.1951 I-1.0955 J-1.3682
G3 X-73.149 Y12.6247 Z-0.2013 I0.0208 J0.0081
X-73.1363 Y12.6536 Z-0.2075 I-0.0081 J0.0208
X-73.6874 Y13.403 I-1.6742 J-0.6538 F55.
X-73.7152 Y13.3683 I-0.0138 J-0.0174
G2 X-73.1779 Y12.6374 I-1.0955 J-1.3682
G3 X-73.1363 Y12.6536 I0.0208 J0.0081
G0 Z0.4
X-76.2184 Y9.8426
Z0.2
G1 Z0.1 F13.333
G3 X-76.291 Y9.7796 Z0.083 I0.7963 J-0.9923 F40.
G1 X-76.2911 Y9.7795
G3 X-76.2922 Y9.748 Z0.0769 I0.0152 J-0.0163
X-76.2607 Y9.747 Z0.0707 I0.0163 J0.0152
G1 X-76.2605 Y9.7471 Z0.0706
G2 X-75.6042 Y10.0645 Z-0.0599 I0.8385 J-0.8968
G3 X-75.5855 Y10.0898 Z-0.066 I-0.0033 J0.022
X-75.6108 Y10.1085 Z-0.0722 I-0.022 J-0.0033
X-76.291 Y9.7796 Z-0.2075 I0.1887 J-1.2582
G1 X-76.2911 Y9.7795
G3 X-76.2922 Y9.748 I0.0152 J-0.0163 F55.
X-76.2607 Y9.747 I0.0163 J0.0152
G1 X-76.2605 Y9.7471
G2 X-75.6042 Y10.0645 I0.8385 J-0.8968
G3 X-75.6108 Y10.1085 I-0.0033 J0.022
X-76.291 Y9.7796 I0.1887 J-1.2582
G1 X-76.2911 Y9.7795
G0 Z0.6
M9
G53 Z0.
M30
%
