%
(971-23-P-0068_ARM GEARBOX PLATE 2_1501)
(T1  D=0.1501 CR=0. - ZMIN=-0.2075 - FLAT END MILL)
G90 G94 G17 G91.1
G64 P0.001 Q0.001
G20
G53 G0 Z0.
(.3 CIRCLUAR THROUGH HOLE)
M9
T1 M6
S22000 M3
G4 P10.
G54
M7
G0 X-69.8744 Y14.2025
G43 Z0.6 H1
G0 Z0.13
G1 Z0.065 F40.
G18 G2 X-69.8594 Z0.05 I0.015 K0.
G1 X-69.8519
G17 G3 X-69.8391 Y14.2152 I0. J0.0127
X-69.89 Z0. I-0.0255 J0.
X-69.8803 Y14.1952 Z-0.0144 I0.0254 J0.
X-69.8488 Y14.2352 Z-0.0644 I0.0158 J0.02
X-69.8705 Y14.24 Z-0.0788 I-0.0158 J-0.02
X-69.8587 Y14.1905 Z-0.1287 I0.0059 J-0.0247
X-69.8705 Y14.24 Z-0.1787 I-0.0059 J0.0247
X-69.8873 Y14.2037 Z-0.2075 I0.0059 J-0.0247
X-69.8419 Y14.2268 I0.0227 J0.0116
X-69.8873 Y14.2037 I-0.0227 J-0.0116
X-69.8702 Y14.1981 I0.0113 J0.0058
G1 X-69.8635 Y14.2015
X-69.8609 Y14.2028 Z-0.2072
X-69.8584 Y14.2041 Z-0.2064
X-69.856 Y14.2053 Z-0.205
X-69.854 Y14.2063 Z-0.2031
X-69.8523 Y14.2072 Z-0.2008
X-69.8511 Y14.2078 Z-0.1982
X-69.8504 Y14.2082 Z-0.1954
X-69.8501 Y14.2083 Z-0.1925
G0 Z0.4
X-71.1973 Y13.4873
Z0.13
G1 Z0.065 F40.
G18 G2 X-71.1823 Z0.05 I0.015 K0.
G1 X-71.1748
G17 G3 X-71.1621 Y13.5 I0. J0.0127
X-71.2129 Z0. I-0.0254 J0.
X-71.2033 Y13.48 Z-0.0144 I0.0255 J0.
X-71.1717 Y13.52 Z-0.0644 I0.0158 J0.02
X-71.2033 Y13.48 Z-0.1144 I-0.0158 J-0.02
X-71.1644 Y13.4893 Z-0.1431 I0.0158 J0.02
X-71.2106 Y13.5107 Z-0.1931 I-0.0231 J0.0107
X-71.2102 Y13.4884 Z-0.2075 I0.0231 J-0.0107
X-71.1648 Y13.5116 I0.0227 J0.0116
X-71.2102 Y13.4884 I-0.0227 J-0.0116
X-71.1931 Y13.4829 I0.0113 J0.0058
G1 X-71.1864 Y13.4863
X-71.1838 Y13.4876 Z-0.2072
X-71.1813 Y13.4889 Z-0.2064
X-71.1789 Y13.4901 Z-0.205
X-71.1769 Y13.4911 Z-0.2031
X-71.1753 Y13.492 Z-0.2008
X-71.174 Y13.4926 Z-0.1982
X-71.1733 Y13.493 Z-0.1954
X-71.173 Y13.4931 Z-0.1925
G0 Z0.4
X-71.4403 Y11.9873
Z0.13
G1 Z0.065 F40.
G18 G2 X-71.4253 Z0.05 I0.015 K0.
G1 X-71.4178
G17 G3 X-71.4051 Y12. I0. J0.0127
X-71.456 Z0. I-0.0255 J0.
X-71.4463 Y11.98 Z-0.0144 I0.0254 J0.
X-71.4148 Y12.02 Z-0.0644 I0.0158 J0.02
X-71.4365 Y12.0247 Z-0.0788 I-0.0158 J-0.02
X-71.4246 Y11.9753 Z-0.1287 I0.0059 J-0.0247
X-71.4074 Y11.9893 Z-0.1431 I-0.0059 J0.0247
X-71.4537 Y12.0107 Z-0.1931 I-0.0231 J0.0107
X-71.4532 Y11.9884 Z-0.2075 I0.0231 J-0.0107
X-71.4079 Y12.0116 I0.0227 J0.0116
X-71.4532 Y11.9884 I-0.0227 J-0.0116
X-71.4361 Y11.9829 I0.0113 J0.0058
G1 X-71.4294 Y11.9863
X-71.4268 Y11.9876 Z-0.2072
X-71.4243 Y11.9889 Z-0.2064
X-71.422 Y11.9901 Z-0.205
X-71.42 Y11.9911 Z-0.2031
X-71.4183 Y11.992 Z-0.2008
X-71.4171 Y11.9926 Z-0.1982
X-71.4163 Y11.993 Z-0.1954
X-71.416 Y11.9931 Z-0.1925
G0 Z0.4
X-68.5773 Y11.7697
Z0.13
G1 Z0.065 F40.
G18 G2 X-68.5623 Z0.05 I0.015 K0.
G1 X-68.5548
G17 G3 X-68.542 Y11.7824 I0. J0.0127
X-68.5929 Z0. I-0.0255 J0.
X-68.5833 Y11.7624 Z-0.0144 I0.0254 J0.
X-68.5517 Y11.8024 Z-0.0644 I0.0158 J0.02
X-68.5734 Y11.8071 Z-0.0788 I-0.0158 J-0.02
X-68.5616 Y11.7576 Z-0.1287 I0.0059 J-0.0247
X-68.5734 Y11.8071 Z-0.1787 I-0.0059 J0.0247
X-68.5902 Y11.7708 Z-0.2075 I0.0059 J-0.0247
X-68.5448 Y11.7939 I0.0227 J0.0116
X-68.5902 Y11.7708 I-0.0227 J-0.0116
X-68.5731 Y11.7653 I0.0113 J0.0058
G1 X-68.5664 Y11.7687
X-68.5638 Y11.77 Z-0.2072
X-68.5613 Y11.7713 Z-0.2064
X-68.5589 Y11.7725 Z-0.205
X-68.5569 Y11.7735 Z-0.2031
X-68.5553 Y11.7743 Z-0.2008
X-68.554 Y11.775 Z-0.1982
X-68.5533 Y11.7754 Z-0.1954
X-68.553 Y11.7755 Z-0.1925
G0 Z0.4
X-67.6973 Y11.9873
Z0.13
G1 Z0.065 F40.
G18 G2 X-67.6823 Z0.05 I0.015 K0.
G1 X-67.6748
G17 G3 X-67.6621 Y12. I0. J0.0127
X-67.7129 Z0. I-0.0254 J0.
X-67.7033 Y11.98 Z-0.0144 I0.0255 J0.
X-67.6717 Y12.02 Z-0.0644 I0.0158 J0.02
X-67.6934 Y12.0247 Z-0.0788 I-0.0158 J-0.02
X-67.6816 Y11.9753 Z-0.1288 I0.0059 J-0.0247
X-67.6644 Y11.9893 Z-0.1431 I-0.0059 J0.0247
X-67.7106 Y12.0107 Z-0.1931 I-0.0231 J0.0107
X-67.7102 Y11.9884 Z-0.2075 I0.0231 J-0.0107
X-67.6648 Y12.0116 I0.0227 J0.0116
X-67.7102 Y11.9884 I-0.0227 J-0.0116
X-67.6931 Y11.9829 I0.0113 J0.0058
G1 X-67.6864 Y11.9863
X-67.6838 Y11.9876 Z-0.2072
X-67.6813 Y11.9889 Z-0.2064
X-67.6789 Y11.9901 Z-0.205
X-67.6769 Y11.9911 Z-0.2031
X-67.6753 Y11.992 Z-0.2008
X-67.674 Y11.9926 Z-0.1982
X-67.6733 Y11.993 Z-0.1954
X-67.673 Y11.9931 Z-0.1925
G0 Z0.4
X-67.6973 Y10.9873
Z0.13
G1 Z0.065 F40.
G18 G2 X-67.6823 Z0.05 I0.015 K0.
G1 X-67.6748
G17 G3 X-67.6621 Y11. I0. J0.0127
X-67.7129 Z0. I-0.0254 J0.
X-67.7033 Y10.98 Z-0.0144 I0.0255 J0.
X-67.6717 Y11.02 Z-0.0644 I0.0158 J0.02
X-67.6934 Y11.0247 Z-0.0788 I-0.0158 J-0.02
X-67.6816 Y10.9753 Z-0.1288 I0.0059 J-0.0247
X-67.6644 Y10.9893 Z-0.1431 I-0.0059 J0.0247
X-67.7106 Y11.0107 Z-0.1931 I-0.0231 J0.0107
X-67.7102 Y10.9884 Z-0.2075 I0.0231 J-0.0107
X-67.6648 Y11.0116 I0.0227 J0.0116
X-67.7102 Y10.9884 I-0.0227 J-0.0116
X-67.6931 Y10.9829 I0.0113 J0.0058
G1 X-67.6864 Y10.9863
X-67.6838 Y10.9876 Z-0.2072
X-67.6813 Y10.9889 Z-0.2064
X-67.6789 Y10.9901 Z-0.205
X-67.6769 Y10.9911 Z-0.2031
X-67.6753 Y10.992 Z-0.2008
X-67.674 Y10.9926 Z-0.1982
X-67.6733 Y10.993 Z-0.1954
X-67.673 Y10.9931 Z-0.1925
G0 Z0.4
X-68.824 Y9.6652
Z0.115
G1 Z0.05 F40.
X-68.8218 Y9.6629
G3 X-68.8196 Y9.6652 I0. J0.0022
X-68.8285 Z0. I-0.0045 J0.
X-68.8268 Y9.6617 Z-0.0144 I0.0044 J0.
X-68.8212 Y9.6687 Z-0.0644 I0.0028 J0.0035
X-68.825 Y9.6695 Z-0.0788 I-0.0028 J-0.0035
X-68.823 Y9.6608 Z-0.1287 I0.001 J-0.0043
X-68.82 Y9.6633 Z-0.1431 I-0.001 J0.0043
X-68.828 Y9.667 Z-0.1931 I-0.004 J0.0019
Y9.6631 Z-0.2075 I0.004 J-0.0019
X-68.82 Y9.6672 I0.004 J0.002
X-68.828 Y9.6631 I-0.004 J-0.002
X-68.825 Y9.6622 I0.002 J0.001
G1 X-68.824 Y9.6652
G0 Z0.4
X-70.351 Y10.2209
Z0.115
G1 Z0.05 F40.
X-70.3488 Y10.2187
G3 X-70.3465 Y10.2209 I0. J0.0022
X-70.3554 Z0. I-0.0045 J0.
X-70.3538 Y10.2175 Z-0.0144 I0.0044 J0.
X-70.3482 Y10.2244 Z-0.0644 I0.0028 J0.0035
X-70.352 Y10.2253 Z-0.0788 I-0.0028 J-0.0035
X-70.35 Y10.2166 Z-0.1287 I0.001 J-0.0043
X-70.347 Y10.2191 Z-0.1431 I-0.001 J0.0043
X-70.355 Y10.2228 Z-0.1931 I-0.004 J0.0019
Y10.2189 Z-0.2075 I0.004 J-0.0019
X-70.347 Y10.223 I0.004 J0.002
X-70.355 Y10.2189 I-0.004 J-0.002
X-70.352 Y10.218 I0.002 J0.001
G1 X-70.351 Y10.2209
G0 Z0.4
X-71.6348 Y9.4873
Z0.13
G1 Z0.065 F40.
G18 G2 X-71.6198 Z0.05 I0.015 K0.
G1 X-71.6123
G17 G3 X-71.5995 Y9.5 I0. J0.0127
X-71.6505 Z0. I-0.0255 J0.
X-71.6408 Y9.48 Z-0.0144 I0.0254 J0.
X-71.6092 Y9.52 Z-0.0644 I0.0158 J0.02
X-71.6309 Y9.5247 Z-0.0788 I-0.0158 J-0.02
X-71.6191 Y9.4753 Z-0.1287 I0.0059 J-0.0247
X-71.6309 Y9.5247 Z-0.1787 I-0.0059 J0.0247
X-71.6477 Y9.4884 Z-0.2075 I0.0059 J-0.0247
X-71.6023 Y9.5116 I0.0227 J0.0116
X-71.6477 Y9.4884 I-0.0227 J-0.0116
X-71.6306 Y9.4829 I0.0113 J0.0058
G1 X-71.6239 Y9.4863
X-71.6213 Y9.4876 Z-0.2072
X-71.6188 Y9.4889 Z-0.2064
X-71.6164 Y9.4901 Z-0.205
X-71.6144 Y9.4911 Z-0.2031
X-71.6128 Y9.492 Z-0.2008
X-71.6115 Y9.4926 Z-0.1982
X-71.6108 Y9.493 Z-0.1954
X-71.6105 Y9.4931 Z-0.1925
G0 Z0.4
X-72.6914 Y9.694
Z0.115
G1 Z0.05 F40.
X-72.6892 Y9.6918
G3 X-72.6869 Y9.694 I0. J0.0022
X-72.6958 Z0. I-0.0045 J0.
X-72.6941 Y9.6905 Z-0.0144 I0.0045 J0.
X-72.6886 Y9.6975 Z-0.0644 I0.0028 J0.0035
X-72.6924 Y9.6984 Z-0.0788 I-0.0028 J-0.0035
X-72.6903 Y9.6897 Z-0.1288 I0.001 J-0.0043
X-72.6873 Y9.6922 Z-0.1431 I-0.001 J0.0043
X-72.6954 Y9.6959 Z-0.1931 I-0.004 J0.0019
X-72.6953 Y9.692 Z-0.2075 I0.004 J-0.0019
X-72.6874 Y9.6961 I0.004 J0.002
X-72.6953 Y9.692 I-0.004 J-0.002
X-72.6924 Y9.691 I0.002 J0.001
G1 X-72.6914 Y9.694
G0 Z0.4
X-74.2917 Y9.4119
Z0.115
G1 Z0.05 F40.
X-74.2895 Y9.4096
G3 X-74.2872 Y9.4119 I0. J0.0022
X-74.2961 Z0. I-0.0045 J0.
X-74.2944 Y9.4084 Z-0.0144 I0.0045 J0.
X-74.2889 Y9.4154 Z-0.0644 I0.0028 J0.0035
X-74.2927 Y9.4162 Z-0.0788 I-0.0028 J-0.0035
X-74.2907 Y9.4075 Z-0.1287 I0.001 J-0.0043
X-74.2876 Y9.41 Z-0.1431 I-0.001 J0.0043
X-74.2957 Y9.4137 Z-0.1931 I-0.004 J0.0019
Y9.4098 Z-0.2075 I0.004 J-0.0019
X-74.2877 Y9.4139 I0.004 J0.002
X-74.2957 Y9.4098 I-0.004 J-0.002
X-74.2927 Y9.4089 I0.002 J0.001
G1 X-74.2917 Y9.4119
G0 Z0.4
X-74.6973 Y10.9873
Z0.13
G1 Z0.065 F40.
G18 G2 X-74.6823 Z0.05 I0.015 K0.
G1 X-74.6748
G17 G3 X-74.662 Y11. I0. J0.0127
X-74.7129 Z0. I-0.0255 J0.
X-74.7033 Y10.98 Z-0.0144 I0.0254 J0.
X-74.6717 Y11.02 Z-0.0644 I0.0158 J0.02
X-74.6934 Y11.0247 Z-0.0788 I-0.0158 J-0.02
X-74.6816 Y10.9753 Z-0.1287 I0.0059 J-0.0247
X-74.6644 Y10.9893 Z-0.1431 I-0.0059 J0.0247
X-74.7106 Y11.0107 Z-0.1931 I-0.0231 J0.0107
X-74.7102 Y10.9884 Z-0.2075 I0.0231 J-0.0107
X-74.6648 Y11.0116 I0.0227 J0.0116
X-74.7102 Y10.9884 I-0.0227 J-0.0116
X-74.6931 Y10.9829 I0.0113 J0.0058
G1 X-74.6864 Y10.9863
X-74.6838 Y10.9876 Z-0.2072
X-74.6813 Y10.9889 Z-0.2064
X-74.6789 Y10.9901 Z-0.205
X-74.6769 Y10.9911 Z-0.2031
X-74.6753 Y10.992 Z-0.2008
X-74.674 Y10.9926 Z-0.1982
X-74.6733 Y10.993 Z-0.1954
X-74.673 Y10.9931 Z-0.1925
G0 Z0.4
X-74.8203 Y11.9873
Z0.13
G1 Z0.065 F40.
G18 G2 X-74.8053 Z0.05 I0.015 K0.
G1 X-74.7978
G17 G3 X-74.7851 Y12. I0. J0.0127
X-74.836 Z0. I-0.0255 J0.
X-74.8263 Y11.98 Z-0.0144 I0.0254 J0.
X-74.7948 Y12.02 Z-0.0644 I0.0158 J0.02
X-74.8165 Y12.0247 Z-0.0788 I-0.0158 J-0.02
X-74.8046 Y11.9752 Z-0.1287 I0.0059 J-0.0247
X-74.7874 Y11.9893 Z-0.1431 I-0.0059 J0.0247
X-74.8336 Y12.0107 Z-0.1931 I-0.0231 J0.0107
X-74.8332 Y11.9884 Z-0.2075 I0.0231 J-0.0107
X-74.7879 Y12.0116 I0.0227 J0.0116
X-74.8332 Y11.9884 I-0.0227 J-0.0116
X-74.8161 Y11.9829 I0.0113 J0.0058
G1 X-74.8094 Y11.9863
X-74.8068 Y11.9876 Z-0.2072
X-74.8043 Y11.9889 Z-0.2064
X-74.802 Y11.9901 Z-0.205
X-74.7999 Y11.9911 Z-0.2031
X-74.7983 Y11.992 Z-0.2008
X-74.797 Y11.9926 Z-0.1982
X-74.7963 Y11.993 Z-0.1954
X-74.796 Y11.9931 Z-0.1925
G0 Z0.4
X-73.8576 Y14.6578
Z0.13
G1 Z0.065 F40.
G18 G2 X-73.8426 Z0.05 I0.015 K0.
G1 X-73.8351
G17 G3 X-73.8224 Y14.6705 I0. J0.0127
X-73.8733 Z0. I-0.0255 J0.
X-73.8636 Y14.6505 Z-0.0144 I0.0254 J0.
X-73.8321 Y14.6905 Z-0.0644 I0.0158 J0.02
X-73.8538 Y14.6953 Z-0.0788 I-0.0158 J-0.02
X-73.8419 Y14.6458 Z-0.1287 I0.0059 J-0.0247
X-73.8247 Y14.6599 Z-0.1431 I-0.0059 J0.0247
X-73.8709 Y14.6812 Z-0.1931 I-0.0231 J0.0107
X-73.8705 Y14.659 Z-0.2075 I0.0231 J-0.0107
X-73.8251 Y14.6821 I0.0227 J0.0116
X-73.8705 Y14.659 I-0.0227 J-0.0116
X-73.8534 Y14.6534 I0.0113 J0.0058
G1 X-73.8467 Y14.6568
X-73.8441 Y14.6581 Z-0.2072
X-73.8416 Y14.6594 Z-0.2064
X-73.8393 Y14.6606 Z-0.205
X-73.8372 Y14.6616 Z-0.2031
X-73.8356 Y14.6625 Z-0.2008
X-73.8343 Y14.6631 Z-0.1982
X-73.8336 Y14.6635 Z-0.1954
X-73.8333 Y14.6636 Z-0.1925
G0 Z0.4
X-75.0044 Y7.6629
Z0.13
G1 Z0.065 F40.
G18 G2 X-74.9894 Z0.05 I0.015 K0.
G1 X-74.9819
G17 G3 X-74.9692 Y7.6757 I0. J0.0127
X-75.0201 Z0. I-0.0255 J0.
X-75.0104 Y7.6557 Z-0.0144 I0.0254 J0.
X-74.9789 Y7.6956 Z-0.0644 I0.0158 J0.02
X-75.0005 Y7.7004 Z-0.0788 I-0.0158 J-0.02
X-74.9887 Y7.6509 Z-0.1287 I0.0059 J-0.0247
X-75.0005 Y7.7004 Z-0.1787 I-0.0059 J0.0247
X-75.0173 Y7.6641 Z-0.2075 I0.0059 J-0.0247
X-74.9719 Y7.6872 I0.0227 J0.0116
X-75.0173 Y7.6641 I-0.0227 J-0.0116
X-75.0002 Y7.6585 I0.0113 J0.0058
G1 X-74.9935 Y7.6619
X-74.9909 Y7.6633 Z-0.2072
X-74.9884 Y7.6646 Z-0.2064
X-74.9861 Y7.6657 Z-0.205
X-74.984 Y7.6668 Z-0.2031
X-74.9824 Y7.6676 Z-0.2008
X-74.9811 Y7.6682 Z-0.1982
X-74.9804 Y7.6686 Z-0.1954
X-74.9801 Y7.6688 Z-0.1925
G0 Z0.4
X-74.9882 Y7.1873
Z0.13
G1 Z0.065 F40.
G18 G2 X-74.9732 Z0.05 I0.015 K0.
G1 X-74.9657
G17 G3 X-74.953 Y7.2 I0. J0.0127
X-75.0039 Z0. I-0.0255 J0.
X-74.9942 Y7.18 Z-0.0144 I0.0254 J0.
X-74.9627 Y7.22 Z-0.0644 I0.0158 J0.02
X-74.9844 Y7.2247 Z-0.0788 I-0.0158 J-0.02
X-74.9725 Y7.1753 Z-0.1287 I0.0059 J-0.0247
X-74.9553 Y7.1893 Z-0.1431 I-0.0059 J0.0247
X-75.0015 Y7.2107 Z-0.1931 I-0.0231 J0.0107
X-75.0011 Y7.1884 Z-0.2075 I0.0231 J-0.0107
X-74.9558 Y7.2116 I0.0227 J0.0116
X-75.0011 Y7.1884 I-0.0227 J-0.0116
X-74.984 Y7.1829 I0.0113 J0.0058
G1 X-74.9773 Y7.1863
X-74.9747 Y7.1876 Z-0.2072
X-74.9722 Y7.1889 Z-0.2064
X-74.9699 Y7.1901 Z-0.205
X-74.9679 Y7.1911 Z-0.2031
X-74.9662 Y7.192 Z-0.2008
X-74.965 Y7.1926 Z-0.1982
X-74.9642 Y7.193 Z-0.1954
X-74.9639 Y7.1931 Z-0.1925
G0 Z0.4
X-71.263 Y5.4427
Z0.13
G1 Z0.065 F40.
G18 G3 X-71.278 Z0.05 I-0.015 K0.
G1 X-71.2855
G17 G3 X-71.2983 Y5.43 I0. J-0.0127
X-71.2474 Z0. I0.0254 J0.
X-71.2571 Y5.45 Z-0.0144 I-0.0255 J0.
X-71.2886 Y5.41 Z-0.0644 I-0.0158 J-0.02
X-71.2571 Y5.45 Z-0.1144 I0.0158 J0.02
X-71.2959 Y5.4407 Z-0.1431 I-0.0158 J-0.02
X-71.2497 Y5.4193 Z-0.1931 I0.0231 J-0.0107
X-71.2501 Y5.4416 Z-0.2075 I-0.0231 J0.0107
X-71.2955 Y5.4184 I-0.0227 J-0.0116
X-71.2501 Y5.4416 I0.0227 J0.0116
X-71.2672 Y5.4471 I-0.0113 J-0.0058
G1 X-71.2739 Y5.4437
X-71.2765 Y5.4424 Z-0.2072
X-71.2791 Y5.4411 Z-0.2064
X-71.2814 Y5.4399 Z-0.205
X-71.2834 Y5.4389 Z-0.2031
X-71.2851 Y5.438 Z-0.2008
X-71.2863 Y5.4374 Z-0.1982
X-71.2871 Y5.437 Z-0.1954
X-71.2873 Y5.4369 Z-0.1925
G0 Z0.4
X-70.3363 Y4.4834
Z0.13
G1 Z0.065 F40.
G18 G3 X-70.3514 Z0.05 I-0.015 K0.
G1 X-70.3589
G17 G3 X-70.3716 Y4.4707 I0. J-0.0127
X-70.3207 Z0. I0.0255 J0.
X-70.3304 Y4.4907 Z-0.0144 I-0.0254 J0.
X-70.3619 Y4.4507 Z-0.0644 I-0.0158 J-0.02
X-70.3402 Y4.446 Z-0.0788 I0.0158 J0.02
X-70.3521 Y4.4954 Z-0.1287 I-0.0059 J0.0247
X-70.3402 Y4.446 Z-0.1787 I0.0059 J-0.0247
X-70.3235 Y4.4823 Z-0.2075 I-0.0059 J0.0247
X-70.3688 Y4.4591 I-0.0227 J-0.0116
X-70.3235 Y4.4823 I0.0227 J0.0116
X-70.3406 Y4.4878 I-0.0113 J-0.0058
G1 X-70.3473 Y4.4844
X-70.3499 Y4.4831 Z-0.2072
X-70.3524 Y4.4818 Z-0.2064
X-70.3547 Y4.4806 Z-0.205
X-70.3567 Y4.4796 Z-0.2031
X-70.3584 Y4.4787 Z-0.2008
X-70.3596 Y4.4781 Z-0.1982
X-70.3604 Y4.4777 Z-0.1954
X-70.3606 Y4.4776 Z-0.1925
G0 Z0.4
X-70.3848 Y3.1123
Z0.13
G1 Z0.065 F40.
G18 G2 X-70.3698 Z0.05 I0.015 K0.
G1 X-70.3623
G17 G3 X-70.3495 Y3.125 I0. J0.0127
X-70.4005 Z0. I-0.0255 J0.
X-70.3908 Y3.105 Z-0.0144 I0.0254 J0.
X-70.3592 Y3.145 Z-0.0644 I0.0158 J0.02
X-70.3809 Y3.1497 Z-0.0788 I-0.0158 J-0.02
X-70.3691 Y3.1003 Z-0.1287 I0.0059 J-0.0247
X-70.3809 Y3.1497 Z-0.1787 I-0.0059 J0.0247
X-70.3977 Y3.1134 Z-0.2075 I0.0059 J-0.0247
X-70.3523 Y3.1366 I0.0227 J0.0116
X-70.3977 Y3.1134 I-0.0227 J-0.0116
X-70.3806 Y3.1079 I0.0113 J0.0058
G1 X-70.3739 Y3.1113
X-70.3713 Y3.1126 Z-0.2072
X-70.3688 Y3.1139 Z-0.2064
X-70.3664 Y3.1151 Z-0.205
X-70.3644 Y3.1161 Z-0.2031
X-70.3628 Y3.117 Z-0.2008
X-70.3615 Y3.1176 Z-0.1982
X-70.3608 Y3.118 Z-0.1954
X-70.3605 Y3.1181 Z-0.1925
G0 Z0.4
X-70.3848 Y1.8623
Z0.13
G1 Z0.065 F40.
G18 G2 X-70.3698 Z0.05 I0.015 K0.
G1 X-70.3623
G17 G3 X-70.3495 Y1.875 I0. J0.0127
X-70.4005 Z0. I-0.0255 J0.
X-70.3908 Y1.855 Z-0.0144 I0.0254 J0.
X-70.3592 Y1.895 Z-0.0644 I0.0158 J0.02
X-70.3809 Y1.8997 Z-0.0788 I-0.0158 J-0.02
X-70.3691 Y1.8503 Z-0.1287 I0.0059 J-0.0247
X-70.3809 Y1.8997 Z-0.1787 I-0.0059 J0.0247
X-70.3977 Y1.8634 Z-0.2075 I0.0059 J-0.0247
X-70.3523 Y1.8866 I0.0227 J0.0116
X-70.3977 Y1.8634 I-0.0227 J-0.0116
X-70.3806 Y1.8579 I0.0113 J0.0058
G1 X-70.3739 Y1.8613
X-70.3713 Y1.8626 Z-0.2072
X-70.3688 Y1.8639 Z-0.2064
X-70.3664 Y1.8651 Z-0.205
X-70.3644 Y1.8661 Z-0.2031
X-70.3628 Y1.867 Z-0.2008
X-70.3615 Y1.8676 Z-0.1982
X-70.3608 Y1.868 Z-0.1954
X-70.3605 Y1.8681 Z-0.1925
G0 Z0.4
X-68.8848 Y1.8623
Z0.13
G1 Z0.065 F40.
G18 G2 X-68.8698 Z0.05 I0.015 K0.
G1 X-68.8623
G17 G3 X-68.8495 Y1.875 I0. J0.0127
X-68.9005 Z0. I-0.0255 J0.
X-68.8908 Y1.855 Z-0.0144 I0.0254 J0.
X-68.8592 Y1.895 Z-0.0644 I0.0158 J0.02
X-68.8809 Y1.8997 Z-0.0788 I-0.0158 J-0.02
X-68.8691 Y1.8503 Z-0.1287 I0.0059 J-0.0247
X-68.8519 Y1.8643 Z-0.1431 I-0.0059 J0.0247
X-68.8981 Y1.8857 Z-0.1931 I-0.0231 J0.0107
X-68.8977 Y1.8634 Z-0.2075 I0.0231 J-0.0107
X-68.8523 Y1.8866 I0.0227 J0.0116
X-68.8977 Y1.8634 I-0.0227 J-0.0116
X-68.8806 Y1.8579 I0.0113 J0.0058
G1 X-68.8739 Y1.8613
X-68.8713 Y1.8626 Z-0.2072
X-68.8688 Y1.8639 Z-0.2064
X-68.8664 Y1.8651 Z-0.205
X-68.8644 Y1.8661 Z-0.2031
X-68.8628 Y1.867 Z-0.2008
X-68.8615 Y1.8676 Z-0.1982
X-68.8608 Y1.868 Z-0.1954
X-68.8605 Y1.8681 Z-0.1925
G0 Z0.4
X-68.8848 Y3.1123
Z0.13
G1 Z0.065 F40.
G18 G2 X-68.8698 Z0.05 I0.015 K0.
G1 X-68.8623
G17 G3 X-68.8495 Y3.125 I0. J0.0127
X-68.9005 Z0. I-0.0255 J0.
X-68.8908 Y3.105 Z-0.0144 I0.0254 J0.
X-68.8592 Y3.145 Z-0.0644 I0.0158 J0.02
X-68.8809 Y3.1497 Z-0.0788 I-0.0158 J-0.02
X-68.8691 Y3.1003 Z-0.1287 I0.0059 J-0.0247
X-68.8519 Y3.1143 Z-0.1431 I-0.0059 J0.0247
X-68.8981 Y3.1357 Z-0.1931 I-0.0231 J0.0107
X-68.8977 Y3.1134 Z-0.2075 I0.0231 J-0.0107
X-68.8523 Y3.1366 I0.0227 J0.0116
X-68.8977 Y3.1134 I-0.0227 J-0.0116
X-68.8806 Y3.1079 I0.0113 J0.0058
G1 X-68.8739 Y3.1113
X-68.8713 Y3.1126 Z-0.2072
X-68.8688 Y3.1139 Z-0.2064
X-68.8664 Y3.1151 Z-0.205
X-68.8644 Y3.1161 Z-0.2031
X-68.8628 Y3.117 Z-0.2008
X-68.8615 Y3.1176 Z-0.1982
X-68.8608 Y3.118 Z-0.1954
X-68.8605 Y3.1181 Z-0.1925
G0 Z0.4
X-68.3811 Y4.904
Z0.13
G1 Z0.065 F40.
G18 G3 X-68.3961 Z0.05 I-0.015 K0.
G1 X-68.4036
G17 G3 X-68.4163 Y4.8913 I0. J-0.0127
X-68.3654 Z0. I0.0255 J0.
X-68.3751 Y4.9113 Z-0.0144 I-0.0254 J0.
X-68.4066 Y4.8713 Z-0.0644 I-0.0158 J-0.02
X-68.3849 Y4.8666 Z-0.0788 I0.0158 J0.02
X-68.3968 Y4.916 Z-0.1287 I-0.0059 J0.0247
X-68.3849 Y4.8666 Z-0.1787 I0.0059 J-0.0247
X-68.3682 Y4.9029 Z-0.2075 I-0.0059 J0.0247
X-68.4135 Y4.8797 I-0.0227 J-0.0116
X-68.3682 Y4.9029 I0.0227 J0.0116
X-68.3853 Y4.9084 I-0.0113 J-0.0058
G1 X-68.392 Y4.905
X-68.3946 Y4.9037 Z-0.2072
X-68.3971 Y4.9024 Z-0.2064
X-68.3994 Y4.9012 Z-0.205
X-68.4014 Y4.9002 Z-0.2031
X-68.4031 Y4.8993 Z-0.2008
X-68.4043 Y4.8987 Z-0.1982
X-68.4051 Y4.8983 Z-0.1954
X-68.4054 Y4.8982 Z-0.1925
G0 Z0.6
(.3 CIRCULAR THROUGH HOLE)
M7
G0 X-73.4616 Y9.579
Z0.6
Z0.2
G1 Z0.1145 F13.333
G3 X-73.4624 Y9.5778 Z0.1082 I0.0367 J-0.026 F55.
X-73.4644 Y9.5744 Z0.103 I0.0375 J-0.0249
X-73.4669 Y9.5692 Z0.1 I0.0395 J-0.0215
X-73.3829 Y9.5367 Z0.0621 I0.042 J-0.0163
X-73.4669 Y9.5692 Z0.0242 I-0.042 J0.0163
X-73.3829 Y9.5367 Z-0.0136 I0.042 J-0.0163
X-73.4669 Y9.5692 Z-0.0515 I-0.042 J0.0163
X-73.3829 Y9.5367 Z-0.0894 I0.042 J-0.0163
X-73.4669 Y9.5692 Z-0.1273 I-0.042 J0.0163
X-73.3829 Y9.5367 Z-0.1652 I0.042 J-0.0163
X-73.4669 Y9.5692 Z-0.203 I-0.042 J0.0163
X-73.4699 Y9.553 Z-0.2075 I0.042 J-0.0163
X-73.4132 I0.0284 J0. F60.
X-73.5699 I-0.0784 J0.
X-73.3132 I0.1284 J0.
X-73.6699 I-0.1784 J0.
X-73.2132 I0.2284 J0.
X-73.7699 I-0.2784 J0.
X-73.1132 I0.3284 J0.
X-73.8699 I-0.3784 J0.
X-73.1132 I0.3784 J0.
G2 X-73.0698 Y9.6225 I0.0774 J0.
G3 X-73.0376 Y9.6979 I-0.0276 J0.0563
X-73.9681 Y9.553 I-0.4539 J-0.1451
X-73.015 I0.4766 J0.0002
X-73.0376 Y9.6979 I-0.4766 J-0.0002
G2 X-73.0352 Y9.7065 I0.0077 J0.0025
G3 X-73.0329 Y9.7152 I-0.0052 J0.006
X-73.9781 Y9.553 I-0.4587 J-0.1624
X-73.005 I0.4866 J0.0002
X-73.0329 Y9.7152 I-0.4866 J-0.0002
X-73.0358 Y9.7201 Z-0.2064 I-0.0141 J-0.005
X-73.0395 Y9.7232 Z-0.2031 I-0.0113 J-0.0099
X-73.0425 Y9.7245 Z-0.1982 I-0.0075 J-0.013
X-73.0436 Y9.7248 Z-0.1925 I-0.0045 J-0.0143
G0 Z0.4
X-73.4744 Y7.526
Z0.2
G1 Z0.1145 F13.333
G3 X-73.4752 Y7.5249 Z0.1082 I0.0367 J-0.026 F55.
X-73.4772 Y7.5215 Z0.103 I0.0375 J-0.0249
X-73.4796 Y7.5163 Z0.1 I0.0395 J-0.0215
X-73.3957 Y7.4837 Z0.0621 I0.042 J-0.0163
X-73.4796 Y7.5163 Z0.0242 I-0.042 J0.0163
X-73.3957 Y7.4837 Z-0.0136 I0.042 J-0.0163
X-73.4796 Y7.5163 Z-0.0515 I-0.042 J0.0163
X-73.3957 Y7.4837 Z-0.0894 I0.042 J-0.0163
X-73.4796 Y7.5163 Z-0.1273 I-0.042 J0.0163
X-73.3957 Y7.4837 Z-0.1652 I0.042 J-0.0163
X-73.4796 Y7.5163 Z-0.203 I-0.042 J0.0163
X-73.4827 Y7.5 Z-0.2075 I0.042 J-0.0163
X-73.4291 I0.0268 J0. F60.
X-73.5827 I-0.0768 J0.
X-73.3291 I0.1268 J0.
X-73.6827 I-0.1768 J0.
X-73.2291 I0.2268 J0.
X-73.7827 I-0.2768 J0.
X-73.1291 I0.3268 J0.
X-73.8827 I-0.3768 J0.
X-73.0291 I0.4268 J0.
X-73.9827 I-0.4768 J0.
X-73.0191 I0.4818 J0.
X-73.9927 I-0.4868 J0.
X-73.0191 I0.4868 J0.
X-73.0202 Y7.5056 Z-0.2064 I-0.015 J0.
X-73.0227 Y7.5098 Z-0.2031 I-0.0139 J-0.0056
X-73.0251 Y7.512 Z-0.1982 I-0.0114 J-0.0098
X-73.026 Y7.5126 Z-0.1925 I-0.009 J-0.012
G0 Z0.4
X-71.6061 Y7.3766
Z0.2
G1 Z0.1145 F13.333
G3 X-71.6053 Y7.3778 Z0.1082 I-0.0367 J0.026 F55.
X-71.6033 Y7.3812 Z0.103 I-0.0375 J0.0249
X-71.6009 Y7.3864 Z0.1 I-0.0395 J0.0215
X-71.6848 Y7.4189 Z0.0621 I-0.042 J0.0163
X-71.6009 Y7.3864 Z0.0242 I0.042 J-0.0163
X-71.6848 Y7.4189 Z-0.0136 I-0.042 J0.0163
X-71.6009 Y7.3864 Z-0.0515 I0.042 J-0.0163
X-71.6848 Y7.4189 Z-0.0894 I-0.042 J0.0163
X-71.6009 Y7.3864 Z-0.1273 I0.042 J-0.0163
X-71.6848 Y7.4189 Z-0.1652 I-0.042 J0.0163
X-71.6009 Y7.3864 Z-0.203 I0.042 J-0.0163
X-71.5978 Y7.4027 Z-0.2075 I-0.042 J0.0163
X-71.6065 I-0.0043 J0. F60.
X-71.5978 I0.0043 J0.
G2 X-71.5741 Y7.4517 I0.0625 J0.
G3 X-71.5886 Y7.5041 I-0.0184 J0.0232
X-71.7047 Y7.4027 I-0.0135 J-0.1016
X-71.4996 I0.1025 J0.0002
X-71.5886 Y7.5041 I-0.1025 J-0.0002
G2 X-71.5952 Y7.5098 I0.0011 J0.008
G3 X-71.6022 Y7.515 I-0.007 J-0.0021
G1 X-71.6023
G3 X-71.7147 Y7.4027 I0.0001 J-0.1125
X-71.4896 I0.1125 J0.0002
X-71.6022 Y7.515 I-0.1125 J-0.0002
X-71.6079 Y7.5139 Z-0.2064 I0. J-0.015
X-71.612 Y7.5114 Z-0.2031 I0.0056 J-0.0139
X-71.6142 Y7.5091 Z-0.1982 I0.0098 J-0.0114
X-71.6149 Y7.5081 Z-0.1925 I0.012 J-0.009
G0 Z0.4
X-71.4285 Y6.3903
Z0.2
G1 Z0.1145 F13.333
G3 X-71.4278 Y6.3915 Z0.1082 I-0.0367 J0.026 F55.
X-71.4257 Y6.3949 Z0.103 I-0.0375 J0.0249
X-71.4233 Y6.4001 Z0.1 I-0.0395 J0.0215
X-71.4203 Y6.4163 Z0.0955 I-0.042 J0.0163
X-71.5103 Z0.0577 I-0.045 J0.
X-71.4203 Z0.0198 I0.045 J0.
X-71.5103 Z-0.0181 I-0.045 J0.
X-71.4203 Z-0.056 I0.045 J0.
X-71.5103 Z-0.0939 I-0.045 J0.
X-71.4203 Z-0.1317 I0.045 J0.
X-71.5103 Z-0.1696 I-0.045 J0.
X-71.4203 Z-0.2075 I0.045 J0.
X-71.4549 I-0.0173 J0. F60.
X-71.3203 I0.0673 J0.
X-71.5549 I-0.1173 J0.
X-71.2203 I0.1673 J0.
X-71.6549 I-0.2173 J0.
X-71.2203 I0.2173 J0.
G2 X-71.1797 Y6.4836 I0.076 J0.
G3 X-71.1559 Y6.5583 I-0.0262 J0.0495
X-71.7531 Y6.4163 I-0.2817 J-0.1422
X-71.1221 I0.3155 J0.0002
X-71.1559 Y6.5583 I-0.3155 J-0.0002
G2 X-71.1549 Y6.5672 I0.0072 J0.0036
G3 X-71.154 Y6.5761 I-0.006 J0.005
X-71.7631 Y6.4163 I-0.2836 J-0.1599
X-71.1121 I0.3255 J0.0002
X-71.154 Y6.5761 I-0.3255 J-0.0002
X-71.1577 Y6.5804 Z-0.2064 I-0.0131 J-0.0074
X-71.162 Y6.5828 Z-0.2031 I-0.0094 J-0.0117
X-71.1651 Y6.5836 Z-0.1982 I-0.0051 J-0.0141
X-71.1663 Y6.5837 Z-0.1925 I-0.002 J-0.0149
G0 Z0.4
X-69.6846 Y6.3231
Z0.2
G1 Z0.1145 F13.333
G3 X-69.6854 Y6.3219 Z0.1082 I0.0367 J-0.026 F55.
X-69.6874 Y6.3185 Z0.103 I0.0375 J-0.0249
X-69.6899 Y6.3133 Z0.1 I0.0395 J-0.0215
X-69.6059 Y6.2808 Z0.0621 I0.042 J-0.0163
X-69.6899 Y6.3133 Z0.0242 I-0.042 J0.0163
X-69.6059 Y6.2808 Z-0.0136 I0.042 J-0.0163
X-69.6899 Y6.3133 Z-0.0515 I-0.042 J0.0163
X-69.6059 Y6.2808 Z-0.0894 I0.042 J-0.0163
X-69.6899 Y6.3133 Z-0.1273 I-0.042 J0.0163
X-69.6059 Y6.2808 Z-0.1652 I0.042 J-0.0163
X-69.6899 Y6.3133 Z-0.203 I-0.042 J0.0163
X-69.6929 Y6.297 Z-0.2075 I0.042 J-0.0163
X-69.6394 I0.0268 J0. F60.
X-69.7929 I-0.0768 J0.
X-69.5394 I0.1268 J0.
X-69.8929 I-0.1768 J0.
X-69.4394 I0.2268 J0.
X-69.9929 I-0.2768 J0.
X-69.3394 I0.3268 J0.
X-70.0929 I-0.3768 J0.
X-69.2394 I0.4268 J0.
X-70.1929 I-0.4768 J0.
X-69.2294 I0.4818 J0.
X-70.2029 I-0.4868 J0.
X-69.2294 I0.4868 J0.
X-69.2305 Y6.3027 Z-0.2064 I-0.015 J0.
X-69.233 Y6.3068 Z-0.2031 I-0.0139 J-0.0056
X-69.2353 Y6.309 Z-0.1982 I-0.0114 J-0.0098
X-69.2363 Y6.3097 Z-0.1925 I-0.009 J-0.012
G0 Z0.4
X-69.3615 Y4.655
Z0.2
G1 Z0.1145 F13.333
G3 X-69.3607 Y4.6561 Z0.1082 I-0.0367 J0.026 F55.
X-69.3586 Y4.6595 Z0.103 I-0.0375 J0.0249
X-69.3562 Y4.6647 Z0.1 I-0.0395 J0.0215
X-69.3532 Y4.681 Z0.0955 I-0.042 J0.0163
X-69.4432 Z0.0577 I-0.045 J0.
X-69.3532 Z0.0198 I0.045 J0.
X-69.4432 Z-0.0181 I-0.045 J0.
X-69.3532 Z-0.056 I0.045 J0.
X-69.4432 Z-0.0939 I-0.045 J0.
X-69.3532 Z-0.1317 I0.045 J0.
X-69.4432 Z-0.1696 I-0.045 J0.
X-69.3532 Z-0.2075 I0.045 J0.
X-69.3838 I-0.0153 J0. F60.
X-69.2532 I0.0653 J0.
X-69.4838 I-0.1153 J0.
X-69.1532 I0.1653 J0.
X-69.5838 I-0.2153 J0.
X-69.0532 I0.2653 J0.
X-69.6838 I-0.3153 J0.
X-69.0432 I0.3203 J0.
X-69.6938 I-0.3253 J0.
X-69.0432 I0.3253 J0.
X-69.0442 Y4.6866 Z-0.2064 I-0.015 J0.
X-69.0468 Y4.6907 Z-0.2031 I-0.0139 J-0.0056
X-69.0491 Y4.693 Z-0.1982 I-0.0114 J-0.0098
X-69.0501 Y4.6936 Z-0.1925 I-0.009 J-0.012
G0 Z0.4
X-70.4514 Y8.0655
Z0.2
G1 Z0.1145 F13.333
G3 X-70.4522 Y8.0643 Z0.1082 I0.0367 J-0.026 F55.
X-70.4542 Y8.0609 Z0.103 I0.0375 J-0.0249
X-70.4566 Y8.0557 Z0.1 I0.0395 J-0.0215
X-70.4597 Y8.0394 Z0.0955 I0.042 J-0.0163
X-70.3697 Z0.0577 I0.045 J0.
X-70.4597 Z0.0198 I-0.045 J0.
X-70.3697 Z-0.0181 I0.045 J0.
X-70.4597 Z-0.056 I-0.045 J0.
X-70.3697 Z-0.0939 I0.045 J0.
X-70.4597 Z-0.1317 I-0.045 J0.
X-70.3697 Z-0.1696 I0.045 J0.
X-70.4597 Z-0.2075 I-0.045 J0.
X-70.4029 I0.0284 J0. F60.
X-70.5597 I-0.0784 J0.
X-70.3029 I0.1284 J0.
X-70.6597 I-0.1784 J0.
X-70.2029 I0.2284 J0.
X-70.7597 I-0.2784 J0.
X-70.1029 I0.3284 J0.
X-70.8597 I-0.3784 J0.
X-70.1029 I0.3784 J0.
G2 X-70.0595 Y8.109 I0.0774 J0.
G3 X-70.0274 Y8.1844 I-0.0276 J0.0563
X-70.9579 Y8.0394 I-0.4539 J-0.1451
X-70.0047 I0.4766 J0.0002
X-70.0274 Y8.1844 I-0.4766 J-0.0002
G2 X-70.0249 Y8.193 I0.0077 J0.0025
G3 X-70.0226 Y8.2017 I-0.0052 J0.006
X-70.9679 Y8.0394 I-0.4587 J-0.1624
X-69.9947 I0.4866 J0.0002
X-70.0226 Y8.2017 I-0.4866 J-0.0002
X-70.0255 Y8.2066 Z-0.2064 I-0.0141 J-0.005
X-70.0293 Y8.2097 Z-0.2031 I-0.0113 J-0.0099
X-70.0323 Y8.211 Z-0.1982 I-0.0075 J-0.013
X-70.0334 Y8.2113 Z-0.1925 I-0.0045 J-0.0143
G0 Z0.4
X-69.5559 Y9.9691
Z0.2
G1 Z0.1145 F13.333
G3 X-69.5567 Y9.9679 Z0.1082 I0.0367 J-0.026 F55.
X-69.5587 Y9.9646 Z0.103 I0.0375 J-0.0249
X-69.5611 Y9.9593 Z0.1 I0.0395 J-0.0215
X-69.4772 Y9.9268 Z0.0621 I0.042 J-0.0163
X-69.5611 Y9.9593 Z0.0242 I-0.042 J0.0163
X-69.4772 Y9.9268 Z-0.0136 I0.042 J-0.0163
X-69.5611 Y9.9593 Z-0.0515 I-0.042 J0.0163
X-69.4772 Y9.9268 Z-0.0894 I0.042 J-0.0163
X-69.5611 Y9.9593 Z-0.1273 I-0.042 J0.0163
X-69.4772 Y9.9268 Z-0.1652 I0.042 J-0.0163
X-69.5611 Y9.9593 Z-0.203 I-0.042 J0.0163
X-69.5642 Y9.9431 Z-0.2075 I0.042 J-0.0163
X-69.5106 I0.0268 J0. F60.
X-69.6642 I-0.0768 J0.
X-69.4106 I0.1268 J0.
X-69.7642 I-0.1768 J0.
X-69.3106 I0.2268 J0.
X-69.8642 I-0.2768 J0.
X-69.2106 I0.3268 J0.
X-69.9642 I-0.3768 J0.
X-69.1106 I0.4268 J0.
X-70.0642 I-0.4768 J0.
X-69.1006 I0.4818 J0.
X-70.0742 I-0.4868 J0.
X-69.1006 I0.4868 J0.
X-69.1017 Y9.9487 Z-0.2064 I-0.015 J0.
X-69.1042 Y9.9528 Z-0.2031 I-0.0139 J-0.0056
X-69.1066 Y9.955 Z-0.1982 I-0.0114 J-0.0098
X-69.1075 Y9.9557 Z-0.1925 I-0.009 J-0.012
G0 Z0.4
X-69.4376 Y14.4428
Z0.2
G1 Z0.1145 F13.333
G3 X-69.4368 Y14.4439 Z0.1082 I-0.0367 J0.026 F55.
X-69.4348 Y14.4473 Z0.103 I-0.0375 J0.0249
X-69.4323 Y14.4526 Z0.1 I-0.0395 J0.0215
X-69.5163 Y14.4851 Z0.0621 I-0.042 J0.0163
X-69.4323 Y14.4526 Z0.0242 I0.042 J-0.0163
X-69.5163 Y14.4851 Z-0.0136 I-0.042 J0.0163
X-69.4323 Y14.4526 Z-0.0515 I0.042 J-0.0163
X-69.5163 Y14.4851 Z-0.0894 I-0.042 J0.0163
X-69.4324 Y14.4526 Z-0.1273 I0.042 J-0.0163
X-69.5163 Y14.4851 Z-0.1652 I-0.042 J0.0163
X-69.4324 Y14.4526 Z-0.203 I0.042 J-0.0163
X-69.4293 Y14.4688 Z-0.2075 I-0.042 J0.0163
X-69.438 I-0.0043 J0. F60.
X-69.4293 I0.0043 J0.
G2 X-69.4056 Y14.5178 I0.0626 J0.
G3 X-69.4201 Y14.5703 I-0.0184 J0.0232
X-69.5362 Y14.4688 I-0.0136 J-0.1016
X-69.3311 I0.1025 J0.0002
X-69.4201 Y14.5703 I-0.1025 J-0.0002
G2 X-69.4267 Y14.5759 I0.0011 J0.008
G3 X-69.4337 Y14.5812 I-0.007 J-0.0021
X-69.5462 Y14.4688 I0.0001 J-0.1125
X-69.3211 I0.1125 J0.0002
X-69.4337 Y14.5812 I-0.1125 J-0.0002
X-69.4394 Y14.5801 Z-0.2064 I0. J-0.015
X-69.4435 Y14.5776 Z-0.2031 I0.0056 J-0.0139
X-69.4457 Y14.5752 Z-0.1982 I0.0098 J-0.0114
X-69.4464 Y14.5743 Z-0.1925 I0.012 J-0.009
G0 Z0.4
X-73.4508 Y14.9407
Z0.2
G1 Z0.1145 F13.333
G3 X-73.45 Y14.9418 Z0.1082 I-0.0367 J0.026 F55.
X-73.448 Y14.9452 Z0.103 I-0.0375 J0.0249
X-73.4456 Y14.9504 Z0.1 I-0.0395 J0.0215
X-73.5295 Y14.9829 Z0.0621 I-0.042 J0.0163
X-73.4456 Y14.9504 Z0.0242 I0.042 J-0.0163
X-73.5295 Y14.9829 Z-0.0136 I-0.042 J0.0163
X-73.4456 Y14.9504 Z-0.0515 I0.042 J-0.0163
X-73.5295 Y14.9829 Z-0.0894 I-0.042 J0.0163
X-73.4456 Y14.9504 Z-0.1273 I0.042 J-0.0163
X-73.5295 Y14.9829 Z-0.1652 I-0.042 J0.0163
X-73.4456 Y14.9504 Z-0.203 I0.042 J-0.0163
X-73.4425 Y14.9667 Z-0.2075 I-0.042 J0.0163
X-73.4472 I-0.0024 J0. F60.
X-73.3425 I0.0524 J0.
X-73.5472 I-0.1024 J0.
X-73.3325 I0.1073 J0.
X-73.5572 I-0.1124 J0.
X-73.3325 I0.1124 J0.
X-73.3336 Y14.9723 Z-0.2064 I-0.015 J0.
X-73.3361 Y14.9764 Z-0.2031 I-0.0139 J-0.0056
X-73.3385 Y14.9787 Z-0.1982 I-0.0114 J-0.0098
X-73.3394 Y14.9793 Z-0.1925 I-0.009 J-0.012
G0 Z0.6
(SHAPE THROUGH HOLE)
M7
G0 X-75.767 Y8.733
Z0.6
Z0.1
G3 X-75.8882 Y8.6579 Z0.0605 I-0.0606 J-0.0375 F13.333
X-75.767 Y8.733 Z0.021 I0.0606 J0.0375
X-75.8882 Z-0.0045 I-0.0606 J-0.0375
X-75.8594 Y8.6316 Z-0.0255 I0.0606 J-0.0375
X-75.7611 Y8.6697 Z-0.0464 I0.0318 J0.0638
X-75.8081 Y8.764 Z-0.0673 I-0.0665 J0.0258
X-75.8977 Y8.7085 Z-0.0882 I-0.0195 J-0.0686
X-75.8342 Y8.6245 Z-0.1091 I0.0701 J-0.0131
X-75.7563 Y8.6954 Z-0.13 I0.0066 J0.071
X-75.8989 I-0.0713 J0.
X-75.7563 I0.0713 J0.
X-75.9047 Y8.8213 I-0.0778 J0.0587 F60.
G1 X-75.913 Y8.8163
X-75.9209 Y8.8108
X-75.9285 Y8.8048
X-75.9358 Y8.7983
X-75.9425 Y8.7914
X-75.9489 Y8.7841
X-75.9548 Y8.7764
X-75.9601 Y8.7683
X-75.965 Y8.7599
X-75.9693 Y8.7512
X-75.973 Y8.7423
X-75.9762 Y8.7331
X-75.9788 Y8.7238
X-75.9808 Y8.7143
X-75.9822 Y8.7047
X-75.983 Y8.6951
X-75.9832 Y8.6854
X-75.9828 Y8.6757
X-75.9817 Y8.6661
X-75.9801 Y8.6565
X-75.9779 Y8.6471
X-75.975 Y8.6378
X-75.9716 Y8.6287
X-75.9676 Y8.6199
X-75.9631 Y8.6113
X-75.9581 Y8.6031
X-75.9525 Y8.5951
X-75.9464 Y8.5876
X-75.9399 Y8.5804
X-75.9329 Y8.5737
X-75.9256 Y8.5674
X-75.9178 Y8.5616
X-75.9097 Y8.5563
X-75.9013 Y8.5515
X-75.8926 Y8.5472
X-75.8836 Y8.5435
X-75.8744 Y8.5404
X-75.8651 Y8.5379
X-75.8556 Y8.536
X-75.846 Y8.5346
X-75.8363 Y8.5339
X-75.8266 Y8.5338
X-75.817 Y8.5343
X-75.8073 Y8.5354
X-75.7978 Y8.5371
X-75.7884 Y8.5394
X-75.7792 Y8.5423
X-75.7701 Y8.5458
X-75.7613 Y8.5498
X-75.7528 Y8.5544
X-75.7445 Y8.5595
X-75.7367 Y8.5651
X-75.7291 Y8.5712
X-75.722 Y8.5778
X-75.7153 Y8.5848
X-75.7091 Y8.5922
X-75.7033 Y8.6
X-75.6981 Y8.6082
X-75.6934 Y8.6166
X-75.6892 Y8.6254
X-75.6855 Y8.6343
X-75.6825 Y8.6435
X-75.6765 Y8.6525
X-75.671 Y8.6618
X-75.666 Y8.6714
X-75.6616 Y8.6813
X-75.6577 Y8.6914
X-75.6545 Y8.7018
X-75.6518 Y8.7122
X-75.6497 Y8.7229
X-75.6483 Y8.7336
X-75.6474 Y8.7444
X-75.6472 Y8.7552
X-75.6475 Y8.766
X-75.6485 Y8.7768
X-75.6501 Y8.7875
X-75.6523 Y8.7981
X-75.6551 Y8.8085
X-75.6585 Y8.8188
X-75.6625 Y8.8288
X-75.6671 Y8.8387
X-75.6721 Y8.8482
X-75.6778 Y8.8575
X-75.6839 Y8.8664
X-75.6905 Y8.8749
X-75.6976 Y8.8831
X-75.7052 Y8.8908
X-75.7132 Y8.8981
X-75.7216 Y8.9049
X-75.7303 Y8.9113
X-75.7395 Y8.9171
X-75.7489 Y8.9224
X-75.7586 Y8.9272
X-75.7686 Y8.9314
X-75.7788 Y8.935
X-75.7891 Y8.9381
X-75.7997 Y8.9405
X-75.8103 Y8.9424
X-75.8211 Y8.9436
X-75.8319 Y8.9442
X-75.8427
X-75.8535 Y8.9436
X-75.8642 Y8.9424
X-75.8749 Y8.9406
X-75.8854 Y8.9382
X-75.8958 Y8.9351
X-75.906 Y8.9315
X-75.916 Y8.9273
X-75.9257 Y8.9226
X-75.9352 Y8.9173
X-75.9443 Y8.9115
X-75.9531 Y8.9052
X-75.9615 Y8.8984
X-75.9695 Y8.8911
X-75.977 Y8.8834
G3 X-76.0754 Y8.649 I0.1173 J-0.187
G1 X-76.0644 Y8.6146
X-76.0605 Y8.6032
X-76.0552 Y8.5915
X-76.0493 Y8.5802
X-76.0428 Y8.5692
X-76.0358 Y8.5584
X-76.0284 Y8.5481
X-76.0204 Y8.5381
X-76.0119 Y8.5285
X-76.003 Y8.5194
X-75.9936 Y8.5107
X-75.9838 Y8.5025
X-75.9736 Y8.4947
X-75.9631 Y8.4875
X-75.9522 Y8.4808
X-75.941 Y8.4746
X-75.9295 Y8.469
X-75.9178 Y8.4639
X-75.9058 Y8.4595
X-75.8936 Y8.4556
X-75.8813 Y8.4523
X-75.8687 Y8.4497
X-75.8561 Y8.4476
X-75.8434 Y8.4462
X-75.8307 Y8.4454
X-75.8179 Y8.4452
X-75.8051 Y8.4456
X-75.7924 Y8.4467
X-75.7797 Y8.4484
X-75.7671 Y8.4507
X-75.7547 Y8.4536
X-75.7424 Y8.4572
X-75.7303 Y8.4613
X-75.7184 Y8.466
X-75.7068 Y8.4713
X-75.6954 Y8.4772
X-75.6843 Y8.4836
X-75.6736 Y8.4905
X-75.6632 Y8.498
X-75.6532 Y8.5059
X-75.6436 Y8.5143
X-75.6344 Y8.5232
X-75.6257 Y8.5326
X-75.6174 Y8.5423
X-75.6096 Y8.5525
X-75.6023 Y8.563
X-75.5956 Y8.5738
X-75.5894 Y8.585
X-75.5837 Y8.5965
X-75.5786 Y8.6082
X-75.5741 Y8.6202
X-75.5702 Y8.6323
X-75.5668 Y8.6447
X-75.5641 Y8.6572
X-75.562 Y8.6698
X-75.5606 Y8.6825
X-75.6418 Y8.9164
X-75.6492 Y8.9269
X-75.6571 Y8.9369
X-75.6655 Y8.9466
X-75.6743 Y8.9559
X-75.6836 Y8.9647
X-75.6932 Y8.9731
X-75.7033 Y8.981
X-75.7137 Y8.9885
X-75.7245 Y8.9954
X-75.7355 Y9.0018
X-75.7469 Y9.0077
X-75.7585 Y9.0131
X-75.7704 Y9.0178
X-75.7825 Y9.0221
X-75.7947 Y9.0257
X-75.8071 Y9.0288
X-75.8197 Y9.0312
X-75.8324 Y9.0331
X-75.8451 Y9.0344
X-75.8579 Y9.035
X-75.8707 Y9.0351
X-75.8835 Y9.0345
X-75.8962 Y9.0334
X-75.9089 Y9.0316
X-75.9214 Y9.0292
X-75.9339 Y9.0263
X-75.9462 Y9.0228
X-75.9583 Y9.0186
X-75.9702 Y9.014
X-75.9819 Y9.0087
X-75.9933 Y9.0029
X-76.0044 Y8.9966
X-76.0152 Y8.9898
X-76.0257 Y8.9824
X-76.0358 Y8.9746
X-76.0455 Y8.9663
X-76.0549 Y8.9575
X-76.0638 Y8.9483
X-76.0722 Y8.9387
X-76.0802 Y8.9287
X-76.0877 Y8.9184
X-76.0947 Y8.9077
X-76.1012 Y8.8966
X-76.1072 Y8.8853
X-76.1155 Y8.8872
X-76.116 Y8.8852
Y8.8831
G3 X-76.0754 Y8.649 I1.0129 J0.0554
X-76.0468 Y8.658 I0.0143 J0.0045
X-76.0673 Y8.6671 I-0.0143 J-0.0045
X-76.0738 Y8.6456 I0.0062 J-0.0136
G1 X-76.06 Y8.6231
G3 X-76.0344 Y8.6389 I0.0128 J0.0079
X-76.0619 Y8.6341 I-0.0128 J-0.0079
X-76.0605 Y8.6032 I0.061 J-0.0127
X-75.9446 Y8.409 I0.6398 J0.2502
G1 X-75.934 Y8.4016
X-75.9231 Y8.3947
X-75.9118 Y8.3883
X-75.9003 Y8.3825
X-75.8885 Y8.3772
X-75.8764 Y8.3725
X-75.8642 Y8.3684
X-75.8518 Y8.3648
X-75.8392 Y8.3618
X-75.8265 Y8.3595
X-75.8137 Y8.3577
X-75.8008 Y8.3565
X-75.7879 Y8.356
X-75.775
X-75.762 Y8.3567
X-75.7492 Y8.3579
X-75.7364 Y8.3598
X-75.7237 Y8.3623
X-75.7111 Y8.3653
X-75.6987 Y8.369
X-75.6865 Y8.3732
X-75.6745 Y8.378
X-75.6628 Y8.3834
X-75.6513 Y8.3893
X-75.6401 Y8.3958
X-75.6292 Y8.4027
X-75.6186 Y8.4102
X-75.6085 Y8.4182
X-75.5987 Y8.4266
X-75.5893 Y8.4355
X-75.5803 Y8.4448
X-75.5718 Y8.4545
X-75.5638 Y8.4647
X-75.5562 Y8.4751
X-75.5492 Y8.486
X-75.5426 Y8.4971
X-75.5366 Y8.5086
X-75.5312 Y8.5203
X-75.5263 Y8.5323
X-75.509 Y8.5427
X-75.5081 Y8.5449
X-75.5079 Y8.5474
X-75.5084 Y8.5498
X-75.5565 Y8.6821
G3 X-75.5683 Y8.6913 I-0.0139 J-0.0056
X-75.6141 Y8.6342 I-0.006 J-0.0421
X-75.5202 Y8.559 I0.1105 J0.0418
G2 X-75.5084 Y8.5498 I-0.0021 J-0.0149
G1 X-75.4935 Y8.509
G2 X-75.758 Y8.2686 I-0.2401 J-0.0015
G1 X-75.7609 Y8.2649
X-75.7642 Y8.2616
X-75.7679 Y8.2588
X-75.7719 Y8.2564
X-75.7761 Y8.2545
X-75.7806 Y8.2531
X-75.7852 Y8.2523
X-75.7898 Y8.2521
X-75.7945 Y8.2524
X-75.799 Y8.2533
X-75.8035 Y8.2548
X-75.8077 Y8.2567
X-75.8116 Y8.2592
X-75.9227 Y8.3824
X-75.942 Y8.4057
X-75.9446 Y8.409
G2 X-75.9463 Y8.4239 I0.0121 J0.0089
X-75.9352 Y8.4319 I0.0123 J-0.0053
X-75.8143 Y8.2739 I0.0099 J-0.1177
G3 X-75.8117 Y8.2592 I0.0141 J-0.0051
G1 X-75.7763 Y8.2199
G3 X-75.4431 Y8.3446 I0.1055 J0.2255
G1 X-75.4353 Y8.3441
X-75.4349 Y8.3467
X-75.4354 Y8.3494
X-75.4935 Y8.509
G3 X-75.5053 Y8.5182 I-0.0139 J-0.0056
X-75.5486 Y8.483 I-0.0053 J-0.0376
X-75.4473 Y8.3586 I0.1179 J-0.0074
G2 X-75.4354 Y8.3494 I-0.0021 J-0.0149
G1 X-75.4221 Y8.3128
G2 X-75.6604 Y8.1023 I-0.2156 J0.004
G1 X-75.6635 Y8.0968
X-75.6658 Y8.0978
X-75.6676 Y8.0994
X-75.7763 Y8.2199
G2 X-75.7789 Y8.2347 I0.0115 J0.0097
X-75.7202 Y8.2554 I0.0379 J-0.0137
X-75.6703 Y8.1141 I-0.0612 J-0.101
G3 X-75.6676 Y8.0994 I0.0141 J-0.0051
G1 X-75.6433 Y8.0723
G3 X-75.3675 Y8.1626 I0.0944 J0.1778
G1 X-75.4221 Y8.3128
G3 X-75.4339 Y8.322 I-0.0139 J-0.0056
X-75.4803 Y8.2778 I-0.0057 J-0.0404
X-75.3793 Y8.1719 I0.1176 J0.0111
G2 X-75.3675 Y8.1626 I-0.0021 J-0.0149
G1 X-75.3545 Y8.127
X-75.3544 Y8.1169
X-75.3549 Y8.1068
X-75.356 Y8.0967
X-75.3577 Y8.0867
X-75.36 Y8.0768
X-75.3629 Y8.0671
X-75.3664 Y8.0576
X-75.3704 Y8.0483
X-75.375 Y8.0393
X-75.3802 Y8.0305
X-75.3858 Y8.0221
X-75.392 Y8.0141
X-75.3986 Y8.0064
X-75.4057 Y7.9992
X-75.4132 Y7.9924
X-75.4212 Y7.986
X-75.4294 Y7.9802
X-75.4381 Y7.9749
X-75.447 Y7.9701
X-75.4562 Y7.9658
X-75.4656 Y7.9621
X-75.4753 Y7.959
X-75.4851 Y7.9565
X-75.4951 Y7.9546
X-75.5051 Y7.9533
X-75.5152 Y7.9526
X-75.5254 Y7.9525
X-75.5355 Y7.953
X-75.6433 Y8.0723
G2 X-75.6459 Y8.0871 I0.0115 J0.0097
X-75.586 Y8.1075 I0.0381 J-0.0138
X-75.5381 Y7.9675 I-0.0631 J-0.0998
G3 X-75.5355 Y7.9527 I0.0141 J-0.0051
G1 X-75.509 Y7.9233
G3 X-75.3028 Y7.985 I0.0731 J0.1309
G1 X-75.3545 Y8.127
G3 X-75.3663 Y8.1363 I-0.0139 J-0.0056
X-75.4133 Y8.0854 I-0.0059 J-0.0417
X-75.3147 Y7.9943 I0.1152 J0.0259
G2 X-75.3028 Y7.985 I-0.0021 J-0.0149
G1 X-75.2907 Y7.9517
G2 X-75.2938 Y7.9045 I-0.0642 J-0.0196
G1 X-75.3012 Y7.8949
X-75.318 Y7.8716
G2 X-75.4151 Y7.8191 I-0.0856 J0.0423
G1 X-75.509 Y7.9233
G2 X-75.493 Y7.9473 I0.0115 J0.0097
G1 X-75.3288 Y7.8952
X-75.3259 Y7.8943
G2 X-75.318 Y7.8716 I-0.0045 J-0.0143
G3 X-75.3518 Y7.7981 I0.4208 J-0.2382
G1 X-75.3537 Y7.7924
X-75.3578 Y7.7846
X-75.363 Y7.7774
X-75.3643 Y7.7761
X-75.3682 Y7.7738
X-75.3727 Y7.7739
X-75.3765 Y7.7763
X-75.4151 Y7.8191
G2 X-75.3948 Y7.8409 I0.0115 J0.0097
G1 X-75.3683 Y7.8216
X-75.3575 Y7.8137
G2 X-75.3518 Y7.7981 I-0.0088 J-0.0121
G1 X-75.3608 Y7.7656
X-75.3621 Y7.764
X-75.3641 Y7.7635
X-75.3659 Y7.7645
X-75.3765 Y7.7763
G2 X-75.3755 Y7.7837 I0.0039 J0.0033
X-75.3682 Y7.782 I0.0029 J-0.0042
G1 X-75.3612 Y7.7692
X-75.3607 Y7.7675
X-75.3608 Y7.7656
X-75.3618 Y7.7617
X-75.3622 Y7.7605
X-75.3623 Y7.7604
G2 X-75.3647 Y7.7757 I0.0115 J0.0097
G1 X-75.3596 Y7.7895
X-75.3269 Y7.8774
G2 X-75.3186 Y7.886 I0.0141 J-0.0052
G3 X-75.2939 Y7.9046 I-0.0239 J0.0575
X-75.2907 Y7.9517 I-0.0153 J0.0247
X-75.3162 Y7.9558 I-0.0139 J-0.0056
G1 X-75.318 Y7.9535 Z-0.1297
X-75.3198 Y7.9514 Z-0.1289
X-75.3215 Y7.9494 Z-0.1275
X-75.323 Y7.9476 Z-0.1256
X-75.3242 Y7.9462 Z-0.1233
X-75.3251 Y7.9451 Z-0.1207
X-75.3256 Y7.9445 Z-0.1179
X-75.3258 Y7.9443 Z-0.115
G0 Z-0.1
X-75.6426 Y8.8708
G1 Z-0.115 F60.
Y8.8711 Z-0.1179
X-75.6424 Y8.872 Z-0.1207
X-75.6422 Y8.8733 Z-0.1233
X-75.6418 Y8.8752 Z-0.1256
X-75.6414 Y8.8774 Z-0.1275
X-75.6409 Y8.8799 Z-0.1289
X-75.6404 Y8.8827 Z-0.1297
X-75.6398 Y8.8856 Z-0.13
G3 X-75.6418 Y8.9164 I-0.0612 J0.0116
G1 X-75.684 Y9.0325
X-75.6917 Y9.0422
X-75.6998 Y9.0515
X-75.7083 Y9.0604
X-75.7173 Y9.0689
X-75.7267 Y9.0768
X-75.7365 Y9.0844
X-75.7467 Y9.0914
X-75.7572 Y9.0979
X-75.768 Y9.1038
X-75.7791 Y9.1092
X-75.7904 Y9.1141
X-75.802 Y9.1184
X-75.8138 Y9.1221
X-75.8257 Y9.1252
X-75.8378 Y9.1277
X-75.85 Y9.1296
X-75.8622 Y9.1309
X-75.8746 Y9.1315
X-75.8869 Y9.1316
X-75.8992 Y9.1311
X-75.9115 Y9.1299
X-75.9237 Y9.1281
X-75.9358 Y9.1257
X-75.9478 Y9.1227
X-75.9596 Y9.1191
X-75.9712 Y9.115
X-75.9826 Y9.1102
X-75.9937 Y9.1049
X-76.0046 Y9.0991
X-76.0152 Y9.0927
X-76.0254 Y9.0858
X-76.0353 Y9.0784
X-76.0447 Y9.0705
X-76.0538 Y9.0621
G3 X-76.1316 Y9.0109 I-0.007 J-0.0741
G1 X-76.116 Y8.8831
G3 X-76.1066 Y8.8714 I0.0148 J0.0023
X-76.1012 Y8.8704 I0.0054 J0.014
G1 X-76.098 Y8.8708
X-76.095 Y8.8718
X-76.0922 Y8.8735
G3 X-76.0896 Y8.876 I-0.009 J0.012
X-76.1222 Y8.9992 I-0.061 J0.0498
G2 X-76.1316 Y9.0109 I0.0054 J0.014
G1 X-76.1371 Y9.0558
G2 X-75.8219 Y9.2126 I0.2361 J-0.0793
X-75.7451 Y9.2004 I0.0309 J-0.0534
G1 X-75.684 Y9.0325
G2 X-75.6871 Y9.0179 I-0.0143 J-0.0046
X-75.7333 Y9.0139 I-0.0252 J0.0227
X-75.7482 Y9.1857 I0.0729 J0.0929
G3 X-75.7451 Y9.2004 I-0.0112 J0.01
G1 X-75.7592 Y9.239
G3 X-76.1067 Y9.2435 I-0.1759 J-0.1597
X-76.1561 Y9.2117 I-0.0112 J-0.0368
G1 X-76.1371 Y9.0558
G3 X-76.1277 Y9.0441 I0.0148 J0.0023
X-76.0716 Y9.0788 I0.0149 J0.0386
X-76.1467 Y9.2 I-0.1176 J0.0111
G2 X-76.1561 Y9.2117 I0.0054 J0.014
G1 X-76.1613 Y9.2543
G2 X-75.8505 Y9.3958 I0.2225 J-0.0764
G1 X-75.8477 Y9.3983
X-75.8445 Y9.4003
X-75.8411 Y9.4018
X-75.8374 Y9.4026
X-75.8337 Y9.4029
X-75.83 Y9.4025
X-75.8263 Y9.4015
X-75.8229 Y9.4
X-75.8198 Y9.3978
X-75.8171 Y9.3953
X-75.8149 Y9.3923
X-75.7592 Y9.239
G2 X-75.7623 Y9.2244 I-0.0143 J-0.0046
X-75.8239 Y9.2268 I-0.0298 J0.0268
X-75.818 Y9.3776 I0.0937 J0.0719
G3 X-75.8149 Y9.3922 I-0.0112 J0.01
G1 X-75.8277 Y9.4272
G3 X-76.0141 Y9.49 I-0.1344 J-0.0909
X-76.0091 Y9.4648 I0.0101 J-0.0111
G1 X-75.8469 Y9.4084
X-75.8446 Y9.4078
G3 X-75.8277 Y9.4272 I0.0026 J0.0148
G1 X-75.8577 Y9.5097
G3 X-75.9192 Y9.5651 I-0.0651 J-0.0103
X-75.9221 Y9.5437 I0.0089 J-0.0121
G1 X-75.9178 Y9.5384
X-75.8837 Y9.4957
G3 X-75.8577 Y9.5097 I0.0117 J0.0094
G1 X-75.8846 Y9.5838
X-75.8858 Y9.5871
G2 X-76.1532 Y9.4069 I-0.772 J0.8573
G1 X-76.1547 Y9.4064
G3 X-76.1777 Y9.3884 I-0.0026 J-0.0203
X-76.1613 Y9.3758 I0.0148 J0.0023
G1 X-76.1532 Y9.3766
X-76.1489 Y9.3771
G3 X-76.1357 Y9.3949 I-0.0015 J0.0149
X-76.1547 Y9.4064 I-0.0147 J-0.0029
G1 X-76.1764 Y9.3991
X-76.1782 Y9.3983
X-76.1788 Y9.398
X-76.1613 Y9.2543
G3 X-76.1517 Y9.2425 I0.0148 J0.0023
G1 X-76.149 Y9.2421 Z-0.1298
X-76.1465 Y9.2416 Z-0.129
X-76.144 Y9.2422 Z-0.1277
X-76.1417 Y9.2427 Z-0.126
X-76.1399 Y9.2431 Z-0.1238
X-76.1388 Y9.2438 Z-0.1218
X-76.1381 Y9.2442 Z-0.1196
X-76.1376 Y9.2445 Z-0.1173
X-76.1375 Y9.2446 Z-0.115
G0 Z0.4
X-75.2729 Y11.0348
Z0.1
G3 X-75.3765 Y11.0542 Z0.0791 I-0.0606 J-0.0375 F13.333
X-75.3862 Y10.9492 Z0.0582 I0.043 J-0.0569
X-75.2808 Z0.0373 I0.0527 J0.048
X-75.2905 Y11.0542 Z0.0164 I-0.0527 J0.048
X-75.3941 Y11.0348 Z-0.0045 I-0.043 J-0.0569
X-75.3653 Y10.9334 Z-0.0255 I0.0606 J-0.0375
X-75.267 Y10.9715 Z-0.0464 I0.0318 J0.0638
X-75.314 Y11.0658 Z-0.0673 I-0.0665 J0.0258
X-75.4036 Y11.0104 Z-0.0882 I-0.0195 J-0.0686
X-75.3401 Y10.9263 Z-0.1091 I0.0701 J-0.0131
X-75.2622 Y10.9973 Z-0.13 I0.0066 J0.071
X-75.4048 I-0.0713 J0.
X-75.2622 I0.0713 J0.
X-75.4106 Y11.1231 I-0.0778 J0.0587 F60.
G1 X-75.4189 Y11.1181
X-75.4268 Y11.1126
X-75.4344 Y11.1066
X-75.4417 Y11.1002
X-75.4484 Y11.0932
X-75.4548 Y11.0859
X-75.4607 Y11.0782
X-75.466 Y11.0701
X-75.4709 Y11.0617
X-75.4752 Y11.0531
X-75.4789 Y11.0441
X-75.4821 Y11.035
X-75.4847 Y11.0256
X-75.4867 Y11.0161
X-75.4881 Y11.0066
X-75.4889 Y10.9969
X-75.4891 Y10.9872
X-75.4887 Y10.9775
X-75.4876 Y10.9679
X-75.486 Y10.9583
X-75.4838 Y10.9489
X-75.4809 Y10.9396
X-75.4775 Y10.9306
X-75.4735 Y10.9217
X-75.469 Y10.9132
X-75.464 Y10.9049
X-75.4584 Y10.897
X-75.4523 Y10.8894
X-75.4458 Y10.8822
X-75.4388 Y10.8755
X-75.4315 Y10.8692
X-75.4237 Y10.8634
X-75.4156 Y10.8581
X-75.4072 Y10.8533
X-75.3985 Y10.8491
X-75.3895 Y10.8454
X-75.3803 Y10.8422
X-75.371 Y10.8397
X-75.3615 Y10.8378
X-75.3519 Y10.8364
X-75.3422 Y10.8357
X-75.3326 Y10.8356
X-75.3229 Y10.8361
X-75.3132 Y10.8372
X-75.3037 Y10.8389
X-75.2943 Y10.8412
X-75.2851 Y10.8441
X-75.276 Y10.8476
X-75.2672 Y10.8516
X-75.2587 Y10.8562
X-75.2504 Y10.8613
X-75.2426 Y10.8669
X-75.235 Y10.8731
X-75.2279 Y10.8796
X-75.2212 Y10.8866
X-75.215 Y10.8941
X-75.2092 Y10.9018
X-75.204 Y10.91
X-75.1993 Y10.9184
X-75.1951 Y10.9272
X-75.1914 Y10.9362
X-75.1884 Y10.9454
X-75.1824 Y10.9543
X-75.1769 Y10.9637
X-75.1719 Y10.9733
X-75.1675 Y10.9832
X-75.1636 Y10.9933
X-75.1604 Y11.0036
X-75.1577 Y11.0141
X-75.1556 Y11.0247
X-75.1542 Y11.0354
X-75.1533 Y11.0462
X-75.1531 Y11.057
X-75.1535 Y11.0678
X-75.1544 Y11.0786
X-75.156 Y11.0893
X-75.1582 Y11.0999
X-75.1611 Y11.1103
X-75.1644 Y11.1206
X-75.1684 Y11.1307
X-75.173 Y11.1405
X-75.178 Y11.15
X-75.1837 Y11.1593
X-75.1898 Y11.1682
X-75.1964 Y11.1767
X-75.2035 Y11.1849
X-75.2111 Y11.1926
X-75.2191 Y11.1999
X-75.2275 Y11.2068
X-75.2362 Y11.2131
X-75.2454 Y11.2189
X-75.2548 Y11.2242
X-75.2645 Y11.229
X-75.2745 Y11.2332
X-75.2847 Y11.2368
X-75.295 Y11.2399
X-75.3056 Y11.2423
X-75.3162 Y11.2442
X-75.327 Y11.2454
X-75.3378 Y11.246
X-75.3486 Y11.2461
X-75.3594 Y11.2454
X-75.3701 Y11.2442
X-75.3808 Y11.2424
X-75.3913 Y11.24
X-75.4017 Y11.237
X-75.4119 Y11.2333
X-75.4219 Y11.2292
X-75.4316 Y11.2244
X-75.4411 Y11.2191
X-75.4502 Y11.2133
X-75.459 Y11.207
X-75.4674 Y11.2002
X-75.4754 Y11.1929
X-75.4829 Y11.1852
X-75.4928 Y11.1782
X-75.5023 Y11.1706
X-75.5114 Y11.1626
X-75.52 Y11.1541
X-75.5282 Y11.1452
X-75.536 Y11.1359
X-75.5432 Y11.1262
X-75.55 Y11.1162
X-75.5562 Y11.1058
X-75.5619 Y11.0951
X-75.567 Y11.0841
X-75.5716 Y11.0729
X-75.5756 Y11.0614
X-75.5789 Y11.0498
X-75.5817 Y11.038
X-75.5839 Y11.0261
X-75.5855 Y11.0141
X-75.5864 Y11.002
X-75.5867 Y10.9899
X-75.5864 Y10.9778
X-75.5855 Y10.9657
X-75.584 Y10.9537
X-75.5818 Y10.9418
X-75.579 Y10.93
X-75.5757 Y10.9184
X-75.5717 Y10.9069
X-75.5672 Y10.8957
X-75.5621 Y10.8847
X-75.5564 Y10.874
X-75.5502 Y10.8636
X-75.5435 Y10.8536
X-75.5362 Y10.8439
X-75.5285 Y10.8345
X-75.5203 Y10.8256
X-75.5117 Y10.8171
X-75.5026 Y10.8091
X-75.4932 Y10.8015
X-75.4833 Y10.7945
X-75.4731 Y10.7879
X-75.4626 Y10.7819
X-75.4518 Y10.7765
X-75.4407 Y10.7716
X-75.4294 Y10.7672
G3 X-75.0641 Y10.9739 I0.0925 J0.2627
G1 X-75.0643 Y10.9829
X-75.0634 Y11.0293
X-75.0618 Y11.0525
X-75.0619 Y11.0658
X-75.0627 Y11.079
X-75.0641 Y11.0921
X-75.0661 Y11.1052
X-75.0687 Y11.1182
X-75.072 Y11.1311
X-75.0758 Y11.1438
X-75.0802 Y11.1562
X-75.0852 Y11.1685
X-75.0908 Y11.1805
X-75.0969 Y11.1923
X-75.1035 Y11.2037
X-75.1107 Y11.2149
X-75.1184 Y11.2256
X-75.1266 Y11.2361
X-75.1353 Y11.2461
X-75.1444 Y11.2557
X-75.154 Y11.2648
X-75.164 Y11.2735
X-75.1743 Y11.2818
X-75.1851 Y11.2895
X-75.1962 Y11.2967
X-75.2076 Y11.3034
X-75.2194 Y11.3096
X-75.2314 Y11.3152
X-75.2436 Y11.3202
X-75.2561 Y11.3246
X-75.2688 Y11.3285
X-75.2816 Y11.3318
X-75.2946 Y11.3344
X-75.3077 Y11.3365
X-75.3208 Y11.3379
X-75.334 Y11.3388
X-75.3473 Y11.339
X-75.3605 Y11.3386
X-75.3737 Y11.3375
X-75.3869 Y11.3359
X-75.3999 Y11.3336
X-75.4128 Y11.3308
X-75.4256 Y11.3273
X-75.4382 Y11.3232
X-75.4506 Y11.3186
X-75.4628 Y11.3134
X-75.4747 Y11.3076
X-75.4864 Y11.3012
X-75.6433 Y10.973
X-75.6449 Y10.9599
X-75.6459 Y10.9466
X-75.6462 Y10.9334
X-75.646 Y10.9201
X-75.6451 Y10.9068
X-75.6436 Y10.8937
X-75.6415 Y10.8806
X-75.6387 Y10.8676
X-75.6354 Y10.8547
X-75.6314 Y10.8421
X-75.6269 Y10.8296
X-75.6217 Y10.8174
X-75.616 Y10.8054
X-75.6098 Y10.7937
X-75.6029 Y10.7823
X-75.5956 Y10.7712
X-75.5878 Y10.7605
X-75.5794 Y10.7502
X-75.5706 Y10.7403
X-75.5613 Y10.7308
X-75.5516 Y10.7218
X-75.5414 Y10.7132
X-75.5309 Y10.7051
X-75.52 Y10.6976
X-75.5088 Y10.6905
X-75.4972 Y10.684
X-75.4854 Y10.6781
X-75.4732 Y10.6727
X-75.4609 Y10.6678
X-75.4483 Y10.6636
X-75.4355 Y10.66
X-75.4226 Y10.657
X-75.4096 Y10.6546
X-75.3964 Y10.6528
X-75.3832 Y10.6516
X-75.3699 Y10.6511
X-75.3567
X-75.3434 Y10.6518
X-75.3302 Y10.6532
X-75.3171 Y10.6551
X-75.3041 Y10.6577
X-75.3007 Y10.6513
X-75.299 Y10.6521
X-75.2975 Y10.6533
X-75.0534 Y10.8958
G3 X-75.0641 Y10.9739 I-0.1092 J0.0249
X-75.0724 Y10.9864 I-0.015 J-0.001
X-75.1758 Y10.9813 I-0.0471 J-0.0956
X-75.298 Y10.6826 I0.1457 J-0.2339
G1 X-75.2941 Y10.6679
G2 X-75.2975 Y10.6533 I-0.0144 J-0.0043
G1 X-75.3397 Y10.6114
X-75.3511 Y10.6061
X-75.3627 Y10.6014
X-75.3746 Y10.5974
X-75.3866 Y10.5939
X-75.3988 Y10.591
X-75.4111 Y10.5887
X-75.4235 Y10.587
X-75.436 Y10.586
X-75.4485 Y10.5856
X-75.461 Y10.5858
X-75.4735 Y10.5866
X-75.4859 Y10.588
X-75.4983 Y10.5901
X-75.5105 Y10.5928
X-75.5226 Y10.596
X-75.5345 Y10.5999
X-75.5462 Y10.6044
X-75.5576 Y10.6094
X-75.5688 Y10.615
X-75.5797 Y10.6212
X-75.5903 Y10.6279
X-75.6005 Y10.6351
X-75.6104 Y10.6428
X-75.6199 Y10.651
X-75.6289 Y10.6597
X-75.6375 Y10.6688
X-75.6456 Y10.6783
X-75.6533 Y10.6882
X-75.6604 Y10.6985
X-75.6671 Y10.7091
X-75.6732 Y10.72
X-75.6787 Y10.7313
X-75.6837 Y10.7427
G2 X-75.7236 Y10.8039 I0.0186 J0.0558
G1 X-75.6433 Y10.973
G2 X-75.6306 Y10.9811 I0.0133 J-0.0069
X-75.6023 Y10.9604 I0.0013 J-0.0279
X-75.711 Y10.812 I-0.1141 J-0.0304
G3 X-75.7236 Y10.8039 I0.0007 J-0.015
G1 X-75.7434 Y10.7623
G3 X-75.5031 Y10.5008 I0.2447 J-0.0163
G1 X-75.5013 Y10.4973
X-75.4991 Y10.494
X-75.4964 Y10.4912
X-75.4933 Y10.4887
X-75.4899 Y10.4867
X-75.4862 Y10.4853
X-75.4824 Y10.4844
X-75.4784 Y10.4841
X-75.4745 Y10.4843
X-75.4706 Y10.4852
X-75.4669 Y10.4866
X-75.4635 Y10.4885
X-75.3397 Y10.6114
G3 X-75.3363 Y10.626 I-0.0109 J0.0103
X-75.3814 Y10.6501 I-0.0345 J-0.0104
X-75.46 Y10.5031 I0.0344 J-0.113
G2 X-75.4635 Y10.4885 I-0.0144 J-0.0043
G1 X-75.4926 Y10.4595
X-75.4998 Y10.4531
X-75.5012 Y10.4521
X-75.5031 Y10.4512
X-75.5052 Y10.4507
X-75.5073 Y10.4508
G3 X-75.6097 Y10.4629 I-0.0844 J-0.2756
G1 X-75.6218 Y10.4642
X-75.6338 Y10.466
X-75.6457 Y10.4685
X-75.6575 Y10.4716
X-75.6691 Y10.4752
X-75.6805 Y10.4794
X-75.6917 Y10.4842
X-75.7027 Y10.4896
X-75.7133 Y10.4954
X-75.7237 Y10.5018
X-75.7337 Y10.5088
X-75.7434 Y10.5162
X-75.7527 Y10.524
X-75.7615 Y10.5324
X-75.77 Y10.5411
X-75.778 Y10.5503
X-75.7855 Y10.5598
X-75.7926 Y10.5698
X-75.7991 Y10.58
X-75.8052 Y10.5906
X-75.8107 Y10.6015
X-75.8156 Y10.6126
X-75.7434 Y10.7623
G2 X-75.7308 Y10.7704 I0.0133 J-0.0069
X-75.6896 Y10.7267 I0.0018 J-0.0395
X-75.8016 Y10.6212 I-0.1174 J0.0125
G3 X-75.8142 Y10.6132 I0.0007 J-0.015
G1 X-75.8313 Y10.5773
G3 X-75.7806 Y10.4368 I0.1184 J-0.0368
G1 X-75.6665 Y10.4598
X-75.6433 Y10.4617
X-75.6097 Y10.4629
G3 X-75.6046 Y10.4916 I-0.0011 J0.015
G1 X-75.8043 Y10.5808
X-75.8118 Y10.5841
G3 X-75.8313 Y10.5773 I-0.0061 J-0.0137
G1 X-75.8702 Y10.4953
G3 X-75.8588 Y10.4172 I0.0482 J-0.0328
X-75.8485 Y10.4298 I-0.0046 J0.0143
G1 X-75.847 Y10.4435
X-75.842 Y10.4867
G3 X-75.8702 Y10.4953 I-0.0149 J0.0017
G1 X-75.901 Y10.4304
X-75.9034 Y10.4248
X-75.9049 Y10.419
X-75.9052 Y10.4159
X-75.9046 Y10.4119
X-75.9022 Y10.4087
X-75.8986 Y10.4069
X-75.8945 Y10.407
G3 X-75.8811 Y10.4146 I-0.0121 J0.0375
X-75.898 Y10.4343 I-0.0085 J0.0099
X-75.901 Y10.4304 I0.0085 J-0.0099
G1 X-75.9119 Y10.4076
X-75.9126 Y10.406
X-75.9132 Y10.4049
Y10.4035
X-75.9123 Y10.4025
X-75.9109 Y10.4024
X-75.9098 Y10.4034
X-75.9132 Y10.4049
X-75.9144 Y10.4024
X-75.9146 Y10.4019
G2 X-75.78 Y10.4378 I0.3309 J-0.972
G3 X-75.772 Y10.4623 I-0.0034 J0.0146
G1 X-75.7739 Y10.4645 Z-0.1297
X-75.7758 Y10.4666 Z-0.1289
X-75.7775 Y10.4686 Z-0.1275
X-75.779 Y10.4703 Z-0.1256
X-75.7802 Y10.4717 Z-0.1233
X-75.7811 Y10.4727 Z-0.1207
X-75.7817 Y10.4734 Z-0.1179
X-75.7819 Y10.4736 Z-0.115
G0 Z-0.1
X-75.4904 Y11.2567
G1 Z-0.115 F60.
Y11.257 Z-0.1179
X-75.4905 Y11.2578 Z-0.1207
X-75.4906 Y11.2592 Z-0.1233
X-75.4908 Y11.2611 Z-0.1256
X-75.491 Y11.2633 Z-0.1275
X-75.4912 Y11.2659 Z-0.1289
X-75.4915 Y11.2687 Z-0.1297
X-75.4918 Y11.2717 Z-0.13
G2 X-75.4869 Y11.3022 I0.062 J0.0058
G1 X-75.4621 Y11.3543
X-75.4536 Y11.3628
X-75.4446 Y11.3709
X-75.4352 Y11.3784
X-75.4255 Y11.3855
X-75.4154 Y11.3921
X-75.405 Y11.3982
X-75.3943 Y11.4037
X-75.3834 Y11.4087
X-75.3722 Y11.4132
X-75.3608 Y11.417
X-75.3492 Y11.4203
X-75.3375 Y11.423
X-75.3256 Y11.4251
X-75.3137 Y11.4266
X-75.3016 Y11.4275
X-75.2896 Y11.4277
X-75.2776 Y11.4274
X-75.2656 Y11.4265
X-75.2536 Y11.4249
X-75.2418 Y11.4228
X-75.23 Y11.42
X-75.2185 Y11.4167
X-75.2071 Y11.4128
X-75.1959 Y11.4083
X-75.185 Y11.4032
X-75.1743 Y11.3977
X-75.1639 Y11.3915
X-75.1539 Y11.3849
X-75.1442 Y11.3778
X-75.1349 Y11.3701
X-75.1259 Y11.3621
X-75.1174 Y11.3535
X-75.1094 Y11.3446
X-75.1018 Y11.3353
G2 X-74.9982 Y11.2138 I-0.1109 J-0.1994
G1 X-74.9995 Y11.2112
G3 X-75.061 Y11.0524 I0.2877 J-0.2029
G1 X-75.0622 Y11.0495
X-75.0638 Y11.047
X-75.066 Y11.0448
X-75.0685 Y11.0431
X-75.0713 Y11.0419
X-75.0742 Y11.0413
X-75.0772
X-75.0801 Y11.0418
G2 X-75.1109 Y11.0784 I0.0106 J0.0401
X-75.0094 Y11.2054 I0.1177 J0.01
G3 X-74.9995 Y11.2112 I-0.0021 J0.0149
G1 X-74.9968 Y11.215
X-74.9793 Y11.2383
G3 X-75.156 Y11.4798 I-0.1997 J0.0393
X-75.3885 Y11.5116 I-0.1516 J-0.2422
G1 X-75.4621 Y11.3543
G3 X-75.4604 Y11.3394 I0.0138 J-0.006
X-75.4077 Y11.3325 I0.0297 J0.022
X-75.3864 Y11.4952 I-0.0736 J0.0924
G2 X-75.3881 Y11.5101 I0.0121 J0.0089
G1 X-75.3691 Y11.5502
G2 X-75.0502 Y11.5338 I0.1509 J-0.1739
X-74.9256 Y11.4313 I-0.0533 J-0.1916
G1 X-74.9104 Y11.3074
G2 X-74.9603 Y11.2615 I-0.1491 J0.1117
G1 X-74.9711 Y11.2493
X-74.9793 Y11.2383
G2 X-74.9933 Y11.2328 I-0.0117 J0.0094
X-75.0157 Y11.2593 I0.0041 J0.0261
X-74.9441 Y11.4085 I0.1968 J-0.0028
G1 X-74.932 Y11.4177
G3 X-74.9256 Y11.4313 I-0.0086 J0.0123
G1 X-74.9361 Y11.5169
G3 X-75.2954 Y11.6967 I-0.2929 J-0.1364
G1 X-75.298 Y11.6958
X-75.3002 Y11.6942
X-75.3017 Y11.692
X-75.3691 Y11.5502
G3 X-75.3673 Y11.5353 I0.0138 J-0.006
X-75.3013 Y11.5347 I0.0332 J0.0246
X-75.3 Y11.6771 I-0.0936 J0.0721
G2 X-75.3017 Y11.692 I0.0121 J0.0089
G1 X-75.2856 Y11.7258
G2 X-75.1108 Y11.7732 I0.12 J-0.0967
G3 X-74.9521 Y11.6471 I0.347 J0.2737
G1 X-74.9361 Y11.5169
G2 X-74.9511 Y11.5005 I-0.015 J-0.0013
G1 X-74.9541 Y11.5009
X-74.957 Y11.5017
G2 X-74.9591 Y11.5029 I0.0059 J0.0138
G1 X-75.2717 Y11.702
X-75.2799 Y11.7072
G2 X-75.2856 Y11.7258 I0.0081 J0.0127
G1 X-75.2492 Y11.8025
G2 X-75.1584 Y11.8569 I0.0813 J-0.0327
G3 X-75.1108 Y11.7732 I0.2258 J0.073
G2 X-75.1097 Y11.7582 I-0.0124 J-0.0084
X-75.1701 Y11.7581 I-0.0303 J0.0146
X-75.1782 Y11.7927 I0.0707 J0.0347
X-75.1607 Y11.8421 I0.0787 J0.
G3 X-75.1584 Y11.8569 I-0.0117 J0.0094
G1 X-75.1619 Y11.8651
X-75.1648 Y11.8722
G3 X-75.2056 Y11.8943 I-0.0287 J-0.0042
X-75.1978 Y11.8514 I0.0361 J-0.0156
X-75.1648 Y11.8722 I0.0143 J0.0138
G1 X-75.1715 Y11.8884
X-75.1767 Y11.9116
X-75.1781 Y11.9174
X-75.1793 Y11.9194
X-75.1826 Y11.9224
X-75.1869 Y11.9234
X-75.1912 Y11.922
X-75.1941 Y11.9186
X-75.196 Y11.9139
G3 X-75.1774 Y11.9063 I0.0093 J-0.0038
X-75.1767 Y11.9116 I-0.0093 J0.0038
G1 X-75.1797 Y11.9276
X-75.1799 Y11.9288
X-75.1802 Y11.9306
X-75.1809 Y11.9335
X-75.183 Y11.935
X-75.1855 Y11.9347
X-75.1872 Y11.933
X-75.1879 Y11.9313
X-75.1818 Y11.9268
X-75.1802 Y11.9306
X-75.1815 Y11.9376
X-75.1818 Y11.939
X-75.1821 Y11.9407
X-75.1824 Y11.9419
X-75.1825 Y11.9422
X-75.1827 Y11.9424
X-75.1834 Y11.9409
X-75.1828 Y11.94
X-75.1821 Y11.9407
X-75.1823 Y11.942
X-75.1827 Y11.9424
X-75.2492 Y11.8025
G3 X-75.2342 Y11.7816 I0.0138 J-0.006
G1 X-75.2313 Y11.7818 Z-0.1297
X-75.2285 Y11.782 Z-0.1289
X-75.2259 Y11.7822 Z-0.1275
X-75.2237 Y11.7824 Z-0.1256
X-75.2218 Y11.7826 Z-0.1233
X-75.2204 Y11.7827 Z-0.1207
X-75.2196 Y11.7828 Z-0.1179
X-75.2193 Z-0.115
G0 Z-0.1
X-75.474 Y10.5012
G1 Z-0.115 F60.
Y10.5009 Z-0.1179
X-75.4742 Y10.5 Z-0.1207
X-75.4746 Y10.4987 Z-0.1233
X-75.475 Y10.4969 Z-0.1256
X-75.4756 Y10.4947 Z-0.1275
X-75.4763 Y10.4922 Z-0.1289
X-75.477 Y10.4895 Z-0.1297
X-75.4777 Y10.4866 Z-0.13
G2 X-75.4926 Y10.4595 I-0.0603 J0.0156
G1 X-75.5006 Y10.4516
X-75.5013 Y10.451
X-75.502 Y10.4505
X-75.5027 Y10.4501
X-75.5042 Y10.4503
X-75.5073 Y10.4508
X-75.5085 Y10.4511
X-75.5105 Y10.4523 Z-0.1298
X-75.5125 Y10.4534 Z-0.1293
X-75.5144 Y10.4545 Z-0.1284
X-75.5156 Y10.4562 Z-0.127
X-75.5166 Y10.4577 Z-0.1254
X-75.5175 Y10.459 Z-0.1234
X-75.5182 Y10.46 Z-0.1212
X-75.5185 Y10.4607 Z-0.1192
X-75.5186 Y10.4612 Z-0.1171
X-75.5187 Y10.4613 Z-0.115
G0 Z0.4
X-75.1814 Y9.6282
Z0.1
G3 X-75.3026 Y9.5531 Z0.0605 I-0.0606 J-0.0375 F13.333
X-75.1814 Y9.6282 Z0.021 I0.0606 J0.0375
X-75.3026 Z-0.0045 I-0.0606 J-0.0375
X-75.2738 Y9.5268 Z-0.0255 I0.0606 J-0.0375
X-75.1755 Y9.5649 Z-0.0464 I0.0318 J0.0638
X-75.2225 Y9.6592 Z-0.0673 I-0.0665 J0.0258
X-75.3121 Y9.6038 Z-0.0882 I-0.0195 J-0.0686
X-75.2486 Y9.5197 Z-0.1091 I0.0701 J-0.0131
X-75.1707 Y9.5907 Z-0.13 I0.0066 J0.071
X-75.3133 I-0.0713 J0.
X-75.1707 I0.0713 J0.
X-75.3191 Y9.7165 I-0.0778 J0.0587 F60.
G1 X-75.3274 Y9.7115
X-75.3353 Y9.706
X-75.3429 Y9.7
X-75.3502 Y9.6935
X-75.3569 Y9.6866
X-75.3633 Y9.6793
X-75.3692 Y9.6716
X-75.3745 Y9.6635
X-75.3794 Y9.6551
X-75.3837 Y9.6464
X-75.3874 Y9.6375
X-75.3906 Y9.6284
X-75.3932 Y9.619
X-75.3952 Y9.6095
X-75.3966 Y9.5999
X-75.3974 Y9.5903
X-75.3976 Y9.5806
X-75.3972 Y9.5709
X-75.3961 Y9.5613
X-75.3945 Y9.5517
X-75.3923 Y9.5423
X-75.3894 Y9.533
X-75.386 Y9.524
X-75.382 Y9.5151
X-75.3775 Y9.5066
X-75.3725 Y9.4983
X-75.3669 Y9.4904
X-75.3608 Y9.4828
X-75.3543 Y9.4756
X-75.3473 Y9.4689
X-75.34 Y9.4626
X-75.3322 Y9.4568
X-75.3241 Y9.4515
X-75.3157 Y9.4467
X-75.307 Y9.4424
X-75.298 Y9.4387
X-75.2888 Y9.4356
X-75.2795 Y9.4331
X-75.27 Y9.4312
X-75.2604 Y9.4298
X-75.2507 Y9.4291
X-75.2411 Y9.429
X-75.2314 Y9.4295
X-75.2217 Y9.4306
X-75.2122 Y9.4323
X-75.2028 Y9.4346
X-75.1936 Y9.4375
X-75.1845 Y9.441
X-75.1757 Y9.445
X-75.1672 Y9.4496
X-75.1589 Y9.4547
X-75.1511 Y9.4603
X-75.1435 Y9.4664
X-75.1364 Y9.473
X-75.1297 Y9.48
X-75.1235 Y9.4874
X-75.1177 Y9.4952
X-75.1125 Y9.5034
X-75.1078 Y9.5118
X-75.1036 Y9.5206
X-75.0999 Y9.5295
X-75.0969 Y9.5387
X-75.0908 Y9.5475
X-75.0853 Y9.5566
X-75.0802 Y9.566
X-75.0757 Y9.5757
X-75.0718 Y9.5856
X-75.0684 Y9.5957
X-75.0656 Y9.606
X-75.0634 Y9.6165
X-75.0618 Y9.627
X-75.0608 Y9.6376
X-75.0603 Y9.6483
X-75.0605 Y9.659
X-75.0613 Y9.6696
X-75.0627 Y9.6802
X-75.0647 Y9.6906
X-75.0673 Y9.701
X-75.0705 Y9.7112
X-75.0742 Y9.7212
X-75.0786 Y9.7309
X-75.0834 Y9.7404
X-75.0888 Y9.7496
X-75.0947 Y9.7585
X-75.1011 Y9.7671
X-75.1079 Y9.7752
X-75.1152 Y9.783
X-75.123 Y9.7903
X-75.1311 Y9.7972
X-75.1397 Y9.8036
X-75.1485 Y9.8095
X-75.1577 Y9.815
X-75.1672 Y9.8198
X-75.177 Y9.8242
X-75.1869 Y9.8279
X-75.1971 Y9.8311
X-75.2074 Y9.8338
X-75.2179 Y9.8358
X-75.2285 Y9.8372
X-75.2391 Y9.838
X-75.2498 Y9.8383
X-75.2604 Y9.8379
X-75.271 Y9.8369
X-75.2816 Y9.8353
X-75.292 Y9.8331
X-75.3023 Y9.8304
X-75.3125 Y9.827
X-75.3224 Y9.8231
X-75.3321 Y9.8186
X-75.3415 Y9.8136
X-75.3651 Y9.7984
X-75.3932 Y9.7755
X-75.4023 Y9.7689
G3 X-75.4929 Y9.5815 I0.1194 J-0.1733
G1 X-75.4916 Y9.579
X-75.4899 Y9.5767
X-75.4877 Y9.5749
X-75.4853 Y9.5735
X-75.4826 Y9.5725
X-75.4799 Y9.5721
X-75.477 Y9.5722
X-75.4743 Y9.5728
X-75.4717 Y9.5739
X-75.4694 Y9.5755
X-75.4674 Y9.5775
G3 X-75.4654 Y9.5804 I-0.0115 J0.0096
G1 X-75.3821 Y9.7489
X-75.3809 Y9.752
X-75.3805 Y9.7553
G3 X-75.4023 Y9.7689 I-0.015 J0.0003
G2 X-75.4961 Y9.7265 I-0.163 J0.2353
G1 X-75.5006 Y9.7269
X-75.5052 Y9.7268
X-75.5096 Y9.726
X-75.514 Y9.7246
X-75.5181 Y9.7226
X-75.5219 Y9.7201
X-75.5253 Y9.7171
X-75.5283 Y9.7137
X-75.5307 Y9.7099
X-75.5327 Y9.7058
X-75.534 Y9.7014
X-75.5348 Y9.697
X-75.5335 Y9.6945
X-75.5318 Y9.6922
X-75.5297 Y9.6904
X-75.5272 Y9.689
X-75.5246 Y9.688
X-75.5218 Y9.6876
X-75.519 Y9.6877
X-75.5162 Y9.6883
X-75.5083 Y9.6909
X-75.4881 Y9.6976
G3 X-75.4961 Y9.7265 I-0.0047 J0.0143
G1 X-75.54 Y9.715
X-75.5406 Y9.7148
X-75.5412 Y9.7145
X-75.4578 Y9.4854
X-75.4528 Y9.4743
X-75.4472 Y9.4634
X-75.4411 Y9.4529
X-75.4345 Y9.4426
X-75.4273 Y9.4327
X-75.4197 Y9.4232
X-75.4116 Y9.4141
X-75.403 Y9.4054
X-75.3941 Y9.3972
X-75.3847 Y9.3894
X-75.3749 Y9.382
X-75.3648 Y9.3752
X-75.3543 Y9.3689
X-75.3436 Y9.3632
X-75.3325 Y9.358
X-75.3213 Y9.3533
X-75.3098 Y9.3493
X-75.2981 Y9.3458
X-75.2862 Y9.3429
X-75.2742 Y9.3406
X-75.2621 Y9.3389
X-75.25 Y9.3378
X-75.2378 Y9.3374
X-75.2256 Y9.3375
X-75.2134 Y9.3383
X-75.2013 Y9.3397
X-75.1893 Y9.3417
X-75.1773 Y9.3443
X-75.1656 Y9.3475
X-75.154 Y9.3513
X-75.1426 Y9.3556
X-75.1314 Y9.3605
X-75.1205 Y9.366
X-75.1099 Y9.3721
X-75.0996 Y9.3786
X-75.0897 Y9.3857
X-75.0801 Y9.3932
X-75.0709 Y9.4013
X-75.0622 Y9.4098
X-75.0538 Y9.4187
X-75.046 Y9.428
X-75.0386 Y9.4377
X-75.0317 Y9.4478
X-75.0253 Y9.4582
X-75.0195 Y9.4689
X-75.0142 Y9.4799
X-74.9915 Y9.7059
X-74.9928 Y9.7178
X-74.9947 Y9.7296
X-74.9972 Y9.7413
X-75.0002 Y9.7529
X-75.0038 Y9.7643
X-75.008 Y9.7756
X-75.0127 Y9.7866
X-75.018 Y9.7973
X-75.0237 Y9.8078
X-75.03 Y9.818
X-75.0368 Y9.8279
X-75.0441 Y9.8374
X-75.0518 Y9.8465
X-75.06 Y9.8553
X-75.0686 Y9.8636
X-75.0776 Y9.8715
X-75.087 Y9.879
X-75.0967 Y9.886
X-75.1068 Y9.8924
X-75.1171 Y9.8984
X-75.1278 Y9.9039
X-75.1387 Y9.9088
X-75.1498 Y9.9132
X-75.1612 Y9.917
X-75.1727 Y9.9203
X-75.1844 Y9.923
X-75.1962 Y9.9251
X-75.2081 Y9.9266
X-75.22 Y9.9275
X-75.232 Y9.9279
X-75.2439 Y9.9276
X-75.2559 Y9.9268
X-75.2678 Y9.9253
G2 X-75.3431 Y9.8165 I-0.401 J0.1974
G3 X-75.3479 Y9.8023 I0.0099 J-0.0112
X-75.3251 Y9.7848 I0.0215 J0.0043
X-75.2513 Y9.8634 I-0.005 J0.0786
X-75.2661 Y9.9094 I-0.0787 J0.
G2 X-75.2676 Y9.9243 I0.0122 J0.0088
G1 X-75.2608 Y9.938
X-75.2553 Y9.9508
G2 X-74.9766 Y9.8997 I0.1188 J-0.1378
G1 X-74.9737 Y9.899
X-74.9915 Y9.7059
G2 X-75.0006 Y9.6939 I-0.0149 J0.0019
X-75.025 Y9.6994 I-0.0084 J0.0199
X-74.9828 Y9.8871 I0.088 J0.0788
G3 X-74.9737 Y9.899 I-0.0058 J0.0138
G1 X-74.9695 Y9.9451
X-74.9718 Y9.9554
X-74.9747 Y9.9655
X-74.9782 Y9.9755
X-74.9822 Y9.9853
X-74.9868 Y9.9948
X-74.992 Y10.004
X-74.9977 Y10.0129
X-75.0038 Y10.0215
X-75.0105 Y10.0297
X-75.0176 Y10.0375
X-75.0252 Y10.0449
X-75.0332 Y10.0518
X-75.0415 Y10.0583
X-75.0502 Y10.0643
X-75.0593 Y10.0697
X-75.0686 Y10.0747
X-75.0782 Y10.0791
X-75.0881 Y10.0829
X-75.0981 Y10.0862
X-75.1083 Y10.0888
X-75.1187 Y10.0909
X-75.1292 Y10.0924
X-75.1397 Y10.0933
X-75.1503 Y10.0936
X-75.1608 Y10.0932
X-75.1713 Y10.0923
X-75.1818 Y10.0907
X-75.1921 Y10.0886
X-75.2023 Y10.0859
X-75.2124 Y10.0825
X-75.2222 Y10.0787
X-75.2318 Y10.0742
G2 X-75.2492 Y9.9671 I-0.2674 J-0.0115
G3 X-75.2446 Y9.9528 I0.0147 J-0.0031
X-75.1876 Y9.9685 I0.0235 J0.026
X-75.2236 Y10.0599 I-0.0752 J0.0232
G2 X-75.2311 Y10.0729 I0.0075 J0.013
G1 X-75.2304 Y10.0959
G2 X-74.9561 Y10.1043 I0.1398 J-0.0817
G1 X-74.9695 Y9.9451
G2 X-74.9785 Y9.9331 I-0.0149 J0.0019
X-75.0342 Y9.9633 I-0.0157 J0.0374
X-74.9637 Y10.0934 I0.1162 J0.0212
G3 X-74.9547 Y10.1053 I-0.0058 J0.0138
G1 X-74.9512 Y10.1423
G3 X-75.1767 Y10.2551 I-0.1632 J-0.0446
X-75.2431 Y10.1884 I0.0819 J-0.1478
G1 X-75.2423 Y10.1818
X-75.2314 Y10.1238
X-75.2301 Y10.1122
X-75.2302 Y10.1006
X-75.2304 Y10.0959
G3 X-75.2047 Y10.0853 I0.015 J0.
X-75.2011 Y10.0914 I-0.0104 J0.0104
X-75.1805 Y10.2252 I-0.4519 J0.1379
G1 X-75.1808 Y10.2443
G2 X-75.1767 Y10.2551 I0.015 J0.0005
G1 X-75.127 Y10.3044
X-75.1193 Y10.3099
X-75.1112 Y10.3148
X-75.1028 Y10.3192
X-75.0941 Y10.323
X-75.0852 Y10.3263
X-75.0762 Y10.329
X-75.0669 Y10.331
X-75.0575 Y10.3325
X-75.0481 Y10.3333
X-75.0386 Y10.3336
X-75.0292 Y10.3332
X-75.0197 Y10.3322
X-75.0104 Y10.3305
X-75.0012 Y10.3283
X-74.9922 Y10.3255
X-74.9833 Y10.3221
X-74.9747 Y10.3181
X-74.9664 Y10.3135
X-74.9584 Y10.3084
X-74.9508 Y10.3029
X-74.9435 Y10.2968
X-74.9366 Y10.2902
X-74.9512 Y10.1423
G2 X-74.9603 Y10.1304 I-0.0149 J0.0019
X-75.0191 Y10.17 I-0.0164 J0.0391
X-74.9468 Y10.2773 I0.1181 J-0.0016
G3 X-74.9377 Y10.2892 I-0.0058 J0.0138
G1 X-74.9346 Y10.3223
G3 X-75.0215 Y10.4111 I-0.096 J-0.007
G1 X-75.127 Y10.3044
G3 X-75.1134 Y10.2794 I0.0109 J-0.0103
G1 X-74.9586 Y10.3073
X-74.9468 Y10.3094
G3 X-74.9346 Y10.3223 I-0.0027 J0.0148
G1 X-74.9282 Y10.392
G3 X-74.9686 Y10.4619 I-0.0565 J0.014
X-74.9722 Y10.448 I0.0109 J-0.0103
G1 X-74.9683 Y10.4326
X-74.9576 Y10.3902
G3 X-74.9282 Y10.392 I0.0146 J0.0037
G1 X-74.9212 Y10.4674
X-74.921 Y10.4733
X-74.922 Y10.4793
X-74.9239 Y10.4854
X-74.9257 Y10.4889
X-74.9282 Y10.492
X-74.9318 Y10.4935
X-74.9357 Y10.4933
X-74.9391 Y10.4912
G3 X-74.949 Y10.4718 I0.0287 J-0.0269
X-74.9375 Y10.4552 I0.0138 J-0.0027
X-74.9212 Y10.4674 I0.0022 J0.0139
G1 X-74.9184 Y10.4981
X-74.9183 Y10.4994
X-74.9182 Y10.5004
X-74.9179 Y10.5064
X-74.9193 Y10.5078
X-74.9212 Y10.5081
X-74.9229 Y10.5073
G3 X-74.926 Y10.5035 I0.0287 J-0.0269
G1 X-74.9214 Y10.4967
X-74.9182 Y10.5004
X-74.9173 Y10.5102
X-74.9172 Y10.511
X-74.9171 Y10.5116
X-74.9179 Y10.5123
X-74.9181 Y10.5121
X-74.9171 Y10.5116
X-74.9178 Y10.5123
X-75.0217 Y10.4091
G3 X-75.0146 Y10.3844 I0.0109 J-0.0103
G1 X-75.0118 Y10.3836 Z-0.1297
X-75.0091 Y10.3829 Z-0.1289
X-75.0066 Y10.3822 Z-0.1275
X-75.0044 Y10.3816 Z-0.1256
X-75.0026 Y10.3811 Z-0.1233
X-75.0013 Y10.3808 Z-0.1207
X-75.0004 Y10.3805 Z-0.1179
X-75.0002 Z-0.115
G0 Z-0.1
X-75.0249 Y9.523
G1 Z-0.115 F60.
X-75.0248 Y9.5228 Z-0.1179
X-75.0244 Y9.522 Z-0.1207
X-75.0238 Y9.5207 Z-0.1233
X-75.023 Y9.5191 Z-0.1256
X-75.022 Y9.517 Z-0.1275
X-75.0209 Y9.5147 Z-0.1289
X-75.0197 Y9.5121 Z-0.1297
X-75.0184 Y9.5095 Z-0.13
G2 X-75.0125 Y9.4791 I-0.0563 J-0.0268
G1 X-75.0216 Y9.3808
X-75.027 Y9.3698
X-75.033 Y9.359
X-75.0396 Y9.3485
X-75.0466 Y9.3384
X-75.0542 Y9.3287
X-75.0622 Y9.3193
X-75.0707 Y9.3104
X-75.0796 Y9.3018
X-75.089 Y9.2938
X-75.0987 Y9.2862
X-75.1088 Y9.2791
X-75.1192 Y9.2726
X-75.13 Y9.2665
X-75.141 Y9.261
X-75.1523 Y9.2561
X-75.1638 Y9.2517
X-75.1756 Y9.2479
X-75.1875 Y9.2447
X-75.1995 Y9.2421
X-75.2117 Y9.2401
X-75.224 Y9.2388
X-75.2363 Y9.238
X-75.2486 Y9.2378
X-75.2609 Y9.2383
X-75.2732 Y9.2394
X-75.2854 Y9.2411
X-75.2975 Y9.2434
X-75.3095 Y9.2463
X-75.3213 Y9.2498
X-75.333 Y9.2538
X-75.3444 Y9.2585
X-75.3556 Y9.2637
X-75.3665 Y9.2695
X-75.3771 Y9.2758
X-75.3806 Y9.274
X-75.3816 Y9.2759
X-75.4578 Y9.4854
G2 X-75.4547 Y9.5001 I0.0143 J0.0046
X-75.3771 Y9.4996 I0.0386 J-0.0347
X-75.3785 Y9.2906 I-0.1185 J-0.1037
G3 X-75.3816 Y9.2759 I0.0112 J-0.01
G1 X-75.3651 Y9.2307
X-75.3578 Y9.222
X-75.3501 Y9.2136
X-75.3419 Y9.2057
X-75.3333 Y9.1983
X-75.3244 Y9.1912
X-75.3151 Y9.1847
X-75.3054 Y9.1787
X-75.2955 Y9.1731
X-75.2853 Y9.1681
X-75.2748 Y9.1637
X-75.2641 Y9.1598
X-75.2533 Y9.1564
X-75.2422 Y9.1537
X-75.2311 Y9.1515
X-75.2198 Y9.1498
X-75.2085 Y9.1488
X-75.1972 Y9.1484
X-75.1858 Y9.1486
X-75.1744 Y9.1493
X-75.1631 Y9.1507
X-75.1519 Y9.1526
X-75.1409 Y9.1551
X-75.1299 Y9.1582
X-75.1191 Y9.1619
X-75.1086 Y9.1661
X-75.0983 Y9.1709
X-75.0882 Y9.1762
X-75.0784 Y9.182
X-75.069 Y9.1883
X-75.0599 Y9.1951
X-75.0511 Y9.2023
X-75.0428 Y9.2101
X-75.0379 Y9.2086
X-75.0372 Y9.2111
X-75.0216 Y9.3808
G3 X-75.0283 Y9.3942 I-0.015 J0.0009
X-75.0819 Y9.3812 I-0.0208 J-0.0315
X-75.044 Y9.2245 I0.1029 J-0.058
G2 X-75.0372 Y9.2111 I-0.0082 J-0.0125
G1 X-75.0409 Y9.1718
G2 X-75.3085 Y9.075 I-0.1819 J0.0846
G1 X-75.3651 Y9.2307
G2 X-75.362 Y9.2453 I0.0143 J0.0046
X-75.3025 Y9.2442 I0.0293 J-0.0263
X-75.3054 Y9.0897 I-0.0908 J-0.0756
G3 X-75.3085 Y9.075 I0.0112 J-0.01
G1 X-75.2956 Y9.0396
G3 X-75.0556 Y9.0117 I0.1331 J0.099
G1 X-75.0409 Y9.1718
G3 X-75.0476 Y9.1852 I-0.015 J0.0009
X-75.1079 Y9.1657 I-0.0223 J-0.0339
X-75.0624 Y9.0251 I0.1104 J-0.0419
G2 X-75.0556 Y9.0117 I-0.0082 J-0.0125
G1 X-75.0592 Y8.9733
G2 X-75.2434 Y8.8964 I-0.1304 J0.0532
G1 X-75.2956 Y9.0396
G2 X-75.2925 Y9.0543 I0.0143 J0.0046
X-75.2243 Y9.0462 I0.0312 J-0.0281
X-75.2403 Y8.911 I-0.1039 J-0.0562
G3 X-75.2434 Y8.8964 I0.0112 J-0.01
G1 X-75.2315 Y8.8635
X-75.2267 Y8.8568
X-75.2214 Y8.8504
X-75.2157 Y8.8445
X-75.2095 Y8.8389
X-75.203 Y8.8339
X-75.1961 Y8.8293
X-75.1889 Y8.8252
X-75.1815 Y8.8216
X-75.1738 Y8.8186
X-75.1659 Y8.8162
X-75.1578 Y8.8143
X-75.1496 Y8.8131
X-75.1414 Y8.8124
X-75.1331 Y8.8123
X-75.1249 Y8.8128
X-75.1167 Y8.8139
X-75.1086 Y8.8157
X-75.1006 Y8.8179
X-75.0929 Y8.8208
X-75.0854 Y8.8242
X-75.0781 Y8.8281
X-75.0711 Y8.8326
X-75.0592 Y8.9733
G3 X-75.0842 Y8.9854 I-0.015 J0.0009
X-75.0984 Y8.9646 I0.0348 J-0.0391
X-75.0758 Y8.8448 I0.1107 J-0.0412
G2 X-75.0721 Y8.8339 I-0.0112 J-0.01
G1 X-75.0747 Y8.8051
G2 X-75.1887 Y8.7423 I-0.0878 J0.0245
G1 X-75.2315 Y8.8635
G2 X-75.2284 Y8.8782 I0.0143 J0.0046
X-75.2084 Y8.882 I0.0125 J-0.0112
X-75.185 Y8.7589 I-0.0351 J-0.0705
G3 X-75.1881 Y8.7442 I0.0112 J-0.01
G1 X-75.1797 Y8.7212
G3 X-75.0839 Y8.6909 I0.0631 J0.0331
G1 X-75.0747 Y8.8051
G3 X-75.0815 Y8.8185 I-0.015 J0.0009
X-75.1182 Y8.809 I-0.0141 J-0.0214
X-75.0918 Y8.7065 I0.0697 J-0.0367
G2 X-75.0851 Y8.6931 I-0.0082 J-0.0125
G1 X-75.087 Y8.6725
G2 X-75.1479 Y8.6297 I-0.0522 J0.0095
G1 X-75.1797 Y8.7212
G2 X-75.1558 Y8.7374 I0.0143 J0.0046
G1 X-75.1054 Y8.6957
X-75.0924 Y8.6849
G2 X-75.087 Y8.6725 I-0.0096 J-0.0116
G1 X-75.0919 Y8.6193
G2 X-75.1298 Y8.5841 I-0.0274 J-0.0085
G1 X-75.1474 Y8.6326
G2 X-75.1443 Y8.6472 I0.0143 J0.0046
X-75.122 Y8.645 I0.0103 J-0.0093
X-75.1267 Y8.5987 I-0.0339 J-0.0199
G3 X-75.1298 Y8.5841 I0.0112 J-0.01
G1 X-75.1256 Y8.5727
X-75.1233 Y8.5672
X-75.1193 Y8.5627
X-75.1144 Y8.5592
X-75.109 Y8.5567
X-75.1078 Y8.5563
X-75.1029
X-75.0989 Y8.559
X-75.097 Y8.5636
G3 X-75.1007 Y8.5826 I-0.0393 J0.0022
X-75.1256 Y8.5727 I-0.0122 J-0.0057
G1 X-75.1163 Y8.5471
X-75.114 Y8.5415
X-75.1136 Y8.541
X-75.1095 Y8.5383
X-75.1046 Y8.5382
X-75.1005 Y8.541
X-75.0987 Y8.5455
G3 Y8.5502 I-0.0393 J0.0022
X-75.1093 Y8.5588 I-0.009 J-0.0003
X-75.1163 Y8.5471 I0.0016 J-0.0089
G1 X-75.1112 Y8.5331
X-75.1089 Y8.5276
X-75.1054 Y8.5261
X-75.1018 Y8.5273
X-75.1 Y8.5308
G3 Y8.5352 I-0.0393 J0.0022
X-75.1068 Y8.5405 I-0.0057 J-0.0003
X-75.1112 Y8.5331 I0.0011 J-0.0056
G1 X-75.1071 Y8.5217
X-75.1066 Y8.5203
X-75.106 Y8.5189
X-75.104 Y8.5181
X-75.1019 Y8.5189
X-75.101 Y8.5209
Y8.5215
X-75.1067 Y8.5212
X-75.105 Y8.5159
X-75.1044 Y8.5144
X-75.104 Y8.5132
X-75.1035 Y8.5121
X-75.1027 Y8.512
X-75.102 Y8.5123
X-75.1017 Y8.513
Y8.5135
X-75.1018 Y8.5142
X-75.1023 Y8.5147
X-75.103 Y8.5148
X-75.1036 Y8.5145
X-75.104 Y8.5139
Y8.5132
X-75.1031 Y8.5108
X-75.1027 Y8.5098
X-75.1023 Y8.5086
X-75.102 Y8.5092
X-75.1022
X-75.1023 Y8.5086
X-75.102 Y8.5091
X-75.0919 Y8.6193
G3 X-75.0988 Y8.6328 I-0.015 J0.0009
G1 X-75.101 Y8.6336 Z-0.1298
X-75.1031 Y8.6344 Z-0.1293
X-75.1052 Y8.6351 Z-0.1284
X-75.1068 Y8.6352 Z-0.1274
X-75.109 Y8.6347 Z-0.1255
X-75.1108 Y8.6343 Z-0.1232
X-75.1121 Y8.634 Z-0.1207
X-75.1129 Y8.6339 Z-0.1179
X-75.1131 Y8.6338 Z-0.115
G0 Z0.4
X-74.2338 Y13.3319
Z0.1
G3 X-74.3374 Y13.3512 Z0.0791 I-0.0606 J-0.0375 F13.333
X-74.3471 Y13.2463 Z0.0582 I0.043 J-0.0569
X-74.2417 Z0.0373 I0.0527 J0.048
X-74.2514 Y13.3512 Z0.0164 I-0.0527 J0.048
X-74.355 Y13.3319 Z-0.0045 I-0.043 J-0.0569
X-74.3262 Y13.2305 Z-0.0255 I0.0606 J-0.0375
X-74.2279 Y13.2686 Z-0.0464 I0.0318 J0.0638
X-74.2749 Y13.3629 Z-0.0673 I-0.0665 J0.0258
X-74.3645 Y13.3074 Z-0.0882 I-0.0195 J-0.0686
X-74.301 Y13.2233 Z-0.1091 I0.0701 J-0.0131
X-74.2231 Y13.2943 Z-0.13 I0.0066 J0.071
X-74.3657 I-0.0713 J0.
X-74.2231 I0.0713 J0.
X-74.3714 Y13.4202 I-0.0778 J0.0587 F60.
G1 X-74.3798 Y13.4152
X-74.3877 Y13.4097
X-74.3953 Y13.4037
X-74.4025 Y13.3972
X-74.4093 Y13.3903
X-74.4157 Y13.383
X-74.4215 Y13.3753
X-74.4269 Y13.3672
X-74.4318 Y13.3588
X-74.4361 Y13.3501
X-74.4398 Y13.3412
X-74.443 Y13.332
X-74.4456 Y13.3227
X-74.4476 Y13.3132
X-74.449 Y13.3036
X-74.4498 Y13.294
X-74.45 Y13.2843
X-74.4496 Y13.2746
X-74.4485 Y13.265
X-74.4469 Y13.2554
X-74.4446 Y13.246
X-74.4418 Y13.2367
X-74.4384 Y13.2276
X-74.4344 Y13.2188
X-74.4299 Y13.2102
X-74.4248 Y13.202
X-74.4193 Y13.194
X-74.4132 Y13.1865
X-74.4067 Y13.1793
X-74.3997 Y13.1726
X-74.3924 Y13.1663
X-74.3846 Y13.1605
X-74.3765 Y13.1551
X-74.3681 Y13.1504
X-74.3594 Y13.1461
X-74.3504 Y13.1424
X-74.3412 Y13.1393
X-74.3319 Y13.1368
X-74.3224 Y13.1348
X-74.3128 Y13.1335
X-74.3031 Y13.1328
X-74.2934 Y13.1327
X-74.2838 Y13.1332
X-74.2741 Y13.1343
X-74.2646 Y13.136
X-74.2552 Y13.1383
X-74.2459 Y13.1412
X-74.2369 Y13.1446
X-74.2281 Y13.1487
X-74.2196 Y13.1533
X-74.2113 Y13.1584
X-74.2034 Y13.164
X-74.1959 Y13.1701
X-74.1888 Y13.1767
X-74.1821 Y13.1837
X-74.1759 Y13.1911
X-74.1701 Y13.1989
X-74.1649 Y13.207
X-74.1601 Y13.2155
X-74.156 Y13.2242
X-74.1523 Y13.2332
X-74.1493 Y13.2424
X-74.1433 Y13.2516
X-74.1378 Y13.2611
X-74.1328 Y13.271
X-74.1285 Y13.281
X-74.1247 Y13.2914
X-74.1215 Y13.3019
X-74.1189 Y13.3126
X-74.1169 Y13.3234
X-74.1156 Y13.3343
X-74.1149 Y13.3453
X-74.1148 Y13.3563
X-74.1153 Y13.3672
X-74.1165 Y13.3782
X-74.1183 Y13.389
X-74.1207 Y13.3997
X-74.1237 Y13.4103
X-74.1273 Y13.4207
X-74.1315 Y13.4308
X-74.1363 Y13.4407
X-74.1416 Y13.4504
X-74.1475 Y13.4596
X-74.1539 Y13.4686
X-74.1608 Y13.4771
X-74.1682 Y13.4853
X-74.176 Y13.493
X-74.1842 Y13.5003
X-74.1929 Y13.507
X-74.2019 Y13.5133
X-74.2113 Y13.519
X-74.221 Y13.5242
X-74.231 Y13.5288
X-74.2412 Y13.5329
X-74.2516 Y13.5363
X-74.2622 Y13.5392
X-74.273 Y13.5415
X-74.2838 Y13.5431
X-74.2948 Y13.5441
X-74.3058 Y13.5445
X-74.3167 Y13.5442
X-74.3277 Y13.5433
X-74.3386 Y13.5418
X-74.3494 Y13.5397
X-74.36 Y13.537
X-74.3705 Y13.5336
X-74.3807 Y13.5297
X-74.3907 Y13.5252
X-74.4005 Y13.5201
X-74.4099 Y13.5145
X-74.419 Y13.5083
X-74.4277 Y13.5016
X-74.4361 Y13.4945
X-74.444 Y13.4869
X-74.5189 Y13.3395
X-74.5223 Y13.3282
X-74.5252 Y13.3167
X-74.5274 Y13.3051
X-74.5291 Y13.2934
X-74.5301 Y13.2816
X-74.5306 Y13.2698
X-74.5304 Y13.258
X-74.5296 Y13.2462
X-74.5282 Y13.2345
X-74.5262 Y13.2229
X-74.5236 Y13.2113
X-74.5204 Y13.2
X-74.5166 Y13.1888
X-74.5123 Y13.1778
X-74.5073 Y13.167
X-74.5019 Y13.1566
X-74.4959 Y13.1464
X-74.4894 Y13.1365
X-74.4824 Y13.127
X-74.4749 Y13.1179
X-74.4669 Y13.1092
X-74.4585 Y13.1009
X-74.4497 Y13.093
X-74.4405 Y13.0856
X-74.4309 Y13.0787
X-74.4209 Y13.0723
X-74.4107 Y13.0664
X-74.4002 Y13.0611
X-74.3894 Y13.0563
X-74.3783 Y13.052
X-74.3671 Y13.0484
X-74.3557 Y13.0453
X-74.3441 Y13.0429
X-74.3325 Y13.041
X-74.3207 Y13.0397
X-74.3089 Y13.0391
X-74.2971 Y13.039
X-74.2853 Y13.0396
X-74.2736 Y13.0408
X-74.2619 Y13.0426
X-74.2503 Y13.0449
X-74.2389 Y13.0479
X-74.2276 Y13.0515
X-74.2166 Y13.0556
X-74.2057 Y13.0603
X-74.1952 Y13.0656
X-74.0527 Y13.2408
G2 X-74.073 Y13.444 I0.3658 J0.1391
G3 X-74.3854 Y13.6203 I-0.2302 J-0.0429
G1 X-74.4473 Y13.4901
G3 X-74.428 Y13.4702 I0.0138 J-0.006
X-74.4177 Y13.4765 I-0.0131 J0.0331
X-74.3856 Y13.6088 I-0.0778 J0.0889
G2 X-74.3854 Y13.6203 I0.014 J0.0055
G1 X-74.3684 Y13.6562
X-74.3598 Y13.6638
X-74.3508 Y13.671
X-74.3415 Y13.6776
X-74.3318 Y13.6838
X-74.3217 Y13.6894
X-74.3114 Y13.6944
X-74.3008 Y13.6989
X-74.29 Y13.7028
X-74.279 Y13.7061
X-74.2679 Y13.7088
X-74.2566 Y13.7109
X-74.2452 Y13.7123
X-74.2337 Y13.7131
X-74.2222 Y13.7133
X-74.2108 Y13.7129
X-74.1993 Y13.7119
X-74.188 Y13.7102
X-74.1767 Y13.7079
X-74.1656 Y13.705
X-74.1546 Y13.7015
X-74.1439 Y13.6974
X-74.1334 Y13.6927
X-74.1232 Y13.6874
X-74.1133 Y13.6817
X-74.1037 Y13.6753
X-74.0945 Y13.6685
X-74.0857 Y13.6611
X-74.0772 Y13.6533
X-74.0693 Y13.6451
X-74.0617 Y13.6364
X-74.0547 Y13.6273
X-74.0482 Y13.6178
X-74.0422 Y13.6081
X-74.0367 Y13.5979
X-74.0318 Y13.5876
X-74.0226 Y13.5879
Y13.5845
X-74.0239 Y13.5813
G3 X-74.073 Y13.444 I0.3315 J-0.196
G2 X-74.0829 Y13.4328 I-0.0147 J0.003
X-74.094 Y13.4346 I-0.0038 J0.0114
G1 X-74.0968 Y13.4368
G2 X-74.0376 Y13.5752 I0.0509 J0.0601
G3 X-74.0239 Y13.5813 I0.0016 J0.0149
G1 X-74.0225 Y13.5833
X-74.0089 Y13.6023
X-74.0079 Y13.6128
X-74.0076 Y13.6234
X-74.0079 Y13.634
X-74.0088 Y13.6445
X-74.0103 Y13.655
X-74.0124 Y13.6654
X-74.0152 Y13.6756
X-74.0186 Y13.6856
X-74.0225 Y13.6954
X-74.027 Y13.705
X-74.0321 Y13.7143
X-74.0377 Y13.7232
X-74.0438 Y13.7318
X-74.0505 Y13.7401
X-74.0576 Y13.7479
X-74.0652 Y13.7553
X-74.0731 Y13.7622
X-74.0815 Y13.7687
X-74.0903 Y13.7746
X-74.0993 Y13.78
X-74.1087 Y13.7849
X-74.1184 Y13.7892
X-74.1283 Y13.7929
X-74.1384 Y13.796
X-74.1487 Y13.7985
X-74.1591 Y13.8004
X-74.1695 Y13.8017
X-74.1801 Y13.8024
X-74.1907
X-74.2012 Y13.8019
X-74.2117 Y13.8006
X-74.2221 Y13.7988
G3 X-74.2995 Y13.8011 I-0.0399 J-0.0401
G1 X-74.3684 Y13.6562
G3 X-74.3667 Y13.6413 I0.0138 J-0.006
X-74.3031 Y13.639 I0.0327 J0.0242
X-74.2978 Y13.7862 I-0.0896 J0.077
G2 X-74.2995 Y13.8011 I0.0121 J0.0089
G1 X-74.2841 Y13.8334
G2 X-73.9691 Y13.7755 I0.1355 J-0.1489
X-73.924 Y13.7169 I-0.0425 J-0.0793
X-73.9279 Y13.6874 I-0.0154 J-0.013
G3 X-74.0089 Y13.6023 I0.16 J-0.2334
G2 X-74.0228 Y13.5966 I-0.0119 J0.0092
G1 X-74.0248 Y13.6008
X-74.0199 Y13.6091
G2 X-73.9427 Y13.6945 I0.2683 J-0.165
G1 X-73.9304 Y13.7034
G3 X-73.924 Y13.717 I-0.0085 J0.0124
G1 X-73.9367 Y13.8282
G3 X-74.2173 Y13.9741 I-0.2252 J-0.0902
G1 X-74.2841 Y13.8334
G3 X-74.2824 Y13.8185 I0.0138 J-0.006
X-74.2157 I0.0334 J0.0247
X-74.2156 Y13.9592 I-0.0948 J0.0705
G2 X-74.2173 Y13.9741 I0.0121 J0.0089
G1 X-74.2014 Y14.0076
G2 X-73.9571 Y14.007 I0.1218 J-0.123
G1 X-73.9367 Y13.8282
G2 X-73.9431 Y13.8147 I-0.015 J-0.0012
X-73.9875 Y13.8208 I-0.0188 J0.0273
X-73.9636 Y13.9934 I0.0909 J0.0754
G3 X-73.9571 Y14.007 I-0.0085 J0.0124
G1 X-73.9618 Y14.0476
X-73.9647 Y14.0564
X-73.9682 Y14.065
X-73.9722 Y14.0734
X-73.9768 Y14.0814
X-73.9819 Y14.0892
X-73.9876 Y14.0966
X-73.9936 Y14.1036
X-74.0002 Y14.1102
X-74.0071 Y14.1163
X-74.0145 Y14.122
X-74.0222 Y14.1271
X-74.0302 Y14.1318
X-74.0385 Y14.1359
X-74.0471 Y14.1394
X-74.0559 Y14.1424
X-74.0648 Y14.1448
X-74.0739 Y14.1466
X-74.0831 Y14.1478
X-74.0924 Y14.1484
X-74.1017 Y14.1483
X-74.1109 Y14.1477
X-74.1201 Y14.1464
X-74.1292 Y14.1446
X-74.1381 Y14.1421
X-74.2014 Y14.0076
G3 X-74.1997 Y13.9927 I0.0138 J-0.006
X-74.129 Y13.9966 I0.034 J0.0252
X-74.1362 Y14.1263 I-0.102 J0.0595
G2 X-74.1379 Y14.1412 I0.0121 J0.0089
G1 X-74.1241 Y14.1701
G2 X-73.9777 Y14.1957 I0.0863 J-0.0622
G1 X-73.9618 Y14.0476
G2 X-73.9682 Y14.0341 I-0.015 J-0.0012
X-74.0339 Y14.0608 I-0.0241 J0.0349
X-73.985 Y14.1809 I0.1159 J0.0229
G3 X-73.9786 Y14.1944 I-0.0085 J0.0124
G1 X-73.9819 Y14.2229
G3 X-74.0719 Y14.2831 I-0.0778 J-0.019
G1 X-74.073 Y14.2805
X-74.0736 Y14.2778
X-74.0737 Y14.275
X-74.0733 Y14.2723
X-74.0725 Y14.2697
X-74.0712 Y14.2673
X-74.0696 Y14.2652
X-74.0676 Y14.2635
X-74.0586 Y14.2556
X-74.0067 Y14.2104
X-74.0048 Y14.2091
X-74.0028 Y14.208
G3 X-73.9819 Y14.2229 I0.006 J0.0138
G1 X-73.9898 Y14.2926
G3 X-74.0093 Y14.3298 I-0.0518 J-0.0034
X-74.0294 Y14.3102 I-0.0064 J-0.0136
G1 X-74.0185 Y14.2854
G3 X-73.9898 Y14.2926 I0.0137 J0.006
X-74.041 Y14.3451 I-0.053 J-0.0005
G1 X-74.1241 Y14.1701
G3 X-74.1092 Y14.1492 I0.0138 J-0.006
G1 X-74.1062 Y14.1494 Z-0.1297
X-74.1034 Y14.1496 Z-0.1289
X-74.1009 Y14.1499 Z-0.1275
X-74.0986 Y14.15 Z-0.1256
X-74.0967 Y14.1502 Z-0.1233
X-74.0953 Y14.1503 Z-0.1207
X-74.0945 Y14.1504 Z-0.1179
X-74.0942 Z-0.115
G0 Z-0.1
X-74.4858 Y13.3709
G1 Z-0.115 F60.
X-74.4861 Y13.3707 Z-0.1179
X-74.4868 Y13.3703 Z-0.1207
X-74.4879 Y13.3695 Z-0.1233
X-74.4895 Y13.3684 Z-0.1256
X-74.4914 Y13.3672 Z-0.1275
X-74.4935 Y13.3657 Z-0.1289
X-74.4959 Y13.3642 Z-0.1297
X-74.4983 Y13.3625 Z-0.13
G3 X-74.5189 Y13.3395 I0.0347 J-0.0517
G1 X-74.577 Y13.2172
X-74.5783 Y13.2053
X-74.5791 Y13.1934
X-74.5792 Y13.1814
X-74.5786 Y13.1694
X-74.5775 Y13.1575
X-74.5758 Y13.1457
X-74.5735 Y13.134
X-74.5705 Y13.1224
X-74.567 Y13.1109
X-74.5629 Y13.0997
X-74.5582 Y13.0887
X-74.553 Y13.0779
X-74.5472 Y13.0675
X-74.5409 Y13.0573
X-74.5341 Y13.0475
X-74.5268 Y13.038
X-74.519 Y13.0289
X-74.5108 Y13.0202
X-74.5021 Y13.012
X-74.493 Y13.0042
X-74.4835 Y12.9969
X-74.4737 Y12.9901
X-74.4635 Y12.9838
X-74.453 Y12.9781
X-74.4423 Y12.9728
X-74.4313 Y12.9682
X-74.42 Y12.9641
X-74.4086 Y12.9606
X-74.397 Y12.9577
X-74.3853 Y12.9553
X-74.3734 Y12.9536
X-74.3615 Y12.9525
X-74.3496 Y12.952
X-74.3376 Y12.9521
X-74.3257 Y12.9528
X-74.3138 Y12.9542
X-74.302 Y12.9561
X-74.2921 Y12.9466
X-74.2897 Y12.947
X-74.2875 Y12.9481
X-74.2857 Y12.9497
X-74.1943 Y13.064
G3 X-74.1925 Y13.0788 I-0.012 J0.009
X-74.263 Y13.0906 I-0.039 J-0.0168
X-74.284 Y12.9646 I0.0875 J-0.0793
G2 X-74.2857 Y12.9497 I-0.0138 J-0.0059
G1 X-74.3134 Y12.9152
X-74.3239 Y12.9099
X-74.3346 Y12.9051
X-74.3456 Y12.9009
X-74.3567 Y12.8973
X-74.368 Y12.8942
X-74.3795 Y12.8917
X-74.3911 Y12.8898
X-74.4027 Y12.8885
X-74.4145 Y12.8878
X-74.4262 Y12.8877
X-74.4379 Y12.8882
X-74.4496 Y12.8892
X-74.4612 Y12.8909
X-74.4727 Y12.8932
X-74.4841 Y12.896
X-74.4953 Y12.8995
X-74.5064 Y12.9035
X-74.5172 Y12.908
X-74.5277 Y12.9131
X-74.538 Y12.9188
X-74.548 Y12.9249
X-74.5577 Y12.9316
X-74.567 Y12.9387
X-74.5759 Y12.9463
X-74.5845 Y12.9543
X-74.5926 Y12.9628
X-74.6003 Y12.9717
X-74.6075 Y12.9809
X-74.6142 Y12.9906
X-74.6204 Y13.0005
X-74.6261 Y13.0107
X-74.6313 Y13.0213
X-74.636 Y13.032
X-74.64 Y13.043
X-74.6435 Y13.0542
X-74.6526 Y13.0543
X-74.6527 Y13.057
X-74.652 Y13.0595
X-74.577 Y13.2172
G2 X-74.5644 Y13.2253 I0.0133 J-0.0069
X-74.5268 Y13.191 I0.0017 J-0.0359
X-74.6393 Y13.0675 I-0.118 J-0.0055
G3 X-74.652 Y13.0595 I0.0007 J-0.015
G1 X-74.6679 Y13.026
G3 X-74.424 Y12.7958 I0.2124 J-0.0193
G1 X-74.4204 Y12.7867
X-74.4179 Y12.787
X-74.4156 Y12.7881
X-74.4138 Y12.7898
X-74.3134 Y12.9152
G3 X-74.3117 Y12.9301 I-0.012 J0.009
X-74.3729 Y12.9469 I-0.0374 J-0.0161
X-74.412 Y12.8047 I0.0694 J-0.0956
G2 X-74.4138 Y12.7898 I-0.0138 J-0.0059
G1 X-74.4379 Y12.7597
X-74.4481 Y12.7545
X-74.4585 Y12.7499
X-74.4692 Y12.7459
X-74.4801 Y12.7425
X-74.4911 Y12.7397
X-74.5023 Y12.7375
X-74.5136 Y12.7359
X-74.5249 Y12.7349
X-74.5363 Y12.7345
X-74.5477 Y12.7348
X-74.559 Y12.7357
X-74.5703 Y12.7372
X-74.5815 Y12.7393
X-74.5926 Y12.742
X-74.6035 Y12.7454
X-74.6142 Y12.7493
X-74.6247 Y12.7538
X-74.6349 Y12.7588
X-74.6448 Y12.7644
X-74.6544 Y12.7706
X-74.6636 Y12.7772
X-74.6725 Y12.7844
X-74.6809 Y12.792
X-74.689 Y12.8001
X-74.6966 Y12.8086
X-74.7037 Y12.8175
X-74.7103 Y12.8268
X-74.7164 Y12.8364
X-74.7219 Y12.8463
X-74.727 Y12.8565
X-74.7314 Y12.867
X-74.7353 Y12.8777
X-74.7376 Y12.8793
X-74.6679 Y13.026
G2 X-74.6552 Y13.0341 I0.0133 J-0.0069
X-74.6136 Y12.988 I0.0019 J-0.0402
X-74.725 Y12.8874 I-0.1168 J0.0174
G3 X-74.7376 Y12.8793 I0.0007 J-0.015
G1 X-74.7536 Y12.8455
G3 X-74.5348 Y12.6386 I0.1984 J-0.0093
G1 X-74.4379 Y12.7597
G3 X-74.4362 Y12.7745 I-0.012 J0.009
X-74.5017 Y12.7897 I-0.0383 J-0.0165
X-74.5331 Y12.6535 I0.0771 J-0.0895
G2 X-74.5348 Y12.6386 I-0.0138 J-0.0059
G1 X-74.5593 Y12.6081
G2 X-74.8199 Y12.706 I-0.0867 J0.1652
G1 X-74.7536 Y12.8455
G2 X-74.741 Y12.8536 I0.0133 J-0.0069
X-74.6988 Y12.8009 I0.0019 J-0.0417
X-74.8073 Y12.7141 I-0.1139 J0.0312
G3 X-74.8199 Y12.706 I0.0007 J-0.015
G1 X-74.8334 Y12.6778
G3 X-74.6524 Y12.4918 I0.166 J-0.0194
G1 X-74.5593 Y12.6081
G3 X-74.5575 Y12.623 I-0.012 J0.009
X-74.6266 Y12.6358 I-0.0389 J-0.0167
X-74.6506 Y12.5067 I0.0845 J-0.0825
G2 X-74.6524 Y12.4918 I-0.0138 J-0.0059
G1 X-74.6759 Y12.4624
G2 X-74.8993 Y12.539 I-0.0774 J0.1384
G1 X-74.8334 Y12.6778
G2 X-74.8207 Y12.6859 I0.0133 J-0.0069
X-74.7786 Y12.6325 I0.0019 J-0.0418
X-74.8867 Y12.5471 I-0.1135 J0.0325
G3 X-74.8993 Y12.539 I0.0007 J-0.015
G1 X-74.9136 Y12.5089
G3 X-74.8447 Y12.3752 I0.1148 J-0.0254
X-74.7461 Y12.3748 I0.0502 J0.22
G1 X-74.6759 Y12.4624
G3 X-74.6858 Y12.4862 I-0.012 J0.009
G1 X-74.8859 Y12.515
X-74.8982 Y12.5168
G3 X-74.9136 Y12.5089 I-0.0021 J-0.0149
G1 X-74.9479 Y12.4368
G3 X-74.9326 Y12.3563 I0.0578 J-0.0307
X-74.9228 Y12.3695 I-0.0052 J0.0141
G1 X-74.9221 Y12.383
X-74.9197 Y12.3889
X-74.9179 Y12.395
X-74.9167 Y12.4012
X-74.9161 Y12.4075
Y12.4139
X-74.9167 Y12.4202
X-74.9179 Y12.4265
X-74.9198 Y12.4325
X-74.9221 Y12.4384
X-74.9239 Y12.4406
X-74.9261 Y12.4424
X-74.9286 Y12.4437
X-74.9313 Y12.4446
X-74.9341 Y12.4449
X-74.9369 Y12.4448
X-74.9396 Y12.4441
X-74.9422 Y12.4429
X-74.9444 Y12.4412
X-74.9464 Y12.4392
X-74.9479 Y12.4368
X-74.9798 Y12.3695
X-74.9822 Y12.364
X-74.9834 Y12.3579
X-74.9838 Y12.3513
X-74.9836 Y12.3485
X-74.9823 Y12.3446
X-74.9792 Y12.3418
X-74.9751 Y12.3408
X-74.9711 Y12.3419
G3 X-74.9567 Y12.3577 I-0.0207 J0.0335
X-74.9798 Y12.3695 I-0.0116 J0.0059
G1 X-74.9922 Y12.3435
X-74.9928 Y12.3422
X-74.9936 Y12.3406
X-74.9959 Y12.335
X-74.9947 Y12.3324
X-74.9922 Y12.331
X-74.9893 Y12.3315
G3 X-74.9857 Y12.334 I-0.0207 J0.0335
X-74.9922 Y12.3423 I-0.0032 J0.0041
X-74.9936 Y12.3406 I0.0032 J-0.0041
G1 X-74.9979 Y12.3315
X-74.9985 Y12.3304
X-74.9989 Y12.3295
X-74.9996 Y12.3277
X-74.9993 Y12.3269
X-74.9986 Y12.3265
X-74.9977 Y12.3267
X-74.9966 Y12.3274
X-74.9975 Y12.3304
X-74.9989 Y12.3295
X-75.0003 Y12.3265
X-75.0006 Y12.326
G2 X-74.8447 Y12.3752 I0.1884 J-0.3255
G3 X-74.833 Y12.3847 I-0.0023 J0.0148
G1 X-74.8325 Y12.3874 Z-0.1297
X-74.832 Y12.39 Z-0.129
X-74.8326 Y12.3925 Z-0.1277
X-74.8331 Y12.3947 Z-0.1259
X-74.8335 Y12.3966 Z-0.1237
X-74.8342 Y12.3976 Z-0.1217
X-74.8346 Y12.3984 Z-0.1196
X-74.8349 Y12.3988 Z-0.1173
X-74.835 Y12.399 Z-0.115
G0 Z0.4
X-74.3348 Y10.0904
Z0.1
G3 X-74.4383 Y10.1097 Z0.0791 I-0.0606 J-0.0375 F13.333
X-74.4481 Y10.0048 Z0.0582 I0.043 J-0.0569
X-74.3427 Y10.1009 Z0.0187 I0.0527 J0.048
X-74.456 Y10.0904 Z-0.0045 I-0.0527 J-0.048
X-74.4271 Y9.989 Z-0.0255 I0.0606 J-0.0375
X-74.3289 Y10.0271 Z-0.0464 I0.0318 J0.0638
X-74.3759 Y10.1214 Z-0.0673 I-0.0665 J0.0258
X-74.4655 Y10.0659 Z-0.0882 I-0.0195 J-0.0686
X-74.4019 Y9.9818 Z-0.1091 I0.0701 J-0.0131
X-74.3241 Y10.0528 Z-0.13 I0.0066 J0.071
X-74.4667 I-0.0713 J0.
X-74.3241 I0.0713 J0.
X-74.4724 Y10.1787 I-0.0778 J0.0587 F60.
G1 X-74.4807 Y10.1737
X-74.4887 Y10.1682
X-74.4963 Y10.1622
X-74.5035 Y10.1557
X-74.5103 Y10.1488
X-74.5167 Y10.1415
X-74.5225 Y10.1338
X-74.5279 Y10.1257
X-74.5327 Y10.1173
X-74.537 Y10.1086
X-74.5408 Y10.0997
X-74.544 Y10.0905
X-74.5466 Y10.0812
X-74.5486 Y10.0717
X-74.55 Y10.0621
X-74.5508 Y10.0525
X-74.551 Y10.0428
X-74.5505 Y10.0331
X-74.5495 Y10.0235
X-74.5479 Y10.0139
X-74.5456 Y10.0045
X-74.5428 Y9.9952
X-74.5394 Y9.9861
X-74.5354 Y9.9773
X-74.5309 Y9.9687
X-74.5258 Y9.9605
X-74.5202 Y9.9525
X-74.5142 Y9.945
X-74.5077 Y9.9378
X-74.5007 Y9.9311
X-74.4933 Y9.9248
X-74.4856 Y9.919
X-74.4775 Y9.9137
X-74.469 Y9.9089
X-74.4603 Y9.9046
X-74.4514 Y9.9009
X-74.4422 Y9.8978
X-74.4329 Y9.8953
X-74.4234 Y9.8933
X-74.4138 Y9.892
X-74.4041 Y9.8913
X-74.3944 Y9.8912
X-74.3847 Y9.8917
X-74.3751 Y9.8928
X-74.3656 Y9.8945
X-74.3562 Y9.8968
X-74.3469 Y9.8997
X-74.3379 Y9.9032
X-74.3291 Y9.9072
X-74.3205 Y9.9118
X-74.3123 Y9.9169
X-74.3044 Y9.9225
X-74.2969 Y9.9286
X-74.2898 Y9.9352
X-74.2831 Y9.9422
X-74.2769 Y9.9496
X-74.2711 Y9.9574
X-74.2658 Y9.9656
X-74.2611 Y9.974
X-74.2569 Y9.9827
X-74.2533 Y9.9917
X-74.2503 Y10.0009
G3 X-74.2123 Y10.1366 I-0.065 J0.0913
G1 X-74.2978 Y10.2399
G3 X-74.5748 Y10.2241 I-0.1309 J-0.1411
G1 X-74.5981 Y9.9717
G3 X-74.2817 Y9.8304 I0.2058 J0.036
G2 X-74.1548 Y10.067 I0.7604 J-0.2555
G1 X-74.2123 Y10.1366
G3 X-74.2266 Y10.1413 I-0.0112 J-0.01
X-74.3118 Y10.0806 I0.0258 J-0.1264
X-74.2953 Y9.8564 I0.1694 J-0.1002
G1 X-74.2852 Y9.8449
G2 X-74.2817 Y9.8304 I-0.0109 J-0.0103
G1 X-74.2959 Y9.788
X-74.3002 Y9.777
X-74.303 Y9.7721
X-74.3044 Y9.7702
X-74.3063 Y9.7688
X-74.3086 Y9.768
G3 X-74.4275 Y9.7403 I0.006 J-0.2954
G2 X-74.6152 Y9.7971 I-0.0489 J0.1771
G1 X-74.5981 Y9.9717
G2 X-74.589 Y9.9836 I0.0149 J-0.0019
X-74.5417 Y9.9643 I0.014 J-0.0332
X-74.605 Y9.81 I-0.109 J-0.0454
G3 X-74.6141 Y9.798 I0.0058 J-0.0138
G1 X-74.6174 Y9.7627
G3 X-74.5419 Y9.6626 I0.0999 J-0.0032
G2 X-74.4611 Y9.7258 I0.1596 J-0.121
G1 X-74.4554 Y9.7291
X-74.4379 Y9.7364
X-74.4275 Y9.7403
G3 X-74.4183 Y9.7522 I-0.0057 J0.0139
X-74.4329 Y9.7779 I-0.0242 J0.0032
X-74.5384 Y9.68 I-0.0309 J-0.0724
G2 X-74.5413 Y9.6653 I-0.0142 J-0.0049
G1 X-74.5538 Y9.6518
G2 X-74.6294 Y9.6468 I-0.0407 J0.0411
G1 X-74.6174 Y9.7627
G2 X-74.5884 Y9.7661 I0.0149 J-0.0019
G1 X-74.5563 Y9.6808
X-74.5511 Y9.667
G2 X-74.5538 Y9.6518 I-0.014 J-0.0053
G1 X-74.5684 Y9.6362
X-74.577 Y9.6266
X-74.5861 Y9.613
G2 X-74.6325 Y9.5991 I-0.0277 J0.0081
G1 X-74.6279 Y9.6488
G2 X-74.6188 Y9.6607 I0.0149 J-0.0019
X-74.5993 Y9.648 I0.0055 J-0.013
X-74.6234 Y9.611 I-0.0394 J-0.0006
G3 X-74.6325 Y9.5991 I0.0058 J-0.0138
G1 X-74.6335 Y9.5876
X-74.6338 Y9.5817
X-74.6321 Y9.5759
X-74.6292 Y9.5706
X-74.6254 Y9.566
X-74.6247 Y9.5654
X-74.6215 Y9.5636
X-74.6178 Y9.5633
X-74.6143 Y9.5647
X-74.6118 Y9.5675
X-74.5861 Y9.613
G3 X-74.5997 Y9.6289 I-0.01 J0.0052
G1 X-74.6035 Y9.6275
G3 X-74.6335 Y9.5876 I0.0199 J-0.0462
G1 X-74.6361 Y9.5595
X-74.6364 Y9.5535
X-74.6359 Y9.5519
X-74.6338 Y9.5484
X-74.6302 Y9.5463
X-74.6261 Y9.5461
X-74.6224 Y9.5479
X-74.62 Y9.5513
G3 X-74.6199 Y9.5606 I-0.0142 J0.0049
G1 X-74.6236 Y9.5626
X-74.6254 Y9.5664
X-74.6229 Y9.566
G2 X-74.62 Y9.5513 I-0.0113 J-0.0098
G1 X-74.6231 Y9.5433
X-74.624 Y9.5404
X-74.626 Y9.5347
X-74.6298 Y9.5329
X-74.6339 Y9.5335
X-74.637 Y9.5364
X-74.6379 Y9.5405
X-74.6361 Y9.5595
G2 X-74.627 Y9.5715 I0.0149 J-0.0019
X-74.6191 Y9.5583 I0.003 J-0.0072
X-74.6288 Y9.5525 I-0.0249 J0.0305
G3 X-74.6379 Y9.5405 I0.0058 J-0.0138
G1 X-74.6388 Y9.5309
X-74.639 Y9.5249
X-74.6368 Y9.5224
X-74.6335 Y9.5215
X-74.6303 Y9.5228
X-74.6284 Y9.5256
X-74.624 Y9.5404
G3 X-74.6253 Y9.5453 I-0.0049 J0.0013
X-74.6352 Y9.5372 I-0.0045 J-0.0046
X-74.6298 Y9.5304 I0.0332 J0.0212
G2 X-74.6284 Y9.5256 I-0.0036 J-0.0036
G1 X-74.6307 Y9.518
X-74.6327 Y9.5123
X-74.636 Y9.5113
X-74.6391 Y9.5128
X-74.6401 Y9.5162
X-74.6388 Y9.5309
G2 X-74.6292 Y9.543 I0.0149 J-0.0019
G1 X-74.6329 Y9.5462
G3 X-74.6401 Y9.5162 I0.1352 J-0.0482
G1 X-74.6407 Y9.5102
X-74.6408 Y9.5072
X-74.6388 Y9.5049
X-74.6359
X-74.6339 Y9.5072
X-74.6307 Y9.518
G3 X-74.6302 Y9.5207 I-0.0108 J0.0032
G1 X-74.6294 Y9.5377
G2 X-74.6339 Y9.5072 I-0.1434 J0.0058
G1 X-74.6358 Y9.5011
X-74.6363 Y9.4996
X-74.6385 Y9.4987
X-74.6407 Y9.4997
X-74.6414 Y9.502
G2 X-74.6401 Y9.5048 I0.005 J-0.0006
G1 X-74.6387
X-74.6377
X-74.6376 Y9.5057
X-74.6384 Y9.506
X-74.6398 Y9.505
X-74.6409 Y9.5036
X-74.6414 Y9.502
X-74.6418 Y9.4979
X-74.6419 Y9.4949
X-74.6405 Y9.4936
X-74.6387 Y9.4938
X-74.6375 Y9.4952
G3 X-74.6377 Y9.4984 I-0.0049 J0.0012
G1 X-74.639 Y9.4989
X-74.6399 Y9.4992
X-74.6398 Y9.5001
X-74.6389
X-74.6379 Y9.4987
X-74.6374 Y9.497
X-74.6375 Y9.4952
X-74.6385 Y9.4915
X-74.639 Y9.49
X-74.6404 Y9.4894
X-74.6419 Y9.49
X-74.6424 Y9.4915
G2 X-74.6411 Y9.4944 I0.005 J-0.0006
G1 X-74.6396
X-74.6387
X-74.6385 Y9.4953
X-74.6393 Y9.4956
X-74.6408 Y9.4946
X-74.6419 Y9.4932
X-74.6424 Y9.4915
X-74.6427 Y9.4886
Y9.4871
X-74.6418 Y9.4861
X-74.6405 Y9.4862
X-74.6397 Y9.4872
G3 X-74.6399 Y9.4903 I-0.0049 J0.0012
G1 X-74.6412 Y9.4909
X-74.6421 Y9.4912
X-74.642 Y9.4921
X-74.6411
X-74.6401 Y9.4906
X-74.6396 Y9.489
X-74.6397 Y9.4872
X-74.6403 Y9.485
X-74.6407 Y9.4835
X-74.6417 Y9.4831
X-74.6427 Y9.4835
X-74.643 Y9.4846
X-74.6417 Y9.4854 Z-0.1295
X-74.6404 Y9.4846 Z-0.1267
G0 Z0.4
X-74.6308 Y9.5288
Z-0.1
G1 Z-0.115 F60.
X-74.6309 Y9.5285 Z-0.1179
X-74.6312 Y9.5277 Z-0.1207
X-74.6317 Y9.5264 Z-0.1233
X-74.6323 Y9.5246 Z-0.1256
X-74.633 Y9.5225 Z-0.1275
X-74.6339 Y9.52 Z-0.1289
X-74.6349 Y9.5174 Z-0.1297
X-74.6358 Y9.5146 Z-0.13
G3 X-74.643 Y9.4846 I0.1352 J-0.0482
G1 X-74.6433 Y9.4812
X-74.6434 Y9.4797
X-74.6428 Y9.4793
X-74.642 Y9.4795
X-74.6416 Y9.4801
Y9.4811
X-74.6378 Y9.5108
G2 X-74.6416 Y9.4801 I-0.1435 J0.0023
G1 X-74.6423 Y9.4774
X-74.6428 Y9.476
X-74.6433 Y9.4759
X-74.6437 Y9.4762
X-74.6438 Y9.4766
X-74.6436 Y9.4785 Z-0.1297
X-74.6434 Y9.4803 Z-0.1289
X-74.6427 Y9.4796 Z-0.1281
X-74.6421 Y9.479 Z-0.127
X-74.6423 Y9.4784 Z-0.1258
X-74.6424 Y9.478 Z-0.1244
Y9.4778 Z-0.123
G0 Z0.4
X-74.6315 Y9.5208
Z-0.1
G1 Z-0.115 F60.
X-74.6316 Y9.5206 Z-0.1179
X-74.6319 Y9.5198 Z-0.1207
X-74.6324 Y9.5185 Z-0.1233
X-74.633 Y9.5167 Z-0.1256
X-74.6338 Y9.5146 Z-0.1275
X-74.6346 Y9.5121 Z-0.1289
X-74.6356 Y9.5095 Z-0.1297
X-74.6366 Y9.5067 Z-0.13
G3 X-74.6438 Y9.4766 I0.1352 J-0.0482
G1 X-74.6439 Y9.475
X-74.644 Y9.4735
X-74.6434 Y9.473
G3 X-74.6406 Y9.5037 I-0.1036 J0.0249
G1 Y9.5038
G3 X-74.6434 Y9.473 I0.4396 J-0.0553
G1 X-74.6436 Y9.4712
X-74.6438 Y9.4697
X-74.6441
X-74.6443 Y9.4699
X-74.6444 Y9.4702
G0 Z0.4
X-74.6321 Y9.5144
Z-0.1
G1 Z-0.115 F60.
X-74.6322 Y9.5141 Z-0.1179
X-74.6325 Y9.5133 Z-0.1207
X-74.633 Y9.512 Z-0.1233
X-74.6336 Y9.5102 Z-0.1256
X-74.6344 Y9.5081 Z-0.1275
X-74.6352 Y9.5057 Z-0.1289
X-74.6362 Y9.503 Z-0.1297
X-74.6372 Y9.5002 Z-0.13
G3 X-74.6444 Y9.4702 I0.1352 J-0.0482
G1 X-74.6445 Y9.4688
X-74.6446 Y9.4673
X-74.6443 Y9.4672
X-74.644 Y9.4673
X-74.6439 Y9.4676
G0 Z0.4
X-74.6392 Y9.5133
Z-0.1
G1 Z-0.115 F60.
X-74.6393 Y9.513 Z-0.1179
X-74.6394 Y9.5121 Z-0.1207
X-74.6396 Y9.5108 Z-0.1233
X-74.6398 Y9.5089 Z-0.1256
X-74.6401 Y9.5067 Z-0.1275
X-74.6404 Y9.5041 Z-0.1289
X-74.6408 Y9.5013 Z-0.1297
X-74.6411 Y9.4984 Z-0.13
G3 X-74.6439 Y9.4676 I0.4396 J-0.0553
G1 X-74.644 Y9.4663
X-74.6442 Y9.4649
X-74.6445 Y9.4648
X-74.6447 Y9.465
X-74.6448 Y9.4653
G0 Z0.4
X-74.6376 Y9.4953
Z-0.0362
G1 Z-0.13 F60.
G3 X-74.6448 Y9.4653 I0.1352 J-0.0482
G1 X-74.645 Y9.4636
Y9.4621
X-74.6448 Y9.462
X-74.6445 Y9.4621
X-74.6444 Y9.4624
G0 Z0.4
X-74.6397 Y9.5081
Z-0.1
G1 Z-0.115 F60.
X-74.6398 Y9.5078 Z-0.1179
X-74.6399 Y9.5069 Z-0.1207
X-74.64 Y9.5056 Z-0.1233
X-74.6403 Y9.5037 Z-0.1256
X-74.6406 Y9.5014 Z-0.1275
X-74.6409 Y9.4989 Z-0.1289
X-74.6412 Y9.4961 Z-0.1297
X-74.6416 Y9.4932 Z-0.13
G3 X-74.6444 Y9.4624 I0.4396 J-0.0553
G1 X-74.6445 Y9.461
X-74.6447 Y9.4595
X-74.645 Y9.4594
X-74.6452 Y9.4596
X-74.6453 Y9.4599
G0 Z0.4
X-74.6425 Y9.4907
Z-0.0362
G1 Z-0.13 F60.
G2 X-74.6453 Y9.4599 I-0.4423 J0.0253
G1 X-74.6455 Y9.4584
Y9.4569
X-74.6452 Y9.4568
X-74.645 Y9.457
X-74.6448 Y9.4572
G0 Z0.4
X-74.6402 Y9.5029
Z-0.1
G1 Z-0.115 F60.
Y9.5026 Z-0.1179
X-74.6403 Y9.5018 Z-0.1207
X-74.6405 Y9.5004 Z-0.1233
X-74.6407 Y9.4986 Z-0.1256
X-74.641 Y9.4963 Z-0.1275
X-74.6413 Y9.4937 Z-0.1289
X-74.6417 Y9.4909 Z-0.1297
X-74.6421 Y9.488 Z-0.13
G3 X-74.6448 Y9.4572 I0.4396 J-0.0553
G1 X-74.645 Y9.4554
X-74.6452 Y9.4539
X-74.6455
X-74.6458 Y9.4541
Y9.4544
G0 Z0.4
X-74.6444 Y9.4697
Z-0.0362
G1 Z-0.13 F60.
X-74.6458 Y9.4544
X-74.6459 Y9.4532
X-74.646 Y9.4517
X-74.6457 Y9.4516
X-74.6454 Y9.4517
X-74.6453 Y9.452
G0 Z0.4
X-74.643 Y9.4824
Z-0.1
G1 Z-0.115 F60.
Y9.4821 Z-0.1179
X-74.6431 Y9.4813 Z-0.1207
X-74.6432 Y9.4799 Z-0.1233
X-74.6434 Y9.478 Z-0.1256
X-74.6436 Y9.4758 Z-0.1275
X-74.6438 Y9.4732 Z-0.1289
X-74.6441 Y9.4704 Z-0.1297
X-74.6444 Y9.4675 Z-0.13
X-74.6453 Y9.452
Y9.4505
X-74.6455 Y9.449
X-74.6459 Y9.4489
X-74.6462 Y9.4491
X-74.6463 Y9.4495
G0 Z0.4
X-74.6449 Y9.4649
Z-0.0362
G1 Z-0.13 F60.
X-74.6463 Y9.4495
X-74.6464 Y9.4479
X-74.6465 Y9.4464
X-74.6461 Y9.4463
X-74.6457 Y9.4464
X-74.6456 Y9.4468
G0 Z0.4
X-74.6428 Y9.4849
Z-0.1
G1 Z-0.115 F60.
X-74.6429 Y9.4846 Z-0.1179
Y9.4838 Z-0.1207
X-74.6431 Y9.4824 Z-0.1233
X-74.6432 Y9.4805 Z-0.1256
X-74.6435 Y9.4782 Z-0.1275
X-74.6437 Y9.4757 Z-0.1289
X-74.644 Y9.4729 Z-0.1297
X-74.6442 Y9.4699 Z-0.13
G3 X-74.6456 Y9.4468 I0.3308 J-0.0307
G1 Y9.4452
X-74.6458 Y9.4437
X-74.6462 Y9.4436
X-74.6466 Y9.4439
X-74.6468 Y9.4443
G0 Z0.4
X-74.6439 Y9.4751
Z-0.0362
G1 Z-0.13 F60.
G2 X-74.6468 Y9.4443 I-0.4423 J0.0253
G1 X-74.6469 Y9.4427
X-74.647 Y9.4412
X-74.6465 Y9.4411
X-74.6461 Y9.4412
X-74.6458 Y9.4417
X-74.6459 Y9.4421
X-74.6441 Y9.4725
Y9.4726
G3 X-74.6458 Y9.4417 I0.4411 J-0.0409
G1 X-74.6459 Y9.4406
X-74.6461 Y9.4391
X-74.6466 Y9.4389
X-74.647 Y9.4392
X-74.6472 Y9.4396
G0 Z0.4
X-74.6415 Y9.5013
Z-0.0362
G1 Z-0.13 F60.
G2 X-74.6472 Y9.4396 I-0.8857 J0.0507
G1 X-74.6473 Y9.4385
X-74.6474 Y9.437
X-74.6469 Y9.4368
X-74.6463 Y9.4369
X-74.6461 Y9.4374
Y9.4379
X-74.6443 Y9.4683
G3 X-74.6461 Y9.4374 I0.4411 J-0.0409
G1 X-74.6462 Y9.4361
X-74.6463 Y9.4346
X-74.6469 Y9.4344
X-74.6474 Y9.4347
X-74.6476 Y9.4353
G0 Z0.4
X-74.6438 Y9.4764
Z-0.0362
G1 Z-0.13 F60.
G2 X-74.6476 Y9.4353 I-0.5904 J0.0338
G1 X-74.6477 Y9.4339
X-74.6478 Y9.4324
X-74.6472 Y9.4321
X-74.6466 Y9.4323
X-74.6464 Y9.4329
X-74.6465 Y9.4336
X-74.6446 Y9.4637
G3 X-74.6464 Y9.4329 I0.4411 J-0.0409
G1 X-74.6465 Y9.431
X-74.6466 Y9.4295
X-74.6473 Y9.4293
X-74.6479 Y9.4297
X-74.6481 Y9.4303
X-74.648 Y9.4313 Z-0.1299
X-74.6479 Y9.4323 Z-0.1296
X-74.6471 Y9.4316 Z-0.129
X-74.6465 Y9.431 Z-0.1281
X-74.6467 Y9.4303 Z-0.1271
X-74.6469 Y9.4299 Z-0.1259
Y9.4298 Z-0.1247
G0 Z0.4
X-74.6459 Y9.4534
Z-0.0362
G1 Z-0.13 F60.
G2 X-74.6481 Y9.4303 I-0.3317 J0.019
G1 X-74.6482 Y9.4286
X-74.6483 Y9.4271
X-74.6476 Y9.4268
X-74.647 Y9.427
X-74.6467 Y9.4276
X-74.6468 Y9.4284
X-74.6449 Y9.4585
G3 X-74.6467 Y9.4276 I0.4411 J-0.0409
G1 Y9.4261
X-74.6469 Y9.4246
X-74.6476 Y9.4243
X-74.6483 Y9.4246
X-74.6485 Y9.4253
X-74.6484 Y9.4263 Z-0.1299
X-74.6483 Y9.4272 Z-0.1296
X-74.6476 Y9.4265 Z-0.129
X-74.647 Y9.4259 Z-0.1282
X-74.6472 Y9.4253 Z-0.1272
X-74.6473 Y9.4249 Z-0.126
Y9.4248 Z-0.1248
G0 Z0.4
X-74.6464 Y9.4484
Z-0.0362
G1 Z-0.13 F60.
G2 X-74.6485 Y9.4253 I-0.3317 J0.019
G1 X-74.6487 Y9.4234
X-74.6488 Y9.4219
X-74.6481 Y9.4215
X-74.6473 Y9.4217
X-74.647 Y9.4224
X-74.6471 Y9.4233
X-74.6452 Y9.4533
G3 X-74.647 Y9.4224 I0.4411 J-0.0409
G1 X-74.6471 Y9.4207
X-74.6472 Y9.4192
X-74.648 Y9.4189
X-74.6487 Y9.4192
X-74.649 Y9.42
X-74.6489 Y9.4209 Z-0.1299
X-74.6488 Y9.4219 Z-0.1297
X-74.6481 Y9.4211 Z-0.1291
X-74.6475 Y9.4206 Z-0.1282
X-74.6477 Y9.4199 Z-0.1272
X-74.6478 Y9.4195 Z-0.1261
Y9.4194 Z-0.1249
G0 Z0.4
X-74.6469 Y9.4431
Z-0.0362
G1 Z-0.13 F60.
G2 X-74.649 Y9.42 I-0.3317 J0.019
G1 X-74.6491 Y9.4186
X-74.6492 Y9.4171
X-74.6485 Y9.4165
X-74.6476 Y9.4167
X-74.6472 Y9.4175
X-74.6474 Y9.4185
X-74.6464 Y9.433
X-74.6459 Y9.4407
G3 X-74.6472 Y9.4175 I0.3308 J-0.0307
G1 X-74.6474 Y9.4152
X-74.6475 Y9.4137
X-74.6484 Y9.4133
X-74.6492 Y9.4137
X-74.6495 Y9.4146
X-74.6494 Y9.4157 Z-0.1299
X-74.6493 Y9.4168 Z-0.1295
X-74.6483 Y9.4161 Z-0.1287
X-74.6475 Y9.4156 Z-0.1276
X-74.6476 Y9.415 Z-0.1261
Y9.4147 Z-0.1245
G0 Z0.4
X-74.6481 Y9.43
Z-0.0362
G1 Z-0.13 F60.
X-74.6495 Y9.4146
X-74.6497 Y9.4128
Y9.4113
X-74.649 Y9.4108
X-74.648 Y9.411
X-74.6476 Y9.4118
Y9.4119
X-74.6477 Y9.4129
X-74.6467 Y9.4273
X-74.6476 Y9.4118
X-74.6478 Y9.4086
X-74.6479 Y9.4071
X-74.6489 Y9.4068
X-74.6498 Y9.4072
X-74.6501 Y9.4082
X-74.6479 Y9.4072 Z-0.1285
Y9.4067 Z-0.1267
G0 Z0.4
X-74.6472 Y9.439
Z-0.0362
G1 Z-0.13 F60.
G2 X-74.6501 Y9.4082 I-0.4423 J0.0253
G1 X-74.6504 Y9.4053
Y9.4038
X-74.6495 Y9.4033
X-74.6485 Y9.4036
X-74.648 Y9.4045
X-74.6482 Y9.4057
X-74.6463 Y9.4354
X-74.6444 Y9.4663
G3 X-74.648 Y9.4045 I0.8833 J-0.0818
G1 X-74.6481 Y9.4021
X-74.6482 Y9.4006
X-74.6492 Y9.4
X-74.6503 Y9.4005
X-74.6507 Y9.4016
X-74.6496 Y9.4021 Z-0.1298
X-74.6481 Y9.4009 Z-0.1273
G0 Y9.4008 Z0.4
X-74.6486 Y9.4247
Z-0.0362
G1 Z-0.13 F60.
G2 X-74.6507 Y9.4016 I-0.3317 J0.019
G1 X-74.651 Y9.3988
Y9.3973
X-74.6499 Y9.3966
X-74.6487 Y9.3969
X-74.6481 Y9.3981
X-74.6484 Y9.3993
X-74.6475 Y9.4289
Y9.429
G3 X-74.6481 Y9.3981 I0.4424 J-0.024
G1 X-74.6482 Y9.3952
X-74.6483 Y9.3937
X-74.6495 Y9.393
X-74.6509 Y9.3935
X-74.6513 Y9.3948
X-74.6506 Y9.396 Z-0.1298
X-74.65 Y9.3971 Z-0.1292
X-74.6495 Y9.3981 Z-0.1283
X-74.6488 Y9.3985 Z-0.1272
X-74.6483 Y9.3987 Z-0.126
X-74.6482 Y9.3988 Z-0.1246
G0 Z0.4
X-74.6477 Y9.4098
Z-0.0362
G1 Z-0.13 F60.
G3 X-74.6513 Y9.3948 I0.0676 J-0.0241
G1 X-74.6515 Y9.3924
X-74.6516 Y9.3909
X-74.6504 Y9.3898
X-74.6488 Y9.3902
X-74.6482 Y9.3918
X-74.6486 Y9.393
X-74.6498 Y9.4071
X-74.6482 Y9.3918
X-74.6478 Y9.3884
X-74.6477 Y9.3869
X-74.6493 Y9.3858
X-74.6512 Y9.3864
X-74.6519 Y9.3882
G2 X-74.6485 Y9.3926 I0.0054 J-0.0007
G1 X-74.6483 Y9.4032
G3 X-74.6519 Y9.3882 I0.0676 J-0.0241
G1 X-74.6523 Y9.3844
Y9.3829
X-74.6505 Y9.3814
X-74.6482 Y9.382
X-74.6474 Y9.3842
G3 X-74.6487 Y9.3871 I-0.005 J-0.0007
G1 X-74.6502
X-74.6511 Y9.387
X-74.6513 Y9.388
X-74.6505 Y9.3882
X-74.649 Y9.3873
X-74.6479 Y9.3859
X-74.6474 Y9.3842
X-74.647 Y9.3808
X-74.6468 Y9.3794
X-74.6466 Y9.3779
X-74.6488 Y9.3761
X-74.6517 Y9.3768
X-74.6527 Y9.3795
G2 X-74.6514 Y9.3824 I0.005 J-0.0006
G1 X-74.65
X-74.649
X-74.6489 Y9.3833
X-74.6497 Y9.3836
X-74.6511 Y9.3826
X-74.6522 Y9.3812
X-74.6527 Y9.3795
X-74.6532 Y9.3742
X-74.6533 Y9.3727
X-74.6515 Y9.3706
X-74.6487 Y9.3703
X-74.6465 Y9.3719
X-74.6459 Y9.3747
G3 X-74.6475 Y9.3774 I-0.005 J-0.001
G1 X-74.6489 Y9.3773
X-74.6499 Y9.3772
X-74.6501 Y9.3781
X-74.6493 Y9.3784
X-74.6478 Y9.3776
X-74.6466 Y9.3763
X-74.6459 Y9.3747
X-74.645 Y9.3695
X-74.6447 Y9.3665
X-74.6466 Y9.3638
X-74.65 Y9.3631
X-74.6529 Y9.3649
X-74.6538 Y9.3681
G2 X-74.6525 Y9.371 I0.005 J-0.0006
G1 X-74.651
X-74.6501
X-74.6499 Y9.3719
X-74.6507 Y9.3722
X-74.6522 Y9.3712
X-74.6533 Y9.3698
X-74.6538 Y9.3681
X-74.6545 Y9.3609
X-74.6546 Y9.3579
X-74.6525 Y9.3552
X-74.6494 Y9.3542
X-74.6461 Y9.3551
X-74.6439 Y9.3576
X-74.6435 Y9.3609
X-74.645 Y9.3695
G3 X-74.6484 Y9.3733 I-0.005 J-0.001
G1 X-74.6511 Y9.3664
G3 X-74.6469 Y9.3647 I0.0165 J0.0358
G2 X-74.6435 Y9.3609 I-0.0016 J-0.0048
G1 X-74.6419 Y9.352
X-74.6416 Y9.349
X-74.6432 Y9.3432
X-74.6469 Y9.3408
X-74.6513 Y9.3411
X-74.6546 Y9.3439
X-74.6556 Y9.3482
X-74.6545 Y9.3609
G2 X-74.6514 Y9.3649 I0.005 J-0.0006
X-74.6464 Y9.3555 I0.0021 J-0.0049
X-74.6526 Y9.3522 I-0.0214 J0.033
G3 X-74.6556 Y9.3482 I0.002 J-0.0047
G1 X-74.6565 Y9.3383
X-74.6568 Y9.3323
X-74.6542 Y9.3269
X-74.6529 Y9.3255
X-74.6492 Y9.3233
X-74.645 Y9.3232
X-74.6412 Y9.3251
X-74.6389 Y9.3287
X-74.6386 Y9.333
X-74.6389 Y9.3344
X-74.6419 Y9.352
G3 X-74.6425 Y9.3539 I-0.01 J-0.0018
G1 X-74.6488 Y9.3622
G2 X-74.6386 Y9.333 I-0.1297 J-0.0615
G1 X-74.6363 Y9.3212
X-74.6355 Y9.3153
X-74.6372 Y9.3096
X-74.6406 Y9.3046
X-74.6452 Y9.3007
X-74.6471 Y9.2997
X-74.6514 Y9.2987
X-74.6557 Y9.3002
X-74.6586 Y9.3035
X-74.6594 Y9.3079
X-74.6565 Y9.3383
G2 X-74.6471 Y9.3402 I0.005 J-0.0006
G1 X-74.6369 Y9.3226
X-74.6363 Y9.3212
X-74.6344 Y9.3112
X-74.6305 Y9.3014
G2 X-74.6627 Y9.2719 I-0.017 J-0.0137
G1 X-74.6594 Y9.3079
G2 X-74.6524 Y9.3119 I0.005 J-0.0006
G1 X-74.6333 Y9.3041
X-74.6316 Y9.303
X-74.6305 Y9.3014
X-74.6252 Y9.2879
X-74.6178 Y9.2707
X-74.6162 Y9.266
X-74.6153 Y9.2613
X-74.6149 Y9.2564
X-74.6151 Y9.2515
X-74.6159 Y9.2467
X-74.6172 Y9.2421
X-74.6192 Y9.2376
X-74.6216 Y9.2334
X-74.6245 Y9.2295
X-74.6279 Y9.226
X-74.6317 Y9.223
X-74.6358 Y9.2204
X-74.6403 Y9.2183
X-74.6449 Y9.2168
X-74.6497 Y9.2159
X-74.6545 Y9.2155
X-74.6594 Y9.2158
X-74.6642 Y9.2166
X-74.6688 Y9.218
X-74.6627 Y9.2719
G2 X-74.6428 Y9.2842 I0.0149 J-0.0019
G1 X-74.6263 Y9.2784
G2 X-74.6178 Y9.2707 I-0.005 J-0.0142
G1 X-74.6052 Y9.2415
X-74.6002 Y9.232
X-74.5983 Y9.2265
X-74.597 Y9.2208
X-74.5962 Y9.215
X-74.5961 Y9.2091
X-74.5965 Y9.2033
X-74.5975 Y9.1975
X-74.599 Y9.1918
X-74.6011 Y9.1864
X-74.6038 Y9.1812
X-74.6069 Y9.1762
X-74.6106 Y9.1716
X-74.6146 Y9.1674
X-74.6191 Y9.1636
X-74.6239 Y9.1603
X-74.629 Y9.1574
X-74.6344 Y9.1551
X-74.64 Y9.1533
X-74.6457 Y9.1521
X-74.6515 Y9.1515
X-74.6574 Y9.1514
X-74.6632 Y9.152
X-74.669 Y9.1531
X-74.6746 Y9.1547
X-74.6673 Y9.2223
G2 X-74.6582 Y9.2342 I0.0149 J-0.0019
X-74.6485 Y9.2317 I0.0032 J-0.0077
X-74.664 Y9.1709 I-0.0308 J-0.0245
G3 X-74.6731 Y9.159 I0.0058 J-0.0138
G1 X-74.6743 Y9.1465
G3 X-74.5377 Y9.1553 I0.067 J0.0245
G2 X-74.6002 Y9.232 I0.1564 J0.1911
G3 X-74.6121 Y9.238 I-0.012 J-0.0091
G1 X-74.6154 Y9.2376
X-74.6184 Y9.2366
X-74.6212 Y9.2349
X-74.624 Y9.2325
X-74.6264 Y9.2297
G3 X-74.6289 Y9.1998 I0.022 J-0.0169
X-74.55 Y9.1586 I0.0695 J0.037
G2 X-74.5389 Y9.1555 I0.0018 J-0.0149
G1 X-74.5271 Y9.1456
G2 X-74.6836 Y9.0397 I-0.0916 J-0.0332
G1 X-74.6743 Y9.1465
G2 X-74.6652 Y9.1584 I0.0149 J-0.0019
X-74.6283 Y9.1388 I0.0104 J-0.0248
X-74.6751 Y9.051 I-0.0772 J-0.0153
G3 X-74.6842 Y9.0391 I0.0058 J-0.0138
G1 X-74.6859 Y9.0198
G3 X-74.455 Y9.0359 I0.113 J0.044
