%
(971-23-P-0068_ARM GEARBOX PLATE 2_1540)
(T1  D=0.154 CR=0. - ZMIN=-0.2075 - FLAT END MILL)
G90 G94 G17 G91.1
G64 P0.001 Q0.001
G20
G53 G0 Z0.
(.3 CIRCLUAR THROUGH HOLE)
M9
T1 M6
S22000 M3
G4 P10.
G54
M7
G0 X-69.8759 Y14.2035
G43 Z0.6 H1
G0 Z0.13
G1 Z0.0654 F40.
G18 G2 X-69.8605 Z0.05 I0.0154 K0.
G1 X-69.8528
G17 G3 X-69.8411 Y14.2152 I0. J0.0118
X-69.8881 Z0. I-0.0235 J0.
X-69.8791 Y14.1968 Z-0.0144 I0.0235 J0.
X-69.85 Y14.2337 Z-0.0644 I0.0145 J0.0185
X-69.8701 Y14.2381 Z-0.0788 I-0.0145 J-0.0185
X-69.8591 Y14.1924 Z-0.1288 I0.0055 J-0.0229
X-69.8433 Y14.2054 Z-0.1431 I-0.0055 J0.0229
X-69.8859 Y14.2251 Z-0.1931 I-0.0213 J0.0098
X-69.8855 Y14.2045 Z-0.2075 I0.0213 J-0.0098
X-69.8437 Y14.2259 I0.0209 J0.0107
X-69.8855 Y14.2045 I-0.0209 J-0.0107
X-69.8697 Y14.1994 I0.0105 J0.0053
G1 X-69.8629 Y14.2029
X-69.8602 Y14.2043 Z-0.2072
X-69.8576 Y14.2056 Z-0.2063
X-69.8552 Y14.2068 Z-0.2049
X-69.8532 Y14.2079 Z-0.203
X-69.8515 Y14.2087 Z-0.2007
X-69.8502 Y14.2094 Z-0.198
X-69.8494 Y14.2098 Z-0.1951
X-69.8491 Y14.2099 Z-0.1921
G0 Z0.4
X-71.1989 Y13.4883
Z0.13
G1 Z0.0654 F40.
G18 G2 X-71.1834 Z0.05 I0.0154 K0.
G1 X-71.1757
G17 G3 X-71.164 Y13.5 I0. J0.0117
X-71.211 Z0. I-0.0235 J0.
X-71.202 Y13.4815 Z-0.0144 I0.0235 J0.
X-71.173 Y13.5185 Z-0.0644 I0.0145 J0.0185
X-71.193 Y13.5229 Z-0.0788 I-0.0145 J-0.0185
X-71.182 Y13.4772 Z-0.1288 I0.0055 J-0.0229
X-71.1662 Y13.4902 Z-0.1431 I-0.0055 J0.0228
X-71.2088 Y13.5098 Z-0.1931 I-0.0213 J0.0098
X-71.2084 Y13.4893 Z-0.2075 I0.0213 J-0.0098
X-71.1666 Y13.5107 I0.0209 J0.0107
X-71.2084 Y13.4893 I-0.0209 J-0.0107
X-71.1926 Y13.4842 I0.0105 J0.0053
G1 X-71.1858 Y13.4877
X-71.1831 Y13.4891 Z-0.2072
X-71.1805 Y13.4904 Z-0.2063
X-71.1782 Y13.4916 Z-0.2049
X-71.1761 Y13.4926 Z-0.203
X-71.1744 Y13.4935 Z-0.2007
X-71.1731 Y13.4942 Z-0.198
X-71.1723 Y13.4945 Z-0.1951
X-71.1721 Y13.4947 Z-0.1921
G0 Z0.4
X-71.4419 Y11.9883
Z0.13
G1 Z0.0654 F40.
G18 G2 X-71.4265 Z0.05 I0.0154 K0.
G1 X-71.4188
G17 G3 X-71.407 Y12. I0. J0.0117
X-71.454 Z0. I-0.0235 J0.
X-71.4451 Y11.9815 Z-0.0144 I0.0235 J0.
X-71.416 Y12.0185 Z-0.0644 I0.0145 J0.0185
X-71.436 Y12.0229 Z-0.0788 I-0.0145 J-0.0185
X-71.4251 Y11.9771 Z-0.1288 I0.0055 J-0.0229
X-71.4092 Y11.9902 Z-0.1431 I-0.0055 J0.0229
X-71.4519 Y12.0098 Z-0.1931 I-0.0213 J0.0098
X-71.4515 Y11.9893 Z-0.2075 I0.0213 J-0.0098
X-71.4096 Y12.0107 I0.0209 J0.0107
X-71.4515 Y11.9893 I-0.0209 J-0.0107
X-71.4357 Y11.9842 I0.0105 J0.0053
G1 X-71.4288 Y11.9877
X-71.4261 Y11.9891 Z-0.2072
X-71.4236 Y11.9904 Z-0.2063
X-71.4212 Y11.9916 Z-0.2049
X-71.4191 Y11.9926 Z-0.203
X-71.4174 Y11.9935 Z-0.2007
X-71.4161 Y11.9942 Z-0.198
X-71.4154 Y11.9945 Z-0.1951
X-71.4151 Y11.9947 Z-0.1921
G0 Z0.4
X-68.5789 Y11.7706
Z0.13
G1 Z0.0654 F40.
G18 G2 X-68.5634 Z0.05 I0.0154 K0.
G1 X-68.5557
G17 G3 X-68.544 Y11.7824 I0. J0.0118
X-68.591 Z0. I-0.0235 J0.
X-68.582 Y11.7639 Z-0.0144 I0.0235 J0.
X-68.553 Y11.8008 Z-0.0644 I0.0145 J0.0185
X-68.573 Y11.8052 Z-0.0788 I-0.0145 J-0.0185
X-68.562 Y11.7595 Z-0.1287 I0.0055 J-0.0228
X-68.5462 Y11.7725 Z-0.1431 I-0.0055 J0.0229
X-68.5888 Y11.7922 Z-0.1931 I-0.0213 J0.0098
X-68.5884 Y11.7717 Z-0.2075 I0.0213 J-0.0098
X-68.5466 Y11.7931 I0.0209 J0.0107
X-68.5884 Y11.7717 I-0.0209 J-0.0107
X-68.5726 Y11.7666 I0.0105 J0.0053
G1 X-68.5658 Y11.7701
X-68.5631 Y11.7714 Z-0.2072
X-68.5605 Y11.7728 Z-0.2063
X-68.5582 Y11.774 Z-0.2049
X-68.5561 Y11.775 Z-0.203
X-68.5544 Y11.7759 Z-0.2007
X-68.5531 Y11.7765 Z-0.198
X-68.5523 Y11.7769 Z-0.1951
X-68.5521 Y11.7771 Z-0.1921
G0 Z0.4
X-67.6988 Y11.9883
Z0.13
G1 Z0.0654 F40.
G18 G2 X-67.6835 Z0.05 I0.0154 K0.
G1 X-67.6757
G17 G3 X-67.664 Y12. I0. J0.0117
X-67.711 Z0. I-0.0235 J0.
X-67.7021 Y11.9815 Z-0.0144 I0.0235 J0.
X-67.6729 Y12.0185 Z-0.0644 I0.0146 J0.0185
X-67.693 Y12.0229 Z-0.0788 I-0.0146 J-0.0185
X-67.682 Y11.9772 Z-0.1288 I0.0055 J-0.0229
X-67.6662 Y11.9902 Z-0.1431 I-0.0055 J0.0228
X-67.7088 Y12.0098 Z-0.1931 I-0.0213 J0.0098
X-67.7084 Y11.9893 Z-0.2075 I0.0213 J-0.0098
X-67.6666 Y12.0107 I0.0209 J0.0107
X-67.7084 Y11.9893 I-0.0209 J-0.0107
X-67.6926 Y11.9842 I0.0105 J0.0053
G1 X-67.6858 Y11.9877
X-67.6831 Y11.9891 Z-0.2072
X-67.6805 Y11.9904 Z-0.2063
X-67.6781 Y11.9916 Z-0.2049
X-67.6761 Y11.9926 Z-0.203
X-67.6744 Y11.9935 Z-0.2007
X-67.6731 Y11.9942 Z-0.198
X-67.6723 Y11.9945 Z-0.1951
X-67.6721 Y11.9947 Z-0.1921
G0 Z0.4
X-67.6988 Y10.9883
Z0.13
G1 Z0.0654 F40.
G18 G2 X-67.6835 Z0.05 I0.0154 K0.
G1 X-67.6757
G17 G3 X-67.664 Y11. I0. J0.0117
X-67.711 Z0. I-0.0235 J0.
X-67.7021 Y10.9815 Z-0.0144 I0.0235 J0.
X-67.6729 Y11.0185 Z-0.0644 I0.0146 J0.0185
X-67.693 Y11.0229 Z-0.0788 I-0.0146 J-0.0185
X-67.682 Y10.9772 Z-0.1288 I0.0055 J-0.0229
X-67.6662 Y10.9902 Z-0.1431 I-0.0055 J0.0228
X-67.7088 Y11.0098 Z-0.1931 I-0.0213 J0.0098
X-67.7084 Y10.9893 Z-0.2075 I0.0213 J-0.0098
X-67.6666 Y11.0107 I0.0209 J0.0107
X-67.7084 Y10.9893 I-0.0209 J-0.0107
X-67.6926 Y10.9842 I0.0105 J0.0053
G1 X-67.6858 Y10.9877
X-67.6831 Y10.9891 Z-0.2072
X-67.6805 Y10.9904 Z-0.2063
X-67.6781 Y10.9916 Z-0.2049
X-67.6761 Y10.9926 Z-0.203
X-67.6744 Y10.9935 Z-0.2007
X-67.6731 Y10.9942 Z-0.198
X-67.6723 Y10.9945 Z-0.1951
X-67.6721 Y10.9947 Z-0.1921
G0 Z0.4
X-68.824 Y9.6652
Z0.1146
G1 Z0.05 F40.
X-68.8228 Y9.6639
G3 X-68.8215 Y9.6652 I0. J0.0013
X-68.8265 Z0. I-0.0025 J0.
X-68.8255 Y9.6632 Z-0.0144 I0.0025 J0.
X-68.8225 Y9.6671 Z-0.0644 I0.0015 J0.002
X-68.8246 Y9.6676 Z-0.0788 I-0.0015 J-0.002
X-68.8234 Y9.6627 Z-0.1287 I0.0006 J-0.0024
X-68.8217 Y9.6641 Z-0.1431 I-0.0006 J0.0024
X-68.8263 Y9.6662 Z-0.1931 I-0.0023 J0.001
X-68.8262 Y9.664 Z-0.2075 I0.0023 J-0.001
X-68.8218 Y9.6663 I0.0022 J0.0011
X-68.8262 Y9.664 I-0.0022 J-0.0011
X-68.8245 Y9.6635 I0.0011 J0.0006
G1 X-68.824 Y9.6652
G0 Z0.4
X-70.351 Y10.2209
Z0.1146
G1 Z0.05 F40.
X-70.3498 Y10.2197
G3 X-70.3485 Y10.2209 I0. J0.0012
X-70.3535 Z0. I-0.0025 J0.
X-70.3525 Y10.219 Z-0.0144 I0.0025 J0.
X-70.3495 Y10.2229 Z-0.0644 I0.0015 J0.002
X-70.3516 Y10.2234 Z-0.0788 I-0.0015 J-0.002
X-70.3504 Y10.2185 Z-0.1287 I0.0006 J-0.0024
X-70.3487 Y10.2199 Z-0.1431 I-0.0006 J0.0024
X-70.3533 Y10.222 Z-0.1931 I-0.0023 J0.001
X-70.3532 Y10.2198 Z-0.2075 I0.0023 J-0.001
X-70.3488 Y10.2221 I0.0022 J0.0011
X-70.3532 Y10.2198 I-0.0022 J-0.0011
X-70.3515 Y10.2193 I0.0011 J0.0006
G1 X-70.351 Y10.2209
G0 Z0.4
X-71.6363 Y9.4883
Z0.13
G1 Z0.0654 F40.
G18 G2 X-71.6209 Z0.05 I0.0154 K0.
G1 X-71.6133
G17 G3 X-71.6015 Y9.5 I0. J0.0117
X-71.6485 Z0. I-0.0235 J0.
X-71.6395 Y9.4815 Z-0.0144 I0.0235 J0.
X-71.6105 Y9.5185 Z-0.0644 I0.0145 J0.0185
X-71.6305 Y9.5229 Z-0.0788 I-0.0145 J-0.0185
X-71.6195 Y9.4771 Z-0.1287 I0.0055 J-0.0229
X-71.6037 Y9.4902 Z-0.1431 I-0.0055 J0.0229
X-71.6463 Y9.5098 Z-0.1931 I-0.0213 J0.0098
X-71.6459 Y9.4893 Z-0.2075 I0.0213 J-0.0098
X-71.6041 Y9.5107 I0.0209 J0.0107
X-71.6459 Y9.4893 I-0.0209 J-0.0107
X-71.6301 Y9.4842 I0.0105 J0.0053
G1 X-71.6233 Y9.4877
X-71.6206 Y9.4891 Z-0.2072
X-71.618 Y9.4904 Z-0.2063
X-71.6157 Y9.4916 Z-0.2049
X-71.6136 Y9.4926 Z-0.203
X-71.6119 Y9.4935 Z-0.2007
X-71.6106 Y9.4942 Z-0.198
X-71.6098 Y9.4945 Z-0.1951
X-71.6096 Y9.4947 Z-0.1921
G0 Z0.4
X-72.6914 Y9.694
Z0.1146
G1 Z0.05 F40.
X-72.6901 Y9.6928
G3 X-72.6889 Y9.694 I0. J0.0013
X-72.6939 Z0. I-0.0025 J0.
X-72.6929 Y9.6921 Z-0.0144 I0.0025 J0.
X-72.6898 Y9.696 Z-0.0644 I0.0015 J0.002
X-72.692 Y9.6965 Z-0.0788 I-0.0015 J-0.002
X-72.6908 Y9.6916 Z-0.1288 I0.0006 J-0.0024
X-72.6891 Y9.693 Z-0.1431 I-0.0006 J0.0024
X-72.6936 Y9.6951 Z-0.1931 I-0.0023 J0.001
Y9.6929 Z-0.2075 I0.0023 J-0.001
X-72.6891 Y9.6952 I0.0022 J0.0011
X-72.6936 Y9.6929 I-0.0022 J-0.0011
X-72.6919 Y9.6924 I0.0011 J0.0006
G1 X-72.6914 Y9.694
G0 Z0.4
X-74.2917 Y9.4119
Z0.1146
G1 Z0.05 F40.
X-74.2904 Y9.4106
G3 X-74.2892 Y9.4119 I0. J0.0013
X-74.2942 Z0. I-0.0025 J0.
X-74.2932 Y9.4099 Z-0.0144 I0.0025 J0.
X-74.2901 Y9.4138 Z-0.0644 I0.0015 J0.002
X-74.2923 Y9.4143 Z-0.0788 I-0.0015 J-0.002
X-74.2911 Y9.4094 Z-0.1288 I0.0006 J-0.0024
X-74.2894 Y9.4108 Z-0.1431 I-0.0006 J0.0024
X-74.294 Y9.4129 Z-0.1931 I-0.0023 J0.001
X-74.2939 Y9.4107 Z-0.2075 I0.0023 J-0.001
X-74.2895 Y9.413 I0.0022 J0.0011
X-74.2939 Y9.4107 I-0.0022 J-0.0011
X-74.2922 Y9.4102 I0.0011 J0.0006
G1 X-74.2917 Y9.4119
G0 Z0.4
X-74.6989 Y10.9883
Z0.13
G1 Z0.0654 F40.
G18 G2 X-74.6834 Z0.05 I0.0154 K0.
G1 X-74.6757
G17 G3 X-74.664 Y11. I0. J0.0117
X-74.711 Z0. I-0.0235 J0.
X-74.702 Y10.9815 Z-0.0144 I0.0235 J0.
X-74.673 Y11.0185 Z-0.0644 I0.0145 J0.0185
X-74.693 Y11.0229 Z-0.0788 I-0.0145 J-0.0185
X-74.682 Y10.9771 Z-0.1288 I0.0055 J-0.0229
X-74.6662 Y10.9902 Z-0.1431 I-0.0055 J0.0229
X-74.7088 Y11.0098 Z-0.1931 I-0.0213 J0.0098
X-74.7084 Y10.9893 Z-0.2075 I0.0213 J-0.0098
X-74.6666 Y11.0107 I0.0209 J0.0107
X-74.7084 Y10.9893 I-0.0209 J-0.0107
X-74.6926 Y10.9842 I0.0105 J0.0053
G1 X-74.6858 Y10.9877
X-74.6831 Y10.9891 Z-0.2072
X-74.6805 Y10.9904 Z-0.2063
X-74.6782 Y10.9916 Z-0.2049
X-74.6761 Y10.9926 Z-0.203
X-74.6744 Y10.9935 Z-0.2007
X-74.6731 Y10.9942 Z-0.198
X-74.6723 Y10.9945 Z-0.1951
X-74.6721 Y10.9947 Z-0.1921
G0 Z0.4
X-74.8219 Y11.9883
Z0.13
G1 Z0.0654 F40.
G18 G2 X-74.8065 Z0.05 I0.0154 K0.
G1 X-74.7988
G17 G3 X-74.787 Y12. I0. J0.0117
X-74.834 Z0. I-0.0235 J0.
X-74.8251 Y11.9815 Z-0.0144 I0.0235 J0.
X-74.796 Y12.0185 Z-0.0644 I0.0145 J0.0185
X-74.816 Y12.0229 Z-0.0788 I-0.0145 J-0.0185
X-74.805 Y11.9771 Z-0.1287 I0.0055 J-0.0229
X-74.7892 Y11.9902 Z-0.1431 I-0.0055 J0.0229
X-74.8319 Y12.0098 Z-0.1931 I-0.0213 J0.0098
X-74.8315 Y11.9893 Z-0.2075 I0.0213 J-0.0098
X-74.7896 Y12.0107 I0.0209 J0.0107
X-74.8315 Y11.9893 I-0.0209 J-0.0107
X-74.8157 Y11.9842 I0.0105 J0.0053
G1 X-74.8088 Y11.9877
X-74.8061 Y11.9891 Z-0.2072
X-74.8036 Y11.9904 Z-0.2063
X-74.8012 Y11.9916 Z-0.2049
X-74.7991 Y11.9926 Z-0.203
X-74.7974 Y11.9935 Z-0.2007
X-74.7961 Y11.9942 Z-0.198
X-74.7953 Y11.9945 Z-0.1951
X-74.7951 Y11.9947 Z-0.1921
G0 Z0.4
X-73.8592 Y14.6588
Z0.13
G1 Z0.0654 F40.
G18 G2 X-73.8438 Z0.05 I0.0154 K0.
G1 X-73.8361
G17 G3 X-73.8243 Y14.6705 I0. J0.0117
X-73.8713 Z0. I-0.0235 J0.
X-73.8624 Y14.6521 Z-0.0144 I0.0235 J0.
X-73.8333 Y14.689 Z-0.0644 I0.0145 J0.0185
X-73.8533 Y14.6934 Z-0.0788 I-0.0145 J-0.0185
X-73.8423 Y14.6477 Z-0.1287 I0.0055 J-0.0229
X-73.8265 Y14.6607 Z-0.1431 I-0.0055 J0.0229
X-73.8692 Y14.6803 Z-0.1931 I-0.0213 J0.0098
X-73.8688 Y14.6598 Z-0.2075 I0.0213 J-0.0098
X-73.8269 Y14.6812 I0.0209 J0.0107
X-73.8688 Y14.6598 I-0.0209 J-0.0107
X-73.853 Y14.6547 I0.0105 J0.0053
G1 X-73.8461 Y14.6582
X-73.8434 Y14.6596 Z-0.2072
X-73.8408 Y14.6609 Z-0.2063
X-73.8385 Y14.6621 Z-0.2049
X-73.8364 Y14.6631 Z-0.203
X-73.8347 Y14.664 Z-0.2007
X-73.8334 Y14.6647 Z-0.198
X-73.8326 Y14.6651 Z-0.1951
X-73.8324 Y14.6652 Z-0.1921
G0 Z0.4
X-75.006 Y7.6639
Z0.13
G1 Z0.0654 F40.
G18 G2 X-74.9906 Z0.05 I0.0154 K0.
G1 X-74.9829
G17 G3 X-74.9711 Y7.6757 I0. J0.0117
X-75.0181 Z0. I-0.0235 J0.
X-75.0092 Y7.6572 Z-0.0144 I0.0235 J0.
X-74.9801 Y7.6941 Z-0.0644 I0.0145 J0.0185
X-75.0001 Y7.6985 Z-0.0788 I-0.0145 J-0.0185
X-74.9891 Y7.6528 Z-0.1288 I0.0055 J-0.0229
X-75.0001 Y7.6985 Z-0.1788 I-0.0055 J0.0229
X-75.0155 Y7.665 Z-0.2075 I0.0055 J-0.0229
X-74.9737 Y7.6863 I0.0209 J0.0107
X-75.0155 Y7.665 I-0.0209 J-0.0107
X-74.9997 Y7.6599 I0.0105 J0.0053
G1 X-74.9929 Y7.6633
X-74.9902 Y7.6647 Z-0.2072
X-74.9876 Y7.666 Z-0.2063
X-74.9853 Y7.6672 Z-0.2049
X-74.9832 Y7.6683 Z-0.203
X-74.9815 Y7.6692 Z-0.2007
X-74.9802 Y7.6698 Z-0.198
X-74.9794 Y7.6702 Z-0.1951
X-74.9792 Y7.6703 Z-0.1921
G0 Z0.4
X-74.9898 Y7.1882
Z0.13
G1 Z0.0654 F40.
G18 G2 X-74.9744 Z0.05 I0.0154 K0.
G1 X-74.9667
G17 G3 X-74.9549 Y7.2 I0. J0.0118
X-75.0019 Z0. I-0.0235 J0.
X-74.993 Y7.1815 Z-0.0144 I0.0235 J0.
X-74.9639 Y7.2185 Z-0.0644 I0.0145 J0.0185
X-74.9839 Y7.2229 Z-0.0788 I-0.0145 J-0.0185
X-74.973 Y7.1771 Z-0.1287 I0.0055 J-0.0229
X-74.9571 Y7.1902 Z-0.1431 I-0.0055 J0.0229
X-74.9998 Y7.2098 Z-0.1931 I-0.0213 J0.0098
X-74.9994 Y7.1893 Z-0.2075 I0.0213 J-0.0098
X-74.9575 Y7.2107 I0.0209 J0.0107
X-74.9994 Y7.1893 I-0.0209 J-0.0107
X-74.9836 Y7.1842 I0.0105 J0.0053
G1 X-74.9767 Y7.1877
X-74.974 Y7.1891 Z-0.2072
X-74.9715 Y7.1904 Z-0.2063
X-74.9691 Y7.1916 Z-0.2049
X-74.967 Y7.1926 Z-0.203
X-74.9653 Y7.1935 Z-0.2007
X-74.964 Y7.1942 Z-0.198
X-74.9633 Y7.1945 Z-0.1951
X-74.963 Y7.1947 Z-0.1921
G0 Z0.4
X-71.2615 Y5.4417
Z0.13
G1 Z0.0654 F40.
G18 G3 X-71.2769 Z0.05 I-0.0154 K0.
G1 X-71.2846
G17 G3 X-71.2963 Y5.43 I0. J-0.0117
X-71.2493 Z0. I0.0235 J0.
X-71.2963 Z-0.05 I-0.0235 J0.
X-71.2673 Y5.4071 Z-0.0788 I0.0235 J0.
X-71.2783 Y5.4528 Z-0.1288 I-0.0055 J0.0229
X-71.2941 Y5.4398 Z-0.1431 I0.0055 J-0.0228
X-71.2515 Y5.4202 Z-0.1931 I0.0213 J-0.0098
X-71.2519 Y5.4407 Z-0.2075 I-0.0213 J0.0098
X-71.2937 Y5.4193 I-0.0209 J-0.0107
X-71.2519 Y5.4407 I0.0209 J0.0107
X-71.2677 Y5.4458 I-0.0105 J-0.0053
G1 X-71.2745 Y5.4423
X-71.2772 Y5.4409 Z-0.2072
X-71.2798 Y5.4396 Z-0.2063
X-71.2822 Y5.4384 Z-0.2049
X-71.2842 Y5.4374 Z-0.203
X-71.2859 Y5.4365 Z-0.2007
X-71.2872 Y5.4358 Z-0.198
X-71.288 Y5.4355 Z-0.1951
X-71.2883 Y5.4353 Z-0.1921
G0 Z0.4
X-70.3348 Y4.4824
Z0.13
G1 Z0.0654 F40.
G18 G3 X-70.3502 Z0.05 I-0.0154 K0.
G1 X-70.3579
G17 G3 X-70.3696 Y4.4707 I0. J-0.0117
X-70.3226 Z0. I0.0235 J0.
X-70.3696 Z-0.05 I-0.0235 J0.
X-70.3406 Y4.4478 Z-0.0788 I0.0235 J0.
X-70.3516 Y4.4935 Z-0.1288 I-0.0055 J0.0229
X-70.3406 Y4.4478 Z-0.1788 I0.0055 J-0.0229
X-70.3252 Y4.4814 Z-0.2075 I-0.0055 J0.0229
X-70.3671 Y4.46 I-0.0209 J-0.0107
X-70.3252 Y4.4814 I0.0209 J0.0107
X-70.341 Y4.4865 I-0.0105 J-0.0053
G1 X-70.3479 Y4.483
X-70.3505 Y4.4816 Z-0.2072
X-70.3531 Y4.4803 Z-0.2063
X-70.3555 Y4.4791 Z-0.2049
X-70.3576 Y4.4781 Z-0.203
X-70.3593 Y4.4772 Z-0.2007
X-70.3605 Y4.4765 Z-0.198
X-70.3613 Y4.4761 Z-0.1951
X-70.3616 Y4.476 Z-0.1921
G0 Z0.4
X-70.3863 Y3.1133
Z0.13
G1 Z0.0654 F40.
G18 G2 X-70.3709 Z0.05 I0.0154 K0.
G1 X-70.3633
G17 G3 X-70.3515 Y3.125 I0. J0.0117
X-70.3985 Z0. I-0.0235 J0.
X-70.3895 Y3.1065 Z-0.0144 I0.0235 J0.
X-70.3605 Y3.1435 Z-0.0644 I0.0145 J0.0185
X-70.3805 Y3.1479 Z-0.0788 I-0.0145 J-0.0185
X-70.3695 Y3.1021 Z-0.1287 I0.0055 J-0.0229
X-70.3537 Y3.1152 Z-0.1431 I-0.0055 J0.0229
X-70.3963 Y3.1348 Z-0.1931 I-0.0213 J0.0098
X-70.3959 Y3.1143 Z-0.2075 I0.0213 J-0.0098
X-70.3541 Y3.1357 I0.0209 J0.0107
X-70.3959 Y3.1143 I-0.0209 J-0.0107
X-70.3801 Y3.1092 I0.0105 J0.0053
G1 X-70.3733 Y3.1127
X-70.3706 Y3.1141 Z-0.2072
X-70.368 Y3.1154 Z-0.2063
X-70.3657 Y3.1166 Z-0.2049
X-70.3636 Y3.1176 Z-0.203
X-70.3619 Y3.1185 Z-0.2007
X-70.3606 Y3.1192 Z-0.198
X-70.3598 Y3.1195 Z-0.1951
X-70.3596 Y3.1197 Z-0.1921
G0 Z0.4
X-70.3863 Y1.8632
Z0.13
G1 Z0.0654 F40.
G18 G2 X-70.3709 Z0.05 I0.0154 K0.
G1 X-70.3633
G17 G3 X-70.3515 Y1.875 I0. J0.0118
X-70.3985 Z0. I-0.0235 J0.
X-70.3895 Y1.8565 Z-0.0144 I0.0235 J0.
X-70.3605 Y1.8935 Z-0.0644 I0.0145 J0.0185
X-70.3805 Y1.8979 Z-0.0788 I-0.0145 J-0.0185
X-70.3695 Y1.8521 Z-0.1287 I0.0055 J-0.0229
X-70.3537 Y1.8652 Z-0.1431 I-0.0055 J0.0229
X-70.3963 Y1.8848 Z-0.1931 I-0.0213 J0.0098
X-70.3959 Y1.8643 Z-0.2075 I0.0213 J-0.0098
X-70.3541 Y1.8857 I0.0209 J0.0107
X-70.3959 Y1.8643 I-0.0209 J-0.0107
X-70.3801 Y1.8592 I0.0105 J0.0053
G1 X-70.3733 Y1.8627
X-70.3706 Y1.8641 Z-0.2072
X-70.368 Y1.8654 Z-0.2063
X-70.3657 Y1.8666 Z-0.2049
X-70.3636 Y1.8676 Z-0.203
X-70.3619 Y1.8685 Z-0.2007
X-70.3606 Y1.8692 Z-0.198
X-70.3598 Y1.8695 Z-0.1951
X-70.3596 Y1.8697 Z-0.1921
G0 Z0.4
X-68.8863 Y1.8632
Z0.13
G1 Z0.0654 F40.
G18 G2 X-68.871 Z0.05 I0.0154 K0.
G1 X-68.8633
G17 G3 X-68.8515 Y1.875 I0. J0.0118
X-68.8985 Z0. I-0.0235 J0.
X-68.8895 Y1.8565 Z-0.0144 I0.0235 J0.
X-68.8605 Y1.8935 Z-0.0644 I0.0145 J0.0185
X-68.8805 Y1.8979 Z-0.0788 I-0.0145 J-0.0185
X-68.8695 Y1.8521 Z-0.1287 I0.0055 J-0.0229
X-68.8537 Y1.8652 Z-0.1431 I-0.0055 J0.0229
X-68.8963 Y1.8848 Z-0.1931 I-0.0213 J0.0098
X-68.8959 Y1.8643 Z-0.2075 I0.0213 J-0.0098
X-68.8541 Y1.8857 I0.0209 J0.0107
X-68.8959 Y1.8643 I-0.0209 J-0.0107
X-68.8801 Y1.8592 I0.0105 J0.0053
G1 X-68.8733 Y1.8627
X-68.8706 Y1.8641 Z-0.2072
X-68.868 Y1.8654 Z-0.2063
X-68.8656 Y1.8666 Z-0.2049
X-68.8636 Y1.8676 Z-0.203
X-68.8619 Y1.8685 Z-0.2007
X-68.8606 Y1.8692 Z-0.198
X-68.8598 Y1.8695 Z-0.1951
X-68.8596 Y1.8697 Z-0.1921
G0 Z0.4
X-68.8863 Y3.1133
Z0.13
G1 Z0.0654 F40.
G18 G2 X-68.871 Z0.05 I0.0154 K0.
G1 X-68.8633
G17 G3 X-68.8515 Y3.125 I0. J0.0117
X-68.8985 Z0. I-0.0235 J0.
X-68.8895 Y3.1065 Z-0.0144 I0.0235 J0.
X-68.8605 Y3.1435 Z-0.0644 I0.0145 J0.0185
X-68.8805 Y3.1479 Z-0.0788 I-0.0145 J-0.0185
X-68.8695 Y3.1021 Z-0.1287 I0.0055 J-0.0229
X-68.8537 Y3.1152 Z-0.1431 I-0.0055 J0.0229
X-68.8963 Y3.1348 Z-0.1931 I-0.0213 J0.0098
X-68.8959 Y3.1143 Z-0.2075 I0.0213 J-0.0098
X-68.8541 Y3.1357 I0.0209 J0.0107
X-68.8959 Y3.1143 I-0.0209 J-0.0107
X-68.8801 Y3.1092 I0.0105 J0.0053
G1 X-68.8733 Y3.1127
X-68.8706 Y3.1141 Z-0.2072
X-68.868 Y3.1154 Z-0.2063
X-68.8656 Y3.1166 Z-0.2049
X-68.8636 Y3.1176 Z-0.203
X-68.8619 Y3.1185 Z-0.2007
X-68.8606 Y3.1192 Z-0.198
X-68.8598 Y3.1195 Z-0.1951
X-68.8596 Y3.1197 Z-0.1921
G0 Z0.4
X-68.3795 Y4.9031
Z0.13
G1 Z0.0654 F40.
G18 G3 X-68.3949 Z0.05 I-0.0154 K0.
G1 X-68.4026
G17 G3 X-68.4144 Y4.8913 I0. J-0.0118
X-68.3674 Z0. I0.0235 J0.
X-68.3763 Y4.9098 Z-0.0144 I-0.0235 J0.
X-68.4054 Y4.8728 Z-0.0644 I-0.0145 J-0.0185
X-68.3854 Y4.8685 Z-0.0788 I0.0145 J0.0185
X-68.3963 Y4.9142 Z-0.1287 I-0.0055 J0.0229
X-68.4122 Y4.9011 Z-0.1431 I0.0055 J-0.0229
X-68.3695 Y4.8815 Z-0.1931 I0.0213 J-0.0098
X-68.3699 Y4.902 Z-0.2075 I-0.0213 J0.0098
X-68.4118 Y4.8806 I-0.0209 J-0.0107
X-68.3699 Y4.902 I0.0209 J0.0107
X-68.3857 Y4.9071 I-0.0105 J-0.0053
G1 X-68.3926 Y4.9036
X-68.3953 Y4.9022 Z-0.2072
X-68.3978 Y4.9009 Z-0.2063
X-68.4002 Y4.8997 Z-0.2049
X-68.4023 Y4.8987 Z-0.203
X-68.404 Y4.8978 Z-0.2007
X-68.4053 Y4.8972 Z-0.198
X-68.406 Y4.8968 Z-0.1951
X-68.4063 Y4.8966 Z-0.1921
G0 Z0.6
(.3 CIRCULAR THROUGH HOLE)
M7
G0 X-73.4595 Y9.5792
Z0.6
Z0.2
G1 Z0.1149 F13.333
G3 X-73.4603 Y9.578 Z0.1084 I0.0365 J-0.0263 F55.
X-73.4624 Y9.5746 Z0.1031 I0.0374 J-0.0251
X-73.4649 Y9.5692 Z0.1 I0.0395 J-0.0216
X-73.381 Y9.5367 Z0.0621 I0.042 J-0.0163
X-73.4649 Y9.5692 Z0.0242 I-0.042 J0.0163
X-73.381 Y9.5367 Z-0.0136 I0.042 J-0.0163
X-73.4649 Y9.5692 Z-0.0515 I-0.042 J0.0163
X-73.381 Y9.5367 Z-0.0894 I0.042 J-0.0163
X-73.4649 Y9.5692 Z-0.1273 I-0.042 J0.0163
X-73.381 Y9.5367 Z-0.1652 I0.042 J-0.0163
X-73.4649 Y9.5692 Z-0.203 I-0.042 J0.0163
X-73.468 Y9.553 Z-0.2075 I0.042 J-0.0163
X-73.4151 I0.0264 J0. F60.
X-73.568 I-0.0764 J0.
X-73.3151 I0.1264 J0.
X-73.668 I-0.1764 J0.
X-73.2151 I0.2264 J0.
X-73.768 I-0.2764 J0.
X-73.1151 I0.3264 J0.
X-73.868 I-0.3764 J0.
X-73.1151 I0.3764 J0.
G2 X-73.0717 Y9.6225 I0.0774 J0.
G3 X-73.0397 Y9.6979 I-0.0275 J0.0563
X-73.9662 Y9.553 I-0.4519 J-0.1451
X-73.0169 I0.4746 J0.0002
X-73.0397 Y9.6979 I-0.4746 J-0.0002
G2 X-73.0372 Y9.7065 I0.0077 J0.0025
G3 X-73.0349 Y9.7152 I-0.0052 J0.006
X-73.9761 Y9.553 I-0.4566 J-0.1624
X-73.0069 I0.4846 J0.0002
X-73.0349 Y9.7152 I-0.4846 J-0.0002
X-73.0379 Y9.7202 Z-0.2063 I-0.0145 J-0.0052
X-73.0418 Y9.7233 Z-0.203 I-0.0115 J-0.0102
X-73.0448 Y9.7247 Z-0.198 I-0.0077 J-0.0133
X-73.046 Y9.725 Z-0.1921 I-0.0046 J-0.0147
G0 Z0.4
X-73.4723 Y7.5263
Z0.2
G1 Z0.1149 F13.333
G3 X-73.4731 Y7.5251 Z0.1084 I0.0365 J-0.0263 F55.
X-73.4752 Y7.5216 Z0.1031 I0.0374 J-0.0251
X-73.4777 Y7.5163 Z0.1 I0.0395 J-0.0216
X-73.3938 Y7.4837 Z0.0621 I0.042 J-0.0163
X-73.4777 Y7.5163 Z0.0242 I-0.042 J0.0163
X-73.3938 Y7.4837 Z-0.0136 I0.042 J-0.0163
X-73.4777 Y7.5163 Z-0.0515 I-0.042 J0.0163
X-73.3938 Y7.4837 Z-0.0894 I0.042 J-0.0163
X-73.4777 Y7.5163 Z-0.1273 I-0.042 J0.0163
X-73.3938 Y7.4837 Z-0.1652 I0.042 J-0.0163
X-73.4777 Y7.5163 Z-0.203 I-0.042 J0.0163
X-73.4807 Y7.5 Z-0.2075 I0.042 J-0.0163
X-73.4311 I0.0248 J0. F60.
X-73.5807 I-0.0748 J0.
X-73.3311 I0.1248 J0.
X-73.6807 I-0.1748 J0.
X-73.2311 I0.2248 J0.
X-73.7807 I-0.2748 J0.
X-73.1311 I0.3248 J0.
X-73.8807 I-0.3748 J0.
X-73.0311 I0.4248 J0.
X-73.9807 I-0.4748 J0.
X-73.0211 I0.4798 J0.
X-73.9907 I-0.4848 J0.
X-73.0211 I0.4848 J0.
X-73.0222 Y7.5058 Z-0.2063 I-0.0154 J0.
X-73.0248 Y7.51 Z-0.203 I-0.0143 J-0.0058
X-73.0272 Y7.5123 Z-0.198 I-0.0117 J-0.01
X-73.0282 Y7.513 Z-0.1921 I-0.0093 J-0.0123
G0 Z0.4
X-71.6082 Y7.3764
Z0.2
G1 Z0.1149 F13.333
G3 X-71.6074 Y7.3776 Z0.1084 I-0.0365 J0.0263 F55.
X-71.6053 Y7.3811 Z0.1031 I-0.0374 J0.0251
X-71.6028 Y7.3864 Z0.1 I-0.0395 J0.0216
X-71.6867 Y7.4189 Z0.0621 I-0.042 J0.0163
X-71.6028 Y7.3864 Z0.0242 I0.042 J-0.0163
X-71.6867 Y7.4189 Z-0.0136 I-0.042 J0.0163
X-71.6028 Y7.3864 Z-0.0515 I0.042 J-0.0163
X-71.6867 Y7.4189 Z-0.0894 I-0.042 J0.0163
X-71.6028 Y7.3864 Z-0.1273 I0.042 J-0.0163
X-71.6867 Y7.4189 Z-0.1652 I-0.042 J0.0163
X-71.6028 Y7.3864 Z-0.203 I0.042 J-0.0163
X-71.5997 Y7.4027 Z-0.2075 I-0.042 J0.0163
X-71.6046 I-0.0024 J0. F60.
X-71.5997 I0.0024 J0.
G2 X-71.5765 Y7.451 I0.062 J0.
G3 X-71.5916 Y7.5025 I-0.0181 J0.0226
X-71.7028 Y7.4027 I-0.0105 J-0.1
X-71.5016 I0.1006 J0.0002
X-71.5916 Y7.5025 I-0.1006 J-0.0002
G2 X-71.5984 Y7.508 I0.0008 J0.008
G3 X-71.6056 Y7.513 I-0.0069 J-0.0023
X-71.7128 Y7.4027 I0.0034 J-0.1105
X-71.4916 I0.1106 J0.0002
X-71.6056 Y7.513 I-0.1106 J-0.0002
X-71.6113 Y7.5117 Z-0.2063 I0.0005 J-0.0154
X-71.6154 Y7.509 Z-0.203 I0.0062 J-0.0141
X-71.6177 Y7.5065 Z-0.198 I0.0104 J-0.0114
X-71.6183 Y7.5056 Z-0.1921 I0.0126 J-0.0089
G0 Z0.4
X-71.4307 Y6.3901
Z0.2
G1 Z0.1149 F13.333
G3 X-71.4298 Y6.3913 Z0.1084 I-0.0365 J0.0263 F55.
X-71.4277 Y6.3947 Z0.1031 I-0.0374 J0.0251
X-71.4252 Y6.4001 Z0.1 I-0.0395 J0.0216
X-71.4222 Y6.4163 Z0.0955 I-0.042 J0.0163
X-71.5122 Z0.0577 I-0.045 J0.
X-71.4222 Z0.0198 I0.045 J0.
X-71.5122 Z-0.0181 I-0.045 J0.
X-71.4222 Z-0.056 I0.045 J0.
X-71.5122 Z-0.0939 I-0.045 J0.
X-71.4222 Z-0.1317 I0.045 J0.
X-71.5122 Z-0.1696 I-0.045 J0.
X-71.4222 Z-0.2075 I0.045 J0.
X-71.453 I-0.0154 J0. F60.
X-71.3222 I0.0654 J0.
X-71.553 I-0.1154 J0.
X-71.2222 I0.1654 J0.
X-71.653 I-0.2154 J0.
X-71.2222 I0.2154 J0.
G2 X-71.1818 Y6.4835 I0.076 J0.
G3 X-71.1581 Y6.5583 I-0.0261 J0.0494
X-71.7512 Y6.4163 I-0.2795 J-0.1421
X-71.124 I0.3136 J0.0002
X-71.1581 Y6.5583 I-0.3136 J-0.0002
G2 X-71.157 Y6.5671 I0.0072 J0.0037
G3 X-71.1563 Y6.576 I-0.006 J0.005
X-71.7612 Y6.4163 I-0.2813 J-0.1599
X-71.114 I0.3236 J0.0002
X-71.1563 Y6.576 I-0.3236 J-0.0002
X-71.1601 Y6.5804 Z-0.2063 I-0.0134 J-0.0076
X-71.1644 Y6.5829 Z-0.203 I-0.0096 J-0.0121
X-71.1676 Y6.5837 Z-0.198 I-0.0052 J-0.0145
X-71.1688 Y6.5838 Z-0.1921 I-0.002 J-0.0153
G0 Z0.4
X-69.6825 Y6.3233
Z0.2
G1 Z0.1149 F13.333
G3 X-69.6833 Y6.3221 Z0.1084 I0.0365 J-0.0263 F55.
X-69.6854 Y6.3187 Z0.1031 I0.0374 J-0.0251
X-69.6879 Y6.3133 Z0.1 I0.0395 J-0.0216
X-69.604 Y6.2808 Z0.0621 I0.042 J-0.0163
X-69.6879 Y6.3133 Z0.0242 I-0.042 J0.0163
X-69.604 Y6.2808 Z-0.0136 I0.042 J-0.0163
X-69.6879 Y6.3133 Z-0.0515 I-0.042 J0.0163
X-69.604 Y6.2808 Z-0.0894 I0.042 J-0.0163
X-69.6879 Y6.3133 Z-0.1273 I-0.042 J0.0163
X-69.604 Y6.2808 Z-0.1652 I0.042 J-0.0163
X-69.6879 Y6.3133 Z-0.203 I-0.042 J0.0163
X-69.691 Y6.297 Z-0.2075 I0.042 J-0.0163
X-69.6413 I0.0248 J0. F60.
X-69.791 I-0.0748 J0.
X-69.5413 I0.1248 J0.
X-69.891 I-0.1748 J0.
X-69.4413 I0.2248 J0.
X-69.991 I-0.2748 J0.
X-69.3413 I0.3248 J0.
X-70.091 I-0.3748 J0.
X-69.2413 I0.4248 J0.
X-70.191 I-0.4748 J0.
X-69.2313 I0.4798 J0.
X-70.201 I-0.4848 J0.
X-69.2313 I0.4848 J0.
X-69.2324 Y6.3028 Z-0.2063 I-0.0154 J0.
X-69.235 Y6.3071 Z-0.203 I-0.0143 J-0.0058
X-69.2374 Y6.3093 Z-0.198 I-0.0117 J-0.01
X-69.2384 Y6.31 Z-0.1921 I-0.0093 J-0.0123
G0 Z0.4
X-69.3636 Y4.6547
Z0.2
G1 Z0.1149 F13.333
G3 X-69.3627 Y4.6559 Z0.1084 I-0.0365 J0.0263 F55.
X-69.3606 Y4.6594 Z0.1031 I-0.0374 J0.0251
X-69.3582 Y4.6647 Z0.1 I-0.0395 J0.0216
X-69.3551 Y4.681 Z0.0955 I-0.042 J0.0163
X-69.4451 Z0.0577 I-0.045 J0.
X-69.3551 Z0.0198 I0.045 J0.
X-69.4451 Z-0.0181 I-0.045 J0.
X-69.3551 Z-0.056 I0.045 J0.
X-69.4451 Z-0.0939 I-0.045 J0.
X-69.3551 Z-0.1317 I0.045 J0.
X-69.4451 Z-0.1696 I-0.045 J0.
X-69.3551 Z-0.2075 I0.045 J0.
X-69.3819 I-0.0134 J0. F60.
X-69.2551 I0.0634 J0.
X-69.4819 I-0.1134 J0.
X-69.1551 I0.1634 J0.
X-69.5819 I-0.2134 J0.
X-69.0551 I0.2634 J0.
X-69.6819 I-0.3134 J0.
X-69.0451 I0.3184 J0.
X-69.6919 I-0.3234 J0.
X-69.0451 I0.3234 J0.
X-69.0462 Y4.6867 Z-0.2063 I-0.0154 J0.
X-69.0488 Y4.691 Z-0.203 I-0.0143 J-0.0058
X-69.0512 Y4.6933 Z-0.198 I-0.0117 J-0.01
X-69.0522 Y4.6939 Z-0.1921 I-0.0093 J-0.0123
G0 Z0.4
X-70.4493 Y8.0657
Z0.2
G1 Z0.1149 F13.333
G3 X-70.4501 Y8.0645 Z0.1084 I0.0365 J-0.0263 F55.
X-70.4522 Y8.0611 Z0.1031 I0.0374 J-0.0251
X-70.4547 Y8.0557 Z0.1 I0.0395 J-0.0216
X-70.4577 Y8.0394 Z0.0955 I0.042 J-0.0163
X-70.3677 Z0.0577 I0.045 J0.
X-70.4577 Z0.0198 I-0.045 J0.
X-70.3677 Z-0.0181 I0.045 J0.
X-70.4577 Z-0.056 I-0.045 J0.
X-70.3677 Z-0.0939 I0.045 J0.
X-70.4577 Z-0.1317 I-0.045 J0.
X-70.3677 Z-0.1696 I0.045 J0.
X-70.4577 Z-0.2075 I-0.045 J0.
X-70.4049 I0.0264 J0. F60.
X-70.5577 I-0.0764 J0.
X-70.3049 I0.1264 J0.
X-70.6577 I-0.1764 J0.
X-70.2049 I0.2264 J0.
X-70.7577 I-0.2764 J0.
X-70.1049 I0.3264 J0.
X-70.8577 I-0.3764 J0.
X-70.1049 I0.3764 J0.
G2 X-70.0615 Y8.109 I0.0774 J0.
G3 X-70.0294 Y8.1844 I-0.0275 J0.0563
X-70.9559 Y8.0394 I-0.4519 J-0.1451
X-70.0067 I0.4746 J0.0002
X-70.0294 Y8.1844 I-0.4746 J-0.0002
G2 X-70.027 Y8.193 I0.0077 J0.0025
G3 X-70.0247 Y8.2016 I-0.0052 J0.006
X-70.9659 Y8.0394 I-0.4566 J-0.1624
X-69.9967 I0.4846 J0.0002
X-70.0247 Y8.2016 I-0.4846 J-0.0002
X-70.0277 Y8.2067 Z-0.2063 I-0.0145 J-0.0052
X-70.0315 Y8.2098 Z-0.203 I-0.0115 J-0.0102
X-70.0346 Y8.2112 Z-0.198 I-0.0077 J-0.0133
X-70.0357 Y8.2115 Z-0.1921 I-0.0046 J-0.0147
G0 Z0.4
X-69.5538 Y9.9693
Z0.2
G1 Z0.1149 F13.333
G3 X-69.5546 Y9.9682 Z0.1084 I0.0365 J-0.0263 F55.
X-69.5567 Y9.9647 Z0.1031 I0.0374 J-0.0251
X-69.5592 Y9.9593 Z0.1 I0.0395 J-0.0216
X-69.4753 Y9.9268 Z0.0621 I0.042 J-0.0163
X-69.5592 Y9.9593 Z0.0242 I-0.042 J0.0163
X-69.4753 Y9.9268 Z-0.0136 I0.042 J-0.0163
X-69.5592 Y9.9593 Z-0.0515 I-0.042 J0.0163
X-69.4752 Y9.9268 Z-0.0894 I0.042 J-0.0163
X-69.5592 Y9.9593 Z-0.1273 I-0.042 J0.0163
X-69.4752 Y9.9268 Z-0.1652 I0.042 J-0.0163
X-69.5592 Y9.9593 Z-0.203 I-0.042 J0.0163
X-69.5622 Y9.9431 Z-0.2075 I0.042 J-0.0163
X-69.5126 I0.0248 J0. F60.
X-69.6622 I-0.0748 J0.
X-69.4126 I0.1248 J0.
X-69.7622 I-0.1748 J0.
X-69.3126 I0.2248 J0.
X-69.8622 I-0.2748 J0.
X-69.2126 I0.3248 J0.
X-69.9622 I-0.3748 J0.
X-69.1126 I0.4248 J0.
X-70.0622 I-0.4748 J0.
X-69.1026 I0.4798 J0.
X-70.0722 I-0.4848 J0.
X-69.1026 I0.4848 J0.
X-69.1037 Y9.9488 Z-0.2063 I-0.0154 J0.
X-69.1063 Y9.9531 Z-0.203 I-0.0143 J-0.0058
X-69.1087 Y9.9554 Z-0.198 I-0.0117 J-0.01
X-69.1097 Y9.956 Z-0.1921 I-0.0093 J-0.0123
G0 Z0.4
X-69.4397 Y14.4426
Z0.2
G1 Z0.1149 F13.333
G3 X-69.4389 Y14.4437 Z0.1084 I-0.0365 J0.0263 F55.
X-69.4368 Y14.4472 Z0.1031 I-0.0374 J0.0251
X-69.4343 Y14.4526 Z0.1 I-0.0395 J0.0216
X-69.5182 Y14.4851 Z0.0621 I-0.042 J0.0163
X-69.4343 Y14.4526 Z0.0242 I0.042 J-0.0163
X-69.5182 Y14.4851 Z-0.0136 I-0.042 J0.0163
X-69.4343 Y14.4526 Z-0.0515 I0.042 J-0.0163
X-69.5182 Y14.4851 Z-0.0894 I-0.042 J0.0163
X-69.4343 Y14.4526 Z-0.1273 I0.042 J-0.0163
X-69.5182 Y14.4851 Z-0.1652 I-0.042 J0.0163
X-69.4343 Y14.4526 Z-0.203 I0.042 J-0.0163
X-69.4312 Y14.4688 Z-0.2075 I-0.042 J0.0163
X-69.4361 I-0.0024 J0. F60.
X-69.4312 I0.0024 J0.
G2 X-69.408 Y14.5172 I0.062 J0.
G3 X-69.4231 Y14.5687 I-0.0181 J0.0226
X-69.5343 Y14.4688 I-0.0105 J-0.1
X-69.3331 I0.1006 J0.0002
X-69.4231 Y14.5687 I-0.1006 J-0.0002
G2 X-69.4299 Y14.5742 I0.0008 J0.008
G3 X-69.4371 Y14.5792 I-0.0069 J-0.0023
X-69.5443 Y14.4688 I0.0034 J-0.1105
X-69.3231 I0.1106 J0.0002
X-69.4371 Y14.5792 I-0.1106 J-0.0002
X-69.4428 Y14.5779 Z-0.2063 I0.0005 J-0.0154
X-69.4469 Y14.5752 Z-0.203 I0.0062 J-0.0141
X-69.4492 Y14.5727 Z-0.198 I0.0104 J-0.0114
X-69.4498 Y14.5717 Z-0.1921 I0.0126 J-0.0089
G0 Z0.4
X-73.4529 Y14.9404
Z0.2
G1 Z0.1149 F13.333
G3 X-73.4521 Y14.9416 Z0.1084 I-0.0365 J0.0263 F55.
X-73.45 Y14.9451 Z0.1031 I-0.0374 J0.0251
X-73.4475 Y14.9504 Z0.1 I-0.0395 J0.0216
X-73.5314 Y14.9829 Z0.0621 I-0.042 J0.0163
X-73.4475 Y14.9504 Z0.0242 I0.042 J-0.0163
X-73.5314 Y14.9829 Z-0.0136 I-0.042 J0.0163
X-73.4475 Y14.9504 Z-0.0515 I0.042 J-0.0163
X-73.5314 Y14.9829 Z-0.0894 I-0.042 J0.0163
X-73.4475 Y14.9504 Z-0.1273 I0.042 J-0.0163
X-73.5314 Y14.9829 Z-0.1652 I-0.042 J0.0163
X-73.4475 Y14.9504 Z-0.203 I0.042 J-0.0163
X-73.4445 Y14.9667 Z-0.2075 I-0.042 J0.0163
G1 X-73.4453 F60.
G3 X-73.3445 I0.0504 J0.
X-73.5453 I-0.1004 J0.
X-73.3345 I0.1054 J0.
X-73.5553 I-0.1104 J0.
X-73.3345 I0.1104 J0.
X-73.3356 Y14.9724 Z-0.2063 I-0.0154 J0.
X-73.3382 Y14.9767 Z-0.203 I-0.0143 J-0.0058
X-73.3406 Y14.979 Z-0.198 I-0.0117 J-0.01
X-73.3416 Y14.9797 Z-0.1921 I-0.0093 J-0.0123
G0 Z0.6
(SHAPE THROUGH HOLE)
M7
G0 X-75.7906 Y8.7619
Z0.6
Z0.1
G3 X-75.8931 Y8.7349 Z0.0791 I-0.0384 J-0.0622 F13.333
X-75.861 Y8.6338 Z0.0582 I0.0641 J-0.0352
X-75.7617 Y8.671 Z0.0373 I0.032 J0.0658
X-75.8038 Y8.7683 Z0.0164 I-0.0673 J0.0286
X-75.8543 Y8.631 Z-0.0242 I-0.0252 J-0.0687
X-75.8038 Y8.7683 Z-0.0647 I0.0252 J0.0687
X-75.8543 Y8.631 Z-0.1052 I-0.0252 J-0.0687
X-75.7559 Y8.6996 Z-0.13 I0.0252 J0.0687
X-75.9022 I-0.0732 J0.
X-75.7561 Y8.6937 I0.0732 J0.
G1 X-75.7559 Y8.6996
G3 X-75.9117 Y8.8233 I-0.0819 J0.0568 F60.
G1 X-75.9198 Y8.8179
X-75.9276 Y8.812
X-75.935 Y8.8057
X-75.942 Y8.7989
X-75.9485 Y8.7917
X-75.9545 Y8.784
X-75.9601 Y8.776
X-75.9652 Y8.7677
X-75.9697 Y8.7591
X-75.9737 Y8.7502
X-75.9771 Y8.7411
X-75.9799 Y8.7318
X-75.9821 Y8.7223
X-75.9837 Y8.7127
X-75.9848 Y8.703
X-75.9852 Y8.6933
X-75.985 Y8.6835
X-75.9841 Y8.6738
X-75.9827 Y8.6642
X-75.9807 Y8.6547
X-75.9781 Y8.6453
X-75.9748 Y8.6361
X-75.9711 Y8.6272
X-75.9667 Y8.6184
X-75.9618 Y8.61
X-75.9564 Y8.6019
X-75.9505 Y8.5942
X-75.9442 Y8.5868
X-75.9373 Y8.5799
X-75.9301 Y8.5734
X-75.9224 Y8.5674
X-75.9144 Y8.5618
X-75.9061 Y8.5568
X-75.8974 Y8.5523
X-75.8885 Y8.5484
X-75.8794 Y8.545
X-75.8701 Y8.5423
X-75.8606 Y8.5401
X-75.851 Y8.5385
X-75.8413 Y8.5375
X-75.8316 Y8.5372
X-75.8218 Y8.5374
X-75.8121 Y8.5383
X-75.8025 Y8.5397
X-75.793 Y8.5418
X-75.7836 Y8.5445
X-75.7745 Y8.5477
X-75.7655 Y8.5516
X-75.7568 Y8.5559
X-75.7484 Y8.5609
X-75.7404 Y8.5663
X-75.7326 Y8.5722
X-75.7253 Y8.5786
X-75.7184 Y8.5855
X-75.7119 Y8.5928
X-75.706 Y8.6005
X-75.7005 Y8.6085
X-75.6955 Y8.6168
X-75.691 Y8.6255
X-75.6872 Y8.6344
X-75.6838 Y8.6436
X-75.6811 Y8.6529
X-75.6754 Y8.6621
X-75.6703 Y8.6716
X-75.6657 Y8.6813
X-75.6616 Y8.6913
X-75.6581 Y8.7015
X-75.6552 Y8.7119
X-75.6529 Y8.7225
X-75.6513 Y8.7331
X-75.6502 Y8.7438
X-75.6497 Y8.7546
X-75.6498 Y8.7654
X-75.6506 Y8.7762
X-75.6519 Y8.7869
X-75.6539 Y8.7975
X-75.6564 Y8.8079
X-75.6596 Y8.8183
X-75.6633 Y8.8284
X-75.6676 Y8.8383
X-75.6725 Y8.8479
X-75.6779 Y8.8572
X-75.6838 Y8.8663
X-75.6902 Y8.8749
X-75.6971 Y8.8832
X-75.7045 Y8.8911
X-75.7122 Y8.8986
X-75.7204 Y8.9056
X-75.729 Y8.9121
X-75.738 Y8.9181
X-75.7472 Y8.9236
X-75.7568 Y8.9286
X-75.7666 Y8.933
X-75.7767 Y8.9369
X-75.787 Y8.9402
X-75.7974 Y8.9429
X-75.808 Y8.945
X-75.8187 Y8.9465
X-75.8294 Y8.9474
X-75.8402 Y8.9476
X-75.851 Y8.9473
X-75.8617 Y8.9463
X-75.8724 Y8.9448
X-75.883 Y8.9426
X-75.8934 Y8.9399
X-75.9037 Y8.9365
X-75.9137 Y8.9326
X-75.9235 Y8.9281
X-75.933 Y8.9231
X-75.9423 Y8.9175
X-75.9512 Y8.9115
X-75.9597 Y8.9049
X-75.9679 Y8.8978
X-75.9756 Y8.8903
G3 X-76.0787 Y8.666 I0.1142 J-0.1883
G1 X-76.0629 Y8.6162
X-76.0582 Y8.6044
X-76.0528 Y8.5929
X-76.047 Y8.5817
X-76.0405 Y8.5708
X-76.0336 Y8.5602
X-76.0261 Y8.5499
X-76.0182 Y8.54
X-76.0098 Y8.5306
X-76.0009 Y8.5215
X-75.9916 Y8.5129
X-75.9818 Y8.5048
X-75.9717 Y8.4972
X-75.9612 Y8.49
X-75.9504 Y8.4834
X-75.9393 Y8.4773
X-75.9279 Y8.4718
X-75.9162 Y8.4669
X-75.9043 Y8.4625
X-75.8922 Y8.4587
X-75.88 Y8.4555
X-75.8676 Y8.4529
X-75.855 Y8.451
X-75.8424 Y8.4496
X-75.8298 Y8.4489
X-75.8171 Y8.4488
X-75.8044 Y8.4493
X-75.7918 Y8.4504
X-75.7793 Y8.4521
X-75.7668 Y8.4545
X-75.7545 Y8.4575
X-75.7423 Y8.461
X-75.7303 Y8.4652
X-75.7186 Y8.47
X-75.7071 Y8.4753
X-75.6959 Y8.4812
X-75.6849 Y8.4876
X-75.6743 Y8.4945
X-75.6641 Y8.502
X-75.6542 Y8.5099
X-75.6447 Y8.5184
X-75.6357 Y8.5273
X-75.6271 Y8.5366
X-75.619 Y8.5463
X-75.6113 Y8.5564
X-75.6042 Y8.5669
X-75.5976 Y8.5777
X-75.5915 Y8.5888
X-75.586 Y8.6002
X-75.5811 Y8.6119
X-75.5767 Y8.6238
X-75.5729 Y8.6359
X-75.5697 Y8.6482
X-75.5671 Y8.6606
X-75.5652 Y8.6731
X-75.5638 Y8.6857
X-75.6455 Y8.921
X-75.6531 Y8.9314
X-75.6611 Y8.9415
X-75.6696 Y8.9512
X-75.6786 Y8.9605
X-75.688 Y8.9693
X-75.6978 Y8.9777
X-75.708 Y8.9856
X-75.7186 Y8.993
X-75.7295 Y8.9999
X-75.7407 Y9.0063
X-75.7523 Y9.0121
X-75.764 Y9.0173
X-75.7761 Y9.022
X-75.7883 Y9.0261
X-75.8007 Y9.0296
X-75.8133 Y9.0325
X-75.826 Y9.0348
X-75.8388 Y9.0365
X-75.8516 Y9.0376
X-75.8645 Y9.0381
X-75.8774 Y9.0379
X-75.8903 Y9.0371
X-75.9032 Y9.0357
X-75.9159 Y9.0337
X-75.9285 Y9.0311
X-75.941 Y9.0279
X-75.9534 Y9.0241
X-75.9655 Y9.0197
X-75.9774 Y9.0147
X-75.9891 Y9.0092
X-76.0004 Y9.0031
X-76.0115 Y8.9965
X-76.0223 Y8.9894
X-76.0326 Y8.9817
X-76.0427 Y8.9736
X-76.0523 Y8.965
X-76.0614 Y8.9559
X-76.0702 Y8.9464
X-76.0785 Y8.9365
X-76.0863 Y8.9262
X-76.0936 Y8.9156
X-76.1003 Y8.9046
X-76.1066 Y8.8933
X-76.1142 Y8.8944
X-76.1148 Y8.8919
X-76.1149 Y8.8894
G3 X-76.0793 Y8.6658 I1.5078 J0.1249
G1 X-76.0782 Y8.6631
X-76.0765 Y8.6607
X-76.0745 Y8.6587
X-76.0721 Y8.657
X-76.0695 Y8.6558
X-76.0667 Y8.6551
X-76.0639 Y8.6549
X-76.061 Y8.6553
X-76.0583 Y8.6561
X-76.0558 Y8.6574
X-76.0536 Y8.6592
G3 X-76.0744 Y8.6819 I-0.0104 J0.0114
X-76.0774 Y8.6629 I0.0104 J-0.0114
G1 X-76.0619 Y8.636
G3 X-76.0352 Y8.6513 I0.0134 J0.0076
X-76.0636 Y8.6471 I-0.0134 J-0.0076
X-76.0629 Y8.6162 I0.0607 J-0.0141
X-75.9479 Y8.4163 I0.6268 J0.2275
G1 X-75.9374 Y8.4086
X-75.9266 Y8.4015
X-75.9154 Y8.3949
X-75.9039 Y8.3888
X-75.8922 Y8.3833
X-75.8802 Y8.3784
X-75.868 Y8.374
X-75.8556 Y8.3703
X-75.843 Y8.3671
X-75.8303 Y8.3645
X-75.8174 Y8.3626
X-75.8045 Y8.3612
X-75.7916 Y8.3605
X-75.7786 Y8.3604
X-75.7657 Y8.3609
X-75.7527 Y8.362
X-75.7399 Y8.3638
X-75.7271 Y8.3661
X-75.7145 Y8.3691
X-75.702 Y8.3727
X-75.6897 Y8.3768
X-75.6777 Y8.3816
X-75.6658 Y8.3869
X-75.6543 Y8.3927
X-75.643 Y8.3991
X-75.632 Y8.4061
X-75.6214 Y8.4136
X-75.6112 Y8.4215
X-75.6013 Y8.43
X-75.5919 Y8.4388
X-75.5829 Y8.4482
X-75.5743 Y8.4579
X-75.5663 Y8.4681
X-75.5587 Y8.4786
X-75.5516 Y8.4895
X-75.5451 Y8.5007
X-75.5391 Y8.5122
X-75.5337 Y8.524
X-75.5288 Y8.536
X-75.5125 Y8.5446
X-75.5114 Y8.5474
X-75.5111 Y8.5504
X-75.5117 Y8.5533
X-75.5598 Y8.6854
G3 X-75.5798 Y8.6939 I-0.0143 J-0.0058
X-75.5918 Y8.6772 I0.0072 J-0.0177
X-75.52 Y8.5618 I0.1179 J-0.0068
G2 X-75.5117 Y8.5533 I-0.006 J-0.0142
G1 X-75.4958 Y8.5095
X-75.4966 Y8.497
X-75.498 Y8.4846
X-75.5 Y8.4723
X-75.5027 Y8.4601
X-75.5059 Y8.448
X-75.5098 Y8.4361
X-75.5142 Y8.4244
X-75.5192 Y8.4129
X-75.5248 Y8.4017
X-75.5309 Y8.3908
X-75.5375 Y8.3802
X-75.5447 Y8.37
X-75.5524 Y8.3601
X-75.5605 Y8.3507
X-75.5692 Y8.3416
X-75.5782 Y8.333
X-75.5877 Y8.3248
X-75.5976 Y8.3171
X-75.6078 Y8.31
X-75.6184 Y8.3033
X-75.6293 Y8.2972
X-75.6405 Y8.2916
X-75.6519 Y8.2866
X-75.6636 Y8.2822
X-75.6755 Y8.2783
X-75.6876 Y8.2751
X-75.6998 Y8.2724
X-75.7121 Y8.2704
X-75.7246 Y8.269
X-75.737 Y8.2682
X-75.7495 Y8.268
X-75.762 Y8.2684
X-75.7745 Y8.2695
X-75.7869 Y8.2712
X-75.8066 Y8.2616
X-75.8095 Y8.262
X-75.8121 Y8.2631
X-75.8143 Y8.265
X-75.9195 Y8.3818
X-75.9333 Y8.3979
X-75.9479 Y8.4163
G2 X-75.9333 Y8.4407 I0.0124 J0.0092
X-75.9151 Y8.4357 I-0.0116 J-0.0777
X-75.8178 Y8.2762 I-0.0596 J-0.1458
G3 X-75.8143 Y8.265 I0.0153 J-0.0013
G1 X-75.7821 Y8.2293
X-75.771 Y8.224
X-75.7598 Y8.2193
X-75.7483 Y8.2152
X-75.7366 Y8.2117
X-75.7248 Y8.2087
X-75.7128 Y8.2063
X-75.7007 Y8.2045
X-75.6886 Y8.2033
X-75.6764 Y8.2027
X-75.6642
X-75.652 Y8.2033
X-75.6399 Y8.2045
X-75.6278 Y8.2063
X-75.6158 Y8.2087
X-75.604 Y8.2116
X-75.5923 Y8.2152
X-75.5808 Y8.2193
X-75.5695 Y8.224
X-75.5585 Y8.2292
X-75.5478 Y8.235
X-75.5373 Y8.2412
X-75.5272 Y8.248
X-75.5174 Y8.2553
X-75.5079 Y8.2631
X-75.4989 Y8.2713
X-75.4903 Y8.2799
X-75.4821 Y8.289
X-75.4744 Y8.2984
X-75.4671 Y8.3082
X-75.4604 Y8.3184
X-75.4541 Y8.3288
X-75.4484 Y8.3396
X-75.4432 Y8.3507
X-75.4389 Y8.3519
X-75.4395 Y8.3549
X-75.4958 Y8.5095
G3 X-75.5079 Y8.519 I-0.0143 J-0.0058
X-75.5135 Y8.5194 I-0.0056 J-0.0393
G1 X-75.5181 Y8.5191
X-75.5226 Y8.5183
G3 X-75.5531 Y8.4789 I0.0091 J-0.0386
X-75.4516 Y8.3643 I0.1181 J0.0023
G2 X-75.4395 Y8.3549 I-0.0022 J-0.0152
G1 X-75.4254 Y8.3162
G2 X-75.669 Y8.1045 I-0.2265 J0.0146
G1 X-75.6714 Y8.1065
X-75.7821 Y8.2293
G2 X-75.7848 Y8.2444 I0.0118 J0.0099
X-75.7288 Y8.2656 I0.0371 J-0.0135
X-75.6741 Y8.1216 I-0.0564 J-0.1038
G3 X-75.6714 Y8.1065 I0.0145 J-0.0052
G1 X-75.6449 Y8.077
G3 X-75.3721 Y8.1696 I0.0919 J0.1775
G1 X-75.4254 Y8.3162
G3 X-75.4375 Y8.3256 I-0.0143 J-0.0058
X-75.4844 Y8.2784 I-0.0058 J-0.0411
X-75.3842 Y8.179 I0.1168 J0.0176
G2 X-75.3721 Y8.1696 I-0.0022 J-0.0152
G1 X-75.3593 Y8.1344
G2 X-75.5406 Y7.9613 I-0.1722 J-0.0012
G1 X-75.6449 Y8.077
G2 X-75.6475 Y8.0921 I0.0118 J0.0099
X-75.5836 Y8.1112 I0.0391 J-0.0142
X-75.5433 Y7.9764 I-0.0707 J-0.0946
G3 X-75.5406 Y7.9613 I0.0145 J-0.0052
G1 X-75.5181 Y7.9363
G3 X-75.308 Y7.9949 I0.0804 J0.1179
G1 X-75.3593 Y8.1344
G3 X-75.3714 Y8.1439 I-0.0143 J-0.0058
X-75.4182 Y8.091 I-0.0059 J-0.0419
X-75.3208 Y8.0047 I0.114 J0.0307
G2 X-75.3086 Y7.9952 I-0.0022 J-0.0152
G1 X-75.2976 Y7.965
G2 X-75.4215 Y7.8276 I-0.1215 J-0.015
G1 X-75.5181 Y7.9363
G2 X-75.505 Y7.9616 I0.0118 J0.0099
X-75.4979 Y7.9598 I-0.0021 J-0.0241
X-75.425 Y7.8403 I-0.0448 J-0.1093
G3 X-75.4215 Y7.8291 I0.0153 J-0.0013
G1 X-75.4031 Y7.8087
G3 X-75.3544 Y7.7959 I0.0303 J0.0161
X-75.3797 Y7.8428 I-0.0382 J0.0096
X-75.4031 Y7.8087 I-0.007 J-0.0203
G1 X-75.3703 Y7.7723
X-75.3702 Y7.7722
X-75.3695 Y7.7713
X-75.3652 Y7.7671
X-75.3639 Y7.7669
X-75.3627 Y7.7674
X-75.362 Y7.7685
G3 X-75.3611 Y7.774 I-0.0383 J0.0091
G1 X-75.3695 Y7.7774
Y7.7713
X-75.3636 Y7.7649
X-75.3632 Y7.7644
G2 X-75.2832 Y7.9253 I0.6012 J-0.1987
G1 X-75.2976 Y7.965
G3 X-75.3232 Y7.9697 I-0.0143 J-0.0058
G1 X-75.3252 Y7.9675 Z-0.1297
X-75.3272 Y7.9654 Z-0.1288
X-75.329 Y7.9635 Z-0.1274
X-75.3306 Y7.9618 Z-0.1255
X-75.3319 Y7.9604 Z-0.1232
X-75.3329 Y7.9593 Z-0.1205
X-75.3335 Y7.9587 Z-0.1176
X-75.3337 Y7.9585 Z-0.1146
G0 Z-0.0992
X-75.6464 Y8.875
G1 Z-0.1146 F60.
Y8.8753 Z-0.1176
X-75.6462 Y8.8761 Z-0.1205
X-75.6459 Y8.8775 Z-0.1232
X-75.6456 Y8.8794 Z-0.1255
X-75.6451 Y8.8817 Z-0.1274
X-75.6446 Y8.8843 Z-0.1288
X-75.6441 Y8.8872 Z-0.1297
X-75.6436 Y8.8901 Z-0.13
G3 X-75.6455 Y8.921 I-0.0612 J0.0116
G1 X-75.6882 Y9.0382
G3 X-76.0551 Y9.0666 I-0.1965 J-0.1548
X-76.1302 Y9.0155 I-0.0057 J-0.0725
G1 X-76.1149 Y8.8894
G3 X-76.1052 Y8.8774 I0.0152 J0.0024
X-76.0857 Y8.8831 I0.006 J0.0156
X-76.1206 Y9.0035 I-0.0632 J0.047
G2 X-76.1302 Y9.0155 I0.0055 J0.0144
G1 X-76.1346 Y9.0511
G2 X-75.8316 Y9.2141 I0.2254 J-0.0559
X-75.7474 Y9.2009 I0.0341 J-0.0579
G1 X-75.6882 Y9.0382
G2 X-75.6914 Y9.0231 I-0.0146 J-0.0048
X-75.7186 Y9.011 I-0.0272 J0.0245
X-75.7437 Y9.021 I0. J0.0366
X-75.7506 Y9.1859 I0.081 J0.086
G3 X-75.7474 Y9.2009 I-0.0115 J0.0103
G1 X-75.7611 Y9.2386
G3 X-76.105 Y9.2466 I-0.1756 J-0.1534
X-76.1543 Y9.2129 I-0.0101 J-0.0382
G1 X-76.1346 Y9.0511
G3 X-76.1249 Y9.0391 I0.0152 J0.0024
X-76.0711 Y9.0692 I0.0144 J0.0374
X-76.1446 Y9.201 I-0.1161 J0.0216
G2 X-76.1543 Y9.2129 I0.0055 J0.0144
G1 X-76.1587 Y9.2492
X-76.1554 Y9.2605
X-76.1515 Y9.2716
X-76.147 Y9.2825
X-76.1419 Y9.2932
X-76.1363 Y9.3035
X-76.1301 Y9.3135
X-76.1234 Y9.3232
X-76.1162 Y9.3326
X-76.1085 Y9.3415
X-76.1003 Y9.35
X-76.0917 Y9.358
X-76.0827 Y9.3656
X-76.0733 Y9.3727
X-76.0635 Y9.3793
X-76.0534 Y9.3853
X-76.0429 Y9.3908
X-76.0322 Y9.3958
X-76.0213 Y9.4001
X-76.0101 Y9.4039
X-75.9988 Y9.4071
X-75.9872 Y9.4096
X-75.9756 Y9.4116
X-75.9639 Y9.4129
X-75.9521 Y9.4136
X-75.9404
X-75.9286 Y9.4131
X-75.9169 Y9.4119
X-75.9052 Y9.4101
X-75.8937 Y9.4076
X-75.8823 Y9.4046
X-75.8711 Y9.4009
X-75.8601 Y9.3967
X-75.8572 Y9.3993
X-75.854 Y9.4015
X-75.8505 Y9.4031
X-75.8468 Y9.4043
X-75.843 Y9.405
X-75.8391 Y9.4051
X-75.8353 Y9.4046
X-75.8315 Y9.4036
X-75.828 Y9.4021
X-75.8247 Y9.4002
X-75.8216 Y9.3977
X-75.819 Y9.3949
X-75.8168 Y9.3917
X-75.7611 Y9.2386
G2 X-75.7643 Y9.2236 I-0.0146 J-0.0048
X-75.8261 Y9.2261 I-0.0298 J0.0268
X-75.82 Y9.3767 I0.0939 J0.0716
G3 X-75.8168 Y9.3917 I-0.0115 J0.0103
G1 X-75.8294 Y9.4262
G3 X-76.0108 Y9.4903 I-0.1325 J-0.0864
X-76.0064 Y9.4647 I0.0103 J-0.0114
G1 X-75.8493 Y9.407
X-75.8476 Y9.4065
X-75.8459 Y9.4062
G3 X-75.8294 Y9.4262 I0.0019 J0.0153
G1 X-75.8588 Y9.5071
G3 X-75.9205 Y9.5619 I-0.064 J-0.0099
X-75.9234 Y9.5398 I0.0091 J-0.0124
G1 X-75.9196 Y9.5351
X-75.8854 Y9.4927
G3 X-75.8588 Y9.5071 I0.012 J0.0097
G1 X-75.8855 Y9.5804
X-75.8868 Y9.5841
X-75.8872 Y9.5847
G2 X-76.1444 Y9.4078 I-0.6681 J0.6961
G1 X-76.1482 Y9.4083
X-76.1521 Y9.4082
X-76.156 Y9.4075
X-76.1597 Y9.4063
X-76.1631 Y9.4045
X-76.1663 Y9.4022
X-76.1691 Y9.3995
X-76.1714 Y9.3964
X-76.1733 Y9.393
X-76.1746 Y9.3893
X-76.1753 Y9.3855
X-76.1746 Y9.3827
X-76.1734 Y9.3801
X-76.1718 Y9.3778
X-76.1697 Y9.3759
X-76.1674 Y9.3743
X-76.1647 Y9.3732
X-76.162 Y9.3726
X-76.1591 Y9.3725
X-76.1563 Y9.373
X-76.1512 Y9.3743
X-76.1362 Y9.3781
G3 X-76.1251 Y9.3971 I-0.0038 J0.0149
X-76.1444 Y9.4078 I-0.0148 J-0.0041
G1 X-76.1755 Y9.3974
X-76.1761 Y9.3971
X-76.1767 Y9.3963
X-76.1587 Y9.2492
G3 X-76.1496 Y9.2374 I0.0152 J0.0024
G1 X-76.1475 Y9.237 Z-0.1298
X-76.1455 Y9.2366 Z-0.1294
X-76.1435 Y9.2362 Z-0.1287
X-76.1409 Y9.2368 Z-0.1271
X-76.1386 Y9.2373 Z-0.125
X-76.1368 Y9.2377 Z-0.1226
X-76.1358 Y9.2383 Z-0.1201
X-76.1351 Y9.2387 Z-0.1174
X-76.1349 Y9.2388 Z-0.1146
G0 Z0.4
X-75.2951 Y11.0594
Z0.1
G3 X-75.3977 Y11.0324 Z0.0791 I-0.0384 J-0.0622 F13.333
X-75.3655 Y10.9314 Z0.0582 I0.0641 J-0.0352
X-75.2662 Y10.9686 Z0.0373 I0.032 J0.0658
X-75.3083 Y11.0659 Z0.0164 I-0.0673 J0.0286
X-75.4034 Y11.0189 Z-0.0045 I-0.0252 J-0.0687
X-75.3517 Y10.9263 Z-0.0255 I0.0698 J-0.0217
X-75.3154 Y11.068 Z-0.066 I0.0182 J0.0709
X-75.4063 Y11.0045 Z-0.0882 I-0.0182 J-0.0708
X-75.3372 Y10.9241 Z-0.1091 I0.0728 J-0.0073
X-75.2604 Y10.9972 Z-0.13 I0.0037 J0.0731
X-75.4067 I-0.0732 J0.
X-75.2606 Y10.9912 I0.0732 J0.
G1 X-75.2604 Y10.9972
G3 X-75.4162 Y11.1208 I-0.0819 J0.0568 F60.
G1 X-75.4243 Y11.1155
X-75.4321 Y11.1096
X-75.4395 Y11.1032
X-75.4465 Y11.0964
X-75.453 Y11.0892
X-75.4591 Y11.0816
X-75.4646 Y11.0736
X-75.4697 Y11.0653
X-75.4742 Y11.0567
X-75.4782 Y11.0478
X-75.4816 Y11.0386
X-75.4844 Y11.0293
X-75.4866 Y11.0198
X-75.4883 Y11.0102
X-75.4893 Y11.0006
X-75.4897 Y10.9908
X-75.4895 Y10.9811
X-75.4887 Y10.9714
X-75.4872 Y10.9618
X-75.4852 Y10.9522
X-75.4826 Y10.9429
X-75.4794 Y10.9337
X-75.4756 Y10.9247
X-75.4712 Y10.916
X-75.4664 Y10.9076
X-75.461 Y10.8995
X-75.4551 Y10.8917
X-75.4487 Y10.8844
X-75.4418 Y10.8774
X-75.4346 Y10.8709
X-75.4269 Y10.8649
X-75.4189 Y10.8594
X-75.4106 Y10.8544
X-75.402 Y10.8499
X-75.393 Y10.846
X-75.3839 Y10.8426
X-75.3746 Y10.8398
X-75.3651 Y10.8376
X-75.3555 Y10.836
X-75.3458 Y10.8351
X-75.3361 Y10.8347
X-75.3263 Y10.835
X-75.3166 Y10.8358
X-75.307 Y10.8373
X-75.2975 Y10.8394
X-75.2882 Y10.842
X-75.279 Y10.8453
X-75.27 Y10.8491
X-75.2613 Y10.8535
X-75.2529 Y10.8584
X-75.2449 Y10.8639
X-75.2372 Y10.8698
X-75.2298 Y10.8762
X-75.2229 Y10.8831
X-75.2165 Y10.8903
X-75.2105 Y10.898
X-75.205 Y10.906
X-75.2 Y10.9144
X-75.1956 Y10.9231
X-75.1917 Y10.932
X-75.1884 Y10.9411
X-75.1856 Y10.9505
X-75.1799 Y10.9596
X-75.1748 Y10.9691
X-75.1702 Y10.9789
X-75.1661 Y10.9889
X-75.1626 Y10.9991
X-75.1598 Y11.0095
X-75.1575 Y11.02
X-75.1558 Y11.0307
X-75.1547 Y11.0414
X-75.1542 Y11.0522
X-75.1543 Y11.063
X-75.1551 Y11.0737
X-75.1564 Y11.0844
X-75.1584 Y11.095
X-75.161 Y11.1055
X-75.1641 Y11.1158
X-75.1678 Y11.1259
X-75.1721 Y11.1358
X-75.177 Y11.1455
X-75.1824 Y11.1548
X-75.1883 Y11.1638
X-75.1947 Y11.1725
X-75.2016 Y11.1808
X-75.209 Y11.1887
X-75.2168 Y11.1961
X-75.225 Y11.2031
X-75.2336 Y11.2097
X-75.2425 Y11.2157
X-75.2518 Y11.2212
X-75.2613 Y11.2262
X-75.2712 Y11.2306
X-75.2812 Y11.2345
X-75.2915 Y11.2377
X-75.302 Y11.2404
X-75.3125 Y11.2425
X-75.3232 Y11.244
X-75.334 Y11.2449
X-75.3447 Y11.2452
X-75.3555 Y11.2449
X-75.3663 Y11.2439
X-75.3769 Y11.2424
X-75.3875 Y11.2402
X-75.3979 Y11.2374
X-75.4082 Y11.2341
X-75.4182 Y11.2302
X-75.428 Y11.2257
X-75.4376 Y11.2207
X-75.4468 Y11.2151
X-75.4557 Y11.209
X-75.4643 Y11.2024
X-75.4724 Y11.1954
X-75.4802 Y11.1879
X-75.49 Y11.1811
X-75.4995 Y11.1738
X-75.5086 Y11.166
X-75.5172 Y11.1578
X-75.5255 Y11.1491
X-75.5333 Y11.14
X-75.5407 Y11.1306
X-75.5475 Y11.1208
X-75.5539 Y11.1107
X-75.5597 Y11.1002
X-75.565 Y11.0895
X-75.5698 Y11.0785
X-75.574 Y11.0673
X-75.5776 Y11.0559
X-75.5806 Y11.0443
X-75.5831 Y11.0326
X-75.5849 Y11.0208
X-75.5862 Y11.0089
X-75.5868 Y10.997
X-75.5869 Y10.985
X-75.5863 Y10.973
X-75.5852 Y10.9611
X-75.5834 Y10.9493
X-75.5811 Y10.9376
X-75.5781 Y10.926
X-75.5746 Y10.9145
X-75.5705 Y10.9033
X-75.5659 Y10.8923
X-75.5607 Y10.8815
X-75.5549 Y10.871
X-75.5487 Y10.8608
X-75.5419 Y10.851
X-75.5346 Y10.8414
X-75.5269 Y10.8323
X-75.5187 Y10.8236
X-75.5101 Y10.8153
X-75.5011 Y10.8074
X-75.4917 Y10.8
X-75.4819 Y10.7931
X-75.4718 Y10.7867
X-75.4614 Y10.7808
X-75.4507 Y10.7755
X-75.4398 Y10.7707
X-75.4286 Y10.7664
G3 X-75.0658 Y10.972 I0.0917 J0.2612
G2 X-75.0634 Y11.0544 I0.538 J0.0255
G1 X-75.0636 Y11.0675
X-75.0645 Y11.0806
X-75.066 Y11.0936
X-75.0681 Y11.1065
X-75.0708 Y11.1193
X-75.0741 Y11.132
X-75.0779 Y11.1445
X-75.0824 Y11.1568
X-75.0874 Y11.1689
X-75.0929 Y11.1808
X-75.099 Y11.1924
X-75.1056 Y11.2037
X-75.1128 Y11.2146
X-75.1204 Y11.2253
X-75.1285 Y11.2355
X-75.1371 Y11.2454
X-75.1462 Y11.2549
X-75.1557 Y11.2639
X-75.1655 Y11.2725
X-75.1758 Y11.2806
X-75.1864 Y11.2883
X-75.1974 Y11.2954
X-75.2087 Y11.302
X-75.2203 Y11.3081
X-75.2321 Y11.3137
X-75.2442 Y11.3187
X-75.2566 Y11.3231
X-75.2691 Y11.327
X-75.2818 Y11.3303
X-75.2946 Y11.3329
X-75.3075 Y11.335
X-75.3205 Y11.3365
X-75.3336 Y11.3374
X-75.3467 Y11.3377
X-75.3597 Y11.3373
X-75.3728 Y11.3364
X-75.3858 Y11.3348
X-75.3987 Y11.3327
X-75.4115 Y11.33
X-75.4242 Y11.3266
X-75.4367 Y11.3227
X-75.449 Y11.3182
X-75.4611 Y11.3132
X-75.4729 Y11.3076
X-75.4845 Y11.3014
X-75.6414 Y10.9724
X-75.6431 Y10.9593
X-75.6442 Y10.9462
X-75.6447 Y10.9331
X-75.6445 Y10.9199
X-75.6437 Y10.9068
X-75.6423 Y10.8937
X-75.6403 Y10.8807
X-75.6376 Y10.8678
X-75.6344 Y10.8551
X-75.6306 Y10.8425
X-75.6262 Y10.8301
X-75.6212 Y10.8179
X-75.6156 Y10.806
X-75.6095 Y10.7944
X-75.6028 Y10.783
X-75.5956 Y10.772
X-75.5879 Y10.7613
X-75.5797 Y10.7511
X-75.5711 Y10.7412
X-75.5619 Y10.7317
X-75.5524 Y10.7227
X-75.5424 Y10.7141
X-75.532 Y10.706
X-75.5213 Y10.6984
X-75.5102 Y10.6914
X-75.4988 Y10.6848
X-75.4871 Y10.6788
X-75.4751 Y10.6734
X-75.4629 Y10.6685
X-75.4504 Y10.6642
X-75.4378 Y10.6605
X-75.425 Y10.6574
X-75.4121 Y10.6549
X-75.3991 Y10.6531
X-75.386 Y10.6518
X-75.3729 Y10.6511
X-75.3597
X-75.3466 Y10.6517
X-75.3335 Y10.6529
X-75.3205 Y10.6547
X-75.3076 Y10.6572
X-75.3039 Y10.6512
X-75.3018 Y10.6522
X-75.3 Y10.6536
X-75.055 Y10.8969
G3 X-75.0658 Y10.972 I-0.4299 J-0.0233
X-75.0745 Y10.9847 I-0.0154 J-0.0012
X-75.1864 Y10.9767 I-0.049 J-0.1016
X-75.3003 Y10.6829 I0.1538 J-0.2287
G1 X-75.2964 Y10.6686
G2 X-75.3 Y10.6536 I-0.0147 J-0.0044
G1 X-75.3449 Y10.609
X-75.3568 Y10.6043
X-75.3689 Y10.6001
X-75.3812 Y10.5966
X-75.3937 Y10.5937
X-75.4062 Y10.5913
X-75.4189 Y10.5896
X-75.4317 Y10.5885
X-75.4445 Y10.588
X-75.4572 Y10.5881
X-75.47 Y10.5889
X-75.4827 Y10.5903
X-75.4954 Y10.5922
X-75.5079 Y10.5948
X-75.5203 Y10.598
X-75.5325 Y10.6018
X-75.5445 Y10.6062
X-75.5563 Y10.6112
X-75.5679 Y10.6167
X-75.5791 Y10.6228
X-75.5901 Y10.6294
X-75.6007 Y10.6365
X-75.6109 Y10.6441
X-75.6208 Y10.6523
X-75.6303 Y10.6609
X-75.6393 Y10.6699
X-75.6479 Y10.6794
X-75.6561 Y10.6893
X-75.6637 Y10.6995
X-75.6708 Y10.7101
X-75.6774 Y10.7211
X-75.6835 Y10.7323
X-75.689 Y10.7439
X-75.694 Y10.7557
X-75.6984 Y10.7677
X-75.7023 Y10.7686
X-75.706 Y10.7701
X-75.7096 Y10.772
X-75.7128 Y10.7745
X-75.7156 Y10.7773
X-75.718 Y10.7806
X-75.7199 Y10.7841
X-75.7214 Y10.7879
X-75.7222 Y10.7918
X-75.7226 Y10.7958
X-75.7223 Y10.7998
X-75.7215 Y10.8038
X-75.6414 Y10.9724
G2 X-75.6285 Y10.9806 I0.0137 J-0.0071
X-75.5996 Y10.9592 I0.0013 J-0.0284
X-75.7086 Y10.8121 I-0.1145 J-0.0292
G3 X-75.7215 Y10.8038 I0.0007 J-0.0154
G1 X-75.7413 Y10.7621
G3 X-75.5051 Y10.5026 I0.2422 J-0.0168
X-75.4636 Y10.491 I0.0256 J0.0118
G1 X-75.3449 Y10.609
G3 X-75.3414 Y10.6239 I-0.0112 J0.0105
X-75.3941 Y10.6484 I-0.0372 J-0.0112
X-75.4601 Y10.506 I0.0471 J-0.1083
G2 X-75.4636 Y10.491 I-0.0147 J-0.0044
G1 X-75.4941 Y10.4608
X-75.4992 Y10.4562
X-75.5017 Y10.4545
X-75.5039 Y10.4534
X-75.5063 Y10.4528
X-75.5089 Y10.4529
G3 X-75.6049 Y10.465 I-0.0982 J-0.3903
G2 X-75.813 Y10.6143 I0.0132 J0.2382
G1 X-75.7413 Y10.7621
G2 X-75.7284 Y10.7704 I0.0137 J-0.0071
X-75.6868 Y10.7246 I0.0019 J-0.0401
X-75.7982 Y10.6233 I-0.1169 J0.0167
G3 X-75.8112 Y10.615 I0.0007 J-0.0154
G1 X-75.8283 Y10.5791
X-75.8304 Y10.5709
X-75.832 Y10.5627
X-75.8331 Y10.5544
X-75.8336 Y10.546
X-75.8335 Y10.5376
X-75.8328 Y10.5292
X-75.8316 Y10.5209
X-75.8299 Y10.5126
X-75.8275 Y10.5046
X-75.8247 Y10.4966
X-75.8213 Y10.4889
X-75.8174 Y10.4815
X-75.813 Y10.4743
X-75.8081 Y10.4675
X-75.8028 Y10.4609
X-75.7971 Y10.4548
X-75.791 Y10.4491
X-75.7845 Y10.4437
X-75.7776 Y10.4389
X-75.6753 Y10.4601
X-75.6518 Y10.4633
X-75.6049 Y10.465
G3 X-75.5998 Y10.4945 I-0.0011 J0.0154
G1 X-75.8013 Y10.583
X-75.8084 Y10.5861
G3 X-75.8283 Y10.5791 I-0.0062 J-0.0141
G1 X-75.8629 Y10.5062
G3 X-75.853 Y10.4209 I0.0461 J-0.0379
X-75.8425 Y10.4335 I-0.0047 J0.0147
G1 X-75.8407 Y10.447
X-75.834 Y10.4971
G3 X-75.8629 Y10.5062 I-0.0153 J0.002
G1 X-75.8976 Y10.4331
X-75.8999 Y10.4276
X-75.901 Y10.4217
Y10.4213
X-75.9001 Y10.4166
X-75.8971 Y10.4128
X-75.8927 Y10.4108
X-75.8879 Y10.411
G3 X-75.8797 Y10.4141 I-0.0266 J0.0822
X-75.8909 Y10.4394 I-0.0056 J0.0127
X-75.8976 Y10.4331 I0.0056 J-0.0127
G1 X-75.9068 Y10.4137
X-75.9073 Y10.4127
X-75.9081 Y10.4111
X-75.9104 Y10.4056
X-75.9102 Y10.4051
X-75.9098 Y10.4048
X-75.9093
G3 X-75.904 Y10.407 I-0.0121 J0.0375
G1 X-75.9054 Y10.4127
X-75.9081 Y10.4111
X-75.911 Y10.405
X-75.9103 Y10.4045
X-75.816 Y10.4315
X-75.7925 Y10.4373
X-75.7766 Y10.4404
G3 X-75.7679 Y10.4649 I-0.0035 J0.015
G1 X-75.7698 Y10.4673 Z-0.1297
X-75.7715 Y10.4696 Z-0.1288
X-75.7732 Y10.4717 Z-0.1274
X-75.7746 Y10.4735 Z-0.1255
X-75.7758 Y10.475 Z-0.1232
X-75.7767 Y10.4761 Z-0.1205
X-75.7772 Y10.4768 Z-0.1176
X-75.7774 Y10.4771 Z-0.1146
G0 Z-0.0992
X-75.4882 Y11.2562
G1 Z-0.1146 F60.
X-75.4883 Y11.2565 Z-0.1176
Y11.2574 Z-0.1205
X-75.4885 Y11.2588 Z-0.1232
X-75.4887 Y11.2607 Z-0.1255
X-75.4889 Y11.263 Z-0.1274
X-75.4891 Y11.2657 Z-0.1288
X-75.4894 Y11.2685 Z-0.1297
X-75.4897 Y11.2715 Z-0.13
G2 X-75.4848 Y11.3021 I0.062 J0.0058
G1 X-75.4577 Y11.3592
X-75.4483 Y11.3672
X-75.4386 Y11.3747
X-75.4285 Y11.3817
X-75.4181 Y11.3882
X-75.4074 Y11.3942
X-75.3964 Y11.3997
X-75.3851 Y11.4047
X-75.3737 Y11.4091
X-75.362 Y11.4129
X-75.3502 Y11.4162
X-75.3382 Y11.4189
X-75.3261 Y11.421
X-75.3139 Y11.4225
X-75.3016 Y11.4234
X-75.2893 Y11.4237
X-75.277 Y11.4234
X-75.2648 Y11.4225
X-75.2526 Y11.421
X-75.2405 Y11.419
X-75.2285 Y11.4163
X-75.2166 Y11.4131
X-75.205 Y11.4093
X-75.1935 Y11.4049
X-75.1822 Y11.4
X-75.1712 Y11.3946
X-75.1605 Y11.3886
X-75.1501 Y11.3821
X-75.14 Y11.3751
X-75.1302 Y11.3676
X-75.1209 Y11.3596
X-75.1119 Y11.3512
X-75.1033 Y11.3424
X-75.0952 Y11.3332
X-75.0876 Y11.3236
X-75.0804 Y11.3136
G2 X-75.001 Y11.2136 I-0.1003 J-0.1611
G1 X-75.0026 Y11.2101
G3 X-75.0634 Y11.0544 I0.3035 J-0.2081
G2 X-75.0916 Y11.0506 I-0.0149 J0.004
X-75.0356 Y11.1991 I0.0886 J0.0514
G1 X-75.0313 Y11.2004
G2 X-75.0129 Y11.2043 I0.0333 J-0.1133
G3 X-75.0026 Y11.2101 I-0.0019 J0.0153
G1 X-74.9966 Y11.2185
X-74.987 Y11.2313
G3 X-75.145 Y11.4716 I-0.181 J0.0531
X-75.3882 Y11.5083 I-0.1604 J-0.2387
G1 X-75.4577 Y11.3592
G3 X-75.4559 Y11.3439 I0.0141 J-0.0061
X-75.3944 Y11.3405 I0.0322 J0.0239
X-75.3859 Y11.4912 I-0.0865 J0.0804
G2 X-75.3877 Y11.5065 I0.0124 J0.0092
G1 X-75.3703 Y11.543
G2 X-75.055 Y11.533 I0.1527 J-0.1623
X-74.9268 Y11.4251 I-0.0646 J-0.2067
G1 X-74.9124 Y11.3075
G3 X-74.987 Y11.2313 I2.1225 J-2.1515
G2 X-75.0014 Y11.2257 I-0.012 J0.0097
X-75.017 Y11.2433 I0.0028 J0.0182
X-74.9451 Y11.4022 I0.1967 J0.0067
G1 X-74.9333 Y11.4112
G3 X-74.9268 Y11.4251 I-0.0088 J0.0126
G1 X-74.9376 Y11.5127
G3 X-75.2944 Y11.6922 I-0.2895 J-0.1311
G1 X-75.2976 Y11.6912
X-75.3003 Y11.6892
X-75.3022 Y11.6864
X-75.3703 Y11.543
G3 X-75.3686 Y11.5277 I0.0141 J-0.0061
X-75.3038 Y11.5263 I0.033 J0.0244
X-75.3005 Y11.6711 I-0.0916 J0.0746
G2 X-75.3022 Y11.6864 I0.0124 J0.0092
G1 X-75.285 Y11.7226
G2 X-75.1093 Y11.7678 I0.1192 J-0.099
G3 X-74.954 Y11.6466 I0.3837 J0.3314
G1 X-74.9376 Y11.5127
G2 X-74.9613 Y11.4985 I-0.0153 J-0.0013
G1 X-75.2715 Y11.6985
X-75.2792 Y11.7035
G2 X-75.285 Y11.7226 I0.0083 J0.0129
G1 X-75.2492 Y11.798
X-75.2457 Y11.8048
X-75.2418 Y11.8112
X-75.2373 Y11.8173
X-75.2323 Y11.8231
X-75.2269 Y11.8284
X-75.2211 Y11.8333
X-75.2149 Y11.8377
X-75.2084 Y11.8416
X-75.2016 Y11.845
X-75.1946 Y11.8478
X-75.1873 Y11.85
X-75.1799 Y11.8517
X-75.1724 Y11.8528
X-75.1648 Y11.8532
X-75.1572 Y11.8531
G3 X-75.1093 Y11.7678 I0.197 J0.0547
G2 X-75.1081 Y11.7525 I-0.0127 J-0.0087
X-75.1708 Y11.7538 I-0.031 J0.015
X-75.1598 Y11.8344 I0.0723 J0.0312
G3 X-75.1574 Y11.8496 I-0.012 J0.0097
G1 X-75.1642 Y11.8655
G3 X-75.2072 Y11.8864 I-0.0293 J-0.0056
X-75.1989 Y11.8429 I0.0361 J-0.0156
X-75.1642 Y11.8655 I0.015 J0.015
G2 X-75.177 Y11.9023 I0.1203 J0.0625
G1 X-75.1784 Y11.9081
X-75.1786 Y11.9086
X-75.1816 Y11.9119
X-75.1857 Y11.9137
X-75.1902 Y11.9135
X-75.1942 Y11.9115
X-75.197 Y11.9079
G3 X-75.1985 Y11.9037 I0.0312 J-0.0135
X-75.1773 Y11.8977 I0.0106 J-0.003
X-75.177 Y11.9023 I-0.0106 J0.003
G1 X-75.1799 Y11.9183
X-75.1801 Y11.9193
X-75.1804 Y11.9207
X-75.1818 Y11.9266
X-75.1841 Y11.9279
X-75.1867 Y11.9276
X-75.1885 Y11.9257
G3 X-75.1901 Y11.9214 I0.0361 J-0.0156
G1 X-75.181 Y11.9176
X-75.1804 Y11.9207
X-75.1824 Y11.9316
X-75.1827 Y11.9332
X-75.183 Y11.9346
X-75.1831 Y11.9352
X-75.1833 Y11.9356
X-75.1836 Y11.9361
X-75.1841 Y11.9348
X-75.1836 Y11.9339
X-75.183 Y11.9346
X-75.1831 Y11.9354
X-75.1836 Y11.9361
X-75.2492 Y11.798
G3 X-75.2346 Y11.7765 I0.0141 J-0.0061
G1 X-75.2316 Y11.7766 Z-0.1297
X-75.2287 Z-0.1288
X-75.2261 Y11.7767 Z-0.1274
X-75.2237 Y11.7768 Z-0.1255
X-75.2218 Z-0.1232
X-75.2204 Y11.7769 Z-0.1205
X-75.2195 Z-0.1176
X-75.2192 Z-0.1146
G0 Z-0.0992
X-75.4753 Y10.5028
G1 Z-0.1146 F60.
X-75.4754 Y10.5026 Z-0.1176
X-75.4756 Y10.5017 Z-0.1205
X-75.476 Y10.5003 Z-0.1232
X-75.4764 Y10.4985 Z-0.1255
X-75.477 Y10.4962 Z-0.1274
X-75.4777 Y10.4936 Z-0.1288
X-75.4784 Y10.4908 Z-0.1297
X-75.4792 Y10.4879 Z-0.13
G2 X-75.4941 Y10.4608 I-0.0603 J0.0156
G1 X-75.5023 Y10.4527
X-75.503 Y10.4522
X-75.5037
X-75.5089 Y10.4529
G2 X-75.5108 Y10.4534 I0.0026 J0.0152
G1 X-75.5129 Y10.4546 Z-0.1298
X-75.5149 Y10.4557 Z-0.1293
X-75.5168 Y10.4568 Z-0.1284
X-75.518 Y10.4586 Z-0.127
X-75.519 Y10.4601 Z-0.1254
X-75.5199 Y10.4615 Z-0.1235
X-75.5206 Y10.4625 Z-0.1214
X-75.5209 Y10.4633 Z-0.1192
X-75.521 Y10.4638 Z-0.1169
X-75.5211 Y10.464 Z-0.1146
G0 Z0.4
X-75.2036 Y9.6529
Z0.1
G3 X-75.3061 Y9.6259 Z0.0791 I-0.0384 J-0.0622 F13.333
X-75.274 Y9.5249 Z0.0582 I0.0641 J-0.0352
X-75.1747 Y9.5621 Z0.0373 I0.032 J0.0658
X-75.2168 Y9.6594 Z0.0164 I-0.0673 J0.0286
X-75.2672 Y9.522 Z-0.0242 I-0.0252 J-0.0687
X-75.2168 Y9.6594 Z-0.0647 I0.0252 J0.0687
X-75.2672 Y9.522 Z-0.1052 I-0.0252 J-0.0687
X-75.1689 Y9.5907 Z-0.13 I0.0252 J0.0687
X-75.3152 I-0.0732 J0.
X-75.1691 Y9.5848 I0.0732 J0.
G1 X-75.1689 Y9.5907
G3 X-75.3247 Y9.7143 I-0.0819 J0.0568 F60.
G1 X-75.3328 Y9.709
X-75.3406 Y9.7031
X-75.3479 Y9.6967
X-75.3549 Y9.6899
X-75.3615 Y9.6827
X-75.3675 Y9.6751
X-75.3731 Y9.6671
X-75.3781 Y9.6588
X-75.3827 Y9.6502
X-75.3866 Y9.6413
X-75.39 Y9.6322
X-75.3929 Y9.6228
X-75.3951 Y9.6134
X-75.3967 Y9.6038
X-75.3977 Y9.5941
X-75.3981 Y9.5843
X-75.3979 Y9.5746
X-75.3971 Y9.5649
X-75.3957 Y9.5553
X-75.3937 Y9.5458
X-75.391 Y9.5364
X-75.3878 Y9.5272
X-75.384 Y9.5182
X-75.3797 Y9.5095
X-75.3748 Y9.5011
X-75.3694 Y9.493
X-75.3635 Y9.4852
X-75.3571 Y9.4779
X-75.3503 Y9.4709
X-75.343 Y9.4644
X-75.3354 Y9.4584
X-75.3274 Y9.4529
X-75.319 Y9.4479
X-75.3104 Y9.4434
X-75.3015 Y9.4395
X-75.2924 Y9.4361
X-75.283 Y9.4333
X-75.2735 Y9.4311
X-75.2639 Y9.4296
X-75.2542 Y9.4286
X-75.2445 Y9.4282
X-75.2348 Y9.4285
X-75.2251 Y9.4293
X-75.2155 Y9.4308
X-75.206 Y9.4329
X-75.1966 Y9.4355
X-75.1874 Y9.4388
X-75.1785 Y9.4426
X-75.1698 Y9.447
X-75.1614 Y9.4519
X-75.1533 Y9.4574
X-75.1456 Y9.4633
X-75.1383 Y9.4697
X-75.1314 Y9.4766
X-75.1249 Y9.4838
X-75.1189 Y9.4915
X-75.1134 Y9.4996
X-75.1085 Y9.5079
X-75.104 Y9.5166
X-75.1001 Y9.5255
X-75.0968 Y9.5346
X-75.0941 Y9.544
X-75.0883 Y9.5529
X-75.0831 Y9.5622
X-75.0784 Y9.5718
X-75.0743 Y9.5816
X-75.0707 Y9.5916
X-75.0677 Y9.6018
X-75.0652 Y9.6121
X-75.0634 Y9.6226
X-75.0622 Y9.6332
X-75.0615 Y9.6438
Y9.6545
X-75.0621 Y9.6651
X-75.0632 Y9.6757
X-75.065 Y9.6862
X-75.0674 Y9.6965
X-75.0703 Y9.7068
X-75.0738 Y9.7168
X-75.0779 Y9.7266
X-75.0825 Y9.7362
X-75.0877 Y9.7455
X-75.0934 Y9.7545
X-75.0996 Y9.7631
X-75.1062 Y9.7714
X-75.1134 Y9.7793
X-75.1209 Y9.7868
X-75.1289 Y9.7939
X-75.1373 Y9.8004
X-75.146 Y9.8065
X-75.155 Y9.8121
X-75.1644 Y9.8172
X-75.174 Y9.8217
X-75.1839 Y9.8257
X-75.194 Y9.8291
X-75.2042 Y9.8319
X-75.2146 Y9.8342
X-75.2251 Y9.8358
X-75.2357 Y9.8369
X-75.2463 Y9.8373
X-75.257 Y9.8372
X-75.2676 Y9.8364
X-75.2781 Y9.8351
X-75.2886 Y9.8331
X-75.2989 Y9.8306
X-75.3091 Y9.8275
X-75.3191 Y9.8238
X-75.3288 Y9.8196
X-75.3383 Y9.8148
X-75.3456 Y9.8119
X-75.3938 Y9.7726
X-75.4052 Y9.765
G3 X-75.4931 Y9.5872 I0.119 J-0.1695
G1 X-75.4918 Y9.5847
X-75.49 Y9.5824
X-75.4879 Y9.5805
X-75.4855 Y9.5791
X-75.4828 Y9.5781
X-75.48 Y9.5776
X-75.4772
X-75.4744 Y9.5781
X-75.4718 Y9.5791
X-75.4694 Y9.5806
X-75.4673 Y9.5825
G3 X-75.4648 Y9.586 I-0.0113 J0.0105
G1 X-75.3848 Y9.7441
X-75.3839 Y9.7463
X-75.3833 Y9.7487
X-75.3832 Y9.7511
G3 X-75.4052 Y9.765 I-0.0154 J-0.0001
G2 X-75.4947 Y9.7248 I-0.1476 J0.2093
G1 X-75.4992 Y9.7252
X-75.5036 Y9.7249
X-75.508 Y9.7241
X-75.5122 Y9.7226
X-75.5162 Y9.7206
X-75.5199 Y9.718
X-75.5232 Y9.715
X-75.526 Y9.7116
X-75.5284 Y9.7078
X-75.5302 Y9.7037
X-75.5314 Y9.6994
X-75.532 Y9.6949
G3 X-75.5127 Y9.6861 I0.0143 J0.0058
G1 X-75.5056 Y9.6886
X-75.4863 Y9.6952
G3 X-75.4947 Y9.7248 I-0.005 J0.0146
G1 X-75.5379 Y9.7135
X-75.5386 Y9.7131
X-75.4504 Y9.4707
X-75.4447 Y9.4599
X-75.4383 Y9.4494
X-75.4315 Y9.4392
X-75.4241 Y9.4293
X-75.4163 Y9.4199
X-75.408 Y9.4108
X-75.3992 Y9.4022
X-75.39 Y9.3941
X-75.3804 Y9.3864
X-75.3704 Y9.3792
X-75.3601 Y9.3726
X-75.3495 Y9.3664
X-75.3385 Y9.3609
X-75.3273 Y9.3559
X-75.3158 Y9.3514
X-75.3042 Y9.3476
X-75.2923 Y9.3443
X-75.2803 Y9.3417
X-75.2682 Y9.3397
X-75.256 Y9.3383
X-75.2437 Y9.3375
X-75.2314 Y9.3373
X-75.2191 Y9.3378
X-75.2069 Y9.3389
X-75.1947 Y9.3406
X-75.1827 Y9.343
X-75.1708 Y9.3459
X-75.159 Y9.3495
X-75.1474 Y9.3536
X-75.1361 Y9.3583
X-75.125 Y9.3636
X-75.1142 Y9.3695
X-75.1037 Y9.3759
X-75.0936 Y9.3828
X-75.0838 Y9.3902
X-75.0744 Y9.3981
X-75.0654 Y9.4065
X-75.0568 Y9.4153
X-75.0488 Y9.4246
X-75.0412 Y9.4343
X-75.0341 Y9.4443
X-75.0275 Y9.4547
X-75.0214 Y9.4654
X-75.016 Y9.4763
X-74.9945 Y9.6946
X-74.9951 Y9.7068
X-74.9963 Y9.719
X-74.9982 Y9.731
X-75.0006 Y9.7429
X-75.0037 Y9.7548
X-75.0073 Y9.7664
X-75.0116 Y9.7778
X-75.0164 Y9.789
X-75.0218 Y9.7999
X-75.0278 Y9.8106
X-75.0343 Y9.8209
X-75.0413 Y9.8308
X-75.0489 Y9.8404
X-75.0569 Y9.8496
X-75.0654 Y9.8584
X-75.0743 Y9.8667
X-75.0836 Y9.8745
X-75.0933 Y9.8819
X-75.1034 Y9.8887
X-75.1139 Y9.8951
X-75.1246 Y9.9008
X-75.1356 Y9.906
X-75.1469 Y9.9107
X-75.1584 Y9.9147
X-75.1701 Y9.9182
X-75.1819 Y9.921
X-75.1939 Y9.9233
X-75.206 Y9.9249
X-75.2182 Y9.9259
X-75.2303 Y9.9262
X-75.2425 Y9.926
X-75.2547 Y9.9251
X-75.2668 Y9.9235
G2 X-75.3398 Y9.8174 I-0.3286 J0.1478
G3 X-75.3436 Y9.8025 I0.011 J-0.0107
X-75.3125 Y9.7838 I0.0255 J0.0072
X-75.265 Y9.9067 I-0.0164 J0.077
G2 X-75.2666 Y9.922 I0.0125 J0.009
G1 X-75.2531 Y9.9496
G2 X-74.9776 Y9.8954 I0.1159 J-0.1382
G1 X-74.9945 Y9.6946
G2 X-75.022 Y9.6872 I-0.0153 J0.002
X-75.0338 Y9.7089 I0.0618 J0.0478
X-74.9818 Y9.8861 I0.1484 J0.0526
G3 X-74.9759 Y9.8963 I-0.0094 J0.0122
G1 X-74.9716 Y9.9432
X-74.9739 Y9.9533
X-74.9768 Y9.9633
X-74.9803 Y9.9731
X-74.9843 Y9.9827
X-74.9889 Y9.9921
X-74.994 Y10.0011
X-74.9996 Y10.0099
X-75.0057 Y10.0183
X-75.0123 Y10.0264
X-75.0194 Y10.034
X-75.0268 Y10.0413
X-75.0347 Y10.0481
X-75.043 Y10.0544
X-75.0516 Y10.0603
X-75.0605 Y10.0656
X-75.0697 Y10.0705
X-75.0792 Y10.0748
X-75.0889 Y10.0785
X-75.0988 Y10.0817
X-75.1089 Y10.0843
X-75.1191 Y10.0863
X-75.1294 Y10.0877
X-75.1398 Y10.0886
X-75.1502 Y10.0888
X-75.1606 Y10.0885
X-75.1709 Y10.0875
X-75.1812 Y10.086
X-75.1914 Y10.0838
X-75.2014 Y10.0811
X-75.2113 Y10.0778
X-75.221 Y10.074
X-75.2304 Y10.0696
G2 X-75.2531 Y9.9496 I-0.3013 J-0.0052
G3 X-75.2507 Y9.9344 I0.0144 J-0.0056
X-75.2026 Y9.9329 I0.0247 J0.0198
X-75.2216 Y10.0541 I-0.0583 J0.0529
G2 X-75.2293 Y10.0674 I0.0077 J0.0134
G1 X-75.2287 Y10.0884
G2 X-74.9589 Y10.0983 I0.1378 J-0.0745
G1 X-74.9716 Y9.9432
G2 X-74.9809 Y9.9309 I-0.0153 J0.002
X-75.038 Y9.9641 I-0.016 J0.0381
X-74.9665 Y10.0871 I0.1173 J0.0141
G3 X-74.9572 Y10.0994 I-0.006 J0.0142
G1 X-74.9538 Y10.1353
G3 X-75.1825 Y10.2465 I-0.1615 J-0.0414
G1 X-75.2405 Y10.189
G3 X-75.2284 Y10.1166 I0.0893 J-0.0223
G1 X-75.2285 Y10.0932
X-75.2287 Y10.0884
G3 X-75.2209 Y10.0751 I0.0154 J0.
X-75.2017 Y10.0806 I0.007 J0.0121
X-75.1823 Y10.2172 I-0.1728 J0.0942
G1 X-75.186 Y10.2316
G2 X-75.1825 Y10.2465 I0.0147 J0.0044
G1 X-75.1296 Y10.2992
G2 X-74.9389 Y10.2819 I0.0852 J-0.121
G1 X-74.9538 Y10.1353
G2 X-74.9632 Y10.1231 I-0.0153 J0.002
X-75.022 Y10.164 I-0.0164 J0.0392
X-74.9498 Y10.2681 I0.118 J-0.0048
G3 X-74.9405 Y10.2803 I-0.006 J0.0142
G1 X-74.9376 Y10.3113
G3 X-75.0277 Y10.4024 I-0.0962 J-0.005
G1 X-75.1296 Y10.2992
G3 X-75.1161 Y10.2734 I0.0112 J-0.0105
G1 X-74.9614 Y10.2964
X-74.9506 Y10.298
G3 X-74.9376 Y10.3113 I-0.0023 J0.0152
G1 X-74.9306 Y10.3874
G3 X-74.975 Y10.4528 I-0.0562 J0.0096
X-74.9784 Y10.4373 I0.0112 J-0.0105
G1 X-74.9738 Y10.4237
X-74.9604 Y10.3844
G3 X-74.9306 Y10.3874 I0.0146 J0.005
G1 X-74.9242 Y10.4564
X-74.9239 Y10.4624
X-74.9248 Y10.4683
X-74.9266 Y10.4744
X-74.9293 Y10.4805
X-74.9325 Y10.4837
X-74.9368 Y10.4852
X-74.9414 Y10.4847
X-74.9453 Y10.4823
G3 X-74.9556 Y10.4604 I0.0287 J-0.0269
X-74.9419 Y10.4427 I0.0157 J-0.002
X-74.9242 Y10.4564 I0.002 J0.0157
G1 X-74.9214 Y10.487
X-74.9212 Y10.4884
X-74.9211 Y10.4903
X-74.9208 Y10.4963
X-74.923 Y10.4989
X-74.9263 Y10.4996
X-74.9294 Y10.4981
G3 X-74.9322 Y10.4948 I0.0287 J-0.0269
X-74.9223 Y10.4873 I0.005 J-0.0037
X-74.9211 Y10.4903 I-0.005 J0.0037
G1 X-74.92 Y10.5014
X-74.9199 Y10.5025
X-74.9198 Y10.5038
Y10.5055
X-74.9203 Y10.506
X-74.921 Y10.5061
X-74.9216 Y10.5058
X-74.9224 Y10.505
X-74.9213 Y10.5025
X-74.9198 Y10.5038
X-74.9196 Y10.5065
X-74.9195 Y10.507
X-74.92 Y10.5075
X-75.0278 Y10.4003
G3 X-75.0214 Y10.3751 I0.0112 J-0.0105
G1 X-75.0185 Y10.3742 Z-0.1297
X-75.0158 Y10.3733 Z-0.1288
X-75.0132 Y10.3725 Z-0.1274
X-75.011 Y10.3718 Z-0.1255
X-75.0092 Y10.3712 Z-0.1232
X-75.0078 Y10.3707 Z-0.1205
X-75.007 Y10.3704 Z-0.1176
X-75.0067 Y10.3703 Z-0.1146
G0 Z-0.0992
X-75.0273 Y9.52
G1 Z-0.1146 F60.
X-75.0272 Y9.5198 Z-0.1176
X-75.0268 Y9.519 Z-0.1205
X-75.0262 Y9.5177 Z-0.1232
X-75.0254 Y9.516 Z-0.1255
X-75.0244 Y9.5138 Z-0.1274
X-75.0232 Y9.5114 Z-0.1288
X-75.022 Y9.5088 Z-0.1297
X-75.0207 Y9.5061 Z-0.13
G2 X-75.0147 Y9.4758 I-0.0563 J-0.0268
G1 X-75.0227 Y9.3899
G2 X-75.3767 Y9.272 I-0.2286 J0.0959
G1 X-75.3784 Y9.2739
X-75.3796 Y9.2763
X-75.4504 Y9.4707
G2 X-75.4405 Y9.4901 I0.0146 J0.0048
X-75.4284 Y9.4883 I0.0042 J-0.013
X-75.3787 Y9.288 I-0.0906 J-0.1288
G3 X-75.3796 Y9.2763 I0.0137 J-0.007
G1 X-75.363 Y9.2305
G3 X-75.039 Y9.2131 I0.1703 J0.1474
G1 X-75.0227 Y9.3899
G3 X-75.0296 Y9.4036 I-0.0154 J0.0009
X-75.0765 Y9.3951 I-0.019 J-0.0289
X-75.0459 Y9.2269 I0.0955 J-0.0695
G2 X-75.039 Y9.2131 I-0.0085 J-0.0129
G1 X-75.0428 Y9.1718
G2 X-75.3076 Y9.0783 I-0.1781 J0.0829
G1 X-75.363 Y9.2305
G2 X-75.3598 Y9.2455 I0.0146 J0.0048
X-75.2973 Y9.2426 I0.03 J-0.027
X-75.3044 Y9.0934 I-0.0949 J-0.0703
G3 X-75.3076 Y9.0783 I0.0115 J-0.0103
G1 X-75.2944 Y9.0421
G3 X-75.0569 Y9.0158 I0.1306 J0.0937
G1 X-75.0428 Y9.1718
G3 X-75.0497 Y9.1855 I-0.0154 J0.0009
X-75.1122 Y9.1629 I-0.0228 J-0.0346
X-75.0641 Y9.0299 I0.113 J-0.0344
G2 X-75.0572 Y9.0161 I-0.0085 J-0.0129
G1 X-75.0607 Y8.9784
X-75.064 Y8.9702
X-75.0679 Y8.9621
X-75.0724 Y8.9544
X-75.0773 Y8.947
X-75.0827 Y8.9398
X-75.0885 Y8.9331
X-75.0948 Y8.9268
X-75.1015 Y8.9209
X-75.1085 Y8.9154
X-75.1159 Y8.9104
X-75.1236 Y8.9059
X-75.1316 Y8.9019
X-75.1398 Y8.8985
X-75.1482 Y8.8956
X-75.1568 Y8.8932
X-75.1655 Y8.8914
X-75.1744 Y8.8902
X-75.1833 Y8.8896
X-75.1922 Y8.8895
X-75.2011 Y8.8901
X-75.2099 Y8.8912
X-75.2187 Y8.8929
X-75.2273 Y8.8951
X-75.2358 Y8.8979
X-75.244 Y8.9013
X-75.2944 Y9.0421
G2 X-75.2912 Y9.0571 I0.0146 J0.0048
X-75.2215 Y9.047 I0.0315 J-0.0283
X-75.2404 Y8.9174 I-0.1067 J-0.0506
G3 X-75.2436 Y8.9024 I0.0115 J-0.0103
G1 X-75.2333 Y8.8741
X-75.2289 Y8.8673
X-75.2241 Y8.8608
X-75.2188 Y8.8547
X-75.2131 Y8.8491
X-75.207 Y8.8438
X-75.2006 Y8.839
X-75.1938 Y8.8347
X-75.1867 Y8.8309
X-75.1793 Y8.8276
X-75.1717 Y8.8248
X-75.164 Y8.8226
X-75.1561 Y8.821
X-75.1481 Y8.82
X-75.1401 Y8.8195
X-75.132 Y8.8197
X-75.124 Y8.8204
X-75.116 Y8.8217
X-75.1082 Y8.8236
X-75.1005 Y8.826
X-75.0931 Y8.829
X-75.0858 Y8.8325
X-75.0788 Y8.8366
X-75.0722 Y8.8411
X-75.0607 Y8.9784
G3 X-75.0863 Y8.9908 I-0.0154 J0.0009
X-75.1023 Y8.9655 I0.0362 J-0.0406
X-75.0771 Y8.8536 I0.1133 J-0.0333
G2 X-75.0732 Y8.8425 I-0.0115 J-0.0102
G1 X-75.0758 Y8.8143
G2 X-75.1904 Y8.752 I-0.0869 J0.0233
G1 X-75.2333 Y8.8741
G2 X-75.2301 Y8.8891 I0.0146 J0.0048
X-75.2109 Y8.8929 I0.0121 J-0.0109
X-75.1865 Y8.7694 I-0.0342 J-0.0709
G3 X-75.1897 Y8.7543 I0.0115 J-0.0103
G1 X-75.1827 Y8.7351
G3 X-75.0844 Y8.7026 I0.064 J0.0287
G1 X-75.0758 Y8.8143
G3 X-75.0827 Y8.828 I-0.0154 J0.0009
X-75.1216 Y8.8166 I-0.0146 J-0.0221
X-75.0928 Y8.719 I0.072 J-0.0318
G2 X-75.0859 Y8.7052 I-0.0085 J-0.0129
G1 X-75.0876 Y8.6865
G2 X-75.1509 Y8.6429 I-0.0517 J0.0073
G1 X-75.1827 Y8.7351
G2 X-75.1584 Y8.7519 I0.0146 J0.0048
G1 X-75.106 Y8.7096
X-75.0933 Y8.6994
G2 X-75.0876 Y8.6865 I-0.0097 J-0.012
G1 X-75.0926 Y8.6325
G2 X-75.133 Y8.5986 I-0.0282 J-0.0074
G1 X-75.1502 Y8.646
G2 X-75.147 Y8.661 I0.0146 J0.0048
X-75.1242 Y8.6581 I0.0104 J-0.0094
X-75.1298 Y8.6136 I-0.0349 J-0.0182
G3 X-75.133 Y8.5986 I0.0115 J-0.0103
G1 X-75.1283 Y8.5857
X-75.126 Y8.5801
X-75.1219 Y8.5757
X-75.1171 Y8.5722
X-75.1117 Y8.5695
X-75.1109 Y8.5693
X-75.1064 Y8.569
X-75.1021 Y8.5706
X-75.099 Y8.5739
X-75.0976 Y8.5782
G3 X-75.1007 Y8.596 I-0.0393 J0.0022
X-75.1099 Y8.6043 I-0.0135 J-0.0058
G1 X-75.1111 Y8.6046
G3 X-75.1283 Y8.5857 I-0.0031 J-0.0144
G1 X-75.1188 Y8.5595
X-75.1164 Y8.554
X-75.1128 Y8.5513
X-75.1083 Y8.5506
X-75.104 Y8.5519
X-75.1008 Y8.5551
X-75.0994 Y8.5593
X-75.0993 Y8.5625
G3 X-75.1192 Y8.5627 I-0.01 J0.0001
X-75.1188 Y8.5595 I0.01 J-0.0001
G1 X-75.1134 Y8.5446
X-75.111 Y8.5391
X-75.1081 Y8.5376
X-75.1047 Y8.5379
X-75.1021 Y8.5399
X-75.1009 Y8.543
G3 X-75.1008 Y8.5469 I-0.0393 J0.0022
X-75.1084 Y8.5529 I-0.0064 J-0.0003
X-75.1134 Y8.5446 I0.0011 J-0.0063
G1 X-75.1094 Y8.5337
X-75.1087 Y8.5318
X-75.1081 Y8.5303
X-75.1075 Y8.5289
X-75.1052 Y8.5281
X-75.103 Y8.529
X-75.102 Y8.5312
X-75.1021 Y8.5324
X-75.1081 Y8.5303
X-75.1064 Y8.5256
X-75.1058 Y8.5238
X-75.1053 Y8.5224
X-75.1048 Y8.5213
X-75.1039 Y8.5211
X-75.1031 Y8.5215
X-75.1028 Y8.5223
Y8.5228
X-75.103 Y8.5235
X-75.1035 Y8.524
X-75.1042 Y8.5241
X-75.1049 Y8.5238
X-75.1053 Y8.5232
Y8.5224
X-75.1044 Y8.5201
X-75.104 Y8.519
X-75.1035 Y8.5176
X-75.1032 Y8.5183
X-75.1034
X-75.1035 Y8.5176
X-75.1032 Y8.5182
X-75.0926 Y8.6325
G3 X-75.099 Y8.646 I-0.0154 J0.0009
G1 X-75.1012 Y8.6469 Z-0.1298
X-75.1033 Y8.6478 Z-0.1293
X-75.1054 Y8.6486 Z-0.1284
X-75.1067 Y8.6487 Z-0.1276
X-75.108 Y8.6488 Z-0.1267
X-75.1099 Y8.6485 Z-0.1248
X-75.1115 Y8.6481 Z-0.1225
X-75.1127 Y8.6479 Z-0.12
X-75.1135 Y8.6478 Z-0.1174
X-75.1137 Y8.6477 Z-0.1146
G0 Z0.4
X-74.2559 Y13.3567
Z0.1
G3 X-74.3584 Y13.3297 Z0.0791 I-0.0384 J-0.0622 F13.333
X-74.3263 Y13.2286 Z0.0582 I0.0641 J-0.0352
X-74.227 Y13.2658 Z0.0373 I0.032 J0.0658
X-74.2691 Y13.3631 Z0.0164 I-0.0673 J0.0286
X-74.3642 Y13.3161 Z-0.0045 I-0.0252 J-0.0687
X-74.2245 Y13.2727 Z-0.0451 I0.0698 J-0.0217
X-74.3642 Y13.3161 Z-0.0856 I-0.0698 J0.0217
X-74.3053 Y13.2221 Z-0.1078 I0.0698 J-0.0217
X-74.2212 Y13.2944 Z-0.13 I0.011 J0.0723
X-74.3675 I-0.0732 J0.
X-74.2214 Y13.2885 I0.0731 J0.
G1 X-74.2212 Y13.2944
G3 X-74.377 Y13.418 I-0.0819 J0.0568 F60.
G1 X-74.3851 Y13.4127
X-74.3929 Y13.4068
X-74.4003 Y13.4005
X-74.4073 Y13.3937
X-74.4138 Y13.3864
X-74.4199 Y13.3788
X-74.4254 Y13.3708
X-74.4305 Y13.3625
X-74.435 Y13.3539
X-74.439 Y13.345
X-74.4424 Y13.3359
X-74.4452 Y13.3265
X-74.4474 Y13.3171
X-74.4491 Y13.3075
X-74.4501 Y13.2978
X-74.4505 Y13.2881
X-74.4503 Y13.2783
X-74.4495 Y13.2686
X-74.448 Y13.259
X-74.446 Y13.2495
X-74.4434 Y13.2401
X-74.4402 Y13.2309
X-74.4364 Y13.2219
X-74.432 Y13.2132
X-74.4272 Y13.2048
X-74.4218 Y13.1967
X-74.4158 Y13.1889
X-74.4095 Y13.1816
X-74.4026 Y13.1747
X-74.3954 Y13.1682
X-74.3877 Y13.1621
X-74.3797 Y13.1566
X-74.3714 Y13.1516
X-74.3627 Y13.1471
X-74.3538 Y13.1432
X-74.3447 Y13.1398
X-74.3354 Y13.137
X-74.3259 Y13.1349
X-74.3163 Y13.1333
X-74.3066 Y13.1323
X-74.2969 Y13.1319
X-74.2871 Y13.1322
X-74.2774 Y13.133
X-74.2678 Y13.1345
X-74.2583 Y13.1366
X-74.249 Y13.1393
X-74.2398 Y13.1425
X-74.2308 Y13.1463
X-74.2221 Y13.1507
X-74.2137 Y13.1556
X-74.2057 Y13.1611
X-74.198 Y13.167
X-74.1906 Y13.1734
X-74.1837 Y13.1803
X-74.1773 Y13.1876
X-74.1713 Y13.1952
X-74.1658 Y13.2033
X-74.1608 Y13.2116
X-74.1564 Y13.2203
X-74.1525 Y13.2292
X-74.1492 Y13.2384
X-74.1464 Y13.2477
X-74.1407 Y13.2571
X-74.1356 Y13.2668
X-74.131 Y13.2767
X-74.127 Y13.2869
X-74.1236 Y13.2974
X-74.1208 Y13.308
X-74.1186 Y13.3187
X-74.117 Y13.3296
X-74.116 Y13.3405
X-74.1157 Y13.3515
X-74.116 Y13.3624
X-74.1169 Y13.3734
X-74.1184 Y13.3842
X-74.1206 Y13.395
X-74.1234 Y13.4056
X-74.1267 Y13.416
X-74.1307 Y13.4263
X-74.1352 Y13.4362
X-74.1403 Y13.446
X-74.146 Y13.4554
X-74.1522 Y13.4644
X-74.1589 Y13.4731
X-74.166 Y13.4814
X-74.1737 Y13.4893
X-74.1817 Y13.4967
X-74.1902 Y13.5037
X-74.1991 Y13.5101
X-74.2083 Y13.516
X-74.2179 Y13.5214
X-74.2277 Y13.5263
X-74.2378 Y13.5306
X-74.2481 Y13.5342
X-74.2587 Y13.5373
X-74.2693 Y13.5398
X-74.2801 Y13.5417
X-74.291 Y13.5429
X-74.302 Y13.5436
X-74.3129
X-74.3239 Y13.5429
X-74.3348 Y13.5417
X-74.3456 Y13.5398
X-74.3563 Y13.5373
X-74.3668 Y13.5342
X-74.3771 Y13.5305
X-74.3872 Y13.5263
X-74.397 Y13.5214
X-74.4066 Y13.516
X-74.4158 Y13.5101
X-74.4247 Y13.5036
X-74.4332 Y13.4967
X-74.4412 Y13.4892
X-74.522 Y13.3285
X-74.5248 Y13.3171
X-74.5271 Y13.3056
X-74.5287 Y13.294
X-74.5298 Y13.2823
X-74.5302 Y13.2706
X-74.5301 Y13.2589
X-74.5294 Y13.2472
X-74.528 Y13.2355
X-74.5261 Y13.224
X-74.5236 Y13.2125
X-74.5204 Y13.2012
X-74.5168 Y13.1901
X-74.5125 Y13.1791
X-74.5077 Y13.1684
X-74.5023 Y13.158
X-74.4964 Y13.1479
X-74.4901 Y13.138
X-74.4832 Y13.1285
X-74.4758 Y13.1194
X-74.468 Y13.1107
X-74.4597 Y13.1024
X-74.451 Y13.0945
X-74.4419 Y13.0871
X-74.4325 Y13.0801
X-74.4227 Y13.0736
X-74.4126 Y13.0677
X-74.4022 Y13.0623
X-74.3915 Y13.0574
X-74.3806 Y13.0531
X-74.3695 Y13.0493
X-74.3582 Y13.0461
X-74.3468 Y13.0435
X-74.3353 Y13.0415
X-74.3236 Y13.0401
X-74.3119 Y13.0393
X-74.3002 Y13.0391
X-74.2885 Y13.0395
X-74.2768 Y13.0404
X-74.2652 Y13.042
X-74.2536 Y13.0442
X-74.2423 Y13.047
X-74.231 Y13.0503
X-74.22 Y13.0543
X-74.2091 Y13.0587
X-74.1985 Y13.0638
X-74.0545 Y13.2417
G2 X-74.0764 Y13.4352 I0.3555 J0.1384
G1 X-74.0777 Y13.4466
X-74.0796 Y13.458
X-74.082 Y13.4692
X-74.085 Y13.4803
X-74.0887 Y13.4912
X-74.0928 Y13.5019
X-74.0976 Y13.5124
X-74.1028 Y13.5226
X-74.1087 Y13.5326
X-74.115 Y13.5422
X-74.1218 Y13.5514
X-74.1291 Y13.5603
X-74.1368 Y13.5688
X-74.145 Y13.5769
X-74.1536 Y13.5845
X-74.1626 Y13.5917
X-74.172 Y13.5984
X-74.1817 Y13.6046
X-74.1917 Y13.6103
X-74.2019 Y13.6154
X-74.2125 Y13.62
X-74.2232 Y13.6241
X-74.2342 Y13.6275
X-74.2453 Y13.6304
X-74.2566 Y13.6327
X-74.268 Y13.6344
X-74.2794 Y13.6355
X-74.2909 Y13.636
X-74.3024 Y13.6359
X-74.3139 Y13.6352
X-74.3253 Y13.6339
X-74.3367 Y13.632
X-74.3479 Y13.6295
X-74.359 Y13.6265
X-74.3699 Y13.6228
X-74.3806 Y13.6186
X-74.3838 Y13.6192
X-74.4441 Y13.4922
G3 X-74.4424 Y13.477 I0.0141 J-0.0061
X-74.3695 Y13.4846 I0.0342 J0.0253
X-74.3821 Y13.6039 I-0.1075 J0.049
G2 X-74.3838 Y13.6192 I0.0124 J0.0092
G1 X-74.366 Y13.6567
X-74.3571 Y13.6641
X-74.3478 Y13.6711
X-74.3382 Y13.6775
X-74.3282 Y13.6833
X-74.3179 Y13.6887
X-74.3074 Y13.6934
X-74.2966 Y13.6976
X-74.2856 Y13.7012
X-74.2744 Y13.7042
X-74.2631 Y13.7066
X-74.2516 Y13.7083
X-74.2401 Y13.7095
X-74.2285 Y13.71
X-74.217 Y13.7099
X-74.2054 Y13.7092
X-74.1939 Y13.7078
X-74.1825 Y13.7058
X-74.1713 Y13.7032
X-74.1601 Y13.7
X-74.1492 Y13.6962
X-74.1385 Y13.6919
X-74.128 Y13.6869
X-74.1179 Y13.6814
X-74.108 Y13.6753
X-74.0985 Y13.6687
X-74.0893 Y13.6617
X-74.0806 Y13.6541
X-74.0723 Y13.6461
X-74.0644 Y13.6376
X-74.057 Y13.6287
X-74.0501 Y13.6194
X-74.0436 Y13.6098
X-74.0378 Y13.5998
X-74.0324 Y13.5895
X-74.0277 Y13.579
G3 X-74.0764 Y13.4352 I0.3494 J-0.1987
G2 X-74.0946 Y13.4232 I-0.0151 J0.0031
X-74.1333 Y13.4843 I0.0102 J0.0492
X-74.0376 Y13.5728 I0.1147 J-0.028
G3 X-74.0276 Y13.579 I-0.0025 J0.0152
G1 X-74.0227 Y13.5864
X-74.0157 Y13.5962
X-74.0139 Y13.6061
X-74.0128 Y13.6161
X-74.0122 Y13.6261
X-74.0123 Y13.6362
X-74.013 Y13.6462
X-74.0143 Y13.6562
X-74.0162 Y13.6661
X-74.0187 Y13.6758
X-74.0217 Y13.6854
X-74.0254 Y13.6948
X-74.0296 Y13.7039
X-74.0344 Y13.7127
X-74.0396 Y13.7213
X-74.0454 Y13.7295
X-74.0517 Y13.7374
X-74.0584 Y13.7448
X-74.0656 Y13.7518
X-74.0732 Y13.7584
X-74.0812 Y13.7645
X-74.0895 Y13.7702
X-74.0982 Y13.7753
X-74.1071 Y13.7798
X-74.1163 Y13.7838
X-74.1258 Y13.7873
X-74.1354 Y13.7902
X-74.1452 Y13.7924
X-74.1551 Y13.7941
X-74.1651 Y13.7952
X-74.1751 Y13.7957
X-74.1851 Y13.7955
X-74.1952 Y13.7948
X-74.2051 Y13.7935
G3 X-74.2995 Y13.7966 I-0.0489 J-0.0511
G1 X-74.366 Y13.6567
G3 X-74.3642 Y13.6414 I0.0141 J-0.0061
X-74.2969 Y13.6418 I0.0335 J0.0248
X-74.2977 Y13.7813 I-0.0957 J0.0692
G2 X-74.2995 Y13.7966 I0.0124 J0.0092
G1 X-74.2824 Y13.8326
G2 X-73.9526 Y13.7443 I0.1328 J-0.1639
X-73.9243 Y13.7024 I-0.0338 J-0.0534
X-74.0157 Y13.5962 I-0.4159 J0.2656
X-74.0299 Y13.5903 I-0.0122 J0.0094
G1 X-74.0309 Y13.5926
X-74.0236 Y13.602
G2 X-73.9429 Y13.6799 I0.3386 J-0.27
G1 X-73.9309 Y13.6885
G3 X-73.9243 Y13.7024 I-0.0087 J0.0127
G1 X-73.9378 Y13.8208
G3 X-74.2181 Y13.9678 I-0.2225 J-0.0837
G1 X-74.2824 Y13.8326
G3 X-74.2806 Y13.8173 I0.0141 J-0.0061
X-74.2107 Y13.8203 I0.0339 J0.0251
X-74.2164 Y13.9525 I-0.1005 J0.062
G2 X-74.2181 Y13.9678 I0.0124 J0.0092
G1 X-74.2044 Y13.9967
X-74.1977 Y14.0039
X-74.1905 Y14.0108
X-74.183 Y14.0171
X-74.175 Y14.0231
X-74.1668 Y14.0285
X-74.1582 Y14.0334
X-74.1493 Y14.0379
X-74.1402 Y14.0417
X-74.1309 Y14.0451
X-74.1214 Y14.0478
X-74.1118 Y14.05
X-74.102 Y14.0516
X-74.0922 Y14.0526
X-74.0823 Y14.053
X-74.0724 Y14.0528
X-74.0625 Y14.0521
X-74.0527 Y14.0507
X-74.043 Y14.0488
X-74.0335 Y14.0462
X-74.0241 Y14.0432
X-74.0149 Y14.0395
X-74.0059 Y14.0353
X-73.9972 Y14.0306
X-73.9888 Y14.0253
X-73.9807 Y14.0196
X-73.973 Y14.0134
X-73.9657 Y14.0068
X-73.9588 Y13.9997
X-73.9378 Y13.8208
G2 X-73.9444 Y13.807 I-0.0154 J-0.0012
X-73.9881 Y13.8128 I-0.0186 J0.027
X-73.9649 Y13.9862 I0.0903 J0.0762
G3 X-73.9583 Y14.0001 I-0.0087 J0.0127
G1 X-73.963 Y14.041
X-73.966 Y14.0498
X-73.9696 Y14.0583
X-73.9738 Y14.0666
X-73.9784 Y14.0747
X-73.9836 Y14.0823
X-73.9893 Y14.0897
X-73.9955 Y14.0966
X-74.0021 Y14.1031
X-74.0092 Y14.1092
X-74.0166 Y14.1148
X-74.0243 Y14.1198
X-74.0324 Y14.1244
X-74.0408 Y14.1284
X-74.0494 Y14.1319
X-74.0582 Y14.1348
X-74.0672 Y14.1371
X-74.0763 Y14.1388
X-74.0855 Y14.1398
X-74.0948 Y14.1403
X-74.1041 Y14.1402
X-74.1133 Y14.1395
X-74.1225 Y14.1381
X-74.1316 Y14.1362
X-74.1405 Y14.1336
X-74.2044 Y13.9967
G3 X-74.2027 Y13.9814 I0.0141 J-0.0061
X-74.1329 Y13.9842 I0.0339 J0.0251
X-74.1383 Y14.1168 I-0.1003 J0.0623
G2 X-74.14 Y14.1321 I0.0124 J0.0092
G1 X-74.1272 Y14.1592
G2 X-73.9783 Y14.1857 I0.0875 J-0.0598
G1 X-73.963 Y14.041
G2 X-73.9884 Y14.0281 I-0.0154 J-0.0012
X-73.9936 Y14.0342 I0.017 J0.0199
X-73.983 Y14.173 I0.1004 J0.0621
G3 X-73.9794 Y14.1842 I-0.0117 J0.01
G1 X-73.9822 Y14.2088
G3 X-74.0753 Y14.2721 I-0.0783 J-0.0152
G1 X-74.0764 Y14.2693
X-74.077 Y14.2665
X-74.0771 Y14.2636
X-74.0767 Y14.2608
X-74.0758 Y14.2582
X-74.0745 Y14.2557
X-74.0728 Y14.2536
X-74.0708 Y14.2518
X-74.0622 Y14.2441
X-74.0077 Y14.1961
X-74.0055 Y14.1944
X-74.003 Y14.1932
G3 X-73.9822 Y14.2088 I0.0054 J0.0144
G1 X-73.9902 Y14.2792
G3 X-74.0461 Y14.3298 I-0.0472 J0.004
X-74.0453 Y14.316 I0.0141 J-0.0061
G1 X-74.037 Y14.3016
X-74.0189 Y14.2703
G3 X-73.9902 Y14.2792 I0.0133 J0.0077
X-74.0398 Y14.3431 I-0.0471 J0.0146
G1 X-74.1272 Y14.1592
G3 X-74.1126 Y14.1376 I0.0141 J-0.0061
G1 X-74.1096 Y14.1377 Z-0.1297
X-74.1067 Y14.1378 Z-0.1288
X-74.1041 Y14.1379 Z-0.1274
X-74.1017 Z-0.1255
X-74.0998 Y14.138 Z-0.1232
X-74.0984 Z-0.1205
X-74.0975 Y14.1381 Z-0.1176
X-74.0972 Z-0.1146
G0 Z-0.0992
X-74.4886 Y13.3601
G1 Z-0.1146 F60.
X-74.4888 Y13.36 Z-0.1176
X-74.4895 Y13.3595 Z-0.1205
X-74.4907 Y13.3587 Z-0.1232
X-74.4923 Y13.3576 Z-0.1255
X-74.4942 Y13.3563 Z-0.1274
X-74.4964 Y13.3549 Z-0.1288
X-74.4988 Y13.3532 Z-0.1297
X-74.5013 Y13.3516 Z-0.13
G3 X-74.522 Y13.3285 I0.0347 J-0.0517
G1 X-74.5777 Y13.2113
X-74.5784 Y13.1991
X-74.5786 Y13.1868
X-74.5781 Y13.1746
X-74.577 Y13.1624
X-74.5752 Y13.1503
X-74.5729 Y13.1383
X-74.57 Y13.1264
X-74.5664 Y13.1147
X-74.5623 Y13.1032
X-74.5575 Y13.0919
X-74.5523 Y13.0808
X-74.5464 Y13.0701
X-74.54 Y13.0596
X-74.5331 Y13.0495
X-74.5257 Y13.0398
X-74.5178 Y13.0305
X-74.5094 Y13.0215
X-74.5006 Y13.013
X-74.4914 Y13.005
X-74.4818 Y12.9974
X-74.4718 Y12.9904
X-74.4614 Y12.9838
X-74.4508 Y12.9778
X-74.4398 Y12.9724
X-74.4286 Y12.9675
X-74.4171 Y12.9632
X-74.4055 Y12.9594
X-74.3936 Y12.9563
X-74.3817 Y12.9538
X-74.3696 Y12.9519
X-74.3574 Y12.9506
X-74.3452 Y12.95
X-74.3329 Y12.9499
X-74.3207 Y12.9505
X-74.3085 Y12.9517
X-74.2964 Y12.9535
X-74.2923 Y12.9474
X-74.2896 Y12.9488
X-74.2874 Y12.9508
X-74.1979 Y13.0625
G3 X-74.2125 Y13.087 I-0.0124 J0.0092
X-74.2238 Y13.0832 I0.0049 J-0.0338
X-74.2845 Y12.9623 I0.0562 J-0.1039
G2 X-74.2874 Y12.9508 I-0.0152 J-0.0022
G1 X-74.3148 Y12.9165
G2 X-74.6443 Y13.0558 I-0.108 J0.204
G1 X-74.6502 Y13.0574
X-74.6493 Y13.0605
X-74.5777 Y13.2113
G2 X-74.5647 Y13.2196 I0.0137 J-0.0071
X-74.524 Y13.1776 I0.0018 J-0.0389
X-74.6364 Y13.0688 I-0.1178 J0.0092
G3 X-74.6493 Y13.0605 I0.0007 J-0.0154
G1 X-74.6667 Y13.024
G3 X-74.4194 Y12.7942 I0.2195 J-0.0117
G1 X-74.416 Y12.791
X-74.4137 Y12.7931
X-74.3148 Y12.9165
G3 X-74.313 Y12.9318 I-0.0124 J0.0092
X-74.3762 Y12.9479 I-0.0378 J-0.0163
X-74.4119 Y12.8084 I0.0729 J-0.0929
G2 X-74.4137 Y12.7931 I-0.0141 J-0.0061
G1 X-74.4355 Y12.7658
X-74.4451 Y12.7605
X-74.4551 Y12.7556
X-74.4653 Y12.7514
X-74.4757 Y12.7476
X-74.4863 Y12.7445
X-74.4971 Y12.7419
X-74.5079 Y12.74
X-74.5189 Y12.7386
X-74.53 Y12.7378
X-74.541 Y12.7376
X-74.5521 Y12.7381
X-74.5631 Y12.7391
X-74.574 Y12.7408
X-74.5849 Y12.743
X-74.5955 Y12.7458
X-74.6061 Y12.7492
X-74.6164 Y12.7532
X-74.6265 Y12.7577
X-74.6363 Y12.7628
X-74.6458 Y12.7684
X-74.6551 Y12.7745
X-74.6639 Y12.7811
X-74.6724 Y12.7882
X-74.6805 Y12.7958
X-74.6882 Y12.8037
X-74.6954 Y12.8121
X-74.7021 Y12.8209
X-74.7084 Y12.83
X-74.7142 Y12.8394
X-74.7194 Y12.8492
X-74.7241 Y12.8592
X-74.7282 Y12.8694
X-74.7318 Y12.8799
X-74.7341 Y12.8821
X-74.6667 Y13.024
G2 X-74.6537 Y13.0323 I0.0137 J-0.0071
X-74.6115 Y12.9816 I0.0019 J-0.0413
X-74.7211 Y12.8904 I-0.115 J0.0268
G3 X-74.7341 Y12.8821 I0.0007 J-0.0154
G1 X-74.7504 Y12.8479
X-74.7509 Y12.8373
X-74.7508 Y12.8266
X-74.7501 Y12.816
X-74.7489 Y12.8054
X-74.747 Y12.7949
X-74.7446 Y12.7845
X-74.7416 Y12.7743
X-74.738 Y12.7643
X-74.7339 Y12.7544
X-74.7292 Y12.7449
X-74.724 Y12.7356
X-74.7183 Y12.7266
X-74.7121 Y12.7179
X-74.7054 Y12.7096
X-74.6983 Y12.7017
X-74.6907 Y12.6942
X-74.6828 Y12.6871
X-74.6744 Y12.6805
X-74.6657 Y12.6743
X-74.6567 Y12.6687
X-74.6474 Y12.6635
X-74.6378 Y12.6589
X-74.6279 Y12.6548
X-74.6179 Y12.6513
X-74.6076 Y12.6484
X-74.5972 Y12.646
X-74.5867 Y12.6442
X-74.5761 Y12.643
X-74.5655 Y12.6424
X-74.5549
X-74.5442 Y12.6429
X-74.5336 Y12.6441
X-74.4355 Y12.7658
G3 X-74.4337 Y12.7811 I-0.0123 J0.0092
X-74.4978 Y12.7969 I-0.038 J-0.0163
X-74.5317 Y12.6587 I0.0746 J-0.0916
G2 X-74.5335 Y12.6434 I-0.0141 J-0.0061
G1 X-74.5581 Y12.6126
G2 X-74.8156 Y12.7106 I-0.086 J0.1612
G1 X-74.7504 Y12.8479
G2 X-74.7374 Y12.8562 I0.0137 J-0.0071
X-74.6953 Y12.8017 I0.0019 J-0.042
X-74.8026 Y12.7189 I-0.1127 J0.0353
G3 X-74.8156 Y12.7106 I0.0007 J-0.0154
G1 X-74.8309 Y12.6785
X-74.8317 Y12.6684
X-74.8319 Y12.6583
X-74.8314 Y12.6482
X-74.8304 Y12.6381
X-74.8287 Y12.6281
X-74.8264 Y12.6182
X-74.8234 Y12.6085
X-74.8199 Y12.599
X-74.8158 Y12.5897
X-74.8112 Y12.5807
X-74.806 Y12.572
X-74.8002 Y12.5637
X-74.794 Y12.5557
X-74.7873 Y12.5481
X-74.7801 Y12.5409
X-74.7725 Y12.5342
X-74.7645 Y12.528
X-74.7561 Y12.5223
X-74.7474 Y12.5172
X-74.7384 Y12.5125
X-74.7291 Y12.5085
X-74.7196 Y12.505
X-74.7098 Y12.5021
X-74.7 Y12.4999
X-74.69 Y12.4982
X-74.6799 Y12.4972
X-74.6698 Y12.4968
X-74.6596 Y12.497
X-74.6495 Y12.4979
X-74.5581 Y12.6126
G3 X-74.5563 Y12.6279 I-0.0124 J0.0092
X-74.6268 Y12.6397 I-0.039 J-0.0168
X-74.6478 Y12.5137 I0.0875 J-0.0794
G2 X-74.6496 Y12.4984 I-0.0141 J-0.0061
G1 X-74.6705 Y12.4722
G2 X-74.8935 Y12.5466 I-0.0811 J0.1282
G1 X-74.8309 Y12.6785
G2 X-74.8179 Y12.6868 I0.0137 J-0.0071
X-74.7766 Y12.6284 I0.002 J-0.0424
X-74.8806 Y12.5549 I-0.1094 J0.0445
G3 X-74.8935 Y12.5466 I0.0007 J-0.0154
G1 X-74.9071 Y12.5181
G3 X-74.8309 Y12.3788 I0.1129 J-0.0288
X-74.7478 Y12.3758 I0.0733 J0.8727
G1 X-74.7469 Y12.3769
X-74.6705 Y12.4722
G3 X-74.6798 Y12.4965 I-0.0124 J0.0092
G1 X-74.8795 Y12.5246
X-74.8913 Y12.5262
G3 X-74.9071 Y12.5181 I-0.0021 J-0.0153
G1 X-74.9398 Y12.4493
X-74.9426 Y12.443
X-74.9448 Y12.4364
X-74.9464 Y12.4296
X-74.9474 Y12.4227
X-74.9478 Y12.4157
X-74.9475 Y12.4088
X-74.9466 Y12.4019
X-74.9452 Y12.3951
X-74.9431 Y12.3884
X-74.9404 Y12.382
X-74.9372 Y12.3758
X-74.9334 Y12.37
X-74.9291 Y12.3645
X-74.9243 Y12.3594
X-74.9215 Y12.3604
X-74.919 Y12.3618
X-74.9168 Y12.3636
X-74.9149 Y12.3657
X-74.9135 Y12.3681
X-74.9125 Y12.3707
X-74.9119 Y12.3733
Y12.376
X-74.9117 Y12.3885
X-74.9107 Y12.442
G3 X-74.9398 Y12.4493 I-0.0154 J0.0003
G1 X-74.9738 Y12.3778
X-74.9761 Y12.3723
X-74.9773 Y12.3661
X-74.9777 Y12.3592
X-74.9775 Y12.3565
X-74.976 Y12.3518
X-74.9724 Y12.3484
X-74.9677 Y12.3469
X-74.9629 Y12.3479
G3 X-74.9468 Y12.3627 I-0.0176 J0.0352
X-74.9446 Y12.3707 I-0.0132 J0.008
X-74.9738 Y12.3778 I-0.0155 J0.
G1 X-74.9872 Y12.3496
X-74.9895 Y12.344
X-74.9882 Y12.3401
X-74.9847 Y12.338
X-74.9806 Y12.3387
G3 X-74.9771 Y12.3412 I-0.0207 J0.0335
X-74.9854 Y12.3517 I-0.0041 J0.0053
X-74.9872 Y12.3496 I0.0041 J-0.0053
G1 X-74.9921 Y12.3393
X-74.9926 Y12.3383
X-74.9933 Y12.3367
X-74.9945 Y12.3339
X-74.9939 Y12.3328
X-74.9928 Y12.3322
X-74.9916 Y12.3325
X-74.9898 Y12.3336
X-74.9912 Y12.338
X-74.9933 Y12.3367
X-74.9957 Y12.3318
X-74.996 Y12.3311
X-74.9962 Y12.3307
X-74.9955 Y12.3303
X-74.9953 Y12.3304
X-74.9962 Y12.3307
G2 X-74.831 Y12.3788 I0.1882 J-0.3387
G3 X-74.8192 Y12.3878 I-0.0023 J0.0152
G1 X-74.8187 Y12.3899 Z-0.1298
X-74.8183 Y12.392 Z-0.1294
X-74.8179 Y12.394 Z-0.1286
X-74.8184 Y12.396 Z-0.1275
X-74.8188 Y12.3978 Z-0.1261
X-74.8191 Y12.3994 Z-0.1244
X-74.8194 Y12.4007 Z-0.1225
X-74.82 Y12.4017 Z-0.12
X-74.8204 Y12.4023 Z-0.1173
X-74.8205 Y12.4025 Z-0.1146
G0 Z0.4
X-74.462 Y8.9625
Z0.1
G3 X-74.5645 Y8.9355 Z0.0791 I-0.0384 J-0.0622 F13.333
X-74.5324 Y8.8345 Z0.0582 I0.0641 J-0.0352
X-74.4331 Y8.8717 Z0.0373 I0.032 J0.0658
X-74.4752 Y8.969 Z0.0164 I-0.0673 J0.0286
X-74.5256 Y8.8316 Z-0.0242 I-0.0252 J-0.0687
X-74.4752 Y8.969 Z-0.0647 I0.0252 J0.0687
X-74.5256 Y8.8316 Z-0.1052 I-0.0252 J-0.0687
X-74.4272 Y8.9003 Z-0.13 I0.0252 J0.0687
X-74.5736 I-0.0732 J0.
X-74.4275 Y8.8944 I0.0732 J0.
G1 X-74.4272 Y8.9003
G3 X-74.5831 Y9.0239 I-0.0819 J0.0568 F60.
G1 X-74.5912 Y9.0186
X-74.599 Y9.0127
X-74.6063 Y9.0064
X-74.6133 Y8.9996
X-74.6199 Y8.9923
X-74.6259 Y8.9847
X-74.6315 Y8.9767
X-74.6365 Y8.9684
X-74.6411 Y8.9598
X-74.645 Y8.9509
X-74.6484 Y8.9418
X-74.6513 Y8.9324
X-74.6535 Y8.923
X-74.6551 Y8.9134
X-74.6561 Y8.9037
X-74.6565 Y8.894
X-74.6563 Y8.8842
X-74.6555 Y8.8745
X-74.6541 Y8.8649
X-74.6521 Y8.8554
X-74.6494 Y8.846
X-74.6462 Y8.8368
X-74.6424 Y8.8278
X-74.6381 Y8.8191
X-74.6332 Y8.8107
X-74.6278 Y8.8026
X-74.6219 Y8.7948
X-74.6155 Y8.7875
X-74.6087 Y8.7805
X-74.6014 Y8.7741
X-74.5938 Y8.768
X-74.5858 Y8.7625
X-74.5774 Y8.7575
X-74.5688 Y8.753
X-74.5599 Y8.7491
X-74.5508 Y8.7457
X-74.5414 Y8.7429
X-74.5319 Y8.7407
X-74.5223 Y8.7392
X-74.5127 Y8.7382
X-74.5029 Y8.7378
X-74.4932 Y8.7381
X-74.4835 Y8.7389
X-74.4739 Y8.7404
X-74.4644 Y8.7425
X-74.455 Y8.7452
X-74.4458 Y8.7484
X-74.4369 Y8.7522
X-74.4282 Y8.7566
X-74.4198 Y8.7615
X-74.4117 Y8.767
X-74.404 Y8.7729
X-74.3967 Y8.7793
X-74.3898 Y8.7862
X-74.3833 Y8.7935
X-74.3773 Y8.8011
X-74.3718 Y8.8092
X-74.3669 Y8.8175
X-74.3624 Y8.8262
X-74.3585 Y8.8351
X-74.3552 Y8.8443
X-74.3525 Y8.8536
G3 X-74.3505 Y9.0598 I-0.1224 J0.1043
G2 X-74.4885 Y9.1118 I0.0552 J0.3554
G3 X-74.6803 Y9.0688 I-0.0678 J-0.1467
G1 X-74.7018 Y8.8272
G3 X-74.4477 Y8.6561 I0.1955 J0.0161
G1 X-74.2605 Y8.8899
G3 X-74.2525 Y9.0551 I-0.1047 J0.0879
X-74.2651 Y9.0424 I0.0026 J-0.0152
G1 X-74.2669 Y9.0308
X-74.2874 Y8.9024
X-74.2875 Y8.8994
X-74.2871 Y8.8964
X-74.2862 Y8.8936
G3 X-74.2605 Y8.8899 I0.014 J0.0063
G1 X-74.1884 Y8.9799
G3 X-74.1691 Y9.0554 I-0.0567 J0.0548
X-74.1957 Y9.0508 I-0.012 J-0.0096
G1 X-74.2147 Y8.9949
G3 X-74.1884 Y8.9799 I0.0146 J-0.005
G1 X-74.1496 Y9.0285
X-74.151 Y9.034
X-74.1531 Y9.0394
X-74.1556 Y9.0445
X-74.1587 Y9.0493
X-74.1623 Y9.0538
X-74.1663 Y9.0579
X-74.1707 Y9.0615
X-74.1754 Y9.0647
X-74.1805 Y9.0674
X-74.1858 Y9.0696
X-74.1913 Y9.0711
X-74.1969 Y9.0722
X-74.2027 Y9.0726
X-74.2084 Y9.0724
X-74.2141 Y9.0716
X-74.2196 Y9.0703
X-74.225 Y9.0684
X-74.2302 Y9.066
X-74.2351 Y9.063
X-74.2397 Y9.0595
X-74.2438 Y9.0556
G2 X-74.3516 Y9.0585 I-0.0415 J0.4682
G1 X-74.3546 Y9.0588
X-74.3576 Y9.0585
X-74.3605 Y9.0576
X-74.3631 Y9.0562
X-74.3654 Y9.0542
X-74.3673 Y9.0519
X-74.3687 Y9.0491
X-74.3695 Y9.0462
X-74.3698 Y9.0431
X-74.3694 Y9.0401
G3 X-74.3672 Y9.0352 I0.0149 J0.0038
G1 X-74.3613 Y9.0371
X-74.3672 Y9.0387
G3 X-74.4472 Y8.6862 I0.4678 J-0.2914
G1 X-74.4448 Y8.6675
G2 X-74.4477 Y8.6561 I-0.0152 J-0.0022
G1 X-74.479 Y8.6169
G2 X-74.7184 Y8.6475 I-0.1049 J0.1308
G1 X-74.7018 Y8.8272
G2 X-74.6925 Y8.8394 I0.0153 J-0.002
X-74.6509 Y8.8248 I0.0127 J-0.0302
X-74.709 Y8.6597 I-0.1039 J-0.0562
G3 X-74.7184 Y8.6475 I0.006 J-0.0142
G1 X-74.7219 Y8.6091
X-74.7207 Y8.6002
X-74.7189 Y8.5914
X-74.7164 Y8.5828
X-74.7134 Y8.5743
X-74.7099 Y8.5661
X-74.7057 Y8.5581
X-74.7011 Y8.5505
X-74.6959 Y8.5431
X-74.6902 Y8.5362
X-74.6841 Y8.5296
X-74.6775 Y8.5235
X-74.6705 Y8.5178
X-74.6632 Y8.5127
X-74.6555 Y8.508
X-74.6475 Y8.5039
X-74.6393 Y8.5004
X-74.6308 Y8.4974
X-74.6222 Y8.495
X-74.6134 Y8.4932
X-74.6045 Y8.492
X-74.5956 Y8.4914
X-74.5866
X-74.5776 Y8.492
X-74.479 Y8.6169
G3 X-74.4772 Y8.6322 I-0.0124 J0.0092
X-74.5405 Y8.6483 I-0.0378 J-0.0163
X-74.576 Y8.5088 I0.073 J-0.0928
G2 X-74.5778 Y8.4935 I-0.0141 J-0.0061
G1 X-74.5963 Y8.4704
G2 X-74.736 Y8.4715 I-0.0693 J0.0704
G1 X-74.7219 Y8.6091
G2 X-74.6944 Y8.6166 I0.0153 J-0.0019
X-74.6834 Y8.5891 I-0.0428 J-0.0331
X-74.7286 Y8.4833 I-0.1175 J-0.0124
G3 X-74.7345 Y8.4731 I0.0094 J-0.0122
G1 X-74.737 Y8.4452
G3 X-74.67 Y8.3758 I0.0714 J0.0019
G1 X-74.6682 Y8.3782
X-74.667 Y8.3808
X-74.6662 Y8.3836
X-74.6659 Y8.3865
X-74.6662 Y8.3893
X-74.6669 Y8.392
X-74.6681 Y8.3945
X-74.6696 Y8.3967
X-74.6763 Y8.4061
X-74.7092 Y8.4522
X-74.7112 Y8.4544
X-74.7135 Y8.4562
G3 X-74.737 Y8.4452 I-0.0082 J-0.013
G1 X-74.7429 Y8.3818
G3 X-74.7072 Y8.3319 I0.0316 J-0.0151
X-74.7254 Y8.3925 I-0.0316 J0.0235
X-74.7429 Y8.3818 I-0.0045 J-0.0124
G1 X-74.7479 Y8.3278
X-74.7481 Y8.3218
X-74.7475 Y8.3158
X-74.7458 Y8.31
X-74.745 Y8.3083
X-74.7416 Y8.3044
X-74.7368 Y8.3025
X-74.7317 Y8.3033
X-74.7276 Y8.3064
G3 X-74.7203 Y8.3239 I-0.0316 J0.0235
X-74.7321 Y8.3398 I-0.0138 J0.0021
X-74.7479 Y8.3278 I-0.0019 J-0.0138
G1 X-74.7505 Y8.2994
X-74.7507 Y8.2934
X-74.7489 Y8.2905
X-74.7458 Y8.2891
X-74.7424 Y8.2894
X-74.7396 Y8.2914
X-74.7375 Y8.2942
G3 X-74.7491 Y8.3027 I-0.0058 J0.0043
X-74.7505 Y8.2994 I0.0058 J-0.0043
G1 X-74.7517 Y8.2864
X-74.7518 Y8.2851
X-74.752 Y8.2835
Y8.282
X-74.7508 Y8.2807
X-74.7491 Y8.2805
X-74.7476 Y8.2814
X-74.7472 Y8.2821
X-74.7495 Y8.2857
X-74.752 Y8.2835
X-74.7524 Y8.279
Y8.2782
X-74.7525 Y8.2773
Y8.2769
Y8.2765
X-74.7524 Y8.2761
X-74.7521 Y8.2758
X-74.7513 Y8.2768
X-74.7516 Y8.2778
X-74.7525 Y8.2773
X-74.7526 Y8.2763
X-74.7521 Y8.2758
X-74.5963 Y8.4704
G3 X-74.5935 Y8.4769 I-0.0124 J0.0092
G1 X-74.5893 Y8.5003
X-74.4843 Y9.0834
X-74.482 Y9.0963
G3 X-74.4885 Y9.1118 I-0.0152 J0.0027
G2 X-74.5518 Y9.1645 I0.4625 J0.6201
G3 X-74.6712 Y9.1755 I-0.0675 J-0.08
G1 X-74.6795 Y9.0682
G3 X-74.6726 Y9.0545 I0.0154 J-0.0009
X-74.6315 Y9.0688 I0.0151 J0.0229
X-74.6629 Y9.1594 I-0.0747 J0.0248
G2 X-74.6698 Y9.1731 I0.0085 J0.0129
G1 X-74.6676 Y9.1976
G2 X-74.6082 Y9.2436 I0.0501 J-0.0032
G3 X-74.5518 Y9.1645 I0.5222 J0.3124
G2 X-74.57 Y9.1404 I-0.0116 J-0.0102
G1 X-74.6474 Y9.1773
X-74.6588 Y9.1828
G2 X-74.6676 Y9.1976 I0.0066 J0.0139
G1 X-74.6622 Y9.2563
G2 X-74.6268 Y9.2867 I0.0224 J0.0098
G1 X-74.6107 Y9.2492
X-74.6082 Y9.2436
G2 X-74.6103 Y9.2284 I-0.0143 J-0.0058
X-74.6347 Y9.2316 I-0.0112 J0.0087
X-74.6291 Y9.2715 I0.0363 J0.0153
G3 X-74.6268 Y9.2867 I-0.012 J0.0096
G1 X-74.6309 Y9.2961
X-74.6322 Y9.2996
X-74.6347 Y9.3051
X-74.639 Y9.3093
X-74.6421 Y9.3112
X-74.6471 Y9.3127
X-74.6522 Y9.3116
X-74.6561 Y9.3082
X-74.6578 Y9.3033
G3 X-74.657 Y9.2927 I0.0393 J-0.0022
X-74.6409 Y9.283 I0.0126 J0.0028
X-74.6322 Y9.2996 I-0.0035 J0.0124
G1 X-74.6354 Y9.3078
X-74.6383 Y9.3195
X-74.6397 Y9.3254
X-74.6431 Y9.3281
X-74.6474 Y9.329
X-74.6516 Y9.3278
X-74.6548 Y9.3248
X-74.6562 Y9.3206
X-74.6563 Y9.3195
Y9.3183
G3 X-74.6466 Y9.3092 I0.0091 J0.
X-74.6383 Y9.3195 I-0.0006 J0.009
G1 X-74.6406 Y9.333
X-74.6419 Y9.3388
X-74.6454 Y9.3413
X-74.6497 Y9.3414
X-74.6532 Y9.3391
X-74.6549 Y9.3351
Y9.3318
G3 X-74.6405 Y9.332 I0.0072 J0.0002
G1 X-74.6428 Y9.3457
X-74.6442 Y9.3515
X-74.6468 Y9.3531
X-74.6499 Y9.353
X-74.6525 Y9.3512
X-74.6537 Y9.3483
G3 Y9.3447 I0.0393 J-0.0022
X-74.6428 Y9.3449 I0.0055 J0.0002
G1 X-74.6446 Y9.3556
X-74.6452 Y9.3586
X-74.648 Y9.3605
X-74.6513 Y9.3597
X-74.6529 Y9.3568
Y9.3551
X-74.6459 Y9.3519
X-74.6446 Y9.3556
X-74.6458 Y9.3624
X-74.6464 Y9.3653
X-74.6486 Y9.3666
X-74.651 Y9.366
X-74.6522 Y9.3638
X-74.6523 Y9.362
Y9.3619
X-74.6488 Y9.3586
X-74.6458 Y9.3624
X-74.6469 Y9.3692
X-74.6473 Y9.3707
X-74.6489 Y9.3717
X-74.6508 Y9.3711
X-74.6517 Y9.3694
Y9.369
X-74.6514 Y9.3677
X-74.6505 Y9.3668
X-74.6492 Y9.3665
X-74.648 Y9.3669
X-74.6471 Y9.3679
X-74.6469 Y9.3692
X-74.6478 Y9.3741
X-74.6481 Y9.3755
X-74.6493 Y9.3761
X-74.6506 Y9.3756
X-74.6512 Y9.3744
X-74.6513 Y9.3739
X-74.6511 Y9.373
X-74.6504 Y9.3723
X-74.6494 Y9.3721
X-74.6485 Y9.3724
X-74.6479 Y9.3731
X-74.6478 Y9.3741
X-74.6485 Y9.3783
X-74.6489 Y9.3798
X-74.6497 Y9.3801
X-74.6505 Y9.3797
X-74.6508 Y9.379
X-74.6509 Y9.3782
X-74.6505 Y9.3773
X-74.6496 Y9.377
X-74.6488 Y9.3774
X-74.6485 Y9.3783
X-74.649 Y9.3811
X-74.6493 Y9.3824
X-74.6498 Y9.3826
X-74.6503 Y9.3824
X-74.6506 Y9.3819
Y9.381
X-74.6504 Y9.3804
X-74.6498 Y9.3802
X-74.6492 Y9.3805
X-74.649 Y9.3811
X-74.6492 Y9.3824
X-74.6494 Y9.3841
X-74.6496 Y9.3853
X-74.6498 Y9.3869
X-74.65 Y9.388
G0 Z0.4
X-74.6525 Y9.3407
Z-0.0992
G1 Z-0.1146 F60.
Y9.341 Z-0.1176
X-74.6524 Y9.3419 Z-0.1205
X-74.6522 Y9.3433 Z-0.1232
X-74.6519 Y9.3452 Z-0.1255
X-74.6516 Y9.3475 Z-0.1274
X-74.6513 Y9.3501 Z-0.1288
X-74.6509 Y9.353 Z-0.1297
X-74.6505 Y9.356 Z-0.13
G3 X-74.6498 Y9.3869 I-0.1423 J0.0188
G1 X-74.6499 Y9.3881
X-74.65 Y9.3877
X-74.6501 Y9.3873
X-74.6503 Y9.3848
Y9.3843
X-74.6482 Y9.3737
G2 X-74.6488 Y9.3655 I-0.0151 J-0.003
G3 X-74.6542 Y9.343 I0.1014 J-0.0362
G1 X-74.6622 Y9.2563
G3 X-74.6557 Y9.2429 I0.0154 J-0.0009
G1 X-74.6535 Y9.242 Z-0.1298
X-74.6514 Y9.2411 Z-0.1293
X-74.6494 Y9.2402 Z-0.1284
X-74.648 Y9.2401 Z-0.1276
X-74.6468 Y9.24 Z-0.1267
X-74.6448 Y9.2404 Z-0.1248
X-74.6432 Y9.2407 Z-0.1225
X-74.642 Y9.2409 Z-0.12
X-74.6413 Y9.2411 Z-0.1174
X-74.6411 Z-0.1146
G0 Z0.4
X-73.8397 Y8.5263
Z0.1
G3 X-73.9422 Y8.4993 Z0.0791 I-0.0384 J-0.0622 F13.333
X-73.9101 Y8.3982 Z0.0582 I0.0641 J-0.0352
X-73.8108 Y8.4354 Z0.0373 I0.032 J0.0658
X-73.8529 Y8.5327 Z0.0164 I-0.0673 J0.0286
X-73.9033 Y8.3954 Z-0.0242 I-0.0252 J-0.0687
X-73.8529 Y8.5327 Z-0.0647 I0.0252 J0.0687
X-73.9033 Y8.3954 Z-0.1052 I-0.0252 J-0.0687
X-73.8049 Y8.464 Z-0.13 I0.0252 J0.0687
X-73.9512 I-0.0731 J0.
X-73.8052 Y8.4581 I0.0731 J0.
G1 X-73.8049 Y8.464
G3 X-73.9607 Y8.5877 I-0.0819 J0.0568 F60.
G1 X-73.9689 Y8.5823
X-73.9766 Y8.5764
X-73.984 Y8.5701
X-73.991 Y8.5633
X-73.9975 Y8.5561
X-74.0036 Y8.5484
X-74.0092 Y8.5404
X-74.0142 Y8.5321
X-74.0187 Y8.5235
X-74.0227 Y8.5146
X-74.0261 Y8.5055
X-74.0289 Y8.4962
X-74.0312 Y8.4867
X-74.0328 Y8.4771
X-74.0338 Y8.4674
X-74.0342 Y8.4577
X-74.034 Y8.4479
X-74.0332 Y8.4382
X-74.0318 Y8.4286
X-74.0297 Y8.4191
X-74.0271 Y8.4097
X-74.0239 Y8.4005
X-74.0201 Y8.3915
X-74.0158 Y8.3828
X-74.0109 Y8.3744
X-74.0055 Y8.3663
X-73.9996 Y8.3586
X-73.9932 Y8.3512
X-73.9864 Y8.3443
X-73.9791 Y8.3378
X-73.9715 Y8.3318
X-73.9635 Y8.3262
X-73.9551 Y8.3212
X-73.9465 Y8.3167
X-73.9376 Y8.3128
X-73.9284 Y8.3094
X-73.9191 Y8.3067
X-73.9096 Y8.3045
X-73.9 Y8.3029
X-73.8903 Y8.3019
X-73.8806 Y8.3016
X-73.8709 Y8.3018
X-73.8612 Y8.3027
X-73.8516 Y8.3041
X-73.842 Y8.3062
X-73.8327 Y8.3089
X-73.8235 Y8.3121
X-73.8146 Y8.316
X-73.8059 Y8.3203
X-73.7975 Y8.3253
X-73.7894 Y8.3307
X-73.7817 Y8.3366
X-73.7744 Y8.343
X-73.7675 Y8.3499
X-73.761 Y8.3572
X-73.755 Y8.3649
X-73.7495 Y8.3729
X-73.7445 Y8.3812
X-73.7401 Y8.3899
X-73.7362 Y8.3988
X-73.7329 Y8.408
X-73.7302 Y8.4173
X-73.7242 Y8.4262
X-73.7188 Y8.4354
X-73.714 Y8.445
X-73.7096 Y8.4547
X-73.7059 Y8.4648
X-73.7028 Y8.475
X-73.7002 Y8.4854
X-73.6983 Y8.4959
X-73.697 Y8.5065
X-73.6963 Y8.5172
X-73.6962 Y8.5279
X-73.6967 Y8.5385
X-73.6979 Y8.5492
X-73.6997 Y8.5597
X-73.7021 Y8.5701
X-73.705 Y8.5804
X-73.7086 Y8.5905
X-73.7128 Y8.6003
X-73.7175 Y8.6099
X-73.7227 Y8.6192
X-73.7285 Y8.6282
X-73.7348 Y8.6368
X-73.7416 Y8.6451
X-73.7489 Y8.6529
X-73.7566 Y8.6603
X-73.7647 Y8.6673
X-73.7733 Y8.6737
X-73.7821 Y8.6797
X-73.7913 Y8.6851
X-73.8008 Y8.69
X-73.8106 Y8.6943
X-73.8206 Y8.6981
X-73.8308 Y8.7013
X-73.8412 Y8.7038
X-73.8517 Y8.7058
X-73.8623 Y8.7072
X-73.873 Y8.7079
X-73.8837 Y8.708
X-73.8943 Y8.7075
X-73.905 Y8.7064
X-73.9155 Y8.7046
X-73.9259 Y8.7023
X-73.9362 Y8.6994
X-74.0889 Y8.5097
X-74.0937 Y8.4998
X-74.098 Y8.4897
X-74.1018 Y8.4794
X-74.1049 Y8.4689
X-74.1075 Y8.4582
X-74.1094 Y8.4474
X-74.1108 Y8.4365
X-74.1115 Y8.4255
X-74.1117 Y8.4146
X-74.1112 Y8.4036
X-74.1101 Y8.3927
X-74.1084 Y8.3818
X-74.1061 Y8.3711
X-74.1032 Y8.3605
X-74.0997 Y8.3501
X-74.0957 Y8.3399
X-74.0911 Y8.3299
X-74.0859 Y8.3202
X-74.0802 Y8.3108
X-74.074 Y8.3018
X-74.0673 Y8.2931
X-74.0601 Y8.2848
X-74.0524 Y8.2769
X-74.0444 Y8.2694
X-74.0359 Y8.2624
X-74.0271 Y8.2559
X-74.0179 Y8.2499
X-74.0084 Y8.2444
X-73.9986 Y8.2395
X-73.9885 Y8.2351
X-73.9782 Y8.2312
X-73.9677 Y8.228
X-73.9571 Y8.2253
X-73.9463 Y8.2233
X-73.9354 Y8.2218
G2 X-73.7285 Y8.3095 I0.412 J-0.6844
G3 X-73.6859 Y8.3366 I0.0025 J0.043
X-73.7068 Y8.3506 I-0.0154 J-0.0004
G1 X-73.7082 Y8.35
X-73.7375 Y8.3389
G3 X-73.7285 Y8.3095 I0.0055 J-0.0144
G1 X-73.6872 Y8.321
X-73.6866 Y8.3213
X-73.686 Y8.3217
X-73.6836 Y8.6525
G3 X-73.7447 Y8.7519 I-0.1373 J-0.0159
X-73.7638 Y8.737 I-0.0037 J-0.0149
G1 X-73.7635 Y8.734
G3 X-73.7617 Y8.7291 I0.0151 J0.003
X-73.7061 Y8.6395 I0.1434 J0.0269
X-73.6836 Y8.6525 I0.0071 J0.0137
G1 X-73.683 Y8.7339
G2 X-73.8206 Y8.7803 I0.1303 J0.6136
G1 X-73.8232 Y8.7837
X-73.8263 Y8.7867
X-73.8297 Y8.7893
X-73.8334 Y8.7914
X-73.8374 Y8.793
X-73.8416 Y8.794
X-73.8459 Y8.7944
X-73.8502 Y8.7943
X-73.8544 Y8.7936
X-73.8585 Y8.7923
X-73.8624 Y8.7904
X-73.8659 Y8.7881
X-73.8675 Y8.7855
X-73.8685 Y8.7827
X-73.869 Y8.7797
X-73.8688 Y8.7767
X-73.8681 Y8.7738
X-73.8668 Y8.7711
X-73.865 Y8.7686
X-73.8628 Y8.7666
X-73.8602 Y8.765
X-73.8569 Y8.7634
X-73.8338 Y8.7525
G3 X-73.8132 Y8.7598 I0.0066 J0.0139
X-73.8206 Y8.7803 I-0.0139 J0.0066
G1 X-73.8583 Y8.7964
X-73.8592 Y8.7966
X-73.9364 Y8.7001
G3 X-73.9398 Y8.6906 I0.012 J-0.0096
G2 X-73.943 Y8.6813 I-0.0154 J0.0001
G1 X-73.9495 Y8.6728
X-74.0567 Y8.5325
X-74.0586 Y8.5304
X-74.0609 Y8.5287
X-74.0635 Y8.5274
G3 X-74.0889 Y8.5097 I0.0219 J-0.0583
G1 X-74.1589 Y8.4222
G3 X-74.0273 Y8.1579 I0.1878 J-0.0714
G2 X-73.9354 Y8.2213 I0.2914 J-0.3241
G3 X-73.9285 Y8.2351 I-0.0084 J0.0129
X-73.968 Y8.2627 I-0.0306 J-0.0016
X-74.0223 Y8.1725 I0.023 J-0.0753
G2 X-74.0273 Y8.1579 I-0.0151 J-0.0029
G1 X-74.0495 Y8.14
G2 X-74.2597 Y8.2956 I-0.0454 J0.1584
G1 X-74.1589 Y8.4222
G2 X-74.1444 Y8.4273 I0.0117 J-0.01
X-74.1115 Y8.3877 I-0.0074 J-0.0396
X-74.1144 Y8.3727 I-0.0403 J0.
X-74.2457 Y8.3006 I-0.1096 J0.0441
G3 X-74.2603 Y8.2955 I-0.0028 J-0.0151
G1 X-74.2851 Y8.2645
X-74.2882 Y8.255
X-74.2907 Y8.2453
X-74.2926 Y8.2354
X-74.2939 Y8.2255
X-74.2946 Y8.2155
X-74.2947 Y8.2054
X-74.2942 Y8.1954
X-74.293 Y8.1854
X-74.2912 Y8.1756
X-74.2889 Y8.1658
X-74.2859 Y8.1562
X-74.2824 Y8.1468
X-74.2783 Y8.1377
X-74.2736 Y8.1288
X-74.2684 Y8.1202
X-74.2627 Y8.112
X-74.2564 Y8.1041
X-74.2498 Y8.0966
X-74.2426 Y8.0896
X-74.2351 Y8.0829
X-74.2271 Y8.0768
X-74.2188 Y8.0712
X-74.2102 Y8.0661
X-74.2013 Y8.0615
X-74.1921 Y8.0575
X-74.1826 Y8.0541
X-74.173 Y8.0512
X-74.1632 Y8.0489
X-74.1533 Y8.0473
X-74.1434 Y8.0462
X-74.0803 Y8.1143
X-74.0694 Y8.1239
X-74.0495 Y8.14
G3 X-74.0444 Y8.1546 I-0.0101 J0.0116
X-74.0568 Y8.166 I-0.0139 J-0.0027
X-74.1403 Y8.0626 I-0.0089 J-0.0782
G2 X-74.1433 Y8.0475 I-0.0146 J-0.0049
G1 X-74.1506 Y8.0397
X-74.1587 Y8.0301
X-74.1672 Y8.0257
X-74.1759 Y8.0219
X-74.1849 Y8.0187
X-74.1941 Y8.016
X-74.2035 Y8.014
X-74.2129 Y8.0126
X-74.2224 Y8.0118
X-74.232 Y8.0116
X-74.2415 Y8.0121
X-74.251 Y8.0132
X-74.2604 Y8.0149
X-74.2697 Y8.0172
X-74.2788 Y8.0201
X-74.2877 Y8.0236
X-74.2964 Y8.0276
X-74.3047 Y8.0322
X-74.3128 Y8.0374
X-74.3205 Y8.0431
X-74.3278 Y8.0492
X-74.3347 Y8.0558
X-74.3411 Y8.0629
X-74.3471 Y8.0704
X-74.3526 Y8.0782
X-74.3575 Y8.0864
X-74.3619 Y8.0949
X-74.3658 Y8.1036
X-74.369 Y8.1126
X-74.3717 Y8.1218
X-74.3738 Y8.1311
X-74.3752 Y8.1405
X-74.376 Y8.1501
X-74.2851 Y8.2645
G2 X-74.2706 Y8.2696 I0.0117 J-0.01
X-74.2436 Y8.2037 I-0.0078 J-0.0417
X-74.3622 Y8.1551 I-0.0969 J0.0676
G3 X-74.3767 Y8.15 I-0.0028 J-0.0151
G1 X-74.3977 Y8.1239
X-74.4005 Y8.1145
X-74.4027 Y8.105
X-74.4043 Y8.0954
X-74.4053 Y8.0857
X-74.4057 Y8.076
X-74.4055 Y8.0662
X-74.4047 Y8.0565
X-74.4032 Y8.0468
X-74.4012 Y8.0373
X-74.3985 Y8.0279
X-74.3953 Y8.0187
X-74.3914 Y8.0097
X-74.3871 Y8.001
X-74.3822 Y7.9926
X-74.3767 Y7.9845
X-74.3708 Y7.9767
X-74.3644 Y7.9694
X-74.3575 Y7.9625
X-74.3502 Y7.956
X-74.3425 Y7.95
X-74.3345 Y7.9445
X-74.3261 Y7.9395
X-74.3174 Y7.935
X-74.3085 Y7.9311
X-74.2993 Y7.9278
X-74.29 Y7.925
X-74.2805 Y7.9229
X-74.2708 Y7.9213
X-74.2611 Y7.9204
X-74.2514 Y7.9201
X-74.2416 Y7.9204
X-74.2319 Y7.9213
G2 X-74.1587 Y8.0301 I0.4037 J-0.1928
G3 X-74.1577 Y8.0454 I-0.0128 J0.0085
X-74.1854 Y8.0586 I-0.0222 J-0.011
X-74.2331 Y7.9378 I0.0175 J-0.0768
G2 X-74.232 Y7.9224 I-0.0128 J-0.0086
G1 X-74.2445 Y7.899
G2 X-74.4868 Y8.0117 I-0.0887 J0.1263
G1 X-74.3977 Y8.1239
G2 X-74.376 Y8.1255 I0.0117 J-0.01
X-74.3706 Y8.1093 I-0.0108 J-0.0126
X-74.477 Y8.017 I-0.1153 J0.0254
G3 X-74.4875 Y8.0116 I0.0012 J-0.0154
G1 X-74.5068 Y7.9876
G3 X-74.2968 Y7.7819 I0.1607 J-0.046
G2 X-74.2445 Y7.899 I0.4747 J-0.1419
G3 X-74.2456 Y7.9143 I-0.0139 J0.0067
X-74.2716 Y7.9221 I-0.0178 J-0.012
X-74.2999 Y7.7968 I0.0302 J-0.0727
G2 X-74.2967 Y7.7817 I-0.0114 J-0.0103
G1 X-74.3049 Y7.7593
X-74.3121 Y7.7524
X-74.3197 Y7.746
X-74.3276 Y7.74
X-74.336 Y7.7346
X-74.3447 Y7.7297
X-74.3536 Y7.7253
X-74.3628 Y7.7215
X-74.3722 Y7.7183
X-74.3819 Y7.7157
X-74.3916 Y7.7137
X-74.4015 Y7.7123
X-74.4114 Y7.7115
X-74.4214 Y7.7113
X-74.4313 Y7.7118
X-74.4412 Y7.7129
X-74.451 Y7.7146
X-74.4607 Y7.7169
X-74.4703 Y7.7198
X-74.4796 Y7.7233
X-74.4887 Y7.7274
X-74.4975 Y7.732
X-74.506 Y7.7372
X-74.5142 Y7.7429
X-74.522 Y7.749
X-74.5294 Y7.7557
X-74.5364 Y7.7628
X-74.5429 Y7.7704
X-74.5489 Y7.7783
X-74.5544 Y7.7866
X-74.5594 Y7.7952
X-74.5639 Y7.8041
X-74.5677 Y7.8133
X-74.571 Y7.8227
X-74.5737 Y7.8323
G2 X-74.5975 Y7.8743 I0.0024 J0.029
G1 X-74.5068 Y7.9876
