%
(971-23-P-0068_ARM GEARBOX PLATE 2_1565)
(T1  D=0.1565 CR=0. - ZMIN=-0.2075 - FLAT END MILL)
G90 G94 G17 G91.1
G64 P0.001 Q0.001
G20
G53 G0 Z0.
(.3 CIRCLUAR THROUGH HOLE)
M9
T1 M6
S22000 M3
G4 P10.
G54
M7
G0 X-69.8769 Y14.2041
G43 Z0.6 H1
G0 Z0.13
G1 Z0.0657 F40.
G18 G2 X-69.8613 Z0.05 I0.0157 K0.
G1 X-69.8535
G17 G3 X-69.8423 Y14.2152 I0. J0.0111
X-69.8868 Z0. I-0.0223 J0.
X-69.8423 Z-0.05 I0.0223 J0.
X-69.8698 Y14.2369 Z-0.0788 I-0.0223 J0.
X-69.8594 Y14.1936 Z-0.1288 I0.0052 J-0.0216
X-69.8444 Y14.2059 Z-0.1431 I-0.0052 J0.0216
X-69.8848 Y14.2245 Z-0.1931 I-0.0202 J0.0093
X-69.8844 Y14.2051 Z-0.2075 I0.0202 J-0.0093
X-69.8448 Y14.2253 I0.0198 J0.0101
X-69.8844 Y14.2051 I-0.0198 J-0.0101
X-69.8695 Y14.2003 I0.0099 J0.0051
G1 X-69.8625 Y14.2038
X-69.8598 Y14.2052 Z-0.2072
X-69.8571 Y14.2065 Z-0.2063
X-69.8547 Y14.2078 Z-0.2049
X-69.8526 Y14.2088 Z-0.2029
X-69.8509 Y14.2097 Z-0.2005
X-69.8496 Y14.2104 Z-0.1978
X-69.8488 Y14.2108 Z-0.1949
X-69.8485 Y14.2109 Z-0.1919
G0 Z0.4
X-71.1999 Y13.4889
Z0.13
G1 Z0.0657 F40.
G18 G2 X-71.1842 Z0.05 I0.0156 K0.
G1 X-71.1764
G17 G3 X-71.1652 Y13.5 I0. J0.0111
X-71.2097 Z0. I-0.0223 J0.
X-71.1652 Z-0.05 I0.0223 J0.
X-71.1927 Y13.5216 Z-0.0788 I-0.0223 J0.
X-71.1823 Y13.4784 Z-0.1288 I0.0052 J-0.0216
X-71.1673 Y13.4907 Z-0.1431 I-0.0052 J0.0216
X-71.2077 Y13.5093 Z-0.1931 I-0.0202 J0.0093
X-71.2073 Y13.4899 Z-0.2075 I0.0202 J-0.0093
X-71.1677 Y13.5101 I0.0198 J0.0101
X-71.2073 Y13.4899 I-0.0198 J-0.0101
X-71.1924 Y13.485 I0.0099 J0.0051
G1 X-71.1854 Y13.4886
X-71.1827 Y13.49 Z-0.2072
X-71.1801 Y13.4913 Z-0.2063
X-71.1776 Y13.4925 Z-0.2049
X-71.1755 Y13.4936 Z-0.2029
X-71.1738 Y13.4945 Z-0.2005
X-71.1725 Y13.4952 Z-0.1978
X-71.1717 Y13.4956 Z-0.1949
X-71.1714 Y13.4957 Z-0.1919
G0 Z0.4
X-71.4429 Y11.9889
Z0.13
G1 Z0.0657 F40.
G18 G2 X-71.4272 Z0.05 I0.0157 K0.
G1 X-71.4194
G17 G3 X-71.4083 Y12. I0. J0.0111
X-71.4528 Z0. I-0.0223 J0.
X-71.4443 Y11.9825 Z-0.0144 I0.0222 J0.
X-71.4168 Y12.0175 Z-0.0644 I0.0138 J0.0175
X-71.4357 Y12.0216 Z-0.0788 I-0.0138 J-0.0175
X-71.4254 Y11.9784 Z-0.1288 I0.0052 J-0.0216
X-71.4103 Y11.9907 Z-0.1431 I-0.0052 J0.0216
X-71.4508 Y12.0093 Z-0.1931 I-0.0202 J0.0093
X-71.4504 Y11.9899 Z-0.2075 I0.0202 J-0.0093
X-71.4107 Y12.0101 I0.0198 J0.0101
X-71.4504 Y11.9899 I-0.0198 J-0.0101
X-71.4354 Y11.985 I0.0099 J0.0051
G1 X-71.4284 Y11.9886
X-71.4257 Y11.99 Z-0.2072
X-71.4231 Y11.9913 Z-0.2063
X-71.4207 Y11.9925 Z-0.2049
X-71.4186 Y11.9936 Z-0.2029
X-71.4168 Y11.9945 Z-0.2005
X-71.4156 Y11.9952 Z-0.1978
X-71.4148 Y11.9956 Z-0.1949
X-71.4145 Y11.9957 Z-0.1919
G0 Z0.4
X-68.5799 Y11.7713
Z0.13
G1 Z0.0657 F40.
G18 G2 X-68.5642 Z0.05 I0.0157 K0.
G1 X-68.5564
G17 G3 X-68.5452 Y11.7824 I0. J0.0111
X-68.5898 Z0. I-0.0223 J0.
X-68.5813 Y11.7649 Z-0.0144 I0.0223 J0.
X-68.5537 Y11.7999 Z-0.0644 I0.0138 J0.0175
X-68.5727 Y11.804 Z-0.0788 I-0.0138 J-0.0175
X-68.5623 Y11.7607 Z-0.1288 I0.0052 J-0.0216
X-68.5473 Y11.7731 Z-0.1431 I-0.0052 J0.0216
X-68.5877 Y11.7917 Z-0.1931 I-0.0202 J0.0093
X-68.5873 Y11.7723 Z-0.2075 I0.0202 J-0.0093
X-68.5477 Y11.7925 I0.0198 J0.0101
X-68.5873 Y11.7723 I-0.0198 J-0.0101
X-68.5724 Y11.7674 I0.0099 J0.0051
G1 X-68.5654 Y11.771
X-68.5627 Y11.7724 Z-0.2072
X-68.5601 Y11.7737 Z-0.2063
X-68.5576 Y11.7749 Z-0.2049
X-68.5555 Y11.776 Z-0.2029
X-68.5538 Y11.7769 Z-0.2005
X-68.5525 Y11.7775 Z-0.1978
X-68.5517 Y11.7779 Z-0.1949
X-68.5514 Y11.7781 Z-0.1919
G0 Z0.4
X-67.6998 Y11.9889
Z0.13
G1 Z0.0657 F40.
G18 G2 X-67.6842 Z0.05 I0.0156 K0.
G1 X-67.6764
G17 G3 X-67.6653 Y12. I0. J0.0111
X-67.7097 Z0. I-0.0222 J0.
X-67.7013 Y11.9825 Z-0.0144 I0.0223 J0.
X-67.6737 Y12.0175 Z-0.0644 I0.0138 J0.0175
X-67.6927 Y12.0216 Z-0.0788 I-0.0138 J-0.0175
X-67.6823 Y11.9784 Z-0.1288 I0.0052 J-0.0216
X-67.6927 Y12.0216 Z-0.1788 I-0.0052 J0.0216
X-67.7073 Y11.9899 Z-0.2075 I0.0052 J-0.0216
X-67.6677 Y12.0101 I0.0198 J0.0101
X-67.7073 Y11.9899 I-0.0198 J-0.0101
X-67.6924 Y11.985 I0.0099 J0.0051
G1 X-67.6854 Y11.9886
X-67.6827 Y11.99 Z-0.2072
X-67.6801 Y11.9913 Z-0.2063
X-67.6776 Y11.9925 Z-0.2049
X-67.6755 Y11.9936 Z-0.2029
X-67.6738 Y11.9945 Z-0.2005
X-67.6725 Y11.9952 Z-0.1978
X-67.6717 Y11.9956 Z-0.1949
X-67.6714 Y11.9957 Z-0.1919
G0 Z0.4
X-67.6998 Y10.9889
Z0.13
G1 Z0.0657 F40.
G18 G2 X-67.6842 Z0.05 I0.0156 K0.
G1 X-67.6764
G17 G3 X-67.6653 Y11. I0. J0.0111
X-67.7097 Z0. I-0.0222 J0.
X-67.7013 Y10.9825 Z-0.0144 I0.0223 J0.
X-67.6737 Y11.0175 Z-0.0644 I0.0138 J0.0175
X-67.6927 Y11.0216 Z-0.0788 I-0.0138 J-0.0175
X-67.6823 Y10.9784 Z-0.1288 I0.0052 J-0.0216
X-67.6927 Y11.0216 Z-0.1788 I-0.0052 J0.0216
X-67.7073 Y10.9899 Z-0.2075 I0.0052 J-0.0216
X-67.6677 Y11.0101 I0.0198 J0.0101
X-67.7073 Y10.9899 I-0.0198 J-0.0101
X-67.6924 Y10.985 I0.0099 J0.0051
G1 X-67.6854 Y10.9886
X-67.6827 Y10.99 Z-0.2072
X-67.6801 Y10.9913 Z-0.2063
X-67.6776 Y10.9925 Z-0.2049
X-67.6755 Y10.9936 Z-0.2029
X-67.6738 Y10.9945 Z-0.2005
X-67.6725 Y10.9952 Z-0.1978
X-67.6717 Y10.9956 Z-0.1949
X-67.6714 Y10.9957 Z-0.1919
G0 Z0.4
X-68.824 Y9.6652
Z0.1143
G1 Z0.05 F40.
X-68.8234 Y9.6645
G3 X-68.8228 Y9.6652 I0. J0.0006
X-68.8253 Z0. I-0.0012 J0.
X-68.8248 Y9.6642 Z-0.0144 I0.0012 J0.
X-68.8232 Y9.6661 Z-0.0644 I0.0008 J0.001
X-68.8243 Y9.6664 Z-0.0788 I-0.0008 J-0.001
X-68.8237 Y9.6639 Z-0.1287 I0.0003 J-0.0012
X-68.8229 Y9.6646 Z-0.1431 I-0.0003 J0.0012
X-68.8251 Y9.6657 Z-0.1931 I-0.0011 J0.0005
Y9.6646 Z-0.2075 I0.0011 J-0.0005
X-68.8229 Y9.6657 I0.0011 J0.0006
X-68.8251 Y9.6646 I-0.0011 J-0.0006
X-68.8243 Y9.6643 I0.0006 J0.0003
G1 X-68.824 Y9.6652
G0 Z0.4
X-70.351 Y10.2209
Z0.1143
G1 Z0.05 F40.
X-70.3504 Y10.2203
G3 X-70.3498 Y10.2209 I0. J0.0006
X-70.3523 Z0. I-0.0012 J0.
X-70.3518 Y10.22 Z-0.0144 I0.0012 J0.
X-70.3502 Y10.2219 Z-0.0644 I0.0008 J0.001
X-70.3513 Y10.2222 Z-0.0788 I-0.0008 J-0.001
X-70.3507 Y10.2197 Z-0.1288 I0.0003 J-0.0012
X-70.3499 Y10.2204 Z-0.1431 I-0.0003 J0.0012
X-70.3521 Y10.2215 Z-0.1931 I-0.0011 J0.0005
Y10.2204 Z-0.2075 I0.0011 J-0.0005
X-70.3499 Y10.2215 I0.0011 J0.0006
X-70.3521 Y10.2204 I-0.0011 J-0.0006
X-70.3513 Y10.2201 I0.0006 J0.0003
G1 X-70.351 Y10.2209
G0 Z0.4
X-71.6374 Y9.4889
Z0.13
G1 Z0.0657 F40.
G18 G2 X-71.6217 Z0.05 I0.0157 K0.
G1 X-71.6139
G17 G3 X-71.6027 Y9.5 I0. J0.0111
X-71.6473 Z0. I-0.0223 J0.
X-71.6388 Y9.4825 Z-0.0144 I0.0223 J0.
X-71.6112 Y9.5175 Z-0.0644 I0.0138 J0.0175
X-71.6388 Y9.4825 Z-0.1144 I-0.0138 J-0.0175
X-71.6048 Y9.4907 Z-0.1431 I0.0138 J0.0175
X-71.6452 Y9.5093 Z-0.1931 I-0.0202 J0.0093
X-71.6448 Y9.4899 Z-0.2075 I0.0202 J-0.0093
X-71.6052 Y9.5101 I0.0198 J0.0101
X-71.6448 Y9.4899 I-0.0198 J-0.0101
X-71.6299 Y9.485 I0.0099 J0.0051
G1 X-71.6229 Y9.4886
X-71.6202 Y9.49 Z-0.2072
X-71.6176 Y9.4913 Z-0.2063
X-71.6151 Y9.4925 Z-0.2049
X-71.613 Y9.4936 Z-0.2029
X-71.6113 Y9.4945 Z-0.2005
X-71.61 Y9.4952 Z-0.1978
X-71.6092 Y9.4956 Z-0.1949
X-71.6089 Y9.4957 Z-0.1919
G0 Z0.4
X-72.6914 Y9.694
Z0.1143
G1 Z0.05 F40.
X-72.6908 Y9.6934
G3 X-72.6901 Y9.694 I0. J0.0006
X-72.6926 Z0. I-0.0012 J0.
X-72.6922 Y9.6931 Z-0.0144 I0.0012 J0.
X-72.6906 Y9.695 Z-0.0644 I0.0008 J0.001
X-72.6917 Y9.6953 Z-0.0788 I-0.0008 J-0.001
X-72.6911 Y9.6928 Z-0.1288 I0.0003 J-0.0012
X-72.6902 Y9.6935 Z-0.1431 I-0.0003 J0.0012
X-72.6925 Y9.6946 Z-0.1931 I-0.0011 J0.0005
Y9.6935 Z-0.2075 I0.0011 J-0.0005
X-72.6903 Y9.6946 I0.0011 J0.0006
X-72.6925 Y9.6935 I-0.0011 J-0.0006
X-72.6917 Y9.6932 I0.0006 J0.0003
G1 X-72.6914 Y9.694
G0 Z0.4
X-74.2917 Y9.4119
Z0.1143
G1 Z0.05 F40.
X-74.2911 Y9.4112
G3 X-74.2904 Y9.4119 I0. J0.0006
X-74.2929 Z0. I-0.0012 J0.
X-74.2925 Y9.4109 Z-0.0144 I0.0012 J0.
X-74.2909 Y9.4128 Z-0.0644 I0.0008 J0.001
X-74.292 Y9.4131 Z-0.0788 I-0.0008 J-0.001
X-74.2914 Y9.4106 Z-0.1288 I0.0003 J-0.0012
X-74.2906 Y9.4113 Z-0.1431 I-0.0003 J0.0012
X-74.2928 Y9.4124 Z-0.1931 I-0.0011 J0.0005
Y9.4113 Z-0.2075 I0.0011 J-0.0005
X-74.2906 Y9.4124 I0.0011 J0.0006
X-74.2928 Y9.4113 I-0.0011 J-0.0006
X-74.292 Y9.411 I0.0006 J0.0003
G1 X-74.2917 Y9.4119
G0 Z0.4
X-74.6999 Y10.9889
Z0.13
G1 Z0.0657 F40.
G18 G2 X-74.6842 Z0.05 I0.0157 K0.
G1 X-74.6764
G17 G3 X-74.6652 Y11. I0. J0.0111
X-74.7098 Z0. I-0.0223 J0.
X-74.6652 Z-0.05 I0.0223 J0.
X-74.6927 Y11.0216 Z-0.0788 I-0.0223 J0.
X-74.6823 Y10.9784 Z-0.1288 I0.0052 J-0.0216
X-74.6673 Y10.9907 Z-0.1431 I-0.0052 J0.0216
X-74.7077 Y11.0093 Z-0.1931 I-0.0202 J0.0093
X-74.7073 Y10.9899 Z-0.2075 I0.0202 J-0.0093
X-74.6677 Y11.0101 I0.0198 J0.0101
X-74.7073 Y10.9899 I-0.0198 J-0.0101
X-74.6924 Y10.985 I0.0099 J0.0051
G1 X-74.6854 Y10.9886
X-74.6827 Y10.99 Z-0.2072
X-74.6801 Y10.9913 Z-0.2063
X-74.6776 Y10.9925 Z-0.2049
X-74.6755 Y10.9936 Z-0.2029
X-74.6738 Y10.9945 Z-0.2005
X-74.6725 Y10.9952 Z-0.1978
X-74.6717 Y10.9956 Z-0.1949
X-74.6714 Y10.9957 Z-0.1919
G0 Z0.4
X-74.8229 Y11.9889
Z0.13
G1 Z0.0657 F40.
G18 G2 X-74.8072 Z0.05 I0.0156 K0.
G1 X-74.7994
G17 G3 X-74.7883 Y12. I0. J0.0111
X-74.8328 Z0. I-0.0223 J0.
X-74.8243 Y11.9825 Z-0.0144 I0.0222 J0.
X-74.7968 Y12.0175 Z-0.0644 I0.0138 J0.0175
X-74.8157 Y12.0216 Z-0.0788 I-0.0138 J-0.0175
X-74.8053 Y11.9784 Z-0.1287 I0.0052 J-0.0216
X-74.7903 Y11.9907 Z-0.1431 I-0.0052 J0.0216
X-74.8307 Y12.0093 Z-0.1931 I-0.0202 J0.0093
X-74.8304 Y11.9899 Z-0.2075 I0.0202 J-0.0093
X-74.7907 Y12.0101 I0.0198 J0.0101
X-74.8304 Y11.9899 I-0.0198 J-0.0101
X-74.8154 Y11.985 I0.0099 J0.0051
G1 X-74.8084 Y11.9886
X-74.8057 Y11.99 Z-0.2072
X-74.8031 Y11.9913 Z-0.2063
X-74.8007 Y11.9925 Z-0.2049
X-74.7986 Y11.9936 Z-0.2029
X-74.7968 Y11.9945 Z-0.2005
X-74.7955 Y11.9952 Z-0.1978
X-74.7947 Y11.9956 Z-0.1949
X-74.7945 Y11.9957 Z-0.1919
G0 Z0.4
X-73.8602 Y14.6594
Z0.13
G1 Z0.0657 F40.
G18 G2 X-73.8445 Z0.05 I0.0157 K0.
G1 X-73.8367
G17 G3 X-73.8256 Y14.6705 I0. J0.0111
X-73.8701 Z0. I-0.0223 J0.
X-73.8256 Z-0.05 I0.0223 J0.
X-73.8701 Z-0.1 I-0.0223 J0.
X-73.8276 Y14.6612 Z-0.1431 I0.0223 J0.
X-73.868 Y14.6798 Z-0.1931 I-0.0202 J0.0093
X-73.8676 Y14.6604 Z-0.2075 I0.0202 J-0.0093
X-73.828 Y14.6806 I0.0198 J0.0101
X-73.8676 Y14.6604 I-0.0198 J-0.0101
X-73.8527 Y14.6555 I0.0099 J0.005
G1 X-73.8457 Y14.6591
X-73.843 Y14.6605 Z-0.2072
X-73.8404 Y14.6618 Z-0.2063
X-73.838 Y14.663 Z-0.2049
X-73.8358 Y14.6641 Z-0.2029
X-73.8341 Y14.665 Z-0.2005
X-73.8328 Y14.6657 Z-0.1978
X-73.832 Y14.6661 Z-0.1949
X-73.8318 Y14.6662 Z-0.1919
G0 Z0.4
X-75.007 Y7.6645
Z0.13
G1 Z0.0657 F40.
G18 G2 X-74.9913 Z0.05 I0.0157 K0.
G1 X-74.9835
G17 G3 X-74.9724 Y7.6757 I0. J0.0111
X-75.0169 Z0. I-0.0223 J0.
X-75.0084 Y7.6582 Z-0.0144 I0.0222 J0.
X-74.9808 Y7.6931 Z-0.0644 I0.0138 J0.0175
X-74.9998 Y7.6973 Z-0.0788 I-0.0138 J-0.0175
X-74.9894 Y7.654 Z-0.1288 I0.0052 J-0.0216
X-74.9744 Y7.6663 Z-0.1431 I-0.0052 J0.0216
X-75.0148 Y7.685 Z-0.1931 I-0.0202 J0.0093
X-75.0144 Y7.6656 Z-0.2075 I0.0202 J-0.0093
X-74.9748 Y7.6858 I0.0198 J0.0101
X-75.0144 Y7.6656 I-0.0198 J-0.0101
X-74.9995 Y7.6607 I0.0099 J0.0051
G1 X-74.9925 Y7.6642
X-74.9898 Y7.6656 Z-0.2072
X-74.9872 Y7.667 Z-0.2063
X-74.9848 Y7.6682 Z-0.2049
X-74.9826 Y7.6693 Z-0.2029
X-74.9809 Y7.6702 Z-0.2005
X-74.9796 Y7.6708 Z-0.1978
X-74.9788 Y7.6712 Z-0.1949
X-74.9786 Y7.6713 Z-0.1919
G0 Z0.4
X-74.9908 Y7.1889
Z0.13
G1 Z0.0657 F40.
G18 G2 X-74.9751 Z0.05 I0.0157 K0.
G1 X-74.9673
G17 G3 X-74.9562 Y7.2 I0. J0.0111
X-75.0007 Z0. I-0.0223 J0.
X-74.9922 Y7.1825 Z-0.0144 I0.0223 J0.
X-74.9647 Y7.2175 Z-0.0644 I0.0138 J0.0175
X-74.9922 Y7.1825 Z-0.1144 I-0.0138 J-0.0175
X-74.9647 Y7.2175 Z-0.1644 I0.0138 J0.0175
X-74.9983 Y7.1899 Z-0.2075 I-0.0138 J-0.0175
X-74.9586 Y7.2101 I0.0198 J0.0101
X-74.9983 Y7.1899 I-0.0198 J-0.0101
X-74.9833 Y7.185 I0.0099 J0.0051
G1 X-74.9763 Y7.1886
X-74.9736 Y7.19 Z-0.2072
X-74.971 Y7.1913 Z-0.2063
X-74.9686 Y7.1925 Z-0.2049
X-74.9665 Y7.1936 Z-0.2029
X-74.9647 Y7.1945 Z-0.2005
X-74.9634 Y7.1952 Z-0.1978
X-74.9626 Y7.1956 Z-0.1949
X-74.9624 Y7.1957 Z-0.1919
G0 Z0.4
X-71.2605 Y5.4411
Z0.13
G1 Z0.0657 F40.
G18 G3 X-71.2761 Z0.05 I-0.0156 K0.
G1 X-71.2839
G17 G3 X-71.2951 Y5.43 I0. J-0.0111
X-71.2506 Z0. I0.0223 J0.
X-71.259 Y5.4475 Z-0.0144 I-0.0223 J0.
X-71.2866 Y5.4125 Z-0.0644 I-0.0138 J-0.0175
X-71.2676 Y5.4084 Z-0.0788 I0.0138 J0.0175
X-71.278 Y5.4516 Z-0.1288 I-0.0052 J0.0216
X-71.293 Y5.4393 Z-0.1431 I0.0052 J-0.0216
X-71.2526 Y5.4207 Z-0.1931 I0.0202 J-0.0093
X-71.253 Y5.4401 Z-0.2075 I-0.0202 J0.0093
X-71.2926 Y5.4199 I-0.0198 J-0.0101
X-71.253 Y5.4401 I0.0198 J0.0101
X-71.2679 Y5.445 I-0.0099 J-0.0051
G1 X-71.2749 Y5.4414
X-71.2776 Y5.44 Z-0.2072
X-71.2803 Y5.4387 Z-0.2063
X-71.2827 Y5.4375 Z-0.2049
X-71.2848 Y5.4364 Z-0.2029
X-71.2865 Y5.4355 Z-0.2005
X-71.2878 Y5.4348 Z-0.1978
X-71.2886 Y5.4344 Z-0.1949
X-71.2889 Y5.4343 Z-0.1919
G0 Z0.4
X-70.3338 Y4.4818
Z0.13
G1 Z0.0657 F40.
G18 G3 X-70.3494 Z0.05 I-0.0157 K0.
G1 X-70.3573
G17 G3 X-70.3684 Y4.4707 I0. J-0.0111
X-70.3239 Z0. I0.0223 J0.
X-70.3684 Z-0.05 I-0.0223 J0.
X-70.3409 Y4.4491 Z-0.0788 I0.0223 J0.
X-70.3513 Y4.4923 Z-0.1288 I-0.0052 J0.0216
X-70.3663 Y4.48 Z-0.1431 I0.0052 J-0.0216
X-70.3259 Y4.4614 Z-0.1931 I0.0202 J-0.0093
X-70.3263 Y4.4808 Z-0.2075 I-0.0202 J0.0093
X-70.366 Y4.4606 I-0.0198 J-0.0101
X-70.3263 Y4.4808 I0.0198 J0.0101
X-70.3413 Y4.4857 I-0.0099 J-0.0051
G1 X-70.3482 Y4.4821
X-70.351 Y4.4807 Z-0.2072
X-70.3536 Y4.4794 Z-0.2063
X-70.356 Y4.4782 Z-0.2049
X-70.3581 Y4.4771 Z-0.2029
X-70.3598 Y4.4762 Z-0.2005
X-70.3611 Y4.4755 Z-0.1978
X-70.3619 Y4.4751 Z-0.1949
X-70.3622 Y4.475 Z-0.1919
G0 Z0.4
X-70.3874 Y3.1139
Z0.13
G1 Z0.0657 F40.
G18 G2 X-70.3717 Z0.05 I0.0157 K0.
G1 X-70.3639
G17 G3 X-70.3527 Y3.125 I0. J0.0111
X-70.3973 Z0. I-0.0223 J0.
X-70.3888 Y3.1075 Z-0.0144 I0.0222 J0.
X-70.3612 Y3.1425 Z-0.0644 I0.0138 J0.0175
X-70.3888 Y3.1075 Z-0.1144 I-0.0138 J-0.0175
X-70.3548 Y3.1157 Z-0.1431 I0.0138 J0.0175
X-70.3952 Y3.1343 Z-0.1931 I-0.0202 J0.0093
X-70.3948 Y3.1149 Z-0.2075 I0.0202 J-0.0093
X-70.3552 Y3.1351 I0.0198 J0.0101
X-70.3948 Y3.1149 I-0.0198 J-0.0101
X-70.3799 Y3.11 I0.0099 J0.0051
G1 X-70.3729 Y3.1136
X-70.3702 Y3.115 Z-0.2072
X-70.3676 Y3.1163 Z-0.2063
X-70.3651 Y3.1175 Z-0.2049
X-70.363 Y3.1186 Z-0.2029
X-70.3613 Y3.1195 Z-0.2005
X-70.36 Y3.1202 Z-0.1978
X-70.3592 Y3.1206 Z-0.1949
X-70.3589 Y3.1207 Z-0.1919
G0 Z0.4
X-70.3874 Y1.8639
Z0.13
G1 Z0.0657 F40.
G18 G2 X-70.3717 Z0.05 I0.0157 K0.
G1 X-70.3639
G17 G3 X-70.3527 Y1.875 I0. J0.0111
X-70.3973 Z0. I-0.0223 J0.
X-70.3888 Y1.8575 Z-0.0144 I0.0222 J0.
X-70.3612 Y1.8925 Z-0.0644 I0.0138 J0.0175
X-70.3888 Y1.8575 Z-0.1144 I-0.0138 J-0.0175
X-70.3548 Y1.8657 Z-0.1431 I0.0138 J0.0175
X-70.3952 Y1.8843 Z-0.1931 I-0.0202 J0.0093
X-70.3948 Y1.8649 Z-0.2075 I0.0202 J-0.0093
X-70.3552 Y1.8851 I0.0198 J0.0101
X-70.3948 Y1.8649 I-0.0198 J-0.0101
X-70.3799 Y1.86 I0.0099 J0.0051
G1 X-70.3729 Y1.8636
X-70.3702 Y1.865 Z-0.2072
X-70.3676 Y1.8663 Z-0.2063
X-70.3651 Y1.8675 Z-0.2049
X-70.363 Y1.8686 Z-0.2029
X-70.3613 Y1.8695 Z-0.2005
X-70.36 Y1.8702 Z-0.1978
X-70.3592 Y1.8706 Z-0.1949
X-70.3589 Y1.8707 Z-0.1919
G0 Z0.4
X-68.8873 Y1.8639
Z0.13
G1 Z0.0657 F40.
G18 G2 X-68.8717 Z0.05 I0.0156 K0.
G1 X-68.8639
G17 G3 X-68.8528 Y1.875 I0. J0.0111
X-68.8973 Z0. I-0.0223 J0.
X-68.8888 Y1.8575 Z-0.0144 I0.0222 J0.
X-68.8612 Y1.8925 Z-0.0644 I0.0138 J0.0175
X-68.8802 Y1.8966 Z-0.0788 I-0.0138 J-0.0175
X-68.8698 Y1.8534 Z-0.1287 I0.0052 J-0.0216
X-68.8548 Y1.8657 Z-0.1431 I-0.0052 J0.0216
X-68.8952 Y1.8843 Z-0.1931 I-0.0202 J0.0093
X-68.8948 Y1.8649 Z-0.2075 I0.0202 J-0.0093
X-68.8552 Y1.8851 I0.0198 J0.0101
X-68.8948 Y1.8649 I-0.0198 J-0.0101
X-68.8799 Y1.86 I0.0099 J0.0051
G1 X-68.8729 Y1.8636
X-68.8702 Y1.865 Z-0.2072
X-68.8676 Y1.8663 Z-0.2063
X-68.8651 Y1.8675 Z-0.2049
X-68.863 Y1.8686 Z-0.2029
X-68.8613 Y1.8695 Z-0.2005
X-68.86 Y1.8702 Z-0.1978
X-68.8592 Y1.8706 Z-0.1949
X-68.8589 Y1.8707 Z-0.1919
G0 Z0.4
X-68.8873 Y3.1139
Z0.13
G1 Z0.0657 F40.
G18 G2 X-68.8717 Z0.05 I0.0156 K0.
G1 X-68.8639
G17 G3 X-68.8528 Y3.125 I0. J0.0111
X-68.8973 Z0. I-0.0223 J0.
X-68.8888 Y3.1075 Z-0.0144 I0.0222 J0.
X-68.8612 Y3.1425 Z-0.0644 I0.0138 J0.0175
X-68.8802 Y3.1466 Z-0.0788 I-0.0138 J-0.0175
X-68.8698 Y3.1034 Z-0.1287 I0.0052 J-0.0216
X-68.8548 Y3.1157 Z-0.1431 I-0.0052 J0.0216
X-68.8952 Y3.1343 Z-0.1931 I-0.0202 J0.0093
X-68.8948 Y3.1149 Z-0.2075 I0.0202 J-0.0093
X-68.8552 Y3.1351 I0.0198 J0.0101
X-68.8948 Y3.1149 I-0.0198 J-0.0101
X-68.8799 Y3.11 I0.0099 J0.0051
G1 X-68.8729 Y3.1136
X-68.8702 Y3.115 Z-0.2072
X-68.8676 Y3.1163 Z-0.2063
X-68.8651 Y3.1175 Z-0.2049
X-68.863 Y3.1186 Z-0.2029
X-68.8613 Y3.1195 Z-0.2005
X-68.86 Y3.1202 Z-0.1978
X-68.8592 Y3.1206 Z-0.1949
X-68.8589 Y3.1207 Z-0.1919
G0 Z0.4
X-68.3785 Y4.9024
Z0.13
G1 Z0.0657 F40.
G18 G3 X-68.3942 Z0.05 I-0.0157 K0.
G1 X-68.402
G17 G3 X-68.4131 Y4.8913 I0. J-0.0111
X-68.3686 Z0. I0.0223 J0.
X-68.3771 Y4.9088 Z-0.0144 I-0.0222 J0.
X-68.4046 Y4.8738 Z-0.0644 I-0.0138 J-0.0175
X-68.3857 Y4.8697 Z-0.0788 I0.0138 J0.0175
X-68.3961 Y4.9129 Z-0.1288 I-0.0052 J0.0216
X-68.4111 Y4.9006 Z-0.1431 I0.0052 J-0.0216
X-68.3707 Y4.882 Z-0.1931 I0.0202 J-0.0093
X-68.371 Y4.9014 Z-0.2075 I-0.0202 J0.0093
X-68.4107 Y4.8812 I-0.0198 J-0.0101
X-68.371 Y4.9014 I0.0198 J0.0101
X-68.386 Y4.9063 I-0.0099 J-0.0051
G1 X-68.393 Y4.9027
X-68.3957 Y4.9013 Z-0.2072
X-68.3983 Y4.9 Z-0.2063
X-68.4007 Y4.8988 Z-0.2049
X-68.4028 Y4.8977 Z-0.2029
X-68.4046 Y4.8968 Z-0.2005
X-68.4059 Y4.8961 Z-0.1978
X-68.4067 Y4.8957 Z-0.1949
X-68.4069 Y4.8956 Z-0.1919
G0 Z0.6
(.3 CIRCULAR THROUGH HOLE)
M7
G0 X-73.4581 Y9.5794
Z0.6
Z0.2
G1 Z0.1151 F13.333
G3 X-73.459 Y9.5782 Z0.1085 I0.0364 J-0.0264 F55.
X-73.4611 Y9.5747 Z0.1031 I0.0373 J-0.0252
X-73.4637 Y9.5692 Z0.1 I0.0394 J-0.0217
X-73.3797 Y9.5367 Z0.0621 I0.042 J-0.0163
X-73.4637 Y9.5692 Z0.0242 I-0.042 J0.0163
X-73.3797 Y9.5367 Z-0.0136 I0.042 J-0.0163
X-73.4637 Y9.5692 Z-0.0515 I-0.042 J0.0163
X-73.3797 Y9.5367 Z-0.0894 I0.042 J-0.0163
X-73.4637 Y9.5692 Z-0.1273 I-0.042 J0.0163
X-73.3797 Y9.5367 Z-0.1652 I0.042 J-0.0163
X-73.4637 Y9.5692 Z-0.203 I-0.042 J0.0163
X-73.4667 Y9.553 Z-0.2075 I0.042 J-0.0163
X-73.4164 I0.0252 J0. F60.
X-73.5667 I-0.0752 J0.
X-73.3164 I0.1252 J0.
X-73.6667 I-0.1752 J0.
X-73.2164 I0.2252 J0.
X-73.7667 I-0.2752 J0.
X-73.1164 I0.3252 J0.
X-73.8667 I-0.3752 J0.
X-73.1164 I0.3752 J0.
G2 X-73.073 Y9.6225 I0.0774 J0.
G3 X-73.041 Y9.6979 I-0.0275 J0.0562
X-73.9649 Y9.553 I-0.4506 J-0.1451
X-73.0182 I0.4734 J0.0002
X-73.041 Y9.6979 I-0.4734 J-0.0002
G2 X-73.0385 Y9.7065 I0.0077 J0.0025
G3 X-73.0363 Y9.7151 I-0.0052 J0.006
X-73.9749 Y9.553 I-0.4553 J-0.1624
X-73.0082 I0.4834 J0.0002
X-73.0363 Y9.7151 I-0.4834 J-0.0002
X-73.0393 Y9.7203 Z-0.2063 I-0.0147 J-0.0053
X-73.0432 Y9.7235 Z-0.2029 I-0.0117 J-0.0104
X-73.0463 Y9.7248 Z-0.1978 I-0.0078 J-0.0136
X-73.0475 Y9.7251 Z-0.1919 I-0.0047 J-0.0149
G0 Z0.4
X-73.4709 Y7.5264
Z0.2
G1 Z0.1151 F13.333
G3 X-73.4717 Y7.5252 Z0.1085 I0.0364 J-0.0264 F55.
X-73.4739 Y7.5217 Z0.1031 I0.0373 J-0.0252
X-73.4764 Y7.5163 Z0.1 I0.0394 J-0.0217
X-73.3925 Y7.4837 Z0.0621 I0.042 J-0.0163
X-73.4764 Y7.5163 Z0.0242 I-0.042 J0.0163
X-73.3925 Y7.4837 Z-0.0136 I0.042 J-0.0163
X-73.4764 Y7.5163 Z-0.0515 I-0.042 J0.0163
X-73.3925 Y7.4837 Z-0.0894 I0.042 J-0.0163
X-73.4764 Y7.5163 Z-0.1273 I-0.042 J0.0163
X-73.3925 Y7.4837 Z-0.1652 I0.042 J-0.0163
X-73.4764 Y7.5163 Z-0.203 I-0.042 J0.0163
X-73.4795 Y7.5 Z-0.2075 I0.042 J-0.0163
X-73.4323 I0.0236 J0. F60.
X-73.5795 I-0.0736 J0.
X-73.3323 I0.1236 J0.
X-73.6795 I-0.1736 J0.
X-73.2323 I0.2236 J0.
X-73.7795 I-0.2736 J0.
X-73.1323 I0.3236 J0.
X-73.8795 I-0.3736 J0.
X-73.0323 I0.4236 J0.
X-73.9795 I-0.4736 J0.
X-73.0223 I0.4786 J0.
X-73.9895 I-0.4836 J0.
X-73.0223 I0.4836 J0.
X-73.0235 Y7.5058 Z-0.2063 I-0.0156 J0.
X-73.0261 Y7.5102 Z-0.2029 I-0.0145 J-0.0058
X-73.0286 Y7.5125 Z-0.1978 I-0.0119 J-0.0102
X-73.0295 Y7.5132 Z-0.1919 I-0.0094 J-0.0125
G0 Z0.4
X-71.58 Y7.3763
Z0.2
G1 Z0.1151 F13.333
G3 X-71.5792 Y7.3775 Z0.1085 I-0.0364 J0.0264 F55.
X-71.577 Y7.381 Z0.1031 I-0.0373 J0.0252
X-71.5745 Y7.3864 Z0.1 I-0.0394 J0.0217
X-71.6584 Y7.4189 Z0.0621 I-0.042 J0.0163
X-71.5745 Y7.3864 Z0.0242 I0.042 J-0.0163
X-71.6584 Y7.4189 Z-0.0136 I-0.042 J0.0163
X-71.5745 Y7.3864 Z-0.0515 I0.042 J-0.0163
X-71.6584 Y7.4189 Z-0.0894 I-0.042 J0.0163
X-71.5745 Y7.3864 Z-0.1273 I0.042 J-0.0163
X-71.6584 Y7.4189 Z-0.1652 I-0.042 J0.0163
X-71.5745 Y7.3864 Z-0.203 I0.042 J-0.0163
X-71.5714 Y7.4027 Z-0.2075 I-0.042 J0.0163
X-71.6329 I-0.0307 J0. F60.
X-71.5714 I0.0307 J0.
G2 X-71.5502 Y7.4428 I0.0485 J0.
G3 X-71.5517 Y7.4881 I-0.0151 J0.0222
X-71.7015 Y7.4027 I-0.0504 J-0.0856
X-71.5028 I0.0994 J0.0002
X-71.5517 Y7.4881 I-0.0993 J-0.0002
G2 X-71.5556 Y7.4959 I0.0041 J0.0069
G3 X-71.56 Y7.5034 I-0.0072 J0.0008
X-71.7115 Y7.4027 I-0.0421 J-0.1009
X-71.4928 I0.1093 J0.0002
X-71.56 Y7.5034 I-0.1093 J-0.0002
X-71.5659 Y7.5046 Z-0.2063 I-0.006 J-0.0144
X-71.5709 Y7.5038 Z-0.2029 I-0.0002 J-0.0156
X-71.574 Y7.5025 Z-0.1978 I0.0048 J-0.0149
X-71.575 Y7.5018 Z-0.1919 I0.0079 J-0.0135
G0 Z0.4
X-71.432 Y6.3899
Z0.2
G1 Z0.1151 F13.333
G3 X-71.4312 Y6.3911 Z0.1085 I-0.0364 J0.0264 F55.
X-71.429 Y6.3946 Z0.1031 I-0.0373 J0.0252
X-71.4265 Y6.4001 Z0.1 I-0.0394 J0.0217
X-71.4235 Y6.4163 Z0.0955 I-0.042 J0.0163
X-71.5135 Z0.0577 I-0.045 J0.
X-71.4235 Z0.0198 I0.045 J0.
X-71.5135 Z-0.0181 I-0.045 J0.
X-71.4235 Z-0.056 I0.045 J0.
X-71.5135 Z-0.0939 I-0.045 J0.
X-71.4235 Z-0.1317 I0.045 J0.
X-71.5135 Z-0.1696 I-0.045 J0.
X-71.4235 Z-0.2075 I0.045 J0.
X-71.4517 I-0.0141 J0. F60.
X-71.3235 I0.0641 J0.
X-71.5517 I-0.1141 J0.
X-71.2235 I0.1641 J0.
X-71.6517 I-0.2141 J0.
X-71.2235 I0.2141 J0.
G2 X-71.183 Y6.4835 I0.076 J0.
G3 X-71.1594 Y6.5582 I-0.0261 J0.0493
X-71.7499 Y6.4163 I-0.2782 J-0.1421
X-71.1253 I0.3123 J0.0002
X-71.1594 Y6.5582 I-0.3123 J-0.0002
G2 X-71.1584 Y6.5671 I0.0072 J0.0037
G3 X-71.1577 Y6.576 I-0.006 J0.005
X-71.7599 Y6.4163 I-0.2799 J-0.1598
X-71.1153 I0.3223 J0.0002
X-71.1577 Y6.576 I-0.3223 J-0.0002
X-71.1615 Y6.5805 Z-0.2063 I-0.0136 J-0.0078
X-71.166 Y6.5829 Z-0.2029 I-0.0097 J-0.0123
X-71.1693 Y6.5837 Z-0.1978 I-0.0053 J-0.0147
X-71.1704 Y6.5838 Z-0.1919 I-0.002 J-0.0155
G0 Z0.4
X-69.6811 Y6.3235
Z0.2
G1 Z0.1151 F13.333
G3 X-69.682 Y6.3223 Z0.1085 I0.0364 J-0.0264 F55.
X-69.6841 Y6.3187 Z0.1031 I0.0373 J-0.0252
X-69.6867 Y6.3133 Z0.1 I0.0394 J-0.0217
X-69.6027 Y6.2808 Z0.0621 I0.042 J-0.0163
X-69.6867 Y6.3133 Z0.0242 I-0.042 J0.0163
X-69.6027 Y6.2808 Z-0.0136 I0.042 J-0.0163
X-69.6867 Y6.3133 Z-0.0515 I-0.042 J0.0163
X-69.6027 Y6.2808 Z-0.0894 I0.042 J-0.0163
X-69.6867 Y6.3133 Z-0.1273 I-0.042 J0.0163
X-69.6027 Y6.2808 Z-0.1652 I0.042 J-0.0163
X-69.6867 Y6.3133 Z-0.203 I-0.042 J0.0163
X-69.6897 Y6.297 Z-0.2075 I0.042 J-0.0163
X-69.6426 I0.0236 J0. F60.
X-69.7897 I-0.0736 J0.
X-69.5426 I0.1236 J0.
X-69.8897 I-0.1736 J0.
X-69.4426 I0.2236 J0.
X-69.9897 I-0.2736 J0.
X-69.3426 I0.3236 J0.
X-70.0897 I-0.3736 J0.
X-69.2426 I0.4236 J0.
X-70.1897 I-0.4736 J0.
X-69.2326 I0.4786 J0.
X-70.1997 I-0.4836 J0.
X-69.2326 I0.4836 J0.
X-69.2337 Y6.3029 Z-0.2063 I-0.0156 J0.
X-69.2363 Y6.3072 Z-0.2029 I-0.0145 J-0.0058
X-69.2388 Y6.3095 Z-0.1978 I-0.0119 J-0.0102
X-69.2398 Y6.3102 Z-0.1919 I-0.0094 J-0.0125
G0 Z0.4
X-69.3649 Y4.6546
Z0.2
G1 Z0.1151 F13.333
G3 X-69.3641 Y4.6558 Z0.1085 I-0.0364 J0.0264 F55.
X-69.3619 Y4.6593 Z0.1031 I-0.0373 J0.0252
X-69.3594 Y4.6647 Z0.1 I-0.0394 J0.0217
X-69.3564 Y4.681 Z0.0955 I-0.042 J0.0163
X-69.4464 Z0.0577 I-0.045 J0.
X-69.3564 Z0.0198 I0.045 J0.
X-69.4464 Z-0.0181 I-0.045 J0.
X-69.3564 Z-0.056 I0.045 J0.
X-69.4464 Z-0.0939 I-0.045 J0.
X-69.3564 Z-0.1317 I0.045 J0.
X-69.4464 Z-0.1696 I-0.045 J0.
X-69.3564 Z-0.2075 I0.045 J0.
X-69.3806 I-0.0121 J0. F60.
X-69.2564 I0.0621 J0.
X-69.4806 I-0.1121 J0.
X-69.1564 I0.1621 J0.
X-69.5807 I-0.2121 J0.
X-69.0564 I0.2621 J0.
X-69.6806 I-0.3121 J0.
X-69.0464 I0.3171 J0.
X-69.6906 I-0.3221 J0.
X-69.0464 I0.3221 J0.
X-69.0475 Y4.6868 Z-0.2063 I-0.0156 J0.
X-69.0501 Y4.6912 Z-0.2029 I-0.0145 J-0.0058
X-69.0526 Y4.6935 Z-0.1978 I-0.0119 J-0.0102
X-69.0536 Y4.6942 Z-0.1919 I-0.0094 J-0.0125
G0 Z0.4
X-70.4479 Y8.0659
Z0.2
G1 Z0.1151 F13.333
G3 X-70.4487 Y8.0647 Z0.1085 I0.0364 J-0.0264 F55.
X-70.4509 Y8.0611 Z0.1031 I0.0373 J-0.0252
X-70.4534 Y8.0557 Z0.1 I0.0394 J-0.0217
X-70.4565 Y8.0394 Z0.0955 I0.042 J-0.0163
X-70.3665 Z0.0577 I0.045 J0.
X-70.4565 Z0.0198 I-0.045 J0.
X-70.3665 Z-0.0181 I0.045 J0.
X-70.4565 Z-0.056 I-0.045 J0.
X-70.3665 Z-0.0939 I0.045 J0.
X-70.4565 Z-0.1317 I-0.045 J0.
X-70.3665 Z-0.1696 I0.045 J0.
X-70.4565 Z-0.2075 I-0.045 J0.
X-70.4061 I0.0252 J0. F60.
X-70.5565 I-0.0752 J0.
X-70.3061 I0.1252 J0.
X-70.6565 I-0.1752 J0.
X-70.2061 I0.2252 J0.
X-70.7565 I-0.2752 J0.
X-70.1061 I0.3252 J0.
X-70.8565 I-0.3752 J0.
X-70.1061 I0.3752 J0.
G2 X-70.0628 Y8.109 I0.0774 J0.
G3 X-70.0307 Y8.1844 I-0.0275 J0.0562
X-70.9547 Y8.0394 I-0.4506 J-0.1451
X-70.0079 I0.4734 J0.0002
X-70.0307 Y8.1844 I-0.4734 J-0.0002
G2 X-70.0283 Y8.193 I0.0077 J0.0025
G3 X-70.026 Y8.2016 I-0.0052 J0.006
X-70.9647 Y8.0394 I-0.4553 J-0.1624
X-69.9979 I0.4834 J0.0002
X-70.026 Y8.2016 I-0.4834 J-0.0002
X-70.0291 Y8.2068 Z-0.2063 I-0.0147 J-0.0053
X-70.033 Y8.21 Z-0.2029 I-0.0117 J-0.0104
X-70.0361 Y8.2113 Z-0.1978 I-0.0078 J-0.0136
X-70.0372 Y8.2116 Z-0.1919 I-0.0047 J-0.0149
G0 Z0.4
X-69.5524 Y9.9695
Z0.2
G1 Z0.1151 F13.333
G3 X-69.5532 Y9.9683 Z0.1085 I0.0364 J-0.0264 F55.
X-69.5554 Y9.9648 Z0.1031 I0.0373 J-0.0252
X-69.5579 Y9.9593 Z0.1 I0.0394 J-0.0217
X-69.474 Y9.9268 Z0.0621 I0.042 J-0.0163
X-69.5579 Y9.9593 Z0.0242 I-0.042 J0.0163
X-69.474 Y9.9268 Z-0.0136 I0.042 J-0.0163
X-69.5579 Y9.9593 Z-0.0515 I-0.042 J0.0163
X-69.474 Y9.9268 Z-0.0894 I0.042 J-0.0163
X-69.5579 Y9.9593 Z-0.1273 I-0.042 J0.0163
X-69.474 Y9.9268 Z-0.1652 I0.042 J-0.0163
X-69.5579 Y9.9593 Z-0.203 I-0.042 J0.0163
X-69.561 Y9.9431 Z-0.2075 I0.042 J-0.0163
X-69.5138 I0.0236 J0. F60.
X-69.661 I-0.0736 J0.
X-69.4138 I0.1236 J0.
X-69.761 I-0.1736 J0.
X-69.3138 I0.2236 J0.
X-69.861 I-0.2736 J0.
X-69.2138 I0.3236 J0.
X-69.961 I-0.3736 J0.
X-69.1138 I0.4236 J0.
X-70.061 I-0.4736 J0.
X-69.1038 I0.4786 J0.
X-70.071 I-0.4836 J0.
X-69.1038 I0.4836 J0.
X-69.105 Y9.9489 Z-0.2063 I-0.0156 J0.
X-69.1076 Y9.9532 Z-0.2029 I-0.0145 J-0.0058
X-69.1101 Y9.9556 Z-0.1978 I-0.0119 J-0.0102
X-69.111 Y9.9562 Z-0.1919 I-0.0094 J-0.0125
G0 Z0.4
X-69.4115 Y14.4424
Z0.2
G1 Z0.1151 F13.333
G3 X-69.4107 Y14.4436 Z0.1085 I-0.0364 J0.0264 F55.
X-69.4085 Y14.4471 Z0.1031 I-0.0373 J0.0252
X-69.406 Y14.4526 Z0.1 I-0.0394 J0.0217
X-69.4899 Y14.4851 Z0.0621 I-0.042 J0.0163
X-69.406 Y14.4526 Z0.0242 I0.042 J-0.0163
X-69.4899 Y14.4851 Z-0.0136 I-0.042 J0.0163
X-69.406 Y14.4526 Z-0.0515 I0.042 J-0.0163
X-69.4899 Y14.4851 Z-0.0894 I-0.042 J0.0163
X-69.406 Y14.4526 Z-0.1273 I0.042 J-0.0163
X-69.4899 Y14.4851 Z-0.1652 I-0.042 J0.0163
X-69.406 Y14.4526 Z-0.203 I0.042 J-0.0163
X-69.4029 Y14.4688 Z-0.2075 I-0.042 J0.0163
X-69.4644 I-0.0307 J0. F60.
X-69.4029 I0.0307 J0.
G2 X-69.3817 Y14.5089 I0.0485 J0.
G3 X-69.3832 Y14.5542 I-0.0151 J0.0222
X-69.533 Y14.4688 I-0.0504 J-0.0856
X-69.3343 I0.0993 J0.0002
X-69.3832 Y14.5542 I-0.0993 J-0.0002
G2 X-69.3871 Y14.562 I0.0041 J0.0069
G3 X-69.3915 Y14.5695 I-0.0072 J0.0008
X-69.543 Y14.4688 I-0.0421 J-0.1009
X-69.3243 I0.1093 J0.0002
X-69.3915 Y14.5695 I-0.1093 J-0.0002
X-69.3974 Y14.5707 Z-0.2063 I-0.006 J-0.0144
X-69.4024 Y14.57 Z-0.2029 I-0.0002 J-0.0156
X-69.4055 Y14.5686 Z-0.1978 I0.0048 J-0.0149
X-69.4065 Y14.568 Z-0.1919 I0.0079 J-0.0135
G0 Z0.4
X-73.4355 Y14.9931
Z0.2
G1 Z0.1151 F13.333
G3 X-73.4363 Y14.9919 Z0.1085 I0.0364 J-0.0264 F55.
X-73.4385 Y14.9884 Z0.1031 I0.0373 J-0.0252
X-73.441 Y14.9829 Z0.1 I0.0394 J-0.0217
X-73.3571 Y14.9504 Z0.0621 I0.042 J-0.0163
X-73.441 Y14.9829 Z0.0242 I-0.042 J0.0163
X-73.3571 Y14.9504 Z-0.0136 I0.042 J-0.0163
X-73.441 Y14.9829 Z-0.0515 I-0.042 J0.0163
X-73.3571 Y14.9504 Z-0.0894 I0.042 J-0.0163
X-73.441 Y14.9829 Z-0.1273 I-0.042 J0.0163
X-73.3571 Y14.9504 Z-0.1652 I0.042 J-0.0163
X-73.441 Y14.9829 Z-0.203 I-0.042 J0.0163
X-73.444 Y14.9667 Z-0.2075 I0.042 J-0.0163
X-73.3457 I0.0492 J0. F60.
X-73.544 I-0.0992 J0.
X-73.3357 I0.1041 J0.
X-73.554 I-0.1092 J0.
X-73.3357 I0.1092 J0.
X-73.3369 Y14.9725 Z-0.2063 I-0.0156 J0.
X-73.3395 Y14.9769 Z-0.2029 I-0.0145 J-0.0058
X-73.3419 Y14.9792 Z-0.1978 I-0.0119 J-0.0102
X-73.3429 Y14.9799 Z-0.1919 I-0.0094 J-0.0125
G0 Z0.6
(SHAPE THROUGH HOLE)
M7
G0 X-75.8085 Y8.7689
Z0.6
Z0.1
G3 X-75.9003 Y8.7151 Z0.0791 I-0.0197 J-0.0717 F13.333
X-75.8444 Y8.6246 Z0.0582 I0.0721 J-0.0179
X-75.7553 Y8.6828 Z0.0373 I0.0162 J0.0726
X-75.8156 Y8.7704 Z0.0164 I-0.0729 J0.0144
X-75.9017 Y8.708 Z-0.0045 I-0.0126 J-0.0733
X-75.8372 Y8.6234 Z-0.0255 I0.0735 J-0.0108
X-75.8191 Y8.771 Z-0.0666 I0.009 J0.0738
X-75.8372 Y8.6234 Z-0.1078 I-0.009 J-0.0738
X-75.7538 Y8.6972 Z-0.13 I0.009 J0.0738
X-75.9025 I-0.0743 J0.
X-75.7541 Y8.691 I0.0743 J0.
G1 X-75.7538 Y8.6972
G3 X-75.9192 Y8.8154 I-0.0855 J0.0551 F60.
G1 X-75.927 Y8.8096
X-75.9344 Y8.8032
X-75.9414 Y8.7964
X-75.948 Y8.7892
X-75.9541 Y8.7815
X-75.9597 Y8.7735
X-75.9648 Y8.7652
X-75.9693 Y8.7565
X-75.9733 Y8.7476
X-75.9767 Y8.7385
X-75.9795 Y8.7291
X-75.9818 Y8.7196
X-75.9834 Y8.71
X-75.9844 Y8.7003
X-75.9848 Y8.6905
X-75.9846 Y8.6808
X-75.9838 Y8.671
X-75.9824 Y8.6614
X-75.9803 Y8.6518
X-75.9777 Y8.6424
X-75.9744 Y8.6332
X-75.9706 Y8.6242
X-75.9663 Y8.6155
X-75.9614 Y8.607
X-75.9559 Y8.5989
X-75.95 Y8.5912
X-75.9436 Y8.5838
X-75.9367 Y8.5769
X-75.9294 Y8.5704
X-75.9218 Y8.5643
X-75.9137 Y8.5588
X-75.9053 Y8.5538
X-75.8966 Y8.5493
X-75.8877 Y8.5454
X-75.8785 Y8.5421
X-75.8692 Y8.5393
X-75.8596 Y8.5372
X-75.85 Y8.5356
X-75.8403 Y8.5347
X-75.8305 Y8.5343
X-75.8208 Y8.5346
X-75.811 Y8.5355
X-75.8014 Y8.537
X-75.7919 Y8.5392
X-75.7825 Y8.5419
X-75.7733 Y8.5452
X-75.7644 Y8.5491
X-75.7557 Y8.5535
X-75.7473 Y8.5585
X-75.7392 Y8.564
X-75.7315 Y8.57
X-75.7242 Y8.5764
X-75.7173 Y8.5834
X-75.7108 Y8.5907
X-75.7049 Y8.5984
X-75.6994 Y8.6065
X-75.6945 Y8.6149
X-75.6901 Y8.6236
X-75.6862 Y8.6326
X-75.683 Y8.6418
X-75.677 Y8.651
X-75.6715 Y8.6605
X-75.6666 Y8.6703
X-75.6622 Y8.6804
X-75.6585 Y8.6907
X-75.6553 Y8.7012
X-75.6527 Y8.7119
X-75.6508 Y8.7227
X-75.6494 Y8.7336
X-75.6487 Y8.7445
X-75.6486 Y8.7555
X-75.6491 Y8.7664
X-75.6503 Y8.7773
X-75.652 Y8.7882
X-75.6544 Y8.7989
X-75.6574 Y8.8094
X-75.661 Y8.8198
X-75.6651 Y8.83
X-75.6699 Y8.8399
X-75.6751 Y8.8495
X-75.681 Y8.8588
X-75.6873 Y8.8677
X-75.6942 Y8.8763
X-75.7015 Y8.8845
X-75.7092 Y8.8922
X-75.7174 Y8.8995
X-75.726 Y8.9063
X-75.735 Y8.9126
X-75.7443 Y8.9184
X-75.754 Y8.9237
X-75.7639 Y8.9284
X-75.774 Y8.9325
X-75.7844 Y8.936
X-75.795 Y8.939
X-75.8057 Y8.9413
X-75.8165 Y8.943
X-75.8275 Y8.9441
X-75.8384 Y8.9446
X-75.8494 Y8.9445
X-75.8603 Y8.9437
X-75.8712 Y8.9423
X-75.882 Y8.9403
X-75.8926 Y8.9377
X-75.9031 Y8.9345
X-75.9134 Y8.9307
X-75.9235 Y8.9263
X-75.9333 Y8.9213
X-75.9428 Y8.9158
X-75.9519 Y8.9098
X-75.9607 Y8.9033
X-75.9691 Y8.8962
X-75.9771 Y8.8887
X-75.9847 Y8.8808
G3 X-76.0786 Y8.6697 I0.1253 J-0.1821
G1 X-76.0658 Y8.6294
X-76.0582 Y8.6057
X-76.053 Y8.5941
X-76.0473 Y8.5827
X-76.0411 Y8.5716
X-76.0343 Y8.5609
X-76.027 Y8.5504
X-76.0191 Y8.5404
X-76.0108 Y8.5308
X-76.002 Y8.5216
X-75.9928 Y8.5128
X-75.9832 Y8.5045
X-75.9731 Y8.4967
X-75.9627 Y8.4894
X-75.9519 Y8.4826
X-75.9409 Y8.4763
X-75.9295 Y8.4706
X-75.9178 Y8.4655
X-75.9059 Y8.461
X-75.8938 Y8.457
X-75.8816 Y8.4537
X-75.8691 Y8.451
X-75.8566 Y8.4488
X-75.8439 Y8.4474
X-75.8312 Y8.4465
X-75.8185 Y8.4463
X-75.8058 Y8.4466
X-75.7931 Y8.4477
X-75.7805 Y8.4493
X-75.768 Y8.4516
X-75.7556 Y8.4545
X-75.7433 Y8.458
X-75.7313 Y8.4621
X-75.7195 Y8.4668
X-75.7079 Y8.472
X-75.6966 Y8.4778
X-75.6855 Y8.4842
X-75.6749 Y8.4912
X-75.6645 Y8.4986
X-75.6546 Y8.5065
X-75.6451 Y8.515
X-75.6359 Y8.5238
X-75.6273 Y8.5332
X-75.6191 Y8.5429
X-75.6114 Y8.553
X-75.6042 Y8.5635
X-75.5975 Y8.5744
X-75.5914 Y8.5855
X-75.5859 Y8.597
X-75.5809 Y8.6087
X-75.5765 Y8.6206
X-75.5727 Y8.6328
X-75.5695 Y8.6451
X-75.5669 Y8.6576
X-75.5649 Y8.6701
X-75.5636 Y8.6828
X-75.6428 Y8.91
X-75.6498 Y8.9206
X-75.6573 Y8.9309
X-75.6653 Y8.9409
X-75.6737 Y8.9504
X-75.6826 Y8.9595
X-75.6919 Y8.9682
X-75.7016 Y8.9765
X-75.7117 Y8.9842
X-75.7221 Y8.9915
X-75.7329 Y8.9982
X-75.744 Y9.0045
X-75.7554 Y9.0102
X-75.7671 Y9.0153
X-75.779 Y9.0199
X-75.791 Y9.0239
X-75.8033 Y9.0273
X-75.8157 Y9.0301
X-75.8283 Y9.0323
X-75.8409 Y9.034
X-75.8536 Y9.035
X-75.8663 Y9.0354
X-75.879 Y9.0352
X-75.8917 Y9.0344
X-75.9044 Y9.0329
X-75.917 Y9.0309
X-75.9294 Y9.0283
X-75.9417 Y9.0251
X-75.9539 Y9.0212
X-75.9658 Y9.0169
X-75.9775 Y9.0119
X-75.989 Y9.0064
X-76.0002 Y9.0003
X-76.0111 Y8.9938
X-76.0217 Y8.9867
X-76.0319 Y8.9791
X-76.0417 Y8.971
X-76.0512 Y8.9624
X-76.0602 Y8.9535
X-76.0688 Y8.9441
X-76.0769 Y8.9343
X-76.0845 Y8.9241
X-76.0917 Y8.9135
X-76.0983 Y8.9027
X-76.1044 Y8.8915
X-76.1126 Y8.8925
X-76.1133 Y8.8898
Y8.887
G3 X-76.0786 Y8.6697 I1.0485 J0.0561
X-76.0726 Y8.6616 I0.0149 J0.0047
G2 X-76.0672 Y8.6552 I-0.0089 J-0.0129
G1 X-76.0622 Y8.6441
X-76.0598 Y8.6389
X-76.0589 Y8.6363
G2 X-76.0588 Y8.6289 I-0.0151 J-0.0039
G3 X-76.0582 Y8.6057 I0.0456 J-0.0104
X-75.9372 Y8.4048 I0.6204 J0.2366
G1 X-75.9261 Y8.398
X-75.9146 Y8.3917
X-75.9029 Y8.386
X-75.891 Y8.3808
X-75.8788 Y8.3762
X-75.8664 Y8.3721
X-75.8538 Y8.3686
X-75.8411 Y8.3656
X-75.8283 Y8.3633
X-75.8154 Y8.3615
X-75.8024 Y8.3604
X-75.7894 Y8.3598
X-75.7763 Y8.3599
X-75.7633 Y8.3605
X-75.7503 Y8.3617
X-75.7374 Y8.3636
X-75.7246 Y8.366
X-75.7119 Y8.369
X-75.6994 Y8.3726
X-75.687 Y8.3768
X-75.6748 Y8.3815
X-75.6629 Y8.3868
X-75.6513 Y8.3926
X-75.6399 Y8.3989
X-75.6288 Y8.4058
X-75.618 Y8.4131
X-75.6076 Y8.421
X-75.5976 Y8.4293
X-75.5879 Y8.4381
X-75.5787 Y8.4473
X-75.5699 Y8.4569
X-75.5615 Y8.4669
X-75.5537 Y8.4773
X-75.5463 Y8.4881
X-75.5394 Y8.4991
X-75.533 Y8.5105
X-75.5271 Y8.5221
X-75.5218 Y8.5341
X-75.5171 Y8.5462
X-75.5115 Y8.5476
X-75.5122 Y8.5509
X-75.5601 Y8.6825
G3 X-75.5724 Y8.6921 I-0.0145 J-0.0059
X-75.618 Y8.6346 I-0.006 J-0.0421
X-75.5245 Y8.5605 I0.1101 J0.0428
G2 X-75.5122 Y8.5509 I-0.0022 J-0.0155
G1 X-75.4977 Y8.5112
G2 X-75.7552 Y8.2719 I-0.2352 J-0.0052
X-75.8115 Y8.2638 I-0.0322 J0.0244
G1 X-75.9263 Y8.3912
X-75.9278 Y8.393
X-75.9372 Y8.4048
G2 X-75.939 Y8.4203 I0.0126 J0.0093
X-75.9104 Y8.4366 I0.0251 J-0.0109
X-75.8142 Y8.2792 I-0.0148 J-0.1172
G3 X-75.8115 Y8.2638 I0.0147 J-0.0053
G1 X-75.7788 Y8.2275
X-75.7676 Y8.2223
X-75.756 Y8.2176
X-75.7443 Y8.2134
X-75.7324 Y8.2099
X-75.7202 Y8.207
X-75.708 Y8.2047
X-75.6957 Y8.2031
X-75.6833 Y8.202
X-75.6708 Y8.2016
X-75.6584 Y8.2018
X-75.646 Y8.2027
X-75.6336 Y8.2041
X-75.6213 Y8.2062
X-75.6092 Y8.2089
X-75.5972 Y8.2123
X-75.5854 Y8.2162
X-75.5738 Y8.2207
X-75.5624 Y8.2258
X-75.5513 Y8.2315
X-75.5405 Y8.2377
X-75.5301 Y8.2444
X-75.52 Y8.2517
X-75.5103 Y8.2595
X-75.501 Y8.2677
X-75.4921 Y8.2765
X-75.4836 Y8.2856
X-75.4757 Y8.2952
X-75.4682 Y8.3051
X-75.4613 Y8.3155
X-75.4548 Y8.3261
X-75.449 Y8.3371
X-75.4437 Y8.3484
X-75.4396 Y8.3501
X-75.4403 Y8.3534
X-75.4977 Y8.5112
G3 X-75.51 Y8.5208 I-0.0145 J-0.0059
X-75.5541 Y8.4838 I-0.0054 J-0.0383
X-75.4526 Y8.363 I0.118 J-0.0039
G2 X-75.4403 Y8.3534 I-0.0022 J-0.0155
G1 X-75.4263 Y8.3149
X-75.427 Y8.3034
X-75.4283 Y8.292
X-75.4302 Y8.2806
X-75.4326 Y8.2694
X-75.4357 Y8.2583
X-75.4394 Y8.2473
X-75.4437 Y8.2366
X-75.4485 Y8.2261
X-75.4539 Y8.2159
X-75.4598 Y8.206
X-75.4662 Y8.1965
X-75.4731 Y8.1873
X-75.4805 Y8.1784
X-75.4884 Y8.17
X-75.4967 Y8.162
X-75.5054 Y8.1545
X-75.5145 Y8.1474
X-75.524 Y8.1408
X-75.5338 Y8.1348
X-75.5439 Y8.1292
X-75.5543 Y8.1243
X-75.5649 Y8.1198
X-75.5758 Y8.116
X-75.5868 Y8.1127
X-75.5981 Y8.1101
X-75.6094 Y8.108
X-75.6208 Y8.1065
X-75.6323 Y8.1057
X-75.6438 Y8.1054
X-75.6554 Y8.1058
X-75.6668 Y8.1068
X-75.6698 Y8.1065
X-75.7788 Y8.2275
G2 X-75.7816 Y8.2429 I0.012 J0.0101
X-75.7234 Y8.2638 I0.0377 J-0.0137
X-75.6725 Y8.1219 I-0.0602 J-0.1016
G3 X-75.6698 Y8.1065 I0.0147 J-0.0053
G1 X-75.6428 Y8.0766
G3 X-75.3733 Y8.1693 I0.091 J0.1735
G1 X-75.4263 Y8.3149
G3 X-75.4386 Y8.3246 I-0.0145 J-0.0059
X-75.4856 Y8.2765 I-0.0058 J-0.0412
X-75.3856 Y8.1789 I0.1165 J0.0194
G2 X-75.3733 Y8.1693 I-0.0022 J-0.0155
G1 X-75.3601 Y8.133
G2 X-75.5401 Y7.9626 I-0.1705 J-0.0001
G1 X-75.6428 Y8.0766
G2 X-75.6456 Y8.092 I0.012 J0.0101
X-75.58 Y8.1104 I0.0394 J-0.0143
X-75.5429 Y7.978 I-0.0739 J-0.0921
G3 X-75.5401 Y7.9626 I0.0147 J-0.0053
G1 X-75.5174 Y7.9374
G3 X-75.3095 Y7.9959 I0.0791 J0.1177
G1 X-75.3601 Y8.133
G3 X-75.3724 Y8.1426 I-0.0145 J-0.0059
X-75.419 Y8.088 I-0.006 J-0.0421
X-75.3227 Y8.006 I0.1128 J0.0349
G2 X-75.3104 Y7.9963 I-0.0022 J-0.0155
G1 X-75.2999 Y7.9675
G2 X-75.4228 Y7.8308 I-0.1195 J-0.0163
G1 X-75.5174 Y7.9374
G2 X-75.5155 Y7.9595 I0.012 J0.0101
X-75.4965 Y7.9622 I0.0117 J-0.0139
X-75.4264 Y7.8438 I-0.0476 J-0.1081
G3 X-75.4228 Y7.8324 I0.0156 J-0.0014
G1 X-75.4032 Y7.8107
G3 X-75.3545 Y7.8004 I0.0275 J0.0098
X-75.3601 Y7.8164 I-0.0152 J0.0036
G1 X-75.3704 Y7.8244
X-75.3817 Y7.8331
G3 X-75.4032 Y7.8107 I-0.0096 J-0.0124
G1 X-75.3721 Y7.7762
X-75.3713 Y7.7753
X-75.3701 Y7.774
X-75.3659 Y7.7697
X-75.3645 Y7.7695
X-75.3633 Y7.7701
X-75.3625 Y7.7713
G3 X-75.3616 Y7.7766 I-0.0383 J0.0091
G1 X-75.3702 Y7.7801
X-75.3701 Y7.774
X-75.3645 Y7.7677
X-75.3639 Y7.767
G2 X-75.2836 Y7.9241 I0.37 J-0.09
G1 X-75.2999 Y7.9675
G3 X-75.3255 Y7.9727 I-0.0145 J-0.0059
G1 X-75.3277 Y7.9705 Z-0.1297
X-75.3297 Y7.9685 Z-0.1288
X-75.3316 Y7.9665 Z-0.1274
X-75.3333 Y7.9649 Z-0.1254
X-75.3347 Y7.9635 Z-0.123
X-75.3357 Y7.9625 Z-0.1203
X-75.3363 Y7.9618 Z-0.1174
X-75.3365 Y7.9616 Z-0.1143
G0 Z-0.0987
X-75.6438 Y8.8637
G1 Z-0.1143 F60.
X-75.6437 Y8.864 Z-0.1174
X-75.6436 Y8.8649 Z-0.1203
X-75.6433 Y8.8663 Z-0.123
X-75.6429 Y8.8683 Z-0.1254
X-75.6425 Y8.8706 Z-0.1274
X-75.642 Y8.8732 Z-0.1288
X-75.6415 Y8.8761 Z-0.1297
X-75.6409 Y8.8791 Z-0.13
G3 X-75.6428 Y8.91 I-0.0612 J0.0116
G1 X-75.6869 Y9.0312
G3 X-76.0525 Y9.0642 I-0.1976 J-0.1472
X-76.1286 Y9.0123 I-0.006 J-0.0729
G1 X-76.1133 Y8.887
G3 X-76.1035 Y8.8748 I0.0155 J0.0024
X-76.0831 Y8.8809 I0.0063 J0.0162
X-76.1188 Y9.0002 I-0.0641 J0.0458
G2 X-76.1286 Y9.0123 I0.0056 J0.0146
G1 X-76.1338 Y9.0548
X-76.1294 Y9.0666
X-76.1245 Y9.0781
X-76.1191 Y9.0894
X-76.113 Y9.1004
X-76.1065 Y9.1111
X-76.0994 Y9.1214
X-76.0918 Y9.1314
X-76.0837 Y9.141
X-76.0751 Y9.1501
X-76.0661 Y9.1589
X-76.0567 Y9.1671
X-76.0469 Y9.1749
X-76.0367 Y9.1822
X-76.0261 Y9.189
X-76.0153 Y9.1952
X-76.0041 Y9.2009
X-75.9926 Y9.206
X-75.981 Y9.2106
X-75.9691 Y9.2145
X-75.957 Y9.2179
X-75.9447 Y9.2206
X-75.9324 Y9.2228
X-75.9199 Y9.2243
X-75.9074 Y9.2252
X-75.8949 Y9.2255
X-75.8824 Y9.2251
X-75.8699 Y9.2242
X-75.8574 Y9.2226
X-75.8451 Y9.2204
X-75.8329 Y9.2175
X-75.8208 Y9.2141
X-75.809 Y9.2101
X-75.7973 Y9.2055
G2 X-75.747 Y9.1962 I0.021 J-0.027
G1 X-75.6869 Y9.0312
G2 X-75.6902 Y9.0159 I-0.0149 J-0.0048
X-75.7399 Y9.0128 I-0.0264 J0.0237
X-75.7502 Y9.1809 I0.0775 J0.0891
G3 X-75.747 Y9.1962 I-0.0116 J0.0105
G1 X-75.761 Y9.2346
G3 X-76.1017 Y9.2443 I-0.1749 J-0.1527
X-76.1525 Y9.2086 I-0.0097 J-0.0403
G1 X-76.1338 Y9.0548
G3 X-76.1239 Y9.0426 I0.0155 J0.0024
X-76.0673 Y9.0789 I0.015 J0.0389
X-76.1427 Y9.1964 I-0.1179 J0.0073
G2 X-76.1525 Y9.2086 I0.0056 J0.0146
G1 X-76.1568 Y9.2439
X-76.1537 Y9.2551
X-76.1499 Y9.2662
X-76.1456 Y9.2771
X-76.1407 Y9.2877
X-76.1352 Y9.298
X-76.1292 Y9.308
X-76.1227 Y9.3177
X-76.1156 Y9.327
X-76.1081 Y9.3359
X-76.1001 Y9.3445
X-76.0916 Y9.3525
X-76.0827 Y9.3601
X-76.0735 Y9.3672
X-76.0638 Y9.3738
X-76.0538 Y9.3799
X-76.0436 Y9.3855
X-76.033 Y9.3904
X-76.0222 Y9.3949
X-76.0111 Y9.3987
X-75.9999 Y9.4019
X-75.9885 Y9.4045
X-75.977 Y9.4065
X-75.9654 Y9.4079
X-75.9537 Y9.4087
X-75.942 Y9.4088
X-75.9304 Y9.4083
X-75.9187 Y9.4072
X-75.9072 Y9.4054
X-75.8957 Y9.4031
X-75.8844 Y9.4001
X-75.8733 Y9.3965
X-75.8624 Y9.3924
X-75.8592 Y9.395
X-75.8557 Y9.3972
X-75.852 Y9.3989
X-75.848 Y9.4
X-75.8439 Y9.4006
X-75.8398
X-75.8357 Y9.4001
X-75.8317 Y9.3989
X-75.8279 Y9.3973
X-75.8244 Y9.3951
X-75.8212 Y9.3925
X-75.8184 Y9.3895
X-75.8161 Y9.3861
X-75.761 Y9.2346
G2 X-75.7642 Y9.2193 I-0.0149 J-0.0048
X-75.8272 Y9.2226 I-0.0302 J0.0271
X-75.8193 Y9.3708 I0.0957 J0.0692
G3 X-75.8161 Y9.386 I-0.0116 J0.0105
G1 X-75.8286 Y9.4203
G3 X-76.0163 Y9.484 I-0.1342 J-0.087
X-76.011 Y9.4576 I0.0105 J-0.0116
G1 X-75.8486 Y9.4007
X-75.8468 Y9.4002
X-75.8449 Y9.3999
G3 X-75.8286 Y9.4203 I0.0014 J0.0156
G1 X-75.859 Y9.5039
G3 X-75.9245 Y9.5577 I-0.0708 J-0.0194
X-75.9268 Y9.5346 I0.0093 J-0.0126
G1 X-75.9236 Y9.5311
X-75.8855 Y9.4886
G3 X-75.859 Y9.5039 I0.0116 J0.0105
G1 X-75.8848 Y9.5748
X-75.8874 Y9.5821
X-75.8878 Y9.5827
G2 X-76.1389 Y9.4083 I-0.6789 J0.7094
G3 X-76.1738 Y9.3829 I-0.0063 J-0.028
X-76.1534 Y9.3705 I0.0155 J0.0024
G1 X-76.1498 Y9.3717
X-76.1296 Y9.3784
G3 X-76.1389 Y9.4083 I-0.005 J0.0148
G1 X-76.1749 Y9.3963
X-76.1753 Y9.3958
X-76.1568 Y9.2439
G3 X-76.148 Y9.2322 I0.0155 J0.0024
G1 X-76.1457 Y9.2317 Z-0.1298
X-76.1435 Y9.2312 Z-0.1293
X-76.1414 Y9.2307 Z-0.1284
X-76.1393 Y9.2311 Z-0.1272
X-76.1375 Y9.2316 Z-0.1256
X-76.1359 Y9.2319 Z-0.1237
X-76.1346 Y9.2322 Z-0.1217
X-76.1337 Y9.2327 Z-0.1193
X-76.1332 Y9.233 Z-0.1169
X-76.133 Y9.2331 Z-0.1144
G0 Z0.4
X-75.3138 Y11.0689
Z0.1
G3 X-75.4057 Y11.0152 Z0.0791 I-0.0197 J-0.0717 F13.333
X-75.3497 Y10.9247 Z0.0582 I0.0721 J-0.0179
X-75.2606 Y10.9828 Z0.0373 I0.0162 J0.0726
X-75.3209 Y11.0705 Z0.0164 I-0.0729 J0.0144
X-75.4071 Y11.0081 Z-0.0045 I-0.0126 J-0.0733
X-75.3426 Y10.9235 Z-0.0255 I0.0735 J-0.0108
X-75.3245 Y11.071 Z-0.0666 I0.009 J0.0738
X-75.3426 Y10.9235 Z-0.1078 I-0.009 J-0.0738
X-75.2592 Y10.9972 Z-0.13 I0.009 J0.0738
X-75.4079 I-0.0743 J0.
X-75.2594 Y10.991 I0.0743 J0.
G1 X-75.2592 Y10.9972
G3 X-75.4246 Y11.1155 I-0.0855 J0.0551 F60.
G1 X-75.4324 Y11.1096
X-75.4398 Y11.1033
X-75.4468 Y11.0965
X-75.4533 Y11.0892
X-75.4594 Y11.0816
X-75.465 Y11.0736
X-75.4701 Y11.0652
X-75.4746 Y11.0566
X-75.4786 Y11.0477
X-75.482 Y11.0385
X-75.4849 Y11.0292
X-75.4871 Y11.0197
X-75.4887 Y11.0101
X-75.4898 Y11.0003
X-75.4902 Y10.9906
X-75.49 Y10.9808
X-75.4891 Y10.9711
X-75.4877 Y10.9614
X-75.4857 Y10.9519
X-75.483 Y10.9425
X-75.4798 Y10.9333
X-75.476 Y10.9243
X-75.4716 Y10.9155
X-75.4667 Y10.9071
X-75.4613 Y10.899
X-75.4553 Y10.8912
X-75.4489 Y10.8839
X-75.4421 Y10.8769
X-75.4348 Y10.8704
X-75.4271 Y10.8644
X-75.4191 Y10.8589
X-75.4107 Y10.8539
X-75.402 Y10.8494
X-75.393 Y10.8455
X-75.3839 Y10.8421
X-75.3745 Y10.8394
X-75.365 Y10.8372
X-75.3553 Y10.8357
X-75.3456 Y10.8347
X-75.3359 Y10.8344
X-75.3261 Y10.8347
X-75.3164 Y10.8356
X-75.3067 Y10.8371
X-75.2972 Y10.8392
X-75.2878 Y10.8419
X-75.2787 Y10.8452
X-75.2697 Y10.8491
X-75.261 Y10.8536
X-75.2526 Y10.8585
X-75.2445 Y10.864
X-75.2368 Y10.87
X-75.2295 Y10.8765
X-75.2226 Y10.8834
X-75.2162 Y10.8907
X-75.2102 Y10.8985
X-75.2048 Y10.9066
X-75.1998 Y10.915
X-75.1954 Y10.9237
X-75.1916 Y10.9327
X-75.1883 Y10.9419
X-75.1823 Y10.9511
X-75.1768 Y10.9606
X-75.1719 Y10.9704
X-75.1676 Y10.9805
X-75.1638 Y10.9908
X-75.1606 Y11.0013
X-75.1581 Y11.0119
X-75.1561 Y11.0227
X-75.1548 Y11.0336
X-75.154 Y11.0446
X-75.1539 Y11.0555
X-75.1545 Y11.0665
X-75.1556 Y11.0774
X-75.1574 Y11.0882
X-75.1597 Y11.0989
X-75.1627 Y11.1095
X-75.1663 Y11.1199
X-75.1705 Y11.13
X-75.1752 Y11.1399
X-75.1805 Y11.1495
X-75.1863 Y11.1588
X-75.1926 Y11.1678
X-75.1995 Y11.1764
X-75.2068 Y11.1845
X-75.2146 Y11.1923
X-75.2228 Y11.1996
X-75.2314 Y11.2064
X-75.2404 Y11.2127
X-75.2497 Y11.2185
X-75.2593 Y11.2237
X-75.2692 Y11.2284
X-75.2794 Y11.2325
X-75.2898 Y11.2361
X-75.3003 Y11.239
X-75.311 Y11.2413
X-75.3219 Y11.2431
X-75.3328 Y11.2442
X-75.3438 Y11.2447
X-75.3547 Y11.2445
X-75.3657 Y11.2438
X-75.3765 Y11.2424
X-75.3873 Y11.2404
X-75.398 Y11.2377
X-75.4085 Y11.2345
X-75.4188 Y11.2307
X-75.4288 Y11.2263
X-75.4386 Y11.2214
X-75.4481 Y11.2159
X-75.4573 Y11.2099
X-75.4661 Y11.2033
X-75.4745 Y11.1963
X-75.4825 Y11.1888
X-75.49 Y11.1809
X-75.4997 Y11.1734
X-75.5089 Y11.1655
X-75.5177 Y11.1571
X-75.5261 Y11.1483
X-75.534 Y11.1391
X-75.5415 Y11.1294
X-75.5484 Y11.1194
X-75.5548 Y11.1091
X-75.5606 Y11.0984
X-75.5659 Y11.0874
X-75.5707 Y11.0762
X-75.5748 Y11.0648
X-75.5784 Y11.0531
X-75.5813 Y11.0413
X-75.5836 Y11.0294
X-75.5854 Y11.0174
X-75.5865 Y11.0052
X-75.5869 Y10.9931
X-75.5868 Y10.9809
X-75.586 Y10.9688
X-75.5846 Y10.9567
X-75.5826 Y10.9447
X-75.58 Y10.9328
X-75.5767 Y10.9211
X-75.5729 Y10.9095
X-75.5684 Y10.8982
X-75.5634 Y10.8871
X-75.5579 Y10.8763
X-75.5518 Y10.8658
X-75.5451 Y10.8556
X-75.5379 Y10.8458
X-75.5303 Y10.8363
X-75.5221 Y10.8273
X-75.5135 Y10.8186
X-75.5045 Y10.8105
X-75.4951 Y10.8028
X-75.4853 Y10.7956
X-75.4751 Y10.7889
X-75.4646 Y10.7828
X-75.4538 Y10.7772
X-75.4427 Y10.7722
G3 X-75.0674 Y10.9696 I0.1079 J0.2503
G1 Y10.993
X-75.0664 Y11.0402
X-75.0651 Y11.052
X-75.0652 Y11.0651
X-75.066 Y11.0782
X-75.0673 Y11.0912
X-75.0693 Y11.1041
X-75.0718 Y11.117
X-75.075 Y11.1296
X-75.0787 Y11.1422
X-75.083 Y11.1545
X-75.0879 Y11.1667
X-75.0933 Y11.1786
X-75.0993 Y11.1902
X-75.1058 Y11.2015
X-75.1129 Y11.2126
X-75.1204 Y11.2232
X-75.1284 Y11.2336
X-75.1369 Y11.2435
X-75.1459 Y11.253
X-75.1553 Y11.2621
X-75.1651 Y11.2708
X-75.1753 Y11.279
X-75.1858 Y11.2867
X-75.1967 Y11.2939
X-75.208 Y11.3006
X-75.2195 Y11.3068
X-75.2313 Y11.3124
X-75.2433 Y11.3175
X-75.2556 Y11.322
X-75.2681 Y11.3259
X-75.2807 Y11.3293
X-75.2935 Y11.3321
X-75.3064 Y11.3342
X-75.3194 Y11.3358
X-75.3324 Y11.3367
X-75.3455 Y11.3371
X-75.3586 Y11.3368
X-75.3716 Y11.336
X-75.3846 Y11.3345
X-75.3975 Y11.3324
X-75.4103 Y11.3298
X-75.423 Y11.3265
X-75.4355 Y11.3227
X-75.4478 Y11.3182
X-75.4599 Y11.3132
X-75.4717 Y11.3077
X-75.4833 Y11.3016
X-75.6415 Y10.9693
X-75.643 Y10.9564
X-75.644 Y10.9434
X-75.6443 Y10.9304
X-75.644 Y10.9174
X-75.6431 Y10.9044
X-75.6416 Y10.8915
X-75.6395 Y10.8787
X-75.6368 Y10.8659
X-75.6335 Y10.8533
X-75.6297 Y10.8409
X-75.6252 Y10.8287
X-75.6202 Y10.8167
X-75.6146 Y10.8049
X-75.6085 Y10.7934
X-75.6019 Y10.7823
X-75.5947 Y10.7714
X-75.5871 Y10.7609
X-75.579 Y10.7507
X-75.5704 Y10.7409
X-75.5613 Y10.7316
X-75.5518 Y10.7227
X-75.542 Y10.7142
X-75.5317 Y10.7062
X-75.5211 Y10.6987
X-75.5101 Y10.6917
X-75.4988 Y10.6852
X-75.4873 Y10.6793
X-75.4754 Y10.6739
X-75.4634 Y10.669
X-75.4511 Y10.6647
X-75.4386 Y10.661
X-75.426 Y10.6579
X-75.4132 Y10.6554
X-75.4004 Y10.6535
X-75.3874 Y10.6521
X-75.3744 Y10.6514
X-75.3614 Y10.6513
X-75.3484 Y10.6518
X-75.3355 Y10.6529
X-75.3226 Y10.6546
X-75.3098 Y10.6569
X-75.3059 Y10.6512
X-75.3035 Y10.6523
X-75.3014 Y10.6539
X-75.0559 Y10.8978
G3 X-75.0674 Y10.9696 I-0.1847 J0.0073
X-75.0756 Y10.9829 I-0.0156 J-0.0005
X-75.1876 Y10.9773 I-0.0513 J-0.0958
X-75.3017 Y10.6832 I0.1537 J-0.2288
G1 X-75.2978 Y10.6692
G2 X-75.3014 Y10.6539 I-0.015 J-0.0045
G1 X-75.3408 Y10.6148
X-75.3523 Y10.6096
X-75.3639 Y10.6049
X-75.3758 Y10.6009
X-75.3878 Y10.5974
X-75.4 Y10.5945
X-75.4124 Y10.5923
X-75.4248 Y10.5906
X-75.4373 Y10.5895
X-75.4499 Y10.5891
X-75.4624 Y10.5893
X-75.4749 Y10.5901
X-75.4874 Y10.5915
X-75.4998 Y10.5935
X-75.512 Y10.5961
X-75.5242 Y10.5993
X-75.5361 Y10.6031
X-75.5479 Y10.6075
X-75.5594 Y10.6124
X-75.5707 Y10.618
X-75.5816 Y10.624
X-75.5923 Y10.6306
X-75.6026 Y10.6377
X-75.6126 Y10.6453
X-75.6222 Y10.6534
X-75.6314 Y10.6619
X-75.6402 Y10.6709
X-75.6485 Y10.6803
X-75.6563 Y10.6901
X-75.6636 Y10.7003
X-75.6705 Y10.7108
X-75.6768 Y10.7216
X-75.6825 Y10.7328
X-75.6878 Y10.7442
X-75.6924 Y10.7558
X-75.6965 Y10.7677
G2 X-75.7202 Y10.8038 I0.0036 J0.0282
G1 X-75.6415 Y10.9693
G2 X-75.6283 Y10.9777 I0.0139 J-0.0072
X-75.5965 Y10.9527 I0.0014 J-0.0309
X-75.707 Y10.8122 I-0.1159 J-0.0226
G3 X-75.7202 Y10.8037 I0.0007 J-0.0156
G1 X-75.7402 Y10.7615
X-75.7405 Y10.7492
X-75.7401 Y10.7368
X-75.7392 Y10.7245
X-75.7376 Y10.7123
X-75.7355 Y10.7001
X-75.7327 Y10.6881
X-75.7294 Y10.6762
X-75.7255 Y10.6645
X-75.721 Y10.653
X-75.716 Y10.6417
X-75.7104 Y10.6307
X-75.7043 Y10.62
X-75.6976 Y10.6095
X-75.6905 Y10.5995
X-75.6828 Y10.5898
X-75.6747 Y10.5804
X-75.6662 Y10.5715
X-75.6572 Y10.563
X-75.6478 Y10.555
X-75.6381 Y10.5474
X-75.628 Y10.5404
X-75.6175 Y10.5338
X-75.6067 Y10.5278
X-75.5957 Y10.5222
X-75.5844 Y10.5173
X-75.5728 Y10.5129
X-75.5611 Y10.5091
X-75.5492 Y10.5058
X-75.5371 Y10.5032
X-75.5249 Y10.5011
X-75.5127 Y10.4996
X-75.5004 Y10.4988
X-75.488 Y10.4985
X-75.4757 Y10.4989
X-75.4726 Y10.4896
X-75.4693 Y10.4898
X-75.4661 Y10.491
X-75.4635 Y10.493
X-75.3408 Y10.6148
G3 X-75.3373 Y10.63 I-0.0114 J0.0107
X-75.3841 Y10.6543 I-0.0352 J-0.0106
X-75.4599 Y10.5082 I0.0373 J-0.1121
G2 X-75.4635 Y10.493 I-0.015 J-0.0045
G1 X-75.4932 Y10.4634
X-75.4989 Y10.4584
X-75.502 Y10.4562
X-75.5046 Y10.4549
X-75.5074 Y10.4543
X-75.5103 Y10.4544
G3 X-75.6086 Y10.4661 I-0.0819 J-0.2683
G2 X-75.8114 Y10.6153 I0.0183 J0.2373
G1 X-75.7402 Y10.7615
G2 X-75.727 Y10.77 I0.0139 J-0.0072
X-75.6852 Y10.7225 I0.0019 J-0.0405
X-75.7961 Y10.6246 I-0.1164 J0.02
G3 X-75.8093 Y10.6162 I0.0007 J-0.0156
G1 X-75.827 Y10.5788
G3 X-75.7753 Y10.4404 I0.1198 J-0.0341
G1 X-75.6665 Y10.4631
X-75.6428 Y10.4649
X-75.6086 Y10.4661
G3 X-75.6034 Y10.4961 I-0.0011 J0.0156
G1 X-75.8001 Y10.5829
X-75.8068 Y10.5859
G3 X-75.827 Y10.5788 I-0.0063 J-0.0143
G1 X-75.8613 Y10.5067
G3 X-75.8493 Y10.4233 I0.0457 J-0.036
X-75.8386 Y10.4365 I-0.0048 J0.0149
G1 X-75.8371 Y10.4493
X-75.8318 Y10.4977
G3 X-75.8613 Y10.5067 I-0.0156 J0.0017
G1 X-75.8941 Y10.4375
X-75.8964 Y10.432
X-75.8977 Y10.4261
X-75.8978 Y10.4256
X-75.8969 Y10.4202
X-75.8935 Y10.4158
X-75.8886 Y10.4134
X-75.883 Y10.4136
G3 X-75.8745 Y10.417 I-0.0233 J0.0718
X-75.8872 Y10.4442 I-0.0063 J0.0136
X-75.8941 Y10.4375 I0.0063 J-0.0136
G1 X-75.9042 Y10.4163
X-75.9049 Y10.4149
X-75.9054 Y10.4138
X-75.9077 Y10.4082
X-75.9074 Y10.4075
X-75.9068 Y10.4071
X-75.906
G3 X-75.9009 Y10.4091 I-0.0121 J0.0375
G1 X-75.9026 Y10.4156
X-75.9054 Y10.4138
X-75.9086 Y10.407
X-75.9082 Y10.4064
X-75.8082 Y10.435
X-75.7846 Y10.4401
X-75.7741 Y10.4422
G3 X-75.765 Y10.4667 I-0.0035 J0.0152
G1 X-75.7668 Y10.4691 Z-0.1297
X-75.7685 Y10.4715 Z-0.1288
X-75.7701 Y10.4737 Z-0.1274
X-75.7715 Y10.4756 Z-0.1254
X-75.7727 Y10.4772 Z-0.123
X-75.7735 Y10.4783 Z-0.1203
X-75.7741 Y10.4791 Z-0.1174
X-75.7742 Y10.4793 Z-0.1143
G0 Z-0.0987
X-75.4869 Y11.2558
G1 Z-0.1143 F60.
Y11.2561 Z-0.1174
X-75.487 Y11.257 Z-0.1203
X-75.4871 Y11.2584 Z-0.123
X-75.4873 Y11.2604 Z-0.1254
X-75.4875 Y11.2627 Z-0.1274
X-75.4878 Y11.2654 Z-0.1288
X-75.4881 Y11.2683 Z-0.1297
X-75.4883 Y11.2714 Z-0.13
G2 X-75.4835 Y11.3019 I0.062 J0.0058
G1 X-75.4574 Y11.3567
G2 X-75.0638 Y11.2935 I0.1709 J-0.1932
X-75.0051 Y11.2093 I-0.0146 J-0.0727
G3 X-75.0647 Y11.052 I0.3015 J-0.2042
G1 X-75.0657 Y11.0494
X-75.0671 Y11.047
X-75.0689 Y11.0449
X-75.071 Y11.0431
X-75.0734 Y11.0418
X-75.076 Y11.0409
G2 X-75.1526 Y11.1146 I-0.0167 J0.0593
X-75.0197 Y11.2036 I0.1148 J-0.0277
G3 X-75.0051 Y11.2093 I0.0024 J0.0155
G1 X-74.9853 Y11.2357
X-74.9835 Y11.247
X-74.9824 Y11.2585
X-74.9819 Y11.2699
X-74.982 Y11.2814
X-74.9827 Y11.2929
X-74.9841 Y11.3043
X-74.9861 Y11.3156
X-74.9886 Y11.3268
X-74.9918 Y11.3378
X-74.9956 Y11.3486
X-75. Y11.3592
X-75.005 Y11.3696
X-75.0105 Y11.3797
X-75.0165 Y11.3894
X-75.0231 Y11.3989
X-75.0302 Y11.4079
X-75.0377 Y11.4165
X-75.0457 Y11.4248
X-75.0542 Y11.4325
X-75.063 Y11.4398
X-75.0723 Y11.4466
X-75.0819 Y11.4529
X-75.0918 Y11.4587
X-75.102 Y11.4639
X-75.1125 Y11.4686
X-75.1232 Y11.4726
X-75.1342 Y11.4761
X-75.1453 Y11.479
X-75.1565 Y11.4812
X-75.1679 Y11.4829
X-75.1793 Y11.4839
G3 X-75.3881 Y11.506 I-0.1283 J-0.2156
G1 X-75.4574 Y11.3567
G3 X-75.4557 Y11.3412 I0.0144 J-0.0062
X-75.3941 Y11.3378 I0.0322 J0.0239
X-75.3857 Y11.4885 I-0.0865 J0.0805
G2 X-75.3875 Y11.5041 I0.0126 J0.0093
G1 X-75.3689 Y11.5431
X-75.3594 Y11.5507
X-75.3496 Y11.5579
X-75.3394 Y11.5645
X-75.3289 Y11.5706
X-75.3181 Y11.5761
X-75.307 Y11.5812
X-75.2957 Y11.5856
X-75.2841 Y11.5894
X-75.2724 Y11.5927
X-75.2605 Y11.5954
X-75.2486 Y11.5974
X-75.2365 Y11.5989
X-75.2243 Y11.5997
X-75.2122 Y11.5999
X-75.2 Y11.5995
X-75.1879 Y11.5985
X-75.1759 Y11.5969
X-75.1639 Y11.5946
X-75.1521 Y11.5918
X-75.1404 Y11.5883
X-75.1289 Y11.5843
X-75.1177 Y11.5797
X-75.1067 Y11.5745
X-75.096 Y11.5688
X-75.0855 Y11.5625
X-75.0754 Y11.5558
X-75.0657 Y11.5485
X-75.0564 Y11.5407
X-75.0474 Y11.5325
X-75.0389 Y11.5238
X-75.0308 Y11.5147
G2 X-74.9277 Y11.4221 I-0.0632 J-0.174
G1 X-74.9137 Y11.3076
G2 X-74.9658 Y11.2605 I-0.3965 J0.3866
G1 X-74.9723 Y11.253
X-74.9853 Y11.2357
G2 X-74.9999 Y11.23 I-0.0122 J0.0098
X-75.018 Y11.2518 I0.0033 J0.0212
X-74.9459 Y11.3991 I0.1968 J-0.005
G1 X-74.9343 Y11.4079
G3 X-74.9277 Y11.4221 I-0.009 J0.0128
G1 X-74.9389 Y11.5129
G3 X-75.3023 Y11.6832 I-0.2865 J-0.1386
G1 X-75.3689 Y11.5431
G3 X-75.3671 Y11.5276 I0.0144 J-0.0062
X-75.3 Y11.5278 I0.0335 J0.0248
X-75.3006 Y11.6677 I-0.0955 J0.0696
G2 X-75.3023 Y11.6832 I0.0126 J0.0093
G1 X-75.285 Y11.7197
G2 X-75.1085 Y11.7646 I0.1194 J-0.0998
G3 X-74.9552 Y11.6463 I0.3149 J0.2496
G1 X-74.9389 Y11.5129
G2 X-74.9629 Y11.4984 I-0.0156 J-0.0014
G1 X-75.2716 Y11.6955
X-75.2791 Y11.7003
G2 X-75.285 Y11.7197 I0.0084 J0.0132
G1 X-75.2485 Y11.7966
X-75.2449 Y11.8032
X-75.2409 Y11.8095
X-75.2363 Y11.8154
X-75.2313 Y11.821
X-75.2258 Y11.8261
X-75.22 Y11.8308
X-75.2138 Y11.835
X-75.2073 Y11.8387
X-75.2005 Y11.8419
X-75.1935 Y11.8445
X-75.1863 Y11.8466
X-75.179 Y11.848
X-75.1715 Y11.8489
X-75.1641 Y11.8492
X-75.1566 Y11.8489
G3 X-75.1085 Y11.7646 I0.1959 J0.0559
G2 X-75.1073 Y11.749 I-0.0129 J-0.0088
X-75.1712 Y11.7513 I-0.0314 J0.0152
X-75.1593 Y11.8297 I0.0732 J0.029
G3 X-75.1569 Y11.8451 I-0.0122 J0.0098
G1 X-75.1646 Y11.8632
G3 X-75.2081 Y11.8817 I-0.0279 J-0.0051
X-75.2058 Y11.8656 I0.0144 J-0.0062
G1 X-75.1971 Y11.8548
X-75.1913 Y11.8477
G3 X-75.1646 Y11.8632 I0.0122 J0.0099
G1 X-75.1704 Y11.8768
X-75.1757 Y11.8911
X-75.1772 Y11.8983
X-75.1787 Y11.9041
X-75.1819 Y11.9075
X-75.1862 Y11.9093
X-75.1908 Y11.9091
X-75.195 Y11.9069
X-75.1978 Y11.9032
G3 X-75.1992 Y11.899 I0.0236 J-0.0102
X-75.1774 Y11.8938 I0.0109 J-0.0026
X-75.1772 Y11.8983 I-0.0109 J0.0026
G1 X-75.1806 Y11.9148
X-75.1809 Y11.9166
X-75.1812 Y11.9179
X-75.1819 Y11.9209
X-75.1845 Y11.9226
X-75.1876 Y11.9222
X-75.1899 Y11.92
G3 X-75.1904 Y11.9183 I0.0092 J-0.004
G1 X-75.1833 Y11.9133
X-75.1812 Y11.9179
X-75.1825 Y11.9252
X-75.1828 Y11.9266
X-75.183 Y11.9278
X-75.1832 Y11.9289
X-75.1841 Y11.9294
X-75.1851 Y11.9293
X-75.1858 Y11.9286
X-75.186 Y11.928
Y11.927
X-75.1854 Y11.9263
X-75.1845 Y11.926
X-75.1837 Y11.9263
X-75.1831 Y11.9269
X-75.183 Y11.9278
X-75.1835 Y11.9306
X-75.1836 Y11.9311
X-75.1837 Y11.9317
X-75.184 Y11.9323
X-75.1842 Y11.9318
X-75.1837 Y11.9317
X-75.184 Y11.9324
X-75.2485 Y11.7966
G3 X-75.2342 Y11.7747 I0.0144 J-0.0062
G1 X-75.2311 Z-0.1297
X-75.2282 Z-0.1288
X-75.2255 Z-0.1274
X-75.2231 Z-0.1254
X-75.2212 Z-0.123
X-75.2197 Z-0.1203
X-75.2188 Z-0.1174
X-75.2185 Z-0.1143
G0 Z-0.0987
X-75.4744 Y10.5057
G1 Z-0.1143 F60.
X-75.4745 Y10.5054 Z-0.1174
X-75.4747 Y10.5045 Z-0.1203
X-75.4751 Y10.5031 Z-0.123
X-75.4756 Y10.5012 Z-0.1254
X-75.4762 Y10.4989 Z-0.1274
X-75.4768 Y10.4963 Z-0.1288
X-75.4776 Y10.4935 Z-0.1297
X-75.4783 Y10.4905 Z-0.13
G2 X-75.4932 Y10.4634 I-0.0603 J0.0156
G1 X-75.5026 Y10.4541
X-75.5033 Y10.4535
X-75.504
X-75.507 Y10.4538
X-75.5103 Y10.4544
G2 X-75.5128 Y10.4551 I0.003 J0.0154
G1 X-75.5148 Y10.4564 Z-0.1298
X-75.5168 Y10.4577 Z-0.1293
X-75.5186 Y10.4589 Z-0.1284
X-75.5197 Y10.4607 Z-0.1271
X-75.5207 Y10.4624 Z-0.1255
X-75.5215 Y10.4637 Z-0.1236
X-75.5222 Y10.4648 Z-0.1214
X-75.5224 Y10.4657 Z-0.1192
X-75.5226 Y10.4663 Z-0.1168
Y10.4665 Z-0.1144
G0 Z0.4
X-75.2223 Y9.6626
Z0.1
G3 X-75.3142 Y9.6088 Z0.0791 I-0.0197 J-0.0717 F13.333
X-75.2582 Y9.5183 Z0.0582 I0.0721 J-0.0179
X-75.1691 Y9.5765 Z0.0373 I0.0162 J0.0726
X-75.2294 Y9.6641 Z0.0164 I-0.0729 J0.0144
X-75.3156 Y9.6017 Z-0.0045 I-0.0126 J-0.0733
X-75.2511 Y9.5171 Z-0.0255 I0.0735 J-0.0108
X-75.168 Y9.5837 Z-0.0464 I0.009 J0.0738
X-75.2366 Y9.665 Z-0.0673 I-0.074 J0.0072
X-75.2475 Y9.5168 Z-0.1085 I-0.0054 J-0.0741
X-75.1677 Y9.5909 Z-0.13 I0.0054 J0.0741
X-75.3164 I-0.0743 J0.
X-75.1679 Y9.5847 I0.0743 J0.
G1 X-75.1677 Y9.5909
G3 X-75.3331 Y9.7091 I-0.0855 J0.0551 F60.
G1 X-75.3409 Y9.7033
X-75.3483 Y9.6969
X-75.3553 Y9.6901
X-75.3618 Y9.6829
X-75.3679 Y9.6752
X-75.3735 Y9.6672
X-75.3786 Y9.6589
X-75.3831 Y9.6503
X-75.3871 Y9.6413
X-75.3905 Y9.6322
X-75.3934 Y9.6228
X-75.3956 Y9.6133
X-75.3972 Y9.6037
X-75.3983 Y9.594
X-75.3987 Y9.5842
X-75.3985 Y9.5745
X-75.3976 Y9.5648
X-75.3962 Y9.5551
X-75.3942 Y9.5455
X-75.3915 Y9.5361
X-75.3883 Y9.5269
X-75.3845 Y9.5179
X-75.3801 Y9.5092
X-75.3752 Y9.5008
X-75.3698 Y9.4926
X-75.3638 Y9.4849
X-75.3574 Y9.4775
X-75.3506 Y9.4706
X-75.3433 Y9.4641
X-75.3356 Y9.4581
X-75.3275 Y9.4525
X-75.3192 Y9.4475
X-75.3105 Y9.443
X-75.3015 Y9.4391
X-75.2924 Y9.4358
X-75.283 Y9.433
X-75.2735 Y9.4309
X-75.2638 Y9.4293
X-75.2541 Y9.4284
X-75.2444 Y9.428
X-75.2346 Y9.4283
X-75.2249 Y9.4292
X-75.2152 Y9.4308
X-75.2057 Y9.4329
X-75.1963 Y9.4356
X-75.1871 Y9.4389
X-75.1782 Y9.4428
X-75.1695 Y9.4472
X-75.1611 Y9.4522
X-75.153 Y9.4577
X-75.1453 Y9.4637
X-75.138 Y9.4701
X-75.1311 Y9.4771
X-75.1247 Y9.4844
X-75.1187 Y9.4921
X-75.1133 Y9.5002
X-75.1083 Y9.5086
X-75.1039 Y9.5174
X-75.1001 Y9.5263
X-75.0968 Y9.5355
X-75.0908 Y9.5444
X-75.0853 Y9.5536
X-75.0803 Y9.5631
X-75.0758 Y9.5729
X-75.0719 Y9.5829
X-75.0686 Y9.5931
X-75.0659 Y9.6035
X-75.0638 Y9.614
X-75.0622 Y9.6247
X-75.0613 Y9.6354
X-75.0609 Y9.6461
X-75.0612 Y9.6568
X-75.0621 Y9.6675
X-75.0636 Y9.6781
X-75.0657 Y9.6887
X-75.0683 Y9.6991
X-75.0716 Y9.7093
X-75.0754 Y9.7193
X-75.0798 Y9.7291
X-75.0847 Y9.7387
X-75.0902 Y9.7479
X-75.0962 Y9.7568
X-75.1027 Y9.7654
X-75.1096 Y9.7736
X-75.117 Y9.7814
X-75.1248 Y9.7887
X-75.1331 Y9.7956
X-75.1417 Y9.802
X-75.1506 Y9.8079
X-75.1599 Y9.8134
X-75.1695 Y9.8182
X-75.1793 Y9.8226
X-75.1893 Y9.8263
X-75.1996 Y9.8295
X-75.21 Y9.8321
X-75.2206 Y9.8341
X-75.2312 Y9.8355
X-75.2419 Y9.8363
X-75.2526 Y9.8366
X-75.2634 Y9.8361
X-75.274 Y9.8351
X-75.2847 Y9.8335
X-75.2952 Y9.8313
X-75.3055 Y9.8285
X-75.3157 Y9.8251
X-75.3257 Y9.8212
X-75.3354 Y9.8167
X-75.3445 Y9.8112
X-75.383 Y9.7797
X-75.4045 Y9.7639
G3 X-75.4932 Y9.5908 I0.1171 J-0.1692
G1 X-75.4918 Y9.5882
X-75.4901 Y9.5859
X-75.488 Y9.584
X-75.4855 Y9.5825
X-75.4829 Y9.5815
X-75.4801 Y9.5809
X-75.4772
X-75.4744 Y9.5814
X-75.4717 Y9.5823
X-75.4693 Y9.5838
X-75.4672 Y9.5856
G3 X-75.4644 Y9.5893 I-0.0111 J0.011
G1 X-75.3836 Y9.7426
X-75.3826 Y9.7452
X-75.382 Y9.748
X-75.3819 Y9.7509
G3 X-75.4045 Y9.7639 I-0.0156 J-0.001
G2 X-75.4905 Y9.7247 I-0.2236 J0.3765
G3 X-75.5302 Y9.6935 I-0.0061 J-0.0331
X-75.5105 Y9.6846 I0.0145 J0.0059
G1 X-75.5038 Y9.6869
X-75.4818 Y9.6947
G3 X-75.4905 Y9.7247 I-0.0052 J0.0148
G1 X-75.5011 Y9.7219
X-75.5365 Y9.7126
X-75.537 Y9.7122
X-75.4526 Y9.4803
X-75.4474 Y9.4692
X-75.4417 Y9.4585
X-75.4355 Y9.448
X-75.4287 Y9.4379
X-75.4214 Y9.4281
X-75.4137 Y9.4188
X-75.4054 Y9.4098
X-75.3968 Y9.4013
X-75.3876 Y9.3932
X-75.3781 Y9.3856
X-75.3683 Y9.3785
X-75.358 Y9.3719
X-75.3475 Y9.3658
X-75.3366 Y9.3603
X-75.3255 Y9.3553
X-75.3142 Y9.351
X-75.3026 Y9.3472
X-75.2909 Y9.344
X-75.279 Y9.3414
X-75.267 Y9.3394
X-75.2549 Y9.338
X-75.2427 Y9.3372
X-75.2306 Y9.3371
X-75.2184 Y9.3376
X-75.2063 Y9.3387
X-75.1942 Y9.3404
X-75.1823 Y9.3428
X-75.1705 Y9.3457
X-75.1588 Y9.3492
X-75.1474 Y9.3534
X-75.1362 Y9.3581
X-75.1252 Y9.3634
X-75.1145 Y9.3692
X-75.1042 Y9.3756
X-75.0941 Y9.3824
X-75.0845 Y9.3898
X-75.0752 Y9.3977
X-75.0663 Y9.4061
X-75.0579 Y9.4148
X-75.0499 Y9.424
X-75.0424 Y9.4336
X-75.0354 Y9.4436
X-75.029 Y9.4539
X-75.023 Y9.4645
X-75.0177 Y9.4754
X-74.9959 Y9.693
X-74.9964 Y9.7051
X-74.9975 Y9.7173
X-74.9992 Y9.7293
X-75.0016 Y9.7412
X-75.0045 Y9.7531
X-75.0081 Y9.7647
X-75.0123 Y9.7761
X-75.017 Y9.7873
X-75.0223 Y9.7983
X-75.0282 Y9.8089
X-75.0346 Y9.8193
X-75.0416 Y9.8293
X-75.049 Y9.8389
X-75.057 Y9.8481
X-75.0654 Y9.8569
X-75.0742 Y9.8653
X-75.0835 Y9.8732
X-75.0931 Y9.8805
X-75.1032 Y9.8874
X-75.1135 Y9.8938
X-75.1242 Y9.8996
X-75.1352 Y9.9049
X-75.1464 Y9.9096
X-75.1579 Y9.9136
X-75.1696 Y9.9171
X-75.1814 Y9.92
X-75.1933 Y9.9223
X-75.2054 Y9.924
X-75.2175 Y9.925
X-75.2297 Y9.9254
X-75.2418 Y9.9252
X-75.254 Y9.9243
X-75.266 Y9.9229
G2 X-75.3364 Y9.8185 I-0.3636 J0.1692
G3 X-75.3406 Y9.8035 I0.0109 J-0.0112
X-75.306 Y9.7837 I0.0268 J0.0068
X-75.2642 Y9.9053 I-0.0221 J0.0756
G2 X-75.2657 Y9.9208 I0.0127 J0.0091
G1 X-75.2616 Y9.9293
X-75.2528 Y9.9477
G2 X-74.9773 Y9.8946 I0.1146 J-0.1467
G1 X-74.9959 Y9.693
G2 X-75.0135 Y9.6794 I-0.0155 J0.002
X-75.0281 Y9.6899 I0.0024 J0.0189
X-74.9833 Y9.8842 I0.1412 J0.0698
G3 X-74.9773 Y9.8946 I-0.0096 J0.0124
G1 X-74.9729 Y9.9423
X-74.9754 Y9.9527
X-74.9784 Y9.9629
X-74.982 Y9.9729
X-74.9863 Y9.9826
X-74.9911 Y9.9921
X-74.9964 Y10.0013
X-75.0023 Y10.0101
X-75.0087 Y10.0186
X-75.0156 Y10.0267
X-75.0229 Y10.0344
X-75.0307 Y10.0416
X-75.0389 Y10.0484
X-75.0475 Y10.0546
X-75.0565 Y10.0604
X-75.0657 Y10.0656
X-75.0753 Y10.0702
X-75.0851 Y10.0743
X-75.0951 Y10.0778
X-75.1054 Y10.0807
X-75.1158 Y10.0829
X-75.1263 Y10.0846
X-75.1368 Y10.0856
X-75.1475 Y10.086
X-75.1581 Y10.0858
X-75.1687 Y10.0849
X-75.1792 Y10.0835
X-75.1896 Y10.0814
X-75.1999 Y10.0787
X-75.21 Y10.0753
X-75.2199 Y10.0714
X-75.2295 Y10.067
G2 X-75.2528 Y9.9477 I-0.2782 J-0.0076
G3 X-75.2511 Y9.9321 I0.0144 J-0.0063
X-75.2013 Y9.9296 I0.0259 J0.0191
X-75.2203 Y10.0508 I-0.0583 J0.053
G2 X-75.2282 Y10.0643 I0.0078 J0.0136
G1 X-75.2276 Y10.0842
G2 X-74.9605 Y10.0951 I0.1367 J-0.0709
G1 X-74.9729 Y9.9423
G2 X-74.9824 Y9.9299 I-0.0155 J0.002
X-75.0401 Y9.9648 I-0.0162 J0.0385
X-74.9682 Y10.0838 I0.1177 J0.0101
G3 X-74.9587 Y10.0962 I-0.0061 J0.0144
G1 X-74.9555 Y10.1314
X-74.9579 Y10.1409
X-74.9609 Y10.1502
X-74.9645 Y10.1593
X-74.9687 Y10.1682
X-74.9734 Y10.1768
X-74.9785 Y10.1851
X-74.9842 Y10.1931
X-74.9904 Y10.2007
X-74.997 Y10.208
X-75.0041 Y10.2148
X-75.0115 Y10.2212
X-75.0193 Y10.2271
X-75.0275 Y10.2325
X-75.036 Y10.2374
X-75.0447 Y10.2418
X-75.0537 Y10.2456
X-75.063 Y10.2489
X-75.0724 Y10.2516
X-75.0819 Y10.2538
X-75.0916 Y10.2554
X-75.1013 Y10.2563
X-75.1111 Y10.2567
X-75.1209 Y10.2565
X-75.1307 Y10.2556
X-75.1404 Y10.2542
X-75.15 Y10.2522
X-75.1594 Y10.2496
X-75.1687 Y10.2465
X-75.1778 Y10.2428
X-75.1866 Y10.2385
X-75.1929 Y10.2364
X-75.199 Y10.2338
X-75.2049 Y10.2306
X-75.2105 Y10.2269
X-75.2157 Y10.2228
X-75.2205 Y10.2181
X-75.2248 Y10.2131
X-75.2287 Y10.2077
X-75.2321 Y10.202
X-75.235 Y10.196
X-75.2374 Y10.1897
X-75.2391 Y10.1833
X-75.2403 Y10.1767
X-75.2409 Y10.1701
Y10.1634
X-75.2403 Y10.1568
X-75.2391 Y10.1503
X-75.2374 Y10.1438
X-75.235 Y10.1376
X-75.2321 Y10.1316
X-75.2287 Y10.1259
X-75.2248 Y10.1205
X-75.2272 Y10.0948
G3 X-75.2189 Y10.0816 I0.0156 J0.0006
G1 X-75.2181 Y10.0817
G3 X-75.1909 Y10.2248 I-0.1236 J0.0976
G2 X-75.1874 Y10.24 I0.015 J0.0045
G1 X-75.1331 Y10.2939
G2 X-74.9405 Y10.2762 I0.0862 J-0.1195
G1 X-74.9555 Y10.1314
G2 X-74.973 Y10.1179 I-0.0155 J0.002
X-74.9861 Y10.1282 I0.0021 J0.0162
X-74.9482 Y10.2641 I0.1102 J0.0425
G3 X-74.9422 Y10.2745 I-0.0096 J0.0124
G1 X-74.9392 Y10.3075
G3 X-75.0314 Y10.3972 I-0.0966 J-0.0071
G1 X-75.1331 Y10.2939
G3 X-75.1193 Y10.2677 I0.0114 J-0.0107
G1 X-74.9629 Y10.2924
X-74.9523 Y10.294
G3 X-74.9392 Y10.3075 I-0.0024 J0.0155
G1 X-74.9327 Y10.3784
G3 X-74.9792 Y10.4469 I-0.0515 J0.0151
X-74.9825 Y10.431 I0.0114 J-0.0107
G1 X-74.9779 Y10.4179
X-74.9629 Y10.3752
G3 X-74.9327 Y10.3784 I0.0148 J0.0052
G1 X-74.9261 Y10.4493
X-74.9259 Y10.4553
X-74.9266 Y10.4613
X-74.9281 Y10.4671
X-74.9307 Y10.4732
X-74.9313 Y10.4741
X-74.9349 Y10.4779
X-74.9398 Y10.4797
X-74.945 Y10.4792
X-74.9494 Y10.4765
G3 X-74.9599 Y10.453 I0.0287 J-0.0269
X-74.9261 Y10.4493 I0.0169 J-0.0015
G1 X-74.923 Y10.4829
X-74.9228 Y10.4889
X-74.9245 Y10.4918
X-74.9276 Y10.4935
X-74.931
X-74.934 Y10.4918
X-74.9351 Y10.4905
X-74.9367 Y10.4887
G3 X-74.9247 Y10.479 I0.006 J-0.0049
X-74.923 Y10.4829 I-0.006 J0.0049
G1 X-74.9218 Y10.4955
X-74.9217 Y10.4966
X-74.9216 Y10.4981
X-74.9215 Y10.5008
X-74.9223 Y10.5016
X-74.9234 Y10.5018
X-74.9244 Y10.5013
X-74.9257 Y10.4999
X-74.9239 Y10.4961
X-74.9216 Y10.4981
X-74.9212 Y10.5026
X-74.9211 Y10.5032
X-74.9218 Y10.5039
X-75.0315 Y10.3949
G3 X-75.0254 Y10.3695 I0.0114 J-0.0107
G1 X-75.0225 Y10.3684 Z-0.1297
X-75.0198 Y10.3674 Z-0.1288
X-75.0172 Y10.3665 Z-0.1274
X-75.015 Y10.3657 Z-0.1254
X-75.0132 Y10.365 Z-0.123
X-75.0118 Y10.3645 Z-0.1203
X-75.011 Y10.3642 Z-0.1174
X-75.0107 Y10.3641 Z-0.1143
G0 Z-0.0987
X-75.0288 Y9.5192
G1 Z-0.1143 F60.
X-75.0286 Y9.5189 Z-0.1174
X-75.0283 Y9.5181 Z-0.1203
X-75.0276 Y9.5168 Z-0.123
X-75.0268 Y9.515 Z-0.1254
X-75.0258 Y9.5129 Z-0.1274
X-75.0246 Y9.5105 Z-0.1288
X-75.0234 Y9.5078 Z-0.1297
X-75.022 Y9.5051 Z-0.13
G2 X-75.0161 Y9.4747 I-0.0563 J-0.0268
G1 X-75.0243 Y9.3857
X-75.0293 Y9.3745
X-75.0349 Y9.3636
X-75.041 Y9.353
X-75.0476 Y9.3427
X-75.0548 Y9.3328
X-75.0624 Y9.3232
X-75.0706 Y9.314
X-75.0792 Y9.3053
X-75.0882 Y9.297
X-75.0976 Y9.2892
X-75.1075 Y9.2819
X-75.1177 Y9.2752
X-75.1282 Y9.2689
X-75.139 Y9.2632
X-75.1501 Y9.258
X-75.1615 Y9.2535
X-75.1731 Y9.2495
X-75.1848 Y9.2461
X-75.1968 Y9.2433
X-75.2088 Y9.2411
X-75.221 Y9.2396
X-75.2332 Y9.2387
X-75.2454 Y9.2384
X-75.2577 Y9.2387
X-75.2699 Y9.2397
X-75.282 Y9.2412
X-75.2941 Y9.2434
X-75.306 Y9.2463
X-75.3178 Y9.2497
X-75.3293 Y9.2537
X-75.3407 Y9.2583
X-75.3518 Y9.2635
X-75.3626 Y9.2693
X-75.3731 Y9.2755
X-75.3772 Y9.2744
X-75.3786 Y9.277
X-75.4526 Y9.4803
G2 X-75.4493 Y9.4955 I0.0149 J0.0048
X-75.3663 Y9.4918 I0.04 J-0.0359
X-75.3753 Y9.2923 I-0.1262 J-0.0943
G3 X-75.3786 Y9.277 I0.0116 J-0.0105
G1 X-75.3626 Y9.233
G3 X-75.0401 Y9.2144 I0.1699 J0.1412
G1 X-75.0243 Y9.3857
G3 X-75.0313 Y9.3997 I-0.0156 J0.0009
X-75.0836 Y9.3877 I-0.0204 J-0.031
X-75.0472 Y9.2284 I0.1013 J-0.0607
G2 X-75.0401 Y9.2144 I-0.0086 J-0.0131
G1 X-75.044 Y9.173
G2 X-75.3071 Y9.0806 I-0.1761 J0.0806
G1 X-75.3626 Y9.233
G2 X-75.3593 Y9.2483 I0.0149 J0.0048
X-75.2971 Y9.2455 I0.03 J-0.0269
X-75.3039 Y9.0959 I-0.0946 J-0.0707
G3 X-75.3071 Y9.0806 I0.0116 J-0.0105
G1 X-75.293 Y9.0418
G3 X-75.0576 Y9.0185 I0.1285 J0.0975
G1 X-75.044 Y9.173
G3 X-75.051 Y9.187 I-0.0156 J0.0009
X-75.1142 Y9.1631 I-0.0229 J-0.0349
X-75.0652 Y9.0332 I0.1139 J-0.0312
G2 X-75.0582 Y9.0192 I-0.0086 J-0.0131
G1 X-75.0614 Y8.9839
G2 X-75.2445 Y8.9054 I-0.127 J0.0436
G1 X-75.293 Y9.0418
G2 X-75.2897 Y9.0571 I0.0149 J0.0048
X-75.2185 Y9.0442 I0.0316 J-0.0284
X-75.2406 Y8.9221 I-0.1099 J-0.0432
G3 X-75.2438 Y8.9068 I0.0116 J-0.0105
G1 X-75.2328 Y8.8764
G3 X-75.0727 Y8.8464 I0.0938 J0.0587
G1 X-75.0614 Y8.9839
G3 X-75.0761 Y9.0004 I-0.0156 J0.0009
X-75.0966 Y8.9882 I-0.0012 J-0.0212
X-75.0779 Y8.8593 I0.1069 J-0.0503
G2 X-75.074 Y8.848 I-0.0117 J-0.0104
G1 X-75.0767 Y8.8184
G2 X-75.1915 Y8.7581 I-0.0862 J0.0245
G1 X-75.2328 Y8.8764
G2 X-75.2295 Y8.8916 I0.0149 J0.0048
X-75.204 Y8.8952 I0.0149 J-0.0133
X-75.1874 Y8.7759 I-0.0419 J-0.0666
G3 X-75.1906 Y8.7606 I0.0116 J-0.0105
G1 X-75.1833 Y8.7404
G3 X-75.0848 Y8.7098 I0.063 J0.0291
G1 X-75.0767 Y8.8184
G3 X-75.0837 Y8.8324 I-0.0156 J0.0009
X-75.1244 Y8.8188 I-0.015 J-0.0228
X-75.0935 Y8.7266 I0.0742 J-0.0264
G2 X-75.0865 Y8.7126 I-0.0086 J-0.0131
G1 X-75.0883 Y8.6931
X-75.0893 Y8.6878
X-75.0909 Y8.6825
X-75.093 Y8.6775
X-75.0957 Y8.6727
X-75.0989 Y8.6683
X-75.1025 Y8.6642
X-75.1065 Y8.6605
X-75.1109 Y8.6572
X-75.1156 Y8.6544
X-75.1205 Y8.6522
X-75.1257 Y8.6505
X-75.1311 Y8.6493
X-75.1365 Y8.6487
X-75.1419
X-75.1474 Y8.6493
X-75.1527 Y8.6504
X-75.1833 Y8.7404
G2 X-75.1587 Y8.7575 I0.0149 J0.0048
G1 X-75.1067 Y8.7162
X-75.0942 Y8.7063
G2 X-75.0883 Y8.6931 I-0.0097 J-0.0123
G1 X-75.0932 Y8.64
G2 X-75.1349 Y8.6074 I-0.0282 J-0.0068
G1 X-75.1518 Y8.6539
G2 X-75.1485 Y8.6692 I0.0149 J0.0048
X-75.1253 Y8.6657 I0.0105 J-0.0094
X-75.1316 Y8.6227 I-0.0357 J-0.0167
G3 X-75.1349 Y8.6074 I0.0116 J-0.0105
G1 X-75.1295 Y8.5927
X-75.1272 Y8.5872
X-75.1231 Y8.5828
X-75.1182 Y8.5794
X-75.1145 Y8.5777
X-75.1091 Y8.5766
X-75.1038 Y8.5782
X-75.0998 Y8.5819
X-75.0981 Y8.5871
G3 X-75.1003 Y8.6027 I-0.0393 J0.0022
X-75.1295 Y8.5927 I-0.0145 J-0.0052
G1 X-75.12 Y8.5665
X-75.1177 Y8.561
X-75.1138 Y8.5584
X-75.1091 Y8.5578
X-75.1047 Y8.5593
X-75.1014 Y8.5626
X-75.0999 Y8.5671
Y8.57
G3 X-75.1119 Y8.5799 I-0.0103 J-0.0003
X-75.12 Y8.5665 I0.0018 J-0.0102
G1 X-75.115 Y8.5527
X-75.1126 Y8.5472
X-75.1094 Y8.5454
X-75.1057 Y8.5456
X-75.1027 Y8.5478
X-75.1014 Y8.5512
G3 X-75.1013 Y8.5552 I-0.0393 J0.0022
X-75.1096 Y8.5617 I-0.007 J-0.0003
X-75.115 Y8.5527 I0.0012 J-0.0069
G1 X-75.1107 Y8.5409
X-75.11 Y8.5391
X-75.1095 Y8.5378
X-75.1089 Y8.5364
X-75.1063 Y8.5355
X-75.1037 Y8.5365
X-75.1025 Y8.5391
X-75.1027 Y8.5404
X-75.1095 Y8.5378
X-75.108 Y8.5335
X-75.1076 Y8.5325
X-75.107 Y8.5309
X-75.1064 Y8.5295
X-75.1051 Y8.5291
X-75.1038 Y8.5297
X-75.1032 Y8.531
Y8.5315
X-75.1071
X-75.1057 Y8.5272
X-75.105 Y8.5255
X-75.1045 Y8.5241
X-75.1038 Y8.5248
X-75.1042 Y8.525
X-75.1045 Y8.5241
X-75.1038 Y8.5247
X-75.0932 Y8.64
G3 X-75.0993 Y8.6533 I-0.0156 J0.0009
G1 X-75.1015 Y8.6543 Z-0.1298
X-75.1036 Y8.6553 Z-0.1293
X-75.1056 Y8.6562 Z-0.1284
X-75.1073 Y8.6564 Z-0.1274
X-75.1088 Y8.6565 Z-0.1262
X-75.1106 Y8.6562 Z-0.1243
X-75.1121 Y8.656 Z-0.1221
X-75.1132 Y8.6558 Z-0.1196
X-75.1139 Y8.6556 Z-0.117
X-75.1141 Z-0.1144
G0 Z0.4
X-74.2748 Y13.3659
Z0.1
G3 X-74.3666 Y13.3122 Z0.0791 I-0.0197 J-0.0717 F13.333
X-74.3106 Y13.2217 Z0.0582 I0.0721 J-0.0179
X-74.2215 Y13.2798 Z0.0373 I0.0162 J0.0726
X-74.2818 Y13.3675 Z0.0164 I-0.0729 J0.0144
X-74.368 Y13.3051 Z-0.0045 I-0.0126 J-0.0733
X-74.3035 Y13.2204 Z-0.0255 I0.0735 J-0.0108
X-74.2854 Y13.368 Z-0.0666 I0.009 J0.0738
X-74.3035 Y13.2204 Z-0.1078 I-0.009 J-0.0738
X-74.2201 Y13.2942 Z-0.13 I0.009 J0.0738
X-74.3688 I-0.0743 J0.
X-74.2204 Y13.288 I0.0743 J0.
G1 X-74.2201 Y13.2942
G3 X-74.3942 Y13.4044 I-0.0874 J0.0545 F60.
G1 X-74.4015 Y13.398
X-74.4084 Y13.3912
X-74.4149 Y13.3839
X-74.4209 Y13.3763
X-74.4264 Y13.3683
X-74.4314 Y13.3599
X-74.4358 Y13.3513
X-74.4397 Y13.3424
X-74.443 Y13.3332
X-74.4458 Y13.3239
X-74.4479 Y13.3144
X-74.4494 Y13.3048
X-74.4504 Y13.2952
X-74.4507 Y13.2855
X-74.4504 Y13.2757
X-74.4495 Y13.2661
X-74.448 Y13.2565
X-74.4459 Y13.247
X-74.4432 Y13.2377
X-74.4399 Y13.2285
X-74.436 Y13.2196
X-74.4316 Y13.2109
X-74.4266 Y13.2026
X-74.4211 Y13.1945
X-74.4152 Y13.1869
X-74.4087 Y13.1796
X-74.4018 Y13.1727
X-74.3945 Y13.1663
X-74.3868 Y13.1604
X-74.3788 Y13.155
X-74.3704 Y13.1501
X-74.3617 Y13.1457
X-74.3528 Y13.1419
X-74.3436 Y13.1386
X-74.3343 Y13.136
X-74.3248 Y13.1339
X-74.3152 Y13.1324
X-74.3055 Y13.1316
X-74.2958 Y13.1313
X-74.2861 Y13.1317
X-74.2764 Y13.1327
X-74.2668 Y13.1343
X-74.2574 Y13.1364
X-74.2481 Y13.1392
X-74.2389 Y13.1426
X-74.2301 Y13.1465
X-74.2214 Y13.151
X-74.2131 Y13.156
X-74.2051 Y13.1616
X-74.1975 Y13.1676
X-74.1903 Y13.1741
X-74.1835 Y13.181
X-74.1771 Y13.1884
X-74.1713 Y13.1961
X-74.1659 Y13.2042
X-74.1611 Y13.2127
X-74.1568 Y13.2214
X-74.153 Y13.2303
X-74.1466 Y13.2394
X-74.1408 Y13.2488
X-74.1355 Y13.2585
X-74.1307 Y13.2685
X-74.1265 Y13.2787
X-74.1229 Y13.2892
X-74.12 Y13.2999
X-74.1176 Y13.3107
X-74.1158 Y13.3216
X-74.1147 Y13.3326
X-74.1142 Y13.3437
X-74.1143 Y13.3547
X-74.1151 Y13.3658
X-74.1164 Y13.3767
X-74.1184 Y13.3876
X-74.121 Y13.3984
X-74.1243 Y13.409
X-74.1281 Y13.4194
X-74.1325 Y13.4295
X-74.1374 Y13.4394
X-74.143 Y13.449
X-74.149 Y13.4583
X-74.1556 Y13.4672
X-74.1627 Y13.4757
X-74.1702 Y13.4838
X-74.1782 Y13.4915
X-74.1866 Y13.4986
X-74.1954 Y13.5054
X-74.2046 Y13.5115
X-74.2141 Y13.5172
X-74.2239 Y13.5223
X-74.234 Y13.5269
X-74.2443 Y13.5308
X-74.2549 Y13.5342
X-74.2656 Y13.537
X-74.2764 Y13.5391
X-74.2874 Y13.5407
X-74.2984 Y13.5416
X-74.3095 Y13.5419
X-74.3205 Y13.5415
X-74.3316 Y13.5406
X-74.3425 Y13.539
X-74.3534 Y13.5367
X-74.3641 Y13.5339
X-74.3746 Y13.5305
X-74.3849 Y13.5265
X-74.395 Y13.5219
X-74.4047 Y13.5167
X-74.4142 Y13.511
X-74.4234 Y13.5047
X-74.4321 Y13.498
X-74.4405 Y13.4907
X-74.5185 Y13.3329
X-74.5217 Y13.3216
X-74.5244 Y13.3101
X-74.5265 Y13.2985
X-74.5279 Y13.2868
X-74.5288 Y13.2751
X-74.529 Y13.2633
X-74.5287 Y13.2515
X-74.5277 Y13.2398
X-74.5261 Y13.2281
X-74.5239 Y13.2165
X-74.5211 Y13.2051
X-74.5177 Y13.1938
X-74.5137 Y13.1827
X-74.5092 Y13.1718
X-74.504 Y13.1612
X-74.4984 Y13.1509
X-74.4922 Y13.1409
X-74.4855 Y13.1312
X-74.4783 Y13.1218
X-74.4706 Y13.1129
X-74.4625 Y13.1044
X-74.4539 Y13.0963
X-74.445 Y13.0886
X-74.4356 Y13.0815
X-74.4259 Y13.0748
X-74.4158 Y13.0687
X-74.4055 Y13.0631
X-74.3948 Y13.058
X-74.384 Y13.0535
X-74.3729 Y13.0496
X-74.3616 Y13.0462
X-74.3501 Y13.0434
X-74.3385 Y13.0413
X-74.3268 Y13.0397
X-74.3151 Y13.0388
X-74.3033 Y13.0385
X-74.2915 Y13.0388
X-74.2798 Y13.0397
X-74.2681 Y13.0412
X-74.2565 Y13.0433
X-74.2451 Y13.046
X-74.2338 Y13.0493
X-74.2226 Y13.0532
X-74.2117 Y13.0577
X-74.2011 Y13.0627
X-74.0554 Y13.2426
G2 X-74.0768 Y13.4405 I0.3573 J0.1388
G3 X-74.3829 Y13.6181 I-0.2256 J-0.0361
G1 X-74.4425 Y13.4929
G3 X-74.4343 Y13.4723 I0.0144 J-0.0062
X-74.4128 Y13.476 I0.008 J0.0184
X-74.3831 Y13.6061 I-0.0802 J0.0867
G2 X-74.3829 Y13.6181 I0.0146 J0.0058
G1 X-74.3671 Y13.6513
X-74.3587 Y13.6589
X-74.3499 Y13.666
X-74.3408 Y13.6725
X-74.3312 Y13.6786
X-74.3214 Y13.6842
X-74.3113 Y13.6892
X-74.3009 Y13.6937
X-74.2903 Y13.6976
X-74.2795 Y13.7009
X-74.2686 Y13.7036
X-74.2575 Y13.7057
X-74.2463 Y13.7073
X-74.2351 Y13.7082
X-74.2238 Y13.7085
X-74.2125 Y13.7082
X-74.2012 Y13.7073
X-74.19 Y13.7058
X-74.179 Y13.7036
X-74.168 Y13.7009
X-74.1572 Y13.6976
X-74.1466 Y13.6937
X-74.1362 Y13.6893
X-74.1261 Y13.6843
X-74.1163 Y13.6787
X-74.1068 Y13.6726
X-74.0976 Y13.6661
X-74.0888 Y13.659
X-74.0804 Y13.6515
X-74.0724 Y13.6435
X-74.0648 Y13.6351
X-74.0578 Y13.6263
X-74.0512 Y13.6171
X-74.0451 Y13.6076
X-74.0395 Y13.5978
X-74.0345 Y13.5877
X-74.03 Y13.5773
G3 X-74.0768 Y13.4405 I0.3305 J-0.1894
G2 X-74.0872 Y13.4288 I-0.0153 J0.0032
X-74.101 Y13.4309 I-0.0048 J0.0145
X-74.0442 Y13.5709 I0.0489 J0.0617
G3 X-74.03 Y13.5774 I0.0016 J0.0156
G1 X-74.0196 Y13.5929
X-74.0158 Y13.5981
X-74.0146 Y13.6082
X-74.0139 Y13.6182
Y13.6283
X-74.0144 Y13.6384
X-74.0155 Y13.6485
X-74.0173 Y13.6584
X-74.0196 Y13.6683
X-74.0225 Y13.678
X-74.0259 Y13.6875
X-74.0299 Y13.6967
X-74.0345 Y13.7057
X-74.0396 Y13.7145
X-74.0452 Y13.7229
X-74.0512 Y13.731
X-74.0578 Y13.7387
X-74.0648 Y13.746
X-74.0722 Y13.7528
X-74.08 Y13.7593
X-74.0881 Y13.7652
X-74.0966 Y13.7707
X-74.1054 Y13.7756
X-74.1145 Y13.78
X-74.1238 Y13.7839
X-74.1334 Y13.7872
X-74.1431 Y13.79
X-74.153 Y13.7921
X-74.1629 Y13.7937
X-74.173 Y13.7947
X-74.1831 Y13.7951
X-74.1932 Y13.7949
X-74.2032 Y13.7941
X-74.2132 Y13.7927
G3 X-74.2996 Y13.7934 I-0.0436 J-0.0473
G1 X-74.3671 Y13.6513
G3 X-74.3654 Y13.6358 I0.0144 J-0.0062
X-74.2995 Y13.635 I0.0332 J0.0246
X-74.2979 Y13.7778 I-0.0932 J0.0725
G2 X-74.2996 Y13.7934 I0.0126 J0.0093
G1 X-74.2826 Y13.8293
G2 X-73.9423 Y13.7186 I0.1331 J-0.1692
G1 X-73.9273 Y13.7023
X-73.9266 Y13.6978
X-73.9276 Y13.6934
X-73.9303 Y13.6898
G3 X-74.0158 Y13.5981 I0.1746 J-0.2487
G2 X-74.0303 Y13.5922 I-0.0124 J0.0096
X-74.0502 Y13.616 I0.003 J0.0228
X-73.9456 Y13.6868 I0.0787 J-0.0035
G3 X-73.9303 Y13.6898 I0.0052 J0.0148
G1 X-73.9264 Y13.6934
X-73.9249 Y13.6948
X-73.9248 Y13.6956
X-73.9388 Y13.8186
G3 X-74.2188 Y13.9635 I-0.2211 J-0.0844
G1 X-74.2826 Y13.8293
G3 X-74.2808 Y13.8137 I0.0144 J-0.0062
X-74.2104 Y13.8173 I0.034 J0.0252
X-74.217 Y13.948 I-0.1015 J0.0604
G2 X-74.2188 Y13.9635 I0.0126 J0.0093
G1 X-74.2039 Y13.9947
G2 X-73.959 Y13.9949 I0.1226 J-0.1226
G1 X-73.9388 Y13.8186
G2 X-73.9455 Y13.8045 I-0.0156 J-0.0012
X-73.9926 Y13.812 I-0.0196 J0.0284
X-73.9657 Y13.9808 I0.094 J0.0716
G3 X-73.959 Y13.9949 I-0.0089 J0.0129
G1 X-73.9638 Y14.0372
X-73.967 Y14.0459
X-73.9706 Y14.0544
X-73.9749 Y14.0627
X-73.9797 Y14.0706
X-73.9849 Y14.0782
X-73.9907 Y14.0854
X-73.9969 Y14.0923
X-74.0036 Y14.0987
X-74.0107 Y14.1047
X-74.0181 Y14.1102
X-74.0259 Y14.1152
X-74.0341 Y14.1196
X-74.0424 Y14.1236
X-74.0511 Y14.1269
X-74.0599 Y14.1297
X-74.0689 Y14.1319
X-74.078 Y14.1335
X-74.0872 Y14.1346
X-74.0965 Y14.135
X-74.1057 Y14.1347
X-74.1149 Y14.1339
X-74.1241 Y14.1325
X-74.1331 Y14.1305
X-74.142 Y14.1279
X-74.2039 Y13.9947
G3 X-74.2022 Y13.9792 I0.0144 J-0.0062
X-74.1307 Y13.9843 I0.0341 J0.0253
X-74.1397 Y14.1107 I-0.1039 J0.0561
G2 X-74.1415 Y14.1262 I0.0126 J0.0093
G1 X-74.1278 Y14.1549
G2 X-73.9785 Y14.1793 I0.0869 J-0.0623
G1 X-73.9638 Y14.0372
G2 X-73.9896 Y14.0241 I-0.0156 J-0.0012
X-73.9995 Y14.0367 I0.026 J0.0305
X-73.9836 Y14.166 I0.1057 J0.0526
G3 X-73.9799 Y14.1774 I-0.0119 J0.0102
G1 X-73.9833 Y14.2075
G3 X-74.0774 Y14.2652 I-0.0773 J-0.0203
G1 X-74.0786 Y14.2623
X-74.0792 Y14.2592
X-74.0793 Y14.2561
X-74.0788 Y14.2531
X-74.0777 Y14.2503
X-74.0762 Y14.2478
X-74.0743 Y14.2456
X-74.0721 Y14.2438
X-74.0639 Y14.2374
X-74.0086 Y14.1939
X-74.0063 Y14.1925
X-74.0039 Y14.1914
G3 X-73.9833 Y14.2075 I0.005 J0.0148
G1 X-73.9904 Y14.2695
G3 X-74.0484 Y14.322 I-0.0481 J0.0052
X-74.0475 Y14.3078 I0.0144 J-0.0062
G1 X-74.0393 Y14.2939
X-74.0195 Y14.2603
G3 X-73.9904 Y14.2695 I0.0135 J0.008
X-74.0395 Y14.3408 I-0.0501 J0.0181
G1 X-74.1278 Y14.1549
G3 X-74.1135 Y14.133 I0.0144 J-0.0062
G1 X-74.1105 Z-0.1297
X-74.1075 Z-0.1288
X-74.1048 Z-0.1274
X-74.1025 Z-0.1254
X-74.1005 Z-0.123
X-74.0991 Z-0.1203
X-74.0982 Z-0.1174
X-74.0979 Z-0.1143
G0 Z-0.0987
X-74.4849 Y13.3647
G1 Z-0.1143 F60.
X-74.4851 Y13.3645 Z-0.1174
X-74.4859 Y13.364 Z-0.1203
X-74.4871 Y13.3632 Z-0.123
X-74.4887 Y13.3621 Z-0.1254
X-74.4906 Y13.3608 Z-0.1274
X-74.4929 Y13.3593 Z-0.1288
X-74.4953 Y13.3577 Z-0.1297
X-74.4979 Y13.356 Z-0.13
G3 X-74.5185 Y13.3329 I0.0347 J-0.0517
G1 X-74.5746 Y13.2147
X-74.5758 Y13.2029
X-74.5763 Y13.191
Y13.179
X-74.5756 Y13.1671
X-74.5744 Y13.1553
X-74.5725 Y13.1435
X-74.5701 Y13.1318
X-74.567 Y13.1203
X-74.5634 Y13.1089
X-74.5593 Y13.0978
X-74.5545 Y13.0868
X-74.5492 Y13.0762
X-74.5434 Y13.0658
X-74.5371 Y13.0557
X-74.5303 Y13.0459
X-74.5229 Y13.0365
X-74.5151 Y13.0275
X-74.5069 Y13.0188
X-74.4983 Y13.0106
X-74.4892 Y13.0029
X-74.4798 Y12.9956
X-74.47 Y12.9888
X-74.4598 Y12.9825
X-74.4494 Y12.9767
X-74.4387 Y12.9715
X-74.4277 Y12.9668
X-74.4165 Y12.9627
X-74.4052 Y12.9591
X-74.3936 Y12.9562
X-74.382 Y12.9538
X-74.3702 Y12.952
X-74.3583 Y12.9508
X-74.3464 Y12.9502
X-74.3345
X-74.3226 Y12.9508
X-74.3107 Y12.952
X-74.2989 Y12.9538
X-74.2943 Y12.9473
X-74.2912 Y12.9488
X-74.2887 Y12.9511
X-74.2004 Y13.0614
G3 X-74.1986 Y13.0769 I-0.0126 J0.0093
X-74.2711 Y13.0865 I-0.0391 J-0.0168
X-74.2869 Y12.9666 I0.0927 J-0.0732
G2 X-74.2887 Y12.9511 I-0.0144 J-0.0062
G1 X-74.3131 Y12.9207
G2 X-74.6422 Y13.0556 I-0.1125 J0.1946
G1 X-74.6487 Y13.0575
X-74.6477 Y13.0611
X-74.5746 Y13.2147
G2 X-74.5615 Y13.2232 I0.0139 J-0.0072
X-74.5219 Y13.1843 I0.0017 J-0.0378
X-74.6345 Y13.0695 I-0.1181 J0.0031
G3 X-74.6477 Y13.0611 I0.0007 J-0.0156
G1 X-74.6645 Y13.0257
G3 X-74.42 Y12.7959 I0.2162 J-0.0149
G1 X-74.4162 Y12.7927
X-74.4136 Y12.7951
X-74.3131 Y12.9207
G3 X-74.3112 Y12.9362 I-0.0126 J0.0093
X-74.3723 Y12.9532 I-0.0373 J-0.016
X-74.4118 Y12.8107 I0.069 J-0.0959
G2 X-74.4136 Y12.7951 I-0.0144 J-0.0062
G1 X-74.4372 Y12.7657
G2 X-74.7319 Y12.8837 I-0.0961 J0.1869
G1 X-74.6645 Y13.0257
G2 X-74.6513 Y13.0341 I0.0139 J-0.0072
X-74.6092 Y12.9835 I0.0019 J-0.0413
X-74.7188 Y12.8921 I-0.1151 J0.0267
G3 X-74.7319 Y12.8837 I0.0007 J-0.0156
G1 X-74.7479 Y12.8501
G3 X-74.5326 Y12.6465 I0.1959 J-0.0085
G1 X-74.4372 Y12.7657
G3 X-74.4354 Y12.7812 I-0.0126 J0.0093
X-74.5024 Y12.7955 I-0.0385 J-0.0166
X-74.5308 Y12.662 I0.0801 J-0.0868
G2 X-74.5326 Y12.6465 I-0.0144 J-0.0062
G1 X-74.5561 Y12.6171
X-74.5653 Y12.6121
X-74.5748 Y12.6075
X-74.5845 Y12.6036
X-74.5944 Y12.6002
X-74.6046 Y12.5974
X-74.6148 Y12.5953
X-74.6252 Y12.5937
X-74.6357 Y12.5928
X-74.6462 Y12.5925
X-74.6567 Y12.5929
X-74.6671 Y12.5938
X-74.6775 Y12.5954
X-74.6877 Y12.5976
X-74.6979 Y12.6004
X-74.7078 Y12.6038
X-74.7175 Y12.6078
X-74.7269 Y12.6124
X-74.7361 Y12.6175
X-74.7449 Y12.6232
X-74.7534 Y12.6294
X-74.7615 Y12.636
X-74.7692 Y12.6432
X-74.7764 Y12.6508
X-74.7832 Y12.6588
X-74.7895 Y12.6672
X-74.7953 Y12.676
X-74.8005 Y12.685
X-74.8052 Y12.6944
X-74.8093 Y12.7041
X-74.8129 Y12.714
X-74.7479 Y12.8501
G2 X-74.7347 Y12.8585 I0.0139 J-0.0072
X-74.6928 Y12.8031 I0.0019 J-0.0421
X-74.7994 Y12.7225 I-0.112 J0.0374
G3 X-74.8126 Y12.7141 I0.0007 J-0.0156
G1 X-74.8274 Y12.6829
G3 X-74.6474 Y12.5024 I0.1596 J-0.0209
G1 X-74.5561 Y12.6171
G3 X-74.5543 Y12.6327 I-0.0126 J0.0093
X-74.6248 Y12.6444 I-0.039 J-0.0168
X-74.6457 Y12.5186 I0.0877 J-0.0792
G2 X-74.6475 Y12.503 I-0.0144 J-0.0062
G1 X-74.6698 Y12.4752
X-74.678 Y12.4703
X-74.6865 Y12.4659
X-74.6953 Y12.4621
X-74.7044 Y12.4589
X-74.7136 Y12.4563
X-74.7229 Y12.4542
X-74.7324 Y12.4528
X-74.7419 Y12.4519
X-74.7515 Y12.4517
X-74.7611 Y12.4521
X-74.7706 Y12.4531
X-74.7801 Y12.4547
X-74.7894 Y12.457
X-74.7986 Y12.4598
X-74.8075 Y12.4632
X-74.8162 Y12.4671
X-74.8247 Y12.4717
X-74.8328 Y12.4767
X-74.8406 Y12.4823
X-74.848 Y12.4883
X-74.8551 Y12.4949
X-74.8617 Y12.5018
X-74.8678 Y12.5092
X-74.8734 Y12.5169
X-74.8786 Y12.525
X-74.8832 Y12.5334
X-74.8872 Y12.5421
X-74.8907 Y12.551
X-74.8274 Y12.6829
G2 X-74.8142 Y12.6914 I0.0139 J-0.0072
X-74.773 Y12.6328 I0.002 J-0.0424
X-74.8768 Y12.5597 I-0.1093 J0.0449
G3 X-74.8899 Y12.5513 I0.0007 J-0.0156
G1 X-74.9034 Y12.5229
G3 X-74.8203 Y12.3808 I0.1201 J-0.0251
G1 X-74.8126 Y12.3784
X-74.8047 Y12.3765
X-74.7967 Y12.3751
X-74.7887 Y12.3742
X-74.7806 Y12.3737
X-74.7725 Y12.3738
X-74.7644 Y12.3744
X-74.7564 Y12.3755
X-74.7484 Y12.377
X-74.6698 Y12.4752
G3 X-74.6787 Y12.4998 I-0.0126 J0.0093
G1 X-74.68 Y12.5
X-74.8759 Y12.5294
X-74.8872 Y12.5311
G3 X-74.9034 Y12.5229 I-0.0023 J-0.0155
G1 X-74.9341 Y12.4584
X-74.9371 Y12.4521
X-74.9395 Y12.4456
X-74.9413 Y12.4389
X-74.9426 Y12.432
X-74.9433 Y12.4251
Y12.4181
X-74.9428 Y12.4112
X-74.9416 Y12.4043
X-74.9399 Y12.3976
X-74.9375 Y12.3911
X-74.9347 Y12.3847
X-74.9312 Y12.3787
X-74.9273 Y12.3729
X-74.9229 Y12.3676
X-74.918 Y12.3626
X-74.9151 Y12.3636
X-74.9125 Y12.3651
X-74.9102 Y12.3669
X-74.9083 Y12.3692
X-74.9068 Y12.3716
X-74.9058 Y12.3743
X-74.9053 Y12.3771
X-74.9052 Y12.3798
X-74.9051 Y12.3919
X-74.9045 Y12.451
G3 X-74.9341 Y12.4584 I-0.0156 J0.0002
G1 X-74.9678 Y12.3875
G3 X-74.9577 Y12.3513 I0.0128 J-0.0159
X-74.9357 Y12.3717 I-0.0136 J0.0369
X-74.9678 Y12.3875 I-0.0162 J0.0075
G1 X-74.9828 Y12.3558
X-74.9851 Y12.3503
X-74.9845 Y12.3465
X-74.9821 Y12.3437
X-74.9785 Y12.3425
X-74.9749 Y12.3434
X-74.9731 Y12.3445
X-74.9715 Y12.3455
G3 X-74.9801 Y12.3588 I-0.0043 J0.0067
X-74.9828 Y12.3558 I0.0043 J-0.0067
G1 X-74.9881 Y12.3447
X-74.9888 Y12.3433
X-74.9896 Y12.3416
X-74.9907 Y12.3388
X-74.99 Y12.3372
X-74.9884 Y12.3364
X-74.9867 Y12.3367
X-74.9852 Y12.3377
X-74.9869 Y12.3432
X-74.9896 Y12.3416
X-74.992 Y12.3365
X-74.9925 Y12.3354
X-74.9929 Y12.3347
X-74.993 Y12.3343
X-74.9931 Y12.3339
X-74.993 Y12.3335
X-74.9927 Y12.3333
X-74.9919 Y12.3338
X-74.9918 Y12.3348
X-74.9929 Y12.3347
X-74.9934 Y12.3337
X-74.9927 Y12.3333
X-74.9814 Y12.3398
G2 X-74.8203 Y12.3808 I0.1679 J-0.3225
G3 X-74.8084 Y12.3893 I-0.002 J0.0155
G1 X-74.8078 Y12.3916 Z-0.1298
X-74.8072 Y12.3938 Z-0.1293
X-74.8067 Y12.396 Z-0.1284
X-74.8072 Y12.3982 Z-0.127
X-74.8076 Y12.4002 Z-0.1252
X-74.8079 Y12.4018 Z-0.1231
X-74.8082 Y12.4031 Z-0.1208
X-74.8086 Y12.4037 Z-0.1187
X-74.8088 Y12.4041 Z-0.1165
X-74.8089 Y12.4043 Z-0.1144
G0 Z0.4
X-74.4806 Y8.9721
Z0.1
G3 X-74.5725 Y8.9184 Z0.0791 I-0.0197 J-0.0717 F13.333
X-74.5165 Y8.8279 Z0.0582 I0.0721 J-0.0179
X-74.4274 Y8.8861 Z0.0373 I0.0162 J0.0726
X-74.4877 Y8.9737 Z0.0164 I-0.0729 J0.0144
X-74.5739 Y8.9113 Z-0.0045 I-0.0126 J-0.0733
X-74.5094 Y8.8267 Z-0.0255 I0.0735 J-0.0108
X-74.4913 Y8.9743 Z-0.0666 I0.009 J0.0738
X-74.5094 Y8.8267 Z-0.1078 I-0.009 J-0.0738
X-74.426 Y8.9005 Z-0.13 I0.009 J0.0738
X-74.5747 I-0.0743 J0.
X-74.4263 Y8.8942 I0.0743 J0.
G1 X-74.426 Y8.9005
G3 X-74.5914 Y9.0187 I-0.0855 J0.0551 F60.
G1 X-74.5992 Y9.0128
X-74.6066 Y9.0065
X-74.6136 Y8.9997
X-74.6201 Y8.9925
X-74.6262 Y8.9848
X-74.6318 Y8.9768
X-74.6369 Y8.9685
X-74.6415 Y8.9598
X-74.6454 Y8.9509
X-74.6489 Y8.9418
X-74.6517 Y8.9324
X-74.6539 Y8.9229
X-74.6556 Y8.9133
X-74.6566 Y8.9036
X-74.657 Y8.8938
X-74.6568 Y8.8841
X-74.656 Y8.8743
X-74.6545 Y8.8647
X-74.6525 Y8.8551
X-74.6498 Y8.8457
X-74.6466 Y8.8365
X-74.6428 Y8.8275
X-74.6384 Y8.8188
X-74.6335 Y8.8103
X-74.6281 Y8.8022
X-74.6221 Y8.7945
X-74.6157 Y8.7871
X-74.6089 Y8.7802
X-74.6016 Y8.7737
X-74.5939 Y8.7676
X-74.5859 Y8.7621
X-74.5775 Y8.7571
X-74.5688 Y8.7526
X-74.5599 Y8.7487
X-74.5507 Y8.7454
X-74.5413 Y8.7426
X-74.5318 Y8.7404
X-74.5222 Y8.7389
X-74.5124 Y8.7379
X-74.5027 Y8.7376
X-74.4929 Y8.7379
X-74.4832 Y8.7388
X-74.4736 Y8.7403
X-74.464 Y8.7424
X-74.4546 Y8.7452
X-74.4455 Y8.7485
X-74.4365 Y8.7524
X-74.4278 Y8.7568
X-74.4194 Y8.7618
X-74.4113 Y8.7673
X-74.4036 Y8.7733
X-74.3963 Y8.7797
X-74.3894 Y8.7866
X-74.383 Y8.794
X-74.377 Y8.8017
X-74.3716 Y8.8098
X-74.3666 Y8.8182
X-74.3622 Y8.8269
X-74.3584 Y8.8359
X-74.3551 Y8.8451
G3 X-74.3509 Y9.0588 I-0.1301 J0.1095
G2 X-74.4886 Y9.1108 I0.0432 J0.3227
G3 X-74.6791 Y9.0697 I-0.0682 J-0.1457
G1 X-74.7013 Y8.8184
G3 X-74.4493 Y8.6561 I0.1946 J0.0252
G1 X-74.2625 Y8.8894
G3 X-74.2538 Y9.054 I-0.1044 J0.0881
X-74.2681 Y9.0408 I0.0012 J-0.0156
G1 X-74.2696 Y9.031
X-74.2899 Y8.902
X-74.29 Y8.8988
X-74.2896 Y8.8957
X-74.2885 Y8.8927
G3 X-74.2625 Y8.8894 I0.0141 J0.0069
G1 X-74.1868 Y8.9839
G3 X-74.1726 Y9.0581 I-0.0612 J0.0502
X-74.2 Y9.0522 I-0.0122 J-0.0098
G1 X-74.2139 Y8.998
G3 X-74.1868 Y8.9839 I0.0152 J-0.0039
X-74.1818 Y9.0688 I-0.02 J0.0438
G2 X-74.3522 Y9.0577 I-0.107 J0.3302
G3 X-74.3684 Y9.0338 I-0.0031 J-0.0153
X-74.3597 Y9.0395 I0.0043 J0.0029
X-74.3685 Y9.0394 I-0.0043 J-0.0029
X-74.4487 Y8.6861 I0.4675 J-0.2919
G1 X-74.4464 Y8.6677
G2 X-74.4493 Y8.6561 I-0.0155 J-0.0023
G1 X-74.4853 Y8.6111
X-74.4936 Y8.6055
X-74.5022 Y8.6003
X-74.5111 Y8.5957
X-74.5203 Y8.5916
X-74.5298 Y8.5881
X-74.5394 Y8.5852
X-74.5492 Y8.5829
X-74.5591 Y8.5811
X-74.569 Y8.58
X-74.5791 Y8.5794
X-74.5891
X-74.5992 Y8.5801
X-74.6091 Y8.5814
X-74.619 Y8.5832
X-74.6288 Y8.5857
X-74.6384 Y8.5887
X-74.6477 Y8.5923
X-74.6569 Y8.5964
X-74.6658 Y8.6011
X-74.6744 Y8.6063
X-74.6826 Y8.6121
X-74.6905 Y8.6183
X-74.698 Y8.625
X-74.7051 Y8.6321
X-74.7118 Y8.6396
X-74.718 Y8.6475
X-74.7013 Y8.8184
G2 X-74.6919 Y8.8309 I0.0155 J-0.002
X-74.6419 Y8.8087 I0.0145 J-0.0346
X-74.7076 Y8.6607 I-0.1114 J-0.0391
G3 X-74.717 Y8.6482 I0.0061 J-0.0144
G1 X-74.7205 Y8.6105
X-74.7193 Y8.6017
X-74.7175 Y8.5929
X-74.7151 Y8.5843
X-74.7121 Y8.5759
X-74.7086 Y8.5677
X-74.7045 Y8.5598
X-74.6999 Y8.5522
X-74.6947 Y8.5449
X-74.6891 Y8.538
X-74.683 Y8.5315
X-74.6764 Y8.5254
X-74.6695 Y8.5198
X-74.6622 Y8.5147
X-74.6545 Y8.5101
X-74.6466 Y8.506
X-74.6384 Y8.5025
X-74.63 Y8.4996
X-74.6214 Y8.4972
X-74.6126 Y8.4954
X-74.6038 Y8.4943
X-74.5949 Y8.4937
X-74.586 Y8.4938
X-74.5771 Y8.4945
X-74.4853 Y8.6111
G3 X-74.4834 Y8.6266 I-0.0126 J0.0093
X-74.5534 Y8.6388 I-0.039 J-0.0167
X-74.5755 Y8.5117 I0.0865 J-0.0804
G2 X-74.5773 Y8.4962 I-0.0144 J-0.0062
G1 X-74.5965 Y8.4721
G2 X-74.7346 Y8.475 I-0.0676 J0.0711
G1 X-74.7205 Y8.6105
G2 X-74.703 Y8.624 I0.0155 J-0.002
X-74.6841 Y8.6069 I-0.0028 J-0.0222
X-74.7269 Y8.4871 I-0.1151 J-0.0264
G3 X-74.7329 Y8.4767 I0.0096 J-0.0124
G1 X-74.7353 Y8.4509
G3 X-74.6675 Y8.3804 I0.0701 J-0.0004
G1 X-74.5965 Y8.4721
G3 X-74.6135 Y8.4965 I-0.0126 J0.0093
G1 X-74.7119 Y8.4676
X-74.7241 Y8.4639
G3 X-74.7353 Y8.4509 I0.0044 J-0.015
G1 X-74.7413 Y8.3858
G3 X-74.7041 Y8.3378 I0.031 J-0.0145
X-74.7209 Y8.3978 I-0.0316 J0.0235
X-74.7413 Y8.3858 I-0.0056 J-0.0138
G1 X-74.7462 Y8.3319
X-74.7465 Y8.3259
X-74.7455 Y8.32
X-74.7436 Y8.3143
X-74.7435 Y8.3142
X-74.7396 Y8.3101
X-74.7343 Y8.3082
X-74.7288 Y8.3091
X-74.7243 Y8.3125
G3 X-74.7176 Y8.3266 I-0.0316 J0.0235
X-74.7217 Y8.3406 I-0.0141 J0.0035
G1 X-74.7226 Y8.3414
G3 X-74.7462 Y8.3319 I-0.0091 J-0.0113
G1 X-74.7486 Y8.3059
X-74.7489 Y8.2999
X-74.7468 Y8.2966
X-74.7434 Y8.2949
X-74.7395 Y8.2952
X-74.7364 Y8.2974
X-74.7356 Y8.2985
X-74.7342 Y8.3004
G3 X-74.7473 Y8.3094 I-0.0065 J0.0045
X-74.7486 Y8.3059 I0.0065 J-0.0045
G1 X-74.7499 Y8.2925
X-74.75 Y8.2908
X-74.7501 Y8.2895
X-74.7502 Y8.288
X-74.7487 Y8.2863
X-74.7465 Y8.286
X-74.7446 Y8.2872
X-74.7442 Y8.2879
X-74.7471 Y8.2922
X-74.7501 Y8.2895
X-74.7506 Y8.2849
X-74.7507 Y8.2832
X-74.7508 Y8.2823
X-74.7509 Y8.2813
X-74.7504 Y8.2809
X-74.7498
X-74.7494 Y8.2812
X-74.749 Y8.2816
X-74.7488 Y8.2823
X-74.7492 Y8.283
X-74.7498 Y8.2832
X-74.7505 Y8.283
X-74.7508 Y8.2823
X-74.751 Y8.2804
X-74.7504 Y8.2798
X-74.6674 Y8.3836
G3 X-74.6648 Y8.389 I-0.0125 J0.0093
G1 X-74.6586 Y8.4131
X-74.4858 Y9.0822
X-74.4828 Y9.094
G3 X-74.4888 Y9.1106 I-0.0152 J0.0039
G2 X-74.5517 Y9.1631 I0.4249 J0.5736
G1 X-74.558 Y9.168
X-74.5646 Y9.1724
X-74.5715 Y9.1763
X-74.5787 Y9.1796
X-74.5861 Y9.1824
X-74.5937 Y9.1846
X-74.6015 Y9.1862
X-74.6094 Y9.1872
X-74.6173 Y9.1876
X-74.6252 Y9.1873
X-74.6331 Y9.1865
X-74.6409 Y9.1851
X-74.6486 Y9.1831
X-74.656 Y9.1804
X-74.6633 Y9.1773
X-74.6703 Y9.1735
X-74.6782 Y9.069
G3 X-74.6712 Y9.055 I0.0156 J-0.0009
X-74.6288 Y9.0713 I0.0153 J0.0233
X-74.6618 Y9.157 I-0.0762 J0.0199
G2 X-74.6688 Y9.1709 I0.0086 J0.0131
G1 X-74.6668 Y9.1918
X-74.6662 Y9.1976
X-74.6649 Y9.2033
X-74.663 Y9.2089
X-74.6605 Y9.2142
X-74.6575 Y9.2192
X-74.654 Y9.2239
X-74.65 Y9.2282
X-74.6456 Y9.232
X-74.6409 Y9.2354
X-74.6358 Y9.2382
X-74.6304 Y9.2405
X-74.6248 Y9.2422
X-74.6191 Y9.2434
X-74.6132 Y9.2439
X-74.6074 Y9.2438
G3 X-74.5517 Y9.1631 I0.2595 J0.1194
G2 X-74.5689 Y9.1375 I-0.0109 J-0.0112
G1 X-74.6466 Y9.1718
X-74.6575 Y9.1766
G2 X-74.6668 Y9.1918 I0.0063 J0.0143
G1 X-74.6614 Y9.251
G2 X-74.6255 Y9.2804 I0.0219 J0.0099
G1 X-74.6097 Y9.2439
X-74.6077 Y9.2398
G2 X-74.6092 Y9.2242 I-0.0142 J-0.0065
X-74.6344 Y9.228 I-0.0117 J0.0083
X-74.6278 Y9.265 I0.0374 J0.0124
G3 X-74.6255 Y9.2804 I-0.0122 J0.0098
G1 X-74.6301 Y9.2912
X-74.6316 Y9.2947
X-74.6342 Y9.3001
X-74.6386 Y9.3042
X-74.6399 Y9.305
X-74.6454 Y9.3065
X-74.651 Y9.3052
X-74.6553 Y9.3014
X-74.6572 Y9.296
X-74.6575 Y9.2907
G3 X-74.6307 Y9.2893 I0.0134 J-0.0007
X-74.6316 Y9.2947 I-0.0134 J0.0007
G1 X-74.6351 Y9.303
X-74.6379 Y9.3124
X-74.6399 Y9.3181
X-74.6432 Y9.3206
X-74.6473 Y9.3213
X-74.6513 Y9.3201
X-74.6543 Y9.3172
X-74.6556 Y9.3133
X-74.6558 Y9.3106
G3 X-74.6457 Y9.3011 I0.0091 J-0.0004
X-74.6379 Y9.3124 I-0.0009 J0.0091
G1 X-74.6386 Y9.3148
X-74.6404 Y9.3247
X-74.6417 Y9.3305
X-74.6451 Y9.333
X-74.6493 Y9.3331
X-74.6528 Y9.3309
X-74.6544 Y9.327
G3 Y9.3235 I0.0393 J-0.0022
X-74.6467 Y9.3166 I0.0071 J0.0002
X-74.6404 Y9.3247 I-0.0006 J0.007
G1 X-74.6426 Y9.3373
X-74.6433 Y9.3402
X-74.6459 Y9.3423
X-74.6492 Y9.3425
X-74.6521 Y9.3408
X-74.6534 Y9.3377
Y9.3367
G3 X-74.6477 Y9.3311 I0.0054 J-0.0002
X-74.6426 Y9.3373 I-0.0003 J0.0054
G1 X-74.6441 Y9.3456
X-74.6447 Y9.3485
X-74.6476 Y9.3503
X-74.6509 Y9.3495
X-74.6526 Y9.3465
Y9.3451
X-74.6455 Y9.3418
X-74.6441 Y9.3456
X-74.6454 Y9.3534
X-74.6461 Y9.3563
X-74.6483 Y9.3574
X-74.6507 Y9.3566
X-74.6518 Y9.3544
X-74.6519 Y9.353
X-74.6485 Y9.3497
X-74.6454 Y9.3534
X-74.6464 Y9.3588
X-74.6471 Y9.3617
X-74.6487 Y9.3626
X-74.6504 Y9.362
X-74.6513 Y9.3604
X-74.6514 Y9.3585
X-74.651 Y9.3572
X-74.65 Y9.3563
X-74.6487 Y9.356
X-74.6474 Y9.3564
X-74.6466 Y9.3575
X-74.6464 Y9.3588
X-74.6472 Y9.3636
X-74.6476 Y9.365
X-74.6488 Y9.3659
X-74.6502 Y9.3655
X-74.6509 Y9.3642
X-74.651 Y9.3634
X-74.6507 Y9.3624
X-74.65 Y9.3617
X-74.649 Y9.3614
X-74.648 Y9.3618
X-74.6474 Y9.3626
X-74.6472 Y9.3636
X-74.6479 Y9.3676
X-74.6483 Y9.3691
X-74.6492 Y9.3694
X-74.6501 Y9.3691
X-74.6506 Y9.3682
Y9.3675
X-74.6504 Y9.3667
X-74.6499 Y9.3662
X-74.6492 Y9.3661
X-74.6485 Y9.3663
X-74.648 Y9.3669
X-74.6479 Y9.3676
X-74.6485 Y9.3708
X-74.6488 Y9.3722
X-74.6494 Y9.3724
X-74.65 Y9.3721
X-74.6503 Y9.3715
Y9.3707
X-74.65 Y9.3701
X-74.6494 Y9.3698
X-74.6487 Y9.3701
X-74.6485 Y9.3708
X-74.649 Y9.3739
X-74.6492 Y9.3751
X-74.6494 Y9.3761
X-74.6498
X-74.6494
X-74.6498
X-74.6502 Y9.3723
X-74.6501 Y9.3717
X-74.6449 Y9.3455
X-74.6447 Y9.3434
G2 X-74.6469 Y9.3364 I-0.0117 J-0.0001
G3 X-74.6555 Y9.3148 I0.0378 J-0.0275
G1 X-74.6614 Y9.251
G3 X-74.6553 Y9.2377 I0.0156 J-0.0009
G1 X-74.6531 Y9.2367 Z-0.1298
X-74.651 Y9.2358 Z-0.1293
X-74.649 Y9.2348 Z-0.1284
X-74.6473 Y9.2347 Z-0.1274
X-74.6458 Y9.2345 Z-0.1262
X-74.6439 Y9.2348 Z-0.1243
X-74.6424 Y9.2351 Z-0.1221
X-74.6413 Y9.2353 Z-0.1196
X-74.6407 Y9.2354 Z-0.117
X-74.6404 Z-0.1144
G0 Z0.4
X-73.8584 Y8.5357
Z0.1
G3 X-73.9502 Y8.482 Z0.0791 I-0.0197 J-0.0717 F13.333
X-73.8943 Y8.3915 Z0.0582 I0.0721 J-0.0179
X-73.8051 Y8.4496 Z0.0373 I0.0162 J0.0726
X-73.8655 Y8.5373 Z0.0164 I-0.0729 J0.0144
X-73.9516 Y8.4748 Z-0.0045 I-0.0126 J-0.0733
X-73.8871 Y8.3902 Z-0.0255 I0.0735 J-0.0108
X-73.869 Y8.5378 Z-0.0666 I0.009 J0.0738
X-73.8871 Y8.3902 Z-0.1078 I-0.009 J-0.0738
X-73.8037 Y8.464 Z-0.13 I0.009 J0.0738
X-73.9524 I-0.0743 J0.
X-73.804 Y8.4578 I0.0743 J0.
G1 X-73.8037 Y8.464
G3 X-73.9691 Y8.5823 I-0.0855 J0.0552 F60.
G1 X-73.9769 Y8.5764
X-73.9843 Y8.57
X-73.9913 Y8.5632
X-73.9979 Y8.556
X-74.004 Y8.5484
X-74.0096 Y8.5404
X-74.0146 Y8.532
X-74.0192 Y8.5234
X-74.0232 Y8.5145
X-74.0266 Y8.5053
X-74.0294 Y8.496
X-74.0317 Y8.4865
X-74.0333 Y8.4768
X-74.0343 Y8.4671
X-74.0347 Y8.4574
X-74.0345 Y8.4476
X-74.0337 Y8.4379
X-74.0323 Y8.4282
X-74.0302 Y8.4187
X-74.0276 Y8.4093
X-74.0243 Y8.4001
X-74.0205 Y8.3911
X-74.0162 Y8.3823
X-74.0113 Y8.3739
X-74.0058 Y8.3658
X-73.9999 Y8.358
X-73.9935 Y8.3506
X-73.9866 Y8.3437
X-73.9793 Y8.3372
X-73.9716 Y8.3312
X-73.9636 Y8.3256
X-73.9552 Y8.3206
X-73.9465 Y8.3162
X-73.9376 Y8.3123
X-73.9284 Y8.3089
X-73.9191 Y8.3062
X-73.9095 Y8.304
X-73.8999 Y8.3024
X-73.8902 Y8.3015
X-73.8804 Y8.3012
X-73.8707 Y8.3015
X-73.8609 Y8.3024
X-73.8513 Y8.3039
X-73.8418 Y8.306
X-73.8324 Y8.3087
X-73.8232 Y8.312
X-73.8142 Y8.3159
X-73.8055 Y8.3203
X-73.7971 Y8.3253
X-73.7891 Y8.3308
X-73.7814 Y8.3368
X-73.7741 Y8.3433
X-73.7672 Y8.3502
X-73.7607 Y8.3575
X-73.7548 Y8.3653
X-73.7493 Y8.3733
X-73.7444 Y8.3818
X-73.74 Y8.3905
X-73.7361 Y8.3995
X-73.7329 Y8.4087
G3 X-73.9348 Y8.6999 I-0.15 J0.1117
G1 X-74.0861 Y8.5112
X-74.0912 Y8.5014
X-74.0957 Y8.4914
X-74.0997 Y8.4812
X-74.1031 Y8.4707
X-74.1059 Y8.4601
X-74.1081 Y8.4494
X-74.1097 Y8.4385
X-74.1106 Y8.4275
X-74.111 Y8.4165
X-74.1107 Y8.4056
X-74.1098 Y8.3946
X-74.1083 Y8.3837
X-74.1062 Y8.3729
X-74.1035 Y8.3623
X-74.1001 Y8.3518
X-74.0962 Y8.3416
X-74.0918 Y8.3315
X-74.0867 Y8.3218
X-74.0812 Y8.3123
X-74.0751 Y8.3032
X-74.0684 Y8.2944
X-74.0614 Y8.286
X-74.0538 Y8.278
X-74.0458 Y8.2705
X-74.0374 Y8.2634
X-74.0286 Y8.2568
X-74.0195 Y8.2507
X-74.01 Y8.2451
X-74.0002 Y8.2401
X-73.9902 Y8.2357
X-73.9799 Y8.2318
X-73.9694 Y8.2285
X-73.9588 Y8.2258
X-73.948 Y8.2237
X-73.9371 Y8.2222
G2 X-73.7293 Y8.3106 I0.3904 J-0.6295
G3 X-73.6871 Y8.338 I0.0021 J0.0428
X-73.7085 Y8.3522 I-0.0157 J-0.0004
G1 X-73.7094 Y8.3518
X-73.7387 Y8.3404
G3 X-73.7293 Y8.3106 I0.0057 J-0.0146
G1 X-73.6877 Y8.3222
X-73.6873 Y8.3228
X-73.6849 Y8.6424
G3 X-73.7463 Y8.751 I-0.1366 J-0.0055
X-73.7639 Y8.7285 I-0.0038 J-0.0152
G1 X-73.7144 Y8.6357
X-73.7125 Y8.6329
X-73.7101 Y8.6306
X-73.7073 Y8.6289
G3 X-73.7006 Y8.6274 I0.0068 J0.0141
X-73.6849 Y8.6424 I0. J0.0156
G1 X-73.6843 Y8.7329
G2 X-73.8238 Y8.7803 I0.2122 J0.8528
G1 X-73.8263 Y8.7833
X-73.8292 Y8.786
X-73.8325 Y8.7883
X-73.836 Y8.7901
X-73.8397 Y8.7914
X-73.8436 Y8.7922
X-73.8476 Y8.7925
X-73.8515 Y8.7922
X-73.8554 Y8.7915
X-73.8591 Y8.7902
X-73.8627 Y8.7884
X-73.8659 Y8.7862
X-73.8675 Y8.7835
X-73.8686 Y8.7806
X-73.869 Y8.7776
X-73.8689 Y8.7745
X-73.8681 Y8.7715
X-73.8668 Y8.7687
X-73.8649 Y8.7663
X-73.8627 Y8.7642
X-73.86 Y8.7626
X-73.8572 Y8.7613
X-73.837 Y8.7519
G3 X-73.8238 Y8.7803 I0.0066 J0.0142
G1 X-73.8584 Y8.7951
X-73.859 Y8.7948
X-73.9348 Y8.7001
G3 X-73.9383 Y8.6906 I0.0122 J-0.0098
G2 X-73.9415 Y8.6814 I-0.0156 J0.0003
G1 X-73.9479 Y8.6729
X-74.0538 Y8.5341
X-74.0558 Y8.5319
X-74.0581 Y8.5302
X-74.0607 Y8.5289
G3 X-74.0861 Y8.5112 I0.0219 J-0.0583
G1 X-74.1545 Y8.4257
G3 X-74.0277 Y8.1592 I0.1807 J-0.0774
G2 X-73.9372 Y8.2218 I0.2848 J-0.3156
G3 X-73.9301 Y8.2357 I-0.0085 J0.0131
X-73.9712 Y8.2633 I-0.0309 J-0.0016
X-74.0226 Y8.174 I0.0259 J-0.0744
G2 X-74.0277 Y8.1592 I-0.0154 J-0.003
G1 X-74.0482 Y8.1426
G2 X-74.2574 Y8.2963 I-0.0474 J0.1548
G1 X-74.1545 Y8.4257
G2 X-74.1398 Y8.4308 I0.0119 J-0.0102
X-74.1098 Y8.3795 I-0.0072 J-0.0387
X-74.2434 Y8.3014 I-0.1118 J0.038
G3 X-74.2581 Y8.2962 I-0.0029 J-0.0154
G1 X-74.2805 Y8.2683
G3 X-74.142 Y8.0495 I0.1477 J-0.0597
G1 X-74.0837 Y8.1125
X-74.0719 Y8.1235
X-74.0482 Y8.1426
G3 X-74.0431 Y8.1574 I-0.0103 J0.0118
X-74.0564 Y8.1695 I-0.0148 J-0.0029
X-74.1389 Y8.066 I-0.0079 J-0.0783
G2 X-74.142 Y8.0507 I-0.0148 J-0.005
G1 X-74.1535 Y8.0385
X-74.1545 Y8.0373
X-74.157 Y8.0339
G2 X-74.3735 Y8.152 I-0.0714 J0.1264
G1 X-74.2805 Y8.2683
G2 X-74.2657 Y8.2735 I0.0119 J-0.0102
X-74.238 Y8.2089 I-0.0078 J-0.0416
X-74.3588 Y8.1572 I-0.099 J0.0644
G3 X-74.3736 Y8.152 I-0.0029 J-0.0154
G1 X-74.3954 Y8.1247
X-74.398 Y8.1155
X-74.4 Y8.1061
X-74.4014 Y8.0966
X-74.4023 Y8.0871
X-74.4025 Y8.0775
X-74.4021 Y8.0679
X-74.4012 Y8.0584
X-74.3996 Y8.0489
X-74.3975 Y8.0396
X-74.3948 Y8.0304
X-74.3915 Y8.0214
X-74.3877 Y8.0126
X-74.3833 Y8.0041
X-74.3784 Y7.9958
X-74.373 Y7.9879
X-74.3671 Y7.9804
X-74.3608 Y7.9732
X-74.354 Y7.9664
X-74.3468 Y7.9601
X-74.3392 Y7.9542
X-74.3313 Y7.9488
X-74.323 Y7.9439
X-74.3145 Y7.9396
X-74.3057 Y7.9357
X-74.2967 Y7.9325
X-74.2875 Y7.9298
X-74.2782 Y7.9276
X-74.2687 Y7.9261
X-74.2592 Y7.9251
X-74.2496 Y7.9248
X-74.24 Y7.925
X-74.2305 Y7.9259
G2 X-74.157 Y8.0339 I0.8312 J-0.4864
G3 X-74.1558 Y8.0495 I-0.0129 J0.0089
X-74.1858 Y8.0636 I-0.0236 J-0.0113
X-74.2318 Y7.9432 I0.0193 J-0.0763
G2 X-74.2307 Y7.9276 I-0.013 J-0.0088
G1 X-74.2409 Y7.9085
G2 X-74.4829 Y8.0153 I-0.0905 J0.1226
G1 X-74.3954 Y8.1247
G2 X-74.3733 Y8.1264 I0.0119 J-0.0102
X-74.3674 Y8.1068 I-0.0124 J-0.0145
X-74.4723 Y8.0208 I-0.1138 J0.0318
G3 X-74.4829 Y8.0153 I0.0012 J-0.0156
G1 X-74.5023 Y7.9912
X-74.5047 Y7.9814
X-74.5066 Y7.9714
X-74.5078 Y7.9614
X-74.5084 Y7.9513
Y7.9412
X-74.5078 Y7.9311
X-74.5065 Y7.9211
X-74.5047 Y7.9112
X-74.5022 Y7.9013
X-74.4992 Y7.8917
X-74.4956 Y7.8823
X-74.4914 Y7.8731
X-74.4866 Y7.8642
X-74.4813 Y7.8556
X-74.4755 Y7.8473
X-74.4692 Y7.8394
X-74.4624 Y7.8319
X-74.4552 Y7.8248
X-74.4476 Y7.8182
X-74.4395 Y7.8121
X-74.4311 Y7.8064
X-74.4224 Y7.8013
X-74.4134 Y7.7968
X-74.4041 Y7.7928
X-74.3946 Y7.7893
X-74.3849 Y7.7865
X-74.3751 Y7.7842
X-74.3651 Y7.7826
X-74.355 Y7.7816
X-74.3449 Y7.7812
X-74.3348 Y7.7814
X-74.3248 Y7.7822
X-74.3148 Y7.7837
X-74.3049 Y7.7857
X-74.2951 Y7.7884
X-74.2821 Y7.8257
X-74.2726 Y7.8485
X-74.2409 Y7.9085
G3 X-74.242 Y7.9241 I-0.0141 J0.0068
X-74.2648 Y7.9319 I-0.0166 J-0.0112
X-74.2986 Y7.8044 I0.0247 J-0.0748
G2 X-74.2954 Y7.7891 I-0.0116 J-0.0105
G1 X-74.304 Y7.7655
G2 X-74.5852 Y7.8698 I-0.1137 J0.1248
G1 X-74.5939 Y7.8727
X-74.5933 Y7.8765
X-74.5914 Y7.8798
X-74.5023 Y7.9912
G2 X-74.4802 Y7.9929 I0.0119 J-0.0102
X-74.4747 Y7.9758 I-0.0112 J-0.013
X-74.5807 Y7.8852 I-0.1149 J0.0272
G3 X-74.5914 Y7.8798 I0.0012 J-0.0156
G1 X-74.6102 Y7.8563
X-74.6126 Y7.8462
X-74.6145 Y7.8358
X-74.6157 Y7.8254
X-74.6164 Y7.815
Y7.8045
X-74.6158 Y7.794
X-74.6147 Y7.7836
X-74.6129 Y7.7733
X-74.6105 Y7.7631
X-74.6076 Y7.753
X-74.604 Y7.7431
X-74.6 Y7.7335
X-74.5953 Y7.7241
X-74.5901 Y7.715
X-74.5844 Y7.7062
X-74.5782 Y7.6977
X-74.5715 Y7.6896
X-74.5644 Y7.682
X-74.5568 Y7.6747
X-74.5489 Y7.6679
X-74.5405 Y7.6616
X-74.5318 Y7.6557
X-74.5228 Y7.6504
X-74.5135 Y7.6456
X-74.5039 Y7.6414
X-74.4941 Y7.6377
X-74.4841 Y7.6346
X-74.4739 Y7.632
X-74.4636 Y7.6301
X-74.4532 Y7.6288
X-74.4427 Y7.628
X-74.4323 Y7.6279
X-74.4218 Y7.6284
X-74.4114 Y7.6295
X-74.401 Y7.6311
X-74.3908 Y7.6334
G3 X-74.3357 Y7.6408 I0.0251 J0.0223
G1 X-74.3199 Y7.7133
X-74.3159 Y7.7312
X-74.3078 Y7.7548
X-74.304 Y7.7655
G3 X-74.3072 Y7.7808 I-0.0149 J0.0048
X-74.3283 Y7.7843 I-0.0127 J-0.0115
X-74.341 Y7.6555 I0.0383 J-0.0688
G2 X-74.3357 Y7.6407 I-0.0101 J-0.0119
G1 X-74.3366 Y7.6366
X-74.3397 Y7.6178
G2 X-74.618 Y7.6206 I-0.1383 J0.0925
G3 X-74.6414 Y7.818 I-0.3854 J0.0545
G1 X-74.6102 Y7.8563
G2 X-74.5955 Y7.8615 I0.0119 J-0.0102
X-74.5184 Y7.7195 I-0.0192 J-0.1024
X-74.6092 Y7.6319 I-0.1456 J0.06
G3 X-74.6192 Y7.6198 I0.0054 J-0.0147
G1 X-74.6201 Y7.613
X-74.6234 Y7.5894
G3 X-74.5418 Y7.4798 I0.1144 J0.
X-74.5326 Y7.504 I-0.0037 J0.0152
G1 X-74.5329 Y7.5043
X-74.5957 Y7.5937
X-74.5969 Y7.5953
X-74.5983 Y7.5967
G3 X-74.6234 Y7.5894 I-0.0101 J-0.0119
G1 X-74.627 Y7.5762
X-74.644 Y7.5291
G3 X-74.6265 Y7.4625 I0.0416 J-0.0247
X-74.6145 Y7.4775 I-0.0037 J0.0152
G1 X-74.6144 Y7.4877
X-74.6138 Y7.523
G3 X-74.644 Y7.5291 I-0.0156 J0.0003
G2 X-74.6692 Y7.4801 I-0.1485 J0.0455
G1 X-74.6722 Y7.4748
X-74.674 Y7.4691
X-74.6741 Y7.4688
X-74.6736 Y7.4633
X-74.6706 Y7.4586
X-74.6658 Y7.4558
X-74.6603 Y7.4556
G3 X-74.6522 Y7.4581 I-0.0175 J0.0726
X-74.6622 Y7.4855 I-0.005 J0.0137
X-74.6692 Y7.4801 I0.005 J-0.0137
G1 X-74.6816 Y7.4606
X-74.6822 Y7.4596
X-74.683 Y7.4584
X-74.6859 Y7.4532
X-74.6856 Y7.4519
X-74.6846 Y7.4511
X-74.6833 Y7.4509
G3 X-74.6783 Y7.4525 I-0.0092 J0.0383
G1 X-74.6797 Y7.4601
X-74.683 Y7.4584
X-74.6871 Y7.4518
X-74.6876 Y7.451
X-74.6879 Y7.4506
X-74.6874 Y7.4501
X-74.6872 Y7.4503
X-74.6879 Y7.4506
X-74.6875 Y7.4501
X-74.3482 Y7.5192
X-74.3477 Y7.5196
X-74.3405 Y7.613
