%
(971-23-P-0055_DISTAL BEARING CLAMP HALF_1492)
(T1  D=0.1492 CR=0. - ZMIN=-0.155 - FLAT END MILL)
G90 G94 G17 G91.1
G64 P0.001 Q0.001
G20
G53 G0 Z0.
(.3 CIRCLUAR THROUGH HOLE 2)
M9
T1 M6
S22000 M3
G4 P10.
G54
M7
G0 X-0.7568 Y2.799
G43 Z0.6 H1
G0 Z0.1151
G1 Z0.05 F40.
Y2.7915
G3 X-0.7498 Y2.7845 I0.0069 J0.
Y2.8123 Z0.0344 I0. J0.0139
Y2.7845 Z0.0188 I0. J-0.0139
Y2.8123 Z0.0032 I0. J0.0139
Y2.7845 Z-0.0124 I0. J-0.0139
Y2.8123 Z-0.028 I0. J0.0139
Y2.7845 Z-0.0436 I0. J-0.0139
Y2.8123 Z-0.0592 I0. J0.0139
Y2.7845 Z-0.0748 I0. J-0.0139
Y2.8123 Z-0.0904 I0. J0.0139
Y2.7845 Z-0.106 I0. J-0.0139
Y2.8123 Z-0.1217 I0. J0.0139
Y2.7845 Z-0.1373 I0. J-0.0139
Y2.8123 Z-0.1529 I0. J0.0139
X-0.7556 Y2.8111 Z-0.155 I0. J-0.0139
X-0.744 Y2.7858 I0.0058 J-0.0126
X-0.7556 Y2.8111 I-0.0058 J0.0126
X-0.7591 Y2.8019 I0.0029 J-0.0063
G1 X-0.7559 Y2.7951
G0 Z0.4
X-2.0556 Y2.0491
Z0.1151
G1 Z0.05 F40.
Y2.0417
G3 X-2.0486 Y2.0347 I0.007 J0.
Y2.0625 Z0.0344 I0. J0.0139
Y2.0347 Z0.0188 I0. J-0.0139
Y2.0625 Z0.0032 I0. J0.0139
Y2.0347 Z-0.0124 I0. J-0.0139
Y2.0625 Z-0.028 I0. J0.0139
Y2.0347 Z-0.0436 I0. J-0.0139
Y2.0625 Z-0.0592 I0. J0.0139
Y2.0347 Z-0.0748 I0. J-0.0139
Y2.0625 Z-0.0904 I0. J0.0139
Y2.0347 Z-0.106 I0. J-0.0139
Y2.0625 Z-0.1217 I0. J0.0139
Y2.0347 Z-0.1373 I0. J-0.0139
Y2.0625 Z-0.1529 I0. J0.0139
X-2.0544 Y2.0612 Z-0.155 I0. J-0.0139
X-2.0428 Y2.036 I0.0058 J-0.0126
X-2.0544 Y2.0612 I-0.0058 J0.0126
X-2.0578 Y2.052 I0.0029 J-0.0063
G1 X-2.0547 Y2.0452
G0 Z0.4
X-2.8054 Y0.7504
Z0.1151
G1 Z0.05 F40.
Y0.7429
G3 X-2.7984 Y0.7359 I0.0069 J0.
Y0.7637 Z0.0344 I0. J0.0139
Y0.7359 Z0.0188 I0. J-0.0139
Y0.7637 Z0.0032 I0. J0.0139
Y0.7359 Z-0.0124 I0. J-0.0139
Y0.7637 Z-0.028 I0. J0.0139
Y0.7359 Z-0.0436 I0. J-0.0139
Y0.7637 Z-0.0592 I0. J0.0139
Y0.7359 Z-0.0748 I0. J-0.0139
Y0.7637 Z-0.0904 I0. J0.0139
Y0.7359 Z-0.106 I0. J-0.0139
Y0.7637 Z-0.1217 I0. J0.0139
Y0.7359 Z-0.1373 I0. J-0.0139
Y0.7637 Z-0.1529 I0. J0.0139
X-2.8042 Y0.7625 Z-0.155 I0. J-0.0139
X-2.7927 Y0.7372 I0.0058 J-0.0126
X-2.8042 Y0.7625 I-0.0058 J0.0126
X-2.8077 Y0.7533 I0.0029 J-0.0063
G1 X-2.8046 Y0.7465
G0 Z0.4
X-2.8054 Y-0.7493
Z0.1151
G1 Z0.05 F40.
Y-0.7568
G3 X-2.7984 Y-0.7637 I0.0069 J0.
Y-0.7359 Z0.0344 I0. J0.0139
Y-0.7637 Z0.0188 I0. J-0.0139
Y-0.7359 Z0.0032 I0. J0.0139
Y-0.7637 Z-0.0124 I0. J-0.0139
Y-0.7359 Z-0.028 I0. J0.0139
Y-0.7637 Z-0.0436 I0. J-0.0139
Y-0.7359 Z-0.0592 I0. J0.0139
Y-0.7637 Z-0.0748 I0. J-0.0139
Y-0.7359 Z-0.0904 I0. J0.0139
Y-0.7637 Z-0.106 I0. J-0.0139
Y-0.7359 Z-0.1217 I0. J0.0139
Y-0.7637 Z-0.1373 I0. J-0.0139
Y-0.7359 Z-0.1529 I0. J0.0139
X-2.8042 Y-0.7372 Z-0.155 I0. J-0.0139
X-2.7927 Y-0.7625 I0.0058 J-0.0126
X-2.8042 Y-0.7372 I-0.0058 J0.0126
X-2.8077 Y-0.7464 I0.0029 J-0.0063
G1 X-2.8046 Y-0.7532
G0 Z0.4
X-2.0556 Y-2.0481
Z0.1151
G1 Z0.05 F40.
Y-2.0556
G3 X-2.0486 Y-2.0625 I0.007 J0.
Y-2.0347 Z0.0344 I0. J0.0139
Y-2.0625 Z0.0188 I0. J-0.0139
Y-2.0347 Z0.0032 I0. J0.0139
Y-2.0625 Z-0.0124 I0. J-0.0139
Y-2.0347 Z-0.028 I0. J0.0139
Y-2.0625 Z-0.0436 I0. J-0.0139
Y-2.0347 Z-0.0592 I0. J0.0139
Y-2.0625 Z-0.0748 I0. J-0.0139
Y-2.0347 Z-0.0904 I0. J0.0139
Y-2.0625 Z-0.106 I0. J-0.0139
Y-2.0347 Z-0.1217 I0. J0.0139
Y-2.0625 Z-0.1373 I0. J-0.0139
Y-2.0347 Z-0.1529 I0. J0.0139
X-2.0544 Y-2.036 Z-0.155 I0. J-0.0139
X-2.0428 Y-2.0612 I0.0058 J-0.0126
X-2.0544 Y-2.036 I-0.0058 J0.0126
X-2.0578 Y-2.0452 I0.0029 J-0.0063
G1 X-2.0547 Y-2.052
G0 Z0.4
X-0.7568 Y-2.7979
Z0.1151
G1 Z0.05 F40.
Y-2.8054
G3 X-0.7498 Y-2.8123 I0.0069 J0.
Y-2.7845 Z0.0344 I0. J0.0139
Y-2.8123 Z0.0188 I0. J-0.0139
Y-2.7845 Z0.0032 I0. J0.0139
Y-2.8123 Z-0.0124 I0. J-0.0139
Y-2.7845 Z-0.028 I0. J0.0139
Y-2.8123 Z-0.0436 I0. J-0.0139
Y-2.7845 Z-0.0592 I0. J0.0139
Y-2.8123 Z-0.0748 I0. J-0.0139
Y-2.7845 Z-0.0904 I0. J0.0139
Y-2.8123 Z-0.106 I0. J-0.0139
Y-2.7845 Z-0.1217 I0. J0.0139
Y-2.8123 Z-0.1373 I0. J-0.0139
Y-2.7845 Z-0.1529 I0. J0.0139
X-0.7556 Y-2.7858 Z-0.155 I0. J-0.0139
X-0.744 Y-2.8111 I0.0058 J-0.0126
X-0.7556 Y-2.7858 I-0.0058 J0.0126
X-0.7591 Y-2.795 I0.0029 J-0.0063
G1 X-0.7559 Y-2.8018
G0 Z0.6
(2D SLOT CUT)
M7
G0 X-3.3268 Y-0.9926
Z0.6
Z0.2
G1 Z0.1 F13.333
G2 X-3.4718 Y0. Z-0.0775 I3.3268 J0.9926 F40.
X-3.0705 Y1.6202 I3.4718 J0. F55.
G1 Z-0.075
G2 X-2.6514 Y2.2413 I3.0705 J-1.6202
G1 Z-0.0775 F13.333
G2 X-0.1857 Y3.4668 I2.6514 J-2.2413 F55.
X-0.1001 Y3.4525 I0.0107 J-0.1993
G1 Z-0.075
G2 X0.0246 Y3.2675 I-0.0749 J-0.185
G1 Y2.8861
G2 X-0.0949 Y2.7033 I-0.1996 J0.
G1 Z-0.0775 F13.333
G2 X-0.1629 Y2.6869 I-0.0801 J0.1828 F55.
G3 Y-2.6869 I0.1629 J-2.6869
G2 X-0.1246 Y-2.693 I-0.0121 J-0.1992
G1 Z-0.075
G2 X0.0246 Y-2.8861 I-0.0504 J-0.1931
G1 Y-3.2607
Z-0.0775 F13.333
Y-3.2675 F55.
G2 X-0.1857 Y-3.4668 I-0.1996 J0.
X-2.6472 Y-2.2462 I0.1857 J3.4668
G1 Z-0.075
G2 X-3.0675 Y-1.6259 I2.6472 J2.2462
G1 Z-0.0775 F13.333
G2 X-3.4718 Y0. I3.0675 J1.6259 F55.
X-3.4307 Y0.5321 Z-0.155 I3.4718 J0. F40.
X-3.0705 Y1.6202 I3.4307 J-0.5321 F55.
G1 Z-0.075
G2 X-2.6514 Y2.2413 I3.0705 J-1.6202
G1 Z-0.155 F13.333
G2 X-0.1857 Y3.4668 I2.6514 J-2.2413 F55.
X-0.1001 Y3.4525 I0.0107 J-0.1993
G1 Z-0.075
G2 X0.0246 Y3.2675 I-0.0749 J-0.185
G1 Y2.8861
G2 X-0.0949 Y2.7033 I-0.1996 J0.
G1 Z-0.155 F13.333
G2 X-0.1629 Y2.6869 I-0.0801 J0.1828 F55.
G3 Y-2.6869 I0.1629 J-2.6869
G2 X-0.1246 Y-2.693 I-0.0121 J-0.1992
G1 Z-0.075
G2 X0.0246 Y-2.8861 I-0.0504 J-0.1931
G1 Y-3.2607
Z-0.155 F13.333
Y-3.2675 F55.
G2 X-0.1857 Y-3.4668 I-0.1996 J0.
X-2.6472 Y-2.2462 I0.1857 J3.4668
G1 Z-0.075
G2 X-3.0675 Y-1.6259 I2.6472 J2.2462
G1 Z-0.155 F13.333
G2 X-3.4307 Y0.5321 I3.0675 J1.6259 F55.
G0 Z0.6
M9
G53 Z0.
M30
%
