%
(971-23-P-0035_CAPSTAN MIDDLE PLATE_1492)
(T1  D=0.1492 CR=0. - ZMIN=-0.28 - FLAT END MILL)
G90 G94 G17 G91.1
G64 P0.001 Q0.001
G20
G53 G0 Z0.
(.3 CIRCLUAR THROUGH HOLE 2)
M9
T1 M6
S22000 M3
G4 P10.
G54
M7
G0 X-3.6321 Y50.0274
G43 Z0.6 H1
G0 Z0.13
G1 Z0.0649 F40.
G19 G2 Y50.0125 Z0.05 J-0.0149 K0.
G1 Y50.005
G17 G3 X-3.6191 Y49.9921 I0.0129 J0.
Y50.0439 Z0.0323 I0. J0.0259
Y49.9921 Z0.0146 I0. J-0.0259
Y50.0439 Z-0.0032 I0. J0.0259
Y49.9921 Z-0.0209 I0. J-0.0259
X-3.5983 Y50.0026 Z-0.0262 I0. J0.0259
X-3.64 Y50.0334 Z-0.0439 I-0.0208 J0.0154
X-3.6386 Y50.0008 Z-0.0515 I0.0208 J-0.0154
X-3.5997 Y50.0351 Z-0.0693 I0.0194 J0.0171
X-3.6318 Y50.0406 Z-0.0769 I-0.0194 J-0.0171
X-3.6065 Y49.9954 Z-0.0946 I0.0126 J-0.0226
X-3.6318 Y50.0406 Z-0.1124 I-0.0126 J0.0226
X-3.6169 Y49.9922 Z-0.1277 I0.0126 J-0.0226
X-3.6213 Y50.0438 Z-0.1454 I-0.0022 J0.0258
X-3.6448 Y50.0212 Z-0.1531 I0.0022 J-0.0258
X-3.5934 Y50.0147 Z-0.1708 I0.0257 J-0.0033
X-3.6105 Y50.0424 Z-0.1785 I-0.0257 J0.0033
X-3.6277 Y49.9935 Z-0.1962 I-0.0086 J-0.0244
X-3.6105 Y50.0424 Z-0.2139 I0.0086 J0.0244
X-3.6277 Y49.9935 Z-0.2316 I-0.0086 J-0.0244
X-3.6105 Y50.0424 Z-0.2493 I0.0086 J0.0244
X-3.6337 Y50.0394 Z-0.2546 I-0.0086 J-0.0244
X-3.6046 Y49.9965 Z-0.2723 I0.0145 J-0.0214
X-3.5951 Y50.0277 Z-0.28 I-0.0145 J0.0214
X-3.6431 Y50.0083 I-0.024 J-0.0097
X-3.5951 Y50.0277 I0.024 J0.0097
X-3.612 Y50.0348 I-0.012 J-0.0048
G1 X-3.6189 Y50.032
X-3.6216 Y50.0309 Z-0.2797
X-3.6242 Y50.0299 Z-0.2789
X-3.6266 Y50.0289 Z-0.2775
X-3.6287 Y50.0281 Z-0.2756
X-3.6304 Y50.0274 Z-0.2734
X-3.6317 Y50.0269 Z-0.2708
X-3.6325 Y50.0266 Z-0.268
X-3.6327 Y50.0264 Z-0.2651
G0 Z0.4
X-3.6945 Y50.6712
Z0.13
G1 Z0.0649 F40.
G19 G2 Y50.6563 Z0.05 J-0.0149 K0.
G1 Y50.6488
G17 G3 X-3.6848 Y50.6392 I0.0096 J0.
Y50.6777 Z0.0335 I0. J0.0192
X-3.7036 Y50.663 Z0.0264 I0. J-0.0192
X-3.6661 Y50.6539 Z0.0099 I0.0187 J-0.0045
X-3.7035 Y50.663 Z-0.0067 I-0.0187 J0.0045
X-3.6703 Y50.6459 Z-0.0207 I0.0187 J-0.0045
X-3.6994 Y50.671 Z-0.0373 I-0.0146 J0.0126
X-3.6703 Y50.6459 Z-0.0538 I0.0146 J-0.0126
X-3.6994 Y50.671 Z-0.0704 I-0.0146 J0.0126
X-3.6703 Y50.6459 Z-0.0869 I0.0146 J-0.0126
X-3.6994 Y50.671 Z-0.1035 I-0.0146 J0.0126
X-3.6703 Y50.6459 Z-0.12 I0.0146 J-0.0126
X-3.6994 Y50.671 Z-0.1366 I-0.0146 J0.0126
X-3.7031 Y50.6647 Z-0.1386 I0.0146 J-0.0126
X-3.6666 Y50.6522 Z-0.1551 I0.0182 J-0.0062
X-3.6745 Y50.6747 Z-0.1621 I-0.0182 J0.0062
X-3.6952 Y50.6422 Z-0.1787 I-0.0103 J-0.0162
X-3.6715 Y50.6446 Z-0.1857 I0.0103 J0.0162
X-3.6982 Y50.6723 Z-0.2023 I-0.0134 J0.0139
X-3.7015 Y50.6487 Z-0.2093 I0.0134 J-0.0139
X-3.6682 Y50.6682 Z-0.2258 I0.0166 J0.0097
X-3.6904 Y50.6769 Z-0.2329 I-0.0166 J-0.0097
X-3.6793 Y50.64 Z-0.2494 I0.0055 J-0.0184
X-3.6656 Y50.6595 Z-0.2564 I-0.0055 J0.0184
X-3.7041 Y50.6574 Z-0.273 I-0.0192 J-0.001
X-3.6884 Y50.6395 Z-0.28 I0.0192 J0.001
X-3.6813 Y50.6774 I0.0035 J0.0189
X-3.6884 Y50.6395 I-0.0035 J-0.0189
X-3.6771 Y50.6472 I0.0018 J0.0095
G1 X-3.6758 Y50.6546
X-3.6752 Y50.6574 Z-0.2797
X-3.6747 Y50.6602 Z-0.2789
X-3.6743 Y50.6627 Z-0.2775
X-3.6738 Y50.6649 Z-0.2756
X-3.6735 Y50.6668 Z-0.2734
X-3.6733 Y50.6681 Z-0.2708
X-3.6731 Y50.669 Z-0.268
Y50.6692 Z-0.2651
G0 Z0.4
X-3.7713 Y51.3677
Z0.13
G1 Z0.0649 F40.
G19 G3 Y51.3826 Z0.05 J0.0149 K0.
G1 Y51.3901
G17 G3 X-3.7809 Y51.3997 I-0.0096 J0.
Y51.3612 Z0.0335 I0. J-0.0193
X-3.7622 Y51.3759 Z0.0264 I0. J0.0193
X-3.7996 Y51.385 Z0.0099 I-0.0187 J0.0045
X-3.7622 Y51.3759 Z-0.0067 I0.0187 J-0.0045
X-3.7955 Y51.3931 Z-0.0207 I-0.0187 J0.0045
X-3.7663 Y51.3679 Z-0.0373 I0.0146 J-0.0126
X-3.7652 Y51.3917 Z-0.0443 I-0.0146 J0.0126
X-3.7966 Y51.3693 Z-0.0608 I-0.0157 J-0.0112
X-3.7652 Y51.3917 Z-0.0774 I0.0157 J0.0112
X-3.7966 Y51.3693 Z-0.0939 I-0.0157 J-0.0112
X-3.7652 Y51.3917 Z-0.1105 I0.0157 J0.0112
X-3.7966 Y51.3693 Z-0.127 I-0.0157 J-0.0112
X-3.7652 Y51.3917 Z-0.1436 I0.0157 J0.0112
X-3.7966 Y51.3693 Z-0.1601 I-0.0157 J-0.0112
X-3.7652 Y51.3917 Z-0.1767 I0.0157 J0.0112
X-3.7966 Y51.3693 Z-0.1932 I-0.0157 J-0.0112
X-3.7652 Y51.3917 Z-0.2098 I0.0157 J0.0112
X-3.7966 Y51.3693 Z-0.2263 I-0.0157 J-0.0112
X-3.7652 Y51.3917 Z-0.2429 I0.0157 J0.0112
X-3.7966 Y51.3693 Z-0.2594 I-0.0157 J-0.0112
X-3.7652 Y51.3917 Z-0.276 I0.0157 J0.0112
X-3.7774 Y51.3994 Z-0.28 I-0.0157 J-0.0112
X-3.7844 Y51.3616 I-0.0035 J-0.0189
X-3.7774 Y51.3994 I0.0035 J0.0189
X-3.7886 Y51.3917 I-0.0018 J-0.0095
G1 X-3.79 Y51.3844
X-3.7905 Y51.3815 Z-0.2797
X-3.791 Y51.3787 Z-0.2789
X-3.7915 Y51.3762 Z-0.2775
X-3.7919 Y51.374 Z-0.2756
X-3.7922 Y51.3722 Z-0.2734
X-3.7925 Y51.3708 Z-0.2708
X-3.7926 Y51.37 Z-0.268
X-3.7927 Y51.3697 Z-0.2651
G0 Z0.4
X-3.5195 Y52.2492
Z0.13
G1 Z0.0649 F40.
G19 G3 Y52.2641 Z0.05 J0.0149 K0.
G1 Y52.2716
G17 G3 X-3.5325 Y52.2846 I-0.0129 J0.
Y52.2328 Z0.0323 I0. J-0.0259
Y52.2846 Z0.0146 I0. J0.0259
Y52.2328 Z-0.0032 I0. J-0.0259
Y52.2846 Z-0.0209 I0. J0.0259
X-3.5533 Y52.2741 Z-0.0262 I0. J-0.0259
X-3.5116 Y52.2433 Z-0.0439 I0.0208 J-0.0154
X-3.513 Y52.2758 Z-0.0515 I-0.0208 J0.0154
X-3.5519 Y52.2415 Z-0.0693 I-0.0194 J-0.0171
X-3.5198 Y52.2361 Z-0.0769 I0.0194 J0.0171
X-3.5451 Y52.2813 Z-0.0946 I-0.0126 J0.0226
X-3.5198 Y52.2361 Z-0.1124 I0.0126 J-0.0226
X-3.5451 Y52.2813 Z-0.1301 I-0.0126 J0.0226
X-3.5198 Y52.2361 Z-0.1478 I0.0126 J-0.0226
X-3.5068 Y52.2554 Z-0.1531 I-0.0126 J0.0226
X-3.5582 Y52.2619 Z-0.1708 I-0.0257 J0.0033
X-3.5411 Y52.2342 Z-0.1785 I0.0257 J-0.0033
X-3.5239 Y52.2831 Z-0.1962 I0.0086 J0.0244
X-3.5411 Y52.2342 Z-0.2139 I-0.0086 J-0.0244
X-3.5146 Y52.2774 Z-0.2292 I0.0086 J0.0244
X-3.5504 Y52.2399 Z-0.247 I-0.0179 J-0.0187
X-3.5179 Y52.2372 Z-0.2546 I0.0179 J0.0187
X-3.547 Y52.2801 Z-0.2723 I-0.0145 J0.0214
X-3.5565 Y52.249 Z-0.28 I0.0145 J-0.0214
X-3.5084 Y52.2684 I0.024 J0.0097
X-3.5565 Y52.249 I-0.024 J-0.0097
X-3.5396 Y52.2418 I0.012 J0.0048
G1 X-3.5327 Y52.2446
X-3.53 Y52.2457 Z-0.2797
X-3.5274 Y52.2467 Z-0.2789
X-3.525 Y52.2477 Z-0.2775
X-3.5229 Y52.2485 Z-0.2756
X-3.5212 Y52.2492 Z-0.2734
X-3.5199 Y52.2498 Z-0.2708
X-3.5191 Y52.2501 Z-0.268
X-3.5189 Y52.2502 Z-0.2651
G0 Z0.4
X-2.7497 Y53.7528
Z0.13
G1 Z0.0649 F40.
G19 G2 Y53.7379 Z0.05 J-0.0149 K0.
G1 Y53.7304
G17 G3 X-2.74 Y53.7208 I0.0096 J0.
Y53.7593 Z0.0335 I0. J0.0192
X-2.7587 Y53.7446 Z0.0264 I0. J-0.0192
X-2.7213 Y53.7355 Z0.0099 I0.0187 J-0.0045
X-2.7587 Y53.7446 Z-0.0067 I-0.0187 J0.0045
X-2.7255 Y53.7275 Z-0.0207 I0.0187 J-0.0045
X-2.7546 Y53.7526 Z-0.0373 I-0.0146 J0.0126
X-2.7255 Y53.7275 Z-0.0538 I0.0146 J-0.0126
X-2.7546 Y53.7526 Z-0.0704 I-0.0146 J0.0126
X-2.7255 Y53.7275 Z-0.0869 I0.0146 J-0.0126
X-2.7546 Y53.7526 Z-0.1035 I-0.0146 J0.0126
X-2.7255 Y53.7275 Z-0.12 I0.0146 J-0.0126
X-2.7546 Y53.7526 Z-0.1366 I-0.0146 J0.0126
X-2.7583 Y53.7463 Z-0.1386 I0.0146 J-0.0126
X-2.7218 Y53.7338 Z-0.1551 I0.0182 J-0.0062
X-2.7297 Y53.7563 Z-0.1621 I-0.0182 J0.0062
X-2.7504 Y53.7238 Z-0.1787 I-0.0103 J-0.0162
X-2.7267 Y53.7262 Z-0.1857 I0.0103 J0.0162
X-2.7534 Y53.7539 Z-0.2023 I-0.0134 J0.0139
X-2.7567 Y53.7303 Z-0.2093 I0.0134 J-0.0139
X-2.7234 Y53.7498 Z-0.2258 I0.0166 J0.0097
X-2.7456 Y53.7585 Z-0.2329 I-0.0166 J-0.0097
X-2.7345 Y53.7216 Z-0.2494 I0.0055 J-0.0184
X-2.7208 Y53.7411 Z-0.2564 I-0.0055 J0.0184
X-2.7593 Y53.739 Z-0.273 I-0.0192 J-0.001
X-2.7435 Y53.7211 Z-0.28 I0.0192 J0.001
X-2.7365 Y53.759 I0.0035 J0.0189
X-2.7435 Y53.7211 I-0.0035 J-0.0189
X-2.7323 Y53.7288 I0.0018 J0.0095
G1 X-2.731 Y53.7362
X-2.7304 Y53.739 Z-0.2797
X-2.7299 Y53.7418 Z-0.2789
X-2.7295 Y53.7443 Z-0.2775
X-2.729 Y53.7465 Z-0.2756
X-2.7287 Y53.7484 Z-0.2734
X-2.7285 Y53.7497 Z-0.2708
X-2.7283 Y53.7505 Z-0.268
X-2.7282 Y53.7508 Z-0.2651
G0 Z0.4
X-1.4857 Y54.4581
Z0.13
G1 Z0.0649 F40.
G19 G2 Y54.4432 Z0.05 J-0.0149 K0.
G1 Y54.4358
G17 G3 X-1.4727 Y54.4228 I0.0129 J0.
Y54.4746 Z0.0323 I0. J0.0259
X-1.498 Y54.4542 Z0.0246 I0. J-0.0259
X-1.4474 Y54.4433 Z0.0069 I0.0253 J-0.0054
X-1.4621 Y54.4723 Z-0.0008 I-0.0253 J0.0054
X-1.4834 Y54.4251 Z-0.0185 I-0.0107 J-0.0236
X-1.4621 Y54.4723 Z-0.0362 I0.0107 J0.0236
X-1.4922 Y54.4316 Z-0.0515 I-0.0107 J-0.0236
X-1.4533 Y54.4658 Z-0.0693 I0.0194 J0.0171
X-1.4854 Y54.4713 Z-0.0769 I-0.0194 J-0.0171
X-1.4601 Y54.4261 Z-0.0946 I0.0126 J-0.0226
X-1.448 Y54.4563 Z-0.1023 I-0.0126 J0.0226
X-1.4975 Y54.4411 Z-0.12 I-0.0248 J-0.0076
X-1.448 Y54.4563 Z-0.1377 I0.0248 J0.0076
X-1.4984 Y54.452 Z-0.1531 I-0.0248 J-0.0076
X-1.447 Y54.4454 Z-0.1708 I0.0257 J-0.0033
X-1.4641 Y54.4731 Z-0.1785 I-0.0257 J0.0033
X-1.4813 Y54.4243 Z-0.1962 I-0.0086 J-0.0244
X-1.4641 Y54.4731 Z-0.2139 I0.0086 J0.0244
X-1.4813 Y54.4243 Z-0.2316 I-0.0086 J-0.0244
X-1.4641 Y54.4731 Z-0.2493 I0.0086 J0.0244
X-1.4873 Y54.4701 Z-0.2546 I-0.0086 J-0.0244
X-1.4582 Y54.4273 Z-0.2723 I0.0145 J-0.0214
X-1.4487 Y54.4584 Z-0.28 I-0.0145 J0.0214
X-1.4967 Y54.439 I-0.024 J-0.0097
X-1.4487 Y54.4584 I0.024 J0.0097
X-1.4656 Y54.4656 I-0.012 J-0.0048
G1 X-1.4725 Y54.4628
X-1.4752 Y54.4617 Z-0.2797
X-1.4778 Y54.4606 Z-0.2789
X-1.4802 Y54.4597 Z-0.2775
X-1.4823 Y54.4588 Z-0.2756
X-1.484 Y54.4581 Z-0.2734
X-1.4853 Y54.4576 Z-0.2708
X-1.4861 Y54.4573 Z-0.268
X-1.4863 Y54.4572 Z-0.2651
G0 Z0.4
X0.0096 Y54.8622
Z0.13
G1 Z0.0649 F40.
G19 G3 Y54.8772 Z0.05 J0.0149 K0.
G1 Y54.8846
G17 G3 X0. Y54.8943 I-0.0096 J0.
Y54.8557 Z0.0335 I0. J-0.0193
X0.0187 Y54.8705 Z0.0264 I0. J0.0193
X-0.0187 Y54.8795 Z0.0099 I-0.0187 J0.0045
X0.0187 Y54.8705 Z-0.0067 I0.0187 J-0.0045
X-0.0146 Y54.8876 Z-0.0207 I-0.0187 J0.0045
X0.0146 Y54.8624 Z-0.0373 I0.0146 J-0.0126
X-0.0146 Y54.8876 Z-0.0538 I-0.0146 J0.0126
X0.0072 Y54.8571 Z-0.0679 I0.0146 J-0.0126
X-0.0072 Y54.8928 Z-0.0844 I-0.0072 J0.0178
X-0.019 Y54.8722 Z-0.0914 I0.0072 J-0.0179
X0.019 Y54.8778 Z-0.108 I0.019 J0.0028
X0.0018 Y54.8942 Z-0.115 I-0.019 J-0.0028
X-0.0018 Y54.8558 Z-0.1315 I-0.0018 J-0.0192
X0.0182 Y54.8688 Z-0.1386 I0.0018 J0.0192
X-0.0182 Y54.8812 Z-0.1551 I-0.0182 J0.0062
X-0.0103 Y54.8588 Z-0.1621 I0.0182 J-0.0062
X0.0103 Y54.8912 Z-0.1787 I0.0103 J0.0162
X-0.0103 Y54.8588 Z-0.1952 I-0.0103 J-0.0162
X0.0103 Y54.8912 Z-0.2118 I0.0103 J0.0162
X-0.0103 Y54.8588 Z-0.2283 I-0.0103 J-0.0162
X0.0055 Y54.8566 Z-0.2329 I0.0103 J0.0162
X-0.0055 Y54.8934 Z-0.2494 I-0.0055 J0.0184
X-0.0192 Y54.874 Z-0.2564 I0.0055 J-0.0184
X0.0192 Y54.876 Z-0.273 I0.0192 J0.001
X0.0035 Y54.8939 Z-0.28 I-0.0192 J-0.001
X-0.0035 Y54.8561 I-0.0035 J-0.0189
X0.0035 Y54.8939 I0.0035 J0.0189
X-0.0077 Y54.8862 I-0.0018 J-0.0095
G1 X-0.0091 Y54.8789
X-0.0096 Y54.876 Z-0.2797
X-0.0101 Y54.8733 Z-0.2789
X-0.0106 Y54.8707 Z-0.2775
X-0.011 Y54.8685 Z-0.2756
X-0.0113 Y54.8667 Z-0.2734
X-0.0116 Y54.8653 Z-0.2708
X-0.0117 Y54.8645 Z-0.268
X-0.0118 Y54.8642 Z-0.2651
G0 Z0.4
X1.4598 Y54.4581
Z0.13
G1 Z0.0649 F40.
G19 G2 Y54.4432 Z0.05 J-0.0149 K0.
G1 Y54.4358
G17 G3 X1.4727 Y54.4228 I0.0129 J0.
Y54.4746 Z0.0323 I0. J0.0259
X1.4474 Y54.4542 Z0.0246 I0. J-0.0259
X1.498 Y54.4433 Z0.0069 I0.0253 J-0.0054
X1.4834 Y54.4723 Z-0.0008 I-0.0253 J0.0054
X1.4621 Y54.4251 Z-0.0185 I-0.0107 J-0.0236
X1.4834 Y54.4723 Z-0.0362 I0.0107 J0.0236
X1.4533 Y54.4316 Z-0.0515 I-0.0107 J-0.0236
X1.4922 Y54.4658 Z-0.0693 I0.0194 J0.0171
X1.4601 Y54.4713 Z-0.0769 I-0.0194 J-0.0171
X1.4854 Y54.4261 Z-0.0946 I0.0126 J-0.0226
X1.4975 Y54.4563 Z-0.1023 I-0.0126 J0.0226
X1.448 Y54.4411 Z-0.12 I-0.0248 J-0.0076
X1.4975 Y54.4563 Z-0.1377 I0.0248 J0.0076
X1.447 Y54.452 Z-0.1531 I-0.0248 J-0.0076
X1.4984 Y54.4454 Z-0.1708 I0.0257 J-0.0033
X1.4813 Y54.4731 Z-0.1785 I-0.0257 J0.0033
X1.4641 Y54.4243 Z-0.1962 I-0.0086 J-0.0244
X1.4813 Y54.4731 Z-0.2139 I0.0086 J0.0244
X1.4641 Y54.4243 Z-0.2316 I-0.0086 J-0.0244
X1.4813 Y54.4731 Z-0.2493 I0.0086 J0.0244
X1.4582 Y54.4701 Z-0.2546 I-0.0086 J-0.0244
X1.4873 Y54.4273 Z-0.2723 I0.0145 J-0.0214
X1.4967 Y54.4584 Z-0.28 I-0.0145 J0.0214
X1.4487 Y54.439 I-0.024 J-0.0097
X1.4967 Y54.4584 I0.024 J0.0097
X1.4799 Y54.4656 I-0.012 J-0.0048
G1 X1.473 Y54.4628
X1.4703 Y54.4617 Z-0.2797
X1.4677 Y54.4606 Z-0.2789
X1.4653 Y54.4597 Z-0.2775
X1.4632 Y54.4588 Z-0.2756
X1.4615 Y54.4581 Z-0.2734
X1.4602 Y54.4576 Z-0.2708
X1.4594 Y54.4573 Z-0.268
X1.4591 Y54.4572 Z-0.2651
G0 Z0.4
X2.7304 Y53.7528
Z0.13
G1 Z0.0649 F40.
G19 G2 Y53.7379 Z0.05 J-0.0149 K0.
G1 Y53.7304
G17 G3 X2.74 Y53.7208 I0.0096 J0.
Y53.7593 Z0.0335 I0. J0.0192
X2.7213 Y53.7446 Z0.0264 I0. J-0.0192
X2.7587 Y53.7355 Z0.0099 I0.0187 J-0.0045
X2.7213 Y53.7446 Z-0.0067 I-0.0187 J0.0045
X2.7546 Y53.7275 Z-0.0207 I0.0187 J-0.0045
X2.7255 Y53.7526 Z-0.0373 I-0.0146 J0.0126
X2.7546 Y53.7275 Z-0.0538 I0.0146 J-0.0126
X2.7255 Y53.7526 Z-0.0704 I-0.0146 J0.0126
X2.7546 Y53.7275 Z-0.0869 I0.0146 J-0.0126
X2.7255 Y53.7526 Z-0.1035 I-0.0146 J0.0126
X2.7546 Y53.7275 Z-0.12 I0.0146 J-0.0126
X2.7255 Y53.7526 Z-0.1366 I-0.0146 J0.0126
X2.7218 Y53.7463 Z-0.1386 I0.0146 J-0.0126
X2.7583 Y53.7338 Z-0.1551 I0.0182 J-0.0062
X2.7504 Y53.7563 Z-0.1621 I-0.0182 J0.0062
X2.7297 Y53.7238 Z-0.1787 I-0.0103 J-0.0162
X2.7534 Y53.7262 Z-0.1857 I0.0103 J0.0162
X2.7267 Y53.7539 Z-0.2023 I-0.0134 J0.0139
X2.7234 Y53.7303 Z-0.2093 I0.0134 J-0.0139
X2.7567 Y53.7498 Z-0.2258 I0.0166 J0.0097
X2.7345 Y53.7585 Z-0.2329 I-0.0166 J-0.0097
X2.7456 Y53.7216 Z-0.2494 I0.0055 J-0.0184
X2.7593 Y53.7411 Z-0.2564 I-0.0055 J0.0184
X2.7208 Y53.739 Z-0.273 I-0.0192 J-0.001
X2.7365 Y53.7211 Z-0.28 I0.0192 J0.001
X2.7435 Y53.759 I0.0035 J0.0189
X2.7365 Y53.7211 I-0.0035 J-0.0189
X2.7477 Y53.7288 I0.0018 J0.0095
G1 X2.7491 Y53.7362
X2.7496 Y53.739 Z-0.2797
X2.7501 Y53.7418 Z-0.2789
X2.7506 Y53.7443 Z-0.2775
X2.751 Y53.7465 Z-0.2756
X2.7514 Y53.7484 Z-0.2734
X2.7516 Y53.7497 Z-0.2708
X2.7518 Y53.7505 Z-0.268
Y53.7508 Z-0.2651
G0 Z0.4
X3.5454 Y52.2492
Z0.13
G1 Z0.0649 F40.
G19 G3 Y52.2641 Z0.05 J0.0149 K0.
G1 Y52.2716
G17 G3 X3.5325 Y52.2846 I-0.013 J0.
Y52.2328 Z0.0323 I0. J-0.0259
Y52.2846 Z0.0146 I0. J0.0259
Y52.2328 Z-0.0032 I0. J-0.0259
Y52.2846 Z-0.0209 I0. J0.0259
X3.5116 Y52.2741 Z-0.0262 I0. J-0.0259
X3.5533 Y52.2433 Z-0.0439 I0.0208 J-0.0154
X3.5519 Y52.2758 Z-0.0515 I-0.0208 J0.0154
X3.513 Y52.2415 Z-0.0693 I-0.0194 J-0.0171
X3.5519 Y52.2758 Z-0.087 I0.0194 J0.0171
X3.513 Y52.2415 Z-0.1047 I-0.0194 J-0.0171
X3.5519 Y52.2758 Z-0.1224 I0.0194 J0.0171
X3.5302 Y52.2845 Z-0.1277 I-0.0194 J-0.0171
X3.5347 Y52.2329 Z-0.1454 I0.0022 J-0.0258
X3.5582 Y52.2554 Z-0.1531 I-0.0022 J0.0258
X3.5068 Y52.2619 Z-0.1708 I-0.0257 J0.0033
X3.5239 Y52.2342 Z-0.1785 I0.0257 J-0.0033
X3.5411 Y52.2831 Z-0.1962 I0.0086 J0.0244
X3.5239 Y52.2342 Z-0.2139 I-0.0086 J-0.0244
X3.5504 Y52.2774 Z-0.2292 I0.0086 J0.0244
X3.5146 Y52.2399 Z-0.247 I-0.0179 J-0.0187
X3.547 Y52.2372 Z-0.2546 I0.0179 J0.0187
X3.5179 Y52.2801 Z-0.2723 I-0.0145 J0.0214
X3.5084 Y52.249 Z-0.28 I0.0145 J-0.0214
X3.5565 Y52.2684 I0.024 J0.0097
X3.5084 Y52.249 I-0.024 J-0.0097
X3.5253 Y52.2418 I0.012 J0.0048
G1 X3.5322 Y52.2446
X3.5349 Y52.2457 Z-0.2797
X3.5375 Y52.2467 Z-0.2789
X3.5399 Y52.2477 Z-0.2775
X3.542 Y52.2485 Z-0.2756
X3.5437 Y52.2492 Z-0.2734
X3.545 Y52.2498 Z-0.2708
X3.5458 Y52.2501 Z-0.268
X3.5461 Y52.2502 Z-0.2651
G0 Z0.4
X3.7905 Y51.3677
Z0.13
G1 Z0.0649 F40.
G19 G3 Y51.3826 Z0.05 J0.0149 K0.
G1 Y51.3901
G17 G3 X3.7809 Y51.3997 I-0.0096 J0.
Y51.3612 Z0.0335 I0. J-0.0193
X3.7996 Y51.3759 Z0.0264 I0. J0.0193
X3.7622 Y51.385 Z0.0099 I-0.0187 J0.0045
X3.7996 Y51.3759 Z-0.0067 I0.0187 J-0.0045
X3.7663 Y51.3931 Z-0.0207 I-0.0187 J0.0045
X3.7955 Y51.3679 Z-0.0373 I0.0146 J-0.0126
X3.7966 Y51.3917 Z-0.0443 I-0.0146 J0.0126
X3.7652 Y51.3693 Z-0.0608 I-0.0157 J-0.0112
X3.7966 Y51.3917 Z-0.0774 I0.0157 J0.0112
X3.7652 Y51.3693 Z-0.0939 I-0.0157 J-0.0112
X3.7966 Y51.3917 Z-0.1105 I0.0157 J0.0112
X3.7652 Y51.3693 Z-0.127 I-0.0157 J-0.0112
X3.7966 Y51.3917 Z-0.1436 I0.0157 J0.0112
X3.7652 Y51.3693 Z-0.1601 I-0.0157 J-0.0112
X3.7966 Y51.3917 Z-0.1767 I0.0157 J0.0112
X3.7652 Y51.3693 Z-0.1932 I-0.0157 J-0.0112
X3.7966 Y51.3917 Z-0.2098 I0.0157 J0.0112
X3.7652 Y51.3693 Z-0.2263 I-0.0157 J-0.0112
X3.7966 Y51.3917 Z-0.2429 I0.0157 J0.0112
X3.7652 Y51.3693 Z-0.2594 I-0.0157 J-0.0112
X3.7966 Y51.3917 Z-0.276 I0.0157 J0.0112
X3.7844 Y51.3994 Z-0.28 I-0.0157 J-0.0112
X3.7774 Y51.3616 I-0.0035 J-0.0189
X3.7844 Y51.3994 I0.0035 J0.0189
X3.7732 Y51.3917 I-0.0018 J-0.0095
G1 X3.7718 Y51.3844
X3.7713 Y51.3815 Z-0.2797
X3.7708 Y51.3787 Z-0.2789
X3.7703 Y51.3762 Z-0.2775
X3.7699 Y51.374 Z-0.2756
X3.7696 Y51.3722 Z-0.2734
X3.7693 Y51.3708 Z-0.2708
X3.7692 Y51.37 Z-0.268
X3.7691 Y51.3697 Z-0.2651
G0 Z0.4
X3.6752 Y50.6712
Z0.13
G1 Z0.0649 F40.
G19 G2 Y50.6563 Z0.05 J-0.0149 K0.
G1 Y50.6488
G17 G3 X3.6848 Y50.6392 I0.0096 J0.
Y50.6777 Z0.0335 I0. J0.0192
X3.6661 Y50.663 Z0.0264 I0. J-0.0192
X3.7036 Y50.6539 Z0.0099 I0.0187 J-0.0045
X3.6661 Y50.663 Z-0.0067 I-0.0187 J0.0045
X3.6994 Y50.6459 Z-0.0207 I0.0187 J-0.0045
X3.6703 Y50.671 Z-0.0373 I-0.0146 J0.0126
X3.6994 Y50.6459 Z-0.0538 I0.0146 J-0.0126
X3.6703 Y50.671 Z-0.0704 I-0.0146 J0.0126
X3.6994 Y50.6459 Z-0.0869 I0.0146 J-0.0126
X3.6703 Y50.671 Z-0.1035 I-0.0146 J0.0126
X3.6994 Y50.6459 Z-0.12 I0.0146 J-0.0126
X3.6703 Y50.671 Z-0.1366 I-0.0146 J0.0126
X3.6666 Y50.6647 Z-0.1386 I0.0146 J-0.0126
X3.7031 Y50.6522 Z-0.1551 I0.0182 J-0.0062
X3.6952 Y50.6747 Z-0.1621 I-0.0182 J0.0062
X3.6745 Y50.6422 Z-0.1787 I-0.0103 J-0.0162
X3.6982 Y50.6446 Z-0.1857 I0.0103 J0.0162
X3.6715 Y50.6723 Z-0.2023 I-0.0134 J0.0139
X3.6982 Y50.6446 Z-0.2188 I0.0134 J-0.0139
X3.6793 Y50.6769 Z-0.2329 I-0.0134 J0.0139
X3.6904 Y50.64 Z-0.2494 I0.0055 J-0.0184
X3.7041 Y50.6595 Z-0.2564 I-0.0055 J0.0184
X3.6656 Y50.6574 Z-0.273 I-0.0192 J-0.001
X3.6813 Y50.6395 Z-0.28 I0.0192 J0.001
X3.6884 Y50.6774 I0.0035 J0.0189
X3.6813 Y50.6395 I-0.0035 J-0.0189
X3.6926 Y50.6472 I0.0018 J0.0095
G1 X3.6939 Y50.6546
X3.6944 Y50.6574 Z-0.2797
X3.695 Y50.6602 Z-0.2789
X3.6954 Y50.6627 Z-0.2775
X3.6958 Y50.6649 Z-0.2756
X3.6962 Y50.6668 Z-0.2734
X3.6964 Y50.6681 Z-0.2708
X3.6966 Y50.669 Z-0.268
Y50.6692 Z-0.2651
G0 Z0.4
X3.6062 Y50.0274
Z0.13
G1 Z0.0649 F40.
G19 G2 Y50.0125 Z0.05 J-0.0149 K0.
G1 Y50.005
G17 G3 X3.6191 Y49.9921 I0.013 J0.
Y50.0439 Z0.0323 I0. J0.0259
Y49.9921 Z0.0146 I0. J-0.0259
Y50.0439 Z-0.0032 I0. J0.0259
Y49.9921 Z-0.0209 I0. J-0.0259
X3.64 Y50.0026 Z-0.0262 I0. J0.0259
X3.5983 Y50.0334 Z-0.0439 I-0.0208 J0.0154
X3.5997 Y50.0008 Z-0.0515 I0.0208 J-0.0154
X3.6386 Y50.0351 Z-0.0693 I0.0194 J0.0171
X3.5997 Y50.0008 Z-0.087 I-0.0194 J-0.0171
X3.6386 Y50.0351 Z-0.1047 I0.0194 J0.0171
X3.5997 Y50.0008 Z-0.1224 I-0.0194 J-0.0171
X3.6213 Y49.9922 Z-0.1277 I0.0194 J0.0171
X3.6169 Y50.0438 Z-0.1454 I-0.0022 J0.0258
X3.5934 Y50.0212 Z-0.1531 I0.0022 J-0.0258
X3.6448 Y50.0147 Z-0.1708 I0.0257 J-0.0033
X3.6277 Y50.0424 Z-0.1785 I-0.0257 J0.0033
X3.6105 Y49.9935 Z-0.1962 I-0.0086 J-0.0244
X3.6277 Y50.0424 Z-0.2139 I0.0086 J0.0244
X3.6105 Y49.9935 Z-0.2316 I-0.0086 J-0.0244
X3.6277 Y50.0424 Z-0.2493 I0.0086 J0.0244
X3.6046 Y50.0394 Z-0.2546 I-0.0086 J-0.0244
X3.6337 Y49.9965 Z-0.2723 I0.0145 J-0.0214
X3.6431 Y50.0277 Z-0.28 I-0.0145 J0.0214
X3.5951 Y50.0083 I-0.024 J-0.0097
X3.6431 Y50.0277 I0.024 J0.0097
X3.6263 Y50.0348 I-0.012 J-0.0048
G1 X3.6194 Y50.032
X3.6167 Y50.0309 Z-0.2797
X3.6141 Y50.0299 Z-0.2789
X3.6117 Y50.0289 Z-0.2775
X3.6096 Y50.0281 Z-0.2756
X3.6079 Y50.0274 Z-0.2734
X3.6066 Y50.0269 Z-0.2708
X3.6058 Y50.0266 Z-0.268
X3.6055 Y50.0264 Z-0.2651
G0 Z0.4
X2.7304 Y48.2727
Z0.13
G1 Z0.0649 F40.
G19 G2 Y48.2578 Z0.05 J-0.0149 K0.
G1 Y48.2503
G17 G3 X2.74 Y48.2407 I0.0096 J0.
Y48.2792 Z0.0335 I0. J0.0192
X2.7213 Y48.2645 Z0.0264 I0. J-0.0192
X2.7587 Y48.2554 Z0.0099 I0.0187 J-0.0045
X2.7213 Y48.2645 Z-0.0067 I-0.0187 J0.0045
X2.7546 Y48.2474 Z-0.0207 I0.0187 J-0.0045
X2.7255 Y48.2725 Z-0.0373 I-0.0146 J0.0126
X2.7546 Y48.2474 Z-0.0538 I0.0146 J-0.0126
X2.7255 Y48.2725 Z-0.0704 I-0.0146 J0.0126
X2.7546 Y48.2474 Z-0.0869 I0.0146 J-0.0126
X2.7255 Y48.2725 Z-0.1035 I-0.0146 J0.0126
X2.7546 Y48.2474 Z-0.12 I0.0146 J-0.0126
X2.7255 Y48.2725 Z-0.1366 I-0.0146 J0.0126
X2.7218 Y48.2662 Z-0.1386 I0.0146 J-0.0126
X2.7583 Y48.2537 Z-0.1551 I0.0182 J-0.0062
X2.7504 Y48.2762 Z-0.1621 I-0.0182 J0.0062
X2.7297 Y48.2437 Z-0.1787 I-0.0103 J-0.0162
X2.7534 Y48.2461 Z-0.1857 I0.0103 J0.0162
X2.7267 Y48.2738 Z-0.2023 I-0.0134 J0.0139
X2.7234 Y48.2502 Z-0.2093 I0.0134 J-0.0139
X2.7567 Y48.2697 Z-0.2258 I0.0166 J0.0097
X2.7345 Y48.2784 Z-0.2329 I-0.0166 J-0.0097
X2.7456 Y48.2415 Z-0.2494 I0.0055 J-0.0184
X2.7593 Y48.261 Z-0.2564 I-0.0055 J0.0184
X2.7208 Y48.2589 Z-0.273 I-0.0192 J-0.001
X2.7365 Y48.241 Z-0.28 I0.0192 J0.001
X2.7435 Y48.2789 I0.0035 J0.0189
X2.7365 Y48.241 I-0.0035 J-0.0189
X2.7477 Y48.2487 I0.0018 J0.0095
G1 X2.7491 Y48.2561
X2.7496 Y48.2589 Z-0.2797
X2.7501 Y48.2617 Z-0.2789
X2.7506 Y48.2642 Z-0.2775
X2.751 Y48.2665 Z-0.2756
X2.7514 Y48.2683 Z-0.2734
X2.7516 Y48.2696 Z-0.2708
X2.7518 Y48.2705 Z-0.268
Y48.2707 Z-0.2651
G0 Z0.4
X1.544 Y47.5979
Z0.13
G1 Z0.0649 F40.
G19 G2 Y47.583 Z0.05 J-0.0149 K0.
G1 Y47.5755
G17 G3 X1.557 Y47.5626 I0.013 J0.
Y47.6144 Z0.0323 I0. J0.0259
Y47.5626 Z0.0146 I0. J-0.0259
Y47.6144 Z-0.0032 I0. J0.0259
Y47.5626 Z-0.0209 I0. J-0.0259
X1.5778 Y47.5731 Z-0.0262 I0. J0.0259
X1.5361 Y47.6039 Z-0.0439 I-0.0208 J0.0154
X1.5375 Y47.5714 Z-0.0515 I0.0208 J-0.0154
X1.5764 Y47.6056 Z-0.0693 I0.0194 J0.0171
X1.5375 Y47.5714 Z-0.087 I-0.0194 J-0.0171
X1.5764 Y47.6056 Z-0.1047 I0.0194 J0.0171
X1.5375 Y47.5714 Z-0.1224 I-0.0194 J-0.0171
X1.5592 Y47.5627 Z-0.1277 I0.0194 J0.0171
X1.5547 Y47.6143 Z-0.1454 I-0.0022 J0.0258
X1.5313 Y47.5918 Z-0.1531 I0.0022 J-0.0258
X1.5827 Y47.5852 Z-0.1708 I0.0257 J-0.0033
X1.5656 Y47.6129 Z-0.1785 I-0.0257 J0.0033
X1.5484 Y47.5641 Z-0.1962 I-0.0086 J-0.0244
X1.5656 Y47.6129 Z-0.2139 I0.0086 J0.0244
X1.5391 Y47.5698 Z-0.2292 I-0.0086 J-0.0244
X1.5749 Y47.6072 Z-0.247 I0.0179 J0.0187
X1.5424 Y47.6099 Z-0.2546 I-0.0179 J-0.0187
X1.5715 Y47.5671 Z-0.2723 I0.0145 J-0.0214
X1.581 Y47.5982 Z-0.28 I-0.0145 J0.0214
X1.5329 Y47.5788 I-0.024 J-0.0097
X1.581 Y47.5982 I0.024 J0.0097
X1.5641 Y47.6054 I-0.012 J-0.0048
G1 X1.5572 Y47.6026
X1.5545 Y47.6015 Z-0.2797
X1.5519 Y47.6004 Z-0.2789
X1.5495 Y47.5995 Z-0.2775
X1.5474 Y47.5986 Z-0.2756
X1.5457 Y47.5979 Z-0.2734
X1.5444 Y47.5974 Z-0.2708
X1.5436 Y47.5971 Z-0.268
X1.5434 Y47.597 Z-0.2651
G0 Z0.4
X0.0096 Y47.1122
Z0.13
G1 Z0.0649 F40.
G19 G3 Y47.1272 Z0.05 J0.0149 K0.
G1 Y47.1346
G17 G3 X0. Y47.1443 I-0.0096 J0.
Y47.1057 Z0.0335 I0. J-0.0193
X0.0187 Y47.1205 Z0.0264 I0. J0.0193
X-0.0187 Y47.1295 Z0.0099 I-0.0187 J0.0045
X0.0187 Y47.1205 Z-0.0067 I0.0187 J-0.0045
X-0.0146 Y47.1376 Z-0.0207 I-0.0187 J0.0045
X0.0146 Y47.1124 Z-0.0373 I0.0146 J-0.0126
X0.0157 Y47.1362 Z-0.0443 I-0.0146 J0.0126
X-0.0157 Y47.1138 Z-0.0608 I-0.0157 J-0.0112
X0.0157 Y47.1362 Z-0.0774 I0.0157 J0.0112
X-0.0157 Y47.1138 Z-0.0939 I-0.0157 J-0.0112
X0.0157 Y47.1362 Z-0.1105 I0.0157 J0.0112
X-0.0157 Y47.1138 Z-0.127 I-0.0157 J-0.0112
X0.0157 Y47.1362 Z-0.1436 I0.0157 J0.0112
X-0.0157 Y47.1138 Z-0.1601 I-0.0157 J-0.0112
X0.0157 Y47.1362 Z-0.1767 I0.0157 J0.0112
X-0.0157 Y47.1138 Z-0.1932 I-0.0157 J-0.0112
X0.0157 Y47.1362 Z-0.2098 I0.0157 J0.0112
X-0.0157 Y47.1138 Z-0.2263 I-0.0157 J-0.0112
X0.0157 Y47.1362 Z-0.2429 I0.0157 J0.0112
X-0.0157 Y47.1138 Z-0.2594 I-0.0157 J-0.0112
X0.0157 Y47.1362 Z-0.276 I0.0157 J0.0112
X0.0035 Y47.1439 Z-0.28 I-0.0157 J-0.0112
X-0.0035 Y47.1061 I-0.0035 J-0.0189
X0.0035 Y47.1439 I0.0035 J0.0189
X-0.0077 Y47.1362 I-0.0018 J-0.0095
G1 X-0.0091 Y47.1289
X-0.0096 Y47.126 Z-0.2797
X-0.0101 Y47.1233 Z-0.2789
X-0.0106 Y47.1207 Z-0.2775
X-0.011 Y47.1185 Z-0.2756
X-0.0113 Y47.1167 Z-0.2734
X-0.0116 Y47.1153 Z-0.2708
X-0.0117 Y47.1145 Z-0.268
X-0.0118 Y47.1142 Z-0.2651
G0 Z0.4
X-1.5699 Y47.5979
Z0.13
G1 Z0.0649 F40.
G19 G2 Y47.583 Z0.05 J-0.0149 K0.
G1 Y47.5755
G17 G3 X-1.557 Y47.5626 I0.0129 J0.
Y47.6144 Z0.0323 I0. J0.0259
Y47.5626 Z0.0146 I0. J-0.0259
Y47.6144 Z-0.0032 I0. J0.0259
Y47.5626 Z-0.0209 I0. J-0.0259
X-1.5361 Y47.5731 Z-0.0262 I0. J0.0259
X-1.5778 Y47.6039 Z-0.0439 I-0.0208 J0.0154
X-1.5764 Y47.5714 Z-0.0515 I0.0208 J-0.0154
X-1.5375 Y47.6056 Z-0.0693 I0.0194 J0.0171
X-1.5696 Y47.6111 Z-0.0769 I-0.0194 J-0.0171
X-1.5443 Y47.5659 Z-0.0946 I0.0126 J-0.0226
X-1.5696 Y47.6111 Z-0.1124 I-0.0126 J0.0226
X-1.5443 Y47.5659 Z-0.1301 I0.0126 J-0.0226
X-1.5696 Y47.6111 Z-0.1478 I-0.0126 J0.0226
X-1.5827 Y47.5918 Z-0.1531 I0.0126 J-0.0226
X-1.5313 Y47.5852 Z-0.1708 I0.0257 J-0.0033
X-1.5484 Y47.6129 Z-0.1785 I-0.0257 J0.0033
X-1.5656 Y47.5641 Z-0.1962 I-0.0086 J-0.0244
X-1.5484 Y47.6129 Z-0.2139 I0.0086 J0.0244
X-1.5749 Y47.5698 Z-0.2292 I-0.0086 J-0.0244
X-1.5391 Y47.6072 Z-0.247 I0.0179 J0.0187
X-1.5715 Y47.6099 Z-0.2546 I-0.0179 J-0.0187
X-1.5424 Y47.5671 Z-0.2723 I0.0145 J-0.0214
X-1.5329 Y47.5982 Z-0.28 I-0.0145 J0.0214
X-1.581 Y47.5788 I-0.024 J-0.0097
X-1.5329 Y47.5982 I0.024 J0.0097
X-1.5498 Y47.6054 I-0.012 J-0.0048
G1 X-1.5567 Y47.6026
X-1.5594 Y47.6015 Z-0.2797
X-1.562 Y47.6004 Z-0.2789
X-1.5644 Y47.5995 Z-0.2775
X-1.5665 Y47.5986 Z-0.2756
X-1.5682 Y47.5979 Z-0.2734
X-1.5695 Y47.5974 Z-0.2708
X-1.5703 Y47.5971 Z-0.268
X-1.5706 Y47.597 Z-0.2651
G0 Z0.4
X-2.7497 Y48.2727
Z0.13
G1 Z0.0649 F40.
G19 G2 Y48.2578 Z0.05 J-0.0149 K0.
G1 Y48.2503
G17 G3 X-2.74 Y48.2407 I0.0096 J0.
Y48.2792 Z0.0335 I0. J0.0192
X-2.7587 Y48.2645 Z0.0264 I0. J-0.0192
X-2.7213 Y48.2554 Z0.0099 I0.0187 J-0.0045
X-2.7587 Y48.2645 Z-0.0067 I-0.0187 J0.0045
X-2.7255 Y48.2474 Z-0.0207 I0.0187 J-0.0045
X-2.7546 Y48.2725 Z-0.0373 I-0.0146 J0.0126
X-2.7255 Y48.2474 Z-0.0538 I0.0146 J-0.0126
X-2.7546 Y48.2725 Z-0.0704 I-0.0146 J0.0126
X-2.7255 Y48.2474 Z-0.0869 I0.0146 J-0.0126
X-2.7546 Y48.2725 Z-0.1035 I-0.0146 J0.0126
X-2.7255 Y48.2474 Z-0.12 I0.0146 J-0.0126
X-2.7546 Y48.2725 Z-0.1366 I-0.0146 J0.0126
X-2.7583 Y48.2662 Z-0.1386 I0.0146 J-0.0126
X-2.7218 Y48.2537 Z-0.1551 I0.0182 J-0.0062
X-2.7297 Y48.2762 Z-0.1621 I-0.0182 J0.0062
X-2.7504 Y48.2437 Z-0.1787 I-0.0103 J-0.0162
X-2.7267 Y48.2461 Z-0.1857 I0.0103 J0.0162
X-2.7534 Y48.2738 Z-0.2023 I-0.0134 J0.0139
X-2.7567 Y48.2502 Z-0.2093 I0.0134 J-0.0139
X-2.7234 Y48.2697 Z-0.2258 I0.0166 J0.0097
X-2.7456 Y48.2784 Z-0.2329 I-0.0166 J-0.0097
X-2.7345 Y48.2415 Z-0.2494 I0.0055 J-0.0184
X-2.7208 Y48.261 Z-0.2564 I-0.0055 J0.0184
X-2.7593 Y48.2589 Z-0.273 I-0.0192 J-0.001
X-2.7435 Y48.241 Z-0.28 I0.0192 J0.001
X-2.7365 Y48.2789 I0.0035 J0.0189
X-2.7435 Y48.241 I-0.0035 J-0.0189
X-2.7323 Y48.2487 I0.0018 J0.0095
G1 X-2.731 Y48.2561
X-2.7304 Y48.2589 Z-0.2797
X-2.7299 Y48.2617 Z-0.2789
X-2.7295 Y48.2642 Z-0.2775
X-2.729 Y48.2665 Z-0.2756
X-2.7287 Y48.2683 Z-0.2734
X-2.7285 Y48.2696 Z-0.2708
X-2.7283 Y48.2705 Z-0.268
X-2.7282 Y48.2707 Z-0.2651
G0 Z0.6
(2D SLOT CUT)
M7
G0 X3.961 Y51.9552
Z0.6
Z0.2
G1 Z0.1 F13.333
G2 X4.0746 Y51.0001 Z-0.07 I-3.961 J-0.9551 F30.
X-4.018 Y50.3234 I-4.0746 J0.
X-3.3623 Y51.11 I0.6652 J0.112
X-3.2562 Y51.0015 I0.0015 J-0.1046
G1 X-3.2623 Y50.8459
G2 X-3.2862 Y50.794 I-0.0745 J0.0029
G1 X-3.3122 Y50.77
G3 X-3.3155 Y50.7628 I0.0072 J-0.0077
G1 X-3.3238 Y50.5483
G3 X-3.3211 Y50.5408 I0.0104 J-0.0004
G1 X-3.297 Y50.5149
G2 X-3.2771 Y50.4613 I-0.0547 J-0.0507
G1 X-3.3174 Y49.4207
Y49.4205
G3 X-3.3164 Y49.4156 I0.0104 J-0.0004
X-2.7691 Y48.5832 I3.3164 J1.5844
G2 X-2.4167 Y48.2308 I0.029 J-0.3233
G3 X-1.8049 Y47.7981 I2.4169 J2.7691
G2 X-1.2362 Y47.5386 I0.2479 J-0.2095
G3 X-0.2491 Y47.3329 I1.2363 J3.4614
G2 X0.2491 I0.2491 J-0.2081
G3 X1.2362 Y47.5386 I-0.2493 J3.6671
G2 X1.8049 Y47.7981 I0.3207 J0.05
G3 X2.4167 Y48.2308 I-1.8051 J3.2018
G2 X2.7691 Y48.5832 I0.3233 J0.0291
G3 X3.3164 Y49.4156 I-2.7691 J2.4168
X3.3174 Y49.4205 I-0.0094 J0.0045
G1 Y49.4207
X3.2771 Y50.4613
G2 X3.297 Y50.5149 I0.0745 J0.0029
G1 X3.3211 Y50.5408
G3 X3.3238 Y50.5483 I-0.0077 J0.0071
G1 X3.3155 Y50.7628
G3 X3.3122 Y50.77 I-0.0105 J-0.0004
G1 X3.2862 Y50.794
G2 X3.2623 Y50.8459 I0.0506 J0.0549
G1 X3.2406 Y51.4054
G2 X3.2601 Y51.4586 I0.0745 J0.0029
G1 X3.2842 Y51.485
G2 X3.2845 Y51.4853 I0.0551 J-0.0503
G3 X3.2873 Y51.4928 I-0.0076 J0.007
G1 X3.279 Y51.7069
G3 X3.2757 Y51.7141 I-0.0103 J-0.0004
G2 X3.2753 Y51.7145 I0.0507 J0.0548
G1 X3.2493 Y51.7389
G2 X3.2257 Y51.7904 I0.051 J0.0544
G1 X3.1855 Y52.831
Y52.8312
G3 X3.1841 Y52.836 I-0.0104 J-0.0004
X2.7691 Y53.4168 I-3.1839 J-1.8363
G2 X2.4167 Y53.7692 I-0.029 J0.3234
G3 X1.7256 Y54.2452 I-2.4167 J-2.7692
G2 X1.1509 Y54.4906 I-0.2528 J0.2036
G3 X0.2491 Y54.6671 I-1.1514 J-3.4905
G2 X-0.2491 I-0.2491 J0.2081
G3 X-1.1509 Y54.4906 I0.2497 J-3.667
G2 X-1.7256 Y54.2452 I-0.3219 J-0.0418
G3 X-2.4167 Y53.7692 I1.7256 J-3.2452
G2 X-2.7691 Y53.4168 I-0.3233 J-0.0291
G3 X-3.1841 Y52.836 I2.7689 J-2.4171
X-3.1855 Y52.8312 I0.009 J-0.0052
G1 Y52.831
X-3.2257 Y51.7904
G2 X-3.2493 Y51.7389 I-0.0745 J0.0029
G1 X-3.2753 Y51.7145
G2 X-3.2757 Y51.7141 I-0.051 J0.0544
G3 X-3.279 Y51.7069 I0.007 J-0.0076
G1 X-3.2873 Y51.4928
G3 X-3.2845 Y51.4853 I0.0103 J-0.0004
G2 X-3.2842 Y51.485 I-0.0547 J-0.0507
G1 X-3.2601 Y51.4586
G2 X-3.2406 Y51.4054 I-0.0551 J-0.0503
G1 X-3.2447 Y51.2987
Y51.2985
G2 X-3.3497 Y51.1982 I-0.1045 J0.0043
G3 X-3.8954 Y50.9716 I-0.003 J-0.7628
G2 X-3.8957 Y50.9713 I-0.0531 J0.0524
X-4.0743 Y51.0466 I-0.074 J0.074
X4.0746 Y51.0001 I4.0743 J-0.0465
X3.9009 Y49.8233 Z-0.14 I-4.0746 J0.
X-4.018 Y50.3234 I-3.9009 J1.1768
X-3.3623 Y51.11 I0.6652 J0.112
X-3.2562 Y51.0015 I0.0015 J-0.1046
G1 X-3.2623 Y50.8459
G2 X-3.2862 Y50.794 I-0.0745 J0.0029
G1 X-3.3122 Y50.77
G3 X-3.3155 Y50.7628 I0.0072 J-0.0077
G1 X-3.3238 Y50.5483
G3 X-3.3211 Y50.5408 I0.0104 J-0.0004
G1 X-3.297 Y50.5149
G2 X-3.2771 Y50.4613 I-0.0547 J-0.0507
G1 X-3.3174 Y49.4207
Y49.4205
G3 X-3.3164 Y49.4156 I0.0104 J-0.0004
X-2.7691 Y48.5832 I3.3164 J1.5844
G2 X-2.4167 Y48.2308 I0.029 J-0.3233
G3 X-1.8049 Y47.7981 I2.4169 J2.7691
G2 X-1.2362 Y47.5386 I0.2479 J-0.2095
G3 X-0.2491 Y47.3329 I1.2363 J3.4614
G2 X0.2491 I0.2491 J-0.2081
G3 X1.2362 Y47.5386 I-0.2493 J3.6671
G2 X1.8049 Y47.7981 I0.3207 J0.05
G3 X2.4167 Y48.2308 I-1.8051 J3.2018
G2 X2.7691 Y48.5832 I0.3233 J0.0291
G3 X3.3164 Y49.4156 I-2.7691 J2.4168
X3.3174 Y49.4205 I-0.0094 J0.0045
G1 Y49.4207
X3.2771 Y50.4613
G2 X3.297 Y50.5149 I0.0745 J0.0029
G1 X3.3211 Y50.5408
G3 X3.3238 Y50.5483 I-0.0077 J0.0071
G1 X3.3155 Y50.7628
G3 X3.3122 Y50.77 I-0.0105 J-0.0004
G1 X3.2862 Y50.794
G2 X3.2623 Y50.8459 I0.0506 J0.0549
G1 X3.2406 Y51.4054
G2 X3.2601 Y51.4586 I0.0745 J0.0029
G1 X3.2842 Y51.485
G2 X3.2845 Y51.4853 I0.0551 J-0.0503
G3 X3.2873 Y51.4928 I-0.0076 J0.007
G1 X3.279 Y51.7069
G3 X3.2757 Y51.7141 I-0.0103 J-0.0004
G2 X3.2753 Y51.7145 I0.0507 J0.0548
G1 X3.2493 Y51.7389
G2 X3.2257 Y51.7904 I0.051 J0.0544
G1 X3.1855 Y52.831
Y52.8312
G3 X3.1841 Y52.836 I-0.0104 J-0.0004
X2.7691 Y53.4168 I-3.1839 J-1.8363
G2 X2.4167 Y53.7692 I-0.029 J0.3234
G3 X1.7256 Y54.2452 I-2.4167 J-2.7692
G2 X1.1509 Y54.4906 I-0.2528 J0.2036
G3 X0.2491 Y54.6671 I-1.1514 J-3.4905
G2 X-0.2491 I-0.2491 J0.2081
G3 X-1.1509 Y54.4906 I0.2497 J-3.667
G2 X-1.7256 Y54.2452 I-0.3219 J-0.0418
G3 X-2.4167 Y53.7692 I1.7256 J-3.2452
G2 X-2.7691 Y53.4168 I-0.3233 J-0.0291
G3 X-3.1841 Y52.836 I2.7689 J-2.4171
X-3.1855 Y52.8312 I0.009 J-0.0052
G1 Y52.831
X-3.2257 Y51.7904
G2 X-3.2493 Y51.7389 I-0.0745 J0.0029
G1 X-3.2753 Y51.7145
G2 X-3.2757 Y51.7141 I-0.051 J0.0544
G3 X-3.279 Y51.7069 I0.007 J-0.0076
G1 X-3.2873 Y51.4928
G3 X-3.2845 Y51.4853 I0.0103 J-0.0004
G2 X-3.2842 Y51.485 I-0.0547 J-0.0507
G1 X-3.2601 Y51.4586
G2 X-3.2406 Y51.4054 I-0.0551 J-0.0503
G1 X-3.2447 Y51.2987
Y51.2985
G2 X-3.3497 Y51.1982 I-0.1045 J0.0043
G3 X-3.8954 Y50.9716 I-0.003 J-0.7628
G2 X-3.8957 Y50.9713 I-0.0531 J0.0524
X-4.0743 Y51.0466 I-0.074 J0.074
X0.6178 Y55.0275 I4.0743 J-0.0465
X3.9009 Y49.8233 I-0.6178 J-4.0275
X3.3948 Y48.7468 Z-0.21 I-3.9009 J1.1768
X2.9119 Y48.15 I-3.3949 J2.2533
G1 Z-0.2
G2 X2.3409 Y47.665 I-2.9119 J2.8501
G1 Z-0.21 F13.333
G2 X-3.0248 Y48.2701 I-2.3409 J3.335 F30.
G1 Z-0.2
G2 X-3.4735 Y48.87 I3.0248 J2.73
G1 Z-0.21 F13.333
G2 X-4.018 Y50.3234 I3.4735 J2.13 F30.
X-3.3623 Y51.11 I0.6652 J0.112
X-3.2562 Y51.0015 I0.0015 J-0.1046
G1 X-3.2623 Y50.8459
G2 X-3.2862 Y50.794 I-0.0745 J0.0029
G1 X-3.3122 Y50.77
G3 X-3.3155 Y50.7628 I0.0072 J-0.0077
G1 X-3.3238 Y50.5483
G3 X-3.3211 Y50.5408 I0.0104 J-0.0004
G1 X-3.297 Y50.5149
G2 X-3.2771 Y50.4613 I-0.0547 J-0.0507
G1 X-3.3174 Y49.4207
Y49.4205
G3 X-3.3164 Y49.4156 I0.0104 J-0.0004
X-2.7691 Y48.5832 I3.3164 J1.5844
G2 X-2.4167 Y48.2308 I0.029 J-0.3233
G3 X-1.8049 Y47.7981 I2.4169 J2.7691
G2 X-1.2362 Y47.5386 I0.2479 J-0.2095
G3 X-0.2491 Y47.3329 I1.2363 J3.4614
G2 X0.2491 I0.2491 J-0.2081
G3 X1.2362 Y47.5386 I-0.2493 J3.6671
G2 X1.8049 Y47.7981 I0.3207 J0.05
G3 X2.4167 Y48.2308 I-1.8051 J3.2018
G2 X2.7691 Y48.5832 I0.3233 J0.0291
G3 X3.3164 Y49.4156 I-2.7691 J2.4168
X3.3174 Y49.4205 I-0.0094 J0.0045
G1 Y49.4207
X3.2771 Y50.4613
G2 X3.297 Y50.5149 I0.0745 J0.0029
G1 X3.3211 Y50.5408
G3 X3.3238 Y50.5483 I-0.0077 J0.0071
G1 X3.3155 Y50.7628
G3 X3.3122 Y50.77 I-0.0105 J-0.0004
G1 X3.2862 Y50.794
G2 X3.2623 Y50.8459 I0.0506 J0.0549
G1 X3.2406 Y51.4054
G2 X3.2601 Y51.4586 I0.0745 J0.0029
G1 X3.2842 Y51.485
G2 X3.2845 Y51.4853 I0.0551 J-0.0503
G3 X3.2873 Y51.4928 I-0.0076 J0.007
G1 X3.279 Y51.7069
G3 X3.2757 Y51.7141 I-0.0103 J-0.0004
G2 X3.2753 Y51.7145 I0.0507 J0.0548
G1 X3.2493 Y51.7389
G2 X3.2257 Y51.7904 I0.051 J0.0544
G1 X3.1855 Y52.831
Y52.8312
G3 X3.1841 Y52.836 I-0.0104 J-0.0004
X2.7691 Y53.4168 I-3.1839 J-1.8363
G2 X2.4167 Y53.7692 I-0.029 J0.3234
G3 X1.7256 Y54.2452 I-2.4167 J-2.7692
G2 X1.1509 Y54.4906 I-0.2528 J0.2036
G3 X1.127 Y54.4984 I-1.1514 J-3.4905
G1 Z-0.2
G3 X0.3942 Y54.6543 I-1.1275 J-3.4983
G1 Z-0.21 F13.333
G3 X0.2491 Y54.6671 I-0.3947 J-3.6542 F30.
G2 X-0.2491 I-0.2491 J0.2081
G3 X-1.1509 Y54.4906 I0.2497 J-3.667
G2 X-1.7256 Y54.2452 I-0.3219 J-0.0418
G3 X-1.8455 Y54.1786 I1.7256 J-3.2452
G1 Z-0.2
G3 X-2.4167 Y53.7692 I1.8455 J-3.1786
G2 X-2.4188 Y53.6932 I-0.3233 J-0.0291
G1 Z-0.21 F13.333
G2 X-2.7691 Y53.4168 I-0.3212 J0.047 F30.
G3 X-3.1841 Y52.836 I2.7689 J-2.4171
X-3.1855 Y52.8312 I0.009 J-0.0052
G1 Y52.831
X-3.2257 Y51.7904
G2 X-3.2493 Y51.7389 I-0.0745 J0.0029
G1 X-3.2753 Y51.7145
G2 X-3.2757 Y51.7141 I-0.051 J0.0544
G3 X-3.279 Y51.7069 I0.007 J-0.0076
G1 X-3.2873 Y51.4928
G3 X-3.2845 Y51.4853 I0.0103 J-0.0004
G2 X-3.2842 Y51.485 I-0.0547 J-0.0507
G1 X-3.2601 Y51.4586
G2 X-3.2406 Y51.4054 I-0.0551 J-0.0503
G1 X-3.2447 Y51.2987
Y51.2985
G2 X-3.3497 Y51.1982 I-0.1045 J0.0043
G3 X-3.8954 Y50.9716 I-0.003 J-0.7628
G2 X-3.8957 Y50.9713 I-0.0531 J0.0524
X-4.0743 Y51.0466 I-0.074 J0.074
X3.975 Y51.8954 I4.0743 J-0.0465
G1 Z-0.2
G2 X4.0717 Y51.1525 I-3.975 J-0.8953
G1 Z-0.21 F13.333
G2 X3.3948 Y48.7468 I-4.0717 J-0.1524 F30.
X2.9119 Y48.15 Z-0.2551 I-3.3949 J2.2533
G1 Z-0.2
G2 X2.3409 Y47.665 I-2.9119 J2.8501
G1 Z-0.28 F13.333
G2 X-3.0248 Y48.2701 I-2.3409 J3.335 F30.
G1 Z-0.2
G2 X-3.4735 Y48.87 I3.0248 J2.73
G1 Z-0.28 F13.333
G2 X-4.018 Y50.3234 I3.4735 J2.13 F30.
X-3.3623 Y51.11 I0.6652 J0.112
X-3.2562 Y51.0015 I0.0015 J-0.1046
G1 X-3.2623 Y50.8459
G2 X-3.2862 Y50.794 I-0.0745 J0.0029
G1 X-3.3122 Y50.77
G3 X-3.3155 Y50.7628 I0.0072 J-0.0077
G1 X-3.3238 Y50.5483
G3 X-3.3211 Y50.5408 I0.0104 J-0.0004
G1 X-3.297 Y50.5149
G2 X-3.2771 Y50.4613 I-0.0547 J-0.0507
G1 X-3.3174 Y49.4207
Y49.4205
G3 X-3.3164 Y49.4156 I0.0104 J-0.0004
X-2.7691 Y48.5832 I3.3164 J1.5844
G2 X-2.4167 Y48.2308 I0.029 J-0.3233
G3 X-1.8049 Y47.7981 I2.4169 J2.7691
G2 X-1.2362 Y47.5386 I0.2479 J-0.2095
G3 X-0.2491 Y47.3329 I1.2363 J3.4614
G2 X0.2491 I0.2491 J-0.2081
G3 X1.2362 Y47.5386 I-0.2493 J3.6671
G2 X1.8049 Y47.7981 I0.3207 J0.05
G3 X2.4167 Y48.2308 I-1.8051 J3.2018
G2 X2.7691 Y48.5832 I0.3233 J0.0291
G3 X3.3164 Y49.4156 I-2.7691 J2.4168
X3.3174 Y49.4205 I-0.0094 J0.0045
G1 Y49.4207
X3.2771 Y50.4613
G2 X3.297 Y50.5149 I0.0745 J0.0029
G1 X3.3211 Y50.5408
G3 X3.3238 Y50.5483 I-0.0077 J0.0071
G1 X3.3155 Y50.7628
G3 X3.3122 Y50.77 I-0.0105 J-0.0004
G1 X3.2862 Y50.794
G2 X3.2623 Y50.8459 I0.0506 J0.0549
G1 X3.2406 Y51.4054
G2 X3.2601 Y51.4586 I0.0745 J0.0029
G1 X3.2842 Y51.485
G2 X3.2845 Y51.4853 I0.0551 J-0.0503
G3 X3.2873 Y51.4928 I-0.0076 J0.007
G1 X3.279 Y51.7069
G3 X3.2757 Y51.7141 I-0.0103 J-0.0004
G2 X3.2753 Y51.7145 I0.0507 J0.0548
G1 X3.2493 Y51.7389
G2 X3.2257 Y51.7904 I0.051 J0.0544
G1 X3.1855 Y52.831
Y52.8312
G3 X3.1841 Y52.836 I-0.0104 J-0.0004
X2.7691 Y53.4168 I-3.1839 J-1.8363
G2 X2.4167 Y53.7692 I-0.029 J0.3234
G3 X1.7256 Y54.2452 I-2.4167 J-2.7692
G2 X1.1509 Y54.4906 I-0.2528 J0.2036
G3 X1.127 Y54.4984 I-1.1514 J-3.4905
G1 Z-0.2
G3 X0.3942 Y54.6543 I-1.1275 J-3.4983
G1 Z-0.28 F13.333
G3 X0.2491 Y54.6671 I-0.3947 J-3.6542 F30.
G2 X-0.2491 I-0.2491 J0.2081
G3 X-1.1509 Y54.4906 I0.2497 J-3.667
G2 X-1.7256 Y54.2452 I-0.3219 J-0.0418
G3 X-1.8455 Y54.1786 I1.7256 J-3.2452
G1 Z-0.2
G3 X-2.4167 Y53.7692 I1.8455 J-3.1786
G2 X-2.4188 Y53.6932 I-0.3233 J-0.0291
G1 Z-0.28 F13.333
G2 X-2.7691 Y53.4168 I-0.3212 J0.047 F30.
G3 X-3.1841 Y52.836 I2.7689 J-2.4171
X-3.1855 Y52.8312 I0.009 J-0.0052
G1 Y52.831
X-3.2257 Y51.7904
G2 X-3.2493 Y51.7389 I-0.0745 J0.0029
G1 X-3.2753 Y51.7145
G2 X-3.2757 Y51.7141 I-0.051 J0.0544
G3 X-3.279 Y51.7069 I0.007 J-0.0076
G1 X-3.2873 Y51.4928
G3 X-3.2845 Y51.4853 I0.0103 J-0.0004
G2 X-3.2842 Y51.485 I-0.0547 J-0.0507
G1 X-3.2601 Y51.4586
G2 X-3.2406 Y51.4054 I-0.0551 J-0.0503
G1 X-3.2447 Y51.2987
Y51.2985
G2 X-3.3497 Y51.1982 I-0.1045 J0.0043
G3 X-3.8954 Y50.9716 I-0.003 J-0.7628
G2 X-3.8957 Y50.9713 I-0.0531 J0.0524
X-4.0743 Y51.0466 I-0.074 J0.074
X3.975 Y51.8954 I4.0743 J-0.0465
G1 Z-0.2
G2 X4.0717 Y51.1525 I-3.975 J-0.8953
G1 Z-0.28 F13.333
G2 X2.9119 Y48.15 I-4.0717 J-0.1524 F30.
G1 Z-0.2
G2 X2.5994 Y47.8624 I-2.9119 J2.8501
G0 Z0.6
M9
G53 Z0.
M30
%
