%
(CONERAMPDIAGONALPANEL_250)
(T1  D=0.25 CR=0. - ZMIN=-0.5187 - FLAT END MILL)
G90 G94 G17 G91.1
G64 P0.001 Q0.001
G20
G53 G0 Z0.
(.3 CIRCULAR THROUGH HOLE)
M9
T1 M6
S13000 M3
G4 P10.
G54
M7
G0 X-0.0445 Y6.8342
G43 Z0.6 H1
G0 Z0.2
G1 Z0.1241 F13.333
G3 X-0.0451 Y6.833 Z0.1161 I0.0395 J-0.0216 F55.
X-0.0467 Y6.8295 Z0.1089 I0.0401 J-0.0205
X-0.0485 Y6.8239 Z0.1034 I0.0417 J-0.017
X-0.0498 Y6.8166 Z0.1 I0.0435 J-0.0113
X0.0398 Y6.8085 Z0.0621 I0.0448 J-0.004
X-0.0498 Y6.8166 Z0.0242 I-0.0448 J0.004
X0.0398 Y6.8085 Z-0.0136 I0.0448 J-0.004
X-0.0498 Y6.8166 Z-0.0515 I-0.0448 J0.004
X0.0398 Y6.8085 Z-0.0894 I0.0448 J-0.004
X-0.0498 Y6.8166 Z-0.1273 I-0.0448 J0.004
X-0.007 Y6.7676 Z-0.1468 I0.0448 J-0.004
X0.04 Y6.8125 Z-0.1662 I0.002 J0.045
X-0.04 I-0.04 J0. F60.
X0.14 I0.09 J0.
X-0.14 I-0.14 J0.
X0.24 I0.19 J0.
X-0.24 I-0.24 J0.
X0.34 I0.29 J0.
X-0.34 I-0.34 J0.
X0.44 I0.39 J0.
X-0.44 I-0.44 J0.
X0.54 I0.49 J0.
X-0.54 I-0.54 J0.
X0.64 I0.59 J0.
X-0.64 I-0.64 J0.
X0.74 I0.69 J0.
X-0.74 I-0.74 J0.
X0.84 I0.79 J0.
X-0.84 I-0.84 J0.
X0.94 I0.89 J0.
X-0.94 I-0.94 J0.
X1.04 I0.99 J0.
X-1.04 I-1.04 J0.
X1.14 I1.09 J0.
X-1.14 I-1.14 J0.
X1.24 I1.19 J0.
X-1.24 I-1.24 J0.
X1.24 I1.24 J0.
X1.2256 Y6.8249 I-0.0125 J0.
G1 X1.1374 Y6.8112
X0.0188 Y6.7826
X0.0073 Y6.7782
G3 X0.0104 Y6.7702 I0.0016 J-0.004
X-0.0204 Y6.8548 Z-0.2041 I-0.0154 J0.0423 F55.
X0.0104 Y6.7702 Z-0.242 I0.0154 J-0.0423
X-0.0204 Y6.8548 Z-0.2799 I-0.0154 J0.0423
X0.0104 Y6.7702 Z-0.3178 I0.0154 J-0.0423
X0.04 Y6.8125 Z-0.3325 I-0.0154 J0.0423
X-0.04 I-0.04 J0. F60.
X0.14 I0.09 J0.
X-0.14 I-0.14 J0.
X0.24 I0.19 J0.
X-0.24 I-0.24 J0.
X0.34 I0.29 J0.
X-0.34 I-0.34 J0.
X0.44 I0.39 J0.
X-0.44 I-0.44 J0.
X0.54 I0.49 J0.
X-0.54 I-0.54 J0.
X0.64 I0.59 J0.
X-0.64 I-0.64 J0.
X0.74 I0.69 J0.
X-0.74 I-0.74 J0.
X0.84 I0.79 J0.
X-0.84 I-0.84 J0.
X0.94 I0.89 J0.
X-0.94 I-0.94 J0.
X1.04 I0.99 J0.
X-1.04 I-1.04 J0.
X1.14 I1.09 J0.
X-1.14 I-1.14 J0.
X1.24 I1.19 J0.
X-1.24 I-1.24 J0.
X1.24 I1.24 J0.
X1.2256 Y6.8249 I-0.0125 J0.
G1 X1.1374 Y6.8112
X0.0188 Y6.7826
X0.0073 Y6.7782
G3 X0.0104 Y6.7702 I0.0016 J-0.004
X-0.0204 Y6.8548 Z-0.3704 I-0.0154 J0.0423 F55.
X0.0104 Y6.7702 Z-0.4083 I0.0154 J-0.0423
X-0.0204 Y6.8548 Z-0.4461 I-0.0154 J0.0423
X0.0104 Y6.7702 Z-0.484 I0.0154 J-0.0423
X0.04 Y6.8125 Z-0.4987 I-0.0154 J0.0423
X-0.04 I-0.04 J0. F60.
X0.14 I0.09 J0.
X-0.14 I-0.14 J0.
X0.24 I0.19 J0.
X-0.24 I-0.24 J0.
X0.34 I0.29 J0.
X-0.34 I-0.34 J0.
X0.44 I0.39 J0.
X-0.44 I-0.44 J0.
X0.54 I0.49 J0.
X-0.54 I-0.54 J0.
X0.64 I0.59 J0.
X-0.64 I-0.64 J0.
X0.74 I0.69 J0.
X-0.74 I-0.74 J0.
X0.84 I0.79 J0.
X-0.84 I-0.84 J0.
X0.94 I0.89 J0.
X-0.94 I-0.94 J0.
X1.04 I0.99 J0.
X-1.04 I-1.04 J0.
X1.14 I1.09 J0.
X-1.14 I-1.14 J0.
X1.24 I1.19 J0.
X-1.24 I-1.24 J0.
X1.25 I1.245 J0.
X-1.25 I-1.25 J0.
X1.25 I1.25 J0.
X1.2495 Y6.8159 Z-0.4982 I-0.0112 J0.
X1.2481 Y6.8187 Z-0.4966 I-0.0107 J-0.0034
X1.2465 Y6.8206 Z-0.4941 I-0.0093 J-0.0062
X1.2453 Y6.8216 Z-0.491 I-0.0077 J-0.0081
X1.2449 Y6.8219 Z-0.4876 I-0.0065 J-0.0091
G0 Z0.4
X-0.0445 Y-13.9158
Z0.2
G1 Z0.1241 F13.333
G3 X-0.0451 Y-13.917 Z0.1161 I0.0395 J-0.0216 F55.
X-0.0467 Y-13.9205 Z0.1089 I0.0401 J-0.0205
X-0.0485 Y-13.9261 Z0.1034 I0.0417 J-0.017
X-0.0498 Y-13.9334 Z0.1 I0.0435 J-0.0113
X0.0398 Y-13.9415 Z0.0621 I0.0448 J-0.004
X-0.0498 Y-13.9334 Z0.0242 I-0.0448 J0.004
X0.0398 Y-13.9415 Z-0.0136 I0.0448 J-0.004
X-0.0498 Y-13.9334 Z-0.0515 I-0.0448 J0.004
X0.0398 Y-13.9415 Z-0.0894 I0.0448 J-0.004
X-0.0498 Y-13.9334 Z-0.1273 I-0.0448 J0.004
X-0.007 Y-13.9824 Z-0.1468 I0.0448 J-0.004
X0.04 Y-13.9375 Z-0.1662 I0.002 J0.045
X-0.04 I-0.04 J0. F60.
X0.14 I0.09 J0.
X-0.14 I-0.14 J0.
X0.24 I0.19 J0.
X-0.24 I-0.24 J0.
X0.34 I0.29 J0.
X-0.34 I-0.34 J0.
X0.44 I0.39 J0.
X-0.44 I-0.44 J0.
X0.54 I0.49 J0.
X-0.54 I-0.54 J0.
X0.64 I0.59 J0.
X-0.64 I-0.64 J0.
X0.74 I0.69 J0.
X-0.74 I-0.74 J0.
X0.84 I0.79 J0.
X-0.84 I-0.84 J0.
X0.94 I0.89 J0.
X-0.94 I-0.94 J0.
X1.04 I0.99 J0.
X-1.04 I-1.04 J0.
X1.14 I1.09 J0.
X-1.14 I-1.14 J0.
X1.24 I1.19 J0.
X-1.24 I-1.24 J0.
X1.24 I1.24 J0.
X1.2256 Y-13.9251 I-0.0125 J0.
G1 X1.1374 Y-13.9388
X0.0188 Y-13.9674
X0.0073 Y-13.9718
G3 X0.0104 Y-13.9798 I0.0016 J-0.004
X-0.0204 Y-13.8952 Z-0.2041 I-0.0154 J0.0423 F55.
X0.0104 Y-13.9798 Z-0.242 I0.0154 J-0.0423
X-0.0204 Y-13.8952 Z-0.2799 I-0.0154 J0.0423
X0.0104 Y-13.9798 Z-0.3178 I0.0154 J-0.0423
X0.04 Y-13.9375 Z-0.3325 I-0.0154 J0.0423
X-0.04 I-0.04 J0. F60.
X0.14 I0.09 J0.
X-0.14 I-0.14 J0.
X0.24 I0.19 J0.
X-0.24 I-0.24 J0.
X0.34 I0.29 J0.
X-0.34 I-0.34 J0.
X0.44 I0.39 J0.
X-0.44 I-0.44 J0.
X0.54 I0.49 J0.
X-0.54 I-0.54 J0.
X0.64 I0.59 J0.
X-0.64 I-0.64 J0.
X0.74 I0.69 J0.
X-0.74 I-0.74 J0.
X0.84 I0.79 J0.
X-0.84 I-0.84 J0.
X0.94 I0.89 J0.
X-0.94 I-0.94 J0.
X1.04 I0.99 J0.
X-1.04 I-1.04 J0.
X1.14 I1.09 J0.
X-1.14 I-1.14 J0.
X1.24 I1.19 J0.
X-1.24 I-1.24 J0.
X1.24 I1.24 J0.
X1.2256 Y-13.9251 I-0.0125 J0.
G1 X1.1374 Y-13.9388
X0.0188 Y-13.9674
X0.0073 Y-13.9718
G3 X0.0104 Y-13.9798 I0.0016 J-0.004
X-0.0204 Y-13.8952 Z-0.3704 I-0.0154 J0.0423 F55.
X0.0104 Y-13.9798 Z-0.4083 I0.0154 J-0.0423
X-0.0204 Y-13.8952 Z-0.4461 I-0.0154 J0.0423
X0.0104 Y-13.9798 Z-0.484 I0.0154 J-0.0423
X0.04 Y-13.9375 Z-0.4987 I-0.0154 J0.0423
X-0.04 I-0.04 J0. F60.
X0.14 I0.09 J0.
X-0.14 I-0.14 J0.
X0.24 I0.19 J0.
X-0.24 I-0.24 J0.
X0.34 I0.29 J0.
X-0.34 I-0.34 J0.
X0.44 I0.39 J0.
X-0.44 I-0.44 J0.
X0.54 I0.49 J0.
X-0.54 I-0.54 J0.
X0.64 I0.59 J0.
X-0.64 I-0.64 J0.
X0.74 I0.69 J0.
X-0.74 I-0.74 J0.
X0.84 I0.79 J0.
X-0.84 I-0.84 J0.
X0.94 I0.89 J0.
X-0.94 I-0.94 J0.
X1.04 I0.99 J0.
X-1.04 I-1.04 J0.
X1.14 I1.09 J0.
X-1.14 I-1.14 J0.
X1.24 I1.19 J0.
X-1.24 I-1.24 J0.
X1.25 I1.245 J0.
X-1.25 I-1.25 J0.
X1.25 I1.25 J0.
X1.2495 Y-13.9341 Z-0.4982 I-0.0112 J0.
X1.2481 Y-13.9313 Z-0.4966 I-0.0107 J-0.0034
X1.2465 Y-13.9294 Z-0.4941 I-0.0093 J-0.0062
X1.2453 Y-13.9284 Z-0.491 I-0.0077 J-0.0081
X1.2449 Y-13.9281 Z-0.4876 I-0.0065 J-0.0091
G0 Z0.6
(2D CONTOUR)
M7
G0 X-9.375 Y-2.0381
Z0.6
Z0.2
G1 Z0.1 F13.333
Y0. Z-0.2594
Y21.9375 F60.
G2 X-9.25 Y22.0625 I0.125 J0.
G1 X9.25
G2 X9.375 Y21.9375 I0. J-0.125
G1 Y-21.9375
G2 X9.25 Y-22.0625 I-0.125 J0.
G1 X-9.25
G2 X-9.375 Y-21.9375 I0. J0.125
G1 Y0.
Y21.9375 Z-0.397 F13.333
G2 X-9.25 Y22.0625 Z-0.3982 I0.125 J0.
G1 X2.9271 Z-0.4746
Z-0.4562
X5.1771
Z-0.4887
X9.25 Z-0.5142
G2 X9.375 Y21.9375 Z-0.5155 I0. J-0.125
G1 Y21.4157 Z-0.5187
Y17.8646 F60.
Z-0.4562
Y15.6146
Z-0.5187 F13.333
Y7.4687 F60.
Z-0.4562
Y5.2187
Z-0.5187 F13.333
Y-2.9271 F60.
Z-0.4562
Y-5.1771
Z-0.5187 F13.333
Y-13.3229 F60.
Z-0.4562
Y-15.5729
Z-0.5187 F13.333
Y-21.9375 F60.
G2 X9.25 Y-22.0625 I-0.125 J0.
G1 X7.4687
Z-0.4562
X5.2187
Z-0.5187 F13.333
X-2.9271 F60.
Z-0.4562
X-5.1771
Z-0.5187 F13.333
X-9.25 F60.
G2 X-9.375 Y-21.9375 I0. J0.125
G1 Y-17.8646
Z-0.4562
Y-15.6146
Z-0.5187 F13.333
Y-7.4687 F60.
Z-0.4562
Y-5.2187
Z-0.5187 F13.333
Y2.9271 F60.
Z-0.4562
Y5.1771
Z-0.5187 F13.333
Y13.3229 F60.
Z-0.4562
Y15.5729
Z-0.5187 F13.333
Y21.9375 F60.
G2 X-9.25 Y22.0625 I0.125 J0.
G1 X-7.4687
Z-0.4562
X-5.2187
Z-0.5187 F13.333
X2.9271 F60.
Z-0.4562
X5.1771
Z-0.5187 F13.333
X9.25 F60.
G2 X9.375 Y21.9375 I0. J-0.125
G1 Y21.4157
G0 Z0.6
M9
G53 Z0.
M30
%
