%
(CUBEMEASURINGTOOLHANDLE_250)
(T1  D=0.25 CR=0. - ZMIN=-0.55 - FLAT END MILL)
G90 G94 G17 G91.1
G64 P0.001 Q0.001
G20
G53 G0 Z0.
(SMALL HOLE BORE)
M9
T1 M6
S13000 M3
G4 P10.
G54
M7
G0 X2.7953 Y14.4546
G43 Z0.6 H1
G0 Z0.105
G1 Z0.05 F35.
X2.7914 Y14.4507
G3 X2.7953 Y14.4468 I0.0039 J0.
Y14.4624 Z0. I0. J0.0078
Y14.4468 Z-0.05 I0. J-0.0078
Y14.4624 Z-0.1 I0. J0.0078
Y14.4468 Z-0.15 I0. J-0.0078
Y14.4624 Z-0.2 I0. J0.0078
Y14.4468 Z-0.25 I0. J-0.0078
Y14.4624 Z-0.3 I0. J0.0078
Y14.4468 Z-0.35 I0. J-0.0078
Y14.4624 Z-0.4 I0. J0.0078
Y14.4468 Z-0.45 I0. J-0.0078
Y14.4624 Z-0.5 I0. J0.0078
Y14.4468 Z-0.55 I0. J-0.0078
Y14.4624 I0. J0.0078
Y14.4468 I0. J-0.0078
X2.7993 Y14.4507 I0. J0.0039
G1 X2.7953 Y14.4546
G0 Z0.4
X7.5453
Z0.105
G1 Z0.05 F35.
X7.5414 Y14.4507
G3 X7.5453 Y14.4468 I0.0039 J0.
Y14.4624 Z0. I0. J0.0078
Y14.4468 Z-0.05 I0. J-0.0078
Y14.4624 Z-0.1 I0. J0.0078
Y14.4468 Z-0.15 I0. J-0.0078
Y14.4624 Z-0.2 I0. J0.0078
Y14.4468 Z-0.25 I0. J-0.0078
Y14.4624 Z-0.3 I0. J0.0078
Y14.4468 Z-0.35 I0. J-0.0078
Y14.4624 Z-0.4 I0. J0.0078
Y14.4468 Z-0.45 I0. J-0.0078
Y14.4624 Z-0.5 I0. J0.0078
Y14.4468 Z-0.55 I0. J-0.0078
Y14.4624 I0. J0.0078
Y14.4468 I0. J-0.0078
X7.5493 Y14.4507 I0. J0.0039
G1 X7.5453 Y14.4546
G0 Z0.4
X7.5403 Y3.4546
Z0.105
G1 Z0.05 F35.
X7.5364 Y3.4507
G3 X7.5403 Y3.4468 I0.0039 J0.
Y3.4624 Z0. I0. J0.0078
Y3.4468 Z-0.05 I0. J-0.0078
Y3.4624 Z-0.1 I0. J0.0078
Y3.4468 Z-0.15 I0. J-0.0078
Y3.4624 Z-0.2 I0. J0.0078
Y3.4468 Z-0.25 I0. J-0.0078
Y3.4624 Z-0.3 I0. J0.0078
Y3.4468 Z-0.35 I0. J-0.0078
Y3.4624 Z-0.4 I0. J0.0078
Y3.4468 Z-0.45 I0. J-0.0078
Y3.4624 Z-0.5 I0. J0.0078
Y3.4468 Z-0.55 I0. J-0.0078
Y3.4624 I0. J0.0078
Y3.4468 I0. J-0.0078
X7.5443 Y3.4507 I0. J0.0039
G1 X7.5403 Y3.4546
G0 Z0.4
X2.7903
Z0.105
G1 Z0.05 F35.
X2.7864 Y3.4507
G3 X2.7903 Y3.4468 I0.0039 J0.
Y3.4624 Z0. I0. J0.0078
Y3.4468 Z-0.05 I0. J-0.0078
Y3.4624 Z-0.1 I0. J0.0078
Y3.4468 Z-0.15 I0. J-0.0078
Y3.4624 Z-0.2 I0. J0.0078
Y3.4468 Z-0.25 I0. J-0.0078
Y3.4624 Z-0.3 I0. J0.0078
Y3.4468 Z-0.35 I0. J-0.0078
Y3.4624 Z-0.4 I0. J0.0078
Y3.4468 Z-0.45 I0. J-0.0078
Y3.4624 Z-0.5 I0. J0.0078
Y3.4468 Z-0.55 I0. J-0.0078
Y3.4624 I0. J0.0078
Y3.4468 I0. J-0.0078
X2.7943 Y3.4507 I0. J0.0039
G1 X2.7903 Y3.4546
G0 Z0.6
(SHAPE THROUGH HOLE)
M7
G0 X11.3122 Y6.7037
Z0.6
Z0.1
G3 X11.5285 Y6.8017 Z0.0342 I0.1082 J0.049 F50.
X11.3122 Y6.7037 Z-0.0316 I-0.1082 J-0.049
X11.5285 Y6.8017 Z-0.0973 I0.1082 J0.049
X11.3122 Y6.7037 Z-0.1631 I-0.1082 J-0.049
X11.5391 Y6.7527 Z-0.22 I0.1082 J0.049
X11.3016 I-0.1188 J0.
X11.5391 I0.1188 J0.
G1 X11.5421 Y6.7614 F60.
X11.5445 Y6.7703
X11.5463 Y6.7794
X11.5475 Y6.7885
X11.5481 Y6.7977
Y6.807
X11.5475 Y6.8162
X11.5463 Y6.8253
X11.5444 Y6.8344
X11.542 Y6.8433
X11.539 Y6.852
X11.5354 Y6.8605
X11.5312 Y6.8687
X11.5265 Y6.8767
X11.5213 Y6.8843
X11.5156 Y6.8916
X11.5095 Y6.8984
X11.5029 Y6.9049
X11.4959 Y6.9109
X11.4885 Y6.9164
X11.4807 Y6.9214
X11.4726 Y6.9259
X11.4643 Y6.9298
X11.4557 Y6.9332
X11.4469 Y6.936
X11.438 Y6.9382
X11.4289 Y6.9398
X11.4197 Y6.9408
X11.4105 Y6.9412
X11.4013 Y6.941
X11.3921 Y6.9402
X11.383 Y6.9387
X11.374 Y6.9367
X11.3651 Y6.9341
X11.3565 Y6.9309
X11.348 Y6.9271
X11.3399 Y6.9228
X11.332 Y6.9179
X11.3245 Y6.9125
X11.3174 Y6.9067
X11.3107 Y6.9004
X11.3044 Y6.8936
X11.2986 Y6.8865
X11.2932 Y6.879
X11.2856 Y6.8715
X11.2785 Y6.8636
X11.2719 Y6.8552
X11.2657 Y6.8466
X11.2601 Y6.8375
X11.255 Y6.8282
X11.2504 Y6.8186
X11.2464 Y6.8087
X11.243 Y6.7986
X11.2401 Y6.7884
X11.2379 Y6.778
X11.2362 Y6.7674
X11.2352 Y6.7568
X11.2348 Y6.7462
X11.235 Y6.7356
X11.2358 Y6.725
X11.2372 Y6.7144
X11.2393 Y6.704
X11.2419 Y6.6936
X11.2451 Y6.6835
X11.2489 Y6.6736
X11.2533 Y6.6638
X11.2582 Y6.6544
X11.2637 Y6.6453
X11.2697 Y6.6365
X11.2762 Y6.628
X11.2831 Y6.62
X11.2905 Y6.6123
X11.2984 Y6.6051
X11.3066 Y6.5984
X11.3152 Y6.5921
X11.3242 Y6.5864
X11.3335 Y6.5812
X11.343 Y6.5765
X11.3528 Y6.5724
X11.3629 Y6.5689
X11.3731 Y6.5659
X11.3835 Y6.5636
X11.394 Y6.5618
X11.4046 Y6.5607
X11.4152 Y6.5601
X11.4258 Y6.5602
X11.4365 Y6.5609
X11.447 Y6.5622
X11.4575 Y6.5641
X11.4678 Y6.5667
X11.478 Y6.5698
X11.488 Y6.5735
X11.4977 Y6.5777
X11.5072 Y6.5826
X11.5164 Y6.5879
X11.5253 Y6.5938
X11.5338 Y6.6002
X11.5419 Y6.6071
X11.5497 Y6.6144
X11.5569 Y6.6221
X11.5638 Y6.6303
X11.5701 Y6.6389
X11.5759 Y6.6478
X11.5813 Y6.657
X11.586 Y6.6665
X11.5903 Y6.6763
X11.5939 Y6.6863
X11.597 Y6.6965
X11.5994 Y6.7068
X11.6044 Y6.7172
X11.6088 Y6.7278
X11.6126 Y6.7387
X11.6159 Y6.7497
X11.6185 Y6.7609
X11.6205 Y6.7723
X11.622 Y6.7837
X11.6227 Y6.7952
X11.6229 Y6.8067
X11.6225 Y6.8182
X11.6214 Y6.8297
X11.6197 Y6.8411
X11.6174 Y6.8523
X11.6145 Y6.8635
X11.6109 Y6.8744
X11.6068 Y6.8852
X11.6022 Y6.8957
X11.5969 Y6.906
X11.5911 Y6.9159
X11.5848 Y6.9256
X11.578 Y6.9348
X11.5707 Y6.9437
X11.5629 Y6.9522
X11.5546 Y6.9602
X11.546 Y6.9678
X11.5369 Y6.9749
X11.5275 Y6.9815
X11.5177 Y6.9876
X11.5076 Y6.9932
X11.4973 Y6.9982
X11.4867 Y7.0026
X11.4758 Y7.0064
X11.4648 Y7.0097
X11.4536 Y7.0124
X11.4422 Y7.0144
X11.4308 Y7.0158
X11.4193 Y7.0166
X11.4078 Y7.0168
X11.3963 Y7.0164
X11.3848 Y7.0153
X11.3735 Y7.0136
X11.3622 Y7.0114
X11.351 Y7.0085
X11.3401 Y7.005
X11.3293 Y7.0009
X11.3188 Y6.9962
X11.3085 Y6.991
X11.2986 Y6.9852
X11.2889 Y6.9789
X11.2797 Y6.9721
X11.2708 Y6.9648
X11.2623 Y6.957
X11.2542 Y6.9488
G3 X11.1521 Y6.7302 I0.1244 J-0.1912
G1 X11.1538 Y6.7173
X11.1561 Y6.7045
X11.1589 Y6.6919
X11.1624 Y6.6794
X11.1664 Y6.667
X11.1711 Y6.6549
X11.1763 Y6.643
X11.182 Y6.6313
X11.1883 Y6.6199
X11.1951 Y6.6089
X11.2025 Y6.5982
X11.2103 Y6.5878
X11.2186 Y6.5778
X11.2274 Y6.5682
X11.2366 Y6.5591
X11.2463 Y6.5504
X11.2563 Y6.5421
X11.2667 Y6.5344
X11.2775 Y6.5271
X11.2886 Y6.5204
X11.3 Y6.5142
X11.3117 Y6.5085
X11.3236 Y6.5034
X11.3358 Y6.4988
X11.3482 Y6.4949
X11.3607 Y6.4915
X11.3734 Y6.4887
X11.3862 Y6.4866
X11.3991 Y6.485
X11.4121 Y6.484
X11.4251 Y6.4837
X11.4381 Y6.484
X11.451 Y6.4848
X11.4639 Y6.4863
X11.4768 Y6.4884
X11.4895 Y6.4911
X11.502 Y6.4944
X11.5144 Y6.4983
X11.5266 Y6.5028
X11.5386 Y6.5078
X11.5503 Y6.5134
X11.5618 Y6.5196
X11.5729 Y6.5263
X11.5837 Y6.5335
X11.5942 Y6.5412
X11.6043 Y6.5493
X11.614 Y6.558
X11.6232 Y6.5671
X11.6321 Y6.5766
X11.6404 Y6.5866
X11.6483 Y6.5969
X11.6557 Y6.6076
X11.6626 Y6.6186
X11.669 Y6.6299
X11.6748 Y6.6415
X11.6801 Y6.6534
X11.6848 Y6.6655
X11.6889 Y6.6778
X11.6924 Y6.6903
X11.6953 Y6.703
X11.6977 Y6.7158
X11.6994 Y6.7286
X11.7005 Y6.7416
X11.701 Y6.7546
X11.7009 Y6.7676
X11.702 Y6.7812
X11.7025 Y6.7949
X11.7023 Y6.8086
X11.7015 Y6.8222
X11.7001 Y6.8359
X11.6981 Y6.8494
X11.6954 Y6.8628
X11.6922 Y6.8761
X11.6883 Y6.8893
X11.6839 Y6.9022
X11.6789 Y6.9149
X11.6733 Y6.9274
X11.6672 Y6.9397
X11.6605 Y6.9516
X11.6532 Y6.9632
X11.6455 Y6.9745
X11.6373 Y6.9855
X11.6285 Y6.996
X11.6193 Y7.0061
X11.6097 Y7.0158
X11.5996 Y7.0251
X11.5891 Y7.0339
X11.5782 Y7.0422
X11.567 Y7.05
X11.5554 Y7.0573
X11.5435 Y7.0641
X11.5313 Y7.0703
X11.5188 Y7.0759
X11.5061 Y7.081
X11.4932 Y7.0855
X11.4801 Y7.0895
X11.4668 Y7.0928
X11.4534 Y7.0955
X11.4399 Y7.0976
X11.4263 Y7.0991
X11.4126 Y7.1
X11.3989 Y7.1002
X11.3853 Y7.0999
X11.3716 Y7.0989
X11.358 Y7.0973
X11.3445 Y7.0951
X11.3311 Y7.0922
X11.3179 Y7.0888
X11.3048 Y7.0848
X11.2919 Y7.0802
X11.2792 Y7.075
X11.2668 Y7.0692
X11.2547 Y7.0629
X11.2428 Y7.0561
X11.2313 Y7.0487
X11.2201 Y7.0408
X11.2093 Y7.0324
X11.1989 Y7.0235
X11.1889 Y7.0142
X11.1793 Y7.0044
X11.1702 Y6.9942
X11.1616 Y6.9836
X11.1534 Y6.9726
X11.1458 Y6.9613
X11.1386 Y6.9496
X11.132 Y6.9376
G3 X11.0826 Y6.6458 I0.2425 J-0.1912
X11.7744 Y6.6699 I0.3424 J0.1133
G1 X11.779 Y6.6948
X11.7804 Y6.7237
Y6.8396
G3 X11.058 Y6.9869 I-0.3841 J-0.0387
G1 X11.0604 Y6.7237
G3 X11.7779 Y6.6692 I0.3595 J-0.0179
G1 X11.7776 Y6.6728
X11.7768 Y6.6762
X11.7755 Y6.6795
G2 X11.7742 Y6.6861 I0.0237 J0.008
G1 X11.7735 Y6.6999
X11.7682 Y6.7958
G2 X11.7716 Y6.8099 I0.025 J0.0014
G3 X11.7804 Y6.8396 I-0.0536 J0.0318
G1 Y7.0004
G3 X11.3044 Y7.2535 I-0.3524 J-0.0886
X11.0588 Y7.1282 I0.0136 J-0.3302
G1 X11.0604 Y7.113
Y6.9856
G3 X11.0736 Y6.9645 I0.025 J0.0009
X11.093 Y6.9675 I0.0077 J0.0144
X11.0777 Y7.0895 I-0.0565 J0.0549
G1 X11.0736 Y7.0919
G2 X11.0604 Y7.113 I0.0118 J0.0221
G1 Y7.1583
X11.0651 Y7.171
X11.0703 Y7.1835
X11.0761 Y7.1957
X11.0825 Y7.2076
X11.0894 Y7.2193
X11.0968 Y7.2306
X11.1047 Y7.2416
X11.1131 Y7.2522
X11.122 Y7.2624
X11.1313 Y7.2723
X11.141 Y7.2817
X11.1512 Y7.2906
X11.1617 Y7.2991
X11.1726 Y7.3071
X11.1839 Y7.3146
X11.1954 Y7.3216
X11.2073 Y7.3281
X11.2195 Y7.334
X11.2319 Y7.3394
X11.2445 Y7.3442
X11.2574 Y7.3484
X11.2704 Y7.3521
X11.2836 Y7.3552
X11.2969 Y7.3576
X11.3103 Y7.3595
X11.3237 Y7.3608
X11.3372 Y7.3615
X11.3508 Y7.3616
X11.3643 Y7.361
X11.3778 Y7.3599
X11.3912 Y7.3581
X11.4045 Y7.3558
X11.4177 Y7.3529
G2 X11.7804 Y7.1798 I0.0544 J-0.3526
G1 Y7.0004
G2 X11.7671 Y6.9792 I-0.025 J0.0009
X11.7232 Y6.9907 I-0.0157 J0.0295
X11.763 Y7.1563 I0.0995 J0.0637
G1 X11.7671 Y7.1586
G3 X11.7804 Y7.1798 I-0.0118 J0.0221
G1 Y7.2322
X11.7753 Y7.2455
X11.7697 Y7.2587
X11.7636 Y7.2715
X11.7569 Y7.2841
X11.7496 Y7.2964
X11.7418 Y7.3084
X11.7335 Y7.32
X11.7247 Y7.3312
X11.7155 Y7.342
X11.7057 Y7.3524
X11.6955 Y7.3624
X11.6849 Y7.3719
X11.6739 Y7.381
X11.6625 Y7.3896
X11.6507 Y7.3976
X11.6386 Y7.4052
X11.6262 Y7.4122
X11.6135 Y7.4186
X11.6005 Y7.4245
X11.5873 Y7.4298
X11.5738 Y7.4346
X11.5602 Y7.4387
X11.5464 Y7.4423
X11.5324 Y7.4452
X11.5183 Y7.4475
X11.5042 Y7.4493
X11.49 Y7.4504
X11.4757 Y7.4508
X11.4615 Y7.4507
X11.4472 Y7.4499
X11.433 Y7.4485
X11.4189 Y7.4465
X11.4049 Y7.4439
G3 X11.0617 Y7.3161 I-0.0643 J-0.352
G1 X11.0604 Y7.3034
Y7.1583
G3 X11.0736 Y7.1371 I0.025 J0.0009
X11.136 Y7.1727 I0.02 J0.0375
X11.0777 Y7.2799 I-0.118 J0.0052
G1 X11.0736 Y7.2822
G2 X11.0604 Y7.3034 I0.0118 J0.0221
G1 Y7.3481
X11.0646 Y7.3601
X11.0694 Y7.372
X11.0748 Y7.3836
X11.0806 Y7.395
X11.087 Y7.4061
X11.0939 Y7.4168
X11.1013 Y7.4273
X11.1092 Y7.4374
X11.1175 Y7.4471
X11.1263 Y7.4564
X11.1355 Y7.4653
X11.145 Y7.4737
X11.155 Y7.4818
X11.1653 Y7.4893
X11.176 Y7.4964
X11.187 Y7.5029
X11.1982 Y7.509
X11.2098 Y7.5145
X11.2216 Y7.5195
X11.2336 Y7.5239
X11.2457 Y7.5278
X11.2581 Y7.5311
X11.2706 Y7.5338
X11.2832 Y7.536
X11.2959 Y7.5375
X11.3086 Y7.5385
X11.3214 Y7.5389
X11.3342 Y7.5387
X11.347 Y7.5379
X11.3597 Y7.5365
X11.3723 Y7.5346
G2 X11.7791 Y7.3939 I0.0857 J-0.4108
G1 X11.7804 Y7.382
Y7.2322
G2 X11.7671 Y7.211 I-0.025 J0.0009
X11.7053 Y7.2437 I-0.0199 J0.0373
X11.763 Y7.3585 I0.1174 J0.0129
G1 X11.7671 Y7.3608
G3 X11.7804 Y7.382 I-0.0118 J0.0221
G1 Y7.4278
X11.7758 Y7.4404
X11.7708 Y7.4527
X11.7652 Y7.4648
X11.759 Y7.4767
X11.7523 Y7.4882
X11.7451 Y7.4994
X11.7374 Y7.5103
X11.7292 Y7.5209
X11.7205 Y7.531
X11.7114 Y7.5407
X11.7018 Y7.5501
X11.6918 Y7.5589
X11.6815 Y7.5673
X11.6708 Y7.5753
X11.6597 Y7.5827
X11.6483 Y7.5896
X11.6366 Y7.596
X11.6246 Y7.6019
X11.6124 Y7.6072
X11.5999 Y7.612
X11.5872 Y7.6162
X11.5744 Y7.6198
X11.5614 Y7.6228
X11.5483 Y7.6252
X11.535 Y7.6271
X11.5218 Y7.6283
X11.5084 Y7.6289
X11.4951
X11.4818 Y7.6284
X11.4685 Y7.6272
X11.4553 Y7.6254
G3 X11.0613 Y7.5006 I-0.0996 J-0.3699
G1 X11.0604 Y7.49
Y7.3481
G3 X11.0736 Y7.3269 I0.025 J0.0009
X11.1361 Y7.3643 I0.02 J0.0375
X11.0777 Y7.4665 I-0.1181 J0.0003
G1 X11.0736 Y7.4688
G2 X11.0604 Y7.49 I0.0118 J0.0221
G1 Y7.535
X11.0649 Y7.5472
X11.07 Y7.5593
X11.0757 Y7.5711
X11.0819 Y7.5826
X11.0886 Y7.5938
X11.0959 Y7.6047
X11.1037 Y7.6152
X11.112 Y7.6254
X11.1207 Y7.6351
X11.1299 Y7.6444
X11.1395 Y7.6533
X11.1496 Y7.6617
X11.16 Y7.6696
X11.1708 Y7.677
X11.1819 Y7.6839
X11.1933 Y7.6903
X11.205 Y7.6961
X11.217 Y7.7014
X11.2292 Y7.706
X11.2417 Y7.7101
X11.2543 Y7.7137
X11.267 Y7.7166
X11.2799 Y7.7189
X11.2929 Y7.7206
X11.3059 Y7.7216
X11.319 Y7.7221
X11.3321 Y7.7219
X11.3451 Y7.7212
X11.3581 Y7.7198
X11.3711 Y7.7178
G2 X11.779 Y7.5852 I0.0935 J-0.4063
G1 X11.7804 Y7.5729
Y7.4278
G2 X11.7671 Y7.4066 I-0.025 J0.0009
X11.7047 Y7.4423 I-0.02 J0.0375
X11.763 Y7.5494 I0.118 J0.0052
G1 X11.7671 Y7.5517
G3 X11.7804 Y7.5729 I-0.0118 J0.0221
G1 Y7.6219
X11.7753 Y7.6342
X11.7697 Y7.6463
X11.7636 Y7.6582
X11.757 Y7.6697
X11.7499 Y7.681
X11.7422 Y7.6919
X11.7341 Y7.7025
X11.7255 Y7.7127
X11.7165 Y7.7225
X11.7071 Y7.7319
X11.6972 Y7.7409
X11.687 Y7.7494
X11.6763 Y7.7575
X11.6654 Y7.7651
X11.6541 Y7.7721
X11.6425 Y7.7787
X11.6306 Y7.7848
X11.6185 Y7.7903
X11.6061 Y7.7952
X11.5935 Y7.7997
X11.5808 Y7.8035
X11.5679 Y7.8068
X11.5548 Y7.8095
X11.5417 Y7.8116
X11.5284 Y7.8131
X11.5151 Y7.8141
X11.5018 Y7.8144
X11.4885 Y7.8142
X11.4752 Y7.8133
X11.4619 Y7.8119
X11.4488 Y7.8099
X11.4327 Y7.8127
X11.4164 Y7.815
X11.4002 Y7.8166
X11.3838 Y7.8177
X11.3675 Y7.8181
X11.3511 Y7.8179
X11.3348 Y7.8171
X11.3185 Y7.8157
X11.3022 Y7.8137
X11.2861 Y7.8111
X11.27 Y7.8078
X11.2541 Y7.804
X11.2384 Y7.7996
X11.2228 Y7.7946
X11.2074 Y7.789
X11.1922 Y7.7828
X11.1773 Y7.7761
X11.1627 Y7.7688
X11.1483 Y7.761
X11.1342 Y7.7526
X11.1205 Y7.7437
X11.1071 Y7.7343
X11.0941 Y7.7245
X11.0814 Y7.7141
X11.0691 Y7.7033
X11.0573 Y7.692
X11.0604 Y7.6743
Y7.535
G3 X11.0736 Y7.5138 I0.025 J0.0009
X11.1361 Y7.5526 I0.02 J0.0375
X11.0777 Y7.6508 I-0.1181 J-0.0038
G1 X11.0736 Y7.6531
G2 X11.0604 Y7.6743 I0.0118 J0.0221
G1 Y7.7209
X11.0651 Y7.7331
X11.0704 Y7.745
X11.0762 Y7.7567
X11.0826 Y7.7681
X11.0895 Y7.7792
X11.0969 Y7.7899
X11.1048 Y7.8003
X11.1131 Y7.8103
X11.1219 Y7.8199
X11.1312 Y7.8291
X11.1409 Y7.8378
X11.151 Y7.8461
X11.1614 Y7.8539
X11.1722 Y7.8613
X11.1834 Y7.8681
X11.1948 Y7.8743
X11.2065 Y7.8801
X11.2185 Y7.8853
X11.2307 Y7.8899
X11.2431 Y7.8939
X11.2556 Y7.8974
X11.2684 Y7.9003
X11.2812 Y7.9026
X11.2941 Y7.9043
X11.3071 Y7.9053
X11.3202 Y7.9058
X11.3332 Y7.9057
X11.3462 Y7.905
X11.3592 Y7.9036
X11.3721 Y7.9017
G2 X11.779 Y7.7727 I0.0962 J-0.4032
G1 X11.7804 Y7.7604
Y7.6219
G2 X11.7371 Y7.6057 I-0.025 J0.0009
X11.7236 Y7.6475 I0.0379 J0.0353
X11.7644 Y7.735 I0.1562 J-0.0197
G1 X11.7724 Y7.743
G3 X11.7804 Y7.7604 I-0.0171 J0.0183
G1 Y7.8078
X11.7754 Y7.8204
X11.7698 Y7.8326
X11.7636 Y7.8446
X11.757 Y7.8564
X11.7497 Y7.8677
X11.742 Y7.8788
X11.7338 Y7.8895
X11.7251 Y7.8997
X11.7159 Y7.9096
X11.7063 Y7.9191
X11.6962 Y7.928
X11.6857 Y7.9365
X11.6749 Y7.9446
X11.6637 Y7.9521
X11.6522 Y7.959
X11.6403 Y7.9655
X11.6282 Y7.9714
X11.6158 Y7.9767
X11.6032 Y7.9814
X11.5904 Y7.9856
X11.5774 Y7.9891
X11.5642 Y7.9921
X11.551 Y7.9944
X11.5376 Y7.9962
X11.5242 Y7.9973
X11.5107 Y7.9978
X11.4972 Y7.9976
X11.4838 Y7.9969
X11.4704 Y7.9955
X11.457 Y7.9935
G3 X11.0613 Y7.8689 I-0.0991 J-0.3758
G1 X11.0604 Y7.8582
Y7.7209
G3 X11.1036 Y7.7047 I0.025 J0.0009
X11.117 Y7.7466 I-0.0376 J0.035
X11.0763 Y7.8328 I-0.1561 J-0.021
G1 X11.0683 Y7.8408
G2 X11.0604 Y7.8582 I0.0171 J0.0183
G1 Y7.9057
X11.0653 Y7.9181
X11.0709 Y7.9301
X11.077 Y7.9419
X11.0837 Y7.9534
X11.0909 Y7.9646
X11.0985 Y7.9755
X11.1067 Y7.986
X11.1154 Y7.996
X11.1245 Y8.0057
X11.1341 Y8.0149
X11.1441 Y8.0237
X11.1544 Y8.032
X11.1652 Y8.0398
X11.1763 Y8.0472
X11.1877 Y8.0539
X11.1995 Y8.0602
X11.2115 Y8.0659
X11.2237 Y8.071
X11.2362 Y8.0756
X11.2489 Y8.0795
X11.2618 Y8.0829
X11.2747 Y8.0857
X11.2879 Y8.0879
X11.3011 Y8.0894
X11.3143 Y8.0904
X11.3276 Y8.0907
X11.3409 Y8.0904
X11.3541 Y8.0895
X11.3673 Y8.088
X11.3805 Y8.0859
G2 X11.7794 Y7.9568 I0.0949 J-0.3876
G1 X11.7804 Y7.9461
Y7.8078
G2 X11.7371 Y7.7917 I-0.025 J0.0009
X11.7236 Y7.8335 I0.0378 J0.0353
X11.7644 Y7.9207 I0.1562 J-0.02
G1 X11.7724 Y7.9287
G3 X11.7804 Y7.9461 I-0.0171 J0.0183
G1 Y7.9926
X11.7755 Y8.005
X11.7701 Y8.0171
X11.7642 Y8.029
X11.7577 Y8.0406
X11.7507 Y8.0518
X11.7432 Y8.0628
X11.7351 Y8.0733
X11.7266 Y8.0835
X11.7176 Y8.0933
X11.7082 Y8.1027
X11.6984 Y8.1116
X11.6882 Y8.12
X11.6775 Y8.128
X11.6666 Y8.1354
X11.6553 Y8.1424
X11.6436 Y8.1488
X11.6317 Y8.1546
X11.6196 Y8.1599
X11.6072 Y8.1647
X11.5946 Y8.1689
X11.5818 Y8.1724
X11.5689 Y8.1754
X11.5558 Y8.1778
X11.5427 Y8.1796
X11.5295 Y8.1807
X11.5162 Y8.1813
X11.503 Y8.1812
X11.4897 Y8.1805
X11.4765 Y8.1792
X11.4634 Y8.1773
G3 X11.0617 Y8.0545 I-0.1008 J-0.3885
G1 X11.0604 Y8.0421
Y7.9057
G3 X11.1036 Y7.8896 I0.025 J0.0009
X11.1168 Y7.9315 I-0.0373 J0.0348
X11.0763 Y8.0167 I-0.1559 J-0.022
G1 X11.0683 Y8.0247
G2 X11.0604 Y8.0421 I0.0171 J0.0183
G1 Y8.0903
X11.0655 Y8.1027
X11.0713 Y8.1149
X11.0776 Y8.1268
X11.0845 Y8.1384
X11.0919 Y8.1496
X11.0998 Y8.1605
X11.1082 Y8.1711
X11.1171 Y8.1812
X11.1264 Y8.1909
X11.1362 Y8.2002
X11.1464 Y8.209
X11.157 Y8.2173
X11.1679 Y8.2252
X11.1793 Y8.2325
X11.1909 Y8.2392
X11.2028 Y8.2455
X11.2151 Y8.2511
X11.2275 Y8.2562
X11.2402 Y8.2608
X11.2531 Y8.2647
X11.2662 Y8.268
X11.2793 Y8.2707
X11.2927 Y8.2728
X11.306 Y8.2743
X11.3195 Y8.2752
X11.3329 Y8.2754
X11.3464 Y8.275
X11.3598 Y8.274
X11.3732 Y8.2724
X11.3865 Y8.2702
G2 X11.7794 Y8.1415 I0.0934 J-0.3791
G1 X11.7804 Y8.131
Y7.9926
G2 X11.7371 Y7.9765 I-0.025 J0.0009
X11.7236 Y8.0183 I0.0378 J0.0353
X11.7644 Y8.1056 I0.1562 J-0.0199
G1 X11.7724 Y8.1135
G3 X11.7804 Y8.131 I-0.0171 J0.0183
G1 Y8.1772
X11.7756 Y8.1895
X11.7703 Y8.2015
X11.7645 Y8.2133
X11.7581 Y8.2248
X11.7512 Y8.236
X11.7438 Y8.2469
X11.7358 Y8.2574
X11.7274 Y8.2675
X11.7186 Y8.2773
X11.7093 Y8.2866
X11.6996 Y8.2954
X11.6894 Y8.3038
X11.6789 Y8.3118
X11.6681 Y8.3192
X11.6569 Y8.3261
X11.6454 Y8.3325
X11.6336 Y8.3384
X11.6216 Y8.3437
X11.6093 Y8.3484
X11.5968 Y8.3526
X11.5841 Y8.3562
X11.5713 Y8.3591
X11.5584 Y8.3615
X11.5453 Y8.3633
X11.5322 Y8.3645
X11.5191 Y8.3651
X11.5059 Y8.365
X11.4928 Y8.3644
X11.4797 Y8.3631
X11.4667 Y8.3613
G3 X11.0617 Y8.2383 I-0.1019 J-0.3926
G1 X11.0604 Y8.2258
Y8.0903
G3 X11.1036 Y8.0741 I0.025 J0.0009
X11.1167 Y8.116 I-0.0371 J0.0346
X11.0763 Y8.2004 I-0.1558 J-0.0228
G1 X11.0683 Y8.2084
G2 X11.0604 Y8.2258 I0.0171 J0.0183
G1 Y8.2741
X11.0656 Y8.2866
X11.0714 Y8.2988
X11.0778 Y8.3108
X11.0847 Y8.3224
X11.0921 Y8.3337
X11.1001 Y8.3446
X11.1085 Y8.3552
X11.1175 Y8.3653
X11.1268 Y8.3751
X11.1367 Y8.3844
X11.1469 Y8.3932
X11.1576 Y8.4015
X11.1686 Y8.4094
X11.18 Y8.4167
X11.1916 Y8.4235
X11.2036 Y8.4297
X11.2159 Y8.4354
X11.2284 Y8.4405
X11.2412 Y8.445
X11.2541 Y8.4489
X11.2672 Y8.4523
X11.2805 Y8.455
X11.2938 Y8.4571
X11.3073 Y8.4585
X11.3208 Y8.4594
X11.3343 Y8.4596
X11.3478 Y8.4592
X11.3613 Y8.4582
X11.3747 Y8.4566
X11.388 Y8.4543
G2 X11.7794 Y8.3261 I0.0934 J-0.3765
G1 X11.7804 Y8.3156
Y8.1772
G2 X11.7371 Y8.161 I-0.025 J0.0009
X11.7236 Y8.2028 I0.0379 J0.0353
X11.7644 Y8.2902 I0.1562 J-0.0198
G1 X11.7724 Y8.2982
G3 X11.7804 Y8.3156 I-0.0171 J0.0183
G1 Y8.3621
X11.7756 Y8.3744
X11.7703 Y8.3864
X11.7644 Y8.3982
X11.758 Y8.4097
X11.751 Y8.4208
X11.7436 Y8.4317
X11.7356 Y8.4422
X11.7272 Y8.4523
X11.7183 Y8.462
X11.709 Y8.4713
X11.6993 Y8.4801
X11.6891 Y8.4885
X11.6786 Y8.4964
X11.6678 Y8.5038
X11.6566 Y8.5107
X11.6451 Y8.5171
X11.6333 Y8.5229
X11.6212 Y8.5282
X11.6089 Y8.5329
X11.5965 Y8.537
X11.5838 Y8.5406
X11.571 Y8.5435
X11.5581 Y8.5459
X11.545 Y8.5477
X11.5319 Y8.5488
X11.5188 Y8.5494
X11.5056 Y8.5493
X11.4925 Y8.5486
X11.4794 Y8.5474
X11.4664 Y8.5455
G3 X11.0617 Y8.4221 I-0.1013 J-0.3932
G1 X11.0604 Y8.4096
Y8.2741
G3 X11.1036 Y8.258 I0.025 J0.0009
X11.1167 Y8.2999 I-0.0371 J0.0346
X11.0763 Y8.3842 I-0.1558 J-0.0229
G1 X11.0683 Y8.3922
G2 X11.0604 Y8.4096 I0.0171 J0.0183
G1 Y8.4562
X11.0652 Y8.4685
X11.0707 Y8.4806
X11.0766 Y8.4924
X11.0832 Y8.5039
X11.0902 Y8.5151
X11.0978 Y8.5259
X11.1059 Y8.5364
X11.1144 Y8.5465
X11.1234 Y8.5562
X11.1329 Y8.5654
X11.1427 Y8.5743
X11.153 Y8.5826
X11.1636 Y8.5905
X11.1746 Y8.5978
X11.1859 Y8.6047
X11.1976 Y8.611
X11.2095 Y8.6167
X11.2216 Y8.6219
X11.234 Y8.6266
X11.2466 Y8.6306
X11.2594 Y8.6341
X11.2723 Y8.6369
X11.2853 Y8.6392
X11.2984 Y8.6409
X11.3116 Y8.6419
X11.3248 Y8.6423
X11.338 Y8.6421
X11.3512 Y8.6413
X11.3644 Y8.6399
X11.3774 Y8.6379
G2 X11.779 Y8.5127 I0.098 J-0.3923
G1 X11.7804 Y8.5004
Y8.3621
G2 X11.7371 Y8.3459 I-0.025 J0.0009
X11.7236 Y8.3878 I0.0378 J0.0353
X11.7644 Y8.475 I0.1562 J-0.02
G1 X11.7724 Y8.483
G3 X11.7804 Y8.5004 I-0.0171 J0.0183
G1 Y8.5463
X11.7756 Y8.5586
X11.7703 Y8.5707
X11.7645 Y8.5824
X11.7581 Y8.5939
X11.7512 Y8.6051
X11.7438 Y8.6159
X11.7358 Y8.6264
X11.7274 Y8.6365
X11.7186 Y8.6462
X11.7093 Y8.6555
X11.6995 Y8.6644
X11.6894 Y8.6728
X11.6789 Y8.6807
X11.6681 Y8.6881
X11.6569 Y8.695
X11.6454 Y8.7013
X11.6336 Y8.7071
X11.6216 Y8.7124
X11.6093 Y8.7171
X11.5968 Y8.7212
X11.5842 Y8.7248
X11.5713 Y8.7277
X11.5584 Y8.7301
X11.5454 Y8.7318
X11.5323 Y8.733
X11.5192 Y8.7335
X11.506 Y8.7334
X11.4929 Y8.7328
X11.4799 Y8.7315
X11.4669 Y8.7296
G3 X11.0617 Y8.6059 I-0.1014 J-0.3935
G1 X11.0604 Y8.5934
Y8.4562
G3 X11.1036 Y8.44 I0.025 J0.0009
X11.117 Y8.4819 I-0.0376 J0.035
X11.0763 Y8.5681 I-0.1561 J-0.021
G1 X11.0683 Y8.576
G2 X11.0604 Y8.5934 I0.0171 J0.0183
G1 Y8.6407
X11.0653 Y8.6531
X11.0709 Y8.6652
X11.077 Y8.6771
X11.0837 Y8.6886
X11.0909 Y8.6999
X11.0986 Y8.7108
X11.1068 Y8.7213
X11.1154 Y8.7314
X11.1246 Y8.7411
X11.1342 Y8.7504
X11.1441 Y8.7593
X11.1545 Y8.7676
X11.1653 Y8.7755
X11.1764 Y8.7828
X11.1879 Y8.7897
X11.1996 Y8.796
X11.2117 Y8.8017
X11.224 Y8.8069
X11.2365 Y8.8115
X11.2492 Y8.8155
X11.2621 Y8.8189
X11.2751 Y8.8217
X11.2883 Y8.824
X11.3015 Y8.8256
X11.3148 Y8.8265
X11.3281 Y8.8269
X11.3415 Y8.8267
X11.3548 Y8.8258
X11.368 Y8.8243
X11.3812 Y8.8222
G2 X11.7794 Y8.6954 I0.0972 J-0.3832
G1 X11.7804 Y8.6847
Y8.5463
G2 X11.7371 Y8.5302 I-0.025 J0.0009
X11.7236 Y8.572 I0.0378 J0.0353
X11.7644 Y8.6593 I0.1562 J-0.0199
G1 X11.7724 Y8.6672
G3 X11.7804 Y8.6847 I-0.0171 J0.0183
G1 Y8.7316
X11.7755 Y8.7439
X11.77 Y8.756
X11.764 Y8.7678
X11.7574 Y8.7794
X11.7503 Y8.7906
X11.7427 Y8.8015
X11.7346 Y8.812
X11.7261 Y8.8221
X11.717 Y8.8318
X11.7076 Y8.8411
X11.6977 Y8.85
X11.6874 Y8.8584
X11.6767 Y8.8662
X11.6657 Y8.8736
X11.6543 Y8.8805
X11.6427 Y8.8868
X11.6307 Y8.8926
X11.6186 Y8.8978
X11.6061 Y8.9025
X11.5935 Y8.9065
X11.5807 Y8.91
X11.5678 Y8.9129
X11.5547 Y8.9152
X11.5415 Y8.9169
X11.5283 Y8.9179
X11.5151 Y8.9184
X11.5018 Y8.9182
X11.4886 Y8.9174
X11.4754 Y8.916
X11.4623 Y8.914
G3 X11.0617 Y8.79 I-0.0988 J-0.3896
G1 X11.0604 Y8.7776
Y8.6407
G3 X11.1036 Y8.6246 I0.025 J0.0009
X11.1169 Y8.6664 I-0.0375 J0.0349
X11.0763 Y8.7522 I-0.156 J-0.0214
G1 X11.0683 Y8.7602
G2 X11.0604 Y8.7776 I0.0171 J0.0183
G1 Y8.8257
X11.0655 Y8.8381
X11.0713 Y8.8503
X11.0776 Y8.8623
X11.0844 Y8.8739
X11.0918 Y8.8852
X11.0997 Y8.8961
X11.1081 Y8.9067
X11.117 Y8.9168
X11.1263 Y8.9266
X11.1361 Y8.9359
X11.1463 Y8.9447
X11.1569 Y8.9531
X11.1678 Y8.9609
X11.1792 Y8.9683
X11.1908 Y8.9751
X11.2027 Y8.9814
X11.215 Y8.9871
X11.2274 Y8.9922
X11.2401 Y8.9968
X11.253 Y9.0007
X11.2661 Y9.0041
X11.2793 Y9.0068
X11.2926 Y9.009
X11.306 Y9.0105
X11.3195 Y9.0114
X11.3329 Y9.0117
X11.3464 Y9.0113
X11.3599 Y9.0104
X11.3733 Y9.0088
X11.3866 Y9.0066
G2 X11.7794 Y8.8794 I0.095 J-0.3768
G1 X11.7804 Y8.8688
Y8.7316
G2 X11.7371 Y8.7154 I-0.025 J0.0009
X11.7238 Y8.7573 I0.0376 J0.035
X11.7644 Y8.8434 I0.1561 J-0.021
G1 X11.7724 Y8.8514
G3 X11.7804 Y8.8688 I-0.0171 J0.0183
G1 Y8.9126
X11.7758 Y8.925
X11.7707 Y8.9371
X11.765 Y8.949
X11.7588 Y8.9606
X11.752 Y8.9719
X11.7447 Y8.9829
X11.7369 Y8.9935
X11.7286 Y9.0038
X11.7198 Y9.0136
X11.7106 Y9.023
X11.7009 Y9.0319
X11.6908 Y9.0404
X11.6804 Y9.0484
X11.6695 Y9.0559
X11.6583 Y9.0629
X11.6468 Y9.0693
X11.6351 Y9.0752
X11.623 Y9.0806
X11.6107 Y9.0853
X11.5982 Y9.0895
X11.5855 Y9.093
X11.5727 Y9.096
X11.5597 Y9.0984
X11.5467 Y9.1001
X11.5335 Y9.1012
X11.5204 Y9.1017
X11.5072 Y9.1016
X11.4941 Y9.1008
X11.481 Y9.0995
X11.4679 Y9.0975
G3 X11.0617 Y8.9741 I-0.1022 J-0.3939
G1 X11.0604 Y8.9616
Y8.8257
G3 X11.1036 Y8.8095 I0.025 J0.0009
X11.1168 Y8.8514 I-0.0372 J0.0347
X11.0763 Y8.9362 I-0.1559 J-0.0224
G1 X11.0683 Y8.9442
G2 X11.0604 Y8.9616 I0.0171 J0.0183
G1 Y9.0067
X11.065 Y9.0189
X11.0702 Y9.031
X11.0759 Y9.0428
X11.0822 Y9.0542
X11.0891 Y9.0654
X11.0964 Y9.0763
X11.1043 Y9.0868
X11.1126 Y9.0969
X11.1214 Y9.1066
X11.1307 Y9.1159
X11.1403 Y9.1248
X11.1504 Y9.1331
X11.1608 Y9.1411
X11.1716 Y9.1485
X11.1828 Y9.1554
X11.1942 Y9.1617
X11.206 Y9.1675
X11.218 Y9.1728
X11.2302 Y9.1775
X11.2427 Y9.1816
X11.2553 Y9.1852
X11.268 Y9.1881
X11.2809 Y9.1904
X11.2939 Y9.1922
X11.307 Y9.1933
X11.3201 Y9.1938
X11.3332 Y9.1937
X11.3462 Y9.193
X11.3593 Y9.1917
X11.3722 Y9.1897
G2 X11.779 Y9.0655 I0.1015 J-0.3958
G1 X11.7804 Y9.053
Y8.9126
G2 X11.7671 Y8.8914 I-0.025 J0.0009
X11.7046 Y8.9297 I-0.02 J0.0375
X11.763 Y9.0295 I0.1181 J-0.0021
G1 X11.7671 Y9.0318
G3 X11.7804 Y9.053 I-0.0118 J0.0221
G1 Y9.0995
X11.7756 Y9.1117
X11.7702 Y9.1238
X11.7643 Y9.1356
X11.7579 Y9.1471
X11.7509 Y9.1583
X11.7434 Y9.1691
X11.7354 Y9.1796
X11.7269 Y9.1897
X11.718 Y9.1994
X11.7087 Y9.2087
X11.6989 Y9.2175
X11.6887 Y9.2259
X11.6781 Y9.2338
X11.6672 Y9.2412
X11.656 Y9.248
X11.6444 Y9.2544
X11.6326 Y9.2602
X11.6205 Y9.2654
X11.6082 Y9.2701
X11.5956 Y9.2742
X11.5829 Y9.2777
X11.5701 Y9.2806
X11.5571 Y9.2829
X11.5441 Y9.2846
X11.5309 Y9.2857
X11.5178 Y9.2862
X11.5046 Y9.2861
X11.4914 Y9.2854
X11.4783 Y9.284
X11.4653 Y9.2821
G3 X11.0617 Y9.158 I-0.1002 J-0.3924
G1 X11.0604 Y9.1456
Y9.0067
G3 X11.1036 Y8.9905 I0.025 J0.0009
X11.1172 Y9.0323 I-0.038 J0.0354
X11.0763 Y9.1202 I-0.1563 J-0.0193
G1 X11.0683 Y9.1282
G2 X11.0604 Y9.1456 I0.0171 J0.0183
G1 Y9.1912
X11.065 Y9.2034
X11.0703 Y9.2155
X11.0761 Y9.2272
X11.0824 Y9.2387
X11.0893 Y9.2498
X11.0966 Y9.2607
X11.1045 Y9.2711
X11.1129 Y9.2812
X11.1217 Y9.2909
X11.1309 Y9.3002
X11.1406 Y9.309
X11.1507 Y9.3174
X11.1611 Y9.3253
X11.1719 Y9.3327
X11.1831 Y9.3395
X11.1945 Y9.3459
X11.2063 Y9.3517
X11.2183 Y9.3569
X11.2305 Y9.3616
X11.2429 Y9.3657
X11.2556 Y9.3693
X11.2683 Y9.3722
X11.2812 Y9.3746
X11.2942 Y9.3763
X11.3072 Y9.3774
X11.3203 Y9.3779
X11.3334 Y9.3778
X11.3465 Y9.3771
X11.3595 Y9.3758
X11.3724 Y9.3739
G2 X11.779 Y9.2498 I0.1015 J-0.3954
G1 X11.7804 Y9.2373
Y9.0995
G2 X11.7371 Y9.0833 I-0.025 J0.0009
X11.7237 Y9.1251 I0.0377 J0.0352
X11.7644 Y9.2119 I0.1561 J-0.0204
G1 X11.7724 Y9.2199
G3 X11.7804 Y9.2373 I-0.0171 J0.0183
G1 Y9.2821
X11.7758 Y9.2944
X11.7706 Y9.3064
X11.7649 Y9.3182
X11.7586 Y9.3298
X11.7518 Y9.341
X11.7444 Y9.3519
X11.7366 Y9.3624
X11.7283 Y9.3726
X11.7195 Y9.3823
X11.7103 Y9.3917
X11.7006 Y9.4006
X11.6905 Y9.409
X11.6801 Y9.4169
X11.6693 Y9.4244
X11.6581 Y9.4313
X11.6466 Y9.4377
X11.6349 Y9.4435
X11.6229 Y9.4488
X11.6106 Y9.4535
X11.5982 Y9.4577
X11.5855 Y9.4612
X11.5728 Y9.4641
X11.5598 Y9.4665
X11.5468 Y9.4682
X11.5338 Y9.4694
X11.5207 Y9.4699
X11.5075 Y9.4698
X11.4944 Y9.469
X11.4814 Y9.4677
X11.4684 Y9.4657
G3 X11.0617 Y9.3421 I-0.1021 J-0.3948
G1 X11.0604 Y9.3296
Y9.1912
G3 X11.1036 Y9.175 I0.025 J0.0009
X11.1171 Y9.2168 I-0.0378 J0.0353
X11.0763 Y9.3042 I-0.1562 J-0.0199
G1 X11.0683 Y9.3121
G2 X11.0604 Y9.3296 I0.0171 J0.0183
G1 Y9.3762
X11.0652 Y9.3884
X11.0706 Y9.4005
X11.0765 Y9.4123
X11.083 Y9.4238
X11.09 Y9.435
X11.0975 Y9.4458
X11.1055 Y9.4563
X11.114 Y9.4664
X11.123 Y9.4761
X11.1324 Y9.4854
X11.1422 Y9.4942
X11.1524 Y9.5025
X11.163 Y9.5104
X11.1739 Y9.5178
X11.1852 Y9.5246
X11.1968 Y9.531
X11.2086 Y9.5367
X11.2208 Y9.542
X11.2331 Y9.5466
X11.2456 Y9.5507
X11.2584 Y9.5542
X11.2712 Y9.5571
X11.2842 Y9.5593
X11.2973 Y9.561
X11.3105 Y9.5621
X11.3236 Y9.5626
X11.3368 Y9.5624
X11.35 Y9.5617
X11.3631 Y9.5603
X11.3762 Y9.5583
G2 X11.779 Y9.4339 I0.0997 J-0.3918
G1 X11.7804 Y9.4216
Y9.2821
G2 X11.7671 Y9.2609 I-0.025 J0.0009
X11.7046 Y9.2997 I-0.02 J0.0375
X11.763 Y9.398 I0.1181 J-0.0035
G1 X11.7671 Y9.4004
G3 X11.7804 Y9.4216 I-0.0118 J0.0221
G1 Y9.467
X11.7757 Y9.4793
X11.7705 Y9.4913
X11.7647 Y9.5031
X11.7584 Y9.5146
X11.7515 Y9.5257
X11.7441 Y9.5366
X11.7363 Y9.5471
X11.7279 Y9.5572
X11.7191 Y9.5669
X11.7099 Y9.5762
X11.7002 Y9.585
X11.6901 Y9.5934
X11.6796 Y9.6013
X11.6688 Y9.6087
X11.6577 Y9.6156
X11.6462 Y9.622
X11.6345 Y9.6278
X11.6225 Y9.633
X11.6102 Y9.6377
X11.5978 Y9.6419
X11.5852 Y9.6454
X11.5724 Y9.6483
X11.5595 Y9.6507
X11.5465 Y9.6524
X11.5334 Y9.6535
X11.5203 Y9.6541
X11.5072 Y9.654
X11.4941 Y9.6532
X11.4811 Y9.6519
X11.4681 Y9.65
G3 X11.0617 Y9.5262 I-0.1019 J-0.3946
G1 X11.0604 Y9.5137
Y9.3762
G3 X11.1036 Y9.36 I0.025 J0.0009
X11.117 Y9.4018 I-0.0376 J0.0351
X11.0763 Y9.4883 I-0.1561 J-0.0207
G1 X11.0683 Y9.4963
G2 X11.0604 Y9.5137 I0.0171 J0.0183
G1 Y9.5604
X11.0652 Y9.5727
X11.0706 Y9.5847
X11.0766 Y9.5965
X11.0831 Y9.608
X11.0901 Y9.6192
X11.0976 Y9.6301
X11.1057 Y9.6406
X11.1142 Y9.6507
X11.1232 Y9.6604
X11.1326 Y9.6697
X11.1424 Y9.6785
X11.1526 Y9.6868
X11.1632 Y9.6947
X11.1742 Y9.7021
X11.1855 Y9.7089
X11.1971 Y9.7152
X11.209 Y9.721
X11.2211 Y9.7262
X11.2335 Y9.7309
X11.2461 Y9.7349
X11.2588 Y9.7384
X11.2717 Y9.7413
X11.2847 Y9.7436
X11.2978 Y9.7453
X11.311 Y9.7463
X11.3242 Y9.7468
X11.3374 Y9.7466
X11.3506 Y9.7458
X11.3637 Y9.7444
X11.3768 Y9.7424
G2 X11.779 Y9.6181 I0.0994 J-0.3913
G1 X11.7804 Y9.6058
Y9.467
G2 X11.7371 Y9.4508 I-0.025 J0.0009
X11.7235 Y9.4926 I0.0379 J0.0354
X11.7644 Y9.5804 I0.1563 J-0.0194
G1 X11.7724 Y9.5883
G3 X11.7804 Y9.6058 I-0.0171 J0.0183
G1 Y9.6499
X11.7758 Y9.6623
X11.7706 Y9.6744
X11.7649 Y9.6862
X11.7587 Y9.6978
X11.7519 Y9.7091
X11.7446 Y9.72
X11.7367 Y9.7306
X11.7284 Y9.7407
X11.7196 Y9.7505
X11.7104 Y9.7599
X11.7007 Y9.7688
X11.6907 Y9.7772
X11.6802 Y9.7852
X11.6694 Y9.7927
X11.6582 Y9.7996
X11.6467 Y9.806
X11.6349 Y9.8119
X11.6229 Y9.8172
X11.6106 Y9.8219
X11.5982 Y9.826
X11.5855 Y9.8296
X11.5727 Y9.8325
X11.5598 Y9.8348
X11.5467 Y9.8366
X11.5336 Y9.8377
X11.5205 Y9.8382
X11.5074 Y9.838
X11.4942 Y9.8373
X11.4812 Y9.8359
X11.4682 Y9.8339
G3 X11.0617 Y9.7104 I-0.1022 J-0.394
G1 X11.0604 Y9.6979
Y9.5604
G3 X11.1036 Y9.5442 I0.025 J0.0009
X11.117 Y9.5861 I-0.0376 J0.0351
X11.0763 Y9.6725 I-0.1561 J-0.0208
G1 X11.0683 Y9.6805
G2 X11.0604 Y9.6979 I0.0171 J0.0183
G1 Y9.7456
X11.0654 Y9.758
X11.0711 Y9.7702
X11.0773 Y9.7821
X11.084 Y9.7937
X11.0913 Y9.805
X11.0991 Y9.8159
X11.1074 Y9.8264
X11.1162 Y9.8366
X11.1254 Y9.8463
X11.1351 Y9.8556
X11.1452 Y9.8645
X11.1557 Y9.8728
X11.1665 Y9.8807
X11.1777 Y9.8881
X11.1893 Y9.8949
X11.2011 Y9.9012
X11.2133 Y9.9069
X11.2257 Y9.9121
X11.2383 Y9.9166
X11.2511 Y9.9206
X11.264 Y9.924
X11.2772 Y9.9268
X11.2904 Y9.929
X11.3037 Y9.9306
X11.3171 Y9.9315
X11.3305 Y9.9319
X11.3439 Y9.9316
X11.3573 Y9.9307
X11.3706 Y9.9291
X11.3838 Y9.927
G2 X11.7794 Y9.8004 I0.0967 J-0.3792
G1 X11.7804 Y9.7897
Y9.6499
G2 X11.7671 Y9.6288 I-0.025 J0.0009
X11.7046 Y9.6674 I-0.02 J0.0375
X11.763 Y9.7662 I0.1181 J-0.0031
G1 X11.7671 Y9.7686
G3 X11.7804 Y9.7897 I-0.0118 J0.0221
G1 Y9.8359
X11.7756 Y9.8481
X11.7704 Y9.8601
X11.7645 Y9.8719
X11.7582 Y9.8833
X11.7513 Y9.8945
X11.7439 Y9.9053
X11.736 Y9.9157
X11.7276 Y9.9258
X11.7188 Y9.9355
X11.7095 Y9.9447
X11.6998 Y9.9535
X11.6897 Y9.9619
X11.6793 Y9.9698
X11.6684 Y9.9771
X11.6573 Y9.984
X11.6458 Y9.9903
X11.6341 Y9.9961
X11.6221 Y10.0014
X11.6098 Y10.0061
X11.5974 Y10.0102
X11.5848 Y10.0137
X11.572 Y10.0167
X11.5592 Y10.019
X11.5462 Y10.0207
X11.5331 Y10.0219
X11.52 Y10.0224
X11.5069 Y10.0223
X11.4939 Y10.0216
X11.4808 Y10.0203
X11.4679 Y10.0184
G3 X11.0617 Y9.8945 I-0.1015 J-0.3951
G1 X11.0604 Y9.8821
Y9.7456
G3 X11.1036 Y9.7294 I0.025 J0.0009
X11.1168 Y9.7714 I-0.0373 J0.0348
X11.0763 Y9.8567 I-0.156 J-0.0219
G1 X11.0683 Y9.8646
G2 X11.0604 Y9.8821 I0.0171 J0.0183
G1 Y9.9266
X11.0649 Y9.9389
X11.0701 Y9.951
X11.0758 Y9.9628
X11.0821 Y9.9743
X11.0889 Y9.9856
X11.0962 Y9.9965
X11.104 Y10.007
X11.1124 Y10.0171
X11.1211 Y10.0269
X11.1304 Y10.0362
X11.14 Y10.0451
X11.1501 Y10.0535
X11.1605 Y10.0615
X11.1714 Y10.0689
X11.1825 Y10.0758
X11.194 Y10.0822
X11.2057 Y10.088
X11.2177 Y10.0933
X11.23 Y10.098
X11.2424 Y10.1022
X11.255 Y10.1057
X11.2678 Y10.1086
X11.2807 Y10.111
X11.2937 Y10.1127
X11.3068 Y10.1138
X11.3199 Y10.1143
X11.333 Y10.1142
X11.3461 Y10.1135
X11.3592 Y10.1121
X11.3722 Y10.1102
G2 X11.779 Y9.9864 I0.1021 J-0.3951
G1 X11.7804 Y9.9739
Y9.8359
G2 X11.7371 Y9.8197 I-0.025 J0.0009
X11.7236 Y9.8616 I0.0378 J0.0352
X11.7644 Y9.9485 I0.1562 J-0.0202
G1 X11.7724 Y9.9565
G3 X11.7804 Y9.9739 I-0.0171 J0.0183
G1 Y10.0207
X11.7755 Y10.033
X11.77 Y10.0451
X11.764 Y10.0569
X11.7575 Y10.0685
X11.7504 Y10.0797
X11.7429 Y10.0905
X11.7348 Y10.101
X11.7262 Y10.1111
X11.7172 Y10.1209
X11.7078 Y10.1301
X11.6979 Y10.139
X11.6876 Y10.1473
X11.677 Y10.1552
X11.666 Y10.1626
X11.6547 Y10.1694
X11.643 Y10.1757
X11.6311 Y10.1815
X11.6189 Y10.1867
X11.6065 Y10.1914
X11.5939 Y10.1954
X11.5812 Y10.1989
X11.5682 Y10.2018
X11.5552 Y10.2041
X11.542 Y10.2057
X11.5288 Y10.2068
X11.5156 Y10.2072
X11.5024 Y10.2071
X11.4892 Y10.2063
X11.476 Y10.2049
X11.4629 Y10.2029
G3 X11.0617 Y10.0786 I-0.0989 J-0.3905
G1 X11.0604 Y10.0662
Y9.9266
G3 X11.0736 Y9.9054 I0.025 J0.0009
X11.1361 Y9.9442 I0.02 J0.0375
X11.0777 Y10.0427 I-0.1181 J-0.0034
G1 X11.0736 Y10.045
G2 X11.0604 Y10.0662 I0.0118 J0.0221
G1 Y10.1135
X11.0654 Y10.1259
X11.0709 Y10.138
X11.0771 Y10.1499
X11.0837 Y10.1614
X11.0909 Y10.1727
X11.0986 Y10.1836
X11.1068 Y10.1941
X11.1155 Y10.2042
X11.1247 Y10.2139
X11.1343 Y10.2232
X11.1443 Y10.2321
X11.1547 Y10.2404
X11.1654 Y10.2483
X11.1766 Y10.2557
X11.188 Y10.2625
X11.1998 Y10.2688
X11.2118 Y10.2745
X11.2241 Y10.2797
X11.2367 Y10.2843
X11.2494 Y10.2883
X11.2623 Y10.2918
X11.2753 Y10.2946
X11.2885 Y10.2968
X11.3017 Y10.2984
X11.315 Y10.2994
X11.3284 Y10.2998
X11.3417 Y10.2995
X11.355 Y10.2987
X11.3683 Y10.2972
X11.3814 Y10.2951
G2 X11.7794 Y10.1688 I0.0978 J-0.382
G1 X11.7804 Y10.1581
Y10.0207
G2 X11.7371 Y10.0045 I-0.025 J0.0009
X11.7237 Y10.0464 I0.0376 J0.035
X11.7644 Y10.1327 I0.1561 J-0.0209
G1 X11.7724 Y10.1407
G3 X11.7804 Y10.1581 I-0.0171 J0.0183
G1 Y10.2052
X11.7754 Y10.2176
X11.7699 Y10.2297
X11.7638 Y10.2415
X11.7572 Y10.2531
X11.7501 Y10.2643
X11.7424 Y10.2752
X11.7343 Y10.2857
X11.7257 Y10.2958
X11.7166 Y10.3055
X11.7071 Y10.3148
X11.6971 Y10.3236
X11.6868 Y10.332
X11.6761 Y10.3399
X11.665 Y10.3472
X11.6536 Y10.3541
X11.6419 Y10.3604
X11.6299 Y10.3661
X11.6177 Y10.3713
X11.6052 Y10.376
X11.5926 Y10.38
X11.5797 Y10.3835
X11.5667 Y10.3863
X11.5536 Y10.3886
X11.5404 Y10.3902
X11.5272 Y10.3912
X11.5139 Y10.3916
X11.5006 Y10.3914
X11.4873 Y10.3906
X11.4741 Y10.3892
X11.461 Y10.3871
G3 X11.0617 Y10.2627 I-0.0978 J-0.389
G1 X11.0604 Y10.2504
Y10.1135
G3 X11.1036 Y10.0973 I0.025 J0.0009
X11.1169 Y10.1392 I-0.0375 J0.0349
X11.0763 Y10.225 I-0.156 J-0.0214
G1 X11.0683 Y10.233
G2 X11.0604 Y10.2504 I0.0171 J0.0183
G1 Y10.2961
X11.0651 Y10.3083
X11.0703 Y10.3203
X11.0762 Y10.3321
X11.0825 Y10.3436
X11.0894 Y10.3547
X11.0968 Y10.3655
X11.1047 Y10.376
X11.1131 Y10.3861
X11.1219 Y10.3958
X11.1312 Y10.405
X11.1409 Y10.4138
X11.151 Y10.4222
X11.1614 Y10.4301
X11.1723 Y10.4375
X11.1834 Y10.4444
X11.1949 Y10.4507
X11.2066 Y10.4565
X11.2186 Y10.4618
X11.2309 Y10.4664
X11.2433 Y10.4706
X11.2559 Y10.4741
X11.2687 Y10.477
X11.2816 Y10.4794
X11.2946 Y10.4811
X11.3076 Y10.4823
X11.3207 Y10.4828
X11.3338 Y10.4827
X11.3469 Y10.482
X11.36 Y10.4807
X11.3729 Y10.4788
G2 X11.779 Y10.3548 I0.1013 J-0.3951
G1 X11.7804 Y10.3423
Y10.2052
G2 X11.7371 Y10.1891 I-0.025 J0.0009
X11.7238 Y10.2309 I0.0375 J0.035
X11.7644 Y10.3169 I0.156 J-0.0212
G1 X11.7724 Y10.3249
G3 X11.7804 Y10.3423 I-0.0171 J0.0183
G1 Y10.3902
X11.7752 Y10.4026
X11.7695 Y10.4148
X11.7633 Y10.4267
X11.7565 Y10.4384
X11.7492 Y10.4496
X11.7413 Y10.4606
X11.733 Y10.4711
X11.7242 Y10.4813
X11.7149 Y10.491
X11.7052 Y10.5003
X11.6951 Y10.5092
X11.6845 Y10.5176
X11.6736 Y10.5254
X11.6624 Y10.5328
X11.6508 Y10.5396
X11.6389 Y10.5459
X11.6267 Y10.5516
X11.6143 Y10.5568
X11.6017 Y10.5614
X11.5888 Y10.5653
X11.5758 Y10.5687
X11.5627 Y10.5715
X11.5494 Y10.5737
X11.536 Y10.5752
X11.5226 Y10.5762
X11.5092 Y10.5765
X11.4957 Y10.5762
X11.4823 Y10.5753
X11.469 Y10.5737
X11.4557 Y10.5715
G3 X11.0613 Y10.4449 I-0.0961 J-0.378
G1 X11.0604 Y10.4342
Y10.2961
G3 X11.1036 Y10.2799 I0.025 J0.0009
X11.1171 Y10.3218 I-0.0378 J0.0352
X11.0763 Y10.4088 I-0.1562 J-0.0201
G1 X11.0683 Y10.4168
G2 X11.0604 Y10.4342 I0.0171 J0.0183
G1 Y10.4811
X11.0652 Y10.4933
X11.0706 Y10.5054
X11.0766 Y10.5172
X11.0831 Y10.5287
X11.0901 Y10.5399
X11.0977 Y10.5507
X11.1057 Y10.5612
X11.1142 Y10.5713
X11.1232 Y10.581
X11.1326 Y10.5903
X11.1425 Y10.5991
X11.1527 Y10.6074
X11.1633 Y10.6153
X11.1743 Y10.6227
X11.1856 Y10.6295
X11.1972 Y10.6358
X11.2091 Y10.6416
X11.2212 Y10.6468
X11.2336 Y10.6515
X11.2461 Y10.6556
X11.2589 Y10.659
X11.2717 Y10.6619
X11.2848 Y10.6642
X11.2979 Y10.6659
X11.311 Y10.667
X11.3242 Y10.6675
X11.3374 Y10.6673
X11.3506 Y10.6665
X11.3637 Y10.6652
X11.3768 Y10.6632
G2 X11.779 Y10.5389 I0.0992 J-0.392
G1 X11.7804 Y10.5265
Y10.3902
G2 X11.7371 Y10.374 I-0.025 J0.0009
X11.7239 Y10.4159 I0.0373 J0.0348
X11.7644 Y10.5012 I0.1559 J-0.022
G1 X11.7724 Y10.5091
G3 X11.7804 Y10.5265 I-0.0171 J0.0183
G1 Y10.5712
X11.7757 Y10.5835
X11.7705 Y10.5956
X11.7648 Y10.6074
X11.7585 Y10.6189
X11.7516 Y10.6302
X11.7443 Y10.6411
X11.7364 Y10.6516
X11.7281 Y10.6618
X11.7193 Y10.6715
X11.71 Y10.6809
X11.7003 Y10.6897
X11.6902 Y10.6982
X11.6797 Y10.7061
X11.6689 Y10.7135
X11.6577 Y10.7205
X11.6462 Y10.7268
X11.6345 Y10.7327
X11.6224 Y10.738
X11.6101 Y10.7427
X11.5977 Y10.7468
X11.585 Y10.7504
X11.5722 Y10.7533
X11.5593 Y10.7556
X11.5462 Y10.7574
X11.5331 Y10.7585
X11.52 Y10.759
X11.5069 Y10.7589
X11.4938 Y10.7581
X11.4807 Y10.7568
X11.4677 Y10.7548
G3 X11.0617 Y10.631 I-0.1016 J-0.3944
G1 X11.0604 Y10.6185
Y10.4811
G3 X11.1036 Y10.4649 I0.025 J0.0009
X11.117 Y10.5067 I-0.0376 J0.0351
X11.0763 Y10.5931 I-0.1561 J-0.0209
G1 X11.0683 Y10.6011
G2 X11.0604 Y10.6185 I0.0171 J0.0183
G1 Y10.664
X11.065 Y10.6762
X11.0702 Y10.6882
X11.076 Y10.7
X11.0823 Y10.7115
X11.0892 Y10.7226
X11.0966 Y10.7335
X11.1044 Y10.744
X11.1128 Y10.7541
X11.1216 Y10.7638
X11.1308 Y10.773
X11.1405 Y10.7819
X11.1505 Y10.7902
X11.161 Y10.7981
X11.1718 Y10.8055
X11.183 Y10.8124
X11.1944 Y10.8188
X11.2061 Y10.8246
X11.2181 Y10.8299
X11.2304 Y10.8346
X11.2428 Y10.8387
X11.2554 Y10.8422
X11.2682 Y10.8452
X11.281 Y10.8475
X11.294 Y10.8492
X11.3071 Y10.8504
X11.3201 Y10.8509
X11.3332 Y10.8508
X11.3463 Y10.8501
X11.3593 Y10.8488
X11.3723 Y10.8469
G2 X11.779 Y10.7229 I0.1017 J-0.3956
G1 X11.7804 Y10.7104
Y10.5712
G2 X11.7671 Y10.55 I-0.025 J0.0009
X11.7046 Y10.589 I-0.02 J0.0375
X11.763 Y10.6869 I0.118 J-0.004
G1 X11.7671 Y10.6892
G3 X11.7804 Y10.7104 I-0.0118 J0.0221
G1 Y10.7557
X11.7757 Y10.768
X11.7705 Y10.78
X11.7647 Y10.7918
X11.7584 Y10.8033
X11.7516 Y10.8145
X11.7442 Y10.8253
X11.7364 Y10.8358
X11.728 Y10.846
X11.7192 Y10.8557
X11.71 Y10.865
X11.7003 Y10.8738
X11.6902 Y10.8822
X11.6798 Y10.8901
X11.6689 Y10.8975
X11.6578 Y10.9044
X11.6463 Y10.9108
X11.6346 Y10.9166
X11.6226 Y10.9219
X11.6103 Y10.9266
X11.5979 Y10.9307
X11.5853 Y10.9343
X11.5725 Y10.9372
X11.5596 Y10.9396
X11.5466 Y10.9413
X11.5336 Y10.9424
X11.5205 Y10.943
X11.5074 Y10.9429
X11.4943 Y10.9422
X11.4812 Y10.9408
X11.4683 Y10.9389
G3 X11.0617 Y10.815 I-0.1017 J-0.3952
G1 X11.0604 Y10.8025
Y10.664
G3 X11.1036 Y10.6478 I0.025 J0.0009
X11.1171 Y10.6896 I-0.0379 J0.0353
X11.0763 Y10.7771 I-0.1562 J-0.0197
G1 X11.0683 Y10.7851
G2 X11.0604 Y10.8025 I0.0171 J0.0183
G1 Y10.8466
X11.0649 Y10.8589
X11.07 Y10.871
X11.0757 Y10.8829
X11.0819 Y10.8945
X11.0887 Y10.9057
X11.096 Y10.9167
X11.1038 Y10.9272
X11.1121 Y10.9374
X11.1209 Y10.9472
X11.1301 Y10.9566
X11.1398 Y10.9655
X11.1498 Y10.974
X11.1603 Y10.9819
X11.1711 Y10.9894
X11.1823 Y10.9963
X11.1937 Y11.0027
X11.2055 Y11.0086
X11.2175 Y11.0139
X11.2298 Y11.0186
X11.2423 Y11.0228
X11.2549 Y11.0263
X11.2677 Y11.0293
X11.2807 Y11.0316
X11.2937 Y11.0333
X11.3068 Y11.0345
X11.3199 Y11.0349
X11.3331 Y11.0348
X11.3462 Y11.0341
X11.3592 Y11.0327
X11.3722 Y11.0307
G2 X11.779 Y10.907 I0.1022 J-0.3945
G1 X11.7804 Y10.8945
Y10.7557
G2 X11.7371 Y10.7395 I-0.025 J0.0009
X11.7235 Y10.7813 I0.0379 J0.0354
X11.7644 Y10.8691 I0.1563 J-0.0194
G1 X11.7724 Y10.8771
G3 X11.7804 Y10.8945 I-0.0171 J0.0183
G1 Y10.9407
X11.7756 Y10.9529
X11.7704 Y10.9649
X11.7645 Y10.9766
X11.7582 Y10.9881
X11.7513 Y10.9992
X11.7439 Y11.01
X11.736 Y11.0205
X11.7276 Y11.0306
X11.7188 Y11.0402
X11.7095 Y11.0495
X11.6998 Y11.0583
X11.6897 Y11.0667
X11.6792 Y11.0745
X11.6684 Y11.0819
X11.6572 Y11.0888
X11.6458 Y11.0951
X11.634 Y11.1009
X11.622 Y11.1062
X11.6098 Y11.1108
X11.5974 Y11.1149
X11.5847 Y11.1185
X11.572 Y11.1214
X11.5591 Y11.1237
X11.5461 Y11.1255
X11.5331 Y11.1266
X11.52 Y11.1271
X11.5069 Y11.127
X11.4938 Y11.1263
X11.4808 Y11.125
X11.4678 Y11.1231
G3 X11.0617 Y10.9991 I-0.1014 J-0.3948
G1 X11.0604 Y10.9866
Y10.8466
G3 X11.0736 Y10.8254 I0.025 J0.0009
X11.1361 Y10.8639 I0.02 J0.0375
X11.0777 Y10.9631 I-0.1181 J-0.0027
G1 X11.0736 Y10.9654
G2 X11.0604 Y10.9866 I0.0118 J0.0221
G1 Y11.0348
X11.0655 Y11.0472
X11.0712 Y11.0594
X11.0775 Y11.0714
X11.0844 Y11.083
X11.0917 Y11.0943
X11.0996 Y11.1052
X11.108 Y11.1158
X11.1169 Y11.126
X11.1262 Y11.1357
X11.1359 Y11.145
X11.1461 Y11.1539
X11.1567 Y11.1623
X11.1676 Y11.1701
X11.1789 Y11.1775
X11.1906 Y11.1843
X11.2025 Y11.1906
X11.2147 Y11.1963
X11.2272 Y11.2015
X11.2399 Y11.206
X11.2528 Y11.21
X11.2658 Y11.2134
X11.279 Y11.2161
X11.2923 Y11.2183
X11.3057 Y11.2198
X11.3192 Y11.2207
X11.3327 Y11.221
X11.3461 Y11.2207
X11.3596 Y11.2197
X11.373 Y11.2182
X11.3863 Y11.216
G2 X11.7794 Y11.0892 I0.0956 J-0.3764
G1 X11.7804 Y11.0786
Y10.9407
G2 X11.7371 Y10.9245 I-0.025 J0.0009
X11.7237 Y10.9663 I0.0377 J0.0352
X11.7644 Y11.0532 I0.1562 J-0.0203
G1 X11.7724 Y11.0612
G3 X11.7804 Y11.0786 I-0.0171 J0.0183
G1 Y11.1249
X11.7756 Y11.1371
X11.7703 Y11.1491
X11.7645 Y11.1608
X11.7581 Y11.1723
X11.7512 Y11.1834
X11.7438 Y11.1942
X11.7359 Y11.2047
X11.7276 Y11.2147
X11.7187 Y11.2244
X11.7094 Y11.2337
X11.6997 Y11.2425
X11.6896 Y11.2508
X11.6792 Y11.2587
X11.6684 Y11.266
X11.6572 Y11.2729
X11.6457 Y11.2792
X11.634 Y11.285
X11.622 Y11.2903
X11.6098 Y11.295
X11.5973 Y11.2991
X11.5847 Y11.3026
X11.572 Y11.3055
X11.5591 Y11.3079
X11.5461 Y11.3096
X11.5331 Y11.3108
X11.52 Y11.3113
X11.5069 Y11.3112
X11.4938 Y11.3105
X11.4808 Y11.3092
X11.4678 Y11.3073
G3 X11.0617 Y11.1833 I-0.1013 J-0.3952
G1 X11.0604 Y11.1709
Y11.0348
G3 X11.1036 Y11.0186 I0.025 J0.0009
X11.1168 Y11.0605 I-0.0372 J0.0347
X11.0763 Y11.1455 I-0.1559 J-0.0222
G1 X11.0683 Y11.1534
G2 X11.0604 Y11.1709 I0.0171 J0.0183
G1 Y11.1855
X11.0618 Y11.2145
X11.0626 Y11.2246
X11.0685 Y11.237
X11.075 Y11.2492
X11.082 Y11.261
X11.0895 Y11.2725
X11.0975 Y11.2837
X11.106 Y11.2945
X11.1149 Y11.305
X11.1243 Y11.315
X11.1342 Y11.3246
X11.1444 Y11.3338
X11.1551 Y11.3425
X11.1661 Y11.3507
X11.1774 Y11.3584
X11.1891 Y11.3656
X11.2012 Y11.3723
X11.2134 Y11.3785
X11.226 Y11.3841
X11.2388 Y11.3891
X11.2518 Y11.3936
X11.265 Y11.3975
X11.2783 Y11.4008
X11.2918 Y11.4035
X11.3054 Y11.4057
X11.319 Y11.4072
X11.3327 Y11.4081
X11.3465 Y11.4084
X11.3602 Y11.4081
X11.3739 Y11.4072
X11.3876 Y11.4057
X11.4012 Y11.4036
X11.4146 Y11.4009
G2 X11.7697 Y11.2845 I0.0744 J-0.3725
X11.7804 Y11.1249 I-0.6785 J-0.1256
X11.7671 Y11.1037 I-0.025 J0.0009
X11.7442 Y11.1096 I-0.0082 J0.0155
X11.759 Y11.2573 I0.0988 J0.0647
G1 X11.7624 Y11.2606
G3 X11.7697 Y11.2845 I-0.0171 J0.0183
G1 X11.7582 Y11.3273
X11.7581 Y11.3277
X11.7433 Y11.3593
G3 X11.2054 Y11.4573 I-0.3309 J-0.2909
X11.1444 Y11.4336 I-0.0109 J-0.0623
X11.0626 Y11.2246 I0.262 J-0.223
X11.074 Y11.2023 I0.025 J-0.0013
X11.1243 Y11.212 I0.0202 J0.031
X11.1442 Y11.4044 I-0.1606 J0.1138
G1 X11.1423 Y11.4088
G2 X11.1444 Y11.4336 I0.0227 J0.0105
X11.7433 Y11.3593 I0.2759 J-0.2267
X11.7422 Y11.3375 I-0.023 J-0.0098
G1 X11.7403 Y11.3352 Z-0.2198
X11.7385 Y11.3329 Z-0.2193
X11.7367 Y11.3307 Z-0.2184
X11.7339 Y11.329 Z-0.2169
X11.7314 Y11.3275 Z-0.215
X11.7291 Y11.3262 Z-0.2127
X11.7266 Y11.3256 Z-0.2097
X11.7247 Y11.3252 Z-0.2064
X11.7232 Y11.3249 Z-0.2027
X11.7223 Y11.3247 Z-0.1989
X11.722 Y11.3246 Z-0.195
G0 Z-0.12
X11.3122 Y6.7037
G3 X11.5285 Y6.8017 Z-0.1858 I0.1082 J0.049 F50.
X11.3122 Y6.7037 Z-0.2516 I-0.1082 J-0.049
X11.5285 Y6.8017 Z-0.3173 I0.1082 J0.049
X11.3122 Y6.7037 Z-0.3831 I-0.1082 J-0.049
X11.5391 Y6.7527 Z-0.44 I0.1082 J0.049
X11.3016 I-0.1188 J0.
X11.5391 I0.1188 J0.
G1 X11.5421 Y6.7614 F60.
X11.5445 Y6.7703
X11.5463 Y6.7794
X11.5475 Y6.7885
X11.5481 Y6.7977
Y6.807
X11.5475 Y6.8162
X11.5463 Y6.8253
X11.5444 Y6.8344
X11.542 Y6.8433
X11.539 Y6.852
X11.5354 Y6.8605
X11.5312 Y6.8687
X11.5265 Y6.8767
X11.5213 Y6.8843
X11.5156 Y6.8916
X11.5095 Y6.8984
X11.5029 Y6.9049
X11.4959 Y6.9109
X11.4885 Y6.9164
X11.4807 Y6.9214
X11.4726 Y6.9259
X11.4643 Y6.9298
X11.4557 Y6.9332
X11.4469 Y6.936
X11.438 Y6.9382
X11.4289 Y6.9398
X11.4197 Y6.9408
X11.4105 Y6.9412
X11.4013 Y6.941
X11.3921 Y6.9402
X11.383 Y6.9387
X11.374 Y6.9367
X11.3651 Y6.9341
X11.3565 Y6.9309
X11.348 Y6.9271
X11.3399 Y6.9228
X11.332 Y6.9179
X11.3245 Y6.9125
X11.3174 Y6.9067
X11.3107 Y6.9004
X11.3044 Y6.8936
X11.2986 Y6.8865
X11.2932 Y6.879
X11.2856 Y6.8715
X11.2785 Y6.8636
X11.2719 Y6.8552
X11.2657 Y6.8466
X11.2601 Y6.8375
X11.255 Y6.8282
X11.2504 Y6.8186
X11.2464 Y6.8087
X11.243 Y6.7986
X11.2401 Y6.7884
X11.2379 Y6.778
X11.2362 Y6.7674
X11.2352 Y6.7568
X11.2348 Y6.7462
X11.235 Y6.7356
X11.2358 Y6.725
X11.2372 Y6.7144
X11.2393 Y6.704
X11.2419 Y6.6936
X11.2451 Y6.6835
X11.2489 Y6.6736
X11.2533 Y6.6638
X11.2582 Y6.6544
X11.2637 Y6.6453
X11.2697 Y6.6365
X11.2762 Y6.628
X11.2831 Y6.62
X11.2905 Y6.6123
X11.2984 Y6.6051
X11.3066 Y6.5984
X11.3152 Y6.5921
X11.3242 Y6.5864
X11.3335 Y6.5812
X11.343 Y6.5765
X11.3528 Y6.5724
X11.3629 Y6.5689
X11.3731 Y6.5659
X11.3835 Y6.5636
X11.394 Y6.5618
X11.4046 Y6.5607
X11.4152 Y6.5601
X11.4258 Y6.5602
X11.4365 Y6.5609
X11.447 Y6.5622
X11.4575 Y6.5641
X11.4678 Y6.5667
X11.478 Y6.5698
X11.488 Y6.5735
X11.4977 Y6.5777
X11.5072 Y6.5826
X11.5164 Y6.5879
X11.5253 Y6.5938
X11.5338 Y6.6002
X11.5419 Y6.6071
X11.5497 Y6.6144
X11.5569 Y6.6221
X11.5638 Y6.6303
X11.5701 Y6.6389
X11.5759 Y6.6478
X11.5813 Y6.657
X11.586 Y6.6665
X11.5903 Y6.6763
X11.5939 Y6.6863
X11.597 Y6.6965
X11.5994 Y6.7068
X11.6044 Y6.7172
X11.6088 Y6.7278
X11.6126 Y6.7387
X11.6159 Y6.7497
X11.6185 Y6.7609
X11.6205 Y6.7723
X11.622 Y6.7837
X11.6227 Y6.7952
X11.6229 Y6.8067
X11.6225 Y6.8182
X11.6214 Y6.8297
X11.6197 Y6.8411
X11.6174 Y6.8523
X11.6145 Y6.8635
X11.6109 Y6.8744
X11.6068 Y6.8852
X11.6022 Y6.8957
X11.5969 Y6.906
X11.5911 Y6.9159
X11.5848 Y6.9256
X11.578 Y6.9348
X11.5707 Y6.9437
X11.5629 Y6.9522
X11.5546 Y6.9602
X11.546 Y6.9678
X11.5369 Y6.9749
X11.5275 Y6.9815
X11.5177 Y6.9876
X11.5076 Y6.9932
X11.4973 Y6.9982
X11.4867 Y7.0026
X11.4758 Y7.0064
X11.4648 Y7.0097
X11.4536 Y7.0124
X11.4422 Y7.0144
X11.4308 Y7.0158
X11.4193 Y7.0166
X11.4078 Y7.0168
X11.3963 Y7.0164
X11.3848 Y7.0153
X11.3735 Y7.0136
X11.3622 Y7.0114
X11.351 Y7.0085
X11.3401 Y7.005
X11.3293 Y7.0009
X11.3188 Y6.9962
X11.3085 Y6.991
X11.2986 Y6.9852
X11.2889 Y6.9789
X11.2797 Y6.9721
X11.2708 Y6.9648
X11.2623 Y6.957
X11.2542 Y6.9488
G3 X11.1521 Y6.7302 I0.1244 J-0.1912
G1 X11.1538 Y6.7173
X11.1561 Y6.7045
X11.1589 Y6.6919
X11.1624 Y6.6794
X11.1664 Y6.667
X11.1711 Y6.6549
X11.1763 Y6.643
X11.182 Y6.6313
X11.1883 Y6.6199
X11.1951 Y6.6089
X11.2025 Y6.5982
X11.2103 Y6.5878
X11.2186 Y6.5778
X11.2274 Y6.5682
X11.2366 Y6.5591
X11.2463 Y6.5504
X11.2563 Y6.5421
X11.2667 Y6.5344
X11.2775 Y6.5271
X11.2886 Y6.5204
X11.3 Y6.5142
X11.3117 Y6.5085
X11.3236 Y6.5034
X11.3358 Y6.4988
X11.3482 Y6.4949
X11.3607 Y6.4915
X11.3734 Y6.4887
X11.3862 Y6.4866
X11.3991 Y6.485
X11.4121 Y6.484
X11.4251 Y6.4837
X11.4381 Y6.484
X11.451 Y6.4848
X11.4639 Y6.4863
X11.4768 Y6.4884
X11.4895 Y6.4911
X11.502 Y6.4944
X11.5144 Y6.4983
X11.5266 Y6.5028
X11.5386 Y6.5078
X11.5503 Y6.5134
X11.5618 Y6.5196
X11.5729 Y6.5263
X11.5837 Y6.5335
X11.5942 Y6.5412
X11.6043 Y6.5493
X11.614 Y6.558
X11.6232 Y6.5671
X11.6321 Y6.5766
X11.6404 Y6.5866
X11.6483 Y6.5969
X11.6557 Y6.6076
X11.6626 Y6.6186
X11.669 Y6.6299
X11.6748 Y6.6415
X11.6801 Y6.6534
X11.6848 Y6.6655
X11.6889 Y6.6778
X11.6924 Y6.6903
X11.6953 Y6.703
X11.6977 Y6.7158
X11.6994 Y6.7286
X11.7005 Y6.7416
X11.701 Y6.7546
X11.7009 Y6.7676
X11.702 Y6.7812
X11.7025 Y6.7949
X11.7023 Y6.8086
X11.7015 Y6.8222
X11.7001 Y6.8359
X11.6981 Y6.8494
X11.6954 Y6.8628
X11.6922 Y6.8761
X11.6883 Y6.8893
X11.6839 Y6.9022
X11.6789 Y6.9149
X11.6733 Y6.9274
X11.6672 Y6.9397
X11.6605 Y6.9516
X11.6532 Y6.9632
X11.6455 Y6.9745
X11.6373 Y6.9855
X11.6285 Y6.996
X11.6193 Y7.0061
X11.6097 Y7.0158
X11.5996 Y7.0251
X11.5891 Y7.0339
X11.5782 Y7.0422
X11.567 Y7.05
X11.5554 Y7.0573
X11.5435 Y7.0641
X11.5313 Y7.0703
X11.5188 Y7.0759
X11.5061 Y7.081
X11.4932 Y7.0855
X11.4801 Y7.0895
X11.4668 Y7.0928
X11.4534 Y7.0955
X11.4399 Y7.0976
X11.4263 Y7.0991
X11.4126 Y7.1
X11.3989 Y7.1002
X11.3853 Y7.0999
X11.3716 Y7.0989
X11.358 Y7.0973
X11.3445 Y7.0951
X11.3311 Y7.0922
X11.3179 Y7.0888
X11.3048 Y7.0848
X11.2919 Y7.0802
X11.2792 Y7.075
X11.2668 Y7.0692
X11.2547 Y7.0629
X11.2428 Y7.0561
X11.2313 Y7.0487
X11.2201 Y7.0408
X11.2093 Y7.0324
X11.1989 Y7.0235
X11.1889 Y7.0142
X11.1793 Y7.0044
X11.1702 Y6.9942
X11.1616 Y6.9836
X11.1534 Y6.9726
X11.1458 Y6.9613
X11.1386 Y6.9496
X11.132 Y6.9376
G3 X11.0826 Y6.6458 I0.2425 J-0.1912
X11.7744 Y6.6699 I0.3424 J0.1133
G1 X11.779 Y6.6948
X11.7804 Y6.7237
Y6.8396
G3 X11.058 Y6.9869 I-0.3841 J-0.0387
G1 X11.0604 Y6.7237
G3 X11.7779 Y6.6692 I0.3595 J-0.0179
G1 X11.7776 Y6.6728
X11.7768 Y6.6762
X11.7755 Y6.6795
G2 X11.7742 Y6.6861 I0.0237 J0.008
G1 X11.7735 Y6.6999
X11.7682 Y6.7958
G2 X11.7716 Y6.8099 I0.025 J0.0014
G3 X11.7804 Y6.8396 I-0.0536 J0.0318
G1 Y7.0004
G3 X11.3044 Y7.2535 I-0.3524 J-0.0886
X11.0588 Y7.1282 I0.0136 J-0.3302
G1 X11.0604 Y7.113
Y6.9856
G3 X11.0736 Y6.9645 I0.025 J0.0009
X11.093 Y6.9675 I0.0077 J0.0144
X11.0777 Y7.0895 I-0.0565 J0.0549
G1 X11.0736 Y7.0919
G2 X11.0604 Y7.113 I0.0118 J0.0221
G1 Y7.1583
X11.0651 Y7.171
X11.0703 Y7.1835
X11.0761 Y7.1957
X11.0825 Y7.2076
X11.0894 Y7.2193
X11.0968 Y7.2306
X11.1047 Y7.2416
X11.1131 Y7.2522
X11.122 Y7.2624
X11.1313 Y7.2723
X11.141 Y7.2817
X11.1512 Y7.2906
X11.1617 Y7.2991
X11.1726 Y7.3071
X11.1839 Y7.3146
X11.1954 Y7.3216
X11.2073 Y7.3281
X11.2195 Y7.334
X11.2319 Y7.3394
X11.2445 Y7.3442
X11.2574 Y7.3484
X11.2704 Y7.3521
X11.2836 Y7.3552
X11.2969 Y7.3576
X11.3103 Y7.3595
X11.3237 Y7.3608
X11.3372 Y7.3615
X11.3508 Y7.3616
X11.3643 Y7.361
X11.3778 Y7.3599
X11.3912 Y7.3581
X11.4045 Y7.3558
X11.4177 Y7.3529
G2 X11.7804 Y7.1798 I0.0544 J-0.3526
G1 Y7.0004
G2 X11.7671 Y6.9792 I-0.025 J0.0009
X11.7232 Y6.9907 I-0.0157 J0.0295
X11.763 Y7.1563 I0.0995 J0.0637
G1 X11.7671 Y7.1586
G3 X11.7804 Y7.1798 I-0.0118 J0.0221
G1 Y7.2322
X11.7753 Y7.2455
X11.7697 Y7.2587
X11.7636 Y7.2715
X11.7569 Y7.2841
X11.7496 Y7.2964
X11.7418 Y7.3084
X11.7335 Y7.32
X11.7247 Y7.3312
X11.7155 Y7.342
X11.7057 Y7.3524
X11.6955 Y7.3624
X11.6849 Y7.3719
X11.6739 Y7.381
X11.6625 Y7.3896
X11.6507 Y7.3976
X11.6386 Y7.4052
X11.6262 Y7.4122
X11.6135 Y7.4186
X11.6005 Y7.4245
X11.5873 Y7.4298
X11.5738 Y7.4346
X11.5602 Y7.4387
X11.5464 Y7.4423
X11.5324 Y7.4452
X11.5183 Y7.4475
X11.5042 Y7.4493
X11.49 Y7.4504
X11.4757 Y7.4508
X11.4615 Y7.4507
X11.4472 Y7.4499
X11.433 Y7.4485
X11.4189 Y7.4465
X11.4049 Y7.4439
G3 X11.0617 Y7.3161 I-0.0643 J-0.352
G1 X11.0604 Y7.3034
Y7.1583
G3 X11.0736 Y7.1371 I0.025 J0.0009
X11.136 Y7.1727 I0.02 J0.0375
X11.0777 Y7.2799 I-0.118 J0.0052
G1 X11.0736 Y7.2822
G2 X11.0604 Y7.3034 I0.0118 J0.0221
G1 Y7.3481
X11.0646 Y7.3601
X11.0694 Y7.372
X11.0748 Y7.3836
X11.0806 Y7.395
X11.087 Y7.4061
X11.0939 Y7.4168
X11.1013 Y7.4273
X11.1092 Y7.4374
X11.1175 Y7.4471
X11.1263 Y7.4564
X11.1355 Y7.4653
X11.145 Y7.4737
X11.155 Y7.4818
X11.1653 Y7.4893
X11.176 Y7.4964
X11.187 Y7.5029
X11.1982 Y7.509
X11.2098 Y7.5145
X11.2216 Y7.5195
X11.2336 Y7.5239
X11.2457 Y7.5278
X11.2581 Y7.5311
X11.2706 Y7.5338
X11.2832 Y7.536
X11.2959 Y7.5375
X11.3086 Y7.5385
X11.3214 Y7.5389
X11.3342 Y7.5387
X11.347 Y7.5379
X11.3597 Y7.5365
X11.3723 Y7.5346
G2 X11.7791 Y7.3939 I0.0857 J-0.4108
G1 X11.7804 Y7.382
Y7.2322
G2 X11.7671 Y7.211 I-0.025 J0.0009
X11.7053 Y7.2437 I-0.0199 J0.0373
X11.763 Y7.3585 I0.1174 J0.0129
G1 X11.7671 Y7.3608
G3 X11.7804 Y7.382 I-0.0118 J0.0221
G1 Y7.4278
X11.7758 Y7.4404
X11.7708 Y7.4527
X11.7652 Y7.4648
X11.759 Y7.4767
X11.7523 Y7.4882
X11.7451 Y7.4994
X11.7374 Y7.5103
X11.7292 Y7.5209
X11.7205 Y7.531
X11.7114 Y7.5407
X11.7018 Y7.5501
X11.6918 Y7.5589
X11.6815 Y7.5673
X11.6708 Y7.5753
X11.6597 Y7.5827
X11.6483 Y7.5896
X11.6366 Y7.596
X11.6246 Y7.6019
X11.6124 Y7.6072
X11.5999 Y7.612
X11.5872 Y7.6162
X11.5744 Y7.6198
X11.5614 Y7.6228
X11.5483 Y7.6252
X11.535 Y7.6271
X11.5218 Y7.6283
X11.5084 Y7.6289
X11.4951
X11.4818 Y7.6284
X11.4685 Y7.6272
X11.4553 Y7.6254
G3 X11.0613 Y7.5006 I-0.0996 J-0.3699
G1 X11.0604 Y7.49
Y7.3481
G3 X11.0736 Y7.3269 I0.025 J0.0009
X11.1361 Y7.3643 I0.02 J0.0375
X11.0777 Y7.4665 I-0.1181 J0.0003
G1 X11.0736 Y7.4688
G2 X11.0604 Y7.49 I0.0118 J0.0221
G1 Y7.535
X11.0649 Y7.5472
X11.07 Y7.5593
X11.0757 Y7.5711
X11.0819 Y7.5826
X11.0886 Y7.5938
X11.0959 Y7.6047
X11.1037 Y7.6152
X11.112 Y7.6254
X11.1207 Y7.6351
X11.1299 Y7.6444
X11.1395 Y7.6533
X11.1496 Y7.6617
X11.16 Y7.6696
X11.1708 Y7.677
X11.1819 Y7.6839
X11.1933 Y7.6903
X11.205 Y7.6961
X11.217 Y7.7014
X11.2292 Y7.706
X11.2417 Y7.7101
X11.2543 Y7.7137
X11.267 Y7.7166
X11.2799 Y7.7189
X11.2929 Y7.7206
X11.3059 Y7.7216
X11.319 Y7.7221
X11.3321 Y7.7219
X11.3451 Y7.7212
X11.3581 Y7.7198
X11.3711 Y7.7178
G2 X11.779 Y7.5852 I0.0935 J-0.4063
G1 X11.7804 Y7.5729
Y7.4278
G2 X11.7671 Y7.4066 I-0.025 J0.0009
X11.7047 Y7.4423 I-0.02 J0.0375
X11.763 Y7.5494 I0.118 J0.0052
G1 X11.7671 Y7.5517
G3 X11.7804 Y7.5729 I-0.0118 J0.0221
G1 Y7.6219
X11.7753 Y7.6342
X11.7697 Y7.6463
X11.7636 Y7.6582
X11.757 Y7.6697
X11.7499 Y7.681
X11.7422 Y7.6919
X11.7341 Y7.7025
X11.7255 Y7.7127
X11.7165 Y7.7225
X11.7071 Y7.7319
X11.6972 Y7.7409
X11.687 Y7.7494
X11.6763 Y7.7575
X11.6654 Y7.7651
X11.6541 Y7.7721
X11.6425 Y7.7787
X11.6306 Y7.7848
X11.6185 Y7.7903
X11.6061 Y7.7952
X11.5935 Y7.7997
X11.5808 Y7.8035
X11.5679 Y7.8068
X11.5548 Y7.8095
X11.5417 Y7.8116
X11.5284 Y7.8131
X11.5151 Y7.8141
X11.5018 Y7.8144
X11.4885 Y7.8142
X11.4752 Y7.8133
X11.4619 Y7.8119
X11.4488 Y7.8099
X11.4327 Y7.8127
X11.4164 Y7.815
X11.4002 Y7.8166
X11.3838 Y7.8177
X11.3675 Y7.8181
X11.3511 Y7.8179
X11.3348 Y7.8171
X11.3185 Y7.8157
X11.3022 Y7.8137
X11.2861 Y7.8111
X11.27 Y7.8078
X11.2541 Y7.804
X11.2384 Y7.7996
X11.2228 Y7.7946
X11.2074 Y7.789
X11.1922 Y7.7828
X11.1773 Y7.7761
X11.1627 Y7.7688
X11.1483 Y7.761
X11.1342 Y7.7526
X11.1205 Y7.7437
X11.1071 Y7.7343
X11.0941 Y7.7245
X11.0814 Y7.7141
X11.0691 Y7.7033
X11.0573 Y7.692
X11.0604 Y7.6743
Y7.535
G3 X11.0736 Y7.5138 I0.025 J0.0009
X11.1361 Y7.5526 I0.02 J0.0375
X11.0777 Y7.6508 I-0.1181 J-0.0038
G1 X11.0736 Y7.6531
G2 X11.0604 Y7.6743 I0.0118 J0.0221
G1 Y7.7209
X11.0651 Y7.7331
X11.0704 Y7.745
X11.0762 Y7.7567
X11.0826 Y7.7681
X11.0895 Y7.7792
X11.0969 Y7.7899
X11.1048 Y7.8003
X11.1131 Y7.8103
X11.1219 Y7.8199
X11.1312 Y7.8291
X11.1409 Y7.8378
X11.151 Y7.8461
X11.1614 Y7.8539
X11.1722 Y7.8613
X11.1834 Y7.8681
X11.1948 Y7.8743
X11.2065 Y7.8801
X11.2185 Y7.8853
X11.2307 Y7.8899
X11.2431 Y7.8939
X11.2556 Y7.8974
X11.2684 Y7.9003
X11.2812 Y7.9026
X11.2941 Y7.9043
X11.3071 Y7.9053
X11.3202 Y7.9058
X11.3332 Y7.9057
X11.3462 Y7.905
X11.3592 Y7.9036
X11.3721 Y7.9017
G2 X11.779 Y7.7727 I0.0962 J-0.4032
G1 X11.7804 Y7.7604
Y7.6219
G2 X11.7371 Y7.6057 I-0.025 J0.0009
X11.7236 Y7.6475 I0.0379 J0.0353
X11.7644 Y7.735 I0.1562 J-0.0197
G1 X11.7724 Y7.743
G3 X11.7804 Y7.7604 I-0.0171 J0.0183
G1 Y7.8078
X11.7754 Y7.8204
X11.7698 Y7.8326
X11.7636 Y7.8446
X11.757 Y7.8564
X11.7497 Y7.8677
X11.742 Y7.8788
X11.7338 Y7.8895
X11.7251 Y7.8997
X11.7159 Y7.9096
X11.7063 Y7.9191
X11.6962 Y7.928
X11.6857 Y7.9365
X11.6749 Y7.9446
X11.6637 Y7.9521
X11.6522 Y7.959
X11.6403 Y7.9655
X11.6282 Y7.9714
X11.6158 Y7.9767
X11.6032 Y7.9814
X11.5904 Y7.9856
X11.5774 Y7.9891
X11.5642 Y7.9921
X11.551 Y7.9944
X11.5376 Y7.9962
X11.5242 Y7.9973
X11.5107 Y7.9978
X11.4972 Y7.9976
X11.4838 Y7.9969
X11.4704 Y7.9955
X11.457 Y7.9935
G3 X11.0613 Y7.8689 I-0.0991 J-0.3758
G1 X11.0604 Y7.8582
Y7.7209
G3 X11.1036 Y7.7047 I0.025 J0.0009
X11.117 Y7.7466 I-0.0376 J0.035
X11.0763 Y7.8328 I-0.1561 J-0.021
G1 X11.0683 Y7.8408
G2 X11.0604 Y7.8582 I0.0171 J0.0183
G1 Y7.9057
X11.0653 Y7.9181
X11.0709 Y7.9301
X11.077 Y7.9419
X11.0837 Y7.9534
X11.0909 Y7.9646
X11.0985 Y7.9755
X11.1067 Y7.986
X11.1154 Y7.996
X11.1245 Y8.0057
X11.1341 Y8.0149
X11.1441 Y8.0237
X11.1544 Y8.032
X11.1652 Y8.0398
X11.1763 Y8.0472
X11.1877 Y8.0539
X11.1995 Y8.0602
X11.2115 Y8.0659
X11.2237 Y8.071
X11.2362 Y8.0756
X11.2489 Y8.0795
X11.2618 Y8.0829
X11.2747 Y8.0857
X11.2879 Y8.0879
X11.3011 Y8.0894
X11.3143 Y8.0904
X11.3276 Y8.0907
X11.3409 Y8.0904
X11.3541 Y8.0895
X11.3673 Y8.088
X11.3805 Y8.0859
G2 X11.7794 Y7.9568 I0.0949 J-0.3876
G1 X11.7804 Y7.9461
Y7.8078
G2 X11.7371 Y7.7917 I-0.025 J0.0009
X11.7236 Y7.8335 I0.0378 J0.0353
X11.7644 Y7.9207 I0.1562 J-0.02
G1 X11.7724 Y7.9287
G3 X11.7804 Y7.9461 I-0.0171 J0.0183
G1 Y7.9926
X11.7755 Y8.005
X11.7701 Y8.0171
X11.7642 Y8.029
X11.7577 Y8.0406
X11.7507 Y8.0518
X11.7432 Y8.0628
X11.7351 Y8.0733
X11.7266 Y8.0835
X11.7176 Y8.0933
X11.7082 Y8.1027
X11.6984 Y8.1116
X11.6882 Y8.12
X11.6775 Y8.128
X11.6666 Y8.1354
X11.6553 Y8.1424
X11.6436 Y8.1488
X11.6317 Y8.1546
X11.6196 Y8.1599
X11.6072 Y8.1647
X11.5946 Y8.1689
X11.5818 Y8.1724
X11.5689 Y8.1754
X11.5558 Y8.1778
X11.5427 Y8.1796
X11.5295 Y8.1807
X11.5162 Y8.1813
X11.503 Y8.1812
X11.4897 Y8.1805
X11.4765 Y8.1792
X11.4634 Y8.1773
G3 X11.0617 Y8.0545 I-0.1008 J-0.3885
G1 X11.0604 Y8.0421
Y7.9057
G3 X11.1036 Y7.8896 I0.025 J0.0009
X11.1168 Y7.9315 I-0.0373 J0.0348
X11.0763 Y8.0167 I-0.1559 J-0.022
G1 X11.0683 Y8.0247
G2 X11.0604 Y8.0421 I0.0171 J0.0183
G1 Y8.0903
X11.0655 Y8.1027
X11.0713 Y8.1149
X11.0776 Y8.1268
X11.0845 Y8.1384
X11.0919 Y8.1496
X11.0998 Y8.1605
X11.1082 Y8.1711
X11.1171 Y8.1812
X11.1264 Y8.1909
X11.1362 Y8.2002
X11.1464 Y8.209
X11.157 Y8.2173
X11.1679 Y8.2252
X11.1793 Y8.2325
X11.1909 Y8.2392
X11.2028 Y8.2455
X11.2151 Y8.2511
X11.2275 Y8.2562
X11.2402 Y8.2608
X11.2531 Y8.2647
X11.2662 Y8.268
X11.2793 Y8.2707
X11.2927 Y8.2728
X11.306 Y8.2743
X11.3195 Y8.2752
X11.3329 Y8.2754
X11.3464 Y8.275
X11.3598 Y8.274
X11.3732 Y8.2724
X11.3865 Y8.2702
G2 X11.7794 Y8.1415 I0.0934 J-0.3791
G1 X11.7804 Y8.131
Y7.9926
G2 X11.7371 Y7.9765 I-0.025 J0.0009
X11.7236 Y8.0183 I0.0378 J0.0353
X11.7644 Y8.1056 I0.1562 J-0.0199
G1 X11.7724 Y8.1135
G3 X11.7804 Y8.131 I-0.0171 J0.0183
G1 Y8.1772
X11.7756 Y8.1895
X11.7703 Y8.2015
X11.7645 Y8.2133
X11.7581 Y8.2248
X11.7512 Y8.236
X11.7438 Y8.2469
X11.7358 Y8.2574
X11.7274 Y8.2675
X11.7186 Y8.2773
X11.7093 Y8.2866
X11.6996 Y8.2954
X11.6894 Y8.3038
X11.6789 Y8.3118
X11.6681 Y8.3192
X11.6569 Y8.3261
X11.6454 Y8.3325
X11.6336 Y8.3384
X11.6216 Y8.3437
X11.6093 Y8.3484
X11.5968 Y8.3526
X11.5841 Y8.3562
X11.5713 Y8.3591
X11.5584 Y8.3615
X11.5453 Y8.3633
X11.5322 Y8.3645
X11.5191 Y8.3651
X11.5059 Y8.365
X11.4928 Y8.3644
X11.4797 Y8.3631
X11.4667 Y8.3613
G3 X11.0617 Y8.2383 I-0.1019 J-0.3926
G1 X11.0604 Y8.2258
Y8.0903
G3 X11.1036 Y8.0741 I0.025 J0.0009
X11.1167 Y8.116 I-0.0371 J0.0346
X11.0763 Y8.2004 I-0.1558 J-0.0228
G1 X11.0683 Y8.2084
G2 X11.0604 Y8.2258 I0.0171 J0.0183
G1 Y8.2741
X11.0656 Y8.2866
X11.0714 Y8.2988
X11.0778 Y8.3108
X11.0847 Y8.3224
X11.0921 Y8.3337
X11.1001 Y8.3446
X11.1085 Y8.3552
X11.1175 Y8.3653
X11.1268 Y8.3751
X11.1367 Y8.3844
X11.1469 Y8.3932
X11.1576 Y8.4015
X11.1686 Y8.4094
X11.18 Y8.4167
X11.1916 Y8.4235
X11.2036 Y8.4297
X11.2159 Y8.4354
X11.2284 Y8.4405
X11.2412 Y8.445
X11.2541 Y8.4489
X11.2672 Y8.4523
X11.2805 Y8.455
X11.2938 Y8.4571
X11.3073 Y8.4585
X11.3208 Y8.4594
X11.3343 Y8.4596
X11.3478 Y8.4592
X11.3613 Y8.4582
X11.3747 Y8.4566
X11.388 Y8.4543
G2 X11.7794 Y8.3261 I0.0934 J-0.3765
G1 X11.7804 Y8.3156
Y8.1772
G2 X11.7371 Y8.161 I-0.025 J0.0009
X11.7236 Y8.2028 I0.0379 J0.0353
X11.7644 Y8.2902 I0.1562 J-0.0198
G1 X11.7724 Y8.2982
G3 X11.7804 Y8.3156 I-0.0171 J0.0183
G1 Y8.3621
X11.7756 Y8.3744
X11.7703 Y8.3864
X11.7644 Y8.3982
X11.758 Y8.4097
X11.751 Y8.4208
X11.7436 Y8.4317
X11.7356 Y8.4422
X11.7272 Y8.4523
X11.7183 Y8.462
X11.709 Y8.4713
X11.6993 Y8.4801
X11.6891 Y8.4885
X11.6786 Y8.4964
X11.6678 Y8.5038
X11.6566 Y8.5107
X11.6451 Y8.5171
X11.6333 Y8.5229
X11.6212 Y8.5282
X11.6089 Y8.5329
X11.5965 Y8.537
X11.5838 Y8.5406
X11.571 Y8.5435
X11.5581 Y8.5459
X11.545 Y8.5477
X11.5319 Y8.5488
X11.5188 Y8.5494
X11.5056 Y8.5493
X11.4925 Y8.5486
X11.4794 Y8.5474
X11.4664 Y8.5455
G3 X11.0617 Y8.4221 I-0.1013 J-0.3932
G1 X11.0604 Y8.4096
Y8.2741
G3 X11.1036 Y8.258 I0.025 J0.0009
X11.1167 Y8.2999 I-0.0371 J0.0346
X11.0763 Y8.3842 I-0.1558 J-0.0229
G1 X11.0683 Y8.3922
G2 X11.0604 Y8.4096 I0.0171 J0.0183
G1 Y8.4562
X11.0652 Y8.4685
X11.0707 Y8.4806
X11.0766 Y8.4924
X11.0832 Y8.5039
X11.0902 Y8.5151
X11.0978 Y8.5259
X11.1059 Y8.5364
X11.1144 Y8.5465
X11.1234 Y8.5562
X11.1329 Y8.5654
X11.1427 Y8.5743
X11.153 Y8.5826
X11.1636 Y8.5905
X11.1746 Y8.5978
X11.1859 Y8.6047
X11.1976 Y8.611
X11.2095 Y8.6167
X11.2216 Y8.6219
X11.234 Y8.6266
X11.2466 Y8.6306
X11.2594 Y8.6341
X11.2723 Y8.6369
X11.2853 Y8.6392
X11.2984 Y8.6409
X11.3116 Y8.6419
X11.3248 Y8.6423
X11.338 Y8.6421
X11.3512 Y8.6413
X11.3644 Y8.6399
X11.3774 Y8.6379
G2 X11.779 Y8.5127 I0.098 J-0.3923
G1 X11.7804 Y8.5004
Y8.3621
G2 X11.7371 Y8.3459 I-0.025 J0.0009
X11.7236 Y8.3878 I0.0378 J0.0353
X11.7644 Y8.475 I0.1562 J-0.02
G1 X11.7724 Y8.483
G3 X11.7804 Y8.5004 I-0.0171 J0.0183
G1 Y8.5463
X11.7756 Y8.5586
X11.7703 Y8.5707
X11.7645 Y8.5824
X11.7581 Y8.5939
X11.7512 Y8.6051
X11.7438 Y8.6159
X11.7358 Y8.6264
X11.7274 Y8.6365
X11.7186 Y8.6462
X11.7093 Y8.6555
X11.6995 Y8.6644
X11.6894 Y8.6728
X11.6789 Y8.6807
X11.6681 Y8.6881
X11.6569 Y8.695
X11.6454 Y8.7013
X11.6336 Y8.7071
X11.6216 Y8.7124
X11.6093 Y8.7171
X11.5968 Y8.7212
X11.5842 Y8.7248
X11.5713 Y8.7277
X11.5584 Y8.7301
X11.5454 Y8.7318
X11.5323 Y8.733
X11.5192 Y8.7335
X11.506 Y8.7334
X11.4929 Y8.7328
X11.4799 Y8.7315
X11.4669 Y8.7296
G3 X11.0617 Y8.6059 I-0.1014 J-0.3935
G1 X11.0604 Y8.5934
Y8.4562
G3 X11.1036 Y8.44 I0.025 J0.0009
X11.117 Y8.4819 I-0.0376 J0.035
X11.0763 Y8.5681 I-0.1561 J-0.021
G1 X11.0683 Y8.576
G2 X11.0604 Y8.5934 I0.0171 J0.0183
G1 Y8.6407
X11.0653 Y8.6531
X11.0709 Y8.6652
X11.077 Y8.6771
X11.0837 Y8.6886
X11.0909 Y8.6999
X11.0986 Y8.7108
X11.1068 Y8.7213
X11.1154 Y8.7314
X11.1246 Y8.7411
X11.1342 Y8.7504
X11.1441 Y8.7593
X11.1545 Y8.7676
X11.1653 Y8.7755
X11.1764 Y8.7828
X11.1879 Y8.7897
X11.1996 Y8.796
X11.2117 Y8.8017
X11.224 Y8.8069
X11.2365 Y8.8115
X11.2492 Y8.8155
X11.2621 Y8.8189
X11.2751 Y8.8217
X11.2883 Y8.824
X11.3015 Y8.8256
X11.3148 Y8.8265
X11.3281 Y8.8269
X11.3415 Y8.8267
X11.3548 Y8.8258
X11.368 Y8.8243
X11.3812 Y8.8222
G2 X11.7794 Y8.6954 I0.0972 J-0.3832
G1 X11.7804 Y8.6847
Y8.5463
G2 X11.7371 Y8.5302 I-0.025 J0.0009
X11.7236 Y8.572 I0.0378 J0.0353
X11.7644 Y8.6593 I0.1562 J-0.0199
G1 X11.7724 Y8.6672
G3 X11.7804 Y8.6847 I-0.0171 J0.0183
G1 Y8.7316
X11.7755 Y8.7439
X11.77 Y8.756
X11.764 Y8.7678
X11.7574 Y8.7794
X11.7503 Y8.7906
X11.7427 Y8.8015
X11.7346 Y8.812
X11.7261 Y8.8221
X11.717 Y8.8318
X11.7076 Y8.8411
X11.6977 Y8.85
X11.6874 Y8.8584
X11.6767 Y8.8662
X11.6657 Y8.8736
X11.6543 Y8.8805
X11.6427 Y8.8868
X11.6307 Y8.8926
X11.6186 Y8.8978
X11.6061 Y8.9025
X11.5935 Y8.9065
X11.5807 Y8.91
X11.5678 Y8.9129
X11.5547 Y8.9152
X11.5415 Y8.9169
X11.5283 Y8.9179
X11.5151 Y8.9184
X11.5018 Y8.9182
X11.4886 Y8.9174
X11.4754 Y8.916
X11.4623 Y8.914
G3 X11.0617 Y8.79 I-0.0988 J-0.3896
G1 X11.0604 Y8.7776
Y8.6407
G3 X11.1036 Y8.6246 I0.025 J0.0009
X11.1169 Y8.6664 I-0.0375 J0.0349
X11.0763 Y8.7522 I-0.156 J-0.0214
G1 X11.0683 Y8.7602
G2 X11.0604 Y8.7776 I0.0171 J0.0183
G1 Y8.8257
X11.0655 Y8.8381
X11.0713 Y8.8503
X11.0776 Y8.8623
X11.0844 Y8.8739
X11.0918 Y8.8852
X11.0997 Y8.8961
X11.1081 Y8.9067
X11.117 Y8.9168
X11.1263 Y8.9266
X11.1361 Y8.9359
X11.1463 Y8.9447
X11.1569 Y8.9531
X11.1678 Y8.9609
X11.1792 Y8.9683
X11.1908 Y8.9751
X11.2027 Y8.9814
X11.215 Y8.9871
X11.2274 Y8.9922
X11.2401 Y8.9968
X11.253 Y9.0007
X11.2661 Y9.0041
X11.2793 Y9.0068
X11.2926 Y9.009
X11.306 Y9.0105
X11.3195 Y9.0114
X11.3329 Y9.0117
X11.3464 Y9.0113
X11.3599 Y9.0104
X11.3733 Y9.0088
X11.3866 Y9.0066
G2 X11.7794 Y8.8794 I0.095 J-0.3768
G1 X11.7804 Y8.8688
Y8.7316
G2 X11.7371 Y8.7154 I-0.025 J0.0009
X11.7238 Y8.7573 I0.0376 J0.035
X11.7644 Y8.8434 I0.1561 J-0.021
G1 X11.7724 Y8.8514
G3 X11.7804 Y8.8688 I-0.0171 J0.0183
G1 Y8.9126
X11.7758 Y8.925
X11.7707 Y8.9371
X11.765 Y8.949
X11.7588 Y8.9606
X11.752 Y8.9719
X11.7447 Y8.9829
X11.7369 Y8.9935
X11.7286 Y9.0038
X11.7198 Y9.0136
X11.7106 Y9.023
X11.7009 Y9.0319
X11.6908 Y9.0404
X11.6804 Y9.0484
X11.6695 Y9.0559
X11.6583 Y9.0629
X11.6468 Y9.0693
X11.6351 Y9.0752
X11.623 Y9.0806
X11.6107 Y9.0853
X11.5982 Y9.0895
X11.5855 Y9.093
X11.5727 Y9.096
X11.5597 Y9.0984
X11.5467 Y9.1001
X11.5335 Y9.1012
X11.5204 Y9.1017
X11.5072 Y9.1016
X11.4941 Y9.1008
X11.481 Y9.0995
X11.4679 Y9.0975
G3 X11.0617 Y8.9741 I-0.1022 J-0.3939
G1 X11.0604 Y8.9616
Y8.8257
G3 X11.1036 Y8.8095 I0.025 J0.0009
X11.1168 Y8.8514 I-0.0372 J0.0347
X11.0763 Y8.9362 I-0.1559 J-0.0224
G1 X11.0683 Y8.9442
G2 X11.0604 Y8.9616 I0.0171 J0.0183
G1 Y9.0067
X11.065 Y9.0189
X11.0702 Y9.031
X11.0759 Y9.0428
X11.0822 Y9.0542
X11.0891 Y9.0654
X11.0964 Y9.0763
X11.1043 Y9.0868
X11.1126 Y9.0969
X11.1214 Y9.1066
X11.1307 Y9.1159
X11.1403 Y9.1248
X11.1504 Y9.1331
X11.1608 Y9.1411
X11.1716 Y9.1485
X11.1828 Y9.1554
X11.1942 Y9.1617
X11.206 Y9.1675
X11.218 Y9.1728
X11.2302 Y9.1775
X11.2427 Y9.1816
X11.2553 Y9.1852
X11.268 Y9.1881
X11.2809 Y9.1904
X11.2939 Y9.1922
X11.307 Y9.1933
X11.3201 Y9.1938
X11.3332 Y9.1937
X11.3462 Y9.193
X11.3593 Y9.1917
X11.3722 Y9.1897
G2 X11.779 Y9.0655 I0.1015 J-0.3958
G1 X11.7804 Y9.053
Y8.9126
G2 X11.7671 Y8.8914 I-0.025 J0.0009
X11.7046 Y8.9297 I-0.02 J0.0375
X11.763 Y9.0295 I0.1181 J-0.0021
G1 X11.7671 Y9.0318
G3 X11.7804 Y9.053 I-0.0118 J0.0221
G1 Y9.0995
X11.7756 Y9.1117
X11.7702 Y9.1238
X11.7643 Y9.1356
X11.7579 Y9.1471
X11.7509 Y9.1583
X11.7434 Y9.1691
X11.7354 Y9.1796
X11.7269 Y9.1897
X11.718 Y9.1994
X11.7087 Y9.2087
X11.6989 Y9.2175
X11.6887 Y9.2259
X11.6781 Y9.2338
X11.6672 Y9.2412
X11.656 Y9.248
X11.6444 Y9.2544
X11.6326 Y9.2602
X11.6205 Y9.2654
X11.6082 Y9.2701
X11.5956 Y9.2742
X11.5829 Y9.2777
X11.5701 Y9.2806
X11.5571 Y9.2829
X11.5441 Y9.2846
X11.5309 Y9.2857
X11.5178 Y9.2862
X11.5046 Y9.2861
X11.4914 Y9.2854
X11.4783 Y9.284
X11.4653 Y9.2821
G3 X11.0617 Y9.158 I-0.1002 J-0.3924
G1 X11.0604 Y9.1456
Y9.0067
G3 X11.1036 Y8.9905 I0.025 J0.0009
X11.1172 Y9.0323 I-0.038 J0.0354
X11.0763 Y9.1202 I-0.1563 J-0.0193
G1 X11.0683 Y9.1282
G2 X11.0604 Y9.1456 I0.0171 J0.0183
G1 Y9.1912
X11.065 Y9.2034
X11.0703 Y9.2155
X11.0761 Y9.2272
X11.0824 Y9.2387
X11.0893 Y9.2498
X11.0966 Y9.2607
X11.1045 Y9.2711
X11.1129 Y9.2812
X11.1217 Y9.2909
X11.1309 Y9.3002
X11.1406 Y9.309
X11.1507 Y9.3174
X11.1611 Y9.3253
X11.1719 Y9.3327
X11.1831 Y9.3395
X11.1945 Y9.3459
X11.2063 Y9.3517
X11.2183 Y9.3569
X11.2305 Y9.3616
X11.2429 Y9.3657
X11.2556 Y9.3693
X11.2683 Y9.3722
X11.2812 Y9.3746
X11.2942 Y9.3763
X11.3072 Y9.3774
X11.3203 Y9.3779
X11.3334 Y9.3778
X11.3465 Y9.3771
X11.3595 Y9.3758
X11.3724 Y9.3739
G2 X11.779 Y9.2498 I0.1015 J-0.3954
G1 X11.7804 Y9.2373
Y9.0995
G2 X11.7371 Y9.0833 I-0.025 J0.0009
X11.7237 Y9.1251 I0.0377 J0.0352
X11.7644 Y9.2119 I0.1561 J-0.0204
G1 X11.7724 Y9.2199
G3 X11.7804 Y9.2373 I-0.0171 J0.0183
G1 Y9.2821
X11.7758 Y9.2944
X11.7706 Y9.3064
X11.7649 Y9.3182
X11.7586 Y9.3298
X11.7518 Y9.341
X11.7444 Y9.3519
X11.7366 Y9.3624
X11.7283 Y9.3726
X11.7195 Y9.3823
X11.7103 Y9.3917
X11.7006 Y9.4006
X11.6905 Y9.409
X11.6801 Y9.4169
X11.6693 Y9.4244
X11.6581 Y9.4313
X11.6466 Y9.4377
X11.6349 Y9.4435
X11.6229 Y9.4488
X11.6106 Y9.4535
X11.5982 Y9.4577
X11.5855 Y9.4612
X11.5728 Y9.4641
X11.5598 Y9.4665
X11.5468 Y9.4682
X11.5338 Y9.4694
X11.5207 Y9.4699
X11.5075 Y9.4698
X11.4944 Y9.469
X11.4814 Y9.4677
X11.4684 Y9.4657
G3 X11.0617 Y9.3421 I-0.1021 J-0.3948
G1 X11.0604 Y9.3296
Y9.1912
G3 X11.1036 Y9.175 I0.025 J0.0009
X11.1171 Y9.2168 I-0.0378 J0.0353
X11.0763 Y9.3042 I-0.1562 J-0.0199
G1 X11.0683 Y9.3121
G2 X11.0604 Y9.3296 I0.0171 J0.0183
G1 Y9.3762
X11.0652 Y9.3884
X11.0706 Y9.4005
X11.0765 Y9.4123
X11.083 Y9.4238
X11.09 Y9.435
X11.0975 Y9.4458
X11.1055 Y9.4563
X11.114 Y9.4664
X11.123 Y9.4761
X11.1324 Y9.4854
X11.1422 Y9.4942
X11.1524 Y9.5025
X11.163 Y9.5104
X11.1739 Y9.5178
X11.1852 Y9.5246
X11.1968 Y9.531
X11.2086 Y9.5367
X11.2208 Y9.542
X11.2331 Y9.5466
X11.2456 Y9.5507
X11.2584 Y9.5542
X11.2712 Y9.5571
X11.2842 Y9.5593
X11.2973 Y9.561
X11.3105 Y9.5621
X11.3236 Y9.5626
X11.3368 Y9.5624
X11.35 Y9.5617
X11.3631 Y9.5603
X11.3762 Y9.5583
G2 X11.779 Y9.4339 I0.0997 J-0.3918
G1 X11.7804 Y9.4216
Y9.2821
G2 X11.7671 Y9.2609 I-0.025 J0.0009
X11.7046 Y9.2997 I-0.02 J0.0375
X11.763 Y9.398 I0.1181 J-0.0035
G1 X11.7671 Y9.4004
G3 X11.7804 Y9.4216 I-0.0118 J0.0221
G1 Y9.467
X11.7757 Y9.4793
X11.7705 Y9.4913
X11.7647 Y9.5031
X11.7584 Y9.5146
X11.7515 Y9.5257
X11.7441 Y9.5366
X11.7363 Y9.5471
X11.7279 Y9.5572
X11.7191 Y9.5669
X11.7099 Y9.5762
X11.7002 Y9.585
X11.6901 Y9.5934
X11.6796 Y9.6013
X11.6688 Y9.6087
X11.6577 Y9.6156
X11.6462 Y9.622
X11.6345 Y9.6278
X11.6225 Y9.633
X11.6102 Y9.6377
X11.5978 Y9.6419
X11.5852 Y9.6454
X11.5724 Y9.6483
X11.5595 Y9.6507
X11.5465 Y9.6524
X11.5334 Y9.6535
X11.5203 Y9.6541
X11.5072 Y9.654
X11.4941 Y9.6532
X11.4811 Y9.6519
X11.4681 Y9.65
G3 X11.0617 Y9.5262 I-0.1019 J-0.3946
G1 X11.0604 Y9.5137
Y9.3762
G3 X11.1036 Y9.36 I0.025 J0.0009
X11.117 Y9.4018 I-0.0376 J0.0351
X11.0763 Y9.4883 I-0.1561 J-0.0207
G1 X11.0683 Y9.4963
G2 X11.0604 Y9.5137 I0.0171 J0.0183
G1 Y9.5604
X11.0652 Y9.5727
X11.0706 Y9.5847
X11.0766 Y9.5965
X11.0831 Y9.608
X11.0901 Y9.6192
X11.0976 Y9.6301
X11.1057 Y9.6406
X11.1142 Y9.6507
X11.1232 Y9.6604
X11.1326 Y9.6697
X11.1424 Y9.6785
X11.1526 Y9.6868
X11.1632 Y9.6947
X11.1742 Y9.7021
X11.1855 Y9.7089
X11.1971 Y9.7152
X11.209 Y9.721
X11.2211 Y9.7262
X11.2335 Y9.7309
X11.2461 Y9.7349
X11.2588 Y9.7384
X11.2717 Y9.7413
X11.2847 Y9.7436
X11.2978 Y9.7453
X11.311 Y9.7463
X11.3242 Y9.7468
X11.3374 Y9.7466
X11.3506 Y9.7458
X11.3637 Y9.7444
X11.3768 Y9.7424
G2 X11.779 Y9.6181 I0.0994 J-0.3913
G1 X11.7804 Y9.6058
Y9.467
G2 X11.7371 Y9.4508 I-0.025 J0.0009
X11.7235 Y9.4926 I0.0379 J0.0354
X11.7644 Y9.5804 I0.1563 J-0.0194
G1 X11.7724 Y9.5883
G3 X11.7804 Y9.6058 I-0.0171 J0.0183
G1 Y9.6499
X11.7758 Y9.6623
X11.7706 Y9.6744
X11.7649 Y9.6862
X11.7587 Y9.6978
X11.7519 Y9.7091
X11.7446 Y9.72
X11.7367 Y9.7306
X11.7284 Y9.7407
X11.7196 Y9.7505
X11.7104 Y9.7599
X11.7007 Y9.7688
X11.6907 Y9.7772
X11.6802 Y9.7852
X11.6694 Y9.7927
X11.6582 Y9.7996
X11.6467 Y9.806
X11.6349 Y9.8119
X11.6229 Y9.8172
X11.6106 Y9.8219
X11.5982 Y9.826
X11.5855 Y9.8296
X11.5727 Y9.8325
X11.5598 Y9.8348
X11.5467 Y9.8366
X11.5336 Y9.8377
X11.5205 Y9.8382
X11.5074 Y9.838
X11.4942 Y9.8373
X11.4812 Y9.8359
X11.4682 Y9.8339
G3 X11.0617 Y9.7104 I-0.1022 J-0.394
G1 X11.0604 Y9.6979
Y9.5604
G3 X11.1036 Y9.5442 I0.025 J0.0009
X11.117 Y9.5861 I-0.0376 J0.0351
X11.0763 Y9.6725 I-0.1561 J-0.0208
G1 X11.0683 Y9.6805
G2 X11.0604 Y9.6979 I0.0171 J0.0183
G1 Y9.7456
X11.0654 Y9.758
X11.0711 Y9.7702
X11.0773 Y9.7821
X11.084 Y9.7937
X11.0913 Y9.805
X11.0991 Y9.8159
X11.1074 Y9.8264
X11.1162 Y9.8366
X11.1254 Y9.8463
X11.1351 Y9.8556
X11.1452 Y9.8645
X11.1557 Y9.8728
X11.1665 Y9.8807
X11.1777 Y9.8881
X11.1893 Y9.8949
X11.2011 Y9.9012
X11.2133 Y9.9069
X11.2257 Y9.9121
X11.2383 Y9.9166
X11.2511 Y9.9206
X11.264 Y9.924
X11.2772 Y9.9268
X11.2904 Y9.929
X11.3037 Y9.9306
X11.3171 Y9.9315
X11.3305 Y9.9319
X11.3439 Y9.9316
X11.3573 Y9.9307
X11.3706 Y9.9291
X11.3838 Y9.927
G2 X11.7794 Y9.8004 I0.0967 J-0.3792
G1 X11.7804 Y9.7897
Y9.6499
G2 X11.7671 Y9.6288 I-0.025 J0.0009
X11.7046 Y9.6674 I-0.02 J0.0375
X11.763 Y9.7662 I0.1181 J-0.0031
G1 X11.7671 Y9.7686
G3 X11.7804 Y9.7897 I-0.0118 J0.0221
G1 Y9.8359
X11.7756 Y9.8481
X11.7704 Y9.8601
X11.7645 Y9.8719
X11.7582 Y9.8833
X11.7513 Y9.8945
X11.7439 Y9.9053
X11.736 Y9.9157
X11.7276 Y9.9258
X11.7188 Y9.9355
X11.7095 Y9.9447
X11.6998 Y9.9535
X11.6897 Y9.9619
X11.6793 Y9.9698
X11.6684 Y9.9771
X11.6573 Y9.984
X11.6458 Y9.9903
X11.6341 Y9.9961
X11.6221 Y10.0014
X11.6098 Y10.0061
X11.5974 Y10.0102
X11.5848 Y10.0137
X11.572 Y10.0167
X11.5592 Y10.019
X11.5462 Y10.0207
X11.5331 Y10.0219
X11.52 Y10.0224
X11.5069 Y10.0223
X11.4939 Y10.0216
X11.4808 Y10.0203
X11.4679 Y10.0184
G3 X11.0617 Y9.8945 I-0.1015 J-0.3951
G1 X11.0604 Y9.8821
Y9.7456
G3 X11.1036 Y9.7294 I0.025 J0.0009
X11.1168 Y9.7714 I-0.0373 J0.0348
X11.0763 Y9.8567 I-0.156 J-0.0219
G1 X11.0683 Y9.8646
G2 X11.0604 Y9.8821 I0.0171 J0.0183
G1 Y9.9266
X11.0649 Y9.9389
X11.0701 Y9.951
X11.0758 Y9.9628
X11.0821 Y9.9743
X11.0889 Y9.9856
X11.0962 Y9.9965
X11.104 Y10.007
X11.1124 Y10.0171
X11.1211 Y10.0269
X11.1304 Y10.0362
X11.14 Y10.0451
X11.1501 Y10.0535
X11.1605 Y10.0615
X11.1714 Y10.0689
X11.1825 Y10.0758
X11.194 Y10.0822
X11.2057 Y10.088
X11.2177 Y10.0933
X11.23 Y10.098
X11.2424 Y10.1022
X11.255 Y10.1057
X11.2678 Y10.1086
X11.2807 Y10.111
X11.2937 Y10.1127
X11.3068 Y10.1138
X11.3199 Y10.1143
X11.333 Y10.1142
X11.3461 Y10.1135
X11.3592 Y10.1121
X11.3722 Y10.1102
G2 X11.779 Y9.9864 I0.1021 J-0.3951
G1 X11.7804 Y9.9739
Y9.8359
G2 X11.7371 Y9.8197 I-0.025 J0.0009
X11.7236 Y9.8616 I0.0378 J0.0352
X11.7644 Y9.9485 I0.1562 J-0.0202
G1 X11.7724 Y9.9565
G3 X11.7804 Y9.9739 I-0.0171 J0.0183
G1 Y10.0207
X11.7755 Y10.033
X11.77 Y10.0451
X11.764 Y10.0569
X11.7575 Y10.0685
X11.7504 Y10.0797
X11.7429 Y10.0905
X11.7348 Y10.101
X11.7262 Y10.1111
X11.7172 Y10.1209
X11.7078 Y10.1301
X11.6979 Y10.139
X11.6876 Y10.1473
X11.677 Y10.1552
X11.666 Y10.1626
X11.6547 Y10.1694
X11.643 Y10.1757
X11.6311 Y10.1815
X11.6189 Y10.1867
X11.6065 Y10.1914
X11.5939 Y10.1954
X11.5812 Y10.1989
X11.5682 Y10.2018
X11.5552 Y10.2041
X11.542 Y10.2057
X11.5288 Y10.2068
X11.5156 Y10.2072
X11.5024 Y10.2071
X11.4892 Y10.2063
X11.476 Y10.2049
X11.4629 Y10.2029
G3 X11.0617 Y10.0786 I-0.0989 J-0.3905
G1 X11.0604 Y10.0662
Y9.9266
G3 X11.0736 Y9.9054 I0.025 J0.0009
X11.1361 Y9.9442 I0.02 J0.0375
X11.0777 Y10.0427 I-0.1181 J-0.0034
G1 X11.0736 Y10.045
G2 X11.0604 Y10.0662 I0.0118 J0.0221
G1 Y10.1135
X11.0654 Y10.1259
X11.0709 Y10.138
X11.0771 Y10.1499
X11.0837 Y10.1614
X11.0909 Y10.1727
X11.0986 Y10.1836
X11.1068 Y10.1941
X11.1155 Y10.2042
X11.1247 Y10.2139
X11.1343 Y10.2232
X11.1443 Y10.2321
X11.1547 Y10.2404
X11.1654 Y10.2483
X11.1766 Y10.2557
X11.188 Y10.2625
X11.1998 Y10.2688
X11.2118 Y10.2745
X11.2241 Y10.2797
X11.2367 Y10.2843
X11.2494 Y10.2883
X11.2623 Y10.2918
X11.2753 Y10.2946
X11.2885 Y10.2968
X11.3017 Y10.2984
X11.315 Y10.2994
X11.3284 Y10.2998
X11.3417 Y10.2995
X11.355 Y10.2987
X11.3683 Y10.2972
X11.3814 Y10.2951
G2 X11.7794 Y10.1688 I0.0978 J-0.382
G1 X11.7804 Y10.1581
Y10.0207
G2 X11.7371 Y10.0045 I-0.025 J0.0009
X11.7237 Y10.0464 I0.0376 J0.035
X11.7644 Y10.1327 I0.1561 J-0.0209
G1 X11.7724 Y10.1407
G3 X11.7804 Y10.1581 I-0.0171 J0.0183
G1 Y10.2052
X11.7754 Y10.2176
X11.7699 Y10.2297
X11.7638 Y10.2415
X11.7572 Y10.2531
X11.7501 Y10.2643
X11.7424 Y10.2752
X11.7343 Y10.2857
X11.7257 Y10.2958
X11.7166 Y10.3055
X11.7071 Y10.3148
X11.6971 Y10.3236
X11.6868 Y10.332
X11.6761 Y10.3399
X11.665 Y10.3472
X11.6536 Y10.3541
X11.6419 Y10.3604
X11.6299 Y10.3661
X11.6177 Y10.3713
X11.6052 Y10.376
X11.5926 Y10.38
X11.5797 Y10.3835
X11.5667 Y10.3863
X11.5536 Y10.3886
X11.5404 Y10.3902
X11.5272 Y10.3912
X11.5139 Y10.3916
X11.5006 Y10.3914
X11.4873 Y10.3906
X11.4741 Y10.3892
X11.461 Y10.3871
G3 X11.0617 Y10.2627 I-0.0978 J-0.389
G1 X11.0604 Y10.2504
Y10.1135
G3 X11.1036 Y10.0973 I0.025 J0.0009
X11.1169 Y10.1392 I-0.0375 J0.0349
X11.0763 Y10.225 I-0.156 J-0.0214
G1 X11.0683 Y10.233
G2 X11.0604 Y10.2504 I0.0171 J0.0183
G1 Y10.2961
X11.0651 Y10.3083
X11.0703 Y10.3203
X11.0762 Y10.3321
X11.0825 Y10.3436
X11.0894 Y10.3547
X11.0968 Y10.3655
X11.1047 Y10.376
X11.1131 Y10.3861
X11.1219 Y10.3958
X11.1312 Y10.405
X11.1409 Y10.4138
X11.151 Y10.4222
X11.1614 Y10.4301
X11.1723 Y10.4375
X11.1834 Y10.4444
X11.1949 Y10.4507
X11.2066 Y10.4565
X11.2186 Y10.4618
X11.2309 Y10.4664
X11.2433 Y10.4706
X11.2559 Y10.4741
X11.2687 Y10.477
X11.2816 Y10.4794
X11.2946 Y10.4811
X11.3076 Y10.4823
X11.3207 Y10.4828
X11.3338 Y10.4827
X11.3469 Y10.482
X11.36 Y10.4807
X11.3729 Y10.4788
G2 X11.779 Y10.3548 I0.1013 J-0.3951
G1 X11.7804 Y10.3423
Y10.2052
G2 X11.7371 Y10.1891 I-0.025 J0.0009
X11.7238 Y10.2309 I0.0375 J0.035
X11.7644 Y10.3169 I0.156 J-0.0212
G1 X11.7724 Y10.3249
G3 X11.7804 Y10.3423 I-0.0171 J0.0183
G1 Y10.3902
X11.7752 Y10.4026
X11.7695 Y10.4148
X11.7633 Y10.4267
X11.7565 Y10.4384
X11.7492 Y10.4496
X11.7413 Y10.4606
X11.733 Y10.4711
X11.7242 Y10.4813
X11.7149 Y10.491
X11.7052 Y10.5003
X11.6951 Y10.5092
X11.6845 Y10.5176
X11.6736 Y10.5254
X11.6624 Y10.5328
X11.6508 Y10.5396
X11.6389 Y10.5459
X11.6267 Y10.5516
X11.6143 Y10.5568
X11.6017 Y10.5614
X11.5888 Y10.5653
X11.5758 Y10.5687
X11.5627 Y10.5715
X11.5494 Y10.5737
X11.536 Y10.5752
X11.5226 Y10.5762
X11.5092 Y10.5765
X11.4957 Y10.5762
X11.4823 Y10.5753
X11.469 Y10.5737
X11.4557 Y10.5715
G3 X11.0613 Y10.4449 I-0.0961 J-0.378
G1 X11.0604 Y10.4342
Y10.2961
G3 X11.1036 Y10.2799 I0.025 J0.0009
X11.1171 Y10.3218 I-0.0378 J0.0352
X11.0763 Y10.4088 I-0.1562 J-0.0201
G1 X11.0683 Y10.4168
G2 X11.0604 Y10.4342 I0.0171 J0.0183
G1 Y10.4811
X11.0652 Y10.4933
X11.0706 Y10.5054
X11.0766 Y10.5172
X11.0831 Y10.5287
X11.0901 Y10.5399
X11.0977 Y10.5507
X11.1057 Y10.5612
X11.1142 Y10.5713
X11.1232 Y10.581
X11.1326 Y10.5903
X11.1425 Y10.5991
X11.1527 Y10.6074
X11.1633 Y10.6153
X11.1743 Y10.6227
X11.1856 Y10.6295
X11.1972 Y10.6358
X11.2091 Y10.6416
X11.2212 Y10.6468
X11.2336 Y10.6515
X11.2461 Y10.6556
X11.2589 Y10.659
X11.2717 Y10.6619
X11.2848 Y10.6642
X11.2979 Y10.6659
X11.311 Y10.667
X11.3242 Y10.6675
X11.3374 Y10.6673
X11.3506 Y10.6665
X11.3637 Y10.6652
X11.3768 Y10.6632
G2 X11.779 Y10.5389 I0.0992 J-0.392
G1 X11.7804 Y10.5265
Y10.3902
G2 X11.7371 Y10.374 I-0.025 J0.0009
X11.7239 Y10.4159 I0.0373 J0.0348
X11.7644 Y10.5012 I0.1559 J-0.022
G1 X11.7724 Y10.5091
G3 X11.7804 Y10.5265 I-0.0171 J0.0183
G1 Y10.5712
X11.7757 Y10.5835
X11.7705 Y10.5956
X11.7648 Y10.6074
X11.7585 Y10.6189
X11.7516 Y10.6302
X11.7443 Y10.6411
X11.7364 Y10.6516
X11.7281 Y10.6618
X11.7193 Y10.6715
X11.71 Y10.6809
X11.7003 Y10.6897
X11.6902 Y10.6982
X11.6797 Y10.7061
X11.6689 Y10.7135
X11.6577 Y10.7205
X11.6462 Y10.7268
X11.6345 Y10.7327
X11.6224 Y10.738
X11.6101 Y10.7427
X11.5977 Y10.7468
X11.585 Y10.7504
X11.5722 Y10.7533
X11.5593 Y10.7556
X11.5462 Y10.7574
X11.5331 Y10.7585
X11.52 Y10.759
X11.5069 Y10.7589
X11.4938 Y10.7581
X11.4807 Y10.7568
X11.4677 Y10.7548
G3 X11.0617 Y10.631 I-0.1016 J-0.3944
G1 X11.0604 Y10.6185
Y10.4811
G3 X11.1036 Y10.4649 I0.025 J0.0009
X11.117 Y10.5067 I-0.0376 J0.0351
X11.0763 Y10.5931 I-0.1561 J-0.0209
G1 X11.0683 Y10.6011
G2 X11.0604 Y10.6185 I0.0171 J0.0183
G1 Y10.664
X11.065 Y10.6762
X11.0702 Y10.6882
X11.076 Y10.7
X11.0823 Y10.7115
X11.0892 Y10.7226
X11.0966 Y10.7335
X11.1044 Y10.744
X11.1128 Y10.7541
X11.1216 Y10.7638
X11.1308 Y10.773
X11.1405 Y10.7819
X11.1505 Y10.7902
X11.161 Y10.7981
X11.1718 Y10.8055
X11.183 Y10.8124
X11.1944 Y10.8188
X11.2061 Y10.8246
X11.2181 Y10.8299
X11.2304 Y10.8346
X11.2428 Y10.8387
X11.2554 Y10.8422
X11.2682 Y10.8452
X11.281 Y10.8475
X11.294 Y10.8492
X11.3071 Y10.8504
X11.3201 Y10.8509
X11.3332 Y10.8508
X11.3463 Y10.8501
X11.3593 Y10.8488
X11.3723 Y10.8469
G2 X11.779 Y10.7229 I0.1017 J-0.3956
G1 X11.7804 Y10.7104
Y10.5712
G2 X11.7671 Y10.55 I-0.025 J0.0009
X11.7046 Y10.589 I-0.02 J0.0375
X11.763 Y10.6869 I0.118 J-0.004
G1 X11.7671 Y10.6892
G3 X11.7804 Y10.7104 I-0.0118 J0.0221
G1 Y10.7557
X11.7757 Y10.768
X11.7705 Y10.78
X11.7647 Y10.7918
X11.7584 Y10.8033
X11.7516 Y10.8145
X11.7442 Y10.8253
X11.7364 Y10.8358
X11.728 Y10.846
X11.7192 Y10.8557
X11.71 Y10.865
X11.7003 Y10.8738
X11.6902 Y10.8822
X11.6798 Y10.8901
X11.6689 Y10.8975
X11.6578 Y10.9044
X11.6463 Y10.9108
X11.6346 Y10.9166
X11.6226 Y10.9219
X11.6103 Y10.9266
X11.5979 Y10.9307
X11.5853 Y10.9343
X11.5725 Y10.9372
X11.5596 Y10.9396
X11.5466 Y10.9413
X11.5336 Y10.9424
X11.5205 Y10.943
X11.5074 Y10.9429
X11.4943 Y10.9422
X11.4812 Y10.9408
X11.4683 Y10.9389
G3 X11.0617 Y10.815 I-0.1017 J-0.3952
G1 X11.0604 Y10.8025
Y10.664
G3 X11.1036 Y10.6478 I0.025 J0.0009
X11.1171 Y10.6896 I-0.0379 J0.0353
X11.0763 Y10.7771 I-0.1562 J-0.0197
G1 X11.0683 Y10.7851
G2 X11.0604 Y10.8025 I0.0171 J0.0183
G1 Y10.8466
X11.0649 Y10.8589
X11.07 Y10.871
X11.0757 Y10.8829
X11.0819 Y10.8945
X11.0887 Y10.9057
X11.096 Y10.9167
X11.1038 Y10.9272
X11.1121 Y10.9374
X11.1209 Y10.9472
X11.1301 Y10.9566
X11.1398 Y10.9655
X11.1498 Y10.974
X11.1603 Y10.9819
X11.1711 Y10.9894
X11.1823 Y10.9963
X11.1937 Y11.0027
X11.2055 Y11.0086
X11.2175 Y11.0139
X11.2298 Y11.0186
X11.2423 Y11.0228
X11.2549 Y11.0263
X11.2677 Y11.0293
X11.2807 Y11.0316
X11.2937 Y11.0333
X11.3068 Y11.0345
X11.3199 Y11.0349
X11.3331 Y11.0348
X11.3462 Y11.0341
X11.3592 Y11.0327
X11.3722 Y11.0307
G2 X11.779 Y10.907 I0.1022 J-0.3945
G1 X11.7804 Y10.8945
Y10.7557
G2 X11.7371 Y10.7395 I-0.025 J0.0009
X11.7235 Y10.7813 I0.0379 J0.0354
X11.7644 Y10.8691 I0.1563 J-0.0194
G1 X11.7724 Y10.8771
G3 X11.7804 Y10.8945 I-0.0171 J0.0183
G1 Y10.9407
X11.7756 Y10.9529
X11.7704 Y10.9649
X11.7645 Y10.9766
X11.7582 Y10.9881
X11.7513 Y10.9992
X11.7439 Y11.01
X11.736 Y11.0205
X11.7276 Y11.0306
X11.7188 Y11.0402
X11.7095 Y11.0495
X11.6998 Y11.0583
X11.6897 Y11.0667
X11.6792 Y11.0745
X11.6684 Y11.0819
X11.6572 Y11.0888
X11.6458 Y11.0951
X11.634 Y11.1009
X11.622 Y11.1062
X11.6098 Y11.1108
X11.5974 Y11.1149
X11.5847 Y11.1185
X11.572 Y11.1214
X11.5591 Y11.1237
X11.5461 Y11.1255
X11.5331 Y11.1266
X11.52 Y11.1271
X11.5069 Y11.127
X11.4938 Y11.1263
X11.4808 Y11.125
X11.4678 Y11.1231
G3 X11.0617 Y10.9991 I-0.1014 J-0.3948
G1 X11.0604 Y10.9866
Y10.8466
G3 X11.0736 Y10.8254 I0.025 J0.0009
X11.1361 Y10.8639 I0.02 J0.0375
X11.0777 Y10.9631 I-0.1181 J-0.0027
G1 X11.0736 Y10.9654
G2 X11.0604 Y10.9866 I0.0118 J0.0221
G1 Y11.0348
X11.0655 Y11.0472
X11.0712 Y11.0594
X11.0775 Y11.0714
X11.0844 Y11.083
X11.0917 Y11.0943
X11.0996 Y11.1052
X11.108 Y11.1158
X11.1169 Y11.126
X11.1262 Y11.1357
X11.1359 Y11.145
X11.1461 Y11.1539
X11.1567 Y11.1623
X11.1676 Y11.1701
X11.1789 Y11.1775
X11.1906 Y11.1843
X11.2025 Y11.1906
X11.2147 Y11.1963
X11.2272 Y11.2015
X11.2399 Y11.206
X11.2528 Y11.21
X11.2658 Y11.2134
X11.279 Y11.2161
X11.2923 Y11.2183
X11.3057 Y11.2198
X11.3192 Y11.2207
X11.3327 Y11.221
X11.3461 Y11.2207
X11.3596 Y11.2197
X11.373 Y11.2182
X11.3863 Y11.216
G2 X11.7794 Y11.0892 I0.0956 J-0.3764
G1 X11.7804 Y11.0786
Y10.9407
G2 X11.7371 Y10.9245 I-0.025 J0.0009
X11.7237 Y10.9663 I0.0377 J0.0352
X11.7644 Y11.0532 I0.1562 J-0.0203
G1 X11.7724 Y11.0612
G3 X11.7804 Y11.0786 I-0.0171 J0.0183
G1 Y11.1249
X11.7756 Y11.1371
X11.7703 Y11.1491
X11.7645 Y11.1608
X11.7581 Y11.1723
X11.7512 Y11.1834
X11.7438 Y11.1942
X11.7359 Y11.2047
X11.7276 Y11.2147
X11.7187 Y11.2244
X11.7094 Y11.2337
X11.6997 Y11.2425
X11.6896 Y11.2508
X11.6792 Y11.2587
X11.6684 Y11.266
X11.6572 Y11.2729
X11.6457 Y11.2792
X11.634 Y11.285
X11.622 Y11.2903
X11.6098 Y11.295
X11.5973 Y11.2991
X11.5847 Y11.3026
X11.572 Y11.3055
X11.5591 Y11.3079
X11.5461 Y11.3096
X11.5331 Y11.3108
X11.52 Y11.3113
X11.5069 Y11.3112
X11.4938 Y11.3105
X11.4808 Y11.3092
X11.4678 Y11.3073
G3 X11.0617 Y11.1833 I-0.1013 J-0.3952
G1 X11.0604 Y11.1709
Y11.0348
G3 X11.1036 Y11.0186 I0.025 J0.0009
X11.1168 Y11.0605 I-0.0372 J0.0347
X11.0763 Y11.1455 I-0.1559 J-0.0222
G1 X11.0683 Y11.1534
G2 X11.0604 Y11.1709 I0.0171 J0.0183
G1 Y11.1855
X11.0618 Y11.2145
X11.0626 Y11.2246
X11.0685 Y11.237
X11.075 Y11.2492
X11.082 Y11.261
X11.0895 Y11.2725
X11.0975 Y11.2837
X11.106 Y11.2945
X11.1149 Y11.305
X11.1243 Y11.315
X11.1342 Y11.3246
X11.1444 Y11.3338
X11.1551 Y11.3425
X11.1661 Y11.3507
X11.1774 Y11.3584
X11.1891 Y11.3656
X11.2012 Y11.3723
X11.2134 Y11.3785
X11.226 Y11.3841
X11.2388 Y11.3891
X11.2518 Y11.3936
X11.265 Y11.3975
X11.2783 Y11.4008
X11.2918 Y11.4035
X11.3054 Y11.4057
X11.319 Y11.4072
X11.3327 Y11.4081
X11.3465 Y11.4084
X11.3602 Y11.4081
X11.3739 Y11.4072
X11.3876 Y11.4057
X11.4012 Y11.4036
X11.4146 Y11.4009
G2 X11.7697 Y11.2845 I0.0744 J-0.3725
X11.7804 Y11.1249 I-0.6785 J-0.1256
X11.7671 Y11.1037 I-0.025 J0.0009
X11.7442 Y11.1096 I-0.0082 J0.0155
X11.759 Y11.2573 I0.0988 J0.0647
G1 X11.7624 Y11.2606
G3 X11.7697 Y11.2845 I-0.0171 J0.0183
G1 X11.7582 Y11.3273
X11.7581 Y11.3277
X11.7433 Y11.3593
G3 X11.2054 Y11.4573 I-0.3309 J-0.2909
X11.1444 Y11.4336 I-0.0109 J-0.0623
X11.0626 Y11.2246 I0.262 J-0.223
X11.074 Y11.2023 I0.025 J-0.0013
X11.1243 Y11.212 I0.0202 J0.031
X11.1442 Y11.4044 I-0.1606 J0.1138
G1 X11.1423 Y11.4088
G2 X11.1444 Y11.4336 I0.0227 J0.0105
X11.7433 Y11.3593 I0.2759 J-0.2267
X11.7422 Y11.3375 I-0.023 J-0.0098
G1 X11.7403 Y11.3352 Z-0.4398
X11.7385 Y11.3329 Z-0.4393
X11.7367 Y11.3307 Z-0.4384
X11.7339 Y11.329 Z-0.4369
X11.7314 Y11.3275 Z-0.435
X11.7291 Y11.3262 Z-0.4327
X11.7266 Y11.3256 Z-0.4297
X11.7247 Y11.3252 Z-0.4264
X11.7232 Y11.3249 Z-0.4227
X11.7223 Y11.3247 Z-0.4189
X11.722 Y11.3246 Z-0.415
G0 Z-0.34
X11.3088 Y6.7119
G3 X11.5319 Y6.7935 Z-0.4058 I0.1115 J0.0408 F50.
X11.3088 Y6.7119 Z-0.4716 I-0.1115 J-0.0408
X11.5391 Y6.7527 Z-0.53 I0.1115 J0.0408
X11.3016 I-0.1188 J0.
X11.5391 I0.1188 J0.
G1 X11.5421 Y6.7614 F60.
X11.5445 Y6.7703
X11.5463 Y6.7794
X11.5475 Y6.7885
X11.5481 Y6.7977
Y6.807
X11.5475 Y6.8162
X11.5463 Y6.8253
X11.5444 Y6.8344
X11.542 Y6.8433
X11.539 Y6.852
X11.5354 Y6.8605
X11.5312 Y6.8687
X11.5265 Y6.8767
X11.5213 Y6.8843
X11.5156 Y6.8916
X11.5095 Y6.8984
X11.5029 Y6.9049
X11.4959 Y6.9109
X11.4885 Y6.9164
X11.4807 Y6.9214
X11.4726 Y6.9259
X11.4643 Y6.9298
X11.4557 Y6.9332
X11.4469 Y6.936
X11.438 Y6.9382
X11.4289 Y6.9398
X11.4197 Y6.9408
X11.4105 Y6.9412
X11.4013 Y6.941
X11.3921 Y6.9402
X11.383 Y6.9387
X11.374 Y6.9367
X11.3651 Y6.9341
X11.3565 Y6.9309
X11.348 Y6.9271
X11.3399 Y6.9228
X11.332 Y6.9179
X11.3245 Y6.9125
X11.3174 Y6.9067
X11.3107 Y6.9004
X11.3044 Y6.8936
X11.2986 Y6.8865
X11.2932 Y6.879
X11.2856 Y6.8715
X11.2785 Y6.8636
X11.2719 Y6.8552
X11.2657 Y6.8466
X11.2601 Y6.8375
X11.255 Y6.8282
X11.2504 Y6.8186
X11.2464 Y6.8087
X11.243 Y6.7986
X11.2401 Y6.7884
X11.2379 Y6.778
X11.2362 Y6.7674
X11.2352 Y6.7568
X11.2348 Y6.7462
X11.235 Y6.7356
X11.2358 Y6.725
X11.2372 Y6.7144
X11.2393 Y6.704
X11.2419 Y6.6936
X11.2451 Y6.6835
X11.2489 Y6.6736
X11.2533 Y6.6638
X11.2582 Y6.6544
X11.2637 Y6.6453
X11.2697 Y6.6365
X11.2762 Y6.628
X11.2831 Y6.62
X11.2905 Y6.6123
X11.2984 Y6.6051
X11.3066 Y6.5984
X11.3152 Y6.5921
X11.3242 Y6.5864
X11.3335 Y6.5812
X11.343 Y6.5765
X11.3528 Y6.5724
X11.3629 Y6.5689
X11.3731 Y6.5659
X11.3835 Y6.5636
X11.394 Y6.5618
X11.4046 Y6.5607
X11.4152 Y6.5601
X11.4258 Y6.5602
X11.4365 Y6.5609
X11.447 Y6.5622
X11.4575 Y6.5641
X11.4678 Y6.5667
X11.478 Y6.5698
X11.488 Y6.5735
X11.4977 Y6.5777
X11.5072 Y6.5826
X11.5164 Y6.5879
X11.5253 Y6.5938
X11.5338 Y6.6002
X11.5419 Y6.6071
X11.5497 Y6.6144
X11.5569 Y6.6221
X11.5638 Y6.6303
X11.5701 Y6.6389
X11.5759 Y6.6478
X11.5813 Y6.657
X11.586 Y6.6665
X11.5903 Y6.6763
X11.5939 Y6.6863
X11.597 Y6.6965
X11.5994 Y6.7068
X11.6044 Y6.7172
X11.6088 Y6.7278
X11.6126 Y6.7387
X11.6159 Y6.7497
X11.6185 Y6.7609
X11.6205 Y6.7723
X11.622 Y6.7837
X11.6227 Y6.7952
X11.6229 Y6.8067
X11.6225 Y6.8182
X11.6214 Y6.8297
X11.6197 Y6.8411
X11.6174 Y6.8523
X11.6145 Y6.8635
X11.6109 Y6.8744
X11.6068 Y6.8852
X11.6022 Y6.8957
X11.5969 Y6.906
X11.5911 Y6.9159
X11.5848 Y6.9256
X11.578 Y6.9348
X11.5707 Y6.9437
X11.5629 Y6.9522
X11.5546 Y6.9602
X11.546 Y6.9678
X11.5369 Y6.9749
X11.5275 Y6.9815
X11.5177 Y6.9876
X11.5076 Y6.9932
X11.4973 Y6.9982
X11.4867 Y7.0026
X11.4758 Y7.0064
X11.4648 Y7.0097
X11.4536 Y7.0124
X11.4422 Y7.0144
X11.4308 Y7.0158
X11.4193 Y7.0166
X11.4078 Y7.0168
X11.3963 Y7.0164
X11.3848 Y7.0153
X11.3735 Y7.0136
X11.3622 Y7.0114
X11.351 Y7.0085
X11.3401 Y7.005
X11.3293 Y7.0009
X11.3188 Y6.9962
X11.3085 Y6.991
X11.2986 Y6.9852
X11.2889 Y6.9789
X11.2797 Y6.9721
X11.2708 Y6.9648
X11.2623 Y6.957
X11.2542 Y6.9488
G3 X11.1521 Y6.7302 I0.1244 J-0.1912
G1 X11.1538 Y6.7173
X11.1561 Y6.7045
X11.1589 Y6.6919
X11.1624 Y6.6794
X11.1664 Y6.667
X11.1711 Y6.6549
X11.1763 Y6.643
X11.182 Y6.6313
X11.1883 Y6.6199
X11.1951 Y6.6089
X11.2025 Y6.5982
X11.2103 Y6.5878
X11.2186 Y6.5778
X11.2274 Y6.5682
X11.2366 Y6.5591
X11.2463 Y6.5504
X11.2563 Y6.5421
X11.2667 Y6.5344
X11.2775 Y6.5271
X11.2886 Y6.5204
X11.3 Y6.5142
X11.3117 Y6.5085
X11.3236 Y6.5034
X11.3358 Y6.4988
X11.3482 Y6.4949
X11.3607 Y6.4915
X11.3734 Y6.4887
X11.3862 Y6.4866
X11.3991 Y6.485
X11.4121 Y6.484
X11.4251 Y6.4837
X11.4381 Y6.484
X11.451 Y6.4848
X11.4639 Y6.4863
X11.4768 Y6.4884
X11.4895 Y6.4911
X11.502 Y6.4944
X11.5144 Y6.4983
X11.5266 Y6.5028
X11.5386 Y6.5078
X11.5503 Y6.5134
X11.5618 Y6.5196
X11.5729 Y6.5263
X11.5837 Y6.5335
X11.5942 Y6.5412
X11.6043 Y6.5493
X11.614 Y6.558
X11.6232 Y6.5671
X11.6321 Y6.5766
X11.6404 Y6.5866
X11.6483 Y6.5969
X11.6557 Y6.6076
X11.6626 Y6.6186
X11.669 Y6.6299
X11.6748 Y6.6415
X11.6801 Y6.6534
X11.6848 Y6.6655
X11.6889 Y6.6778
X11.6924 Y6.6903
X11.6953 Y6.703
X11.6977 Y6.7158
X11.6994 Y6.7286
X11.7005 Y6.7416
X11.701 Y6.7546
X11.7009 Y6.7676
X11.702 Y6.7812
X11.7025 Y6.7949
X11.7023 Y6.8086
X11.7015 Y6.8222
X11.7001 Y6.8359
X11.6981 Y6.8494
X11.6954 Y6.8628
X11.6922 Y6.8761
X11.6883 Y6.8893
X11.6839 Y6.9022
X11.6789 Y6.9149
X11.6733 Y6.9274
X11.6672 Y6.9397
X11.6605 Y6.9516
X11.6532 Y6.9632
X11.6455 Y6.9745
X11.6373 Y6.9855
X11.6285 Y6.996
X11.6193 Y7.0061
X11.6097 Y7.0158
X11.5996 Y7.0251
X11.5891 Y7.0339
X11.5782 Y7.0422
X11.567 Y7.05
X11.5554 Y7.0573
X11.5435 Y7.0641
X11.5313 Y7.0703
X11.5188 Y7.0759
X11.5061 Y7.081
X11.4932 Y7.0855
X11.4801 Y7.0895
X11.4668 Y7.0928
X11.4534 Y7.0955
X11.4399 Y7.0976
X11.4263 Y7.0991
X11.4126 Y7.1
X11.3989 Y7.1002
X11.3853 Y7.0999
X11.3716 Y7.0989
X11.358 Y7.0973
X11.3445 Y7.0951
X11.3311 Y7.0922
X11.3179 Y7.0888
X11.3048 Y7.0848
X11.2919 Y7.0802
X11.2792 Y7.075
X11.2668 Y7.0692
X11.2547 Y7.0629
X11.2428 Y7.0561
X11.2313 Y7.0487
X11.2201 Y7.0408
X11.2093 Y7.0324
X11.1989 Y7.0235
X11.1889 Y7.0142
X11.1793 Y7.0044
X11.1702 Y6.9942
X11.1616 Y6.9836
X11.1534 Y6.9726
X11.1458 Y6.9613
X11.1386 Y6.9496
X11.132 Y6.9376
G3 X11.0826 Y6.6458 I0.2425 J-0.1912
X11.7744 Y6.6699 I0.3424 J0.1133
G1 X11.779 Y6.6948
X11.7804 Y6.7237
Y6.8396
G3 X11.058 Y6.9869 I-0.3841 J-0.0387
G1 X11.0604 Y6.7237
G3 X11.7779 Y6.6692 I0.3595 J-0.0179
G1 X11.7776 Y6.6728
X11.7768 Y6.6762
X11.7755 Y6.6795
G2 X11.7742 Y6.6861 I0.0237 J0.008
G1 X11.7735 Y6.6999
X11.7682 Y6.7958
G2 X11.7716 Y6.8099 I0.025 J0.0014
G3 X11.7804 Y6.8396 I-0.0536 J0.0318
G1 Y7.0004
G3 X11.3044 Y7.2535 I-0.3524 J-0.0886
X11.0588 Y7.1282 I0.0136 J-0.3302
G1 X11.0604 Y7.113
Y6.9856
G3 X11.0736 Y6.9645 I0.025 J0.0009
X11.093 Y6.9675 I0.0077 J0.0144
X11.0777 Y7.0895 I-0.0565 J0.0549
G1 X11.0736 Y7.0919
G2 X11.0604 Y7.113 I0.0118 J0.0221
G1 Y7.1583
X11.0651 Y7.171
X11.0703 Y7.1835
X11.0761 Y7.1957
X11.0825 Y7.2076
X11.0894 Y7.2193
X11.0968 Y7.2306
X11.1047 Y7.2416
X11.1131 Y7.2522
X11.122 Y7.2624
X11.1313 Y7.2723
X11.141 Y7.2817
X11.1512 Y7.2906
X11.1617 Y7.2991
X11.1726 Y7.3071
X11.1839 Y7.3146
X11.1954 Y7.3216
X11.2073 Y7.3281
X11.2195 Y7.334
X11.2319 Y7.3394
X11.2445 Y7.3442
X11.2574 Y7.3484
X11.2704 Y7.3521
X11.2836 Y7.3552
X11.2969 Y7.3576
X11.3103 Y7.3595
X11.3237 Y7.3608
X11.3372 Y7.3615
X11.3508 Y7.3616
X11.3643 Y7.361
X11.3778 Y7.3599
X11.3912 Y7.3581
X11.4045 Y7.3558
X11.4177 Y7.3529
G2 X11.7804 Y7.1798 I0.0544 J-0.3526
G1 Y7.0004
G2 X11.7671 Y6.9792 I-0.025 J0.0009
X11.7232 Y6.9907 I-0.0157 J0.0295
X11.763 Y7.1563 I0.0995 J0.0637
G1 X11.7671 Y7.1586
G3 X11.7804 Y7.1798 I-0.0118 J0.0221
G1 Y7.2322
X11.7753 Y7.2455
X11.7697 Y7.2587
X11.7636 Y7.2715
X11.7569 Y7.2841
X11.7496 Y7.2964
X11.7418 Y7.3084
X11.7335 Y7.32
X11.7247 Y7.3312
X11.7155 Y7.342
X11.7057 Y7.3524
X11.6955 Y7.3624
X11.6849 Y7.3719
X11.6739 Y7.381
X11.6625 Y7.3896
X11.6507 Y7.3976
X11.6386 Y7.4052
X11.6262 Y7.4122
X11.6135 Y7.4186
X11.6005 Y7.4245
X11.5873 Y7.4298
X11.5738 Y7.4346
X11.5602 Y7.4387
X11.5464 Y7.4423
X11.5324 Y7.4452
X11.5183 Y7.4475
X11.5042 Y7.4493
X11.49 Y7.4504
X11.4757 Y7.4508
X11.4615 Y7.4507
X11.4472 Y7.4499
X11.433 Y7.4485
X11.4189 Y7.4465
X11.4049 Y7.4439
G3 X11.0617 Y7.3161 I-0.0643 J-0.352
G1 X11.0604 Y7.3034
Y7.1583
G3 X11.0736 Y7.1371 I0.025 J0.0009
X11.136 Y7.1727 I0.02 J0.0375
X11.0777 Y7.2799 I-0.118 J0.0052
G1 X11.0736 Y7.2822
G2 X11.0604 Y7.3034 I0.0118 J0.0221
G1 Y7.3481
X11.0646 Y7.3601
X11.0694 Y7.372
X11.0748 Y7.3836
X11.0806 Y7.395
X11.087 Y7.4061
X11.0939 Y7.4168
X11.1013 Y7.4273
X11.1092 Y7.4374
X11.1175 Y7.4471
X11.1263 Y7.4564
X11.1355 Y7.4653
X11.145 Y7.4737
X11.155 Y7.4818
X11.1653 Y7.4893
X11.176 Y7.4964
X11.187 Y7.5029
X11.1982 Y7.509
X11.2098 Y7.5145
X11.2216 Y7.5195
X11.2336 Y7.5239
X11.2457 Y7.5278
X11.2581 Y7.5311
X11.2706 Y7.5338
X11.2832 Y7.536
X11.2959 Y7.5375
X11.3086 Y7.5385
X11.3214 Y7.5389
X11.3342 Y7.5387
X11.347 Y7.5379
X11.3597 Y7.5365
X11.3723 Y7.5346
G2 X11.7791 Y7.3939 I0.0857 J-0.4108
G1 X11.7804 Y7.382
Y7.2322
G2 X11.7671 Y7.211 I-0.025 J0.0009
X11.7053 Y7.2437 I-0.0199 J0.0373
X11.763 Y7.3585 I0.1174 J0.0129
G1 X11.7671 Y7.3608
G3 X11.7804 Y7.382 I-0.0118 J0.0221
G1 Y7.4278
X11.7758 Y7.4404
X11.7708 Y7.4527
X11.7652 Y7.4648
X11.759 Y7.4767
X11.7523 Y7.4882
X11.7451 Y7.4994
X11.7374 Y7.5103
X11.7292 Y7.5209
X11.7205 Y7.531
X11.7114 Y7.5407
X11.7018 Y7.5501
X11.6918 Y7.5589
X11.6815 Y7.5673
X11.6708 Y7.5753
X11.6597 Y7.5827
X11.6483 Y7.5896
X11.6366 Y7.596
X11.6246 Y7.6019
X11.6124 Y7.6072
X11.5999 Y7.612
X11.5872 Y7.6162
X11.5744 Y7.6198
X11.5614 Y7.6228
X11.5483 Y7.6252
X11.535 Y7.6271
X11.5218 Y7.6283
X11.5084 Y7.6289
X11.4951
X11.4818 Y7.6284
X11.4685 Y7.6272
X11.4553 Y7.6254
G3 X11.0613 Y7.5006 I-0.0996 J-0.3699
G1 X11.0604 Y7.49
Y7.3481
G3 X11.0736 Y7.3269 I0.025 J0.0009
X11.1361 Y7.3643 I0.02 J0.0375
X11.0777 Y7.4665 I-0.1181 J0.0003
G1 X11.0736 Y7.4688
G2 X11.0604 Y7.49 I0.0118 J0.0221
G1 Y7.535
X11.0649 Y7.5472
X11.07 Y7.5593
X11.0757 Y7.5711
X11.0819 Y7.5826
X11.0886 Y7.5938
X11.0959 Y7.6047
X11.1037 Y7.6152
X11.112 Y7.6254
X11.1207 Y7.6351
X11.1299 Y7.6444
X11.1395 Y7.6533
X11.1496 Y7.6617
X11.16 Y7.6696
X11.1708 Y7.677
X11.1819 Y7.6839
X11.1933 Y7.6903
X11.205 Y7.6961
X11.217 Y7.7014
X11.2292 Y7.706
X11.2417 Y7.7101
X11.2543 Y7.7137
X11.267 Y7.7166
X11.2799 Y7.7189
X11.2929 Y7.7206
X11.3059 Y7.7216
X11.319 Y7.7221
X11.3321 Y7.7219
X11.3451 Y7.7212
X11.3581 Y7.7198
X11.3711 Y7.7178
G2 X11.779 Y7.5852 I0.0935 J-0.4063
G1 X11.7804 Y7.5729
Y7.4278
G2 X11.7671 Y7.4066 I-0.025 J0.0009
X11.7047 Y7.4423 I-0.02 J0.0375
X11.763 Y7.5494 I0.118 J0.0052
G1 X11.7671 Y7.5517
G3 X11.7804 Y7.5729 I-0.0118 J0.0221
G1 Y7.6219
X11.7753 Y7.6342
X11.7697 Y7.6463
X11.7636 Y7.6582
X11.757 Y7.6697
X11.7499 Y7.681
X11.7422 Y7.6919
X11.7341 Y7.7025
X11.7255 Y7.7127
X11.7165 Y7.7225
X11.7071 Y7.7319
X11.6972 Y7.7409
X11.687 Y7.7494
X11.6763 Y7.7575
X11.6654 Y7.7651
X11.6541 Y7.7721
X11.6425 Y7.7787
X11.6306 Y7.7848
X11.6185 Y7.7903
X11.6061 Y7.7952
X11.5935 Y7.7997
X11.5808 Y7.8035
X11.5679 Y7.8068
X11.5548 Y7.8095
X11.5417 Y7.8116
X11.5284 Y7.8131
X11.5151 Y7.8141
X11.5018 Y7.8144
X11.4885 Y7.8142
X11.4752 Y7.8133
X11.4619 Y7.8119
X11.4488 Y7.8099
X11.4327 Y7.8127
X11.4164 Y7.815
X11.4002 Y7.8166
X11.3838 Y7.8177
X11.3675 Y7.8181
X11.3511 Y7.8179
X11.3348 Y7.8171
X11.3185 Y7.8157
X11.3022 Y7.8137
X11.2861 Y7.8111
X11.27 Y7.8078
X11.2541 Y7.804
X11.2384 Y7.7996
X11.2228 Y7.7946
X11.2074 Y7.789
X11.1922 Y7.7828
X11.1773 Y7.7761
X11.1627 Y7.7688
X11.1483 Y7.761
X11.1342 Y7.7526
X11.1205 Y7.7437
X11.1071 Y7.7343
X11.0941 Y7.7245
X11.0814 Y7.7141
X11.0691 Y7.7033
X11.0573 Y7.692
X11.0604 Y7.6743
Y7.535
G3 X11.0736 Y7.5138 I0.025 J0.0009
X11.1361 Y7.5526 I0.02 J0.0375
X11.0777 Y7.6508 I-0.1181 J-0.0038
G1 X11.0736 Y7.6531
G2 X11.0604 Y7.6743 I0.0118 J0.0221
G1 Y7.7209
X11.0651 Y7.7331
X11.0704 Y7.745
X11.0762 Y7.7567
X11.0826 Y7.7681
X11.0895 Y7.7792
X11.0969 Y7.7899
X11.1048 Y7.8003
X11.1131 Y7.8103
X11.1219 Y7.8199
X11.1312 Y7.8291
X11.1409 Y7.8378
X11.151 Y7.8461
X11.1614 Y7.8539
X11.1722 Y7.8613
X11.1834 Y7.8681
X11.1948 Y7.8743
X11.2065 Y7.8801
X11.2185 Y7.8853
X11.2307 Y7.8899
X11.2431 Y7.8939
X11.2556 Y7.8974
X11.2684 Y7.9003
X11.2812 Y7.9026
X11.2941 Y7.9043
X11.3071 Y7.9053
X11.3202 Y7.9058
X11.3332 Y7.9057
X11.3462 Y7.905
X11.3592 Y7.9036
X11.3721 Y7.9017
G2 X11.779 Y7.7727 I0.0962 J-0.4032
G1 X11.7804 Y7.7604
Y7.6219
G2 X11.7371 Y7.6057 I-0.025 J0.0009
X11.7236 Y7.6475 I0.0379 J0.0353
X11.7644 Y7.735 I0.1562 J-0.0197
G1 X11.7724 Y7.743
G3 X11.7804 Y7.7604 I-0.0171 J0.0183
G1 Y7.8078
X11.7754 Y7.8204
X11.7698 Y7.8326
X11.7636 Y7.8446
X11.757 Y7.8564
X11.7497 Y7.8677
X11.742 Y7.8788
X11.7338 Y7.8895
X11.7251 Y7.8997
X11.7159 Y7.9096
X11.7063 Y7.9191
X11.6962 Y7.928
X11.6857 Y7.9365
X11.6749 Y7.9446
X11.6637 Y7.9521
X11.6522 Y7.959
X11.6403 Y7.9655
X11.6282 Y7.9714
X11.6158 Y7.9767
X11.6032 Y7.9814
X11.5904 Y7.9856
X11.5774 Y7.9891
X11.5642 Y7.9921
X11.551 Y7.9944
X11.5376 Y7.9962
X11.5242 Y7.9973
X11.5107 Y7.9978
X11.4972 Y7.9976
X11.4838 Y7.9969
X11.4704 Y7.9955
X11.457 Y7.9935
G3 X11.0613 Y7.8689 I-0.0991 J-0.3758
G1 X11.0604 Y7.8582
Y7.7209
G3 X11.1036 Y7.7047 I0.025 J0.0009
X11.117 Y7.7466 I-0.0376 J0.035
X11.0763 Y7.8328 I-0.1561 J-0.021
G1 X11.0683 Y7.8408
G2 X11.0604 Y7.8582 I0.0171 J0.0183
G1 Y7.9057
X11.0653 Y7.9181
X11.0709 Y7.9301
X11.077 Y7.9419
X11.0837 Y7.9534
X11.0909 Y7.9646
X11.0985 Y7.9755
X11.1067 Y7.986
X11.1154 Y7.996
X11.1245 Y8.0057
X11.1341 Y8.0149
X11.1441 Y8.0237
X11.1544 Y8.032
X11.1652 Y8.0398
X11.1763 Y8.0472
X11.1877 Y8.0539
X11.1995 Y8.0602
X11.2115 Y8.0659
X11.2237 Y8.071
X11.2362 Y8.0756
X11.2489 Y8.0795
X11.2618 Y8.0829
X11.2747 Y8.0857
X11.2879 Y8.0879
X11.3011 Y8.0894
X11.3143 Y8.0904
X11.3276 Y8.0907
X11.3409 Y8.0904
X11.3541 Y8.0895
X11.3673 Y8.088
X11.3805 Y8.0859
G2 X11.7794 Y7.9568 I0.0949 J-0.3876
G1 X11.7804 Y7.9461
Y7.8078
G2 X11.7371 Y7.7917 I-0.025 J0.0009
X11.7236 Y7.8335 I0.0378 J0.0353
X11.7644 Y7.9207 I0.1562 J-0.02
G1 X11.7724 Y7.9287
G3 X11.7804 Y7.9461 I-0.0171 J0.0183
G1 Y7.9926
X11.7755 Y8.005
X11.7701 Y8.0171
X11.7642 Y8.029
X11.7577 Y8.0406
X11.7507 Y8.0518
X11.7432 Y8.0628
X11.7351 Y8.0733
X11.7266 Y8.0835
X11.7176 Y8.0933
X11.7082 Y8.1027
X11.6984 Y8.1116
X11.6882 Y8.12
X11.6775 Y8.128
X11.6666 Y8.1354
X11.6553 Y8.1424
X11.6436 Y8.1488
X11.6317 Y8.1546
X11.6196 Y8.1599
X11.6072 Y8.1647
X11.5946 Y8.1689
X11.5818 Y8.1724
X11.5689 Y8.1754
X11.5558 Y8.1778
X11.5427 Y8.1796
X11.5295 Y8.1807
X11.5162 Y8.1813
X11.503 Y8.1812
X11.4897 Y8.1805
X11.4765 Y8.1792
X11.4634 Y8.1773
G3 X11.0617 Y8.0545 I-0.1008 J-0.3885
G1 X11.0604 Y8.0421
Y7.9057
G3 X11.1036 Y7.8896 I0.025 J0.0009
X11.1168 Y7.9315 I-0.0373 J0.0348
X11.0763 Y8.0167 I-0.1559 J-0.022
G1 X11.0683 Y8.0247
G2 X11.0604 Y8.0421 I0.0171 J0.0183
G1 Y8.0903
X11.0655 Y8.1027
X11.0713 Y8.1149
X11.0776 Y8.1268
X11.0845 Y8.1384
X11.0919 Y8.1496
X11.0998 Y8.1605
X11.1082 Y8.1711
X11.1171 Y8.1812
X11.1264 Y8.1909
X11.1362 Y8.2002
X11.1464 Y8.209
X11.157 Y8.2173
X11.1679 Y8.2252
X11.1793 Y8.2325
X11.1909 Y8.2392
X11.2028 Y8.2455
X11.2151 Y8.2511
X11.2275 Y8.2562
X11.2402 Y8.2608
X11.2531 Y8.2647
X11.2662 Y8.268
X11.2793 Y8.2707
X11.2927 Y8.2728
X11.306 Y8.2743
X11.3195 Y8.2752
X11.3329 Y8.2754
X11.3464 Y8.275
X11.3598 Y8.274
X11.3732 Y8.2724
X11.3865 Y8.2702
G2 X11.7794 Y8.1415 I0.0934 J-0.3791
G1 X11.7804 Y8.131
Y7.9926
G2 X11.7371 Y7.9765 I-0.025 J0.0009
X11.7236 Y8.0183 I0.0378 J0.0353
X11.7644 Y8.1056 I0.1562 J-0.0199
G1 X11.7724 Y8.1135
G3 X11.7804 Y8.131 I-0.0171 J0.0183
G1 Y8.1772
X11.7756 Y8.1895
X11.7703 Y8.2015
X11.7645 Y8.2133
X11.7581 Y8.2248
X11.7512 Y8.236
X11.7438 Y8.2469
X11.7358 Y8.2574
X11.7274 Y8.2675
X11.7186 Y8.2773
X11.7093 Y8.2866
X11.6996 Y8.2954
X11.6894 Y8.3038
X11.6789 Y8.3118
X11.6681 Y8.3192
X11.6569 Y8.3261
X11.6454 Y8.3325
X11.6336 Y8.3384
X11.6216 Y8.3437
X11.6093 Y8.3484
X11.5968 Y8.3526
X11.5841 Y8.3562
X11.5713 Y8.3591
X11.5584 Y8.3615
X11.5453 Y8.3633
X11.5322 Y8.3645
X11.5191 Y8.3651
X11.5059 Y8.365
X11.4928 Y8.3644
X11.4797 Y8.3631
X11.4667 Y8.3613
G3 X11.0617 Y8.2383 I-0.1019 J-0.3926
G1 X11.0604 Y8.2258
Y8.0903
G3 X11.1036 Y8.0741 I0.025 J0.0009
X11.1167 Y8.116 I-0.0371 J0.0346
X11.0763 Y8.2004 I-0.1558 J-0.0228
G1 X11.0683 Y8.2084
G2 X11.0604 Y8.2258 I0.0171 J0.0183
G1 Y8.2741
X11.0656 Y8.2866
X11.0714 Y8.2988
X11.0778 Y8.3108
X11.0847 Y8.3224
X11.0921 Y8.3337
X11.1001 Y8.3446
X11.1085 Y8.3552
X11.1175 Y8.3653
X11.1268 Y8.3751
X11.1367 Y8.3844
X11.1469 Y8.3932
X11.1576 Y8.4015
X11.1686 Y8.4094
X11.18 Y8.4167
X11.1916 Y8.4235
X11.2036 Y8.4297
X11.2159 Y8.4354
X11.2284 Y8.4405
X11.2412 Y8.445
X11.2541 Y8.4489
X11.2672 Y8.4523
X11.2805 Y8.455
X11.2938 Y8.4571
X11.3073 Y8.4585
X11.3208 Y8.4594
X11.3343 Y8.4596
X11.3478 Y8.4592
X11.3613 Y8.4582
X11.3747 Y8.4566
X11.388 Y8.4543
G2 X11.7794 Y8.3261 I0.0934 J-0.3765
G1 X11.7804 Y8.3156
Y8.1772
G2 X11.7371 Y8.161 I-0.025 J0.0009
X11.7236 Y8.2028 I0.0379 J0.0353
X11.7644 Y8.2902 I0.1562 J-0.0198
G1 X11.7724 Y8.2982
G3 X11.7804 Y8.3156 I-0.0171 J0.0183
G1 Y8.3621
X11.7756 Y8.3744
X11.7703 Y8.3864
X11.7644 Y8.3982
X11.758 Y8.4097
X11.751 Y8.4208
X11.7436 Y8.4317
X11.7356 Y8.4422
X11.7272 Y8.4523
X11.7183 Y8.462
X11.709 Y8.4713
X11.6993 Y8.4801
