%
(_FIXED CUBE PLATE_1508)
(T1  D=0.1508 CR=0. - ZMIN=-0.28 - FLAT END MILL)
G90 G94 G17 G91.1
G64 P0.001 Q0.001
G20
G53 G0 Z0.
(.3 CIRCLUAR THROUGH HOLE 2)
M9
T1 M6
S13000 M3
G4 P10.
G54
M7
G0 X1.9823 Y-6.4967
G43 Z0.6 H1
G0 Z0.13
G1 Z0.0651 F40.
G18 G2 X1.9974 Z0.05 I0.0151 K0.
G1 X2.0049
G17 G3 X2.0175 Y-6.4841 I0. J0.0125
X1.9673 Z0.0323 I-0.0251 J0.
X2.0175 Z0.0146 I0.0251 J0.
X1.9673 Z-0.0032 I-0.0251 J0.
X2.0175 Z-0.0209 I0.0251 J0.
X1.9673 Z-0.0386 I-0.0251 J0.
X2.0175 Z-0.0563 I0.0251 J0.
X1.9673 Z-0.074 I-0.0251 J0.
X2.0175 Z-0.0918 I0.0251 J0.
X1.9673 Z-0.1095 I-0.0251 J0.
X2.0175 Z-0.1272 I0.0251 J0.
X1.9673 Z-0.1449 I-0.0251 J0.
X2.0175 Z-0.1627 I0.0251 J0.
X1.9673 Z-0.1804 I-0.0251 J0.
X2.0175 Z-0.1981 I0.0251 J0.
X1.9673 Z-0.2158 I-0.0251 J0.
X2.0175 Z-0.2335 I0.0251 J0.
X1.9673 Z-0.2513 I-0.0251 J0.
X2.0175 Z-0.269 I0.0251 J0.
X1.983 Y-6.4609 Z-0.28 I-0.0251 J0.
X2.0018 Y-6.5074 I0.0094 J-0.0233
X1.983 Y-6.4609 I-0.0094 J0.0233
X1.9761 Y-6.4772 I0.0047 J-0.0116
G1 X1.9789 Y-6.4842
X1.98 Y-6.4869 Z-0.2797
X1.981 Y-6.4895 Z-0.2789
X1.982 Y-6.492 Z-0.2775
X1.9829 Y-6.4941 Z-0.2756
X1.9836 Y-6.4958 Z-0.2733
X1.9841 Y-6.4971 Z-0.2707
X1.9844 Y-6.4979 Z-0.2679
X1.9845 Y-6.4982 Z-0.2649
G0 Z0.4
X3.9747 Y-6.3224
Z0.13
G1 Z0.0651 F40.
G18 G2 X3.9898 Z0.05 I0.0151 K0.
G1 X3.9973
G17 G3 X4.0099 Y-6.3098 I0. J0.0126
X3.9597 Z0.0323 I-0.0251 J0.
X4.0099 Z0.0146 I0.0251 J0.
X3.9597 Z-0.0032 I-0.0251 J0.
X4.0099 Z-0.0209 I0.0251 J0.
X3.9597 Z-0.0386 I-0.0251 J0.
X4.0099 Z-0.0563 I0.0251 J0.
X3.9597 Z-0.074 I-0.0251 J0.
X4.0099 Z-0.0918 I0.0251 J0.
X3.9597 Z-0.1095 I-0.0251 J0.
X4.0099 Z-0.1272 I0.0251 J0.
X3.9597 Z-0.1449 I-0.0251 J0.
X4.0099 Z-0.1627 I0.0251 J0.
X3.9597 Z-0.1804 I-0.0251 J0.
X4.0099 Z-0.1981 I0.0251 J0.
X3.9597 Z-0.2158 I-0.0251 J0.
X4.0099 Z-0.2335 I0.0251 J0.
X3.9597 Z-0.2513 I-0.0251 J0.
X4.0099 Z-0.269 I0.0251 J0.
X3.9754 Y-6.2865 Z-0.28 I-0.0251 J0.
X3.9942 Y-6.3331 I0.0094 J-0.0233
X3.9754 Y-6.2865 I-0.0094 J0.0233
X3.9684 Y-6.3029 I0.0047 J-0.0116
G1 X3.9713 Y-6.3099
X3.9724 Y-6.3126 Z-0.2797
X3.9734 Y-6.3152 Z-0.2789
X3.9744 Y-6.3176 Z-0.2775
X3.9753 Y-6.3198 Z-0.2756
X3.976 Y-6.3215 Z-0.2733
X3.9765 Y-6.3228 Z-0.2707
X3.9768 Y-6.3236 Z-0.2679
X3.9769 Y-6.3239 Z-0.2649
G0 Z0.4
X5.9899 Y-3.8544
Z0.13
G1 Z0.0651 F40.
G18 G2 X6.005 Z0.05 I0.0151 K0.
G1 X6.0125
G17 G3 X6.0251 Y-3.8419 I0. J0.0125
X5.9749 Z0.0323 I-0.0251 J0.
X6.0251 Z0.0146 I0.0251 J0.
X5.9749 Z-0.0032 I-0.0251 J0.
X6.0251 Z-0.0209 I0.0251 J0.
X5.9749 Z-0.0386 I-0.0251 J0.
X6.0251 Z-0.0563 I0.0251 J0.
X5.9749 Z-0.074 I-0.0251 J0.
X6.0251 Z-0.0918 I0.0251 J0.
X5.9749 Z-0.1095 I-0.0251 J0.
X6.0251 Z-0.1272 I0.0251 J0.
X5.9749 Z-0.1449 I-0.0251 J0.
X6.0251 Z-0.1627 I0.0251 J0.
X5.9749 Z-0.1804 I-0.0251 J0.
X6.0251 Z-0.1981 I0.0251 J0.
X5.9749 Z-0.2158 I-0.0251 J0.
X6.0251 Z-0.2335 I0.0251 J0.
X5.9749 Z-0.2513 I-0.0251 J0.
X6.0251 Z-0.269 I0.0251 J0.
X5.9906 Y-3.8186 Z-0.28 I-0.0251 J0.
X6.0094 Y-3.8651 I0.0094 J-0.0233
X5.9906 Y-3.8186 I-0.0094 J0.0233
X5.9837 Y-3.8349 I0.0047 J-0.0116
G1 X5.9865 Y-3.8419
X5.9876 Y-3.8446 Z-0.2797
X5.9886 Y-3.8473 Z-0.2789
X5.9896 Y-3.8497 Z-0.2775
X5.9905 Y-3.8518 Z-0.2756
X5.9912 Y-3.8535 Z-0.2733
X5.9917 Y-3.8548 Z-0.2707
X5.992 Y-3.8556 Z-0.2679
X5.9921 Y-3.8559 Z-0.2649
G0 Z0.4
X11.0101 Y1.5125
Z0.13
G1 Z0.0651 F40.
G18 G3 X10.995 Z0.05 I-0.0151 K0.
G1 X10.9875
G17 G3 X10.9749 Y1.5 I0. J-0.0126
X11.0251 Z0.0323 I0.0251 J0.
X10.9749 Z0.0146 I-0.0251 J0.
X11.0251 Z-0.0032 I0.0251 J0.
X10.9749 Z-0.0209 I-0.0251 J0.
X11.0251 Z-0.0386 I0.0251 J0.
X10.9749 Z-0.0563 I-0.0251 J0.
X11.0251 Z-0.074 I0.0251 J0.
X10.9749 Z-0.0918 I-0.0251 J0.
X11.0251 Z-0.1095 I0.0251 J0.
X10.9749 Z-0.1272 I-0.0251 J0.
X11.0251 Z-0.1449 I0.0251 J0.
X10.9749 Z-0.1627 I-0.0251 J0.
X11.0251 Z-0.1804 I0.0251 J0.
X10.9749 Z-0.1981 I-0.0251 J0.
X11.0251 Z-0.2158 I0.0251 J0.
X10.9749 Z-0.2335 I-0.0251 J0.
X11.0251 Z-0.2513 I0.0251 J0.
X10.9749 Z-0.269 I-0.0251 J0.
X11.0094 Y1.4767 Z-0.28 I0.0251 J0.
X10.9906 Y1.5233 I-0.0094 J0.0233
X11.0094 Y1.4767 I0.0094 J-0.0233
X11.0163 Y1.4931 I-0.0047 J0.0116
G1 X11.0135 Y1.5001
X11.0124 Y1.5028 Z-0.2797
X11.0114 Y1.5054 Z-0.2789
X11.0104 Y1.5078 Z-0.2775
X11.0095 Y1.5099 Z-0.2756
X11.0088 Y1.5117 Z-0.2733
X11.0083 Y1.513 Z-0.2707
X11.008 Y1.5138 Z-0.2679
X11.0079 Y1.514 Z-0.2649
G0 Z0.4
X11.0101 Y0.5126
Z0.13
G1 Z0.0651 F40.
G18 G3 X10.995 Z0.05 I-0.0151 K0.
G1 X10.9875
G17 G3 X10.9749 Y0.5 I0. J-0.0126
X11.0251 Z0.0323 I0.0251 J0.
X10.9749 Z0.0146 I-0.0251 J0.
X11.0251 Z-0.0032 I0.0251 J0.
X10.9749 Z-0.0209 I-0.0251 J0.
X11.0251 Z-0.0386 I0.0251 J0.
X10.9749 Z-0.0563 I-0.0251 J0.
X11.0251 Z-0.074 I0.0251 J0.
X10.9749 Z-0.0918 I-0.0251 J0.
X11.0251 Z-0.1095 I0.0251 J0.
X10.9749 Z-0.1272 I-0.0251 J0.
X11.0251 Z-0.1449 I0.0251 J0.
X10.9749 Z-0.1627 I-0.0251 J0.
X11.0251 Z-0.1804 I0.0251 J0.
X10.9749 Z-0.1981 I-0.0251 J0.
X11.0251 Z-0.2158 I0.0251 J0.
X10.9749 Z-0.2335 I-0.0251 J0.
X11.0251 Z-0.2513 I0.0251 J0.
X10.9749 Z-0.269 I-0.0251 J0.
X11.0094 Y0.4767 Z-0.28 I0.0251 J0.
X10.9906 Y0.5233 I-0.0094 J0.0233
X11.0094 Y0.4767 I0.0094 J-0.0233
X11.0163 Y0.4931 I-0.0047 J0.0116
G1 X11.0135 Y0.5001
X11.0124 Y0.5028 Z-0.2797
X11.0114 Y0.5054 Z-0.2789
X11.0104 Y0.5078 Z-0.2775
X11.0095 Y0.5099 Z-0.2756
X11.0088 Y0.5117 Z-0.2733
X11.0083 Y0.513 Z-0.2707
X11.008 Y0.5138 Z-0.2679
X11.0079 Y0.514 Z-0.2649
G0 Z0.4
X8.6176 Y-0.8385
Z0.13
G1 Z0.0651 F40.
G18 G2 X8.6327 Z0.05 I0.0151 K0.
G1 X8.6402
G17 G3 X8.6528 Y-0.826 I0. J0.0125
X8.6026 Z0.0323 I-0.0251 J0.
X8.6528 Z0.0146 I0.0251 J0.
X8.6026 Z-0.0032 I-0.0251 J0.
X8.6528 Z-0.0209 I0.0251 J0.
X8.6026 Z-0.0386 I-0.0251 J0.
X8.6528 Z-0.0563 I0.0251 J0.
X8.6026 Z-0.074 I-0.0251 J0.
X8.6528 Z-0.0918 I0.0251 J0.
X8.6026 Z-0.1095 I-0.0251 J0.
X8.6528 Z-0.1272 I0.0251 J0.
X8.6026 Z-0.1449 I-0.0251 J0.
X8.6528 Z-0.1627 I0.0251 J0.
X8.6026 Z-0.1804 I-0.0251 J0.
X8.6528 Z-0.1981 I0.0251 J0.
X8.6026 Z-0.2158 I-0.0251 J0.
X8.6528 Z-0.2335 I0.0251 J0.
X8.6026 Z-0.2513 I-0.0251 J0.
X8.6528 Z-0.269 I0.0251 J0.
X8.6183 Y-0.8027 Z-0.28 I-0.0251 J0.
X8.6371 Y-0.8493 I0.0094 J-0.0233
X8.6183 Y-0.8027 I-0.0094 J0.0233
X8.6113 Y-0.8191 I0.0047 J-0.0116
G1 X8.6142 Y-0.8261
X8.6153 Y-0.8288 Z-0.2797
X8.6163 Y-0.8314 Z-0.2789
X8.6173 Y-0.8338 Z-0.2775
X8.6181 Y-0.8359 Z-0.2756
X8.6188 Y-0.8377 Z-0.2733
X8.6194 Y-0.839 Z-0.2707
X8.6197 Y-0.8398 Z-0.2679
X8.6198 Y-0.84 Z-0.2649
G0 Z0.4
X8.0101 Y0.5126
Z0.13
G1 Z0.0651 F40.
G18 G3 X7.995 Z0.05 I-0.0151 K0.
G1 X7.9874
G17 G3 X7.9749 Y0.5 I0. J-0.0126
X8.0251 Z0.0323 I0.0251 J0.
X7.9749 Z0.0146 I-0.0251 J0.
X8.0251 Z-0.0032 I0.0251 J0.
X7.9749 Z-0.0209 I-0.0251 J0.
X8.0251 Z-0.0386 I0.0251 J0.
X7.9749 Z-0.0563 I-0.0251 J0.
X8.0251 Z-0.074 I0.0251 J0.
X7.9749 Z-0.0918 I-0.0251 J0.
X8.0251 Z-0.1095 I0.0251 J0.
X7.9749 Z-0.1272 I-0.0251 J0.
X8.0251 Z-0.1449 I0.0251 J0.
X7.9749 Z-0.1627 I-0.0251 J0.
X8.0251 Z-0.1804 I0.0251 J0.
X7.9749 Z-0.1981 I-0.0251 J0.
X8.0251 Z-0.2158 I0.0251 J0.
X7.9749 Z-0.2335 I-0.0251 J0.
X8.0251 Z-0.2513 I0.0251 J0.
X7.9749 Z-0.269 I-0.0251 J0.
X8.0094 Y0.4767 Z-0.28 I0.0251 J0.
X7.9906 Y0.5233 I-0.0094 J0.0233
X8.0094 Y0.4767 I0.0094 J-0.0233
X8.0163 Y0.4931 I-0.0047 J0.0116
G1 X8.0135 Y0.5001
X8.0124 Y0.5028 Z-0.2797
X8.0114 Y0.5054 Z-0.2789
X8.0104 Y0.5078 Z-0.2775
X8.0095 Y0.5099 Z-0.2756
X8.0088 Y0.5117 Z-0.2733
X8.0083 Y0.513 Z-0.2707
X8.008 Y0.5138 Z-0.2679
X8.0079 Y0.514 Z-0.2649
G0 Z0.4
X8.0101 Y1.5125
Z0.13
G1 Z0.0651 F40.
G18 G3 X7.995 Z0.05 I-0.0151 K0.
G1 X7.9874
G17 G3 X7.9749 Y1.5 I0. J-0.0126
X8.0251 Z0.0323 I0.0251 J0.
X7.9749 Z0.0146 I-0.0251 J0.
X8.0251 Z-0.0032 I0.0251 J0.
X7.9749 Z-0.0209 I-0.0251 J0.
X8.0251 Z-0.0386 I0.0251 J0.
X7.9749 Z-0.0563 I-0.0251 J0.
X8.0251 Z-0.074 I0.0251 J0.
X7.9749 Z-0.0918 I-0.0251 J0.
X8.0251 Z-0.1095 I0.0251 J0.
X7.9749 Z-0.1272 I-0.0251 J0.
X8.0251 Z-0.1449 I0.0251 J0.
X7.9749 Z-0.1627 I-0.0251 J0.
X8.0251 Z-0.1804 I0.0251 J0.
X7.9749 Z-0.1981 I-0.0251 J0.
X8.0251 Z-0.2158 I0.0251 J0.
X7.9749 Z-0.2335 I-0.0251 J0.
X8.0251 Z-0.2513 I0.0251 J0.
X7.9749 Z-0.269 I-0.0251 J0.
X8.0094 Y1.4767 Z-0.28 I0.0251 J0.
X7.9906 Y1.5233 I-0.0094 J0.0233
X8.0094 Y1.4767 I0.0094 J-0.0233
X8.0163 Y1.4931 I-0.0047 J0.0116
G1 X8.0135 Y1.5001
X8.0124 Y1.5028 Z-0.2797
X8.0114 Y1.5054 Z-0.2789
X8.0104 Y1.5078 Z-0.2775
X8.0095 Y1.5099 Z-0.2756
X8.0088 Y1.5117 Z-0.2733
X8.0083 Y1.513 Z-0.2707
X8.008 Y1.5138 Z-0.2679
X8.0079 Y1.514 Z-0.2649
G0 Z0.4
X5.4899 Y2.4874
Z0.13
G1 Z0.0651 F40.
G18 G2 X5.505 Z0.05 I0.0151 K0.
G1 X5.5125
G17 G3 X5.5251 Y2.5 I0. J0.0126
X5.4749 Z0.0323 I-0.0251 J0.
X5.5251 Z0.0146 I0.0251 J0.
X5.4749 Z-0.0032 I-0.0251 J0.
X5.5251 Z-0.0209 I0.0251 J0.
X5.4749 Z-0.0386 I-0.0251 J0.
X5.5251 Z-0.0563 I0.0251 J0.
X5.4749 Z-0.074 I-0.0251 J0.
X5.5251 Z-0.0918 I0.0251 J0.
X5.4749 Z-0.1095 I-0.0251 J0.
X5.5251 Z-0.1272 I0.0251 J0.
X5.4749 Z-0.1449 I-0.0251 J0.
X5.5251 Z-0.1627 I0.0251 J0.
X5.4749 Z-0.1804 I-0.0251 J0.
X5.5251 Z-0.1981 I0.0251 J0.
X5.4749 Z-0.2158 I-0.0251 J0.
X5.5251 Z-0.2335 I0.0251 J0.
X5.4749 Z-0.2513 I-0.0251 J0.
X5.5251 Z-0.269 I0.0251 J0.
X5.4906 Y2.5233 Z-0.28 I-0.0251 J0.
X5.5094 Y2.4767 I0.0094 J-0.0233
X5.4906 Y2.5233 I-0.0094 J0.0233
X5.4837 Y2.5069 I0.0047 J-0.0116
G1 X5.4865 Y2.4999
X5.4876 Y2.4972 Z-0.2797
X5.4886 Y2.4946 Z-0.2789
X5.4896 Y2.4922 Z-0.2775
X5.4905 Y2.4901 Z-0.2756
X5.4912 Y2.4883 Z-0.2733
X5.4917 Y2.487 Z-0.2707
X5.492 Y2.4862 Z-0.2679
X5.4921 Y2.486 Z-0.2649
G0 Z0.4
X5.0101 Y1.5125
Z0.13
G1 Z0.0651 F40.
G18 G3 X4.995 Z0.05 I-0.0151 K0.
G1 X4.9874
G17 G3 X4.9749 Y1.5 I0. J-0.0126
X5.0251 Z0.0323 I0.0251 J0.
X4.9749 Z0.0146 I-0.0251 J0.
X5.0251 Z-0.0032 I0.0251 J0.
X4.9749 Z-0.0209 I-0.0251 J0.
X5.0251 Z-0.0386 I0.0251 J0.
X4.9749 Z-0.0563 I-0.0251 J0.
X5.0251 Z-0.074 I0.0251 J0.
X4.9749 Z-0.0918 I-0.0251 J0.
X5.0251 Z-0.1095 I0.0251 J0.
X4.9749 Z-0.1272 I-0.0251 J0.
X5.0251 Z-0.1449 I0.0251 J0.
X4.9749 Z-0.1627 I-0.0251 J0.
X5.0251 Z-0.1804 I0.0251 J0.
X4.9749 Z-0.1981 I-0.0251 J0.
X5.0251 Z-0.2158 I0.0251 J0.
X4.9749 Z-0.2335 I-0.0251 J0.
X5.0251 Z-0.2513 I0.0251 J0.
X4.9749 Z-0.269 I-0.0251 J0.
X5.0094 Y1.4767 Z-0.28 I0.0251 J0.
X4.9906 Y1.5233 I-0.0094 J0.0233
X5.0094 Y1.4767 I0.0094 J-0.0233
X5.0163 Y1.4931 I-0.0047 J0.0116
G1 X5.0135 Y1.5001
X5.0124 Y1.5028 Z-0.2797
X5.0114 Y1.5054 Z-0.2789
X5.0104 Y1.5078 Z-0.2775
X5.0095 Y1.5099 Z-0.2756
X5.0088 Y1.5117 Z-0.2733
X5.0083 Y1.513 Z-0.2707
X5.008 Y1.5138 Z-0.2679
X5.0079 Y1.514 Z-0.2649
G0 Z0.4
X5.0101 Y0.5126
Z0.13
G1 Z0.0651 F40.
G18 G3 X4.995 Z0.05 I-0.0151 K0.
G1 X4.9874
G17 G3 X4.9749 Y0.5 I0. J-0.0126
X5.0251 Z0.0323 I0.0251 J0.
X4.9749 Z0.0146 I-0.0251 J0.
X5.0251 Z-0.0032 I0.0251 J0.
X4.9749 Z-0.0209 I-0.0251 J0.
X5.0251 Z-0.0386 I0.0251 J0.
X4.9749 Z-0.0563 I-0.0251 J0.
X5.0251 Z-0.074 I0.0251 J0.
X4.9749 Z-0.0918 I-0.0251 J0.
X5.0251 Z-0.1095 I0.0251 J0.
X4.9749 Z-0.1272 I-0.0251 J0.
X5.0251 Z-0.1449 I0.0251 J0.
X4.9749 Z-0.1627 I-0.0251 J0.
X5.0251 Z-0.1804 I0.0251 J0.
X4.9749 Z-0.1981 I-0.0251 J0.
X5.0251 Z-0.2158 I0.0251 J0.
X4.9749 Z-0.2335 I-0.0251 J0.
X5.0251 Z-0.2513 I0.0251 J0.
X4.9749 Z-0.269 I-0.0251 J0.
X5.0094 Y0.4767 Z-0.28 I0.0251 J0.
X4.9906 Y0.5233 I-0.0094 J0.0233
X5.0094 Y0.4767 I0.0094 J-0.0233
X5.0163 Y0.4931 I-0.0047 J0.0116
G1 X5.0135 Y0.5001
X5.0124 Y0.5028 Z-0.2797
X5.0114 Y0.5054 Z-0.2789
X5.0104 Y0.5078 Z-0.2775
X5.0095 Y0.5099 Z-0.2756
X5.0088 Y0.5117 Z-0.2733
X5.0083 Y0.513 Z-0.2707
X5.008 Y0.5138 Z-0.2679
X5.0079 Y0.514 Z-0.2649
G0 Z0.4
X2.7943 Y4.1008
Z0.1149
G1 Z0.05 F40.
X2.8019
G3 X2.8065 Y4.1054 I0. J0.0046
X2.788 Z0.0351 I-0.0092 J0.
X2.8065 Z0.0201 I0.0092 J0.
X2.788 Z0.0052 I-0.0092 J0.
X2.8065 Z-0.0097 I0.0092 J0.
X2.788 Z-0.0246 I-0.0092 J0.
X2.8065 Z-0.0396 I0.0092 J0.
X2.788 Z-0.0545 I-0.0092 J0.
X2.8065 Z-0.0694 I0.0092 J0.
X2.788 Z-0.0843 I-0.0092 J0.
X2.8065 Z-0.0993 I0.0092 J0.
X2.788 Z-0.1142 I-0.0092 J0.
X2.8065 Z-0.1291 I0.0092 J0.
X2.788 Z-0.144 I-0.0092 J0.
X2.8065 Z-0.159 I0.0092 J0.
X2.788 Z-0.1739 I-0.0092 J0.
X2.8065 Z-0.1888 I0.0092 J0.
X2.788 Z-0.2037 I-0.0092 J0.
X2.8065 Z-0.2187 I0.0092 J0.
X2.788 Z-0.2336 I-0.0092 J0.
X2.8065 Z-0.2485 I0.0092 J0.
X2.788 Z-0.2634 I-0.0092 J0.
X2.8065 Z-0.2784 I0.0092 J0.
X2.806 Y4.1086 Z-0.28 I-0.0092 J0.
X2.7886 Y4.1023 I-0.0087 J-0.0031
X2.806 Y4.1086 I0.0087 J0.0031
X2.8 Y4.1113 I-0.0043 J-0.0016
G1 X2.793 Y4.1088
G0 Z0.4
X2.5399 Y3.5013
Z0.13
G1 Z0.0651 F40.
G18 G2 X2.555 Z0.05 I0.0151 K0.
G1 X2.5625
G17 G3 X2.5751 Y3.5139 I0. J0.0126
X2.5249 Z0.0323 I-0.0251 J0.
X2.5751 Z0.0146 I0.0251 J0.
X2.5249 Z-0.0032 I-0.0251 J0.
X2.5751 Z-0.0209 I0.0251 J0.
X2.5249 Z-0.0386 I-0.0251 J0.
X2.5751 Z-0.0563 I0.0251 J0.
X2.5249 Z-0.074 I-0.0251 J0.
X2.5751 Z-0.0918 I0.0251 J0.
X2.5249 Z-0.1095 I-0.0251 J0.
X2.5751 Z-0.1272 I0.0251 J0.
X2.5249 Z-0.1449 I-0.0251 J0.
X2.5751 Z-0.1627 I0.0251 J0.
X2.5249 Z-0.1804 I-0.0251 J0.
X2.5751 Z-0.1981 I0.0251 J0.
X2.5249 Z-0.2158 I-0.0251 J0.
X2.5751 Z-0.2335 I0.0251 J0.
X2.5249 Z-0.2513 I-0.0251 J0.
X2.5751 Z-0.269 I0.0251 J0.
X2.5406 Y3.5371 Z-0.28 I-0.0251 J0.
X2.5594 Y3.4906 I0.0094 J-0.0233
X2.5406 Y3.5371 I-0.0094 J0.0233
X2.5337 Y3.5208 I0.0047 J-0.0116
G1 X2.5365 Y3.5138
X2.5376 Y3.5111 Z-0.2797
X2.5386 Y3.5085 Z-0.2789
X2.5396 Y3.506 Z-0.2775
X2.5405 Y3.5039 Z-0.2756
X2.5412 Y3.5022 Z-0.2733
X2.5417 Y3.5009 Z-0.2707
X2.542 Y3.5001 Z-0.2679
X2.5421 Y3.4998 Z-0.2649
G0 Z0.4
X3.3653 Y3.5298
Z0.1149
G1 Z0.05 F40.
X3.3729
G3 X3.3775 Y3.5344 I0. J0.0046
X3.359 Z0.0351 I-0.0092 J0.
X3.3775 Z0.0201 I0.0092 J0.
X3.359 Z0.0052 I-0.0092 J0.
X3.3775 Z-0.0097 I0.0092 J0.
X3.359 Z-0.0246 I-0.0092 J0.
X3.3775 Z-0.0396 I0.0092 J0.
X3.359 Z-0.0545 I-0.0092 J0.
X3.3775 Z-0.0694 I0.0092 J0.
X3.359 Z-0.0843 I-0.0092 J0.
X3.3775 Z-0.0993 I0.0092 J0.
X3.359 Z-0.1142 I-0.0092 J0.
X3.3775 Z-0.1291 I0.0092 J0.
X3.359 Z-0.144 I-0.0092 J0.
X3.3775 Z-0.159 I0.0092 J0.
X3.359 Z-0.1739 I-0.0092 J0.
X3.3775 Z-0.1888 I0.0092 J0.
X3.359 Z-0.2037 I-0.0092 J0.
X3.3775 Z-0.2187 I0.0092 J0.
X3.359 Z-0.2336 I-0.0092 J0.
X3.3775 Z-0.2485 I0.0092 J0.
X3.359 Z-0.2634 I-0.0092 J0.
X3.3775 Z-0.2784 I0.0092 J0.
X3.377 Y3.5376 Z-0.28 I-0.0092 J0.
X3.3596 Y3.5313 I-0.0087 J-0.0031
X3.377 Y3.5376 I0.0087 J0.0031
X3.371 Y3.5403 I-0.0043 J-0.0016
G1 X3.364 Y3.5378
G0 Z0.4
X3.9363 Y4.1008
Z0.1149
G1 Z0.05 F40.
X3.9439
G3 X3.9485 Y4.1054 I0. J0.0046
X3.93 Z0.0351 I-0.0092 J0.
X3.9485 Z0.0201 I0.0092 J0.
X3.93 Z0.0052 I-0.0092 J0.
X3.9485 Z-0.0097 I0.0092 J0.
X3.93 Z-0.0246 I-0.0092 J0.
X3.9485 Z-0.0396 I0.0092 J0.
X3.93 Z-0.0545 I-0.0092 J0.
X3.9485 Z-0.0694 I0.0092 J0.
X3.93 Z-0.0843 I-0.0092 J0.
X3.9485 Z-0.0993 I0.0092 J0.
X3.93 Z-0.1142 I-0.0092 J0.
X3.9485 Z-0.1291 I0.0092 J0.
X3.93 Z-0.144 I-0.0092 J0.
X3.9485 Z-0.159 I0.0092 J0.
X3.93 Z-0.1739 I-0.0092 J0.
X3.9485 Z-0.1888 I0.0092 J0.
X3.93 Z-0.2037 I-0.0092 J0.
X3.9485 Z-0.2187 I0.0092 J0.
X3.93 Z-0.2336 I-0.0092 J0.
X3.9485 Z-0.2485 I0.0092 J0.
X3.93 Z-0.2634 I-0.0092 J0.
X3.9485 Z-0.2784 I0.0092 J0.
X3.948 Y4.1086 Z-0.28 I-0.0092 J0.
X3.9306 Y4.1023 I-0.0087 J-0.0031
X3.948 Y4.1086 I0.0087 J0.0031
X3.942 Y4.1113 I-0.0043 J-0.0016
G1 X3.935 Y4.1088
G0 Z0.4
X3.3653 Y4.6718
Z0.1149
G1 Z0.05 F40.
X3.3729
G3 X3.3775 Y4.6764 I0. J0.0046
X3.359 Z0.0351 I-0.0092 J0.
X3.3775 Z0.0201 I0.0092 J0.
X3.359 Z0.0052 I-0.0092 J0.
X3.3775 Z-0.0097 I0.0092 J0.
X3.359 Z-0.0246 I-0.0092 J0.
X3.3775 Z-0.0396 I0.0092 J0.
X3.359 Z-0.0545 I-0.0092 J0.
X3.3775 Z-0.0694 I0.0092 J0.
X3.359 Z-0.0843 I-0.0092 J0.
X3.3775 Z-0.0993 I0.0092 J0.
X3.359 Z-0.1142 I-0.0092 J0.
X3.3775 Z-0.1291 I0.0092 J0.
X3.359 Z-0.144 I-0.0092 J0.
X3.3775 Z-0.159 I0.0092 J0.
X3.359 Z-0.1739 I-0.0092 J0.
X3.3775 Z-0.1888 I0.0092 J0.
X3.359 Z-0.2037 I-0.0092 J0.
X3.3775 Z-0.2187 I0.0092 J0.
X3.359 Z-0.2336 I-0.0092 J0.
X3.3775 Z-0.2485 I0.0092 J0.
X3.359 Z-0.2634 I-0.0092 J0.
X3.3775 Z-0.2784 I0.0092 J0.
X3.377 Y4.6796 Z-0.28 I-0.0092 J0.
X3.3596 Y4.6733 I-0.0087 J-0.0031
X3.377 Y4.6796 I0.0087 J0.0031
X3.371 Y4.6823 I-0.0043 J-0.0016
G1 X3.364 Y4.6798
G0 Z0.4
X-2.4088 Y1.5025
Z0.1149
G1 Z0.05 F40.
X-2.4013
G3 X-2.3967 Y1.5071 I0. J0.0046
X-2.4152 Z0.0351 I-0.0092 J0.
X-2.3967 Z0.0201 I0.0092 J0.
X-2.4152 Z0.0052 I-0.0092 J0.
X-2.3967 Z-0.0097 I0.0092 J0.
X-2.4152 Z-0.0246 I-0.0092 J0.
X-2.3967 Z-0.0396 I0.0092 J0.
X-2.4152 Z-0.0545 I-0.0092 J0.
X-2.3967 Z-0.0694 I0.0092 J0.
X-2.4152 Z-0.0843 I-0.0092 J0.
X-2.3967 Z-0.0993 I0.0092 J0.
X-2.4152 Z-0.1142 I-0.0092 J0.
X-2.3967 Z-0.1291 I0.0092 J0.
X-2.4152 Z-0.144 I-0.0092 J0.
X-2.3967 Z-0.159 I0.0092 J0.
X-2.4152 Z-0.1739 I-0.0092 J0.
X-2.3967 Z-0.1888 I0.0092 J0.
X-2.4152 Z-0.2037 I-0.0092 J0.
X-2.3967 Z-0.2187 I0.0092 J0.
X-2.4152 Z-0.2336 I-0.0092 J0.
X-2.3967 Z-0.2485 I0.0092 J0.
X-2.4152 Z-0.2634 I-0.0092 J0.
X-2.3967 Z-0.2784 I0.0092 J0.
X-2.3972 Y1.5103 Z-0.28 I-0.0092 J0.
X-2.4146 Y1.504 I-0.0087 J-0.0031
X-2.3972 Y1.5103 I0.0087 J0.0031
X-2.4031 Y1.5131 I-0.0043 J-0.0016
G1 X-2.4102 Y1.5105
G0 Z0.4
X-2.9798 Y2.0735
Z0.1149
G1 Z0.05 F40.
X-2.9723
G3 X-2.9677 Y2.0781 I0. J0.0046
X-2.9862 Z0.0351 I-0.0092 J0.
X-2.9677 Z0.0201 I0.0092 J0.
X-2.9862 Z0.0052 I-0.0092 J0.
X-2.9677 Z-0.0097 I0.0092 J0.
X-2.9862 Z-0.0246 I-0.0092 J0.
X-2.9677 Z-0.0396 I0.0092 J0.
X-2.9862 Z-0.0545 I-0.0092 J0.
X-2.9677 Z-0.0694 I0.0092 J0.
X-2.9862 Z-0.0843 I-0.0092 J0.
X-2.9677 Z-0.0993 I0.0092 J0.
X-2.9862 Z-0.1142 I-0.0092 J0.
X-2.9677 Z-0.1291 I0.0092 J0.
X-2.9862 Z-0.144 I-0.0092 J0.
X-2.9677 Z-0.159 I0.0092 J0.
X-2.9862 Z-0.1739 I-0.0092 J0.
X-2.9677 Z-0.1888 I0.0092 J0.
X-2.9862 Z-0.2037 I-0.0092 J0.
X-2.9677 Z-0.2187 I0.0092 J0.
X-2.9862 Z-0.2336 I-0.0092 J0.
X-2.9677 Z-0.2485 I0.0092 J0.
X-2.9862 Z-0.2634 I-0.0092 J0.
X-2.9677 Z-0.2784 I0.0092 J0.
X-2.9682 Y2.0813 Z-0.28 I-0.0092 J0.
X-2.9856 Y2.075 I-0.0087 J-0.0031
X-2.9682 Y2.0813 I0.0087 J0.0031
X-2.9741 Y2.0841 I-0.0043 J-0.0016
G1 X-2.9812 Y2.0815
G0 Z0.4
X-3.5508 Y1.5025
Z0.1149
G1 Z0.05 F40.
X-3.5433
G3 X-3.5387 Y1.5071 I0. J0.0046
X-3.5572 Z0.0351 I-0.0092 J0.
X-3.5387 Z0.0201 I0.0092 J0.
X-3.5572 Z0.0052 I-0.0092 J0.
X-3.5387 Z-0.0097 I0.0092 J0.
X-3.5572 Z-0.0246 I-0.0092 J0.
X-3.5387 Z-0.0396 I0.0092 J0.
X-3.5572 Z-0.0545 I-0.0092 J0.
X-3.5387 Z-0.0694 I0.0092 J0.
X-3.5572 Z-0.0843 I-0.0092 J0.
X-3.5387 Z-0.0993 I0.0092 J0.
X-3.5572 Z-0.1142 I-0.0092 J0.
X-3.5387 Z-0.1291 I0.0092 J0.
X-3.5572 Z-0.144 I-0.0092 J0.
X-3.5387 Z-0.159 I0.0092 J0.
X-3.5572 Z-0.1739 I-0.0092 J0.
X-3.5387 Z-0.1888 I0.0092 J0.
X-3.5572 Z-0.2037 I-0.0092 J0.
X-3.5387 Z-0.2187 I0.0092 J0.
X-3.5572 Z-0.2336 I-0.0092 J0.
X-3.5387 Z-0.2485 I0.0092 J0.
X-3.5572 Z-0.2634 I-0.0092 J0.
X-3.5387 Z-0.2784 I0.0092 J0.
X-3.5392 Y1.5103 Z-0.28 I-0.0092 J0.
X-3.5566 Y1.504 I-0.0087 J-0.0031
X-3.5392 Y1.5103 I0.0087 J0.0031
X-3.5451 Y1.5131 I-0.0043 J-0.0016
G1 X-3.5522 Y1.5105
G0 Z0.4
X-2.9798 Y0.9315
Z0.1149
G1 Z0.05 F40.
X-2.9723
G3 X-2.9677 Y0.9361 I0. J0.0046
X-2.9862 Z0.0351 I-0.0092 J0.
X-2.9677 Z0.0201 I0.0092 J0.
X-2.9862 Z0.0052 I-0.0092 J0.
X-2.9677 Z-0.0097 I0.0092 J0.
X-2.9862 Z-0.0246 I-0.0092 J0.
X-2.9677 Z-0.0396 I0.0092 J0.
X-2.9862 Z-0.0545 I-0.0092 J0.
X-2.9677 Z-0.0694 I0.0092 J0.
X-2.9862 Z-0.0843 I-0.0092 J0.
X-2.9677 Z-0.0993 I0.0092 J0.
X-2.9862 Z-0.1142 I-0.0092 J0.
X-2.9677 Z-0.1291 I0.0092 J0.
X-2.9862 Z-0.144 I-0.0092 J0.
X-2.9677 Z-0.159 I0.0092 J0.
X-2.9862 Z-0.1739 I-0.0092 J0.
X-2.9677 Z-0.1888 I0.0092 J0.
X-2.9862 Z-0.2037 I-0.0092 J0.
X-2.9677 Z-0.2187 I0.0092 J0.
X-2.9862 Z-0.2336 I-0.0092 J0.
X-2.9677 Z-0.2485 I0.0092 J0.
X-2.9862 Z-0.2634 I-0.0092 J0.
X-2.9677 Z-0.2784 I0.0092 J0.
X-2.9682 Y0.9393 Z-0.28 I-0.0092 J0.
X-2.9856 Y0.933 I-0.0087 J-0.0031
X-2.9682 Y0.9393 I0.0087 J0.0031
X-2.9741 Y0.9421 I-0.0043 J-0.0016
G1 X-2.9812 Y0.9395
G0 Z0.4
X-2.5499 Y0.4875
Z0.13
G1 Z0.0651 F40.
G18 G2 X-2.5348 Z0.05 I0.0151 K0.
G1 X-2.5272
G17 G3 X-2.5147 Y0.5 I0. J0.0125
X-2.5649 Z0.0323 I-0.0251 J0.
X-2.5147 Z0.0146 I0.0251 J0.
X-2.5649 Z-0.0032 I-0.0251 J0.
X-2.5147 Z-0.0209 I0.0251 J0.
X-2.5649 Z-0.0386 I-0.0251 J0.
X-2.5147 Z-0.0563 I0.0251 J0.
X-2.5649 Z-0.074 I-0.0251 J0.
X-2.5147 Z-0.0918 I0.0251 J0.
X-2.5649 Z-0.1095 I-0.0251 J0.
X-2.5147 Z-0.1272 I0.0251 J0.
X-2.5649 Z-0.1449 I-0.0251 J0.
X-2.5147 Z-0.1627 I0.0251 J0.
X-2.5649 Z-0.1804 I-0.0251 J0.
X-2.5147 Z-0.1981 I0.0251 J0.
X-2.5649 Z-0.2158 I-0.0251 J0.
X-2.5147 Z-0.2335 I0.0251 J0.
X-2.5649 Z-0.2513 I-0.0251 J0.
X-2.5147 Z-0.269 I0.0251 J0.
X-2.5492 Y0.5233 Z-0.28 I-0.0251 J0.
X-2.5304 Y0.4767 I0.0094 J-0.0233
X-2.5492 Y0.5233 I-0.0094 J0.0233
X-2.5561 Y0.5069 I0.0047 J-0.0116
G1 X-2.5533 Y0.4999
X-2.5522 Y0.4972 Z-0.2797
X-2.5511 Y0.4946 Z-0.2789
X-2.5502 Y0.4922 Z-0.2775
X-2.5493 Y0.4901 Z-0.2756
X-2.5486 Y0.4883 Z-0.2733
X-2.5481 Y0.487 Z-0.2707
X-2.5478 Y0.4862 Z-0.2679
X-2.5477 Y0.486 Z-0.2649
G0 Z0.6
(.3 CIRCULAR THROUGH HOLE)
M7
G0 X2.181 Y2.0434
Z0.6
Z0.2
G1 Z0.1146 F13.333
G3 X2.1796 Y2.043 Z0.1082 I0.0119 J-0.0434 F55.
X2.1759 Y2.0417 Z0.103 I0.0133 J-0.043
X2.1707 Y2.0391 Z0.1 I0.017 J-0.0417
X2.2151 Y1.9609 Z0.0621 I0.0222 J-0.0391
X2.1707 Y2.0391 Z0.0242 I-0.0222 J0.0391
X2.2151 Y1.9609 Z-0.0136 I0.0222 J-0.0391
X2.1707 Y2.0391 Z-0.0515 I-0.0222 J0.0391
X2.2151 Y1.9609 Z-0.0894 I0.0222 J-0.0391
X2.1707 Y2.0391 Z-0.1273 I-0.0222 J0.0391
X2.1479 Y2. Z-0.14 I0.0222 J-0.0391
X2.2021 I0.0271 J0. F60.
X2.0479 I-0.0771 J0.
X2.3021 I0.1271 J0.
X1.9479 I-0.1771 J0.
X2.4021 I0.2271 J0.
X1.8479 I-0.2771 J0.
X2.5021 I0.3271 J0.
X1.7479 I-0.3771 J0.
X2.6021 I0.4271 J0.
X1.6479 I-0.4771 J0.
X2.6021 I0.4771 J0.
X2.5932 Y2.0074 I-0.0075 J0.
G1 X2.5381 Y1.9976
X2.1795 Y1.9704
X2.1679 Y1.968
G3 X2.1669 Y1.9633 I0.0005 J-0.0026
X2.2189 Y2.0367 Z-0.1779 I0.026 J0.0367 F55.
X2.1669 Y1.9633 Z-0.2158 I-0.026 J-0.0367
X2.2189 Y2.0367 Z-0.2536 I0.026 J0.0367
X2.1479 Y2. Z-0.28 I-0.026 J-0.0367
X2.2021 I0.0271 J0. F60.
X2.0479 I-0.0771 J0.
X2.3021 I0.1271 J0.
X1.9479 I-0.1771 J0.
X2.4021 I0.2271 J0.
X1.8479 I-0.2771 J0.
X2.5021 I0.3271 J0.
X1.7479 I-0.3771 J0.
X2.6021 I0.4271 J0.
X1.6479 I-0.4771 J0.
X2.6121 I0.4821 J0.
X1.6379 I-0.4871 J0.
X2.6121 I0.4871 J0.
X2.611 Y2.0056 Z-0.2789 I-0.0151 J0.
X2.6085 Y2.0098 Z-0.2756 I-0.014 J-0.0056
X2.6061 Y2.012 Z-0.2707 I-0.0115 J-0.0098
X2.6052 Y2.0127 Z-0.2649 I-0.0091 J-0.012
G0 Z0.4
X3.4423 Y4.1488
Z0.2
G1 Z0.1146 F13.333
G3 X3.4409 Y4.1484 Z0.1082 I0.0119 J-0.0434 F55.
X3.4372 Y4.1471 Z0.103 I0.0133 J-0.043
X3.432 Y4.1446 Z0.1 I0.017 J-0.0417
X3.4764 Y4.0663 Z0.0621 I0.0222 J-0.0391
X3.432 Y4.1446 Z0.0242 I-0.0222 J0.0391
X3.4764 Y4.0663 Z-0.0136 I0.0222 J-0.0391
X3.432 Y4.1446 Z-0.0515 I-0.0222 J0.0391
X3.4764 Y4.0663 Z-0.0894 I0.0222 J-0.0391
X3.432 Y4.1446 Z-0.1273 I-0.0222 J0.0391
X3.4092 Y4.1054 Z-0.14 I0.0222 J-0.0391
X3.4274 I0.0091 J0. F60.
X3.3092 I-0.0591 J0.
X3.5274 I0.1091 J0.
X3.2092 I-0.1591 J0.
X3.6274 I0.2091 J0.
X3.1092 I-0.2591 J0.
X3.6274 I0.2591 J0.
X3.6196 Y4.113 I-0.0075 J0.
G1 X3.516 Y4.1098
G3 X3.513 Y4.1095 I-0.0006 J-0.0075
G1 X3.4302 Y4.082
G3 X3.4282 Y4.0687 I0.0024 J-0.0072
X3.4801 Y4.1422 Z-0.1779 I0.026 J0.0367 F55.
X3.4282 Y4.0687 Z-0.2158 I-0.026 J-0.0367
X3.4801 Y4.1422 Z-0.2536 I0.026 J0.0367
X3.4092 Y4.1054 Z-0.28 I-0.026 J-0.0367
X3.4274 I0.0091 J0. F60.
X3.3092 I-0.0591 J0.
X3.5274 I0.1091 J0.
X3.2092 I-0.1591 J0.
X3.6274 I0.2091 J0.
X3.1092 I-0.2591 J0.
X3.6374 I0.2641 J0.
X3.0992 I-0.2691 J0.
X3.6374 I0.2691 J0.
X3.6363 Y4.1111 Z-0.2789 I-0.0151 J0.
X3.6337 Y4.1152 Z-0.2756 I-0.014 J-0.0056
X3.6314 Y4.1175 Z-0.2707 I-0.0115 J-0.0098
X3.6304 Y4.1181 Z-0.2649 I-0.0091 J-0.012
G0 Z0.4
X6.496 Y0.9566
Z0.2
G1 Z0.1146 F13.333
G3 X6.4973 Y0.957 Z0.1082 I-0.0119 J0.0434 F55.
X6.5011 Y0.9583 Z0.103 I-0.0133 J0.043
X6.5063 Y0.9609 Z0.1 I-0.017 J0.0417
X6.4619 Y1.0391 Z0.0621 I-0.0222 J0.0391
X6.5063 Y0.9609 Z0.0242 I0.0222 J-0.0391
X6.4619 Y1.0391 Z-0.0136 I-0.0222 J0.0391
X6.5063 Y0.9609 Z-0.0515 I0.0222 J-0.0391
X6.4619 Y1.0391 Z-0.0894 I-0.0222 J0.0391
X6.5063 Y0.9609 Z-0.1273 I0.0222 J-0.0391
X6.5291 Y1. Z-0.14 I-0.0222 J0.0391
X6.4709 I-0.0291 J0. F60.
X6.6291 I0.0791 J0.
X6.3709 I-0.1291 J0.
X6.6291 I0.1291 J0.
G2 X6.6663 Y1.0642 I0.074 J0.
G3 X6.6811 Y1.137 I-0.0246 J0.0429
X6.2729 Y1. I-0.1811 J-0.137
X6.7271 I0.2271 J0.
X6.6811 Y1.137 I-0.2271 J0.
X6.6703 Y1.1382 I-0.006 J-0.0045
G1 X6.616 Y1.0936
X6.5128 Y1.0337
X6.51 Y1.0367
G3 X6.4581 Y0.9633 Z-0.1779 I-0.026 J-0.0367 F55.
X6.51 Y1.0367 Z-0.2158 I0.026 J0.0367
X6.4581 Y0.9633 Z-0.2536 I-0.026 J-0.0367
X6.5291 Y1. Z-0.28 I0.026 J0.0367
X6.4709 I-0.0291 J0. F60.
X6.6291 I0.0791 J0.
X6.3709 I-0.1291 J0.
X6.6291 I0.1291 J0.
G2 X6.6663 Y1.0642 I0.074 J0.
G3 X6.6811 Y1.137 I-0.0246 J0.0429
X6.2729 Y1. I-0.1811 J-0.137
X6.7271 I0.2271 J0.
X6.6811 Y1.137 I-0.2271 J0.
G2 X6.6805 Y1.1458 I0.0064 J0.0049
G3 X6.6797 Y1.1547 I-0.0067 J0.0038
X6.2629 Y1. I-0.1797 J-0.1547
X6.7371 I0.2371 J0.
X6.6797 Y1.1547 I-0.2371 J0.
X6.6752 Y1.1582 Z-0.2789 I-0.0114 J-0.0098
X6.6705 Y1.1597 Z-0.2756 I-0.0069 J-0.0134
X6.6673 Y1.1599 Z-0.2707 I-0.0023 J-0.0149
X6.6661 Y1.1598 Z-0.2649 I0.001 J-0.015
G0 Z0.4
X9.496 Y0.9566
Z0.2
G1 Z0.1146 F13.333
G3 X9.4973 Y0.957 Z0.1082 I-0.0119 J0.0434 F55.
X9.5011 Y0.9583 Z0.103 I-0.0133 J0.043
X9.5063 Y0.9609 Z0.1 I-0.017 J0.0417
X9.4619 Y1.0391 Z0.0621 I-0.0222 J0.0391
X9.5063 Y0.9609 Z0.0242 I0.0222 J-0.0391
X9.4619 Y1.0391 Z-0.0136 I-0.0222 J0.0391
X9.5063 Y0.9609 Z-0.0515 I0.0222 J-0.0391
X9.4619 Y1.0391 Z-0.0894 I-0.0222 J0.0391
X9.5063 Y0.9609 Z-0.1273 I0.0222 J-0.0391
X9.5291 Y1. Z-0.14 I-0.0222 J0.0391
X9.4709 I-0.0291 J0. F60.
X9.6291 I0.0791 J0.
X9.3709 I-0.1291 J0.
X9.6291 I0.1291 J0.
G2 X9.6663 Y1.0642 I0.074 J0.
G3 X9.6811 Y1.137 I-0.0246 J0.0429
X9.2729 Y1. I-0.1811 J-0.137
X9.7271 I0.2271 J0.
X9.6811 Y1.137 I-0.2271 J0.
X9.6703 Y1.1382 I-0.006 J-0.0045
G1 X9.616 Y1.0936
X9.5128 Y1.0337
X9.51 Y1.0367
G3 X9.4581 Y0.9633 Z-0.1779 I-0.026 J-0.0367 F55.
X9.51 Y1.0367 Z-0.2158 I0.026 J0.0367
X9.4581 Y0.9633 Z-0.2536 I-0.026 J-0.0367
X9.5291 Y1. Z-0.28 I0.026 J0.0367
X9.4709 I-0.0291 J0. F60.
X9.6291 I0.0791 J0.
X9.3709 I-0.1291 J0.
X9.6291 I0.1291 J0.
G2 X9.6663 Y1.0642 I0.074 J0.
G3 X9.6811 Y1.137 I-0.0246 J0.0429
X9.2729 Y1. I-0.1811 J-0.137
X9.7271 I0.2271 J0.
X9.6811 Y1.137 I-0.2271 J0.
G2 X9.6805 Y1.1458 I0.0064 J0.0049
G3 X9.6797 Y1.1547 I-0.0067 J0.0038
X9.2629 Y1. I-0.1797 J-0.1547
X9.7371 I0.2371 J0.
X9.6797 Y1.1547 I-0.2371 J0.
X9.6752 Y1.1582 Z-0.2789 I-0.0114 J-0.0098
X9.6705 Y1.1597 Z-0.2756 I-0.0069 J-0.0134
X9.6673 Y1.1599 Z-0.2707 I-0.0023 J-0.0149
X9.6661 Y1.1598 Z-0.2649 I0.001 J-0.015
G0 Z0.4
X-0.529 Y1.0434
Z0.2
G1 Z0.1146 F13.333
G3 X-0.5304 Y1.043 Z0.1082 I0.0119 J-0.0434 F55.
X-0.5341 Y1.0417 Z0.103 I0.0133 J-0.043
X-0.5393 Y1.0391 Z0.1 I0.017 J-0.0417
X-0.4949 Y0.9609 Z0.0621 I0.0222 J-0.0391
X-0.5393 Y1.0391 Z0.0242 I-0.0222 J0.0391
X-0.4949 Y0.9609 Z-0.0136 I0.0222 J-0.0391
X-0.5393 Y1.0391 Z-0.0515 I-0.0222 J0.0391
X-0.4949 Y0.9609 Z-0.0894 I0.0222 J-0.0391
X-0.5393 Y1.0391 Z-0.1273 I-0.0222 J0.0391
X-0.5621 Y1. Z-0.14 I0.0222 J-0.0391
X-0.5079 I0.0271 J0. F60.
X-0.6621 I-0.0771 J0.
X-0.4079 I0.1271 J0.
X-0.7621 I-0.1771 J0.
X-0.3079 I0.2271 J0.
X-0.8621 I-0.2771 J0.
X-0.2079 I0.3271 J0.
X-0.9621 I-0.3771 J0.
X-0.1079 I0.4271 J0.
X-1.0621 I-0.4771 J0.
X-0.1079 I0.4771 J0.
X-0.1168 Y1.0074 I-0.0075 J0.
G1 X-0.1719 Y0.9976
X-0.5305 Y0.9704
X-0.5421 Y0.968
G3 X-0.5431 Y0.9633 I0.0005 J-0.0026
X-0.4911 Y1.0367 Z-0.1779 I0.026 J0.0367 F55.
X-0.5431 Y0.9633 Z-0.2158 I-0.026 J-0.0367
X-0.4911 Y1.0367 Z-0.2536 I0.026 J0.0367
X-0.5621 Y1. Z-0.28 I-0.026 J-0.0367
X-0.5079 I0.0271 J0. F60.
X-0.6621 I-0.0771 J0.
X-0.4079 I0.1271 J0.
X-0.7621 I-0.1771 J0.
X-0.3079 I0.2271 J0.
X-0.8621 I-0.2771 J0.
X-0.2079 I0.3271 J0.
X-0.9621 I-0.3771 J0.
X-0.1079 I0.4271 J0.
X-1.0621 I-0.4771 J0.
X-0.0979 I0.4821 J0.
X-1.0721 I-0.4871 J0.
X-0.0979 I0.4871 J0.
X-0.0983 Y1.0023 Z-0.2795 I-0.0062 J0.
X-0.0994 Y1.004 Z-0.2782 I-0.0057 J-0.0023
X-0.1003 Y1.0049 Z-0.2762 I-0.0047 J-0.004
X-0.1007 Y1.0052 Z-0.2738 I-0.0037 J-0.0049
G0 Z0.4
X-2.9029 Y1.5505
Z0.2
G1 Z0.1146 F13.333
G3 X-2.9043 Y1.5501 Z0.1082 I0.0119 J-0.0434 F55.
X-2.908 Y1.5488 Z0.103 I0.0133 J-0.043
X-2.9132 Y1.5463 Z0.1 I0.017 J-0.0417
X-2.8688 Y1.468 Z0.0621 I0.0222 J-0.0391
X-2.9132 Y1.5463 Z0.0242 I-0.0222 J0.0391
X-2.8688 Y1.468 Z-0.0136 I0.0222 J-0.0391
X-2.9132 Y1.5463 Z-0.0515 I-0.0222 J0.0391
X-2.8688 Y1.468 Z-0.0894 I0.0222 J-0.0391
X-2.9132 Y1.5463 Z-0.1273 I-0.0222 J0.0391
X-2.936 Y1.5071 Z-0.14 I0.0222 J-0.0391
X-2.9178 I0.0091 J0. F60.
X-3.036 I-0.0591 J0.
X-2.8178 I0.1091 J0.
X-3.136 I-0.1591 J0.
X-2.7178 I0.2091 J0.
X-3.236 I-0.2591 J0.
X-2.7178 I0.2591 J0.
X-2.7256 Y1.5147 I-0.0075 J0.
G1 X-2.8292 Y1.5115
G3 X-2.8322 Y1.5112 I-0.0006 J-0.0075
G1 X-2.915 Y1.4837
G3 X-2.917 Y1.4704 I0.0024 J-0.0072
X-2.8651 Y1.5439 Z-0.1779 I0.026 J0.0367 F55.
X-2.917 Y1.4704 Z-0.2158 I-0.026 J-0.0367
X-2.8651 Y1.5439 Z-0.2536 I0.026 J0.0367
X-2.936 Y1.5071 Z-0.28 I-0.026 J-0.0367
X-2.9178 I0.0091 J0. F60.
X-3.036 I-0.0591 J0.
X-2.8178 I0.1091 J0.
X-3.136 I-0.1591 J0.
X-2.7178 I0.2091 J0.
X-3.236 I-0.2591 J0.
X-2.7078 I0.2641 J0.
X-3.246 I-0.2691 J0.
X-2.7078 I0.2691 J0.
X-2.7089 Y1.5128 Z-0.2789 I-0.0151 J0.
X-2.7114 Y1.5169 Z-0.2756 I-0.014 J-0.0056
X-2.7138 Y1.5192 Z-0.2707 I-0.0115 J-0.0098
X-2.7148 Y1.5198 Z-0.2649 I-0.0091 J-0.012
G0 Z0.6
(2D SLOT CUT)
M7
G0 X2.3608 Y4.2908
Z0.6
Z0.2
G1 Z0.1 F13.333
X2.5652 Y4.6138 Z0.0326 F40.
G2 X3.3906 Y5.0556 Z-0.14 I0.803 J-0.5083
X4.2473 Y3.7441 I-0.0223 J-0.9501 F55.
G3 X4.3766 Y3.5061 I0.1615 J-0.0664
G1 X11.81 Y2.1123
G2 X12.0754 Y1.7925 I-0.06 J-0.3198
G1 Y0.0936
G2 X11.9954 Y-0.1201 I-0.3254 J0.
G1 X6.1231 Y-6.8599
G2 X5.9061 Y-6.9703 I-0.2453 J0.2138
G1 X0.6934 Y-7.4263
G2 X0.3396 Y-7.1022 I-0.0284 J0.3242
G1 Y-6.1041
G2 X0.6366 Y-5.7799 I0.3254 J0.
G1 X2.1677 Y-5.646
G3 X3.9246 Y-3.7287 I-0.1677 J1.9173
G1 Y-2.
G3 X2. Y-0.0754 I-1.9246 J0.
G1 X-2.9728
G2 X-3.2546 Y0.0873 I0. J0.3254
G1 X-3.8 Y1.0319
G2 X-2.6056 Y2.382 I0.8231 J0.4752
G1 X-1.916 Y2.0893
G3 X-1.8478 Y2.0754 I0.0682 J0.1607
G1 X0.8624
G3 X1.0099 Y2.1566 I0. J0.1746
G1 X2.5652 Y4.6138
G2 X3.3906 Y5.0556 I0.803 J-0.5083
X4.2473 Y3.7441 Z-0.2422 I-0.0223 J-0.9501 F40.
G3 X4.3766 Y3.5061 Z-0.2594 I0.1615 J-0.0664
G1 X4.7414 Y3.4377 Z-0.28
X8.0231 Y2.8224 F55.
Z-0.2
X8.761 Y2.684
Z-0.28 F13.333
X11.81 Y2.1123 F55.
G2 X12.0754 Y1.7925 I-0.06 J-0.3198
G1 Y0.0936
G2 X11.9954 Y-0.1201 I-0.3254 J0.
G1 X9.4784 Y-3.0089
Z-0.2
X8.9852 Y-3.575
Z-0.28 F13.333
X6.1231 Y-6.8599 F55.
G2 X5.9061 Y-6.9703 I-0.2453 J0.2138
G1 X3.96 Y-7.1405
Z-0.2
X3.2121 Y-7.206
Z-0.28 F13.333
X0.6934 Y-7.4263 F55.
G2 X0.3396 Y-7.1022 I-0.0284 J0.3242
G1 Y-6.9971
Z-0.2
Y-6.2463
Z-0.28 F13.333
Y-6.1041 F55.
G2 X0.6366 Y-5.7799 I0.3254 J0.
G1 X2.1677 Y-5.646
G3 X3.9246 Y-3.7287 I-0.1677 J1.9173
G1 Y-3.219
Z-0.2
Y-2.4682
Z-0.28 F13.333
Y-2. F55.
G3 X2. Y-0.0754 I-1.9246 J0.
G1 X1.2929
Z-0.2
X0.5421
Z-0.28 F13.333
X-2.9728 F55.
G2 X-3.2546 Y0.0873 I0. J0.3254
G1 X-3.3696 Y0.2865
Z-0.2
X-3.745 Y0.9368
Z-0.28 F13.333
X-3.8 Y1.0319 F55.
G2 X-2.6056 Y2.382 I0.8231 J0.4752
G1 X-1.916 Y2.0893
G3 X-1.8478 Y2.0754 I0.0682 J0.1607
G1 X0.8624
G3 X1.0099 Y2.1566 I0. J0.1746
G1 X1.3094 Y2.6298
Z-0.2
X1.7109 Y3.2641
Z-0.28 F13.333
X2.5652 Y4.6138 F55.
G2 X4.2473 Y3.7441 I0.803 J-0.5083
G3 X4.3766 Y3.5061 I0.1615 J-0.0664
G1 X4.7414 Y3.4377
G0 Z0.4
X2.5273 Y0.5482
Z0.2
G1 Z0.1 F13.333
X2.9461 Y0.7217 Z0.0201 F40.
G3 X2.9486 Y0.7277 Z0.0188 I-0.0018 J0.0043
G1 X2.941 Y0.7462 Z0.0153
G3 X2.9349 Y0.7487 Z0.014 I-0.0042 J-0.0018
G1 X2.1845 Y0.4379 Z-0.1292
G2 X2.125 Y0.426 Z-0.14 I-0.0595 J0.1436
X2.0655 Y0.4379 I0. J0.1554 F55.
G1 X1.3151 Y0.7487
G3 X1.3091 Y0.7462 I-0.0018 J-0.0042
G1 X1.3014 Y0.7277
G3 X1.3039 Y0.7217 I0.0043 J-0.0018
G1 X2.1232 Y0.3823
G3 X2.1268 I0.0018 J0.0042
G1 X2.9461 Y0.7217
G3 X2.9486 Y0.7277 I-0.0018 J0.0043
G1 X2.941 Y0.7462
G3 X2.9349 Y0.7487 I-0.0042 J-0.0018
G1 X2.1845 Y0.4379
G2 X2.125 Y0.426 I-0.0595 J0.1436
X2.0655 Y0.4379 Z-0.1508 I0. J0.1554 F40.
G1 X1.3884 Y0.7183 Z-0.28
X1.3151 Y0.7487 F55.
G3 X1.3091 Y0.7462 I-0.0018 J-0.0042
G1 X1.3014 Y0.7277
G3 X1.3039 Y0.7217 I0.0043 J-0.0018
G1 X2.1232 Y0.3823
G3 X2.1268 I0.0018 J0.0042
G1 X2.9461 Y0.7217
G3 X2.9486 Y0.7277 I-0.0018 J0.0043
G1 X2.941 Y0.7462
G3 X2.9349 Y0.7487 I-0.0042 J-0.0018
G1 X2.1845 Y0.4379
G2 X2.0655 I-0.0595 J0.1436
G1 X1.3884 Y0.7183
G0 Z0.6
M9
G53 Z0.
M30
%
