%
(971-23-P-0008_SIDE BUMPER GUSSET_1508)
(T1  D=0.1508 CR=0. - ZMIN=-0.155 - FLAT END MILL)
G90 G94 G17 G91.1
G64 P0.001 Q0.001
G20
G53 G0 Z0.
(.3 CIRCLUAR THROUGH HOLE 2)
M9
T1 M6
S22000 M3
G4 P10.
G54
M7
G0 X6.3637 Y-9.0113
G43 Z0.6 H1
G0 Z0.13
G1 Z0.0651 F40.
G18 G2 X6.3788 Z0.05 I0.0151 K0.
G1 X6.3863
G17 G3 X6.3976 Y-9. I0. J0.0113
X6.3524 Z0.0327 I-0.0226 J0.
X6.3976 Z0.0154 I0.0226 J0.
X6.3524 Z-0.0018 I-0.0226 J0.
X6.3976 Z-0.0191 I0.0226 J0.
X6.3524 Z-0.0364 I-0.0226 J0.
X6.3976 Z-0.0537 I0.0226 J0.
X6.3524 Z-0.071 I-0.0226 J0.
X6.3976 Z-0.0882 I0.0226 J0.
X6.3524 Z-0.1055 I-0.0226 J0.
X6.3976 Z-0.1228 I0.0226 J0.
X6.3524 Z-0.1401 I-0.0226 J0.
X6.3956 Y-9.0094 Z-0.155 I0.0226 J0.
X6.3544 Y-8.9906 I-0.0206 J0.0094
X6.3956 Y-9.0094 I0.0206 J-0.0094
X6.39 Y-8.9944 I-0.0103 J0.0047
G1 X6.3831 Y-8.9913
X6.3804 Y-8.9901 Z-0.1547
X6.3779 Y-8.9889 Z-0.1539
X6.3755 Y-8.9878 Z-0.1525
X6.3734 Y-8.9869 Z-0.1506
X6.3717 Y-8.9861 Z-0.1483
X6.3705 Y-8.9855 Z-0.1457
X6.3697 Y-8.9851 Z-0.1429
X6.3694 Y-8.985 Z-0.1399
G0 Z0.4
X5.6137 Y-9.0113
Z0.13
G1 Z0.0651 F40.
G18 G2 X5.6288 Z0.05 I0.0151 K0.
G1 X5.6363
G17 G3 X5.6476 Y-9. I0. J0.0113
X5.6024 Z0.0327 I-0.0226 J0.
X5.6476 Z0.0154 I0.0226 J0.
X5.6024 Z-0.0018 I-0.0226 J0.
X5.6476 Z-0.0191 I0.0226 J0.
X5.6024 Z-0.0364 I-0.0226 J0.
X5.6476 Z-0.0537 I0.0226 J0.
X5.6024 Z-0.071 I-0.0226 J0.
X5.6476 Z-0.0882 I0.0226 J0.
X5.6024 Z-0.1055 I-0.0226 J0.
X5.6476 Z-0.1228 I0.0226 J0.
X5.6024 Z-0.1401 I-0.0226 J0.
X5.6456 Y-9.0094 Z-0.155 I0.0226 J0.
X5.6044 Y-8.9906 I-0.0206 J0.0094
X5.6456 Y-9.0094 I0.0206 J-0.0094
X5.64 Y-8.9944 I-0.0103 J0.0047
G1 X5.6331 Y-8.9913
X5.6304 Y-8.9901 Z-0.1547
X5.6279 Y-8.9889 Z-0.1539
X5.6255 Y-8.9878 Z-0.1525
X5.6234 Y-8.9869 Z-0.1506
X5.6217 Y-8.9861 Z-0.1483
X5.6205 Y-8.9855 Z-0.1457
X5.6197 Y-8.9851 Z-0.1429
X5.6194 Y-8.985 Z-0.1399
G0 Z0.4
X4.8637 Y-9.0113
Z0.13
G1 Z0.0651 F40.
G18 G2 X4.8788 Z0.05 I0.0151 K0.
G1 X4.8863
G17 G3 X4.8976 Y-9. I0. J0.0113
X4.8524 Z0.0327 I-0.0226 J0.
X4.8976 Z0.0154 I0.0226 J0.
X4.8524 Z-0.0018 I-0.0226 J0.
X4.8976 Z-0.0191 I0.0226 J0.
X4.8524 Z-0.0364 I-0.0226 J0.
X4.8976 Z-0.0537 I0.0226 J0.
X4.8524 Z-0.071 I-0.0226 J0.
X4.8976 Z-0.0882 I0.0226 J0.
X4.8524 Z-0.1055 I-0.0226 J0.
X4.8976 Z-0.1228 I0.0226 J0.
X4.8524 Z-0.1401 I-0.0226 J0.
X4.8956 Y-9.0094 Z-0.155 I0.0226 J0.
X4.8544 Y-8.9906 I-0.0206 J0.0094
X4.8956 Y-9.0094 I0.0206 J-0.0094
X4.89 Y-8.9944 I-0.0103 J0.0047
G1 X4.8831 Y-8.9913
X4.8804 Y-8.9901 Z-0.1547
X4.8779 Y-8.9889 Z-0.1539
X4.8755 Y-8.9878 Z-0.1525
X4.8734 Y-8.9869 Z-0.1506
X4.8717 Y-8.9861 Z-0.1483
X4.8705 Y-8.9855 Z-0.1457
X4.8697 Y-8.9851 Z-0.1429
X4.8694 Y-8.985 Z-0.1399
G0 Z0.4
X4.1137 Y-9.0113
Z0.13
G1 Z0.0651 F40.
G18 G2 X4.1288 Z0.05 I0.0151 K0.
G1 X4.1363
G17 G3 X4.1476 Y-9. I0. J0.0113
X4.1024 Z0.0327 I-0.0226 J0.
X4.1476 Z0.0154 I0.0226 J0.
X4.1024 Z-0.0018 I-0.0226 J0.
X4.1476 Z-0.0191 I0.0226 J0.
X4.1024 Z-0.0364 I-0.0226 J0.
X4.1476 Z-0.0537 I0.0226 J0.
X4.1024 Z-0.071 I-0.0226 J0.
X4.1476 Z-0.0882 I0.0226 J0.
X4.1024 Z-0.1055 I-0.0226 J0.
X4.1476 Z-0.1228 I0.0226 J0.
X4.1024 Z-0.1401 I-0.0226 J0.
X4.1456 Y-9.0094 Z-0.155 I0.0226 J0.
X4.1044 Y-8.9906 I-0.0206 J0.0094
X4.1456 Y-9.0094 I0.0206 J-0.0094
X4.14 Y-8.9944 I-0.0103 J0.0047
G1 X4.1331 Y-8.9913
X4.1304 Y-8.9901 Z-0.1547
X4.1279 Y-8.9889 Z-0.1539
X4.1255 Y-8.9878 Z-0.1525
X4.1234 Y-8.9869 Z-0.1506
X4.1217 Y-8.9861 Z-0.1483
X4.1205 Y-8.9855 Z-0.1457
X4.1197 Y-8.9851 Z-0.1429
X4.1194 Y-8.985 Z-0.1399
G0 Z0.4
X3.3637 Y-9.0113
Z0.13
G1 Z0.0651 F40.
G18 G2 X3.3788 Z0.05 I0.0151 K0.
G1 X3.3863
G17 G3 X3.3976 Y-9. I0. J0.0113
X3.3524 Z0.0327 I-0.0226 J0.
X3.3976 Z0.0154 I0.0226 J0.
X3.3524 Z-0.0018 I-0.0226 J0.
X3.3976 Z-0.0191 I0.0226 J0.
X3.3524 Z-0.0364 I-0.0226 J0.
X3.3976 Z-0.0537 I0.0226 J0.
X3.3524 Z-0.071 I-0.0226 J0.
X3.3976 Z-0.0882 I0.0226 J0.
X3.3524 Z-0.1055 I-0.0226 J0.
X3.3976 Z-0.1228 I0.0226 J0.
X3.3524 Z-0.1401 I-0.0226 J0.
X3.3956 Y-9.0094 Z-0.155 I0.0226 J0.
X3.3544 Y-8.9906 I-0.0206 J0.0094
X3.3956 Y-9.0094 I0.0206 J-0.0094
X3.39 Y-8.9944 I-0.0103 J0.0047
G1 X3.3831 Y-8.9913
X3.3804 Y-8.9901 Z-0.1547
X3.3779 Y-8.9889 Z-0.1539
X3.3755 Y-8.9878 Z-0.1525
X3.3734 Y-8.9869 Z-0.1506
X3.3717 Y-8.9861 Z-0.1483
X3.3705 Y-8.9855 Z-0.1457
X3.3697 Y-8.9851 Z-0.1429
X3.3694 Y-8.985 Z-0.1399
G0 Z0.4
X2.6137 Y-9.0113
Z0.13
G1 Z0.0651 F40.
G18 G2 X2.6288 Z0.05 I0.0151 K0.
G1 X2.6363
G17 G3 X2.6476 Y-9. I0. J0.0113
X2.6024 Z0.0327 I-0.0226 J0.
X2.6476 Z0.0154 I0.0226 J0.
X2.6024 Z-0.0018 I-0.0226 J0.
X2.6476 Z-0.0191 I0.0226 J0.
X2.6024 Z-0.0364 I-0.0226 J0.
X2.6476 Z-0.0537 I0.0226 J0.
X2.6024 Z-0.071 I-0.0226 J0.
X2.6476 Z-0.0882 I0.0226 J0.
X2.6024 Z-0.1055 I-0.0226 J0.
X2.6476 Z-0.1228 I0.0226 J0.
X2.6024 Z-0.1401 I-0.0226 J0.
X2.6456 Y-9.0094 Z-0.155 I0.0226 J0.
X2.6044 Y-8.9906 I-0.0206 J0.0094
X2.6456 Y-9.0094 I0.0206 J-0.0094
X2.64 Y-8.9944 I-0.0103 J0.0047
G1 X2.6331 Y-8.9913
X2.6304 Y-8.9901 Z-0.1547
X2.6279 Y-8.9889 Z-0.1539
X2.6255 Y-8.9878 Z-0.1525
X2.6234 Y-8.9869 Z-0.1506
X2.6217 Y-8.9861 Z-0.1483
X2.6205 Y-8.9855 Z-0.1457
X2.6197 Y-8.9851 Z-0.1429
X2.6194 Y-8.985 Z-0.1399
G0 Z0.4
X4.2363 Y-9.8637
Z0.13
G1 Z0.0651 F40.
G18 G3 X4.2212 Z0.05 I-0.0151 K0.
G1 X4.2137
G17 G3 X4.2024 Y-9.875 I0. J-0.0113
X4.2476 Z0.0327 I0.0226 J0.
X4.2024 Z0.0154 I-0.0226 J0.
X4.2476 Z-0.0018 I0.0226 J0.
X4.2024 Z-0.0191 I-0.0226 J0.
X4.2476 Z-0.0364 I0.0226 J0.
X4.2024 Z-0.0537 I-0.0226 J0.
X4.2476 Z-0.071 I0.0226 J0.
X4.2024 Z-0.0882 I-0.0226 J0.
X4.2476 Z-0.1055 I0.0226 J0.
X4.2024 Z-0.1228 I-0.0226 J0.
X4.2476 Z-0.1401 I0.0226 J0.
X4.2044 Y-9.8656 Z-0.155 I-0.0226 J0.
X4.2456 Y-9.8844 I0.0206 J-0.0094
X4.2044 Y-9.8656 I-0.0206 J0.0094
X4.21 Y-9.8806 I0.0103 J-0.0047
G1 X4.2169 Y-9.8837
X4.2196 Y-9.8849 Z-0.1547
X4.2221 Y-9.8861 Z-0.1539
X4.2245 Y-9.8872 Z-0.1525
X4.2266 Y-9.8881 Z-0.1506
X4.2283 Y-9.8889 Z-0.1483
X4.2295 Y-9.8895 Z-0.1457
X4.2303 Y-9.8899 Z-0.1429
X4.2306 Y-9.89 Z-0.1399
G0 Z0.4
X4.7863 Y-9.8637
Z0.13
G1 Z0.0651 F40.
G18 G3 X4.7712 Z0.05 I-0.0151 K0.
G1 X4.7637
G17 G3 X4.7524 Y-9.875 I0. J-0.0113
X4.7976 Z0.0327 I0.0226 J0.
X4.7524 Z0.0154 I-0.0226 J0.
X4.7976 Z-0.0018 I0.0226 J0.
X4.7524 Z-0.0191 I-0.0226 J0.
X4.7976 Z-0.0364 I0.0226 J0.
X4.7524 Z-0.0537 I-0.0226 J0.
X4.7976 Z-0.071 I0.0226 J0.
X4.7524 Z-0.0882 I-0.0226 J0.
X4.7976 Z-0.1055 I0.0226 J0.
X4.7524 Z-0.1228 I-0.0226 J0.
X4.7976 Z-0.1401 I0.0226 J0.
X4.7544 Y-9.8656 Z-0.155 I-0.0226 J0.
X4.7956 Y-9.8844 I0.0206 J-0.0094
X4.7544 Y-9.8656 I-0.0206 J0.0094
X4.76 Y-9.8806 I0.0103 J-0.0047
G1 X4.7669 Y-9.8837
X4.7696 Y-9.8849 Z-0.1547
X4.7721 Y-9.8861 Z-0.1539
X4.7745 Y-9.8872 Z-0.1525
X4.7766 Y-9.8881 Z-0.1506
X4.7783 Y-9.8889 Z-0.1483
X4.7795 Y-9.8895 Z-0.1457
X4.7803 Y-9.8899 Z-0.1429
X4.7806 Y-9.89 Z-0.1399
G0 Z0.4
X4.7863 Y-10.6137
Z0.13
G1 Z0.0651 F40.
G18 G3 X4.7712 Z0.05 I-0.0151 K0.
G1 X4.7637
G17 G3 X4.7524 Y-10.625 I0. J-0.0113
X4.7976 Z0.0327 I0.0226 J0.
X4.7524 Z0.0154 I-0.0226 J0.
X4.7976 Z-0.0018 I0.0226 J0.
X4.7524 Z-0.0191 I-0.0226 J0.
X4.7976 Z-0.0364 I0.0226 J0.
X4.7524 Z-0.0537 I-0.0226 J0.
X4.7976 Z-0.071 I0.0226 J0.
X4.7524 Z-0.0882 I-0.0226 J0.
X4.7976 Z-0.1055 I0.0226 J0.
X4.7524 Z-0.1228 I-0.0226 J0.
X4.7976 Z-0.1401 I0.0226 J0.
X4.7544 Y-10.6156 Z-0.155 I-0.0226 J0.
X4.7956 Y-10.6344 I0.0206 J-0.0094
X4.7544 Y-10.6156 I-0.0206 J0.0094
X4.76 Y-10.6306 I0.0103 J-0.0047
G1 X4.7669 Y-10.6337
X4.7696 Y-10.6349 Z-0.1547
X4.7721 Y-10.6361 Z-0.1539
X4.7745 Y-10.6372 Z-0.1525
X4.7766 Y-10.6381 Z-0.1506
X4.7783 Y-10.6389 Z-0.1483
X4.7795 Y-10.6395 Z-0.1457
X4.7803 Y-10.6399 Z-0.1429
X4.7806 Y-10.64 Z-0.1399
G0 Z0.4
X4.2363 Y-10.6137
Z0.13
G1 Z0.0651 F40.
G18 G3 X4.2212 Z0.05 I-0.0151 K0.
G1 X4.2137
G17 G3 X4.2024 Y-10.625 I0. J-0.0113
X4.2476 Z0.0327 I0.0226 J0.
X4.2024 Z0.0154 I-0.0226 J0.
X4.2476 Z-0.0018 I0.0226 J0.
X4.2024 Z-0.0191 I-0.0226 J0.
X4.2476 Z-0.0364 I0.0226 J0.
X4.2024 Z-0.0537 I-0.0226 J0.
X4.2476 Z-0.071 I0.0226 J0.
X4.2024 Z-0.0882 I-0.0226 J0.
X4.2476 Z-0.1055 I0.0226 J0.
X4.2024 Z-0.1228 I-0.0226 J0.
X4.2476 Z-0.1401 I0.0226 J0.
X4.2044 Y-10.6156 Z-0.155 I-0.0226 J0.
X4.2456 Y-10.6344 I0.0206 J-0.0094
X4.2044 Y-10.6156 I-0.0206 J0.0094
X4.21 Y-10.6306 I0.0103 J-0.0047
G1 X4.2169 Y-10.6337
X4.2196 Y-10.6349 Z-0.1547
X4.2221 Y-10.6361 Z-0.1539
X4.2245 Y-10.6372 Z-0.1525
X4.2266 Y-10.6381 Z-0.1506
X4.2283 Y-10.6389 Z-0.1483
X4.2295 Y-10.6395 Z-0.1457
X4.2303 Y-10.6399 Z-0.1429
X4.2306 Y-10.64 Z-0.1399
G0 Z0.4
X4.2363 Y-11.3637
Z0.13
G1 Z0.0651 F40.
G18 G3 X4.2212 Z0.05 I-0.0151 K0.
G1 X4.2137
G17 G3 X4.2024 Y-11.375 I0. J-0.0113
X4.2476 Z0.0327 I0.0226 J0.
X4.2024 Z0.0154 I-0.0226 J0.
X4.2476 Z-0.0018 I0.0226 J0.
X4.2024 Z-0.0191 I-0.0226 J0.
X4.2476 Z-0.0364 I0.0226 J0.
X4.2024 Z-0.0537 I-0.0226 J0.
X4.2476 Z-0.071 I0.0226 J0.
X4.2024 Z-0.0882 I-0.0226 J0.
X4.2476 Z-0.1055 I0.0226 J0.
X4.2024 Z-0.1228 I-0.0226 J0.
X4.2476 Z-0.1401 I0.0226 J0.
X4.2044 Y-11.3656 Z-0.155 I-0.0226 J0.
X4.2456 Y-11.3844 I0.0206 J-0.0094
X4.2044 Y-11.3656 I-0.0206 J0.0094
X4.21 Y-11.3806 I0.0103 J-0.0047
G1 X4.2169 Y-11.3837
X4.2196 Y-11.3849 Z-0.1547
X4.2221 Y-11.3861 Z-0.1539
X4.2245 Y-11.3872 Z-0.1525
X4.2266 Y-11.3881 Z-0.1506
X4.2283 Y-11.3889 Z-0.1483
X4.2295 Y-11.3895 Z-0.1457
X4.2303 Y-11.3899 Z-0.1429
X4.2306 Y-11.39 Z-0.1399
G0 Z0.4
X4.7863 Y-11.3637
Z0.13
G1 Z0.0651 F40.
G18 G3 X4.7712 Z0.05 I-0.0151 K0.
G1 X4.7637
G17 G3 X4.7524 Y-11.375 I0. J-0.0113
X4.7976 Z0.0327 I0.0226 J0.
X4.7524 Z0.0154 I-0.0226 J0.
X4.7976 Z-0.0018 I0.0226 J0.
X4.7524 Z-0.0191 I-0.0226 J0.
X4.7976 Z-0.0364 I0.0226 J0.
X4.7524 Z-0.0537 I-0.0226 J0.
X4.7976 Z-0.071 I0.0226 J0.
X4.7524 Z-0.0882 I-0.0226 J0.
X4.7976 Z-0.1055 I0.0226 J0.
X4.7524 Z-0.1228 I-0.0226 J0.
X4.7976 Z-0.1401 I0.0226 J0.
X4.7544 Y-11.3656 Z-0.155 I-0.0226 J0.
X4.7956 Y-11.3844 I0.0206 J-0.0094
X4.7544 Y-11.3656 I-0.0206 J0.0094
X4.76 Y-11.3806 I0.0103 J-0.0047
G1 X4.7669 Y-11.3837
X4.7696 Y-11.3849 Z-0.1547
X4.7721 Y-11.3861 Z-0.1539
X4.7745 Y-11.3872 Z-0.1525
X4.7766 Y-11.3881 Z-0.1506
X4.7783 Y-11.3889 Z-0.1483
X4.7795 Y-11.3895 Z-0.1457
X4.7803 Y-11.3899 Z-0.1429
X4.7806 Y-11.39 Z-0.1399
G0 Z0.4
X4.7863 Y-12.1137
Z0.13
G1 Z0.0651 F40.
G18 G3 X4.7712 Z0.05 I-0.0151 K0.
G1 X4.7637
G17 G3 X4.7524 Y-12.125 I0. J-0.0113
X4.7976 Z0.0327 I0.0226 J0.
X4.7524 Z0.0154 I-0.0226 J0.
X4.7976 Z-0.0018 I0.0226 J0.
X4.7524 Z-0.0191 I-0.0226 J0.
X4.7976 Z-0.0364 I0.0226 J0.
X4.7524 Z-0.0537 I-0.0226 J0.
X4.7976 Z-0.071 I0.0226 J0.
X4.7524 Z-0.0882 I-0.0226 J0.
X4.7976 Z-0.1055 I0.0226 J0.
X4.7524 Z-0.1228 I-0.0226 J0.
X4.7976 Z-0.1401 I0.0226 J0.
X4.7544 Y-12.1156 Z-0.155 I-0.0226 J0.
X4.7956 Y-12.1344 I0.0206 J-0.0094
X4.7544 Y-12.1156 I-0.0206 J0.0094
X4.76 Y-12.1306 I0.0103 J-0.0047
G1 X4.7669 Y-12.1337
X4.7696 Y-12.1349 Z-0.1547
X4.7721 Y-12.1361 Z-0.1539
X4.7745 Y-12.1372 Z-0.1525
X4.7766 Y-12.1381 Z-0.1506
X4.7783 Y-12.1389 Z-0.1483
X4.7795 Y-12.1395 Z-0.1457
X4.7803 Y-12.1399 Z-0.1429
X4.7806 Y-12.14 Z-0.1399
G0 Z0.4
X4.2363 Y-12.1137
Z0.13
G1 Z0.0651 F40.
G18 G3 X4.2212 Z0.05 I-0.0151 K0.
G1 X4.2137
G17 G3 X4.2024 Y-12.125 I0. J-0.0113
X4.2476 Z0.0327 I0.0226 J0.
X4.2024 Z0.0154 I-0.0226 J0.
X4.2476 Z-0.0018 I0.0226 J0.
X4.2024 Z-0.0191 I-0.0226 J0.
X4.2476 Z-0.0364 I0.0226 J0.
X4.2024 Z-0.0537 I-0.0226 J0.
X4.2476 Z-0.071 I0.0226 J0.
X4.2024 Z-0.0882 I-0.0226 J0.
X4.2476 Z-0.1055 I0.0226 J0.
X4.2024 Z-0.1228 I-0.0226 J0.
X4.2476 Z-0.1401 I0.0226 J0.
X4.2044 Y-12.1156 Z-0.155 I-0.0226 J0.
X4.2456 Y-12.1344 I0.0206 J-0.0094
X4.2044 Y-12.1156 I-0.0206 J0.0094
X4.21 Y-12.1306 I0.0103 J-0.0047
G1 X4.2169 Y-12.1337
X4.2196 Y-12.1349 Z-0.1547
X4.2221 Y-12.1361 Z-0.1539
X4.2245 Y-12.1372 Z-0.1525
X4.2266 Y-12.1381 Z-0.1506
X4.2283 Y-12.1389 Z-0.1483
X4.2295 Y-12.1395 Z-0.1457
X4.2303 Y-12.1399 Z-0.1429
X4.2306 Y-12.14 Z-0.1399
G0 Z0.6
(2D SLOT CUT)
M7
G0 X3.5558 Y-8.4246
Z0.6
Z0.2
G1 Z0.1 F13.333
X4.5625 Z-0.0775 F40.
X5.6485 F55.
Z-0.075
X6.3993
Z-0.0775 F13.333
X6.5 F55.
G2 X6.7004 Y-8.625 I0. J-0.2004
G1 Y-9.375
G2 X6.5 Y-9.5754 I-0.2004 J0.
G1 X5.75
G3 X5.0754 Y-10.25 I0. J-0.6746
G1 Y-10.6566
G3 X5.4127 Y-11.2408 I0.6746 J0.
G1 X6.7252 Y-11.9986
G2 X6.8254 Y-12.1722 I-0.1002 J-0.1736
G1 Y-12.375
G2 X6.625 Y-12.5754 I-0.2004 J0.
G1 X6.3458
Z-0.075
X5.595
Z-0.0775 F13.333
X4.3335 F55.
Z-0.075
X3.5827
Z-0.0775 F13.333
X3.375 F55.
G2 X3.1746 Y-12.375 I0. J0.2004
G1 Y-12.1722
G2 X3.2748 Y-11.9986 I0.2004 J0.
G1 X3.5873 Y-11.8182
G3 X3.9246 Y-11.234 I-0.3373 J0.5842
G1 Y-10.25
G3 X3.25 Y-9.5754 I-0.6746 J0.
G1 X2.5
G2 X2.2996 Y-9.375 I0. J0.2004
G1 Y-8.625
G2 X2.5 Y-8.4246 I0.2004 J0.
G1 X2.718
Z-0.075
X3.4688
Z-0.0775 F13.333
X4.5625 F55.
X5.0731 Z-0.155 F40.
X5.6485 F55.
Z-0.075
X6.3993
Z-0.155 F13.333
X6.5 F55.
G2 X6.7004 Y-8.625 I0. J-0.2004
G1 Y-9.375
G2 X6.5 Y-9.5754 I-0.2004 J0.
G1 X5.75
G3 X5.0754 Y-10.25 I0. J-0.6746
G1 Y-10.6566
G3 X5.4127 Y-11.2408 I0.6746 J0.
G1 X6.7252 Y-11.9986
G2 X6.8254 Y-12.1722 I-0.1002 J-0.1736
G1 Y-12.375
G2 X6.625 Y-12.5754 I-0.2004 J0.
G1 X6.3458
Z-0.075
X5.595
Z-0.155 F13.333
X4.3335 F55.
Z-0.075
X3.5827
Z-0.155 F13.333
X3.375 F55.
G2 X3.1746 Y-12.375 I0. J0.2004
G1 Y-12.1722
G2 X3.2748 Y-11.9986 I0.2004 J0.
G1 X3.5873 Y-11.8182
G3 X3.9246 Y-11.234 I-0.3373 J0.5842
G1 Y-10.25
G3 X3.25 Y-9.5754 I-0.6746 J0.
G1 X2.5
G2 X2.2996 Y-9.375 I0. J0.2004
G1 Y-8.625
G2 X2.5 Y-8.4246 I0.2004 J0.
G1 X2.718
Z-0.075
X3.4688
Z-0.155 F13.333
X5.0731 F55.
G0 Z0.6
M9
G53 Z0.
M30
%
