%
(971-23-P-0128_PI MOUNT MOUNTING PLATE_1565)
(T1  D=0.1565 CR=0. - ZMIN=-0.145 - FLAT END MILL)
G90 G94 G17 G91.1
G64 P0.001 Q0.001
G20
G53 G0 Z0.
(.3 CIRCLUAR THROUGH HOLE)
M9
T1 M6
S22000 M3
G4 P10.
G54
M7
G0 X-11.3114 Y19.0099
G43 Z0.6 H1
G0 Z0.0861
G1 Z0.0218 F40.
G18 G3 X-11.327 Z0.0061 I-0.0156 K0.
G1 X-11.3349
G17 G3 X-11.3447 Y19. I0. J-0.0099
X-11.3052 Z-0.0439 I0.0197 J0.
X-11.3255 Y19.0197 Z-0.0693 I-0.0198 J0.
X-11.3447 Y18.9991 Z-0.0946 I0.0005 J-0.0197
X-11.3238 Y18.9803 Z-0.1198 I0.0197 J0.0009
X-11.3053 Y19.0014 Z-0.145 I-0.0012 J0.0197
X-11.3447 Y18.9986 I-0.0197 J-0.0014
X-11.3053 Y19.0014 I0.0197 J0.0014
X-11.3158 Y19.0105 I-0.0098 J-0.0007
G1 X-11.3237 Y19.01
X-11.3267 Y19.0098 Z-0.1447
X-11.3296 Y19.0096 Z-0.1438
X-11.3323 Y19.0094 Z-0.1424
X-11.3347 Y19.0092 Z-0.1404
X-11.3366 Y19.0091 Z-0.138
X-11.3381 Y19.009 Z-0.1353
X-11.339 Y19.0089 Z-0.1324
X-11.3393 Z-0.1294
G0 Z0.4
X-11.325 Y18.5
Z0.1143
G1 Z0.05 F40.
X-11.3256 Y18.5006
G3 X-11.3262 Y18.5 I0. J-0.0006
X-11.3238 Z0. I0.0012 J0.
X-11.3243 Y18.501 Z-0.015 I-0.0012 J0.
X-11.3257 Y18.499 Z-0.065 I-0.0007 J-0.001
X-11.3246 Y18.4988 Z-0.08 I0.0007 J0.001
X-11.3254 Y18.5012 Z-0.13 I-0.0004 J0.0012
X-11.3262 Y18.5004 Z-0.145 I0.0004 J-0.0012
X-11.3238 Y18.4996 I0.0012 J-0.0004
X-11.3262 Y18.5004 I-0.0012 J0.0004
X-11.3258 Y18.4996 I0.0006 J-0.0002
G1 X-11.325 Y18.5
G0 Z0.4
Y17.
Z0.1143
G1 Z0.05 F40.
X-11.3256 Y17.0006
G3 X-11.3262 Y17. I0. J-0.0006
X-11.3238 Z0. I0.0012 J0.
X-11.3243 Y17.001 Z-0.015 I-0.0012 J0.
X-11.3257 Y16.999 Z-0.065 I-0.0007 J-0.001
X-11.3246 Y16.9988 Z-0.08 I0.0007 J0.001
X-11.3254 Y17.0012 Z-0.13 I-0.0004 J0.0012
X-11.3262 Y17.0004 Z-0.145 I0.0004 J-0.0012
X-11.3238 Y16.9996 I0.0012 J-0.0004
X-11.3262 Y17.0004 I-0.0012 J0.0004
X-11.3258 Y16.9996 I0.0006 J-0.0002
G1 X-11.325 Y17.
G0 Z0.4
Y15.5
Z0.1143
G1 Z0.05 F40.
X-11.3256 Y15.5006
G3 X-11.3262 Y15.5 I0. J-0.0006
X-11.3238 Z0. I0.0012 J0.
X-11.3243 Y15.501 Z-0.015 I-0.0012 J0.
X-11.3257 Y15.499 Z-0.065 I-0.0007 J-0.001
X-11.3246 Y15.4988 Z-0.08 I0.0007 J0.001
X-11.3254 Y15.5012 Z-0.13 I-0.0004 J0.0012
X-11.3262 Y15.5004 Z-0.145 I0.0004 J-0.0012
X-11.3238 Y15.4996 I0.0012 J-0.0004
X-11.3262 Y15.5004 I-0.0012 J0.0004
X-11.3258 Y15.4996 I0.0006 J-0.0002
G1 X-11.325 Y15.5
G0 Z0.4
X-11.3114 Y15.0099
Z0.0861
G1 Z0.0218 F40.
G18 G3 X-11.327 Z0.0061 I-0.0156 K0.
G1 X-11.3349
G17 G3 X-11.3447 Y15. I0. J-0.0099
X-11.3052 Z-0.0439 I0.0197 J0.
X-11.3255 Y15.0197 Z-0.0693 I-0.0198 J0.
X-11.3447 Y14.9991 Z-0.0946 I0.0005 J-0.0197
X-11.3238 Y14.9803 Z-0.1198 I0.0197 J0.0009
X-11.3053 Y15.0014 Z-0.145 I-0.0012 J0.0197
X-11.3447 Y14.9986 I-0.0197 J-0.0014
X-11.3053 Y15.0014 I0.0197 J0.0014
X-11.3158 Y15.0105 I-0.0098 J-0.0007
G1 X-11.3237 Y15.01
X-11.3267 Y15.0098 Z-0.1447
X-11.3296 Y15.0096 Z-0.1438
X-11.3323 Y15.0094 Z-0.1424
X-11.3347 Y15.0092 Z-0.1404
X-11.3366 Y15.0091 Z-0.138
X-11.3381 Y15.009 Z-0.1353
X-11.339 Y15.0089 Z-0.1324
X-11.3393 Z-0.1294
G0 Z0.6
(2D SLOT CUT)
M7
G0 X-10.8718 Y18.3895
Z0.6
Z0.2
G1 Z0.1 F13.333
Y17. Z-0.145 F40.
Y16.632 F55.
Z-0.045
Y15.8755
Z-0.145 F13.333
Y14.85 F55.
G2 X-11.05 Y14.6717 I-0.1783 J0.
G1 X-11.6
G2 X-11.7782 Y14.85 I0. J0.1783
G1 Y17.8464
Z-0.045
Y18.6029
Z-0.145 F13.333
Y19.15 F55.
G2 X-11.6 Y19.3283 I0.1782 J0.
G1 X-11.05
G2 X-10.8718 Y19.15 I0. J-0.1783
G1 Y17.
G0 Z0.6
M9
G53 Z0.
M30
%
