%
(971-23-P-0128_PI MOUNT MOUNTING PLATE_1540)
(T1  D=0.154 CR=0. - ZMIN=-0.145 - FLAT END MILL)
G90 G94 G17 G91.1
G64 P0.001 Q0.001
G20
G53 G0 Z0.
(.3 CIRCLUAR THROUGH HOLE)
M9
T1 M6
S22000 M3
G4 P10.
G54
M7
G0 X-11.3124 Y19.0105
G43 Z0.6 H1
G0 Z0.0861
G1 Z0.0215 F40.
G18 G3 X-11.3278 Z0.0061 I-0.0154 K0.
G1 X-11.3355
G17 G3 X-11.346 Y19. I0. J-0.0105
X-11.3248 Y18.979 Z-0.0191 I0.021 J0.
X-11.304 Y19.0005 Z-0.0443 I-0.0002 J0.021
X-11.3257 Y19.021 Z-0.0694 I-0.021 J-0.0005
X-11.346 Y18.999 Z-0.0946 I0.0007 J-0.021
X-11.3238 Y18.979 Z-0.1198 I0.021 J0.001
X-11.3041 Y19.0015 Z-0.145 I-0.0012 J0.021
X-11.3459 Y18.9985 I-0.0209 J-0.0015
X-11.3041 Y19.0015 I0.0209 J0.0015
X-11.3153 Y19.0112 I-0.0105 J-0.0007
G1 X-11.3229 Y19.0107
X-11.3259 Y19.0105 Z-0.1447
X-11.3288 Y19.0103 Z-0.1438
X-11.3315 Y19.0101 Z-0.1424
X-11.3338 Y19.0099 Z-0.1405
X-11.3357 Y19.0098 Z-0.1382
X-11.3371 Y19.0097 Z-0.1355
X-11.338 Y19.0096 Z-0.1326
X-11.3383 Z-0.1296
G0 Z0.4
X-11.325 Y18.5
Z0.1146
G1 Z0.05 F40.
X-11.3262 Y18.5013
G3 X-11.3275 Y18.5 I0. J-0.0013
X-11.3225 Z0. I0.0025 J0.
X-11.3235 Y18.502 Z-0.015 I-0.0025 J0.
X-11.3265 Y18.498 Z-0.065 I-0.0015 J-0.002
X-11.3242 Y18.4976 Z-0.08 I0.0015 J0.002
X-11.3258 Y18.5024 Z-0.13 I-0.0008 J0.0024
X-11.3274 Y18.5008 Z-0.145 I0.0008 J-0.0024
X-11.3226 Y18.4992 I0.0024 J-0.0008
X-11.3274 Y18.5008 I-0.0024 J0.0008
X-11.3266 Y18.4992 I0.0012 J-0.0004
G1 X-11.325 Y18.5
G0 Z0.4
Y17.
Z0.1146
G1 Z0.05 F40.
X-11.3262 Y17.0013
G3 X-11.3275 Y17. I0. J-0.0013
X-11.3225 Z0. I0.0025 J0.
X-11.3235 Y17.002 Z-0.015 I-0.0025 J0.
X-11.3265 Y16.998 Z-0.065 I-0.0015 J-0.002
X-11.3242 Y16.9976 Z-0.08 I0.0015 J0.002
X-11.3258 Y17.0024 Z-0.13 I-0.0008 J0.0024
X-11.3274 Y17.0008 Z-0.145 I0.0008 J-0.0024
X-11.3226 Y16.9992 I0.0024 J-0.0008
X-11.3274 Y17.0008 I-0.0024 J0.0008
X-11.3266 Y16.9992 I0.0012 J-0.0004
G1 X-11.325 Y17.
G0 Z0.4
Y15.5
Z0.1146
G1 Z0.05 F40.
X-11.3262 Y15.5013
G3 X-11.3275 Y15.5 I0. J-0.0012
X-11.3225 Z0. I0.0025 J0.
X-11.3235 Y15.502 Z-0.015 I-0.0025 J0.
X-11.3265 Y15.498 Z-0.065 I-0.0015 J-0.002
X-11.3242 Y15.4976 Z-0.08 I0.0015 J0.002
X-11.3258 Y15.5024 Z-0.13 I-0.0008 J0.0024
X-11.3274 Y15.5008 Z-0.145 I0.0008 J-0.0024
X-11.3226 Y15.4992 I0.0024 J-0.0008
X-11.3274 Y15.5008 I-0.0024 J0.0008
X-11.3266 Y15.4992 I0.0012 J-0.0004
G1 X-11.325 Y15.5
G0 Z0.4
X-11.3124 Y15.0105
Z0.0861
G1 Z0.0215 F40.
G18 G3 X-11.3278 Z0.0061 I-0.0154 K0.
G1 X-11.3355
G17 G3 X-11.346 Y15. I0. J-0.0105
X-11.3248 Y14.979 Z-0.0191 I0.021 J0.
X-11.304 Y15.0005 Z-0.0443 I-0.0002 J0.021
X-11.3257 Y15.021 Z-0.0694 I-0.021 J-0.0005
X-11.346 Y14.999 Z-0.0946 I0.0007 J-0.021
X-11.3238 Y14.979 Z-0.1198 I0.021 J0.001
X-11.3041 Y15.0015 Z-0.145 I-0.0012 J0.021
X-11.3459 Y14.9985 I-0.0209 J-0.0015
X-11.3041 Y15.0015 I0.0209 J0.0015
X-11.3153 Y15.0112 I-0.0105 J-0.0007
G1 X-11.3229 Y15.0107
X-11.3259 Y15.0105 Z-0.1447
X-11.3288 Y15.0103 Z-0.1438
X-11.3315 Y15.0101 Z-0.1424
X-11.3338 Y15.0099 Z-0.1405
X-11.3357 Y15.0098 Z-0.1382
X-11.3371 Y15.0097 Z-0.1355
X-11.338 Y15.0096 Z-0.1326
X-11.3383 Z-0.1296
G0 Z0.6
(2D SLOT CUT)
M7
G0 X-10.873 Y18.3895
Z0.6
Z0.2
G1 Z0.1 F13.333
Y17. Z-0.145 F40.
Y16.6308 F55.
Z-0.045
Y15.8768
Z-0.145 F13.333
Y14.85 F55.
G2 X-11.05 Y14.673 I-0.177 J0.
G1 X-11.6
G2 X-11.777 Y14.85 I0. J0.177
G1 Y17.8476
Z-0.045
Y18.6016
Z-0.145 F13.333
Y19.15 F55.
G2 X-11.6 Y19.327 I0.177 J0.
G1 X-11.05
G2 X-10.873 Y19.15 I0. J-0.177
G1 Y17.
G0 Z0.6
M9
G53 Z0.
M30
%
