%
(971-23-P-0014_GEARBOX PLATE 2_1554)
(T1  D=0.1554 CR=0. - ZMIN=-0.2175 - FLAT END MILL)
G90 G94 G17 G91.1
G64 P0.001 Q0.001
G20
G53 G0 Z0.
(.3 CIRCLUAR THROUGH HOLE 2)
M9
T1 M6
S22000 M3
G4 P10.
G54
M7
G0 X1.8598 Y0.5501
G43 Z0.6 H1
G0 Z0.13
G1 Z0.0655 F40.
G19 G3 Y0.5656 Z0.05 J0.0155 K0.
G1 Y0.5734
G17 G3 X1.8484 Y0.5848 I-0.0114 J0.
Y0.5392 Z0.0323 I0. J-0.0228
Y0.5848 Z0.0146 I0. J0.0228
Y0.5392 Z-0.0032 I0. J-0.0228
Y0.5848 Z-0.0209 I0. J0.0228
Y0.5392 Z-0.0386 I0. J-0.0228
Y0.5848 Z-0.0563 I0. J0.0228
Y0.5392 Z-0.074 I0. J-0.0228
Y0.5848 Z-0.0918 I0. J0.0228
Y0.5392 Z-0.1095 I0. J-0.0228
Y0.5848 Z-0.1272 I0. J0.0228
Y0.5392 Z-0.1449 I0. J-0.0228
Y0.5848 Z-0.1627 I0. J0.0228
Y0.5392 Z-0.1804 I0. J-0.0228
Y0.5848 Z-0.1981 I0. J0.0228
X1.8259 Y0.5586 Z-0.2078 I0. J-0.0228
X1.8552 Y0.5402 Z-0.2175 I0.0225 J0.0034
X1.8417 Y0.5838 I-0.0067 J0.0218
X1.8552 Y0.5402 I0.0067 J-0.0218
X1.8627 Y0.5545 I-0.0034 J0.0109
G1 X1.8604 Y0.5619
X1.8595 Y0.5648 Z-0.2172
X1.8586 Y0.5676 Z-0.2163
X1.8579 Y0.5701 Z-0.2149
X1.8572 Y0.5724 Z-0.2129
X1.8566 Y0.5742 Z-0.2106
X1.8562 Y0.5756 Z-0.2079
X1.8559 Y0.5765 Z-0.205
X1.8558 Y0.5767 Z-0.202
G0 Z0.4
X3.4451 Y1.2478
Z0.13
G1 Z0.0655 F40.
G19 G3 Y1.2634 Z0.05 J0.0155 K0.
G1 Y1.2711
G17 G3 X3.4337 Y1.2825 I-0.0114 J0.
Y1.2369 Z0.0323 I0. J-0.0228
Y1.2825 Z0.0146 I0. J0.0228
Y1.2369 Z-0.0032 I0. J-0.0228
Y1.2825 Z-0.0209 I0. J0.0228
Y1.2369 Z-0.0386 I0. J-0.0228
Y1.2825 Z-0.0563 I0. J0.0228
Y1.2369 Z-0.074 I0. J-0.0228
Y1.2825 Z-0.0918 I0. J0.0228
Y1.2369 Z-0.1095 I0. J-0.0228
Y1.2825 Z-0.1272 I0. J0.0228
Y1.2369 Z-0.1449 I0. J-0.0228
Y1.2825 Z-0.1627 I0. J0.0228
Y1.2369 Z-0.1804 I0. J-0.0228
Y1.2825 Z-0.1981 I0. J0.0228
X3.4112 Y1.2563 Z-0.2078 I0. J-0.0228
X3.4405 Y1.2379 Z-0.2175 I0.0225 J0.0034
X3.427 Y1.2815 I-0.0067 J0.0218
X3.4405 Y1.2379 I0.0067 J-0.0218
X3.448 Y1.2522 I-0.0034 J0.0109
G1 X3.4457 Y1.2596
X3.4448 Y1.2625 Z-0.2172
X3.4439 Y1.2653 Z-0.2163
X3.4432 Y1.2679 Z-0.2149
X3.4425 Y1.2701 Z-0.2129
X3.4419 Y1.272 Z-0.2106
X3.4415 Y1.2733 Z-0.2079
X3.4412 Y1.2742 Z-0.205
X3.4411 Y1.2745 Z-0.202
G0 Z0.4
X3.0423 Y2.1631
Z0.13
G1 Z0.0655 F40.
G19 G3 Y2.1786 Z0.05 J0.0155 K0.
G1 Y2.1864
G17 G3 X3.0309 Y2.1978 I-0.0114 J0.
Y2.1522 Z0.0323 I0. J-0.0228
Y2.1978 Z0.0146 I0. J0.0228
Y2.1522 Z-0.0032 I0. J-0.0228
Y2.1978 Z-0.0209 I0. J0.0228
Y2.1522 Z-0.0386 I0. J-0.0228
Y2.1978 Z-0.0563 I0. J0.0228
Y2.1522 Z-0.074 I0. J-0.0228
Y2.1978 Z-0.0918 I0. J0.0228
Y2.1522 Z-0.1095 I0. J-0.0228
Y2.1978 Z-0.1272 I0. J0.0228
Y2.1522 Z-0.1449 I0. J-0.0228
Y2.1978 Z-0.1627 I0. J0.0228
Y2.1522 Z-0.1804 I0. J-0.0228
Y2.1978 Z-0.1981 I0. J0.0228
X3.0084 Y2.1716 Z-0.2078 I0. J-0.0228
X3.0376 Y2.1532 Z-0.2175 I0.0225 J0.0034
X3.0242 Y2.1968 I-0.0067 J0.0218
X3.0376 Y2.1532 I0.0067 J-0.0218
X3.0452 Y2.1675 I-0.0034 J0.0109
G1 X3.0429 Y2.1749
X3.042 Y2.1778 Z-0.2172
X3.0411 Y2.1806 Z-0.2163
X3.0403 Y2.1831 Z-0.2149
X3.0396 Y2.1854 Z-0.2129
X3.0391 Y2.1872 Z-0.2106
X3.0386 Y2.1886 Z-0.2079
X3.0384 Y2.1895 Z-0.205
X3.0383 Y2.1897 Z-0.202
G0 Z0.4
X3.0173 Y3.0194
Z0.13
G1 Z0.0655 F40.
G19 G3 Y3.0349 Z0.05 J0.0155 K0.
G1 Y3.0427
G17 G3 X3.0059 Y3.0541 I-0.0114 J0.
Y3.0085 Z0.0323 I0. J-0.0228
Y3.0541 Z0.0146 I0. J0.0228
Y3.0085 Z-0.0032 I0. J-0.0228
Y3.0541 Z-0.0209 I0. J0.0228
Y3.0085 Z-0.0386 I0. J-0.0228
Y3.0541 Z-0.0563 I0. J0.0228
Y3.0085 Z-0.074 I0. J-0.0228
Y3.0541 Z-0.0918 I0. J0.0228
Y3.0085 Z-0.1095 I0. J-0.0228
Y3.0541 Z-0.1272 I0. J0.0228
Y3.0085 Z-0.1449 I0. J-0.0228
Y3.0541 Z-0.1627 I0. J0.0228
Y3.0085 Z-0.1804 I0. J-0.0228
Y3.0541 Z-0.1981 I0. J0.0228
X2.9834 Y3.0279 Z-0.2078 I0. J-0.0228
X3.0127 Y3.0095 Z-0.2175 I0.0225 J0.0034
X2.9992 Y3.0531 I-0.0067 J0.0218
X3.0127 Y3.0095 I0.0067 J-0.0218
X3.0202 Y3.0237 I-0.0034 J0.0109
G1 X3.0179 Y3.0312
X3.017 Y3.0341 Z-0.2172
X3.0161 Y3.0369 Z-0.2163
X3.0154 Y3.0394 Z-0.2149
X3.0147 Y3.0417 Z-0.2129
X3.0141 Y3.0435 Z-0.2106
X3.0137 Y3.0449 Z-0.2079
X3.0134 Y3.0457 Z-0.205
X3.0133 Y3.046 Z-0.202
G0 Z0.4
X1.8848 Y4.6678
Z0.13
G1 Z0.0655 F40.
G19 G3 Y4.6834 Z0.05 J0.0155 K0.
G1 Y4.6911
G17 G3 X1.8734 Y4.7025 I-0.0114 J0.
Y4.6569 Z0.0323 I0. J-0.0228
Y4.7025 Z0.0146 I0. J0.0228
Y4.6569 Z-0.0032 I0. J-0.0228
Y4.7025 Z-0.0209 I0. J0.0228
Y4.6569 Z-0.0386 I0. J-0.0228
Y4.7025 Z-0.0563 I0. J0.0228
Y4.6569 Z-0.074 I0. J-0.0228
Y4.7025 Z-0.0918 I0. J0.0228
Y4.6569 Z-0.1095 I0. J-0.0228
Y4.7025 Z-0.1272 I0. J0.0228
Y4.6569 Z-0.1449 I0. J-0.0228
Y4.7025 Z-0.1627 I0. J0.0228
Y4.6569 Z-0.1804 I0. J-0.0228
Y4.7025 Z-0.1981 I0. J0.0228
X1.8509 Y4.6763 Z-0.2078 I0. J-0.0228
X1.8801 Y4.6579 Z-0.2175 I0.0225 J0.0034
X1.8667 Y4.7015 I-0.0067 J0.0218
X1.8801 Y4.6579 I0.0067 J-0.0218
X1.8877 Y4.6722 I-0.0034 J0.0109
G1 X1.8854 Y4.6796
X1.8845 Y4.6825 Z-0.2172
X1.8836 Y4.6853 Z-0.2163
X1.8828 Y4.6879 Z-0.2149
X1.8821 Y4.6901 Z-0.2129
X1.8816 Y4.692 Z-0.2106
X1.8811 Y4.6933 Z-0.2079
X1.8809 Y4.6942 Z-0.205
X1.8808 Y4.6945 Z-0.202
G0 Z0.4
X0.5499 Y4.3178
Z0.13
G1 Z0.0655 F40.
G19 G3 Y4.3333 Z0.05 J0.0155 K0.
G1 Y4.3411
G17 G3 X0.5385 Y4.3525 I-0.0114 J0.
Y4.3069 Z0.0323 I0. J-0.0228
Y4.3525 Z0.0146 I0. J0.0228
Y4.3069 Z-0.0032 I0. J-0.0228
Y4.3525 Z-0.0209 I0. J0.0228
Y4.3069 Z-0.0386 I0. J-0.0228
Y4.3525 Z-0.0563 I0. J0.0228
Y4.3069 Z-0.074 I0. J-0.0228
Y4.3525 Z-0.0918 I0. J0.0228
Y4.3069 Z-0.1095 I0. J-0.0228
Y4.3525 Z-0.1272 I0. J0.0228
Y4.3069 Z-0.1449 I0. J-0.0228
Y4.3525 Z-0.1627 I0. J0.0228
Y4.3069 Z-0.1804 I0. J-0.0228
Y4.3525 Z-0.1981 I0. J0.0228
X0.5159 Y4.3263 Z-0.2078 I0. J-0.0228
X0.5452 Y4.3079 Z-0.2175 I0.0225 J0.0034
X0.5317 Y4.3515 I-0.0067 J0.0218
X0.5452 Y4.3079 I0.0067 J-0.0218
X0.5527 Y4.3222 I-0.0034 J0.0109
G1 X0.5504 Y4.3296
X0.5495 Y4.3325 Z-0.2172
X0.5487 Y4.3353 Z-0.2163
X0.5479 Y4.3378 Z-0.2149
X0.5472 Y4.3401 Z-0.2129
X0.5466 Y4.3419 Z-0.2106
X0.5462 Y4.3433 Z-0.2079
X0.5459 Y4.3441 Z-0.205
X0.5458 Y4.3444 Z-0.202
G0 Z0.4
X-0.5997 Y2.6812
Z0.13
G1 Z0.0655 F40.
G19 G3 Y2.6967 Z0.05 J0.0155 K0.
G1 Y2.7045
G17 G3 X-0.6111 Y2.7159 I-0.0114 J0.
Y2.6703 Z0.0323 I0. J-0.0228
Y2.7159 Z0.0146 I0. J0.0228
Y2.6703 Z-0.0032 I0. J-0.0228
Y2.7159 Z-0.0209 I0. J0.0228
Y2.6703 Z-0.0386 I0. J-0.0228
Y2.7159 Z-0.0563 I0. J0.0228
Y2.6703 Z-0.074 I0. J-0.0228
Y2.7159 Z-0.0918 I0. J0.0228
Y2.6703 Z-0.1095 I0. J-0.0228
Y2.7159 Z-0.1272 I0. J0.0228
Y2.6703 Z-0.1449 I0. J-0.0228
Y2.7159 Z-0.1627 I0. J0.0228
Y2.6703 Z-0.1804 I0. J-0.0228
Y2.7159 Z-0.1981 I0. J0.0228
X-0.6337 Y2.6897 Z-0.2078 I0. J-0.0228
X-0.6044 Y2.6713 Z-0.2175 I0.0225 J0.0034
X-0.6178 Y2.7149 I-0.0067 J0.0218
X-0.6044 Y2.6713 I0.0067 J-0.0218
X-0.5969 Y2.6856 I-0.0034 J0.0109
G1 X-0.5992 Y2.693
X-0.6 Y2.6959 Z-0.2172
X-0.6009 Y2.6987 Z-0.2163
X-0.6017 Y2.7012 Z-0.2149
X-0.6024 Y2.7035 Z-0.2129
X-0.603 Y2.7053 Z-0.2106
X-0.6034 Y2.7067 Z-0.2079
X-0.6036 Y2.7075 Z-0.205
X-0.6037 Y2.7078 Z-0.202
G0 Z0.4
X-1.0625 Y1.
Z0.1145
G1 Z0.05 F40.
X-1.0616 Y1.0009
G3 X-1.0625 Y1.0018 I-0.0009 J0.
Y0.9982 Z0.036 I0. J-0.0018
Y1.0018 Z0.022 I0. J0.0018
Y0.9982 Z0.0079 I0. J-0.0018
Y1.0018 Z-0.0061 I0. J0.0018
Y0.9982 Z-0.0201 I0. J-0.0018
Y1.0018 Z-0.0341 I0. J0.0018
Y0.9982 Z-0.0481 I0. J-0.0018
Y1.0018 Z-0.0621 I0. J0.0018
Y0.9982 Z-0.0762 I0. J-0.0018
Y1.0018 Z-0.0902 I0. J0.0018
Y0.9982 Z-0.1042 I0. J-0.0018
Y1.0018 Z-0.1182 I0. J0.0018
Y0.9982 Z-0.1322 I0. J-0.0018
Y1.0018 Z-0.1463 I0. J0.0018
Y0.9982 Z-0.1603 I0. J-0.0018
Y1.0018 Z-0.1743 I0. J0.0018
Y0.9982 Z-0.1883 I0. J-0.0018
Y1.0018 Z-0.2023 I0. J0.0018
X-1.0643 Y0.9998 Z-0.2099 I0. J-0.0018
X-1.062 Y0.9983 Z-0.2175 I0.0018 J0.0002
X-1.063 Y1.0017 I-0.0005 J0.0017
X-1.062 Y0.9983 I0.0005 J-0.0017
X-1.0614 Y0.9994 I-0.0002 J0.0009
G1 X-1.0625 Y1.
G0 Z0.4
X-1.7493 Y1.4681
Z0.13
G1 Z0.0655 F40.
G19 G3 Y1.4836 Z0.05 J0.0155 K0.
G1 Y1.4914
G17 G3 X-1.7607 Y1.5028 I-0.0114 J0.
Y1.4572 Z0.0323 I0. J-0.0228
Y1.5028 Z0.0146 I0. J0.0228
Y1.4572 Z-0.0032 I0. J-0.0228
Y1.5028 Z-0.0209 I0. J0.0228
Y1.4572 Z-0.0386 I0. J-0.0228
Y1.5028 Z-0.0563 I0. J0.0228
Y1.4572 Z-0.074 I0. J-0.0228
Y1.5028 Z-0.0918 I0. J0.0228
Y1.4572 Z-0.1095 I0. J-0.0228
Y1.5028 Z-0.1272 I0. J0.0228
Y1.4572 Z-0.1449 I0. J-0.0228
Y1.5028 Z-0.1627 I0. J0.0228
Y1.4572 Z-0.1804 I0. J-0.0228
Y1.5028 Z-0.1981 I0. J0.0228
X-1.7833 Y1.4766 Z-0.2078 I0. J-0.0228
X-1.754 Y1.4582 Z-0.2175 I0.0225 J0.0034
X-1.7675 Y1.5018 I-0.0067 J0.0218
X-1.754 Y1.4582 I0.0067 J-0.0218
X-1.7465 Y1.4725 I-0.0034 J0.0109
G1 X-1.7488 Y1.4799
X-1.7497 Y1.4828 Z-0.2172
X-1.7505 Y1.4856 Z-0.2163
X-1.7513 Y1.4881 Z-0.2149
X-1.752 Y1.4904 Z-0.2129
X-1.7526 Y1.4922 Z-0.2106
X-1.753 Y1.4936 Z-0.2079
X-1.7533 Y1.4945 Z-0.205
X-1.7534 Y1.4947 Z-0.202
G0 Z0.4
X-1.9952 Y0.7881
Z0.13
G1 Z0.0655 F40.
G19 G3 Y0.8036 Z0.05 J0.0155 K0.
G1 Y0.8114
G17 G3 X-2.0066 Y0.8228 I-0.0114 J0.
Y0.7772 Z0.0323 I0. J-0.0228
Y0.8228 Z0.0146 I0. J0.0228
Y0.7772 Z-0.0032 I0. J-0.0228
Y0.8228 Z-0.0209 I0. J0.0228
Y0.7772 Z-0.0386 I0. J-0.0228
Y0.8228 Z-0.0563 I0. J0.0228
Y0.7772 Z-0.074 I0. J-0.0228
Y0.8228 Z-0.0918 I0. J0.0228
Y0.7772 Z-0.1095 I0. J-0.0228
Y0.8228 Z-0.1272 I0. J0.0228
Y0.7772 Z-0.1449 I0. J-0.0228
Y0.8228 Z-0.1627 I0. J0.0228
Y0.7772 Z-0.1804 I0. J-0.0228
Y0.8228 Z-0.1981 I0. J0.0228
X-2.0291 Y0.7966 Z-0.2078 I0. J-0.0228
X-1.9999 Y0.7782 Z-0.2175 I0.0225 J0.0034
X-2.0133 Y0.8218 I-0.0067 J0.0218
X-1.9999 Y0.7782 I0.0067 J-0.0218
X-1.9923 Y0.7925 I-0.0034 J0.0109
G1 X-1.9946 Y0.7999
X-1.9955 Y0.8028 Z-0.2172
X-1.9964 Y0.8056 Z-0.2163
X-1.9972 Y0.8081 Z-0.2149
X-1.9979 Y0.8104 Z-0.2129
X-1.9984 Y0.8122 Z-0.2106
X-1.9989 Y0.8136 Z-0.2079
X-1.9991 Y0.8145 Z-0.205
X-1.9992 Y0.8147 Z-0.202
G0 Z0.6
(.3 CIRCULAR THROUGH HOLE)
M7
G0 X0.0635 Y1.0447
Z0.6
Z0.2
G1 Z0.115 F13.333
G3 X0.0621 Y1.0445 Z0.1084 I0.0052 J-0.0447 F55.
X0.058 Y1.0437 Z0.1031 I0.0066 J-0.0445
X0.0523 Y1.0419 Z0.1 I0.0107 J-0.0437
X0.0851 Y0.9581 Z0.0621 I0.0164 J-0.0419
X0.0523 Y1.0419 Z0.0242 I-0.0164 J0.0419
X0.0851 Y0.9581 Z-0.0136 I0.0164 J-0.0419
X0.0523 Y1.0419 Z-0.0515 I-0.0164 J0.0419
X0.0851 Y0.9581 Z-0.0894 I0.0164 J-0.0419
X0.0523 Y1.0419 Z-0.1273 I-0.0164 J0.0419
X0.0851 Y0.9581 Z-0.1652 I0.0164 J-0.0419
X0.0523 Y1.0419 Z-0.203 I-0.0164 J0.0419
X0.0237 Y1. Z-0.2175 I0.0164 J-0.0419
X0.0763 I0.0263 J0. F60.
X-0.0763 I-0.0763 J0.
X0.1763 I0.1263 J0.
X-0.1763 I-0.1763 J0.
X0.2763 I0.2263 J0.
X-0.2763 I-0.2763 J0.
X0.3763 I0.3263 J0.
X-0.3763 I-0.3763 J0.
X0.4763 I0.4263 J0.
X-0.4763 I-0.4763 J0.
X0.4863 I0.4813 J0.
X-0.4863 I-0.4863 J0.
X0.4863 I0.4863 J0.
X0.4858 Y1.0024 Z-0.217 I-0.0063 J0.
X0.4848 Y1.0041 Z-0.2156 I-0.0059 J-0.0024
X0.4838 Y1.005 Z-0.2136 I-0.0048 J-0.0041
X0.4834 Y1.0053 Z-0.2112 I-0.0038 J-0.005
G0 Z0.4
X1.4393 Y2.6567
Z0.2
G1 Z0.115 F13.333
G3 X1.4379 Y2.6565 Z0.1084 I0.0052 J-0.0447 F55.
X1.4339 Y2.6557 Z0.1031 I0.0066 J-0.0445
X1.4282 Y2.6539 Z0.1 I0.0107 J-0.0437
X1.4609 Y2.5701 Z0.0621 I0.0164 J-0.0419
X1.4282 Y2.6539 Z0.0242 I-0.0164 J0.0419
X1.4609 Y2.5701 Z-0.0136 I0.0164 J-0.0419
X1.4282 Y2.6539 Z-0.0515 I-0.0164 J0.0419
X1.4609 Y2.5701 Z-0.0894 I0.0164 J-0.0419
X1.4282 Y2.6539 Z-0.1273 I-0.0163 J0.0419
X1.4609 Y2.5701 Z-0.1652 I0.0163 J-0.0419
X1.4282 Y2.6539 Z-0.203 I-0.0163 J0.0419
X1.3995 Y2.612 Z-0.2175 I0.0163 J-0.0419
X1.4016 I0.001 J0. F60.
X1.2995 I-0.051 J0.
X1.5016 I0.101 J0.
X1.1995 I-0.151 J0.
X1.6016 I0.201 J0.
X1.0995 I-0.251 J0.
X1.6016 I0.251 J0.
G2 X1.6429 Y2.6798 I0.0763 J0.
G3 X1.6691 Y2.7547 I-0.0265 J0.0513
X1.3506 Y2.961 I-0.3186 J-0.1427
Y2.2629 I0. J-0.349
X1.6691 Y2.7547 I0. J0.349
G2 X1.6706 Y2.7635 I0.0074 J0.0033
G3 X1.6718 Y2.7723 I-0.0058 J0.0053
X1.3506 Y2.971 I-0.3213 J-0.1603
Y2.2529 I0. J-0.3591
X1.6718 Y2.7723 I0. J0.359
X1.6682 Y2.777 Z-0.2163 I-0.0139 J-0.0069
X1.664 Y2.7797 Z-0.2129 I-0.0103 J-0.0116
X1.6608 Y2.7807 Z-0.2079 I-0.0061 J-0.0143
X1.6596 Y2.7808 Z-0.202 I-0.0028 J-0.0153
G0 Z0.6
(SHAPE THROUGH HOLE)
M7
G0 X-0.5961 Y1.9276
Z0.6
Z0.1
G3 X-0.7053 Y1.8282 Z0.0591 I-0.0546 J-0.0497 F50.
X-0.5961 Y1.9276 Z0.0182 I0.0546 J0.0497
X-0.7053 Y1.8282 Z-0.0227 I-0.0546 J-0.0497
X-0.5961 Y1.9276 Z-0.0636 I0.0546 J0.0497
X-0.7053 Y1.8282 Z-0.1044 I-0.0546 J-0.0497
X-0.5961 Y1.9276 Z-0.1453 I0.0546 J0.0497
X-0.7053 Y1.8282 Z-0.1862 I-0.0546 J-0.0497
X-0.5769 Y1.8779 Z-0.2175 I0.0546 J0.0497
X-0.7245 I-0.0738 J0.
X-0.5771 Y1.8718 I0.0738 J0.
G1 X-0.5769 Y1.8779
X-0.5726 Y1.8839 F60.
X-0.5687 Y1.8902
X-0.5654 Y1.8969
X-0.5626 Y1.9037
X-0.5604 Y1.9108
X-0.5588 Y1.918
X-0.5577 Y1.9253
X-0.5572 Y1.9327
X-0.5574 Y1.9401
X-0.5581 Y1.9475
X-0.5593 Y1.9548
X-0.5612 Y1.9619
X-0.5636 Y1.9689
X-0.5666 Y1.9757
X-0.5701 Y1.9822
X-0.5742 Y1.9884
X-0.5787 Y1.9943
X-0.5836 Y1.9998
X-0.589 Y2.0049
X-0.5948 Y2.0095
X-0.6009 Y2.0137
X-0.6073 Y2.0173
X-0.6141 Y2.0204
X-0.621 Y2.023
X-0.6281 Y2.0251
X-0.6354 Y2.0265
X-0.6427 Y2.0274
X-0.6501 Y2.0276
X-0.6575 Y2.0273
G3 X-0.7746 Y1.9006 I0.6949 J-0.7597
X-0.7831 Y1.8113 I0.0853 J-0.0532
X-0.7545 Y1.8179 I0.0132 J0.0083
X-0.7486 Y1.8992 I-0.089 J0.0474
X-0.7746 Y1.9006 I-0.0135 J-0.0077 F50.
G1 X-0.7787 Y1.8942 F60.
X-0.7822 Y1.8875
X-0.7852 Y1.8805
X-0.7876 Y1.8733
X-0.7894 Y1.8659
X-0.7907 Y1.8584
X-0.7913 Y1.8509
X-0.7914 Y1.8433
X-0.7908 Y1.8357
X-0.7897 Y1.8282
X-0.7879 Y1.8208
X-0.7856 Y1.8136
X-0.7827 Y1.8066
X-0.7793 Y1.7998
X-0.7753 Y1.7933
X-0.7708 Y1.7872
X-0.7659 Y1.7814
X-0.7605 Y1.7761
X-0.7547 Y1.7712
X-0.7485 Y1.7667
X-0.742 Y1.7628
X-0.7352 Y1.7594
X-0.7282 Y1.7566
X-0.7209 Y1.7543
X-0.7135 Y1.7526
X-0.706 Y1.7515
X-0.6985 Y1.751
X-0.6909 Y1.7511
X-0.6833 Y1.7518
X-0.6758 Y1.7531
X-0.6685 Y1.755
X-0.6613 Y1.7574
X-0.6543 Y1.7605
X-0.6476 Y1.7641
X-0.6412 Y1.7682
X-0.6352 Y1.7727
X-0.6295 Y1.7778
X-0.6243 Y1.7833
X-0.6195 Y1.7892
X-0.6152 Y1.7954
X-0.6114 Y1.802
X-0.6081 Y1.8089
G3 X-0.5144 Y1.8934 I-0.995 J1.1967
X-0.5808 Y2.0953 I-0.1007 J0.0788
X-0.6574 Y2.0257 I1.8299 J-2.0877
X-0.6614 Y2.0107 I0.011 J-0.011
X-0.6231 Y1.9952 I0.025 J0.0067
X-0.5848 Y2.0639 I-0.0404 J0.0676
X-0.5864 Y2.0785 I-0.0787 J-0.0011 F50.
G2 X-0.5814 Y2.0932 I0.0152 J0.0031
G1 X-0.5625 Y2.1089 F60.
G2 X-0.4051 Y1.9933 I0.0406 J-0.1097
X-0.5144 Y1.8934 I-0.684 J0.639
X-0.5297 Y1.8905 I-0.0102 J0.0118
X-0.5449 Y1.931 I0.0092 J0.0266
X-0.4341 Y1.9902 I0.1026 J-0.0586
X-0.4196 Y1.9883 I-0.0082 J-0.1178 F50.
G3 X-0.4049 Y1.9933 I0.003 J0.0152
G1 X-0.384 Y2.019 F60.
X-0.3737 Y2.0555
G3 X-0.5603 Y2.1078 I-0.0983 J0.0083
G1 X-0.5623 Y2.1062
X-0.564 Y2.1043
X-0.5653 Y2.102
X-0.5661 Y2.0996
X-0.5665 Y2.0969
X-0.5664 Y2.0942
X-0.5658 Y2.0915
X-0.5646 Y2.089
X-0.563 Y2.0867
X-0.561 Y2.0847
X-0.5586 Y2.0831
X-0.5559 Y2.0818 Z-0.2172
X-0.5532 Y2.0806 Z-0.2163
X-0.5508 Y2.0795 Z-0.2149
X-0.5486 Y2.0785 Z-0.2129
X-0.5468 Y2.0777 Z-0.2106
X-0.5455 Y2.0771 Z-0.2079
X-0.5447 Y2.0768 Z-0.205
X-0.5445 Y2.0766 Z-0.202
G0 Z0.4
X0.4859 Y2.304
Z0.1
G3 X0.3767 Y2.2046 Z0.0591 I-0.0546 J-0.0497 F50.
X0.4859 Y2.304 Z0.0182 I0.0546 J0.0497
X0.3767 Y2.2046 Z-0.0227 I-0.0546 J-0.0497
X0.4859 Y2.304 Z-0.0636 I0.0546 J0.0497
X0.3767 Y2.2046 Z-0.1044 I-0.0546 J-0.0497
X0.4859 Y2.304 Z-0.1453 I0.0546 J0.0497
X0.3767 Y2.2046 Z-0.1862 I-0.0546 J-0.0497
X0.5051 Y2.2543 Z-0.2175 I0.0546 J0.0497
X0.3575 I-0.0738 J0.
X0.5049 Y2.2482 I0.0738 J0.
G1 X0.5051 Y2.2543
G3 X0.5208 Y2.3071 I-0.0449 J0.042 F60.
G1 X0.5173 Y2.3143
X0.5134 Y2.3212
X0.5088 Y2.3278
X0.5038 Y2.334
X0.4983 Y2.3398
X0.4924 Y2.3451
X0.4861 Y2.35
X0.4794 Y2.3543
X0.4724 Y2.3581
X0.4651 Y2.3613
X0.4576 Y2.364
X0.4499 Y2.366
X0.442 Y2.3674
X0.4341 Y2.3683
X0.4261 Y2.3684
X0.4182 Y2.368
X0.4103 Y2.3669
X0.4025 Y2.3652
X0.3948 Y2.3629
X0.3874 Y2.3601
X0.3802 Y2.3566
X0.3734 Y2.3526
X0.3668 Y2.348
X0.3606 Y2.343
X0.3549 Y2.3374
X0.3496 Y2.3315
X0.3448 Y2.3251
X0.3405 Y2.3184
X0.3367 Y2.3114
X0.3336 Y2.3041
X0.3309 Y2.2966
X0.3289 Y2.2888
X0.3276 Y2.281
X0.3268 Y2.2731
X0.3267 Y2.2651
X0.3271 Y2.2571
X0.3283 Y2.2492
X0.33 Y2.2415
X0.3323 Y2.2338
X0.3353 Y2.2264
X0.3388 Y2.2193
X0.3428 Y2.2124
G3 X0.4595 Y2.1274 I0.0956 J0.0086
X0.5284 Y2.2543 I-0.0211 J0.0936
G1 X0.5247 Y2.3013
X0.5208 Y2.3071
G3 X0.4947 Y2.3056 I-0.0125 J-0.0092
G1 X0.4932 Y2.3029 Z-0.2172
X0.4918 Y2.3004 Z-0.2163
X0.4905 Y2.298 Z-0.2149
X0.4893 Y2.296 Z-0.2129
X0.4884 Y2.2943 Z-0.2106
X0.4877 Y2.2931 Z-0.2079
X0.4872 Y2.2923 Z-0.205
X0.4871 Y2.292 Z-0.202
G0 Z0.4
X0.8152 Y0.2339
Z0.1
G3 X0.706 Y0.1345 Z0.0591 I-0.0546 J-0.0497 F50.
X0.8152 Y0.2339 Z0.0182 I0.0546 J0.0497
X0.706 Y0.1345 Z-0.0227 I-0.0546 J-0.0497
X0.8152 Y0.2339 Z-0.0636 I0.0546 J0.0497
X0.706 Y0.1345 Z-0.1044 I-0.0546 J-0.0497
X0.8152 Y0.2339 Z-0.1453 I0.0546 J0.0497
X0.706 Y0.1345 Z-0.1862 I-0.0546 J-0.0497
X0.8344 Y0.1842 Z-0.2175 I0.0546 J0.0497
X0.6868 I-0.0738 J0.
X0.8342 Y0.1781 I0.0738 J0.
G1 X0.8344 Y0.1842
G3 X0.8017 Y0.3165 I-0.0586 J0.0557 F60.
X0.6635 Y0.1373 I0.0498 J-0.1812
X0.8684 Y0.1284 I0.1063 J0.0836
X0.8905 Y0.3615 I-0.0746 J0.1247
G1 X0.8547 Y0.3494
X0.8153 Y0.3254
X0.8017 Y0.3165
G3 X0.7951 Y0.3025 I0.0089 J-0.0127
X0.8161 Y0.2867 I0.0175 J0.0015
X0.8734 Y0.3334 I-0.0152 J0.0773
X0.8778 Y0.3474 I-0.0726 J0.0306 F50.
G2 X0.8882 Y0.3589 I0.0152 J-0.0033
G1 X0.9017 Y0.3628 F60.
X0.9253 Y0.3637
G2 X1.0078 Y0.1713 I-0.0271 J-0.1255
G3 X0.8684 Y0.1284 I-0.0151 J-0.1986
G2 X0.8529 Y0.1281 I-0.0079 J0.0134
X0.8459 Y0.1402 I0.0067 J0.0121
X0.9841 Y0.192 I0.0787 J0.0003
X0.9926 Y0.1801 I-0.0595 J-0.0516 F50.
G3 X1.0061 Y0.1724 I0.0134 J0.0078
G1 X1.0282 Y0.1732 F60.
G3 X1.0715 Y0.3597 I-0.0423 J0.108
G1 X1.0686 Y0.3601
X1.0656 Y0.3599
X1.0628 Y0.3592
X1.0601 Y0.358
X1.0577 Y0.3562
X1.0557 Y0.354
X1.0541 Y0.3515
X1.053 Y0.3487
X1.0514 Y0.3422
X1.0138 Y0.1951
X1.0131 Y0.1926 F50.
G3 X1.0282 Y0.1732 I0.0151 J-0.0038
X1.0483 Y0.371 I0.01 J0.0989 F60.
X0.9975 Y0.3628 I-0.01 J-0.0989
G1 X0.9253 Y0.3637
G3 X0.9127 Y0.3408 I0.0011 J-0.0155
G1 X0.9141 Y0.3382 Z-0.2172
X0.9155 Y0.3356 Z-0.2163
X0.9168 Y0.3332 Z-0.2149
X0.9179 Y0.3311 Z-0.2129
X0.9188 Y0.3294 Z-0.2106
X0.9195 Y0.3282 Z-0.2079
X0.9199 Y0.3274 Z-0.205
X0.9201 Y0.3271 Z-0.202
G0 Z0.4
X1.3797 Y1.4101
Z0.1
G3 X1.2706 Y1.3107 Z0.0591 I-0.0546 J-0.0497 F50.
X1.3797 Y1.4101 Z0.0182 I0.0546 J0.0497
X1.2706 Y1.3107 Z-0.0227 I-0.0546 J-0.0497
X1.3797 Y1.4101 Z-0.0636 I0.0546 J0.0497
X1.2706 Y1.3107 Z-0.1044 I-0.0546 J-0.0497
X1.3797 Y1.4101 Z-0.1453 I0.0546 J0.0497
X1.2706 Y1.3107 Z-0.1862 I-0.0546 J-0.0497
X1.399 Y1.3604 Z-0.2175 I0.0546 J0.0497
X1.2513 I-0.0738 J0.
X1.3987 Y1.3543 I0.0738 J0.
G1 X1.399 Y1.3604
G3 X1.2317 Y1.476 I-0.0853 J0.0553 F60.
X1.168 Y1.3635 I0.0418 J-0.0979
G2 X1.2826 Y1.2486 I-0.3123 J-0.4259
G3 X1.4776 Y1.3223 I0.0766 J0.0921
G2 X1.4525 Y1.42 I0.0253 J0.0586
G3 X1.3508 Y1.5908 I-0.1024 J0.0547
G2 X1.2569 Y1.5308 I-0.1087 J0.0665
G3 X1.1243 Y1.4931 I-0.0442 J-0.0968
X1.144 Y1.4746 I0.0151 J-0.0037
G1 X1.253 Y1.5085
X1.2553 Y1.5094
X1.2574 Y1.5107
G3 X1.2562 Y1.5367 I-0.009 J0.0126 F50.
X1.1238 Y1.4964 I-0.047 J-0.0832 F60.
X1.1706 Y1.3662 I0.0854 J-0.0428
G1 X1.1724 Y1.3642
X1.1745 Y1.3624
X1.1771 Y1.3612
X1.1799 Y1.3604
X1.183 Y1.3602
X1.1992 Y1.3637
X1.423 Y1.4118
G3 X1.4525 Y1.42 I0.0024 J0.0484 F50.
G1 X1.5017 Y1.4651 F60.
X1.5062 Y1.4729
X1.5102 Y1.481
X1.5136 Y1.4893
X1.5163 Y1.4978
X1.5185 Y1.5066
X1.5201 Y1.5154
X1.521 Y1.5244
X1.5214 Y1.5333
X1.5211 Y1.5423
X1.5201 Y1.5513
X1.5186 Y1.5601
X1.5164 Y1.5689
X1.5137 Y1.5774
X1.5103 Y1.5858
X1.5064 Y1.5938
X1.5019 Y1.6016
X1.4969 Y1.6091
X1.4914 Y1.6162
X1.4854 Y1.6229
X1.4789 Y1.6292
X1.4721 Y1.6349
X1.4648 Y1.6403
X1.4572 Y1.645
X1.4493 Y1.6493
X1.4411 Y1.653
X1.4326 Y1.6561
X1.424 Y1.6586
G2 X1.3508 Y1.5903 I-3.987 J4.2055
G3 X1.3467 Y1.5754 I0.011 J-0.011
X1.3915 Y1.5603 I0.0273 J0.0072
X1.4215 Y1.6271 I-0.0486 J0.0619
X1.4192 Y1.6415 I-0.0786 J-0.0048 F50.
G2 X1.4235 Y1.6565 I0.0151 J0.0038
G1 X1.4414 Y1.6727 F60.
G2 X1.6036 Y1.5575 I0.043 J-0.1113
X1.5017 Y1.4651 I-7.0451 J7.6614
X1.4761 Y1.4781 I-0.0101 J0.0118
X1.4778 Y1.4845 I0.0189 J-0.0015
X1.573 Y1.5531 I0.1075 J-0.0488
X1.5917 Y1.5536 I0.0123 J-0.1175 F50.
G3 X1.6029 Y1.5576 I0.0008 J0.0155
G1 X1.6074 Y1.5619 F60.
X1.6254 Y1.5838
G3 X1.5972 Y1.7246 I-0.0948 J0.0542
X1.5764 Y1.7071 I-0.0056 J-0.0145
G1 X1.5985 Y1.5912
X1.599 Y1.5894
X1.5997 Y1.5876
G3 X1.6254 Y1.5838 I0.0141 J0.0065 F50.
G1 X1.6297 Y1.5904 F60.
X1.6334 Y1.5972
X1.6366 Y1.6043
X1.6392 Y1.6117
X1.6412 Y1.6192
X1.6427 Y1.6269
X1.6435 Y1.6346
X1.6437 Y1.6424
X1.6433 Y1.6502
X1.6423 Y1.6579
X1.6406 Y1.6655
X1.6384 Y1.673
X1.6356 Y1.6803
X1.6323 Y1.6873
X1.6284 Y1.694
X1.624 Y1.7004
X1.619 Y1.7065
X1.6137 Y1.7121
X1.6079 Y1.7173
X1.6017 Y1.7221
X1.5952 Y1.7263
X1.5883 Y1.73
X1.5812 Y1.7332
X1.5738 Y1.7357
X1.5663 Y1.7377
X1.5587 Y1.7391
X1.5509 Y1.7399
X1.5431 Y1.7401
X1.5354 Y1.7397
X1.5276 Y1.7386
X1.52 Y1.737
X1.5126 Y1.7348
X1.5053 Y1.7319
X1.4983 Y1.7286
X1.4916 Y1.7246
X1.4852 Y1.7202
X1.4792 Y1.7153
X1.4735 Y1.7099
X1.4683 Y1.7041
X1.4636 Y1.6979
X1.4594 Y1.6914
X1.4558 Y1.6845
X1.4526 Y1.6774
X1.4501 Y1.67
X1.4483 Y1.6699
X1.4464 Y1.6694
X1.4446 Y1.6685
X1.443 Y1.6672
X1.4416 Y1.6655
X1.4405 Y1.6635
X1.4398 Y1.6612
X1.4396 Y1.6587
X1.4399 Y1.6561
X1.4407 Y1.6535
X1.4421 Y1.6511
X1.444 Y1.6489
X1.4464 Y1.6471
X1.4492 Y1.646 Z-0.2172
X1.4519 Y1.6449 Z-0.2163
X1.4544 Y1.6439 Z-0.2149
X1.4566 Y1.643 Z-0.2129
X1.4584 Y1.6423 Z-0.2106
X1.4598 Y1.6418 Z-0.2079
X1.4606 Y1.6415 Z-0.205
X1.4609 Y1.6413 Z-0.202
G0 Z0.4
X1.435 Y1.3432
Z-0.1864
G1 Z-0.202 F50.
X1.4353 Y1.3431 Z-0.205
X1.4362 Y1.3429 Z-0.2079
X1.4375 Y1.3424 Z-0.2106
X1.4394 Y1.3419 Z-0.2129
X1.4416 Y1.3412 Z-0.2149
X1.4442 Y1.3404 Z-0.2163
X1.447 Y1.3395 Z-0.2172
X1.4499 Y1.3386 Z-0.2175
G2 X1.4763 Y1.3225 I-0.0183 J-0.0595
G1 X1.4845 Y1.3133 F60.
X1.4925 Y1.3045
X1.4956 Y1.2969
X1.4983 Y1.289
X1.5004 Y1.281
X1.5019 Y1.2728
X1.5028 Y1.2646
X1.5031 Y1.2563
X1.5029 Y1.248
X1.502 Y1.2397
X1.5006 Y1.2315
X1.4986 Y1.2235
X1.4961 Y1.2156
X1.4929 Y1.2079
X1.4893 Y1.2004
X1.4851 Y1.1933
X1.4805 Y1.1864
X1.4753 Y1.1799
X1.4698 Y1.1738
X1.4638 Y1.168
X1.4574 Y1.1627
X1.4506 Y1.1579
X1.4435 Y1.1536
X1.4362 Y1.1498
X1.4286 Y1.1465
X1.4207 Y1.1437
X1.4127 Y1.1415
X1.4046 Y1.1399
X1.3964 Y1.1389
X1.3881 Y1.1385
X1.3798 Y1.1386
G2 X1.2826 Y1.2486 I4.5845 J4.1493
X1.2802 Y1.2639 I0.0121 J0.0097
X1.3458 Y1.2789 I0.0378 J-0.0146
X1.3807 Y1.1687 I-0.0808 J-0.0862
X1.3768 Y1.1545 I-0.1156 J0.024 F50.
G3 X1.3798 Y1.1393 I0.0147 J-0.005
G1 X1.393 Y1.1252 F60.
X1.4003 Y1.1183
G3 X1.5749 Y1.1873 I0.0599 J0.1039
X1.5547 Y1.1974 I-0.0149 J-0.0045
G1 X1.5494 Y1.1955
X1.4061 Y1.1437
G3 X1.4003 Y1.1183 I0.0053 J-0.0146 F50.
X1.561 Y1.2321 I0.0804 J0.0569 F60.
X1.5251 Y1.263 I-0.0804 J-0.0569
G1 X1.5029 Y1.2929
X1.4925 Y1.3045
G3 X1.4669 Y1.2996 I-0.0112 J-0.0108
G1 X1.4657 Y1.2968 Z-0.2172
X1.4646 Y1.2941 Z-0.2163
X1.4636 Y1.2916 Z-0.2149
X1.4627 Y1.2894 Z-0.2129
X1.462 Y1.2876 Z-0.2106
X1.4615 Y1.2863 Z-0.2079
X1.4611 Y1.2855 Z-0.205
X1.461 Y1.2852 Z-0.202
G0 Z0.4
X2.4147 Y2.4451
Z0.1
G3 X2.3056 Y2.3457 Z0.0591 I-0.0546 J-0.0497 F50.
X2.4147 Y2.4451 Z0.0182 I0.0546 J0.0497
X2.3056 Y2.3457 Z-0.0227 I-0.0546 J-0.0497
X2.4147 Y2.4451 Z-0.0636 I0.0546 J0.0497
X2.3056 Y2.3457 Z-0.1044 I-0.0546 J-0.0497
X2.4147 Y2.4451 Z-0.1453 I0.0546 J0.0497
X2.3056 Y2.3457 Z-0.1862 I-0.0546 J-0.0497
X2.4339 Y2.3954 Z-0.2175 I0.0546 J0.0497
X2.2863 I-0.0738 J0.
X2.4337 Y2.3893 I0.0738 J0.
G1 X2.4339 Y2.3954
G3 X2.3042 Y2.5352 I-0.0786 J0.0571 F60.
G2 X2.2617 Y2.3954 I-1.7237 J0.4476
G1 X2.2593 Y2.3932
X2.2557 Y2.3861
X2.2526 Y2.3786
X2.2501 Y2.371
X2.2482 Y2.3632
X2.2469 Y2.3552
X2.2463 Y2.3472
X2.2462 Y2.3391
X2.2468 Y2.3311
X2.248 Y2.3232
X2.2498 Y2.3153
X2.2523 Y2.3077
X2.2553 Y2.3002
X2.2588 Y2.293
X2.263 Y2.2861
X2.2676 Y2.2795
X2.2727 Y2.2733
X2.2783 Y2.2675
X2.2844 Y2.2622
X2.2908 Y2.2574
X2.2976 Y2.2531
X2.3047 Y2.2493
X2.312 Y2.2461
X2.3196 Y2.2434
X2.3274 Y2.2414
X2.3353 Y2.2399
X2.3433 Y2.2391
X2.3514 Y2.2389
X2.3594 Y2.2393
X2.3674 Y2.2404
X2.3753 Y2.242
X2.383 Y2.2443
G3 X2.4933 Y2.4895 I-0.3175 J0.2902
X2.3066 Y2.6252 I-0.1347 J0.0109
G1 X2.3131 Y2.604
X2.3182 Y2.5836
X2.3042 Y2.5352
G3 X2.3154 Y2.5163 I0.015 J-0.0039
X2.3568 Y2.5545 I0.0084 J0.0325
X2.3318 Y2.5997 I-0.0776 J-0.0135
X2.3165 Y2.6104 I-0.0525 J-0.0586 F50.
G2 X2.309 Y2.6196 I0.0074 J0.0137
G1 X2.3061 Y2.6306 F60.
X2.3054 Y2.6328
G2 X2.4954 Y2.6679 I0.1039 J-0.0305
X2.4933 Y2.4895 I-0.2255 J-0.0865
X2.4816 Y2.4792 I-0.0147 J0.0049
X2.4518 Y2.4971 I-0.0051 J0.0252
X2.4832 Y2.6438 I0.1511 J0.0445
X2.4932 Y2.6545 I0.1198 J-0.1023 F50.
G3 X2.4974 Y2.6695 I-0.0108 J0.0111
G1 X2.495 Y2.6777 F60.
X2.4815 Y2.72
G3 X2.2715 Y2.7425 I-0.1131 J-0.0641
G1 X2.2777 Y2.7247
X2.2912 Y2.6777
X2.3054 Y2.6328
G3 X2.3172 Y2.6227 I0.0146 J0.0052
X2.3444 Y2.6423 I0.0042 J0.0228
X2.2987 Y2.7251 I-0.078 J0.011
X2.2849 Y2.7298 I-0.0323 J-0.0718 F50.
G2 X2.2736 Y2.7405 I0.0036 J0.0151
G1 X2.2677 Y2.7636 F60.
X2.2687 Y2.772
X2.2703 Y2.7803
X2.2725 Y2.7885
X2.2753 Y2.7965
X2.2786 Y2.8043
X2.2825 Y2.8118
X2.287 Y2.819
X2.2919 Y2.8259
X2.2974 Y2.8324
X2.3032 Y2.8385
X2.3096 Y2.8441
X2.3162 Y2.8493
X2.3233 Y2.854
X2.3307 Y2.8582
X2.3383 Y2.8618
X2.3462 Y2.8649
X2.3543 Y2.8674
X2.3626 Y2.8693
X2.3709 Y2.8706
X2.3794 Y2.8713
X2.3878 Y2.8714
X2.3963 Y2.8709
X2.4047 Y2.8698
X2.413 Y2.8681
X2.4211 Y2.8658
X2.4291 Y2.8629
X2.4368 Y2.8594
X2.4443 Y2.8554
G3 X2.4815 Y2.72 I2.3644 J0.5761
G2 X2.4707 Y2.7008 I-0.015 J-0.0042
X2.4517 Y2.7068 I-0.005 J0.0175
X2.4337 Y2.8263 I0.0913 J0.0749
X2.4421 Y2.843 I0.1093 J-0.0447 F50.
G3 X2.4439 Y2.8548 I-0.0133 J0.0081
G1 X2.4408 Y2.8659 F60.
X2.4353 Y2.884
G3 X2.2144 Y2.8632 I-0.1047 J-0.0719
G2 X2.2677 Y2.7636 I-0.1687 J-0.1543
G3 X2.287 Y2.7531 I0.0149 J0.0044
X2.3013 Y2.7704 I-0.0057 J0.0194
X2.2458 Y2.8538 I-0.0783 J0.008
X2.2274 Y2.857 I-0.0228 J-0.0754 F50.
G2 X2.2167 Y2.8622 I0.0009 J0.0155
G1 X2.2136 Y2.8659 F60.
X2.2031 Y2.8803
G2 X2.3358 Y3.0214 I0.1132 J0.0265
X2.4353 Y2.884 I-0.0475 J-0.1391
X2.4313 Y2.869 I-0.015 J-0.004
X2.4002 Y2.8673 I-0.0165 J0.0165
X2.3411 Y2.9937 I0.0983 J0.123
X2.3421 Y3.0084 I0.1574 J-0.0035 F50.
G3 X2.336 Y3.0226 I-0.0154 J0.0018
X2.1967 Y3.0194 I-0.0681 J-0.0696 F60.
X2.2031 Y2.8803 I0.0712 J-0.0664
X2.2291 Y2.8827 I0.0122 J0.0096
G1 X2.2305 Y2.8853 Z-0.2172
X2.2318 Y2.8879 Z-0.2163
X2.2331 Y2.8903 Z-0.2149
X2.2342 Y2.8924 Z-0.2129
X2.2351 Y2.8941 Z-0.2106
X2.2358 Y2.8953 Z-0.2079
X2.2362 Y2.8961 Z-0.205
X2.2363 Y2.8964 Z-0.202
G0 Z0.4
X2.3023 Y2.4101
Z-0.1864
G1 Z-0.202 F50.
X2.302 Y2.41 Z-0.205
X2.3011 Y2.4099 Z-0.2079
X2.2997 Y2.4096 Z-0.2106
X2.2978 Y2.4092 Z-0.2129
X2.2955 Y2.4087 Z-0.2149
X2.2929 Y2.4081 Z-0.2163
X2.29 Y2.4075 Z-0.2172
X2.2871 Y2.4069 Z-0.2175
G3 X2.2593 Y2.3932 I0.0128 J-0.061
G1 X2.219 Y2.3561 F60.
X2.2104 Y2.3484
X2.2062 Y2.3409
X2.2026 Y2.3331
X2.1995 Y2.3251
X2.1971 Y2.3169
X2.1952 Y2.3085
X2.194 Y2.3
X2.1933 Y2.2915
X2.1934 Y2.2829
X2.194 Y2.2744
X2.1953 Y2.2659
X2.1971 Y2.2575
X2.1996 Y2.2493
X2.2027 Y2.2413
X2.2063 Y2.2336
X2.2105 Y2.2261
X2.2153 Y2.2189
X2.2205 Y2.2122
X2.2263 Y2.2058
X2.2325 Y2.1998
X2.2391 Y2.1944
X2.246 Y2.1894
X2.2534 Y2.185
X2.261 Y2.181
X2.2689 Y2.1777
X2.277 Y2.175
X2.2796 Y2.176
X2.2819 Y2.1776
X2.284 Y2.1795
X2.2856 Y2.1817
X2.2868 Y2.1842
X2.2876 Y2.1869
X2.2879 Y2.1897
X2.2877 Y2.1925
X2.287 Y2.1951
X2.2849 Y2.2008
X2.2353 Y2.3407
X2.235 Y2.3416 F50.
G3 X2.2104 Y2.3484 I-0.0146 J-0.0052
G1 X2.2043 Y2.3434 F60.
X2.1987 Y2.338
X2.1935 Y2.3322
X2.1888 Y2.326
X2.1845 Y2.3194
X2.1809 Y2.3125
X2.1778 Y2.3054
X2.1752 Y2.298
X2.1733 Y2.2904
X2.1719 Y2.2828
X2.1712 Y2.275
X2.1711 Y2.2672
X2.1716 Y2.2594
X2.1727 Y2.2517
X2.1744 Y2.244
X2.1768 Y2.2366
X2.1797 Y2.2293
X2.1832 Y2.2224
X2.1872 Y2.2157
X2.1917 Y2.2093
X2.1967 Y2.2033
X2.2022 Y2.1978
X2.2081 Y2.1927
X2.2144 Y2.1881
X2.2211 Y2.184
X2.228 Y2.1804
X2.2352 Y2.1774
X2.2426 Y2.175
X2.2502 Y2.1732
X2.2579 Y2.1719
X2.2657 Y2.1713
X2.2735 Y2.1714
X2.2813 Y2.172
X2.289 Y2.1732
X2.2966 Y2.1751
X2.304 Y2.1776
X2.3112 Y2.1806
X2.3181 Y2.1842
X2.3248 Y2.1883
X2.331 Y2.193
X2.3369 Y2.1981
X2.3424 Y2.2037
X2.3474 Y2.2097
X2.3519 Y2.216
X2.3559 Y2.2227
X2.3835 Y2.2428
G3 X2.3778 Y2.2682 I-0.0111 J0.0109
G1 X2.3749 Y2.2692 Z-0.2172
X2.3722 Y2.2703 Z-0.2163
X2.3697 Y2.2712 Z-0.2149
X2.3675 Y2.272 Z-0.2129
X2.3656 Y2.2727 Z-0.2106
X2.3643 Y2.2732 Z-0.2079
X2.3635 Y2.2735 Z-0.205
X2.3632 Y2.2736 Z-0.202
G0 Z0.4
X2.5088 Y1.4101
Z0.1
G3 X2.3996 Y1.3107 Z0.0591 I-0.0546 J-0.0497 F50.
X2.5088 Y1.4101 Z0.0182 I0.0546 J0.0497
X2.3996 Y1.3107 Z-0.0227 I-0.0546 J-0.0497
X2.5088 Y1.4101 Z-0.0636 I0.0546 J0.0497
X2.3996 Y1.3107 Z-0.1044 I-0.0546 J-0.0497
X2.5088 Y1.4101 Z-0.1453 I0.0546 J0.0497
X2.3996 Y1.3107 Z-0.1862 I-0.0546 J-0.0497
X2.528 Y1.3604 Z-0.2175 I0.0546 J0.0497
X2.3804 I-0.0738 J0.
X2.5278 Y1.3543 I0.0738 J0.
G1 X2.528 Y1.3604
G3 X2.5423 Y1.4113 I-0.0409 J0.0389 F60.
G1 X2.5387 Y1.4185
X2.5346 Y1.4253
X2.53 Y1.4318
X2.5249 Y1.4379
X2.5193 Y1.4437
X2.5133 Y1.4489
X2.5069 Y1.4537
X2.5002 Y1.458
X2.4932 Y1.4618
X2.4859 Y1.465
X2.4783 Y1.4676
X2.4706 Y1.4697
X2.4628 Y1.4711
X2.4549 Y1.4719
X2.4469 Y1.4722
X2.4389 Y1.4718
X2.431 Y1.4708
X2.4232 Y1.4692
X2.4155 Y1.467
X2.408 Y1.4642
X2.4008 Y1.4608
X2.3938 Y1.4569
X2.3872 Y1.4525
X2.3809 Y1.4476
X2.3751 Y1.4422
X2.3696 Y1.4364
X2.3646 Y1.4302
X2.3601 Y1.4236
X2.3562 Y1.4166
X2.3527 Y1.4094
X2.3499 Y1.402
X2.3476 Y1.3944
X2.3459 Y1.3866
X2.3448 Y1.3787
X2.3444 Y1.3707
X2.3445 Y1.3627
X2.3453 Y1.3548
X2.3467 Y1.3469
X2.3486 Y1.3392
X2.3512 Y1.3316
X2.3543 Y1.3243
X2.358 Y1.3172
X2.3622 Y1.3105
X2.3669 Y1.304
X2.3722 Y1.298
X2.3778 Y1.2924
X2.3839 Y1.2872
X2.3903 Y1.2825
X2.3971 Y1.2784
X2.4042 Y1.2747
X2.4116 Y1.2716
X2.4192 Y1.2691
X2.4269 Y1.2672
X2.4348 Y1.2659
X2.4427 Y1.2652
X2.4507 Y1.2651
X2.4586 Y1.2656
X2.4665 Y1.2668
X2.4743 Y1.2685
X2.482 Y1.2708
X2.4894 Y1.2737
X2.4966 Y1.2772
X2.5034 Y1.2812
X2.51 Y1.2858
X2.5162 Y1.2908
X2.522 Y1.2963
X2.5273 Y1.3022
X2.5322 Y1.3085
X2.5366 Y1.3152
X2.5404 Y1.3221
X2.5437 Y1.3294
X2.5465 Y1.3369
X2.5486 Y1.3446
X2.5502 Y1.3524
X2.5511 Y1.3603
X2.5483 Y1.3779
X2.5453 Y1.4074
X2.5423 Y1.4113
X2.5463 Y1.4177
X2.5497 Y1.4243
X2.5526 Y1.4312
X2.5549 Y1.4383
X2.5566 Y1.4456
X2.5577 Y1.453
X2.5582 Y1.4605
X2.5581 Y1.468
X2.5574 Y1.4754
X2.556 Y1.4828
X2.5541 Y1.49
X2.5515 Y1.497
X2.5484 Y1.5038
X2.5448 Y1.5104
X2.5406 Y1.5166
X2.5359 Y1.5224
X2.5307 Y1.5278
X2.5251 Y1.5328
X2.5192 Y1.5373
X2.5128 Y1.5413
X2.5062 Y1.5447
X2.4993 Y1.5476
X2.4922 Y1.55
X2.4849 Y1.5517
X2.4775 Y1.5528
X2.4701 Y1.5533
X2.4626 Y1.5532
X2.4551 Y1.5524
X2.4478 Y1.5511
X2.4406 Y1.5492
X2.4335 Y1.5466
X2.4267 Y1.5435
X2.4161 Y1.5424
X2.4056 Y1.5406
X2.3951 Y1.5383
X2.3849 Y1.5353
X2.3748 Y1.5318
X2.3649 Y1.5277
X2.3553 Y1.523
X2.346 Y1.5178
X2.337 Y1.512
X2.3283 Y1.5057
X2.32 Y1.499
X2.3122 Y1.4918
X2.3047 Y1.4841
X2.2977 Y1.476
X2.2912 Y1.4675
X2.2852 Y1.4587
X2.2797 Y1.4495
X2.2748 Y1.4401
X2.2704 Y1.4303
X2.2666 Y1.4204
X2.2633 Y1.4102
X2.2607 Y1.3998
X2.2586 Y1.3893
X2.2572 Y1.3787
X2.2564 Y1.3681
X2.2562 Y1.3574
X2.2566 Y1.3467
X2.2576 Y1.3361
X2.2592 Y1.3255
X2.2615 Y1.3151
X2.2643 Y1.3048
X2.2678 Y1.2947
X2.2718 Y1.2848
X2.2764 Y1.2751
X2.2815 Y1.2657
X2.2872 Y1.2567
X2.2934 Y1.248
X2.3 Y1.2396
X2.3072 Y1.2317
X2.3148 Y1.2242
X2.3228 Y1.2171
X2.3312 Y1.2105
X2.34 Y1.2044
X2.3491 Y1.1988
X2.3585 Y1.1938
X2.3682 Y1.1893
X2.3781 Y1.1854
X2.3883 Y1.182
X2.3986 Y1.1793
X2.4091 Y1.1771
X2.4196 Y1.1756
X2.4303 Y1.1747
X2.441 Y1.1744
X2.4516 Y1.1747
X2.4623 Y1.1756
X2.4728 Y1.1771
X2.4833 Y1.1793
X2.4936 Y1.182
X2.5038 Y1.1854
X2.5137 Y1.1893
X2.5234 Y1.1938
X2.5328 Y1.1988
X2.5419 Y1.2044
X2.5507 Y1.2105
X2.5591 Y1.2171
X2.5671 Y1.2241
X2.5747 Y1.2316
X2.5819 Y1.2396
X2.5885 Y1.2479
X2.5947 Y1.2566
X2.6004 Y1.2657
X2.6055 Y1.2751
X2.6101 Y1.2847
X2.6141 Y1.2946
X2.6176 Y1.3047
X2.6204 Y1.315
X2.6227 Y1.3254
X2.6284 Y1.3354
X2.6335 Y1.3457
X2.6381 Y1.3563
X2.6421 Y1.3671
X2.6456 Y1.3781
X2.6484 Y1.3892
X2.6507 Y1.4005
X2.6523 Y1.4119
X2.6533 Y1.4234
X2.6537 Y1.4349
X2.6534 Y1.4464
X2.6526 Y1.4579
X2.6511 Y1.4693
X2.649 Y1.4806
X2.6464 Y1.4918
X2.6431 Y1.5028
X2.6392 Y1.5137
X2.6348 Y1.5243
X2.6297 Y1.5346
X2.6242 Y1.5447
X2.6181 Y1.5545
X2.6115 Y1.5639
X2.6044 Y1.5729
X2.5968 Y1.5816
X2.5887 Y1.5898
X2.5802 Y1.5976
X2.5714 Y1.6049
X2.5621 Y1.6118
X2.5525 Y1.6181
X2.5426 Y1.6239
X2.5323 Y1.6291
X2.5218 Y1.6338
X2.5111 Y1.638
X2.5001 Y1.6415
X2.489 Y1.6445
X2.4777 Y1.6468
X2.4663 Y1.6485
X2.4549 Y1.6496
X2.4434 Y1.6501
X2.4319 Y1.65
X2.4204 Y1.6493
X2.409 Y1.6479
X2.3976 Y1.646
X2.3864 Y1.6434
X2.3754 Y1.6402
X2.3645 Y1.6364
X2.3538 Y1.6321
X2.3434 Y1.6272
X2.3333 Y1.6217
X2.3235 Y1.6157
X2.314 Y1.6092
X2.3049 Y1.6022
X2.2961 Y1.5947
X2.2878 Y1.5867
G3 X2.1613 Y1.3524 I0.1259 J-0.2193
X2.2497 Y1.1588 I0.2781 J0.01
G1 X2.2632 Y1.1486
X2.2662 Y1.1462
G3 X2.3488 Y1.099 I0.1206 J0.1152
X2.3583 Y1.1278 I0.0016 J0.0155
G1 X2.2842 Y1.1714
G3 X2.2697 Y1.172 I-0.0079 J-0.0134
X2.2662 Y1.1462 I0.0066 J-0.0141 F50.
G2 X2.3084 Y1.0932 I-0.1303 J-0.1471 F60.
G1 X2.3132 Y1.0949
G3 X2.3185 Y1.1204 I-0.0057 J0.0145
G1 X2.3163 Y1.1225 Z-0.2172
X2.3142 Y1.1246 Z-0.2163
X2.3123 Y1.1264 Z-0.2149
X2.3107 Y1.1281 Z-0.2129
X2.3093 Y1.1295 Z-0.2106
X2.3083 Y1.1305 Z-0.2079
X2.3076 Y1.1311 Z-0.205
X2.3074 Y1.1313 Z-0.202
G0 Z-0.1864
X2.3082 Y1.1215
G1 Z-0.202 F50.
X2.3084 Y1.1213 Z-0.205
X2.3091 Y1.1208 Z-0.2079
X2.3103 Y1.1199 Z-0.2106
X2.3118 Y1.1186 Z-0.2129
X2.3136 Y1.1172 Z-0.2149
X2.3157 Y1.1155 Z-0.2163
X2.318 Y1.1137 Z-0.2172
X2.3203 Y1.1118 Z-0.2175
G3 X2.3485 Y1.099 I0.039 J0.0486
G1 X2.3603 Y1.0974 F60.
X2.3838 Y1.092
G3 X2.4772 Y1.0871 I0.0549 J0.1537
X2.4718 Y1.1168 I-0.0064 J0.0142
G1 X2.389 Y1.1225
G3 X2.3758 Y1.1168 I-0.0011 J-0.0155
X2.3838 Y1.092 I0.012 J-0.0098 F50.
G2 X2.4411 Y1.0637 I-0.0536 J-0.1809 F60.
G3 X2.434 Y1.0888 I-0.0117 J0.0102
G1 X2.4311 Y1.0897 Z-0.2172
X2.4284 Y1.0906 Z-0.2163
X2.4258 Y1.0914 Z-0.2149
X2.4235 Y1.0921 Z-0.2129
X2.4217 Y1.0927 Z-0.2106
X2.4203 Y1.0931 Z-0.2079
X2.4195 Y1.0933 Z-0.205
X2.4192 Y1.0934 Z-0.202
G0 Z-0.1864
X2.4236 Y1.0831
G1 Z-0.202 F50.
X2.4239 Y1.083 Z-0.205
X2.4248 Y1.0829 Z-0.2079
X2.4262 Y1.0827 Z-0.2106
X2.4281 Y1.0824 Z-0.2129
X2.4305 Y1.0821 Z-0.2149
X2.4331 Y1.0817 Z-0.2163
X2.436 Y1.0813 Z-0.2172
X2.439 Y1.0808 Z-0.2175
G3 X2.4698 Y1.0841 I0.009 J0.0616
G1 X2.4779 Y1.0874 F60.
X2.5014 Y1.0933
X2.5249 Y1.0984
G3 X2.5948 Y1.1305 I-0.0184 J0.132
X2.5765 Y1.1546 I-0.0119 J0.01
G1 X2.5179 Y1.1281
G3 X2.5099 Y1.1196 I0.0064 J-0.0142
X2.5249 Y1.0984 I0.0144 J-0.0057 F50.
G2 X2.5728 Y1.0933 I0.0114 J-0.1213 F60.
G1 X2.573 Y1.0938
G3 X2.5556 Y1.1133 I-0.015 J0.0041
G1 X2.5526 Y1.1128 Z-0.2172
X2.5497 Y1.1124 Z-0.2163
X2.5471 Y1.112 Z-0.2149
X2.5448 Y1.1116 Z-0.2129
X2.5428 Y1.1113 Z-0.2106
X2.5414 Y1.1111 Z-0.2079
X2.5406 Y1.111 Z-0.205
X2.5403 Y1.1109 Z-0.202
G0 Z0.4
X2.5516 Y1.1075
Z-0.1864
G1 Z-0.202 F50.
X2.5519 Z-0.205
X2.5527 Y1.1078 Z-0.2079
X2.5541 Y1.1082 Z-0.2106
X2.5559 Y1.1088 Z-0.2129
X2.5582 Y1.1095 Z-0.2149
X2.5607 Y1.1103 Z-0.2163
X2.5635 Y1.1112 Z-0.2172
X2.5664 Y1.112 Z-0.2175
G3 X2.5928 Y1.1282 I-0.0184 J0.0595
G1 X2.5955 Y1.1313 F60.
X2.6161 Y1.1486
X2.619 Y1.1509
G3 X2.6812 Y1.2158 I-0.0633 J0.1227
X2.655 Y1.2299 I-0.0152 J0.003
G1 X2.5989 Y1.1744
G3 X2.5947 Y1.1601 I0.0109 J-0.0111
X2.619 Y1.1509 I0.0152 J0.0033 F50.
G2 X2.679 Y1.1783 I0.0859 J-0.1085 F60.
G3 X2.6549 Y1.1882 I-0.0153 J-0.0029
G1 X2.6524 Y1.1865 Z-0.2172
X2.65 Y1.1848 Z-0.2163
X2.6478 Y1.1833 Z-0.2149
X2.6459 Y1.182 Z-0.2129
X2.6443 Y1.1809 Z-0.2106
X2.6431 Y1.18 Z-0.2079
X2.6424 Y1.1795 Z-0.205
X2.6421 Y1.1794 Z-0.202
G0 Z-0.1864
X2.6541 Y1.1728
G1 Z-0.202 F50.
X2.6543 Y1.173 Z-0.205
X2.6549 Y1.1737 Z-0.2079
X2.6559 Y1.1747 Z-0.2106
X2.6572 Y1.1761 Z-0.2129
X2.6589 Y1.1778 Z-0.2149
X2.6607 Y1.1797 Z-0.2163
X2.6627 Y1.1818 Z-0.2172
X2.6648 Y1.184 Z-0.2175
G3 X2.6801 Y1.211 I-0.0449 J0.0432
G2 X2.708 Y1.2729 I0.2644 J-0.082 F60.
G3 X2.7271 Y1.3224 I-0.0421 J0.0447
X2.699 Y1.3232 I-0.0142 J-0.0063
G1 X2.6821 Y1.2898
G3 Y1.2759 I0.0139 J-0.007
X2.708 Y1.2729 I0.0139 J0.0069 F50.
X2.7232 Y1.3368 I-0.004 J0.0347 F60.
G2 X2.7282 Y1.4192 I0.1893 J0.0298
G1 X2.7292 Y1.4202
X2.7301 Y1.422
X2.7325 Y1.4274
X2.7334 Y1.4314
X2.7335 Y1.4358
X2.7319 Y1.4398
X2.7289 Y1.4429
G3 X2.7144 Y1.4467 I-0.0131 J-0.0205
X2.7037 Y1.4179 I0.001 J-0.0167
X2.7301 Y1.422 I0.0117 J0.012 F50.
X2.6886 Y1.5014 I-0.1103 J-0.007 F60.
G2 X2.6785 Y1.5549 I0.083 J0.0434
X2.5675 Y1.6426 I0.0658 J0.1974
G1 X2.5536 Y1.6428
X2.5398 Y1.6435
X2.526 Y1.6449
X2.5122 Y1.6469
X2.4986 Y1.6494
X2.4851 Y1.6526
X2.4718 Y1.6564
X2.4586 Y1.6607
X2.4456 Y1.6657
X2.4329 Y1.6711
X2.419 Y1.6578
G3 X2.3003 Y1.637 I0.7507 J-4.6374
G2 X2.2008 Y1.5546 I-0.1473 J0.0765
X2.1419 Y1.4281 I-0.4658 J0.1401
X2.1485 Y1.2956 I-0.1848 J-0.0757
G1 X2.1561 Y1.2897
X2.1651 Y1.2808
X2.1721 Y1.2718
X2.1756 Y1.2662
X2.1873 Y1.2427
G2 X2.201 Y1.1775 I-0.1268 J-0.0608
G3 X2.2161 Y1.1988 I0.0006 J0.0155
G1 X2.2149 Y1.2016 Z-0.2172
X2.2139 Y1.2043 Z-0.2163
X2.2129 Y1.2068 Z-0.2149
X2.212 Y1.209 Z-0.2129
X2.2113 Y1.2107 Z-0.2106
X2.2107 Y1.2121 Z-0.2079
X2.2104 Y1.2129 Z-0.205
X2.2103 Y1.2132 Z-0.202
G0 Z0.4
X-0.9062 Y0.4501
Z0.1
G3 X-1.0153 Y0.3507 Z0.0591 I-0.0546 J-0.0497 F50.
X-0.9062 Y0.4501 Z0.0182 I0.0546 J0.0497
X-1.0153 Y0.3507 Z-0.0227 I-0.0546 J-0.0497
X-0.9062 Y0.4501 Z-0.0636 I0.0546 J0.0497
X-1.0153 Y0.3507 Z-0.1044 I-0.0546 J-0.0497
X-0.9062 Y0.4501 Z-0.1453 I0.0546 J0.0497
X-1.0153 Y0.3507 Z-0.1862 I-0.0546 J-0.0497
X-0.8869 Y0.4004 Z-0.2175 I0.0546 J0.0497
X-1.0346 I-0.0738 J0.
X-0.8872 Y0.3943 I0.0738 J0.
G1 X-0.8869 Y0.4004
G3 X-1.0541 Y0.5159 I-0.0851 J0.0555 F60.
X-0.8697 Y0.2679 I0.0922 J-0.124
X-0.8106 Y0.3607 I-0.0922 J0.124
X-1.1098 Y0.5885 I-0.1611 J0.0988
X-1.1356 Y0.2184 I0.1352 J-0.1954
G1 X-1.109 Y0.1995
G3 X-0.7792 Y0.2246 I0.151 J0.1956
G1 X-0.7777 Y0.2274
X-0.7769 Y0.2304
X-0.7766 Y0.2335
X-0.777 Y0.2366
X-0.7779 Y0.2396
X-0.7795 Y0.2423
X-0.7815 Y0.2446
X-0.784 Y0.2465
X-0.7868 Y0.2479
X-0.7898 Y0.2486
G3 X-0.7934 Y0.2488 I-0.0025 J-0.0153
G1 X-1.1007 Y0.2274
X-1.1039 Y0.2268
X-1.107 Y0.2255
G3 X-1.109 Y0.1995 I0.0074 J-0.0136 F50.
G1 X-0.9684 Y0.0997 F60.
G3 X-0.8815 Y0.0809 I0.0594 J0.0645
X-0.8893 Y0.1042 I-0.013 J0.0086
G1 X-0.8918 Y0.105
X-0.9539 Y0.1267
G3 X-0.9664 Y0.1257 I-0.0051 J-0.0147
X-0.9684 Y0.0997 I0.0074 J-0.0136 F50.
G1 X-0.9018 Y0.0524 F60.
X-0.9012 Y0.0531
X-0.7449 Y0.2732
G3 X-0.6906 Y0.5154 I-0.2155 J0.1756
X-0.7177 Y0.5093 I-0.012 J-0.0098
G1 X-0.7724 Y0.2863
G3 X-0.7709 Y0.2752 I0.0151 J-0.0037
X-0.7449 Y0.2732 I0.0136 J0.0074 F50.
G1 X-0.6286 Y0.4369 F60.
G2 X-0.7526 Y0.6192 I0.5867 J0.5323
G3 X-0.8586 Y0.7054 I-0.1266 J-0.0474
X-0.8599 Y0.6821 I0.0096 J-0.0122
G1 X-0.8567 Y0.6789
X-0.7773 Y0.601
G3 X-0.7655 Y0.5966 I0.0109 J0.0111
X-0.7509 Y0.612 I-0.0009 J0.0155 F50.
G1 X-0.7511 Y0.6145
X-0.7517 Y0.6169
X-0.7526 Y0.6192
X-0.7593 Y0.631 F60.
X-0.7689 Y0.6545
X-0.7972 Y0.7251
G3 X-0.8629 Y0.7012 I-0.0217 J-0.0427
G2 X-1.1214 Y0.6459 I-0.1997 J0.3018
G3 X-1.2978 Y0.3395 I0.04 J-0.227
G1 X-1.3003 Y0.3358
X-1.2983 Y0.3339
X-1.1356 Y0.2184
G3 X-1.1201 Y0.2175 I0.0086 J0.013
X-1.1119 Y0.2313 I-0.0067 J0.0133
X-1.2693 Y0.3387 I-0.118 J-0.0039
X-1.2828 Y0.333 I0.0393 J-0.1114 F50.
G2 X-1.2983 Y0.3339 I-0.0069 J0.0139
G1 X-1.3435 Y0.3661 F60.
G2 X-1.2734 Y0.6857 I0.193 J0.1252
X-1.1707 Y0.654 I0.0172 J-0.1261
G1 X-1.1213 Y0.6461
G2 X-1.1102 Y0.6352 I-0.0039 J-0.015
X-1.1095 Y0.6297 I-0.0201 J-0.0056
G1 X-1.1097 Y0.6267
X-1.1103 Y0.6237
X-1.1114 Y0.6209
G2 X-1.1306 Y0.6089 I-0.0189 J0.0087
X-1.2508 Y0.667 I0.002 J0.1575
X-1.2595 Y0.6788 I0.1222 J0.0993 F50.
G3 X-1.2734 Y0.6857 I-0.0129 J-0.0086
G1 X-1.3426 Y0.6788 F60.
G3 X-1.4736 Y0.4585 I0.0646 J-0.1875
G1 X-1.3435 Y0.3661
G3 X-1.328 Y0.3652 I0.0086 J0.013
X-1.3151 Y0.4282 I-0.0183 J0.0366
X-1.4446 Y0.4633 I-0.0902 J-0.0763
X-1.4581 Y0.4575 I0.0393 J-0.1114 F50.
G2 X-1.4736 Y0.4585 I-0.0069 J0.0139
G1 X-1.5038 Y0.4799 F60.
G2 X-1.5075 Y0.6633 I0.0959 J0.0937
G1 X-1.3426 Y0.6788
G2 X-1.3287 Y0.6719 I0.001 J-0.0155
X-1.3451 Y0.6139 I-0.0329 J-0.022
X-1.4837 Y0.6439 I-0.0494 J0.1073
X-1.4926 Y0.6556 I0.0893 J0.0773 F50.
G3 X-1.5066 Y0.6625 I-0.0129 J-0.0086
G1 X-1.54 Y0.6591 F60.
G3 X-1.6169 Y0.5583 I0.0185 J-0.0939
G1 X-1.6141 Y0.5566
X-1.6111 Y0.5555
X-1.6079 Y0.555
X-1.6048 Y0.5551
X-1.6017 Y0.5558
X-1.5989 Y0.557
X-1.5965 Y0.5587
X-1.5944 Y0.5609
X-1.5882 Y0.5675
X-1.5276 Y0.6331
X-1.5257 Y0.6355
X-1.5244 Y0.6382
G3 X-1.54 Y0.6591 I-0.0146 J0.0054 F50.
G1 X-1.6153 Y0.6516 F60.
G3 X-1.6719 Y0.5994 I-0.0111 J-0.0448
X-1.6566 Y0.5983 I0.0086 J0.013
G1 X-1.6433 Y0.6048
X-1.6075 Y0.6221
G3 X-1.5998 Y0.6307 I-0.0068 J0.014
X-1.6153 Y0.6516 I-0.0146 J0.0054 F50.
X-1.6793 Y0.6046 I-0.0145 J-0.0473 F60.
G1 X-1.5038 Y0.4799
G3 X-1.4891 Y0.4786 I0.0086 J0.013
G1 X-1.4871 Y0.48 Z-0.2173
X-1.4853 Y0.4814 Z-0.2168
X-1.4835 Y0.4827 Z-0.2159
X-1.4825 Y0.4845 Z-0.2146
X-1.4816 Y0.4862 Z-0.2129
X-1.4808 Y0.4876 Z-0.211
X-1.4802 Y0.4887 Z-0.2089
X-1.48 Y0.4896 Z-0.2067
X-1.4799 Y0.4902 Z-0.2044
Y0.4903 Z-0.202
G0 Z0.4
X-0.5356 Y2.0283
Z-0.1864
G1 Z-0.202 F50.
Y2.0286 Z-0.205
X-0.5355 Y2.0295 Z-0.2079
X-0.5353 Y2.0309 Z-0.2106
X-0.5351 Y2.0328 Z-0.2129
X-0.5349 Y2.0352 Z-0.2149
X-0.5347 Y2.0379 Z-0.2163
X-0.5344 Y2.0408 Z-0.2172
X-0.5341 Y2.0438 Z-0.2175
G3 X-0.5349 Y2.1292 I-0.3948 J0.0388
G1 X-0.5401 Y2.1343 F60.
X-0.5456 Y2.1389
X-0.5514 Y2.1431
X-0.5576 Y2.1468
X-0.5641 Y2.15
X-0.5708 Y2.1526
X-0.5777 Y2.1547
X-0.5847 Y2.1562
X-0.5918 Y2.1571
X-0.599 Y2.1575
X-0.6062 Y2.1573
X-0.6134 Y2.1565
X-0.6204 Y2.1551
X-0.6274 Y2.1531
X-0.6341 Y2.1506
X-0.6406 Y2.1476
X-0.6469 Y2.144
X-0.6528 Y2.14
X-0.6584 Y2.1354
X-0.6636 Y2.1305
X-0.6773 Y2.1242
X-0.6908 Y2.1175
X-0.7039 Y2.1101
X-0.7168 Y2.1023
X-0.7293 Y2.0939
X-0.7415 Y2.0851
X-0.7533 Y2.0757
X-0.7647 Y2.0659
X-0.7757 Y2.0556
X-0.7863 Y2.0449
X-0.7964 Y2.0338
X-0.8061 Y2.0223
X-0.8153 Y2.0103
X-0.824 Y1.9981
X-0.8322 Y1.9855
X-0.8399 Y1.9725
X-0.847 Y1.9593
X-0.8536 Y1.9458
X-0.8597 Y1.932
X-0.8652 Y1.918
X-0.8701 Y1.9037
X-0.8744 Y1.8893
X-0.8782 Y1.8748
X-0.8814 Y1.86
X-0.8839 Y1.8452
X-0.8859 Y1.8303
X-0.8872 Y1.8153
G3 X-0.5051 Y1.7789 I0.1983 J0.0579
X-0.2831 Y2.0764 I-0.1448 J0.3397
X-0.5582 Y2.2443 I-0.2044 J-0.0256
X-0.7381 Y2.201 I-0.0361 J-0.2455
X-0.779 Y2.1722 I0.039 J-0.0986
G1 X-0.9331 Y1.9601
X-0.9392 Y1.9488
X-0.9446 Y1.9373
X-0.9495 Y1.9255
X-0.9538 Y1.9135
X-0.9576 Y1.9013
X-0.9607 Y1.8889
X-0.9632 Y1.8764
X-0.9651 Y1.8638
X-0.9664 Y1.8511
X-0.9671 Y1.8383
Y1.8256
X-0.9665 Y1.8128
X-0.9653 Y1.8001
X-0.9635 Y1.7875
X-0.961 Y1.7749
X-0.958 Y1.7626
X-0.9543 Y1.7503
X-0.9501 Y1.7383
X-0.9453 Y1.7265
X-0.9399 Y1.7149
X-0.9339 Y1.7036
X-0.9274 Y1.6926
X-0.9204 Y1.682
X-0.9128 Y1.6717
X-0.9048 Y1.6618
X-0.8963 Y1.6523
X-0.8873 Y1.6432
X-0.8779 Y1.6346
X-0.8681 Y1.6264
X-0.8579 Y1.6187
X-0.8473 Y1.6115
X-0.8364 Y1.6049
X-0.8252 Y1.5988
X-0.8137 Y1.5933
X-0.8019 Y1.5883
X-0.79 Y1.5839
X-0.7778 Y1.5801
X-0.7654 Y1.5769
X-0.7529 Y1.5743
X-0.7403 Y1.5723
X-0.7276 Y1.5709
X-0.7149 Y1.5702
X-0.7021 Y1.5701
X-0.6894 Y1.5706
X-0.6767 Y1.5717
X-0.664 Y1.5734
X-0.6515 Y1.5758
X-0.6391 Y1.5788
X-0.6268 Y1.5824
X-0.6148 Y1.5865
X-0.6029 Y1.5913
G2 X-0.3921 Y1.7473 I0.6486 J-0.6559
G3 X-0.2006 Y1.9799 I-0.1938 J0.3546
X-0.2281 Y1.9891 I-0.0155 J-0.0008
G1 X-0.4099 Y1.7717
G3 X-0.4135 Y1.7621 I0.0119 J-0.01
X-0.3921 Y1.7473 I0.0155 J-0.0004 F50.
G2 X-0.2274 Y1.8114 I0.3313 J-0.6076 F60.
G3 X-0.1985 Y1.832 I0.0011 J0.0289
X-0.2182 Y1.8462 I-0.0155 J-0.0008
G1 X-0.2211 Y1.8454
X-0.2355 Y1.8414
G3 X-0.2467 Y1.8289 I0.0042 J-0.015
X-0.2274 Y1.8114 I0.0153 J-0.0025 F50.
G1 X-0.199 Y1.8199 F60.
X-0.1983 Y1.8206
X-0.2026 Y2.1131
G3 X-0.4639 Y2.3437 I-0.2595 J-0.0306
G2 X-0.6508 Y2.3161 I-0.1455 J0.3384
G3 X-0.674 Y2.3166 I-0.012 J-0.0174
G1 X-0.779 Y2.1722
G3 X-0.7801 Y2.1568 I0.0129 J-0.0087
X-0.7308 Y2.1225 I0.0552 J0.0268
X-0.4752 Y2.3169 I0.0229 J0.2351
G1 X-0.4731 Y2.3314 F50.
G2 X-0.4639 Y2.3439 I0.0154 J-0.0017
G3 X-0.4095 Y2.3719 I-0.0472 J0.1586 F60.
G2 X-0.2056 Y2.3215 I0.0707 J-0.1516
G1 X-0.2026 Y2.1131
G2 X-0.2293 Y2.1027 I-0.0155 J0.0003
X-0.2559 Y2.2439 I0.0948 J0.091
X-0.2232 Y2.2971 I0.1819 J-0.0753
X-0.2104 Y2.3106 I0.1492 J-0.1284 F50.
G3 X-0.2056 Y2.3215 I-0.0108 J0.0112
G1 X-0.2063 Y2.3719 F60.
G3 X-0.3061 Y2.468 I-0.1122 J-0.0167
G2 X-0.4095 Y2.3719 I-0.2572 J0.1731
G3 X-0.4157 Y2.3577 I0.0093 J-0.0125
X-0.408 Y2.3482 I0.0113 J0.0013
G1 X-0.4063 Y2.3476
G3 X-0.3054 Y2.4357 I0.0231 J0.0753
X-0.3091 Y2.4498 I-0.0777 J-0.0128 F50.
G2 X-0.3064 Y2.4651 I0.0146 J0.0053
G1 X-0.3056 Y2.466 F60.
X-0.298 Y2.4772
X-0.2968 Y2.4793
G2 X-0.2063 Y2.491 I0.0511 J-0.0389
G1 Y2.3719
G2 X-0.2351 Y2.3641 I-0.0155 J0.0003
G1 X-0.2885 Y2.4513
X-0.2963 Y2.464 F50.
G2 X-0.2968 Y2.4793 I0.0133 J0.0081
G1 X-0.2689 Y2.5285 F60.
G2 X-0.2089 Y2.5476 I0.0357 J-0.0084
G1 X-0.208 Y2.4888
G2 X-0.216 Y2.4755 I-0.0155 J0.0003
X-0.2318 Y2.4798 I-0.0057 J0.0103
X-0.2281 Y2.525 I0.0339 J0.02
X-0.2169 Y2.5343 I0.0303 J-0.0252 F50.
G3 X-0.2089 Y2.5476 I-0.0075 J0.0136
G1 X-0.2091 Y2.5623 F60.
G3 X-0.2477 Y2.586 I-0.0232 J0.0056
X-0.2405 Y2.5517 I0.0381 J-0.0099
X-0.2303 Y2.5454 I0.0138 J0.0109
X-0.2091 Y2.5623 I0.0036 J0.0172 F50.
G1 X-0.2096 Y2.5998 F60.
X-0.21 Y2.6058
X-0.2118 Y2.6115
X-0.2147 Y2.6168
X-0.2184 Y2.6215
X-0.2206 Y2.6235
X-0.2256 Y2.6261
X-0.2313 Y2.6259
X-0.2361 Y2.6229
X-0.2388 Y2.6179
G2 X-0.269 Y2.5286 I-0.275 J0.0434
G1 X-0.2702 Y2.5257
X-0.2707 Y2.5227
X-0.2706 Y2.5195
X-0.27 Y2.5165
X-0.2687 Y2.5137
X-0.2669 Y2.5112
X-0.2646 Y2.509
X-0.262 Y2.5074
X-0.2591 Y2.5064
X-0.256 Y2.5059
G3 X-0.2406 Y2.5159 I0.0009 J0.0155
G1 X-0.2197 Y2.5707
X-0.2106 Y2.5946 F50.
X-0.2099 Y2.5971
X-0.2096 Y2.5998
X-0.2101 Y2.6307 F60.
X-0.2104 Y2.6367
X-0.2124 Y2.6423
X-0.2158 Y2.6473
X-0.2162 Y2.6477
X-0.2204 Y2.6503
X-0.2254 Y2.6508
X-0.2301 Y2.6491
X-0.2335 Y2.6454
X-0.2349 Y2.6407
G3 X-0.2327 Y2.632 I0.0155 J-0.0006
G1 X-0.228 Y2.6306 F50.
X-0.2251 Y2.6273
X-0.2277 Y2.6269
G2 X-0.2349 Y2.6407 I0.0083 J0.0132
G1 X-0.234 Y2.6542 F60.
X-0.2333 Y2.6602
X-0.2306 Y2.6655
X-0.2296 Y2.6666
X-0.2253 Y2.6695
X-0.2201 Y2.67
X-0.2152 Y2.6682
X-0.2118 Y2.6643
X-0.2105 Y2.6593
X-0.2101 Y2.6307
G2 X-0.2181 Y2.6174 I-0.0155 J0.0003
X-0.2325 Y2.6329 I-0.0053 J0.0096
X-0.2297 Y2.6367 I0.033 J-0.0214
X-0.2185 Y2.646 I0.0303 J-0.0252 F50.
G3 X-0.2105 Y2.6593 I-0.0075 J0.0136
G1 X-0.2107 Y2.6743 F60.
X-0.2111 Y2.6803
X-0.2117 Y2.6815
X-0.2155 Y2.6857
X-0.2209 Y2.6874
X-0.2264 Y2.6863
X-0.2307 Y2.6825
X-0.2325 Y2.6771
X-0.234 Y2.6542
G3 X-0.2266 Y2.6405 I0.0155 J-0.0005
X-0.2144 Y2.6536 I0.0048 J0.0078
X-0.2251 Y2.6635 I-0.0315 J-0.0236 F50.
G2 X-0.2325 Y2.6771 I0.0082 J0.0132
G1 X-0.2316 Y2.6907 F60.
X-0.2309 Y2.6966
X-0.2273 Y2.7008
X-0.222 Y2.7026
X-0.2166 Y2.7014
X-0.2125 Y2.6976
X-0.2109 Y2.6922
X-0.2107 Y2.6743
G2 X-0.2187 Y2.6611 I-0.0155 J0.0003
X-0.2294 Y2.6691 I-0.0035 J0.0064
X-0.2274 Y2.6727 I0.0071 J-0.0017 F50.
X-0.219 Y2.679 I0.0274 J-0.0283
G3 X-0.2109 Y2.6922 I-0.0075 J0.0136
G1 X-0.2111 Y2.7052 F60.
X-0.2115 Y2.7112
X-0.215 Y2.7154
X-0.2201 Y2.7172
X-0.2255 Y2.7161
X-0.2295 Y2.7124
X-0.2309 Y2.7071
Y2.7013
X-0.2316 Y2.6907
G3 X-0.2243 Y2.677 I0.0155 J-0.0005
X-0.2129 Y2.6839 I0.0039 J0.0063
X-0.2155 Y2.689 I-0.0074 J-0.0005 F50.
X-0.2227 Y2.694 I-0.0257 J-0.0298
G2 X-0.2309 Y2.7071 I0.0073 J0.0137
G1 Y2.713 F60.
X-0.2318 Y2.7195
X-0.2322 Y2.7255
X-0.2294 Y2.7295
X-0.2252 Y2.732
X-0.2203 Y2.7322
X-0.2157 Y2.7303
X-0.2126 Y2.7265
X-0.2114 Y2.7218
X-0.2111 Y2.7052
G2 X-0.2192 Y2.6919 I-0.0155 J0.0003
X-0.2293 Y2.6983 I-0.0033 J0.006
X-0.2271 Y2.7029 I0.0068 J-0.0005 F50.
X-0.2194 Y2.7085 I0.0267 J-0.0289
G3 X-0.2114 Y2.7218 I-0.0075 J0.0136
G1 X-0.2116 Y2.7369 F60.
X-0.212 Y2.7429
X-0.2149 Y2.7481
X-0.216 Y2.7494
X-0.2208 Y2.7522
X-0.2263 Y2.7525
X-0.2312 Y2.75
X-0.2344 Y2.7454
X-0.2349 Y2.7399
X-0.2324 Y2.7248
X-0.2318 Y2.7195
G3 X-0.2256 Y2.715 I0.0053 J0.0009
X-0.2233 Y2.7159 I-0.001 J0.0063
X-0.2212 Y2.7248 I-0.0033 J0.0055 F50.
X-0.2326 Y2.7365 I-0.0333 J-0.021
G2 X-0.2349 Y2.7399 I0.003 J0.0045
G1 X-0.2372 Y2.754 F60.
X-0.2378 Y2.76
X-0.2363 Y2.7658
X-0.2332 Y2.7709
X-0.2308 Y2.7732
X-0.2265 Y2.7759
X-0.2214 Y2.7763
X-0.2166 Y2.7744
X-0.2133 Y2.7705
X-0.212 Y2.7656
X-0.2116 Y2.7369
G2 X-0.2209 Y2.7333 I-0.0054 J0.0001
X-0.2238 Y2.7383 I0.0091 J0.0087
X-0.2237 Y2.746 I0.012 J0.0036 F50.
X-0.2137 Y2.7618 I0.0373 J-0.0126
G3 X-0.212 Y2.7656 I-0.0037 J0.0039
G1 X-0.2122 Y2.779 F60.
X-0.2126 Y2.785
X-0.2149 Y2.7905
X-0.2187 Y2.7951
X-0.2235 Y2.7987
X-0.2289 Y2.8013
X-0.2295 Y2.8014
X-0.235 Y2.8015
X-0.2398 Y2.7989
X-0.2428 Y2.7943
X-0.2432 Y2.7888
G3 X-0.2347 Y2.7717 I0.0384 J0.0085
G1 X-0.2339 Y2.7708 F50.
G3 X-0.2122 Y2.779 I0.0093 J0.0084
G1 X-0.2126 Y2.8075 F60.
G3 X-0.2541 Y2.8208 I-0.0214 J0.0047
X-0.2373 Y2.8026 I0.0359 J0.0161
X-0.2238 Y2.798 I0.0192 J0.0344 F50.
X-0.2126 Y2.8075 I0.0014 J0.0097
G1 X-0.2131 Y2.8424 F60.
G3 X-0.2695 Y2.8749 I-0.0393 J-0.0032
G1 X-0.2707 Y2.8725
X-0.2715 Y2.8701
X-0.2717 Y2.8675
X-0.2715 Y2.8649
X-0.2708 Y2.8625
X-0.2696 Y2.8603
X-0.268 Y2.8584
X-0.2661 Y2.8568
X-0.2567 Y2.8499
X-0.2359 Y2.8346
X-0.2331 Y2.8326 F50.
G3 X-0.2131 Y2.8424 I0.0075 J0.0101
X-0.2628 Y2.8838 I-0.0249 J0.0207 F60.
Y2.8424 I0.0249 J-0.0207
G2 X-0.2372 Y2.754 I-0.2051 J-0.1075
G3 X-0.2278 Y2.7427 I0.0152 J0.003
G1 X-0.2248 Y2.7421 Z-0.2172
X-0.2219 Y2.7415 Z-0.2163
X-0.2193 Y2.7421 Z-0.2149
X-0.2171 Y2.7426 Z-0.2129
X-0.2152 Y2.743 Z-0.2106
X-0.214 Y2.7438 Z-0.2079
X-0.2132 Y2.7442 Z-0.205
X-0.213 Y2.7444 Z-0.202
G0 Z0.4
X-0.8944 Y1.9851
Z-0.1864
G1 Z-0.202 F50.
X-0.8946 Y1.985 Z-0.205
X-0.8954 Y1.9846 Z-0.2079
X-0.8968 Y1.9841 Z-0.2106
X-0.8985 Y1.9833 Z-0.2129
X-0.9007 Y1.9824 Z-0.2149
X-0.9032 Y1.9813 Z-0.2163
X-0.9058 Y1.9802 Z-0.2172
X-0.9086 Y1.979 Z-0.2175
G3 X-0.9331 Y1.9601 I0.0246 J-0.0572
G1 X-1.0185 Y1.8426 F60.
G3 X-0.7833 Y1.4962 I0.2472 J-0.0852
X-0.6915 Y1.4814 I0.0547 J0.0468
G1 X-0.661 Y1.525
X-0.6508 Y1.537
X-0.6022 Y1.5898
G3 X-0.6039 Y1.6117 I-0.0118 J0.0101
X-0.6431 Y1.6133 I-0.0206 J-0.024
X-0.6917 Y1.5116 I0.0693 J-0.0956
X-0.6893 Y1.4931 I0.118 J0.0061 F50.
G2 X-0.6915 Y1.4814 I-0.0152 J-0.0032
G1 X-0.7103 Y1.4544 F60.
X-0.7137 Y1.4496
X-0.7237 Y1.4436
X-0.734 Y1.4382
X-0.7446 Y1.4333
X-0.7554 Y1.429
X-0.7664 Y1.4252
X-0.7776 Y1.422
X-0.789 Y1.4194
X-0.8005 Y1.4174
X-0.812 Y1.416
X-0.8236 Y1.4152
X-0.8353 Y1.415
X-0.8469 Y1.4154
X-0.8585 Y1.4164
X-0.8701 Y1.418
X-0.8815 Y1.4202
X-0.8928 Y1.423
X-0.904 Y1.4264
X-0.9149 Y1.4303
X-0.9257 Y1.4348
X-0.9361 Y1.4399
X-0.9464 Y1.4455
X-0.9563 Y1.4516
X-0.9659 Y1.4582
X-0.9751 Y1.4653
X-0.9839 Y1.4729
X-0.9924 Y1.4809
X-1.0004 Y1.4893
X-1.008 Y1.4982
X-1.0151 Y1.5074
X-1.0217 Y1.517
X-1.0278 Y1.5269
X-1.0334 Y1.5371
G2 X-1.1249 Y1.6962 I0.1141 J0.1715
G1 X-1.0185 Y1.8426
G2 X-1.0041 Y1.8484 I0.0122 J-0.0096
X-0.9761 Y1.8151 I-0.0045 J-0.0322
X-1.0959 Y1.7009 I-0.118 J0.0039
X-1.1105 Y1.702 I0.0017 J0.1181 F50.
G3 X-1.1249 Y1.6962 I-0.0021 J-0.0154
G1 X-1.1514 Y1.6597 F60.
G3 X-0.9682 Y1.3664 I0.2384 J-0.0549
X-0.7785 Y1.3249 I0.131 J0.1444
G2 X-0.7137 Y1.4496 I0.5991 J-0.2322
G3 X-0.713 Y1.4651 I-0.0131 J0.0084
X-0.7233 Y1.4713 I-0.0103 J-0.0053
G1 X-0.7252
G3 X-0.7903 Y1.3519 I0.0023 J-0.0787
X-0.7816 Y1.3401 I0.0674 J0.0407 F50.
G2 X-0.7785 Y1.3249 I-0.0116 J-0.0104
G1 X-0.7828 Y1.3132 F60.
X-0.7874 Y1.3003
G2 X-0.8263 Y1.269 I-0.034 J0.0024
G3 X-1.0743 Y1.3587 I-0.2327 J-0.2556
G2 X-1.2464 Y1.5311 I0.0417 J0.2138
G1 X-1.1514 Y1.6597
G2 X-1.137 Y1.6655 I0.0122 J-0.0096
X-1.1016 Y1.6248 I-0.0057 J-0.0407
X-1.1048 Y1.609 I-0.0411 J0.
X-1.2156 Y1.5362 I-0.1091 J0.0452
X-1.2302 Y1.5373 I0.0017 J0.1181 F50.
G3 X-1.2446 Y1.5315 I-0.0021 J-0.0154
G1 X-1.2664 Y1.5014 F60.
G3 X-1.2091 Y1.325 I0.1219 J-0.058
G2 X-1.0978 Y1.3577 I0.1233 J-0.2141
G3 X-1.0864 Y1.3682 I-0.0035 J0.0152
X-1.1188 Y1.4134 I-0.0333 J0.0103
X-1.1971 Y1.3543 I-0.002 J-0.0787
X-1.1994 Y1.3399 I0.0762 J-0.0197 F50.
G2 X-1.208 Y1.327 I-0.0155 J0.001
G1 X-1.2313 Y1.3165 F60.
G2 X-1.3497 Y1.3895 I-0.0236 J0.0944
G1 X-1.2664 Y1.5014
G2 X-1.2446 Y1.5041 I0.0122 J-0.0096
X-1.2373 Y1.4824 I-0.0127 J-0.0163
X-1.3187 Y1.3996 I-0.1141 J0.0307
X-1.337 Y1.3959 I-0.0327 J0.1135 F50.
G3 X-1.3474 Y1.39 I0.0019 J-0.0154
G1 X-1.3634 Y1.368 F60.
G3 X-1.3152 Y1.253 I0.0733 J-0.0369
G2 X-1.2313 Y1.3165 I0.2369 J-0.226
G3 X-1.2331 Y1.3452 I-0.0069 J0.0139
X-1.2564 Y1.3451 I-0.0116 J-0.0343
X-1.3082 Y1.2866 I0.0253 J-0.0746
X-1.3098 Y1.268 I0.0771 J-0.016 F50.
G2 X-1.314 Y1.2568 I-0.0155 J-0.0005
G1 X-1.3189 Y1.252 F60.
X-1.3231 Y1.2469
G2 X-1.4288 Y1.2808 I-0.0415 J0.0522
G1 X-1.3634 Y1.368
G2 X-1.349 Y1.3738 I0.0122 J-0.0096
X-1.3274 Y1.3373 I-0.0038 J-0.0269
X-1.3972 Y1.2866 I-0.0736 J0.028
X-1.4119 Y1.2873 I-0.0037 J0.0787 F50.
G3 X-1.4262 Y1.2815 I-0.0021 J-0.0154
G1 X-1.4374 Y1.2662 F60.
G3 X-1.3771 Y1.1674 I0.0615 J-0.0303
G2 X-1.3231 Y1.2469 I0.2362 J-0.1026
G3 X-1.326 Y1.2686 I-0.0124 J0.0094
X-1.3613 Y1.2655 I-0.016 J-0.021
X-1.3815 Y1.2016 I0.0579 J-0.0534
X-1.3768 Y1.1835 I0.078 J0.0105 F50.
G2 X-1.3771 Y1.1717 I-0.0145 J-0.0056
G1 X-1.3845 Y1.1561 F60.
G2 X-1.5 Y1.1827 I-0.0499 J0.0471
G1 X-1.4374 Y1.2662
G2 X-1.423 Y1.272 I0.0122 J-0.0096
X-1.4019 Y1.2317 I-0.0039 J-0.0277
X-1.4684 Y1.1887 I-0.0702 J0.0356
X-1.483 Y1.1893 I-0.0037 J0.0787 F50.
G3 X-1.4974 Y1.1835 I-0.0021 J-0.0154
G1 X-1.5081 Y1.1689 F60.
G3 X-1.413 Y1.0649 I0.0732 J-0.0285
G2 X-1.3845 Y1.1561 I0.2034 J-0.0134
G3 X-1.3925 Y1.1766 I-0.0142 J0.0062
X-1.416 Y1.1701 I-0.0077 J-0.0176
X-1.4252 Y1.0964 I0.0643 J-0.0455
X-1.4164 Y1.0799 I0.0735 J0.0283 F50.
G2 X-1.4139 Y1.0682 I-0.0128 J-0.0088
G1 X-1.4179 Y1.05 F60.
X-1.419 Y1.0462
X-1.4195 Y1.0459
X-1.4929 Y1.0386
G2 X-1.568 Y1.0864 I-0.0134 J0.0618
G1 X-1.5081 Y1.1689
G2 X-1.4803 Y1.1594 I0.0122 J-0.0096
G1 X-1.4795 Y1.0626
Y1.0541 F50.
G2 X-1.4929 Y1.0386 I-0.0155 J-0.0001
G1 X-1.5683 Y1.0311 F60.
X-1.5743 Y1.0308
X-1.5805 Y1.0315
X-1.5869 Y1.0331
X-1.5891 Y1.034
X-1.5932 Y1.0368
X-1.5956 Y1.0412
X-1.5959 Y1.0461
X-1.5939 Y1.0507
X-1.568 Y1.0864
G2 X-1.5417 Y1.0701 I0.0122 J-0.0096
G1 X-1.5496 Y1.0538
X-1.5564 Y1.0397 F50.
G2 X-1.5683 Y1.0311 I-0.014 J0.0067
G1 X-1.5984 Y1.0281 F60.
X-1.6044 Y1.0278
X-1.6063 Y1.0291
X-1.6071 Y1.0313
X-1.6064 Y1.0336
X-1.5939 Y1.0507
G2 X-1.5876 Y1.0523 I0.0042 J-0.0033
X-1.5852 Y1.0444 I-0.0021 J-0.005 F50.
G1 X-1.5946 Y1.0304
X-1.5956 Y1.0293
X-1.5969 Y1.0285
X-1.5984 Y1.0281
X-1.6079 Y1.0271 F60.
X-1.6104 Y1.027
X-1.6108 Y1.0275
X-1.6064 Y1.0336
G2 X-1.5904 Y1.0391 I0.0122 J-0.0096
G3 X-1.579 Y1.0379 I0.0095 J0.0382
G1 X-1.5793 Y1.0387
G2 X-1.6079 Y1.0271 I-0.037 J0.0501 F50.
G1 X-1.6103 Y1.0269 F60.
X-1.6104 Y1.027
G0 Z0.4
X-1.424 Y1.0958
Z-0.1864
G1 Z-0.202 F50.
X-1.4239 Y1.0955 Z-0.205
X-1.4236 Y1.0946 Z-0.2079
X-1.4232 Y1.0933 Z-0.2106
X-1.4226 Y1.0914 Z-0.2129
X-1.422 Y1.0892 Z-0.2149
X-1.4212 Y1.0866 Z-0.2163
X-1.4203 Y1.0838 Z-0.2172
X-1.4194 Y1.0809 Z-0.2175
G2 X-1.4179 Y1.05 I-0.0595 J-0.0184
G1 X-1.4184 Y1.0478 F60.
X-1.4189 Y1.0464
X-1.419 Y1.0462
X-1.4209 Y1.0482
X-1.4199 Y1.0511 Z-0.2172
X-1.419 Y1.0538 Z-0.2163
X-1.4181 Y1.0564 Z-0.2149
X-1.4173 Y1.0586 Z-0.2129
X-1.4167 Y1.0604 Z-0.2106
X-1.4162 Y1.0618 Z-0.2079
X-1.4159 Y1.0626 Z-0.205
X-1.4158 Y1.0629 Z-0.202
G0 Z0.4
X-0.7886 Y1.3464
Z-0.1864
G1 Z-0.202 F50.
X-0.7885 Y1.3461 Z-0.205
X-0.7884 Y1.3453 Z-0.2079
X-0.7881 Y1.3438 Z-0.2106
X-0.7877 Y1.3419 Z-0.2129
X-0.7873 Y1.3396 Z-0.2149
X-0.7868 Y1.337 Z-0.2163
X-0.7862 Y1.3341 Z-0.2172
X-0.7856 Y1.3312 Z-0.2175
G2 X-0.7874 Y1.3003 I-0.0611 J-0.012
G1 X-0.8034 Y1.2554 F60.
X-0.8056 Y1.2501
X-0.8263 Y1.269
G2 X-0.8222 Y1.2782 I0.0038 J0.0038
X-0.8185 Y1.2764 I-0.0003 J-0.0054 F50.
X-0.8034 Y1.2554 I-0.0056 J-0.0199
G1 X-0.8051 Y1.2506 F60.
X-0.8055 Y1.2499
X-0.8056 Y1.2501
G2 X-0.8072 Y1.2518 I0.0109 J0.0111
G1 X-0.8082 Y1.254 Z-0.2173
X-0.8091 Y1.2561 Z-0.2168
X-0.81 Y1.2581 Z-0.2159
X-0.8102 Y1.2597 Z-0.215
X-0.8103 Y1.2611 Z-0.2139
X-0.81 Y1.263 Z-0.212
X-0.8097 Y1.2645 Z-0.2097
X-0.8095 Y1.2657 Z-0.2073
X-0.8094 Y1.2664 Z-0.2047
X-0.8093 Y1.2666 Z-0.202
G0 Z0.4
X-0.8083 Y3.2843
Z0.1
G3 X-0.9174 Y3.1848 Z0.0591 I-0.0546 J-0.0497 F50.
X-0.8083 Y3.2843 Z0.0182 I0.0546 J0.0497
X-0.9174 Y3.1848 Z-0.0227 I-0.0546 J-0.0497
X-0.8083 Y3.2843 Z-0.0636 I0.0546 J0.0497
X-0.9174 Y3.1848 Z-0.1044 I-0.0546 J-0.0497
X-0.8083 Y3.2843 Z-0.1453 I0.0546 J0.0497
X-0.9174 Y3.1848 Z-0.1862 I-0.0546 J-0.0497
X-0.789 Y3.2346 Z-0.2175 I0.0546 J0.0497
X-0.9366 I-0.0738 J0.
X-0.7893 Y3.2285 I0.0738 J0.
G1 X-0.789 Y3.2346
G3 X-0.9563 Y3.3501 I-0.0853 J0.0554 F60.
G1 X-0.964 Y3.344
X-0.9712 Y3.3375
X-0.9781 Y3.3304
X-0.9845 Y3.323
X-0.9903 Y3.3151
X-0.9957 Y3.307
X-1.0006 Y3.2984
X-1.0049 Y3.2896
X-1.0086 Y3.2806
X-1.0118 Y3.2713
X-1.0143 Y3.2618
X-1.0163 Y3.2522
X-1.0176 Y3.2425
X-1.0184 Y3.2327
X-1.0185 Y3.2229
X-1.0179 Y3.2131
X-1.0168 Y3.2034
X-1.015 Y3.1938
X-1.0127 Y3.1842
X-1.0097 Y3.1749
X-1.0062 Y3.1658
X-1.0021 Y3.1569
X-0.9974 Y3.1482
X-0.9922 Y3.1399
X-0.9865 Y3.132
X-0.9803 Y3.1244
X-0.9736 Y3.1172
X-0.9665 Y3.1105
X-0.9589 Y3.1042
X-0.951 Y3.0985
X-0.9427 Y3.0932
X-0.9342 Y3.0885
X-0.9253 Y3.0843
X-0.9162 Y3.0807
X-0.9069 Y3.0777
X-0.8974 Y3.0752
X-0.8877 Y3.0734
X-0.878 Y3.0722
X-0.8682 Y3.0716
X-0.8584 Y3.0717
X-0.8486 Y3.0723
X-0.8389 Y3.0736
X-0.8293 Y3.0755
X-0.8198 Y3.078
X-0.8105 Y3.0811
X-0.8015 Y3.0847
X-0.7926 Y3.089
X-0.7841 Y3.0938
X-0.7759 Y3.0991
X-0.768 Y3.1049
X-0.7605 Y3.1113
X-0.7534 Y3.118
X-0.7468 Y3.1252
X-0.7406 Y3.1329
X-0.735 Y3.1409
X-0.7298 Y3.1492
X-0.7252 Y3.1579
X-0.7212 Y3.1668
X-0.7177 Y3.1759
X-0.7148 Y3.1853
X-0.7125 Y3.1948
X-0.7073 Y3.2044
X-0.7026 Y3.2143
X-0.6984 Y3.2244
X-0.6949 Y3.2348
X-0.6919 Y3.2453
X-0.6895 Y3.256
X-0.6878 Y3.2668
X-0.6867 Y3.2777
X-0.6861 Y3.2886
X-0.6863 Y3.2995
X-0.687 Y3.3105
X-0.6883 Y3.3213
X-0.6903 Y3.3321
X-0.6929 Y3.3427
X-0.6961 Y3.3532
X-0.6998 Y3.3635
X-0.7042 Y3.3735
X-0.7091 Y3.3833
X-0.7146 Y3.3928
X-0.7205 Y3.4019
X-0.7271 Y3.4107
X-0.734 Y3.4191
X-0.7415 Y3.4271
X-0.7494 Y3.4347
X-0.7577 Y3.4418
X-0.7664 Y3.4484
X-0.7755 Y3.4545
X-0.7849 Y3.4601
X-0.7946 Y3.4652
X-0.8046 Y3.4696
X-0.8148 Y3.4736
X-0.8252 Y3.4769
X-0.8358 Y3.4796
X-0.8466 Y3.4817
X-0.8574 Y3.4832
X-0.8683 Y3.4841
X-0.8792 Y3.4844
X-0.8902 Y3.484
X-0.9011 Y3.483
X-0.9119 Y3.4814
X-0.9226 Y3.4792
X-0.9332 Y3.4764
X-0.9436 Y3.473
X-0.9537 Y3.469
X-0.9637 Y3.4644
X-0.9733 Y3.4593
X-0.9827 Y3.4536
X-0.9917 Y3.4474
X-1.0003 Y3.4407
X-1.0086 Y3.4335
X-1.0164 Y3.4259
X-1.0238 Y3.4178
X-1.0915 Y3.2424
X-1.0934 Y3.2312
X-1.0948 Y3.2199
X-1.0956 Y3.2085
X-1.0958 Y3.1972
X-1.0954 Y3.1858
X-1.0943 Y3.1745
X-1.0927 Y3.1632
X-1.0905 Y3.152
X-1.0878 Y3.141
X-1.0844 Y3.1301
X-1.0805 Y3.1195
X-1.076 Y3.109
X-1.071 Y3.0988
X-1.0655 Y3.0889
X-1.0594 Y3.0793
X-1.0529 Y3.07
X-1.0458 Y3.061
X-1.0383 Y3.0525
X-1.0304 Y3.0443
X-1.022 Y3.0366
X-1.0133 Y3.0293
X-1.0042 Y3.0225
X-0.9947 Y3.0162
X-0.9849 Y3.0104
X-0.9749 Y3.0051
X-0.9645 Y3.0004
X-0.954 Y2.9962
X-0.9432 Y2.9925
X-0.9322 Y2.9895
X-0.9211 Y2.987
X-0.9099 Y2.9851
X-0.8986 Y2.9838
X-0.8873 Y2.9831
X-0.8759 Y2.9829
X-0.8646 Y2.9834
X-0.8532 Y2.9845
G2 X-0.7276 Y3.0542 I0.2158 J-0.241
G3 X-0.6052 Y3.1895 I-0.0716 J0.1878
G1 X-0.607 Y3.1922
X-0.6092 Y3.1945
X-0.6118 Y3.1963
X-0.6147 Y3.1976
X-0.6178 Y3.1983
X-0.6209 Y3.1984
X-0.6239 Y3.1979
X-0.6268 Y3.1968
X-0.6294 Y3.1952
X-0.6316 Y3.1932
X-0.6331 Y3.1916
X-0.7421 Y3.0802
X-0.744 Y3.0779
X-0.7454 Y3.0752
X-0.7463 Y3.0724
G3 X-0.7276 Y3.0542 I0.0152 J-0.003 F50.
G2 X-0.6273 Y3.0716 I0.0921 J-0.2327 F60.
G3 X-0.565 Y3.101 I-0.0123 J0.1068
X-0.5844 Y3.1238 I-0.0129 J0.0087
G1 X-0.6337 Y3.1013
G3 X-0.6413 Y3.0936 I0.0065 J-0.0141
X-0.6273 Y3.0716 I0.0142 J-0.0064 F50.
G1 X-0.6221 Y3.0697 F60.
X-0.6166 Y3.0685
X-0.6111 Y3.0678
X-0.6056
X-0.6 Y3.0684
X-0.5946 Y3.0696
X-0.5894 Y3.0715
X-0.5843 Y3.0739
X-0.5796 Y3.0768
X-0.5753 Y3.0803
X-0.5713 Y3.0842
X-0.5678 Y3.0885
X-0.5649 Y3.0932
X-0.5625 Y3.0982
X-0.5606 Y3.1035
X-0.5594 Y3.1089
X-0.5588 Y3.1144
Y3.12
X-0.5594 Y3.1255
G2 X-0.6871 Y3.4435 I0.4644 J0.3712
G3 X-0.9802 Y3.5502 I-0.1977 J-0.0871
X-0.9711 Y3.531 I0.0148 J-0.0048
G1 X-0.9641 Y3.5282
X-0.7083 Y3.4273
X-0.7072 Y3.4269
G3 X-0.6871 Y3.4435 I0.0047 J0.0148 F50.
G2 X-0.6901 Y3.5318 I0.5536 J0.0629 F60.
G1 X-0.6904 Y3.5482
X-0.6905 Y3.5492
X-0.691 Y3.5498
X-0.9225 Y3.6335
X-0.9257 Y3.6347
X-0.9315 Y3.6364
X-0.939 Y3.6376
X-0.944 Y3.6373
X-0.9484 Y3.6347
X-0.9511 Y3.6305
G3 X-0.9524 Y3.6133 I0.0349 J-0.0113
X-0.9149 Y3.6091 I0.0194 J0.0032
X-0.9257 Y3.6347 I-0.0182 J0.0074 F50.
G1 X-0.9469 Y3.6423 F60.
X-1.027 Y3.4206
G3 X-1.0272 Y3.4105 I0.0146 J-0.0053
G2 Y3.4008 I-0.0148 J-0.0048
G1 X-1.0305 Y3.3906
X-1.0683 Y3.2745
X-1.0694 Y3.2718
X-1.0711 Y3.2694
X-1.0732 Y3.2673
G3 X-1.0915 Y3.2424 I0.0395 J-0.0482 F50.
G1 X-1.134 Y3.1247 F60.
G3 X-0.9286 Y2.9005 I0.2134 J-0.0107
G2 X-0.8532 Y2.9845 I0.243 J-0.1423
G3 X-0.8487 Y2.9994 I-0.0106 J0.0114
X-0.8937 Y3.02 I-0.0304 J-0.0069
X-0.9327 Y2.9297 I0.037 J-0.0695
X-0.9275 Y2.916 I0.076 J0.0207 F50.
G2 X-0.9286 Y2.9005 I-0.014 J-0.0068
G1 X-0.9367 Y2.8895 F60.
X-0.9407 Y2.883
G2 X-1.1907 Y2.9679 I-0.0921 J0.1392
G1 X-1.134 Y3.1247
G2 X-1.1218 Y3.1343 I0.0144 J-0.0058
X-1.0772 Y3.0963 I0.0056 J-0.0386
X-1.1641 Y2.9805 I-0.1181 J-0.002
X-1.1785 Y2.9775 I-0.0312 J0.1139 F50.
G3 X-1.1907 Y2.9679 I0.0022 J-0.0154
G1 X-1.2046 Y2.9294 F60.
X-1.2045 Y2.9193
X-1.2038 Y2.9092
X-1.2025 Y2.8992
X-1.2006 Y2.8892
X-1.1981 Y2.8794
X-1.195 Y2.8698
X-1.1913 Y2.8604
X-1.1871 Y2.8512
X-1.1824 Y2.8422
X-1.1771 Y2.8336
X-1.1713 Y2.8253
X-1.165 Y2.8174
X-1.1583 Y2.8098
X-1.1511 Y2.8027
X-1.1435 Y2.796
X-1.1356 Y2.7898
X-1.1272 Y2.784
X-1.1186 Y2.7788
X-1.1096 Y2.7741
X-1.1004 Y2.77
X-1.0909 Y2.7664
X-1.0813 Y2.7633
X-1.0715 Y2.7609
X-1.0615 Y2.7591
X-1.0515 Y2.7578
X-1.0414 Y2.7572
X-1.0313 Y2.7571
X-1.0212 Y2.7577
X-1.0111 Y2.7589
X-1.0012 Y2.7606
X-0.9913 Y2.763
X-0.9817 Y2.7659
G2 X-0.9493 Y2.866 I0.2129 J-0.0136
G1 X-0.944 Y2.8777
X-0.9407 Y2.883
G3 Y2.8985 I-0.0135 J0.0078
X-0.9872 Y2.9081 I-0.0275 J-0.0159
X-0.9991 Y2.7929 I0.0472 J-0.063
X-0.9884 Y2.7829 I0.059 J0.0521 F50.
G2 X-0.9825 Y2.7685 I-0.0095 J-0.0123
G1 X-0.986 Y2.7483 F60.
X-0.9922 Y2.7408
X-0.9988 Y2.7337
X-1.0058 Y2.727
X-1.0133 Y2.7207
X-1.0211 Y2.715
X-1.0293 Y2.7097
X-1.0378 Y2.705
X-1.0466 Y2.7008
X-1.0556 Y2.6972
X-1.0648 Y2.6942
X-1.0742 Y2.6917
X-1.0838 Y2.6898
X-1.0934 Y2.6886
X-1.1031 Y2.6879
X-1.1128
X-1.1225 Y2.6884
X-1.1322 Y2.6896
X-1.1418 Y2.6914
X-1.1512 Y2.6938
X-1.1604 Y2.6967
X-1.1695 Y2.7003
X-1.1783 Y2.7044
X-1.1868 Y2.709
X-1.1951 Y2.7142
X-1.203 Y2.7199
X-1.2105 Y2.726
X-1.2176 Y2.7327
X-1.2243 Y2.7397
X-1.2305 Y2.7472
X-1.2363 Y2.755
X-1.2415 Y2.7632
X-1.2462 Y2.7717
X-1.2504 Y2.7805
X-1.254 Y2.7895
X-1.2046 Y2.9294
G2 X-1.1924 Y2.939 I0.0144 J-0.0058
X-1.1454 Y2.8869 I0.006 J-0.0418
X-1.2288 Y2.8016 I-0.1146 J0.0286
X-1.2432 Y2.7986 I-0.0312 J0.1139 F50.
G3 X-1.2554 Y2.789 I0.0022 J-0.0154
G1 X-1.2667 Y2.7578 F60.
X-1.2659 Y2.7475
X-1.2645 Y2.7373
X-1.2625 Y2.7272
X-1.26 Y2.7172
X-1.2568 Y2.7074
X-1.2531 Y2.6977
X-1.2488 Y2.6884
X-1.2439 Y2.6793
X-1.2386 Y2.6704
X-1.2327 Y2.662
X-1.2263 Y2.6539
X-1.2195 Y2.6462
X-1.2122 Y2.6389
X-1.2045 Y2.632
X-1.1964 Y2.6256
X-1.1879 Y2.6197
X-1.1791 Y2.6143
X-1.17 Y2.6095
X-1.1606 Y2.6052
X-1.151 Y2.6014
X-1.1412 Y2.5983
X-1.1312 Y2.5957
X-1.1211 Y2.5937
X-1.1109 Y2.5923
X-1.1006 Y2.5916
X-1.0903 Y2.5914
X-1.08 Y2.5918
X-1.0697 Y2.5929
X-1.0596 Y2.5945
X-1.0495 Y2.5968
X-1.0396 Y2.5997
X-1.0299 Y2.6031
X-1.0204 Y2.6071
X-1.0111 Y2.6116
X-1.0021 Y2.6167
X-0.9935 Y2.6224
X-0.9852 Y2.6285
G2 X-0.986 Y2.7483 I0.3173 J0.062
G3 X-0.9993 Y2.7658 I-0.0154 J0.0021
X-1.0157 Y2.7596 I-0.0025 J-0.0182
X-1.0091 Y2.6503 I0.0598 J-0.0512
X-0.9939 Y2.6394 I0.0532 J0.0581 F50.
G2 X-0.9865 Y2.6301 I-0.0075 J-0.0136
G1 X-0.9818 Y2.6116 F60.
X-0.9835 Y2.603
X-0.9858 Y2.5946
X-0.9887 Y2.5864
X-0.9921 Y2.5784
X-0.9961 Y2.5706
X-1.0006 Y2.5632
X-1.0056 Y2.5561
X-1.0111 Y2.5493
X-1.0171 Y2.5429
X-1.0235 Y2.537
X-1.0303 Y2.5316
X-1.0374 Y2.5266
X-1.0449 Y2.5221
X-1.0527 Y2.5182
X-1.0607 Y2.5148
X-1.069 Y2.512
X-1.0774 Y2.5098
X-1.086 Y2.5082
X-1.0946 Y2.5071
X-1.1033 Y2.5067
X-1.112 Y2.5069
X-1.1207 Y2.5077
X-1.1293 Y2.5091
X-1.1378 Y2.5111
X-1.1461 Y2.5137
X-1.1542 Y2.5168
X-1.1621 Y2.5205
X-1.1697 Y2.5248
G2 X-1.3165 Y2.6199 I-0.0063 J0.151
G1 X-1.2667 Y2.7578
G2 X-1.2544 Y2.7674 I0.0144 J-0.0058
X-1.2076 Y2.7136 I0.006 J-0.042
X-1.2899 Y2.6325 I-0.1134 J0.0329
X-1.3043 Y2.6295 I-0.0312 J0.1139 F50.
G3 X-1.3165 Y2.6199 I0.0022 J-0.0154
G1 X-1.3279 Y2.5884 F60.
X-1.3267 Y2.5776
X-1.3249 Y2.5669
X-1.3224 Y2.5563
X-1.3194 Y2.5459
X-1.3158 Y2.5356
X-1.3116 Y2.5256
X-1.3069 Y2.5158
X-1.3016 Y2.5063
X-1.2958 Y2.4971
X-1.2895 Y2.4883
X-1.2827 Y2.4798
X-1.2754 Y2.4718
X-1.2676 Y2.4641
X-1.2595 Y2.4569
X-1.251 Y2.4502
X-1.2421 Y2.444
X-1.2328 Y2.4382
X-1.2233 Y2.4331
X-1.2135 Y2.4284
X-1.2034 Y2.4243
X-1.1931 Y2.4208
X-1.1826 Y2.4179
X-1.172 Y2.4156
X-1.1613 Y2.4139
X-1.1505 Y2.4128
X-1.1396 Y2.4123
X-1.1288 Y2.4124
X-1.1179 Y2.4131
X-1.1071 Y2.4145
X-1.0964 Y2.4164
X-1.0859 Y2.419
X-1.0755 Y2.4221
X-1.0653 Y2.4259
X-1.0553 Y2.4302
X-0.9666 Y2.5483
G3 X-0.9818 Y2.6116 I-0.1258 J0.0032
X-0.993 Y2.6223 I-0.0149 J-0.0043
X-1.0377 Y2.6064 I-0.0103 J-0.0416
X-1.0589 Y2.4568 I0.1262 J-0.0942
X-1.0531 Y2.4433 I0.1474 J0.0554 F50.
G2 X-1.0542 Y2.4278 I-0.014 J-0.0068
G1 X-1.0863 Y2.3837 F60.
X-1.0953 Y2.3773
X-1.1046 Y2.3715
X-1.1142 Y2.3661
X-1.1241 Y2.3614
X-1.1343 Y2.3571
X-1.1446 Y2.3535
X-1.1552 Y2.3505
X-1.1659 Y2.348
X-1.1768 Y2.3462
X-1.1877 Y2.3449
X-1.1987 Y2.3443
X-1.2097
X-1.2207 Y2.3449
X-1.2316 Y2.3461
X-1.2424 Y2.3479
X-1.2532 Y2.3504
X-1.2637 Y2.3534
X-1.2741 Y2.357
X-1.2843 Y2.3612
X-1.2942 Y2.366
X-1.3038 Y2.3713
X-1.3132 Y2.3771
X-1.3221 Y2.3834
X-1.3308 Y2.3903
X-1.339 Y2.3976
X-1.3468 Y2.4054
X-1.3541 Y2.4135
X-1.361 Y2.4221
X-1.3674 Y2.4311
X-1.3732 Y2.4404
X-1.3786 Y2.45
X-1.3279 Y2.5884
G2 X-1.3157 Y2.598 I0.0144 J-0.0058
X-1.2689 Y2.5443 I0.006 J-0.042
X-1.3512 Y2.463 I-0.1135 J0.0326
X-1.3656 Y2.46 I-0.0312 J0.1139 F50.
G3 X-1.3778 Y2.4504 I0.0022 J-0.0154
G1 X-1.3892 Y2.419 F60.
G3 X-1.18 Y2.2552 I0.1685 J-0.0003
G1 X-1.0863 Y2.3837
G3 X-1.0852 Y2.3992 I-0.0129 J0.0087
X-1.1482 Y2.4127 I-0.0368 J-0.0179
X-1.1844 Y2.2838 I0.0756 J-0.0908
X-1.1788 Y2.2703 I0.1118 J0.0381 F50.
G2 X-1.1799 Y2.2548 I-0.014 J-0.0068
G1 X-1.2021 Y2.2243 F60.
G2 X-1.4388 Y2.2817 I-0.0937 J0.1302
G1 X-1.3892 Y2.419
G2 X-1.3769 Y2.4285 I0.0144 J-0.0058
X-1.3302 Y2.3744 I0.006 J-0.042
X-1.4122 Y2.2943 I-0.1132 J0.0338
X-1.4266 Y2.2913 I-0.0312 J0.1139 F50.
G3 X-1.4388 Y2.2817 I0.0022 J-0.0154
G1 X-1.4487 Y2.2543 F60.
G3 X-1.288 Y2.1061 I0.1399 J-0.0096
G1 X-1.2021 Y2.2243
G3 X-1.201 Y2.2398 I-0.0129 J0.0087
X-1.272 Y2.2481 I-0.0382 J-0.0186
X-1.2925 Y2.1351 I0.0913 J-0.0749
X-1.2869 Y2.1216 I0.1118 J0.0381 F50.
G2 X-1.288 Y2.1061 I-0.014 J-0.0068
G1 X-1.3052 Y2.0824 F60.
X-1.312 Y2.0769
X-1.3191 Y2.0718
X-1.3266 Y2.0673
X-1.3343 Y2.0633
X-1.3424 Y2.0599
X-1.3506 Y2.057
X-1.359 Y2.0548
X-1.3676 Y2.0531
X-1.3762 Y2.052
X-1.385 Y2.0515
X-1.3937 Y2.0517
X-1.4024 Y2.0524
X-1.411 Y2.0538
X-1.4195 Y2.0558
X-1.4278 Y2.0583
X-1.436 Y2.0615
X-1.4439 Y2.0652
X-1.4515 Y2.0694
X-1.4588 Y2.0742
X-1.4658 Y2.0794
X-1.4723 Y2.0852
X-1.4785 Y2.0914
X-1.4842 Y2.098
X-1.4894 Y2.1049
X-1.4941 Y2.1123
X-1.4983 Y2.1199
X-1.4487 Y2.2543
G2 X-1.4365 Y2.2639 I0.0144 J-0.0058
X-1.3903 Y2.2075 I0.0061 J-0.0421
X-1.4705 Y2.1331 I-0.1113 J0.0395
X-1.4848 Y2.1301 I-0.0312 J0.1139 F50.
G3 X-1.497 Y2.1206 I0.0022 J-0.0154
G1 X-1.5065 Y2.0944 F60.
G3 X-1.3855 Y1.9701 I0.1098 J-0.0141
G1 X-1.3052 Y2.0824
G3 X-1.3211 Y2.1063 I-0.0129 J0.0087
X-1.3461 Y2.0939 I0.01 J-0.0516
X-1.3854 Y2.0019 I0.0788 J-0.088
X-1.3833 Y1.9834 I0.118 J0.0039 F50.
G2 X-1.3856 Y1.9717 I-0.0153 J-0.003
G1 X-1.4025 Y1.9484 F60.
G2 X-1.5521 Y1.9728 I-0.0645 J0.0752
G1 X-1.5065 Y2.0944
G2 X-1.4943 Y2.1039 I0.0144 J-0.0058
X-1.4777 Y2.0949 I0.0023 J-0.0157
X-1.5236 Y1.9871 I-0.0713 J-0.0333
X-1.5378 Y1.9837 I-0.0254 J0.0745 F50.
G3 X-1.55 Y1.9741 I0.0022 J-0.0154
G1 X-1.5576 Y1.9532 F60.
G3 X-1.4713 Y1.851 I0.0838 J-0.0167
G1 X-1.4025 Y1.9484
G3 X-1.4015 Y1.9639 I-0.0129 J0.0087
X-1.4328 Y1.975 I-0.0213 J-0.0104
X-1.4754 Y1.883 I0.0333 J-0.0713
X-1.4703 Y1.8692 I0.076 J0.0207 F50.
G2 X-1.4713 Y1.8538 I-0.014 J-0.0068
G1 X-1.4852 Y1.8347 F60.
G2 X-1.5982 Y1.8462 I-0.0516 J0.0538
G1 X-1.5576 Y1.9532
G2 X-1.5453 Y1.9628 I0.0144 J-0.0058
X-1.5159 Y1.9381 I0.0037 J-0.0255
X-1.5692 Y1.861 I-0.0787 J-0.0027
X-1.5834 Y1.8575 I-0.0254 J0.0745 F50.
G3 X-1.5956 Y1.8479 I0.0022 J-0.0154
G1 X-1.6018 Y1.8308 F60.
G2 X-1.5254 Y1.7793 I-14.547 J-21.6505
G1 X-1.4852 Y1.8347
G3 X-1.4838 Y1.8494 I-0.0129 J0.0087
G1 X-1.4851 Y1.8513 Z-0.2173
X-1.4865 Y1.8532 Z-0.2168
X-1.4878 Y1.855 Z-0.2159
X-1.4896 Y1.856 Z-0.2146
X-1.4913 Y1.8569 Z-0.2129
X-1.4927 Y1.8577 Z-0.211
X-1.4938 Y1.8583 Z-0.2089
X-1.4947 Y1.8585 Z-0.2067
X-1.4952 Y1.8586 Z-0.2044
X-1.4954 Y1.8587 Z-0.202
G0 Z0.4
X0.0809 Y4.345
Z0.1
G3 X-0.0282 Y4.2456 Z0.0591 I-0.0546 J-0.0497 F50.
X0.0809 Y4.345 Z0.0182 I0.0546 J0.0497
X-0.0282 Y4.2456 Z-0.0227 I-0.0546 J-0.0497
X0.0809 Y4.345 Z-0.0636 I0.0546 J0.0497
X-0.0282 Y4.2456 Z-0.1044 I-0.0546 J-0.0497
X0.0809 Y4.345 Z-0.1453 I0.0546 J0.0497
X-0.0282 Y4.2456 Z-0.1862 I-0.0546 J-0.0497
X0.1001 Y4.2953 Z-0.2175 I0.0546 J0.0497
X-0.0475 I-0.0738 J0.
X0.0999 Y4.2892 I0.0738 J0.
G1 X0.1001 Y4.2953
G3 X0.0628 Y4.4346 I-0.065 J0.0572 F60.
G1 X-0.0286 Y4.4219
G3 X-0.0606 Y4.1643 I0.036 J-0.1353
G1 X-0.0392 Y4.1659
X-0.0157 Y4.1658
X0.0455 Y4.1599
G3 X0.1711 Y4.2352 I0.0103 J0.1252
G1 X0.1702 Y4.2382
X0.1687 Y4.2409
X0.1668 Y4.2433
X0.1645 Y4.2452
X0.1618 Y4.2467
X0.159 Y4.2477
X0.156 Y4.2481
X0.153 Y4.2479
X0.1502 Y4.2472
X0.1475 Y4.246
X0.1454 Y4.2449
X0.0402 Y4.189
X0.0379 Y4.1875
X0.0359 Y4.1856
X0.0343 Y4.1834
G3 X0.0455 Y4.1599 I0.0132 J-0.0081 F50.
G2 X0.1326 Y4.1426 I-0.015 J-0.3029 F60.
G3 X0.1846 Y4.1502 I0.0186 J0.0538
X0.171 Y4.1743 I-0.013 J0.0085
G1 X0.1365 Y4.173
G3 X0.1253 Y4.1676 I0.0006 J-0.0155
X0.1326 Y4.1426 I0.0118 J-0.0101 F50.
X0.1929 Y4.1716 I0.0264 J0.0224 F60.
G2 X0.164 Y4.3963 I0.3438 J0.1585
G3 X0.148 Y4.4465 I-0.028 J0.0187
X0.1351 Y4.432 I0.0027 J-0.0153
G1 X0.1346 Y4.422
X0.1334 Y4.4017
G3 X0.1387 Y4.3891 I0.0155 J-0.0009
X0.1638 Y4.3963 I0.0102 J0.0117 F50.
G1 X0.1697 Y4.4187 F60.
X0.1769 Y4.4443
X0.1785 Y4.4499
X0.1779 Y4.4506
X0.0628 Y4.4346
G3 X0.0538 Y4.43 I0.0021 J-0.0154
G2 X0.0466 Y4.4258 I-0.0112 J0.0108
G1 X0.0348 Y4.4227
X0.012 Y4.4167
G2 X0.002 Y4.4174 I-0.004 J0.015
G3 X-0.0286 Y4.4219 I-0.0242 J-0.0574 F50.
G1 X-0.1227 Y4.4088 F60.
G3 X-0.1708 Y4.1502 I0.0563 J-0.1443
G2 X-0.0605 Y4.1646 I0.0985 J-0.3252
G3 X-0.0478 Y4.1736 I-0.0015 J0.0155
X-0.0739 Y4.2196 I-0.0298 J0.0135
X-0.1539 Y4.1757 I-0.0091 J-0.0782
X-0.159 Y4.162 I0.0709 J-0.0343 F50.
G2 X-0.17 Y4.1511 I-0.015 J0.0041
G1 X-0.1933 Y4.1457 F60.
X-0.2026 Y4.1478
X-0.2117 Y4.1505
X-0.2206 Y4.1538
X-0.2293 Y4.1576
X-0.2377 Y4.162
X-0.2458 Y4.167
X-0.2536 Y4.1724
X-0.261 Y4.1784
X-0.268 Y4.1849
X-0.2745 Y4.1918
X-0.2806 Y4.1991
X-0.2862 Y4.2067
X-0.2913 Y4.2148
X-0.2958 Y4.2231
X-0.2998 Y4.2318
X-0.3032 Y4.2406
X-0.306 Y4.2497
X-0.3082 Y4.259
X-0.3098 Y4.2683
X-0.3108 Y4.2778
X-0.3112 Y4.2873
X-0.3109 Y4.2968
X-0.31 Y4.3062
X-0.3085 Y4.3156
X-0.3064 Y4.3249
X-0.3037 Y4.334
X-0.3004 Y4.3429
X-0.2965 Y4.3516
X-0.2921 Y4.36
X-0.2871 Y4.3681
X-0.2816 Y4.3758
G2 X-0.1227 Y4.4088 I0.3151 J-1.1169
X-0.1085 Y4.4025 I0.0016 J-0.0155
X-0.1148 Y4.3621 I-0.0235 J-0.0171
X-0.2565 Y4.3631 I-0.0701 J0.095
X-0.2676 Y4.3727 I0.0716 J0.0939 F50.
G3 X-0.2826 Y4.3766 I-0.0109 J-0.0111
G1 X-0.3215 Y4.3643 F60.
X-0.3292 Y4.3585
X-0.3365 Y4.3522
X-0.3433 Y4.3454
X-0.3498 Y4.3383
X-0.3558 Y4.3307
X-0.3614 Y4.3228
X-0.3664 Y4.3146
X-0.3709 Y4.3061
X-0.3749 Y4.2973
X-0.3784 Y4.2883
X-0.3812 Y4.2791
X-0.3836 Y4.2697
X-0.3853 Y4.2603
X-0.3864 Y4.2507
X-0.387 Y4.2411
Y4.2314
X-0.3863 Y4.2218
X-0.3851 Y4.2122
X-0.3833 Y4.2028
X-0.3809 Y4.1934
X-0.378 Y4.1842
X-0.3745 Y4.1752
X-0.3704 Y4.1665
X-0.3658 Y4.158
X-0.3607 Y4.1498
X-0.3551 Y4.142
X-0.3491 Y4.1345
X-0.3426 Y4.1274
X-0.3356 Y4.1207
X-0.3283 Y4.1144
X-0.3206 Y4.1086
X-0.3125 Y4.1033
G2 X-0.1933 Y4.1457 I0.189 J-0.3426
G3 X-0.1823 Y4.1567 I-0.004 J0.015
X-0.1951 Y4.1824 I-0.0208 J0.0056
X-0.2997 Y4.1317 I-0.0291 J-0.0732
X-0.3025 Y4.1173 I0.0755 J-0.0225 F50.
G2 X-0.3116 Y4.1048 I-0.0155 J0.0016
G1 X-0.3215 Y4.1008 F60.
X-0.3328 Y4.0949
X-0.3423 Y4.095
X-0.3517 Y4.0957
X-0.3611 Y4.097
X-0.3703 Y4.099
X-0.3794 Y4.1015
X-0.3884 Y4.1046
X-0.3971 Y4.1084
X-0.4055 Y4.1127
X-0.4136 Y4.1175
X-0.4214 Y4.1228
X-0.4288 Y4.1287
X-0.4359 Y4.135
X-0.4424 Y4.1418
X-0.4486 Y4.149
X-0.4542 Y4.1566
X-0.4593 Y4.1646
X-0.4639 Y4.1728
X-0.468 Y4.1814
X-0.4715 Y4.1902
X-0.4743 Y4.1992
X-0.4766 Y4.2084
X-0.4783 Y4.2177
X-0.4794 Y4.2271
X-0.4798 Y4.2365
X-0.4796 Y4.246
X-0.4788 Y4.2554
X-0.4774 Y4.2647
X-0.4753 Y4.274
X-0.4727 Y4.2831
X-0.4695 Y4.2919
X-0.4657 Y4.3006
G2 X-0.3215 Y4.3643 I0.3496 J-0.5958
X-0.3065 Y4.3605 I0.0042 J-0.015
X-0.3063 Y4.3177 I-0.021 J-0.0215
X-0.4386 Y4.2939 I-0.0833 J0.0837
X-0.4515 Y4.3008 I0.049 J0.1075 F50.
G3 X-0.467 Y4.3013 I-0.0081 J-0.0132
G1 X-0.5033 Y4.2801 F60.
X-0.5095 Y4.2727
X-0.5153 Y4.2649
X-0.5205 Y4.2568
X-0.5253 Y4.2483
X-0.5295 Y4.2397
X-0.5332 Y4.2307
X-0.5363 Y4.2216
X-0.5389 Y4.2122
X-0.5409 Y4.2028
X-0.5423 Y4.1932
X-0.5431 Y4.1836
X-0.5433 Y4.1739
X-0.5429 Y4.1642
X-0.5419 Y4.1546
X-0.5403 Y4.1451
X-0.5382 Y4.1356
X-0.5354 Y4.1264
X-0.5321 Y4.1173
X-0.5283 Y4.1084
X-0.5239 Y4.0998
X-0.519 Y4.0915
X-0.5136 Y4.0835
X-0.5077 Y4.0758
X-0.5013 Y4.0685
X-0.4945 Y4.0616
X-0.4873 Y4.0552
X-0.4797 Y4.0492
X-0.4718 Y4.0437
X-0.4635 Y4.0387
X-0.4549 Y4.0342
X-0.4461 Y4.0302
X-0.4371 Y4.0268
G2 X-0.3328 Y4.0949 I0.2444 J-0.2604
G3 X-0.3249 Y4.1082 I-0.0076 J0.0135
X-0.355 Y4.1384 I-0.0298 J0.0003
X-0.433 Y4.0583 I0.0007 J-0.0787
X-0.4314 Y4.0438 I0.0787 J0.0013 F50.
G2 X-0.4363 Y4.029 I-0.0152 J-0.0031
G1 X-0.4391 Y4.0267 F60.
X-0.4527 Y4.015
G2 X-0.6303 Y4.1856 I-0.0385 J0.1376
X-0.5033 Y4.2801 I0.4749 J-0.506
X-0.4878 Y4.2796 I0.0074 J-0.0137
X-0.478 Y4.2384 I-0.0157 J-0.0255
X-0.6023 Y4.1851 I-0.1003 J0.0623
X-0.6164 Y4.1889 I0.0239 J0.1157 F50.
G3 X-0.6316 Y4.1859 I-0.005 J-0.0147
G1 X-0.6594 Y4.1599 F60.
X-0.6642 Y4.1513
X-0.6685 Y4.1425
X-0.6722 Y4.1334
X-0.6754 Y4.1241
X-0.6779 Y4.1146
X-0.6798 Y4.105
X-0.6812 Y4.0953
X-0.6819 Y4.0855
X-0.682 Y4.0757
X-0.6814 Y4.0659
X-0.6803 Y4.0561
X-0.6785 Y4.0465
X-0.6762 Y4.0369
X-0.6732 Y4.0276
X-0.6697 Y4.0184
X-0.6656 Y4.0095
X-0.6609 Y4.0009
X-0.6557 Y3.9926
X-0.65 Y3.9846
X-0.6438 Y3.977
X-0.6371 Y3.9698
X-0.63 Y3.963
X-0.6224 Y3.9567
X-0.6145 Y3.9509
X-0.6063 Y3.9456
X-0.5977 Y3.9409
X-0.5888 Y3.9366
X-0.5797 Y3.933
X-0.5704 Y3.9299
X-0.5609 Y3.9275
X-0.5512 Y3.9256
X-0.5415 Y3.9243
G2 X-0.4527 Y4.015 I0.3137 J-0.2183
G3 X-0.4481 Y4.0299 I-0.0105 J0.0114
X-0.4746 Y4.0489 I-0.0239 J-0.0053
X-0.5433 Y3.9554 I0.0086 J-0.0783
X-0.5391 Y3.9414 I0.0773 J0.0151 F50.
G2 X-0.5414 Y3.926 I-0.0144 J-0.0058
G1 X-0.5567 Y3.9078 F60.
X-0.5623 Y3.9024
X-0.5639 Y3.9016
X-0.5656 Y3.9013
X-0.5673 Y3.9016
X-0.6863 Y3.9446
X-0.6941 Y3.9483
X-0.7018 Y3.9526
X-0.7091 Y3.9573
X-0.7161 Y3.9625
X-0.7228 Y3.9681
X-0.729 Y3.9742
X-0.7349 Y3.9807
X-0.7403 Y3.9875
X-0.7452 Y3.9947
X-0.7497 Y4.0022
X-0.7536 Y4.01
X-0.7571 Y4.018
X-0.76 Y4.0262
X-0.7623 Y4.0346
X-0.7641 Y4.0431
G2 X-0.6594 Y4.1599 I0.7388 J-0.5572
X-0.6339 Y4.1456 I0.0102 J-0.0117
G1 X-0.6654 Y3.961
X-0.6662 Y3.9568 F50.
G2 X-0.6863 Y3.9446 I-0.0153 J0.0026
G1 X-0.7814 Y3.979 F60.
X-0.789 Y3.9822
X-0.7892 Y3.9824
X-0.7926 Y3.9854
X-0.7944 Y3.9894
X-0.7945 Y3.9939
X-0.7928 Y3.998
X-0.7629 Y4.0423
X-0.762 Y4.0435
G2 X-0.7369 Y4.0252 I0.0121 J-0.0097
G1 X-0.7577 Y3.9942
X-0.7637 Y3.9852 F50.
G2 X-0.7814 Y3.979 I-0.0129 J0.0086
G1 X-0.8004 Y3.9859 F60.
X-0.8008 Y3.9861
X-0.7928 Y3.998
G2 X-0.7753 Y4.0036 I0.0126 J-0.0091
G1 X-0.7646 Y4.
X-0.564 Y3.9329
X-0.5636 Y3.9327 F50.
G2 X-0.5567 Y3.9078 I-0.0049 J-0.0147
G1 X-0.563 Y3.9011 F60.
X-0.5637 Y3.9004
X-0.5644 Y3.9006
X-0.5673 Y3.9016
G2 X-0.5695 Y3.9027 I0.0058 J0.0144
G1 X-0.5712 Y3.9043 Z-0.2173
X-0.5729 Y3.9059 Z-0.2168
X-0.5745 Y3.9074 Z-0.2159
X-0.5752 Y3.9094 Z-0.2146
X-0.5759 Y3.9112 Z-0.2129
X-0.5765 Y3.9127 Z-0.211
X-0.5769 Y3.9138 Z-0.2089
X-0.577 Y3.9147 Z-0.2067
X-0.5771 Y3.9153 Z-0.2044
Y3.9155 Z-0.202
G0 Z0.4
X-0.0589 Y-0.0129
Z0.1
G3 X-0.168 Y-0.1123 Z0.0591 I-0.0546 J-0.0497 F50.
X-0.0589 Y-0.0129 Z0.0182 I0.0546 J0.0497
X-0.168 Y-0.1123 Z-0.0227 I-0.0546 J-0.0497
X-0.0589 Y-0.0129 Z-0.0636 I0.0546 J0.0497
X-0.168 Y-0.1123 Z-0.1044 I-0.0546 J-0.0497
X-0.0589 Y-0.0129 Z-0.1453 I0.0546 J0.0497
X-0.168 Y-0.1123 Z-0.1862 I-0.0546 J-0.0497
X-0.0396 Y-0.0626 Z-0.2175 I0.0546 J0.0497
X-0.1872 I-0.0738 J0.
X-0.0399 Y-0.0687 I0.0738 J0.
G1 X-0.0396 Y-0.0626
G3 X-0.2068 Y0.0529 I-0.0851 J0.0555 F60.
X-0.0224 Y-0.1951 I0.0922 J-0.124
X0.0368 Y-0.1023 I-0.0922 J0.124
X-0.0355 Y0.1569 I-0.1362 J0.1017
G1 X-0.0392 Y0.1574
X-0.1098 Y0.1638
X-0.1333 Y0.1665
G3 X-0.2578 Y-0.2664 I-0.002 J-0.2338
X-0.0627 Y-0.2918 I0.2146 J0.8847
X0.1525 Y-0.0864 I-0.0402 J0.2576
G1 X0.0784 Y0.1448
X0.0739 Y0.1589
X0.0734 Y0.1594
X-0.0157 Y0.1562
X-0.0354 Y0.1572
G3 X-0.049 Y0.1497 I-0.0003 J-0.0155
X-0.0525 Y0.1357 I0.021 J-0.0126
X0.1264 Y-0.0733 I0.2353 J0.0204
G1 X0.1407 Y-0.0764 F50.
G2 X0.1525 Y-0.0864 I-0.0028 J-0.0153
G1 X0.1761 Y-0.1598 F60.
G2 X0.1381 Y-0.2874 I-0.14 J-0.0277
X-0.0627 Y-0.2918 I-0.129 J1.2907
X-0.0598 Y-0.2609 I0.0015 J0.0155
X-0.0458 Y-0.2782 I-0.0015 J-0.0155
X-0.0635 Y-0.2917 I-0.0154 J0.0019
G1 X-0.2351 Y-0.2666
G2 X-0.2306 Y-0.2358 I0.0023 J0.0154
X-0.228 Y-0.266 I-0.0023 J-0.0154
X-0.2588 Y-0.2681 I-0.0195 J0.0592 F50.
G1 X-0.2744 Y-0.2646 F60.
X-0.345 Y-0.2467
G2 X-0.4331 Y0.0682 I0.1176 J0.2027
G1 X-0.3764 Y0.148
G2 X-0.3026 Y0.2133 I0.0817 J-0.018
G1 X-0.2509 Y0.1948
X-0.2274 Y0.1872
X-0.1333 Y0.1665
G2 X-0.1363 Y0.1359 I-0.0039 J-0.0151
G1 X-0.3626 Y0.124
X-0.366 Y0.1241
G2 X-0.3764 Y0.148 I0.0025 J0.0153 F50.
G1 X-0.3247 Y0.2209 F60.
X-0.3243 Y0.221
X-0.3026 Y0.2133
G2 X-0.293 Y0.2011 I-0.0057 J-0.0144
X-0.3987 Y0.0733 I-0.1105 J-0.0162
G1 X-0.4042 Y0.0732
G2 X-0.4188 Y0.0742 I0.0004 J0.1181 F50.
G3 X-0.4331 Y0.0682 I-0.002 J-0.0154
G1 X-0.5097 Y-0.0396 F60.
G3 X-0.5217 Y-0.1851 I0.1257 J-0.0837
G1 X-0.5187 Y-0.1862
X-0.5156 Y-0.1866
X-0.5125 Y-0.1865
X-0.5094 Y-0.1857
X-0.5066 Y-0.1845
X-0.5041 Y-0.1827
X-0.502 Y-0.1805
X-0.5004 Y-0.1779
X-0.4993 Y-0.1752
X-0.4987 Y-0.1722
X-0.4984 Y-0.1699
X-0.4819 Y-0.0512
X-0.4818 Y-0.0479
X-0.4824 Y-0.0446
X-0.4837 Y-0.0416
G3 X-0.5097 Y-0.0396 I-0.0136 J-0.0074 F50.
G1 X-0.5748 Y-0.1313 F60.
X-0.5778 Y-0.1355
X-0.5792 Y-0.1374
X-0.5824 Y-0.1425
X-0.5827 Y-0.1433
X-0.5836 Y-0.1488
X-0.5816 Y-0.1541
X-0.5773 Y-0.1577
G3 X-0.567 Y-0.1593 I0.0083 J0.0196
X-0.555 Y-0.1426 I-0.0012 J0.0136
X-0.5792 Y-0.1374 I-0.0133 J-0.0031 F50.
G1 X-0.5892 Y-0.1515 F60.
G3 X-0.345 Y-0.2467 I0.5319 J1.0032
X-0.3349 Y-0.2459 I0.0038 J0.0151
G2 X-0.3323 Y-0.245 I0.0063 J-0.0142
G1 X-0.315 Y-0.2408
X0.1448 Y-0.1307
G2 X0.1587 Y-0.1342 I0.0036 J-0.0151
X0.1761 Y-0.1598 I-0.0413 J-0.0467 F50.
G1 X0.2058 Y-0.2524 F60.
X0.2088 Y-0.2639
X0.2091 Y-0.2659
X0.2088 Y-0.2701
X0.2069 Y-0.274
X0.2036 Y-0.2768
X0.1996 Y-0.2782
X0.137 Y-0.2863
G2 X0.132 Y-0.2557 I-0.0015 J0.0155
G1 X0.1795 Y-0.2445
X0.1876 Y-0.2426 F50.
G2 X0.2058 Y-0.2524 I0.0036 J-0.0151
G1 X0.2133 Y-0.2759 F60.
X0.2129 Y-0.2764
X0.1996 Y-0.2782
G2 X0.1972 I-0.0015 J0.0155
G1 X0.1949 Y-0.2776 Z-0.2173
X0.1927 Y-0.2769 Z-0.2168
X0.1906 Y-0.2763 Z-0.2159
X0.189 Y-0.2749 Z-0.2146
X0.1876 Y-0.2736 Z-0.2129
X0.1864 Y-0.2726 Z-0.211
X0.1854 Y-0.2717 Z-0.2089
X0.1849 Y-0.271 Z-0.2067
X0.1846 Y-0.2705 Z-0.2044
Y-0.2703 Z-0.202
G0 Z0.4
X0.0182 Y3.5611
Z0.1
G3 X-0.0909 Y3.4617 Z0.0591 I-0.0546 J-0.0497 F50.
X0.0182 Y3.5611 Z0.0182 I0.0546 J0.0497
X-0.0909 Y3.4617 Z-0.0227 I-0.0546 J-0.0497
X0.0182 Y3.5611 Z-0.0636 I0.0546 J0.0497
X-0.0909 Y3.4617 Z-0.1044 I-0.0546 J-0.0497
X0.0182 Y3.5611 Z-0.1453 I0.0546 J0.0497
X-0.0909 Y3.4617 Z-0.1862 I-0.0546 J-0.0497
X0.0375 Y3.5114 Z-0.2175 I0.0546 J0.0497
X-0.1101 I-0.0738 J0.
X0.0372 Y3.5053 I0.0738 J0.
G1 X0.0375 Y3.5114
G3 X-0.1298 Y3.627 I-0.0853 J0.0553 F60.
G1 X-0.1375 Y3.6209
X-0.1447 Y3.6143
X-0.1516 Y3.6073
X-0.158 Y3.5998
X-0.1638 Y3.592
X-0.1692 Y3.5838
X-0.1741 Y3.5753
X-0.1784 Y3.5665
X-0.1821 Y3.5574
X-0.1853 Y3.5481
X-0.1878 Y3.5387
X-0.1898 Y3.5291
X-0.1911 Y3.5193
X-0.1919 Y3.5096
X-0.192 Y3.4998
X-0.1914 Y3.49
X-0.1903 Y3.4802
X-0.1885 Y3.4706
X-0.1862 Y3.4611
X-0.1832 Y3.4517
X-0.1797 Y3.4426
X-0.1756 Y3.4337
X-0.1709 Y3.4251
X-0.1657 Y3.4168
X-0.16 Y3.4088
X-0.1538 Y3.4013
X-0.1471 Y3.3941
X-0.14 Y3.3873
X-0.1324 Y3.3811
X-0.1245 Y3.3753
X-0.1162 Y3.37
X-0.1077 Y3.3653
X-0.0988 Y3.3611
X-0.0897 Y3.3575
X-0.0804 Y3.3545
X-0.0709 Y3.3521
X-0.0612 Y3.3503
X-0.0515 Y3.3491
X-0.0417 Y3.3485
X-0.0319
X-0.0221 Y3.3492
X-0.0124 Y3.3505
X-0.0028 Y3.3523
X0.0067 Y3.3548
X0.016 Y3.3579
X0.025 Y3.3616
X0.0339 Y3.3658
X0.0424 Y3.3706
X0.0506 Y3.3759
X0.0585 Y3.3818
X0.066 Y3.3881
X0.0731 Y3.3949
X0.0797 Y3.4021
X0.0859 Y3.4097
X0.0915 Y3.4177
X0.0967 Y3.426
X0.1013 Y3.4347
X0.1053 Y3.4436
X0.1088 Y3.4528
X0.1117 Y3.4621
X0.114 Y3.4717
X0.1194 Y3.4811
X0.1242 Y3.4909
X0.1285 Y3.5009
X0.1322 Y3.5111
X0.1353 Y3.5216
X0.1378 Y3.5322
X0.1397 Y3.5429
X0.141 Y3.5537
X0.1416 Y3.5646
Y3.5755
X0.141 Y3.5863
X0.1398 Y3.5972
X0.1379 Y3.6079
X0.1355 Y3.6185
X0.1324 Y3.6289
X0.1287 Y3.6392
X0.1244 Y3.6492
X0.1196 Y3.659
X0.1142 Y3.6684
X0.1083 Y3.6776
X0.1019 Y3.6864
X0.0949 Y3.6948
X0.0875 Y3.7028
X0.0797 Y3.7103
X0.0714 Y3.7174
X0.0627 Y3.724
X0.0537 Y3.7301
X0.0443 Y3.7356
X0.0347 Y3.7406
X0.0247 Y3.7451
X0.0145 Y3.7489
X0.0042 Y3.7522
X-0.0064 Y3.7549
X-0.0171 Y3.7569
X-0.0279 Y3.7583
X-0.0387 Y3.7591
X-0.0496 Y3.7593
X-0.0605 Y3.7589
X-0.0713 Y3.7578
X-0.0821 Y3.7561
X-0.0927 Y3.7538
X-0.1032 Y3.7509
X-0.1135 Y3.7474
X-0.1236 Y3.7433
X-0.1335 Y3.7386
X-0.143 Y3.7334
X-0.1522 Y3.7276
X-0.1611 Y3.7213
X-0.1696 Y3.7145
X-0.1777 Y3.7072
X-0.1854 Y3.6995
X-0.1953 Y3.6925
X-0.2049 Y3.685
X-0.214 Y3.6771
X-0.2227 Y3.6686
X-0.231 Y3.6598
X-0.2388 Y3.6505
X-0.2462 Y3.6408
X-0.253 Y3.6307
X-0.2593 Y3.6204
X-0.265 Y3.6097
X-0.2702 Y3.5987
X-0.2748 Y3.5875
X-0.2788 Y3.576
X-0.2822 Y3.5644
X-0.285 Y3.5526
X-0.2872 Y3.5406
X-0.2888 Y3.5286
X-0.2898 Y3.5165
X-0.2901 Y3.5044
X-0.2898 Y3.4923
X-0.2889 Y3.4802
X-0.2873 Y3.4681
X-0.2851 Y3.4562
X-0.2823 Y3.4444
X-0.2789 Y3.4327
X-0.275 Y3.4213
X-0.2704 Y3.41
X-0.2652 Y3.3991
X-0.2595 Y3.3883
X-0.2533 Y3.378
X-0.2465 Y3.3679
X-0.2392 Y3.3582
X-0.2314 Y3.3489
X-0.2231 Y3.34
X-0.2144 Y3.3316
X-0.2053 Y3.3236
X-0.1957 Y3.3161
X-0.1858 Y3.3091
X-0.1756 Y3.3026
X-0.165 Y3.2967
X-0.1541 Y3.2913
X-0.1422 Y3.286
X-0.13 Y3.2813
X-0.1177 Y3.2771
X-0.1051 Y3.2736
X-0.0924 Y3.2706
X-0.0796 Y3.2682
X-0.0666 Y3.2665
X-0.0537 Y3.2653
X-0.0406 Y3.2648
X-0.0276 Y3.2649
X-0.0145 Y3.2656
X-0.0016 Y3.2669
X0.0113 Y3.2688
X0.0241 Y3.2713
X0.0368 Y3.2744
X0.0493 Y3.2782
X0.0616 Y3.2825
X0.0737 Y3.2873
X0.0856 Y3.2928
X0.0971 Y3.2988
X0.1084 Y3.3053
X0.1194 Y3.3124
X0.13 Y3.32
X0.1403 Y3.328
X0.1501 Y3.3366
X0.1596 Y3.3455
X0.1686 Y3.355
X0.1771 Y3.3648
X0.1852 Y3.3751
X0.1928 Y3.3857
X0.1999 Y3.3966
X0.2065 Y3.4079
X0.2125 Y3.4194
X0.218 Y3.4313
X0.2229 Y3.4434
X0.2272 Y3.4557
X0.2309 Y3.4682
X0.2341 Y3.4808
X0.2367 Y3.4936
X0.2386 Y3.5065
X0.2399 Y3.5195
X0.2407 Y3.5325
X0.2408 Y3.5455
X0.2403 Y3.5586
X0.2391 Y3.5716
X0.2374 Y3.5845
X0.2351 Y3.5973
X0.2379 Y3.6
G2 X0.2034 Y3.6723 I0.1676 J0.1241
G3 X0.1873 Y3.7049 I-0.0274 J0.0067
X0.1694 Y3.687 I-0.0027 J-0.0153
G1 X0.1696 Y3.6858
X0.1727 Y3.6675
G3 X0.1837 Y3.6552 I0.0153 J0.0026
X0.2034 Y3.6723 I0.0043 J0.0149 F50.
G1 X0.2039 Y3.6771 F60.
X0.2037 Y3.6819
X0.203 Y3.6867
X0.2017 Y3.6913
X0.1999 Y3.6957
X0.1976 Y3.6999
X0.1948 Y3.7038
X0.1915 Y3.7074
X0.1878 Y3.7105
X0.1838 Y3.7131
X0.1796 Y3.7153
X0.175 Y3.7169
X0.1704 Y3.718
X0.1656 Y3.7186
X0.1608 Y3.7185
X0.156 Y3.7179
X0.1514 Y3.7167
G2 X0.1056 Y3.7674 I0.1261 J0.1601
G1 X0.1036 Y3.7708
X0.1027 Y3.7723
X0.0986 Y3.7784
X0.0969 Y3.7804
X0.0936 Y3.7829
X0.0896 Y3.7841
X0.0855 Y3.7837
G3 X0.0722 Y3.7736 I0.008 J-0.0242
X0.0929 Y3.7469 I0.0148 J-0.0098
X0.1027 Y3.7723 I-0.0058 J0.0168 F50.
G1 X0.1019 Y3.7735 F60.
G3 X0.0549 Y3.7809 I-0.0261 J-0.0127
G2 X-0.0248 Y3.807 I0.0023 J0.1415
G1 X-0.026 Y3.808
X-0.027 Y3.8089
X-0.0317 Y3.8126
X-0.0356 Y3.8137
X-0.0397 Y3.8132
X-0.0432 Y3.8111
G3 X-0.0482 Y3.8013 I0.0115 J-0.012
X-0.0361 Y3.7869 I0.0126 J-0.0017
X-0.027 Y3.8089 I0.0005 J0.0127 F50.
X-0.1115 Y3.7835 I0.005 J-0.1698 F60.
G2 X-0.1568 Y3.7833 I-0.0229 J0.0904
G1 X-0.1573 Y3.7835
X-0.1584 Y3.7838
X-0.1642 Y3.7852
X-0.1673 Y3.7848
X-0.1699 Y3.7831
X-0.1717 Y3.7806
G3 X-0.1723 Y3.771 I0.0152 J-0.0057
X-0.1624 Y3.7628 I0.0104 J0.0025
X-0.1584 Y3.7838 I0.0006 J0.0107 F50.
G2 X-0.2627 Y3.7042 I-0.3596 J0.3629 F60.
G1 X-0.2646 Y3.7039
X-0.2663 Y3.7037
X-0.2676 Y3.7035
X-0.2735 Y3.7023
X-0.2746 Y3.7016
X-0.2752 Y3.7005
X-0.2754 Y3.6992
G3 X-0.2732 Y3.6927 I0.0186 J0.0027
X-0.2605 Y3.6998 I0.0063 J0.0035 F50.
X-0.2676 Y3.7035 I-0.0063 J-0.0035
G2 X-0.3252 Y3.5862 I-0.2235 J0.037 F60.
G1 X-0.3266 Y3.5852
X-0.3278 Y3.5844
X-0.3325 Y3.5807
X-0.3333 Y3.5794
X-0.3334 Y3.5779
X-0.3329 Y3.5764
G3 X-0.3278 Y3.5715 I0.015 J0.0105
X-0.326 Y3.5707 I0.0041 J0.0065
X-0.3212 Y3.5852 I0.0024 J0.0073 F50.
X-0.3278 Y3.5844 I-0.0024 J-0.0073
G2 X-0.3257 Y3.4535 I-0.2811 J-0.0699 F60.
G1 X-0.3294 Y3.4524
X-0.3303 Y3.451
X-0.3331 Y3.4457
X-0.3332 Y3.444
X-0.3326 Y3.4423
X-0.3313 Y3.441
G3 X-0.3244 Y3.4388 I0.0087 J0.0154
X-0.3216 Y3.439 I0.0008 J0.0079
X-0.3256 Y3.4544 I-0.002 J0.0077 F50.
X-0.3303 Y3.451 I0.002 J-0.0077
G2 X-0.2749 Y3.3284 I-0.1795 J-0.1549 F60.
G1 X-0.275 Y3.3272
X-0.2751 Y3.3256
X-0.2754 Y3.3206
X-0.2734 Y3.3219
X-0.271 Y3.35
X-0.2704 Y3.3568
X-0.2629 Y3.3565
X-0.2637 Y3.3543
G3 X-0.2751 Y3.3256 I0.0503 J-0.0368 F50.
G1 X-0.2652 Y3.3222 F60.
X-0.2555 Y3.3182
X-0.2461 Y3.3137
X-0.2369 Y3.3087
X-0.228 Y3.3031
X-0.2194 Y3.2971
X-0.2112 Y3.2906
X-0.2033 Y3.2837
X-0.1958 Y3.2763
X-0.1888 Y3.2686
X-0.1822 Y3.2604
X-0.176 Y3.2519
X-0.1703 Y3.2431
X-0.171 Y3.2406
X-0.1704 Y3.2391
X-0.1691 Y3.2357
X-0.1678 Y3.2362
G3 X-0.1585 Y3.2699 I-0.0293 J0.0263
X-0.1716 Y3.27 I-0.0066 J-0.0013
X-0.1704 Y3.2391 I0.0609 J-0.0132 F50.
G2 X-0.0456 Y3.214 I0.0319 J-0.1636 F60.
G1 X-0.0437 Y3.2122
X-0.0423 Y3.211
X-0.0377 Y3.2071
X-0.0364 Y3.2067
X-0.0351 Y3.2069
X-0.0339 Y3.2076
G3 X-0.0301 Y3.2135 I-0.0132 J0.0127
X-0.0297 Y3.215 I-0.007 J0.0028
X-0.0295 Y3.2163 I-0.0074 J0.0013 F50.
X-0.0446 I-0.0075 J0.
X-0.0423 Y3.211 I0.0075 J0.
G2 X0.0887 Y3.2382 I0.108 J-0.1907 F60.
G1 X0.0902 Y3.2377
X0.0913 Y3.2373
X0.0966 Y3.2358
X0.0956 Y3.2377
X0.0685 Y3.2468
X0.0619 Y3.249
X0.0631 Y3.2563
X0.066 Y3.255
G3 X0.0913 Y3.2373 I0.0472 J0.0407 F50.
G2 X0.1954 Y3.3214 I0.1705 J-0.1046 F60.
G1 X0.1994 Y3.3201
X0.2016 Y3.332
X0.2044 Y3.3438
X0.2078 Y3.3554
X0.2117 Y3.3668
X0.2161 Y3.3781
X0.221 Y3.3892
X0.2265 Y3.4
X0.2324 Y3.4105
X0.2388 Y3.4208
X0.2457 Y3.4307
X0.2531 Y3.4404
X0.2609 Y3.4496
G2 X0.2569 Y3.5828 I0.1683 J0.0717
X0.2379 Y3.6 I0.0383 J0.0618
G3 X0.224 Y3.605 I-0.0116 J-0.0104
G1 X0.2218 Y3.6041 Z-0.2173
X0.2196 Y3.6033 Z-0.2168
X0.2175 Y3.6025 Z-0.2159
X0.2161 Y3.6009 Z-0.2146
X0.2148 Y3.5995 Z-0.2129
X0.2137 Y3.5984 Z-0.211
X0.2128 Y3.5974 Z-0.2089
X0.2124 Y3.5966 Z-0.2067
X0.2122 Y3.5961 Z-0.2044
X0.2121 Y3.596 Z-0.202
G0 Z0.4
X0.4459 Y2.2516
Z-0.1864
G1 Z-0.202 F50.
X0.446 Y2.2514 Z-0.205
X0.4465 Y2.2507 Z-0.2079
X0.4474 Y2.2495 Z-0.2106
X0.4485 Y2.2479 Z-0.2129
X0.4499 Y2.246 Z-0.2149
X0.4514 Y2.2438 Z-0.2163
X0.4531 Y2.2415 Z-0.2172
X0.4549 Y2.239 Z-0.2175
G3 X0.5119 Y2.1753 I0.3223 J0.2314
G1 X0.5193 Y2.1748 F60.
X0.5267 Y2.1749
X0.534 Y2.1756
X0.5413 Y2.1768
X0.5484 Y2.1786
X0.5554 Y2.181
X0.5622 Y2.1839
X0.5687 Y2.1874
X0.5749 Y2.1913
X0.5808 Y2.1958
X0.5863 Y2.2007
X0.5914 Y2.206
X0.5961 Y2.2118
X0.6002 Y2.2178
X0.6039 Y2.2242
X0.6071 Y2.2309
X0.6097 Y2.2378
X0.6118 Y2.2448
X0.6133 Y2.2521
X0.6142 Y2.2594
X0.6145 Y2.2667
X0.6143 Y2.2741
X0.6134 Y2.2814
X0.612 Y2.2887
X0.61 Y2.2958
X0.6075 Y2.3027
X0.6044 Y2.3094
X0.6007 Y2.3158
X0.5966 Y2.3219
G3 X0.2499 Y2.2624 I-0.172 J-0.0378
X0.5504 Y2.0721 I0.1841 J-0.0417
X0.7002 Y2.3132 I-0.0669 J0.2087
G1 X0.6764 Y2.3719
X0.6671 Y2.3954
X0.6617 Y2.407
X0.6557 Y2.4182
X0.6491 Y2.4292
X0.6421 Y2.4398
X0.6345 Y2.4501
X0.6264 Y2.46
X0.6179 Y2.4696
X0.609 Y2.4787
X0.5996 Y2.4873
X0.5898 Y2.4955
X0.5796 Y2.5032
X0.5691 Y2.5104
X0.5582 Y2.5171
X0.547 Y2.5233
X0.5355 Y2.5289
X0.5238 Y2.534
X0.5119 Y2.5385
X0.4997 Y2.5424
X0.4874 Y2.5457
X0.4749 Y2.5485
X0.4623 Y2.5506
X0.4497 Y2.5521
X0.4369 Y2.553
X0.4242 Y2.5533
X0.4114 Y2.553
X0.3987 Y2.5521
X0.386 Y2.5505
X0.3734 Y2.5484
X0.3609 Y2.5457
X0.3486 Y2.5423
X0.3365 Y2.5384
X0.3245 Y2.5339
X0.3128 Y2.5288
X0.3013 Y2.5232
X0.2902 Y2.517
X0.2793 Y2.5103
X0.2688 Y2.503
X0.2586 Y2.4953
X0.2488 Y2.4871
X0.2394 Y2.4785
X0.2305 Y2.4694
X0.222 Y2.4598
X0.2139 Y2.4499
X0.2064 Y2.4396
X0.1993 Y2.429
X0.1928 Y2.418
X0.1868 Y2.4067
X0.1814 Y2.3952
X0.1765 Y2.3834
X0.1722 Y2.3714
X0.1684 Y2.3592
X0.1697 Y2.1602
G3 X0.5695 Y1.9728 I0.2654 J0.0461
G1 X0.7485 Y2.1837
X0.7627 Y2.2006
G3 X0.7002 Y2.3132 I-0.4068 J-0.1519
X0.6877 Y2.3223 I-0.0142 J-0.0064
X0.6758 Y2.3194 I-0.0019 J-0.0179
G1 X0.674 Y2.3181
G3 X0.5675 Y2.0003 I0.1542 J-0.2284
G1 X0.5726 Y1.9866 F50.
G2 X0.5704 Y1.9712 I-0.0144 J-0.0058
G1 X0.512 Y1.9014 F60.
G2 X0.1727 Y1.9548 I-0.1405 J0.2117
G1 X0.1697 Y2.1602
G2 X0.1997 Y2.1654 I0.0155 J-0.0003
G3 X0.229 Y2.1759 I0.0145 J0.0055
G1 X0.1774 Y2.327
X0.1759 Y2.3301
G2 X0.1668 Y2.3596 I0.0531 J0.0326 F50.
G1 X0.1653 Y2.466 F60.
G2 X0.5602 Y2.6158 I0.2577 J-0.0838
X0.6362 Y2.5784 I0.0141 J-0.0672
G3 X0.6671 Y2.3954 I1.1255 J0.0961
G2 X0.663 Y2.3805 I-0.015 J-0.004
X0.6089 Y2.3803 I-0.0271 J0.0273
X0.617 Y2.5562 I0.0827 J0.0844
X0.6289 Y2.5647 I0.0746 J-0.0916 F50.
G3 X0.6362 Y2.5784 I-0.0082 J0.0132
G1 X0.6342 Y2.6072 F60.
X0.6343 Y2.6143
G3 X0.3563 Y2.7286 I-0.1909 J-0.0691
X0.1614 Y2.6434 I0.0014 J-0.2687
G1 X0.1653 Y2.466
G3 X0.1737 Y2.453 I0.0155 J0.0008
X0.2206 Y2.4673 I0.0161 J0.0313
X0.1837 Y2.6217 I-0.1035 J0.0569
X0.1711 Y2.6292 I-0.0666 J-0.0975 F50.
G2 X0.1627 Y2.6422 I0.0071 J0.0138
G1 X0.162 Y2.6907 F60.
G2 X0.4858 Y2.8255 I0.2311 J-0.0988
X0.6497 Y2.7567 I0.0322 J-0.1529
G3 X0.6344 Y2.6307 I0.4674 J-0.1205
G1 X0.6343 Y2.6143
G2 X0.618 Y2.5995 I-0.0155 J0.0007
X0.5815 Y2.6349 I0.0018 J0.0383
X0.6267 Y2.7371 I0.1178 J0.0091
X0.6423 Y2.7474 I0.0726 J-0.0932 F50.
G3 X0.6497 Y2.7567 I-0.0075 J0.0136
G1 X0.6568 Y2.7848 F60.
G3 X0.6352 Y2.8537 I-0.0827 J0.0119
X0.6123 Y2.8361 I-0.008 J-0.0133
X0.6318 Y2.7772 I0.0816 J-0.0056
X0.6568 Y2.7848 I0.01 J0.0119 F50.
X0.6677 Y2.8326 I-0.0887 J0.0455 F60.
G1 X0.58 Y2.8895
G3 X0.1579 Y2.8513 I-0.1818 J-0.3427
G1 X0.162 Y2.6907
G3 X0.1704 Y2.6776 I0.0155 J0.0008
X0.2293 Y2.7052 I0.0188 J0.0365
X0.1807 Y2.8285 I-0.1153 J0.0258
X0.1681 Y2.836 I-0.0666 J-0.0975 F50.
G2 X0.1597 Y2.8491 I0.0071 J0.0138
X0.1632 Y2.888 I0.0119 J0.0185 F60.
G3 X0.3607 Y2.992 I-0.168 J0.5582
G2 X0.3999 Y3.0063 I0.0299 J-0.0211
G1 X0.58 Y2.8895
G2 X0.564 Y2.8629 I-0.0089 J-0.0127
G1 X0.3635 Y2.9661
X0.3634 Y2.9662 F50.
G2 X0.3607 Y2.992 I0.0071 J0.0138
X0.3999 Y3.0063 I0.0224 J-0.0006 F60.
X0.4062 Y2.9906 I-0.0089 J-0.0127
G1 X0.4056 Y2.9876 Z-0.2172
X0.4051 Y2.9848 Z-0.2163
X0.4046 Y2.9821 Z-0.2149
X0.4041 Y2.9798 Z-0.2129
X0.4038 Y2.9779 Z-0.2106
X0.4035 Y2.9765 Z-0.2079
X0.4033 Y2.9756 Z-0.205
Y2.9754 Z-0.202
G0 Z-0.1864
X0.1887 Y1.9981
G1 Z-0.202 F50.
X0.1885 Y1.9978 Z-0.205
X0.1881 Y1.9971 Z-0.2079
X0.1874 Y1.9958 Z-0.2106
X0.1864 Y1.9941 Z-0.2129
X0.1852 Y1.9921 Z-0.2149
X0.1839 Y1.9898 Z-0.2163
X0.1825 Y1.9872 Z-0.2172
X0.1809 Y1.9846 Z-0.2175
G3 X0.1727 Y1.9548 I0.054 J-0.0311
G1 X0.1734 Y1.9014 F60.
G3 X0.2323 Y1.8096 I0.1262 J0.0162
X0.2515 Y1.8247 I0.0036 J0.0151
G1 X0.2512 Y1.8276
G3 X0.2492 Y1.8328 I-0.0153 J-0.0029
X0.1956 Y1.9151 I-0.1288 J-0.0253
X0.1734 Y1.9014 I-0.0066 J-0.0141 F50.
G1 X0.1745 Y1.8258 F60.
G2 X0.3099 Y1.7838 I-0.1658 J-0.7727
G3 X0.4 Y1.7678 I0.056 J0.0535
X0.3921 Y1.7923 I-0.0123 J0.0096
G1 X0.3915 Y1.7924
X0.321 Y1.8127
G3 X0.3066 Y1.8096 I-0.0043 J-0.0149
X0.3099 Y1.7838 I0.01 J-0.0119 F50.
G1 X0.3842 Y1.7511 F60.
X0.3854 Y1.7506
X0.386 Y1.751
X0.512 Y1.9014
G3 X0.5144 Y1.9159 I-0.0123 J0.0096
G1 X0.5132 Y1.918 Z-0.2173
X0.512 Y1.9199 Z-0.2168
X0.5108 Y1.9218 Z-0.2159
X0.509 Y1.923 Z-0.2146
X0.5074 Y1.924 Z-0.2129
X0.5061 Y1.9249 Z-0.211
X0.505 Y1.9255 Z-0.2089
X0.5042 Y1.9258 Z-0.2067
X0.5036 Y1.926 Z-0.2044
X0.5035 Z-0.202
G0 Z0.4
X0.9205 Y0.264
Z-0.1864
G1 Z-0.202 F50.
X0.9206 Y0.2637 Z-0.205
Y0.2628 Z-0.2079
X0.9207 Y0.2614 Z-0.2106
X0.9208 Y0.2594 Z-0.2129
X0.921 Y0.2571 Z-0.2149
X0.9211 Y0.2544 Z-0.2163
X0.9213 Y0.2515 Z-0.2172
X0.9215 Y0.2485 Z-0.2175
G3 X0.9357 Y0.1642 I0.396 J0.0236
X1.2109 Y0.3188 I0.1312 J0.0886 F60.
X0.946 Y0.4544 I-0.1942 J-0.0528
G1 X0.9302 Y0.4542
X0.9143 Y0.4534
X0.8986 Y0.452
X0.8829 Y0.45
X0.8672 Y0.4473
X0.8518 Y0.4441
X0.8364 Y0.4402
X0.8212 Y0.4357
X0.8062 Y0.4307
X0.7914 Y0.425
X0.7768 Y0.4188
X0.7625 Y0.412
X0.7485 Y0.4046
X0.7348 Y0.3967
X0.7214 Y0.3883
X0.7083 Y0.3794
X0.6956 Y0.3699
X0.6833 Y0.3599
X0.6714 Y0.3495
X0.6599 Y0.3386
X0.6489 Y0.3273
X0.6383 Y0.3155
X0.6282 Y0.3033
X0.6185 Y0.2908
X0.6094 Y0.2778
X0.6008 Y0.2646
X0.5927 Y0.2509
X0.5851 Y0.237
X0.5781 Y0.2228
X0.5717 Y0.2084
G3 X0.87 Y0.019 I0.1973 J-0.0188
X1.117 Y0.0066 I0.1526 J0.5723
X0.9988 Y0.5504 I-0.0771 J0.268
X0.6299 Y0.4372 I-0.0579 J-0.469
G1 X0.5891 Y0.3957
X0.5724 Y0.3803
G3 X0.8257 Y-0.0942 I0.1884 J-0.2043
G1 X1.2911 Y0.0542
G3 X1.3408 Y0.4818 I-0.1503 J0.2341
G1 X1.344 Y0.4886
X1.3418 Y0.4901
X1.3393 Y0.491
X0.8312 Y0.6114
G3 X0.7425 Y0.6012 I-0.0366 J-0.0717
X0.7556 Y0.5786 I0.0139 J-0.007
G1 X0.7569
X0.8276 Y0.5809
G3 X0.8391 Y0.5866 I-0.0005 J0.0155
X0.8312 Y0.6114 I-0.012 J0.0099 F50.
G1 X0.7583 Y0.6287 F60.
G2 X0.629 Y0.4382 I-0.7623 J0.3784
G1 X0.6273 Y0.4359
X0.6261 Y0.4333
X0.6253 Y0.4304
X0.6251 Y0.4275
X0.6255 Y0.4246
X0.6264 Y0.4217
X0.632 Y0.41
X0.8538 Y-0.0607
G2 X0.8514 Y-0.0776 I-0.0141 J-0.0066
X0.8258 Y-0.0949 I-0.0467 J0.0413 F50.
G1 X0.6685 Y-0.1454 F60.
G2 X0.5556 Y-0.1221 I-0.0331 J0.1248
G1 X0.4348 Y0.2546
X0.4318 Y0.2658
X0.4316 Y0.2677
X0.4318 Y0.2718
X0.4335 Y0.2755
X0.4365 Y0.2783
G3 X0.5724 Y0.3803 I-0.3665 J0.63
G2 X0.5919 Y0.3561 I0.0096 J-0.0122
G1 X0.4602 Y0.2486
X0.4593 Y0.2478 F50.
G2 X0.4348 Y0.2546 I-0.0098 J0.012
G1 X0.4289 Y0.2732 F60.
X0.4295 Y0.2737
X0.4365 Y0.2783
G2 X0.4534 Y0.2778 I0.0081 J-0.0133
G1 X0.4559 Y0.2761 Z-0.2172
X0.4583 Y0.2744 Z-0.2163
X0.4605 Y0.2729 Z-0.2149
X0.4624 Y0.2716 Z-0.2129
X0.464 Y0.2705 Z-0.2106
X0.4652 Y0.2696 Z-0.2079
X0.4659 Y0.2691 Z-0.205
X0.4662 Y0.269 Z-0.202
G0 Z-0.1864
X0.7044 Y-0.1164
G1 Z-0.202 F50.
X0.7042 Y-0.1166 Z-0.205
X0.7036 Y-0.1173 Z-0.2079
X0.7027 Y-0.1183 Z-0.2106
X0.7014 Y-0.1198 Z-0.2129
X0.6998 Y-0.1216 Z-0.2149
X0.698 Y-0.1236 Z-0.2163
X0.6961 Y-0.1258 Z-0.2172
X0.6941 Y-0.128 Z-0.2175
G2 X0.6685 Y-0.1454 I-0.0467 J0.0413
G1 X0.5731 Y-0.176 F60.
X0.5726 Y-0.1753
X0.5556 Y-0.1221
G2 X0.5606 Y-0.1059 I0.015 J0.0042
G1 X0.5629 Y-0.104 Z-0.2172
X0.5652 Y-0.1021 Z-0.2163
X0.5672 Y-0.1004 Z-0.2149
X0.569 Y-0.0989 Z-0.2129
X0.5705 Y-0.0976 Z-0.2106
X0.5716 Y-0.0967 Z-0.2079
X0.5723 Y-0.0962 Z-0.205
X0.5725 Y-0.096 Z-0.202
G0 Z-0.1864
X1.245 Y0.057
G1 Z-0.202 F50.
X1.2453 Y0.0569 Z-0.205
X1.2462 Y0.0567 Z-0.2079
X1.2476 Y0.0564 Z-0.2106
X1.2495 Y0.0559 Z-0.2129
X1.2518 Y0.0554 Z-0.2149
X1.2544 Y0.0548 Z-0.2163
X1.2572 Y0.0542 Z-0.2172
X1.2602 Y0.0535 Z-0.2175
G3 X1.2911 Y0.0542 I0.014 J0.0607
G1 X1.4022 Y0.0899 F60.
G3 X1.4667 Y0.4498 I-0.1415 J0.211
G1 X1.4715 Y0.4575
X1.4689 Y0.4598
X1.4657 Y0.4611
X1.3393 Y0.491
G3 X1.3246 Y0.4861 I-0.0031 J-0.0152
X1.3229 Y0.4703 I0.0104 J-0.0091
X1.4403 Y0.4461 I0.069 J0.0379
X1.4509 Y0.4561 I-0.0484 J0.0621 F50.
G2 X1.4657 Y0.4611 I0.0117 J-0.0103
X1.4964 Y0.4192 I0.0003 J-0.032 F60.
G3 X1.5605 Y0.3148 I0.2924 J0.1076
G2 X1.5717 Y0.2899 I-0.0142 J-0.0213
G1 X1.5235 Y0.1298
X1.5233 Y0.1292
X1.5225 Y0.1285
X1.5195 Y0.1275
X1.4022 Y0.0899
G2 X1.3856 Y0.1142 I-0.0042 J0.015
G1 X1.5344 Y0.3108
X1.5365 Y0.3137 F50.
G2 X1.5604 Y0.3147 I0.0124 J-0.0094
G1 X1.5714 Y0.3016 F60.
X1.5739 Y0.2979
Y0.2972
X1.5717 Y0.2899
G2 X1.5708 Y0.2877 I-0.0147 J0.005
G1 X1.5693 Y0.2859 Z-0.2173
X1.5678 Y0.2841 Z-0.2168
X1.5663 Y0.2825 Z-0.2159
X1.5644 Y0.2816 Z-0.2146
X1.5627 Y0.2808 Z-0.2129
X1.5612 Y0.2802 Z-0.211
X1.5601 Y0.2797 Z-0.2089
X1.5592 Y0.2795 Z-0.2067
X1.5586 Y0.2794 Z-0.2044
X1.5584 Z-0.202
G0 Z0.4
X1.6827 Y3.4673
Z0.1
G3 X1.5735 Y3.3679 Z0.0591 I-0.0546 J-0.0497 F50.
X1.6827 Y3.4673 Z0.0182 I0.0546 J0.0497
X1.5735 Y3.3679 Z-0.0227 I-0.0546 J-0.0497
X1.6827 Y3.4673 Z-0.0636 I0.0546 J0.0497
X1.5735 Y3.3679 Z-0.1044 I-0.0546 J-0.0497
X1.6827 Y3.4673 Z-0.1453 I0.0546 J0.0497
X1.5735 Y3.3679 Z-0.1862 I-0.0546 J-0.0497
X1.7019 Y3.4176 Z-0.2175 I0.0546 J0.0497
X1.5543 I-0.0738 J0.
X1.7017 Y3.4115 I0.0738 J0.
G1 X1.7019 Y3.4176
G3 X1.6607 Y3.559 I-0.066 J0.0575 F60.
G1 X1.5831 Y3.5482
G3 X1.5147 Y3.3081 I0.0248 J-0.1368
G1 X1.5604 Y3.2968
X1.5841 Y3.2894
X1.6075 Y3.2797
G3 X1.6871 Y3.2793 I0.0403 J0.0882
X1.6763 Y3.3046 I-0.012 J0.0098
G1 X1.6152 Y3.3093
G3 X1.6037 Y3.3055 I-0.0012 J-0.0155
X1.6075 Y3.2797 I0.0103 J-0.0117 F50.
X1.6669 Y3.2562 I0.0561 J0.0551 F60.
G1 X1.7722 Y3.3763
G3 X1.7716 Y3.5744 I-0.1064 J0.0987
X1.7588 Y3.5603 I0.0027 J-0.0153
G1 X1.758 Y3.5499
X1.7453 Y3.3882
Y3.3857
X1.7457 Y3.3833
X1.7465 Y3.381
G3 X1.7722 Y3.3763 I0.0143 J0.006 F50.
G1 X1.8518 Y3.4673 F60.
G3 X1.8732 Y3.5296 I-0.0558 J0.054
X1.8456 Y3.528 I-0.0134 J-0.0079
G1 X1.8263 Y3.4842
G3 X1.8261 Y3.4719 I0.0142 J-0.0063
X1.8405 Y3.4624 I0.0143 J0.006 F50.
X1.8518 Y3.4673 I0. J0.0155
G1 X1.8847 Y3.5048 F60.
G3 X1.8427 Y3.5843 I-0.2087 J-0.0594
G1 X1.6607 Y3.559
G3 X1.6517 Y3.5544 I0.0021 J-0.0154
G2 X1.6456 Y3.5505 I-0.0112 J0.0108
G1 X1.633 Y3.5462
X1.6248 Y3.5433
G2 X1.6136 Y3.5437 I-0.0051 J0.0147
G3 X1.5831 Y3.5482 I-0.0242 J-0.0574 F50.
G1 X1.4769 Y3.5335 F60.
G3 X1.402 Y3.3243 I0.0474 J-0.135
G2 X1.5147 Y3.3081 I0.0057 J-0.3618
G3 X1.5295 Y3.3129 I0.0032 J0.0152
X1.5222 Y3.3577 I-0.0216 J0.0194
X1.4267 Y3.3437 I-0.0388 J-0.0685
X1.4175 Y3.3323 I0.0568 J-0.0546 F50.
G2 X1.4037 Y3.3253 I-0.013 J0.0085
G1 X1.377 Y3.3277 F60.
X1.3693 Y3.3313
X1.3618 Y3.3354
X1.3547 Y3.3401
X1.3478 Y3.3452
X1.3414 Y3.3508
X1.3354 Y3.3569
X1.3298 Y3.3633
X1.3247 Y3.3702
X1.3201 Y3.3773
X1.316 Y3.3848
X1.3125 Y3.3926
X1.3095 Y3.4006
X1.307 Y3.4088
X1.3052 Y3.4171
X1.3039 Y3.4255
X1.3033 Y3.434
X1.3032 Y3.4426
X1.3038 Y3.4511
X1.3049 Y3.4595
X1.3067 Y3.4679
X1.309 Y3.4761
X1.3119 Y3.4841
X1.3154 Y3.4919
X1.3194 Y3.4995
X1.3239 Y3.5067
X1.3289 Y3.5136
X1.4769 Y3.5335
G2 X1.4911 Y3.5271 I0.0016 J-0.0155
X1.4666 Y3.4611 I-0.0342 J-0.0249
X1.3532 Y3.4954 I-0.0271 J0.115
X1.3439 Y3.5067 I0.0863 J0.0807 F50.
G3 X1.3297 Y3.513 I-0.0126 J-0.0091
G1 X1.3017 Y3.5091 F60.
G3 X1.2565 Y3.3213 I0.0422 J-0.1095
G2 X1.377 Y3.3277 I0.091 J-0.5782
G3 X1.3909 Y3.3347 I0.0009 J0.0155
X1.3838 Y3.3664 I-0.019 J0.0124
X1.2779 Y3.3445 I-0.0414 J-0.067
X1.2706 Y3.3318 I0.0646 J-0.0451 F50.
G2 X1.258 Y3.3227 I-0.0142 J0.0064
G1 X1.2546 Y3.3225 F60.
X1.2385 Y3.3193
G2 X1.1674 Y3.4909 I0.0173 J0.1077
G1 X1.3017 Y3.5091
G2 X1.3153 Y3.4838 I0.0016 J-0.0155
X1.2891 Y3.4661 I-0.0426 J0.0346
X1.1948 Y3.4765 I-0.0353 J0.1127
X1.1794 Y3.4871 I0.0591 J0.1023 F50.
G3 X1.168 Y3.4905 I-0.0098 J-0.0121
G1 X1.1418 Y3.4869 F60.
X1.1344 Y3.4831
X1.1273 Y3.4789
X1.1206 Y3.4741
X1.1141 Y3.4689
X1.1081 Y3.4632
X1.1025 Y3.4572
X1.0974 Y3.4507
X1.0927 Y3.4439
X1.0886 Y3.4367
X1.0849 Y3.4293
X1.0818 Y3.4217
X1.0793 Y3.4138
X1.0773 Y3.4058
X1.0759 Y3.3976
X1.0751 Y3.3894
X1.0749 Y3.3811
X1.0753 Y3.3729
X1.0763 Y3.3647
X1.0778 Y3.3566
X1.0799 Y3.3486
X1.0826 Y3.3408
X1.0859 Y3.3332
X1.0897 Y3.3258
X1.094 Y3.3188
X1.0988 Y3.3121
X1.1041 Y3.3057
X1.1098 Y3.2997
X1.1159 Y3.2942
X1.1224 Y3.2891
G2 X1.2385 Y3.3193 I0.1763 J-0.4388
G3 X1.2498 Y3.3299 I-0.0035 J0.0151
X1.2243 Y3.3713 I-0.0309 J0.0095
X1.1363 Y3.3176 I-0.013 J-0.0777
X1.1331 Y3.3033 I0.075 J-0.024 F50.
G2 X1.1238 Y3.2909 I-0.0154 J0.0019
G1 X1.1064 Y3.2843 F60.
G2 X1.0124 Y3.4689 I-0.0012 J0.1156
G1 X1.1418 Y3.4869
G2 X1.1559 Y3.4805 I0.0016 J-0.0155
X1.1568 Y3.4667 I-0.0104 J-0.0076
G1 X1.153 Y3.4613
X1.1488 Y3.4562
X1.1442 Y3.4515
X1.1392 Y3.4471
X1.1339 Y3.4433
X1.1282 Y3.4398
X1.1223 Y3.4369
X1.1162 Y3.4345
X1.1098 Y3.4326
X1.1034 Y3.4312
X1.0968 Y3.4304
X1.0903 Y3.4301
G2 X1.0362 Y3.4516 I0. J0.0787
X1.0265 Y3.4626 I0.0541 J0.0573 F50.
G3 X1.0124 Y3.4689 I-0.0126 J-0.0091
G1 X0.9829 Y3.4648 F60.
G3 X0.9944 Y3.2312 I0.0671 J-0.1138
G2 X1.1064 Y3.2843 I0.2231 J-0.3261
G3 X1.1157 Y3.2967 I-0.0061 J0.0143
X1.0937 Y3.3261 I-0.0263 J0.0033
X1.0032 Y3.2607 I-0.0127 J-0.0777
X1.0023 Y3.2461 I0.0778 J-0.0124 F50.
G2 X0.9949 Y3.2324 I-0.0155 J-0.0004
G1 X0.9767 Y3.2221 F60.
G2 X0.8523 Y3.4462 I-0.0118 J0.14
G1 X0.9829 Y3.4648
G2 X0.9971 Y3.4585 I0.0016 J-0.0155
X0.9977 Y3.4468 I-0.0086 J-0.0063
G1 X0.9965 Y3.4448
