%
(PIVOTPLATEFULL)
(T1  D=0.1554 CR=0. - ZMIN=-0.55 - FLAT END MILL)
G90 G94 G17 G91.1
G64 P0.001 Q0.001
G20
G53 G0 Z0.
(2D POCKET)
M9
T1 M6
S13000 M3
G4 P10.
G54
M7
G0 X3.883 Y3.0378
G43 Z0.6 H1
G0 Z0.2
G1 Z0.1 F13.333
G3 X4.0099 Y2.9622 Z0.0591 I0.0634 J-0.0378
X3.883 Y3.0378 Z0.0182 I-0.0634 J0.0378
X4.0099 Y2.9622 Z-0.0227 I0.0634 J-0.0378
X3.883 Y3.0378 Z-0.0636 I-0.0634 J0.0378
X4.0099 Y2.9622 Z-0.1044 I0.0634 J-0.0378
X3.883 Y3.0378 Z-0.1453 I-0.0634 J0.0378
X4.0099 Y2.9622 Z-0.1862 I0.0634 J-0.0378
X3.883 Y3.0378 Z-0.2271 I-0.0634 J0.0378
X4.0099 Y2.9622 Z-0.268 I0.0634 J-0.0378
X4.0203 Y3. Z-0.275 I-0.0634 J0.0378
X3.9797 I-0.0203 J0. F35.
X4.1679 I0.0941 J0.
X3.8321 I-0.1679 J0.
X4.3155 I0.2417 J0.
X3.6845 I-0.3155 J0.
X4.4632 I0.3894 J0.
X3.5368 I-0.4632 J0.
X4.4632 I0.4632 J0.
G2 X4.5262 Y3.1021 I0.1142 J0.
G3 X4.57 Y3.2138 I-0.0402 J0.0802
X3.3912 Y3. I-0.57 J-0.2138
X4.6088 I0.6088 J0.
X4.57 Y3.2138 I-0.6088 J0.
X4.5506 Y3.2202 I-0.0123 J-0.0046
G1 X4.4988 Y3.1866
G2 X4.4965 Y3.1855 I-0.0071 J0.011
G1 X3.914 Y2.955
X3.8994 Y2.9495
G3 X3.8984 Y2.9439 I0.0012 J-0.0031
X3.9945 Y3.0561 Z-0.3159 I0.048 J0.0561 F13.333
X3.8984 Y2.9439 Z-0.3568 I-0.048 J-0.0561
X3.9945 Y3.0561 Z-0.3977 I0.048 J0.0561
X3.8984 Y2.9439 Z-0.4386 I-0.048 J-0.0561
X3.9945 Y3.0561 Z-0.4794 I0.048 J0.0561
X3.8984 Y2.9439 Z-0.5203 I-0.048 J-0.0561
X4.0203 Y3. Z-0.55 I0.048 J0.0561
X3.9797 I-0.0203 J0. F35.
X4.1679 I0.0941 J0.
X3.8321 I-0.1679 J0.
X4.3155 I0.2417 J0.
X3.6845 I-0.3155 J0.
X4.4632 I0.3894 J0.
X3.5368 I-0.4632 J0.
X4.4632 I0.4632 J0.
G2 X4.5262 Y3.1021 I0.1142 J0.
G3 X4.57 Y3.2138 I-0.0402 J0.0802
X3.3912 Y3. I-0.57 J-0.2138
X4.6088 I0.6088 J0.
X4.57 Y3.2138 I-0.6088 J0.
G0 Z0.4
X1.3811 Y3.0378
Z0.2
G1 Z0.1 F13.333
G3 X1.5079 Y2.9622 Z0.0591 I0.0634 J-0.0378
X1.3811 Y3.0378 Z0.0182 I-0.0634 J0.0378
X1.5079 Y2.9622 Z-0.0227 I0.0634 J-0.0378
X1.3811 Y3.0378 Z-0.0636 I-0.0634 J0.0378
X1.5079 Y2.9622 Z-0.1044 I0.0634 J-0.0378
X1.3811 Y3.0378 Z-0.1453 I-0.0634 J0.0378
X1.5079 Y2.9622 Z-0.1862 I0.0634 J-0.0378
X1.3811 Y3.0378 Z-0.2271 I-0.0634 J0.0378
X1.5079 Y2.9622 Z-0.268 I0.0634 J-0.0378
X1.5183 Y3. Z-0.275 I-0.0634 J0.0378
X1.4817 I-0.0183 J0. F35.
X1.6659 I0.0921 J0.
X1.3341 I-0.1659 J0.
X1.8135 I0.2397 J0.
X1.1865 I-0.3135 J0.
X1.9612 I0.3874 J0.
X1.0388 I-0.4612 J0.
X2.1088 I0.535 J0.
X0.8912 I-0.6088 J0.
X2.1088 I0.6088 J0.
X2.0924 Y3.0127 I-0.0131 J0.
G1 X2.0324 Y2.9975
G2 X2.0301 Y2.9971 I-0.0032 J0.0127
G1 X1.4127 Y2.9521
X1.398 Y2.9497
G3 X1.3965 Y2.9439 I0.0005 J-0.0032
X1.4925 Y3.0561 Z-0.3159 I0.048 J0.0561 F13.333
X1.3965 Y2.9439 Z-0.3568 I-0.048 J-0.0561
X1.4925 Y3.0561 Z-0.3977 I0.048 J0.0561
X1.3965 Y2.9439 Z-0.4386 I-0.048 J-0.0561
X1.4925 Y3.0561 Z-0.4794 I0.048 J0.0561
X1.3965 Y2.9439 Z-0.5203 I-0.048 J-0.0561
X1.5183 Y3. Z-0.55 I0.048 J0.0561
X1.4817 I-0.0183 J0. F35.
X1.6659 I0.0921 J0.
X1.3341 I-0.1659 J0.
X1.8135 I0.2397 J0.
X1.1865 I-0.3135 J0.
X1.9612 I0.3874 J0.
X1.0388 I-0.4612 J0.
X2.1088 I0.535 J0.
X0.8912 I-0.6088 J0.
X2.1088 I0.6088 J0.
G0 Z0.4
X19.881 Y3.0378
Z0.2
G1 Z0.1 F13.333
G3 X20.0079 Y2.9622 Z0.0591 I0.0634 J-0.0378
X19.881 Y3.0378 Z0.0182 I-0.0634 J0.0378
X20.0079 Y2.9622 Z-0.0227 I0.0634 J-0.0378
X19.881 Y3.0378 Z-0.0636 I-0.0634 J0.0378
X20.0079 Y2.9622 Z-0.1044 I0.0634 J-0.0378
X19.881 Y3.0378 Z-0.1453 I-0.0634 J0.0378
X20.0079 Y2.9622 Z-0.1862 I0.0634 J-0.0378
X19.881 Y3.0378 Z-0.2271 I-0.0634 J0.0378
X20.0079 Y2.9622 Z-0.268 I0.0634 J-0.0378
X20.0183 Y3. Z-0.275 I-0.0634 J0.0378
X19.9817 I-0.0183 J0. F35.
X20.1659 I0.0921 J0.
X19.8341 I-0.1659 J0.
X20.3135 I0.2397 J0.
X19.6865 I-0.3135 J0.
X20.4612 I0.3874 J0.
X19.5388 I-0.4612 J0.
X20.6088 I0.535 J0.
X19.3912 I-0.6088 J0.
X20.6088 I0.6088 J0.
X20.5924 Y3.0127 I-0.0131 J0.
G1 X20.5323 Y2.9975
G2 X20.5301 Y2.9971 I-0.0032 J0.0127
G1 X19.9127 Y2.9521
X19.898 Y2.9497
G3 X19.8964 Y2.9439 I0.0005 J-0.0032
X19.9925 Y3.0561 Z-0.3159 I0.048 J0.0561 F13.333
X19.8964 Y2.9439 Z-0.3568 I-0.048 J-0.0561
X19.9925 Y3.0561 Z-0.3977 I0.048 J0.0561
X19.8964 Y2.9439 Z-0.4386 I-0.048 J-0.0561
X19.9925 Y3.0561 Z-0.4794 I0.048 J0.0561
X19.8964 Y2.9439 Z-0.5203 I-0.048 J-0.0561
X20.0183 Y3. Z-0.55 I0.048 J0.0561
X19.9817 I-0.0183 J0. F35.
X20.1659 I0.0921 J0.
X19.8341 I-0.1659 J0.
X20.3135 I0.2397 J0.
X19.6865 I-0.3135 J0.
X20.4612 I0.3874 J0.
X19.5388 I-0.4612 J0.
X20.6088 I0.535 J0.
X19.3912 I-0.6088 J0.
X20.6088 I0.6088 J0.
G0 Z0.4
X22.381 Y3.0378
Z0.2
G1 Z0.1 F13.333
G3 X22.5079 Y2.9622 Z0.0591 I0.0634 J-0.0378
X22.381 Y3.0378 Z0.0182 I-0.0634 J0.0378
X22.5079 Y2.9622 Z-0.0227 I0.0634 J-0.0378
X22.381 Y3.0378 Z-0.0636 I-0.0634 J0.0378
X22.5079 Y2.9622 Z-0.1044 I0.0634 J-0.0378
X22.381 Y3.0378 Z-0.1453 I-0.0634 J0.0378
X22.5079 Y2.9622 Z-0.1862 I0.0634 J-0.0378
X22.381 Y3.0378 Z-0.2271 I-0.0634 J0.0378
X22.5079 Y2.9622 Z-0.268 I0.0634 J-0.0378
X22.5183 Y3. Z-0.275 I-0.0634 J0.0378
X22.4817 I-0.0183 J0. F35.
X22.6659 I0.0921 J0.
X22.3341 I-0.1659 J0.
X22.8135 I0.2397 J0.
X22.1865 I-0.3135 J0.
X22.9612 I0.3873 J0.
X22.0388 I-0.4612 J0.
X23.1088 I0.535 J0.
X21.8912 I-0.6088 J0.
X23.1088 I0.6088 J0.
X23.0924 Y3.0127 I-0.0131 J0.
G1 X23.0323 Y2.9975
G2 X23.0301 Y2.9971 I-0.0032 J0.0127
G1 X22.4127 Y2.9521
X22.398 Y2.9497
G3 X22.3964 Y2.9439 I0.0005 J-0.0032
X22.4925 Y3.0561 Z-0.3159 I0.048 J0.0561 F13.333
X22.3964 Y2.9439 Z-0.3568 I-0.048 J-0.0561
X22.4925 Y3.0561 Z-0.3977 I0.048 J0.0561
X22.3964 Y2.9439 Z-0.4386 I-0.048 J-0.0561
X22.4925 Y3.0561 Z-0.4794 I0.048 J0.0561
X22.3964 Y2.9439 Z-0.5203 I-0.048 J-0.0561
X22.5183 Y3. Z-0.55 I0.048 J0.0561
X22.4817 I-0.0183 J0. F35.
X22.6659 I0.0921 J0.
X22.3341 I-0.1659 J0.
X22.8135 I0.2397 J0.
X22.1865 I-0.3135 J0.
X22.9612 I0.3873 J0.
X22.0388 I-0.4612 J0.
X23.1088 I0.535 J0.
X21.8912 I-0.6088 J0.
X23.1088 I0.6088 J0.
G0 Z0.6
(2D CONTOUR)
M7
G0 X9.8733 Y8.0777
Z0.6
Z0.2
G1 Z0.1 F13.333
X12. Z-0.275
X23.5 F60.
G2 X24.0777 Y7.5 I0. J-0.5777
G1 Y0.5
G2 X23.5 Y-0.0777 I-0.5777 J0.
G1 X0.5
G2 X-0.0777 Y0.5 I0. J0.5777
G1 Y7.5
G2 X0.5 Y8.0777 I0.5777 J0.
G1 X12.
X23.5 Z-0.4173 F13.333
G2 X24.0777 Y7.5 Z-0.4285 I0. J-0.5777
G1 Y0.5 Z-0.5152
G2 X23.5 Y-0.0777 Z-0.5264 I-0.5777 J0.
G1 X21.5922 Z-0.55
X0.5 F60.
G2 X-0.0777 Y0.5 I0. J0.5777
G1 Y7.5
G2 X0.5 Y8.0777 I0.5777 J0.
G1 X12.
X23.5
G2 X24.0777 Y7.5 I0. J-0.5777
G1 Y0.5
G2 X23.5 Y-0.0777 I-0.5777 J0.
G1 X21.5922
G0 Z0.6
M9
G53 Z0.
M30
%
