%
(971-23-P-0051_CAPSTAN BASE II_1492)
(T1  D=0.1492 CR=0. - ZMIN=-0.155 - FLAT END MILL)
G90 G94 G17 G91.1
G64 P0.001 Q0.001
G20
G53 G0 Z0.
(.3 CIRCLUAR THROUGH HOLE 2)
M9
T1 M6
S22000 M3
G4 P10.
G54
M7
G0 X2.9434 Y-2.3481
G43 Z0.6 H1
G0 Z0.13
G1 Z0.0649 F40.
G19 G2 Y-2.3631 Z0.05 J-0.0149 K0.
G1 Y-2.3705
G17 G3 X2.9563 Y-2.3835 I0.0129 J0.
Y-2.3317 Z0.0323 I0. J0.0259
Y-2.3835 Z0.0146 I0. J-0.0259
Y-2.3317 Z-0.0032 I0. J0.0259
Y-2.3835 Z-0.0209 I0. J-0.0259
Y-2.3317 Z-0.0386 I0. J0.0259
Y-2.3835 Z-0.0563 I0. J-0.0259
Y-2.3317 Z-0.074 I0. J0.0259
Y-2.3835 Z-0.0918 I0. J-0.0259
Y-2.3317 Z-0.1095 I0. J0.0259
Y-2.3835 Z-0.1272 I0. J-0.0259
Y-2.3317 Z-0.1449 I0. J0.0259
X2.931 Y-2.3631 Z-0.155 I0. J-0.0259
X2.9816 Y-2.3521 I0.0253 J0.0055
X2.931 Y-2.3631 I-0.0253 J-0.0055
X2.9464 Y-2.373 I0.0127 J0.0028
G1 X2.9537 Y-2.3714
X2.9565 Y-2.3708 Z-0.1547
X2.9593 Y-2.3702 Z-0.1539
X2.9618 Y-2.3696 Z-0.1525
X2.964 Y-2.3691 Z-0.1506
X2.9658 Y-2.3688 Z-0.1484
X2.9672 Y-2.3685 Z-0.1458
X2.968 Y-2.3683 Z-0.143
X2.9683 Y-2.3682 Z-0.1401
G0 Z0.4
X1.631 Y-3.394
Z0.13
G1 Z0.0649 F40.
G19 G2 Y-3.4089 Z0.05 J-0.0149 K0.
G1 Y-3.4164
G17 G3 X1.6406 Y-3.4259 I0.0096 J0.
Y-3.3876 Z0.0335 I0. J0.0192
Y-3.4259 Z0.0169 I0. J-0.0192
Y-3.3876 Z0.0004 I0. J0.0192
Y-3.4259 Z-0.0161 I0. J-0.0192
Y-3.3876 Z-0.0327 I0. J0.0192
Y-3.4259 Z-0.0492 I0. J-0.0192
Y-3.3876 Z-0.0657 I0. J0.0192
Y-3.4259 Z-0.0822 I0. J-0.0192
Y-3.3876 Z-0.0988 I0. J0.0192
Y-3.4259 Z-0.1153 I0. J-0.0192
Y-3.3876 Z-0.1318 I0. J0.0192
Y-3.4259 Z-0.1484 I0. J-0.0192
X1.6589 Y-3.4126 Z-0.155 I0. J0.0192
X1.6224 Y-3.4009 I-0.0182 J0.0058
X1.6589 Y-3.4126 I0.0182 J-0.0058
X1.6527 Y-3.4006 I-0.0091 J0.0029
G1 X1.6456 Y-3.3983
X1.6428 Y-3.3974 Z-0.1547
X1.6401 Y-3.3966 Z-0.1539
X1.6377 Y-3.3958 Z-0.1525
X1.6355 Y-3.3951 Z-0.1506
X1.6337 Y-3.3945 Z-0.1484
X1.6324 Y-3.3941 Z-0.1458
X1.6316 Y-3.3938 Z-0.143
X1.6314 Z-0.1401
G0 Z0.4
X-0.0129 Y-3.7718
Z0.13
G1 Z0.0649 F40.
G19 G2 Y-3.7867 Z0.05 J-0.0149 K0.
G1 Y-3.7942
G17 G3 X0. Y-3.8071 I0.0129 J0.
Y-3.7553 Z0.0323 I0. J0.0259
Y-3.8071 Z0.0146 I0. J-0.0259
Y-3.7553 Z-0.0032 I0. J0.0259
Y-3.8071 Z-0.0209 I0. J-0.0259
Y-3.7553 Z-0.0386 I0. J0.0259
Y-3.8071 Z-0.0563 I0. J-0.0259
Y-3.7553 Z-0.074 I0. J0.0259
Y-3.8071 Z-0.0918 I0. J-0.0259
Y-3.7553 Z-0.1095 I0. J0.0259
Y-3.8071 Z-0.1272 I0. J-0.0259
Y-3.7553 Z-0.1449 I0. J0.0259
X-0.0253 Y-3.7868 Z-0.155 I0. J-0.0259
X0.0253 Y-3.7757 I0.0253 J0.0055
X-0.0253 Y-3.7868 I-0.0253 J-0.0055
X-0.0099 Y-3.7967 I0.0127 J0.0028
G1 X-0.0026 Y-3.7951
X0.0002 Y-3.7945 Z-0.1547
X0.003 Y-3.7939 Z-0.1539
X0.0055 Y-3.7933 Z-0.1525
X0.0077 Y-3.7928 Z-0.1506
X0.0095 Y-3.7924 Z-0.1484
X0.0109 Y-3.7921 Z-0.1458
X0.0117 Y-3.792 Z-0.143
X0.012 Y-3.7919 Z-0.1401
G0 Z0.4
X-1.6502 Y-3.394
Z0.13
G1 Z0.0649 F40.
G19 G2 Y-3.4089 Z0.05 J-0.0149 K0.
G1 Y-3.4164
G17 G3 X-1.6406 Y-3.4259 I0.0096 J0.
Y-3.3876 Z0.0335 I0. J0.0192
Y-3.4259 Z0.0169 I0. J-0.0192
Y-3.3876 Z0.0004 I0. J0.0192
Y-3.4259 Z-0.0161 I0. J-0.0192
Y-3.3876 Z-0.0327 I0. J0.0192
Y-3.4259 Z-0.0492 I0. J-0.0192
Y-3.3876 Z-0.0657 I0. J0.0192
Y-3.4259 Z-0.0822 I0. J-0.0192
Y-3.3876 Z-0.0988 I0. J0.0192
Y-3.4259 Z-0.1153 I0. J-0.0192
Y-3.3876 Z-0.1318 I0. J0.0192
Y-3.4259 Z-0.1484 I0. J-0.0192
X-1.6224 Y-3.4126 Z-0.155 I0. J0.0192
X-1.6589 Y-3.4009 I-0.0182 J0.0058
X-1.6224 Y-3.4126 I0.0182 J-0.0058
X-1.6286 Y-3.4006 I-0.0091 J0.0029
G1 X-1.6357 Y-3.3983
X-1.6385 Y-3.3974 Z-0.1547
X-1.6411 Y-3.3966 Z-0.1539
X-1.6436 Y-3.3958 Z-0.1525
X-1.6457 Y-3.3951 Z-0.1506
X-1.6475 Y-3.3945 Z-0.1484
X-1.6488 Y-3.3941 Z-0.1458
X-1.6496 Y-3.3938 Z-0.143
X-1.6499 Z-0.1401
G0 Z0.4
X-2.9693 Y-2.3481
Z0.13
G1 Z0.0649 F40.
G19 G2 Y-2.3631 Z0.05 J-0.0149 K0.
G1 Y-2.3705
G17 G3 X-2.9563 Y-2.3835 I0.013 J0.
Y-2.3317 Z0.0323 I0. J0.0259
Y-2.3835 Z0.0146 I0. J-0.0259
Y-2.3317 Z-0.0032 I0. J0.0259
Y-2.3835 Z-0.0209 I0. J-0.0259
Y-2.3317 Z-0.0386 I0. J0.0259
Y-2.3835 Z-0.0563 I0. J-0.0259
Y-2.3317 Z-0.074 I0. J0.0259
Y-2.3835 Z-0.0918 I0. J-0.0259
Y-2.3317 Z-0.1095 I0. J0.0259
Y-2.3835 Z-0.1272 I0. J-0.0259
Y-2.3317 Z-0.1449 I0. J0.0259
X-2.9816 Y-2.3631 Z-0.155 I0. J-0.0259
X-2.931 Y-2.3521 I0.0253 J0.0055
X-2.9816 Y-2.3631 I-0.0253 J-0.0055
X-2.9662 Y-2.373 I0.0127 J0.0028
G1 X-2.9589 Y-2.3714
X-2.9561 Y-2.3708 Z-0.1547
X-2.9533 Y-2.3702 Z-0.1539
X-2.9508 Y-2.3696 Z-0.1525
X-2.9486 Y-2.3691 Z-0.1506
X-2.9468 Y-2.3688 Z-0.1484
X-2.9454 Y-2.3685 Z-0.1458
X-2.9446 Y-2.3683 Z-0.143
X-2.9443 Y-2.3682 Z-0.1401
G0 Z0.4
X-3.8188 Y-0.3193
Z0.13
G1 Z0.0649 F40.
G19 G2 Y-0.3342 Z0.05 J-0.0149 K0.
G1 Y-0.3417
G17 G3 X-3.8092 Y-0.3513 I0.0096 J0.
Y-0.313 Z0.0335 I0. J0.0192
Y-0.3513 Z0.0169 I0. J-0.0191
Y-0.313 Z0.0004 I0. J0.0191
Y-0.3513 Z-0.0161 I0. J-0.0191
Y-0.313 Z-0.0327 I0. J0.0191
Y-0.3513 Z-0.0492 I0. J-0.0191
Y-0.313 Z-0.0657 I0. J0.0191
Y-0.3513 Z-0.0822 I0. J-0.0191
Y-0.313 Z-0.0988 I0. J0.0191
Y-0.3513 Z-0.1153 I0. J-0.0191
Y-0.313 Z-0.1318 I0. J0.0191
Y-0.3513 Z-0.1484 I0. J-0.0191
X-3.791 Y-0.338 Z-0.155 I0. J0.0191
X-3.8274 Y-0.3263 I-0.0182 J0.0058
X-3.791 Y-0.338 I0.0182 J-0.0058
X-3.7971 Y-0.3259 I-0.0091 J0.0029
G1 X-3.8042 Y-0.3236
X-3.807 Y-0.3227 Z-0.1547
X-3.8097 Y-0.3219 Z-0.1539
X-3.8121 Y-0.3211 Z-0.1525
X-3.8143 Y-0.3204 Z-0.1506
X-3.8161 Y-0.3198 Z-0.1484
X-3.8174 Y-0.3194 Z-0.1458
X-3.8182 Y-0.3192 Z-0.143
X-3.8185 Y-0.3191 Z-0.1401
G0 Z0.4
X-3.7035 Y0.3308
Z0.13
G1 Z0.0649 F40.
G19 G2 Y0.3159 Z0.05 J-0.0149 K0.
G1 Y0.3085
G17 G3 X-3.6939 Y0.2989 I0.0096 J0.
Y0.3372 Z0.0335 I0. J0.0192
Y0.2989 Z0.0169 I0. J-0.0191
Y0.3372 Z0.0004 I0. J0.0191
Y0.2989 Z-0.0161 I0. J-0.0191
Y0.3372 Z-0.0327 I0. J0.0191
Y0.2989 Z-0.0492 I0. J-0.0191
Y0.3372 Z-0.0657 I0. J0.0191
Y0.2989 Z-0.0822 I0. J-0.0191
Y0.3372 Z-0.0988 I0. J0.0191
Y0.2989 Z-0.1153 I0. J-0.0191
Y0.3372 Z-0.1318 I0. J0.0191
Y0.2989 Z-0.1484 I0. J-0.0191
X-3.6757 Y0.3122 Z-0.155 I0. J0.0191
X-3.7122 Y0.3239 I-0.0182 J0.0058
X-3.6757 Y0.3122 I0.0182 J-0.0058
X-3.6819 Y0.3242 I-0.0091 J0.0029
G1 X-3.689 Y0.3265
X-3.6918 Y0.3274 Z-0.1547
X-3.6944 Y0.3282 Z-0.1539
X-3.6969 Y0.329 Z-0.1525
X-3.6991 Y0.3297 Z-0.1506
X-3.7008 Y0.3303 Z-0.1484
X-3.7021 Y0.3307 Z-0.1458
X-3.7029 Y0.331 Z-0.143
X-3.7032 Y0.3311 Z-0.1401
G0 Z0.4
X-3.6994 Y0.8508
Z0.13
G1 Z0.0649 F40.
G19 G2 Y0.8359 Z0.05 J-0.0149 K0.
G1 Y0.8285
G17 G3 X-3.6864 Y0.8155 I0.0129 J0.
Y0.8673 Z0.0323 I0. J0.0259
Y0.8155 Z0.0146 I0. J-0.0259
Y0.8673 Z-0.0032 I0. J0.0259
Y0.8155 Z-0.0209 I0. J-0.0259
Y0.8673 Z-0.0386 I0. J0.0259
Y0.8155 Z-0.0563 I0. J-0.0259
Y0.8673 Z-0.074 I0. J0.0259
Y0.8155 Z-0.0918 I0. J-0.0259
Y0.8673 Z-0.1095 I0. J0.0259
Y0.8155 Z-0.1272 I0. J-0.0259
Y0.8673 Z-0.1449 I0. J0.0259
X-3.7118 Y0.8359 Z-0.155 I0. J-0.0259
X-3.6611 Y0.8469 I0.0253 J0.0055
X-3.7118 Y0.8359 I-0.0253 J-0.0055
X-3.6963 Y0.826 I0.0127 J0.0028
G1 X-3.6891 Y0.8276
X-3.6862 Y0.8282 Z-0.1547
X-3.6835 Y0.8288 Z-0.1539
X-3.681 Y0.8293 Z-0.1525
X-3.6787 Y0.8298 Z-0.1506
X-3.6769 Y0.8302 Z-0.1484
X-3.6756 Y0.8305 Z-0.1458
X-3.6748 Y0.8307 Z-0.143
X-3.6745 Y0.8308 Z-0.1401
G0 Z0.4
X-2.9659 Y2.3704
Z0.13
G1 Z0.0649 F40.
G19 G2 Y2.3555 Z0.05 J-0.0149 K0.
G1 Y2.348
G17 G3 X-2.9563 Y2.3384 I0.0096 J0.
Y2.3767 Z0.0335 I0. J0.0191
Y2.3384 Z0.0169 I0. J-0.0191
Y2.3767 Z0.0004 I0. J0.0191
Y2.3384 Z-0.0161 I0. J-0.0191
Y2.3767 Z-0.0327 I0. J0.0191
Y2.3384 Z-0.0492 I0. J-0.0191
Y2.3767 Z-0.0657 I0. J0.0191
Y2.3384 Z-0.0822 I0. J-0.0191
Y2.3767 Z-0.0988 I0. J0.0191
Y2.3384 Z-0.1153 I0. J-0.0191
Y2.3767 Z-0.1318 I0. J0.0191
Y2.3384 Z-0.1484 I0. J-0.0191
X-2.9381 Y2.3517 Z-0.155 I0. J0.0191
X-2.9745 Y2.3634 I-0.0182 J0.0058
X-2.9381 Y2.3517 I0.0182 J-0.0058
X-2.9443 Y2.3638 I-0.0091 J0.0029
G1 X-2.9514 Y2.366
X-2.9541 Y2.3669 Z-0.1547
X-2.9568 Y2.3678 Z-0.1539
X-2.9593 Y2.3686 Z-0.1525
X-2.9614 Y2.3693 Z-0.1506
X-2.9632 Y2.3698 Z-0.1484
X-2.9645 Y2.3703 Z-0.1458
X-2.9653 Y2.3705 Z-0.143
X-2.9656 Y2.3706 Z-0.1401
G0 Z0.4
X-1.6536 Y3.4162
Z0.13
G1 Z0.0649 F40.
G19 G2 Y3.4013 Z0.05 J-0.0149 K0.
G1 Y3.3938
G17 G3 X-1.6406 Y3.3809 I0.0129 J0.
Y3.4327 Z0.0323 I0. J0.0259
Y3.3809 Z0.0146 I0. J-0.0259
Y3.4327 Z-0.0032 I0. J0.0259
Y3.3809 Z-0.0209 I0. J-0.0259
Y3.4327 Z-0.0386 I0. J0.0259
Y3.3809 Z-0.0563 I0. J-0.0259
Y3.4327 Z-0.074 I0. J0.0259
Y3.3809 Z-0.0918 I0. J-0.0259
Y3.4327 Z-0.1095 I0. J0.0259
Y3.3809 Z-0.1272 I0. J-0.0259
Y3.4327 Z-0.1449 I0. J0.0259
X-1.6659 Y3.4013 Z-0.155 I0. J-0.0259
X-1.6153 Y3.4123 I0.0253 J0.0055
X-1.6659 Y3.4013 I-0.0253 J-0.0055
X-1.6505 Y3.3914 I0.0127 J0.0028
G1 X-1.6432 Y3.393
X-1.6404 Y3.3936 Z-0.1547
X-1.6377 Y3.3942 Z-0.1539
X-1.6351 Y3.3947 Z-0.1525
X-1.6329 Y3.3952 Z-0.1506
X-1.6311 Y3.3956 Z-0.1484
X-1.6298 Y3.3959 Z-0.1458
X-1.6289 Y3.3961 Z-0.143
X-1.6287 Z-0.1401
G0 Z0.4
X-0.0096 Y3.7941
Z0.13
G1 Z0.0649 F40.
G19 G2 Y3.7791 Z0.05 J-0.0149 K0.
G1 Y3.7717
G17 G3 X0. Y3.7621 I0.0096 J0.
Y3.8004 Z0.0335 I0. J0.0191
Y3.7621 Z0.0169 I0. J-0.0191
Y3.8004 Z0.0004 I0. J0.0191
Y3.7621 Z-0.0161 I0. J-0.0191
Y3.8004 Z-0.0327 I0. J0.0191
Y3.7621 Z-0.0492 I0. J-0.0191
Y3.8004 Z-0.0657 I0. J0.0191
Y3.7621 Z-0.0822 I0. J-0.0191
Y3.8004 Z-0.0988 I0. J0.0191
Y3.7621 Z-0.1153 I0. J-0.0191
Y3.8004 Z-0.1318 I0. J0.0191
Y3.7621 Z-0.1484 I0. J-0.0191
X0.0182 Y3.7754 Z-0.155 I0. J0.0191
X-0.0182 Y3.7871 I-0.0182 J0.0058
X0.0182 Y3.7754 I0.0182 J-0.0058
X0.012 Y3.7874 I-0.0091 J0.0029
G1 X0.0049 Y3.7897
X0.0022 Y3.7906 Z-0.1547
X-0.0005 Y3.7915 Z-0.1539
X-0.003 Y3.7923 Z-0.1525
X-0.0051 Y3.7929 Z-0.1506
X-0.0069 Y3.7935 Z-0.1484
X-0.0082 Y3.7939 Z-0.1458
X-0.009 Y3.7942 Z-0.143
X-0.0093 Y3.7943 Z-0.1401
G0 Z0.4
X1.6277 Y3.4162
Z0.13
G1 Z0.0649 F40.
G19 G2 Y3.4013 Z0.05 J-0.0149 K0.
G1 Y3.3938
G17 G3 X1.6406 Y3.3809 I0.0129 J0.
Y3.4327 Z0.0323 I0. J0.0259
Y3.3809 Z0.0146 I0. J-0.0259
Y3.4327 Z-0.0032 I0. J0.0259
Y3.3809 Z-0.0209 I0. J-0.0259
Y3.4327 Z-0.0386 I0. J0.0259
Y3.3809 Z-0.0563 I0. J-0.0259
Y3.4327 Z-0.074 I0. J0.0259
Y3.3809 Z-0.0918 I0. J-0.0259
Y3.4327 Z-0.1095 I0. J0.0259
Y3.3809 Z-0.1272 I0. J-0.0259
Y3.4327 Z-0.1449 I0. J0.0259
X1.6153 Y3.4013 Z-0.155 I0. J-0.0259
X1.6659 Y3.4123 I0.0253 J0.0055
X1.6153 Y3.4013 I-0.0253 J-0.0055
X1.6307 Y3.3914 I0.0127 J0.0028
G1 X1.638 Y3.393
X1.6409 Y3.3936 Z-0.1547
X1.6436 Y3.3942 Z-0.1539
X1.6461 Y3.3947 Z-0.1525
X1.6483 Y3.3952 Z-0.1506
X1.6501 Y3.3956 Z-0.1484
X1.6515 Y3.3959 Z-0.1458
X1.6523 Y3.3961 Z-0.143
X1.6526 Z-0.1401
G0 Z0.4
X2.9467 Y2.3704
Z0.13
G1 Z0.0649 F40.
G19 G2 Y2.3555 Z0.05 J-0.0149 K0.
G1 Y2.348
G17 G3 X2.9563 Y2.3384 I0.0096 J0.
Y2.3767 Z0.0335 I0. J0.0191
Y2.3384 Z0.0169 I0. J-0.0191
Y2.3767 Z0.0004 I0. J0.0191
Y2.3384 Z-0.0161 I0. J-0.0191
Y2.3767 Z-0.0327 I0. J0.0191
Y2.3384 Z-0.0492 I0. J-0.0191
Y2.3767 Z-0.0657 I0. J0.0191
Y2.3384 Z-0.0822 I0. J-0.0191
Y2.3767 Z-0.0988 I0. J0.0191
Y2.3384 Z-0.1153 I0. J-0.0191
Y2.3767 Z-0.1318 I0. J0.0191
Y2.3384 Z-0.1484 I0. J-0.0191
X2.9745 Y2.3517 Z-0.155 I0. J0.0191
X2.9381 Y2.3634 I-0.0182 J0.0058
X2.9745 Y2.3517 I0.0182 J-0.0058
X2.9683 Y2.3638 I-0.0091 J0.0029
G1 X2.9612 Y2.366
X2.9585 Y2.3669 Z-0.1547
X2.9558 Y2.3678 Z-0.1539
X2.9533 Y2.3686 Z-0.1525
X2.9512 Y2.3693 Z-0.1506
X2.9494 Y2.3698 Z-0.1484
X2.9481 Y2.3703 Z-0.1458
X2.9473 Y2.3705 Z-0.143
X2.947 Y2.3706 Z-0.1401
G0 Z0.4
X3.6735 Y0.8508
Z0.13
G1 Z0.0649 F40.
G19 G2 Y0.8359 Z0.05 J-0.0149 K0.
G1 Y0.8285
G17 G3 X3.6864 Y0.8155 I0.013 J0.
Y0.8673 Z0.0323 I0. J0.0259
Y0.8155 Z0.0146 I0. J-0.0259
Y0.8673 Z-0.0032 I0. J0.0259
Y0.8155 Z-0.0209 I0. J-0.0259
Y0.8673 Z-0.0386 I0. J0.0259
Y0.8155 Z-0.0563 I0. J-0.0259
Y0.8673 Z-0.074 I0. J0.0259
Y0.8155 Z-0.0918 I0. J-0.0259
Y0.8673 Z-0.1095 I0. J0.0259
Y0.8155 Z-0.1272 I0. J-0.0259
Y0.8673 Z-0.1449 I0. J0.0259
X3.6611 Y0.8359 Z-0.155 I0. J-0.0259
X3.7118 Y0.8469 I0.0253 J0.0055
X3.6611 Y0.8359 I-0.0253 J-0.0055
X3.6765 Y0.826 I0.0127 J0.0028
G1 X3.6838 Y0.8276
X3.6867 Y0.8282 Z-0.1547
X3.6894 Y0.8288 Z-0.1539
X3.6919 Y0.8293 Z-0.1525
X3.6941 Y0.8298 Z-0.1506
X3.696 Y0.8302 Z-0.1484
X3.6973 Y0.8305 Z-0.1458
X3.6981 Y0.8307 Z-0.143
X3.6984 Y0.8308 Z-0.1401
G0 Z0.4
X3.6844 Y0.3308
Z0.13
G1 Z0.0649 F40.
G19 G2 Y0.3159 Z0.05 J-0.0149 K0.
G1 Y0.3085
G17 G3 X3.6939 Y0.2989 I0.0096 J0.
Y0.3372 Z0.0335 I0. J0.0192
Y0.2989 Z0.0169 I0. J-0.0191
Y0.3372 Z0.0004 I0. J0.0191
Y0.2989 Z-0.0161 I0. J-0.0191
Y0.3372 Z-0.0327 I0. J0.0191
Y0.2989 Z-0.0492 I0. J-0.0191
Y0.3372 Z-0.0657 I0. J0.0191
Y0.2989 Z-0.0822 I0. J-0.0191
Y0.3372 Z-0.0988 I0. J0.0191
Y0.2989 Z-0.1153 I0. J-0.0191
Y0.3372 Z-0.1318 I0. J0.0191
Y0.2989 Z-0.1484 I0. J-0.0191
X3.7122 Y0.3122 Z-0.155 I0. J0.0191
X3.6757 Y0.3239 I-0.0182 J0.0058
X3.7122 Y0.3122 I0.0182 J-0.0058
X3.706 Y0.3242 I-0.0091 J0.0029
G1 X3.6989 Y0.3265
X3.6961 Y0.3274 Z-0.1547
X3.6935 Y0.3282 Z-0.1539
X3.691 Y0.329 Z-0.1525
X3.6888 Y0.3297 Z-0.1506
X3.6871 Y0.3303 Z-0.1484
X3.6858 Y0.3307 Z-0.1458
X3.685 Y0.331 Z-0.143
X3.6847 Y0.3311 Z-0.1401
G0 Z0.4
X3.7996 Y-0.3193
Z0.13
G1 Z0.0649 F40.
G19 G2 Y-0.3342 Z0.05 J-0.0149 K0.
G1 Y-0.3417
G17 G3 X3.8092 Y-0.3513 I0.0096 J0.
Y-0.313 Z0.0335 I0. J0.0192
Y-0.3513 Z0.0169 I0. J-0.0191
Y-0.313 Z0.0004 I0. J0.0191
Y-0.3513 Z-0.0161 I0. J-0.0191
Y-0.313 Z-0.0327 I0. J0.0191
Y-0.3513 Z-0.0492 I0. J-0.0191
Y-0.313 Z-0.0657 I0. J0.0191
Y-0.3513 Z-0.0822 I0. J-0.0191
Y-0.313 Z-0.0988 I0. J0.0191
Y-0.3513 Z-0.1153 I0. J-0.0191
Y-0.313 Z-0.1318 I0. J0.0191
Y-0.3513 Z-0.1484 I0. J-0.0191
X3.8274 Y-0.338 Z-0.155 I0. J0.0191
X3.791 Y-0.3263 I-0.0182 J0.0058
X3.8274 Y-0.338 I0.0182 J-0.0058
X3.8212 Y-0.3259 I-0.0091 J0.0029
G1 X3.8141 Y-0.3236
X3.8114 Y-0.3227 Z-0.1547
X3.8087 Y-0.3219 Z-0.1539
X3.8062 Y-0.3211 Z-0.1525
X3.8041 Y-0.3204 Z-0.1506
X3.8023 Y-0.3198 Z-0.1484
X3.801 Y-0.3194 Z-0.1458
X3.8002 Y-0.3192 Z-0.143
X3.7999 Y-0.3191 Z-0.1401
G0 Z0.6
(2D SLOT CUT)
M7
G0 X0.9199 Y3.5584
Z0.6
Z0.2
G1 Z0.1 F13.333
G3 X0.3381 Y3.6598 Z-0.0042 I-0.9199 J-3.5584 F40.
X0.2886 Y3.6327 Z-0.0148 I-0.0046 J-0.0502
G2 X0. Y3.4566 Z-0.0775 I-0.2886 J0.1485
X-0.2886 Y3.6327 I0. J0.3246 F55.
G3 X-0.3381 Y3.6598 I-0.0448 J-0.0231
X-1.2834 Y3.4441 I0.3381 J-3.6598
X-1.3161 Y3.3982 I0.0176 J-0.0472
G2 X-1.8362 Y3.1477 I-0.3245 J0.0086
G3 X-1.8925 Y3.1507 I-0.0304 J-0.0402
X-2.6506 Y2.5462 I1.8925 J-3.1507
X-2.6602 Y2.4906 I0.0363 J-0.0349
G2 X-3.0201 Y2.0393 I-0.2961 J-0.133
G3 X-3.0721 Y2.0176 I-0.0099 J-0.0494
X-3.4928 Y1.144 I3.0721 J-2.0176
X-3.4774 Y1.0897 I0.0479 J-0.0157
G2 X-3.37 Y0.7692 I-0.209 J-0.2483
G3 X-3.383 Y0.7097 I3.37 J-0.7693
X-3.384 Y0.5398 I0.4163 J-0.0873
G1 X-3.2048 Y-0.3663
G2 X-3.2635 Y-0.4539 I-0.0732 J-0.0145
G1 X-3.656 Y-0.5316
G3 X-3.6602 Y-0.5379 I0.001 J-0.0053
G1 X-3.5769 Y-0.9589
G3 X-3.4819 Y-1.1941 I0.6626 J0.131
G2 X-3.4616 Y-1.2352 I-0.1677 J-0.1082
G3 X-3.0721 Y-2.0176 I3.4616 J1.2352
X-3.0201 Y-2.0393 I0.0421 J0.0277
G2 X-2.6602 Y-2.4906 I0.0638 J-0.3183
G3 X-2.6506 Y-2.5462 I0.046 J-0.0207
X-1.8925 Y-3.1507 I2.6506 J2.5462
X-1.8362 Y-3.1477 I0.026 J0.0432
G2 X-1.3161 Y-3.3982 I0.1956 J-0.2591
G3 X-1.2834 Y-3.4441 I0.0504 J0.0013
X-0.3381 Y-3.6598 I1.2833 J3.4441
X-0.2886 Y-3.6327 I0.0046 J0.0502
G2 X0.2886 I0.2886 J-0.1485
G3 X0.3381 Y-3.6598 I0.0448 J0.0231
X1.2834 Y-3.4441 I-0.3381 J3.6598
X1.3161 Y-3.3982 I-0.0176 J0.0472
G2 X1.8362 Y-3.1477 I0.3245 J-0.0086
G3 X1.8925 Y-3.1507 I0.0304 J0.0402
X2.6506 Y-2.5462 I-1.8925 J3.1507
X2.6602 Y-2.4906 I-0.0363 J0.0349
G2 X3.0201 Y-2.0393 I0.2961 J0.133
G3 X3.0721 Y-2.0176 I0.0099 J0.0494
X3.4616 Y-1.2352 I-3.0721 J2.0176
G2 X3.4819 Y-1.1941 I0.188 J-0.0671
G3 X3.5769 Y-0.9589 I-0.5675 J0.3662
G1 X3.6602 Y-0.5379
G3 X3.656 Y-0.5316 I-0.0053 J0.001
G1 X3.2635 Y-0.4539
G2 X3.2048 Y-0.3663 I0.0145 J0.0732
G1 X3.384 Y0.5398
G3 X3.383 Y0.7097 I-0.4173 J0.0825
X3.37 Y0.7692 I-3.383 J-0.7098
G2 X3.4774 Y1.0897 I0.3165 J0.0722
G3 X3.4928 Y1.144 I-0.0325 J0.0386
X3.0721 Y2.0176 I-3.4928 J-1.144
X3.0201 Y2.0393 I-0.0421 J-0.0277
G2 X2.6602 Y2.4906 I-0.0638 J0.3183
G3 X2.6506 Y2.5462 I-0.046 J0.0207
X1.8925 Y3.1507 I-2.6506 J-2.5462
X1.8362 Y3.1477 I-0.026 J-0.0432
G2 X1.3161 Y3.3982 I-0.1956 J0.2591
G3 X1.2834 Y3.4441 I-0.0504 J-0.0013
X0.3381 Y3.6598 I-1.2833 J-3.4441
X0.2886 Y3.6327 I-0.0046 J-0.0502
G2 X0. Y3.4566 I-0.2886 J0.1485
X-0.2886 Y3.6327 Z-0.1194 I0. J0.3246 F40.
G3 X-0.3381 Y3.6598 Z-0.1265 I-0.0448 J-0.0231
X-0.5779 Y3.6297 Z-0.155 I0.3381 J-3.6598
X-1.2834 Y3.4441 I0.5779 J-3.6297 F55.
X-1.3161 Y3.3982 I0.0176 J-0.0472
G2 X-1.8362 Y3.1477 I-0.3245 J0.0086
G3 X-1.8925 Y3.1507 I-0.0304 J-0.0402
X-2.6506 Y2.5462 I1.8925 J-3.1507
X-2.6602 Y2.4906 I0.0363 J-0.0349
G2 X-3.0201 Y2.0393 I-0.2961 J-0.133
G3 X-3.0721 Y2.0176 I-0.0099 J-0.0494
X-3.4928 Y1.144 I3.0721 J-2.0176
X-3.4774 Y1.0897 I0.0479 J-0.0157
G2 X-3.37 Y0.7692 I-0.209 J-0.2483
G3 X-3.383 Y0.7097 I3.37 J-0.7693
X-3.384 Y0.5398 I0.4163 J-0.0873
G1 X-3.2048 Y-0.3663
G2 X-3.2635 Y-0.4539 I-0.0732 J-0.0145
G1 X-3.656 Y-0.5316
G3 X-3.6602 Y-0.5379 I0.001 J-0.0053
G1 X-3.5769 Y-0.9589
G3 X-3.4819 Y-1.1941 I0.6626 J0.131
G2 X-3.4616 Y-1.2352 I-0.1677 J-0.1082
G3 X-3.0721 Y-2.0176 I3.4616 J1.2352
X-3.0201 Y-2.0393 I0.0421 J0.0277
G2 X-2.6602 Y-2.4906 I0.0638 J-0.3183
G3 X-2.6506 Y-2.5462 I0.046 J-0.0207
X-1.8925 Y-3.1507 I2.6506 J2.5462
X-1.8362 Y-3.1477 I0.026 J0.0432
G2 X-1.3161 Y-3.3982 I0.1956 J-0.2591
G3 X-1.2834 Y-3.4441 I0.0504 J0.0013
X-0.3381 Y-3.6598 I1.2833 J3.4441
X-0.2886 Y-3.6327 I0.0046 J0.0502
G2 X0.2886 I0.2886 J-0.1485
G3 X0.3381 Y-3.6598 I0.0448 J0.0231
X1.2834 Y-3.4441 I-0.3381 J3.6598
X1.3161 Y-3.3982 I-0.0176 J0.0472
G2 X1.8362 Y-3.1477 I0.3245 J-0.0086
G3 X1.8925 Y-3.1507 I0.0304 J0.0402
X2.6506 Y-2.5462 I-1.8925 J3.1507
X2.6602 Y-2.4906 I-0.0363 J0.0349
G2 X3.0201 Y-2.0393 I0.2961 J0.133
G3 X3.0721 Y-2.0176 I0.0099 J0.0494
X3.4616 Y-1.2352 I-3.0721 J2.0176
G2 X3.4819 Y-1.1941 I0.188 J-0.0671
G3 X3.5769 Y-0.9589 I-0.5675 J0.3662
G1 X3.6602 Y-0.5379
G3 X3.656 Y-0.5316 I-0.0053 J0.001
G1 X3.2635 Y-0.4539
G2 X3.2048 Y-0.3663 I0.0145 J0.0732
G1 X3.384 Y0.5398
G3 X3.383 Y0.7097 I-0.4173 J0.0825
X3.37 Y0.7692 I-3.383 J-0.7098
G2 X3.4774 Y1.0897 I0.3165 J0.0722
G3 X3.4928 Y1.144 I-0.0325 J0.0386
X3.0721 Y2.0176 I-3.4928 J-1.144
X3.0201 Y2.0393 I-0.0421 J-0.0277
G2 X2.6602 Y2.4906 I-0.0638 J0.3183
G3 X2.6506 Y2.5462 I-0.046 J0.0207
X1.8925 Y3.1507 I-2.6506 J-2.5462
X1.8362 Y3.1477 I-0.026 J-0.0432
G2 X1.3161 Y3.3982 I-0.1956 J0.2591
G3 X1.2834 Y3.4441 I-0.0504 J-0.0013
X0.3381 Y3.6598 I-1.2833 J-3.4441
X0.2886 Y3.6327 I-0.0046 J-0.0502
G2 X-0.2886 I-0.2886 J0.1485
G3 X-0.3381 Y3.6598 I-0.0448 J-0.0231
X-0.5779 Y3.6297 I0.3381 J-3.6598
G0 Z0.4
X-0.9976 Y4.208
Z0.2
G1 Z0.1 F13.333
G2 X-0.0142 Y4.3246 Z-0.075 I0.9976 J-4.208 F40.
X0. I0.0142 J-4.3246
G1 Z0.2 F55.
Z-0.075 F13.333
G2 X0.2618 Y4.3167 I0. J-4.3246 F55.
G1 Z-0.0775 F13.333
G2 X4.275 Y0.653 I-0.2618 J-4.3167 F55.
G1 Z-0.075
G2 X4.3236 Y-0.0946 I-4.275 J-0.653
G1 Z-0.0775 F13.333
G2 X0.7259 Y-4.2632 I-4.3236 J0.0946 F55.
G1 Z-0.075
G2 X-0.0207 Y-4.3246 I-0.7259 J4.2632
G1 Z-0.0775 F13.333
G2 X-4.3129 Y-0.3182 I0.0207 J4.3246 F55.
G1 Z-0.075
G2 X-4.3031 Y0.431 I4.3129 J0.3182
G1 Z-0.0775 F13.333
G2 X-0.4872 Y4.2971 I4.3031 J-0.431 F55.
G1 Z-0.075
G2 X0. Y4.3246 I0.4872 J-4.2971
X0.2618 Y4.3167 I0. J-4.3246 F40.
G1 Z-0.1064 F13.333
G2 X0.6989 Y4.2678 Z-0.155 I-0.2618 J-4.3167 F40.
X4.275 Y0.653 I-0.6989 J-4.2678 F55.
G1 Z-0.075
G2 X4.3236 Y-0.0946 I-4.275 J-0.653
G1 Z-0.155 F13.333
G2 X0.7259 Y-4.2632 I-4.3236 J0.0946 F55.
G1 Z-0.075
G2 X-0.0207 Y-4.3246 I-0.7259 J4.2632
G1 Z-0.155 F13.333
G2 X-4.3129 Y-0.3182 I0.0207 J4.3246 F55.
G1 Z-0.075
G2 X-4.3031 Y0.431 I4.3129 J0.3182
G1 Z-0.155 F13.333
G2 X-0.4872 Y4.2971 I4.3031 J-0.431 F55.
G1 Z-0.075
G2 X0.2618 Y4.3167 I0.4872 J-4.2971
G1 Z-0.155 F13.333
G2 X0.6989 Y4.2678 I-0.2618 J-4.3167 F55.
G0 Z0.6
M9
G53 Z0.
M30
%
