%
(971-23-P-0051_CAPSTAN BASE II_1540)
(T1  D=0.154 CR=0. - ZMIN=-0.155 - FLAT END MILL)
G90 G94 G17 G91.1
G64 P0.001 Q0.001
G20
G53 G0 Z0.
(.3 CIRCLUAR THROUGH HOLE 2)
M9
T1 M6
S22000 M3
G4 P10.
G54
M7
G0 X-3.8176 Y-0.3328
G43 Z0.6 H1
G0 Z0.1146
G1 Z0.05 F40.
Y-0.3405
G3 X-3.8092 Y-0.3489 I0.0084 J0.
Y-0.3154 Z0.0335 I0. J0.0168
Y-0.3489 Z0.0169 I0. J-0.0168
Y-0.3154 Z0.0004 I0. J0.0168
Y-0.3489 Z-0.0161 I0. J-0.0168
Y-0.3154 Z-0.0327 I0. J0.0168
Y-0.3489 Z-0.0492 I0. J-0.0168
Y-0.3154 Z-0.0657 I0. J0.0168
Y-0.3489 Z-0.0822 I0. J-0.0168
Y-0.3154 Z-0.0988 I0. J0.0168
Y-0.3489 Z-0.1153 I0. J-0.0167
Y-0.3154 Z-0.1318 I0. J0.0167
Y-0.3489 Z-0.1484 I0. J-0.0167
X-3.7932 Y-0.3372 Z-0.155 I0. J0.0167
X-3.8251 Y-0.327 I-0.0159 J0.0051
X-3.7932 Y-0.3372 I0.0159 J-0.0051
X-3.7987 Y-0.3267 I-0.008 J0.0026
G1 X-3.806 Y-0.3243
G0 Z0.4
X-3.7023 Y0.3174
Z0.1146
G1 Z0.05 F40.
Y0.3097
G3 X-3.6939 Y0.3013 I0.0084 J0.
Y0.3348 Z0.0335 I0. J0.0168
Y0.3013 Z0.0169 I0. J-0.0168
Y0.3348 Z0.0004 I0. J0.0168
Y0.3013 Z-0.0161 I0. J-0.0168
Y0.3348 Z-0.0327 I0. J0.0168
Y0.3013 Z-0.0492 I0. J-0.0168
Y0.3348 Z-0.0657 I0. J0.0168
Y0.3013 Z-0.0822 I0. J-0.0168
Y0.3348 Z-0.0988 I0. J0.0168
Y0.3013 Z-0.1153 I0. J-0.0168
Y0.3348 Z-0.1318 I0. J0.0168
Y0.3013 Z-0.1484 I0. J-0.0168
X-3.678 Y0.3129 Z-0.155 I0. J0.0167
X-3.7099 Y0.3231 I-0.0159 J0.0051
X-3.678 Y0.3129 I0.0159 J-0.0051
X-3.6834 Y0.3234 I-0.008 J0.0026
G1 X-3.6907 Y0.3258
G0 Z0.4
X-3.6982 Y0.8528
Z0.13
G1 Z0.0654 F40.
G19 G2 Y0.8374 Z0.05 J-0.0154 K0.
G1 Y0.8297
G17 G3 X-3.6864 Y0.8179 I0.0117 J0.
Y0.8649 Z0.0323 I0. J0.0235
Y0.8179 Z0.0146 I0. J-0.0235
Y0.8649 Z-0.0032 I0. J0.0235
Y0.8179 Z-0.0209 I0. J-0.0235
Y0.8649 Z-0.0386 I0. J0.0235
Y0.8179 Z-0.0563 I0. J-0.0235
Y0.8649 Z-0.074 I0. J0.0235
Y0.8179 Z-0.0918 I0. J-0.0235
Y0.8649 Z-0.1095 I0. J0.0235
Y0.8179 Z-0.1272 I0. J-0.0235
Y0.8649 Z-0.1449 I0. J0.0235
X-3.7094 Y0.8364 Z-0.155 I0. J-0.0235
X-3.6635 Y0.8464 I0.023 J0.005
X-3.7094 Y0.8364 I-0.023 J-0.005
X-3.6954 Y0.8274 I0.0115 J0.0025
G1 X-3.6879 Y0.8291
X-3.685 Y0.8297 Z-0.1547
X-3.6821 Y0.8303 Z-0.1538
X-3.6795 Y0.8309 Z-0.1524
X-3.6773 Y0.8314 Z-0.1505
X-3.6754 Y0.8318 Z-0.1482
X-3.674 Y0.8321 Z-0.1455
X-3.6731 Y0.8323 Z-0.1426
X-3.6729 Z-0.1396
G0 Z0.4
X-2.9647 Y2.3569
Z0.1146
G1 Z0.05 F40.
Y2.3492
G3 X-2.9563 Y2.3408 I0.0084 J0.
Y2.3743 Z0.0335 I0. J0.0167
Y2.3408 Z0.0169 I0. J-0.0167
Y2.3743 Z0.0004 I0. J0.0167
Y2.3408 Z-0.0161 I0. J-0.0167
Y2.3743 Z-0.0327 I0. J0.0167
Y2.3408 Z-0.0492 I0. J-0.0167
Y2.3743 Z-0.0657 I0. J0.0167
Y2.3408 Z-0.0822 I0. J-0.0167
Y2.3743 Z-0.0988 I0. J0.0167
Y2.3408 Z-0.1153 I0. J-0.0167
Y2.3743 Z-0.1318 I0. J0.0167
Y2.3408 Z-0.1484 I0. J-0.0167
X-2.9404 Y2.3525 Z-0.155 I0. J0.0167
X-2.9722 Y2.3627 I-0.0159 J0.0051
X-2.9404 Y2.3525 I0.0159 J-0.0051
X-2.9458 Y2.363 I-0.008 J0.0026
G1 X-2.9531 Y2.3653
G0 Z0.4
X-1.6524 Y3.4181
Z0.13
G1 Z0.0654 F40.
G19 G2 Y3.4027 Z0.05 J-0.0154 K0.
G1 Y3.395
G17 G3 X-1.6406 Y3.3833 I0.0118 J0.
Y3.4303 Z0.0323 I0. J0.0235
Y3.3833 Z0.0146 I0. J-0.0235
Y3.4303 Z-0.0032 I0. J0.0235
Y3.3833 Z-0.0209 I0. J-0.0235
Y3.4303 Z-0.0386 I0. J0.0235
Y3.3833 Z-0.0563 I0. J-0.0235
Y3.4303 Z-0.074 I0. J0.0235
Y3.3833 Z-0.0918 I0. J-0.0235
Y3.4303 Z-0.1095 I0. J0.0235
Y3.3833 Z-0.1272 I0. J-0.0235
Y3.4303 Z-0.1449 I0. J0.0235
X-1.6636 Y3.4018 Z-0.155 I0. J-0.0235
X-1.6177 Y3.4118 I0.023 J0.005
X-1.6636 Y3.4018 I-0.023 J-0.005
X-1.6496 Y3.3928 I0.0115 J0.0025
G1 X-1.6421 Y3.3944
X-1.6391 Y3.3951 Z-0.1547
X-1.6363 Y3.3957 Z-0.1538
X-1.6337 Y3.3963 Z-0.1524
X-1.6314 Y3.3968 Z-0.1505
X-1.6296 Y3.3972 Z-0.1482
X-1.6282 Y3.3975 Z-0.1455
X-1.6273 Y3.3977 Z-0.1426
X-1.627 Z-0.1396
G0 Z0.4
X-0.0084 Y3.7806
Z0.1146
G1 Z0.05 F40.
Y3.7729
G3 X0. Y3.7645 I0.0084 J0.
Y3.798 Z0.0335 I0. J0.0167
Y3.7645 Z0.0169 I0. J-0.0167
Y3.798 Z0.0004 I0. J0.0167
Y3.7645 Z-0.0161 I0. J-0.0167
Y3.798 Z-0.0327 I0. J0.0167
Y3.7645 Z-0.0492 I0. J-0.0167
Y3.798 Z-0.0657 I0. J0.0167
Y3.7645 Z-0.0822 I0. J-0.0167
Y3.798 Z-0.0988 I0. J0.0167
Y3.7645 Z-0.1153 I0. J-0.0167
Y3.798 Z-0.1318 I0. J0.0167
Y3.7645 Z-0.1484 I0. J-0.0167
X0.0159 Y3.7761 Z-0.155 I0. J0.0167
X-0.0159 Y3.7864 I-0.0159 J0.0051
X0.0159 Y3.7761 I0.0159 J-0.0051
X0.0105 Y3.7867 I-0.008 J0.0026
G1 X0.0032 Y3.789
G0 Z0.4
X1.6289 Y3.4181
Z0.13
G1 Z0.0654 F40.
G19 G2 Y3.4027 Z0.05 J-0.0154 K0.
G1 Y3.395
G17 G3 X1.6406 Y3.3833 I0.0118 J0.
Y3.4303 Z0.0323 I0. J0.0235
Y3.3833 Z0.0146 I0. J-0.0235
Y3.4303 Z-0.0032 I0. J0.0235
Y3.3833 Z-0.0209 I0. J-0.0235
Y3.4303 Z-0.0386 I0. J0.0235
Y3.3833 Z-0.0563 I0. J-0.0235
Y3.4303 Z-0.074 I0. J0.0235
Y3.3833 Z-0.0918 I0. J-0.0235
Y3.4303 Z-0.1095 I0. J0.0235
Y3.3833 Z-0.1272 I0. J-0.0235
Y3.4303 Z-0.1449 I0. J0.0235
X1.6177 Y3.4018 Z-0.155 I0. J-0.0235
X1.6636 Y3.4118 I0.023 J0.005
X1.6177 Y3.4018 I-0.023 J-0.005
X1.6316 Y3.3928 I0.0115 J0.0025
G1 X1.6392 Y3.3944
X1.6421 Y3.3951 Z-0.1547
X1.6449 Y3.3957 Z-0.1538
X1.6475 Y3.3963 Z-0.1524
X1.6498 Y3.3968 Z-0.1505
X1.6517 Y3.3972 Z-0.1482
X1.6531 Y3.3975 Z-0.1455
X1.6539 Y3.3977 Z-0.1426
X1.6542 Z-0.1396
G0 Z0.4
X2.9479 Y2.3569
Z0.1146
G1 Z0.05 F40.
Y2.3492
G3 X2.9563 Y2.3408 I0.0084 J0.
Y2.3743 Z0.0335 I0. J0.0167
Y2.3408 Z0.0169 I0. J-0.0167
Y2.3743 Z0.0004 I0. J0.0167
Y2.3408 Z-0.0161 I0. J-0.0167
Y2.3743 Z-0.0327 I0. J0.0167
Y2.3408 Z-0.0492 I0. J-0.0167
Y2.3743 Z-0.0657 I0. J0.0167
Y2.3408 Z-0.0822 I0. J-0.0167
Y2.3743 Z-0.0988 I0. J0.0167
Y2.3408 Z-0.1153 I0. J-0.0167
Y2.3743 Z-0.1318 I0. J0.0167
Y2.3408 Z-0.1484 I0. J-0.0167
X2.9722 Y2.3525 Z-0.155 I0. J0.0167
X2.9404 Y2.3627 I-0.0159 J0.0051
X2.9722 Y2.3525 I0.0159 J-0.0051
X2.9668 Y2.363 I-0.008 J0.0026
G1 X2.9595 Y2.3653
G0 Z0.4
X3.6747 Y0.8528
Z0.13
G1 Z0.0654 F40.
G19 G2 Y0.8374 Z0.05 J-0.0154 K0.
G1 Y0.8297
G17 G3 X3.6864 Y0.8179 I0.0118 J0.
Y0.8649 Z0.0323 I0. J0.0235
Y0.8179 Z0.0146 I0. J-0.0235
Y0.8649 Z-0.0032 I0. J0.0235
Y0.8179 Z-0.0209 I0. J-0.0235
Y0.8649 Z-0.0386 I0. J0.0235
Y0.8179 Z-0.0563 I0. J-0.0235
Y0.8649 Z-0.074 I0. J0.0235
Y0.8179 Z-0.0918 I0. J-0.0235
Y0.8649 Z-0.1095 I0. J0.0235
Y0.8179 Z-0.1272 I0. J-0.0235
Y0.8649 Z-0.1449 I0. J0.0235
X3.6635 Y0.8364 Z-0.155 I0. J-0.0235
X3.7094 Y0.8464 I0.023 J0.005
X3.6635 Y0.8364 I-0.023 J-0.005
X3.6775 Y0.8274 I0.0115 J0.0025
G1 X3.685 Y0.8291
X3.6879 Y0.8297 Z-0.1547
X3.6907 Y0.8303 Z-0.1538
X3.6934 Y0.8309 Z-0.1524
X3.6956 Y0.8314 Z-0.1505
X3.6975 Y0.8318 Z-0.1482
X3.6989 Y0.8321 Z-0.1455
X3.6997 Y0.8323 Z-0.1426
X3.7 Z-0.1396
G0 Z0.4
X3.6856 Y0.3174
Z0.1146
G1 Z0.05 F40.
Y0.3097
G3 X3.6939 Y0.3013 I0.0084 J0.
Y0.3348 Z0.0335 I0. J0.0168
Y0.3013 Z0.0169 I0. J-0.0168
Y0.3348 Z0.0004 I0. J0.0168
Y0.3013 Z-0.0161 I0. J-0.0168
Y0.3348 Z-0.0327 I0. J0.0168
Y0.3013 Z-0.0492 I0. J-0.0168
Y0.3348 Z-0.0657 I0. J0.0168
Y0.3013 Z-0.0822 I0. J-0.0168
Y0.3348 Z-0.0988 I0. J0.0168
Y0.3013 Z-0.1153 I0. J-0.0168
Y0.3348 Z-0.1318 I0. J0.0168
Y0.3013 Z-0.1484 I0. J-0.0168
X3.7099 Y0.3129 Z-0.155 I0. J0.0167
X3.678 Y0.3231 I-0.0159 J0.0051
X3.7099 Y0.3129 I0.0159 J-0.0051
X3.7045 Y0.3234 I-0.008 J0.0026
G1 X3.6972 Y0.3258
G0 Z0.4
X3.8008 Y-0.3328
Z0.1146
G1 Z0.05 F40.
Y-0.3405
G3 X3.8092 Y-0.3489 I0.0084 J0.
Y-0.3154 Z0.0335 I0. J0.0168
Y-0.3489 Z0.0169 I0. J-0.0168
Y-0.3154 Z0.0004 I0. J0.0168
Y-0.3489 Z-0.0161 I0. J-0.0168
Y-0.3154 Z-0.0327 I0. J0.0168
Y-0.3489 Z-0.0492 I0. J-0.0168
Y-0.3154 Z-0.0657 I0. J0.0168
Y-0.3489 Z-0.0822 I0. J-0.0168
Y-0.3154 Z-0.0988 I0. J0.0168
Y-0.3489 Z-0.1153 I0. J-0.0167
Y-0.3154 Z-0.1318 I0. J0.0167
Y-0.3489 Z-0.1484 I0. J-0.0167
X3.8251 Y-0.3372 Z-0.155 I0. J0.0167
X3.7932 Y-0.327 I-0.0159 J0.0051
X3.8251 Y-0.3372 I0.0159 J-0.0051
X3.8197 Y-0.3267 I-0.008 J0.0026
G1 X3.8124 Y-0.3243
G0 Z0.4
X2.9446 Y-2.3462
Z0.13
G1 Z0.0654 F40.
G19 G2 Y-2.3616 Z0.05 J-0.0154 K0.
G1 Y-2.3693
G17 G3 X2.9563 Y-2.3811 I0.0117 J0.
Y-2.3341 Z0.0323 I0. J0.0235
Y-2.3811 Z0.0146 I0. J-0.0235
Y-2.3341 Z-0.0032 I0. J0.0235
Y-2.3811 Z-0.0209 I0. J-0.0235
Y-2.3341 Z-0.0386 I0. J0.0235
Y-2.3811 Z-0.0563 I0. J-0.0235
Y-2.3341 Z-0.074 I0. J0.0235
Y-2.3811 Z-0.0918 I0. J-0.0235
Y-2.3341 Z-0.1095 I0. J0.0235
Y-2.3811 Z-0.1272 I0. J-0.0235
Y-2.3341 Z-0.1449 I0. J0.0235
X2.9333 Y-2.3626 Z-0.155 I0. J-0.0235
X2.9793 Y-2.3526 I0.023 J0.005
X2.9333 Y-2.3626 I-0.023 J-0.005
X2.9473 Y-2.3716 I0.0115 J0.0025
G1 X2.9548 Y-2.3699
X2.9578 Y-2.3693 Z-0.1547
X2.9606 Y-2.3687 Z-0.1538
X2.9632 Y-2.3681 Z-0.1524
X2.9655 Y-2.3676 Z-0.1505
X2.9674 Y-2.3672 Z-0.1482
X2.9687 Y-2.3669 Z-0.1455
X2.9696 Y-2.3667 Z-0.1426
X2.9699 Y-2.3666 Z-0.1396
G0 Z0.4
X1.6322 Y-3.4075
Z0.1146
G1 Z0.05 F40.
Y-3.4152
G3 X1.6406 Y-3.4235 I0.0084 J0.
Y-3.39 Z0.0335 I0. J0.0168
Y-3.4235 Z0.0169 I0. J-0.0168
Y-3.39 Z0.0004 I0. J0.0168
Y-3.4235 Z-0.0161 I0. J-0.0168
Y-3.39 Z-0.0327 I0. J0.0168
Y-3.4235 Z-0.0492 I0. J-0.0168
Y-3.39 Z-0.0657 I0. J0.0168
Y-3.4235 Z-0.0822 I0. J-0.0168
Y-3.39 Z-0.0988 I0. J0.0168
Y-3.4235 Z-0.1153 I0. J-0.0168
Y-3.39 Z-0.1318 I0. J0.0168
Y-3.4235 Z-0.1484 I0. J-0.0168
X1.6566 Y-3.4119 Z-0.155 I0. J0.0168
X1.6247 Y-3.4017 I-0.0159 J0.0051
X1.6566 Y-3.4119 I0.0159 J-0.0051
X1.6512 Y-3.4014 I-0.008 J0.0026
G1 X1.6438 Y-3.399
G0 Z0.4
X-0.0117 Y-3.7699
Z0.13
G1 Z0.0654 F40.
G19 G2 Y-3.7853 Z0.05 J-0.0154 K0.
G1 Y-3.793
G17 G3 X0. Y-3.8047 I0.0117 J0.
Y-3.7577 Z0.0323 I0. J0.0235
Y-3.8047 Z0.0146 I0. J-0.0235
Y-3.7577 Z-0.0032 I0. J0.0235
Y-3.8047 Z-0.0209 I0. J-0.0235
Y-3.7577 Z-0.0386 I0. J0.0235
Y-3.8047 Z-0.0563 I0. J-0.0235
Y-3.7577 Z-0.074 I0. J0.0235
Y-3.8047 Z-0.0918 I0. J-0.0235
Y-3.7577 Z-0.1095 I0. J0.0235
Y-3.8047 Z-0.1272 I0. J-0.0235
Y-3.7577 Z-0.1449 I0. J0.0235
X-0.023 Y-3.7863 Z-0.155 I0. J-0.0235
X0.023 Y-3.7762 I0.023 J0.005
X-0.023 Y-3.7863 I-0.023 J-0.005
X-0.009 Y-3.7952 I0.0115 J0.0025
G1 X-0.0015 Y-3.7936
X0.0015 Y-3.793 Z-0.1547
X0.0043 Y-3.7923 Z-0.1538
X0.0069 Y-3.7918 Z-0.1524
X0.0092 Y-3.7913 Z-0.1505
X0.0111 Y-3.7909 Z-0.1482
X0.0124 Y-3.7906 Z-0.1455
X0.0133 Y-3.7904 Z-0.1426
X0.0136 Y-3.7903 Z-0.1396
G0 Z0.4
X-1.649 Y-3.4075
Z0.1146
G1 Z0.05 F40.
Y-3.4152
G3 X-1.6406 Y-3.4235 I0.0084 J0.
Y-3.39 Z0.0335 I0. J0.0168
Y-3.4235 Z0.0169 I0. J-0.0168
Y-3.39 Z0.0004 I0. J0.0168
Y-3.4235 Z-0.0161 I0. J-0.0168
Y-3.39 Z-0.0327 I0. J0.0168
Y-3.4235 Z-0.0492 I0. J-0.0168
Y-3.39 Z-0.0657 I0. J0.0168
Y-3.4235 Z-0.0822 I0. J-0.0168
Y-3.39 Z-0.0988 I0. J0.0168
Y-3.4235 Z-0.1153 I0. J-0.0168
Y-3.39 Z-0.1318 I0. J0.0168
Y-3.4235 Z-0.1484 I0. J-0.0168
X-1.6247 Y-3.4119 Z-0.155 I0. J0.0168
X-1.6566 Y-3.4017 I-0.0159 J0.0051
X-1.6247 Y-3.4119 I0.0159 J-0.0051
X-1.6301 Y-3.4014 I-0.008 J0.0026
G1 X-1.6374 Y-3.399
G0 Z0.4
X-2.9681 Y-2.3462
Z0.13
G1 Z0.0654 F40.
G19 G2 Y-2.3616 Z0.05 J-0.0154 K0.
G1 Y-2.3693
G17 G3 X-2.9563 Y-2.3811 I0.0118 J0.
Y-2.3341 Z0.0323 I0. J0.0235
Y-2.3811 Z0.0146 I0. J-0.0235
Y-2.3341 Z-0.0032 I0. J0.0235
Y-2.3811 Z-0.0209 I0. J-0.0235
Y-2.3341 Z-0.0386 I0. J0.0235
Y-2.3811 Z-0.0563 I0. J-0.0235
Y-2.3341 Z-0.074 I0. J0.0235
Y-2.3811 Z-0.0918 I0. J-0.0235
Y-2.3341 Z-0.1095 I0. J0.0235
Y-2.3811 Z-0.1272 I0. J-0.0235
Y-2.3341 Z-0.1449 I0. J0.0235
X-2.9793 Y-2.3626 Z-0.155 I0. J-0.0235
X-2.9333 Y-2.3526 I0.023 J0.005
X-2.9793 Y-2.3626 I-0.023 J-0.005
X-2.9653 Y-2.3716 I0.0115 J0.0025
G1 X-2.9578 Y-2.3699
X-2.9548 Y-2.3693 Z-0.1547
X-2.952 Y-2.3687 Z-0.1538
X-2.9494 Y-2.3681 Z-0.1524
X-2.9471 Y-2.3676 Z-0.1505
X-2.9452 Y-2.3672 Z-0.1482
X-2.9439 Y-2.3669 Z-0.1455
X-2.943 Y-2.3667 Z-0.1426
X-2.9427 Y-2.3666 Z-0.1396
G0 Z0.6
(2D SLOT CUT)
M7
G0 X0.9199 Y3.556
Z0.6
Z0.2
G1 Z0.1 F13.333
G3 X0.3378 Y3.6574 Z-0.0043 I-0.9199 J-3.556 F40.
X0.2907 Y3.6316 Z-0.0143 I-0.0044 J-0.0478
G2 X0. Y3.4542 Z-0.0775 I-0.2907 J0.1496
X-0.2907 Y3.6316 I0. J0.327 F55.
G3 X-0.3378 Y3.6574 I-0.0427 J-0.022
X-1.2825 Y3.4418 I0.3378 J-3.6574
X-1.3137 Y3.3981 I0.0168 J-0.045
G2 X-1.8376 Y3.1458 I-0.3269 J0.0087
G3 X-1.8913 Y3.1486 I-0.0289 J-0.0383
X-2.6489 Y2.5445 I1.8913 J-3.1486
X-2.658 Y2.4916 I0.0346 J-0.0333
G2 X-3.0206 Y2.037 I-0.2983 J-0.134
G3 X-3.0701 Y2.0162 I-0.0094 J-0.0471
X-3.4906 Y1.1432 I3.0701 J-2.0162
X-3.4759 Y1.0916 I0.0456 J-0.0149
G2 X-3.3676 Y0.7686 I-0.2106 J-0.2502
G3 X-3.3807 Y0.7092 I3.3676 J-0.7687
X-3.3816 Y0.5403 I0.414 J-0.0868
G1 X-3.2024 Y-0.3658
G2 X-3.263 Y-0.4563 I-0.0755 J-0.0149
G1 X-3.6555 Y-0.5339
G3 X-3.6579 Y-0.5374 I0.0006 J-0.0029
G1 X-3.5746 Y-0.9585
G3 X-3.4799 Y-1.1928 I0.6602 J0.1306
G2 X-3.4594 Y-1.2344 I-0.1697 J-0.1095
G3 X-3.0701 Y-2.0162 I3.4594 J1.2344
X-3.0206 Y-2.037 I0.0401 J0.0263
G2 X-2.658 Y-2.4916 I0.0643 J-0.3206
G3 X-2.6489 Y-2.5445 I0.0438 J-0.0197
X-1.8913 Y-3.1486 I2.6489 J2.5445
X-1.8376 Y-3.1458 I0.0247 J0.0411
G2 X-1.3137 Y-3.3981 I0.197 J-0.261
G3 X-1.2825 Y-3.4418 I0.048 J0.0013
X-0.3378 Y-3.6574 I1.2825 J3.4418
X-0.2907 Y-3.6316 I0.0044 J0.0478
G2 X0.2907 I0.2907 J-0.1496
G3 X0.3378 Y-3.6574 I0.0427 J0.022
X1.2825 Y-3.4418 I-0.3378 J3.6574
X1.3137 Y-3.3981 I-0.0168 J0.045
G2 X1.8376 Y-3.1458 I0.3269 J-0.0087
G3 X1.8913 Y-3.1486 I0.0289 J0.0383
X2.6489 Y-2.5445 I-1.8913 J3.1486
X2.658 Y-2.4916 I-0.0346 J0.0333
G2 X3.0206 Y-2.037 I0.2983 J0.134
G3 X3.0701 Y-2.0162 I0.0094 J0.0471
X3.4594 Y-1.2344 I-3.0701 J2.0162
G2 X3.4799 Y-1.1928 I0.1903 J-0.0679
G3 X3.5746 Y-0.9585 I-0.5655 J0.3649
G1 X3.6579 Y-0.5374
G3 X3.6555 Y-0.5339 I-0.0029 J0.0006
G1 X3.263 Y-0.4563
G2 X3.2024 Y-0.3658 I0.0149 J0.0755
G1 X3.3816 Y0.5403
G3 X3.3807 Y0.7092 I-0.415 J0.0821
X3.3676 Y0.7686 I-3.3806 J-0.7093
G2 X3.4759 Y1.0916 I0.3188 J0.0728
G3 X3.4906 Y1.1432 I-0.0309 J0.0367
X3.0701 Y2.0162 I-3.4906 J-1.1432
X3.0206 Y2.037 I-0.0401 J-0.0263
G2 X2.658 Y2.4916 I-0.0643 J0.3206
G3 X2.6489 Y2.5445 I-0.0438 J0.0197
X1.8913 Y3.1486 I-2.6489 J-2.5445
X1.8376 Y3.1458 I-0.0247 J-0.0411
G2 X1.3137 Y3.3981 I-0.197 J0.261
G3 X1.2825 Y3.4418 I-0.048 J-0.0013
X0.3378 Y3.6574 I-1.2825 J-3.4418
X0.2907 Y3.6316 I-0.0044 J-0.0478
G2 X0. Y3.4542 I-0.2907 J0.1496
X-0.2907 Y3.6316 Z-0.1198 I0. J0.327 F40.
G3 X-0.3378 Y3.6574 Z-0.1265 I-0.0427 J-0.022
X-0.5775 Y3.6273 Z-0.155 I0.3378 J-3.6574
X-1.2825 Y3.4418 I0.5775 J-3.6273 F55.
X-1.3137 Y3.3981 I0.0168 J-0.045
G2 X-1.8376 Y3.1458 I-0.3269 J0.0087
G3 X-1.8913 Y3.1486 I-0.0289 J-0.0383
X-2.6489 Y2.5445 I1.8913 J-3.1486
X-2.658 Y2.4916 I0.0346 J-0.0333
G2 X-3.0206 Y2.037 I-0.2983 J-0.134
G3 X-3.0701 Y2.0162 I-0.0094 J-0.0471
X-3.4906 Y1.1432 I3.0701 J-2.0162
X-3.4759 Y1.0916 I0.0456 J-0.0149
G2 X-3.3676 Y0.7686 I-0.2106 J-0.2502
G3 X-3.3807 Y0.7092 I3.3676 J-0.7687
X-3.3816 Y0.5403 I0.414 J-0.0868
G1 X-3.2024 Y-0.3658
G2 X-3.263 Y-0.4563 I-0.0755 J-0.0149
G1 X-3.6555 Y-0.5339
G3 X-3.6579 Y-0.5374 I0.0006 J-0.0029
G1 X-3.5746 Y-0.9585
G3 X-3.4799 Y-1.1928 I0.6602 J0.1306
G2 X-3.4594 Y-1.2344 I-0.1697 J-0.1095
G3 X-3.0701 Y-2.0162 I3.4594 J1.2344
X-3.0206 Y-2.037 I0.0401 J0.0263
G2 X-2.658 Y-2.4916 I0.0643 J-0.3206
G3 X-2.6489 Y-2.5445 I0.0438 J-0.0197
X-1.8913 Y-3.1486 I2.6489 J2.5445
X-1.8376 Y-3.1458 I0.0247 J0.0411
G2 X-1.3137 Y-3.3981 I0.197 J-0.261
G3 X-1.2825 Y-3.4418 I0.048 J0.0013
X-0.3378 Y-3.6574 I1.2825 J3.4418
X-0.2907 Y-3.6316 I0.0044 J0.0478
G2 X0.2907 I0.2907 J-0.1496
G3 X0.3378 Y-3.6574 I0.0427 J0.022
X1.2825 Y-3.4418 I-0.3378 J3.6574
X1.3137 Y-3.3981 I-0.0168 J0.045
G2 X1.8376 Y-3.1458 I0.3269 J-0.0087
G3 X1.8913 Y-3.1486 I0.0289 J0.0383
X2.6489 Y-2.5445 I-1.8913 J3.1486
X2.658 Y-2.4916 I-0.0346 J0.0333
G2 X3.0206 Y-2.037 I0.2983 J0.134
G3 X3.0701 Y-2.0162 I0.0094 J0.0471
X3.4594 Y-1.2344 I-3.0701 J2.0162
G2 X3.4799 Y-1.1928 I0.1903 J-0.0679
G3 X3.5746 Y-0.9585 I-0.5655 J0.3649
G1 X3.6579 Y-0.5374
G3 X3.6555 Y-0.5339 I-0.0029 J0.0006
G1 X3.263 Y-0.4563
G2 X3.2024 Y-0.3658 I0.0149 J0.0755
G1 X3.3816 Y0.5403
G3 X3.3807 Y0.7092 I-0.415 J0.0821
X3.3676 Y0.7686 I-3.3806 J-0.7093
G2 X3.4759 Y1.0916 I0.3188 J0.0728
G3 X3.4906 Y1.1432 I-0.0309 J0.0367
X3.0701 Y2.0162 I-3.4906 J-1.1432
X3.0206 Y2.037 I-0.0401 J-0.0263
G2 X2.658 Y2.4916 I-0.0643 J0.3206
G3 X2.6489 Y2.5445 I-0.0438 J0.0197
X1.8913 Y3.1486 I-2.6489 J-2.5445
X1.8376 Y3.1458 I-0.0247 J-0.0411
G2 X1.3137 Y3.3981 I-0.197 J0.261
G3 X1.2825 Y3.4418 I-0.048 J-0.0013
X0.3378 Y3.6574 I-1.2825 J-3.4418
X0.2907 Y3.6316 I-0.0044 J-0.0478
G2 X-0.2907 I-0.2907 J0.1496
G3 X-0.3378 Y3.6574 I-0.0427 J-0.022
X-0.5775 Y3.6273 I0.3378 J-3.6574
G0 Z0.4
X-0.9976 Y4.2104
Z0.2
G1 Z0.1 F13.333
G2 X0. Y4.327 I0.9976 J-4.2104 F40.
G1 Z-0.075 F13.333
G2 X0.2641 Y4.3189 I0. J-4.327 F55.
G1 Z-0.0775 F13.333
G2 X4.2771 Y0.6556 I-0.2641 J-4.3189 F55.
G1 Z-0.075
G2 X4.3259 Y-0.0969 I-4.2771 J-0.6556
G1 Z-0.0775 F13.333
G2 X0.7285 Y-4.2652 I-4.3259 J0.0969 F55.
G1 Z-0.075
G2 X-0.023 Y-4.3269 I-0.7285 J4.2652
G1 Z-0.0775 F13.333
G2 X-4.3151 Y-0.3205 I0.023 J4.3269 F55.
G1 Z-0.075
G2 X-4.3052 Y0.4334 I4.3151 J0.3205
G1 Z-0.0775 F13.333
G2 X-0.4896 Y4.2992 I4.3052 J-0.4334 F55.
G1 Z-0.075
G2 X0. Y4.327 I0.4896 J-4.2992
X0.2641 Y4.3189 I0. J-4.327 F40.
G1 Z-0.1067 F13.333
G2 X0.6993 Y4.2701 I-0.2641 J-4.3189 F40.
G1 Z-0.155 F13.333
G2 X4.2771 Y0.6556 I-0.6993 J-4.2701 F55.
G1 Z-0.075
G2 X4.3259 Y-0.0969 I-4.2771 J-0.6556
G1 Z-0.155 F13.333
G2 X0.7285 Y-4.2652 I-4.3259 J0.0969 F55.
G1 Z-0.075
G2 X-0.023 Y-4.3269 I-0.7285 J4.2652
G1 Z-0.155 F13.333
G2 X-4.3151 Y-0.3205 I0.023 J4.3269 F55.
G1 Z-0.075
G2 X-4.3052 Y0.4334 I4.3151 J0.3205
G1 Z-0.155 F13.333
G2 X-0.4896 Y4.2992 I4.3052 J-0.4334 F55.
G1 Z-0.075
G2 X0.2641 Y4.3189 I0.4896 J-4.2992
G1 Z-0.155 F13.333
G2 X0.6993 Y4.2701 I-0.2641 J-4.3189 F55.
G0 Z0.6
M9
G53 Z0.
M30
%
