%
(971-23-P-0141_OUTER PLATE_1490)
(T1  D=0.149 CR=0. - ZMIN=-0.245 - FLAT END MILL)
G90 G94 G17 G91.1
G64 P0.001 Q0.001
G20
G53 G0 Z0.
(.3 CIRCLUAR THROUGH HOLE 2)
M9
T1 M6
S22000 M3
G4 P10.
G54
M7
G0 X6.8339 Y1.1546
G43 Z0.6 H1
G0 Z0.13
G1 Z0.0649 F40.
G19 G2 Y1.1397 Z0.05 J-0.0149 K0.
G1 Y1.1322
G17 G3 X6.8488 Y1.1173 I0.0149 J0.
Y1.1871 Z0.0307 I0. J0.0349
Y1.1173 Z0.0114 I0. J-0.0349
Y1.1871 Z-0.0079 I0. J0.0349
Y1.1173 Z-0.0271 I0. J-0.0349
Y1.1871 Z-0.0464 I0. J0.0349
Y1.1173 Z-0.0657 I0. J-0.0349
Y1.1871 Z-0.085 I0. J0.0349
Y1.1173 Z-0.1043 I0. J-0.0349
Y1.1871 Z-0.1236 I0. J0.0349
Y1.1173 Z-0.1429 I0. J-0.0349
Y1.1871 Z-0.1621 I0. J0.0349
Y1.1173 Z-0.1814 I0. J-0.0349
Y1.1871 Z-0.2007 I0. J0.0349
Y1.1173 Z-0.22 I0. J-0.0349
Y1.1871 Z-0.2393 I0. J0.0349
X6.8208 Y1.173 Z-0.245 I0. J-0.0349
X6.8767 Y1.1313 I0.028 J-0.0208
X6.8208 Y1.173 I-0.028 J0.0208
X6.8238 Y1.1522 I0.012 J-0.0089
G1 X6.8298 Y1.1477
X6.8321 Y1.146 Z-0.2447
X6.8344 Y1.1443 Z-0.2439
X6.8364 Y1.1428 Z-0.2425
X6.8383 Y1.1414 Z-0.2406
X6.8397 Y1.1403 Z-0.2384
X6.8408 Y1.1395 Z-0.2358
X6.8415 Y1.139 Z-0.233
X6.8418 Y1.1388 Z-0.2301
G0 Z0.4
X7.5949 Y-0.4848
Z0.13
G1 Z0.0649 F40.
G19 G3 Y-0.4699 Z0.05 J0.0149 K0.
G1 Y-0.4624
G17 G3 X7.58 Y-0.4475 I-0.0149 J0.
Y-0.5173 Z0.0307 I0. J-0.0349
Y-0.4475 Z0.0114 I0. J0.0349
Y-0.5173 Z-0.0079 I0. J-0.0349
Y-0.4475 Z-0.0271 I0. J0.0349
Y-0.5173 Z-0.0464 I0. J-0.0349
Y-0.4475 Z-0.0657 I0. J0.0349
Y-0.5173 Z-0.085 I0. J-0.0349
Y-0.4475 Z-0.1043 I0. J0.0349
Y-0.5173 Z-0.1236 I0. J-0.0349
Y-0.4475 Z-0.1429 I0. J0.0349
Y-0.5173 Z-0.1621 I0. J-0.0349
Y-0.4475 Z-0.1814 I0. J0.0349
Y-0.5173 Z-0.2007 I0. J-0.0349
Y-0.4475 Z-0.22 I0. J0.0349
Y-0.5173 Z-0.2393 I0. J-0.0349
X7.608 Y-0.5032 Z-0.245 I0. J0.0349
X7.552 Y-0.4615 I-0.028 J0.0208
X7.608 Y-0.5032 I0.028 J-0.0208
X7.6049 Y-0.4824 I-0.012 J0.0089
G1 X7.5989 Y-0.4779
X7.5966 Y-0.4762 Z-0.2447
X7.5944 Y-0.4745 Z-0.2439
X7.5923 Y-0.473 Z-0.2425
X7.5905 Y-0.4716 Z-0.2406
X7.589 Y-0.4705 Z-0.2384
X7.5879 Y-0.4697 Z-0.2358
X7.5872 Y-0.4692 Z-0.233
X7.587 Y-0.469 Z-0.2301
G0 Z0.4
X5.8728 Y-1.0654
Z0.13
G1 Z0.0649 F40.
G19 G2 Y-1.0803 Z0.05 J-0.0149 K0.
G1 Y-1.0877
G17 G3 X5.8877 Y-1.1026 I0.0149 J0.
Y-1.0329 Z0.0307 I0. J0.0349
Y-1.1026 Z0.0114 I0. J-0.0349
Y-1.0329 Z-0.0079 I0. J0.0349
Y-1.1026 Z-0.0271 I0. J-0.0349
Y-1.0329 Z-0.0464 I0. J0.0349
Y-1.1026 Z-0.0657 I0. J-0.0349
Y-1.0329 Z-0.085 I0. J0.0349
Y-1.1026 Z-0.1043 I0. J-0.0349
Y-1.0329 Z-0.1236 I0. J0.0349
Y-1.1026 Z-0.1429 I0. J-0.0349
Y-1.0329 Z-0.1621 I0. J0.0349
Y-1.1026 Z-0.1814 I0. J-0.0349
Y-1.0329 Z-0.2007 I0. J0.0349
Y-1.1026 Z-0.22 I0. J-0.0349
Y-1.0329 Z-0.2393 I0. J0.0349
X5.8597 Y-1.0469 Z-0.245 I0. J-0.0349
X5.9157 Y-1.0886 I0.028 J-0.0208
X5.8597 Y-1.0469 I-0.028 J0.0208
X5.8628 Y-1.0678 I0.012 J-0.0089
G1 X5.8688 Y-1.0722
X5.8711 Y-1.0739 Z-0.2447
X5.8733 Y-1.0756 Z-0.2439
X5.8754 Y-1.0772 Z-0.2425
X5.8772 Y-1.0785 Z-0.2406
X5.8787 Y-1.0796 Z-0.2384
X5.8798 Y-1.0804 Z-0.2358
X5.8805 Y-1.0809 Z-0.233
X5.8807 Y-1.0811 Z-0.2301
G0 Z0.4
X4.1023 Y-1.3221
Z0.1151
G1 Z0.05 F40.
Y-1.3296
G3 X4.1075 Y-1.3347 I0.0051 J0.
Y-1.3142 Z0.0351 I0. J0.0102
Y-1.3347 Z0.0201 I0. J-0.0102
Y-1.3142 Z0.0052 I0. J0.0102
Y-1.3347 Z-0.0098 I0. J-0.0102
Y-1.3142 Z-0.0247 I0. J0.0102
Y-1.3347 Z-0.0397 I0. J-0.0102
Y-1.3142 Z-0.0546 I0. J0.0102
Y-1.3347 Z-0.0695 I0. J-0.0102
Y-1.3142 Z-0.0845 I0. J0.0102
Y-1.3347 Z-0.0994 I0. J-0.0102
Y-1.3142 Z-0.1144 I0. J0.0102
Y-1.3347 Z-0.1293 I0. J-0.0102
Y-1.3142 Z-0.1443 I0. J0.0102
Y-1.3347 Z-0.1592 I0. J-0.0102
Y-1.3142 Z-0.1742 I0. J0.0102
Y-1.3347 Z-0.1891 I0. J-0.0102
Y-1.3142 Z-0.204 I0. J0.0102
Y-1.3347 Z-0.219 I0. J-0.0102
Y-1.3142 Z-0.2339 I0. J0.0102
X4.1 Y-1.3315 Z-0.245 I0. J-0.0102
X4.1149 Y-1.3174 I0.0075 J0.007
X4.1 Y-1.3315 I-0.0075 J-0.007
X4.1072 Y-1.3317 I0.0037 J0.0035
G1 X4.1127 Y-1.3266
G0 Z0.4
X1.3867 Y-1.3856
Z0.13
G1 Z0.0649 F40.
G19 G3 Y-1.3707 Z0.05 J0.0149 K0.
G1 Y-1.3632
G17 G3 X1.375 Y-1.3515 I-0.0118 J0.
Y-1.3985 Z0.0327 I0. J-0.0235
Y-1.3515 Z0.0154 I0. J0.0235
Y-1.3985 Z-0.0018 I0. J-0.0235
Y-1.3515 Z-0.0191 I0. J0.0235
Y-1.3985 Z-0.0364 I0. J-0.0235
Y-1.3515 Z-0.0537 I0. J0.0235
Y-1.3985 Z-0.071 I0. J-0.0235
Y-1.3515 Z-0.0882 I0. J0.0235
Y-1.3985 Z-0.1055 I0. J-0.0235
Y-1.3515 Z-0.1228 I0. J0.0235
Y-1.3985 Z-0.1401 I0. J-0.0235
Y-1.3515 Z-0.1574 I0. J0.0235
Y-1.3985 Z-0.1746 I0. J-0.0235
Y-1.3515 Z-0.1919 I0. J0.0235
Y-1.3985 Z-0.2092 I0. J-0.0235
Y-1.3515 Z-0.2265 I0. J0.0235
X1.3516 Y-1.3776 Z-0.2357 I0. J-0.0235
X1.3802 Y-1.3979 Z-0.245 I0.0234 J0.0026
X1.3698 Y-1.3521 I-0.0052 J0.0229
X1.3802 Y-1.3979 I0.0052 J-0.0229
X1.3891 Y-1.3838 I-0.0026 J0.0115
G1 X1.3874 Y-1.3766
X1.3868 Y-1.3737 Z-0.2447
X1.3861 Y-1.371 Z-0.2439
X1.3856 Y-1.3685 Z-0.2425
X1.3851 Y-1.3663 Z-0.2406
X1.3846 Y-1.3645 Z-0.2384
X1.3843 Y-1.3631 Z-0.2358
X1.3841 Y-1.3623 Z-0.233
Y-1.362 Z-0.2301
G0 Z0.4
X1.8699 Y0.5363
Z0.1151
G1 Z0.05 F40.
Y0.5289
G3 X1.875 Y0.5238 I0.0051 J0.
Y0.5443 Z0.0351 I0. J0.0103
Y0.5238 Z0.0201 I0. J-0.0103
Y0.5443 Z0.0052 I0. J0.0103
Y0.5238 Z-0.0098 I0. J-0.0103
Y0.5443 Z-0.0247 I0. J0.0103
Y0.5238 Z-0.0397 I0. J-0.0103
Y0.5443 Z-0.0546 I0. J0.0103
Y0.5238 Z-0.0695 I0. J-0.0103
Y0.5443 Z-0.0845 I0. J0.0102
Y0.5238 Z-0.0994 I0. J-0.0102
Y0.5443 Z-0.1144 I0. J0.0102
Y0.5238 Z-0.1293 I0. J-0.0102
Y0.5443 Z-0.1443 I0. J0.0102
Y0.5238 Z-0.1592 I0. J-0.0102
Y0.5443 Z-0.1742 I0. J0.0102
Y0.5238 Z-0.1891 I0. J-0.0102
Y0.5443 Z-0.204 I0. J0.0102
Y0.5238 Z-0.219 I0. J-0.0102
Y0.5443 Z-0.2339 I0. J0.0102
X1.8675 Y0.527 Z-0.245 I0. J-0.0102
X1.8825 Y0.5411 I0.0075 J0.007
X1.8675 Y0.527 I-0.0075 J-0.007
X1.8748 Y0.5268 I0.0037 J0.0035
G1 X1.8802 Y0.5319
G0 Z0.4
X1.3632 Y1.3856
Z0.13
G1 Z0.0649 F40.
G19 G2 Y1.3707 Z0.05 J-0.0149 K0.
G1 Y1.3632
G17 G3 X1.375 Y1.3515 I0.0118 J0.
Y1.3985 Z0.0327 I0. J0.0235
Y1.3515 Z0.0154 I0. J-0.0235
Y1.3985 Z-0.0018 I0. J0.0235
Y1.3515 Z-0.0191 I0. J-0.0235
Y1.3985 Z-0.0364 I0. J0.0235
Y1.3515 Z-0.0537 I0. J-0.0235
Y1.3985 Z-0.071 I0. J0.0235
Y1.3515 Z-0.0882 I0. J-0.0235
Y1.3985 Z-0.1055 I0. J0.0235
Y1.3515 Z-0.1228 I0. J-0.0235
Y1.3985 Z-0.1401 I0. J0.0235
Y1.3515 Z-0.1574 I0. J-0.0235
Y1.3985 Z-0.1746 I0. J0.0235
Y1.3515 Z-0.1919 I0. J-0.0235
Y1.3985 Z-0.2092 I0. J0.0235
Y1.3515 Z-0.2265 I0. J-0.0235
X1.3984 Y1.3776 Z-0.2357 I0. J0.0235
X1.3698 Y1.3979 Z-0.245 I-0.0234 J-0.0026
X1.3802 Y1.3521 I0.0052 J-0.0229
X1.3698 Y1.3979 I-0.0052 J0.0229
X1.3609 Y1.3838 I0.0026 J-0.0115
G1 X1.3626 Y1.3766
X1.3632 Y1.3737 Z-0.2447
X1.3639 Y1.371 Z-0.2439
X1.3644 Y1.3685 Z-0.2425
X1.3649 Y1.3663 Z-0.2406
X1.3654 Y1.3645 Z-0.2384
X1.3657 Y1.3631 Z-0.2358
X1.3659 Y1.3623 Z-0.233
Y1.362 Z-0.2301
G0 Z0.4
X2.1092 Y3.27
Z0.13
G1 Z0.0649 F40.
G19 G3 Y3.2849 Z0.05 J0.0149 K0.
G1 Y3.2923
G17 G3 X2.0975 Y3.3041 I-0.0118 J0.
Y3.2571 Z0.0327 I0. J-0.0235
Y3.3041 Z0.0154 I0. J0.0235
Y3.2571 Z-0.0018 I0. J-0.0235
Y3.3041 Z-0.0191 I0. J0.0235
Y3.2571 Z-0.0364 I0. J-0.0235
Y3.3041 Z-0.0537 I0. J0.0235
Y3.2571 Z-0.071 I0. J-0.0235
Y3.3041 Z-0.0882 I0. J0.0235
Y3.2571 Z-0.1055 I0. J-0.0235
Y3.3041 Z-0.1228 I0. J0.0235
Y3.2571 Z-0.1401 I0. J-0.0235
Y3.3041 Z-0.1574 I0. J0.0235
Y3.2571 Z-0.1746 I0. J-0.0235
Y3.3041 Z-0.1919 I0. J0.0235
Y3.2571 Z-0.2092 I0. J-0.0235
Y3.3041 Z-0.2265 I0. J0.0235
X2.0741 Y3.2779 Z-0.2357 I0. J-0.0235
X2.1027 Y3.2577 Z-0.245 I0.0234 J0.0026
X2.0922 Y3.3035 I-0.0052 J0.0229
X2.1027 Y3.2577 I0.0052 J-0.0229
X2.1116 Y3.2717 I-0.0026 J0.0115
G1 X2.1099 Y3.279
X2.1092 Y3.2818 Z-0.2447
X2.1086 Y3.2846 Z-0.2439
X2.108 Y3.2871 Z-0.2425
X2.1075 Y3.2893 Z-0.2406
X2.1071 Y3.2911 Z-0.2384
X2.1068 Y3.2924 Z-0.2358
X2.1066 Y3.2932 Z-0.233
Y3.2935 Z-0.2301
G0 Z0.4
X1.4797 Y5.5857
Z0.13
G1 Z0.0649 F40.
G19 G2 Y5.5708 Z0.05 J-0.0149 K0.
G1 Y5.5633
G17 G3 X1.4914 Y5.5516 I0.0118 J0.
Y5.5986 Z0.0327 I0. J0.0235
Y5.5516 Z0.0154 I0. J-0.0235
Y5.5986 Z-0.0018 I0. J0.0235
Y5.5516 Z-0.0191 I0. J-0.0235
Y5.5986 Z-0.0364 I0. J0.0235
Y5.5516 Z-0.0537 I0. J-0.0235
Y5.5986 Z-0.071 I0. J0.0235
Y5.5516 Z-0.0882 I0. J-0.0235
Y5.5986 Z-0.1055 I0. J0.0235
Y5.5516 Z-0.1228 I0. J-0.0235
Y5.5986 Z-0.1401 I0. J0.0235
Y5.5516 Z-0.1574 I0. J-0.0235
Y5.5986 Z-0.1746 I0. J0.0235
Y5.5516 Z-0.1919 I0. J-0.0235
Y5.5986 Z-0.2092 I0. J0.0235
Y5.5516 Z-0.2265 I0. J-0.0235
X1.5148 Y5.5777 Z-0.2357 I0. J0.0235
X1.4862 Y5.598 Z-0.245 I-0.0234 J-0.0026
X1.4967 Y5.5521 I0.0052 J-0.0229
X1.4862 Y5.598 I-0.0052 J0.0229
X1.4774 Y5.5839 I0.0026 J-0.0115
G1 X1.479 Y5.5766
X1.4797 Y5.5738 Z-0.2447
X1.4803 Y5.5711 Z-0.2439
X1.4809 Y5.5686 Z-0.2425
X1.4814 Y5.5664 Z-0.2406
X1.4818 Y5.5645 Z-0.2384
X1.4821 Y5.5632 Z-0.2358
X1.4823 Y5.5624 Z-0.233
X1.4824 Y5.5621 Z-0.2301
G0 Z0.4
X-1.8315 Y3.5976
Z0.13
G1 Z0.0649 F40.
G19 G2 Y3.5827 Z0.05 J-0.0149 K0.
G1 Y3.5752
G17 G3 X-1.8198 Y3.5635 I0.0117 J0.
Y3.6105 Z0.0327 I0. J0.0235
Y3.5635 Z0.0154 I0. J-0.0235
Y3.6105 Z-0.0018 I0. J0.0235
Y3.5635 Z-0.0191 I0. J-0.0235
Y3.6105 Z-0.0364 I0. J0.0235
Y3.5635 Z-0.0537 I0. J-0.0235
Y3.6105 Z-0.071 I0. J0.0235
Y3.5635 Z-0.0882 I0. J-0.0235
Y3.6105 Z-0.1055 I0. J0.0235
Y3.5635 Z-0.1228 I0. J-0.0235
Y3.6105 Z-0.1401 I0. J0.0235
Y3.5635 Z-0.1574 I0. J-0.0235
Y3.6105 Z-0.1746 I0. J0.0235
Y3.5635 Z-0.1919 I0. J-0.0235
Y3.6105 Z-0.2092 I0. J0.0235
Y3.5635 Z-0.2265 I0. J-0.0235
X-1.7964 Y3.5896 Z-0.2357 I0. J0.0235
X-1.825 Y3.6099 Z-0.245 I-0.0234 J-0.0026
X-1.8145 Y3.5641 I0.0052 J-0.0229
X-1.825 Y3.6099 I-0.0052 J0.0229
X-1.8338 Y3.5958 I0.0026 J-0.0115
G1 X-1.8322 Y3.5886
X-1.8315 Y3.5857 Z-0.2447
X-1.8309 Y3.583 Z-0.2439
X-1.8303 Y3.5805 Z-0.2425
X-1.8298 Y3.5783 Z-0.2406
X-1.8294 Y3.5765 Z-0.2384
X-1.8291 Y3.5751 Z-0.2358
X-1.8289 Y3.5743 Z-0.233
Y3.574 Z-0.2301
G0 Z0.4
X-1.355 Y3.3803
Z0.13
G1 Z0.0649 F40.
G19 G3 Y3.3952 Z0.05 J0.0149 K0.
G1 Y3.4026
G17 G3 X-1.3668 Y3.4144 I-0.0118 J0.
Y3.3674 Z0.0327 I0. J-0.0235
Y3.4144 Z0.0154 I0. J0.0235
Y3.3674 Z-0.0018 I0. J-0.0235
Y3.4144 Z-0.0191 I0. J0.0235
Y3.3674 Z-0.0364 I0. J-0.0235
Y3.4144 Z-0.0537 I0. J0.0235
Y3.3674 Z-0.071 I0. J-0.0235
Y3.4144 Z-0.0882 I0. J0.0235
Y3.3674 Z-0.1055 I0. J-0.0235
Y3.4144 Z-0.1228 I0. J0.0235
Y3.3674 Z-0.1401 I0. J-0.0235
Y3.4144 Z-0.1574 I0. J0.0235
Y3.3674 Z-0.1746 I0. J-0.0235
Y3.4144 Z-0.1919 I0. J0.0235
Y3.3674 Z-0.2092 I0. J-0.0235
Y3.4144 Z-0.2265 I0. J0.0235
X-1.3901 Y3.3883 Z-0.2357 I0. J-0.0235
X-1.3615 Y3.368 Z-0.245 I0.0234 J0.0026
X-1.372 Y3.4138 I-0.0053 J0.0229
X-1.3615 Y3.368 I0.0053 J-0.0229
X-1.3527 Y3.3821 I-0.0026 J0.0115
G1 X-1.3544 Y3.3893
X-1.355 Y3.3922 Z-0.2447
X-1.3557 Y3.3949 Z-0.2439
X-1.3562 Y3.3974 Z-0.2425
X-1.3567 Y3.3996 Z-0.2406
X-1.3571 Y3.4014 Z-0.2384
X-1.3575 Y3.4027 Z-0.2358
X-1.3576 Y3.4036 Z-0.233
X-1.3577 Y3.4039 Z-0.2301
G0 Z0.4
X-0.5521 Y3.9764
Z0.13
G1 Z0.0649 F40.
G19 G3 Y3.9913 Z0.05 J0.0149 K0.
G1 Y3.9987
G17 G3 X-0.5639 Y4.0105 I-0.0118 J0.
Y3.9635 Z0.0327 I0. J-0.0235
Y4.0105 Z0.0154 I0. J0.0235
Y3.9635 Z-0.0018 I0. J-0.0235
Y4.0105 Z-0.0191 I0. J0.0235
Y3.9635 Z-0.0364 I0. J-0.0235
Y4.0105 Z-0.0537 I0. J0.0235
Y3.9635 Z-0.071 I0. J-0.0235
Y4.0105 Z-0.0882 I0. J0.0235
Y3.9635 Z-0.1055 I0. J-0.0235
Y4.0105 Z-0.1228 I0. J0.0235
Y3.9635 Z-0.1401 I0. J-0.0235
Y4.0105 Z-0.1574 I0. J0.0235
Y3.9635 Z-0.1746 I0. J-0.0235
Y4.0105 Z-0.1919 I0. J0.0235
Y3.9635 Z-0.2092 I0. J-0.0235
Y4.0105 Z-0.2265 I0. J0.0235
X-0.5872 Y3.9844 Z-0.2357 I0. J-0.0235
X-0.5586 Y3.9641 Z-0.245 I0.0234 J0.0026
X-0.5691 Y4.0099 I-0.0052 J0.0229
X-0.5586 Y3.9641 I0.0052 J-0.0229
X-0.5498 Y3.9782 I-0.0026 J0.0115
G1 X-0.5515 Y3.9854
X-0.5521 Y3.9883 Z-0.2447
X-0.5527 Y3.991 Z-0.2439
X-0.5533 Y3.9935 Z-0.2425
X-0.5538 Y3.9957 Z-0.2406
X-0.5542 Y3.9975 Z-0.2384
X-0.5545 Y3.9988 Z-0.2358
X-0.5547 Y3.9997 Z-0.233
X-0.5548 Y4. Z-0.2301
G0 Z0.4
X0.3656 Y3.5791
Z0.13
G1 Z0.0649 F40.
G19 G3 Y3.594 Z0.05 J0.0149 K0.
G1 Y3.6015
G17 G3 X0.3538 Y3.6132 I-0.0118 J0.
Y3.5662 Z0.0327 I0. J-0.0235
Y3.6132 Z0.0154 I0. J0.0235
Y3.5662 Z-0.0018 I0. J-0.0235
Y3.6132 Z-0.0191 I0. J0.0235
Y3.5662 Z-0.0364 I0. J-0.0235
Y3.6132 Z-0.0537 I0. J0.0235
Y3.5662 Z-0.071 I0. J-0.0235
Y3.6132 Z-0.0882 I0. J0.0235
Y3.5662 Z-0.1055 I0. J-0.0235
Y3.6132 Z-0.1228 I0. J0.0235
Y3.5662 Z-0.1401 I0. J-0.0235
Y3.6132 Z-0.1574 I0. J0.0235
Y3.5662 Z-0.1746 I0. J-0.0235
Y3.6132 Z-0.1919 I0. J0.0235
Y3.5662 Z-0.2092 I0. J-0.0235
Y3.6132 Z-0.2265 I0. J0.0235
X0.3305 Y3.5871 Z-0.2357 I0. J-0.0235
X0.3591 Y3.5668 Z-0.245 I0.0234 J0.0026
X0.3486 Y3.6126 I-0.0052 J0.0229
X0.3591 Y3.5668 I0.0052 J-0.0229
X0.3679 Y3.5809 I-0.0026 J0.0115
G1 X0.3662 Y3.5881
X0.3656 Y3.591 Z-0.2447
X0.3649 Y3.5937 Z-0.2439
X0.3644 Y3.5962 Z-0.2425
X0.3639 Y3.5984 Z-0.2406
X0.3635 Y3.6002 Z-0.2384
X0.3631 Y3.6016 Z-0.2358
X0.363 Y3.6024 Z-0.233
X0.3629 Y3.6027 Z-0.2301
G0 Z0.4
X0.4803 Y2.5857
Z0.13
G1 Z0.0649 F40.
G19 G3 Y2.6006 Z0.05 J0.0149 K0.
G1 Y2.6081
G17 G3 X0.4686 Y2.6198 I-0.0117 J0.
Y2.5728 Z0.0327 I0. J-0.0235
Y2.6198 Z0.0154 I0. J0.0235
Y2.5728 Z-0.0018 I0. J-0.0235
Y2.6198 Z-0.0191 I0. J0.0235
Y2.5728 Z-0.0364 I0. J-0.0235
Y2.6198 Z-0.0537 I0. J0.0235
Y2.5728 Z-0.071 I0. J-0.0235
Y2.6198 Z-0.0882 I0. J0.0235
Y2.5728 Z-0.1055 I0. J-0.0235
Y2.6198 Z-0.1228 I0. J0.0235
Y2.5728 Z-0.1401 I0. J-0.0235
Y2.6198 Z-0.1574 I0. J0.0235
Y2.5728 Z-0.1746 I0. J-0.0235
Y2.6198 Z-0.1919 I0. J0.0235
Y2.5728 Z-0.2092 I0. J-0.0235
Y2.6198 Z-0.2265 I0. J0.0235
X0.4452 Y2.5937 Z-0.2357 I0. J-0.0235
X0.4738 Y2.5734 Z-0.245 I0.0234 J0.0026
X0.4633 Y2.6192 I-0.0052 J0.0229
X0.4738 Y2.5734 I0.0052 J-0.0229
X0.4827 Y2.5875 I-0.0026 J0.0115
G1 X0.481 Y2.5947
X0.4804 Y2.5976 Z-0.2447
X0.4797 Y2.6003 Z-0.2439
X0.4792 Y2.6028 Z-0.2425
X0.4786 Y2.605 Z-0.2406
X0.4782 Y2.6068 Z-0.2384
X0.4779 Y2.6082 Z-0.2358
X0.4777 Y2.609 Z-0.233
Y2.6093 Z-0.2301
G0 Z0.4
X-0.3461 Y2.0108
Z0.13
G1 Z0.0649 F40.
G19 G2 Y1.9959 Z0.05 J-0.0149 K0.
G1 Y1.9885
G17 G3 X-0.3343 Y1.9767 I0.0117 J0.
Y2.0237 Z0.0327 I0. J0.0235
Y1.9767 Z0.0154 I0. J-0.0235
Y2.0237 Z-0.0018 I0. J0.0235
Y1.9767 Z-0.0191 I0. J-0.0235
Y2.0237 Z-0.0364 I0. J0.0235
Y1.9767 Z-0.0537 I0. J-0.0235
Y2.0237 Z-0.071 I0. J0.0235
Y1.9767 Z-0.0882 I0. J-0.0235
Y2.0237 Z-0.1055 I0. J0.0235
Y1.9767 Z-0.1228 I0. J-0.0235
Y2.0237 Z-0.1401 I0. J0.0235
Y1.9767 Z-0.1574 I0. J-0.0235
Y2.0237 Z-0.1746 I0. J0.0235
Y1.9767 Z-0.1919 I0. J-0.0235
Y2.0237 Z-0.2092 I0. J0.0235
Y1.9767 Z-0.2265 I0. J-0.0235
X-0.311 Y2.0029 Z-0.2357 I0. J0.0235
X-0.3396 Y2.0231 Z-0.245 I-0.0234 J-0.0026
X-0.3291 Y1.9773 I0.0052 J-0.0229
X-0.3396 Y2.0231 I-0.0052 J0.0229
X-0.3484 Y2.009 I0.0026 J-0.0115
G1 X-0.3467 Y2.0018
X-0.3461 Y1.9989 Z-0.2447
X-0.3455 Y1.9962 Z-0.2439
X-0.3449 Y1.9937 Z-0.2425
X-0.3444 Y1.9915 Z-0.2406
X-0.344 Y1.9897 Z-0.2384
X-0.3437 Y1.9884 Z-0.2358
X-0.3435 Y1.9875 Z-0.233
X-0.3434 Y1.9873 Z-0.2301
G0 Z0.4
X-1.2638 Y2.4081
Z0.13
G1 Z0.0649 F40.
G19 G2 Y2.3932 Z0.05 J-0.0149 K0.
G1 Y2.3858
G17 G3 X-1.252 Y2.374 I0.0118 J0.
Y2.421 Z0.0327 I0. J0.0235
Y2.374 Z0.0154 I0. J-0.0235
Y2.421 Z-0.0018 I0. J0.0235
Y2.374 Z-0.0191 I0. J-0.0235
Y2.421 Z-0.0364 I0. J0.0235
Y2.374 Z-0.0537 I0. J-0.0235
Y2.421 Z-0.071 I0. J0.0235
Y2.374 Z-0.0882 I0. J-0.0235
Y2.421 Z-0.1055 I0. J0.0235
Y2.374 Z-0.1228 I0. J-0.0235
Y2.421 Z-0.1401 I0. J0.0235
Y2.374 Z-0.1574 I0. J-0.0235
Y2.421 Z-0.1746 I0. J0.0235
Y2.374 Z-0.1919 I0. J-0.0235
Y2.421 Z-0.2092 I0. J0.0235
Y2.374 Z-0.2265 I0. J-0.0235
X-1.2287 Y2.4001 Z-0.2357 I0. J0.0235
X-1.2573 Y2.4204 Z-0.245 I-0.0234 J-0.0026
X-1.2468 Y2.3746 I0.0052 J-0.0229
X-1.2573 Y2.4204 I-0.0052 J0.0229
X-1.2661 Y2.4063 I0.0026 J-0.0115
G1 X-1.2644 Y2.3991
X-1.2638 Y2.3962 Z-0.2447
X-1.2632 Y2.3935 Z-0.2439
X-1.2626 Y2.391 Z-0.2425
X-1.2621 Y2.3888 Z-0.2406
X-1.2617 Y2.387 Z-0.2384
X-1.2614 Y2.3857 Z-0.2358
X-1.2612 Y2.3848 Z-0.233
X-1.2611 Y2.3845 Z-0.2301
G0 Z0.4
X-1.3867 Y1.3856
Z0.13
G1 Z0.0649 F40.
G19 G2 Y1.3707 Z0.05 J-0.0149 K0.
G1 Y1.3632
G17 G3 X-1.375 Y1.3515 I0.0118 J0.
Y1.3985 Z0.0327 I0. J0.0235
Y1.3515 Z0.0154 I0. J-0.0235
Y1.3985 Z-0.0018 I0. J0.0235
Y1.3515 Z-0.0191 I0. J-0.0235
Y1.3985 Z-0.0364 I0. J0.0235
Y1.3515 Z-0.0537 I0. J-0.0235
Y1.3985 Z-0.071 I0. J0.0235
Y1.3515 Z-0.0882 I0. J-0.0235
Y1.3985 Z-0.1055 I0. J0.0235
Y1.3515 Z-0.1228 I0. J-0.0235
Y1.3985 Z-0.1401 I0. J0.0235
Y1.3515 Z-0.1574 I0. J-0.0235
Y1.3985 Z-0.1746 I0. J0.0235
Y1.3515 Z-0.1919 I0. J-0.0235
Y1.3985 Z-0.2092 I0. J0.0235
Y1.3515 Z-0.2265 I0. J-0.0235
X-1.3516 Y1.3776 Z-0.2357 I0. J0.0235
X-1.3802 Y1.3979 Z-0.245 I-0.0234 J-0.0026
X-1.3698 Y1.3521 I0.0052 J-0.0229
X-1.3802 Y1.3979 I-0.0052 J0.0229
X-1.3891 Y1.3838 I0.0026 J-0.0115
G1 X-1.3874 Y1.3766
X-1.3868 Y1.3737 Z-0.2447
X-1.3861 Y1.371 Z-0.2439
X-1.3856 Y1.3685 Z-0.2425
X-1.3851 Y1.3663 Z-0.2406
X-1.3846 Y1.3645 Z-0.2384
X-1.3843 Y1.3631 Z-0.2358
X-1.3841 Y1.3623 Z-0.233
Y1.362 Z-0.2301
G0 Z0.4
X-1.3632 Y-1.3856
Z0.13
G1 Z0.0649 F40.
G19 G3 Y-1.3707 Z0.05 J0.0149 K0.
G1 Y-1.3632
G17 G3 X-1.375 Y-1.3515 I-0.0118 J0.
Y-1.3985 Z0.0327 I0. J-0.0235
Y-1.3515 Z0.0154 I0. J0.0235
Y-1.3985 Z-0.0018 I0. J-0.0235
Y-1.3515 Z-0.0191 I0. J0.0235
Y-1.3985 Z-0.0364 I0. J-0.0235
Y-1.3515 Z-0.0537 I0. J0.0235
Y-1.3985 Z-0.071 I0. J-0.0235
Y-1.3515 Z-0.0882 I0. J0.0235
Y-1.3985 Z-0.1055 I0. J-0.0235
Y-1.3515 Z-0.1228 I0. J0.0235
Y-1.3985 Z-0.1401 I0. J-0.0235
Y-1.3515 Z-0.1574 I0. J0.0235
Y-1.3985 Z-0.1746 I0. J-0.0235
Y-1.3515 Z-0.1919 I0. J0.0235
Y-1.3985 Z-0.2092 I0. J-0.0235
Y-1.3515 Z-0.2265 I0. J0.0235
X-1.3984 Y-1.3776 Z-0.2357 I0. J-0.0235
X-1.3698 Y-1.3979 Z-0.245 I0.0234 J0.0026
X-1.3802 Y-1.3521 I-0.0052 J0.0229
X-1.3698 Y-1.3979 I0.0052 J-0.0229
X-1.3609 Y-1.3838 I-0.0026 J0.0115
G1 X-1.3626 Y-1.3766
X-1.3632 Y-1.3737 Z-0.2447
X-1.3639 Y-1.371 Z-0.2439
X-1.3644 Y-1.3685 Z-0.2425
X-1.3649 Y-1.3663 Z-0.2406
X-1.3654 Y-1.3645 Z-0.2384
X-1.3657 Y-1.3631 Z-0.2358
X-1.3659 Y-1.3623 Z-0.233
Y-1.362 Z-0.2301
G0 Z0.6
(.3 CIRCULAR THROUGH HOLE)
M7
G0 X1.4261 Y4.3109
Z0.6
Z0.2
G1 Z0.1144 F13.333
G3 X1.4263 Y4.3096 Z0.1081 I0.0445 J0.0068 F55.
X1.4272 Y4.3057 Z0.103 I0.0443 J0.0082
X1.4291 Y4.3003 Z0.1 I0.0434 J0.012
X1.5121 Y4.3351 Z0.0621 I0.0415 J0.0174
X1.4291 Y4.3003 Z0.0242 I-0.0415 J-0.0174
X1.5121 Y4.3351 Z-0.0136 I0.0415 J0.0174
X1.4291 Y4.3003 Z-0.0515 I-0.0415 J-0.0174
X1.5121 Y4.3351 Z-0.0894 I0.0415 J0.0174
X1.4256 Y4.3177 Z-0.1225 I-0.0415 J-0.0174
X1.4296 I0.002 J0. F60.
X1.3256 I-0.052 J0.
X1.5296 I0.102 J0.
X1.2256 I-0.152 J0.
X1.6296 I0.202 J0.
X1.1256 I-0.252 J0.
X1.7296 I0.302 J0.
X1.0256 I-0.352 J0.
X1.7296 I0.352 J0.
X1.7226 Y4.3252 I-0.0075 J0.
G1 X1.5284 Y4.3367
G3 X1.5211 Y4.3339 I-0.0014 J-0.0073
G1 X1.4926 Y4.2971
G3 X1.504 Y4.2876 I0.0059 J-0.0046
X1.4372 Y4.3479 Z-0.1604 I-0.0334 J0.0302 F55.
X1.504 Y4.2876 Z-0.1983 I0.0334 J-0.0302
X1.4372 Y4.3479 Z-0.2361 I-0.0334 J0.0302
X1.4256 Y4.3177 Z-0.245 I0.0334 J-0.0302
X1.4296 I0.002 J0. F60.
X1.3256 I-0.052 J0.
X1.5296 I0.102 J0.
X1.2256 I-0.152 J0.
X1.6296 I0.202 J0.
X1.1256 I-0.252 J0.
X1.7296 I0.302 J0.
X1.0256 I-0.352 J0.
X1.7396 I0.357 J0.
X1.0156 I-0.362 J0.
X1.7396 I0.362 J0.
X1.7385 Y4.3233 Z-0.2439 I-0.0149 J0.
X1.736 Y4.3274 Z-0.2406 I-0.0138 J-0.0056
X1.7337 Y4.3296 Z-0.2358 I-0.0113 J-0.0097
X1.7327 Y4.3303 Z-0.2301 I-0.009 J-0.0119
G0 Z0.4
X-0.4391 Y2.9868
Z0.2
G1 Z0.1144 F13.333
G3 X-0.4389 Y2.9854 Z0.1081 I0.0445 J0.0068 F55.
X-0.438 Y2.9816 Z0.103 I0.0443 J0.0082
X-0.4361 Y2.9762 Z0.1 I0.0434 J0.012
X-0.3531 Y3.011 Z0.0621 I0.0415 J0.0174
X-0.4361 Y2.9762 Z0.0242 I-0.0415 J-0.0174
X-0.3531 Y3.011 Z-0.0136 I0.0415 J0.0174
X-0.4361 Y2.9762 Z-0.0515 I-0.0415 J-0.0174
X-0.3531 Y3.011 Z-0.0894 I0.0415 J0.0174
X-0.4396 Y2.9936 Z-0.1225 I-0.0415 J-0.0174
X-0.3586 I0.0405 J0. F60.
X-0.5396 I-0.0905 J0.
X-0.2586 I0.1405 J0.
X-0.6396 I-0.1905 J0.
X-0.1586 I0.2405 J0.
X-0.7396 I-0.2905 J0.
X-0.1586 I0.2905 J0.
X-0.1657 Y3.001 I-0.0074 J0.
G1 X-0.3391 Y3.009
G3 X-0.3462 Y3.0063 I-0.0013 J-0.0073
G1 X-0.3726 Y2.9731
G3 X-0.3612 Y2.9634 I0.0058 J-0.0046
X-0.428 Y3.0238 Z-0.1604 I-0.0334 J0.0302 F55.
X-0.3612 Y2.9634 Z-0.1983 I0.0334 J-0.0302
X-0.428 Y3.0238 Z-0.2361 I-0.0334 J0.0302
X-0.4396 Y2.9936 Z-0.245 I0.0334 J-0.0302
X-0.3586 I0.0405 J0. F60.
X-0.5396 I-0.0905 J0.
X-0.2586 I0.1405 J0.
X-0.6396 I-0.1905 J0.
X-0.1586 I0.2405 J0.
X-0.7396 I-0.2905 J0.
X-0.1486 I0.2955 J0.
X-0.7496 I-0.3005 J0.
X-0.1486 I0.3005 J0.
X-0.1497 Y2.9992 Z-0.2439 I-0.0149 J0.
X-0.1522 Y3.0033 Z-0.2406 I-0.0138 J-0.0056
X-0.1545 Y3.0055 Z-0.2358 I-0.0113 J-0.0097
X-0.1555 Y3.0061 Z-0.2301 I-0.009 J-0.0119
G0 Z0.4
X6.4893 Y-0.0068
Z0.2
G1 Z0.1144 F13.333
G3 X6.4895 Y-0.0082 Z0.1081 I0.0445 J0.0068 F55.
X6.4904 Y-0.012 Z0.103 I0.0443 J0.0082
X6.4922 Y-0.0174 Z0.1 I0.0434 J0.012
X6.5753 Y0.0174 Z0.0621 I0.0415 J0.0174
X6.4922 Y-0.0174 Z0.0242 I-0.0415 J-0.0174
X6.5753 Y0.0174 Z-0.0136 I0.0415 J0.0174
X6.4922 Y-0.0174 Z-0.0515 I-0.0415 J-0.0174
X6.5753 Y0.0174 Z-0.0894 I0.0415 J0.0174
X6.4888 Y0. Z-0.1225 I-0.0415 J-0.0174
X6.5427 I0.027 J0. F60.
X6.3888 I-0.077 J0.
X6.6427 I0.127 J0.
X6.2888 I-0.177 J0.
X6.7427 I0.227 J0.
X6.1888 I-0.277 J0.
X6.8427 I0.327 J0.
X6.0888 I-0.377 J0.
X6.9427 I0.427 J0.
X5.9888 I-0.477 J0.
X6.9427 I0.477 J0.
X6.8977 Y0.045 Z-0.1396 I-0.045 J0. F55.
G1 X6.5338 Z-0.2279
G3 X6.4888 Y0. Z-0.245 I0. J-0.045
X6.5427 I0.027 J0. F60.
X6.3888 I-0.077 J0.
X6.6427 I0.127 J0.
X6.2888 I-0.177 J0.
X6.7427 I0.227 J0.
X6.1888 I-0.277 J0.
X6.8427 I0.327 J0.
X6.0888 I-0.377 J0.
X6.9427 I0.427 J0.
X5.9888 I-0.477 J0.
X6.9527 I0.482 J0.
X5.9788 I-0.487 J0.
X6.9527 I0.487 J0.
X6.9517 Y0.0056 Z-0.2439 I-0.0149 J0.
X6.9492 Y0.0097 Z-0.2406 I-0.0138 J-0.0056
X6.9468 Y0.0119 Z-0.2358 I-0.0113 J-0.0097
X6.9459 Y0.0125 Z-0.2301 I-0.009 J-0.0119
G0 Z0.6
(SHAPE THROUGH HOLE)
M7
G0 X0.0646 Y0.0288
Z0.6
Z0.1
G3 X-0.0646 Y-0.0288 Z0.0608 I-0.0646 J-0.0288 F50.
X0.0646 Y0.0288 Z0.0216 I0.0646 J0.0288
X-0.0646 Y-0.0288 Z-0.0176 I-0.0646 J-0.0288
X0.0646 Y0.0288 Z-0.0568 I0.0646 J0.0288
X-0.0646 Y-0.0288 Z-0.096 I-0.0646 J-0.0288
X0.0708 Y0. Z-0.13 I0.0646 J0.0288
X-0.0708 I-0.0708 J0.
X0.0708 I0.0708 J0.
X-0.0799 Y0.123 I-0.0771 J0.0593 F60.
X0.0738 Y-0.1405 I0.0769 J-0.1318
X0.1376 Y-0.0678 I-0.0769 J0.1318
X-0.16 Y0.1797 I-0.1491 J0.1234
X-0.1124 Y-0.2227 I0.1417 J-0.1873
X0.101 Y0.3156 I0.1067 J0.2691
X-0.0206 Y0.3356 I-0.1067 J-0.2692
X-0.1165 Y-0.3248 I0.0103 J-0.3386
X0.0962 Y0.4222 I0.1063 J0.3735
X-0.271 Y0.3363 I-0.1063 J-0.3735
X-0.443 Y0.0281 I0.2157 J-0.3225
X0.444 Y-0.0847 I0.4476 J-0.0244
X0.2324 Y0.4631 I-0.4162 J0.154
X-0.263 Y-0.4731 I-0.2477 J-0.4681
X0.0442 Y-0.5312 I0.2477 J0.4681
X0.5573 Y0.1787 I-0.0538 J0.5792
X-0.2149 Y0.5922 I-0.5668 J-0.1307
X0.1996 Y-0.6041 I0.2091 J-0.5975
X-0.0717 Y0.7262 I-0.214 J0.6492
X-0.2467 Y-0.6933 I0.0662 J-0.7287
X0.5987 Y0.5271 I0.2405 J0.7364
X-0.8289 Y0.0125 I-0.6239 J-0.5068
X0.5936 Y-0.5851 I0.8279 J-0.0211
X0.1367 Y0.9106 I-0.6019 J0.6338
G1 X-0.1254 Y0.9105
G3 X-0.9092 Y0.2023 I0.0931 J-0.891
G1 X-0.9105 Y-0.1571
G3 X-0.2062 Y-0.909 I0.8862 J0.1243
G1 X0.1524 Y-0.9105
G3 X0.9083 Y-0.2646 I-0.1295 J0.9169
G1 X0.9105 Y0.3049
G3 X0.4386 Y0.9085 I-0.8194 J-0.1544
G1 X0.1367 Y0.9105
G3 X0.1241 Y0.9026 I0.0005 J-0.0149
X0.1406 Y0.8337 I0.0471 J-0.0251
X0.4192 Y0.8894 I0.1126 J0.1615
G1 X0.4269 Y0.9026 F50.
G2 X0.4395 Y0.9105 I0.0131 J-0.007
G1 X0.5587 F60.
G2 X0.9039 Y0.5991 I-0.1622 J-0.5269
G1 X0.91 Y0.6001
X0.9104 Y0.5988
X0.9105 Y0.5974
Y0.3049
G2 X0.9026 Y0.2923 I-0.0149 J0.0005
X0.8229 Y0.316 I-0.0279 J0.0523
X0.8894 Y0.577 I0.1724 J0.0951
G1 X0.9026 Y0.5848 F50.
G3 X0.9105 Y0.5974 I-0.007 J0.0131
G1 Y0.6976 F60.
G3 X0.773 Y0.9119 I-0.3355 J-0.064
G1 X0.7543 Y0.9105
X0.5587
G3 X0.5443 Y0.8951 I0.0005 J-0.0149
X0.5593 Y0.8696 I0.0309 J0.0011
X0.7502 Y0.8922 I0.0808 J0.1352
X0.7631 Y0.9064 I-0.1101 J0.1126 F50.
G2 X0.773 Y0.9119 I0.0116 J-0.0093
G1 X0.7774 Y0.9123 F60.
X0.8006 Y0.9145
X0.8237 Y0.9176
G2 X0.9326 Y0.8699 I0.0132 J-0.1183
G3 X0.9105 Y0.6976 I0.3348 J-0.1306
G2 X0.8815 Y0.6934 I-0.0149 J0.0005
G1 X0.8137 Y0.8932
X0.8121 Y0.8981 F50.
G2 X0.8237 Y0.9176 I0.0141 J0.0048
G3 X0.8932 Y0.9404 I-0.0949 J0.4063 F60.
G2 X0.9594 Y0.9294 I0.0281 J-0.0359
G1 X0.9395 Y0.8915
X0.9353 Y0.8825
X0.931 Y0.8687
G2 X0.912 Y0.8596 I-0.0141 J0.005
X0.9024 Y0.8852 I0.0059 J0.0168
X0.9326 Y0.9152 I0.0685 J-0.0388
X0.9504 Y0.9224 I0.0383 J-0.0688 F50.
G3 X0.9594 Y0.9294 I-0.0039 J0.0144
G1 X0.9626 Y0.9354 F60.
X0.9654 Y0.9399
X0.9683 Y0.9452
X0.9693 Y0.9511
X0.9692 Y0.9571
X0.9681 Y0.9633
X0.9658 Y0.9703
X0.9648 Y0.9723
X0.9616 Y0.9756
X0.9571 Y0.9766
X0.9529 Y0.9749
G3 X0.9395 Y0.9494 I0.0258 J-0.0298
X0.9404 Y0.9426 I0.0141 J-0.0015
X0.9654 Y0.9399 I0.0132 J0.0052 F50.
G1 X0.9677 Y0.9436 F60.
X0.974 Y0.9518
X0.9858 Y0.9664
X0.9893 Y0.9712
X0.9912 Y0.9769
X0.9918 Y0.9829
X0.9914 Y0.9889
X0.9908 Y0.9912
X0.989 Y0.9946
X0.9857 Y0.9967
X0.9819 Y0.997
X0.9783 Y0.9954
G3 X0.9664 Y0.9772 I0.0258 J-0.0298
X0.9858 Y0.9664 I0.0108 J-0.0034 F50.
G1 X0.9926 Y0.9749 F60.
X1.0014 Y0.9864
X1.0052 Y0.9922
X1.0062 Y0.9938
X1.0071 Y0.9951
X1.0075 Y0.9958
X1.0079 Y0.9966
X1.0082 Y0.9975
X1.0084 Y0.9983
G3 X1.0037 Y1.0068 I-0.0078 J0.0012
X0.9995 Y1.0073 I-0.0031 J-0.0072
X1.0018 Y0.9918 I0.0012 J-0.0077 F50.
X1.0071 Y0.9951 I-0.0012 J0.0077
G1 X1.008 Y0.9965 F60.
X1.0082 Y0.9972
X1.0087 Y0.9999
Y1.0005
X1.0082 Y1.0031
X1.008 Y1.0035
X1.0065 Y1.0058
X1.0059 Y1.0064
G3 X0.9528 Y0.9749 I-0.0127 J-0.0392
G1 X0.9395 Y0.965
X0.9148 Y0.9518
X0.8932 Y0.9404
G3 X0.8928 Y0.9147 I0.0074 J-0.0129
G1 X0.8953 Y0.9132 Z-0.1297
X0.8977 Y0.9117 Z-0.1289
X0.8999 Y0.9104 Z-0.1275
X0.9018 Y0.9092 Z-0.1256
X0.9034 Y0.9083 Z-0.1234
X0.9046 Y0.9075 Z-0.1208
X0.9053 Y0.9071 Z-0.118
X0.9055 Y0.907 Z-0.1151
G0 Z0.4
X0.8942 Y-0.2228
Z-0.1002
G1 Z-0.1151 F50.
X0.8943 Y-0.223 Z-0.118
X0.8948 Y-0.2238 Z-0.1208
X0.8955 Y-0.2249 Z-0.1234
X0.8964 Y-0.2265 Z-0.1256
X0.8976 Y-0.2285 Z-0.1275
X0.8989 Y-0.2307 Z-0.1289
X0.9003 Y-0.2331 Z-0.1297
X0.9018 Y-0.2356 Z-0.13
G2 X0.9105 Y-0.2653 I-0.0536 J-0.0318
G1 Y-0.4343 F60.
G2 X0.5596 Y-0.8601 I-0.6576 J0.1845
X0.4845 Y-0.9105 I-0.1052 J0.0756
G1 X0.1524
G2 X0.1398 Y-0.9026 I0.0005 J0.0149
X0.142 Y-0.8754 I0.0223 J0.0119
X0.4642 Y-0.8894 I0.1562 J-0.1198
G1 X0.4719 Y-0.9026 F50.
G3 X0.4845 Y-0.9105 I0.0131 J0.007
G1 X0.605 F60.
G3 X0.9093 Y-0.6716 I-0.1371 J0.4879
G1 X0.9105 Y-0.4343
G3 X0.9026 Y-0.4217 I-0.0149 J-0.0005
X0.8428 Y-0.4378 I-0.0213 J-0.04
X0.8895 Y-0.6518 I0.1339 J-0.0828
X0.9026 Y-0.6596 I0.0872 J0.1311 F50.
G2 X0.9105 Y-0.6723 I-0.007 J-0.0131
G1 Y-0.7346 F60.
Y-0.7577
G2 X0.8107 Y-0.9158 I-0.2299 J0.0346
G3 X0.605 Y-0.9105 I-0.1302 J-1.0511
G2 X0.5991 Y-0.8821 I0.0005 J0.0149
G1 X0.8879 Y-0.7454
X0.8893 Y-0.7448 F50.
G2 X0.9105 Y-0.7577 I0.0064 J-0.0135
G3 X0.9253 Y-0.8501 I0.2741 J-0.0036 F60.
G2 X0.8977 Y-0.9427 I-0.0723 J-0.0289
G3 X0.8107 Y-0.9158 I-0.1392 J-0.296
G2 X0.7992 Y-0.9064 I0.0025 J0.0147
X0.8515 Y-0.8625 I0.0339 J0.0127
X0.8886 Y-0.9147 I-0.0401 J-0.0678
X0.8902 Y-0.9299 I-0.0772 J-0.0156 F50.
G3 X0.8977 Y-0.9427 I0.0149 J0.0001
G1 X0.9087 Y-0.9485 F60.
G3 X0.9639 Y-0.9352 I0.0204 J0.0363
G1 X0.9613 Y-0.931
X0.9583 Y-0.9272
X0.9548 Y-0.9239
X0.951 Y-0.921
X0.9468 Y-0.9185
X0.9424 Y-0.9166
X0.9379 Y-0.9153
G3 X0.9092 Y-0.9184 I-0.0103 J-0.038
X0.9047 Y-0.9219 I0.008 J-0.0152
X0.9087 Y-0.9485 I0.0126 J-0.0117 F50.
G2 X0.9466 Y-0.9704 I-0.051 J-0.1325 F60.
G3 X0.984 Y-0.9641 I0.0176 J0.0098
X0.9572 Y-0.9503 I-0.03 J-0.0254
G1 X0.9539 Y-0.9501 F50.
G3 X0.9466 Y-0.9704 I0. J-0.0114
G1 X0.9626 Y-0.9828 F60.
X0.9701 Y-0.9887
X0.9766 Y-0.9939
X0.9815 Y-0.9973
X0.9873 Y-0.9992
X0.9932 Y-0.9997
X0.9961 Y-0.9994
X0.9999 Y-0.9979
X1.0024 Y-0.9947
X1.003 Y-0.9906
X1.0014 Y-0.9868
G3 X0.9883 Y-0.9765 I-0.0304 J-0.025
X0.9766 Y-0.9939 I-0.005 J-0.0093 F50.
G1 X0.9858 Y-1.001 F60.
X0.9965 Y-1.008
X0.997 Y-1.0082
X1. Y-1.0088
X1.003 Y-1.0082
X1.0035 Y-1.008
X1.0058 Y-1.0065
G3 X0.9858 Y-0.9664 I-0.0228 J0.0137
G2 X0.9253 Y-0.8501 I0.2254 J0.1911
G3 X0.9002 Y-0.8448 I-0.0141 J-0.0048
G1 X0.8982 Y-0.847 Z-0.1297
X0.8963 Y-0.8491 Z-0.1289
X0.8946 Y-0.851 Z-0.1275
X0.8931 Y-0.8526 Z-0.1256
X0.8918 Y-0.854 Z-0.1234
X0.8909 Y-0.855 Z-0.1208
X0.8903 Y-0.8556 Z-0.118
X0.8901 Y-0.8558 Z-0.1151
G0 Z-0.1002
X-0.164 Y-0.8942
G1 Z-0.1151 F50.
X-0.1643 Y-0.8943 Z-0.118
X-0.165 Y-0.8948 Z-0.1208
X-0.1662 Y-0.8955 Z-0.1234
X-0.1678 Y-0.8964 Z-0.1256
X-0.1697 Y-0.8976 Z-0.1275
X-0.1719 Y-0.8989 Z-0.1289
X-0.1743 Y-0.9003 Z-0.1297
X-0.1768 Y-0.9018 Z-0.13
G2 X-0.2065 Y-0.9105 I-0.0318 J0.0536
G1 X-0.4263 F60.
G2 X-0.9065 Y-0.4848 I0.2223 J0.7344
G1 X-0.9104 Y-0.4852
X-0.9105 Y-0.4839
Y-0.1571
G2 X-0.9026 Y-0.1445 I0.0149 J-0.0005
X-0.8667 Y-0.1485 I0.015 J-0.0282
X-0.8894 Y-0.4636 I-0.1285 J-0.1491
G1 X-0.9026 Y-0.4713 F50.
G3 X-0.9105 Y-0.4839 I0.007 J-0.0131
G1 Y-0.596 F60.
G3 X-0.6658 Y-0.9088 I0.4695 J0.1152
G1 X-0.4263 Y-0.9105
G3 X-0.4137 Y-0.9026 I-0.0005 J0.0149
X-0.4283 Y-0.8453 I-0.0388 J0.0207
X-0.6462 Y-0.8895 I-0.0868 J-0.1314
X-0.6541 Y-0.9026 I0.1311 J-0.0872 F50.
G2 X-0.6667 Y-0.9105 I-0.0131 J0.007
G1 X-0.7504 F60.
G2 X-0.9157 Y-0.8092 I0.0282 J0.2315
G3 X-0.9105 Y-0.596 I-1.0739 J0.1326
G2 X-0.8822 Y-0.5901 I0.0149 J-0.0005
G1 X-0.7381 Y-0.8879
X-0.7375 Y-0.8891 F50.
G2 X-0.7504 Y-0.9105 I-0.0134 J-0.0065
G3 X-0.843 Y-0.9232 I-0.0117 J-0.2592 F60.
G2 X-0.9423 Y-0.8969 I-0.0339 J0.0727
G3 X-0.9157 Y-0.8092 I-0.275 J0.1316
G2 X-0.9059 Y-0.798 I0.0146 J-0.0028
X-0.8626 Y-0.8515 I0.0121 J-0.0346
X-0.9142 Y-0.8878 I-0.0673 J0.0409
X-0.9295 Y-0.8894 I-0.0156 J0.0772 F50.
G3 X-0.9423 Y-0.8969 I0.0001 J-0.0149
G1 X-0.9491 Y-0.9098 F60.
X-0.9511 Y-0.9141
X-0.9525 Y-0.9186
X-0.9535 Y-0.9232
X-0.9538 Y-0.9279
X-0.9537 Y-0.9326
X-0.953 Y-0.9373
X-0.9518 Y-0.9418
X-0.95 Y-0.9462
X-0.9478 Y-0.9504
X-0.9451 Y-0.9542
X-0.942 Y-0.9578
X-0.9385 Y-0.9609
X-0.9346 Y-0.9636
X-0.9305 Y-0.961
X-0.9267 Y-0.958
X-0.9234 Y-0.9545
X-0.9205 Y-0.9507
X-0.9181 Y-0.9466
X-0.9162 Y-0.9422
X-0.9148 Y-0.9376
G3 X-0.9168 Y-0.9115 I-0.038 J0.0103
X-0.9224 Y-0.9044 I-0.0166 J-0.0073
X-0.9491 Y-0.9098 I-0.011 J-0.0144 F50.
G1 X-0.9588 Y-0.9282 F60.
X-0.967 Y-0.9425
X-0.9715 Y-0.9483
X-0.975 Y-0.9532
X-0.977 Y-0.9588
X-0.978 Y-0.9648
X-0.9781 Y-0.9708
X-0.9773 Y-0.9767
X-0.9764 Y-0.9799
X-0.9744 Y-0.9832
X-0.9712 Y-0.9852
X-0.9674 Y-0.9854
X-0.9639 Y-0.9838
G3 X-0.9505 Y-0.9577 I-0.0258 J0.0298
G1 X-0.9504 Y-0.9551 F50.
X-0.9509 Y-0.9526
X-0.9519 Y-0.9502
X-0.9533 Y-0.9481
X-0.9552 Y-0.9464
X-0.9574 Y-0.9451
X-0.9599 Y-0.9443
X-0.9625 Y-0.944
X-0.965 Y-0.9443
X-0.9674 Y-0.9452
X-0.9696 Y-0.9465
X-0.9715 Y-0.9483
X-0.9819 Y-0.9616 F60.
X-0.9852 Y-0.9656
X-0.9941 Y-0.9772
X-0.9975 Y-0.9821
X-0.9992 Y-0.9879
X-0.9995 Y-0.9939
X-0.9992 Y-0.9963
X-0.9977 Y-0.9999
X-0.9947 Y-1.0024
X-0.9908 Y-1.0031
X-0.9871 Y-1.0018
G3 X-0.9761 Y-0.9897 I-0.023 J0.032
X-0.9753 Y-0.9881 I-0.0095 J0.0056
X-0.9941 Y-0.9772 I-0.0103 J0.0039 F50.
G1 X-1.0029 Y-0.9887 F60.
X-1.0081 Y-0.9967
X-1.0088 Y-1.
X-1.0087 Y-1.0004
X-1.0081 Y-1.0032
X-1.0079 Y-1.0037
X-1.0065 Y-1.0057
X-1.006 Y-1.0063
G3 X-0.9588 Y-0.9797 I0.0119 J0.0342
G2 X-0.843 Y-0.9232 I0.1968 J-0.2565
G3 X-0.8377 Y-0.8981 I-0.0048 J0.0141
G1 X-0.8399 Y-0.8961 Z-0.1297
X-0.842 Y-0.8942 Z-0.1289
X-0.8439 Y-0.8925 Z-0.1275
X-0.8455 Y-0.891 Z-0.1256
X-0.8469 Y-0.8897 Z-0.1234
X-0.8479 Y-0.8888 Z-0.1208
X-0.8485 Y-0.8882 Z-0.118
X-0.8487 Y-0.888 Z-0.1151
G0 Z-0.1002
X-0.8942 Y0.1601
G1 Z-0.1151 F50.
X-0.8943 Y0.1604 Z-0.118
X-0.8948 Y0.1611 Z-0.1208
X-0.8955 Y0.1623 Z-0.1234
X-0.8964 Y0.1639 Z-0.1256
X-0.8976 Y0.1658 Z-0.1275
X-0.8989 Y0.168 Z-0.1289
X-0.9003 Y0.1704 Z-0.1297
X-0.9018 Y0.1729 Z-0.13
G2 X-0.9105 Y0.2026 I0.0536 J0.0318
G1 Y0.4204 F60.
G2 X-0.5135 Y0.8835 I0.6952 J-0.1943
X-0.4747 Y0.9105 I0.0457 J-0.0244
G1 X-0.1254
G2 X-0.1128 Y0.9026 I-0.0005 J-0.0149
X-0.1423 Y0.8054 I-0.0635 J-0.0338
X-0.4544 Y0.8893 I-0.1113 J0.2084
G1 X-0.4621 Y0.9026 F50.
G3 X-0.4747 Y0.9105 I-0.0131 J-0.007
G1 X-0.6011 F60.
G3 X-0.9092 Y0.6629 I0.147 J-0.4984
G1 X-0.9105 Y0.4204
G3 X-0.9026 Y0.4078 I0.0149 J0.0005
X-0.8486 Y0.4204 I0.0198 J0.0371
X-0.8895 Y0.6432 I-0.1281 J0.0916
X-0.9026 Y0.651 I-0.0872 J-0.1311 F50.
G2 X-0.9105 Y0.6637 I0.007 J0.0131
G1 Y0.7438 F60.
X-0.9107 Y0.7508
G2 X-0.8065 Y0.9152 I0.2423 J-0.0384
G3 X-0.6011 Y0.9105 I0.1279 J1.0915
G2 X-0.5951 Y0.8822 I-0.0005 J-0.0149
G1 X-0.8878 Y0.7392
X-0.8893 Y0.7384 F50.
G2 X-0.9107 Y0.7508 I-0.0065 J0.0134
G3 X-0.925 Y0.849 I-0.2609 J0.0123 F60.
G2 X-0.8954 Y0.9416 I0.0732 J0.0276
G3 X-0.8065 Y0.9152 I0.1505 J0.345
G2 X-0.794 Y0.8983 I-0.0022 J-0.0147
X-0.825 Y0.8756 I-0.0267 J0.004
X-0.8811 Y0.9148 I0.0126 J0.0777
X-0.8884 Y0.9325 I0.0687 J0.0385 F50.
G3 X-0.8954 Y0.9416 I-0.0144 J-0.0039
G1 X-0.9093 Y0.9489 F60.
G3 X-0.9635 Y0.9339 I-0.019 J-0.037
G1 X-0.9608 Y0.9298
X-0.9577 Y0.9261
X-0.9541 Y0.9228
X-0.9502 Y0.9199
X-0.946 Y0.9176
X-0.9415 Y0.9158
X-0.9369 Y0.9145
G3 X-0.9106 Y0.9171 I0.0095 J0.0382
X-0.9042 Y0.9221 I-0.0077 J0.0162
X-0.9093 Y0.9489 I-0.014 J0.0112 F50.
G1 X-0.9356 Y0.9627 F60.
X-0.9474 Y0.9711
X-0.9525 Y0.9743
X-0.9581 Y0.9764
X-0.964 Y0.9775
X-0.97 Y0.9776
X-0.976 Y0.9769
X-0.9794 Y0.9759
X-0.9827 Y0.974
X-0.9848 Y0.9707
X-0.985 Y0.9669
X-0.9834 Y0.9634
G3 X-0.9565 Y0.9499 I0.0298 J0.0258
G1 X-0.955 Y0.9498 F50.
G3 X-0.9474 Y0.9711 I0.0004 J0.0118
G1 X-0.9528 Y0.9749 F60.
X-0.9764 Y0.9938
X-0.9812 Y0.9974
X-0.987 Y0.9991
X-0.9929 Y0.9996
X-0.9959 Y0.9993
X-0.9997 Y0.9978
X-1.0022 Y0.9946
X-1.0028 Y0.9907
X-1.0013 Y0.9869
G3 X-0.9884 Y0.9761 I0.0311 J0.0242
X-0.9764 Y0.9938 I0.0049 J0.0096 F50.
G1 X-0.9819 Y0.9983 F60.
X-0.9935 Y1.006
X-0.9964 Y1.0079
X-0.9971 Y1.0082
X-1. Y1.0088
X-1.0029 Y1.0082
X-1.0036 Y1.0079
X-1.0058 Y1.0065
G3 X-0.9926 Y0.9749 I0.0172 J-0.0114
G2 X-0.925 Y0.849 I-0.2564 J-0.2189
G3 X-0.9134 Y0.839 I0.0141 J0.0048
G1 X-0.9108 Y0.8388 Z-0.1298
X-0.9085 Y0.8394 Z-0.1291
X-0.9063 Y0.8399 Z-0.1281
X-0.9043 Y0.8404 Z-0.1267
X-0.9027 Y0.8415 Z-0.1249
X-0.9015 Y0.8424 Z-0.1227
X-0.9006 Y0.8431 Z-0.1203
X-0.9 Y0.8435 Z-0.1178
X-0.8998 Y0.8437 Z-0.1151
G0 Z-0.03
X-0.0036 Y0.0707
G3 X0.0036 Y-0.0707 Z-0.0692 I0.0036 J-0.0707 F50.
X-0.0036 Y0.0707 Z-0.1084 I-0.0036 J0.0707
X0.0036 Y-0.0707 Z-0.1476 I0.0036 J-0.0707
X-0.0036 Y0.0707 Z-0.1868 I-0.0036 J0.0707
X0.0036 Y-0.0707 Z-0.226 I0.0036 J-0.0707
X0.0708 Y0. Z-0.245 I-0.0036 J0.0707
X-0.0708 I-0.0708 J0.
X0.0708 I0.0708 J0.
X-0.0799 Y0.123 I-0.0771 J0.0593 F60.
X0.0738 Y-0.1405 I0.0769 J-0.1318
X0.1376 Y-0.0678 I-0.0769 J0.1318
X-0.16 Y0.1797 I-0.1491 J0.1234
X-0.1124 Y-0.2227 I0.1417 J-0.1873
X0.101 Y0.3156 I0.1067 J0.2691
X-0.0206 Y0.3356 I-0.1067 J-0.2692
X-0.1165 Y-0.3248 I0.0103 J-0.3386
X0.0962 Y0.4222 I0.1063 J0.3735
X-0.271 Y0.3363 I-0.1063 J-0.3735
X-0.443 Y0.0281 I0.2157 J-0.3225
X0.444 Y-0.0847 I0.4476 J-0.0244
X0.2324 Y0.4631 I-0.4162 J0.154
X-0.263 Y-0.4731 I-0.2477 J-0.4681
X0.0442 Y-0.5312 I0.2477 J0.4681
X0.5573 Y0.1787 I-0.0538 J0.5792
X-0.2149 Y0.5922 I-0.5668 J-0.1307
X0.1996 Y-0.6041 I0.2091 J-0.5975
X-0.0717 Y0.7262 I-0.214 J0.6492
X-0.2467 Y-0.6933 I0.0662 J-0.7287
X0.5987 Y0.5271 I0.2405 J0.7364
X-0.8289 Y0.0125 I-0.6239 J-0.5068
X0.5936 Y-0.5851 I0.8279 J-0.0211
X0.1367 Y0.9106 I-0.6019 J0.6338
G1 X-0.1254 Y0.9105
G3 X-0.9092 Y0.2023 I0.0931 J-0.891
G1 X-0.9105 Y-0.1571
G3 X-0.2062 Y-0.909 I0.8862 J0.1243
G1 X0.1524 Y-0.9105
G3 X0.9083 Y-0.2646 I-0.1295 J0.9169
G1 X0.9105 Y0.3049
G3 X0.4386 Y0.9085 I-0.8194 J-0.1544
G1 X0.1367 Y0.9105
G3 X0.1241 Y0.9026 I0.0005 J-0.0149
X0.1406 Y0.8337 I0.0471 J-0.0251
X0.4192 Y0.8894 I0.1126 J0.1615
G1 X0.4269 Y0.9026 F50.
G2 X0.4395 Y0.9105 I0.0131 J-0.007
G1 X0.5587 F60.
G2 X0.9039 Y0.5991 I-0.1622 J-0.5269
G1 X0.91 Y0.6001
X0.9104 Y0.5988
X0.9105 Y0.5974
Y0.3049
G2 X0.9026 Y0.2923 I-0.0149 J0.0005
X0.8229 Y0.316 I-0.0279 J0.0523
X0.8894 Y0.577 I0.1724 J0.0951
G1 X0.9026 Y0.5848 F50.
G3 X0.9105 Y0.5974 I-0.007 J0.0131
G1 Y0.6976 F60.
G3 X0.773 Y0.9119 I-0.3355 J-0.064
G1 X0.7543 Y0.9105
X0.5587
G3 X0.5443 Y0.8951 I0.0005 J-0.0149
X0.5593 Y0.8696 I0.0309 J0.0011
X0.7502 Y0.8922 I0.0808 J0.1352
X0.7631 Y0.9064 I-0.1101 J0.1126 F50.
G2 X0.773 Y0.9119 I0.0116 J-0.0093
G1 X0.7774 Y0.9123 F60.
X0.8006 Y0.9145
X0.8237 Y0.9176
G2 X0.9326 Y0.8699 I0.0132 J-0.1183
G3 X0.9105 Y0.6976 I0.3348 J-0.1306
G2 X0.8815 Y0.6934 I-0.0149 J0.0005
G1 X0.8137 Y0.8932
X0.8121 Y0.8981 F50.
G2 X0.8237 Y0.9176 I0.0141 J0.0048
G3 X0.8932 Y0.9404 I-0.0949 J0.4063 F60.
G2 X0.9594 Y0.9294 I0.0281 J-0.0359
G1 X0.9395 Y0.8915
X0.9353 Y0.8825
X0.931 Y0.8687
G2 X0.912 Y0.8596 I-0.0141 J0.005
X0.9024 Y0.8852 I0.0059 J0.0168
X0.9326 Y0.9152 I0.0685 J-0.0388
X0.9504 Y0.9224 I0.0383 J-0.0688 F50.
G3 X0.9594 Y0.9294 I-0.0039 J0.0144
G1 X0.9626 Y0.9354 F60.
X0.9654 Y0.9399
X0.9683 Y0.9452
X0.9693 Y0.9511
X0.9692 Y0.9571
X0.9681 Y0.9633
X0.9658 Y0.9703
X0.9648 Y0.9723
X0.9616 Y0.9756
X0.9571 Y0.9766
X0.9529 Y0.9749
G3 X0.9395 Y0.9494 I0.0258 J-0.0298
X0.9404 Y0.9426 I0.0141 J-0.0015
X0.9654 Y0.9399 I0.0132 J0.0052 F50.
G1 X0.9677 Y0.9436 F60.
X0.974 Y0.9518
X0.9858 Y0.9664
X0.9893 Y0.9712
X0.9912 Y0.9769
X0.9918 Y0.9829
X0.9914 Y0.9889
X0.9908 Y0.9912
X0.989 Y0.9946
X0.9857 Y0.9967
X0.9819 Y0.997
X0.9783 Y0.9954
G3 X0.9664 Y0.9772 I0.0258 J-0.0298
X0.9858 Y0.9664 I0.0108 J-0.0034 F50.
G1 X0.9926 Y0.9749 F60.
X1.0014 Y0.9864
X1.0052 Y0.9922
X1.0062 Y0.9938
X1.0071 Y0.9951
X1.0075 Y0.9958
X1.0079 Y0.9966
X1.0082 Y0.9975
X1.0084 Y0.9983
G3 X1.0037 Y1.0068 I-0.0078 J0.0012
X0.9995 Y1.0073 I-0.0031 J-0.0072
X1.0018 Y0.9918 I0.0012 J-0.0077 F50.
X1.0071 Y0.9951 I-0.0012 J0.0077
G1 X1.008 Y0.9965 F60.
X1.0082 Y0.9972
X1.0087 Y0.9999
Y1.0005
X1.0082 Y1.0031
X1.008 Y1.0035
X1.0065 Y1.0058
X1.0059 Y1.0064
G3 X0.9528 Y0.9749 I-0.0127 J-0.0392
G1 X0.9395 Y0.965
X0.9148 Y0.9518
X0.8932 Y0.9404
G3 X0.8928 Y0.9147 I0.0074 J-0.0129
G1 X0.8953 Y0.9132 Z-0.2447
X0.8977 Y0.9117 Z-0.2439
X0.8999 Y0.9104 Z-0.2425
X0.9018 Y0.9092 Z-0.2406
X0.9034 Y0.9083 Z-0.2384
X0.9046 Y0.9075 Z-0.2358
X0.9053 Y0.9071 Z-0.233
X0.9055 Y0.907 Z-0.2301
G0 Z0.4
X0.8942 Y-0.2228
Z-0.2152
G1 Z-0.2301 F50.
X0.8943 Y-0.223 Z-0.233
X0.8948 Y-0.2238 Z-0.2358
X0.8955 Y-0.2249 Z-0.2384
X0.8964 Y-0.2265 Z-0.2406
X0.8976 Y-0.2285 Z-0.2425
X0.8989 Y-0.2307 Z-0.2439
X0.9003 Y-0.2331 Z-0.2447
X0.9018 Y-0.2356 Z-0.245
G2 X0.9105 Y-0.2653 I-0.0536 J-0.0318
G1 Y-0.4343 F60.
G2 X0.5596 Y-0.8601 I-0.6576 J0.1845
X0.4845 Y-0.9105 I-0.1052 J0.0756
G1 X0.1524
G2 X0.1398 Y-0.9026 I0.0005 J0.0149
X0.142 Y-0.8754 I0.0223 J0.0119
X0.4642 Y-0.8894 I0.1562 J-0.1198
G1 X0.4719 Y-0.9026 F50.
G3 X0.4845 Y-0.9105 I0.0131 J0.007
G1 X0.605 F60.
G3 X0.9093 Y-0.6716 I-0.1371 J0.4879
G1 X0.9105 Y-0.4343
G3 X0.9026 Y-0.4217 I-0.0149 J-0.0005
X0.8428 Y-0.4378 I-0.0213 J-0.04
X0.8895 Y-0.6518 I0.1339 J-0.0828
X0.9026 Y-0.6596 I0.0872 J0.1311 F50.
G2 X0.9105 Y-0.6723 I-0.007 J-0.0131
G1 Y-0.7346 F60.
Y-0.7577
G2 X0.8107 Y-0.9158 I-0.2299 J0.0346
G3 X0.605 Y-0.9105 I-0.1302 J-1.0511
G2 X0.5991 Y-0.8821 I0.0005 J0.0149
G1 X0.8879 Y-0.7454
X0.8893 Y-0.7448 F50.
G2 X0.9105 Y-0.7577 I0.0064 J-0.0135
G3 X0.9253 Y-0.8501 I0.2741 J-0.0036 F60.
G2 X0.8977 Y-0.9427 I-0.0723 J-0.0289
G3 X0.8107 Y-0.9158 I-0.1392 J-0.296
G2 X0.7992 Y-0.9064 I0.0025 J0.0147
X0.8515 Y-0.8625 I0.0339 J0.0127
X0.8886 Y-0.9147 I-0.0401 J-0.0678
X0.8902 Y-0.9299 I-0.0772 J-0.0156 F50.
G3 X0.8977 Y-0.9427 I0.0149 J0.0001
G1 X0.9087 Y-0.9485 F60.
G3 X0.9639 Y-0.9352 I0.0204 J0.0363
G1 X0.9613 Y-0.931
X0.9583 Y-0.9272
X0.9548 Y-0.9239
X0.951 Y-0.921
X0.9468 Y-0.9185
X0.9424 Y-0.9166
X0.9379 Y-0.9153
G3 X0.9092 Y-0.9184 I-0.0103 J-0.038
X0.9047 Y-0.9219 I0.008 J-0.0152
X0.9087 Y-0.9485 I0.0126 J-0.0117 F50.
G2 X0.9466 Y-0.9704 I-0.051 J-0.1325 F60.
G3 X0.984 Y-0.9641 I0.0176 J0.0098
X0.9572 Y-0.9503 I-0.03 J-0.0254
G1 X0.9539 Y-0.9501 F50.
G3 X0.9466 Y-0.9704 I0. J-0.0114
G1 X0.9626 Y-0.9828 F60.
X0.9701 Y-0.9887
X0.9766 Y-0.9939
X0.9815 Y-0.9973
X0.9873 Y-0.9992
X0.9932 Y-0.9997
X0.9961 Y-0.9994
X0.9999 Y-0.9979
X1.0024 Y-0.9947
X1.003 Y-0.9906
X1.0014 Y-0.9868
G3 X0.9883 Y-0.9765 I-0.0304 J-0.025
X0.9766 Y-0.9939 I-0.005 J-0.0093 F50.
G1 X0.9858 Y-1.001 F60.
X0.9965 Y-1.008
X0.997 Y-1.0082
X1. Y-1.0088
X1.003 Y-1.0082
X1.0035 Y-1.008
X1.0058 Y-1.0065
G3 X0.9858 Y-0.9664 I-0.0228 J0.0137
G2 X0.9253 Y-0.8501 I0.2254 J0.1911
G3 X0.9002 Y-0.8448 I-0.0141 J-0.0048
G1 X0.8982 Y-0.847 Z-0.2447
X0.8963 Y-0.8491 Z-0.2439
X0.8946 Y-0.851 Z-0.2425
X0.8931 Y-0.8526 Z-0.2406
X0.8918 Y-0.854 Z-0.2384
X0.8909 Y-0.855 Z-0.2358
X0.8903 Y-0.8556 Z-0.233
X0.8901 Y-0.8558 Z-0.2301
G0 Z-0.2152
X-0.164 Y-0.8942
G1 Z-0.2301 F50.
X-0.1643 Y-0.8943 Z-0.233
X-0.165 Y-0.8948 Z-0.2358
X-0.1662 Y-0.8955 Z-0.2384
X-0.1678 Y-0.8964 Z-0.2406
X-0.1697 Y-0.8976 Z-0.2425
X-0.1719 Y-0.8989 Z-0.2439
X-0.1743 Y-0.9003 Z-0.2447
X-0.1768 Y-0.9018 Z-0.245
G2 X-0.2065 Y-0.9105 I-0.0318 J0.0536
G1 X-0.4263 F60.
G2 X-0.9065 Y-0.4848 I0.2223 J0.7344
G1 X-0.9104 Y-0.4852
X-0.9105 Y-0.4839
Y-0.1571
G2 X-0.9026 Y-0.1445 I0.0149 J-0.0005
X-0.8667 Y-0.1485 I0.015 J-0.0282
X-0.8894 Y-0.4636 I-0.1285 J-0.1491
G1 X-0.9026 Y-0.4713 F50.
G3 X-0.9105 Y-0.4839 I0.007 J-0.0131
G1 Y-0.596 F60.
G3 X-0.6658 Y-0.9088 I0.4695 J0.1152
G1 X-0.4263 Y-0.9105
G3 X-0.4137 Y-0.9026 I-0.0005 J0.0149
X-0.4283 Y-0.8453 I-0.0388 J0.0207
X-0.6462 Y-0.8895 I-0.0868 J-0.1314
X-0.6541 Y-0.9026 I0.1311 J-0.0872 F50.
G2 X-0.6667 Y-0.9105 I-0.0131 J0.007
G1 X-0.7504 F60.
G2 X-0.9157 Y-0.8092 I0.0282 J0.2315
G3 X-0.9105 Y-0.596 I-1.0739 J0.1326
G2 X-0.8822 Y-0.5901 I0.0149 J-0.0005
G1 X-0.7381 Y-0.8879
X-0.7375 Y-0.8891 F50.
G2 X-0.7504 Y-0.9105 I-0.0134 J-0.0065
G3 X-0.843 Y-0.9232 I-0.0117 J-0.2592 F60.
G2 X-0.9423 Y-0.8969 I-0.0339 J0.0727
G3 X-0.9157 Y-0.8092 I-0.275 J0.1316
G2 X-0.9059 Y-0.798 I0.0146 J-0.0028
X-0.8626 Y-0.8515 I0.0121 J-0.0346
X-0.9142 Y-0.8878 I-0.0673 J0.0409
X-0.9295 Y-0.8894 I-0.0156 J0.0772 F50.
G3 X-0.9423 Y-0.8969 I0.0001 J-0.0149
G1 X-0.9491 Y-0.9098 F60.
X-0.9511 Y-0.9141
X-0.9525 Y-0.9186
X-0.9535 Y-0.9232
X-0.9538 Y-0.9279
X-0.9537 Y-0.9326
X-0.953 Y-0.9373
X-0.9518 Y-0.9418
X-0.95 Y-0.9462
X-0.9478 Y-0.9504
X-0.9451 Y-0.9542
X-0.942 Y-0.9578
X-0.9385 Y-0.9609
X-0.9346 Y-0.9636
X-0.9305 Y-0.961
X-0.9267 Y-0.958
X-0.9234 Y-0.9545
X-0.9205 Y-0.9507
X-0.9181 Y-0.9466
X-0.9162 Y-0.9422
X-0.9148 Y-0.9376
G3 X-0.9168 Y-0.9115 I-0.038 J0.0103
X-0.9224 Y-0.9044 I-0.0166 J-0.0073
X-0.9491 Y-0.9098 I-0.011 J-0.0144 F50.
G1 X-0.9588 Y-0.9282 F60.
X-0.967 Y-0.9425
X-0.9715 Y-0.9483
X-0.975 Y-0.9532
X-0.977 Y-0.9588
X-0.978 Y-0.9648
X-0.9781 Y-0.9708
X-0.9773 Y-0.9767
X-0.9764 Y-0.9799
X-0.9744 Y-0.9832
X-0.9712 Y-0.9852
X-0.9674 Y-0.9854
X-0.9639 Y-0.9838
G3 X-0.9505 Y-0.9577 I-0.0258 J0.0298
G1 X-0.9504 Y-0.9551 F50.
X-0.9509 Y-0.9526
X-0.9519 Y-0.9502
X-0.9533 Y-0.9481
X-0.9552 Y-0.9464
X-0.9574 Y-0.9451
X-0.9599 Y-0.9443
X-0.9625 Y-0.944
X-0.965 Y-0.9443
X-0.9674 Y-0.9452
X-0.9696 Y-0.9465
X-0.9715 Y-0.9483
X-0.9819 Y-0.9616 F60.
X-0.9852 Y-0.9656
X-0.9941 Y-0.9772
X-0.9975 Y-0.9821
X-0.9992 Y-0.9879
X-0.9995 Y-0.9939
X-0.9992 Y-0.9963
X-0.9977 Y-0.9999
X-0.9947 Y-1.0024
X-0.9908 Y-1.0031
X-0.9871 Y-1.0018
G3 X-0.9761 Y-0.9897 I-0.023 J0.032
X-0.9753 Y-0.9881 I-0.0095 J0.0056
X-0.9941 Y-0.9772 I-0.0103 J0.0039 F50.
G1 X-1.0029 Y-0.9887 F60.
X-1.0081 Y-0.9967
X-1.0088 Y-1.
X-1.0087 Y-1.0004
X-1.0081 Y-1.0032
X-1.0079 Y-1.0037
X-1.0065 Y-1.0057
X-1.006 Y-1.0063
G3 X-0.9588 Y-0.9797 I0.0119 J0.0342
G2 X-0.843 Y-0.9232 I0.1968 J-0.2565
G3 X-0.8377 Y-0.8981 I-0.0048 J0.0141
G1 X-0.8399 Y-0.8961 Z-0.2447
X-0.842 Y-0.8942 Z-0.2439
X-0.8439 Y-0.8925 Z-0.2425
X-0.8455 Y-0.891 Z-0.2406
X-0.8469 Y-0.8897 Z-0.2384
X-0.8479 Y-0.8888 Z-0.2358
X-0.8485 Y-0.8882 Z-0.233
X-0.8487 Y-0.888 Z-0.2301
G0 Z-0.2152
X-0.8942 Y0.1601
G1 Z-0.2301 F50.
X-0.8943 Y0.1604 Z-0.233
X-0.8948 Y0.1611 Z-0.2358
X-0.8955 Y0.1623 Z-0.2384
X-0.8964 Y0.1639 Z-0.2406
X-0.8976 Y0.1658 Z-0.2425
X-0.8989 Y0.168 Z-0.2439
X-0.9003 Y0.1704 Z-0.2447
X-0.9018 Y0.1729 Z-0.245
G2 X-0.9105 Y0.2026 I0.0536 J0.0318
G1 Y0.4204 F60.
G2 X-0.5135 Y0.8835 I0.6952 J-0.1943
X-0.4747 Y0.9105 I0.0457 J-0.0244
G1 X-0.1254
G2 X-0.1128 Y0.9026 I-0.0005 J-0.0149
X-0.1423 Y0.8054 I-0.0635 J-0.0338
X-0.4544 Y0.8893 I-0.1113 J0.2084
G1 X-0.4621 Y0.9026 F50.
G3 X-0.4747 Y0.9105 I-0.0131 J-0.007
G1 X-0.6011 F60.
G3 X-0.9092 Y0.6629 I0.147 J-0.4984
G1 X-0.9105 Y0.4204
G3 X-0.9026 Y0.4078 I0.0149 J0.0005
X-0.8486 Y0.4204 I0.0198 J0.0371
X-0.8895 Y0.6432 I-0.1281 J0.0916
X-0.9026 Y0.651 I-0.0872 J-0.1311 F50.
G2 X-0.9105 Y0.6637 I0.007 J0.0131
G1 Y0.7438 F60.
X-0.9107 Y0.7508
G2 X-0.8065 Y0.9152 I0.2423 J-0.0384
G3 X-0.6011 Y0.9105 I0.1279 J1.0915
G2 X-0.5951 Y0.8822 I-0.0005 J-0.0149
G1 X-0.8878 Y0.7392
X-0.8893 Y0.7384 F50.
G2 X-0.9107 Y0.7508 I-0.0065 J0.0134
G3 X-0.925 Y0.849 I-0.2609 J0.0123 F60.
G2 X-0.8954 Y0.9416 I0.0732 J0.0276
G3 X-0.8065 Y0.9152 I0.1505 J0.345
G2 X-0.794 Y0.8983 I-0.0022 J-0.0147
X-0.825 Y0.8756 I-0.0267 J0.004
X-0.8811 Y0.9148 I0.0126 J0.0777
X-0.8884 Y0.9325 I0.0687 J0.0385 F50.
G3 X-0.8954 Y0.9416 I-0.0144 J-0.0039
G1 X-0.9093 Y0.9489 F60.
G3 X-0.9635 Y0.9339 I-0.019 J-0.037
G1 X-0.9608 Y0.9298
X-0.9577 Y0.9261
X-0.9541 Y0.9228
X-0.9502 Y0.9199
X-0.946 Y0.9176
X-0.9415 Y0.9158
X-0.9369 Y0.9145
G3 X-0.9106 Y0.9171 I0.0095 J0.0382
X-0.9042 Y0.9221 I-0.0077 J0.0162
X-0.9093 Y0.9489 I-0.014 J0.0112 F50.
G1 X-0.9356 Y0.9627 F60.
X-0.9474 Y0.9711
X-0.9525 Y0.9743
X-0.9581 Y0.9764
X-0.964 Y0.9775
X-0.97 Y0.9776
X-0.976 Y0.9769
X-0.9794 Y0.9759
X-0.9827 Y0.974
X-0.9848 Y0.9707
X-0.985 Y0.9669
X-0.9834 Y0.9634
G3 X-0.9565 Y0.9499 I0.0298 J0.0258
G1 X-0.955 Y0.9498 F50.
G3 X-0.9474 Y0.9711 I0.0004 J0.0118
G1 X-0.9528 Y0.9749 F60.
X-0.9764 Y0.9938
X-0.9812 Y0.9974
X-0.987 Y0.9991
X-0.9929 Y0.9996
X-0.9959 Y0.9993
X-0.9997 Y0.9978
X-1.0022 Y0.9946
X-1.0028 Y0.9907
X-1.0013 Y0.9869
G3 X-0.9884 Y0.9761 I0.0311 J0.0242
X-0.9764 Y0.9938 I0.0049 J0.0096 F50.
G1 X-0.9819 Y0.9983 F60.
X-0.9935 Y1.006
X-0.9964 Y1.0079
X-0.9971 Y1.0082
X-1. Y1.0088
X-1.0029 Y1.0082
X-1.0036 Y1.0079
X-1.0058 Y1.0065
G3 X-0.9926 Y0.9749 I0.0172 J-0.0114
G2 X-0.925 Y0.849 I-0.2564 J-0.2189
G3 X-0.8998 Y0.8437 I0.0141 J0.0048
G1 X-0.8979 Y0.8458 Z-0.2447
X-0.896 Y0.8479 Z-0.2439
X-0.8943 Y0.8498 Z-0.2425
X-0.8927 Y0.8514 Z-0.2406
X-0.8915 Y0.8528 Z-0.2384
X-0.8905 Y0.8538 Z-0.2358
X-0.89 Y0.8545 Z-0.233
X-0.8898 Y0.8547 Z-0.2301
G0 Z0.6
(SHAPE THROUGH FINISHING PASS)
M7
G0 X0.8755 Y0.0149
Z0.6
Z0.2
G1 Z0.1 F13.333
Z-0.195
G19 G2 Y-0.0351 Z-0.245 J-0.05 K0. F40.
G1 Y-0.05
G17 G3 X0.9255 Y0. I0. J0.05
G1 Y0.7551
G2 X1.0182 Y0.9822 I0.3245 J0.
G3 X0.9822 Y1.0182 I-0.0182 J0.0178
G2 X0.7551 Y0.9255 I-0.2271 J0.2318
G1 X-0.7551
G2 X-0.9822 Y1.0182 I0. J0.3245
G3 X-1.0182 Y0.9822 I-0.0178 J-0.0182
G2 X-0.9255 Y0.7551 I-0.2318 J-0.2271
G1 Y-0.7551
G2 X-1.0182 Y-0.9822 I-0.3245 J0.
G3 X-0.9822 Y-1.0182 I0.0182 J-0.0178
G2 X-0.7551 Y-0.9255 I0.2271 J-0.2318
G1 X0.7551
G2 X0.9822 Y-1.0182 I0. J-0.3245
G3 X1.0182 Y-0.9822 I0.0178 J0.0182
G2 X0.9255 Y-0.7551 I0.2318 J0.2271
G1 Y0.
G3 X0.8755 Y0.05 I-0.05 J0.
G1 Y0.0351
G19 G2 Y-0.0149 Z-0.195 J0. K0.05
G0 Z0.6
G17
(2D SLOT CUT 2)
M7
G0 X2.8114 Y-1.8007
Z0.6
Z0.2
G1 Z0.1151 F13.333
X2.8113 Y-1.8004 Z0.1122 F40.
Y-1.7996 Z0.1094
X2.8112 Y-1.7982 Z0.1068
X2.8111 Y-1.7963 Z0.1046
X2.8109 Y-1.7941 Z0.1027
X2.8108 Y-1.7915 Z0.1014
X2.8106 Y-1.7887 Z0.1005
X2.8104 Y-1.7858 Z0.1002
X2.8094 Y-1.771
G3 X2.7936 Y-1.7571 I-0.0149 J-0.001
G1 X1.7655 Y-1.8237 Z-0.0814
X1.7629 Y-1.8238 Z-0.0817
G2 X1.7419 Y-1.8245 I-0.021 J0.3238 F30.
G1 X-1.5
G2 X-1.8245 Y-1.5 I0. J0.3245
G1 Y1.7281
G3 X-1.8272 Y1.7586 I-0.1755 J0.
G1 X-2.1394 Y3.5307
G2 X-1.9868 Y3.8652 I0.3196 J0.0563
G1 X1.3244 Y5.8532
G2 X1.7786 Y5.7263 I0.167 J-0.2782
G1 X2.2722 Y4.7887
G2 X2.3881 Y4.3499 I-0.8946 J-0.471
G1 X2.4218 Y3.2909
G2 X2.4206 Y3.2504 I-0.3243 J-0.0103
G3 X3.7477 Y1.6952 I1.4193 J-0.1326
G1 X6.5638 Y1.5128
G2 Y-1.5128 I-0.098 J-1.5128
G1 X1.7629 Y-1.8238
G2 X1.7419 Y-1.8245 Z-0.0837 I-0.021 J0.3238 F40.
G1 X0.927 Z-0.1633
X-1.5 F30.
G2 X-1.8245 Y-1.5 I0. J0.3245
G1 Y1.7281
G3 X-1.8272 Y1.7586 I-0.1755 J0.
G1 X-2.1394 Y3.5307
G2 X-1.9868 Y3.8652 I0.3196 J0.0563
G1 X1.3244 Y5.8532
G2 X1.7786 Y5.7263 I0.167 J-0.2782
G1 X2.2722 Y4.7887
G2 X2.3881 Y4.3499 I-0.8946 J-0.471
G1 X2.4218 Y3.2909
G2 X2.4206 Y3.2504 I-0.3243 J-0.0103
G3 X3.7477 Y1.6952 I1.4193 J-0.1326
G1 X6.5638 Y1.5128
G2 Y-1.5128 I-0.098 J-1.5128
G1 X1.7629 Y-1.8238
G2 X1.7419 Y-1.8245 I-0.021 J0.3238
G1 X0.927
X0.091 Z-0.245 F40.
X-0.4046 F30.
Z-0.165
X-1.1536
Z-0.245 F13.333
X-1.5 F30.
G2 X-1.8245 Y-1.5 I0. J0.3245
G1 Y0.9335
Z-0.165
Y1.6825
Z-0.245 F13.333
Y1.7281 F30.
G3 X-1.8272 Y1.7586 I-0.1755 J0.
G1 X-2.1394 Y3.5307
G2 X-1.9868 Y3.8652 I0.3196 J0.0563
G1 X1.3244 Y5.8532
G2 X1.7786 Y5.7263 I0.167 J-0.2782
G1 X1.8882 Y5.518
Z-0.165
X2.2371 Y4.8553
Z-0.245 F13.333
X2.2722 Y4.7887 F30.
G2 X2.3881 Y4.3499 I-0.8946 J-0.471
G1 X2.4218 Y3.2909
G2 X2.4206 Y3.2504 I-0.3243 J-0.0103
G3 X3.7477 Y1.6952 I1.4193 J-0.1326
G1 X4.7664 Y1.6293
Z-0.165
X5.5138 Y1.5808
Z-0.245 F13.333
X6.5638 Y1.5128 F30.
G2 X7.8789 Y-0.549 I-0.098 J-1.5128
G1 Z-0.165
G2 X7.4436 Y-1.1585 I-1.4131 J0.549
G1 Z-0.245 F13.333
G2 X6.5638 Y-1.5128 I-0.9778 J1.1585 F30.
G1 X3.4868 Y-1.7121
Z-0.165
X2.7394 Y-1.7606
Z-0.245 F13.333
X1.7629 Y-1.8238 F30.
G2 X1.7419 Y-1.8245 I-0.021 J0.3238
G1 X0.091
G3 X0.0761 Y-1.8394 I0. J-0.0149
G1 Y-1.8543
G19 G2 Y-1.8692 Z-0.2301 J0. K0.0149
G0 Z0.4
X2.1132 Y-1.3211
Z0.2
G1 Z0.1151 F13.333
X2.1135 Z0.1122 F40.
X2.1143 Z0.1094
X2.1157 Z0.1068
X2.1176 Z0.1046
X2.1198 Z0.1027
X2.1224 Y-1.3212 Z0.1014
X2.1252 Z0.1005
X2.1281 Z0.1002
X2.143 Y-1.3214
G17 G3 X2.158 Y-1.3066 I0.0001 J0.0149
G2 X2.395 Y-0.3928 Z-0.0679 I1.9494 J-0.0179
G3 X2.377 Y-0.3256 Z-0.0814 I-0.0444 J0.0241
X2.3759 Y-0.3249 Z-0.0816 I-0.0264 J-0.0431
X2.3748 Y-0.3243 Z-0.0817 I-0.0253 J-0.0437
X2.3063 Y-0.3445 I-0.0241 J-0.0444 F30.
X2.0571 Y-1.3517 I1.8011 J-0.98
X2.1581 Y-1.3504 I0.0505 J0.0007
G2 X2.395 Y-0.3928 I1.9493 J0.0259
G3 X2.3748 Y-0.3243 I-0.0444 J0.0241
X2.3063 Y-0.3445 Z-0.0957 I-0.0241 J-0.0444 F40.
X2.1554 Y-0.6968 Z-0.1633 I1.8011 J-0.98
X2.0571 Y-1.3517 I1.9521 J-0.6277 F30.
X2.1581 Y-1.3504 I0.0505 J0.0007
G2 X2.395 Y-0.3928 I1.9493 J0.0259
G3 X2.3748 Y-0.3243 I-0.0444 J0.0241
X2.3063 Y-0.3445 I-0.0241 J-0.0444
X2.1554 Y-0.6968 I1.8011 J-0.98
X2.0644 Y-1.1499 Z-0.245 I1.9521 J-0.6277 F40.
X2.0571 Y-1.3517 I2.043 J-0.1746 F30.
X2.1581 Y-1.3504 I0.0505 J0.0007
G2 X2.395 Y-0.3928 I1.9493 J0.0259
G3 X2.3748 Y-0.3243 I-0.0444 J0.0241
X2.3063 Y-0.3445 I-0.0241 J-0.0444
X2.0644 Y-1.1499 I1.8011 J-0.98
X2.078 Y-1.166 I0.0148 J-0.0013
G1 X2.0928 Y-1.1673
X2.0957 Y-1.1675 Z-0.2447
X2.0985 Y-1.1678 Z-0.2439
X2.1011 Y-1.168 Z-0.2425
X2.1033 Y-1.1682 Z-0.2406
X2.1052 Y-1.1684 Z-0.2384
X2.1065 Y-1.1685 Z-0.2358
X2.1074 Z-0.233
X2.1077 Y-1.1686 Z-0.2301
G0 Z0.4
X3.5593 Y-1.0254
Z0.2
G1 Z0.1149 F13.333
Y-1.0255 Z0.1133 F40.
X3.5592 Y-1.0257 Z0.1118
G3 X3.559 Y-1.026 Z0.1103 I0.0088 J-0.0053
X3.5586 Y-1.0267 Z0.1084 I0.5485 J-0.2984
X3.5581 Y-1.0276 Z0.1067 I0.5488 J-0.2978
X3.5576 Y-1.0287 Z0.1051 I0.5493 J-0.2969
X3.5569 Y-1.0299 Z0.1037 I0.5499 J-0.2958
X3.5561 Y-1.0313 Z0.1024 I0.5506 J-0.2946
X3.5553 Y-1.0329 Z0.1015 I0.5513 J-0.2931
X3.5544 Y-1.0345 Z0.1007 I0.5521 J-0.2916
X3.5535 Y-1.0363 Z0.1002 I0.553 J-0.2899
X3.4831 Y-1.3328 Z0.0459 I0.5539 J-0.2882
X3.5036 Y-1.3325 Z0.0403 I0.0103 J0.0001
G2 X3.577 Y-1.0358 Z-0.0142 I0.6039 J0.008
G3 X3.5729 Y-1.0219 Z-0.0171 I-0.009 J0.0049
X3.559 Y-1.026 Z-0.0199 I-0.0049 J-0.009
X3.4831 Y-1.3328 Z-0.0762 I0.5485 J-0.2984
X3.5033 Y-1.3351 Z-0.0814 I0.0103 J0.0001
X3.5035 Y-1.3338 Z-0.0816 I-0.01 J0.0024
X3.5036 Y-1.3325 Z-0.0817 I-0.0102 J0.0012
G2 X3.577 Y-1.0358 I0.6039 J0.008 F30.
G3 X3.5729 Y-1.0219 I-0.009 J0.0049
X3.559 Y-1.026 I-0.0049 J-0.009
X3.4831 Y-1.3328 I0.5485 J-0.2984
X3.5036 Y-1.3325 I0.0103 J0.0001
G2 X3.577 Y-1.0358 Z-0.1361 I0.6039 J0.008 F40.
G3 X3.5729 Y-1.0219 Z-0.139 I-0.009 J0.0049
X3.559 Y-1.026 Z-0.1418 I-0.0049 J-0.009
X3.5115 Y-1.1382 Z-0.1633 I0.5485 J-0.2984
X3.4831 Y-1.3328 I0.596 J-0.1863 F30.
X3.5036 Y-1.3325 I0.0103 J0.0001
G2 X3.577 Y-1.0358 I0.6039 J0.008
G3 X3.5729 Y-1.0219 I-0.009 J0.0049
X3.559 Y-1.026 I-0.0049 J-0.009
X3.5115 Y-1.1382 I0.5485 J-0.2984
X3.4831 Y-1.3328 Z-0.1981 I0.596 J-0.1863 F40.
X3.5036 Y-1.3325 Z-0.2038 I0.0103 J0.0001
G2 X3.5451 Y-1.1042 Z-0.245 I0.6039 J0.008
X3.577 Y-1.0358 I0.5623 J-0.2203 F30.
G3 X3.5729 Y-1.0219 I-0.009 J0.0049
X3.559 Y-1.026 I-0.0049 J-0.009
X3.4831 Y-1.3328 I0.5485 J-0.2984
X3.5036 Y-1.3325 I0.0103 J0.0001
G2 X3.5451 Y-1.1042 I0.6039 J0.008
G3 X3.5455 Y-1.1032 Z-0.2449 I-0.0068 J0.0027
X3.5456 Y-1.1022 Z-0.2447 I-0.0071 J0.0017
Y-1.1012 Z-0.2443 I-0.0073 J0.0007
X3.5455 Y-1.1003 Z-0.2438 I-0.0073 J-0.0003
X3.5454 Y-1.0995 Z-0.2432 I-0.0072 J-0.0012
X3.5451 Y-1.0988 Z-0.2425 I-0.007 J-0.002
X3.5449 Y-1.0982 Z-0.2416 I-0.0068 J-0.0027
X3.5446 Y-1.0978 Z-0.2407 I-0.0065 J-0.0033
G1 X3.5444 Y-1.0975 Z-0.2397
X3.5443 Y-1.0973 Z-0.2387
Y-1.0972 Z-0.2377
G0 Z0.4
X3.8626 Y0.6966
Z0.2
G1 Z0.1151 F13.333
X3.8623 Z0.1122 F40.
X3.8615 Y0.6965 Z0.1094
X3.8601 Y0.6964 Z0.1068
X3.8583 Y0.6963 Z0.1046
X3.856 Y0.6961 Z0.1027
X3.8534 Y0.6959 Z0.1014
X3.8507 Y0.6957 Z0.1005
X3.8478 Y0.6955 Z0.1002
X3.8329 Y0.6944
G3 X3.8191 Y0.6784 I0.0011 J-0.0149
G2 X3.6895 Y-0.1787 Z-0.0539 I-1.9441 J-0.1444
G3 X3.7825 Y-0.218 Z-0.0814 I0.047 J-0.0185
X3.7831 Y-0.2169 Z-0.0816 I-0.046 J0.0208
X3.7835 Y-0.2157 Z-0.0817 I-0.0465 J0.0197
X3.9062 Y0.8147 I-1.9085 J0.7497 F30.
X3.8493 Y0.8578 I-0.05 J-0.0069
X3.8062 Y0.8008 I0.0069 J-0.05
G2 X3.6895 Y-0.1787 I-1.9312 J-0.2668
G3 X3.7181 Y-0.2442 I0.047 J-0.0185
X3.7835 Y-0.2157 I0.0185 J0.047
X3.903 Y0.2308 Z-0.1633 I-1.9085 J0.7497 F40.
X3.9062 Y0.8147 I-2.028 J0.3032 F30.
X3.8493 Y0.8578 I-0.05 J-0.0069
X3.8062 Y0.8008 I0.0069 J-0.05
G2 X3.6895 Y-0.1787 I-1.9312 J-0.2668
G3 X3.7181 Y-0.2442 I0.047 J-0.0185
X3.7835 Y-0.2157 I0.0185 J0.047
X3.903 Y0.2308 I-1.9085 J0.7497
X3.9193 Y0.6927 Z-0.245 I-2.028 J0.3032 F40.
X3.9062 Y0.8147 I-2.0443 J-0.1587 F30.
X3.8493 Y0.8578 I-0.05 J-0.0069
X3.8062 Y0.8008 I0.0069 J-0.05
G2 X3.6895 Y-0.1787 I-1.9312 J-0.2668
G3 X3.7181 Y-0.2442 I0.047 J-0.0185
X3.7835 Y-0.2157 I0.0185 J0.047
X3.9193 Y0.6927 I-1.9085 J0.7497
X3.9033 Y0.7064 I-0.0149 J-0.0012
G1 X3.8885 Y0.7053
X3.8856 Y0.705 Z-0.2447
X3.8828 Y0.7048 Z-0.2439
X3.8802 Y0.7046 Z-0.2425
X3.878 Y0.7044 Z-0.2406
X3.8761 Y0.7043 Z-0.2384
X3.8748 Y0.7042 Z-0.2358
X3.8739 Y0.7041 Z-0.233
X3.8736 Z-0.2301
G0 Z0.4
X2.4775 Y0.6265
Z0.2
G1 Z0.1149 F13.333
X2.4774 Y0.6264 Z0.1129 F40.
X2.4771 Y0.6261 Z0.111
G3 X2.4766 Y0.6257 Z0.1091 I0.0063 J-0.0081
X2.4759 Y0.6251 Z0.1074 I0.0068 J-0.0077
X2.4752 Y0.6243 Z0.1058 I0.0074 J-0.0071
X2.4745 Y0.6232 Z0.1043 I0.0082 J-0.0062
X2.4739 Y0.6219 Z0.103 I0.0089 J-0.0051
X2.4734 Y0.6203 Z0.1019 I0.0095 J-0.0038
X2.4731 Y0.6185 Z0.1011 I0.01 J-0.0022
X2.4732 Y0.6167 Z0.1005 I0.0102 J-0.0005
G2 X2.4734 Y0.6156 Z0.1002 I-0.5982 J-0.0827
X2.4371 Y0.3132 Z0.0459 I-0.5984 J-0.0816
G3 X2.4429 Y0.2999 Z0.0431 I0.0095 J-0.0037
X2.4562 Y0.3057 Z0.0403 I0.0037 J0.0095
X2.4935 Y0.6195 Z-0.0161 I-0.5812 J0.2283
X2.482 Y0.6282 Z-0.0189 I-0.0102 J-0.0014
X2.4732 Y0.6167 Z-0.0217 I0.0014 J-0.0102
G2 X2.4371 Y0.3132 Z-0.0762 I-0.5982 J-0.0827
G3 X2.455 Y0.3035 Z-0.0814 I0.0095 J-0.0037
X2.4556 Y0.3046 Z-0.0816 I-0.0083 J0.006
X2.4562 Y0.3057 Z-0.0817 I-0.009 J0.0049
X2.4935 Y0.6195 I-0.5812 J0.2283 F30.
X2.482 Y0.6282 I-0.0102 J-0.0014
X2.4732 Y0.6167 I0.0014 J-0.0102
G2 X2.4371 Y0.3132 I-0.5982 J-0.0827
G3 X2.4429 Y0.2999 I0.0095 J-0.0037
X2.4562 Y0.3057 I0.0037 J0.0095
X2.4935 Y0.6195 Z-0.138 I-0.5812 J0.2283 F40.
X2.482 Y0.6282 Z-0.1408 I-0.0102 J-0.0014
X2.4732 Y0.6167 Z-0.1437 I0.0014 J-0.0102
G2 X2.4782 Y0.5054 Z-0.1633 I-0.5982 J-0.0827
X2.4371 Y0.3132 I-0.6032 J0.0286 F30.
G3 X2.4429 Y0.2999 I0.0095 J-0.0037
X2.4562 Y0.3057 I0.0037 J0.0095
X2.4935 Y0.6195 I-0.5812 J0.2283
X2.482 Y0.6282 I-0.0102 J-0.0014
X2.4732 Y0.6167 I0.0014 J-0.0102
G2 X2.4782 Y0.5054 I-0.5982 J-0.0827
X2.4371 Y0.3132 Z-0.1981 I-0.6032 J0.0286 F40.
G3 X2.4429 Y0.2999 Z-0.201 I0.0095 J-0.0037
X2.4562 Y0.3057 Z-0.2038 I0.0037 J0.0095
X2.4994 Y0.5338 Z-0.245 I-0.5812 J0.2283
X2.4935 Y0.6195 I-0.6244 J0.0002 F30.
X2.482 Y0.6282 I-0.0102 J-0.0014
X2.4732 Y0.6167 I0.0014 J-0.0102
G2 X2.4371 Y0.3132 I-0.5982 J-0.0827
G3 X2.4429 Y0.2999 I0.0095 J-0.0037
X2.4562 Y0.3057 I0.0037 J0.0095
X2.4994 Y0.5338 I-0.5812 J0.2283
G1 Z-0.2301
G0 Z0.6
M9
G53 Z0.
M30
%
