%
(971-23-P-0141_OUTER PLATE_1537)
(T1  D=0.1537 CR=0. - ZMIN=-0.245 - FLAT END MILL)
G90 G94 G17 G91.1
G64 P0.001 Q0.001
G20
G53 G0 Z0.
(.3 CIRCLUAR THROUGH HOLE 2)
M9
T1 M6
S22000 M3
G4 P10.
G54
M7
G0 X-1.3644 Y-1.3875
G43 Z0.6 H1
G0 Z0.13
G1 Z0.0654 F40.
G19 G3 Y-1.3721 Z0.05 J0.0154 K0.
G1 Y-1.3644
G17 G3 X-1.375 Y-1.3539 I-0.0106 J0.
Y-1.3961 Z0.0327 I0. J-0.0211
Y-1.3539 Z0.0154 I0. J0.0211
Y-1.3961 Z-0.0018 I0. J-0.0211
Y-1.3539 Z-0.0191 I0. J0.0211
Y-1.3961 Z-0.0364 I0. J-0.0211
Y-1.3539 Z-0.0537 I0. J0.0211
Y-1.3961 Z-0.071 I0. J-0.0211
Y-1.3539 Z-0.0882 I0. J0.0211
Y-1.3961 Z-0.1055 I0. J-0.0211
Y-1.3539 Z-0.1228 I0. J0.0211
Y-1.3961 Z-0.1401 I0. J-0.0211
Y-1.3539 Z-0.1574 I0. J0.0211
Y-1.3961 Z-0.1746 I0. J-0.0211
Y-1.3539 Z-0.1919 I0. J0.0211
Y-1.3961 Z-0.2092 I0. J-0.0211
Y-1.3539 Z-0.2265 I0. J0.0211
X-1.396 Y-1.3774 Z-0.2357 I0. J-0.0211
X-1.3703 Y-1.3956 Z-0.245 I0.021 J0.0024
X-1.3797 Y-1.3544 I-0.0047 J0.0206
X-1.3703 Y-1.3956 I0.0047 J-0.0206
X-1.3623 Y-1.3829 I-0.0024 J0.0103
G1 X-1.364 Y-1.3755
X-1.3647 Y-1.3725 Z-0.2447
X-1.3654 Y-1.3697 Z-0.2438
X-1.366 Y-1.3671 Z-0.2424
X-1.3665 Y-1.3649 Z-0.2405
X-1.3669 Y-1.363 Z-0.2382
X-1.3672 Y-1.3616 Z-0.2355
X-1.3674 Y-1.3608 Z-0.2326
X-1.3675 Y-1.3605 Z-0.2296
G0 Z0.4
X-1.3856 Y1.3875
Z0.13
G1 Z0.0654 F40.
G19 G2 Y1.3721 Z0.05 J-0.0154 K0.
G1 Y1.3644
G17 G3 X-1.375 Y1.3539 I0.0106 J0.
Y1.3961 Z0.0327 I0. J0.0211
Y1.3539 Z0.0154 I0. J-0.0211
Y1.3961 Z-0.0018 I0. J0.0211
Y1.3539 Z-0.0191 I0. J-0.0211
Y1.3961 Z-0.0364 I0. J0.0211
Y1.3539 Z-0.0537 I0. J-0.0211
Y1.3961 Z-0.071 I0. J0.0211
Y1.3539 Z-0.0882 I0. J-0.0211
Y1.3961 Z-0.1055 I0. J0.0211
Y1.3539 Z-0.1228 I0. J-0.0211
Y1.3961 Z-0.1401 I0. J0.0211
Y1.3539 Z-0.1574 I0. J-0.0211
Y1.3961 Z-0.1746 I0. J0.0211
Y1.3538 Z-0.1919 I0. J-0.0211
Y1.3961 Z-0.2092 I0. J0.0211
Y1.3538 Z-0.2265 I0. J-0.0211
X-1.354 Y1.3774 Z-0.2357 I0. J0.0211
X-1.3797 Y1.3956 Z-0.245 I-0.021 J-0.0024
X-1.3703 Y1.3544 I0.0047 J-0.0206
X-1.3797 Y1.3956 I-0.0047 J0.0206
X-1.3877 Y1.3829 I0.0024 J-0.0103
G1 X-1.386 Y1.3755
X-1.3853 Y1.3725 Z-0.2447
X-1.3846 Y1.3697 Z-0.2438
X-1.384 Y1.3671 Z-0.2424
X-1.3835 Y1.3649 Z-0.2405
X-1.3831 Y1.363 Z-0.2382
X-1.3828 Y1.3616 Z-0.2355
X-1.3826 Y1.3608 Z-0.2326
X-1.3825 Y1.3605 Z-0.2296
G0 Z0.4
X-1.2626 Y2.41
Z0.13
G1 Z0.0654 F40.
G19 G2 Y2.3946 Z0.05 J-0.0154 K0.
G1 Y2.3869
G17 G3 X-1.252 Y2.3764 I0.0106 J0.
Y2.4187 Z0.0327 I0. J0.0211
Y2.3764 Z0.0154 I0. J-0.0211
Y2.4187 Z-0.0018 I0. J0.0211
Y2.3764 Z-0.0191 I0. J-0.0211
Y2.4187 Z-0.0364 I0. J0.0211
Y2.3764 Z-0.0537 I0. J-0.0211
Y2.4187 Z-0.071 I0. J0.0211
Y2.3764 Z-0.0882 I0. J-0.0211
Y2.4187 Z-0.1055 I0. J0.0211
Y2.3764 Z-0.1228 I0. J-0.0211
Y2.4187 Z-0.1401 I0. J0.0211
Y2.3764 Z-0.1574 I0. J-0.0211
Y2.4187 Z-0.1746 I0. J0.0211
Y2.3764 Z-0.1919 I0. J-0.0211
Y2.4187 Z-0.2092 I0. J0.0211
Y2.3764 Z-0.2265 I0. J-0.0211
X-1.231 Y2.3999 Z-0.2357 I0. J0.0211
X-1.2567 Y2.4181 Z-0.245 I-0.021 J-0.0024
X-1.2473 Y2.3769 I0.0047 J-0.0206
X-1.2567 Y2.4181 I-0.0047 J0.0206
X-1.2647 Y2.4054 I0.0024 J-0.0103
G1 X-1.263 Y2.398
X-1.2623 Y2.395 Z-0.2447
X-1.2617 Y2.3922 Z-0.2438
X-1.2611 Y2.3896 Z-0.2424
X-1.2605 Y2.3874 Z-0.2405
X-1.2601 Y2.3855 Z-0.2382
X-1.2598 Y2.3841 Z-0.2355
X-1.2596 Y2.3833 Z-0.2326
X-1.2595 Y2.383 Z-0.2296
G0 Z0.4
X-0.3449 Y2.0127
Z0.13
G1 Z0.0654 F40.
G19 G2 Y1.9973 Z0.05 J-0.0154 K0.
G1 Y1.9896
G17 G3 X-0.3343 Y1.9791 I0.0106 J0.
Y2.0214 Z0.0327 I0. J0.0212
Y1.9791 Z0.0154 I0. J-0.0212
Y2.0214 Z-0.0018 I0. J0.0212
Y1.9791 Z-0.0191 I0. J-0.0212
Y2.0214 Z-0.0364 I0. J0.0212
Y1.9791 Z-0.0537 I0. J-0.0212
Y2.0214 Z-0.071 I0. J0.0212
Y1.9791 Z-0.0882 I0. J-0.0212
Y2.0214 Z-0.1055 I0. J0.0212
Y1.9791 Z-0.1228 I0. J-0.0212
Y2.0214 Z-0.1401 I0. J0.0212
Y1.9791 Z-0.1574 I0. J-0.0212
Y2.0214 Z-0.1746 I0. J0.0211
Y1.9791 Z-0.1919 I0. J-0.0211
Y2.0214 Z-0.2092 I0. J0.0211
Y1.9791 Z-0.2265 I0. J-0.0211
X-0.3133 Y2.0026 Z-0.2357 I0. J0.0211
X-0.339 Y2.0208 Z-0.245 I-0.021 J-0.0024
X-0.3296 Y1.9796 I0.0047 J-0.0206
X-0.339 Y2.0208 I-0.0047 J0.0206
X-0.347 Y2.0082 I0.0024 J-0.0103
G1 X-0.3453 Y2.0007
X-0.3446 Y1.9977 Z-0.2447
X-0.344 Y1.9949 Z-0.2438
X-0.3434 Y1.9923 Z-0.2424
X-0.3428 Y1.9901 Z-0.2405
X-0.3424 Y1.9882 Z-0.2382
X-0.3421 Y1.9868 Z-0.2355
X-0.3419 Y1.986 Z-0.2326
X-0.3418 Y1.9857 Z-0.2296
G0 Z0.4
X0.4792 Y2.5838
Z0.13
G1 Z0.0654 F40.
G19 G3 Y2.5992 Z0.05 J0.0154 K0.
G1 Y2.6069
G17 G3 X0.4686 Y2.6175 I-0.0106 J0.
Y2.5752 Z0.0327 I0. J-0.0211
Y2.6175 Z0.0154 I0. J0.0211
Y2.5752 Z-0.0018 I0. J-0.0211
Y2.6175 Z-0.0191 I0. J0.0211
Y2.5752 Z-0.0364 I0. J-0.0211
Y2.6175 Z-0.0537 I0. J0.0211
Y2.5752 Z-0.071 I0. J-0.0212
Y2.6175 Z-0.0882 I0. J0.0212
Y2.5752 Z-0.1055 I0. J-0.0212
Y2.6175 Z-0.1228 I0. J0.0212
Y2.5752 Z-0.1401 I0. J-0.0212
Y2.6175 Z-0.1574 I0. J0.0212
Y2.5752 Z-0.1746 I0. J-0.0212
Y2.6175 Z-0.1919 I0. J0.0212
Y2.5752 Z-0.2092 I0. J-0.0212
Y2.6175 Z-0.2265 I0. J0.0212
X0.4476 Y2.5939 Z-0.2357 I0. J-0.0212
X0.4733 Y2.5757 Z-0.245 I0.021 J0.0024
X0.4639 Y2.6169 I-0.0047 J0.0206
X0.4733 Y2.5757 I0.0047 J-0.0206
X0.4813 Y2.5884 I-0.0024 J0.0103
G1 X0.4795 Y2.5959
X0.4789 Y2.5988 Z-0.2447
X0.4782 Y2.6016 Z-0.2438
X0.4776 Y2.6042 Z-0.2424
X0.4771 Y2.6065 Z-0.2405
X0.4767 Y2.6083 Z-0.2382
X0.4764 Y2.6097 Z-0.2355
X0.4762 Y2.6106 Z-0.2326
X0.4761 Y2.6108 Z-0.2296
G0 Z0.4
X0.3644 Y3.5772
Z0.13
G1 Z0.0654 F40.
G19 G3 Y3.5926 Z0.05 J0.0154 K0.
G1 Y3.6003
G17 G3 X0.3538 Y3.6109 I-0.0106 J0.
Y3.5686 Z0.0327 I0. J-0.0211
Y3.6109 Z0.0154 I0. J0.0211
Y3.5686 Z-0.0018 I0. J-0.0211
Y3.6109 Z-0.0191 I0. J0.0211
Y3.5686 Z-0.0364 I0. J-0.0211
Y3.6109 Z-0.0537 I0. J0.0211
Y3.5686 Z-0.071 I0. J-0.0212
Y3.6109 Z-0.0882 I0. J0.0212
Y3.5686 Z-0.1055 I0. J-0.0212
Y3.6109 Z-0.1228 I0. J0.0212
Y3.5686 Z-0.1401 I0. J-0.0212
Y3.6109 Z-0.1574 I0. J0.0212
Y3.5686 Z-0.1746 I0. J-0.0212
Y3.6109 Z-0.1919 I0. J0.0212
Y3.5686 Z-0.2092 I0. J-0.0212
Y3.6109 Z-0.2265 I0. J0.0212
X0.3328 Y3.5873 Z-0.2357 I0. J-0.0212
X0.3585 Y3.5691 Z-0.245 I0.021 J0.0024
X0.3491 Y3.6103 I-0.0047 J0.0206
X0.3585 Y3.5691 I0.0047 J-0.0206
X0.3665 Y3.5818 I-0.0024 J0.0103
G1 X0.3648 Y3.5892
X0.3641 Y3.5922 Z-0.2447
X0.3634 Y3.595 Z-0.2438
X0.3629 Y3.5976 Z-0.2424
X0.3623 Y3.5998 Z-0.2405
X0.3619 Y3.6017 Z-0.2382
X0.3616 Y3.6031 Z-0.2355
X0.3614 Y3.6039 Z-0.2326
X0.3613 Y3.6042 Z-0.2296
G0 Z0.4
X-0.5533 Y3.9745
Z0.13
G1 Z0.0654 F40.
G19 G3 Y3.9899 Z0.05 J0.0154 K0.
G1 Y3.9976
G17 G3 X-0.5639 Y4.0081 I-0.0106 J0.
Y3.9658 Z0.0327 I0. J-0.0211
Y4.0081 Z0.0154 I0. J0.0211
Y3.9658 Z-0.0018 I0. J-0.0211
Y4.0081 Z-0.0191 I0. J0.0211
Y3.9658 Z-0.0364 I0. J-0.0211
Y4.0081 Z-0.0537 I0. J0.0211
Y3.9658 Z-0.071 I0. J-0.0212
Y4.0081 Z-0.0882 I0. J0.0212
Y3.9658 Z-0.1055 I0. J-0.0212
Y4.0081 Z-0.1228 I0. J0.0212
Y3.9658 Z-0.1401 I0. J-0.0212
Y4.0081 Z-0.1574 I0. J0.0212
Y3.9658 Z-0.1746 I0. J-0.0212
Y4.0081 Z-0.1919 I0. J0.0212
Y3.9658 Z-0.2092 I0. J-0.0212
Y4.0081 Z-0.2265 I0. J0.0212
X-0.5849 Y3.9846 Z-0.2357 I0. J-0.0212
X-0.5592 Y3.9664 Z-0.245 I0.021 J0.0024
X-0.5686 Y4.0076 I-0.0047 J0.0206
X-0.5592 Y3.9664 I0.0047 J-0.0206
X-0.5512 Y3.979 I-0.0024 J0.0103
G1 X-0.5529 Y3.9865
X-0.5536 Y3.9895 Z-0.2447
X-0.5542 Y3.9923 Z-0.2438
X-0.5548 Y3.9949 Z-0.2424
X-0.5554 Y3.9971 Z-0.2405
X-0.5558 Y3.999 Z-0.2382
X-0.5561 Y4.0004 Z-0.2355
X-0.5563 Y4.0012 Z-0.2326
X-0.5564 Y4.0015 Z-0.2296
G0 Z0.4
X-1.3562 Y3.3784
Z0.13
G1 Z0.0654 F40.
G19 G3 Y3.3938 Z0.05 J0.0154 K0.
G1 Y3.4015
G17 G3 X-1.3668 Y3.412 I-0.0106 J0.
Y3.3697 Z0.0327 I0. J-0.0212
Y3.412 Z0.0154 I0. J0.0212
Y3.3697 Z-0.0018 I0. J-0.0212
Y3.412 Z-0.0191 I0. J0.0212
Y3.3697 Z-0.0364 I0. J-0.0212
Y3.412 Z-0.0537 I0. J0.0212
Y3.3697 Z-0.071 I0. J-0.0212
Y3.412 Z-0.0882 I0. J0.0212
Y3.3697 Z-0.1055 I0. J-0.0212
Y3.412 Z-0.1228 I0. J0.0212
Y3.3697 Z-0.1401 I0. J-0.0212
Y3.412 Z-0.1574 I0. J0.0211
Y3.3697 Z-0.1746 I0. J-0.0211
Y3.412 Z-0.1919 I0. J0.0211
Y3.3697 Z-0.2092 I0. J-0.0211
Y3.412 Z-0.2265 I0. J0.0211
X-1.3878 Y3.3885 Z-0.2357 I0. J-0.0211
X-1.3621 Y3.3703 Z-0.245 I0.021 J0.0024
X-1.3715 Y3.4115 I-0.0047 J0.0206
X-1.3621 Y3.3703 I0.0047 J-0.0206
X-1.3541 Y3.3829 I-0.0024 J0.0103
G1 X-1.3558 Y3.3904
X-1.3565 Y3.3934 Z-0.2447
X-1.3572 Y3.3962 Z-0.2438
X-1.3577 Y3.3988 Z-0.2424
X-1.3583 Y3.401 Z-0.2405
X-1.3587 Y3.4029 Z-0.2382
X-1.359 Y3.4043 Z-0.2355
X-1.3592 Y3.4051 Z-0.2326
X-1.3593 Y3.4054 Z-0.2296
G0 Z0.4
X-1.8303 Y3.5995
Z0.13
G1 Z0.0654 F40.
G19 G2 Y3.5841 Z0.05 J-0.0154 K0.
G1 Y3.5764
G17 G3 X-1.8198 Y3.5658 I0.0106 J0.
Y3.6081 Z0.0327 I0. J0.0212
Y3.5658 Z0.0154 I0. J-0.0212
Y3.6081 Z-0.0018 I0. J0.0212
Y3.5658 Z-0.0191 I0. J-0.0212
Y3.6081 Z-0.0364 I0. J0.0212
Y3.5658 Z-0.0537 I0. J-0.0212
Y3.6081 Z-0.071 I0. J0.0212
Y3.5658 Z-0.0882 I0. J-0.0212
Y3.6081 Z-0.1055 I0. J0.0212
Y3.5658 Z-0.1228 I0. J-0.0212
Y3.6081 Z-0.1401 I0. J0.0211
Y3.5658 Z-0.1574 I0. J-0.0211
Y3.6081 Z-0.1746 I0. J0.0211
Y3.5658 Z-0.1919 I0. J-0.0211
Y3.6081 Z-0.2092 I0. J0.0211
Y3.5658 Z-0.2265 I0. J-0.0211
X-1.7988 Y3.5894 Z-0.2357 I0. J0.0211
X-1.8245 Y3.6076 Z-0.245 I-0.021 J-0.0024
X-1.815 Y3.5664 I0.0047 J-0.0206
X-1.8245 Y3.6076 I-0.0047 J0.0206
X-1.8324 Y3.5949 I0.0024 J-0.0103
G1 X-1.8307 Y3.5875
X-1.8301 Y3.5845 Z-0.2447
X-1.8294 Y3.5817 Z-0.2438
X-1.8288 Y3.5791 Z-0.2424
X-1.8283 Y3.5769 Z-0.2405
X-1.8279 Y3.575 Z-0.2382
X-1.8276 Y3.5736 Z-0.2355
X-1.8274 Y3.5728 Z-0.2326
X-1.8273 Y3.5725 Z-0.2296
G0 Z0.4
X1.4809 Y5.5875
Z0.13
G1 Z0.0654 F40.
G19 G2 Y5.5722 Z0.05 J-0.0154 K0.
G1 Y5.5645
G17 G3 X1.4914 Y5.5539 I0.0106 J0.
Y5.5962 Z0.0327 I0. J0.0212
Y5.5539 Z0.0154 I0. J-0.0212
Y5.5962 Z-0.0018 I0. J0.0212
Y5.5539 Z-0.0191 I0. J-0.0212
Y5.5962 Z-0.0364 I0. J0.0212
Y5.5539 Z-0.0537 I0. J-0.0212
Y5.5962 Z-0.071 I0. J0.0211
Y5.5539 Z-0.0882 I0. J-0.0211
Y5.5962 Z-0.1055 I0. J0.0211
Y5.5539 Z-0.1228 I0. J-0.0211
Y5.5962 Z-0.1401 I0. J0.0211
Y5.5539 Z-0.1574 I0. J-0.0211
Y5.5962 Z-0.1746 I0. J0.0211
Y5.5539 Z-0.1919 I0. J-0.0211
Y5.5962 Z-0.2092 I0. J0.0211
Y5.5539 Z-0.2265 I0. J-0.0211
X1.5125 Y5.5774 Z-0.2357 I0. J0.0211
X1.4867 Y5.5957 Z-0.245 I-0.021 J-0.0024
X1.4962 Y5.5544 I0.0047 J-0.0206
X1.4867 Y5.5957 I-0.0047 J0.0206
X1.4788 Y5.583 I0.0024 J-0.0103
G1 X1.4805 Y5.5755
X1.4812 Y5.5726 Z-0.2447
X1.4818 Y5.5698 Z-0.2438
X1.4824 Y5.5672 Z-0.2424
X1.4829 Y5.5649 Z-0.2405
X1.4833 Y5.5631 Z-0.2382
X1.4837 Y5.5617 Z-0.2355
X1.4839 Y5.5608 Z-0.2326
Y5.5605 Z-0.2296
G0 Z0.4
X2.1081 Y3.2681
Z0.13
G1 Z0.0654 F40.
G19 G3 Y3.2835 Z0.05 J0.0154 K0.
G1 Y3.2911
G17 G3 X2.0975 Y3.3017 I-0.0106 J0.
Y3.2594 Z0.0327 I0. J-0.0212
Y3.3017 Z0.0154 I0. J0.0212
Y3.2594 Z-0.0018 I0. J-0.0212
Y3.3017 Z-0.0191 I0. J0.0212
Y3.2594 Z-0.0364 I0. J-0.0212
Y3.3017 Z-0.0537 I0. J0.0212
Y3.2594 Z-0.071 I0. J-0.0212
Y3.3017 Z-0.0882 I0. J0.0212
Y3.2594 Z-0.1055 I0. J-0.0212
Y3.3017 Z-0.1228 I0. J0.0212
Y3.2594 Z-0.1401 I0. J-0.0212
Y3.3017 Z-0.1574 I0. J0.0211
Y3.2594 Z-0.1746 I0. J-0.0211
Y3.3017 Z-0.1919 I0. J0.0211
Y3.2594 Z-0.2092 I0. J-0.0211
Y3.3017 Z-0.2265 I0. J0.0211
X2.0765 Y3.2782 Z-0.2357 I0. J-0.0211
X2.1022 Y3.2599 Z-0.245 I0.021 J0.0024
X2.0928 Y3.3012 I-0.0047 J0.0206
X2.1022 Y3.2599 I0.0047 J-0.0206
X2.1102 Y3.2726 I-0.0024 J0.0103
G1 X2.1084 Y3.2801
X2.1078 Y3.283 Z-0.2447
X2.1071 Y3.2858 Z-0.2438
X2.1065 Y3.2884 Z-0.2424
X2.106 Y3.2907 Z-0.2405
X2.1056 Y3.2926 Z-0.2382
X2.1053 Y3.294 Z-0.2355
X2.1051 Y3.2948 Z-0.2326
X2.105 Y3.2951 Z-0.2296
G0 Z0.4
X1.3644 Y1.3875
Z0.13
G1 Z0.0654 F40.
G19 G2 Y1.3721 Z0.05 J-0.0154 K0.
G1 Y1.3644
G17 G3 X1.375 Y1.3539 I0.0106 J0.
Y1.3961 Z0.0327 I0. J0.0211
Y1.3539 Z0.0154 I0. J-0.0211
Y1.3961 Z-0.0018 I0. J0.0211
Y1.3539 Z-0.0191 I0. J-0.0211
Y1.3961 Z-0.0364 I0. J0.0211
Y1.3539 Z-0.0537 I0. J-0.0211
Y1.3961 Z-0.071 I0. J0.0211
Y1.3539 Z-0.0882 I0. J-0.0211
Y1.3961 Z-0.1055 I0. J0.0211
Y1.3539 Z-0.1228 I0. J-0.0211
Y1.3961 Z-0.1401 I0. J0.0211
Y1.3539 Z-0.1574 I0. J-0.0211
Y1.3961 Z-0.1746 I0. J0.0211
Y1.3539 Z-0.1919 I0. J-0.0211
Y1.3961 Z-0.2092 I0. J0.0211
Y1.3539 Z-0.2265 I0. J-0.0211
X1.396 Y1.3774 Z-0.2357 I0. J0.0211
X1.3703 Y1.3956 Z-0.245 I-0.021 J-0.0024
X1.3797 Y1.3544 I0.0047 J-0.0206
X1.3703 Y1.3956 I-0.0047 J0.0206
X1.3623 Y1.3829 I0.0024 J-0.0103
G1 X1.364 Y1.3755
X1.3647 Y1.3725 Z-0.2447
X1.3654 Y1.3697 Z-0.2438
X1.366 Y1.3671 Z-0.2424
X1.3665 Y1.3649 Z-0.2405
X1.3669 Y1.363 Z-0.2382
X1.3672 Y1.3616 Z-0.2355
X1.3674 Y1.3608 Z-0.2326
X1.3675 Y1.3605 Z-0.2296
G0 Z0.4
X1.871 Y0.5378
Z0.1146
G1 Z0.05 F40.
Y0.5301
G3 X1.875 Y0.5261 I0.004 J0.
Y0.5419 Z0.0351 I0. J0.0079
Y0.5261 Z0.0201 I0. J-0.0079
Y0.5419 Z0.0052 I0. J0.0079
Y0.5261 Z-0.0098 I0. J-0.0079
Y0.5419 Z-0.0247 I0. J0.0079
Y0.5261 Z-0.0397 I0. J-0.0079
Y0.5419 Z-0.0546 I0. J0.0079
Y0.5261 Z-0.0695 I0. J-0.0079
Y0.5419 Z-0.0845 I0. J0.0079
Y0.5261 Z-0.0994 I0. J-0.0079
Y0.5419 Z-0.1144 I0. J0.0079
Y0.5261 Z-0.1293 I0. J-0.0079
Y0.5419 Z-0.1443 I0. J0.0079
Y0.5261 Z-0.1592 I0. J-0.0079
Y0.5419 Z-0.1742 I0. J0.0079
Y0.5261 Z-0.1891 I0. J-0.0079
Y0.5419 Z-0.204 I0. J0.0079
Y0.5261 Z-0.219 I0. J-0.0079
Y0.5419 Z-0.2339 I0. J0.0079
X1.8693 Y0.5286 Z-0.245 I0. J-0.0079
X1.8807 Y0.5394 I0.0057 J0.0054
X1.8693 Y0.5286 I-0.0057 J-0.0054
X1.8748 Y0.5284 I0.0029 J0.0027
G1 X1.8804 Y0.5337
G0 Z0.4
X1.3856 Y-1.3875
Z0.13
G1 Z0.0654 F40.
G19 G3 Y-1.3721 Z0.05 J0.0154 K0.
G1 Y-1.3644
G17 G3 X1.375 Y-1.3539 I-0.0106 J0.
Y-1.3961 Z0.0327 I0. J-0.0211
Y-1.3539 Z0.0154 I0. J0.0211
Y-1.3961 Z-0.0018 I0. J-0.0211
Y-1.3539 Z-0.0191 I0. J0.0211
Y-1.3961 Z-0.0364 I0. J-0.0211
Y-1.3539 Z-0.0537 I0. J0.0211
Y-1.3961 Z-0.071 I0. J-0.0211
Y-1.3539 Z-0.0882 I0. J0.0211
Y-1.3961 Z-0.1055 I0. J-0.0211
Y-1.3539 Z-0.1228 I0. J0.0211
Y-1.3961 Z-0.1401 I0. J-0.0211
Y-1.3539 Z-0.1574 I0. J0.0211
Y-1.3961 Z-0.1746 I0. J-0.0211
Y-1.3538 Z-0.1919 I0. J0.0211
Y-1.3961 Z-0.2092 I0. J-0.0211
Y-1.3538 Z-0.2265 I0. J0.0211
X1.354 Y-1.3774 Z-0.2357 I0. J-0.0211
X1.3797 Y-1.3956 Z-0.245 I0.021 J0.0024
X1.3703 Y-1.3544 I-0.0047 J0.0206
X1.3797 Y-1.3956 I0.0047 J-0.0206
X1.3877 Y-1.3829 I-0.0024 J0.0103
G1 X1.386 Y-1.3755
X1.3853 Y-1.3725 Z-0.2447
X1.3846 Y-1.3697 Z-0.2438
X1.384 Y-1.3671 Z-0.2424
X1.3835 Y-1.3649 Z-0.2405
X1.3831 Y-1.363 Z-0.2382
X1.3828 Y-1.3616 Z-0.2355
X1.3826 Y-1.3608 Z-0.2326
X1.3825 Y-1.3605 Z-0.2296
G0 Z0.4
X4.1035 Y-1.3207
Z0.1146
G1 Z0.05 F40.
Y-1.3284
G3 X4.1075 Y-1.3324 I0.004 J0.
Y-1.3166 Z0.0351 I0. J0.0079
Y-1.3324 Z0.0201 I0. J-0.0079
Y-1.3166 Z0.0052 I0. J0.0079
Y-1.3324 Z-0.0098 I0. J-0.0079
Y-1.3166 Z-0.0247 I0. J0.0079
Y-1.3324 Z-0.0397 I0. J-0.0079
Y-1.3166 Z-0.0546 I0. J0.0079
Y-1.3324 Z-0.0695 I0. J-0.0079
Y-1.3166 Z-0.0845 I0. J0.0079
Y-1.3324 Z-0.0994 I0. J-0.0079
Y-1.3166 Z-0.1144 I0. J0.0079
Y-1.3324 Z-0.1293 I0. J-0.0079
Y-1.3166 Z-0.1443 I0. J0.0079
Y-1.3324 Z-0.1592 I0. J-0.0079
Y-1.3166 Z-0.1742 I0. J0.0079
Y-1.3324 Z-0.1891 I0. J-0.0079
Y-1.3166 Z-0.204 I0. J0.0079
Y-1.3324 Z-0.219 I0. J-0.0079
Y-1.3166 Z-0.2339 I0. J0.0079
X4.1017 Y-1.3299 Z-0.245 I0. J-0.0079
X4.1132 Y-1.319 I0.0057 J0.0054
X4.1017 Y-1.3299 I-0.0057 J-0.0054
X4.1073 Y-1.3301 I0.0029 J0.0027
G1 X4.1129 Y-1.3248
G0 Z0.4
X5.8723 Y-1.0618
Z0.13
G1 Z0.0654 F40.
G19 G2 Y-1.0772 Z0.05 J-0.0154 K0.
G1 Y-1.0849
G17 G3 X5.8877 Y-1.1003 I0.0154 J0.
Y-1.0352 Z0.0307 I0. J0.0325
Y-1.1003 Z0.0114 I0. J-0.0325
Y-1.0352 Z-0.0079 I0. J0.0325
Y-1.1003 Z-0.0271 I0. J-0.0325
Y-1.0352 Z-0.0464 I0. J0.0325
Y-1.1003 Z-0.0657 I0. J-0.0325
Y-1.0352 Z-0.085 I0. J0.0325
Y-1.1003 Z-0.1043 I0. J-0.0325
Y-1.0352 Z-0.1236 I0. J0.0325
Y-1.1003 Z-0.1429 I0. J-0.0325
Y-1.0352 Z-0.1621 I0. J0.0325
Y-1.1003 Z-0.1814 I0. J-0.0325
Y-1.0352 Z-0.2007 I0. J0.0325
Y-1.1003 Z-0.22 I0. J-0.0325
Y-1.0352 Z-0.2393 I0. J0.0325
X5.8616 Y-1.0483 Z-0.245 I0. J-0.0325
X5.9138 Y-1.0872 I0.0261 J-0.0194
X5.8616 Y-1.0483 I-0.0261 J0.0194
X5.8648 Y-1.0698 I0.0123 J-0.0092
G1 X5.8709 Y-1.0744
X5.8733 Y-1.0762 Z-0.2447
X5.8756 Y-1.0779 Z-0.2438
X5.8778 Y-1.0795 Z-0.2424
X5.8796 Y-1.0809 Z-0.2405
X5.8812 Y-1.082 Z-0.2382
X5.8823 Y-1.0829 Z-0.2355
X5.883 Y-1.0834 Z-0.2326
X5.8833 Y-1.0836 Z-0.2296
G0 Z0.4
X7.5954 Y-0.4883
Z0.13
G1 Z0.0654 F40.
G19 G3 Y-0.4729 Z0.05 J0.0154 K0.
G1 Y-0.4652
G17 G3 X7.58 Y-0.4499 I-0.0154 J0.
Y-0.5149 Z0.0307 I0. J-0.0325
Y-0.4499 Z0.0114 I0. J0.0325
Y-0.5149 Z-0.0079 I0. J-0.0325
Y-0.4499 Z-0.0271 I0. J0.0325
Y-0.5149 Z-0.0464 I0. J-0.0325
Y-0.4499 Z-0.0657 I0. J0.0325
Y-0.5149 Z-0.085 I0. J-0.0325
Y-0.4499 Z-0.1043 I0. J0.0325
Y-0.5149 Z-0.1236 I0. J-0.0325
Y-0.4499 Z-0.1429 I0. J0.0325
Y-0.5149 Z-0.1621 I0. J-0.0325
Y-0.4499 Z-0.1814 I0. J0.0325
Y-0.5149 Z-0.2007 I0. J-0.0325
Y-0.4499 Z-0.22 I0. J0.0325
Y-0.5149 Z-0.2393 I0. J-0.0325
X7.6061 Y-0.5018 Z-0.245 I0. J0.0325
X7.5539 Y-0.463 I-0.0261 J0.0194
X7.6061 Y-0.5018 I0.0261 J-0.0194
X7.6029 Y-0.4803 I-0.0123 J0.0092
G1 X7.5968 Y-0.4757
X7.5944 Y-0.4739 Z-0.2447
X7.592 Y-0.4722 Z-0.2438
X7.5899 Y-0.4706 Z-0.2424
X7.588 Y-0.4692 Z-0.2405
X7.5865 Y-0.4681 Z-0.2382
X7.5854 Y-0.4672 Z-0.2355
X7.5847 Y-0.4667 Z-0.2326
X7.5844 Y-0.4665 Z-0.2296
G0 Z0.4
X6.8334 Y1.1581
Z0.13
G1 Z0.0654 F40.
G19 G2 Y1.1427 Z0.05 J-0.0154 K0.
G1 Y1.135
G17 G3 X6.8488 Y1.1197 I0.0154 J0.
Y1.1847 Z0.0307 I0. J0.0325
Y1.1197 Z0.0114 I0. J-0.0325
Y1.1847 Z-0.0079 I0. J0.0325
Y1.1197 Z-0.0271 I0. J-0.0325
Y1.1847 Z-0.0464 I0. J0.0325
Y1.1197 Z-0.0657 I0. J-0.0325
Y1.1847 Z-0.085 I0. J0.0325
Y1.1197 Z-0.1043 I0. J-0.0325
Y1.1847 Z-0.1236 I0. J0.0325
Y1.1197 Z-0.1429 I0. J-0.0325
Y1.1847 Z-0.1621 I0. J0.0325
Y1.1197 Z-0.1814 I0. J-0.0325
Y1.1847 Z-0.2007 I0. J0.0325
Y1.1197 Z-0.22 I0. J-0.0325
Y1.1847 Z-0.2393 I0. J0.0325
X6.8227 Y1.1716 Z-0.245 I0. J-0.0325
X6.8748 Y1.1328 I0.0261 J-0.0194
X6.8227 Y1.1716 I-0.0261 J0.0194
X6.8258 Y1.1501 I0.0123 J-0.0092
G1 X6.832 Y1.1455
X6.8344 Y1.1437 Z-0.2447
X6.8367 Y1.142 Z-0.2438
X6.8388 Y1.1404 Z-0.2424
X6.8407 Y1.139 Z-0.2405
X6.8422 Y1.1379 Z-0.2382
X6.8434 Y1.137 Z-0.2355
X6.8441 Y1.1365 Z-0.2326
X6.8443 Y1.1363 Z-0.2296
G0 Z0.6
(.3 CIRCULAR THROUGH HOLE)
M7
G0 X1.4268 Y4.3242
Z0.6
Z0.2
G1 Z0.1148 F13.333
G3 X1.4265 Y4.3256 Z0.1084 I-0.0445 J-0.0064 F55.
X1.4257 Y4.3295 Z0.1031 I-0.0443 J-0.0079
X1.4237 Y4.3351 Z0.1 I-0.0434 J-0.0118
X1.3407 Y4.3003 Z0.0621 I-0.0415 J-0.0174
X1.4237 Y4.3351 Z0.0242 I0.0415 J0.0174
X1.3407 Y4.3003 Z-0.0136 I-0.0415 J-0.0174
X1.4237 Y4.3351 Z-0.0515 I0.0415 J0.0174
X1.3407 Y4.3003 Z-0.0894 I-0.0415 J-0.0174
X1.4272 Y4.3177 Z-0.1225 I0.0415 J0.0174
X1.3279 I-0.0496 J0. F60.
X1.5272 I0.0997 J0.
X1.2279 I-0.1496 J0.
X1.6272 I0.1997 J0.
X1.1279 I-0.2497 J0.
X1.7272 I0.2997 J0.
X1.0279 I-0.3496 J0.
X1.7272 I0.3496 J0.
X1.7189 Y4.3254 I-0.0077 J0.
G1 X1.6538 Y4.3203
X1.3648 Y4.3411
X1.3528 Y4.3484
G3 X1.3488 Y4.3479 I-0.0017 J-0.0026
X1.4156 Y4.2876 Z-0.1604 I0.0334 J-0.0302 F55.
X1.3488 Y4.3479 Z-0.1983 I-0.0334 J0.0302
X1.4156 Y4.2876 Z-0.2361 I0.0334 J-0.0302
X1.4272 Y4.3177 Z-0.245 I-0.0334 J0.0302
X1.3279 I-0.0496 J0. F60.
X1.5272 I0.0997 J0.
X1.2279 I-0.1496 J0.
X1.6272 I0.1997 J0.
X1.1279 I-0.2497 J0.
X1.7272 I0.2997 J0.
X1.0279 I-0.3496 J0.
X1.7372 I0.3547 J0.
X1.0179 I-0.3596 J0.
X1.7372 I0.3596 J0.
X1.7361 Y4.3235 Z-0.2438 I-0.0154 J0.
X1.7335 Y4.3277 Z-0.2405 I-0.0143 J-0.0057
X1.7311 Y4.33 Z-0.2355 I-0.0117 J-0.01
X1.7302 Y4.3307 Z-0.2296 I-0.0093 J-0.0123
G0 Z0.4
X-0.4368 Y2.9872
Z0.2
G1 Z0.1148 F13.333
G3 X-0.4366 Y2.9857 Z0.1084 I0.0445 J0.0064 F55.
X-0.4357 Y2.9818 Z0.1031 I0.0443 J0.0079
X-0.4338 Y2.9762 Z0.1 I0.0434 J0.0118
X-0.3507 Y3.011 Z0.0621 I0.0415 J0.0174
X-0.4338 Y2.9762 Z0.0242 I-0.0415 J-0.0174
X-0.3507 Y3.011 Z-0.0136 I0.0415 J0.0174
X-0.4338 Y2.9762 Z-0.0515 I-0.0415 J-0.0174
X-0.3507 Y3.011 Z-0.0894 I0.0415 J0.0174
X-0.4373 Y2.9936 Z-0.1225 I-0.0415 J-0.0174
X-0.361 I0.0381 J0. F60.
X-0.5373 I-0.0881 J0.
X-0.261 I0.1381 J0.
X-0.6373 I-0.1881 J0.
X-0.161 I0.2381 J0.
X-0.7373 I-0.2881 J0.
X-0.161 I0.2881 J0.
X-0.1683 Y3.0013 I-0.0077 J0.
G1 X-0.3372 Y3.0083
G3 X-0.3444 Y3.0055 I-0.0013 J-0.0076
G1 X-0.3705 Y2.9734
G3 X-0.3589 Y2.9634 I0.006 J-0.0048
X-0.4256 Y3.0238 Z-0.1604 I-0.0334 J0.0302 F55.
X-0.3589 Y2.9634 Z-0.1983 I0.0334 J-0.0302
X-0.4256 Y3.0238 Z-0.2361 I-0.0334 J0.0302
X-0.4373 Y2.9936 Z-0.245 I0.0334 J-0.0302
X-0.361 I0.0381 J0. F60.
X-0.5373 I-0.0881 J0.
X-0.261 I0.1381 J0.
X-0.6373 I-0.1881 J0.
X-0.161 I0.2381 J0.
X-0.7373 I-0.2881 J0.
X-0.151 I0.2931 J0.
X-0.7473 I-0.2981 J0.
X-0.151 I0.2981 J0.
X-0.1521 Y2.9993 Z-0.2438 I-0.0154 J0.
X-0.1546 Y3.0036 Z-0.2405 I-0.0143 J-0.0057
X-0.1571 Y3.0059 Z-0.2355 I-0.0117 J-0.01
X-0.158 Y3.0065 Z-0.2296 I-0.0093 J-0.0123
G0 Z0.4
X6.4916 Y-0.0064
Z0.2
G1 Z0.1148 F13.333
G3 X6.4918 Y-0.0079 Z0.1084 I0.0445 J0.0064 F55.
X6.4927 Y-0.0118 Z0.1031 I0.0443 J0.0079
X6.4946 Y-0.0174 Z0.1 I0.0434 J0.0118
X6.5776 Y0.0174 Z0.0621 I0.0415 J0.0174
X6.4946 Y-0.0174 Z0.0242 I-0.0415 J-0.0174
X6.5776 Y0.0174 Z-0.0136 I0.0415 J0.0174
X6.4946 Y-0.0174 Z-0.0515 I-0.0415 J-0.0174
X6.5776 Y0.0174 Z-0.0894 I0.0415 J0.0174
X6.4911 Y0. Z-0.1225 I-0.0415 J-0.0174
X6.5404 I0.0246 J0. F60.
X6.3911 I-0.0746 J0.
X6.6404 I0.1246 J0.
X6.2911 I-0.1746 J0.
X6.7404 I0.2246 J0.
X6.1911 I-0.2746 J0.
X6.8404 I0.3246 J0.
X6.0911 I-0.3746 J0.
X6.9404 I0.4246 J0.
X5.9911 I-0.4746 J0.
X6.9404 I0.4746 J0.
X6.8954 Y0.045 Z-0.1398 I-0.045 J0. F55.
G1 X6.5361 Z-0.2277
G3 X6.4911 Y0. Z-0.245 I0. J-0.045
X6.5404 I0.0246 J0. F60.
X6.3911 I-0.0746 J0.
X6.6404 I0.1246 J0.
X6.2911 I-0.1746 J0.
X6.7404 I0.2246 J0.
X6.1911 I-0.2746 J0.
X6.8404 I0.3246 J0.
X6.0911 I-0.3746 J0.
X6.9404 I0.4246 J0.
X5.9911 I-0.4746 J0.
X6.9504 I0.4796 J0.
X5.9811 I-0.4846 J0.
X6.9504 I0.4846 J0.
X6.9493 Y0.0057 Z-0.2438 I-0.0154 J0.
X6.9467 Y0.01 Z-0.2405 I-0.0143 J-0.0057
X6.9443 Y0.0123 Z-0.2355 I-0.0117 J-0.01
X6.9433 Y0.0129 Z-0.2296 I-0.0093 J-0.0123
G0 Z0.6
(SHAPE THROUGH HOLE)
M7
G0 X0.0405 Y0.0608
Z0.6
Z0.1
G3 X-0.0405 Y-0.0607 Z0.0596 I-0.0405 J-0.0608 F50.
X0.0405 Y0.0608 Z0.0191 I0.0405 J0.0608
X-0.0405 Y-0.0607 Z-0.0213 I-0.0405 J-0.0608
X0.0405 Y0.0608 Z-0.0618 I0.0405 J0.0608
X-0.0405 Y-0.0607 Z-0.1022 I-0.0405 J-0.0608
X0.073 Y0. Z-0.13 I0.0405 J0.0608
X-0.073 I-0.073 J0.
X0.0728 Y-0.0059 I0.073 J0.
G1 X0.073 Y0.
G3 X-0.0833 Y0.123 I-0.0818 J0.0568 F60.
X0.0803 Y-0.139 I0.0818 J-0.131
X0.1487 Y-0.0442 I-0.0818 J0.131
X-0.1492 Y0.1881 I-0.1593 J0.1029
X-0.1194 Y-0.2191 I0.1303 J-0.1952
X0.2629 Y-0.0614 I0.1152 J0.2628
X0.0907 Y0.3146 I-0.267 J0.1051
X-0.1232 Y-0.3192 I-0.1065 J-0.3171
X0.3594 Y-0.0742 I0.1189 J0.3635
X0.1138 Y0.408 I-0.3636 J0.1185
X-0.4394 Y0.0343 I-0.136 J-0.3949
X0.4374 Y-0.1008 I0.4435 J-0.0341
X0.2359 Y0.4583 I-0.4144 J0.1665
X-0.2683 Y-0.4691 I-0.2521 J-0.4637
X0.039 Y-0.5303 I0.2521 J0.4637
X0.5557 Y0.1739 I-0.049 J0.5776
X-0.2119 Y0.5906 I-0.5656 J-0.1266
X0.1964 Y-0.6035 I0.2053 J-0.5966
X-0.0714 Y0.7232 I-0.2114 J0.6477
X-0.2462 Y-0.6915 I0.0646 J-0.7261
X0.5947 Y0.5252 I0.2406 J0.7326
X-0.8269 Y0.0099 I-0.6214 J-0.5042
X0.5937 Y-0.5826 I0.826 J-0.0189
X0.1301 Y0.9084 I-0.6039 J0.6298
G1 X-0.1183 Y0.9082
G3 X-0.907 Y0.2026 I0.084 J-0.8875
G1 X-0.9082 Y-0.1527
G3 X-0.2074 Y-0.9066 I0.8815 J0.1167
G1 X0.1631 Y-0.9082
G3 X0.9063 Y-0.2619 I-0.1431 J0.9151
G1 X0.9082 Y0.2924
G3 X0.4344 Y0.9062 I-0.815 J-0.1394
G1 X0.13 Y0.9082
G3 X0.117 Y0.9 I0.0005 J-0.0154
X0.1321 Y0.8339 I0.0457 J-0.0244
X0.4148 Y0.8872 I0.1165 J0.1587
G1 X0.4222 Y0.9 F50.
G2 X0.4353 Y0.9082 I0.0136 J-0.0072
G1 X0.5618 F60.
G2 X0.9065 Y0.5917 I-0.1982 J-0.5617
G1 X0.9082 Y0.2924
G2 X0.9 Y0.2794 I-0.0154 J0.0005
X0.828 Y0.2978 I-0.0259 J0.0487
X0.8872 Y0.5719 I0.1647 J0.1079
G1 X0.9 Y0.5794 F50.
G3 X0.9082 Y0.5924 I-0.0072 J0.0136
G1 Y0.6906 F60.
G3 X0.7681 Y0.9092 I-0.3324 J-0.0588
G1 X0.7494 Y0.9082
X0.5618
G3 X0.5488 Y0.9 I0.0005 J-0.0154
X0.5493 Y0.8859 I0.0125 J-0.0067
X0.7485 Y0.8873 I0.0991 J0.0642
X0.7555 Y0.9003 I-0.1001 J0.0627 F50.
G2 X0.7681 Y0.9092 I0.0139 J-0.0065
G1 X0.7729 Y0.9095 F60.
X0.7963 Y0.9117
X0.8198 Y0.9143
G2 X0.9287 Y0.8644 I0.0113 J-0.1192
G3 X0.9082 Y0.6906 I0.4238 J-0.1383
G2 X0.8782 Y0.6862 I-0.0154 J0.0005
G1 X0.8087 Y0.8904
X0.8075 Y0.8942 F50.
G2 X0.8198 Y0.9143 I0.0146 J0.005
G1 X0.8432 Y0.9208 F60.
X0.8667 Y0.9278
X0.8901 Y0.9362
G2 X0.9526 Y0.9215 I0.0261 J-0.0293
G1 X0.937 Y0.8919
X0.9312 Y0.878
X0.9267 Y0.8629
G2 X0.9152 Y0.8528 I-0.0146 J0.0049
X0.9033 Y0.8591 I-0.0021 J0.0104
X0.9249 Y0.9109 I0.0363 J0.0153
X0.9394 Y0.9138 I0.0147 J-0.0365 F50.
G3 X0.9526 Y0.9215 I-0.0001 J0.0154
G1 X0.9593 Y0.9341 F60.
X0.9618 Y0.9395
X0.9626 Y0.9455
X0.9623 Y0.9515
X0.961 Y0.9575
X0.9597 Y0.961
X0.9572 Y0.9649
X0.9532 Y0.9673
X0.9486 Y0.9676
X0.9443 Y0.9659
G3 X0.9306 Y0.9469 I0.0236 J-0.0315
X0.9331 Y0.9323 I0.0149 J-0.005
X0.9593 Y0.9341 I0.0125 J0.0097 F50.
G1 X0.9605 Y0.9364 F60.
X0.9682 Y0.9483
X0.9748 Y0.9565
X0.9783 Y0.9613
X0.9805 Y0.9669
X0.9813 Y0.9729
X0.9812 Y0.9742
X0.98 Y0.9784
X0.9771 Y0.9817
X0.973 Y0.9835
X0.9686 Y0.9834
X0.9647 Y0.9814
G3 X0.9554 Y0.9695 I0.0258 J-0.0298
X0.9543 Y0.9664 I0.0105 J-0.0054
X0.9748 Y0.9565 I0.0116 J-0.0023 F50.
G1 X0.9871 Y0.9717 F60.
X0.991 Y0.9771
X0.9943 Y0.9821
X0.9942 Y0.987
X0.9918 Y0.9914
X0.9876 Y0.994
X0.9827 Y0.9943
X0.9782 Y0.9923
X0.9761 Y0.9903
G3 X0.975 Y0.9891 I0.0071 J-0.0071
X0.991 Y0.9771 I0.0081 J-0.0058 F50.
G1 X1.0003 Y0.9897 F60.
X1.001 Y0.9906
X1.002 Y0.992
X1.0036 Y0.9945
X1.0031 Y0.9988
X1.0003 Y1.0022
X0.9961 Y1.0034
X0.9919 Y1.0022
G3 X0.9904 Y1.0007 I0.0037 J-0.0052 F50.
X1.002 Y0.992 I0.0059 J-0.0042
G1 X1.0043 Y0.9951 F60.
X1.0056 Y0.9972
X1.006 Y0.9979
X1.0064 Y1.
X1.006 Y1.0019
X1.0058 Y1.0026
X1.0046 Y1.0044
X1.0041 Y1.0048
X1.0027 Y1.0057
G3 X0.8901 Y0.9362 I0.1949 J-0.4414
G0 Z-0.0993
X0.8916 Y-0.2196
G1 Z-0.1146 F50.
X0.8917 Y-0.2198 Z-0.1176
X0.8922 Y-0.2206 Z-0.1205
X0.8929 Y-0.2218 Z-0.1232
X0.8939 Y-0.2234 Z-0.1255
X0.8951 Y-0.2254 Z-0.1274
X0.8964 Y-0.2277 Z-0.1288
X0.8979 Y-0.2302 Z-0.1297
X0.8994 Y-0.2328 Z-0.13
G2 X0.9082 Y-0.2625 I-0.0536 J-0.0318
G1 Y-0.4338 F60.
G2 X0.5545 Y-0.8612 I-0.6607 J0.1866
X0.4841 Y-0.9082 I-0.0973 J0.0696
G1 X0.1631
G2 X0.1501 Y-0.9 I0.0005 J0.0154
X0.1565 Y-0.8551 I0.0339 J0.0181
X0.4636 Y-0.8872 I0.1408 J-0.1375
G1 X0.4711 Y-0.9 F50.
G3 X0.4841 Y-0.9082 I0.0136 J0.0072
G1 X0.6087 F60.
G3 X0.9075 Y-0.6699 I-0.1501 J0.4946
G1 X0.9082 Y-0.4338
G3 X0.9 Y-0.4208 I-0.0154 J-0.0005
X0.8387 Y-0.4379 I-0.0217 J-0.0407
X0.8873 Y-0.6497 I0.1354 J-0.0805
X0.9 Y-0.6573 I0.0868 J0.1314 F50.
G2 X0.9082 Y-0.6703 I-0.0072 J-0.0136
G1 Y-0.7383 F60.
X0.9083 Y-0.7512
G2 X0.8081 Y-0.913 I-0.2223 J0.0257
G3 X0.6087 Y-0.9082 I-0.1257 J-1.0588
G2 X0.6024 Y-0.879 I0.0005 J0.0154
G1 X0.8857 Y-0.7383
X0.8861 Y-0.7381 F50.
G2 X0.9083 Y-0.7512 I0.0068 J-0.0138
G3 X0.9213 Y-0.8449 I0.2815 J-0.0087 F60.
G2 X0.8928 Y-0.9376 I-0.0678 J-0.0299
G3 X0.8082 Y-0.9127 I-0.1549 J-0.3706
G1 X0.8052 Y-0.912
X0.8025 Y-0.9107
X0.8001 Y-0.9089
X0.798 Y-0.9067
X0.7965 Y-0.904
X0.7955 Y-0.9011
X0.7951 Y-0.8981
X0.7953 Y-0.895
X0.7961 Y-0.8921
X0.7976 Y-0.8893
G2 X0.8012 Y-0.8855 I0.0128 J-0.0085
X0.8554 Y-0.885 I0.0275 J-0.0369
X0.8785 Y-0.9109 I-0.0457 J-0.0641
X0.8856 Y-0.9283 I-0.0688 J-0.0382 F50.
G3 X0.8928 Y-0.9376 I0.0148 J0.0041
G1 X0.9047 Y-0.9438 F60.
G3 X0.958 Y-0.9281 I0.0195 J0.0319
G1 X0.9553 Y-0.9239
X0.9522 Y-0.9201
X0.9487 Y-0.9168
X0.9448 Y-0.9139
X0.9406 Y-0.9115
X0.9362 Y-0.9097
X0.9316 Y-0.9084
G3 X0.9075 Y-0.9095 I-0.0103 J-0.038
X0.8982 Y-0.917 I0.0066 J-0.0178
X0.9047 Y-0.9438 I0.0159 J-0.0103 F50.
G1 X0.937 Y-0.9608 F60.
X0.9421 Y-0.9644
X0.9472 Y-0.9676
X0.9528 Y-0.9696
X0.9587 Y-0.9706
X0.9647
X0.9664 Y-0.9703
X0.9712 Y-0.9681
X0.9743 Y-0.9639
X0.9748 Y-0.9587
X0.9727 Y-0.9539
G3 X0.9533 Y-0.9416 I-0.0298 J-0.0258
X0.9486 Y-0.9412 I-0.0034 J-0.0125
X0.9421 Y-0.9644 I0.0013 J-0.0128 F50.
G1 X0.9537 Y-0.9725 F60.
X0.9666 Y-0.983
X0.9715 Y-0.9865
X0.9772 Y-0.9881
X0.9788 Y-0.9882
X0.9833 Y-0.9873
X0.9869 Y-0.9845
X0.989 Y-0.9804
Y-0.9758
X0.987 Y-0.9716
G3 X0.9804 Y-0.9656 I-0.0298 J-0.0258
X0.9777 Y-0.9641 I-0.0066 J-0.009
X0.9666 Y-0.983 I-0.0039 J-0.0104 F50.
G1 X0.9828 Y-0.996 F60.
X0.9839 Y-0.9969
X0.9891 Y-1.
X0.9932 Y-0.9997
X0.9968 Y-0.9976
X0.9989 Y-0.9941
X0.9993 Y-0.99
X0.9977 Y-0.9862
X0.9963 Y-0.9845 F50.
G3 X0.9835 Y-0.9841 I-0.0066 J-0.0058
X0.9839 Y-0.9969 I0.0062 J-0.0062
G1 X0.9958 Y-1.0047 F60.
X0.9977 Y-1.0059
X1. Y-1.0064
X1.0025 Y-1.0059
X1.0041 Y-1.0048
G3 X0.9877 Y-0.9725 I-0.0179 J0.0112
G1 X0.9689 Y-0.9491
G2 X0.9213 Y-0.8449 I0.2561 J0.1799
G3 X0.8961 Y-0.8387 I-0.0146 J-0.0049
G1 X0.8939 Y-0.8408 Z-0.1297
X0.8918 Y-0.8428 Z-0.1288
X0.8899 Y-0.8446 Z-0.1274
X0.8882 Y-0.8463 Z-0.1255
X0.8868 Y-0.8476 Z-0.1232
X0.8858 Y-0.8486 Z-0.1205
X0.8852 Y-0.8492 Z-0.1176
X0.885 Y-0.8494 Z-0.1146
G0 Z-0.0993
X-0.1649 Y-0.8916
G1 Z-0.1146 F50.
X-0.1651 Y-0.8917 Z-0.1176
X-0.1659 Y-0.8922 Z-0.1205
X-0.1671 Y-0.8929 Z-0.1232
X-0.1687 Y-0.8939 Z-0.1255
X-0.1708 Y-0.8951 Z-0.1274
X-0.173 Y-0.8964 Z-0.1288
X-0.1755 Y-0.8979 Z-0.1297
X-0.1781 Y-0.8994 Z-0.13
G2 X-0.2078 Y-0.9082 I-0.0318 J0.0536
G1 X-0.4232 F60.
G2 X-0.9033 Y-0.4849 I0.2112 J0.7236
G1 X-0.908 Y-0.4851
X-0.9082 Y-0.4834
Y-0.1527
G2 X-0.9 Y-0.1397 I0.0154 J-0.0005
X-0.8704 Y-0.1423 I0.0128 J-0.0239
X-0.8872 Y-0.4629 I-0.1222 J-0.1543
G1 X-0.9 Y-0.4704 F50.
G3 X-0.9082 Y-0.4834 I0.0072 J-0.0136
G1 Y-0.5978 F60.
G3 X-0.6643 Y-0.9069 I0.4725 J0.1219
G1 X-0.4232 Y-0.9082
G3 X-0.4101 Y-0.9 I-0.0005 J0.0154
X-0.4238 Y-0.8443 I-0.038 J0.0203
X-0.6443 Y-0.8873 I-0.0891 J-0.1298
X-0.6519 Y-0.9 I0.1314 J-0.0868 F50.
G2 X-0.6649 Y-0.9082 I-0.0136 J0.0072
G1 X-0.7515 F60.
G2 X-0.9128 Y-0.807 I0.0318 J0.2298
G1 X-0.9084 Y-0.7617
X-0.9082 Y-0.7383
Y-0.5978
G2 X-0.8789 Y-0.5917 I0.0154 J-0.0005
G1 X-0.7384 Y-0.8857
X-0.7382 Y-0.8862 F50.
G2 X-0.7515 Y-0.9082 I-0.0139 J-0.0066
G3 X-0.8453 Y-0.9214 I0.0086 J-0.3994 F60.
G2 X-0.9376 Y-0.8925 I-0.0282 J0.0719
G3 X-0.9128 Y-0.807 I-0.2956 J0.1323
G2 X-0.9034 Y-0.7948 I0.0152 J-0.002
X-0.8604 Y-0.8418 I0.013 J-0.0313
X-0.9102 Y-0.8816 I-0.0698 J0.0364
X-0.9249 Y-0.8839 I-0.02 J0.0762 F50.
G3 X-0.9376 Y-0.8925 I0.001 J-0.0153
G1 X-0.9391 Y-0.8958 F60.
X-0.9444 Y-0.9058
X-0.9465 Y-0.9101
X-0.948 Y-0.9145
X-0.9489 Y-0.9192
X-0.9493 Y-0.9239
X-0.949 Y-0.9286
X-0.9482 Y-0.9333
X-0.9467 Y-0.9378
X-0.9447 Y-0.9421
X-0.9422 Y-0.9461
X-0.9391 Y-0.9497
X-0.9357 Y-0.9529
X-0.9318 Y-0.9556
X-0.9276 Y-0.9579
X-0.9235 Y-0.9552
X-0.9197 Y-0.952
X-0.9164 Y-0.9485
X-0.9136 Y-0.9446
X-0.9112 Y-0.9404
X-0.9094 Y-0.936
X-0.9081 Y-0.9314
G3 X-0.9084 Y-0.91 I-0.038 J0.0102
X-0.9175 Y-0.8985 I-0.0189 J-0.0056
X-0.9444 Y-0.9058 I-0.0098 J-0.0171 F50.
G1 X-0.9548 Y-0.9257 F60.
X-0.9626 Y-0.94
X-0.9645 Y-0.9428
X-0.9676 Y-0.9479
X-0.9695 Y-0.9536
X-0.9703 Y-0.9595
X-0.9702 Y-0.9649
X-0.9691 Y-0.9693
X-0.9662 Y-0.9727
X-0.9622 Y-0.9746
X-0.9577 Y-0.9745
X-0.9537 Y-0.9725
G3 X-0.9411 Y-0.9557 I-0.0241 J0.0311
X-0.9405 Y-0.9481 I-0.0125 J0.0049
X-0.9645 Y-0.9428 I-0.0132 J-0.0027 F50.
G1 X-0.9689 Y-0.9491 F60.
X-0.9822 Y-0.9656
X-0.9857 Y-0.9705
X-0.9876 Y-0.9762
X-0.9877 Y-0.9779
X-0.987 Y-0.9826
X-0.9843 Y-0.9864
X-0.9801 Y-0.9886
X-0.9754 Y-0.9887
X-0.9712 Y-0.9866
G3 X-0.9646 Y-0.9793 I-0.0258 J0.0298
X-0.9632 Y-0.9767 I-0.0092 J0.0063
X-0.9822 Y-0.9656 I-0.0105 J0.0038 F50.
G1 X-0.9877 Y-0.9725 F60.
X-0.9954 Y-0.9831
X-0.9987 Y-0.9881
X-0.9986 Y-0.9924
X-0.9965 Y-0.9962
X-0.9929 Y-0.9985
X-0.9886 Y-0.9989
X-0.9846 Y-0.9973
X-0.9831 Y-0.9961
X-0.9823 Y-0.9954 F50.
G3 X-0.9822 Y-0.9821 I-0.0061 J0.0067
X-0.9954 Y-0.9831 I-0.0061 J-0.0066
G1 X-1.0041 Y-0.9949 F60.
X-1.0048 Y-0.996
X-1.0057 Y-0.9973
X-1.006 Y-0.9979
X-1.0063 Y-0.9999
Y-1.0005
X-1.0059 Y-1.0022
X-1.0057 Y-1.0028
X-1.0049 Y-1.004
X-1.0042 Y-1.0047
X-1.0024 Y-1.0059
G2 X-0.8453 Y-0.9214 I0.3408 J-0.4454
G3 X-0.8392 Y-0.8962 I-0.0049 J0.0146
G1 X-0.8412 Y-0.894 Z-0.1297
X-0.8432 Y-0.8919 Z-0.1288
X-0.8451 Y-0.89 Z-0.1274
X-0.8467 Y-0.8884 Z-0.1255
X-0.848 Y-0.887 Z-0.1232
X-0.849 Y-0.886 Z-0.1205
X-0.8496 Y-0.8853 Z-0.1176
X-0.8498 Y-0.8851 Z-0.1146
G0 Z-0.0993
X-0.8916 Y0.16
G1 Z-0.1146 F50.
X-0.8917 Y0.1602 Z-0.1176
X-0.8922 Y0.161 Z-0.1205
X-0.8929 Y0.1622 Z-0.1232
X-0.8939 Y0.1639 Z-0.1255
X-0.8951 Y0.1659 Z-0.1274
X-0.8964 Y0.1681 Z-0.1288
X-0.8979 Y0.1706 Z-0.1297
X-0.8994 Y0.1732 Z-0.13
G2 X-0.9082 Y0.2029 I0.0536 J0.0318
G1 Y0.4095 F60.
G2 X-0.5581 Y0.8532 I0.6461 J-0.1498
X-0.4733 Y0.9082 I0.1154 J-0.0852
G1 X-0.1183
G2 X-0.1053 Y0.9 I-0.0005 J-0.0154
X-0.1309 Y0.8082 I-0.0609 J-0.0325
X-0.4528 Y0.8871 I-0.1209 J0.2029
G1 X-0.4602 Y0.9 F50.
G3 X-0.4733 Y0.9082 I-0.0136 J-0.0072
G1 X-0.5873 F60.
G3 X-0.9067 Y0.6605 I0.1127 J-0.4751
G1 X-0.9082 Y0.4095
G3 X-0.9 Y0.3965 I0.0154 J0.0005
X-0.8569 Y0.4041 I0.0167 J0.0313
X-0.8873 Y0.6407 I-0.1172 J0.1052
X-0.9 Y0.6483 I-0.0868 J-0.1314 F50.
G2 X-0.9082 Y0.6613 I0.0072 J0.0136
G1 Y0.7375 F60.
X-0.9083 Y0.7503
G2 X-0.8029 Y0.9125 I0.2359 J-0.038
G3 X-0.5873 Y0.9082 I0.1311 J1.1592
G2 X-0.5814 Y0.8789 I-0.0005 J-0.0154
G1 X-0.8857 Y0.7374
X-0.8864 Y0.7371 F50.
G2 X-0.9083 Y0.7503 I-0.0065 J0.0139
G3 X-0.921 Y0.844 I-0.334 J0.0022 F60.
G2 X-0.8909 Y0.9366 I0.0737 J0.0272
G3 X-0.8029 Y0.9125 I0.1489 J0.3701
G2 X-0.7909 Y0.9028 I-0.0024 J-0.0152
X-0.8384 Y0.8593 I-0.0322 J-0.0125
X-0.8797 Y0.9093 I0.0347 J0.0707
X-0.8822 Y0.9239 I0.076 J0.0206 F50.
G3 X-0.8909 Y0.9366 I-0.0153 J-0.0012
G1 X-0.8922 Y0.9372 F60.
X-0.9038 Y0.9433
G3 X-0.9572 Y0.9265 I-0.019 J-0.033
G1 X-0.9545 Y0.9224
X-0.9514 Y0.9186
X-0.9478 Y0.9153
X-0.9439 Y0.9125
X-0.9396 Y0.9101
X-0.9352 Y0.9083
X-0.9306 Y0.9071
G3 X-0.9064 Y0.9085 I0.01 J0.0381
X-0.8969 Y0.9164 I-0.007 J0.018
X-0.9038 Y0.9433 I-0.0165 J0.0101 F50.
G1 X-0.9157 Y0.9495 F60.
X-0.9391 Y0.962
X-0.9414 Y0.9636
X-0.9464 Y0.9669
X-0.9521 Y0.9689
X-0.958 Y0.9698
X-0.964 Y0.9697
X-0.9658 Y0.9695
X-0.9705 Y0.9673
X-0.9736 Y0.963
X-0.9742 Y0.9578
X-0.972 Y0.953
G3 X-0.9528 Y0.9408 I0.0298 J0.0257
X-0.9479 Y0.9404 I0.0035 J0.0125
X-0.9414 Y0.9636 I-0.0014 J0.0129 F50.
G1 X-0.9526 Y0.9717 F60.
X-0.9658 Y0.9823
X-0.9706 Y0.9858
X-0.9764 Y0.9875
X-0.9782 Y0.9876
X-0.9827 Y0.9867
X-0.9864 Y0.9839
X-0.9885 Y0.9798
Y0.9752
X-0.9865 Y0.971
G3 X-0.9796 Y0.9647 I0.0298 J0.0258
X-0.9768 Y0.9632 I0.0065 J0.0091
X-0.9658 Y0.9823 I0.0037 J0.0106 F50.
G1 X-0.9817 Y0.9951 F60.
X-0.9867 Y0.9984
X-0.9911 Y0.9986
X-0.9951 Y0.9966
X-0.9976 Y0.9929
X-0.9981 Y0.9885
X-0.9964 Y0.9844
X-0.9952 Y0.983
X-0.9943 Y0.982 F50.
G3 X-0.9811 Y0.9819 I0.0067 J0.0062
X-0.9817 Y0.9951 I-0.0066 J0.0063
G1 X-0.986 Y0.9983 F60.
X-0.9951 Y1.0043
X-0.9965 Y1.0052
X-0.9972 Y1.0057
X-0.9984 Y1.0061
X-0.999 Y1.0062
X-1.0028 Y0.998 F50.
X-0.9952 Y1.0028
G3 X-0.9972 Y1.0057 I-0.005 J-0.0014
G1 X-0.9979 Y1.006 F60.
X-1. Y1.0064
X-1.0019 Y1.006
X-1.0025 Y1.0058
G3 X-0.9871 Y0.9717 I0.0146 J-0.0139
G1 X-0.9771 Y0.9593
G2 X-0.921 Y0.844 I-0.2698 J-0.2025
G3 X-0.91 Y0.834 I0.0146 J0.0049
G1 X-0.9082 Y0.8338 Z-0.1299
X-0.9065 Y0.8336 Z-0.1296
X-0.904 Y0.8341 Z-0.1287
X-0.9018 Y0.8346 Z-0.1275
X-0.8998 Y0.8351 Z-0.1259
X-0.8984 Y0.8361 Z-0.124
X-0.8973 Y0.8368 Z-0.1219
X-0.8965 Y0.8374 Z-0.1196
X-0.896 Y0.8378 Z-0.1171
X-0.8958 Y0.8379 Z-0.1146
G0 Z-0.03
X-0.0398 Y0.0612
G3 X0.0399 Y-0.0612 Z-0.0704 I0.0398 J-0.0612 F50.
X-0.0398 Y0.0612 Z-0.1109 I-0.0398 J0.0612
X0.0399 Y-0.0612 Z-0.1513 I0.0398 J-0.0612
X-0.0398 Y0.0612 Z-0.1918 I-0.0398 J0.0612
X0.0399 Y-0.0612 Z-0.2322 I0.0398 J-0.0612
X0.073 Y0. Z-0.245 I-0.0398 J0.0612
X-0.073 I-0.073 J0.
X0.0728 Y-0.0059 I0.073 J0.
G1 X0.073 Y0.
G3 X-0.0833 Y0.123 I-0.0818 J0.0568 F60.
X0.0803 Y-0.139 I0.0818 J-0.131
X0.1487 Y-0.0442 I-0.0818 J0.131
X-0.1492 Y0.1881 I-0.1593 J0.1029
X-0.1194 Y-0.2191 I0.1303 J-0.1952
X0.2629 Y-0.0614 I0.1152 J0.2628
X0.0907 Y0.3146 I-0.267 J0.1051
X-0.1232 Y-0.3192 I-0.1065 J-0.3171
X0.3594 Y-0.0742 I0.1189 J0.3635
X0.1138 Y0.408 I-0.3636 J0.1185
X-0.4394 Y0.0343 I-0.136 J-0.3949
X0.4374 Y-0.1008 I0.4435 J-0.0341
X0.2359 Y0.4583 I-0.4144 J0.1665
X-0.2683 Y-0.4691 I-0.2521 J-0.4637
X0.039 Y-0.5303 I0.2521 J0.4637
X0.5557 Y0.1739 I-0.049 J0.5776
X-0.2119 Y0.5906 I-0.5656 J-0.1266
X0.1964 Y-0.6035 I0.2053 J-0.5966
X-0.0714 Y0.7232 I-0.2114 J0.6477
X-0.2462 Y-0.6915 I0.0646 J-0.7261
X0.5947 Y0.5252 I0.2406 J0.7326
X-0.8269 Y0.0099 I-0.6214 J-0.5042
X0.5937 Y-0.5826 I0.826 J-0.0189
X0.1301 Y0.9084 I-0.6039 J0.6298
G1 X-0.1183 Y0.9082
G3 X-0.907 Y0.2026 I0.084 J-0.8875
G1 X-0.9082 Y-0.1527
G3 X-0.2074 Y-0.9066 I0.8815 J0.1167
G1 X0.1631 Y-0.9082
G3 X0.9063 Y-0.2619 I-0.1431 J0.9151
G1 X0.9082 Y0.2924
G3 X0.4344 Y0.9062 I-0.815 J-0.1394
G1 X0.13 Y0.9082
G3 X0.117 Y0.9 I0.0005 J-0.0154
X0.1321 Y0.8339 I0.0457 J-0.0244
X0.4148 Y0.8872 I0.1165 J0.1587
G1 X0.4222 Y0.9 F50.
G2 X0.4353 Y0.9082 I0.0136 J-0.0072
G1 X0.5618 F60.
G2 X0.9065 Y0.5917 I-0.1982 J-0.5617
G1 X0.9082 Y0.2924
G2 X0.9 Y0.2794 I-0.0154 J0.0005
X0.828 Y0.2978 I-0.0259 J0.0487
X0.8872 Y0.5719 I0.1647 J0.1079
G1 X0.9 Y0.5794 F50.
G3 X0.9082 Y0.5924 I-0.0072 J0.0136
G1 Y0.6906 F60.
G3 X0.7681 Y0.9092 I-0.3324 J-0.0588
G1 X0.7494 Y0.9082
X0.5618
G3 X0.5488 Y0.9 I0.0005 J-0.0154
X0.5493 Y0.8859 I0.0125 J-0.0067
X0.7485 Y0.8873 I0.0991 J0.0642
X0.7555 Y0.9003 I-0.1001 J0.0627 F50.
G2 X0.7681 Y0.9092 I0.0139 J-0.0065
G1 X0.7729 Y0.9095 F60.
X0.7963 Y0.9117
X0.8198 Y0.9143
G2 X0.9287 Y0.8644 I0.0113 J-0.1192
G3 X0.9082 Y0.6906 I0.4238 J-0.1383
G2 X0.8782 Y0.6862 I-0.0154 J0.0005
G1 X0.8087 Y0.8904
X0.8075 Y0.8942 F50.
G2 X0.8198 Y0.9143 I0.0146 J0.005
G1 X0.8432 Y0.9208 F60.
X0.8667 Y0.9278
X0.8901 Y0.9362
G2 X0.9526 Y0.9215 I0.0261 J-0.0293
G1 X0.937 Y0.8919
X0.9312 Y0.878
X0.9267 Y0.8629
G2 X0.9152 Y0.8528 I-0.0146 J0.0049
X0.9033 Y0.8591 I-0.0021 J0.0104
X0.9249 Y0.9109 I0.0363 J0.0153
X0.9394 Y0.9138 I0.0147 J-0.0365 F50.
G3 X0.9526 Y0.9215 I-0.0001 J0.0154
G1 X0.9593 Y0.9341 F60.
X0.9618 Y0.9395
X0.9626 Y0.9455
X0.9623 Y0.9515
X0.961 Y0.9575
X0.9597 Y0.961
X0.9572 Y0.9649
X0.9532 Y0.9673
X0.9486 Y0.9676
X0.9443 Y0.9659
G3 X0.9306 Y0.9469 I0.0236 J-0.0315
X0.9331 Y0.9323 I0.0149 J-0.005
X0.9593 Y0.9341 I0.0125 J0.0097 F50.
G1 X0.9605 Y0.9364 F60.
X0.9682 Y0.9483
X0.9748 Y0.9565
X0.9783 Y0.9613
X0.9805 Y0.9669
X0.9813 Y0.9729
X0.9812 Y0.9742
X0.98 Y0.9784
X0.9771 Y0.9817
X0.973 Y0.9835
X0.9686 Y0.9834
X0.9647 Y0.9814
G3 X0.9554 Y0.9695 I0.0258 J-0.0298
X0.9543 Y0.9664 I0.0105 J-0.0054
X0.9748 Y0.9565 I0.0116 J-0.0023 F50.
G1 X0.9871 Y0.9717 F60.
X0.991 Y0.9771
X0.9943 Y0.9821
X0.9942 Y0.987
X0.9918 Y0.9914
X0.9876 Y0.994
X0.9827 Y0.9943
X0.9782 Y0.9923
X0.9761 Y0.9903
G3 X0.975 Y0.9891 I0.0071 J-0.0071
X0.991 Y0.9771 I0.0081 J-0.0058 F50.
G1 X1.0003 Y0.9897 F60.
X1.001 Y0.9906
X1.002 Y0.992
X1.0036 Y0.9945
X1.0031 Y0.9988
X1.0003 Y1.0022
X0.9961 Y1.0034
X0.9919 Y1.0022
G3 X0.9904 Y1.0007 I0.0037 J-0.0052 F50.
X1.002 Y0.992 I0.0059 J-0.0042
G1 X1.0043 Y0.9951 F60.
X1.0056 Y0.9972
X1.006 Y0.9979
X1.0064 Y1.
X1.006 Y1.0019
X1.0058 Y1.0026
X1.0046 Y1.0044
X1.0041 Y1.0048
X1.0027 Y1.0057
G3 X0.8901 Y0.9362 I0.1949 J-0.4414
G0 Z-0.2143
X0.8916 Y-0.2196
G1 Z-0.2296 F50.
X0.8917 Y-0.2198 Z-0.2326
X0.8922 Y-0.2206 Z-0.2355
X0.8929 Y-0.2218 Z-0.2382
X0.8939 Y-0.2234 Z-0.2405
X0.8951 Y-0.2254 Z-0.2424
X0.8964 Y-0.2277 Z-0.2438
X0.8979 Y-0.2302 Z-0.2447
X0.8994 Y-0.2328 Z-0.245
G2 X0.9082 Y-0.2625 I-0.0536 J-0.0318
G1 Y-0.4338 F60.
G2 X0.5545 Y-0.8612 I-0.6607 J0.1866
X0.4841 Y-0.9082 I-0.0973 J0.0696
G1 X0.1631
G2 X0.1501 Y-0.9 I0.0005 J0.0154
X0.1565 Y-0.8551 I0.0339 J0.0181
X0.4636 Y-0.8872 I0.1408 J-0.1375
G1 X0.4711 Y-0.9 F50.
G3 X0.4841 Y-0.9082 I0.0136 J0.0072
G1 X0.6087 F60.
G3 X0.9075 Y-0.6699 I-0.1501 J0.4946
G1 X0.9082 Y-0.4338
G3 X0.9 Y-0.4208 I-0.0154 J-0.0005
X0.8387 Y-0.4379 I-0.0217 J-0.0407
X0.8873 Y-0.6497 I0.1354 J-0.0805
X0.9 Y-0.6573 I0.0868 J0.1314 F50.
G2 X0.9082 Y-0.6703 I-0.0072 J-0.0136
G1 Y-0.7383 F60.
X0.9083 Y-0.7512
G2 X0.8081 Y-0.913 I-0.2223 J0.0257
G3 X0.6087 Y-0.9082 I-0.1257 J-1.0588
G2 X0.6024 Y-0.879 I0.0005 J0.0154
G1 X0.8857 Y-0.7383
X0.8861 Y-0.7381 F50.
G2 X0.9083 Y-0.7512 I0.0068 J-0.0138
G3 X0.9213 Y-0.8449 I0.2815 J-0.0087 F60.
G2 X0.8928 Y-0.9376 I-0.0678 J-0.0299
G3 X0.8082 Y-0.9127 I-0.1549 J-0.3706
G1 X0.8052 Y-0.912
X0.8025 Y-0.9107
X0.8001 Y-0.9089
X0.798 Y-0.9067
X0.7965 Y-0.904
X0.7955 Y-0.9011
X0.7951 Y-0.8981
X0.7953 Y-0.895
X0.7961 Y-0.8921
X0.7976 Y-0.8893
G2 X0.8012 Y-0.8855 I0.0128 J-0.0085
X0.8554 Y-0.885 I0.0275 J-0.0369
X0.8785 Y-0.9109 I-0.0457 J-0.0641
X0.8856 Y-0.9283 I-0.0688 J-0.0382 F50.
G3 X0.8928 Y-0.9376 I0.0148 J0.0041
G1 X0.9047 Y-0.9438 F60.
G3 X0.958 Y-0.9281 I0.0195 J0.0319
G1 X0.9553 Y-0.9239
X0.9522 Y-0.9201
X0.9487 Y-0.9168
X0.9448 Y-0.9139
X0.9406 Y-0.9115
X0.9362 Y-0.9097
X0.9316 Y-0.9084
G3 X0.9075 Y-0.9095 I-0.0103 J-0.038
X0.8982 Y-0.917 I0.0066 J-0.0178
X0.9047 Y-0.9438 I0.0159 J-0.0103 F50.
G1 X0.937 Y-0.9608 F60.
X0.9421 Y-0.9644
X0.9472 Y-0.9676
X0.9528 Y-0.9696
X0.9587 Y-0.9706
X0.9647
X0.9664 Y-0.9703
X0.9712 Y-0.9681
X0.9743 Y-0.9639
X0.9748 Y-0.9587
X0.9727 Y-0.9539
G3 X0.9533 Y-0.9416 I-0.0298 J-0.0258
X0.9486 Y-0.9412 I-0.0034 J-0.0125
X0.9421 Y-0.9644 I0.0013 J-0.0128 F50.
G1 X0.9537 Y-0.9725 F60.
X0.9666 Y-0.983
X0.9715 Y-0.9865
X0.9772 Y-0.9881
X0.9788 Y-0.9882
X0.9833 Y-0.9873
X0.9869 Y-0.9845
X0.989 Y-0.9804
Y-0.9758
X0.987 Y-0.9716
G3 X0.9804 Y-0.9656 I-0.0298 J-0.0258
X0.9777 Y-0.9641 I-0.0066 J-0.009
X0.9666 Y-0.983 I-0.0039 J-0.0104 F50.
G1 X0.9828 Y-0.996 F60.
X0.9839 Y-0.9969
X0.9891 Y-1.
X0.9932 Y-0.9997
X0.9968 Y-0.9976
X0.9989 Y-0.9941
X0.9993 Y-0.99
X0.9977 Y-0.9862
X0.9963 Y-0.9845 F50.
G3 X0.9835 Y-0.9841 I-0.0066 J-0.0058
X0.9839 Y-0.9969 I0.0062 J-0.0062
G1 X0.9958 Y-1.0047 F60.
X0.9977 Y-1.0059
X1. Y-1.0064
X1.0025 Y-1.0059
X1.0041 Y-1.0048
G3 X0.9877 Y-0.9725 I-0.0179 J0.0112
G1 X0.9689 Y-0.9491
G2 X0.9213 Y-0.8449 I0.2561 J0.1799
G3 X0.8961 Y-0.8387 I-0.0146 J-0.0049
G1 X0.8939 Y-0.8408 Z-0.2447
X0.8918 Y-0.8428 Z-0.2438
X0.8899 Y-0.8446 Z-0.2424
X0.8882 Y-0.8463 Z-0.2405
X0.8868 Y-0.8476 Z-0.2382
X0.8858 Y-0.8486 Z-0.2355
X0.8852 Y-0.8492 Z-0.2326
X0.885 Y-0.8494 Z-0.2296
G0 Z-0.2143
X-0.1649 Y-0.8916
G1 Z-0.2296 F50.
X-0.1651 Y-0.8917 Z-0.2326
X-0.1659 Y-0.8922 Z-0.2355
X-0.1671 Y-0.8929 Z-0.2382
X-0.1687 Y-0.8939 Z-0.2405
X-0.1708 Y-0.8951 Z-0.2424
X-0.173 Y-0.8964 Z-0.2438
X-0.1755 Y-0.8979 Z-0.2447
X-0.1781 Y-0.8994 Z-0.245
G2 X-0.2078 Y-0.9082 I-0.0318 J0.0536
G1 X-0.4232 F60.
G2 X-0.9033 Y-0.4849 I0.2112 J0.7236
G1 X-0.908 Y-0.4851
X-0.9082 Y-0.4834
Y-0.1527
G2 X-0.9 Y-0.1397 I0.0154 J-0.0005
X-0.8704 Y-0.1423 I0.0128 J-0.0239
X-0.8872 Y-0.4629 I-0.1222 J-0.1543
G1 X-0.9 Y-0.4704 F50.
G3 X-0.9082 Y-0.4834 I0.0072 J-0.0136
G1 Y-0.5978 F60.
G3 X-0.6643 Y-0.9069 I0.4725 J0.1219
G1 X-0.4232 Y-0.9082
G3 X-0.4101 Y-0.9 I-0.0005 J0.0154
X-0.4238 Y-0.8443 I-0.038 J0.0203
X-0.6443 Y-0.8873 I-0.0891 J-0.1298
X-0.6519 Y-0.9 I0.1314 J-0.0868 F50.
G2 X-0.6649 Y-0.9082 I-0.0136 J0.0072
G1 X-0.7515 F60.
G2 X-0.9128 Y-0.807 I0.0318 J0.2298
G1 X-0.9084 Y-0.7617
X-0.9082 Y-0.7383
Y-0.5978
G2 X-0.8789 Y-0.5917 I0.0154 J-0.0005
G1 X-0.7384 Y-0.8857
X-0.7382 Y-0.8862 F50.
G2 X-0.7515 Y-0.9082 I-0.0139 J-0.0066
G3 X-0.8453 Y-0.9214 I0.0086 J-0.3994 F60.
G2 X-0.9376 Y-0.8925 I-0.0282 J0.0719
G3 X-0.9128 Y-0.807 I-0.2956 J0.1323
G2 X-0.9034 Y-0.7948 I0.0152 J-0.002
X-0.8604 Y-0.8418 I0.013 J-0.0313
X-0.9102 Y-0.8816 I-0.0698 J0.0364
X-0.9249 Y-0.8839 I-0.02 J0.0762 F50.
G3 X-0.9376 Y-0.8925 I0.001 J-0.0153
G1 X-0.9391 Y-0.8958 F60.
X-0.9444 Y-0.9058
X-0.9465 Y-0.9101
X-0.948 Y-0.9145
X-0.9489 Y-0.9192
X-0.9493 Y-0.9239
X-0.949 Y-0.9286
X-0.9482 Y-0.9333
X-0.9467 Y-0.9378
X-0.9447 Y-0.9421
X-0.9422 Y-0.9461
X-0.9391 Y-0.9497
X-0.9357 Y-0.9529
X-0.9318 Y-0.9556
X-0.9276 Y-0.9579
X-0.9235 Y-0.9552
X-0.9197 Y-0.952
X-0.9164 Y-0.9485
X-0.9136 Y-0.9446
X-0.9112 Y-0.9404
X-0.9094 Y-0.936
X-0.9081 Y-0.9314
G3 X-0.9084 Y-0.91 I-0.038 J0.0102
X-0.9175 Y-0.8985 I-0.0189 J-0.0056
X-0.9444 Y-0.9058 I-0.0098 J-0.0171 F50.
G1 X-0.9548 Y-0.9257 F60.
X-0.9626 Y-0.94
X-0.9645 Y-0.9428
X-0.9676 Y-0.9479
X-0.9695 Y-0.9536
X-0.9703 Y-0.9595
X-0.9702 Y-0.9649
X-0.9691 Y-0.9693
X-0.9662 Y-0.9727
X-0.9622 Y-0.9746
X-0.9577 Y-0.9745
X-0.9537 Y-0.9725
G3 X-0.9411 Y-0.9557 I-0.0241 J0.0311
X-0.9405 Y-0.9481 I-0.0125 J0.0049
X-0.9645 Y-0.9428 I-0.0132 J-0.0027 F50.
G1 X-0.9689 Y-0.9491 F60.
X-0.9822 Y-0.9656
X-0.9857 Y-0.9705
X-0.9876 Y-0.9762
X-0.9877 Y-0.9779
X-0.987 Y-0.9826
X-0.9843 Y-0.9864
X-0.9801 Y-0.9886
X-0.9754 Y-0.9887
X-0.9712 Y-0.9866
G3 X-0.9646 Y-0.9793 I-0.0258 J0.0298
X-0.9632 Y-0.9767 I-0.0092 J0.0063
X-0.9822 Y-0.9656 I-0.0105 J0.0038 F50.
G1 X-0.9877 Y-0.9725 F60.
X-0.9954 Y-0.9831
X-0.9987 Y-0.9881
X-0.9986 Y-0.9924
X-0.9965 Y-0.9962
X-0.9929 Y-0.9985
X-0.9886 Y-0.9989
X-0.9846 Y-0.9973
X-0.9831 Y-0.9961
X-0.9823 Y-0.9954 F50.
G3 X-0.9822 Y-0.9821 I-0.0061 J0.0067
X-0.9954 Y-0.9831 I-0.0061 J-0.0066
G1 X-1.0041 Y-0.9949 F60.
X-1.0048 Y-0.996
X-1.0057 Y-0.9973
X-1.006 Y-0.9979
X-1.0063 Y-0.9999
Y-1.0005
X-1.0059 Y-1.0022
X-1.0057 Y-1.0028
X-1.0049 Y-1.004
X-1.0042 Y-1.0047
X-1.0024 Y-1.0059
G2 X-0.8453 Y-0.9214 I0.3408 J-0.4454
G3 X-0.8392 Y-0.8962 I-0.0049 J0.0146
G1 X-0.8412 Y-0.894 Z-0.2447
X-0.8432 Y-0.8919 Z-0.2438
X-0.8451 Y-0.89 Z-0.2424
X-0.8467 Y-0.8884 Z-0.2405
X-0.848 Y-0.887 Z-0.2382
X-0.849 Y-0.886 Z-0.2355
X-0.8496 Y-0.8853 Z-0.2326
X-0.8498 Y-0.8851 Z-0.2296
G0 Z-0.2143
X-0.8916 Y0.16
G1 Z-0.2296 F50.
X-0.8917 Y0.1602 Z-0.2326
X-0.8922 Y0.161 Z-0.2355
X-0.8929 Y0.1622 Z-0.2382
X-0.8939 Y0.1639 Z-0.2405
X-0.8951 Y0.1659 Z-0.2424
X-0.8964 Y0.1681 Z-0.2438
X-0.8979 Y0.1706 Z-0.2447
X-0.8994 Y0.1732 Z-0.245
G2 X-0.9082 Y0.2029 I0.0536 J0.0318
G1 Y0.4095 F60.
G2 X-0.5581 Y0.8532 I0.6461 J-0.1498
X-0.4733 Y0.9082 I0.1154 J-0.0852
G1 X-0.1183
G2 X-0.1053 Y0.9 I-0.0005 J-0.0154
X-0.1309 Y0.8082 I-0.0609 J-0.0325
X-0.4528 Y0.8871 I-0.1209 J0.2029
G1 X-0.4602 Y0.9 F50.
G3 X-0.4733 Y0.9082 I-0.0136 J-0.0072
G1 X-0.5873 F60.
G3 X-0.9067 Y0.6605 I0.1127 J-0.4751
G1 X-0.9082 Y0.4095
G3 X-0.9 Y0.3965 I0.0154 J0.0005
X-0.8569 Y0.4041 I0.0167 J0.0313
X-0.8873 Y0.6407 I-0.1172 J0.1052
X-0.9 Y0.6483 I-0.0868 J-0.1314 F50.
G2 X-0.9082 Y0.6613 I0.0072 J0.0136
G1 Y0.7375 F60.
X-0.9083 Y0.7503
G2 X-0.8029 Y0.9125 I0.2359 J-0.038
G3 X-0.5873 Y0.9082 I0.1311 J1.1592
G2 X-0.5814 Y0.8789 I-0.0005 J-0.0154
G1 X-0.8857 Y0.7374
X-0.8864 Y0.7371 F50.
G2 X-0.9083 Y0.7503 I-0.0065 J0.0139
G3 X-0.921 Y0.844 I-0.334 J0.0022 F60.
G2 X-0.8909 Y0.9366 I0.0737 J0.0272
G3 X-0.8029 Y0.9125 I0.1489 J0.3701
G2 X-0.7909 Y0.9028 I-0.0024 J-0.0152
X-0.8384 Y0.8593 I-0.0322 J-0.0125
X-0.8797 Y0.9093 I0.0347 J0.0707
X-0.8822 Y0.9239 I0.076 J0.0206 F50.
G3 X-0.8909 Y0.9366 I-0.0153 J-0.0012
G1 X-0.8922 Y0.9372 F60.
X-0.9038 Y0.9433
G3 X-0.9572 Y0.9265 I-0.019 J-0.033
G1 X-0.9545 Y0.9224
X-0.9514 Y0.9186
X-0.9478 Y0.9153
X-0.9439 Y0.9125
X-0.9396 Y0.9101
X-0.9352 Y0.9083
X-0.9306 Y0.9071
G3 X-0.9064 Y0.9085 I0.01 J0.0381
X-0.8969 Y0.9164 I-0.007 J0.018
X-0.9038 Y0.9433 I-0.0165 J0.0101 F50.
G1 X-0.9157 Y0.9495 F60.
X-0.9391 Y0.962
X-0.9414 Y0.9636
X-0.9464 Y0.9669
X-0.9521 Y0.9689
X-0.958 Y0.9698
X-0.964 Y0.9697
X-0.9658 Y0.9695
X-0.9705 Y0.9673
X-0.9736 Y0.963
X-0.9742 Y0.9578
X-0.972 Y0.953
G3 X-0.9528 Y0.9408 I0.0298 J0.0257
X-0.9479 Y0.9404 I0.0035 J0.0125
X-0.9414 Y0.9636 I-0.0014 J0.0129 F50.
G1 X-0.9526 Y0.9717 F60.
X-0.9658 Y0.9823
X-0.9706 Y0.9858
X-0.9764 Y0.9875
X-0.9782 Y0.9876
X-0.9827 Y0.9867
X-0.9864 Y0.9839
X-0.9885 Y0.9798
Y0.9752
X-0.9865 Y0.971
G3 X-0.9796 Y0.9647 I0.0298 J0.0258
X-0.9768 Y0.9632 I0.0065 J0.0091
X-0.9658 Y0.9823 I0.0037 J0.0106 F50.
G1 X-0.9817 Y0.9951 F60.
X-0.9867 Y0.9984
X-0.9911 Y0.9986
X-0.9951 Y0.9966
X-0.9976 Y0.9929
X-0.9981 Y0.9885
X-0.9964 Y0.9844
X-0.9952 Y0.983
X-0.9943 Y0.982 F50.
G3 X-0.9811 Y0.9819 I0.0067 J0.0062
X-0.9817 Y0.9951 I-0.0066 J0.0063
G1 X-0.986 Y0.9983 F60.
X-0.9951 Y1.0043
X-0.9965 Y1.0052
X-0.9972 Y1.0057
X-0.9984 Y1.0061
X-0.999 Y1.0062
X-1.0028 Y0.998 F50.
X-0.9952 Y1.0028
G3 X-0.9972 Y1.0057 I-0.005 J-0.0014
G1 X-0.9979 Y1.006 F60.
X-1. Y1.0064
X-1.0019 Y1.006
X-1.0025 Y1.0058
G3 X-0.9871 Y0.9717 I0.0146 J-0.0139
G1 X-0.9771 Y0.9593
G2 X-0.921 Y0.844 I-0.2698 J-0.2025
G3 X-0.8958 Y0.8379 I0.0146 J0.0049
G1 X-0.8936 Y0.84 Z-0.2447
X-0.8916 Y0.842 Z-0.2438
X-0.8897 Y0.8438 Z-0.2424
X-0.888 Y0.8454 Z-0.2405
X-0.8866 Y0.8467 Z-0.2382
X-0.8856 Y0.8477 Z-0.2355
X-0.8849 Y0.8483 Z-0.2326
X-0.8847 Y0.8485 Z-0.2296
G0 Z0.6
(SHAPE THROUGH FINISHING PASS)
M7
G0 X0.8732 Y0.0154
Z0.6
Z0.2
G1 Z0.1 F13.333
Z-0.195
G19 G2 Y-0.0346 Z-0.245 J-0.05 K0. F40.
G1 Y-0.05
G17 G3 X0.9231 Y0. I0. J0.05
G1 Y0.7551
G2 X1.0165 Y0.9838 I0.3269 J0.
G3 X0.9838 Y1.0165 I-0.0165 J0.0162
G2 X0.7551 Y0.9231 I-0.2287 J0.2335
G1 X-0.7551
G2 X-0.9838 Y1.0165 I0. J0.3269
G3 X-1.0165 Y0.9838 I-0.0162 J-0.0165
G2 X-0.9231 Y0.7551 I-0.2335 J-0.2287
G1 Y-0.7551
G2 X-1.0165 Y-0.9838 I-0.3269 J0.
G3 X-0.9838 Y-1.0165 I0.0165 J-0.0162
G2 X-0.7551 Y-0.9231 I0.2287 J-0.2335
G1 X0.7551
G2 X0.9838 Y-1.0165 I0. J-0.3269
G3 X1.0165 Y-0.9838 I0.0162 J0.0165
G2 X0.9231 Y-0.7551 I0.2335 J0.2287
G1 Y0.
G3 X0.8732 Y0.05 I-0.05 J0.
G1 Y0.0346
G19 G2 Y-0.0154 Z-0.195 J0. K0.05
G0 Z0.6
G17
(2D SLOT CUT 2)
M7
G0 X2.8122 Y-1.8044
Z0.6
Z0.2
G1 Z0.1156 F13.333
X2.8121 Y-1.8041 Z0.1126 F40.
Y-1.8032 Z0.1097
X2.812 Y-1.8018 Z0.1071
X2.8119 Y-1.7999 Z0.1047
X2.8117 Y-1.7976 Z0.1028
X2.8115 Y-1.7949 Z0.1014
X2.8114 Y-1.7921 Z0.1005
X2.8112 Y-1.7891 Z0.1002
X2.8102 Y-1.7737
G3 X2.7938 Y-1.7594 I-0.0153 J-0.001
G1 X1.7657 Y-1.826 Z-0.0814
X1.763 Y-1.8262 Z-0.0817
G2 X1.7419 Y-1.8268 I-0.0211 J0.3262 F30.
G1 X-1.5
G2 X-1.8268 Y-1.5 I0. J0.3269
G1 Y1.7281
G3 X-1.8295 Y1.7582 I-0.1732 J0.
G1 X-2.1417 Y3.5303
G2 X-1.988 Y3.8672 I0.3219 J0.0567
G1 X1.3232 Y5.8553
G2 X1.7806 Y5.7273 I0.1683 J-0.2802
G1 X2.2742 Y4.7898
G2 X2.3904 Y4.35 I-0.8967 J-0.4721
G1 X2.4242 Y3.291
G2 X2.4229 Y3.2502 I-0.3267 J-0.0104
G3 X3.7479 Y1.6976 I1.417 J-0.1324
G1 X6.5639 Y1.5152
G2 Y-1.5152 I-0.0982 J-1.5152
G1 X1.763 Y-1.8262
G2 X1.7419 Y-1.8268 Z-0.0837 I-0.0211 J0.3262 F40.
G1 X0.9267 Z-0.1633
X-1.5 F30.
G2 X-1.8268 Y-1.5 I0. J0.3269
G1 Y1.7281
G3 X-1.8295 Y1.7582 I-0.1732 J0.
G1 X-2.1417 Y3.5303
G2 X-1.988 Y3.8672 I0.3219 J0.0567
G1 X1.3232 Y5.8553
G2 X1.7806 Y5.7273 I0.1683 J-0.2802
G1 X2.2742 Y4.7898
G2 X2.3904 Y4.35 I-0.8967 J-0.4721
G1 X2.4242 Y3.291
G2 X2.4229 Y3.2502 I-0.3267 J-0.0104
G3 X3.7479 Y1.6976 I1.417 J-0.1324
G1 X6.5639 Y1.5152
G2 Y-1.5152 I-0.0982 J-1.5152
G1 X1.763 Y-1.8262
G2 X1.7419 Y-1.8268 I-0.0211 J0.3262
G1 X0.9267
X0.0904 Z-0.245 F40.
X-0.4023 F30.
Z-0.165
X-1.156
Z-0.245 F13.333
X-1.5 F30.
G2 X-1.8268 Y-1.5 I0. J0.3269
G1 Y0.9311
Z-0.165
Y1.6848
Z-0.245 F13.333
Y1.7281 F30.
G3 X-1.8295 Y1.7582 I-0.1732 J0.
G1 X-2.1417 Y3.5303
G2 X-1.988 Y3.8672 I0.3219 J0.0567
G1 X1.3232 Y5.8553
G2 X1.7806 Y5.7273 I0.1683 J-0.2802
G1 X1.8892 Y5.5212
Z-0.165
X2.2403 Y4.8543
Z-0.245 F13.333
X2.2742 Y4.7898 F30.
G2 X2.3904 Y4.35 I-0.8967 J-0.4721
G1 X2.4242 Y3.291
G2 X2.4229 Y3.2502 I-0.3267 J-0.0104
G3 X3.7479 Y1.6976 I1.417 J-0.1324
G1 X4.7642 Y1.6318
Z-0.165
X5.5163 Y1.583
Z-0.245 F13.333
X6.5639 Y1.5152 F30.
G2 X7.8817 Y-0.5481 I-0.0982 J-1.5152
G1 Z-0.165
G2 X7.4437 Y-1.1615 I-1.416 J0.5481
G1 Z-0.245 F13.333
G2 X6.5639 Y-1.5152 I-0.9779 J1.1615 F30.
G1 X3.4893 Y-1.7143
Z-0.165
X2.7372 Y-1.7631
Z-0.245 F13.333
X1.763 Y-1.8262 F30.
G2 X1.7419 Y-1.8268 I-0.0211 J0.3262
G1 X0.0904
G3 X0.075 Y-1.8422 I0. J-0.0154
G1 Y-1.8576
G19 G2 Y-1.873 Z-0.2296 J0. K0.0154
G0 Z0.4
X2.1094 Y-1.3242
Z0.2
G1 Z0.1156 F13.333
X2.1097 Z0.1126 F40.
X2.1106 Z0.1097
X2.112 Z0.1071
X2.1139 Z0.1047
X2.1163 Y-1.3243 Z0.1028
X2.1189 Z0.1014
X2.1218 Z0.1005
X2.1248 Z0.1002
X2.1402 Y-1.3244
G17 G3 X2.1557 Y-1.3092 I0.0001 J0.0154
G2 X2.3929 Y-0.3916 Z-0.0686 I1.9518 J-0.0153
G3 X2.376 Y-0.3277 Z-0.0814 I-0.0423 J0.023
X2.3748 Y-0.327 Z-0.0816 I-0.0253 J-0.041
X2.3737 Y-0.3263 Z-0.0817 I-0.0242 J-0.0416
X2.3084 Y-0.3456 I-0.023 J-0.0423 F30.
X2.0595 Y-1.3517 I1.7991 J-0.9789
X2.1558 Y-1.3504 I0.0481 J0.0006
G2 X2.3929 Y-0.3916 I1.9517 J0.0259
G3 X2.3737 Y-0.3263 I-0.0423 J0.023
X2.3084 Y-0.3456 Z-0.095 I-0.023 J-0.0423 F40.
X2.1564 Y-0.7014 Z-0.1633 I1.7991 J-0.9789
X2.0595 Y-1.3517 I1.9511 J-0.623 F30.
X2.1558 Y-1.3504 I0.0481 J0.0006
G2 X2.3929 Y-0.3916 I1.9517 J0.0259
G3 X2.3737 Y-0.3263 I-0.0423 J0.023
X2.3084 Y-0.3456 I-0.023 J-0.0423
X2.1564 Y-0.7014 I1.7991 J-0.9789
X2.0663 Y-1.1548 Z-0.245 I1.9511 J-0.623 F40.
X2.0595 Y-1.3517 I2.0411 J-0.1697 F30.
X2.1558 Y-1.3504 I0.0481 J0.0006
G2 X2.3929 Y-0.3916 I1.9517 J0.0259
G3 X2.3737 Y-0.3263 I-0.0423 J0.023
X2.3084 Y-0.3456 I-0.023 J-0.0423
X2.0663 Y-1.1548 I1.7991 J-0.9789
X2.0804 Y-1.1714 I0.0153 J-0.0013
G1 X2.0957 Y-1.1726
X2.0987 Y-1.1729 Z-0.2447
X2.1016 Y-1.1731 Z-0.2438
X2.1042 Y-1.1733 Z-0.2424
X2.1065 Y-1.1735 Z-0.2405
X2.1084 Y-1.1737 Z-0.2382
X2.1099 Y-1.1738 Z-0.2355
X2.1107 Y-1.1739 Z-0.2326
X2.111 Z-0.2296
G0 Z0.4
X3.575 Y-1.0345
Z0.2
G1 Z0.1154 F13.333
X3.5751 Y-1.0344 Z0.1133 F40.
G3 X3.5753 Y-1.034 Z0.1112 I-0.0071 J0.0034
X3.5755 Y-1.0333 Z0.1093 I-0.0073 J0.003
X3.5757 Y-1.0324 Z0.1074 I-0.0075 J0.0024
X3.5759 Y-1.0312 Z0.1057 I-0.0078 J0.0014
X3.5758 Y-1.0298 Z0.1042 I-0.0079 J0.0003
X3.5754 Y-1.0282 Z0.1029 I-0.0078 J-0.0012
X3.5746 Y-1.0266 Z0.1018 I-0.0074 J-0.0027
X3.5734 Y-1.0252 Z0.1009 I-0.0066 J-0.0043
X3.5717 Y-1.024 Z0.1003 I-0.0054 J-0.0058
X3.5712 Y-1.0238 Z0.1002 I-0.0038 J-0.0069
X3.561 Y-1.0272 Z0.0981 I-0.0033 J-0.0072
X3.4854 Y-1.3327 Z0.042 I0.5464 J-0.2973
X3.5012 Y-1.3325 Z0.0377 I0.0079 J0.0001
G2 X3.5749 Y-1.0347 Z-0.017 I0.6062 J0.0081
G3 X3.5717 Y-1.024 Z-0.0192 I-0.0069 J0.0038
X3.561 Y-1.0272 Z-0.0214 I-0.0038 J-0.0069
X3.4854 Y-1.3327 Z-0.0775 I0.5464 J-0.2973
X3.5008 Y-1.3351 Z-0.0814 I0.0079 J0.0001
X3.5011 Y-1.3339 Z-0.0816 I-0.0075 J0.0025
X3.5012 Y-1.3325 Z-0.0817 I-0.0078 J0.0012
G2 X3.5749 Y-1.0347 I0.6062 J0.0081 F30.
G3 X3.5717 Y-1.024 I-0.0069 J0.0038
X3.561 Y-1.0272 I-0.0038 J-0.0069
X3.4854 Y-1.3327 I0.5464 J-0.2973
X3.5012 Y-1.3325 I0.0079 J0.0001
G2 X3.5749 Y-1.0347 Z-0.1364 I0.6062 J0.0081 F40.
G3 X3.5717 Y-1.024 Z-0.1385 I-0.0069 J0.0038
X3.561 Y-1.0272 Z-0.1407 I-0.0038 J-0.0069
X3.5118 Y-1.1453 Z-0.1633 I0.5464 J-0.2973
X3.4854 Y-1.3327 I0.5957 J-0.1792 F30.
X3.5012 Y-1.3325 I0.0079 J0.0001
G2 X3.5749 Y-1.0347 I0.6062 J0.0081
G3 X3.5717 Y-1.024 I-0.0069 J0.0038
X3.561 Y-1.0272 I-0.0038 J-0.0069
X3.5118 Y-1.1453 I0.5464 J-0.2973
X3.4854 Y-1.3327 Z-0.1968 I0.5957 J-0.1792 F40.
X3.5012 Y-1.3325 Z-0.2012 I0.0079 J0.0001
G2 X3.5482 Y-1.0905 Z-0.245 I0.6062 J0.0081
X3.5749 Y-1.0347 I0.5593 J-0.234 F30.
G3 X3.5717 Y-1.024 I-0.0069 J0.0038
X3.561 Y-1.0272 I-0.0038 J-0.0069
X3.4854 Y-1.3327 I0.5464 J-0.2973
X3.5012 Y-1.3325 I0.0079 J0.0001
G2 X3.5482 Y-1.0905 I0.6062 J0.0081
G3 X3.5485 Y-1.0895 Z-0.2449 I-0.007 J0.0029
X3.5487 Y-1.0884 Z-0.2447 I-0.0073 J0.0019
Y-1.0874 Z-0.2443 I-0.0075 J0.0009
Y-1.0865 Z-0.2438 I-0.0076 J-0.0001
X3.5485 Y-1.0856 Z-0.2432 I-0.0075 J-0.0011
X3.5483 Y-1.0849 Z-0.2424 I-0.0073 J-0.0019
X3.548 Y-1.0843 Z-0.2415 I-0.0071 J-0.0027
X3.5478 Y-1.0839 Z-0.2406 I-0.0068 J-0.0033
G1 X3.5476 Y-1.0835 Z-0.2396
X3.5474 Y-1.0833 Z-0.2385
Z-0.2374
G0 Z0.4
X3.8658 Y0.7039
Z0.2
G1 Z0.1156 F13.333
X3.8655 Z0.1126 F40.
X3.8646 Y0.7038 Z0.1097
X3.8632 Y0.7037 Z0.1071
X3.8613 Y0.7035 Z0.1047
X3.859 Y0.7034 Z0.1028
X3.8563 Y0.7032 Z0.1014
X3.8534 Y0.7029 Z0.1005
X3.8505 Y0.7027 Z0.1002
X3.8351 Y0.7015
G3 X3.821 Y0.685 I0.0012 J-0.0153
G2 X3.6917 Y-0.1796 Z-0.0552 I-1.946 J-0.151
G3 X3.7803 Y-0.2173 Z-0.0814 I0.0448 J-0.0176
X3.7808 Y-0.216 Z-0.0816 I-0.0438 J0.0201
X3.7814 Y-0.2148 Z-0.0817 I-0.0443 J0.0188
X3.9039 Y0.8143 I-1.9064 J0.7488 F30.
X3.8496 Y0.8555 I-0.0477 J-0.0066
X3.8085 Y0.8012 I0.0066 J-0.0477
G2 X3.6917 Y-0.1796 I-1.9335 J-0.2671
G3 X3.7189 Y-0.242 I0.0448 J-0.0176
X3.7814 Y-0.2148 I0.0176 J0.0448
X3.9007 Y0.2317 Z-0.1633 I-1.9064 J0.7488 F40.
X3.9039 Y0.8143 I-2.0257 J0.3023 F30.
X3.8496 Y0.8555 I-0.0477 J-0.0066
X3.8085 Y0.8012 I0.0066 J-0.0477
G2 X3.6917 Y-0.1796 I-1.9335 J-0.2671
G3 X3.7189 Y-0.242 I0.0448 J-0.0176
X3.7814 Y-0.2148 I0.0176 J0.0448
X3.9007 Y0.2317 I-1.9064 J0.7488
X3.9169 Y0.6936 Z-0.245 I-2.0257 J0.3023 F40.
X3.9039 Y0.8143 I-2.0419 J-0.1596 F30.
X3.8496 Y0.8555 I-0.0477 J-0.0066
X3.8085 Y0.8012 I0.0066 J-0.0477
G2 X3.6917 Y-0.1796 I-1.9335 J-0.2671
G3 X3.7189 Y-0.242 I0.0448 J-0.0176
X3.7814 Y-0.2148 I0.0176 J0.0448
X3.9169 Y0.6936 I-1.9064 J0.7488
X3.9004 Y0.7077 I-0.0153 J-0.0012
G1 X3.8851 Y0.7065
X3.8821 Y0.7063 Z-0.2447
X3.8792 Y0.706 Z-0.2438
X3.8766 Y0.7058 Z-0.2424
X3.8742 Y0.7057 Z-0.2405
X3.8723 Y0.7055 Z-0.2382
X3.8709 Y0.7054 Z-0.2355
X3.8701 Y0.7053 Z-0.2326
X3.8698 Z-0.2296
G0 Z0.4
X2.4922 Y0.6114
Z0.2
G1 Z0.1154 F13.333
Y0.6115 Z0.1133 F40.
G3 Y0.6119 Z0.1114 I-0.6172 J-0.0775
X2.4921 Y0.6126 Z0.1094 I-0.6172 J-0.0779
X2.492 Y0.6135 Z0.1076 I-0.6171 J-0.0786
X2.4918 Y0.6146 Z0.1059 I-0.617 J-0.0795
X2.4916 Y0.616 Z0.1044 I-0.6168 J-0.0806
X2.4914 Y0.6175 Z0.1031 I-0.6166 J-0.0819
X2.4912 Y0.6192 Z0.102 I-0.6164 J-0.0835
X2.4908 Y0.6207 Z0.1012 I-0.0078 J-0.0011
X2.4902 Y0.6222 Z0.1006 I-0.0075 J-0.0026
X2.4891 Y0.6235 Z0.1002 I-0.0068 J-0.0041
X2.4756 Y0.617 Z0.0967 I-0.0057 J-0.0054
G2 X2.4393 Y0.3124 Z0.042 I-0.6006 J-0.083
G3 X2.4438 Y0.3021 Z0.0398 I0.0074 J-0.0029
X2.454 Y0.3066 Z0.0377 I0.0029 J0.0074
X2.4912 Y0.6192 Z-0.0185 I-0.579 J0.2274
X2.4823 Y0.6259 Z-0.0206 I-0.0078 J-0.0011
X2.4756 Y0.617 Z-0.0228 I0.0011 J-0.0078
G2 X2.4393 Y0.3124 Z-0.0775 I-0.6006 J-0.083
G3 X2.4526 Y0.3043 Z-0.0814 I0.0074 J-0.0029
X2.4534 Y0.3054 Z-0.0816 I-0.006 J0.0052
X2.454 Y0.3066 Z-0.0817 I-0.0068 J0.0041
X2.4912 Y0.6192 I-0.579 J0.2274 F30.
X2.4823 Y0.6259 I-0.0078 J-0.0011
X2.4756 Y0.617 I0.0011 J-0.0078
G2 X2.4393 Y0.3124 I-0.6006 J-0.083
G3 X2.4438 Y0.3021 I0.0074 J-0.0029
X2.454 Y0.3066 I0.0029 J0.0074
X2.4912 Y0.6192 Z-0.1378 I-0.579 J0.2274 F40.
X2.4823 Y0.6259 Z-0.14 I-0.0078 J-0.0011
X2.4756 Y0.617 Z-0.1422 I0.0011 J-0.0078
G2 X2.4801 Y0.4972 Z-0.1633 I-0.6006 J-0.083
X2.4393 Y0.3124 I-0.6051 J0.0368 F30.
G3 X2.4438 Y0.3021 I0.0074 J-0.0029
X2.454 Y0.3066 I0.0029 J0.0074
X2.4912 Y0.6192 I-0.579 J0.2274
X2.4823 Y0.6259 I-0.0078 J-0.0011
X2.4756 Y0.617 I0.0011 J-0.0078
G2 X2.4801 Y0.4972 I-0.6006 J-0.083
X2.4393 Y0.3124 Z-0.1968 I-0.6051 J0.0368 F40.
G3 X2.4438 Y0.3021 Z-0.199 I0.0074 J-0.0029
X2.454 Y0.3066 Z-0.2012 I0.0029 J0.0074
X2.4969 Y0.5495 Z-0.245 I-0.579 J0.2274
X2.4912 Y0.6192 I-0.6219 J-0.0154 F30.
X2.4823 Y0.6259 I-0.0078 J-0.0011
X2.4756 Y0.617 I0.0011 J-0.0078
G2 X2.4393 Y0.3124 I-0.6006 J-0.083
G3 X2.4438 Y0.3021 I0.0074 J-0.0029
X2.454 Y0.3066 I0.0029 J0.0074
X2.4969 Y0.5495 I-0.579 J0.2274
G1 Z-0.2296
G0 Z0.6
M9
G53 Z0.
M30
%
