%
(971-23-P-0166_GEARED WRIST PLATE_1490)
(T1  D=0.149 CR=0. - ZMIN=-0.235 - FLAT END MILL)
G90 G94 G17 G91.1
G64 P0.001 Q0.001
G20
G53 G0 Z0.
(.3 CIRCLUAR THROUGH HOLE)
M9
T1 M6
S22000 M3
G4 P10.
G54
M7
G0 X-2.8085 Y2.3485
G43 Z0.6 H1
G0 Z0.1151
G1 Z0.05 F40.
Y2.356
G3 X-2.8137 Y2.3611 I-0.0051 J0.
Y2.3406 Z0. I0. J-0.0102
Y2.3611 Z-0.05 I0. J0.0103
X-2.8183 Y2.3417 Z-0.0925 I0. J-0.0103
X-2.809 Y2.36 Z-0.1425 I0.0047 J0.0091
X-2.8215 Y2.3575 Z-0.1637 I-0.0047 J-0.0091
X-2.8059 Y2.3442 Z-0.2138 I0.0078 J-0.0067
X-2.8054 Y2.3569 Z-0.235 I-0.0078 J0.0067
X-2.822 Y2.3448 I-0.0083 J-0.006
X-2.8054 Y2.3569 I0.0083 J0.006
X-2.8125 Y2.358 I-0.0041 J-0.003
G1 X-2.8186 Y2.3536
G0 Z0.4
X-2.1365 Y-0.2325
Z0.1151
G1 Z0.05 F40.
Y-0.225
G3 X-2.1416 Y-0.2199 I-0.0051 J0.
Y-0.2404 Z0. I0. J-0.0103
Y-0.2199 Z-0.05 I0. J0.0103
Y-0.2404 Z-0.1 I0. J-0.0103
Y-0.2199 Z-0.15 I0. J0.0103
Y-0.2404 Z-0.2 I0. J-0.0103
X-2.1333 Y-0.2241 Z-0.235 I0. J0.0103
X-2.1499 Y-0.2362 I-0.0083 J-0.006
X-2.1333 Y-0.2241 I0.0083 J0.006
X-2.1405 Y-0.223 I-0.0041 J-0.003
G1 X-2.1465 Y-0.2274
G0 Z0.4
X-4.5787 Y-1.3403
Z0.1151
G1 Z0.05 F40.
Y-1.3328
G3 X-4.5839 Y-1.3277 I-0.0051 J0.
Y-1.3482 Z0. I0. J-0.0102
Y-1.3277 Z-0.05 I0. J0.0103
Y-1.3482 Z-0.1 I0. J-0.0103
Y-1.3277 Z-0.15 I0. J0.0103
Y-1.3482 Z-0.2 I0. J-0.0103
X-4.5756 Y-1.3319 Z-0.235 I0. J0.0103
X-4.5922 Y-1.344 I-0.0083 J-0.006
X-4.5756 Y-1.3319 I0.0083 J0.006
X-4.5827 Y-1.3308 I-0.0041 J-0.003
G1 X-4.5888 Y-1.3352
G0 Z0.4
X-5.8963 Y-0.5722
Z0.1151
G1 Z0.05 F40.
Y-0.5796
G3 X-5.8912 Y-0.5848 I0.0051 J0.
Y-0.5643 Z0. I0. J0.0102
Y-0.5848 Z-0.05 I0. J-0.0103
Y-0.5643 Z-0.1 I0. J0.0103
Y-0.5848 Z-0.15 I0. J-0.0103
Y-0.5643 Z-0.2 I0. J0.0103
X-5.8995 Y-0.5805 Z-0.235 I0. J-0.0103
X-5.8829 Y-0.5685 I0.0083 J0.006
X-5.8995 Y-0.5805 I-0.0083 J-0.006
X-5.8924 Y-0.5817 I0.0041 J0.003
G1 X-5.8863 Y-0.5773
G0 Z0.4
X-7.0454 Y-0.5722
Z0.1151
G1 Z0.05 F40.
Y-0.5796
G3 X-7.0403 Y-0.5848 I0.0051 J0.
Y-0.5643 Z0. I0. J0.0102
Y-0.5848 Z-0.05 I0. J-0.0102
Y-0.5643 Z-0.1 I0. J0.0102
Y-0.5848 Z-0.15 I0. J-0.0102
Y-0.5643 Z-0.2 I0. J0.0102
X-7.0486 Y-0.5805 Z-0.235 I0. J-0.0102
X-7.032 Y-0.5685 I0.0083 J0.006
X-7.0486 Y-0.5805 I-0.0083 J-0.006
X-7.0414 Y-0.5817 I0.0041 J0.003
G1 X-7.0354 Y-0.5773
G0 Z0.4
X-7.2428 Y-1.5787
Z0.1151
G1 Z0.05 F40.
Y-1.5712
G3 X-7.2479 Y-1.5661 I-0.0051 J0.
Y-1.5866 Z0. I0. J-0.0103
Y-1.5661 Z-0.05 I0. J0.0103
Y-1.5866 Z-0.1 I0. J-0.0102
Y-1.5661 Z-0.15 I0. J0.0102
Y-1.5866 Z-0.2 I0. J-0.0102
X-7.2397 Y-1.5703 Z-0.235 I0. J0.0102
X-7.2562 Y-1.5824 I-0.0083 J-0.006
X-7.2397 Y-1.5703 I0.0083 J0.006
X-7.2468 Y-1.5692 I-0.0041 J-0.003
G1 X-7.2528 Y-1.5736
G0 Z0.4
X-7.9136 Y1.01
Z0.1151
G1 Z0.05 F40.
Y1.0025
G3 X-7.9084 Y0.9974 I0.0051 J0.
Y1.0179 Z0. I0. J0.0103
Y0.9974 Z-0.05 I0. J-0.0103
Y1.0179 Z-0.1 I0. J0.0103
Y0.9974 Z-0.15 I0. J-0.0103
Y1.0179 Z-0.2 I0. J0.0103
X-7.9167 Y1.0016 Z-0.235 I0. J-0.0103
X-7.9002 Y1.0137 I0.0083 J0.006
X-7.9167 Y1.0016 I-0.0083 J-0.006
X-7.9096 Y1.0005 I0.0041 J0.003
G1 X-7.9036 Y1.0049
G0 Z0.4
X-7.0454 Y0.5768
Z0.1151
G1 Z0.05 F40.
Y0.5694
G3 X-7.0403 Y0.5643 I0.0051 J0.
Y0.5848 Z0. I0. J0.0103
Y0.5643 Z-0.05 I0. J-0.0102
Y0.5848 Z-0.1 I0. J0.0102
Y0.5643 Z-0.15 I0. J-0.0102
Y0.5848 Z-0.2 I0. J0.0102
X-7.0486 Y0.5685 Z-0.235 I0. J-0.0102
X-7.032 Y0.5805 I0.0083 J0.006
X-7.0486 Y0.5685 I-0.0083 J-0.006
X-7.0414 Y0.5674 I0.0041 J0.003
G1 X-7.0354 Y0.5717
G0 Z0.4
X-5.8963 Y0.5768
Z0.1151
G1 Z0.05 F40.
Y0.5694
G3 X-5.8912 Y0.5643 I0.0051 J0.
Y0.5848 Z0. I0. J0.0103
Y0.5643 Z-0.05 I0. J-0.0103
Y0.5848 Z-0.1 I0. J0.0103
Y0.5643 Z-0.15 I0. J-0.0103
Y0.5848 Z-0.2 I0. J0.0103
X-5.8995 Y0.5685 Z-0.235 I0. J-0.0103
X-5.8829 Y0.5805 I0.0083 J0.006
X-5.8995 Y0.5685 I-0.0083 J-0.006
X-5.8924 Y0.5674 I0.0041 J0.003
G1 X-5.8863 Y0.5717
G0 Z0.4
X-5.32 Y1.5216
Z0.1151
G1 Z0.05 F40.
Y1.5291
G3 X-5.3252 Y1.5342 I-0.0051 J0.
Y1.5137 Z0. I0. J-0.0103
Y1.5342 Z-0.05 I0. J0.0103
Y1.5137 Z-0.1 I0. J-0.0103
Y1.5342 Z-0.15 I0. J0.0102
X-5.333 Y1.5306 Z-0.1637 I0. J-0.0102
X-5.3174 Y1.5173 Z-0.2137 I0.0078 J-0.0067
X-5.3169 Y1.53 Z-0.235 I-0.0078 J0.0067
X-5.3335 Y1.5179 I-0.0083 J-0.006
X-5.3169 Y1.53 I0.0083 J0.006
X-5.324 Y1.5311 I-0.0041 J-0.003
G1 X-5.3301 Y1.5267
G0 Z0.4
X-6.4211 Y3.6438
Z0.13
G1 Z0.0649 F40.
G19 G2 Y3.6289 Z0.05 J-0.0149 K0.
G1 Y3.6215
G17 G3 X-6.4062 Y3.6066 I0.0149 J0.
Y3.6763 Z0. I0. J0.0349
Y3.6066 Z-0.05 I0. J-0.0349
Y3.6763 Z-0.1 I0. J0.0349
Y3.6066 Z-0.15 I0. J-0.0349
Y3.6763 Z-0.2 I0. J0.0349
X-6.4344 Y3.621 Z-0.235 I0. J-0.0349
X-6.378 Y3.662 I0.0282 J0.0205
X-6.4344 Y3.621 I-0.0282 J-0.0205
X-6.4136 Y3.6177 I0.0121 J0.0088
G1 X-6.4076 Y3.622
X-6.4052 Y3.6238 Z-0.2347
X-6.403 Y3.6254 Z-0.2339
X-6.4009 Y3.6269 Z-0.2325
X-6.399 Y3.6282 Z-0.2306
X-6.3976 Y3.6293 Z-0.2284
X-6.3964 Y3.6301 Z-0.2258
X-6.3958 Y3.6306 Z-0.223
X-6.3955 Y3.6308 Z-0.2201
G0 Z0.4
X-5.4254 Y3.8979
Z0.13
G1 Z0.0649 F40.
G19 G3 Y3.9128 Z0.05 J0.0149 K0.
G1 Y3.9203
G17 G3 X-5.4403 Y3.9352 I-0.0149 J0.
Y3.8654 Z0. I0. J-0.0349
Y3.9352 Z-0.05 I0. J0.0349
Y3.8654 Z-0.1 I0. J-0.0349
Y3.9352 Z-0.15 I0. J0.0349
Y3.8654 Z-0.2 I0. J-0.0349
X-5.4121 Y3.9208 Z-0.235 I0. J0.0349
X-5.4685 Y3.8798 I-0.0282 J-0.0205
X-5.4121 Y3.9208 I0.0282 J0.0205
X-5.4329 Y3.9241 I-0.0121 J-0.0088
G1 X-5.4389 Y3.9197
X-5.4412 Y3.918 Z-0.2347
X-5.4435 Y3.9163 Z-0.2339
X-5.4456 Y3.9148 Z-0.2325
X-5.4474 Y3.9135 Z-0.2306
X-5.4489 Y3.9124 Z-0.2284
X-5.45 Y3.9116 Z-0.2258
X-5.4507 Y3.9111 Z-0.223
X-5.451 Y3.9109 Z-0.2201
G0 Z0.6
(.3 CIRCULAR THROUGH HOLE)
M7
G0 X-6.4357 Y-0.0241
Z0.6
Z0.2
G1 Z0.1144 F13.333
G3 X-6.435 Y-0.0253 Z0.1081 I0.038 J0.0241 F55.
X-6.4326 Y-0.0284 Z0.103 I0.0372 J0.0253
X-6.4287 Y-0.0326 Z0.1 I0.0349 J0.0284
X-6.3668 Y0.0326 Z0.0621 I0.031 J0.0326
X-6.4287 Y-0.0326 Z0.0242 I-0.031 J-0.0326
X-6.3668 Y0.0326 Z-0.0136 I0.031 J0.0326
X-6.4287 Y-0.0326 Z-0.0515 I-0.031 J-0.0326
X-6.3668 Y0.0326 Z-0.0894 I0.031 J0.0326
X-6.4427 Y0. Z-0.1175 I-0.031 J-0.0326
X-6.3887 I0.027 J0. F60.
X-6.5427 I-0.077 J0.
X-6.2887 I0.127 J0.
X-6.6427 I-0.177 J0.
X-6.1887 I0.227 J0.
X-6.7427 I-0.277 J0.
X-6.0887 I0.327 J0.
X-6.8427 I-0.377 J0.
X-5.9887 I0.427 J0.
X-6.9427 I-0.477 J0.
X-5.9887 I0.477 J0.
X-6.0337 Y0.045 Z-0.1339 I-0.045 J0. F55.
G1 X-6.3977 Z-0.2186
G3 X-6.4427 Y0. Z-0.235 I0. J-0.045
X-6.3887 I0.027 J0. F60.
X-6.5427 I-0.077 J0.
X-6.2887 I0.127 J0.
X-6.6427 I-0.177 J0.
X-6.1887 I0.227 J0.
X-6.7427 I-0.277 J0.
X-6.0887 I0.327 J0.
X-6.8427 I-0.377 J0.
X-5.9887 I0.427 J0.
X-6.9427 I-0.477 J0.
X-5.9787 I0.482 J0.
X-6.9527 I-0.487 J0.
X-5.9787 I0.487 J0.
X-5.9798 Y0.0056 Z-0.2339 I-0.0149 J0.
X-5.9823 Y0.0097 Z-0.2306 I-0.0138 J-0.0056
X-5.9847 Y0.0119 Z-0.2258 I-0.0113 J-0.0097
X-5.9856 Y0.0125 Z-0.2201 I-0.009 J-0.0119
G0 Z0.4
X-3.538 Y0.7523
Z0.2
G1 Z0.1144 F13.333
G3 X-3.5372 Y0.7512 Z0.1081 I0.038 J0.0241 F55.
X-3.5348 Y0.748 Z0.103 I0.0372 J0.0253
X-3.531 Y0.7438 Z0.1 I0.0349 J0.0284
X-3.469 Y0.8091 Z0.0621 I0.031 J0.0326
X-3.531 Y0.7438 Z0.0242 I-0.031 J-0.0326
X-3.469 Y0.8091 Z-0.0136 I0.031 J0.0326
X-3.531 Y0.7438 Z-0.0515 I-0.031 J-0.0326
X-3.469 Y0.8091 Z-0.0894 I0.031 J0.0326
X-3.545 Y0.7765 Z-0.1175 I-0.031 J-0.0326
X-3.491 I0.027 J0. F60.
X-3.645 I-0.077 J0.
X-3.391 I0.127 J0.
X-3.745 I-0.177 J0.
X-3.291 I0.227 J0.
X-3.845 I-0.277 J0.
X-3.191 I0.327 J0.
X-3.945 I-0.377 J0.
X-3.091 I0.427 J0.
X-4.045 I-0.477 J0.
X-3.091 I0.477 J0.
X-3.136 Y0.8215 Z-0.1339 I-0.045 J0. F55.
G1 X-3.5 Z-0.2186
G3 X-3.545 Y0.7765 Z-0.235 I0. J-0.045
X-3.491 I0.027 J0. F60.
X-3.645 I-0.077 J0.
X-3.391 I0.127 J0.
X-3.745 I-0.177 J0.
X-3.291 I0.227 J0.
X-3.845 I-0.277 J0.
X-3.191 I0.327 J0.
X-3.945 I-0.377 J0.
X-3.091 I0.427 J0.
X-4.045 I-0.477 J0.
X-3.081 I0.482 J0.
X-4.055 I-0.487 J0.
X-3.081 I0.487 J0.
X-3.0821 Y0.782 Z-0.2339 I-0.0149 J0.
X-3.0845 Y0.7861 Z-0.2306 I-0.0138 J-0.0056
X-3.0869 Y0.7883 Z-0.2258 I-0.0113 J-0.0097
X-3.0878 Y0.789 Z-0.2201 I-0.009 J-0.0119
G0 Z0.6
(SHAPE THROUGH HOLE)
M7
G0 X-6.0747 Y2.6936
Z0.6
Z0.1
G3 X-6.2102 Y2.6529 Z0.0608 I-0.0678 J-0.0204 F50.
X-6.0747 Y2.6936 Z0.0216 I0.0678 J0.0204
X-6.2102 Y2.6529 Z-0.0176 I-0.0678 J-0.0204
X-6.0747 Y2.6936 Z-0.0568 I0.0678 J0.0204
X-6.2102 Y2.6529 Z-0.096 I-0.0678 J-0.0204
X-6.0747 Y2.6936 Z-0.1352 I0.0678 J0.0204
X-6.2102 Y2.6529 Z-0.1744 I-0.0678 J-0.0204
X-6.0717 Y2.6732 Z-0.21 I0.0678 J0.0204
X-6.2132 I-0.0708 J0.
X-6.0717 I0.0708 J0.
X-6.0709 Y2.7863 I-0.0499 J0.0569 F60.
X-6.2348 Y2.7481 I-0.0198 J-0.2854
X-6.2194 Y2.5397 I0.0629 J-0.1001
G2 X-6.0662 Y2.6 I0.1536 J-0.1656
G3 X-5.9723 Y2.7917 I-0.0318 J0.1344
G1 X-6.0501 Y2.7875
X-6.0709 Y2.7863
G3 X-6.083 Y2.7777 I0.0014 J-0.0148
X-6.0568 Y2.7377 I0.0256 J-0.0118
X-5.9956 Y2.769 I-0.0016 J0.0787
X-5.9876 Y2.782 I-0.0629 J0.0474 F50.
G2 X-5.9753 Y2.7904 I0.0134 J-0.0065
G1 X-5.9577 Y2.7911 F60.
G2 X-5.9158 Y2.6068 I-0.0326 J-0.1043
G1 X-6.0039 Y2.6029
X-6.0501 Y2.601
X-6.0662 Y2.6
G2 X-6.0793 Y2.607 I-0.0005 J0.0149
X-6.051 Y2.6705 I0.0357 J0.0222
X-5.9368 Y2.6264 I0.0207 J-0.1163
X-5.9283 Y2.6137 I-0.0935 J-0.0722 F50.
G3 X-5.9153 Y2.6063 I0.0129 J0.0075
G1 X-5.8814 Y2.6076 F60.
X-5.8735 Y2.6106
X-5.8658 Y2.6142
X-5.8583 Y2.6183
X-5.8512 Y2.6229
X-5.8444 Y2.6281
X-5.8381 Y2.6337
X-5.8321 Y2.6398
X-5.8266 Y2.6462
X-5.8215 Y2.6531
X-5.817 Y2.6602
X-5.8129 Y2.6677
X-5.8095 Y2.6755
X-5.8065 Y2.6835
X-5.8042 Y2.6916
X-5.8024 Y2.7
X-5.8013 Y2.7084
X-5.8007 Y2.7169
X-5.8008 Y2.7254
X-5.8014 Y2.7338
X-5.8027 Y2.7422
X-5.8045 Y2.7505
X-5.807 Y2.7587
X-5.81 Y2.7666
X-5.8135 Y2.7743
X-5.8177 Y2.7818
X-5.8223 Y2.7889
X-5.8274 Y2.7957
X-5.8653 Y2.7945
X-5.9115 Y2.7928
X-5.9577 Y2.7911
G3 X-5.97 Y2.7827 I0.0011 J-0.0149
X-5.9678 Y2.7687 I0.0112 J-0.0054
X-5.8489 Y2.7741 I0.0571 J0.0542
X-5.8407 Y2.787 I-0.0618 J0.0488 F50.
G2 X-5.8282 Y2.7951 I0.0133 J-0.0068
G1 X-5.8191 Y2.7952 F60.
X-5.8014
X-5.7933 Y2.7924
X-5.7855 Y2.789
X-5.778 Y2.785
X-5.7708 Y2.7805
X-5.764 Y2.7754
X-5.7575 Y2.7699
X-5.7514 Y2.7639
X-5.7459 Y2.7575
X-5.7407 Y2.7507
X-5.7361 Y2.7436
X-5.7321 Y2.7361
X-5.7286 Y2.7284
X-5.7256 Y2.7204
X-5.7233 Y2.7122
X-5.7216 Y2.7039
X-5.7204 Y2.6954
X-5.7199 Y2.6869
X-5.7201 Y2.6784
X-5.7208 Y2.67
X-5.7222 Y2.6616
X-5.7241 Y2.6533
X-5.7267 Y2.6452
X-5.7299 Y2.6373
X-5.7336 Y2.6297
X-5.7379 Y2.6223
X-5.7427 Y2.6153
X-5.748 Y2.6086
G3 X-5.8814 Y2.6076 I-0.0467 J-2.5364
G1 X-5.8815
G2 X-5.8943 Y2.615 I0. J0.0149
X-5.8937 Y2.627 I0.0094 J0.0055
G1 X-5.8921 Y2.629
G2 X-5.7692 Y2.6296 I0.0616 J-0.049
X-5.7608 Y2.6168 I-0.0612 J-0.0496 F50.
G3 X-5.7482 Y2.6089 I0.0132 J0.007
G1 X-5.7198 Y2.6088 F60.
X-5.7119 Y2.6117
X-5.7044 Y2.6152
X-5.697 Y2.6192
X-5.69 Y2.6237
X-5.6834 Y2.6287
X-5.6771 Y2.6342
X-5.6712 Y2.6401
X-5.6657 Y2.6464
X-5.6607 Y2.653
X-5.6562 Y2.66
X-5.6522 Y2.6673
X-5.6487 Y2.6749
X-5.6458 Y2.6827
X-5.6434 Y2.6907
X-5.6416 Y2.6989
X-5.6404 Y2.7071
X-5.6397 Y2.7154
Y2.7238
X-5.6403 Y2.7321
X-5.6414 Y2.7404
X-5.6431 Y2.7485
X-5.6454 Y2.7565
X-5.6483 Y2.7644
X-5.6517 Y2.772
X-5.6557 Y2.7793
X-5.6601 Y2.7864
X-5.6651 Y2.7931
X-5.6705 Y2.7994
G2 X-5.8014 Y2.7952 I-0.0916 J0.8091
G3 X-5.814 Y2.7873 I0.0005 J-0.0149
X-5.7977 Y2.7313 I0.0369 J-0.0197
X-5.6853 Y2.772 I0.0388 J0.0685
X-5.6813 Y2.7868 I-0.0736 J0.0279 F50.
G2 X-5.6718 Y2.7982 I0.0147 J-0.0025
G1 X-5.6563 Y2.8034 F60.
G2 X-5.574 Y2.6293 I-0.0145 J-0.1133
X-5.7198 Y2.6088 I-0.0941 J0.1406
X-5.7323 Y2.6167 I0.0006 J0.0149
X-5.7226 Y2.642 I0.0159 J0.0084
X-5.6025 Y2.6366 I0.0535 J-0.1481
X-5.5889 Y2.6295 I-0.0666 J-0.1427 F50.
G3 X-5.574 Y2.6293 I0.0076 J0.0128
G1 X-5.542 Y2.6488 F60.
X-5.5304 Y2.6556
X-5.5241 Y2.6617
X-5.5182 Y2.6683
X-5.5128 Y2.6753
X-5.508 Y2.6827
X-5.5036 Y2.6904
X-5.4998 Y2.6983
X-5.4965 Y2.7066
X-5.4939 Y2.715
X-5.4918 Y2.7236
X-5.4904 Y2.7323
X-5.4895 Y2.7411
X-5.4893 Y2.7499
X-5.4897 Y2.7587
X-5.4907 Y2.7675
X-5.4923 Y2.7762
X-5.4946 Y2.7847
X-5.4974 Y2.7931
X-5.5008 Y2.8012
X-5.5048 Y2.8091
X-5.5093 Y2.8167
X-5.5143 Y2.824
X-5.5198 Y2.8309
X-5.5258 Y2.8374
X-5.5322 Y2.8434
X-5.5391 Y2.849
X-5.5463 Y2.8541
X-5.5539 Y2.8586
X-5.5882 Y2.8374
X-5.6344 Y2.8108
X-5.6563 Y2.8034
G3 X-5.6658 Y2.7919 I0.0052 J-0.014
X-5.6404 Y2.7618 I0.0254 J-0.0043
X-5.5626 Y2.8285 I0. J0.0787
X-5.5617 Y2.8438 I-0.0778 J0.0121 F50.
G2 X-5.5548 Y2.857 I0.0149 J0.0006
G1 X-5.542 Y2.8644 F60.
X-5.5335 Y2.8692
G2 X-5.4053 Y2.7275 I0.0144 J-0.1158
G3 X-5.5304 Y2.6556 I2.0891 J-3.7811
G2 X-5.5453 Y2.656 I-0.007 J0.0131
X-5.5447 Y2.7304 I0.0229 J0.037
X-5.4335 Y2.7357 I0.0605 J-0.1014
X-5.4201 Y2.7282 I-0.0506 J-0.1067 F50.
G3 X-5.4053 Y2.7275 I0.0081 J0.0125
G1 X-5.4034 Y2.7285 F60.
X-5.3795 Y2.7414
X-5.3739 Y2.7477
X-5.3687 Y2.7544
X-5.3639 Y2.7615
X-5.3598 Y2.7689
X-5.3561 Y2.7765
X-5.353 Y2.7845
X-5.3505 Y2.7926
X-5.3486 Y2.8008
X-5.3473 Y2.8092
X-5.3466 Y2.8177
Y2.8262
X-5.3471 Y2.8347
X-5.3482 Y2.8431
X-5.35 Y2.8514
X-5.3523 Y2.8596
X-5.3552 Y2.8675
X-5.3587 Y2.8753
X-5.3627 Y2.8828
X-5.3673 Y2.8899
X-5.3724 Y2.8967
X-5.3779 Y2.9032
X-5.3839 Y2.9092
X-5.3903 Y2.9147
X-5.3971 Y2.9198
X-5.4043 Y2.9244
X-5.4117 Y2.9285
X-5.4195 Y2.932
X-5.4958 Y2.8902
X-5.5335 Y2.8692
G3 X-5.5407 Y2.8561 I0.0077 J-0.0128
X-5.5315 Y2.8435 I0.0137 J0.0003
X-5.4285 Y2.9032 I0.0257 J0.0744
X-5.4271 Y2.9184 I-0.0773 J0.0147 F50.
G2 X-5.4197 Y2.9314 I0.0149 J0.0001
G1 X-5.4034 Y2.9402 F60.
X-5.3975 Y2.9432
X-5.3893 Y2.9446
X-5.3811 Y2.9453
X-5.3728 Y2.9455
X-5.3646 Y2.9451
X-5.3564 Y2.9441
X-5.3483 Y2.9425
X-5.3403 Y2.9404
X-5.3325 Y2.9376
X-5.3249 Y2.9344
X-5.3175 Y2.9306
X-5.3105 Y2.9263
X-5.3038 Y2.9215
X-5.2974 Y2.9162
X-5.2914 Y2.9105
X-5.2859 Y2.9043
X-5.2808 Y2.8978
X-5.2762 Y2.891
X-5.2721 Y2.8838
X-5.2685 Y2.8764
X-5.2654 Y2.8687
X-5.2629 Y2.8608
X-5.261 Y2.8528
X-5.2596 Y2.8447
X-5.2588 Y2.8364
X-5.2586 Y2.8282
X-5.259 Y2.8199
X-5.26 Y2.8117
X-5.2616 Y2.8036
X-5.3343 Y2.7655
X-5.3572 Y2.7534
X-5.3795 Y2.7414
G2 X-5.3944 Y2.7423 I-0.0066 J0.0134
X-5.3989 Y2.7527 I0.0058 J0.0087
G1 X-5.3983 Y2.756
G2 X-5.2901 Y2.8122 I0.0771 J-0.0162
X-5.2767 Y2.8048 I-0.0311 J-0.0723 F50.
G3 X-5.2619 Y2.8037 I0.0084 J0.0123
G1 X-5.2388 Y2.8157 F60.
X-5.233 Y2.8218
X-5.2276 Y2.8284
X-5.2227 Y2.8353
X-5.2184 Y2.8426
X-5.2146 Y2.8502
X-5.2113 Y2.858
X-5.2087 Y2.8661
X-5.2066 Y2.8743
X-5.2052 Y2.8827
X-5.2043 Y2.8911
X-5.2041 Y2.8996
X-5.2045 Y2.9081
X-5.2055 Y2.9165
X-5.2072 Y2.9248
X-5.2094 Y2.933
X-5.2122 Y2.941
X-5.2156 Y2.9487
X-5.2196 Y2.9562
X-5.2241 Y2.9634
X-5.2291 Y2.9703
X-5.2346 Y2.9767
X-5.2405 Y2.9828
X-5.2469 Y2.9883
X-5.2537 Y2.9934
X-5.2608 Y2.998
X-5.2682 Y3.0021
X-5.276 Y3.0056
G3 X-5.3975 Y2.9432 I17.7683 J-34.7501
X-5.3944 Y2.9159 I0.0072 J-0.013
X-5.3822 Y2.9149 I0.0085 J0.0298
X-5.2906 Y2.9789 I-0.0138 J0.1173
X-5.2834 Y2.9967 I-0.1054 J0.0533 F50.
G2 X-5.276 Y3.0054 I0.0142 J-0.0045
G1 X-5.2648 Y3.0108 F60.
X-5.2471 Y3.0181
G2 X-5.1221 Y2.8535 I0.0105 J-0.1218
G3 X-5.2388 Y2.8157 I-0.0053 J-0.1824
G2 X-5.2586 Y2.8227 I-0.0064 J0.0135
X-5.2549 Y2.8552 I0.028 J0.0133
X-5.1492 Y2.8718 I0.0618 J-0.0488
X-5.1347 Y2.8593 I-0.0439 J-0.0654 F50.
G3 X-5.1244 Y2.8544 I0.0111 J0.01
G1 X-5.1114 Y2.8542 F60.
G3 X-5.0881 Y3.0401 I-0.044 J0.1
G1 X-5.1724 Y3.0415
X-5.2186 Y3.0298
X-5.2471 Y3.0181
G3 X-5.2557 Y3.006 I0.0062 J-0.0136
X-5.2348 Y2.9757 I0.0284 J-0.0028
X-5.1091 Y3.0195 I0.0306 J0.1141
X-5.1008 Y3.0324 I-0.095 J0.0702 F50.
G2 X-5.0881 Y3.0401 I0.013 J-0.0072
G1 X-5.05 Y3.0395 F60.
X-5.0417 Y3.0368
X-5.0337 Y3.0335
X-5.0259 Y3.0297
X-5.0185 Y3.0253
X-5.0113 Y3.0204
X-5.0045 Y3.015
X-4.9982 Y3.0091
X-4.9922 Y3.0028
X-4.9868 Y2.996
X-4.9818 Y2.9889
X-4.9774 Y2.9815
X-4.9734 Y2.9738
X-4.9701 Y2.9658
X-4.9673 Y2.9575
X-4.9652 Y2.9492
X-4.9636 Y2.9406
X-4.9626 Y2.932
X-4.9623 Y2.9234
X-4.9626 Y2.9147
X-4.9635 Y2.9061
X-4.965 Y2.8975
X-4.9671 Y2.8891
X-4.9699 Y2.8809
X-4.9732 Y2.8729
X-4.977 Y2.8651
X-4.9814 Y2.8577
X-4.9864 Y2.8506
X-5.0339 Y2.8529
X-5.0801 Y2.8537
X-5.1114 Y2.8542
G2 X-5.1239 Y2.8622 I0.0007 J0.0149
X-5.1174 Y2.8898 I0.0194 J0.01
X-5.0075 Y2.873 I0.0465 J-0.0635
X-4.9997 Y2.8599 I-0.0634 J-0.0468 F50.
G3 X-4.9875 Y2.8514 I0.0135 J0.0064
G1 X-4.9639 Y2.8502 F60.
X-4.9559 Y2.8529
X-4.9481 Y2.8561
X-4.9406 Y2.8599
X-4.9334 Y2.8643
X-4.9265 Y2.8692
X-4.92 Y2.8745
X-4.914 Y2.8803
X-4.9083 Y2.8866
X-4.9032 Y2.8933
X-4.8985 Y2.9003
X-4.8944 Y2.9076
X-4.8908 Y2.9153
X-4.8878 Y2.9231
X-4.8854 Y2.9312
X-4.8836 Y2.9394
X-4.8824 Y2.9478
X-4.8818 Y2.9562
Y2.9646
X-4.8825 Y2.973
X-4.8837 Y2.9813
X-4.8856 Y2.9895
X-4.8881 Y2.9976
X-4.8911 Y3.0054
X-4.8948 Y3.013
X-4.899 Y3.0203
X-4.9037 Y3.0273
X-4.9089 Y3.0339
G3 X-5.05 Y3.0395 I-0.1977 J-3.2307
X-5.0627 Y3.0318 I0.0003 J-0.0149
X-5.0285 Y2.9704 I0.0362 J-0.0201
X-4.9311 Y3.0141 I0.0056 J0.118
X-4.9222 Y3.0266 I-0.0918 J0.0743 F50.
G2 X-4.9091 Y3.0337 I0.0127 J-0.0078
G1 X-4.8826 Y3.0321 F60.
X-4.8748 Y3.0292
X-4.8672 Y3.0258
X-4.8599 Y3.0218
X-4.8529 Y3.0174
X-4.8463 Y3.0124
X-4.84 Y3.007
X-4.8341 Y3.0011
X-4.8286 Y2.9948
X-4.8236 Y2.9882
X-4.8191 Y2.9812
X-4.8151 Y2.9739
X-4.8116 Y2.9664
X-4.8087 Y2.9586
X-4.8063 Y2.9507
X-4.8045 Y2.9425
X-4.8033 Y2.9343
X-4.8027 Y2.926
Y2.9177
X-4.8032 Y2.9094
X-4.8044 Y2.9012
X-4.8061 Y2.8931
X-4.8084 Y2.8851
X-4.8113 Y2.8773
X-4.8147 Y2.8697
X-4.8187 Y2.8624
X-4.8231 Y2.8554
X-4.8281 Y2.8487
X-4.8335 Y2.8424
X-4.8953 Y2.8463
X-4.9415 Y2.8491
X-4.9639 Y2.8502
G2 X-4.9761 Y2.8587 I0.0012 J0.0148
X-4.9741 Y2.873 I0.0119 J0.0056
X-4.8537 Y2.8645 I0.0566 J-0.0547
X-4.846 Y2.8513 I-0.0638 J-0.0462 F50.
G3 X-4.8338 Y2.8427 I0.0135 J0.0062
G1 X-4.8095 Y2.8413 F60.
X-4.8016 Y2.8435
X-4.7938 Y2.8462
X-4.7863 Y2.8495
X-4.779 Y2.8533
X-4.772 Y2.8576
X-4.7653 Y2.8624
X-4.759 Y2.8677
X-4.7531 Y2.8734
X-4.7476 Y2.8795
X-4.7425 Y2.886
X-4.7379 Y2.8929
X-4.7339 Y2.9
X-4.7303 Y2.9074
X-4.7273 Y2.9151
X-4.7248 Y2.9229
X-4.7229 Y2.9309
X-4.7215 Y2.939
X-4.7208 Y2.9472
X-4.7206 Y2.9555
X-4.721 Y2.9637
X-4.722 Y2.9718
X-4.7236 Y2.9799
X-4.7258 Y2.9879
X-4.7285 Y2.9956
X-4.7317 Y3.0032
X-4.7355 Y3.0105
X-4.7398 Y3.0175
X-4.7446 Y3.0242
X-4.7567 Y3.0248
X-4.8826 Y3.0321
G3 X-4.8937 Y3.0069 I-0.0003 J-0.0149
X-4.8812 Y2.9983 I0.027 J0.0257
X-4.7709 Y3.0082 I0.0458 J0.1089
X-4.7557 Y3.02 I-0.0645 J0.0989 F50.
G2 X-4.745 Y3.0239 I0.0101 J-0.011
G1 X-4.7179 Y3.0217 F60.
X-4.71 Y3.0184
X-4.7024 Y3.0144
X-4.6951 Y3.0099
X-4.6881 Y3.0049
X-4.6816 Y2.9994
X-4.6754 Y2.9934
X-4.6697 Y2.987
X-4.6645 Y2.9802
X-4.6598 Y2.973
X-4.6556 Y2.9655
X-4.652 Y2.9577
X-4.649 Y2.9497
X-4.6466 Y2.9414
X-4.6448 Y2.9331
X-4.6436 Y2.9246
X-4.643 Y2.916
Y2.9074
X-4.6437 Y2.8989
X-4.645 Y2.8904
X-4.647 Y2.882
X-4.6495 Y2.8738
X-4.6526 Y2.8658
X-4.6563 Y2.8581
X-4.6606 Y2.8506
X-4.6654 Y2.8435
X-4.6707 Y2.8368
X-4.6765 Y2.8304
G3 X-4.8095 Y2.8413 I-0.2249 J-1.9325
G2 X-4.8217 Y2.8499 I0.0014 J0.0148
X-4.8197 Y2.8627 I0.0107 J0.0049
G1 X-4.8186 Y2.8639
G2 X-4.6957 Y2.8534 I0.0573 J-0.054
X-4.6885 Y2.8398 I-0.0656 J-0.0435 F50.
G3 X-4.6768 Y2.8307 I0.0138 J0.0057
G1 X-4.6516 Y2.8283 F60.
X-4.6434 Y2.8303
X-4.6353 Y2.833
X-4.6275 Y2.8362
X-4.6199 Y2.8401
X-4.6126 Y2.8444
X-4.6057 Y2.8493
X-4.5991 Y2.8547
X-4.5929 Y2.8605
X-4.5872 Y2.8668
X-4.582 Y2.8735
X-4.5773 Y2.8805
X-4.5731 Y2.8879
X-4.5694 Y2.8956
X-4.5663 Y2.9035
X-4.5638 Y2.9116
X-4.5619 Y2.9199
X-4.5607 Y2.9283
X-4.56 Y2.9368
Y2.9452
X-4.5606 Y2.9537
X-4.5618 Y2.9621
X-4.5636 Y2.9704
X-4.566 Y2.9785
X-4.569 Y2.9865
X-4.5726 Y2.9942
X-4.5768 Y3.0016
X-4.5814 Y3.0087
X-4.6643 Y3.0167
X-4.7105 Y3.0211
X-4.7179 Y3.0217
G3 X-4.7335 Y3.0075 I-0.0007 J-0.0149
X-4.7208 Y2.9865 I0.0221 J-0.001
X-4.6078 Y2.9934 I0.0503 J0.1069
X-4.5924 Y3.0048 I-0.0628 J0.1001 F50.
G2 X-4.5816 Y3.0085 I0.0099 J-0.0112
G1 X-4.5542 Y3.0059 F60.
X-4.5465 Y3.0022
X-4.5391 Y2.998
X-4.532 Y2.9933
X-4.5253 Y2.9881
X-4.519 Y2.9824
X-4.5131 Y2.9763
X-4.5076 Y2.9697
X-4.5027 Y2.9628
X-4.4983 Y2.9555
X-4.4944 Y2.9479
X-4.4911 Y2.9401
X-4.4883 Y2.932
X-4.4862 Y2.9238
X-4.4846 Y2.9154
X-4.4837 Y2.907
X-4.4834 Y2.8985
X-4.4837 Y2.89
X-4.4846 Y2.8815
X-4.4861 Y2.8731
X-4.4883 Y2.8649
X-4.491 Y2.8568
X-4.4943 Y2.849
X-4.4982 Y2.8414
X-4.5026 Y2.8342
X-4.5075 Y2.8272
X-4.513 Y2.8207
X-4.5188 Y2.8145
X-4.5258 Y2.8153
X-4.572 Y2.8204
X-4.6516 Y2.8283
G2 X-4.6587 Y2.8549 I0.002 J0.0148
X-4.6387 Y2.8633 I0.0264 J-0.0346
X-4.5422 Y2.8342 I0.0173 J-0.1168
X-4.5291 Y2.8203 I-0.0791 J-0.0877 F50.
G3 X-4.5191 Y2.8148 I0.0116 J0.0093
G1 X-4.4927 Y2.8127 F60.
X-4.4887 Y2.8124
X-4.4872 Y2.8123
G3 X-4.4755 Y2.8136 I0.0036 J0.0212
X-4.4813 Y2.8418 I-0.0068 J0.0133
G1 X-4.4846 Y2.842
G3 X-4.4977 Y2.8357 I-0.001 J-0.0149
X-4.4872 Y2.8123 I0.0122 J-0.0086 F50.
G1 X-4.4796 Y2.8117 F60.
X-4.4642 Y2.8189
G3 X-4.4048 Y2.9259 I-0.0594 J0.1029
X-4.4319 Y2.9287 I-0.0142 J-0.0047
G1 X-4.4829 Y2.8401
X-4.4842 Y2.8372
X-4.4848 Y2.8342
G3 X-4.4642 Y2.8189 I0.0148 J-0.0015 F50.
X-4.5258 Y3.0031 I-0.0359 J0.0904 F60.
G1 X-4.5542 Y3.0059
G3 X-4.5686 Y2.9846 I-0.0009 J-0.0149
G1 X-4.5674 Y2.982 Z-0.2097
X-4.5662 Y2.9795 Z-0.2089
X-4.5651 Y2.9771 Z-0.2075
X-4.5641 Y2.9751 Z-0.2056
X-4.5633 Y2.9734 Z-0.2034
X-4.5627 Y2.9722 Z-0.2008
X-4.5624 Y2.9714 Z-0.198
X-4.5622 Y2.9711 Z-0.1951
G0 Z0.4
X-6.1895 Y2.7515
Z-0.1802
G1 Z-0.1951 F50.
X-6.1897 Z-0.198
X-6.1906 Y2.7516 Z-0.2008
X-6.192 Y2.7517 Z-0.2034
X-6.1938 Y2.7519 Z-0.2056
X-6.1961 Y2.7521 Z-0.2075
X-6.1986 Y2.7524 Z-0.2089
X-6.2014 Y2.7526 Z-0.2097
X-6.2043 Y2.7529 Z-0.21
G3 X-6.2348 Y2.7481 I-0.0058 J-0.062
G1 X-6.281 Y2.7213 F60.
X-6.2843 Y2.7194
X-6.3176 Y2.6991
X-6.324 Y2.6932
X-6.33 Y2.6868
X-6.3356 Y2.6801
X-6.3407 Y2.673
X-6.3453 Y2.6655
X-6.3494 Y2.6578
X-6.353 Y2.6498
X-6.356 Y2.6416
X-6.3585 Y2.6332
X-6.3604 Y2.6247
X-6.3618 Y2.616
X-6.3625 Y2.6073
X-6.3626 Y2.5985
X-6.3622 Y2.5898
X-6.3612 Y2.5811
X-6.3596 Y2.5725
X-6.3574 Y2.564
X-6.3547 Y2.5557
X-6.3514 Y2.5476
X-6.3475 Y2.5397
X-6.3432 Y2.5321
X-6.3383 Y2.5248
X-6.333 Y2.5179
X-6.3272 Y2.5113
X-6.321 Y2.5052
X-6.3144 Y2.4994
X-6.3074 Y2.4942
X-6.3 Y2.4894
G2 X-6.2188 Y2.5411 I1.0063 J-1.4897
G3 X-6.2121 Y2.5545 I-0.0082 J0.0124
X-6.2577 Y2.5773 I-0.0294 J-0.0017
X-6.2927 Y2.5198 I0.0433 J-0.0658
X-6.2928 Y2.5045 I0.0783 J-0.0083 F50.
G2 X-6.299 Y2.491 I-0.0148 J-0.0013
G1 X-6.315 Y2.4806 F60.
G2 X-6.4472 Y2.6164 I-0.0221 J0.1108
X-6.3176 Y2.6991 I1.0885 J-1.5639
X-6.3027 Y2.699 I0.0073 J-0.013
X-6.2956 Y2.6347 I-0.0206 J-0.0348
X-6.4184 Y2.6105 I-0.0808 J0.0862
X-6.4323 Y2.6169 I0.042 J0.1104 F50.
G3 X-6.4472 Y2.6164 I-0.0071 J-0.0131
G1 X-6.4658 Y2.6041 F60.
X-6.4713 Y2.6006
X-6.4768 Y2.5939
X-6.4818 Y2.5869
X-6.4862 Y2.5796
X-6.4902 Y2.5719
X-6.4935 Y2.564
X-6.4963 Y2.5558
X-6.4985 Y2.5475
X-6.5 Y2.539
X-6.5009 Y2.5304
X-6.5012 Y2.5218
X-6.5009 Y2.5132
X-6.4999 Y2.5046
X-6.4984 Y2.4962
X-6.4962 Y2.4878
X-6.4934 Y2.4797
X-6.49 Y2.4718
X-6.486 Y2.4641
X-6.4815 Y2.4568
X-6.4765 Y2.4498
X-6.471 Y2.4432
X-6.465 Y2.437
X-6.4586 Y2.4313
X-6.4518 Y2.426
X-6.4446 Y2.4213
X-6.437 Y2.4171
X-6.4292 Y2.4134
X-6.4212 Y2.4104
X-6.3726 Y2.4425
X-6.3272 Y2.4726
X-6.315 Y2.4806
G3 X-6.3087 Y2.4941 I-0.0086 J0.0122
X-6.323 Y2.5096 I-0.0172 J-0.0016
X-6.4148 Y2.4398 I-0.0134 J-0.0776
Y2.4245 I0.0783 J-0.0078 F50.
G2 X-6.421 Y2.411 I-0.0148 J-0.0014
G1 X-6.4431 Y2.3963 F60.
G2 X-6.5865 Y2.5238 I-0.0264 J0.1147
X-6.4713 Y2.6006 I1.3048 J-1.833
X-6.4493 Y2.584 I0.0076 J-0.0128
X-6.4522 Y2.5773 I-0.022 J0.0057
X-6.5562 Y2.5236 I-0.0991 J0.0643
X-6.5753 Y2.5259 I0.0049 J0.118 F50.
G3 X-6.5865 Y2.5238 I-0.003 J-0.0146
G1 X-6.6044 Y2.5111 F60.
X-6.6093 Y2.5077
X-6.6144 Y2.5008
X-6.619 Y2.4936
X-6.6231 Y2.486
X-6.6266 Y2.4782
X-6.6295 Y2.4701
X-6.6318 Y2.4619
X-6.6335 Y2.4534
X-6.6346 Y2.4449
X-6.635 Y2.4364
X-6.6348 Y2.4278
X-6.634 Y2.4192
X-6.6326 Y2.4108
X-6.6306 Y2.4025
X-6.6279 Y2.3943
X-6.6247 Y2.3863
X-6.6209 Y2.3787
X-6.6165 Y2.3713
X-6.6117 Y2.3642
X-6.6063 Y2.3575
X-6.6004 Y2.3513
X-6.5941 Y2.3455
X-6.5874 Y2.3401
X-6.5803 Y2.3353
X-6.5729 Y2.331
X-6.5652 Y2.3272
X-6.5572 Y2.3241
X-6.549 Y2.3215
G2 X-6.4431 Y2.3963 I1.8037 J-2.4401
G3 X-6.437 Y2.4099 I-0.0087 J0.0121
X-6.4491 Y2.4233 I-0.0152 J-0.0016
X-6.5438 Y2.351 I-0.0161 J-0.0771
X-6.5432 Y2.3357 I0.0786 J-0.0048 F50.
G2 X-6.5489 Y2.322 I-0.0148 J-0.002
G1 X-6.5582 Y2.3153 F60.
X-6.567 Y2.3091
X-6.5748 Y2.3065
X-6.5829 Y2.3045
X-6.5911 Y2.3031
X-6.5993 Y2.3022
X-6.6076 Y2.302
X-6.6159 Y2.3023
X-6.6242 Y2.3033
X-6.6323 Y2.3049
X-6.6403 Y2.307
X-6.6482 Y2.3097
X-6.6558 Y2.313
X-6.6632 Y2.3168
X-6.6702 Y2.3211
X-6.677 Y2.326
X-6.6834 Y2.3313
X-6.6893 Y2.337
X-6.6949 Y2.3432
X-6.6999 Y2.3498
X-6.7045 Y2.3567
X-6.7086 Y2.3639
X-6.7122 Y2.3714
X-6.7152 Y2.3791
X-6.7176 Y2.3871
X-6.7195 Y2.3952
X-6.7207 Y2.4034
X-6.7214 Y2.4116
X-6.7215 Y2.4199
X-6.7209 Y2.4282
G2 X-6.6093 Y2.5077 I1.5696 J-2.0857
X-6.5867 Y2.4919 I0.008 J-0.0126
X-6.5986 Y2.4686 I-0.0513 J0.0113
X-6.6903 Y2.4285 I-0.0888 J0.0779
X-6.7093 Y2.4305 I0.0029 J0.1181 F50.
G3 X-6.7205 Y2.4282 I-0.0028 J-0.0146
G1 X-6.7429 Y2.4117 F60.
X-6.7477 Y2.4048
X-6.752 Y2.3975
X-6.7557 Y2.3899
X-6.7588 Y2.3821
X-6.7614 Y2.374
X-6.7634 Y2.3658
X-6.7648 Y2.3575
X-6.7656 Y2.3491
X-6.7658 Y2.3407
X-6.7654 Y2.3322
X-6.7643 Y2.3238
X-6.7627 Y2.3156
X-6.7605 Y2.3074
X-6.7577 Y2.2995
X-6.7543 Y2.2917
X-6.7503 Y2.2843
X-6.7459 Y2.2771
X-6.7409 Y2.2703
X-6.7355 Y2.2638
X-6.7296 Y2.2578
X-6.7232 Y2.2522
X-6.7165 Y2.2471
X-6.7095 Y2.2425
X-6.7021 Y2.2384
X-6.6944 Y2.2348
X-6.6865 Y2.2318
X-6.6785 Y2.2294
X-6.6764 Y2.2312
X-6.6747 Y2.2333
X-6.6733 Y2.2356
X-6.6725 Y2.2382
X-6.6721 Y2.2409
X-6.6722 Y2.2436
X-6.6728 Y2.2462
X-6.6763 Y2.2581
X-6.7194 Y2.4009
X-6.7203 Y2.4037 F50.
G3 X-6.7429 Y2.4117 I-0.0143 J-0.0043
X-6.8198 Y2.3144 I0.067 J-0.1318 F60.
X-6.6406 Y2.2596 I0.0955 J-0.0082
G1 X-6.6044 Y2.2822
X-6.5741 Y2.304
X-6.567 Y2.3091
X-6.5585 Y2.3039
X-6.5497 Y2.2992
X-6.5406 Y2.295
X-6.5313 Y2.2915
X-6.5217 Y2.2885
X-6.5121 Y2.2861
X-6.5022 Y2.2843
X-6.4923 Y2.2831
X-6.4824 Y2.2826
X-6.4724 Y2.2827
X-6.4624 Y2.2833
X-6.4526 Y2.2846
X-6.4428 Y2.2865
X-6.4331 Y2.289
X-6.4236 Y2.2921
X-6.4144 Y2.2958
X-6.4053 Y2.3001
X-6.3966 Y2.3049
X-6.3882 Y2.3102
X-6.3801 Y2.3161
X-6.3724 Y2.3224
X-6.3651 Y2.3292
X-6.3582 Y2.3364
X-6.3519 Y2.3441
X-6.3459 Y2.3521
G2 X-6.0423 Y2.4977 I0.5895 J-0.8403
G3 X-5.5559 Y2.5254 I-0.0814 J5.7133
G2 X-5.1224 Y2.754 I1.7131 J-2.7229
X-4.6925 Y2.7315 I-0.1037 J-6.1081
G3 X-4.3992 Y2.7463 I0.1231 J0.4749
X-4.5115 Y3.0918 I-0.0996 J0.1586
X-5.2719 Y3.1226 I-0.4828 J-2.515
X-5.6509 Y2.9172 I6.398 J-12.2537
G2 X-6.1969 Y2.8677 I-2.1454 J20.6318
G1 X-6.2342 Y2.8501
X-6.2712 Y2.8321
X-6.3079 Y2.8134
X-6.3444 Y2.7943
X-6.3806 Y2.7746
X-6.4164 Y2.7543
X-6.452 Y2.7335
X-6.4872 Y2.7122
X-6.5222 Y2.6904
X-6.5568 Y2.6681
X-6.5911 Y2.6452
X-6.625 Y2.6219
X-6.6586 Y2.598
X-6.6918 Y2.5737
X-6.7246 Y2.5488
X-6.7571 Y2.5235
X-6.7892 Y2.4977
X-6.821 Y2.4714
X-6.8523 Y2.4447
X-6.8832 Y2.4175
G3 X-6.5979 Y2.1702 I0.1595 J-0.1042
G1 X-6.5669 Y2.1753
X-6.5364 Y2.1776
G3 X-6.0964 Y2.3773 I-0.213 J1.0537
G2 X-5.5807 Y2.4232 I0.731 J-5.2921
G1 X-5.4242 Y2.496
X-5.2679 Y2.5691
X-5.1116 Y2.6425
G2 X-4.6545 Y2.6255 I0.1459 J-2.2277
G3 X-4.4775 Y2.6217 I0.099 J0.4993
G1 X-4.4094 Y2.6552
X-4.3863 Y2.6654
X-4.3631 Y2.6745
X-4.352 Y2.6798
X-4.3412 Y2.6858
X-4.3307 Y2.6922
X-4.3205 Y2.6991
X-4.3106 Y2.7065
X-4.3011 Y2.7144
X-4.2921 Y2.7227
X-4.2834 Y2.7315
X-4.2751 Y2.7407
X-4.2674 Y2.7503
X-4.26 Y2.7602
X-4.2532 Y2.7705
X-4.2469 Y2.7811
X-4.2411 Y2.7919
X-4.2359 Y2.8031
X-4.2311 Y2.8145
X-4.227 Y2.8261
X-4.2234 Y2.8379
X-4.2204 Y2.8499
X-4.218 Y2.862
X-4.2161 Y2.8742
X-4.2149 Y2.8864
X-4.2143 Y2.8987
X-4.2142 Y2.9111
X-4.2148 Y2.9234
X-4.2159 Y2.9357
X-4.2177 Y2.9479
X-4.22 Y2.96
X-4.2229 Y2.972
X-4.2264 Y2.9838
X-4.2305 Y2.9954
X-4.2351 Y3.0069
X-4.2403 Y3.0181
X-4.246 Y3.029
X-4.2522 Y3.0396
X-4.259 Y3.05
X-4.2662 Y3.0599
X-4.3631 Y3.1358
G3 X-4.8666 Y3.2239 I-0.4126 J-0.8757
G1 X-4.8904 Y3.2282
X-4.9142 Y3.2319
X-4.9381 Y3.2349
X-4.962 Y3.2373
X-4.9861 Y3.2391
X-5.0101 Y3.2403
X-5.0342 Y3.2408
X-5.0583 Y3.2407
X-5.0824 Y3.24
X-5.1065 Y3.2386
X-5.1305 Y3.2367
X-5.1544 Y3.2341
X-5.1783 Y3.2308
X-5.2021 Y3.227
X-5.2258 Y3.2225
X-5.2493 Y3.2174
X-5.2727 Y3.2117
X-5.296 Y3.2054
X-5.3191 Y3.1985
X-5.342 Y3.191
X-5.3646 Y3.1829
X-5.3871 Y3.1742
X-5.4093 Y3.1649
X-5.4313 Y3.1551
X-5.4531 Y3.1446
X-5.4745 Y3.1337
X-5.4956 Y3.1221
X-5.5165 Y3.11
X-5.537 Y3.0974
X-5.5572 Y3.0842
X-5.577 Y3.0706
X-5.5965 Y3.0564
X-5.6156 Y3.0417
G2 X-6.1002 Y2.9837 I-0.4424 J1.6453
G3 X-6.278 Y2.9419 I0.0432 J-0.5816
G1 X-6.3171 Y2.9222
X-6.356 Y2.9019
X-6.3945 Y2.8811
X-6.4328 Y2.8598
X-6.4707 Y2.8379
X-6.5084 Y2.8154
X-6.5457 Y2.7925
X-6.5827 Y2.769
X-6.6193 Y2.745
X-6.6556 Y2.7204
X-6.6915 Y2.6954
X-6.7271 Y2.6698
X-6.7623 Y2.6438
X-6.7972 Y2.6172
X-6.8316 Y2.5902
X-6.8657 Y2.5626
X-6.8994 Y2.5346
X-6.9327 Y2.5061
X-6.9839 Y2.3748
X-6.9879 Y2.3628
X-6.9913 Y2.3506
X-6.9941 Y2.3383
X-6.9963 Y2.3258
X-6.9979 Y2.3133
X-6.9988 Y2.3007
X-6.9992 Y2.288
X-6.9989 Y2.2754
X-6.998 Y2.2628
X-6.9964 Y2.2502
X-6.9943 Y2.2377
X-6.9915 Y2.2254
X-6.9881 Y2.2132
X-6.9841 Y2.2012
X-6.9796 Y2.1894
X-6.9744 Y2.1778
X-6.9687 Y2.1665
X-6.9624 Y2.1555
X-6.9556 Y2.1449
X-6.9483 Y2.1345
X-6.9405 Y2.1246
X-6.9322 Y2.115
X-6.9234 Y2.1059
X-6.9142 Y2.0972
X-6.9046 Y2.089
X-6.8946 Y2.0813
X-6.8842 Y2.0741
X-6.8735 Y2.0673
X-6.8624 Y2.0612
X-6.8511 Y2.0556
X-6.8395 Y2.0505
X-6.8277 Y2.0461
X-6.8156 Y2.0422
X-6.8034 Y2.0389
X-6.791 Y2.0362
X-6.7785 Y2.0342
X-6.7002 Y2.0452
X-6.677 Y2.0477
X-6.6539 Y2.0493
X-6.6268 Y2.0529
X-6.5999 Y2.0571
X-6.573 Y2.0618
X-6.5462 Y2.0672
X-6.5195 Y2.0731
X-6.493 Y2.0796
X-6.4667 Y2.0867
X-6.4404 Y2.0944
X-6.4144 Y2.1026
X-6.3885 Y2.1113
X-6.3629 Y2.1207
X-6.3374 Y2.1305
X-6.3122 Y2.141
X-6.2872 Y2.152
X-6.2624 Y2.1635
X-6.2379 Y2.1755
X-6.2137 Y2.1881
X-6.1897 Y2.2012
X-6.1661 Y2.2148
X-6.1427 Y2.2289
X-6.1196 Y2.2435
X-6.0969 Y2.2586
X-6.0745 Y2.2742
X-6.0524 Y2.2903
G3 X-5.5017 Y2.3361 I-0.262 J6.4851
G2 X-5.0307 Y2.5538 I1.0328 J-1.6161
G3 X-4.784 Y2.538 I0.8854 J11.8464
X-4.6495 Y2.5269 I0.8258 J9.2234
G1 X-4.648 Y2.5276
X-4.556 Y2.5828
X-4.5483 Y2.587
X-4.4775 Y2.6217
G3 X-4.4697 Y2.6344 I-0.007 J0.0131
X-4.4873 Y2.6594 I-0.0254 J0.0008
X-4.641 Y2.5562 I-0.0359 J-0.1125
X-4.6412 Y2.5409 I0.1177 J-0.0093 F50.
G2 X-4.648 Y2.5276 I-0.0149 J-0.0008
G1 X-4.6871 Y2.5041 F60.
X-4.7085 Y2.4904
X-4.7218 Y2.4808
G2 X-5.0611 Y2.4397 I-0.2814 J0.9024
X-5.5632 Y2.2191 I-3.3063 J6.8441
G3 X-6.0505 Y2.1783 I0.0112 J-3.0643
G2 X-6.273 Y2.0478 I-0.7183 J0.9691
G3 X-6.6539 Y2.0493 I-0.1979 J-1.8835
G2 X-6.66 Y2.078 I-0.0005 J0.0149
G3 X-6.6527 Y2.0991 I-0.0056 J0.0138
X-6.6746 Y2.1037 I-0.013 J-0.0074
G1 X-6.7506 Y2.0464
G2 X-6.7787 Y2.0333 I-0.0395 J0.0482 F50.
X-6.9212 Y2.0225 I-0.1042 J0.43 F60.
G1 X-6.9368 Y2.026
X-6.9485 Y2.0304
X-6.9547 Y2.0331
X-6.9718 Y2.0414
X-6.9838 Y2.0496
G2 X-7.03 Y2.2586 I0.0917 J0.1299
G1 X-6.9839 Y2.3748
G2 X-6.9567 Y2.3626 I0.0136 J-0.0061
X-6.9766 Y2.3552 I-0.0136 J0.0061
X-6.9837 Y2.3751 I0.0063 J0.0135
G1 X-6.9328 Y2.4819
G2 X-6.9059 Y2.4691 I0.0134 J-0.0064
X-6.9341 Y2.4733 I-0.0134 J0.0064
X-6.9309 Y2.5041 I0.0616 J0.0092 F50.
G1 X-6.8702 Y2.6522 F60.
G2 X-6.5043 Y2.9347 I0.9889 J-0.9026
X-5.8332 Y3.0887 I0.5518 J-0.8657
G3 X-5.331 Y3.3099 I-0.688 J2.2427
G2 X-5.0549 Y3.3395 I0.3139 J-1.6228
X-4.5841 Y3.3073 I-0.0839 J-4.6785
G1 X-4.3631 Y3.1358
G2 X-4.3822 Y3.1129 I-0.0095 J-0.0115
X-4.384 Y3.1341 I0.0095 J0.0115
X-4.3628 Y3.1356 I0.0113 J-0.0097
G1 X-4.2864 Y3.0681
G2 X-4.3061 Y3.0457 I-0.0099 J-0.0112
X-4.2944 Y3.0717 I0.0099 J0.0112
X-4.2656 Y3.0604 I-0.0076 J-0.0618 F50.
X-4.1549 Y2.9605 I-0.2058 J-0.3394 F60.
G1 X-4.1445 Y2.9417
X-4.1373 Y2.9226
X-4.1358 Y2.918
X-4.1323 Y2.9048
X-4.1315 Y2.8985
G2 X-4.2476 Y2.7204 I-0.1584 J-0.0237
G1 X-4.3631 Y2.6745
G2 X-4.3788 Y2.6989 I-0.0049 J0.0141
G1 X-4.1611 Y2.9227
X-4.1605 Y2.9233 F50.
G2 X-4.1358 Y2.918 I0.0107 J-0.0104
G1 X-4.1323 Y2.9071 F60.
X-4.1321 Y2.9064
X-4.1315 Y2.8985
G2 X-4.1384 Y2.8853 I-0.0149 J-0.0006
X-4.1496 Y2.8942 I-0.004 J0.0064
G1 X-4.1492 Y2.8953
G2 X-4.1409 Y2.9081 I0.0366 J-0.0145 F50.
G3 X-4.1373 Y2.9226 I-0.0107 J0.0103
G1 X-4.1438 Y2.9425 F60.
X-4.1442 Y2.9433
X-4.1549 Y2.9605
G3 X-4.1662 Y2.9658 I-0.0099 J-0.0066
G1 X-4.1839 Y2.9641
G2 X-4.2952 Y2.9731 I-0.0259 J0.371
X-4.3011 Y2.976 I0.0034 J0.0145
G1 X-4.5411 Y3.1692
X-4.5435 Y3.1716
X-4.5452 Y3.1744
G2 X-4.5772 Y3.2773 I0.3354 J0.1607
X-4.58 Y3.2988 I0.3674 J0.0578 F50.
G3 X-4.5842 Y3.3068 I-0.0119 J-0.0012
G1 X-4.6757 Y3.3775 F60.
G3 X-5.1754 Y3.4274 I-0.338 J-0.8568
X-5.7386 Y3.2093 I0.1651 J-1.2624
X-6.3465 Y3.1288 I-0.0056 J-2.2926
X-6.5632 Y3.0151 I0.757 J-1.7067
X-6.7801 Y2.8721 I1.3387 J-2.2657
G1 X-6.8702 Y2.6522
G3 X-6.8677 Y2.6375 I0.014 J-0.0052
X-6.8058 Y2.6298 I0.035 J0.029
X-6.7684 Y2.8451 I-0.093 J0.1271
X-6.7776 Y2.8574 I-0.1304 J-0.0882 F50.
G2 X-6.7801 Y2.8721 I0.0115 J0.0095
G1 X-6.7376 Y2.9758 F60.
G2 X-6.4071 Y3.2081 I0.5671 J-0.4555
X-5.807 Y3.3071 I0.6225 J-1.9042
X-5.2404 Y3.5316 I1.6048 J-3.2229
X-4.9026 Y3.5331 I0.187 J-4.2326
X-4.8712 Y3.5287 I0.0099 J-0.044
G1 X-4.6757 Y3.3775
G2 X-4.6705 Y3.3636 I-0.0095 J-0.0115
X-4.7086 Y3.3309 I-0.0387 J0.0066
X-4.8679 Y3.4996 I-0.0022 J0.1575
X-4.8661 Y3.5148 I0.1571 J-0.0112 F50.
G3 X-4.8712 Y3.5287 I-0.0147 J0.0025
G1 X-4.9524 Y3.5915 F60.
G3 X-5.1294 Y3.6321 I-0.1557 J-0.2727
X-5.1284 Y3.6033 I0.0044 J-0.0142
G1 X-4.9653 Y3.5655
X-4.9623 Y3.5651
X-4.9593 Y3.5653
X-4.9565 Y3.5662
G3 X-4.9524 Y3.5915 I-0.0054 J0.0139 F50.
X-5.0385 Y3.6548 I-0.1171 J-0.0692 F60.
G1 X-5.0392
X-5.0457 Y3.6541
X-5.0573 Y3.6514
X-5.5664 Y3.515
G2 X-5.972 Y3.3913 I-0.4867 J0.8694
G1 X-6.033 Y3.387
X-6.0483 Y3.3858
X-6.0492 Y3.3856
X-6.4919 Y3.267
G3 X-6.6494 Y3.1909 I0.1216 J-0.4524
X-6.6293 Y3.1721 I0.014 J-0.0052
G1 X-6.4824 Y3.2389
G3 X-6.4743 Y3.2484 I-0.0062 J0.0136
X-6.4919 Y3.267 I-0.0143 J0.0041 F50.
X-6.6315 Y3.2278 I0.041 J-0.4144 F60.
G1 X-6.6331 Y3.2264
X-6.6337 Y3.2256
X-6.6385 Y3.2176
X-6.7376 Y2.9758
G3 X-6.7214 Y2.9559 I0.014 J-0.0052
G1 X-6.7185 Y2.9563 Z-0.2097
X-6.7157 Y2.9567 Z-0.2089
X-6.7132 Y2.9571 Z-0.2075
X-6.711 Y2.9574 Z-0.2056
X-6.7091 Y2.9577 Z-0.2034
X-6.7078 Y2.9579 Z-0.2008
X-6.7069 Y2.9581 Z-0.198
X-6.7066 Z-0.1951
G0 Z-0.1802
X-6.086 Y3.3589
G1 Z-0.1951 F50.
X-6.0858 Y3.3591 Z-0.198
X-6.0852 Y3.3597 Z-0.2008
X-6.0843 Y3.3607 Z-0.2034
X-6.083 Y3.362 Z-0.2056
X-6.0814 Y3.3636 Z-0.2075
X-6.0796 Y3.3655 Z-0.2089
X-6.0777 Y3.3675 Z-0.2097
X-6.0756 Y3.3695 Z-0.21
G2 X-6.0492 Y3.3856 I0.0446 J-0.0435
G1 X-5.5664 Y3.515 F60.
G2 X-5.5519 Y3.5104 I0.0034 J-0.0145
G1 X-5.55 Y3.5083 Z-0.2097
X-5.5481 Y3.5062 Z-0.2089
X-5.5464 Y3.5043 Z-0.2075
X-5.5449 Y3.5026 Z-0.2056
X-5.5437 Y3.5012 Z-0.2034
X-5.5427 Y3.5002 Z-0.2008
X-5.5422 Y3.4996 Z-0.198
X-5.542 Y3.4994 Z-0.1951
G0 Z-0.1802
X-4.6969 Y2.5189
G1 Z-0.1951 F50.
X-4.697 Y2.5186 Z-0.198
X-4.6974 Y2.5179 Z-0.2008
X-4.6979 Y2.5166 Z-0.2034
X-4.6986 Y2.5149 Z-0.2056
X-4.6995 Y2.5128 Z-0.2075
X-4.7006 Y2.5105 Z-0.2089
X-4.7017 Y2.5079 Z-0.2097
X-4.7028 Y2.5052 Z-0.21
G2 X-4.7218 Y2.4808 I-0.0572 J0.0248
G1 X-4.8367 Y2.3979 F60.
X-4.8491 Y2.388
G2 X-5.1088 Y2.3131 I-0.7623 J2.1544
X-5.9243 Y2.1048 I-0.7332 J1.1705
G3 X-6.1042 Y2.0253 I0.6033 J-1.6095
G1 X-6.168 Y2.0373
X-6.1911 Y2.0399
X-6.2732 Y2.0483
G2 X-6.285 Y2.0574 I0.002 J0.0148
X-6.2556 Y2.1148 I0.0393 J0.0161
X-6.1207 Y2.0497 I0.0277 J-0.1148
X-6.1152 Y2.0354 I-0.1072 J-0.0497 F50.
G3 X-6.1042 Y2.0253 I0.0142 J0.0045
G1 X-6.006 Y2.0069 F60.
X-5.9748 Y2.0046
X-5.9436 Y2.003
X-5.9123 Y2.0019
X-5.881 Y2.0014
X-5.8497 Y2.0016
X-5.8184 Y2.0023
X-5.7871 Y2.0037
X-5.7559 Y2.0056
X-5.7247 Y2.0082
X-5.6936 Y2.0113
X-5.6625 Y2.0151
X-5.6315 Y2.0195
X-5.6006 Y2.0244
X-5.5698 Y2.03
X-5.5391 Y2.0361
X-5.5086 Y2.0429
X-5.4782 Y2.0502
X-5.4479 Y2.0581
X-5.4178 Y2.0666
X-5.3878 Y2.0757
X-5.358 Y2.0853
X-5.3285 Y2.0955
X-5.2991 Y2.1063
X-5.2699 Y2.1177
X-5.241 Y2.1296
X-5.2123 Y2.1421
X-5.1839 Y2.1551
X-5.1557 Y2.1687
X-5.1277 Y2.1828
X-5.1001 Y2.1975
X-5.0727 Y2.2127
X-5.0457 Y2.2284
X-5.0189 Y2.2446
G3 X-4.8491 Y2.388 I-2.3137 J2.913
X-4.8446 Y2.4022 I-0.0101 J0.011
X-4.9277 Y2.4433 I-0.0581 J-0.013
X-5.0159 Y2.2681 I0.0659 J-0.143
X-5.012 Y2.2533 I0.1542 J0.0322 F50.
G2 X-5.0153 Y2.2388 I-0.0142 J-0.0044
G1 X-5.0861 Y2.1668 F60.
X-5.1036 Y2.1474
X-5.1359 Y2.1085
G2 X-5.7072 Y1.913 I-0.5785 J0.7578
G3 X-6.006 Y2.0069 I-0.7294 J-1.7974
G2 X-6.0166 Y2.0174 I0.0038 J0.0144
X-5.9854 Y2.0804 I0.0511 J0.0139
X-5.719 Y1.9398 I0.074 J-0.1824
G1 X-5.7164 Y1.9247 F50.
G3 X-5.7072 Y1.913 I0.0148 J0.002
G1 X-5.6821 Y1.9037 F60.
X-5.6589 Y1.8938
X-5.5895 Y1.8613
G3 X-5.2931 Y1.8992 I0.0908 J0.4672
X-5.3074 Y1.9222 I-0.0125 J0.0081
G1 X-5.5845 Y1.8894
X-5.5868 Y1.8889
X-5.589 Y1.8881
X-5.5911 Y1.8869
G3 X-5.5895 Y1.8613 I0.0083 J-0.0123 F50.
X-5.3298 Y1.8534 I0.1344 J0.1444 F60.
G2 X-5.1359 Y2.1085 I2.7516 J-1.8901
G3 X-5.1454 Y2.1324 I-0.0118 J0.0091
G1 X-5.1483 Y2.1328 Z-0.2097
X-5.151 Y2.1332 Z-0.2089
X-5.1536 Y2.1336 Z-0.2075
X-5.1558 Y2.134 Z-0.2056
X-5.1576 Y2.1343 Z-0.2034
X-5.159 Y2.1345 Z-0.2008
X-5.1598 Y2.1346 Z-0.198
X-5.1601 Y2.1347 Z-0.1951
G0 Z0.4
X-6.8766 Y2.0316
Z-0.1802
G1 Z-0.1951 F50.
X-6.8768 Y2.0315 Z-0.198
X-6.8776 Y2.0312 Z-0.2008
X-6.8789 Y2.0307 Z-0.2034
X-6.8806 Y2.03 Z-0.2056
X-6.8827 Y2.0292 Z-0.2075
X-6.8851 Y2.0283 Z-0.2089
X-6.8878 Y2.0273 Z-0.2097
X-6.8905 Y2.0262 Z-0.21
G2 X-6.9212 Y2.0225 I-0.0226 J0.0581
G1 X-6.9359 Y2.025 F60.
X-6.9485 Y2.0304
G2 X-6.9419 Y2.059 I0.0059 J0.0137
G1 X-6.926 Y2.0591
G2 X-6.924 Y2.0294 I0.0001 J-0.0149
X-6.9547 Y2.0331 I-0.0082 J0.0618 F50.
G1 X-6.9706 Y2.0399 F60.
X-6.9713 Y2.0403
X-6.9838 Y2.0496
X-6.9853 Y2.0518 Z-0.2099
X-6.9869 Y2.0539 Z-0.2094
X-6.9883 Y2.0559 Z-0.2084
X-6.9887 Y2.0579 Z-0.2071
X-6.989 Y2.0597 Z-0.2054
X-6.9893 Y2.0612 Z-0.2035
X-6.9892 Y2.0627 Z-0.2009
X-6.9891 Y2.0635 Z-0.1981
Y2.0638 Z-0.1951
G0 Z-0.11
X-6.2012 Y2.7127
G3 X-6.0837 Y2.6338 Z-0.1492 I0.0587 J-0.0395 F50.
X-6.2012 Y2.7127 Z-0.1884 I-0.0587 J0.0395
X-6.0837 Y2.6338 Z-0.2276 I0.0587 J-0.0395
X-6.0717 Y2.6732 Z-0.235 I-0.0587 J0.0395
X-6.2132 I-0.0708 J0.
X-6.0717 I0.0708 J0.
X-6.0709 Y2.7863 I-0.0499 J0.0569 F60.
X-6.2348 Y2.7481 I-0.0198 J-0.2854
X-6.2194 Y2.5397 I0.0629 J-0.1001
G2 X-6.0662 Y2.6 I0.1536 J-0.1656
G3 X-5.9723 Y2.7917 I-0.0318 J0.1344
G1 X-6.0501 Y2.7875
X-6.0709 Y2.7863
G3 X-6.083 Y2.7777 I0.0014 J-0.0148
X-6.0568 Y2.7377 I0.0256 J-0.0118
X-5.9956 Y2.769 I-0.0016 J0.0787
X-5.9876 Y2.782 I-0.0629 J0.0474 F50.
G2 X-5.9753 Y2.7904 I0.0134 J-0.0065
G1 X-5.9577 Y2.7911 F60.
G2 X-5.9158 Y2.6068 I-0.0326 J-0.1043
G1 X-6.0039 Y2.6029
X-6.0501 Y2.601
X-6.0662 Y2.6
G2 X-6.0793 Y2.607 I-0.0005 J0.0149
X-6.051 Y2.6705 I0.0357 J0.0222
X-5.9368 Y2.6264 I0.0207 J-0.1163
X-5.9283 Y2.6137 I-0.0935 J-0.0722 F50.
G3 X-5.9153 Y2.6063 I0.0129 J0.0075
G1 X-5.8814 Y2.6076 F60.
X-5.8735 Y2.6106
X-5.8658 Y2.6142
X-5.8583 Y2.6183
X-5.8512 Y2.6229
X-5.8444 Y2.6281
X-5.8381 Y2.6337
X-5.8321 Y2.6398
X-5.8266 Y2.6462
X-5.8215 Y2.6531
X-5.817 Y2.6602
X-5.8129 Y2.6677
X-5.8095 Y2.6755
X-5.8065 Y2.6835
X-5.8042 Y2.6916
X-5.8024 Y2.7
X-5.8013 Y2.7084
X-5.8007 Y2.7169
X-5.8008 Y2.7254
X-5.8014 Y2.7338
X-5.8027 Y2.7422
X-5.8045 Y2.7505
X-5.807 Y2.7587
X-5.81 Y2.7666
X-5.8135 Y2.7743
X-5.8177 Y2.7818
X-5.8223 Y2.7889
X-5.8274 Y2.7957
X-5.8653 Y2.7945
X-5.9115 Y2.7928
X-5.9577 Y2.7911
G3 X-5.97 Y2.7827 I0.0011 J-0.0149
X-5.9678 Y2.7687 I0.0112 J-0.0054
X-5.8489 Y2.7741 I0.0571 J0.0542
X-5.8407 Y2.787 I-0.0618 J0.0488 F50.
G2 X-5.8282 Y2.7951 I0.0133 J-0.0068
G1 X-5.8191 Y2.7952 F60.
X-5.8014
X-5.7933 Y2.7924
X-5.7855 Y2.789
X-5.778 Y2.785
X-5.7708 Y2.7805
X-5.764 Y2.7754
X-5.7575 Y2.7699
X-5.7514 Y2.7639
X-5.7459 Y2.7575
X-5.7407 Y2.7507
X-5.7361 Y2.7436
X-5.7321 Y2.7361
X-5.7286 Y2.7284
X-5.7256 Y2.7204
X-5.7233 Y2.7122
X-5.7216 Y2.7039
X-5.7204 Y2.6954
X-5.7199 Y2.6869
X-5.7201 Y2.6784
X-5.7208 Y2.67
X-5.7222 Y2.6616
X-5.7241 Y2.6533
X-5.7267 Y2.6452
X-5.7299 Y2.6373
X-5.7336 Y2.6297
X-5.7379 Y2.6223
X-5.7427 Y2.6153
X-5.748 Y2.6086
G3 X-5.8814 Y2.6076 I-0.0467 J-2.5364
G1 X-5.8815
G2 X-5.8943 Y2.615 I0. J0.0149
X-5.8937 Y2.627 I0.0094 J0.0055
G1 X-5.8921 Y2.629
G2 X-5.7692 Y2.6296 I0.0616 J-0.049
X-5.7608 Y2.6168 I-0.0612 J-0.0496 F50.
G3 X-5.7482 Y2.6089 I0.0132 J0.007
G1 X-5.7198 Y2.6088 F60.
X-5.7119 Y2.6117
X-5.7044 Y2.6152
X-5.697 Y2.6192
X-5.69 Y2.6237
X-5.6834 Y2.6287
X-5.6771 Y2.6342
X-5.6712 Y2.6401
X-5.6657 Y2.6464
X-5.6607 Y2.653
X-5.6562 Y2.66
X-5.6522 Y2.6673
X-5.6487 Y2.6749
X-5.6458 Y2.6827
X-5.6434 Y2.6907
X-5.6416 Y2.6989
X-5.6404 Y2.7071
X-5.6397 Y2.7154
Y2.7238
X-5.6403 Y2.7321
X-5.6414 Y2.7404
X-5.6431 Y2.7485
X-5.6454 Y2.7565
X-5.6483 Y2.7644
X-5.6517 Y2.772
X-5.6557 Y2.7793
X-5.6601 Y2.7864
X-5.6651 Y2.7931
X-5.6705 Y2.7994
G2 X-5.8014 Y2.7952 I-0.0916 J0.8091
G3 X-5.814 Y2.7873 I0.0005 J-0.0149
X-5.7977 Y2.7313 I0.0369 J-0.0197
X-5.6853 Y2.772 I0.0388 J0.0685
X-5.6813 Y2.7868 I-0.0736 J0.0279 F50.
G2 X-5.6718 Y2.7982 I0.0147 J-0.0025
G1 X-5.6563 Y2.8034 F60.
G2 X-5.574 Y2.6293 I-0.0145 J-0.1133
X-5.7198 Y2.6088 I-0.0941 J0.1406
X-5.7323 Y2.6167 I0.0006 J0.0149
X-5.7226 Y2.642 I0.0159 J0.0084
X-5.6025 Y2.6366 I0.0535 J-0.1481
X-5.5889 Y2.6295 I-0.0666 J-0.1427 F50.
G3 X-5.574 Y2.6293 I0.0076 J0.0128
G1 X-5.542 Y2.6488 F60.
X-5.5304 Y2.6556
X-5.5241 Y2.6617
X-5.5182 Y2.6683
X-5.5128 Y2.6753
X-5.508 Y2.6827
X-5.5036 Y2.6904
X-5.4998 Y2.6983
X-5.4965 Y2.7066
X-5.4939 Y2.715
X-5.4918 Y2.7236
X-5.4904 Y2.7323
X-5.4895 Y2.7411
X-5.4893 Y2.7499
X-5.4897 Y2.7587
X-5.4907 Y2.7675
X-5.4923 Y2.7762
X-5.4946 Y2.7847
X-5.4974 Y2.7931
X-5.5008 Y2.8012
X-5.5048 Y2.8091
X-5.5093 Y2.8167
X-5.5143 Y2.824
X-5.5198 Y2.8309
X-5.5258 Y2.8374
X-5.5322 Y2.8434
X-5.5391 Y2.849
X-5.5463 Y2.8541
X-5.5539 Y2.8586
X-5.5882 Y2.8374
X-5.6344 Y2.8108
X-5.6563 Y2.8034
G3 X-5.6658 Y2.7919 I0.0052 J-0.014
X-5.6404 Y2.7618 I0.0254 J-0.0043
X-5.5626 Y2.8285 I0. J0.0787
X-5.5617 Y2.8438 I-0.0778 J0.0121 F50.
G2 X-5.5548 Y2.857 I0.0149 J0.0006
G1 X-5.542 Y2.8644 F60.
X-5.5335 Y2.8692
G2 X-5.4053 Y2.7275 I0.0144 J-0.1158
G3 X-5.5304 Y2.6556 I2.0891 J-3.7811
G2 X-5.5453 Y2.656 I-0.007 J0.0131
X-5.5447 Y2.7304 I0.0229 J0.037
X-5.4335 Y2.7357 I0.0605 J-0.1014
X-5.4201 Y2.7282 I-0.0506 J-0.1067 F50.
G3 X-5.4053 Y2.7275 I0.0081 J0.0125
G1 X-5.4034 Y2.7285 F60.
X-5.3795 Y2.7414
X-5.3739 Y2.7477
X-5.3687 Y2.7544
X-5.3639 Y2.7615
X-5.3598 Y2.7689
X-5.3561 Y2.7765
X-5.353 Y2.7845
X-5.3505 Y2.7926
X-5.3486 Y2.8008
X-5.3473 Y2.8092
X-5.3466 Y2.8177
Y2.8262
X-5.3471 Y2.8347
X-5.3482 Y2.8431
X-5.35 Y2.8514
X-5.3523 Y2.8596
X-5.3552 Y2.8675
X-5.3587 Y2.8753
X-5.3627 Y2.8828
X-5.3673 Y2.8899
X-5.3724 Y2.8967
X-5.3779 Y2.9032
X-5.3839 Y2.9092
X-5.3903 Y2.9147
X-5.3971 Y2.9198
X-5.4043 Y2.9244
X-5.4117 Y2.9285
X-5.4195 Y2.932
X-5.4958 Y2.8902
X-5.5335 Y2.8692
G3 X-5.5407 Y2.8561 I0.0077 J-0.0128
X-5.5315 Y2.8435 I0.0137 J0.0003
X-5.4285 Y2.9032 I0.0257 J0.0744
X-5.4271 Y2.9184 I-0.0773 J0.0147 F50.
G2 X-5.4197 Y2.9314 I0.0149 J0.0001
G1 X-5.4034 Y2.9402 F60.
X-5.3975 Y2.9432
X-5.3893 Y2.9446
X-5.3811 Y2.9453
X-5.3728 Y2.9455
X-5.3646 Y2.9451
X-5.3564 Y2.9441
X-5.3483 Y2.9425
X-5.3403 Y2.9404
X-5.3325 Y2.9376
X-5.3249 Y2.9344
X-5.3175 Y2.9306
X-5.3105 Y2.9263
X-5.3038 Y2.9215
X-5.2974 Y2.9162
X-5.2914 Y2.9105
X-5.2859 Y2.9043
X-5.2808 Y2.8978
X-5.2762 Y2.891
X-5.2721 Y2.8838
X-5.2685 Y2.8764
X-5.2654 Y2.8687
X-5.2629 Y2.8608
X-5.261 Y2.8528
X-5.2596 Y2.8447
X-5.2588 Y2.8364
X-5.2586 Y2.8282
X-5.259 Y2.8199
X-5.26 Y2.8117
X-5.2616 Y2.8036
X-5.3343 Y2.7655
X-5.3572 Y2.7534
X-5.3795 Y2.7414
G2 X-5.3944 Y2.7423 I-0.0066 J0.0134
X-5.3989 Y2.7527 I0.0058 J0.0087
G1 X-5.3983 Y2.756
G2 X-5.2901 Y2.8122 I0.0771 J-0.0162
X-5.2767 Y2.8048 I-0.0311 J-0.0723 F50.
G3 X-5.2619 Y2.8037 I0.0084 J0.0123
G1 X-5.2388 Y2.8157 F60.
X-5.233 Y2.8218
X-5.2276 Y2.8284
X-5.2227 Y2.8353
X-5.2184 Y2.8426
X-5.2146 Y2.8502
X-5.2113 Y2.858
X-5.2087 Y2.8661
X-5.2066 Y2.8743
X-5.2052 Y2.8827
X-5.2043 Y2.8911
X-5.2041 Y2.8996
X-5.2045 Y2.9081
X-5.2055 Y2.9165
X-5.2072 Y2.9248
X-5.2094 Y2.933
X-5.2122 Y2.941
X-5.2156 Y2.9487
X-5.2196 Y2.9562
X-5.2241 Y2.9634
X-5.2291 Y2.9703
X-5.2346 Y2.9767
X-5.2405 Y2.9828
X-5.2469 Y2.9883
X-5.2537 Y2.9934
X-5.2608 Y2.998
X-5.2682 Y3.0021
X-5.276 Y3.0056
G3 X-5.3975 Y2.9432 I17.7683 J-34.7501
X-5.3944 Y2.9159 I0.0072 J-0.013
X-5.3822 Y2.9149 I0.0085 J0.0298
X-5.2906 Y2.9789 I-0.0138 J0.1173
X-5.2834 Y2.9967 I-0.1054 J0.0533 F50.
G2 X-5.276 Y3.0054 I0.0142 J-0.0045
G1 X-5.2648 Y3.0108 F60.
X-5.2471 Y3.0181
G2 X-5.1221 Y2.8535 I0.0105 J-0.1218
G3 X-5.2388 Y2.8157 I-0.0053 J-0.1824
G2 X-5.2586 Y2.8227 I-0.0064 J0.0135
X-5.2549 Y2.8552 I0.028 J0.0133
X-5.1492 Y2.8718 I0.0618 J-0.0488
X-5.1347 Y2.8593 I-0.0439 J-0.0654 F50.
G3 X-5.1244 Y2.8544 I0.0111 J0.01
G1 X-5.1114 Y2.8542 F60.
G3 X-5.0881 Y3.0401 I-0.044 J0.1
G1 X-5.1724 Y3.0415
X-5.2186 Y3.0298
X-5.2471 Y3.0181
G3 X-5.2557 Y3.006 I0.0062 J-0.0136
X-5.2348 Y2.9757 I0.0284 J-0.0028
X-5.1091 Y3.0195 I0.0306 J0.1141
X-5.1008 Y3.0324 I-0.095 J0.0702 F50.
G2 X-5.0881 Y3.0401 I0.013 J-0.0072
G1 X-5.05 Y3.0395 F60.
X-5.0417 Y3.0368
X-5.0337 Y3.0335
X-5.0259 Y3.0297
X-5.0185 Y3.0253
X-5.0113 Y3.0204
X-5.0045 Y3.015
X-4.9982 Y3.0091
X-4.9922 Y3.0028
X-4.9868 Y2.996
X-4.9818 Y2.9889
X-4.9774 Y2.9815
X-4.9734 Y2.9738
X-4.9701 Y2.9658
X-4.9673 Y2.9575
X-4.9652 Y2.9492
X-4.9636 Y2.9406
X-4.9626 Y2.932
X-4.9623 Y2.9234
X-4.9626 Y2.9147
X-4.9635 Y2.9061
X-4.965 Y2.8975
X-4.9671 Y2.8891
X-4.9699 Y2.8809
X-4.9732 Y2.8729
X-4.977 Y2.8651
X-4.9814 Y2.8577
X-4.9864 Y2.8506
X-5.0339 Y2.8529
X-5.0801 Y2.8537
X-5.1114 Y2.8542
G2 X-5.1239 Y2.8622 I0.0007 J0.0149
X-5.1174 Y2.8898 I0.0194 J0.01
X-5.0075 Y2.873 I0.0465 J-0.0635
X-4.9997 Y2.8599 I-0.0634 J-0.0468 F50.
G3 X-4.9875 Y2.8514 I0.0135 J0.0064
G1 X-4.9639 Y2.8502 F60.
X-4.9559 Y2.8529
X-4.9481 Y2.8561
X-4.9406 Y2.8599
X-4.9334 Y2.8643
X-4.9265 Y2.8692
X-4.92 Y2.8745
X-4.914 Y2.8803
X-4.9083 Y2.8866
X-4.9032 Y2.8933
X-4.8985 Y2.9003
X-4.8944 Y2.9076
X-4.8908 Y2.9153
X-4.8878 Y2.9231
X-4.8854 Y2.9312
X-4.8836 Y2.9394
X-4.8824 Y2.9478
X-4.8818 Y2.9562
Y2.9646
X-4.8825 Y2.973
X-4.8837 Y2.9813
X-4.8856 Y2.9895
X-4.8881 Y2.9976
X-4.8911 Y3.0054
X-4.8948 Y3.013
X-4.899 Y3.0203
X-4.9037 Y3.0273
X-4.9089 Y3.0339
G3 X-5.05 Y3.0395 I-0.1977 J-3.2307
X-5.0627 Y3.0318 I0.0003 J-0.0149
X-5.0285 Y2.9704 I0.0362 J-0.0201
X-4.9311 Y3.0141 I0.0056 J0.118
X-4.9222 Y3.0266 I-0.0918 J0.0743 F50.
G2 X-4.9091 Y3.0337 I0.0127 J-0.0078
G1 X-4.8826 Y3.0321 F60.
X-4.8748 Y3.0292
X-4.8672 Y3.0258
X-4.8599 Y3.0218
X-4.8529 Y3.0174
X-4.8463 Y3.0124
X-4.84 Y3.007
X-4.8341 Y3.0011
X-4.8286 Y2.9948
X-4.8236 Y2.9882
X-4.8191 Y2.9812
X-4.8151 Y2.9739
X-4.8116 Y2.9664
X-4.8087 Y2.9586
X-4.8063 Y2.9507
X-4.8045 Y2.9425
X-4.8033 Y2.9343
X-4.8027 Y2.926
Y2.9177
X-4.8032 Y2.9094
X-4.8044 Y2.9012
X-4.8061 Y2.8931
X-4.8084 Y2.8851
X-4.8113 Y2.8773
X-4.8147 Y2.8697
X-4.8187 Y2.8624
X-4.8231 Y2.8554
X-4.8281 Y2.8487
X-4.8335 Y2.8424
X-4.8953 Y2.8463
X-4.9415 Y2.8491
X-4.9639 Y2.8502
G2 X-4.9761 Y2.8587 I0.0012 J0.0148
X-4.9741 Y2.873 I0.0119 J0.0056
X-4.8537 Y2.8645 I0.0566 J-0.0547
X-4.846 Y2.8513 I-0.0638 J-0.0462 F50.
G3 X-4.8338 Y2.8427 I0.0135 J0.0062
G1 X-4.8095 Y2.8413 F60.
X-4.8016 Y2.8435
X-4.7938 Y2.8462
X-4.7863 Y2.8495
X-4.779 Y2.8533
X-4.772 Y2.8576
X-4.7653 Y2.8624
X-4.759 Y2.8677
X-4.7531 Y2.8734
X-4.7476 Y2.8795
X-4.7425 Y2.886
X-4.7379 Y2.8929
X-4.7339 Y2.9
X-4.7303 Y2.9074
X-4.7273 Y2.9151
X-4.7248 Y2.9229
X-4.7229 Y2.9309
X-4.7215 Y2.939
X-4.7208 Y2.9472
X-4.7206 Y2.9555
X-4.721 Y2.9637
X-4.722 Y2.9718
X-4.7236 Y2.9799
X-4.7258 Y2.9879
X-4.7285 Y2.9956
X-4.7317 Y3.0032
X-4.7355 Y3.0105
X-4.7398 Y3.0175
X-4.7446 Y3.0242
X-4.7567 Y3.0248
X-4.8826 Y3.0321
G3 X-4.8937 Y3.0069 I-0.0003 J-0.0149
X-4.8812 Y2.9983 I0.027 J0.0257
X-4.7709 Y3.0082 I0.0458 J0.1089
X-4.7557 Y3.02 I-0.0645 J0.0989 F50.
G2 X-4.745 Y3.0239 I0.0101 J-0.011
G1 X-4.7179 Y3.0217 F60.
X-4.71 Y3.0184
X-4.7024 Y3.0144
X-4.6951 Y3.0099
X-4.6881 Y3.0049
X-4.6816 Y2.9994
X-4.6754 Y2.9934
X-4.6697 Y2.987
X-4.6645 Y2.9802
X-4.6598 Y2.973
X-4.6556 Y2.9655
X-4.652 Y2.9577
X-4.649 Y2.9497
X-4.6466 Y2.9414
X-4.6448 Y2.9331
X-4.6436 Y2.9246
X-4.643 Y2.916
Y2.9074
X-4.6437 Y2.8989
X-4.645 Y2.8904
X-4.647 Y2.882
X-4.6495 Y2.8738
X-4.6526 Y2.8658
X-4.6563 Y2.8581
X-4.6606 Y2.8506
X-4.6654 Y2.8435
X-4.6707 Y2.8368
X-4.6765 Y2.8304
G3 X-4.8095 Y2.8413 I-0.2249 J-1.9325
G2 X-4.8217 Y2.8499 I0.0014 J0.0148
X-4.8197 Y2.8627 I0.0107 J0.0049
G1 X-4.8186 Y2.8639
G2 X-4.6957 Y2.8534 I0.0573 J-0.054
X-4.6885 Y2.8398 I-0.0656 J-0.0435 F50.
G3 X-4.6768 Y2.8307 I0.0138 J0.0057
G1 X-4.6516 Y2.8283 F60.
X-4.6434 Y2.8303
X-4.6353 Y2.833
X-4.6275 Y2.8362
X-4.6199 Y2.8401
X-4.6126 Y2.8444
X-4.6057 Y2.8493
X-4.5991 Y2.8547
X-4.5929 Y2.8605
X-4.5872 Y2.8668
X-4.582 Y2.8735
X-4.5773 Y2.8805
X-4.5731 Y2.8879
X-4.5694 Y2.8956
X-4.5663 Y2.9035
X-4.5638 Y2.9116
X-4.5619 Y2.9199
X-4.5607 Y2.9283
X-4.56 Y2.9368
Y2.9452
X-4.5606 Y2.9537
X-4.5618 Y2.9621
X-4.5636 Y2.9704
X-4.566 Y2.9785
X-4.569 Y2.9865
X-4.5726 Y2.9942
X-4.5768 Y3.0016
X-4.5814 Y3.0087
X-4.6643 Y3.0167
X-4.7105 Y3.0211
X-4.7179 Y3.0217
G3 X-4.7335 Y3.0075 I-0.0007 J-0.0149
X-4.7208 Y2.9865 I0.0221 J-0.001
X-4.6078 Y2.9934 I0.0503 J0.1069
X-4.5924 Y3.0048 I-0.0628 J0.1001 F50.
G2 X-4.5816 Y3.0085 I0.0099 J-0.0112
G1 X-4.5542 Y3.0059 F60.
X-4.5465 Y3.0022
X-4.5391 Y2.998
X-4.532 Y2.9933
X-4.5253 Y2.9881
X-4.519 Y2.9824
X-4.5131 Y2.9763
X-4.5076 Y2.9697
X-4.5027 Y2.9628
X-4.4983 Y2.9555
X-4.4944 Y2.9479
X-4.4911 Y2.9401
X-4.4883 Y2.932
X-4.4862 Y2.9238
X-4.4846 Y2.9154
X-4.4837 Y2.907
X-4.4834 Y2.8985
X-4.4837 Y2.89
X-4.4846 Y2.8815
X-4.4861 Y2.8731
X-4.4883 Y2.8649
X-4.491 Y2.8568
X-4.4943 Y2.849
X-4.4982 Y2.8414
X-4.5026 Y2.8342
X-4.5075 Y2.8272
X-4.513 Y2.8207
X-4.5188 Y2.8145
X-4.5258 Y2.8153
X-4.572 Y2.8204
X-4.6516 Y2.8283
G2 X-4.6587 Y2.8549 I0.002 J0.0148
X-4.6387 Y2.8633 I0.0264 J-0.0346
X-4.5422 Y2.8342 I0.0173 J-0.1168
X-4.5291 Y2.8203 I-0.0791 J-0.0877 F50.
G3 X-4.5191 Y2.8148 I0.0116 J0.0093
G1 X-4.4927 Y2.8127 F60.
X-4.4887 Y2.8124
X-4.4872 Y2.8123
G3 X-4.4755 Y2.8136 I0.0036 J0.0212
X-4.4813 Y2.8418 I-0.0068 J0.0133
G1 X-4.4846 Y2.842
G3 X-4.4977 Y2.8357 I-0.001 J-0.0149
X-4.4872 Y2.8123 I0.0122 J-0.0086 F50.
G1 X-4.4796 Y2.8117 F60.
X-4.4642 Y2.8189
G3 X-4.4048 Y2.9259 I-0.0594 J0.1029
X-4.4319 Y2.9287 I-0.0142 J-0.0047
G1 X-4.4829 Y2.8401
X-4.4842 Y2.8372
X-4.4848 Y2.8342
G3 X-4.4642 Y2.8189 I0.0148 J-0.0015 F50.
X-4.5258 Y3.0031 I-0.0359 J0.0904 F60.
G1 X-4.5542 Y3.0059
G3 X-4.5686 Y2.9846 I-0.0009 J-0.0149
G1 X-4.5674 Y2.982 Z-0.2347
X-4.5662 Y2.9795 Z-0.2339
X-4.5651 Y2.9771 Z-0.2325
X-4.5641 Y2.9751 Z-0.2306
X-4.5633 Y2.9734 Z-0.2284
X-4.5627 Y2.9722 Z-0.2258
X-4.5624 Y2.9714 Z-0.223
X-4.5622 Y2.9711 Z-0.2201
G0 Z-0.2052
X-6.1895 Y2.7515
G1 Z-0.2201 F50.
X-6.1897 Z-0.223
X-6.1906 Y2.7516 Z-0.2258
X-6.192 Y2.7517 Z-0.2284
X-6.1938 Y2.7519 Z-0.2306
X-6.1961 Y2.7521 Z-0.2325
X-6.1986 Y2.7524 Z-0.2339
X-6.2014 Y2.7526 Z-0.2347
X-6.2043 Y2.7529 Z-0.235
G3 X-6.2348 Y2.7481 I-0.0058 J-0.062
G1 X-6.281 Y2.7213 F60.
X-6.2843 Y2.7194
X-6.3176 Y2.6991
X-6.324 Y2.6932
X-6.33 Y2.6868
X-6.3356 Y2.6801
X-6.3407 Y2.673
X-6.3453 Y2.6655
X-6.3494 Y2.6578
X-6.353 Y2.6498
X-6.356 Y2.6416
X-6.3585 Y2.6332
X-6.3604 Y2.6247
X-6.3618 Y2.616
X-6.3625 Y2.6073
X-6.3626 Y2.5985
X-6.3622 Y2.5898
X-6.3612 Y2.5811
X-6.3596 Y2.5725
X-6.3574 Y2.564
X-6.3547 Y2.5557
X-6.3514 Y2.5476
X-6.3475 Y2.5397
X-6.3432 Y2.5321
X-6.3383 Y2.5248
X-6.333 Y2.5179
X-6.3272 Y2.5113
X-6.321 Y2.5052
X-6.3144 Y2.4994
X-6.3074 Y2.4942
X-6.3 Y2.4894
G2 X-6.2188 Y2.5411 I1.0063 J-1.4897
G3 X-6.2121 Y2.5545 I-0.0082 J0.0124
X-6.2577 Y2.5773 I-0.0294 J-0.0017
X-6.2927 Y2.5198 I0.0433 J-0.0658
X-6.2928 Y2.5045 I0.0783 J-0.0083 F50.
G2 X-6.299 Y2.491 I-0.0148 J-0.0013
G1 X-6.315 Y2.4806 F60.
G2 X-6.4472 Y2.6164 I-0.0221 J0.1108
X-6.3176 Y2.6991 I1.0885 J-1.5639
X-6.3027 Y2.699 I0.0073 J-0.013
X-6.2956 Y2.6347 I-0.0206 J-0.0348
X-6.4184 Y2.6105 I-0.0808 J0.0862
X-6.4323 Y2.6169 I0.042 J0.1104 F50.
G3 X-6.4472 Y2.6164 I-0.0071 J-0.0131
G1 X-6.4658 Y2.6041 F60.
X-6.4713 Y2.6006
X-6.4768 Y2.5939
X-6.4818 Y2.5869
X-6.4862 Y2.5796
X-6.4902 Y2.5719
X-6.4935 Y2.564
X-6.4963 Y2.5558
X-6.4985 Y2.5475
X-6.5 Y2.539
X-6.5009 Y2.5304
X-6.5012 Y2.5218
X-6.5009 Y2.5132
X-6.4999 Y2.5046
X-6.4984 Y2.4962
X-6.4962 Y2.4878
X-6.4934 Y2.4797
X-6.49 Y2.4718
X-6.486 Y2.4641
X-6.4815 Y2.4568
X-6.4765 Y2.4498
X-6.471 Y2.4432
X-6.465 Y2.437
X-6.4586 Y2.4313
X-6.4518 Y2.426
X-6.4446 Y2.4213
X-6.437 Y2.4171
X-6.4292 Y2.4134
X-6.4212 Y2.4104
X-6.3726 Y2.4425
X-6.3272 Y2.4726
X-6.315 Y2.4806
G3 X-6.3087 Y2.4941 I-0.0086 J0.0122
X-6.323 Y2.5096 I-0.0172 J-0.0016
X-6.4148 Y2.4398 I-0.0134 J-0.0776
Y2.4245 I0.0783 J-0.0078 F50.
G2 X-6.421 Y2.411 I-0.0148 J-0.0014
G1 X-6.4431 Y2.3963 F60.
G2 X-6.5865 Y2.5238 I-0.0264 J0.1147
X-6.4713 Y2.6006 I1.3048 J-1.833
X-6.4493 Y2.584 I0.0076 J-0.0128
X-6.4522 Y2.5773 I-0.022 J0.0057
X-6.5562 Y2.5236 I-0.0991 J0.0643
X-6.5753 Y2.5259 I0.0049 J0.118 F50.
G3 X-6.5865 Y2.5238 I-0.003 J-0.0146
G1 X-6.6044 Y2.5111 F60.
X-6.6093 Y2.5077
X-6.6144 Y2.5008
X-6.619 Y2.4936
X-6.6231 Y2.486
X-6.6266 Y2.4782
X-6.6295 Y2.4701
X-6.6318 Y2.4619
X-6.6335 Y2.4534
X-6.6346 Y2.4449
X-6.635 Y2.4364
X-6.6348 Y2.4278
X-6.634 Y2.4192
X-6.6326 Y2.4108
X-6.6306 Y2.4025
X-6.6279 Y2.3943
X-6.6247 Y2.3863
X-6.6209 Y2.3787
X-6.6165 Y2.3713
X-6.6117 Y2.3642
X-6.6063 Y2.3575
X-6.6004 Y2.3513
X-6.5941 Y2.3455
X-6.5874 Y2.3401
X-6.5803 Y2.3353
X-6.5729 Y2.331
X-6.5652 Y2.3272
X-6.5572 Y2.3241
X-6.549 Y2.3215
G2 X-6.4431 Y2.3963 I1.8037 J-2.4401
G3 X-6.437 Y2.4099 I-0.0087 J0.0121
X-6.4491 Y2.4233 I-0.0152 J-0.0016
X-6.5438 Y2.351 I-0.0161 J-0.0771
X-6.5432 Y2.3357 I0.0786 J-0.0048 F50.
G2 X-6.5489 Y2.322 I-0.0148 J-0.002
G1 X-6.5582 Y2.3153 F60.
X-6.567 Y2.3091
X-6.5748 Y2.3065
X-6.5829 Y2.3045
X-6.5911 Y2.3031
X-6.5993 Y2.3022
X-6.6076 Y2.302
X-6.6159 Y2.3023
X-6.6242 Y2.3033
X-6.6323 Y2.3049
X-6.6403 Y2.307
X-6.6482 Y2.3097
X-6.6558 Y2.313
X-6.6632 Y2.3168
X-6.6702 Y2.3211
X-6.677 Y2.326
X-6.6834 Y2.3313
X-6.6893 Y2.337
X-6.6949 Y2.3432
X-6.6999 Y2.3498
X-6.7045 Y2.3567
X-6.7086 Y2.3639
X-6.7122 Y2.3714
X-6.7152 Y2.3791
X-6.7176 Y2.3871
X-6.7195 Y2.3952
X-6.7207 Y2.4034
X-6.7214 Y2.4116
X-6.7215 Y2.4199
X-6.7209 Y2.4282
G2 X-6.6093 Y2.5077 I1.5696 J-2.0857
X-6.5867 Y2.4919 I0.008 J-0.0126
X-6.5986 Y2.4686 I-0.0513 J0.0113
X-6.6903 Y2.4285 I-0.0888 J0.0779
X-6.7093 Y2.4305 I0.0029 J0.1181 F50.
G3 X-6.7205 Y2.4282 I-0.0028 J-0.0146
G1 X-6.7429 Y2.4117 F60.
X-6.7477 Y2.4048
X-6.752 Y2.3975
X-6.7557 Y2.3899
X-6.7588 Y2.3821
X-6.7614 Y2.374
X-6.7634 Y2.3658
X-6.7648 Y2.3575
X-6.7656 Y2.3491
X-6.7658 Y2.3407
X-6.7654 Y2.3322
X-6.7643 Y2.3238
X-6.7627 Y2.3156
X-6.7605 Y2.3074
X-6.7577 Y2.2995
X-6.7543 Y2.2917
X-6.7503 Y2.2843
X-6.7459 Y2.2771
X-6.7409 Y2.2703
X-6.7355 Y2.2638
X-6.7296 Y2.2578
X-6.7232 Y2.2522
X-6.7165 Y2.2471
X-6.7095 Y2.2425
X-6.7021 Y2.2384
X-6.6944 Y2.2348
X-6.6865 Y2.2318
X-6.6785 Y2.2294
X-6.6764 Y2.2312
X-6.6747 Y2.2333
X-6.6733 Y2.2356
X-6.6725 Y2.2382
X-6.6721 Y2.2409
X-6.6722 Y2.2436
X-6.6728 Y2.2462
X-6.6763 Y2.2581
X-6.7194 Y2.4009
X-6.7203 Y2.4037 F50.
G3 X-6.7429 Y2.4117 I-0.0143 J-0.0043
X-6.8198 Y2.3144 I0.067 J-0.1318 F60.
X-6.6406 Y2.2596 I0.0955 J-0.0082
G1 X-6.6044 Y2.2822
X-6.5741 Y2.304
X-6.567 Y2.3091
X-6.5585 Y2.3039
X-6.5497 Y2.2992
X-6.5406 Y2.295
X-6.5313 Y2.2915
X-6.5217 Y2.2885
X-6.5121 Y2.2861
X-6.5022 Y2.2843
X-6.4923 Y2.2831
X-6.4824 Y2.2826
X-6.4724 Y2.2827
X-6.4624 Y2.2833
X-6.4526 Y2.2846
X-6.4428 Y2.2865
X-6.4331 Y2.289
X-6.4236 Y2.2921
X-6.4144 Y2.2958
X-6.4053 Y2.3001
X-6.3966 Y2.3049
X-6.3882 Y2.3102
X-6.3801 Y2.3161
X-6.3724 Y2.3224
X-6.3651 Y2.3292
X-6.3582 Y2.3364
X-6.3519 Y2.3441
X-6.3459 Y2.3521
G2 X-6.0423 Y2.4977 I0.5895 J-0.8403
G3 X-5.5559 Y2.5254 I-0.0814 J5.7133
G2 X-5.1224 Y2.754 I1.7131 J-2.7229
X-4.6925 Y2.7315 I-0.1037 J-6.1081
G3 X-4.3992 Y2.7463 I0.1231 J0.4749
X-4.5115 Y3.0918 I-0.0996 J0.1586
X-5.2719 Y3.1226 I-0.4828 J-2.515
X-5.6509 Y2.9172 I6.398 J-12.2537
G2 X-6.1969 Y2.8677 I-2.1454 J20.6318
G1 X-6.2342 Y2.8501
X-6.2712 Y2.8321
X-6.3079 Y2.8134
X-6.3444 Y2.7943
X-6.3806 Y2.7746
X-6.4164 Y2.7543
X-6.452 Y2.7335
X-6.4872 Y2.7122
X-6.5222 Y2.6904
X-6.5568 Y2.6681
X-6.5911 Y2.6452
X-6.625 Y2.6219
X-6.6586 Y2.598
X-6.6918 Y2.5737
X-6.7246 Y2.5488
X-6.7571 Y2.5235
X-6.7892 Y2.4977
X-6.821 Y2.4714
X-6.8523 Y2.4447
X-6.8832 Y2.4175
G3 X-6.5979 Y2.1702 I0.1595 J-0.1042
G1 X-6.5669 Y2.1753
X-6.5364 Y2.1776
G3 X-6.0964 Y2.3773 I-0.213 J1.0537
G2 X-5.5807 Y2.4232 I0.731 J-5.2921
G1 X-5.4242 Y2.496
X-5.2679 Y2.5691
X-5.1116 Y2.6425
G2 X-4.6545 Y2.6255 I0.1459 J-2.2277
G3 X-4.4775 Y2.6217 I0.099 J0.4993
G1 X-4.4094 Y2.6552
X-4.3863 Y2.6654
X-4.3631 Y2.6745
X-4.352 Y2.6798
X-4.3412 Y2.6858
X-4.3307 Y2.6922
X-4.3205 Y2.6991
X-4.3106 Y2.7065
X-4.3011 Y2.7144
X-4.2921 Y2.7227
X-4.2834 Y2.7315
X-4.2751 Y2.7407
X-4.2674 Y2.7503
X-4.26 Y2.7602
X-4.2532 Y2.7705
X-4.2469 Y2.7811
X-4.2411 Y2.7919
X-4.2359 Y2.8031
X-4.2311 Y2.8145
X-4.227 Y2.8261
X-4.2234 Y2.8379
X-4.2204 Y2.8499
X-4.218 Y2.862
X-4.2161 Y2.8742
X-4.2149 Y2.8864
X-4.2143 Y2.8987
X-4.2142 Y2.9111
X-4.2148 Y2.9234
X-4.2159 Y2.9357
X-4.2177 Y2.9479
X-4.22 Y2.96
X-4.2229 Y2.972
X-4.2264 Y2.9838
X-4.2305 Y2.9954
X-4.2351 Y3.0069
X-4.2403 Y3.0181
X-4.246 Y3.029
X-4.2522 Y3.0396
X-4.259 Y3.05
X-4.2662 Y3.0599
X-4.3631 Y3.1358
G3 X-4.8666 Y3.2239 I-0.4126 J-0.8757
G1 X-4.8904 Y3.2282
X-4.9142 Y3.2319
X-4.9381 Y3.2349
X-4.962 Y3.2373
X-4.9861 Y3.2391
X-5.0101 Y3.2403
X-5.0342 Y3.2408
X-5.0583 Y3.2407
X-5.0824 Y3.24
X-5.1065 Y3.2386
X-5.1305 Y3.2367
X-5.1544 Y3.2341
X-5.1783 Y3.2308
X-5.2021 Y3.227
X-5.2258 Y3.2225
X-5.2493 Y3.2174
X-5.2727 Y3.2117
X-5.296 Y3.2054
X-5.3191 Y3.1985
X-5.342 Y3.191
X-5.3646 Y3.1829
X-5.3871 Y3.1742
X-5.4093 Y3.1649
X-5.4313 Y3.1551
X-5.4531 Y3.1446
X-5.4745 Y3.1337
X-5.4956 Y3.1221
X-5.5165 Y3.11
X-5.537 Y3.0974
X-5.5572 Y3.0842
X-5.577 Y3.0706
X-5.5965 Y3.0564
X-5.6156 Y3.0417
G2 X-6.1002 Y2.9837 I-0.4424 J1.6453
G3 X-6.278 Y2.9419 I0.0432 J-0.5816
G1 X-6.3171 Y2.9222
X-6.356 Y2.9019
X-6.3945 Y2.8811
X-6.4328 Y2.8598
X-6.4707 Y2.8379
X-6.5084 Y2.8154
X-6.5457 Y2.7925
X-6.5827 Y2.769
X-6.6193 Y2.745
X-6.6556 Y2.7204
X-6.6915 Y2.6954
X-6.7271 Y2.6698
X-6.7623 Y2.6438
X-6.7972 Y2.6172
X-6.8316 Y2.5902
X-6.8657 Y2.5626
X-6.8994 Y2.5346
X-6.9327 Y2.5061
X-6.9839 Y2.3748
X-6.9879 Y2.3628
X-6.9913 Y2.3506
X-6.9941 Y2.3383
X-6.9963 Y2.3258
X-6.9979 Y2.3133
X-6.9988 Y2.3007
X-6.9992 Y2.288
X-6.9989 Y2.2754
X-6.998 Y2.2628
X-6.9964 Y2.2502
X-6.9943 Y2.2377
X-6.9915 Y2.2254
X-6.9881 Y2.2132
X-6.9841 Y2.2012
X-6.9796 Y2.1894
X-6.9744 Y2.1778
X-6.9687 Y2.1665
X-6.9624 Y2.1555
X-6.9556 Y2.1449
X-6.9483 Y2.1345
X-6.9405 Y2.1246
X-6.9322 Y2.115
X-6.9234 Y2.1059
X-6.9142 Y2.0972
X-6.9046 Y2.089
X-6.8946 Y2.0813
X-6.8842 Y2.0741
X-6.8735 Y2.0673
X-6.8624 Y2.0612
X-6.8511 Y2.0556
X-6.8395 Y2.0505
X-6.8277 Y2.0461
X-6.8156 Y2.0422
X-6.8034 Y2.0389
X-6.791 Y2.0362
X-6.7785 Y2.0342
X-6.7002 Y2.0452
X-6.677 Y2.0477
X-6.6539 Y2.0493
X-6.6268 Y2.0529
X-6.5999 Y2.0571
X-6.573 Y2.0618
X-6.5462 Y2.0672
X-6.5195 Y2.0731
X-6.493 Y2.0796
X-6.4667 Y2.0867
X-6.4404 Y2.0944
X-6.4144 Y2.1026
X-6.3885 Y2.1113
X-6.3629 Y2.1207
X-6.3374 Y2.1305
X-6.3122 Y2.141
X-6.2872 Y2.152
X-6.2624 Y2.1635
X-6.2379 Y2.1755
X-6.2137 Y2.1881
X-6.1897 Y2.2012
X-6.1661 Y2.2148
X-6.1427 Y2.2289
X-6.1196 Y2.2435
X-6.0969 Y2.2586
X-6.0745 Y2.2742
X-6.0524 Y2.2903
G3 X-5.5017 Y2.3361 I-0.262 J6.4851
G2 X-5.0307 Y2.5538 I1.0328 J-1.6161
G3 X-4.784 Y2.538 I0.8854 J11.8464
X-4.6495 Y2.5269 I0.8258 J9.2234
G1 X-4.648 Y2.5276
X-4.556 Y2.5828
X-4.5483 Y2.587
X-4.4775 Y2.6217
G3 X-4.4697 Y2.6344 I-0.007 J0.0131
X-4.4873 Y2.6594 I-0.0254 J0.0008
X-4.641 Y2.5562 I-0.0359 J-0.1125
X-4.6412 Y2.5409 I0.1177 J-0.0093 F50.
G2 X-4.648 Y2.5276 I-0.0149 J-0.0008
G1 X-4.6871 Y2.5041 F60.
X-4.7085 Y2.4904
X-4.7218 Y2.4808
G2 X-5.0611 Y2.4397 I-0.2814 J0.9024
X-5.5632 Y2.2191 I-3.3063 J6.8441
G3 X-6.0505 Y2.1783 I0.0112 J-3.0643
G2 X-6.273 Y2.0478 I-0.7183 J0.9691
G3 X-6.6539 Y2.0493 I-0.1979 J-1.8835
G2 X-6.66 Y2.078 I-0.0005 J0.0149
G3 X-6.6527 Y2.0991 I-0.0056 J0.0138
X-6.6746 Y2.1037 I-0.013 J-0.0074
G1 X-6.7506 Y2.0464
G2 X-6.7787 Y2.0333 I-0.0395 J0.0482 F50.
X-6.9212 Y2.0225 I-0.1042 J0.43 F60.
G1 X-6.9368 Y2.026
X-6.9485 Y2.0304
X-6.9547 Y2.0331
X-6.9718 Y2.0414
X-6.9838 Y2.0496
G2 X-7.03 Y2.2586 I0.0917 J0.1299
G1 X-6.9839 Y2.3748
G2 X-6.9567 Y2.3626 I0.0136 J-0.0061
X-6.9766 Y2.3552 I-0.0136 J0.0061
X-6.9837 Y2.3751 I0.0063 J0.0135
G1 X-6.9328 Y2.4819
G2 X-6.9059 Y2.4691 I0.0134 J-0.0064
X-6.9341 Y2.4733 I-0.0134 J0.0064
X-6.9309 Y2.5041 I0.0616 J0.0092 F50.
G1 X-6.8702 Y2.6522 F60.
G2 X-6.5043 Y2.9347 I0.9889 J-0.9026
X-5.8332 Y3.0887 I0.5518 J-0.8657
G3 X-5.331 Y3.3099 I-0.688 J2.2427
G2 X-5.0549 Y3.3395 I0.3139 J-1.6228
X-4.5841 Y3.3073 I-0.0839 J-4.6785
G1 X-4.3631 Y3.1358
G2 X-4.3822 Y3.1129 I-0.0095 J-0.0115
X-4.384 Y3.1341 I0.0095 J0.0115
X-4.3628 Y3.1356 I0.0113 J-0.0097
G1 X-4.2864 Y3.0681
G2 X-4.3061 Y3.0457 I-0.0099 J-0.0112
X-4.2944 Y3.0717 I0.0099 J0.0112
X-4.2656 Y3.0604 I-0.0076 J-0.0618 F50.
X-4.1549 Y2.9605 I-0.2058 J-0.3394 F60.
G1 X-4.1445 Y2.9417
X-4.1373 Y2.9226
X-4.1358 Y2.918
X-4.1323 Y2.9048
X-4.1315 Y2.8985
G2 X-4.2476 Y2.7204 I-0.1584 J-0.0237
G1 X-4.3631 Y2.6745
G2 X-4.3788 Y2.6989 I-0.0049 J0.0141
G1 X-4.1611 Y2.9227
X-4.1605 Y2.9233 F50.
G2 X-4.1358 Y2.918 I0.0107 J-0.0104
G1 X-4.1323 Y2.9071 F60.
X-4.1321 Y2.9064
X-4.1315 Y2.8985
G2 X-4.1384 Y2.8853 I-0.0149 J-0.0006
X-4.1496 Y2.8942 I-0.004 J0.0064
G1 X-4.1492 Y2.8953
G2 X-4.1409 Y2.9081 I0.0366 J-0.0145 F50.
G3 X-4.1373 Y2.9226 I-0.0107 J0.0103
G1 X-4.1438 Y2.9425 F60.
X-4.1442 Y2.9433
X-4.1549 Y2.9605
G3 X-4.1662 Y2.9658 I-0.0099 J-0.0066
G1 X-4.1839 Y2.9641
G2 X-4.2952 Y2.9731 I-0.0259 J0.371
X-4.3011 Y2.976 I0.0034 J0.0145
G1 X-4.5411 Y3.1692
X-4.5435 Y3.1716
X-4.5452 Y3.1744
G2 X-4.5772 Y3.2773 I0.3354 J0.1607
X-4.58 Y3.2988 I0.3674 J0.0578 F50.
G3 X-4.5842 Y3.3068 I-0.0119 J-0.0012
G1 X-4.6757 Y3.3775 F60.
G3 X-5.1754 Y3.4274 I-0.338 J-0.8568
X-5.7386 Y3.2093 I0.1651 J-1.2624
X-6.3465 Y3.1288 I-0.0056 J-2.2926
X-6.5632 Y3.0151 I0.757 J-1.7067
X-6.7801 Y2.8721 I1.3387 J-2.2657
G1 X-6.8702 Y2.6522
G3 X-6.8677 Y2.6375 I0.014 J-0.0052
X-6.8058 Y2.6298 I0.035 J0.029
X-6.7684 Y2.8451 I-0.093 J0.1271
X-6.7776 Y2.8574 I-0.1304 J-0.0882 F50.
G2 X-6.7801 Y2.8721 I0.0115 J0.0095
G1 X-6.7376 Y2.9758 F60.
G2 X-6.4071 Y3.2081 I0.5671 J-0.4555
X-5.807 Y3.3071 I0.6225 J-1.9042
X-5.2404 Y3.5316 I1.6048 J-3.2229
X-4.9026 Y3.5331 I0.187 J-4.2326
X-4.8712 Y3.5287 I0.0099 J-0.044
G1 X-4.6757 Y3.3775
G2 X-4.6705 Y3.3636 I-0.0095 J-0.0115
X-4.7086 Y3.3309 I-0.0387 J0.0066
X-4.8679 Y3.4996 I-0.0022 J0.1575
X-4.8661 Y3.5148 I0.1571 J-0.0112 F50.
G3 X-4.8712 Y3.5287 I-0.0147 J0.0025
G1 X-4.9524 Y3.5915 F60.
G3 X-5.1294 Y3.6321 I-0.1557 J-0.2727
X-5.1284 Y3.6033 I0.0044 J-0.0142
G1 X-4.9653 Y3.5655
X-4.9623 Y3.5651
X-4.9593 Y3.5653
X-4.9565 Y3.5662
G3 X-4.9524 Y3.5915 I-0.0054 J0.0139 F50.
X-5.0385 Y3.6548 I-0.1171 J-0.0692 F60.
G1 X-5.0392
X-5.0457 Y3.6541
X-5.0573 Y3.6514
X-5.5664 Y3.515
G2 X-5.972 Y3.3913 I-0.4867 J0.8694
G1 X-6.033 Y3.387
X-6.0483 Y3.3858
X-6.0492 Y3.3856
X-6.4919 Y3.267
G3 X-6.6494 Y3.1909 I0.1216 J-0.4524
X-6.6293 Y3.1721 I0.014 J-0.0052
G1 X-6.4824 Y3.2389
G3 X-6.4743 Y3.2484 I-0.0062 J0.0136
X-6.4919 Y3.267 I-0.0143 J0.0041 F50.
X-6.6315 Y3.2278 I0.041 J-0.4144 F60.
G1 X-6.6331 Y3.2264
X-6.6337 Y3.2256
X-6.6385 Y3.2176
X-6.7376 Y2.9758
G3 X-6.7214 Y2.9559 I0.014 J-0.0052
G1 X-6.7185 Y2.9563 Z-0.2347
X-6.7157 Y2.9567 Z-0.2339
X-6.7132 Y2.9571 Z-0.2325
X-6.711 Y2.9574 Z-0.2306
X-6.7091 Y2.9577 Z-0.2284
X-6.7078 Y2.9579 Z-0.2258
X-6.7069 Y2.9581 Z-0.223
X-6.7066 Z-0.2201
G0 Z-0.2052
X-6.086 Y3.3589
G1 Z-0.2201 F50.
X-6.0858 Y3.3591 Z-0.223
X-6.0852 Y3.3597 Z-0.2258
X-6.0843 Y3.3607 Z-0.2284
X-6.083 Y3.362 Z-0.2306
X-6.0814 Y3.3636 Z-0.2325
X-6.0796 Y3.3655 Z-0.2339
X-6.0777 Y3.3675 Z-0.2347
X-6.0756 Y3.3695 Z-0.235
G2 X-6.0492 Y3.3856 I0.0446 J-0.0435
G1 X-5.5664 Y3.515 F60.
G2 X-5.5519 Y3.5104 I0.0034 J-0.0145
G1 X-5.55 Y3.5083 Z-0.2347
X-5.5481 Y3.5062 Z-0.2339
X-5.5464 Y3.5043 Z-0.2325
X-5.5449 Y3.5026 Z-0.2306
X-5.5437 Y3.5012 Z-0.2284
X-5.5427 Y3.5002 Z-0.2258
X-5.5422 Y3.4996 Z-0.223
X-5.542 Y3.4994 Z-0.2201
G0 Z-0.2052
X-4.6969 Y2.5189
G1 Z-0.2201 F50.
X-4.697 Y2.5186 Z-0.223
X-4.6974 Y2.5179 Z-0.2258
X-4.6979 Y2.5166 Z-0.2284
X-4.6986 Y2.5149 Z-0.2306
X-4.6995 Y2.5128 Z-0.2325
X-4.7006 Y2.5105 Z-0.2339
X-4.7017 Y2.5079 Z-0.2347
X-4.7028 Y2.5052 Z-0.235
G2 X-4.7218 Y2.4808 I-0.0572 J0.0248
G1 X-4.8367 Y2.3979 F60.
X-4.8491 Y2.388
G2 X-5.1088 Y2.3131 I-0.7623 J2.1544
X-5.9243 Y2.1048 I-0.7332 J1.1705
G3 X-6.1042 Y2.0253 I0.6033 J-1.6095
G1 X-6.168 Y2.0373
X-6.1911 Y2.0399
X-6.2732 Y2.0483
G2 X-6.285 Y2.0574 I0.002 J0.0148
X-6.2556 Y2.1148 I0.0393 J0.0161
X-6.1207 Y2.0497 I0.0277 J-0.1148
X-6.1152 Y2.0354 I-0.1072 J-0.0497 F50.
G3 X-6.1042 Y2.0253 I0.0142 J0.0045
G1 X-6.006 Y2.0069 F60.
X-5.9748 Y2.0046
X-5.9436 Y2.003
X-5.9123 Y2.0019
X-5.881 Y2.0014
X-5.8497 Y2.0016
X-5.8184 Y2.0023
X-5.7871 Y2.0037
X-5.7559 Y2.0056
X-5.7247 Y2.0082
X-5.6936 Y2.0113
X-5.6625 Y2.0151
X-5.6315 Y2.0195
X-5.6006 Y2.0244
X-5.5698 Y2.03
X-5.5391 Y2.0361
X-5.5086 Y2.0429
X-5.4782 Y2.0502
X-5.4479 Y2.0581
X-5.4178 Y2.0666
X-5.3878 Y2.0757
X-5.358 Y2.0853
X-5.3285 Y2.0955
X-5.2991 Y2.1063
X-5.2699 Y2.1177
X-5.241 Y2.1296
X-5.2123 Y2.1421
X-5.1839 Y2.1551
X-5.1557 Y2.1687
X-5.1277 Y2.1828
X-5.1001 Y2.1975
X-5.0727 Y2.2127
X-5.0457 Y2.2284
X-5.0189 Y2.2446
G3 X-4.8491 Y2.388 I-2.3137 J2.913
X-4.8446 Y2.4022 I-0.0101 J0.011
X-4.9277 Y2.4433 I-0.0581 J-0.013
X-5.0159 Y2.2681 I0.0659 J-0.143
X-5.012 Y2.2533 I0.1542 J0.0322 F50.
G2 X-5.0153 Y2.2388 I-0.0142 J-0.0044
G1 X-5.0861 Y2.1668 F60.
X-5.1036 Y2.1474
X-5.1359 Y2.1085
G2 X-5.7072 Y1.913 I-0.5785 J0.7578
G3 X-6.006 Y2.0069 I-0.7294 J-1.7974
G2 X-6.0166 Y2.0174 I0.0038 J0.0144
X-5.9854 Y2.0804 I0.0511 J0.0139
X-5.719 Y1.9398 I0.074 J-0.1824
G1 X-5.7164 Y1.9247 F50.
G3 X-5.7072 Y1.913 I0.0148 J0.002
G1 X-5.6821 Y1.9037 F60.
X-5.6589 Y1.8938
X-5.5895 Y1.8613
G3 X-5.2931 Y1.8992 I0.0908 J0.4672
X-5.3074 Y1.9222 I-0.0125 J0.0081
G1 X-5.5845 Y1.8894
X-5.5868 Y1.8889
X-5.589 Y1.8881
X-5.5911 Y1.8869
G3 X-5.5895 Y1.8613 I0.0083 J-0.0123 F50.
X-5.3298 Y1.8534 I0.1344 J0.1444 F60.
G2 X-5.1359 Y2.1085 I2.7516 J-1.8901
G3 X-5.1454 Y2.1324 I-0.0118 J0.0091
G1 X-5.1483 Y2.1328 Z-0.2347
X-5.151 Y2.1332 Z-0.2339
X-5.1536 Y2.1336 Z-0.2325
X-5.1558 Y2.134 Z-0.2306
X-5.1576 Y2.1343 Z-0.2284
X-5.159 Y2.1345 Z-0.2258
X-5.1598 Y2.1346 Z-0.223
X-5.1601 Y2.1347 Z-0.2201
G0 Z0.4
X-6.8766 Y2.0316
Z-0.2052
G1 Z-0.2201 F50.
X-6.8768 Y2.0315 Z-0.223
X-6.8776 Y2.0312 Z-0.2258
X-6.8789 Y2.0307 Z-0.2284
X-6.8806 Y2.03 Z-0.2306
X-6.8827 Y2.0292 Z-0.2325
X-6.8851 Y2.0283 Z-0.2339
X-6.8878 Y2.0273 Z-0.2347
X-6.8905 Y2.0262 Z-0.235
G2 X-6.9212 Y2.0225 I-0.0226 J0.0581
G1 X-6.9359 Y2.025 F60.
X-6.9485 Y2.0304
G2 X-6.9419 Y2.059 I0.0059 J0.0137
G1 X-6.926 Y2.0591
G2 X-6.924 Y2.0294 I0.0001 J-0.0149
X-6.9547 Y2.0331 I-0.0082 J0.0618 F50.
G1 X-6.9706 Y2.0399 F60.
X-6.9713 Y2.0403
X-6.9838 Y2.0496
G2 X-6.9891 Y2.0638 I0.0094 J0.0116
G1 X-6.9886 Y2.0667 Z-0.2347
X-6.9881 Y2.0694 Z-0.2339
X-6.9877 Y2.072 Z-0.2325
X-6.9873 Y2.0742 Z-0.2306
X-6.9869 Y2.076 Z-0.2284
X-6.9867 Y2.0774 Z-0.2258
X-6.9866 Y2.0782 Z-0.223
X-6.9865 Y2.0785 Z-0.2201
G0 Z0.6
(SHAPE THROUGH FINISHING PASS)
M7
G0 X-5.0907 Y2.214
Z0.6
Z0.2
G1 Z0.1 F13.333
Z-0.185
X-5.0909 Y2.2137 Z-0.1906 F40.
X-5.0915 Y2.2131 Z-0.1961
X-5.0926 Y2.2119 Z-0.2015
X-5.094 Y2.2103 Z-0.2067
X-5.0959 Y2.2084 Z-0.2116
X-5.0981 Y2.206 Z-0.2162
X-5.1006 Y2.2032 Z-0.2204
X-5.1035 Y2.2002 Z-0.2241
X-5.1066 Y2.1968 Z-0.2273
X-5.1099 Y2.1932 Z-0.23
X-5.1135 Y2.1895 Z-0.2322
X-5.1171 Y2.1855 Z-0.2337
X-5.1209 Y2.1815 Z-0.2347
X-5.1247 Y2.1774 Z-0.235
X-5.1349 Y2.1665
G3 X-5.0642 Y2.169 I0.0341 J0.0366
G2 X-4.232 Y2.7096 I1.4963 J-1.3925 F50.
G3 X-4.1816 Y3.0144 I-0.057 J0.166
G1 X-5.0236 Y3.6656
G3 X-5.0458 Y3.67 I-0.0156 J-0.0202
G1 X-6.6326 Y3.2448
G3 X-6.6496 Y3.2299 I0.0066 J-0.0246
G1 X-7.0533 Y2.245
G3 X-6.8573 Y2.0061 I0.1624 J-0.0665
G2 X-5.5228 Y1.8135 I0.3915 J-2.0061
G3 X-5.2914 Y1.8755 I0.0818 J0.1574
G2 X-5.0642 Y2.169 I1.7234 J-1.099
G3 X-5.0667 Y2.2397 I-0.0366 J0.0341
G1 X-5.0769 Y2.2288
X-5.0807 Y2.2247 Z-0.2347
X-5.0845 Y2.2206 Z-0.2337
X-5.0882 Y2.2167 Z-0.2322
X-5.0917 Y2.2129 Z-0.23
X-5.095 Y2.2093 Z-0.2273
X-5.0981 Y2.2059 Z-0.2241
X-5.101 Y2.2029 Z-0.2204
X-5.1035 Y2.2001 Z-0.2162
X-5.1057 Y2.1978 Z-0.2116
X-5.1076 Y2.1958 Z-0.2067
X-5.1091 Y2.1942 Z-0.2015
X-5.1101 Y2.1931 Z-0.1961
X-5.1108 Y2.1924 Z-0.1906
X-5.111 Y2.1922 Z-0.185
G0 Z0.6
(2D SLOT CUT)
M7
G0 X-6.7385 Y4.4953
Z0.6
Z0.2
G1 Z0.1 F13.333
G2 X-6.6537 Y4.5291 Z0.0839 I0.1849 J-0.34 F40.
G1 X-5.6698 Y4.7927 Z-0.0957
G2 X-5.5475 Y4.8053 Z-0.1175 I0.1002 J-0.3738
X-5.3329 Y4.7251 I-0.0221 J-0.3864 F55.
G1 X-2.3176 Y2.3934
G2 X-1.8884 Y-0.3885 I-1.2504 J-1.6169
G3 X-1.9101 Y-0.5458 I0.1442 J-0.1
G1 X-1.6515 Y-1.2955
G3 X-1.5866 Y-1.3818 I0.1659 J0.0572
G1 X-1.346 Y-1.551
G2 X-1.5573 Y-2.0202 I-0.1507 J-0.2143
G1 X-3.8845 Y-1.4667
G3 X-3.9705 Y-1.4679 I-0.0406 J-0.1707
G1 X-5.0534 Y-1.758
G2 X-5.06 Y-1.7597 I-0.0843 J0.3134
G1 X-5.0601 Y-1.7598
X-5.9787 Y-1.9851
G2 X-8.3571 Y0.7751 I-0.487 J1.9851
G1 X-6.9117 Y4.3021
G2 X-6.6537 Y4.5291 I0.3581 J-0.1468
G1 X-5.6698 Y4.7927
G2 X-5.5475 Y4.8053 I0.1002 J-0.3738
X-5.3329 Y4.7251 I-0.0221 J-0.3864 F40.
G1 X-4.8565 Y4.3567 Z-0.2236
Z-0.135
X-4.7859 Y4.3021
X-4.264 Y3.8985 F55.
Z-0.235 F13.333
X-2.3176 Y2.3934 F55.
G2 X-1.6904 Y1.5844 I-1.2504 J-1.6169
G1 Z-0.135
G2 X-1.5254 Y0.8538 I-1.8775 J-0.8079
G1 Z-0.235 F13.333
G2 X-1.8884 Y-0.3885 I-2.0425 J-0.0773 F55.
G3 X-1.9101 Y-0.5458 I0.1442 J-0.1
G1 X-1.6515 Y-1.2955
G3 X-1.5866 Y-1.3818 I0.1659 J0.0572
G1 X-1.346 Y-1.551
G2 X-1.5573 Y-2.0202 I-0.1507 J-0.2143
G1 X-3.8845 Y-1.4667
G3 X-3.9705 Y-1.4679 I-0.0406 J-0.1707
G1 X-5.0534 Y-1.758
G2 X-5.06 Y-1.7597 I-0.0843 J0.3134
G1 X-5.0601 Y-1.7598
X-5.2113 Y-1.7968
Z-0.135
X-5.9387 Y-1.9753
Z-0.235 F13.333
X-5.9787 Y-1.9851 F55.
G2 X-8.3571 Y0.7751 I-0.487 J1.9851
G1 X-8.1791 Y1.2094
Z-0.135
X-7.8951 Y1.9025
Z-0.235 F13.333
X-7.2967 Y3.3626 F55.
Z-0.135
X-7.0127 Y4.0556
Z-0.235 F13.333
X-6.9117 Y4.3021 F55.
G2 X-6.6537 Y4.5291 I0.3581 J-0.1468
G1 X-5.6698 Y4.7927
G2 X-5.3329 Y4.7251 I0.1002 J-0.3738
G1 X-4.8565 Y4.3567
Z-0.135
X-4.7859 Y4.3021
G0 Z0.6
M9
G53 Z0.
M30
%
