%
(971-23-P-0166_GEARED WRIST PLATE_1537)
(T1  D=0.1537 CR=0. - ZMIN=-0.235 - FLAT END MILL)
G90 G94 G17 G91.1
G64 P0.001 Q0.001
G20
G53 G0 Z0.
(.3 CIRCLUAR THROUGH HOLE)
M9
T1 M6
S22000 M3
G4 P10.
G54
M7
G0 X-2.8097 Y2.3471
G43 Z0.6 H1
G0 Z0.1146
G1 Z0.05 F40.
Y2.3548
G3 X-2.8137 Y2.3588 I-0.0039 J0.
Y2.343 Z0. I0. J-0.0079
Y2.3588 Z-0.05 I0. J0.0079
X-2.8173 Y2.3438 Z-0.0925 I0. J-0.0079
X-2.8101 Y2.3579 Z-0.1425 I0.0036 J0.007
X-2.8197 Y2.356 Z-0.1637 I-0.0036 J-0.007
X-2.8077 Y2.3457 Z-0.2138 I0.006 J-0.0051
X-2.8073 Y2.3555 Z-0.235 I-0.006 J0.0051
X-2.8201 Y2.3462 I-0.0064 J-0.0046
X-2.8073 Y2.3555 I0.0064 J0.0046
X-2.8128 Y2.3564 I-0.0032 J-0.0023
G1 X-2.819 Y2.3519
G0 Z0.4
X-2.1377 Y-0.2339
Z0.1146
G1 Z0.05 F40.
Y-0.2262
G3 X-2.1416 Y-0.2223 I-0.004 J0.
Y-0.2381 Z0. I0. J-0.0079
Y-0.2223 Z-0.05 I0. J0.0079
Y-0.2381 Z-0.1 I0. J-0.0079
Y-0.2223 Z-0.15 I0. J0.0079
Y-0.2381 Z-0.2 I0. J-0.0079
X-2.1352 Y-0.2255 Z-0.235 I0. J0.0079
X-2.148 Y-0.2348 I-0.0064 J-0.0046
X-2.1352 Y-0.2255 I0.0064 J0.0046
X-2.1408 Y-0.2246 I-0.0032 J-0.0023
G1 X-2.147 Y-0.2292
G0 Z0.4
X-4.5799 Y-1.3417
Z0.1146
G1 Z0.05 F40.
Y-1.334
G3 X-4.5839 Y-1.33 I-0.004 J0.
Y-1.3458 Z0. I0. J-0.0079
Y-1.33 Z-0.05 I0. J0.0079
Y-1.3458 Z-0.1 I0. J-0.0079
Y-1.33 Z-0.15 I0. J0.0079
Y-1.3458 Z-0.2 I0. J-0.0079
X-4.5775 Y-1.3333 Z-0.235 I0. J0.0079
X-4.5903 Y-1.3426 I-0.0064 J-0.0046
X-4.5775 Y-1.3333 I0.0064 J0.0046
X-4.583 Y-1.3324 I-0.0032 J-0.0023
G1 X-4.5892 Y-1.3369
G0 Z0.4
X-5.8952 Y-0.5708
Z0.1146
G1 Z0.05 F40.
Y-0.5785
G3 X-5.8912 Y-0.5824 I0.0039 J0.
Y-0.5666 Z0. I0. J0.0079
Y-0.5824 Z-0.05 I0. J-0.0079
Y-0.5666 Z-0.1 I0. J0.0079
Y-0.5824 Z-0.15 I0. J-0.0079
X-5.8852 Y-0.5797 Z-0.1637 I0. J0.0079
X-5.8972 Y-0.5694 Z-0.2138 I-0.006 J0.0051
X-5.8976 Y-0.5792 Z-0.235 I0.006 J-0.0051
X-5.8848 Y-0.5699 I0.0064 J0.0046
X-5.8976 Y-0.5792 I-0.0064 J-0.0046
X-5.8921 Y-0.58 I0.0032 J0.0023
G1 X-5.8859 Y-0.5755
G0 Z0.4
X-7.0442 Y-0.5708
Z0.1146
G1 Z0.05 F40.
Y-0.5785
G3 X-7.0403 Y-0.5824 I0.0039 J0.
Y-0.5666 Z0. I0. J0.0079
X-7.048 Y-0.5727 Z-0.0212 I0. J-0.0079
X-7.0326 Y-0.5764 Z-0.0713 I0.0077 J-0.0018
X-7.0367 Y-0.5675 Z-0.0925 I-0.0077 J0.0018
X-7.0439 Y-0.5816 Z-0.1425 I-0.0036 J-0.007
X-7.0343 Y-0.5797 Z-0.1637 I0.0036 J0.007
X-7.0463 Y-0.5694 Z-0.2138 I-0.006 J0.0051
X-7.0467 Y-0.5792 Z-0.235 I0.006 J-0.0051
X-7.0339 Y-0.5699 I0.0064 J0.0046
X-7.0467 Y-0.5792 I-0.0064 J-0.0046
X-7.0411 Y-0.58 I0.0032 J0.0023
G1 X-7.0349 Y-0.5755
G0 Z0.4
X-7.244 Y-1.5801
Z0.1146
G1 Z0.05 F40.
Y-1.5724
G3 X-7.2479 Y-1.5685 I-0.0039 J0.
Y-1.5843 Z0. I0. J-0.0079
Y-1.5685 Z-0.05 I0. J0.0079
Y-1.5843 Z-0.1 I0. J-0.0079
Y-1.5685 Z-0.15 I0. J0.0079
Y-1.5843 Z-0.2 I0. J-0.0079
X-7.2416 Y-1.5717 Z-0.235 I0. J0.0079
X-7.2543 Y-1.581 I-0.0064 J-0.0046
X-7.2416 Y-1.5717 I0.0064 J0.0046
X-7.2471 Y-1.5708 I-0.0032 J-0.0023
G1 X-7.2533 Y-1.5754
G0 Z0.4
X-7.9124 Y1.0114
Z0.1146
G1 Z0.05 F40.
Y1.0037
G3 X-7.9084 Y0.9997 I0.004 J0.
Y1.0155 Z0. I0. J0.0079
Y0.9997 Z-0.05 I0. J-0.0079
X-7.9049 Y1.0147 Z-0.0925 I0. J0.0079
X-7.912 Y1.0006 Z-0.1425 I-0.0036 J-0.007
X-7.9024 Y1.0025 Z-0.1637 I0.0036 J0.007
X-7.9145 Y1.0128 Z-0.2137 I-0.006 J0.0051
X-7.9148 Y1.003 Z-0.235 I0.006 J-0.0051
X-7.9021 Y1.0123 I0.0064 J0.0046
X-7.9148 Y1.003 I-0.0064 J-0.0046
X-7.9093 Y1.0021 I0.0032 J0.0023
G1 X-7.9031 Y1.0066
G0 Z0.4
X-7.0442 Y0.5783
Z0.1146
G1 Z0.05 F40.
Y0.5706
G3 X-7.0403 Y0.5666 I0.0039 J0.
Y0.5824 Z0. I0. J0.0079
X-7.048 Y0.5764 Z-0.0212 I0. J-0.0079
X-7.0326 Y0.5727 Z-0.0713 I0.0077 J-0.0018
X-7.0367 Y0.5816 Z-0.0925 I-0.0077 J0.0018
X-7.0439 Y0.5675 Z-0.1425 I-0.0036 J-0.007
X-7.0343 Y0.5694 Z-0.1637 I0.0036 J0.007
X-7.0463 Y0.5797 Z-0.2138 I-0.006 J0.0051
X-7.0467 Y0.5699 Z-0.235 I0.006 J-0.0051
X-7.0339 Y0.5792 I0.0064 J0.0046
X-7.0467 Y0.5699 I-0.0064 J-0.0046
X-7.0411 Y0.569 I0.0032 J0.0023
G1 X-7.0349 Y0.5735
G0 Z0.4
X-5.8952 Y0.5783
Z0.1146
G1 Z0.05 F40.
Y0.5706
G3 X-5.8912 Y0.5666 I0.0039 J0.
Y0.5824 Z0. I0. J0.0079
Y0.5666 Z-0.05 I0. J-0.0079
Y0.5824 Z-0.1 I0. J0.0079
Y0.5666 Z-0.15 I0. J-0.0079
Y0.5824 Z-0.2 I0. J0.0079
X-5.8976 Y0.5699 Z-0.235 I0. J-0.0079
X-5.8848 Y0.5792 I0.0064 J0.0046
X-5.8976 Y0.5699 I-0.0064 J-0.0046
X-5.8921 Y0.569 I0.0032 J0.0023
G1 X-5.8859 Y0.5735
G0 Z0.4
X-5.3212 Y1.5202
Z0.1146
G1 Z0.05 F40.
Y1.5279
G3 X-5.3252 Y1.5319 I-0.0039 J0.
Y1.5161 Z0. I0. J-0.0079
Y1.5319 Z-0.05 I0. J0.0079
Y1.5161 Z-0.1 I0. J-0.0079
Y1.5319 Z-0.15 I0. J0.0079
Y1.5161 Z-0.2 I0. J-0.0079
X-5.3188 Y1.5286 Z-0.235 I0. J0.0079
X-5.3316 Y1.5193 I-0.0064 J-0.0046
X-5.3188 Y1.5286 I0.0064 J0.0046
X-5.3243 Y1.5295 I-0.0032 J-0.0023
G1 X-5.3305 Y1.525
G0 Z0.4
X-6.4216 Y3.6474
Z0.13
G1 Z0.0654 F40.
G19 G2 Y3.632 Z0.05 J-0.0154 K0.
G1 Y3.6243
G17 G3 X-6.4062 Y3.6089 I0.0154 J0.
Y3.674 Z0. I0. J0.0325
Y3.6089 Z-0.05 I0. J-0.0325
Y3.674 Z-0.1 I0. J0.0325
Y3.6089 Z-0.15 I0. J-0.0325
Y3.674 Z-0.2 I0. J0.0325
X-6.4325 Y3.6223 Z-0.235 I0. J-0.0325
X-6.3799 Y3.6606 I0.0263 J0.0191
X-6.4325 Y3.6223 I-0.0263 J-0.0191
X-6.411 Y3.6189 I0.0124 J0.009
G1 X-6.4048 Y3.6235
X-6.4024 Y3.6252 Z-0.2347
X-6.4001 Y3.6269 Z-0.2338
X-6.3979 Y3.6285 Z-0.2324
X-6.396 Y3.6298 Z-0.2305
X-6.3945 Y3.631 Z-0.2282
X-6.3933 Y3.6318 Z-0.2255
X-6.3926 Y3.6323 Z-0.2226
X-6.3924 Y3.6325 Z-0.2196
G0 Z0.4
X-5.4249 Y3.8944
Z0.13
G1 Z0.0654 F40.
G19 G3 Y3.9098 Z0.05 J0.0154 K0.
G1 Y3.9174
G17 G3 X-5.4403 Y3.9328 I-0.0154 J0.
Y3.8678 Z0. I0. J-0.0325
Y3.9328 Z-0.05 I0. J0.0325
Y3.8678 Z-0.1 I0. J-0.0325
Y3.9328 Z-0.15 I0. J0.0325
Y3.8678 Z-0.2 I0. J-0.0325
X-5.414 Y3.9194 Z-0.235 I0. J0.0325
X-5.4666 Y3.8812 I-0.0263 J-0.0191
X-5.414 Y3.9194 I0.0263 J0.0191
X-5.4354 Y3.9228 I-0.0124 J-0.009
G1 X-5.4416 Y3.9183
X-5.4441 Y3.9165 Z-0.2347
X-5.4464 Y3.9148 Z-0.2338
X-5.4486 Y3.9133 Z-0.2324
X-5.4504 Y3.9119 Z-0.2305
X-5.452 Y3.9108 Z-0.2282
X-5.4531 Y3.9099 Z-0.2255
X-5.4538 Y3.9094 Z-0.2226
X-5.4541 Y3.9092 Z-0.2196
G0 Z0.6
(.3 CIRCULAR THROUGH HOLE)
M7
G0 X-6.4336 Y-0.0238
Z0.6
Z0.2
G1 Z0.1148 F13.333
G3 X-6.4328 Y-0.025 Z0.1084 I0.0382 J0.0238 F55.
X-6.4304 Y-0.0283 Z0.1031 I0.0374 J0.025
X-6.4264 Y-0.0326 Z0.1 I0.035 J0.0283
X-6.3644 Y0.0326 Z0.0621 I0.031 J0.0326
X-6.4264 Y-0.0326 Z0.0242 I-0.031 J-0.0326
X-6.3644 Y0.0326 Z-0.0136 I0.031 J0.0326
X-6.4264 Y-0.0326 Z-0.0515 I-0.031 J-0.0326
X-6.3644 Y0.0326 Z-0.0894 I0.031 J0.0326
X-6.4404 Y0. Z-0.1175 I-0.031 J-0.0326
X-6.3911 I0.0246 J0. F60.
X-6.5404 I-0.0746 J0.
X-6.2911 I0.1246 J0.
X-6.6404 I-0.1746 J0.
X-6.1911 I0.2246 J0.
X-6.7404 I-0.2746 J0.
X-6.0911 I0.3246 J0.
X-6.8404 I-0.3746 J0.
X-5.9911 I0.4246 J0.
X-6.9404 I-0.4746 J0.
X-5.9911 I0.4746 J0.
X-6.0361 Y0.045 Z-0.1341 I-0.045 J0. F55.
G1 X-6.3954 Z-0.2184
G3 X-6.4404 Y0. Z-0.235 I0. J-0.045
X-6.3911 I0.0246 J0. F60.
X-6.5404 I-0.0746 J0.
X-6.2911 I0.1246 J0.
X-6.6404 I-0.1746 J0.
X-6.1911 I0.2246 J0.
X-6.7404 I-0.2746 J0.
X-6.0911 I0.3246 J0.
X-6.8404 I-0.3746 J0.
X-5.9911 I0.4246 J0.
X-6.9404 I-0.4746 J0.
X-5.9811 I0.4796 J0.
X-6.9504 I-0.4846 J0.
X-5.9811 I0.4846 J0.
X-5.9822 Y0.0057 Z-0.2338 I-0.0154 J0.
X-5.9848 Y0.01 Z-0.2305 I-0.0143 J-0.0057
X-5.9872 Y0.0123 Z-0.2255 I-0.0117 J-0.01
X-5.9882 Y0.0129 Z-0.2196 I-0.0093 J-0.0123
G0 Z0.4
X-3.5378 Y0.7526
Z0.2
G1 Z0.1148 F13.333
G3 X-3.537 Y0.7514 Z0.1084 I0.0382 J0.0238 F55.
X-3.5346 Y0.7482 Z0.1031 I0.0374 J0.025
X-3.5306 Y0.7438 Z0.1 I0.035 J0.0283
X-3.4686 Y0.8091 Z0.0621 I0.031 J0.0326
X-3.5306 Y0.7438 Z0.0242 I-0.031 J-0.0326
X-3.4686 Y0.8091 Z-0.0136 I0.031 J0.0326
X-3.5306 Y0.7438 Z-0.0515 I-0.031 J-0.0326
X-3.4686 Y0.8091 Z-0.0894 I0.031 J0.0326
X-3.5446 Y0.7765 Z-0.1175 I-0.031 J-0.0326
X-3.4913 I0.0267 J0. F60.
X-3.6446 I-0.0767 J0.
X-3.3913 I0.1267 J0.
X-3.7446 I-0.1766 J0.
X-3.2913 I0.2267 J0.
X-3.8446 I-0.2766 J0.
X-3.1913 I0.3267 J0.
X-3.9446 I-0.3766 J0.
X-3.1913 I0.3766 J0.
G2 X-3.148 Y0.8459 I0.0773 J0.
G3 X-3.1159 Y0.9211 I-0.0275 J0.0562
X-4.0426 Y0.7765 I-0.4521 J-0.1447
X-3.0933 I0.4747 J0.
X-3.1159 Y0.9211 I-0.4747 J0.
X-3.127 Y0.9255 I-0.0073 J-0.0023
G1 X-3.1755 Y0.898
X-3.4572 Y0.7682
X-3.4611 Y0.7652
G3 X-3.4578 Y0.761 I0.0016 J-0.0021
X-3.4569 Y0.7623 I-0.0016 J0.0021
X-3.5423 Y0.7906 Z-0.1554 I-0.0427 J0.0142 F55.
X-3.4569 Y0.7623 Z-0.1933 I0.0427 J-0.0142
X-3.5423 Y0.7906 Z-0.2311 I-0.0427 J0.0142
X-3.5446 Y0.7765 Z-0.235 I0.0427 J-0.0142
X-3.4913 I0.0267 J0. F60.
X-3.6446 I-0.0767 J0.
X-3.3913 I0.1267 J0.
X-3.7446 I-0.1766 J0.
X-3.2913 I0.2267 J0.
X-3.8446 I-0.2766 J0.
X-3.1913 I0.3267 J0.
X-3.9446 I-0.3766 J0.
X-3.1913 I0.3766 J0.
G2 X-3.148 Y0.8459 I0.0773 J0.
G3 X-3.1159 Y0.9211 I-0.0275 J0.0562
X-4.0426 Y0.7765 I-0.4521 J-0.1447
X-3.0933 I0.4747 J0.
X-3.1159 Y0.9211 I-0.4747 J0.
G2 X-3.1135 Y0.9297 I0.0077 J0.0025
G3 X-3.1112 Y0.9384 I-0.0052 J0.006
X-4.0526 Y0.7765 I-0.4568 J-0.1619
X-3.0833 I0.4847 J0.
X-3.1112 Y0.9384 I-0.4847 J0.
X-3.1141 Y0.9434 Z-0.2338 I-0.0145 J-0.0051
X-3.118 Y0.9466 Z-0.2305 I-0.0115 J-0.0102
X-3.121 Y0.9479 Z-0.2255 I-0.0077 J-0.0133
X-3.1222 Y0.9482 Z-0.2196 I-0.0046 J-0.0147
G0 Z0.6
(SHAPE THROUGH HOLE)
M7
G0 X-5.5841 Y2.7764
Z0.6
Z0.1
G3 X-5.6565 Y2.6496 Z0.0596 I-0.0362 J-0.0634 F50.
X-5.5841 Y2.7764 Z0.0191 I0.0362 J0.0634
X-5.6565 Y2.6496 Z-0.0213 I-0.0362 J-0.0634
X-5.5841 Y2.7764 Z-0.0618 I0.0362 J0.0634
X-5.6565 Y2.6496 Z-0.1022 I-0.0362 J-0.0634
X-5.5841 Y2.7764 Z-0.1427 I0.0362 J0.0634
X-5.6565 Y2.6496 Z-0.1831 I-0.0362 J-0.0634
X-5.5473 Y2.713 Z-0.21 I0.0362 J0.0634
X-5.6933 I-0.073 J0.
X-5.5475 Y2.7071 I0.073 J0.
G1 X-5.5473 Y2.713
G3 X-5.579 Y2.8465 I-0.0573 J0.0569 F60.
G2 X-5.6904 Y2.7991 I-0.1309 J0.1531
G1 X-5.6983 Y2.7967
X-5.7059 Y2.7938
X-5.7132 Y2.7903
X-5.7203 Y2.7862
X-5.7271 Y2.7817
X-5.7335 Y2.7767
X-5.7396 Y2.7712
X-5.7452 Y2.7653
X-5.7503 Y2.7589
X-5.755 Y2.7522
X-5.7592 Y2.7452
X-5.7628 Y2.7379
X-5.7659 Y2.7304
X-5.7684 Y2.7226
X-5.7704 Y2.7147
X-5.7717 Y2.7067
X-5.7725 Y2.6985
X-5.7726 Y2.6904
X-5.7722 Y2.6822
X-5.7711 Y2.6741
X-5.7695 Y2.6661
X-5.7673 Y2.6583
X-5.7645 Y2.6506
X-5.7611 Y2.6432
X-5.7572 Y2.636
X-5.7528 Y2.6292
X-5.7478 Y2.6227
X-5.7424 Y2.6166
X-5.7366 Y2.6108
X-5.7304 Y2.6056
G3 X-5.5064 Y2.6663 I0.0315 J0.3273
X-5.4958 Y2.8956 I-0.0752 J0.1184
G1 X-5.5268 Y2.8764
X-5.5736 Y2.8497
X-5.579 Y2.8465
G3 X-5.5861 Y2.8329 I0.0082 J-0.013
X-5.5434 Y2.81 I0.0281 J0.0012
X-5.5068 Y2.8641 I-0.041 J0.0672
X-5.5057 Y2.8789 I-0.0776 J0.0131 F50.
G2 X-5.4983 Y2.8923 I0.0154 J0.0003
G1 X-5.4846 Y2.9 F60.
X-5.48 Y2.9024
G2 X-5.3611 Y2.748 I0.012 J-0.1137
G3 X-5.5064 Y2.6663 I1.6271 J-3.0615
G2 X-5.5217 Y2.6668 I-0.0073 J0.0135
X-5.531 Y2.7295 I0.0218 J0.0353
X-5.389 Y2.7566 I0.0885 J-0.0782
X-5.3762 Y2.7491 I-0.0535 J-0.1053 F50.
G3 X-5.3609 Y2.7479 I0.0086 J0.0127
G1 X-5.3316 Y2.7634 F60.
X-5.3258 Y2.7696
X-5.3205 Y2.7762
X-5.3156 Y2.7832
X-5.3112 Y2.7905
X-5.3074 Y2.798
X-5.304 Y2.8058
X-5.3012 Y2.8139
X-5.299 Y2.822
X-5.2974 Y2.8304
X-5.2963 Y2.8388
X-5.2958 Y2.8473
X-5.2959 Y2.8558
X-5.2966 Y2.8642
X-5.2978 Y2.8726
X-5.2997 Y2.8809
X-5.3021 Y2.8891
X-5.3051 Y2.897
X-5.3086 Y2.9047
X-5.3126 Y2.9122
X-5.3172 Y2.9194
X-5.3222 Y2.9262
X-5.3277 Y2.9327
X-5.3336 Y2.9388
X-5.3399 Y2.9444
X-5.3466 Y2.9496
X-5.3537 Y2.9544
X-5.361 Y2.9586
X-5.3687 Y2.9623
X-5.3865 Y2.9518
X-5.4333 Y2.927
X-5.48 Y2.9024
G3 X-5.4877 Y2.8891 I0.0077 J-0.0133
X-5.4738 Y2.8715 I0.018 J0.
X-5.3787 Y2.9328 I0.0179 J0.0767
X-5.3772 Y2.9475 I-0.0772 J0.0154 F50.
G2 X-5.3694 Y2.9608 I0.0154 J-0.0001
G1 X-5.3461 Y2.9729 F60.
G2 X-5.2132 Y2.8246 I0.0187 J-0.1169
G1 X-5.2463 Y2.8084
X-5.293 Y2.7839
X-5.3316 Y2.7634
G2 X-5.3469 Y2.7645 I-0.0067 J0.0138
X-5.3517 Y2.7759 I0.0063 J0.0094
G1 X-5.3514 Y2.7776
G2 X-5.2422 Y2.8335 I0.0771 J-0.016
X-5.2293 Y2.8262 I-0.0321 J-0.0719 F50.
G3 X-5.214 Y2.8248 I0.0088 J0.0126
G1 X-5.1995 Y2.8322 F60.
X-5.1924 Y2.8352
G3 X-5.226 Y3.0314 I-0.078 J0.0876
X-5.3461 Y2.9729 I0.5867 J-1.3573
X-5.3426 Y2.9447 I0.0076 J-0.0134
X-5.2784 Y2.9592 I0.0186 J0.0673
X-5.2419 Y3.0054 I-0.103 J0.1191
X-5.2342 Y3.0225 I-0.1396 J0.0729 F50.
G2 X-5.2261 Y3.0311 I0.0144 J-0.0054
G1 X-5.2039 Y3.0402 F60.
X-5.1995 Y3.0413
X-5.1761 Y3.043
G2 X-5.0795 Y2.8501 I-0.0231 J-0.1322
G1 X-5.106 Y2.8519
X-5.1527
X-5.1924 Y2.8352
G2 X-5.1979 Y2.8342 I-0.0055 J0.0144
X-5.2076 Y2.8377 I0. J0.0154
X-5.202 Y2.8937 I0.0213 J0.0262
X-5.1033 Y2.8724 I0.0366 J-0.0697
X-5.0953 Y2.8599 I-0.0621 J-0.0484 F50.
G3 X-5.0824 Y2.8515 I0.0137 J0.007
G1 X-5.0637 Y2.8512 F60.
G3 X-5.0257 Y3.0421 I-0.0429 J0.1078
G1 X-5.0592 Y3.0433
X-5.1527 Y3.0448
X-5.1761 Y3.043
G3 X-5.1885 Y3.0339 I0.0017 J-0.0153
X-5.1559 Y2.9765 I0.0377 J-0.0166
X-5.0472 Y3.0221 I0.0147 J0.1172
X-5.039 Y3.0345 I-0.094 J0.0716 F50.
G2 X-5.0257 Y3.0421 I0.0133 J-0.0077
G1 X-5.0125 Y3.0417 F60.
X-4.9954 Y3.0409
G2 X-4.9389 Y2.8449 I-0.035 J-0.1163
G3 X-5.0637 Y2.8512 I-0.1863 J-2.4293
G2 X-5.0766 Y2.8596 I0.0008 J0.0153
X-5.0704 Y2.8853 I0.0182 J0.0093
X-4.96 Y2.8675 I0.0464 J-0.0636
X-4.9526 Y2.8547 I-0.064 J-0.0458 F50.
G3 X-4.94 Y2.8458 I0.014 J0.0064
G1 X-4.9151 Y2.8444 F60.
G3 X-4.8568 Y3.0339 I-0.0309 J0.1132
G1 X-4.919 Y3.0371
X-4.9657 Y3.0397
X-4.9954 Y3.0409
G3 X-5.0064 Y3.0148 I-0.0001 J-0.0154
X-4.9863 Y3.0024 I0.0355 J0.035
X-4.8828 Y3.0174 I0.0366 J0.1123
X-4.8682 Y3.0293 I-0.067 J0.0973 F50.
G2 X-4.8573 Y3.0335 I0.0106 J-0.0111
G1 X-4.8323 Y3.0321 F60.
G2 X-4.785 Y2.8363 I-0.0365 J-0.1124
G1 X-4.8254 Y2.8392
X-4.9151 Y2.8444
G2 X-4.9276 Y2.8533 I0.0014 J0.0153
X-4.9246 Y2.8693 I0.0128 J0.0059
X-4.8055 Y2.8586 I0.055 J-0.0564
X-4.7981 Y2.8457 I-0.0642 J-0.0457 F50.
G3 X-4.7856 Y2.8368 I0.014 J0.0064
G1 X-4.7787 Y2.8364 F60.
X-4.7607 Y2.8351
G3 X-4.6951 Y3.0228 I-0.0264 J0.1146
G1 X-4.7319 Y3.0257
X-4.7787 Y3.029
X-4.8323 Y3.0321
G3 X-4.8437 Y3.0061 I-0.0004 J-0.0154
X-4.8316 Y2.9977 I0.0264 J0.0252
X-4.7216 Y3.0071 I0.0461 J0.1087
X-4.7066 Y3.0185 I-0.0639 J0.0993 F50.
G2 X-4.6955 Y3.0224 I0.0103 J-0.0114
G1 X-4.6852 Y3.0215 F60.
X-4.6672 Y3.0198
G2 X-4.6301 Y2.8224 I-0.0456 J-0.1107
G1 X-4.6852 Y2.8285
X-4.7319 Y2.8329
X-4.7607 Y2.8351
G2 X-4.7731 Y2.8442 I0.0017 J0.0153
X-4.7699 Y2.8597 I0.0126 J0.0055
X-4.65 Y2.8457 I0.0541 J-0.0572
X-4.6431 Y2.8326 I-0.0658 J-0.0432 F50.
G3 X-4.6309 Y2.8232 I0.0142 J0.0059
G1 X-4.6047 Y2.8206 F60.
G3 X-4.5339 Y3.0069 I-0.0244 J0.1159
G1 X-4.5449 Y3.0078
X-4.6672 Y3.0198
G3 X-4.6835 Y3.0054 I-0.001 J-0.0153
X-4.6735 Y2.9881 I0.018 J-0.0011
X-4.5611 Y2.9922 I0.0525 J0.1058
X-4.5457 Y3.003 I-0.0599 J0.1018 F50.
G2 X-4.5345 Y3.0065 I0.0098 J-0.0118
G1 X-4.5059 Y3.0028 F60.
G2 X-4.4738 Y2.8056 I-0.0493 J-0.1093
G3 X-4.6047 Y2.8206 I-0.5178 J-3.9448
G2 X-4.6179 Y2.8379 I0.002 J0.0152
X-4.606 Y2.8514 I0.016 J-0.0021
X-4.4978 Y2.8255 I0.0298 J-0.1143
X-4.4848 Y2.8119 I-0.0784 J-0.0883 F50.
G3 X-4.4744 Y2.8063 I0.0119 J0.0097
G1 X-4.4514 Y2.8048 F60.
X-4.4457 Y2.8065
X-4.4139 Y2.8218
G3 X-4.5059 Y3.0028 I-0.0661 J0.0803
X-4.5218 Y2.9823 I-0.0014 J-0.0153
G1 X-4.5208 Y2.9794 Z-0.2097
X-4.5198 Y2.9767 Z-0.2088
X-4.5189 Y2.9742 Z-0.2074
X-4.5181 Y2.972 Z-0.2055
X-4.5175 Y2.9702 Z-0.2032
X-4.517 Y2.9689 Z-0.2005
X-4.5167 Y2.9681 Z-0.1976
X-4.5166 Y2.9678 Z-0.1946
G0 Z0.4
X-5.6468 Y2.7847
Z-0.1793
G1 Z-0.1946 F50.
X-5.6471 Y2.7848 Z-0.1976
X-5.6478 Y2.7852 Z-0.2005
X-5.6491 Y2.7859 Z-0.2032
X-5.6508 Y2.7868 Z-0.2055
X-5.6528 Y2.7879 Z-0.2074
X-5.6552 Y2.7891 Z-0.2088
X-5.6577 Y2.7904 Z-0.2097
X-5.6604 Y2.7918 Z-0.21
G3 X-5.6904 Y2.7991 I-0.0291 J-0.0551
G1 X-5.7138 Y2.7979 F60.
X-5.7606 Y2.7981
G3 X-5.8333 Y2.6048 I0.028 J-0.1209
G1 X-5.8073 Y2.6061
X-5.7302 Y2.6058
G3 X-5.7171 Y2.6139 I-0.0005 J0.0154
X-5.7387 Y2.6562 I-0.0254 J0.0137
X-5.8112 Y2.6266 I-0.0105 J-0.078
X-5.8192 Y2.6141 I0.0621 J-0.0484 F50.
G2 X-5.8321 Y2.6057 I-0.0137 J0.007
G1 X-5.8541 Y2.6054 F60.
G2 X-5.9027 Y2.7963 I0.0358 J0.1108
G1 X-5.8541 Y2.7976
X-5.8073 Y2.7983
X-5.7606 Y2.7981
G2 X-5.7476 Y2.7899 I-0.0006 J-0.0154
X-5.782 Y2.7299 I-0.0362 J-0.0191
X-5.8809 Y2.7761 I-0.0051 J0.118
X-5.8892 Y2.7884 I0.0938 J0.0718 F50.
G3 X-5.9025 Y2.7961 I-0.0133 J-0.0077
G1 X-5.9323 Y2.795 F60.
G3 X-5.9827 Y2.5999 I0.0391 J-0.1141
G1 X-5.9009 Y2.6039
X-5.8541 Y2.6054
G3 X-5.8413 Y2.6139 I-0.001 J0.0153
X-5.8449 Y2.6331 I-0.0146 J0.0072
X-5.9613 Y2.6221 I-0.0532 J-0.0581
X-5.969 Y2.6094 I0.0632 J-0.047 F50.
G2 X-5.9817 Y2.6008 I-0.0138 J0.0067
G1 X-6.0072 Y2.5998 F60.
G2 X-6.0663 Y2.7899 I0.0309 J0.1139
G1 X-6.0411 Y2.7908
X-5.9323 Y2.795
G2 X-5.9169 Y2.7796 I0. J-0.0154
X-5.9302 Y2.7601 I-0.0209 J-0.0001
X-6.0403 Y2.7732 I-0.0427 J0.1101
X-6.0548 Y2.7852 I0.0674 J0.097 F50.
G3 X-6.0658 Y2.7895 I-0.0107 J-0.0111
G1 X-6.0879 Y2.7883 F60.
X-6.0949 Y2.7878
G3 X-6.1336 Y2.5857 I0.0445 J-0.1132
G1 X-6.0879 Y2.5957
X-6.0411 Y2.5985
X-6.0072 Y2.5998
G3 X-5.9945 Y2.6085 I-0.0011 J0.0153
X-6.0038 Y2.641 I-0.0229 J0.0111
X-6.1157 Y2.611 I-0.0422 J-0.0665
X-6.1214 Y2.5973 I0.0697 J-0.0366 F50.
G2 X-6.1326 Y2.5868 I-0.0147 J0.0045
G1 X-6.1346 Y2.5864 F60.
X-6.1444 Y2.581
X-6.1524 Y2.5811
X-6.1605 Y2.5818
X-6.1684 Y2.583
X-6.1763 Y2.5849
X-6.1839 Y2.5873
X-6.1914 Y2.5903
X-6.1987 Y2.5938
X-6.2057 Y2.5978
X-6.2123 Y2.6023
X-6.2186 Y2.6074
X-6.2245 Y2.6128
X-6.23 Y2.6187
X-6.2351 Y2.625
X-6.2397 Y2.6316
X-6.2437 Y2.6386
X-6.2473 Y2.6458
X-6.2503 Y2.6533
X-6.2528 Y2.6609
X-6.2547 Y2.6688
X-6.256 Y2.6767
X-6.2567 Y2.6847
X-6.2568 Y2.6928
X-6.2563 Y2.7008
X-6.2553 Y2.7088
X-6.2536 Y2.7167
X-6.2514 Y2.7244
X-6.2486 Y2.732
X-6.2453 Y2.7393
X-6.2414 Y2.7464
G2 X-6.0949 Y2.7878 I0.1474 J-0.2415
X-6.0814 Y2.7806 I0.0006 J-0.0154
X-6.0834 Y2.7637 I-0.0115 J-0.0072
X-6.2144 Y2.74 I-0.0829 J0.0842
X-6.2275 Y2.7469 I0.0481 J0.1079 F50.
G3 X-6.2355 Y2.7491 I-0.008 J-0.0131
G1 X-6.238 Y2.7489
X-6.2405 Y2.7483
X-6.2428 Y2.7472
X-6.2749 Y2.7282 F60.
X-6.2817 Y2.724
G3 X-6.2454 Y2.5195 I0.0908 J-0.0894
G2 X-6.1444 Y2.581 I0.6453 J-0.9466
G3 X-6.1369 Y2.5945 I-0.0079 J0.0132
X-6.1622 Y2.6183 I-0.0242 J-0.0004
X-6.2368 Y2.5503 I0.0034 J-0.0787
X-6.2374 Y2.5355 I0.078 J-0.0107 F50.
G2 X-6.2444 Y2.5218 I-0.0153 J-0.0008
G1 X-6.2647 Y2.5095 F60.
G2 X-6.4014 Y2.6503 I-0.0234 J0.114
X-6.2817 Y2.724 I3.2425 J-5.1253
X-6.2664 Y2.7239 I0.0076 J-0.0134
X-6.2647 Y2.6558 I-0.0204 J-0.0346
X-6.3723 Y2.6444 I-0.0649 J0.0987
X-6.3858 Y2.6506 I0.0428 J0.1101 F50.
G3 X-6.4012 Y2.6502 I-0.0073 J-0.0135
G1 X-6.4152 Y2.6409 F60.
X-6.4239 Y2.6351
G3 X-6.3694 Y2.4392 I0.0887 J-0.0808
G1 X-6.3684 Y2.4404
X-6.3111 Y2.4793
X-6.2749 Y2.5034
X-6.2647 Y2.5095
G3 X-6.2578 Y2.5232 I-0.0084 J0.0129
X-6.2679 Y2.5349 I-0.0126 J-0.0007
X-6.3615 Y2.4685 I-0.0156 J-0.0772
X-6.3622 Y2.4577 I0.078 J-0.0108 F50.
G1 X-6.3621 Y2.4537
G2 X-6.3691 Y2.44 I-0.0154 J-0.0008
G1 X-6.3815 Y2.4326 F60.
X-6.3907 Y2.4267
G2 X-6.5391 Y2.5601 I-0.032 J0.1137
G3 X-6.4239 Y2.6351 I-3.335 J5.2468
G2 X-6.4028 Y2.6301 I0.0081 J-0.0131
X-6.4034 Y2.6088 I-0.0164 J-0.0102
X-6.5082 Y2.559 I-0.0965 J0.0681
X-6.5269 Y2.5619 I0.0083 J0.1178 F50.
G3 X-6.5385 Y2.56 I-0.0035 J-0.015
G1 X-6.5554 Y2.5486 F60.
X-6.5643 Y2.5424
X-6.5691 Y2.5355
X-6.5735 Y2.5282
X-6.5773 Y2.5207
X-6.5806 Y2.5129
X-6.5833 Y2.5049
X-6.5855 Y2.4967
X-6.5871 Y2.4884
X-6.5881 Y2.48
X-6.5885 Y2.4716
X-6.5884 Y2.4632
X-6.5876 Y2.4548
X-6.5863 Y2.4464
X-6.5844 Y2.4382
X-6.582 Y2.4301
X-6.579 Y2.4222
X-6.5754 Y2.4145
X-6.5713 Y2.4071
X-6.5667 Y2.4
X-6.5617 Y2.3933
X-6.5562 Y2.3869
X-6.5502 Y2.3809
X-6.5439 Y2.3753
X-6.5371 Y2.3702
X-6.5301 Y2.3656
X-6.5227 Y2.3614
X-6.5151 Y2.3578
X-6.5072 Y2.3547
X-6.4992 Y2.3522
G2 X-6.3907 Y2.4267 I0.8069 J-1.0578
G3 X-6.3841 Y2.4406 I-0.0087 J0.0127
X-6.3953 Y2.4539 I-0.0148 J-0.0011
X-6.4932 Y2.3826 I-0.0194 J-0.0763
X-6.4928 Y2.3678 I0.0786 J-0.005 F50.
G2 X-6.4988 Y2.3537 I-0.0153 J-0.0019
G1 X-6.5087 Y2.3467 F60.
X-6.5197 Y2.3391
G2 X-6.6728 Y2.4667 I-0.0358 J0.1127
G1 X-6.6548 Y2.4793
X-6.6022 Y2.5159
X-6.5643 Y2.5424
G2 X-6.5409 Y2.5263 I0.0084 J-0.0129
X-6.5525 Y2.5041 I-0.0455 J0.0097
X-6.6419 Y2.467 I-0.086 J0.0809
X-6.6606 Y2.469 I0.0034 J0.1181 F50.
G3 X-6.6722 Y2.4666 I-0.0029 J-0.0151
G1 X-6.6957 Y2.4494 F60.
G3 X-6.626 Y2.2615 I0.0973 J-0.0708
G1 X-6.6022 Y2.2797
X-6.5554 Y2.3138
X-6.5197 Y2.3391
G3 X-6.5138 Y2.3533 I-0.0093 J0.0122
X-6.523 Y2.3639 I-0.0126 J-0.0016
X-6.6206 Y2.2917 I-0.0189 J-0.0764
X-6.6199 Y2.2769 I0.0786 J-0.0042 F50.
G2 X-6.6258 Y2.2627 I-0.0152 J-0.0021
G1 X-6.649 Y2.246 F60.
X-6.6572 Y2.2438
X-6.6655 Y2.2421
X-6.674 Y2.2411
X-6.6825 Y2.2407
X-6.691 Y2.2409
X-6.6995 Y2.2417
X-6.7079 Y2.2431
X-6.7162 Y2.2451
X-6.7243 Y2.2477
X-6.7322 Y2.2508
X-6.7399 Y2.2545
X-6.7472 Y2.2588
X-6.7543 Y2.2635
X-6.761 Y2.2688
X-6.7673 Y2.2745
X-6.7732 Y2.2806
X-6.7787 Y2.2872
X-6.7836 Y2.2941
X-6.7881 Y2.3013
X-6.792 Y2.3089
X-6.7954 Y2.3167
X-6.7982 Y2.3247
X-6.8004 Y2.333
X-6.8021 Y2.3413
X-6.8031 Y2.3498
X-6.8036 Y2.3583
X-6.8034 Y2.3668
X-6.7892 Y2.382
X-6.7425 Y2.4152
X-6.6957 Y2.4494
G2 X-6.6804 Y2.4505 I0.0086 J-0.0127
X-6.6718 Y2.4064 I-0.0122 J-0.0253
X-6.7737 Y2.3683 I-0.0877 J0.0791
X-6.7883 Y2.371 I0.0142 J0.1173 F50.
G3 X-6.803 Y2.3668 I-0.0037 J-0.0149
G1 X-6.828 Y2.3391 F60.
X-6.836 Y2.3041
G3 X-6.6517 Y2.2477 I0.0997 J-0.0034
X-6.5087 Y2.2382 I0.0766 J0.0723
G2 X-6.0826 Y2.4878 I2.3021 J-3.4413
G3 X-5.5591 Y2.5232 I-0.8596 J16.6137
G2 X-5.117 Y2.7499 I1.456 J-2.295
X-4.8058 Y2.7377 I-0.0811 J-6.0854
G3 X-4.4093 Y2.7218 I0.2705 J1.7913
X-4.4766 Y3.0895 I-0.061 J0.1788
X-5.2473 Y3.1331 I-0.5515 J-2.9155
X-5.4982 Y3.0057 I3.7039 J-7.604
G1 X-5.5155 Y2.9946
X-5.5331 Y2.9839
X-5.551 Y2.9738
X-5.5692 Y2.9642
X-5.5877 Y2.9552
X-5.6064 Y2.9466
X-5.6253 Y2.9387
X-5.6445 Y2.9312
X-5.6639 Y2.9244
X-5.6835 Y2.918
X-5.7032 Y2.9123
X-5.7231 Y2.9071
X-5.7432 Y2.9025
X-5.7633 Y2.8985
X-5.7836 Y2.8951
X-5.804 Y2.8923
X-5.8244 Y2.89
X-5.8449 Y2.8884
X-5.8655 Y2.8873
X-5.886 Y2.8869
X-5.9066 Y2.887
X-5.9272 Y2.8877
X-5.9477 Y2.889
X-5.9682 Y2.8909
X-5.9886 Y2.8934
X-6.0089 Y2.8965
X-6.0291 Y2.9002
G3 X-6.6078 Y2.6231 I0.1537 J-1.0639
X-6.9263 Y2.3566 I0.3293 J-0.7171
X-6.7277 Y2.1148 I0.1887 J-0.0475
X-6.197 Y2.3251 I0.0166 J0.7331
G2 X-5.6818 Y2.4082 I0.4097 J-0.902
G3 X-5.1716 Y2.6208 I-0.3047 J1.4495
G2 X-4.8651 Y2.6407 I0.2038 J-0.7677
G1 X-4.744 Y2.631
X-4.6227 Y2.6216
X-4.5015 Y2.6126
X-4.4039 Y2.6605
X-4.3859 Y2.6681
X-4.3103 Y2.6977
G3 X-4.2145 Y3.0179 I-0.1124 J0.208
X-4.2384 Y3.0102 I-0.0092 J-0.0123
G1 X-4.2389 Y3.0087
X-4.3301 Y2.7168
X-4.3307 Y2.7138
G3 X-4.3103 Y2.6977 I0.0153 J-0.0016 F50.
X-4.1317 Y2.8685 I-0.0132 J0.1926 F60.
X-4.2166 Y3.0196 I-0.1678 J0.0051
G1 X-4.3805 Y3.1463
G3 X-4.8884 Y3.2283 I-0.417 J-0.9692
G1 X-4.9113 Y3.2324
X-4.9343 Y3.2358
X-4.9573 Y3.2386
X-4.9805 Y3.2408
X-5.0037 Y3.2424
X-5.0269 Y3.2434
X-5.0501 Y3.2438
X-5.0733 Y3.2436
X-5.0966 Y3.2427
X-5.1198 Y3.2412
X-5.1429 Y3.2392
X-5.166 Y3.2365
X-5.189 Y3.2332
X-5.2119 Y3.2292
X-5.2347 Y3.2247
X-5.2573 Y3.2196
X-5.2799 Y3.2139
X-5.3022 Y3.2076
X-5.3244 Y3.2006
X-5.3464 Y3.1932
X-5.3682 Y3.1851
X-5.3898 Y3.1764
X-5.4111 Y3.1672
X-5.4322 Y3.1574
X-5.453 Y3.1471
X-5.4735 Y3.1362
X-5.4938 Y3.1248
X-5.5137 Y3.1129
X-5.5333 Y3.1004
X-5.5526 Y3.0874
X-5.5715 Y3.0739
X-5.59 Y3.0599
G2 X-6.0462 Y2.9902 I-0.3796 J0.9562
G3 X-6.2877 Y2.9409 I0.0168 J-0.6977
X-6.9218 Y2.5236 I1.5978 J-3.1183
G1 X-6.9954 Y2.3405
G3 X-6.812 Y2.0306 I0.2363 J-0.0693
G2 X-6.4877 Y2.0603 I0.3273 J-1.791
G3 X-6.0926 Y2.2602 I-0.3086 J1.1004
G2 X-5.6036 Y2.3192 I0.511 J-2.1771
G3 X-5.1269 Y2.5346 I-0.4615 J1.6568
G2 X-4.6562 Y2.5245 I0.1783 J-2.6773
G1 X-4.5678 Y2.5785
X-4.5444 Y2.5915
X-4.5015 Y2.6126
G3 X-4.4934 Y2.6256 I-0.0073 J0.0135
X-4.5293 Y2.6633 I-0.0365 J0.0012
X-4.6489 Y2.554 I-0.0019 J-0.1181
X-4.6491 Y2.5391 I0.1178 J-0.0088 F50.
G2 X-4.6561 Y2.5255 I-0.0154 J-0.0008
G1 X-4.6914 Y2.5043 F60.
X-4.7083 Y2.4934
X-4.7257 Y2.4809
G2 X-5.0692 Y2.4337 I-0.3042 J0.94
X-5.5832 Y2.2234 I-1.3773 J2.6336
G3 X-6.0434 Y2.1762 I0.3529 J-5.7074
G2 X-6.2493 Y2.0476 I-1.0181 J1.4017
G1 X-6.3238 Y2.0558
X-6.3472 Y2.0579
X-6.4877 Y2.0603
G2 X-6.5006 Y2.0687 I0.0008 J0.0153
X-6.4772 Y2.1393 I0.0465 J0.0238
X-6.2681 Y2.0711 I0.0696 J-0.1413
X-6.2618 Y2.0577 I-0.1395 J-0.0731 F50.
G3 X-6.2497 Y2.0483 I0.0142 J0.0058
G1 X-6.1833 Y2.0415 F60.
X-6.1599 Y2.0382
G3 X-5.8926 Y2.0975 I-0.4308 J2.5739
X-5.0726 Y2.3342 I0.019 J1.4728
X-4.9025 Y2.3444 I-0.1213 J3.445
G1 X-4.8488 Y2.3913
X-4.8254 Y2.409
X-4.7257 Y2.4809
G3 X-4.7199 Y2.4951 I-0.0094 J0.0121
X-4.7978 Y2.5422 I-0.058 J-0.0079
X-4.9005 Y2.3745 I0.0535 J-0.1481
X-4.898 Y2.3599 I0.1563 J0.0196 F50.
G2 X-4.9025 Y2.3452 I-0.015 J-0.0033
G1 X-4.9659 Y2.2909 F60.
X-4.9767 Y2.2806
X-5.003 Y2.2629
X-5.0295 Y2.2457
X-5.0565 Y2.2291
X-5.0837 Y2.213
X-5.1112 Y2.1974
X-5.1391 Y2.1824
X-5.1672 Y2.1679
X-5.1956 Y2.1539
X-5.2243 Y2.1405
X-5.2532 Y2.1277
X-5.2824 Y2.1154
X-5.3118 Y2.1037
X-5.3414 Y2.0925
X-5.3712 Y2.082
X-5.4013 Y2.072
X-5.4315 Y2.0626
X-5.4619 Y2.0538
X-5.4924 Y2.0456
X-5.5232 Y2.038
X-5.554 Y2.031
X-5.585 Y2.0246
X-5.6161 Y2.0188
X-5.6473 Y2.0136
X-5.6786 Y2.009
X-5.71 Y2.005
X-5.7415 Y2.0016
X-5.773 Y1.9988
X-5.8046 Y1.9967
X-5.8362 Y1.9952
X-5.8678 Y1.9942
X-5.8995 Y1.9939
X-5.9311 Y1.9942
X-5.996 Y2.007
X-6.0194 Y2.0118
X-6.1599 Y2.0382
G2 X-6.1712 Y2.0486 I0.0034 J0.015
X-6.1307 Y2.1194 I0.0531 J0.0167
X-5.9455 Y2.0147 I0.0354 J-0.1534
X-5.9416 Y2.0004 I-0.1498 J-0.0487 F50.
G3 X-5.9312 Y1.9891 I0.015 J0.0034
G1 X-5.8477 Y1.966 F60.
X-5.8321 Y1.9615
X-5.7619 Y1.9356
G3 X-5.1892 Y2.0495 I0.1115 J0.9359
G1 X-5.188 Y2.0502
X-5.1868 Y2.0511
X-5.1858 Y2.0522
G2 X-4.9767 Y2.2806 I1.5786 J-1.2353
G3 X-4.9729 Y2.2955 I-0.011 J0.0108
X-5.0367 Y2.3354 I-0.0538 J-0.0149
X-5.1888 Y2.0813 I0.0352 J-0.1937
G1 X-5.1837 Y2.0674 F50.
G2 X-5.1858 Y2.0522 I-0.0142 J-0.0058
G1 X-5.2 Y2.0351 F60.
X-5.2167 Y2.0128
X-5.2575 Y1.9543
G2 X-5.5287 Y1.8355 I-0.3136 J0.3469
G1 X-5.6683 Y1.9007
X-5.6917 Y1.9097
X-5.7619 Y1.9356
G2 X-5.7713 Y1.9478 I0.0058 J0.0142
X-5.7462 Y1.9888 I0.0377 J0.0052
X-5.5385 Y1.8631 I0.0518 J-0.1487
X-5.5371 Y1.8484 I-0.1558 J-0.023 F50.
G3 X-5.5287 Y1.8355 I0.0153 J0.0008
X-5.2639 Y1.9559 I0.0846 J0.1654 F60.
G1 X-5.2623 Y1.957
X-5.2609 Y1.9584
X-5.2598 Y1.9601
X-5.259 Y1.9621
X-5.2586 Y1.9642
X-5.2587 Y1.9666
X-5.2591 Y1.9689
X-5.2601 Y1.9712
X-5.2616 Y1.9734
X-5.2635 Y1.9753
X-5.2658 Y1.9768
X-5.2684 Y1.9779
X-5.2714 Y1.9783 Z-0.2097
X-5.2742 Y1.9787 Z-0.2088
X-5.2768 Y1.9791 Z-0.2074
X-5.2792 Y1.9794 Z-0.2055
X-5.2811 Y1.9796 Z-0.2032
X-5.2825 Y1.9798 Z-0.2005
X-5.2833 Y1.9799 Z-0.1976
X-5.2836 Y1.98 Z-0.1946
G0 Z0.4
X-6.7721 Y2.0535
Z-0.1793
G1 Z-0.1946 F50.
X-6.7723 Y2.0533 Z-0.1976
X-6.773 Y2.0527 Z-0.2005
X-6.7741 Y2.0518 Z-0.2032
X-6.7755 Y2.0506 Z-0.2055
X-6.7773 Y2.0491 Z-0.2074
X-6.7794 Y2.0474 Z-0.2088
X-6.7816 Y2.0456 Z-0.2097
X-6.7839 Y2.0437 Z-0.21
G2 X-6.812 Y2.0306 I-0.0395 J0.0482
G1 X-6.8214 Y2.0268 F60.
X-6.8311 Y2.0235
X-6.841 Y2.0209
X-6.851 Y2.0188
X-6.8611 Y2.0174
X-6.8713 Y2.0165
X-6.8815 Y2.0163
X-6.8917 Y2.0167
X-6.9019 Y2.0178
X-6.912 Y2.0194
X-6.922 Y2.0217
X-6.9318 Y2.0245
X-6.9414 Y2.028
X-6.9508 Y2.032
X-6.9599 Y2.0366
X-6.9687 Y2.0417
X-6.9772 Y2.0474
X-6.9854 Y2.0536
X-6.9931 Y2.0602
X-7.0005 Y2.0673
X-7.0074 Y2.0749
X-7.0138 Y2.0829
X-7.0197 Y2.0912
X-7.0251 Y2.0999
X-7.03 Y2.1088
X-7.0343 Y2.1181
X-7.038 Y2.1276
X-7.0412 Y2.1373
X-7.0437 Y2.1472
X-7.0457 Y2.1573
X-7.047 Y2.1674
X-7.0477 Y2.1776
X-7.0478 Y2.1878
X-7.0473 Y2.198
X-7.0461 Y2.2082
X-7.0444 Y2.2182
X-7.042 Y2.2282
X-7.039 Y2.238
X-7.0355 Y2.2475
X-6.9954 Y2.3405
G2 X-6.966 Y2.3342 I0.014 J-0.0063
G1 Y2.3341
G2 X-6.9968 I-0.0154 J0.
X-6.9954 Y2.3405 I0.0154 J0.
G1 X-6.9228 Y2.5003
G2 X-6.8948 Y2.4876 I0.014 J-0.0064
X-6.924 Y2.4917 I-0.014 J0.0064
X-6.9208 Y2.5224 I0.0616 J0.0092 F50.
G1 X-6.8707 Y2.6447 F60.
G2 X-6.5487 Y2.9102 I0.7705 J-0.6064
X-5.814 Y3.0927 I0.6121 J-0.894
G3 X-5.3591 Y3.2928 I-1.5911 J4.2355
G2 X-5.0863 Y3.341 I0.2575 J-0.6606
X-4.5922 Y3.3112 I-0.0269 J-4.5567
G1 X-4.3805 Y3.1463
G2 X-4.3752 Y3.1319 I-0.0098 J-0.0118
X-4.3873 Y3.1182 I-0.017 J0.0029
X-4.5888 Y3.281 I-0.0445 J0.1511
X-4.587 Y3.2957 I0.157 J-0.0117 F50.
G3 X-4.5924 Y3.3101 I-0.0152 J0.0026
G1 X-4.6849 Y3.3817 F60.
G3 X-5.0936 Y3.4404 I-0.3302 J-0.8465
X-5.7286 Y3.2197 I0.1058 J-1.328
X-6.3435 Y3.1394 I0.4017 J-5.4728
X-6.5887 Y3.0019 I2.0197 J-3.8897
X-6.7753 Y2.8776 I0.7082 J-1.2655
G1 X-6.8707 Y2.6447
G3 X-6.8681 Y2.6295 I0.0144 J-0.0053
X-6.8254 Y2.6202 I0.0273 J0.0227
X-6.7638 Y2.8507 I-0.0685 J0.1418
X-6.7727 Y2.8625 I-0.1302 J-0.0886 F50.
G2 X-6.7753 Y2.8776 I0.0118 J0.0098
G1 X-6.7365 Y2.9723 F60.
G2 X-6.3994 Y3.2132 I0.549 J-0.412
X-5.8214 Y3.3081 I0.5918 J-1.7954
X-5.305 Y3.5144 I2.1322 J-4.589
X-4.9043 Y3.5347 I0.2731 J-1.4236
X-4.8781 Y3.5311 I0.0086 J-0.0343
G1 X-4.6849 Y3.3817
G2 X-4.6796 Y3.3673 I-0.0098 J-0.0118
X-4.7213 Y3.3329 I-0.0408 J0.0069
X-4.8746 Y3.502 I0.0038 J0.1574
X-4.8728 Y3.5167 I0.157 J-0.0117 F50.
G3 X-4.8781 Y3.5311 I-0.0152 J0.0026
G1 X-4.9541 Y3.5899 F60.
G3 X-5.1132 Y3.634 I-0.1508 J-0.235
X-5.1129 Y3.6045 I0.0045 J-0.0147
G1 X-4.9682 Y3.5633
G3 X-4.9575 Y3.5641 I0.0042 J0.0148
X-4.9541 Y3.5899 I-0.0065 J0.0139 F50.
X-5.0387 Y3.6524 I-0.1155 J-0.0678 F60.
G1 X-5.0391
X-5.043 Y3.652
X-5.0499 Y3.651
X-5.574 Y3.5105
G2 X-5.9878 Y3.3932 I-0.4834 J0.9164
G1 X-6.0207 Y3.3907
X-6.0219 Y3.3905
X-6.0225 Y3.3904
X-6.5111 Y3.2594
G3 X-6.6455 Y3.1943 I0.0944 J-0.3657
X-6.6248 Y3.1749 I0.0144 J-0.0053
G1 X-6.5014 Y3.2304
G3 X-6.4926 Y3.2412 I-0.0063 J0.014
X-6.5111 Y3.2594 I-0.015 J0.0033 F50.
X-6.63 Y3.2261 I0.0461 J-0.3925 F60.
G1 X-6.6314 Y3.2248
X-6.6317 Y3.2243
X-6.6363 Y3.2166
X-6.7365 Y2.9723
G3 X-6.7207 Y2.9517 I0.0144 J-0.0053
G1 X-6.7177 Y2.9519 Z-0.2097
X-6.7148 Y2.9522 Z-0.2088
X-6.7122 Y2.9524 Z-0.2074
X-6.7099 Y2.9526 Z-0.2055
X-6.708 Y2.9528 Z-0.2032
X-6.7066 Y2.9529 Z-0.2005
X-6.7057 Y2.953 Z-0.1976
X-6.7054 Z-0.1946
G0 Z-0.1793
X-5.5283 Y3.5056
G1 Z-0.1946 F50.
X-5.5285 Y3.5057 Z-0.1976
X-5.5294 Y3.506 Z-0.2005
X-5.5307 Y3.5063 Z-0.2032
X-5.5326 Y3.5069 Z-0.2055
X-5.5348 Y3.5075 Z-0.2074
X-5.5374 Y3.5082 Z-0.2088
X-5.5402 Y3.509 Z-0.2097
X-5.543 Y3.5098 Z-0.21
G3 X-5.574 Y3.5105 I-0.0169 J-0.06
G1 X-6.0225 Y3.3904 F60.
G3 X-6.0329 Y3.3796 I0.0045 J-0.0147
G1 X-6.0331 Y3.3776 Z-0.2099
X-6.0334 Y3.3757 Z-0.2095
X-6.0328 Y3.3732 Z-0.2085
X-6.0323 Y3.371 Z-0.2072
X-6.0318 Y3.369 Z-0.2054
X-6.0308 Y3.3674 Z-0.2031
X-6.03 Y3.3663 Z-0.2005
X-6.0295 Y3.3656 Z-0.1976
X-6.0294 Y3.3653 Z-0.1946
G0 Z-0.11
X-5.6904 Y2.7336
G3 X-5.5503 Y2.6925 Z-0.1504 I0.0701 J-0.0205 F50.
X-5.6904 Y2.7336 Z-0.1909 I-0.0701 J0.0205
X-5.6307 Y2.6408 Z-0.2129 I0.0701 J-0.0205
X-5.5473 Y2.713 Z-0.235 I0.0104 J0.0723
X-5.6933 I-0.073 J0.
X-5.5475 Y2.7071 I0.073 J0.
G1 X-5.5473 Y2.713
G3 X-5.579 Y2.8465 I-0.0573 J0.0569 F60.
G2 X-5.6904 Y2.7991 I-0.1309 J0.1531
G1 X-5.6983 Y2.7967
X-5.7059 Y2.7938
X-5.7132 Y2.7903
X-5.7203 Y2.7862
X-5.7271 Y2.7817
X-5.7335 Y2.7767
X-5.7396 Y2.7712
X-5.7452 Y2.7653
X-5.7503 Y2.7589
X-5.755 Y2.7522
X-5.7592 Y2.7452
X-5.7628 Y2.7379
X-5.7659 Y2.7304
X-5.7684 Y2.7226
X-5.7704 Y2.7147
X-5.7717 Y2.7067
X-5.7725 Y2.6985
X-5.7726 Y2.6904
X-5.7722 Y2.6822
X-5.7711 Y2.6741
X-5.7695 Y2.6661
X-5.7673 Y2.6583
X-5.7645 Y2.6506
X-5.7611 Y2.6432
X-5.7572 Y2.636
X-5.7528 Y2.6292
X-5.7478 Y2.6227
X-5.7424 Y2.6166
X-5.7366 Y2.6108
X-5.7304 Y2.6056
G3 X-5.5064 Y2.6663 I0.0315 J0.3273
X-5.4958 Y2.8956 I-0.0752 J0.1184
G1 X-5.5268 Y2.8764
X-5.5736 Y2.8497
X-5.579 Y2.8465
G3 X-5.5861 Y2.8329 I0.0082 J-0.013
X-5.5434 Y2.81 I0.0281 J0.0012
X-5.5068 Y2.8641 I-0.041 J0.0672
X-5.5057 Y2.8789 I-0.0776 J0.0131 F50.
G2 X-5.4983 Y2.8923 I0.0154 J0.0003
G1 X-5.4846 Y2.9 F60.
X-5.48 Y2.9024
G2 X-5.3611 Y2.748 I0.012 J-0.1137
G3 X-5.5064 Y2.6663 I1.6271 J-3.0615
G2 X-5.5217 Y2.6668 I-0.0073 J0.0135
X-5.531 Y2.7295 I0.0218 J0.0353
X-5.389 Y2.7566 I0.0885 J-0.0782
X-5.3762 Y2.7491 I-0.0535 J-0.1053 F50.
G3 X-5.3609 Y2.7479 I0.0086 J0.0127
G1 X-5.3316 Y2.7634 F60.
X-5.3258 Y2.7696
X-5.3205 Y2.7762
X-5.3156 Y2.7832
X-5.3112 Y2.7905
X-5.3074 Y2.798
X-5.304 Y2.8058
X-5.3012 Y2.8139
X-5.299 Y2.822
X-5.2974 Y2.8304
X-5.2963 Y2.8388
X-5.2958 Y2.8473
X-5.2959 Y2.8558
X-5.2966 Y2.8642
X-5.2978 Y2.8726
X-5.2997 Y2.8809
X-5.3021 Y2.8891
X-5.3051 Y2.897
X-5.3086 Y2.9047
X-5.3126 Y2.9122
X-5.3172 Y2.9194
X-5.3222 Y2.9262
X-5.3277 Y2.9327
X-5.3336 Y2.9388
X-5.3399 Y2.9444
X-5.3466 Y2.9496
X-5.3537 Y2.9544
X-5.361 Y2.9586
X-5.3687 Y2.9623
X-5.3865 Y2.9518
X-5.4333 Y2.927
X-5.48 Y2.9024
G3 X-5.4877 Y2.8891 I0.0077 J-0.0133
X-5.4738 Y2.8715 I0.018 J0.
X-5.3787 Y2.9328 I0.0179 J0.0767
X-5.3772 Y2.9475 I-0.0772 J0.0154 F50.
G2 X-5.3694 Y2.9608 I0.0154 J-0.0001
G1 X-5.3461 Y2.9729 F60.
G2 X-5.2132 Y2.8246 I0.0187 J-0.1169
G1 X-5.2463 Y2.8084
X-5.293 Y2.7839
X-5.3316 Y2.7634
G2 X-5.3469 Y2.7645 I-0.0067 J0.0138
X-5.3517 Y2.7759 I0.0063 J0.0094
G1 X-5.3514 Y2.7776
G2 X-5.2422 Y2.8335 I0.0771 J-0.016
X-5.2293 Y2.8262 I-0.0321 J-0.0719 F50.
G3 X-5.214 Y2.8248 I0.0088 J0.0126
G1 X-5.1995 Y2.8322 F60.
X-5.1924 Y2.8352
G3 X-5.226 Y3.0314 I-0.078 J0.0876
X-5.3461 Y2.9729 I0.5867 J-1.3573
X-5.3426 Y2.9447 I0.0076 J-0.0134
X-5.2784 Y2.9592 I0.0186 J0.0673
X-5.2419 Y3.0054 I-0.103 J0.1191
X-5.2342 Y3.0225 I-0.1396 J0.0729 F50.
G2 X-5.2261 Y3.0311 I0.0144 J-0.0054
G1 X-5.2039 Y3.0402 F60.
X-5.1995 Y3.0413
X-5.1761 Y3.043
G2 X-5.0795 Y2.8501 I-0.0231 J-0.1322
G1 X-5.106 Y2.8519
X-5.1527
X-5.1924 Y2.8352
G2 X-5.1979 Y2.8342 I-0.0055 J0.0144
X-5.2076 Y2.8377 I0. J0.0154
X-5.202 Y2.8937 I0.0213 J0.0262
X-5.1033 Y2.8724 I0.0366 J-0.0697
X-5.0953 Y2.8599 I-0.0621 J-0.0484 F50.
G3 X-5.0824 Y2.8515 I0.0137 J0.007
G1 X-5.0637 Y2.8512 F60.
G3 X-5.0257 Y3.0421 I-0.0429 J0.1078
G1 X-5.0592 Y3.0433
X-5.1527 Y3.0448
X-5.1761 Y3.043
G3 X-5.1885 Y3.0339 I0.0017 J-0.0153
X-5.1559 Y2.9765 I0.0377 J-0.0166
X-5.0472 Y3.0221 I0.0147 J0.1172
X-5.039 Y3.0345 I-0.094 J0.0716 F50.
G2 X-5.0257 Y3.0421 I0.0133 J-0.0077
G1 X-5.0125 Y3.0417 F60.
X-4.9954 Y3.0409
G2 X-4.9389 Y2.8449 I-0.035 J-0.1163
G3 X-5.0637 Y2.8512 I-0.1863 J-2.4293
G2 X-5.0766 Y2.8596 I0.0008 J0.0153
X-5.0704 Y2.8853 I0.0182 J0.0093
X-4.96 Y2.8675 I0.0464 J-0.0636
X-4.9526 Y2.8547 I-0.064 J-0.0458 F50.
G3 X-4.94 Y2.8458 I0.014 J0.0064
G1 X-4.9151 Y2.8444 F60.
G3 X-4.8568 Y3.0339 I-0.0309 J0.1132
G1 X-4.919 Y3.0371
X-4.9657 Y3.0397
X-4.9954 Y3.0409
G3 X-5.0064 Y3.0148 I-0.0001 J-0.0154
X-4.9863 Y3.0024 I0.0355 J0.035
X-4.8828 Y3.0174 I0.0366 J0.1123
X-4.8682 Y3.0293 I-0.067 J0.0973 F50.
G2 X-4.8573 Y3.0335 I0.0106 J-0.0111
G1 X-4.8323 Y3.0321 F60.
G2 X-4.785 Y2.8363 I-0.0365 J-0.1124
G1 X-4.8254 Y2.8392
X-4.9151 Y2.8444
G2 X-4.9276 Y2.8533 I0.0014 J0.0153
X-4.9246 Y2.8693 I0.0128 J0.0059
X-4.8055 Y2.8586 I0.055 J-0.0564
X-4.7981 Y2.8457 I-0.0642 J-0.0457 F50.
G3 X-4.7856 Y2.8368 I0.014 J0.0064
G1 X-4.7787 Y2.8364 F60.
X-4.7607 Y2.8351
G3 X-4.6951 Y3.0228 I-0.0264 J0.1146
G1 X-4.7319 Y3.0257
X-4.7787 Y3.029
X-4.8323 Y3.0321
G3 X-4.8437 Y3.0061 I-0.0004 J-0.0154
X-4.8316 Y2.9977 I0.0264 J0.0252
X-4.7216 Y3.0071 I0.0461 J0.1087
X-4.7066 Y3.0185 I-0.0639 J0.0993 F50.
G2 X-4.6955 Y3.0224 I0.0103 J-0.0114
G1 X-4.6852 Y3.0215 F60.
X-4.6672 Y3.0198
G2 X-4.6301 Y2.8224 I-0.0456 J-0.1107
G1 X-4.6852 Y2.8285
X-4.7319 Y2.8329
X-4.7607 Y2.8351
G2 X-4.7731 Y2.8442 I0.0017 J0.0153
X-4.7699 Y2.8597 I0.0126 J0.0055
X-4.65 Y2.8457 I0.0541 J-0.0572
X-4.6431 Y2.8326 I-0.0658 J-0.0432 F50.
G3 X-4.6309 Y2.8232 I0.0142 J0.0059
G1 X-4.6047 Y2.8206 F60.
G3 X-4.5339 Y3.0069 I-0.0244 J0.1159
G1 X-4.5449 Y3.0078
X-4.6672 Y3.0198
G3 X-4.6835 Y3.0054 I-0.001 J-0.0153
X-4.6735 Y2.9881 I0.018 J-0.0011
X-4.5611 Y2.9922 I0.0525 J0.1058
X-4.5457 Y3.003 I-0.0599 J0.1018 F50.
G2 X-4.5345 Y3.0065 I0.0098 J-0.0118
G1 X-4.5059 Y3.0028 F60.
G2 X-4.4738 Y2.8056 I-0.0493 J-0.1093
G3 X-4.6047 Y2.8206 I-0.5178 J-3.9448
G2 X-4.6179 Y2.8379 I0.002 J0.0152
X-4.606 Y2.8514 I0.016 J-0.0021
X-4.4978 Y2.8255 I0.0298 J-0.1143
X-4.4848 Y2.8119 I-0.0784 J-0.0883 F50.
G3 X-4.4744 Y2.8063 I0.0119 J0.0097
G1 X-4.4514 Y2.8048 F60.
X-4.4457 Y2.8065
X-4.4139 Y2.8218
G3 X-4.5059 Y3.0028 I-0.0661 J0.0803
X-4.5218 Y2.9823 I-0.0014 J-0.0153
G1 X-4.5208 Y2.9794 Z-0.2347
X-4.5198 Y2.9767 Z-0.2338
X-4.5189 Y2.9742 Z-0.2324
X-4.5181 Y2.972 Z-0.2305
X-4.5175 Y2.9702 Z-0.2282
X-4.517 Y2.9689 Z-0.2255
X-4.5167 Y2.9681 Z-0.2226
X-4.5166 Y2.9678 Z-0.2196
G0 Z-0.2043
X-5.6468 Y2.7847
G1 Z-0.2196 F50.
X-5.6471 Y2.7848 Z-0.2226
X-5.6478 Y2.7852 Z-0.2255
X-5.6491 Y2.7859 Z-0.2282
X-5.6508 Y2.7868 Z-0.2305
X-5.6528 Y2.7879 Z-0.2324
X-5.6552 Y2.7891 Z-0.2338
X-5.6577 Y2.7904 Z-0.2347
X-5.6604 Y2.7918 Z-0.235
G3 X-5.6904 Y2.7991 I-0.0291 J-0.0551
G1 X-5.7138 Y2.7979 F60.
X-5.7606 Y2.7981
G3 X-5.8333 Y2.6048 I0.028 J-0.1209
G1 X-5.8073 Y2.6061
X-5.7302 Y2.6058
G3 X-5.7171 Y2.6139 I-0.0005 J0.0154
X-5.7387 Y2.6562 I-0.0254 J0.0137
X-5.8112 Y2.6266 I-0.0105 J-0.078
X-5.8192 Y2.6141 I0.0621 J-0.0484 F50.
G2 X-5.8321 Y2.6057 I-0.0137 J0.007
G1 X-5.8541 Y2.6054 F60.
G2 X-5.9027 Y2.7963 I0.0358 J0.1108
G1 X-5.8541 Y2.7976
X-5.8073 Y2.7983
X-5.7606 Y2.7981
G2 X-5.7476 Y2.7899 I-0.0006 J-0.0154
X-5.782 Y2.7299 I-0.0362 J-0.0191
X-5.8809 Y2.7761 I-0.0051 J0.118
X-5.8892 Y2.7884 I0.0938 J0.0718 F50.
G3 X-5.9025 Y2.7961 I-0.0133 J-0.0077
G1 X-5.9323 Y2.795 F60.
G3 X-5.9827 Y2.5999 I0.0391 J-0.1141
G1 X-5.9009 Y2.6039
X-5.8541 Y2.6054
G3 X-5.8413 Y2.6139 I-0.001 J0.0153
X-5.8449 Y2.6331 I-0.0146 J0.0072
X-5.9613 Y2.6221 I-0.0532 J-0.0581
X-5.969 Y2.6094 I0.0632 J-0.047 F50.
G2 X-5.9817 Y2.6008 I-0.0138 J0.0067
G1 X-6.0072 Y2.5998 F60.
G2 X-6.0663 Y2.7899 I0.0309 J0.1139
G1 X-6.0411 Y2.7908
X-5.9323 Y2.795
G2 X-5.9169 Y2.7796 I0. J-0.0154
X-5.9302 Y2.7601 I-0.0209 J-0.0001
X-6.0403 Y2.7732 I-0.0427 J0.1101
X-6.0548 Y2.7852 I0.0674 J0.097 F50.
G3 X-6.0658 Y2.7895 I-0.0107 J-0.0111
G1 X-6.0879 Y2.7883 F60.
X-6.0949 Y2.7878
G3 X-6.1336 Y2.5857 I0.0445 J-0.1132
G1 X-6.0879 Y2.5957
X-6.0411 Y2.5985
X-6.0072 Y2.5998
G3 X-5.9945 Y2.6085 I-0.0011 J0.0153
X-6.0038 Y2.641 I-0.0229 J0.0111
X-6.1157 Y2.611 I-0.0422 J-0.0665
X-6.1214 Y2.5973 I0.0697 J-0.0366 F50.
G2 X-6.1326 Y2.5868 I-0.0147 J0.0045
G1 X-6.1346 Y2.5864 F60.
X-6.1444 Y2.581
X-6.1524 Y2.5811
X-6.1605 Y2.5818
X-6.1684 Y2.583
X-6.1763 Y2.5849
X-6.1839 Y2.5873
X-6.1914 Y2.5903
X-6.1987 Y2.5938
X-6.2057 Y2.5978
X-6.2123 Y2.6023
X-6.2186 Y2.6074
X-6.2245 Y2.6128
X-6.23 Y2.6187
X-6.2351 Y2.625
X-6.2397 Y2.6316
X-6.2437 Y2.6386
X-6.2473 Y2.6458
X-6.2503 Y2.6533
X-6.2528 Y2.6609
X-6.2547 Y2.6688
X-6.256 Y2.6767
X-6.2567 Y2.6847
X-6.2568 Y2.6928
X-6.2563 Y2.7008
X-6.2553 Y2.7088
X-6.2536 Y2.7167
X-6.2514 Y2.7244
X-6.2486 Y2.732
X-6.2453 Y2.7393
X-6.2414 Y2.7464
G2 X-6.0949 Y2.7878 I0.1474 J-0.2415
X-6.0814 Y2.7806 I0.0006 J-0.0154
X-6.0834 Y2.7637 I-0.0115 J-0.0072
X-6.2144 Y2.74 I-0.0829 J0.0842
X-6.2275 Y2.7469 I0.0481 J0.1079 F50.
G3 X-6.2355 Y2.7491 I-0.008 J-0.0131
G1 X-6.238 Y2.7489
X-6.2405 Y2.7483
X-6.2428 Y2.7472
X-6.2749 Y2.7282 F60.
X-6.2817 Y2.724
G3 X-6.2454 Y2.5195 I0.0908 J-0.0894
G2 X-6.1444 Y2.581 I0.6453 J-0.9466
G3 X-6.1369 Y2.5945 I-0.0079 J0.0132
X-6.1622 Y2.6183 I-0.0242 J-0.0004
X-6.2368 Y2.5503 I0.0034 J-0.0787
X-6.2374 Y2.5355 I0.078 J-0.0107 F50.
G2 X-6.2444 Y2.5218 I-0.0153 J-0.0008
G1 X-6.2647 Y2.5095 F60.
G2 X-6.4014 Y2.6503 I-0.0234 J0.114
X-6.2817 Y2.724 I3.2425 J-5.1253
X-6.2664 Y2.7239 I0.0076 J-0.0134
X-6.2647 Y2.6558 I-0.0204 J-0.0346
X-6.3723 Y2.6444 I-0.0649 J0.0987
X-6.3858 Y2.6506 I0.0428 J0.1101 F50.
G3 X-6.4012 Y2.6502 I-0.0073 J-0.0135
G1 X-6.4152 Y2.6409 F60.
X-6.4239 Y2.6351
G3 X-6.3694 Y2.4392 I0.0887 J-0.0808
G1 X-6.3684 Y2.4404
X-6.3111 Y2.4793
X-6.2749 Y2.5034
X-6.2647 Y2.5095
G3 X-6.2578 Y2.5232 I-0.0084 J0.0129
X-6.2679 Y2.5349 I-0.0126 J-0.0007
X-6.3615 Y2.4685 I-0.0156 J-0.0772
X-6.3622 Y2.4577 I0.078 J-0.0108 F50.
G1 X-6.3621 Y2.4537
G2 X-6.3691 Y2.44 I-0.0154 J-0.0008
G1 X-6.3815 Y2.4326 F60.
X-6.3907 Y2.4267
G2 X-6.5391 Y2.5601 I-0.032 J0.1137
G3 X-6.4239 Y2.6351 I-3.335 J5.2468
G2 X-6.4028 Y2.6301 I0.0081 J-0.0131
X-6.4034 Y2.6088 I-0.0164 J-0.0102
X-6.5082 Y2.559 I-0.0965 J0.0681
X-6.5269 Y2.5619 I0.0083 J0.1178 F50.
G3 X-6.5385 Y2.56 I-0.0035 J-0.015
G1 X-6.5554 Y2.5486 F60.
X-6.5643 Y2.5424
X-6.5691 Y2.5355
X-6.5735 Y2.5282
X-6.5773 Y2.5207
X-6.5806 Y2.5129
X-6.5833 Y2.5049
X-6.5855 Y2.4967
X-6.5871 Y2.4884
X-6.5881 Y2.48
X-6.5885 Y2.4716
X-6.5884 Y2.4632
X-6.5876 Y2.4548
X-6.5863 Y2.4464
X-6.5844 Y2.4382
X-6.582 Y2.4301
X-6.579 Y2.4222
X-6.5754 Y2.4145
X-6.5713 Y2.4071
X-6.5667 Y2.4
X-6.5617 Y2.3933
X-6.5562 Y2.3869
X-6.5502 Y2.3809
X-6.5439 Y2.3753
X-6.5371 Y2.3702
X-6.5301 Y2.3656
X-6.5227 Y2.3614
X-6.5151 Y2.3578
X-6.5072 Y2.3547
X-6.4992 Y2.3522
G2 X-6.3907 Y2.4267 I0.8069 J-1.0578
G3 X-6.3841 Y2.4406 I-0.0087 J0.0127
X-6.3953 Y2.4539 I-0.0148 J-0.0011
X-6.4932 Y2.3826 I-0.0194 J-0.0763
X-6.4928 Y2.3678 I0.0786 J-0.005 F50.
G2 X-6.4988 Y2.3537 I-0.0153 J-0.0019
G1 X-6.5087 Y2.3467 F60.
X-6.5197 Y2.3391
G2 X-6.6728 Y2.4667 I-0.0358 J0.1127
G1 X-6.6548 Y2.4793
X-6.6022 Y2.5159
X-6.5643 Y2.5424
G2 X-6.5409 Y2.5263 I0.0084 J-0.0129
X-6.5525 Y2.5041 I-0.0455 J0.0097
X-6.6419 Y2.467 I-0.086 J0.0809
X-6.6606 Y2.469 I0.0034 J0.1181 F50.
G3 X-6.6722 Y2.4666 I-0.0029 J-0.0151
G1 X-6.6957 Y2.4494 F60.
G3 X-6.626 Y2.2615 I0.0973 J-0.0708
G1 X-6.6022 Y2.2797
X-6.5554 Y2.3138
X-6.5197 Y2.3391
G3 X-6.5138 Y2.3533 I-0.0093 J0.0122
X-6.523 Y2.3639 I-0.0126 J-0.0016
X-6.6206 Y2.2917 I-0.0189 J-0.0764
X-6.6199 Y2.2769 I0.0786 J-0.0042 F50.
G2 X-6.6258 Y2.2627 I-0.0152 J-0.0021
G1 X-6.649 Y2.246 F60.
X-6.6572 Y2.2438
X-6.6655 Y2.2421
X-6.674 Y2.2411
X-6.6825 Y2.2407
X-6.691 Y2.2409
X-6.6995 Y2.2417
X-6.7079 Y2.2431
X-6.7162 Y2.2451
X-6.7243 Y2.2477
X-6.7322 Y2.2508
X-6.7399 Y2.2545
X-6.7472 Y2.2588
X-6.7543 Y2.2635
X-6.761 Y2.2688
X-6.7673 Y2.2745
X-6.7732 Y2.2806
X-6.7787 Y2.2872
X-6.7836 Y2.2941
X-6.7881 Y2.3013
X-6.792 Y2.3089
X-6.7954 Y2.3167
X-6.7982 Y2.3247
X-6.8004 Y2.333
X-6.8021 Y2.3413
X-6.8031 Y2.3498
X-6.8036 Y2.3583
X-6.8034 Y2.3668
X-6.7892 Y2.382
X-6.7425 Y2.4152
X-6.6957 Y2.4494
G2 X-6.6804 Y2.4505 I0.0086 J-0.0127
X-6.6718 Y2.4064 I-0.0122 J-0.0253
X-6.7737 Y2.3683 I-0.0877 J0.0791
X-6.7883 Y2.371 I0.0142 J0.1173 F50.
G3 X-6.803 Y2.3668 I-0.0037 J-0.0149
G1 X-6.828 Y2.3391 F60.
X-6.836 Y2.3041
G3 X-6.6517 Y2.2477 I0.0997 J-0.0034
X-6.5087 Y2.2382 I0.0766 J0.0723
G2 X-6.0826 Y2.4878 I2.3021 J-3.4413
G3 X-5.5591 Y2.5232 I-0.8596 J16.6137
G2 X-5.117 Y2.7499 I1.456 J-2.295
X-4.8058 Y2.7377 I-0.0811 J-6.0854
G3 X-4.4093 Y2.7218 I0.2705 J1.7913
X-4.4766 Y3.0895 I-0.061 J0.1788
X-5.2473 Y3.1331 I-0.5515 J-2.9155
X-5.4982 Y3.0057 I3.7039 J-7.604
G1 X-5.5155 Y2.9946
X-5.5331 Y2.9839
X-5.551 Y2.9738
X-5.5692 Y2.9642
X-5.5877 Y2.9552
X-5.6064 Y2.9466
X-5.6253 Y2.9387
X-5.6445 Y2.9312
X-5.6639 Y2.9244
X-5.6835 Y2.918
X-5.7032 Y2.9123
X-5.7231 Y2.9071
X-5.7432 Y2.9025
X-5.7633 Y2.8985
X-5.7836 Y2.8951
X-5.804 Y2.8923
X-5.8244 Y2.89
X-5.8449 Y2.8884
X-5.8655 Y2.8873
X-5.886 Y2.8869
X-5.9066 Y2.887
X-5.9272 Y2.8877
X-5.9477 Y2.889
X-5.9682 Y2.8909
X-5.9886 Y2.8934
X-6.0089 Y2.8965
X-6.0291 Y2.9002
G3 X-6.6078 Y2.6231 I0.1537 J-1.0639
X-6.9263 Y2.3566 I0.3293 J-0.7171
X-6.7277 Y2.1148 I0.1887 J-0.0475
X-6.197 Y2.3251 I0.0166 J0.7331
G2 X-5.6818 Y2.4082 I0.4097 J-0.902
G3 X-5.1716 Y2.6208 I-0.3047 J1.4495
G2 X-4.8651 Y2.6407 I0.2038 J-0.7677
G1 X-4.744 Y2.631
X-4.6227 Y2.6216
X-4.5015 Y2.6126
X-4.4039 Y2.6605
X-4.3859 Y2.6681
X-4.3103 Y2.6977
G3 X-4.2145 Y3.0179 I-0.1124 J0.208
X-4.2384 Y3.0102 I-0.0092 J-0.0123
G1 X-4.2389 Y3.0087
X-4.3301 Y2.7168
X-4.3307 Y2.7138
G3 X-4.3103 Y2.6977 I0.0153 J-0.0016 F50.
X-4.1317 Y2.8685 I-0.0132 J0.1926 F60.
X-4.2166 Y3.0196 I-0.1678 J0.0051
G1 X-4.3805 Y3.1463
G3 X-4.8884 Y3.2283 I-0.417 J-0.9692
G1 X-4.9113 Y3.2324
X-4.9343 Y3.2358
X-4.9573 Y3.2386
X-4.9805 Y3.2408
X-5.0037 Y3.2424
X-5.0269 Y3.2434
X-5.0501 Y3.2438
X-5.0733 Y3.2436
X-5.0966 Y3.2427
X-5.1198 Y3.2412
X-5.1429 Y3.2392
X-5.166 Y3.2365
X-5.189 Y3.2332
X-5.2119 Y3.2292
X-5.2347 Y3.2247
X-5.2573 Y3.2196
X-5.2799 Y3.2139
X-5.3022 Y3.2076
X-5.3244 Y3.2006
X-5.3464 Y3.1932
X-5.3682 Y3.1851
X-5.3898 Y3.1764
X-5.4111 Y3.1672
X-5.4322 Y3.1574
X-5.453 Y3.1471
X-5.4735 Y3.1362
X-5.4938 Y3.1248
X-5.5137 Y3.1129
X-5.5333 Y3.1004
X-5.5526 Y3.0874
X-5.5715 Y3.0739
X-5.59 Y3.0599
G2 X-6.0462 Y2.9902 I-0.3796 J0.9562
G3 X-6.2877 Y2.9409 I0.0168 J-0.6977
X-6.9218 Y2.5236 I1.5978 J-3.1183
G1 X-6.9954 Y2.3405
G3 X-6.812 Y2.0306 I0.2363 J-0.0693
G2 X-6.4877 Y2.0603 I0.3273 J-1.791
G3 X-6.0926 Y2.2602 I-0.3086 J1.1004
G2 X-5.6036 Y2.3192 I0.511 J-2.1771
G3 X-5.1269 Y2.5346 I-0.4615 J1.6568
G2 X-4.6562 Y2.5245 I0.1783 J-2.6773
G1 X-4.5678 Y2.5785
X-4.5444 Y2.5915
X-4.5015 Y2.6126
G3 X-4.4934 Y2.6256 I-0.0073 J0.0135
X-4.5293 Y2.6633 I-0.0365 J0.0012
X-4.6489 Y2.554 I-0.0019 J-0.1181
X-4.6491 Y2.5391 I0.1178 J-0.0088 F50.
G2 X-4.6561 Y2.5255 I-0.0154 J-0.0008
G1 X-4.6914 Y2.5043 F60.
X-4.7083 Y2.4934
X-4.7257 Y2.4809
G2 X-5.0692 Y2.4337 I-0.3042 J0.94
X-5.5832 Y2.2234 I-1.3773 J2.6336
G3 X-6.0434 Y2.1762 I0.3529 J-5.7074
G2 X-6.2493 Y2.0476 I-1.0181 J1.4017
G1 X-6.3238 Y2.0558
X-6.3472 Y2.0579
X-6.4877 Y2.0603
G2 X-6.5006 Y2.0687 I0.0008 J0.0153
X-6.4772 Y2.1393 I0.0465 J0.0238
X-6.2681 Y2.0711 I0.0696 J-0.1413
X-6.2618 Y2.0577 I-0.1395 J-0.0731 F50.
G3 X-6.2497 Y2.0483 I0.0142 J0.0058
G1 X-6.1833 Y2.0415 F60.
X-6.1599 Y2.0382
G3 X-5.8926 Y2.0975 I-0.4308 J2.5739
X-5.0726 Y2.3342 I0.019 J1.4728
X-4.9025 Y2.3444 I-0.1213 J3.445
G1 X-4.8488 Y2.3913
X-4.8254 Y2.409
X-4.7257 Y2.4809
G3 X-4.7199 Y2.4951 I-0.0094 J0.0121
X-4.7978 Y2.5422 I-0.058 J-0.0079
X-4.9005 Y2.3745 I0.0535 J-0.1481
X-4.898 Y2.3599 I0.1563 J0.0196 F50.
G2 X-4.9025 Y2.3452 I-0.015 J-0.0033
G1 X-4.9659 Y2.2909 F60.
X-4.9767 Y2.2806
X-5.003 Y2.2629
X-5.0295 Y2.2457
X-5.0565 Y2.2291
X-5.0837 Y2.213
X-5.1112 Y2.1974
X-5.1391 Y2.1824
X-5.1672 Y2.1679
X-5.1956 Y2.1539
X-5.2243 Y2.1405
X-5.2532 Y2.1277
X-5.2824 Y2.1154
X-5.3118 Y2.1037
X-5.3414 Y2.0925
X-5.3712 Y2.082
X-5.4013 Y2.072
X-5.4315 Y2.0626
X-5.4619 Y2.0538
X-5.4924 Y2.0456
X-5.5232 Y2.038
X-5.554 Y2.031
X-5.585 Y2.0246
X-5.6161 Y2.0188
X-5.6473 Y2.0136
X-5.6786 Y2.009
X-5.71 Y2.005
X-5.7415 Y2.0016
X-5.773 Y1.9988
X-5.8046 Y1.9967
X-5.8362 Y1.9952
X-5.8678 Y1.9942
X-5.8995 Y1.9939
X-5.9311 Y1.9942
X-5.996 Y2.007
X-6.0194 Y2.0118
X-6.1599 Y2.0382
G2 X-6.1712 Y2.0486 I0.0034 J0.015
X-6.1307 Y2.1194 I0.0531 J0.0167
X-5.9455 Y2.0147 I0.0354 J-0.1534
X-5.9416 Y2.0004 I-0.1498 J-0.0487 F50.
G3 X-5.9312 Y1.9891 I0.015 J0.0034
G1 X-5.8477 Y1.966 F60.
X-5.8321 Y1.9615
X-5.7619 Y1.9356
G3 X-5.1892 Y2.0495 I0.1115 J0.9359
G1 X-5.188 Y2.0502
X-5.1868 Y2.0511
X-5.1858 Y2.0522
G2 X-4.9767 Y2.2806 I1.5786 J-1.2353
G3 X-4.9729 Y2.2955 I-0.011 J0.0108
X-5.0367 Y2.3354 I-0.0538 J-0.0149
X-5.1888 Y2.0813 I0.0352 J-0.1937
G1 X-5.1837 Y2.0674 F50.
G2 X-5.1858 Y2.0522 I-0.0142 J-0.0058
G1 X-5.2 Y2.0351 F60.
X-5.2167 Y2.0128
X-5.2575 Y1.9543
G2 X-5.5287 Y1.8355 I-0.3136 J0.3469
G1 X-5.6683 Y1.9007
X-5.6917 Y1.9097
X-5.7619 Y1.9356
G2 X-5.7713 Y1.9478 I0.0058 J0.0142
X-5.7462 Y1.9888 I0.0377 J0.0052
X-5.5385 Y1.8631 I0.0518 J-0.1487
X-5.5371 Y1.8484 I-0.1558 J-0.023 F50.
G3 X-5.5287 Y1.8355 I0.0153 J0.0008
X-5.2639 Y1.9559 I0.0846 J0.1654 F60.
G1 X-5.2623 Y1.957
X-5.2609 Y1.9584
X-5.2598 Y1.9601
X-5.259 Y1.9621
X-5.2586 Y1.9642
X-5.2587 Y1.9666
X-5.2591 Y1.9689
X-5.2601 Y1.9712
X-5.2616 Y1.9734
X-5.2635 Y1.9753
X-5.2658 Y1.9768
X-5.2684 Y1.9779
X-5.2714 Y1.9783 Z-0.2347
X-5.2742 Y1.9787 Z-0.2338
X-5.2768 Y1.9791 Z-0.2324
X-5.2792 Y1.9794 Z-0.2305
X-5.2811 Y1.9796 Z-0.2282
X-5.2825 Y1.9798 Z-0.2255
X-5.2833 Y1.9799 Z-0.2226
X-5.2836 Y1.98 Z-0.2196
G0 Z0.4
X-6.7721 Y2.0535
Z-0.2043
G1 Z-0.2196 F50.
X-6.7723 Y2.0533 Z-0.2226
X-6.773 Y2.0527 Z-0.2255
X-6.7741 Y2.0518 Z-0.2282
X-6.7755 Y2.0506 Z-0.2305
X-6.7773 Y2.0491 Z-0.2324
X-6.7794 Y2.0474 Z-0.2338
X-6.7816 Y2.0456 Z-0.2347
X-6.7839 Y2.0437 Z-0.235
G2 X-6.812 Y2.0306 I-0.0395 J0.0482
G1 X-6.8214 Y2.0268 F60.
X-6.8311 Y2.0235
X-6.841 Y2.0209
X-6.851 Y2.0188
X-6.8611 Y2.0174
X-6.8713 Y2.0165
X-6.8815 Y2.0163
X-6.8917 Y2.0167
X-6.9019 Y2.0178
X-6.912 Y2.0194
X-6.922 Y2.0217
X-6.9318 Y2.0245
X-6.9414 Y2.028
X-6.9508 Y2.032
X-6.9599 Y2.0366
X-6.9687 Y2.0417
X-6.9772 Y2.0474
X-6.9854 Y2.0536
X-6.9931 Y2.0602
X-7.0005 Y2.0673
X-7.0074 Y2.0749
X-7.0138 Y2.0829
X-7.0197 Y2.0912
X-7.0251 Y2.0999
X-7.03 Y2.1088
X-7.0343 Y2.1181
X-7.038 Y2.1276
X-7.0412 Y2.1373
X-7.0437 Y2.1472
X-7.0457 Y2.1573
X-7.047 Y2.1674
X-7.0477 Y2.1776
X-7.0478 Y2.1878
X-7.0473 Y2.198
X-7.0461 Y2.2082
X-7.0444 Y2.2182
X-7.042 Y2.2282
X-7.039 Y2.238
X-7.0355 Y2.2475
X-6.9954 Y2.3405
G2 X-6.966 Y2.3342 I0.014 J-0.0063
G1 Y2.3341
G2 X-6.9968 I-0.0154 J0.
X-6.9954 Y2.3405 I0.0154 J0.
G1 X-6.9228 Y2.5003
G2 X-6.8948 Y2.4876 I0.014 J-0.0064
X-6.924 Y2.4917 I-0.014 J0.0064
X-6.9208 Y2.5224 I0.0616 J0.0092 F50.
G1 X-6.8707 Y2.6447 F60.
G2 X-6.5487 Y2.9102 I0.7705 J-0.6064
X-5.814 Y3.0927 I0.6121 J-0.894
G3 X-5.3591 Y3.2928 I-1.5911 J4.2355
G2 X-5.0863 Y3.341 I0.2575 J-0.6606
X-4.5922 Y3.3112 I-0.0269 J-4.5567
G1 X-4.3805 Y3.1463
G2 X-4.3752 Y3.1319 I-0.0098 J-0.0118
X-4.3873 Y3.1182 I-0.017 J0.0029
X-4.5888 Y3.281 I-0.0445 J0.1511
X-4.587 Y3.2957 I0.157 J-0.0117 F50.
G3 X-4.5924 Y3.3101 I-0.0152 J0.0026
G1 X-4.6849 Y3.3817 F60.
G3 X-5.0936 Y3.4404 I-0.3302 J-0.8465
X-5.7286 Y3.2197 I0.1058 J-1.328
X-6.3435 Y3.1394 I0.4017 J-5.4728
X-6.5887 Y3.0019 I2.0197 J-3.8897
X-6.7753 Y2.8776 I0.7082 J-1.2655
G1 X-6.8707 Y2.6447
G3 X-6.8681 Y2.6295 I0.0144 J-0.0053
X-6.8254 Y2.6202 I0.0273 J0.0227
X-6.7638 Y2.8507 I-0.0685 J0.1418
X-6.7727 Y2.8625 I-0.1302 J-0.0886 F50.
G2 X-6.7753 Y2.8776 I0.0118 J0.0098
G1 X-6.7365 Y2.9723 F60.
G2 X-6.3994 Y3.2132 I0.549 J-0.412
X-5.8214 Y3.3081 I0.5918 J-1.7954
X-5.305 Y3.5144 I2.1322 J-4.589
X-4.9043 Y3.5347 I0.2731 J-1.4236
X-4.8781 Y3.5311 I0.0086 J-0.0343
G1 X-4.6849 Y3.3817
G2 X-4.6796 Y3.3673 I-0.0098 J-0.0118
X-4.7213 Y3.3329 I-0.0408 J0.0069
X-4.8746 Y3.502 I0.0038 J0.1574
X-4.8728 Y3.5167 I0.157 J-0.0117 F50.
G3 X-4.8781 Y3.5311 I-0.0152 J0.0026
G1 X-4.9541 Y3.5899 F60.
G3 X-5.1132 Y3.634 I-0.1508 J-0.235
X-5.1129 Y3.6045 I0.0045 J-0.0147
G1 X-4.9682 Y3.5633
G3 X-4.9575 Y3.5641 I0.0042 J0.0148
X-4.9541 Y3.5899 I-0.0065 J0.0139 F50.
X-5.0387 Y3.6524 I-0.1155 J-0.0678 F60.
G1 X-5.0391
X-5.043 Y3.652
X-5.0499 Y3.651
X-5.574 Y3.5105
G2 X-5.9878 Y3.3932 I-0.4834 J0.9164
G1 X-6.0207 Y3.3907
X-6.0219 Y3.3905
X-6.0225 Y3.3904
X-6.5111 Y3.2594
G3 X-6.6455 Y3.1943 I0.0944 J-0.3657
X-6.6248 Y3.1749 I0.0144 J-0.0053
G1 X-6.5014 Y3.2304
G3 X-6.4926 Y3.2412 I-0.0063 J0.014
X-6.5111 Y3.2594 I-0.015 J0.0033 F50.
X-6.63 Y3.2261 I0.0461 J-0.3925 F60.
G1 X-6.6314 Y3.2248
X-6.6317 Y3.2243
X-6.6363 Y3.2166
X-6.7365 Y2.9723
G3 X-6.7207 Y2.9517 I0.0144 J-0.0053
G1 X-6.7177 Y2.9519 Z-0.2347
X-6.7148 Y2.9522 Z-0.2338
X-6.7122 Y2.9524 Z-0.2324
X-6.7099 Y2.9526 Z-0.2305
X-6.708 Y2.9528 Z-0.2282
X-6.7066 Y2.9529 Z-0.2255
X-6.7057 Y2.953 Z-0.2226
X-6.7054 Z-0.2196
G0 Z-0.2043
X-5.5283 Y3.5056
G1 Z-0.2196 F50.
X-5.5285 Y3.5057 Z-0.2226
X-5.5294 Y3.506 Z-0.2255
X-5.5307 Y3.5063 Z-0.2282
X-5.5326 Y3.5069 Z-0.2305
X-5.5348 Y3.5075 Z-0.2324
X-5.5374 Y3.5082 Z-0.2338
X-5.5402 Y3.509 Z-0.2347
X-5.543 Y3.5098 Z-0.235
G3 X-5.574 Y3.5105 I-0.0169 J-0.06
G1 X-6.0225 Y3.3904 F60.
G3 X-6.0294 Y3.3653 I0.0045 J-0.0147
G1 X-6.0274 Y3.3631 Z-0.2347
X-6.0254 Y3.361 Z-0.2338
X-6.0236 Y3.359 Z-0.2324
X-6.0221 Y3.3573 Z-0.2305
X-6.0208 Y3.3559 Z-0.2282
X-6.0198 Y3.3548 Z-0.2255
X-6.0192 Y3.3542 Z-0.2226
X-6.019 Y3.354 Z-0.2196
G0 Z0.6
(SHAPE THROUGH FINISHING PASS)
M7
G0 X-5.0921 Y2.2159
Z0.6
Z0.2
G1 Z0.1 F13.333
Z-0.185
X-5.0923 Y2.2157 Z-0.1906 F40.
X-5.0929 Y2.215 Z-0.1961
X-5.094 Y2.2139 Z-0.2015
X-5.0954 Y2.2123 Z-0.2067
X-5.0973 Y2.2103 Z-0.2116
X-5.0995 Y2.2079 Z-0.2162
X-5.102 Y2.2052 Z-0.2204
X-5.1049 Y2.2021 Z-0.2241
X-5.108 Y2.1988 Z-0.2273
X-5.1113 Y2.1952 Z-0.23
X-5.1149 Y2.1914 Z-0.2322
X-5.1185 Y2.1875 Z-0.2337
X-5.1223 Y2.1834 Z-0.2347
X-5.1261 Y2.1793 Z-0.235
X-5.1366 Y2.1681
G3 X-5.0659 Y2.1706 I0.0341 J0.0366
G2 X-4.2327 Y2.7118 I1.498 J-1.3941 F50.
G3 X-4.183 Y3.0126 I-0.0563 J0.1638
G1 X-5.0251 Y3.6637
G3 X-5.0452 Y3.6678 I-0.0142 J-0.0183
G1 X-6.632 Y3.2426
G3 X-6.6475 Y3.229 I0.006 J-0.0224
G1 X-7.0511 Y2.2441
G3 X-6.8578 Y2.0085 I0.1602 J-0.0657
G2 X-5.5217 Y1.8156 I0.392 J-2.0085
G3 X-5.2933 Y1.8767 I0.0808 J0.1553
G2 X-5.0659 Y2.1706 I1.7254 J-1.1003
G3 X-5.0685 Y2.2413 I-0.0366 J0.0341
G1 X-5.0789 Y2.23
X-5.0828 Y2.2259 Z-0.2347
X-5.0865 Y2.2219 Z-0.2337
X-5.0902 Y2.2179 Z-0.2322
X-5.0937 Y2.2141 Z-0.23
X-5.0971 Y2.2105 Z-0.2273
X-5.1002 Y2.2072 Z-0.2241
X-5.103 Y2.2041 Z-0.2204
X-5.1056 Y2.2014 Z-0.2162
X-5.1078 Y2.199 Z-0.2116
X-5.1096 Y2.197 Z-0.2067
X-5.1111 Y2.1955 Z-0.2015
X-5.1122 Y2.1943 Z-0.1961
X-5.1128 Y2.1936 Z-0.1906
X-5.113 Y2.1934 Z-0.185
G0 Z0.4
X-3.134 Y0.8058
Z0.2
G1 Z0.1 F13.333
Z-0.185
Y0.8055 Z-0.1906 F40.
Y0.8046 Z-0.1961
Y0.803 Z-0.2015
X-3.1339 Y0.8009 Z-0.2067
X-3.1338 Y0.7982 Z-0.2116
X-3.1337 Y0.7949 Z-0.2162
X-3.1336 Y0.7912 Z-0.2204
X-3.1334 Y0.787 Z-0.2241
X-3.1333 Y0.7824 Z-0.2273
X-3.1331 Y0.7775 Z-0.23
X-3.133 Y0.7724 Z-0.2322
X-3.1328 Y0.767 Z-0.2337
X-3.1326 Y0.7614 Z-0.2347
X-3.1324 Y0.7558 Z-0.235
X-3.1319 Y0.7405
G3 X-3.0836 Y0.7921 I-0.0016 J0.05
X-4.0524 Y0.7608 I-0.4844 J-0.0156 F50.
X-3.0836 Y0.7921 I0.4844 J0.0156
X-3.1352 Y0.8404 I-0.05 J-0.0016
G1 X-3.1347 Y0.8251
X-3.1345 Y0.8195 Z-0.2347
X-3.1343 Y0.814 Z-0.2337
X-3.1341 Y0.8086 Z-0.2322
X-3.134 Y0.8034 Z-0.23
X-3.1338 Y0.7985 Z-0.2273
X-3.1337 Y0.7939 Z-0.2241
X-3.1335 Y0.7897 Z-0.2204
X-3.1334 Y0.786 Z-0.2162
X-3.1333 Y0.7828 Z-0.2116
X-3.1332 Y0.78 Z-0.2067
X-3.1331 Y0.7779 Z-0.2015
Y0.7764 Z-0.1961
Y0.7754 Z-0.1906
Y0.7751 Z-0.185
G0 Z0.4
X-6.0318 Y0.0294
Z0.2
G1 Z0.1 F13.333
Z-0.185
Y0.0291 Z-0.1906 F40.
Y0.0281 Z-0.1961
X-6.0317 Y0.0266 Z-0.2015
Y0.0244 Z-0.2067
X-6.0316 Y0.0217 Z-0.2116
X-6.0315 Y0.0185 Z-0.2162
X-6.0313 Y0.0147 Z-0.2204
X-6.0312 Y0.0105 Z-0.2241
X-6.0311 Y0.006 Z-0.2273
X-6.0309 Y0.0011 Z-0.23
X-6.0307 Y-0.0041 Z-0.2322
X-6.0306 Y-0.0095 Z-0.2337
X-6.0304 Y-0.015 Z-0.2347
X-6.0302 Y-0.0206 Z-0.235
X-6.0297 Y-0.036
G3 X-5.9813 Y0.0156 I-0.0016 J0.05
X-6.9501 Y-0.0156 I-0.4844 J-0.0156 F50.
X-5.9813 Y0.0156 I0.4844 J0.0156
X-6.0329 Y0.064 I-0.05 J-0.0016
G1 X-6.0324 Y0.0486
X-6.0323 Y0.043 Z-0.2347
X-6.0321 Y0.0375 Z-0.2337
X-6.0319 Y0.0321 Z-0.2322
X-6.0317 Y0.0269 Z-0.23
X-6.0316 Y0.022 Z-0.2273
X-6.0314 Y0.0175 Z-0.2241
X-6.0313 Y0.0133 Z-0.2204
X-6.0312 Y0.0095 Z-0.2162
X-6.0311 Y0.0063 Z-0.2116
X-6.031 Y0.0036 Z-0.2067
X-6.0309 Y0.0014 Z-0.2015
Y-0.0001 Z-0.1961
X-6.0308 Y-0.001 Z-0.1906
Y-0.0014 Z-0.185
G0 Z0.6
(2D SLOT CUT)
M7
G0 X-6.7384 Y4.498
Z0.6
Z0.2
G1 Z0.1 F13.333
G2 X-6.6543 Y4.5314 Z0.084 I0.1849 J-0.3427 F40.
G1 X-5.6704 Y4.795 Z-0.0956
G2 X-5.5474 Y4.8077 Z-0.1175 I0.1008 J-0.3761
X-5.3314 Y4.7269 I-0.0222 J-0.3887 F55.
G1 X-2.3162 Y2.3953
G2 X-1.8865 Y-0.3898 I-1.2518 J-1.6188
G3 X-1.9079 Y-0.545 I0.1423 J-0.0987
G1 X-1.6493 Y-1.2947
G3 X-1.5852 Y-1.3799 I0.1637 J0.0565
G1 X-1.3446 Y-1.5491
G2 X-1.5578 Y-2.0225 I-0.1521 J-0.2162
G1 X-3.885 Y-1.4689
G3 X-3.9699 Y-1.4701 I-0.0401 J-0.1684
G1 X-5.0528 Y-1.7603
G2 X-5.0595 Y-1.762 I-0.0849 J0.3156
G1 X-5.0596
X-5.9781 Y-1.9874
G2 X-8.3593 Y0.776 I-0.4876 J1.9874
G1 X-6.9138 Y4.303
G2 X-6.6543 Y4.5314 I0.3603 J-0.1477
G1 X-5.6704 Y4.795
G2 X-5.5474 Y4.8077 I0.1008 J-0.3761
X-5.3314 Y4.7269 Z-0.1472 I-0.0222 J-0.3887 F40.
G1 X-4.7851 Y4.3045 Z-0.235
X-3.6298 Y3.4111 F55.
Z-0.135
X-3.0335 Y2.95
Z-0.235 F13.333
X-2.3162 Y2.3953 F55.
G2 X-1.8865 Y-0.3898 I-1.2518 J-1.6188
G3 X-1.9079 Y-0.545 I0.1423 J-0.0987
G1 X-1.6493 Y-1.2947
G3 X-1.5852 Y-1.3799 I0.1637 J0.0565
G1 X-1.3446 Y-1.5491
G2 X-1.5578 Y-2.0225 I-0.1521 J-0.2162
G1 X-3.885 Y-1.4689
G3 X-3.9699 Y-1.4701 I-0.0401 J-0.1684
G1 X-4.1642 Y-1.5222
Z-0.135
X-4.8922 Y-1.7173
Z-0.235 F13.333
X-5.0528 Y-1.7603 F55.
G2 X-5.0595 Y-1.762 I-0.0849 J0.3156
G1 X-5.0596
X-5.9781 Y-1.9874
G2 X-8.3593 Y0.776 I-0.4876 J1.9874
G1 X-7.7869 Y2.1727
Z-0.135
X-7.5011 Y2.8701
Z-0.235 F13.333
X-6.9138 Y4.303 F55.
G2 X-6.6543 Y4.5314 I0.3603 J-0.1477
G1 X-5.6704 Y4.795
G2 X-5.3314 Y4.7269 I0.1008 J-0.3761
G1 X-4.7851 Y4.3045
G0 Z0.6
M9
G53 Z0.
M30
%
