%
(HORIZONTALROLLERPLATE_1508)
(T1  D=0.1508 CR=0. - ZMIN=-0.3 - FLAT END MILL)
G90 G94 G17 G91.1
G64 P0.001 Q0.001
G20
G53 G0 Z0.
(SMALL HOLE BORE)
M9
T1 M6
S13000 M3
G4 P10.
G54
M7
G0 X11.0101 Y0.5126
G43 Z0.6 H1
G0 Z0.13
G1 Z0.0651 F35.
G18 G3 X10.995 Z0.05 I-0.0151 K0.
G1 X10.9875
G17 G3 X10.9749 Y0.5 I0. J-0.0126
X11.0251 Z0. I0.0251 J0.
X11.0078 Y0.5239 Z-0.02 I-0.0251 J0.
X10.9922 Y0.4761 Z-0.07 I-0.0078 J-0.0239
X11.0078 Y0.5239 Z-0.12 I0.0078 J0.0239
X10.9797 Y0.4852 Z-0.16 I-0.0078 J-0.0239
X11.0203 Y0.5148 Z-0.21 I0.0203 J0.0148
X10.9922 Y0.5239 Z-0.23 I-0.0203 J-0.0148
X11.0078 Y0.4761 Z-0.28 I0.0078 J-0.0239
X11.0251 Y0.5 Z-0.3 I-0.0078 J0.0239
X10.9749 I-0.0251 J0.
X11.0251 I0.0251 J0.
X11.0126 Y0.5126 I-0.0125 J0.
G1 X11.005
G18 G3 X10.9899 Z-0.2849 I0. K0.0151
G0 Z0.4
X11.0101 Y1.5125
Z0.13
G1 Z0.0651 F35.
G3 X10.995 Z0.05 I-0.0151 K0.
G1 X10.9875
G17 G3 X10.9749 Y1.5 I0. J-0.0126
X11.0251 Z0. I0.0251 J0.
X11.0078 Y1.5239 Z-0.02 I-0.0251 J0.
X10.9922 Y1.4761 Z-0.07 I-0.0078 J-0.0239
X11.0078 Y1.5239 Z-0.12 I0.0078 J0.0239
X10.9797 Y1.4852 Z-0.16 I-0.0078 J-0.0239
X11.0203 Y1.5148 Z-0.21 I0.0203 J0.0148
X10.9922 Y1.5239 Z-0.23 I-0.0203 J-0.0148
X11.0078 Y1.4761 Z-0.28 I0.0078 J-0.0239
X11.0251 Y1.5 Z-0.3 I-0.0078 J0.0239
X10.9749 I-0.0251 J0.
X11.0251 I0.0251 J0.
X11.0126 Y1.5125 I-0.0125 J0.
G1 X11.005
G18 G3 X10.9899 Z-0.2849 I0. K0.0151
G0 Z0.4
X9.5 Y1.
Z0.1149
G1 Z0.05 F35.
X9.502 Y0.998
G17 G3 X9.5041 Y1. I0. J0.002
X9.4959 Z0. I-0.0041 J0.
X9.4987 Y0.9961 Z-0.02 I0.0041 J0.
X9.5013 Y1.0039 Z-0.07 I0.0013 J0.0039
X9.4967 Y1.0024 Z-0.09 I-0.0013 J-0.0039
X9.5033 Y0.9976 Z-0.14 I0.0033 J-0.0024
Y1.0024 Z-0.16 I-0.0033 J0.0024
X9.4967 Y0.9976 Z-0.21 I-0.0033 J-0.0024
X9.5013 Y0.9961 Z-0.23 I0.0033 J0.0024
X9.4987 Y1.0039 Z-0.28 I-0.0013 J0.0039
X9.4959 Y1. Z-0.3 I0.0013 J-0.0039
X9.5041 I0.0041 J0.
X9.4959 I-0.0041 J0.
X9.4979 Y0.998 I0.002 J0.
G1 X9.5 Y1.
G0 Z0.4
X8.0101 Y1.5125
Z0.13
G1 Z0.0651 F35.
G18 G3 X7.995 Z0.05 I-0.0151 K0.
G1 X7.9874
G17 G3 X7.9749 Y1.5 I0. J-0.0126
X8.0251 Z0. I0.0251 J0.
X7.9749 Z-0.05 I-0.0251 J0.
X8.0251 Z-0.1 I0.0251 J0.
X7.9749 Z-0.15 I-0.0251 J0.
X8.0251 Z-0.2 I0.0251 J0.
X7.9749 Z-0.25 I-0.0251 J0.
X8.0251 Z-0.3 I0.0251 J0.
X7.9749 I-0.0251 J0.
X8.0251 I0.0251 J0.
X8.0125 Y1.5125 I-0.0126 J0.
G1 X8.005
G18 G3 X7.9899 Z-0.2849 I0. K0.0151
G0 Z0.4
X8.0101 Y0.5126
Z0.13
G1 Z0.0651 F35.
G3 X7.995 Z0.05 I-0.0151 K0.
G1 X7.9874
G17 G3 X7.9749 Y0.5 I0. J-0.0126
X8.0251 Z0. I0.0251 J0.
X7.9749 Z-0.05 I-0.0251 J0.
X8.0251 Z-0.1 I0.0251 J0.
X7.9749 Z-0.15 I-0.0251 J0.
X8.0251 Z-0.2 I0.0251 J0.
X7.9749 Z-0.25 I-0.0251 J0.
X8.0251 Z-0.3 I0.0251 J0.
X7.9749 I-0.0251 J0.
X8.0251 I0.0251 J0.
X8.0125 Y0.5126 I-0.0126 J0.
G1 X8.005
G18 G3 X7.9899 Z-0.2849 I0. K0.0151
G0 Z0.4
X6.4899 Y0.9875
Z0.13
G1 Z0.0651 F35.
G2 X6.505 Z0.05 I0.0151 K0.
G1 X6.5126
G17 G3 X6.5251 Y1. I0. J0.0125
X6.4749 Z0. I-0.0251 J0.
X6.4922 Y0.9761 Z-0.02 I0.0251 J0.
X6.5078 Y1.0239 Z-0.07 I0.0078 J0.0239
X6.4797 Y1.0148 Z-0.09 I-0.0078 J-0.0239
X6.5203 Y0.9852 Z-0.14 I0.0203 J-0.0148
X6.4797 Y1.0148 Z-0.19 I-0.0203 J0.0148
X6.5203 Y0.9852 Z-0.24 I0.0203 J-0.0148
X6.4797 Y1.0148 Z-0.29 I-0.0203 J0.0148
X6.4749 Y1. Z-0.3 I0.0203 J-0.0148
X6.5251 I0.0251 J0.
X6.4749 I-0.0251 J0.
X6.4875 Y0.9875 I0.0126 J0.
G1 X6.495
G18 G2 X6.5101 Z-0.2849 I0. K0.0151
G0 Z0.4
X5.0101 Y1.5125
Z0.13
G1 Z0.0651 F35.
G3 X4.995 Z0.05 I-0.0151 K0.
G1 X4.9874
G17 G3 X4.9749 Y1.5 I0. J-0.0126
X5.0251 Z0. I0.0251 J0.
X4.9749 Z-0.05 I-0.0251 J0.
X5.0251 Z-0.1 I0.0251 J0.
X4.9749 Z-0.15 I-0.0251 J0.
X5.0251 Z-0.2 I0.0251 J0.
X4.9749 Z-0.25 I-0.0251 J0.
X5.0251 Z-0.3 I0.0251 J0.
X4.9749 I-0.0251 J0.
X5.0251 I0.0251 J0.
X5.0126 Y1.5125 I-0.0126 J0.
G1 X5.005
G18 G3 X4.9899 Z-0.2849 I0. K0.0151
G0 Z0.4
X5.0101 Y0.5126
Z0.13
G1 Z0.0651 F35.
G3 X4.995 Z0.05 I-0.0151 K0.
G1 X4.9874
G17 G3 X4.9749 Y0.5 I0. J-0.0126
X5.0251 Z0. I0.0251 J0.
X4.9749 Z-0.05 I-0.0251 J0.
X5.0251 Z-0.1 I0.0251 J0.
X4.9749 Z-0.15 I-0.0251 J0.
X5.0251 Z-0.2 I0.0251 J0.
X4.9749 Z-0.25 I-0.0251 J0.
X5.0251 Z-0.3 I0.0251 J0.
X4.9749 I-0.0251 J0.
X5.0251 I0.0251 J0.
X5.0126 Y0.5126 I-0.0126 J0.
G1 X5.005
G18 G3 X4.9899 Z-0.2849 I0. K0.0151
G0 Z0.4
X2.9672 Y2.5125
Z0.1149
G1 Z0.05 F35.
X2.9689 Y2.5108
G17 G3 X2.9705 Y2.5125 I0. J0.0017
X2.9639 Z0. I-0.0033 J0.
X2.9662 Y2.5093 Z-0.02 I0.0033 J0.
X2.9682 Y2.5157 Z-0.07 I0.001 J0.0032
X2.9645 Y2.5144 Z-0.09 I-0.001 J-0.0032
X2.9699 Y2.5105 Z-0.14 I0.0027 J-0.002
Y2.5144 Z-0.16 I-0.0027 J0.002
X2.9645 Y2.5105 Z-0.21 I-0.0027 J-0.002
X2.9682 Y2.5093 Z-0.23 I0.0027 J0.002
X2.9662 Y2.5157 Z-0.28 I-0.001 J0.0032
X2.9639 Y2.5125 Z-0.3 I0.001 J-0.0032
X2.9705 I0.0033 J0.
X2.9639 I-0.0033 J0.
X2.9655 Y2.5108 I0.0017 J0.
G1 X2.9672 Y2.5125
G0 Z0.4
X3.5382 Y3.0835
Z0.1149
G1 Z0.05 F35.
X3.5399 Y3.0818
G3 X3.5415 Y3.0835 I0. J0.0017
X3.5349 Z0. I-0.0033 J0.
X3.5372 Y3.0803 Z-0.02 I0.0033 J0.
X3.5392 Y3.0867 Z-0.07 I0.001 J0.0032
X3.5372 Y3.0803 Z-0.12 I-0.001 J-0.0032
X3.5409 Y3.0854 Z-0.16 I0.001 J0.0032
X3.5355 Y3.0815 Z-0.21 I-0.0027 J-0.002
X3.5409 Y3.0854 Z-0.26 I0.0027 J0.002
X3.5349 Y3.0835 Z-0.3 I-0.0027 J-0.002
X3.5415 I0.0033 J0.
X3.5349 I-0.0033 J0.
X3.5365 Y3.0818 I0.0017 J0.
G1 X3.5382 Y3.0835
G0 Z0.4
X2.9672 Y3.6545
Z0.1149
G1 Z0.05 F35.
X2.9689 Y3.6528
G3 X2.9705 Y3.6545 I0. J0.0017
X2.9639 Z0. I-0.0033 J0.
X2.9662 Y3.6513 Z-0.02 I0.0033 J0.
X2.9682 Y3.6577 Z-0.07 I0.001 J0.0032
X2.9645 Y3.6564 Z-0.09 I-0.001 J-0.0032
X2.9699 Y3.6525 Z-0.14 I0.0027 J-0.002
Y3.6564 Z-0.16 I-0.0027 J0.002
X2.9645 Y3.6525 Z-0.21 I-0.0027 J-0.002
X2.9682 Y3.6513 Z-0.23 I0.0027 J0.002
X2.9662 Y3.6577 Z-0.28 I-0.001 J0.0032
X2.9639 Y3.6545 Z-0.3 I0.001 J-0.0032
X2.9705 I0.0033 J0.
X2.9639 I-0.0033 J0.
X2.9655 Y3.6528 I0.0017 J0.
G1 X2.9672 Y3.6545
G0 Z0.4
X2.3962 Y3.0835
Z0.1149
G1 Z0.05 F35.
X2.3979 Y3.0818
G3 X2.3995 Y3.0835 I0. J0.0017
X2.3929 Z0. I-0.0033 J0.
X2.3952 Y3.0803 Z-0.02 I0.0033 J0.
X2.3972 Y3.0867 Z-0.07 I0.001 J0.0032
X2.3935 Y3.0854 Z-0.09 I-0.001 J-0.0032
X2.3989 Y3.0815 Z-0.14 I0.0027 J-0.002
X2.3935 Y3.0854 Z-0.19 I-0.0027 J0.002
X2.3972 Y3.0803 Z-0.23 I0.0027 J-0.002
X2.3952 Y3.0867 Z-0.28 I-0.001 J0.0032
X2.3929 Y3.0835 Z-0.3 I0.001 J-0.0032
X2.3995 I0.0033 J0.
X2.3929 I-0.0033 J0.
X2.3945 Y3.0818 I0.0017 J0.
G1 X2.3962 Y3.0835
G0 Z0.4
X-2.3962
Z0.1149
G1 Z0.05 F35.
X-2.3945 Y3.0818
G3 X-2.3929 Y3.0835 I0. J0.0017
X-2.3995 Z0. I-0.0033 J0.
X-2.3972 Y3.0803 Z-0.02 I0.0033 J0.
X-2.3952 Y3.0867 Z-0.07 I0.001 J0.0032
X-2.3972 Y3.0803 Z-0.12 I-0.001 J-0.0032
X-2.3935 Y3.0854 Z-0.16 I0.001 J0.0032
X-2.3989 Y3.0815 Z-0.21 I-0.0027 J-0.002
X-2.3952 Y3.0803 Z-0.23 I0.0027 J0.002
X-2.3972 Y3.0867 Z-0.28 I-0.001 J0.0032
X-2.3995 Y3.0835 Z-0.3 I0.001 J-0.0032
X-2.3929 I0.0033 J0.
X-2.3995 I-0.0033 J0.
X-2.3979 Y3.0818 I0.0017 J0.
G1 X-2.3962 Y3.0835
G0 Z0.4
X-2.9672 Y3.6545
Z0.1149
G1 Z0.05 F35.
X-2.9655 Y3.6528
G3 X-2.9639 Y3.6545 I0. J0.0017
X-2.9705 Z0. I-0.0033 J0.
X-2.9682 Y3.6513 Z-0.02 I0.0033 J0.
X-2.9662 Y3.6577 Z-0.07 I0.001 J0.0032
X-2.9699 Y3.6564 Z-0.09 I-0.001 J-0.0032
X-2.9645 Y3.6525 Z-0.14 I0.0027 J-0.002
Y3.6564 Z-0.16 I-0.0027 J0.002
X-2.9699 Y3.6525 Z-0.21 I-0.0027 J-0.002
X-2.9662 Y3.6513 Z-0.23 I0.0027 J0.002
X-2.9682 Y3.6577 Z-0.28 I-0.001 J0.0032
X-2.9705 Y3.6545 Z-0.3 I0.001 J-0.0032
X-2.9639 I0.0033 J0.
X-2.9705 I-0.0033 J0.
X-2.9689 Y3.6528 I0.0017 J0.
G1 X-2.9672 Y3.6545
G0 Z0.4
X-3.5382 Y3.0835
Z0.1149
G1 Z0.05 F35.
X-3.5365 Y3.0818
G3 X-3.5349 Y3.0835 I0. J0.0017
X-3.5415 Z0. I-0.0033 J0.
X-3.5349 Z-0.05 I0.0033 J0.
X-3.5409 Y3.0854 Z-0.09 I-0.0033 J0.
X-3.5355 Y3.0815 Z-0.14 I0.0027 J-0.002
X-3.5409 Y3.0854 Z-0.19 I-0.0027 J0.002
X-3.5372 Y3.0803 Z-0.23 I0.0027 J-0.002
X-3.5392 Y3.0867 Z-0.28 I-0.001 J0.0032
X-3.5415 Y3.0835 Z-0.3 I0.001 J-0.0032
X-3.5349 I0.0033 J0.
X-3.5415 I-0.0033 J0.
X-3.5399 Y3.0818 I0.0017 J0.
G1 X-3.5382 Y3.0835
G0 Z0.4
X-2.9672 Y2.5125
Z0.1149
G1 Z0.05 F35.
X-2.9655 Y2.5108
G3 X-2.9639 Y2.5125 I0. J0.0017
X-2.9705 Z0. I-0.0033 J0.
X-2.9682 Y2.5093 Z-0.02 I0.0033 J0.
X-2.9662 Y2.5157 Z-0.07 I0.001 J0.0032
X-2.9699 Y2.5144 Z-0.09 I-0.001 J-0.0032
X-2.9645 Y2.5105 Z-0.14 I0.0027 J-0.002
Y2.5144 Z-0.16 I-0.0027 J0.002
X-2.9699 Y2.5105 Z-0.21 I-0.0027 J-0.002
X-2.9662 Y2.5093 Z-0.23 I0.0027 J0.002
X-2.9682 Y2.5157 Z-0.28 I-0.001 J0.0032
X-2.9705 Y2.5125 Z-0.3 I0.001 J-0.0032
X-2.9639 I0.0033 J0.
X-2.9705 I-0.0033 J0.
X-2.9689 Y2.5108 I0.0017 J0.
G1 X-2.9672 Y2.5125
G0 Z0.4
X-3.2555 Y1.4838
Z0.1149
G1 Z0.05 F35.
X-3.2538 Y1.4821
G3 X-3.2521 Y1.4838 I0. J0.0017
X-3.2588 Z0. I-0.0033 J0.
X-3.2565 Y1.4806 Z-0.02 I0.0033 J0.
X-3.2544 Y1.4869 Z-0.07 I0.001 J0.0032
X-3.2582 Y1.4857 Z-0.09 I-0.001 J-0.0032
X-3.2528 Y1.4818 Z-0.14 I0.0027 J-0.002
Y1.4857 Z-0.16 I-0.0027 J0.002
X-3.2582 Y1.4818 Z-0.21 I-0.0027 J-0.002
X-3.2544 Y1.4806 Z-0.23 I0.0027 J0.002
X-3.2565 Y1.4869 Z-0.28 I-0.001 J0.0032
X-3.2588 Y1.4838 Z-0.3 I0.001 J-0.0032
X-3.2521 I0.0033 J0.
X-3.2588 I-0.0033 J0.
X-3.2571 Y1.4821 I0.0017 J0.
G1 X-3.2555 Y1.4838
G0 Z0.6
(2D POCKET)
M7
G0 X-1.445 Y0.982
Z0.6
Z0.2
G1 Z0.1 F13.333
G3 X-1.5836 Y1.018 Z0.0603 I-0.0693 J0.018
X-1.445 Y0.982 Z0.0206 I0.0693 J-0.018
X-1.5836 Y1.018 Z-0.019 I-0.0693 J0.018
X-1.445 Y0.982 Z-0.0587 I0.0693 J-0.018
X-1.5836 Y1.018 Z-0.0984 I-0.0693 J0.018
X-1.445 Y0.982 Z-0.1381 I0.0693 J-0.018
X-1.5836 Y1.018 Z-0.1778 I-0.0693 J0.018
X-1.445 Y0.982 Z-0.2174 I0.0693 J-0.018
X-1.5836 Y1.018 Z-0.2571 I-0.0693 J0.018
X-1.5234 Y0.9289 Z-0.2786 I0.0693 J-0.018
X-1.4427 Y1. Z-0.3 I0.0091 J0.0711
X-1.5573 I-0.0573 J0. F35.
X-1.2994 I0.129 J0.
X-1.7006 I-0.2006 J0.
X-1.1562 I0.2722 J0.
X-1.8438 I-0.3438 J0.
X-1.0129 I0.4155 J0.
X-1.9871 I-0.4871 J0.
X-1.0129 I0.4871 J0.
G0 Z0.4
X1.555 Y0.982
Z0.2
G1 Z0.1 F13.333
G3 X1.4164 Y1.018 Z0.0603 I-0.0693 J0.018
X1.555 Y0.982 Z0.0206 I0.0693 J-0.018
X1.4164 Y1.018 Z-0.019 I-0.0693 J0.018
X1.555 Y0.982 Z-0.0587 I0.0693 J-0.018
X1.4164 Y1.018 Z-0.0984 I-0.0693 J0.018
X1.555 Y0.982 Z-0.1381 I0.0693 J-0.018
X1.4164 Y1.018 Z-0.1778 I-0.0693 J0.018
X1.555 Y0.982 Z-0.2174 I0.0693 J-0.018
X1.4164 Y1.018 Z-0.2571 I-0.0693 J0.018
X1.4766 Y0.9289 Z-0.2786 I0.0693 J-0.018
X1.5573 Y1. Z-0.3 I0.0091 J0.0711
X1.4427 I-0.0573 J0. F35.
X1.7006 I0.129 J0.
X1.2994 I-0.2006 J0.
X1.8438 I0.2722 J0.
X1.1562 I-0.3438 J0.
X1.9871 I0.4155 J0.
X1.0129 I-0.4871 J0.
X1.9871 I0.4871 J0.
G0 Z0.4
X2.9869 Y3.1015
Z0.2
G1 Z0.1 F13.333
G3 X3.1256 Y3.0655 Z0.0603 I0.0693 J-0.018
X2.9869 Y3.1015 Z0.0206 I-0.0693 J0.018
X3.1256 Y3.0655 Z-0.019 I0.0693 J-0.018
X2.9869 Y3.1015 Z-0.0587 I-0.0693 J0.018
X3.1256 Y3.0655 Z-0.0984 I0.0693 J-0.018
X2.9869 Y3.1015 Z-0.1381 I-0.0693 J0.018
X3.1256 Y3.0655 Z-0.1778 I0.0693 J-0.018
X2.9869 Y3.1015 Z-0.2174 I-0.0693 J0.018
X3.1256 Y3.0655 Z-0.2571 I0.0693 J-0.018
X3.0653 Y3.1545 Z-0.2786 I-0.0693 J0.018
X2.9846 Y3.0835 Z-0.3 I-0.0091 J-0.0711
X3.093 I0.0542 J0. F35.
X2.8414 I-0.1258 J0.
X3.2363 I0.1975 J0.
X2.6981 I-0.2691 J0.
X3.2363 I0.2691 J0.
G0 Z0.4
X-2.9475 Y3.1015
Z0.2
G1 Z0.1 F13.333
G3 X-2.8088 Y3.0655 Z0.0603 I0.0693 J-0.018
X-2.9475 Y3.1015 Z0.0206 I-0.0693 J0.018
X-2.8088 Y3.0655 Z-0.019 I0.0693 J-0.018
X-2.9475 Y3.1015 Z-0.0587 I-0.0693 J0.018
X-2.8088 Y3.0655 Z-0.0984 I0.0693 J-0.018
X-2.9475 Y3.1015 Z-0.1381 I-0.0693 J0.018
X-2.8088 Y3.0655 Z-0.1778 I0.0693 J-0.018
X-2.9475 Y3.1015 Z-0.2174 I-0.0693 J0.018
X-2.8088 Y3.0655 Z-0.2571 I0.0693 J-0.018
X-2.8691 Y3.1545 Z-0.2786 I-0.0693 J0.018
X-2.9498 Y3.0835 Z-0.3 I-0.0091 J-0.0711
X-2.8414 I0.0542 J0. F35.
X-3.093 I-0.1258 J0.
X-2.6981 I0.1975 J0.
X-3.2363 I-0.2691 J0.
X-2.6981 I0.2691 J0.
G0 Z0.6
(2D CONTOUR)
M7
G0 X6.3474 Y-0.0754
Z0.6
Z0.2
G1 Z0.1 F13.333
X4.0789 Z-0.3
X-2.5432 F60.
G2 X-2.825 Y0.0873 I0. J0.3254
G1 X-3.874 Y1.9043
G2 X-3.9176 Y2.067 I0.2818 J0.1627
G1 Y3.0835
G2 X-2.2392 Y3.6944 I0.9504 J0.
G1 X-0.933 Y2.1378
G3 X-0.7992 Y2.0754 I0.1338 J0.1122
G1 X0.8807
X2.2392 Y3.6944
G2 X3.6952 I0.728 J-0.6109
G1 X5.0014 Y2.1378
G3 X5.1352 Y2.0754 I0.1337 J0.1122
G1 X8.85
Z-0.2623
X9.6008
Z-0.3 F13.333
X11.75 F60.
G2 X12.0754 Y1.75 I0. J-0.3254
G1 Y0.25
G2 X11.75 Y-0.0754 I-0.3254 J0.
G1 X4.0789
G0 Z0.6
M9
G53 Z0.
M30
%
