%
(RAMPRIB_2500)
(T1  D=0.25 CR=0. - ZMIN=-0.6862 - FLAT END MILL)
G90 G94 G17 G91.1
G64 P0.001 Q0.001
G20
G53 G0 Z0.
(2D SLOT CUT)
M9
T1 M6
S13000 M3
G4 P10.
G54
M7
G0 X0.8486 Y0.5064
G43 Z0.6 H1
G0 Z0.2
G1 Z0.125 F13.333
X0.8487 Y0.5061 Z0.1211 F60.
X0.8488 Y0.5052 Z0.1173
X0.8491 Y0.5038 Z0.1137
X0.8495 Y0.5017 Z0.1103
X0.85 Y0.4992 Z0.1073
X0.8506 Y0.4963 Z0.1048
X0.8512 Y0.493 Z0.1027
X0.8519 Y0.4895 Z0.1012
X0.8526 Y0.4857 Z0.1003
X0.8534 Y0.4819 Z0.1
G41 X0.7232 Y0.4311 D1
G3 X0.9137 Y0.3026 I0.1595 J0.031
G1 X3.5737 Y0.8197 Z-0.2287 F13.333
X11.5752 Y2.375 F80.
X11.8437
Y0.125
X0.8308
G2 X0.8156 Y0.2835 I0. J0.08
G1 X0.9137 Y0.3026
X3.5737 Y0.8197
X5.4246 Y1.1794 Z-0.4575 F13.333
X11.5752 Y2.375 F80.
X11.8437
Y0.125
X0.8308
G2 X0.8156 Y0.2835 I0. J0.08
G1 X3.5737 Y0.8197
X5.4246 Y1.1794
X6.4148 Y1.3719 Z-0.5799 F13.333
Z-0.5612
X7.2755 Y1.5392
X7.6418 Y1.6104 F80.
Z-0.6862 F13.333
X11.5752 Y2.375 F80.
X11.8437
Y0.125
X10.0359
Z-0.5612
X8.7859
Z-0.6862 F13.333
X3.3562 F80.
Z-0.5612
X2.1062
Z-0.6862 F13.333
X0.8308 F80.
G2 X0.8156 Y0.2835 I0. J0.08
G1 X6.4148 Y1.3719
Z-0.5612
X7.2755 Y1.5392
G3 X7.404 Y1.7297 I-0.031 J0.1595 F60.
G1 G40 X7.2643 Y1.728
X7.2595 Y1.7526
G0 Z0.6
M9
G53 Z0.
M30
%
