%
(971-23-P-0033_CAPSTAN AXEL PLATE_1537)
(T1  D=0.1537 CR=0. - ZMIN=-0.11 - FLAT END MILL)
G90 G94 G17 G91.1
G64 P0.001 Q0.001
G20
G53 G0 Z0.
(.3 CIRCLUAR THROUGH HOLE)
M9
T1 M6
S22000 M3
G4 P10.
G54
M7
G0 X-0.0084 Y47.1396
G43 Z0.6 H1
G0 Z0.13
G1 Z0.0654 F40.
G19 G2 Y47.1242 Z0.05 J-0.0154 K0.
G1 Y47.1166
G17 G3 X0. Y47.1081 I0.0084 J0.
X0.0168 Y47.1268 Z0.0233 I0. J0.0169
X-0.0035 Y47.1415 Z-0.0033 I-0.0168 J-0.0018
X-0.0161 Y47.1198 Z-0.03 I0.0035 J-0.0165
X0.0069 Y47.1096 Z-0.0567 I0.0161 J0.0052
X0.0146 Y47.1334 Z-0.0833 I-0.0069 J0.0154
X-0.0099 Y47.1387 Z-0.11 I-0.0146 J-0.0084
X0.0099 Y47.1113 I0.0099 J-0.0137
X-0.0099 Y47.1387 I-0.0099 J0.0137
X-0.0118 Y47.1269 I0.005 J-0.0068
G1 X-0.0073 Y47.1207
X-0.0055 Y47.1182 Z-0.1097
X-0.0038 Y47.1159 Z-0.1088
X-0.0023 Y47.1137 Z-0.1074
X-0.0009 Y47.1119 Z-0.1055
X0.0002 Y47.1103 Z-0.1032
X0.0011 Y47.1092 Z-0.1005
X0.0016 Y47.1085 Z-0.0976
X0.0017 Y47.1082 Z-0.0946
G0 Z0.4
X2.7316 Y48.2746
Z0.13
G1 Z0.0654 F40.
G19 G2 Y48.2592 Z0.05 J-0.0154 K0.
G1 Y48.2515
G17 G3 X2.74 Y48.2431 I0.0085 J0.
X2.7568 Y48.2617 Z0.0233 I0. J0.0169
X2.7365 Y48.2765 Z-0.0033 I-0.0168 J-0.0018
X2.724 Y48.2547 Z-0.03 I0.0035 J-0.0165
X2.7469 Y48.2445 Z-0.0567 I0.0161 J0.0052
X2.7547 Y48.2684 Z-0.0833 I-0.0069 J0.0154
X2.7301 Y48.2736 Z-0.11 I-0.0146 J-0.0084
X2.75 Y48.2463 I0.0099 J-0.0137
X2.7301 Y48.2736 I-0.0099 J0.0137
X2.7282 Y48.2618 I0.005 J-0.0068
G1 X2.7328 Y48.2556
X2.7345 Y48.2532 Z-0.1097
X2.7362 Y48.2509 Z-0.1088
X2.7378 Y48.2487 Z-0.1074
X2.7391 Y48.2468 Z-0.1055
X2.7403 Y48.2453 Z-0.1032
X2.7411 Y48.2441 Z-0.1005
X2.7416 Y48.2434 Z-0.0976
X2.7418 Y48.2432 Z-0.0946
G0 Z0.4
X3.6367 Y50.723
Z0.13
G1 Z0.0654 F40.
G19 G2 Y50.7077 Z0.05 J-0.0154 K0.
G1 Y50.7
G17 G3 X3.6451 Y50.6915 I0.0085 J0.
X3.662 Y50.7102 Z0.0233 I0. J0.0169
X3.6416 Y50.725 Z-0.0033 I-0.0168 J-0.0018
X3.6291 Y50.7032 Z-0.03 I0.0035 J-0.0165
X3.652 Y50.693 Z-0.0567 I0.0161 J0.0052
X3.6598 Y50.7169 Z-0.0833 I-0.0069 J0.0154
X3.6352 Y50.7221 Z-0.11 I-0.0146 J-0.0084
X3.6551 Y50.6947 I0.0099 J-0.0137
X3.6352 Y50.7221 I-0.0099 J0.0137
X3.6333 Y50.7103 I0.005 J-0.0068
G1 X3.6379 Y50.7041
X3.6396 Y50.7017 Z-0.1097
X3.6413 Y50.6993 Z-0.1088
X3.6429 Y50.6972 Z-0.1074
X3.6443 Y50.6953 Z-0.1055
X3.6454 Y50.6937 Z-0.1032
X3.6462 Y50.6926 Z-0.1005
X3.6467 Y50.6919 Z-0.0976
X3.6469 Y50.6916 Z-0.0946
G0 Z0.4
X3.7725 Y51.3951
Z0.13
G1 Z0.0654 F40.
G19 G2 Y51.3797 Z0.05 J-0.0154 K0.
G1 Y51.372
G17 G3 X3.7809 Y51.3636 I0.0085 J0.
X3.7977 Y51.3822 Z0.0233 I0. J0.0169
X3.7774 Y51.397 Z-0.0033 I-0.0168 J-0.0018
X3.7648 Y51.3753 Z-0.03 I0.0035 J-0.0165
X3.7878 Y51.365 Z-0.0567 I0.0161 J0.0052
X3.7955 Y51.3889 Z-0.0833 I-0.0069 J0.0154
X3.771 Y51.3941 Z-0.11 I-0.0146 J-0.0084
X3.7908 Y51.3668 I0.0099 J-0.0137
X3.771 Y51.3941 I-0.0099 J0.0137
X3.7691 Y51.3823 I0.005 J-0.0068
G1 X3.7736 Y51.3761
X3.7754 Y51.3737 Z-0.1097
X3.7771 Y51.3714 Z-0.1088
X3.7786 Y51.3692 Z-0.1074
X3.78 Y51.3673 Z-0.1055
X3.7811 Y51.3658 Z-0.1032
X3.782 Y51.3646 Z-0.1005
X3.7825 Y51.3639 Z-0.0976
X3.7827 Y51.3637 Z-0.0946
G0 Z0.4
X2.7316 Y53.7546
Z0.13
G1 Z0.0654 F40.
G19 G2 Y53.7393 Z0.05 J-0.0154 K0.
G1 Y53.7316
G17 G3 X2.74 Y53.7231 I0.0085 J0.
X2.7568 Y53.7418 Z0.0233 I0. J0.0169
X2.7365 Y53.7566 Z-0.0033 I-0.0168 J-0.0018
X2.724 Y53.7348 Z-0.03 I0.0035 J-0.0165
X2.7469 Y53.7246 Z-0.0567 I0.0161 J0.0052
X2.7547 Y53.7485 Z-0.0833 I-0.0069 J0.0154
X2.7301 Y53.7537 Z-0.11 I-0.0146 J-0.0084
X2.75 Y53.7264 I0.0099 J-0.0137
X2.7301 Y53.7537 I-0.0099 J0.0137
X2.7282 Y53.7419 I0.005 J-0.0068
G1 X2.7328 Y53.7357
X2.7345 Y53.7333 Z-0.1097
X2.7362 Y53.7309 Z-0.1088
X2.7378 Y53.7288 Z-0.1074
X2.7391 Y53.7269 Z-0.1055
X2.7403 Y53.7254 Z-0.1032
X2.7411 Y53.7242 Z-0.1005
X2.7416 Y53.7235 Z-0.0976
X2.7418 Y53.7233 Z-0.0946
G0 Z0.4
X-0.0084 Y54.8896
Z0.13
G1 Z0.0654 F40.
G19 G2 Y54.8742 Z0.05 J-0.0154 K0.
G1 Y54.8665
G17 G3 X0. Y54.8581 I0.0084 J0.
X0.0168 Y54.8768 Z0.0233 I0. J0.0169
X-0.0035 Y54.8915 Z-0.0033 I-0.0168 J-0.0018
X-0.0161 Y54.8698 Z-0.03 I0.0035 J-0.0165
X0.0069 Y54.8596 Z-0.0567 I0.0161 J0.0052
X0.0146 Y54.8834 Z-0.0833 I-0.0069 J0.0154
X-0.0099 Y54.8887 Z-0.11 I-0.0146 J-0.0084
X0.0099 Y54.8613 I0.0099 J-0.0137
X-0.0099 Y54.8887 I-0.0099 J0.0137
X-0.0118 Y54.8769 I0.005 J-0.0068
G1 X-0.0073 Y54.8707
X-0.0055 Y54.8682 Z-0.1097
X-0.0038 Y54.8659 Z-0.1088
X-0.0023 Y54.8637 Z-0.1074
X-0.0009 Y54.8619 Z-0.1055
X0.0002 Y54.8603 Z-0.1032
X0.0011 Y54.8592 Z-0.1005
X0.0016 Y54.8585 Z-0.0976
X0.0017 Y54.8582 Z-0.0946
G0 Z0.4
X-2.7485 Y53.7546
Z0.13
G1 Z0.0654 F40.
G19 G2 Y53.7393 Z0.05 J-0.0154 K0.
G1 Y53.7316
G17 G3 X-2.74 Y53.7231 I0.0085 J0.
X-2.7232 Y53.7418 Z0.0233 I0. J0.0169
X-2.7436 Y53.7566 Z-0.0033 I-0.0168 J-0.0018
X-2.7561 Y53.7348 Z-0.03 I0.0035 J-0.0165
X-2.7332 Y53.7246 Z-0.0567 I0.0161 J0.0052
X-2.7254 Y53.7485 Z-0.0833 I-0.0069 J0.0154
X-2.75 Y53.7537 Z-0.11 I-0.0146 J-0.0084
X-2.7301 Y53.7264 I0.0099 J-0.0137
X-2.75 Y53.7537 I-0.0099 J0.0137
X-2.7518 Y53.7419 I0.005 J-0.0068
G1 X-2.7473 Y53.7357
X-2.7456 Y53.7333 Z-0.1097
X-2.7439 Y53.7309 Z-0.1088
X-2.7423 Y53.7288 Z-0.1074
X-2.7409 Y53.7269 Z-0.1055
X-2.7398 Y53.7254 Z-0.1032
X-2.739 Y53.7242 Z-0.1005
X-2.7385 Y53.7235 Z-0.0976
X-2.7383 Y53.7233 Z-0.0946
G0 Z0.4
X-3.7894 Y51.3951
Z0.13
G1 Z0.0654 F40.
G19 G2 Y51.3797 Z0.05 J-0.0154 K0.
G1 Y51.372
G17 G3 X-3.7809 Y51.3636 I0.0085 J0.
X-3.7641 Y51.3822 Z0.0233 I0. J0.0169
X-3.7844 Y51.397 Z-0.0033 I-0.0168 J-0.0018
X-3.797 Y51.3753 Z-0.03 I0.0035 J-0.0165
X-3.774 Y51.365 Z-0.0567 I0.0161 J0.0052
X-3.7663 Y51.3889 Z-0.0833 I-0.0069 J0.0154
X-3.7908 Y51.3941 Z-0.11 I-0.0146 J-0.0084
X-3.771 Y51.3668 I0.0099 J-0.0137
X-3.7908 Y51.3941 I-0.0099 J0.0137
X-3.7927 Y51.3823 I0.005 J-0.0068
G1 X-3.7882 Y51.3761
X-3.7864 Y51.3737 Z-0.1097
X-3.7847 Y51.3714 Z-0.1088
X-3.7832 Y51.3692 Z-0.1074
X-3.7818 Y51.3673 Z-0.1055
X-3.7807 Y51.3658 Z-0.1032
X-3.7798 Y51.3646 Z-0.1005
X-3.7793 Y51.3639 Z-0.0976
X-3.7792 Y51.3637 Z-0.0946
G0 Z0.4
X-3.6536 Y50.723
Z0.13
G1 Z0.0654 F40.
G19 G2 Y50.7077 Z0.05 J-0.0154 K0.
G1 Y50.7
G17 G3 X-3.6451 Y50.6915 I0.0085 J0.
X-3.6283 Y50.7102 Z0.0233 I0. J0.0169
X-3.6487 Y50.725 Z-0.0033 I-0.0168 J-0.0018
X-3.6612 Y50.7032 Z-0.03 I0.0035 J-0.0165
X-3.6383 Y50.693 Z-0.0567 I0.0161 J0.0052
X-3.6305 Y50.7169 Z-0.0833 I-0.0069 J0.0154
X-3.6551 Y50.7221 Z-0.11 I-0.0146 J-0.0084
X-3.6352 Y50.6947 I0.0099 J-0.0137
X-3.6551 Y50.7221 I-0.0099 J0.0137
X-3.657 Y50.7103 I0.005 J-0.0068
G1 X-3.6524 Y50.7041
X-3.6507 Y50.7017 Z-0.1097
X-3.649 Y50.6993 Z-0.1088
X-3.6474 Y50.6972 Z-0.1074
X-3.646 Y50.6953 Z-0.1055
X-3.6449 Y50.6937 Z-0.1032
X-3.6441 Y50.6926 Z-0.1005
X-3.6436 Y50.6919 Z-0.0976
X-3.6434 Y50.6916 Z-0.0946
G0 Z0.4
X-2.7485 Y48.2746
Z0.13
G1 Z0.0654 F40.
G19 G2 Y48.2592 Z0.05 J-0.0154 K0.
G1 Y48.2515
G17 G3 X-2.74 Y48.2431 I0.0085 J0.
X-2.7232 Y48.2617 Z0.0233 I0. J0.0169
X-2.7436 Y48.2765 Z-0.0033 I-0.0168 J-0.0018
X-2.7561 Y48.2547 Z-0.03 I0.0035 J-0.0165
X-2.7332 Y48.2445 Z-0.0567 I0.0161 J0.0052
X-2.7254 Y48.2684 Z-0.0833 I-0.0069 J0.0154
X-2.75 Y48.2736 Z-0.11 I-0.0146 J-0.0084
X-2.7301 Y48.2463 I0.0099 J-0.0137
X-2.75 Y48.2736 I-0.0099 J0.0137
X-2.7518 Y48.2618 I0.005 J-0.0068
G1 X-2.7473 Y48.2556
X-2.7456 Y48.2532 Z-0.1097
X-2.7439 Y48.2509 Z-0.1088
X-2.7423 Y48.2487 Z-0.1074
X-2.7409 Y48.2468 Z-0.1055
X-2.7398 Y48.2453 Z-0.1032
X-2.739 Y48.2441 Z-0.1005
X-2.7385 Y48.2434 Z-0.0976
X-2.7383 Y48.2432 Z-0.0946
G0 Z0.6
(2D SLOT CUT)
M7
G0 X3.2764 Y49.824
Z0.6
Z0.2
G1 Z0.1 F13.333
X2.4567 Y50.221 Z-0.0606 F40.
G2 X2.2835 Y50.4303 Z-0.11 I0.1424 J0.2941
X2.2725 Y50.5026 I0.3155 J0.0848 F55.
G1 X2.2273 Y51.6714
G2 X2.3892 Y51.9664 I0.3265 J0.0127
G1 X3.2044 Y52.4423
G3 X3.2713 Y52.6706 I-0.0872 J0.1495
X2.7682 Y53.4144 I-3.2713 J-1.6706
G2 X2.4144 Y53.7683 I-0.0281 J0.3257
G3 X1.8353 Y54.1818 I-2.4143 J-2.7684
X1.6532 Y54.1761 I-0.0864 J-0.1499
G1 X1.6531 Y54.176
G2 X1.1511 Y54.3906 I-0.1803 J0.2727
G3 X1.0292 Y54.5258 I-0.1703 J-0.0309
X0.2501 Y54.6648 I-1.0305 J-3.5256
G2 X-0.2501 I-0.2501 J0.2104
G3 X-1.0292 Y54.5258 I0.2515 J-3.6645
X-1.1511 Y54.3906 I0.0484 J-0.1661
G2 X-1.6531 Y54.176 I-0.3217 J0.0581
G1 X-1.6532 Y54.1761
G3 X-1.8353 Y54.1818 I-0.0957 J-0.1442
X-2.4144 Y53.7683 I1.8352 J-3.1819
G2 X-2.7682 Y53.4144 I-0.3257 J-0.0282
G3 X-3.2713 Y52.6706 I2.7682 J-2.4144
X-3.2044 Y52.4424 I0.1542 J-0.0787
G1 X-2.3892 Y51.9664
G2 X-2.2273 Y51.6714 I-0.1647 J-0.2822
G1 X-2.2725 Y50.5026
G2 X-2.4567 Y50.221 I-0.3265 J0.0126
G1 X-3.3062 Y49.8096
G3 X-3.3906 Y49.5871 I0.0754 J-0.1558
X-2.7682 Y48.5856 I3.3905 J1.413
G2 X-2.4144 Y48.2317 I0.0281 J-0.3257
G3 X-1.9129 Y47.8644 I2.4133 J2.7691
G1 X-1.9128
G3 X-1.7306 Y47.8655 I0.0902 J0.1478
G2 X-1.234 Y47.6386 I0.1736 J-0.2769
G3 X-1.1155 Y47.5004 I0.1711 J0.0268
X-0.2501 Y47.3352 I1.1163 J3.4995
G2 X0.2501 I0.2501 J-0.2104
G3 X1.1155 Y47.5004 I-0.2509 J3.6646
X1.234 Y47.6386 I-0.0525 J0.165
G2 X1.7306 Y47.8655 I0.323 J-0.05
G3 X1.9128 Y47.8644 I0.092 J0.1467
G1 X1.9129
G3 X2.4144 Y48.2317 I-1.9117 J3.1364
G2 X2.7682 Y48.5856 I0.3257 J0.0281
G3 X3.3906 Y49.587 I-2.7681 J2.4145
X3.3062 Y49.8096 I-0.1598 J0.0667
G1 X2.4567 Y50.221
G2 X2.2835 Y50.4303 I0.1424 J0.2941
G0 Z0.4
X3.6228 Y50.0683
Z0.2
G1 Z0.1 F13.333
G3 X3.6191 Y50.0684 Z0.0994 I-0.0039 J-0.0504 F40.
X3.5688 Y50.0178 Z0.0854 I0.0002 J-0.0505
X3.6191 Y49.9674 Z0.0714 I0.0505 J0.0001
X3.6694 Y50.018 Z0.0575 I-0.0002 J0.0505
X3.6191 Y50.0684 Z0.0435 I-0.0505 J-0.0001
X3.5688 Y50.0178 Z0.0296 I0.0002 J-0.0505
X3.6191 Y49.9674 Z0.0156 I0.0505 J0.0001
X3.6694 Y50.018 Z0.0016 I-0.0002 J0.0505
X3.6191 Y50.0684 Z-0.0123 I-0.0505 J-0.0001
X3.5688 Y50.0178 Z-0.0263 I0.0002 J-0.0505
X3.6191 Y49.9674 Z-0.0402 I0.0505 J0.0001
X3.6694 Y50.018 Z-0.0542 I-0.0002 J0.0505
X3.6191 Y50.0684 Z-0.0681 I-0.0505 J-0.0001
X3.5688 Y50.0178 Z-0.0821 I0.0002 J-0.0505
X3.6191 Y49.9674 Z-0.096 I0.0505 J0.0001
X3.6694 Y50.018 Z-0.11 I-0.0002 J0.0505
X3.6191 Y50.0684 I-0.0505 J-0.0001 F55.
Y49.9674 I0.0002 J-0.0505
X3.6694 Y50.018 I-0.0002 J0.0505
G0 Z0.4
X-1.1756 Y55.1121
Z0.2
G1 Z0.1 F13.333
G2 X0. Y55.2768 Z-0.11 I1.1756 J-4.1121 F40.
X2.0389 Y54.7596 I0. J-4.2768 F55.
G1 Z-0.01
G2 X2.6672 Y54.3433 I-2.0389 J-3.7596
G1 Z-0.11 F13.333
G2 X3.5539 Y48.6206 I-2.6672 J-3.3433 F55.
G1 Z-0.01
G2 X3.081 Y48.0337 I-3.5539 J2.3794
G1 Z-0.11 F13.333
G2 X-2.6354 Y47.6316 I-3.081 J2.9663 F55.
G1 Z-0.01
G2 X-3.1858 Y48.1465 I2.6354 J3.3684
G1 Z-0.11 F13.333
G2 X-3.3085 Y53.7102 I3.1858 J2.8535 F55.
G1 Z-0.01
G2 X-2.7814 Y54.2489 I3.3085 J-2.7102
G1 Z-0.11 F13.333
G2 X0. Y55.2768 I2.7814 J-3.2489 F55.
G0 Z0.4
X1.4764 Y54.499
Z0.2
G1 Z0.1 F13.333
G3 X1.4727 Y54.4991 Z0.0994 I-0.0039 J-0.0504 F40.
X1.4224 Y54.4485 Z0.0854 I0.0002 J-0.0505
X1.4727 Y54.3981 Z0.0714 I0.0505 J0.0001
X1.523 Y54.4487 Z0.0575 I-0.0002 J0.0505
X1.4727 Y54.4991 Z0.0435 I-0.0505 J-0.0001
X1.4224 Y54.4485 Z0.0296 I0.0002 J-0.0505
X1.4727 Y54.3981 Z0.0156 I0.0505 J0.0001
X1.523 Y54.4487 Z0.0016 I-0.0002 J0.0505
X1.4727 Y54.4991 Z-0.0123 I-0.0505 J-0.0001
X1.4224 Y54.4485 Z-0.0263 I0.0002 J-0.0505
X1.4727 Y54.3981 Z-0.0402 I0.0505 J0.0001
X1.523 Y54.4487 Z-0.0542 I-0.0002 J0.0505
X1.4727 Y54.4991 Z-0.0681 I-0.0505 J-0.0001
X1.4224 Y54.4485 Z-0.0821 I0.0002 J-0.0505
X1.4727 Y54.3981 Z-0.096 I0.0505 J0.0001
X1.523 Y54.4487 Z-0.11 I-0.0002 J0.0505
X1.4727 Y54.4991 I-0.0505 J-0.0001 F55.
Y54.3981 I0.0002 J-0.0505
X1.523 Y54.4487 I-0.0002 J0.0505
G0 Z0.4
X3.4824 Y52.2641
Z0.2
G1 Z0.1 F13.333
G3 X3.4821 Y52.2587 Z0.099 I0.05 J-0.0054 F40.
X3.5828 Z0.0712 I0.0503 J0.
X3.4821 Z0.0433 I-0.0503 J0.
X3.5828 Z0.0154 I0.0503 J0.
X3.4821 Z-0.0124 I-0.0503 J0.
X3.5828 Z-0.0403 I0.0503 J0.
X3.4821 Z-0.0682 I-0.0503 J0.
X3.5828 Z-0.0961 I0.0503 J0.
X3.5325 Y52.309 Z-0.11 I-0.0503 J0.
Y52.2083 I0. J-0.0503 F55.
Y52.309 I0. J0.0503
G0 Z0.4
X1.5069 Y47.594
Z0.2
G1 Z0.1 F13.333
G3 X1.607 Y47.5832 Z0.0721 I0.05 J-0.0054 F40.
X1.5069 Y47.594 Z0.0443 I-0.05 J0.0054
X1.607 Y47.5832 Z0.0164 I0.05 J-0.0054
X1.5069 Y47.594 Z-0.0115 I-0.05 J0.0054
X1.607 Y47.5832 Z-0.0394 I0.05 J-0.0054
X1.5069 Y47.594 Z-0.0672 I-0.05 J0.0054
X1.607 Y47.5832 Z-0.0951 I0.05 J-0.0054
X1.557 Y47.6389 Z-0.11 I-0.05 J0.0054
Y47.5383 I0. J-0.0503 F55.
Y47.6389 I0. J0.0503
G0 Z0.4
X-1.607 Y47.594
Z0.2
G1 Z0.1 F13.333
G3 X-1.5069 Y47.5832 Z0.0721 I0.05 J-0.0054 F40.
X-1.607 Y47.594 Z0.0443 I-0.05 J0.0054
X-1.5069 Y47.5832 Z0.0164 I0.05 J-0.0054
X-1.607 Y47.594 Z-0.0115 I-0.05 J0.0054
X-1.5069 Y47.5832 Z-0.0394 I0.05 J-0.0054
X-1.607 Y47.594 Z-0.0672 I-0.05 J0.0054
X-1.5069 Y47.5832 Z-0.0951 I0.05 J-0.0054
X-1.557 Y47.6389 Z-0.11 I-0.05 J0.0054
Y47.5383 I0. J-0.0503 F55.
Y47.6389 I0. J0.0503
G0 Z0.4
X-3.6155 Y50.0683
Z0.2
G1 Z0.1 F13.333
G3 X-3.6191 Y50.0684 Z0.0994 I-0.0039 J-0.0504 F40.
X-3.6694 Y50.0178 Z0.0854 I0.0002 J-0.0505
X-3.6191 Y49.9674 Z0.0714 I0.0505 J0.0001
X-3.5688 Y50.018 Z0.0575 I-0.0002 J0.0505
X-3.6191 Y50.0684 Z0.0435 I-0.0505 J-0.0001
X-3.6694 Y50.0178 Z0.0296 I0.0002 J-0.0505
X-3.6191 Y49.9674 Z0.0156 I0.0505 J0.0001
X-3.5688 Y50.018 Z0.0016 I-0.0002 J0.0505
X-3.6191 Y50.0684 Z-0.0123 I-0.0505 J-0.0001
X-3.6694 Y50.0178 Z-0.0263 I0.0002 J-0.0505
X-3.6191 Y49.9674 Z-0.0402 I0.0505 J0.0001
X-3.5688 Y50.018 Z-0.0542 I-0.0002 J0.0505
X-3.6191 Y50.0684 Z-0.0681 I-0.0505 J-0.0001
X-3.6694 Y50.0178 Z-0.0821 I0.0002 J-0.0505
X-3.6191 Y49.9674 Z-0.096 I0.0505 J0.0001
X-3.5688 Y50.018 Z-0.11 I-0.0002 J0.0505
X-3.6191 Y50.0684 I-0.0505 J-0.0001 F55.
Y49.9674 I0.0002 J-0.0505
X-3.5688 Y50.018 I-0.0002 J0.0505
G0 Z0.4
X-3.5825 Y52.2641
Z0.2
G1 Z0.1 F13.333
G3 X-3.5828 Y52.2587 Z0.099 I0.05 J-0.0054 F40.
X-3.4821 Z0.0712 I0.0503 J0.
X-3.5828 Z0.0433 I-0.0503 J0.
X-3.4821 Z0.0154 I0.0503 J0.
X-3.5828 Z-0.0124 I-0.0503 J0.
X-3.4821 Z-0.0403 I0.0503 J0.
X-3.5828 Z-0.0682 I-0.0503 J0.
X-3.4821 Z-0.0961 I0.0503 J0.
X-3.5325 Y52.309 Z-0.11 I-0.0503 J0.
Y52.2083 I0. J-0.0503 F55.
Y52.309 I0. J0.0503
G0 Z0.4
X-1.4691 Y54.499
Z0.2
G1 Z0.1 F13.333
G3 X-1.4727 Y54.4991 Z0.0994 I-0.0039 J-0.0504 F40.
X-1.523 Y54.4485 Z0.0854 I0.0002 J-0.0505
X-1.4727 Y54.3981 Z0.0714 I0.0505 J0.0001
X-1.4224 Y54.4487 Z0.0575 I-0.0002 J0.0505
X-1.4727 Y54.4991 Z0.0435 I-0.0505 J-0.0001
X-1.523 Y54.4485 Z0.0296 I0.0002 J-0.0505
X-1.4727 Y54.3981 Z0.0156 I0.0505 J0.0001
X-1.4224 Y54.4487 Z0.0016 I-0.0002 J0.0505
X-1.4727 Y54.4991 Z-0.0123 I-0.0505 J-0.0001
X-1.523 Y54.4485 Z-0.0263 I0.0002 J-0.0505
X-1.4727 Y54.3981 Z-0.0402 I0.0505 J0.0001
X-1.4224 Y54.4487 Z-0.0542 I-0.0002 J0.0505
X-1.4727 Y54.4991 Z-0.0681 I-0.0505 J-0.0001
X-1.523 Y54.4485 Z-0.0821 I0.0002 J-0.0505
X-1.4727 Y54.3981 Z-0.096 I0.0505 J0.0001
X-1.4224 Y54.4487 Z-0.11 I-0.0002 J0.0505
X-1.4727 Y54.4991 I-0.0505 J-0.0001 F55.
Y54.3981 I0.0002 J-0.0505
X-1.4224 Y54.4487 I-0.0002 J0.0505
G0 Z0.6
M9
G53 Z0.
M30
%
