%
(971-23-P-0158_BAG MOTOR PLATE_1490)
(T1  D=0.149 CR=0. - ZMIN=-0.245 - FLAT END MILL)
G90 G94 G17 G91.1
G64 P0.001 Q0.001
G20
G53 G0 Z0.
(.3 CIRCLUAR THROUGH HOLE 2)
M9
T1 M6
S22000 M3
G4 P10.
G54
M7
G0 X4.9775 Y8.326
G43 Z0.6 H1
G0 Z0.13
G1 Z0.0649 F40.
G19 G3 Y8.3409 Z0.05 J0.0149 K0.
G1 Y8.3483
G17 G3 X4.9657 Y8.3601 I-0.0118 J0.
Y8.3131 Z0.0327 I0. J-0.0235
Y8.3601 Z0.0154 I0. J0.0235
Y8.3131 Z-0.0018 I0. J-0.0235
Y8.3601 Z-0.0191 I0. J0.0235
Y8.3131 Z-0.0364 I0. J-0.0235
Y8.3601 Z-0.0537 I0. J0.0235
Y8.3131 Z-0.071 I0. J-0.0235
Y8.3601 Z-0.0882 I0. J0.0235
Y8.3131 Z-0.1055 I0. J-0.0235
Y8.3601 Z-0.1228 I0. J0.0235
Y8.3131 Z-0.1401 I0. J-0.0235
Y8.3601 Z-0.1574 I0. J0.0235
Y8.3131 Z-0.1746 I0. J-0.0235
Y8.3601 Z-0.1919 I0. J0.0235
Y8.3131 Z-0.2092 I0. J-0.0235
Y8.3601 Z-0.2265 I0. J0.0235
X4.9424 Y8.3339 Z-0.2357 I0. J-0.0235
X4.971 Y8.3137 Z-0.245 I0.0234 J0.0026
X4.9605 Y8.3595 I-0.0052 J0.0229
X4.971 Y8.3137 I0.0052 J-0.0229
X4.9798 Y8.3277 I-0.0026 J0.0115
G1 X4.9782 Y8.335
X4.9775 Y8.3378 Z-0.2447
X4.9769 Y8.3406 Z-0.2439
X4.9763 Y8.3431 Z-0.2425
X4.9758 Y8.3453 Z-0.2406
X4.9754 Y8.3471 Z-0.2384
X4.9751 Y8.3484 Z-0.2358
X4.9749 Y8.3492 Z-0.233
X4.9748 Y8.3495 Z-0.2301
G0 Z0.4
X0.8004 Y5.8124
Z0.1151
G1 Z0.05 F40.
Y5.805
G3 X0.8054 Y5.7999 I0.0051 J0.
Y5.8202 Z0.0351 I0. J0.0101
Y5.7999 Z0.0201 I0. J-0.0101
Y5.8202 Z0.0052 I0. J0.0101
Y5.7999 Z-0.0097 I0. J-0.0101
Y5.8202 Z-0.0246 I0. J0.0101
Y5.7999 Z-0.0396 I0. J-0.0101
Y5.8202 Z-0.0545 I0. J0.0101
Y5.7999 Z-0.0694 I0. J-0.0101
Y5.8202 Z-0.0843 I0. J0.0101
Y5.7999 Z-0.0993 I0. J-0.0101
Y5.8202 Z-0.1142 I0. J0.0101
Y5.7999 Z-0.1291 I0. J-0.0101
Y5.8202 Z-0.144 I0. J0.0101
Y5.7999 Z-0.159 I0. J-0.0101
Y5.8202 Z-0.1739 I0. J0.0101
Y5.7999 Z-0.1888 I0. J-0.0101
Y5.8202 Z-0.2037 I0. J0.0101
Y5.7999 Z-0.2187 I0. J-0.0101
Y5.8202 Z-0.2336 I0. J0.0101
X0.7986 Y5.8026 Z-0.245 I0. J-0.0101
X0.8123 Y5.8176 I0.0068 J0.0075
X0.7986 Y5.8026 I-0.0068 J-0.0075
X0.8058 Y5.8029 I0.0034 J0.0038
G1 X0.8108 Y5.8084
G0 Z0.4
X1.0658 Y4.8571
Z0.1151
G1 Z0.05 F40.
Y4.8646
G3 X1.0607 Y4.8696 I-0.0051 J0.
Y4.8493 Z0.0351 I0. J-0.0101
Y4.8696 Z0.0201 I0. J0.0101
Y4.8493 Z0.0052 I0. J-0.0101
Y4.8696 Z-0.0097 I0. J0.0101
Y4.8493 Z-0.0246 I0. J-0.0101
Y4.8696 Z-0.0396 I0. J0.0101
Y4.8493 Z-0.0545 I0. J-0.0101
Y4.8696 Z-0.0694 I0. J0.0101
Y4.8493 Z-0.0843 I0. J-0.0101
Y4.8696 Z-0.0993 I0. J0.0101
Y4.8493 Z-0.1142 I0. J-0.0101
Y4.8696 Z-0.1291 I0. J0.0101
Y4.8493 Z-0.144 I0. J-0.0101
Y4.8696 Z-0.159 I0. J0.0101
Y4.8493 Z-0.1739 I0. J-0.0101
Y4.8696 Z-0.1888 I0. J0.0101
Y4.8493 Z-0.2037 I0. J-0.0101
Y4.8696 Z-0.2187 I0. J0.0101
Y4.8493 Z-0.2336 I0. J-0.0101
X1.0675 Y4.867 Z-0.245 I0. J0.0101
X1.0539 Y4.852 I-0.0068 J-0.0075
X1.0675 Y4.867 I0.0068 J0.0075
X1.0604 Y4.8667 I-0.0034 J-0.0038
G1 X1.0553 Y4.8611
G0 Z0.4
X2.1092 Y3.27
Z0.13
G1 Z0.0649 F40.
G19 G3 Y3.2849 Z0.05 J0.0149 K0.
G1 Y3.2923
G17 G3 X2.0975 Y3.3041 I-0.0118 J0.
Y3.2571 Z0.0327 I0. J-0.0235
Y3.3041 Z0.0154 I0. J0.0235
Y3.2571 Z-0.0018 I0. J-0.0235
Y3.3041 Z-0.0191 I0. J0.0235
Y3.2571 Z-0.0364 I0. J-0.0235
Y3.3041 Z-0.0537 I0. J0.0235
Y3.2571 Z-0.071 I0. J-0.0235
Y3.3041 Z-0.0882 I0. J0.0235
Y3.2571 Z-0.1055 I0. J-0.0235
Y3.3041 Z-0.1228 I0. J0.0235
Y3.2571 Z-0.1401 I0. J-0.0235
Y3.3041 Z-0.1574 I0. J0.0235
Y3.2571 Z-0.1746 I0. J-0.0235
Y3.3041 Z-0.1919 I0. J0.0235
Y3.2571 Z-0.2092 I0. J-0.0235
Y3.3041 Z-0.2265 I0. J0.0235
X2.0741 Y3.2779 Z-0.2357 I0. J-0.0235
X2.1027 Y3.2577 Z-0.245 I0.0234 J0.0026
X2.0922 Y3.3035 I-0.0052 J0.0229
X2.1027 Y3.2577 I0.0052 J-0.0229
X2.1116 Y3.2717 I-0.0026 J0.0115
G1 X2.1099 Y3.279
X2.1092 Y3.2818 Z-0.2447
X2.1086 Y3.2846 Z-0.2439
X2.108 Y3.2871 Z-0.2425
X2.1075 Y3.2893 Z-0.2406
X2.1071 Y3.2911 Z-0.2384
X2.1068 Y3.2924 Z-0.2358
X2.1066 Y3.2932 Z-0.233
Y3.2935 Z-0.2301
G0 Z0.4
X1.3867 Y1.3644
Z0.13
G1 Z0.0649 F40.
G19 G3 Y1.3793 Z0.05 J0.0149 K0.
G1 Y1.3867
G17 G3 X1.375 Y1.3985 I-0.0118 J0.
Y1.3515 Z0.0327 I0. J-0.0235
Y1.3985 Z0.0154 I0. J0.0235
Y1.3515 Z-0.0018 I0. J-0.0235
Y1.3985 Z-0.0191 I0. J0.0235
Y1.3515 Z-0.0364 I0. J-0.0235
Y1.3985 Z-0.0537 I0. J0.0235
Y1.3515 Z-0.071 I0. J-0.0235
Y1.3985 Z-0.0882 I0. J0.0235
Y1.3515 Z-0.1055 I0. J-0.0235
Y1.3985 Z-0.1228 I0. J0.0235
Y1.3515 Z-0.1401 I0. J-0.0235
Y1.3985 Z-0.1574 I0. J0.0235
Y1.3515 Z-0.1746 I0. J-0.0235
Y1.3985 Z-0.1919 I0. J0.0235
Y1.3515 Z-0.2092 I0. J-0.0235
Y1.3985 Z-0.2265 I0. J0.0235
X1.3516 Y1.3724 Z-0.2357 I0. J-0.0235
X1.3802 Y1.3521 Z-0.245 I0.0234 J0.0026
X1.3698 Y1.3979 I-0.0052 J0.0229
X1.3802 Y1.3521 I0.0052 J-0.0229
X1.3891 Y1.3662 I-0.0026 J0.0115
G1 X1.3874 Y1.3734
X1.3868 Y1.3763 Z-0.2447
X1.3861 Y1.379 Z-0.2439
X1.3856 Y1.3815 Z-0.2425
X1.3851 Y1.3837 Z-0.2406
X1.3846 Y1.3855 Z-0.2384
X1.3843 Y1.3869 Z-0.2358
X1.3841 Y1.3877 Z-0.233
Y1.388 Z-0.2301
G0 Z0.4
X-1.3632 Y1.3644
Z0.13
G1 Z0.0649 F40.
G19 G3 Y1.3793 Z0.05 J0.0149 K0.
G1 Y1.3867
G17 G3 X-1.375 Y1.3985 I-0.0118 J0.
Y1.3515 Z0.0327 I0. J-0.0235
Y1.3985 Z0.0154 I0. J0.0235
Y1.3515 Z-0.0018 I0. J-0.0235
Y1.3985 Z-0.0191 I0. J0.0235
Y1.3515 Z-0.0364 I0. J-0.0235
Y1.3985 Z-0.0537 I0. J0.0235
Y1.3515 Z-0.071 I0. J-0.0235
Y1.3985 Z-0.0882 I0. J0.0235
Y1.3515 Z-0.1055 I0. J-0.0235
Y1.3985 Z-0.1228 I0. J0.0235
Y1.3515 Z-0.1401 I0. J-0.0235
Y1.3985 Z-0.1574 I0. J0.0235
Y1.3515 Z-0.1746 I0. J-0.0235
Y1.3985 Z-0.1919 I0. J0.0235
Y1.3515 Z-0.2092 I0. J-0.0235
Y1.3985 Z-0.2265 I0. J0.0235
X-1.3984 Y1.3724 Z-0.2357 I0. J-0.0235
X-1.3698 Y1.3521 Z-0.245 I0.0234 J0.0026
X-1.3802 Y1.3979 I-0.0052 J0.0229
X-1.3698 Y1.3521 I0.0052 J-0.0229
X-1.3609 Y1.3662 I-0.0026 J0.0115
G1 X-1.3626 Y1.3734
X-1.3632 Y1.3763 Z-0.2447
X-1.3639 Y1.379 Z-0.2439
X-1.3644 Y1.3815 Z-0.2425
X-1.3649 Y1.3837 Z-0.2406
X-1.3654 Y1.3855 Z-0.2384
X-1.3657 Y1.3869 Z-0.2358
X-1.3659 Y1.3877 Z-0.233
Y1.388 Z-0.2301
G0 Z0.4
X-1.5925 Y4.0417
Z0.13
G1 Z0.0649 F40.
G19 G3 Y4.0566 Z0.05 J0.0149 K0.
G1 Y4.0641
G17 G3 X-1.6043 Y4.0758 I-0.0117 J0.
Y4.0288 Z0.0327 I0. J-0.0235
Y4.0758 Z0.0154 I0. J0.0235
Y4.0288 Z-0.0018 I0. J-0.0235
Y4.0758 Z-0.0191 I0. J0.0235
Y4.0288 Z-0.0364 I0. J-0.0235
Y4.0758 Z-0.0537 I0. J0.0235
Y4.0288 Z-0.071 I0. J-0.0235
Y4.0758 Z-0.0882 I0. J0.0235
Y4.0288 Z-0.1055 I0. J-0.0235
Y4.0758 Z-0.1228 I0. J0.0235
Y4.0288 Z-0.1401 I0. J-0.0235
Y4.0758 Z-0.1574 I0. J0.0235
Y4.0288 Z-0.1746 I0. J-0.0235
Y4.0758 Z-0.1919 I0. J0.0235
Y4.0288 Z-0.2092 I0. J-0.0235
Y4.0758 Z-0.2265 I0. J0.0235
X-1.6276 Y4.0497 Z-0.2357 I0. J-0.0235
X-1.599 Y4.0294 Z-0.245 I0.0234 J0.0026
X-1.6095 Y4.0752 I-0.0052 J0.0229
X-1.599 Y4.0294 I0.0052 J-0.0229
X-1.5902 Y4.0435 I-0.0026 J0.0115
G1 X-1.5918 Y4.0507
X-1.5925 Y4.0536 Z-0.2447
X-1.5931 Y4.0563 Z-0.2439
X-1.5937 Y4.0588 Z-0.2425
X-1.5942 Y4.061 Z-0.2406
X-1.5946 Y4.0628 Z-0.2384
X-1.5949 Y4.0642 Z-0.2358
X-1.5951 Y4.065 Z-0.233
X-1.5952 Y4.0653 Z-0.2301
G0 Z0.4
X-1.3632 Y-1.3856
Z0.13
G1 Z0.0649 F40.
G19 G3 Y-1.3707 Z0.05 J0.0149 K0.
G1 Y-1.3632
G17 G3 X-1.375 Y-1.3515 I-0.0118 J0.
Y-1.3985 Z0.0327 I0. J-0.0235
Y-1.3515 Z0.0154 I0. J0.0235
Y-1.3985 Z-0.0018 I0. J-0.0235
Y-1.3515 Z-0.0191 I0. J0.0235
Y-1.3985 Z-0.0364 I0. J-0.0235
Y-1.3515 Z-0.0537 I0. J0.0235
Y-1.3985 Z-0.071 I0. J-0.0235
Y-1.3515 Z-0.0882 I0. J0.0235
Y-1.3985 Z-0.1055 I0. J-0.0235
Y-1.3515 Z-0.1228 I0. J0.0235
Y-1.3985 Z-0.1401 I0. J-0.0235
Y-1.3515 Z-0.1574 I0. J0.0235
Y-1.3985 Z-0.1746 I0. J-0.0235
Y-1.3515 Z-0.1919 I0. J0.0235
Y-1.3985 Z-0.2092 I0. J-0.0235
Y-1.3515 Z-0.2265 I0. J0.0235
X-1.3984 Y-1.3776 Z-0.2357 I0. J-0.0235
X-1.3698 Y-1.3979 Z-0.245 I0.0234 J0.0026
X-1.3802 Y-1.3521 I-0.0052 J0.0229
X-1.3698 Y-1.3979 I0.0052 J-0.0229
X-1.3609 Y-1.3838 I-0.0026 J0.0115
G1 X-1.3626 Y-1.3766
X-1.3632 Y-1.3737 Z-0.2447
X-1.3639 Y-1.371 Z-0.2439
X-1.3644 Y-1.3685 Z-0.2425
X-1.3649 Y-1.3663 Z-0.2406
X-1.3654 Y-1.3645 Z-0.2384
X-1.3657 Y-1.3631 Z-0.2358
X-1.3659 Y-1.3623 Z-0.233
Y-1.362 Z-0.2301
G0 Z0.4
X1.3867 Y-1.3856
Z0.13
G1 Z0.0649 F40.
G19 G3 Y-1.3707 Z0.05 J0.0149 K0.
G1 Y-1.3632
G17 G3 X1.375 Y-1.3515 I-0.0118 J0.
Y-1.3985 Z0.0327 I0. J-0.0235
Y-1.3515 Z0.0154 I0. J0.0235
Y-1.3985 Z-0.0018 I0. J-0.0235
Y-1.3515 Z-0.0191 I0. J0.0235
Y-1.3985 Z-0.0364 I0. J-0.0235
Y-1.3515 Z-0.0537 I0. J0.0235
Y-1.3985 Z-0.071 I0. J-0.0235
Y-1.3515 Z-0.0882 I0. J0.0235
Y-1.3985 Z-0.1055 I0. J-0.0235
Y-1.3515 Z-0.1228 I0. J0.0235
Y-1.3985 Z-0.1401 I0. J-0.0235
Y-1.3515 Z-0.1574 I0. J0.0235
Y-1.3985 Z-0.1746 I0. J-0.0235
Y-1.3515 Z-0.1919 I0. J0.0235
Y-1.3985 Z-0.2092 I0. J-0.0235
Y-1.3515 Z-0.2265 I0. J0.0235
X1.3516 Y-1.3776 Z-0.2357 I0. J-0.0235
X1.3802 Y-1.3979 Z-0.245 I0.0234 J0.0026
X1.3698 Y-1.3521 I-0.0052 J0.0229
X1.3802 Y-1.3979 I0.0052 J-0.0229
X1.3891 Y-1.3838 I-0.0026 J0.0115
G1 X1.3874 Y-1.3766
X1.3868 Y-1.3737 Z-0.2447
X1.3861 Y-1.371 Z-0.2439
X1.3856 Y-1.3685 Z-0.2425
X1.3851 Y-1.3663 Z-0.2406
X1.3846 Y-1.3645 Z-0.2384
X1.3843 Y-1.3631 Z-0.2358
X1.3841 Y-1.3623 Z-0.233
Y-1.362 Z-0.2301
G0 Z0.6
(.3 CIRCULAR THROUGH HOLE)
M7
G0 X-0.3725 Y4.9649
Z0.6
Z0.2
G1 Z0.1144 F13.333
G3 X-0.3723 Y4.9635 Z0.1081 I0.0445 J0.0068 F55.
X-0.3714 Y4.9597 Z0.103 I0.0443 J0.0082
X-0.3695 Y4.9543 Z0.1 I0.0434 J0.012
X-0.2865 Y4.989 Z0.0621 I0.0415 J0.0174
X-0.3695 Y4.9543 Z0.0242 I-0.0415 J-0.0174
X-0.2865 Y4.989 Z-0.0136 I0.0415 J0.0174
X-0.3695 Y4.9543 Z-0.0515 I-0.0415 J-0.0174
X-0.2865 Y4.989 Z-0.0894 I0.0415 J0.0174
X-0.373 Y4.9717 Z-0.1225 I-0.0415 J-0.0174
X-0.365 I0.004 J0. F60.
X-0.473 I-0.054 J0.
X-0.265 I0.104 J0.
X-0.573 I-0.154 J0.
X-0.165 I0.204 J0.
X-0.673 I-0.254 J0.
X-0.165 I0.254 J0.
G2 X-0.1237 Y5.0395 I0.0763 J0.
G3 X-0.0973 Y5.1144 I-0.0265 J0.0515
X-0.771 Y4.9717 I-0.3217 J-0.1428
X-0.067 I0.352 J0.
X-0.0973 Y5.1144 I-0.352 J0.
X-0.1072 Y5.1182 I-0.0068 J-0.003
G1 X-0.276 Y5.0408
G3 X-0.2805 Y5.036 I0.0027 J-0.007
G1 X-0.3073 Y4.9487
G3 X-0.2946 Y4.9415 I0.0071 J-0.0022
X-0.3614 Y5.0018 Z-0.1604 I-0.0334 J0.0302 F55.
X-0.2946 Y4.9415 Z-0.1983 I0.0334 J-0.0302
X-0.3614 Y5.0018 Z-0.2361 I-0.0334 J0.0302
X-0.373 Y4.9717 Z-0.245 I0.0334 J-0.0302
X-0.365 I0.004 J0. F60.
X-0.473 I-0.054 J0.
X-0.265 I0.104 J0.
X-0.573 I-0.154 J0.
X-0.165 I0.204 J0.
X-0.673 I-0.254 J0.
X-0.165 I0.254 J0.
G2 X-0.1237 Y5.0395 I0.0763 J0.
G3 X-0.0973 Y5.1144 I-0.0265 J0.0515
X-0.771 Y4.9717 I-0.3217 J-0.1428
X-0.067 I0.352 J0.
X-0.0973 Y5.1144 I-0.352 J0.
G2 X-0.0958 Y5.1232 I0.0074 J0.0033
G3 X-0.0945 Y5.1321 I-0.0057 J0.0054
X-0.781 Y4.9717 I-0.3245 J-0.1604
X-0.057 I0.362 J0.
X-0.0945 Y5.1321 I-0.362 J0.
X-0.0979 Y5.1366 Z-0.2439 I-0.0134 J-0.0066
X-0.102 Y5.1392 Z-0.2406 I-0.0099 J-0.0111
X-0.1051 Y5.1401 Z-0.2358 I-0.0059 J-0.0137
X-0.1062 Y5.1403 Z-0.2301 I-0.0028 J-0.0146
G0 Z0.4
X0.9815 Y5.3415
Z0.2
G1 Z0.1144 F13.333
G3 X0.9813 Y5.3429 Z0.1081 I-0.0445 J-0.0068 F55.
X0.9804 Y5.3467 Z0.103 I-0.0443 J-0.0082
X0.9786 Y5.3521 Z0.1 I-0.0434 J-0.012
X0.8956 Y5.3174 Z0.0621 I-0.0415 J-0.0174
X0.9786 Y5.3521 Z0.0242 I0.0415 J0.0174
X0.8956 Y5.3174 Z-0.0136 I-0.0415 J-0.0174
X0.9786 Y5.3521 Z-0.0515 I0.0415 J0.0174
X0.8956 Y5.3174 Z-0.0894 I-0.0415 J-0.0174
X0.9821 Y5.3348 Z-0.1225 I0.0415 J0.0174
X0.8841 I-0.049 J0. F60.
X1.0821 I0.099 J0.
X0.7841 I-0.149 J0.
X1.0821 I0.149 J0.
X1.0739 Y5.3422 I-0.0074 J0.
G1 X0.9867 Y5.3339
G2 X0.9835 Y5.3345 I-0.0001 J0.0074
G1 X0.9123 Y5.3667
G3 X0.9037 Y5.3649 I-0.0031 J-0.0068
X0.9705 Y5.3046 Z-0.1604 I0.0334 J-0.0302 F55.
X0.9037 Y5.3649 Z-0.1983 I-0.0334 J0.0302
X0.9705 Y5.3046 Z-0.2361 I0.0334 J-0.0302
X0.9821 Y5.3348 Z-0.245 I-0.0334 J0.0302
X0.8841 I-0.049 J0. F60.
X1.0821 I0.099 J0.
X0.7841 I-0.149 J0.
X1.0921 I0.154 J0.
X0.7741 I-0.159 J0.
X1.0921 I0.159 J0.
X1.0916 Y5.337 Z-0.2445 I-0.0061 J0.
X1.0906 Y5.3387 Z-0.2432 I-0.0056 J-0.0023
X1.0896 Y5.3396 Z-0.2412 I-0.0046 J-0.004
X1.0893 Y5.3399 Z-0.2389 I-0.0037 J-0.0049
G0 Z0.4
X0.0485 Y3.1373
Z0.2
G1 Z0.1144 F13.333
G3 X0.0487 Y3.1359 Z0.1081 I0.0445 J0.0068 F55.
X0.0496 Y3.1321 Z0.103 I0.0443 J0.0082
X0.0515 Y3.1267 Z0.1 I0.0434 J0.012
X0.1345 Y3.1615 Z0.0621 I0.0415 J0.0174
X0.0515 Y3.1267 Z0.0242 I-0.0415 J-0.0174
X0.1345 Y3.1615 Z-0.0136 I0.0415 J0.0174
X0.0515 Y3.1267 Z-0.0515 I-0.0415 J-0.0174
X0.1345 Y3.1615 Z-0.0894 I0.0415 J0.0174
X0.048 Y3.1441 Z-0.1225 I-0.0415 J-0.0174
X0.052 I0.002 J0. F60.
X-0.052 I-0.052 J0.
X0.152 I0.102 J0.
X-0.152 I-0.152 J0.
X0.252 I0.202 J0.
X-0.252 I-0.252 J0.
X0.352 I0.302 J0.
X-0.352 I-0.352 J0.
X0.352 I0.352 J0.
X0.345 Y3.1515 I-0.0074 J0.
G1 X0.1508 Y3.163
G3 X0.1435 Y3.1603 I-0.0014 J-0.0073
G1 X0.115 Y3.1235
G3 X0.1264 Y3.1139 I0.0059 J-0.0046
X0.0596 Y3.1743 Z-0.1604 I-0.0334 J0.0302 F55.
X0.1264 Y3.1139 Z-0.1983 I0.0334 J-0.0302
X0.0596 Y3.1743 Z-0.2361 I-0.0334 J0.0302
X0.048 Y3.1441 Z-0.245 I0.0334 J-0.0302
X0.052 I0.002 J0. F60.
X-0.052 I-0.052 J0.
X0.152 I0.102 J0.
X-0.152 I-0.152 J0.
X0.252 I0.202 J0.
X-0.252 I-0.252 J0.
X0.352 I0.302 J0.
X-0.352 I-0.352 J0.
X0.362 I0.357 J0.
X-0.362 I-0.362 J0.
X0.362 I0.362 J0.
X0.3616 Y3.1464 Z-0.2445 I-0.0061 J0.
X0.3605 Y3.148 Z-0.2432 I-0.0056 J-0.0023
X0.3596 Y3.149 Z-0.2412 I-0.0046 J-0.004
X0.3592 Y3.1492 Z-0.2389 I-0.0037 J-0.0049
G0 Z0.6
(SHAPE THROUGH HOLE)
M7
G0 X-1.0237 Y2.7994
Z0.6
Z0.1
G3 X-1.153 Y2.7418 Z0.0608 I-0.0646 J-0.0288 F50.
X-1.0237 Y2.7994 Z0.0216 I0.0646 J0.0288
X-1.153 Y2.7418 Z-0.0176 I-0.0646 J-0.0288
X-1.0237 Y2.7994 Z-0.0568 I0.0646 J0.0288
X-1.153 Y2.7418 Z-0.096 I-0.0646 J-0.0288
X-1.0176 Y2.7706 Z-0.13 I0.0646 J0.0288
X-1.1591 I-0.0708 J0.
X-1.0176 I0.0708 J0.
X-0.9975 Y2.8121 I-0.0421 J0.046 F60.
G1 X-0.9998 Y2.8195
X-1.0026 Y2.8266
X-1.0061 Y2.8335
X-1.01 Y2.8401
X-1.0145 Y2.8464
X-1.0195 Y2.8523
X-1.025 Y2.8577
X-1.0308 Y2.8627
X-1.0371 Y2.8672
X-1.0437 Y2.8712
X-1.0506 Y2.8746
X-1.0577 Y2.8775
X-1.0651 Y2.8798
X-1.0726 Y2.8815
X-1.0802 Y2.8826
X-1.0879 Y2.883
X-1.0956 Y2.8829
X-1.1033 Y2.8821
X-1.1109 Y2.8807
X-1.1183 Y2.8787
X-1.1256 Y2.8761
X-1.1326 Y2.8729
X-1.1393 Y2.8692
X-1.1457 Y2.865
X-1.1518 Y2.8602
X-1.1574 Y2.855
X-1.1627 Y2.8493
X-1.1674 Y2.8432
X-1.1716 Y2.8368
X-1.1753 Y2.83
X-1.1785 Y2.823
X-1.181 Y2.8157
X-1.183 Y2.8083
X-1.1844 Y2.8007
X-1.1851 Y2.793
X-1.1853 Y2.7853
X-1.1848 Y2.7776
X-1.1837 Y2.77
X-1.1819 Y2.7625
X-1.1796 Y2.7552
X-1.1767 Y2.748
X-1.1732 Y2.7411
X-1.1692 Y2.7346
X-1.1647 Y2.7283
X-1.162 Y2.6885
X-1.1585 Y2.6812
X-1.1546 Y2.6743
X-1.1501 Y2.6676
X-1.1452 Y2.6613
X-1.1398 Y2.6554
X-1.134 Y2.6498
X-1.1278 Y2.6448
X-1.1213 Y2.6401
X-1.1144 Y2.636
X-1.1072 Y2.6324
X-1.0998 Y2.6293
X-1.0922 Y2.6268
X-1.0845 Y2.6249
X-1.0766 Y2.6235
X-1.0686 Y2.6227
X-1.0606 Y2.6225
X-1.0526 Y2.6229
X-1.0446 Y2.6239
X-1.0368 Y2.6254
X-1.029 Y2.6275
X-1.0215 Y2.6302
X-1.0142 Y2.6334
X-1.0071 Y2.6372
X-1.0003 Y2.6415
X-0.9939 Y2.6462
X-0.9878 Y2.6515
X-0.9821 Y2.6571
X-0.9769 Y2.6631
X-0.9721 Y2.6696
X-0.9678 Y2.6763
G2 X-0.9975 Y2.8121 I2.1699 J0.546
G3 X-1.0155 Y2.8231 I-0.0145 J-0.0035
X-1.0358 Y2.7996 I0.0062 J-0.026
X-0.9912 Y2.6961 I0.1176 J-0.0107
X-0.9752 Y2.6854 I0.0731 J0.0928 F50.
G2 X-0.9681 Y2.6765 I-0.0072 J-0.013
G1 X-0.9607 Y2.647 F60.
X-0.9613 Y2.6388
X-0.9624 Y2.6306
X-0.9641 Y2.6226
X-0.9664 Y2.6147
X-0.9692 Y2.607
X-0.9726 Y2.5995
X-0.9766 Y2.5922
X-0.981 Y2.5853
X-0.9859 Y2.5787
X-0.9913 Y2.5725
X-0.9971 Y2.5667
X-1.0033 Y2.5613
X-1.0099 Y2.5563
X-1.0168 Y2.5519
X-1.0241 Y2.548
X-1.0316 Y2.5445
X-1.0393 Y2.5417
X-1.0472 Y2.5394
X-1.0552 Y2.5376
X-1.0634 Y2.5365
X-1.0716 Y2.5359
X-1.0798 Y2.536
X-1.088 Y2.5366
X-1.0961 Y2.5378
X-1.1042 Y2.5396
X-1.1121 Y2.5419
X-1.1197 Y2.5449
X-1.1272 Y2.5483
G2 X-1.162 Y2.6885 I2.2728 J0.6383
X-1.157 Y2.7025 I0.0147 J0.0027
X-1.0919 Y2.6837 I0.0263 J-0.031
X-1.1125 Y2.5744 I-0.1127 J-0.0354
X-1.1228 Y2.5631 I-0.0921 J0.0739 F50.
G3 X-1.127 Y2.5488 I0.0103 J-0.0107
G1 X-1.1243 Y2.5393 F60.
X-1.119 Y2.5215
X-1.1143 Y2.5147
X-1.1092 Y2.5082
X-1.1036 Y2.5021
X-1.0975 Y2.4964
X-1.0911 Y2.4912
X-1.0844 Y2.4864
X-1.0773 Y2.4822
X-1.0699 Y2.4784
X-1.0623 Y2.4752
X-1.0544 Y2.4725
X-1.0464 Y2.4704
X-1.0383 Y2.4688
X-1.0301 Y2.4678
X-1.0218 Y2.4675
X-1.0136 Y2.4677
X-1.0053 Y2.4684
X-0.9972 Y2.4698
X-0.9891 Y2.4717
X-0.9812 Y2.4742
X-0.9735 Y2.4773
X-0.9661 Y2.4809
X-0.9589 Y2.485
X-0.952 Y2.4896
X-0.9455 Y2.4947
X-0.9393 Y2.5002
X-0.9336 Y2.5062
X-0.9283 Y2.5125
X-0.9234 Y2.5192
G2 X-0.9607 Y2.647 I2.1217 J0.6882
G3 X-0.9714 Y2.6573 I-0.0143 J-0.0041
X-0.9842 Y2.6527 I-0.0029 J-0.0118
X-0.9498 Y2.5335 I0.0638 J-0.0461
X-0.9351 Y2.5292 I0.0294 J0.073 F50.
G2 X-0.9238 Y2.5195 I-0.0028 J-0.0146
G1 X-0.9156 Y2.493 F60.
G2 X-1.078 Y2.3903 I-0.1184 J0.0074
X-1.119 Y2.5215 I3.3235 J1.1111
X-1.1151 Y2.5358 I0.0144 J0.0037
X-1.0535 Y2.5218 I0.0263 J-0.0267
X-1.066 Y2.4171 I-0.1112 J-0.0398
X-1.0752 Y2.4049 I-0.0987 J0.0649 F50.
G3 X-1.078 Y2.3903 I0.0113 J-0.0097
G1 X-1.067 Y2.362 F60.
X-1.0616 Y2.3553
X-1.0557 Y2.3491
X-1.0494 Y2.3433
X-1.0427 Y2.338
X-1.0356 Y2.3332
X-1.0281 Y2.329
X-1.0204 Y2.3253
X-1.0125 Y2.3221
X-1.0043 Y2.3195
X-0.996 Y2.3176
X-0.9875 Y2.3162
X-0.979 Y2.3154
X-0.9704 Y2.3153
X-0.9619 Y2.3158
X-0.9534 Y2.3169
X-0.945 Y2.3186
X-0.9367 Y2.3209
X-0.9287 Y2.3239
X-0.9209 Y2.3273
X-0.9133 Y2.3314
X-0.9061 Y2.336
X-0.8992 Y2.341
X-0.8927 Y2.3466
X-0.8866 Y2.3527
X-0.881 Y2.3591
X-0.8759 Y2.3659
X-0.8712 Y2.3731
G2 X-0.9156 Y2.493 I1.1588 J0.4973
G3 X-0.9271 Y2.5025 I-0.014 J-0.0052
X-0.9467 Y2.4919 I-0.0031 J-0.0178
X-0.8987 Y2.3857 I0.0723 J-0.0313
X-0.8838 Y2.3824 I0.0243 J0.0749 F50.
G2 X-0.8718 Y2.3735 I-0.0018 J-0.0148
G1 X-0.8623 Y2.349 F60.
G2 X-1.0163 Y2.2346 I-0.1176 J-0.0026
G1 X-1.0282 Y2.2617
X-1.0463 Y2.308
X-1.064 Y2.3542
G2 X-1.0612 Y2.3688 I0.0141 J0.0048
X-1.0488 Y2.372 I0.0085 J-0.0074
G1 X-1.0472 Y2.3714
G2 X-1.0059 Y2.2622 I-0.0288 J-0.0733
X-1.0141 Y2.2493 I-0.0701 J0.0359 F50.
G3 X-1.0163 Y2.2346 I0.0117 J-0.0092
G1 X-1.0079 Y2.2154 F60.
X-1.0014 Y2.2054
X-0.9948 Y2.1996
X-0.9878 Y2.1941
X-0.9804 Y2.1892
X-0.9727 Y2.1848
X-0.9648 Y2.1809
X-0.9566 Y2.1776
X-0.9482 Y2.1749
X-0.9396 Y2.1727
X-0.9309 Y2.1711
X-0.9221 Y2.1701
X-0.9133 Y2.1698
X-0.9044 Y2.17
X-0.8956 Y2.1708
X-0.8869 Y2.1722
X-0.8783 Y2.1743
X-0.8698 Y2.1769
X-0.8616 Y2.18
X-0.8535 Y2.1838
X-0.8458 Y2.188
X-0.8384 Y2.1928
X-0.8313 Y2.1981
X-0.8246 Y2.2038
X-0.8182 Y2.21
X-0.8124 Y2.2167
X-0.807 Y2.2237
X-0.8021 Y2.231
X-0.7977 Y2.2387
X-0.7938 Y2.2466
X-0.7905 Y2.2548
X-0.7877 Y2.2632
X-0.7856 Y2.2718
X-0.784 Y2.2805
X-0.8114 Y2.292
X-0.8247 Y2.3
G3 X-0.8396 Y2.2997 I-0.0072 J-0.013
X-0.8358 Y2.2718 I0.0079 J-0.0131
X-0.8148 Y2.2719 I0.0103 J0.038
X-0.8012 Y2.2788 I-0.0107 J0.0379 F50.
G2 X-0.7865 Y2.2809 I0.0092 J-0.0117
G1 X-0.7743 Y2.2755 F60.
G2 X-0.8309 Y2.1045 I-0.0781 J-0.069
X-1.0014 Y2.2054 I0.0065 J0.2055
X-1.0016 Y2.2203 I0.0128 J0.0077
X-0.9794 Y2.2321 I0.0202 J-0.0112
X-0.8453 Y2.1282 I-0.0143 J-0.1568
X-0.8409 Y2.1136 I-0.1483 J-0.0529 F50.
G3 X-0.8305 Y2.1029 I0.0145 J0.0036
X-0.7745 Y2.2751 I0.0209 J0.0885 F60.
G1 X-0.7771 Y2.276
X-0.7798 Y2.2763
X-0.7826 Y2.2761
X-0.7852 Y2.2753
X-0.7877 Y2.2741
X-0.7899 Y2.2725
X-0.7918 Y2.2704
X-0.7933 Y2.268
X-0.7943 Y2.2654
X-0.7947 Y2.2627
Y2.2599
X-0.7943 Y2.257 Z-0.1297
X-0.794 Y2.2542 Z-0.1289
X-0.7937 Y2.2516 Z-0.1275
X-0.7934 Y2.2494 Z-0.1256
X-0.7932 Y2.2476 Z-0.1234
X-0.793 Y2.2462 Z-0.1208
X-0.7929 Y2.2454 Z-0.118
Y2.2451 Z-0.1151
G0 Z0.4
X0.6839 Y4.1411
Z0.1
G3 X0.5546 Y4.0834 Z0.0608 I-0.0646 J-0.0288 F50.
X0.6839 Y4.1411 Z0.0216 I0.0646 J0.0288
X0.5546 Y4.0834 Z-0.0176 I-0.0646 J-0.0288
X0.6839 Y4.1411 Z-0.0568 I0.0646 J0.0288
X0.5546 Y4.0834 Z-0.096 I-0.0646 J-0.0288
X0.69 Y4.1122 Z-0.13 I0.0646 J0.0288
X0.5485 I-0.0708 J0.
X0.69 I0.0708 J0.
X0.6933 Y4.1254 I-0.0693 J0.0245 F60.
X0.6193 Y4.2187 I-0.1395 J-0.0346
G1 X0.612 Y4.2221
X0.6045 Y4.2249
X0.5969 Y4.2271
X0.5891 Y4.2288
X0.5812 Y4.2299
X0.5732 Y4.2304
X0.5652 Y4.2302
X0.5573 Y4.2295
X0.5494 Y4.2282
X0.5416 Y4.2263
X0.534 Y4.2238
X0.5267 Y4.2208
X0.5195 Y4.2172
X0.5127 Y4.2131
X0.5062 Y4.2084
X0.5 Y4.2033
X0.4943 Y4.1978
X0.489 Y4.1918
X0.4841 Y4.1855
X0.4798 Y4.1788
X0.4759 Y4.1718
X0.4726 Y4.1646
X0.4699 Y4.1571
X0.4677 Y4.1494
X0.4661 Y4.1416
X0.4651 Y4.1336
X0.4647 Y4.1257
X0.4649 Y4.1177
X0.4657 Y4.1098
X0.4671 Y4.1019
G3 X0.6193 Y4.0205 I0.2036 J0.1977
X0.6933 Y4.1254 I-0.0144 J0.0888
X0.6908 Y4.13 I-0.0141 J-0.0047
G1 X0.6748 Y4.15
X0.6388 Y4.1948
X0.6211 Y4.2168 F50.
X0.6193 Y4.2187
X0.5793 Y4.251 F60.
X0.5731 Y4.2573
X0.5697 Y4.2613
G3 X0.396 Y4.1941 I-0.0618 J-0.0982
X0.4139 Y4.1871 I0.0131 J0.0071
G1 X0.4234 Y4.1903
X0.5605 Y4.2372
X0.5628 Y4.2379 F50.
G3 X0.5697 Y4.2613 I-0.0048 J0.0141
G1 X0.5662 Y4.2682 F60.
X0.5621 Y4.2749
X0.5576 Y4.2811
X0.5525 Y4.287
X0.547 Y4.2925
X0.5411 Y4.2975
X0.5348 Y4.302
X0.5281 Y4.306
X0.5212 Y4.3094
X0.5139 Y4.3122
X0.5065 Y4.3145
X0.499 Y4.3162
X0.4913 Y4.3172
X0.4835 Y4.3176
X0.4758 Y4.3174
X0.4681 Y4.3166
X0.4605 Y4.3151
X0.453 Y4.3131
X0.4457 Y4.3104
X0.4387 Y4.3072
X0.4319 Y4.3034
X0.4255 Y4.299
X0.4194 Y4.2942
X0.4137 Y4.2889
X0.4085 Y4.2832
X0.4038 Y4.277
X0.3996 Y4.2705
X0.3959 Y4.2637
X0.3928 Y4.2566
X0.3903 Y4.2493
X0.3883 Y4.2417
X0.387 Y4.2341
X0.3863 Y4.2264
Y4.2186
X0.3868 Y4.2109
X0.388 Y4.2032
X0.3898 Y4.1957
X0.3922 Y4.1883
X0.3951 Y4.1812
X0.3987 Y4.1743
X0.4028 Y4.1677
X0.4074 Y4.1615
X0.4125 Y4.1556
X0.418 Y4.1502
X0.424 Y4.1453
X0.4303 Y4.1408
X0.437 Y4.1369
X0.4546 Y4.1122
X0.4667 Y4.1018
G3 X0.4907 Y4.1109 I0.0093 J0.0116
G1 X0.4912 Y4.1137 Z-0.1297
X0.4917 Y4.1165 Z-0.1289
X0.4921 Y4.119 Z-0.1275
X0.4925 Y4.1212 Z-0.1256
X0.4928 Y4.1231 Z-0.1234
X0.4931 Y4.1244 Z-0.1208
X0.4932 Y4.1253 Z-0.118
X0.4933 Y4.1255 Z-0.1151
G0 Z0.4
X0.8685 Y2.198
Z0.1
G3 X0.7392 Y2.1403 Z0.0608 I-0.0646 J-0.0288 F50.
X0.8685 Y2.198 Z0.0216 I0.0646 J0.0288
X0.7392 Y2.1403 Z-0.0176 I-0.0646 J-0.0288
X0.8685 Y2.198 Z-0.0568 I0.0646 J0.0288
X0.7392 Y2.1403 Z-0.096 I-0.0646 J-0.0288
X0.8746 Y2.1692 Z-0.13 I0.0646 J0.0288
X0.7331 I-0.0708 J0.
X0.8746 I0.0708 J0.
G1 X0.8794 Y2.1744 F60.
X0.8838 Y2.1801
X0.8876 Y2.1861
X0.8909 Y2.1924
X0.8937 Y2.199
X0.8959 Y2.2058
X0.8975 Y2.2127
X0.8986 Y2.2197
X0.899 Y2.2269
X0.8988 Y2.234
X0.8981 Y2.2411
X0.8967 Y2.2481
X0.8948 Y2.2549
X0.8923 Y2.2616
X0.8892 Y2.268
X0.8856 Y2.2742
X0.8816 Y2.28
X0.877 Y2.2855
X0.872 Y2.2905
X0.8665 Y2.2951
X0.8607 Y2.2993
X0.8546 Y2.3029
X0.8482 Y2.306
X0.8416 Y2.3086
G3 X0.7152 Y2.2154 I0.03 J-0.1729
X0.8962 Y2.124 I0.1064 J-0.0143
G1 X0.9192 Y2.1341
G3 X0.8919 Y2.3778 I-0.0728 J0.1153
G1 X0.8766 Y2.3542
X0.856 Y2.3249
G3 X0.8552 Y2.3101 I0.0125 J-0.0081
X0.8683 Y2.3048 I0.0095 J0.0048
X0.8943 Y2.3453 I-0.0132 J0.0371
X0.8901 Y2.36 I-0.0392 J-0.0034 F50.
G2 X0.8908 Y2.3748 I0.0132 J0.0068
G1 X0.8962 Y2.3825 F60.
X0.8998 Y2.388
G2 X1.0608 Y2.295 I0.0537 J-0.0927
X0.9192 Y2.1341 I-0.355 J0.1694
X0.9045 Y2.1362 I-0.0055 J0.0139
X0.8897 Y2.2028 I0.0336 J0.0425
X1.0332 Y2.2901 I0.141 J-0.0702
X1.0485 Y2.2891 I-0.0025 J-0.1575 F50.
G3 X1.0621 Y2.295 I0.0017 J0.0148
G1 X1.071 Y2.308 F60.
X1.0808 Y2.3239
X1.0836 Y2.3284
X1.0861 Y2.3368
X1.0881 Y2.3454
X1.0894 Y2.3541
X1.09 Y2.3628
X1.0901 Y2.3716
X1.0895 Y2.3803
X1.0883 Y2.389
X1.0865 Y2.3976
X1.084 Y2.406
X1.081 Y2.4142
X1.0774 Y2.4222
X1.0732 Y2.4299
X1.0685 Y2.4373
X1.0633 Y2.4444
X1.0575 Y2.451
X1.0514 Y2.4572
X1.0448 Y2.463
X1.0377 Y2.4682
X1.0304 Y2.473
X1.0227 Y2.4772
X1.0147 Y2.4809
X1.0065 Y2.4839
X0.9981 Y2.4864
X0.9895 Y2.4883
X0.9809 Y2.4895
X0.9721 Y2.4901
X0.9634
G2 X0.8998 Y2.388 I-1.2099 J0.6812
G3 X0.8993 Y2.3731 I0.0126 J-0.0079
X0.9307 Y2.3629 I0.0209 J0.011
X0.9701 Y2.46 I-0.0347 J0.0707
X0.9636 Y2.4738 I-0.0742 J-0.0264 F50.
G2 X0.9634 Y2.4887 I0.0128 J0.0076
G1 X0.966 Y2.493 F60.
X0.9747 Y2.5079
G2 X1.1576 Y2.4521 I0.0737 J-0.0861
X1.0836 Y2.3284 I-2.4813 J1.4015
X1.0703 Y2.3219 I-0.0124 J0.0083
X1.0366 Y2.3822 I0.0027 J0.0411
X1.129 Y2.4444 I0.1043 J-0.0554
X1.1444 Y2.445 I0.0119 J-0.1175 F50.
G3 X1.1575 Y2.452 I0.0004 J0.0149
G1 X1.1731 Y2.4794 F60.
X1.1745 Y2.4878
X1.1754 Y2.4963
X1.1756 Y2.5049
X1.1753 Y2.5135
X1.1743 Y2.522
X1.1727 Y2.5304
X1.1705 Y2.5387
X1.1677 Y2.5468
X1.1643 Y2.5547
X1.1604 Y2.5623
X1.1559 Y2.5696
X1.151 Y2.5766
X1.1455 Y2.5832
X1.1396 Y2.5893
X1.1332 Y2.5951
X1.1265 Y2.6004
X1.1193 Y2.6051
X1.1119 Y2.6094
X1.1042 Y2.6131
X1.0962 Y2.6162
X1.088 Y2.6188
X1.0797 Y2.6207
X1.0712 Y2.6221
X1.0627 Y2.6228
X1.0541 Y2.623
X1.0456 Y2.6225
X1.0371 Y2.6214
X1.0188 Y2.5855
X0.9929 Y2.5393
X0.9747 Y2.5079
G3 X0.9751 Y2.493 I0.0131 J-0.007
X0.9941 Y2.4855 I0.0145 J0.0089
X1.0456 Y2.5922 I-0.0209 J0.0759
X1.0383 Y2.6057 I-0.0725 J-0.0308 F50.
G2 X1.0372 Y2.6205 I0.0123 J0.0084
G1 X1.0432 Y2.6318 F60.
X1.0626 Y2.6507
X1.0703 Y2.6551
X1.0782 Y2.6589
X1.0864 Y2.6621
X1.0948 Y2.6648
X1.1033 Y2.6669
X1.112 Y2.6684
X1.1207 Y2.6693
X1.1295 Y2.6696
X1.1383 Y2.6693
X1.1471 Y2.6684
X1.1558 Y2.6669
X1.1643 Y2.6648
X1.1727 Y2.6621
X1.1809 Y2.6588
X1.1888 Y2.655
X1.1965 Y2.6507
X1.2038 Y2.6458
X1.2108 Y2.6405
X1.2174 Y2.6346
X1.2235 Y2.6284
X1.2293 Y2.6217
X1.2345 Y2.6146
X1.2393 Y2.6072
X1.2436 Y2.5995
X1.2473 Y2.5915
X1.2504 Y2.5833
X1.253 Y2.5749
X1.2549 Y2.5663
X1.2563 Y2.5576
G3 X1.1731 Y2.4794 I0.0811 J-0.1697
G2 X1.16 Y2.4723 I-0.0127 J0.0078
X1.13 Y2.5197 I0.001 J0.0338
X1.2258 Y2.5631 I0.0721 J-0.0317
X1.2398 Y2.5571 I-0.0236 J-0.0751 F50.
G3 X1.2547 Y2.5574 I0.0071 J0.0131
G1 X1.2654 Y2.5644 F60.
X1.2705 Y2.5676
G3 X1.1984 Y2.7425 I-0.0914 J0.0646
X1.0626 Y2.6507 I0.973 J-1.5863
X1.059 Y2.6362 I0.0108 J-0.0103
X1.1126 Y2.6084 I0.04 J0.0116
X1.1922 Y2.7139 I-0.0383 J0.1117
X1.192 Y2.7292 I-0.1179 J0.0062 F50.
G2 X1.1984 Y2.7427 I0.0149 J0.0011
G1 X1.2192 Y2.7559 F60.
X1.2255 Y2.7599
G2 X1.3777 Y2.6464 I0.0306 J-0.1178
X1.2705 Y2.5676 I-0.3645 J0.3833
X1.2556 Y2.5677 I-0.0074 J0.0129
X1.2506 Y2.5898 I0.0078 J0.0134
X1.3487 Y2.6418 I0.0979 J-0.0661
X1.3639 Y2.6408 I-0.0002 J-0.1181 F50.
G3 X1.3777 Y2.6464 I0.002 J0.0148
G1 X1.3824 Y2.6524 F60.
X1.3867 Y2.6587
X1.3904 Y2.6653
X1.3935 Y2.6722
X1.3961 Y2.6793
X1.398 Y2.6867
X1.3994 Y2.6941
X1.4002 Y2.7017
X1.4003 Y2.7093
X1.3998 Y2.7168
X1.3987 Y2.7243
X1.3969 Y2.7317
X1.3946 Y2.7389
X1.3917 Y2.7459
X1.3882 Y2.7527
X1.3842 Y2.7591
X1.3797 Y2.7652
X1.3746 Y2.7709
X1.3692 Y2.7761
X1.3633 Y2.7809
X1.357 Y2.7852
X1.3505 Y2.789
X1.3436 Y2.7922
X1.3365 Y2.7948
X1.3292 Y2.7969
X1.3217 Y2.7983
X1.3142 Y2.7991
X1.3066 Y2.7993
X1.299 Y2.7989
X1.2915 Y2.7979
X1.2841 Y2.7962
X1.2769 Y2.794
X1.2698 Y2.7911
X1.2631 Y2.7877
X1.2566 Y2.7838
X1.2505 Y2.7793
X1.2447 Y2.7743
X1.2394 Y2.7689
X1.2346 Y2.7631
X1.2302 Y2.7569
X1.2283 Y2.7563
X1.2265 Y2.7554
X1.2248 Y2.7541
X1.2234 Y2.7524
X1.2223 Y2.7504
X1.2216 Y2.7481
X1.2213 Y2.7457
X1.2216 Y2.7432
X1.2223 Y2.7407
X1.2235 Y2.7383
X1.2253 Y2.7362
X1.2274 Y2.7343
X1.23 Y2.7331 Z-0.1297
X1.2325 Y2.7318 Z-0.1289
X1.2349 Y2.7307 Z-0.1275
X1.2369 Y2.7297 Z-0.1256
X1.2385 Y2.7289 Z-0.1234
X1.2398 Y2.7283 Z-0.1208
X1.2405 Y2.7279 Z-0.118
X1.2408 Y2.7278 Z-0.1151
G0 Z0.4
X3.6376 Y7.0094
Z0.1
G3 X3.5083 Y6.9518 Z0.0608 I-0.0646 J-0.0288 F50.
X3.6376 Y7.0094 Z0.0216 I0.0646 J0.0288
X3.5083 Y6.9518 Z-0.0176 I-0.0646 J-0.0288
X3.6376 Y7.0094 Z-0.0568 I0.0646 J0.0288
X3.5083 Y6.9518 Z-0.096 I-0.0646 J-0.0288
X3.6437 Y6.9806 Z-0.13 I0.0646 J0.0288
X3.5022 I-0.0708 J0.
X3.6437 I0.0708 J0.
X3.6528 Y7.0064 I-0.0163 J0.0202 F60.
X3.4666 Y6.9946 I-0.0896 J-0.0607
G1 X3.4624 Y6.9879
X3.4587 Y6.9808
X3.4555 Y6.9735
X3.4529 Y6.966
X3.4508 Y6.9583
X3.4494 Y6.9504
X3.4485 Y6.9425
X3.4482 Y6.9345
X3.4485 Y6.9265
X3.4494 Y6.9186
X3.4509 Y6.9108
X3.453 Y6.9031
X3.4556 Y6.8955
X3.4588 Y6.8882
X3.4626 Y6.8812
X3.4668 Y6.8744
X3.4716 Y6.868
X3.4768 Y6.862
X3.4824 Y6.8564
X3.4885 Y6.8512
X3.4949 Y6.8464
X3.5017 Y6.8422
X3.5087 Y6.8385
X3.5161 Y6.8353
X3.5236 Y6.8327
X3.5313 Y6.8306
X3.5391 Y6.8292
X3.5471 Y6.8283
X3.555 Y6.828
X3.563 Y6.8283
G3 X3.6651 Y6.9806 I-0.1557 J0.2148
G1 X3.6528 Y7.0064
G3 X3.6382 Y7.0144 I-0.0132 J-0.0069
G1 X3.625 Y7.0131
X3.4964 Y7.0006
G3 X3.4666 Y6.9946 I-0.0082 J-0.0362 F50.
G1 X3.4526 Y6.9806 F60.
X3.4345 Y6.9633
X3.412 Y6.9409
X3.4077 Y6.9333
X3.4039 Y6.9255
X3.4007 Y6.9174
X3.398 Y6.9091
X3.396 Y6.9006
X3.3945 Y6.892
X3.3937 Y6.8833
X3.3935 Y6.8746
X3.3939 Y6.8659
X3.3949 Y6.8573
X3.3965 Y6.8487
X3.3987 Y6.8403
X3.4015 Y6.832
X3.4048 Y6.824
X3.4088 Y6.8162
X3.4132 Y6.8088
X3.4182 Y6.8016
X3.4237 Y6.7948
X3.4296 Y6.7885
X3.436 Y6.7825
X3.4427 Y6.777
X3.4499 Y6.7721
X3.4574 Y6.7676
X3.4651 Y6.7636
X3.4731 Y6.7603
X3.4814 Y6.7575
X3.4898 Y6.7552
X3.5268 Y6.7927
X3.5298 Y6.7956
X3.563 Y6.8282
G3 X3.5665 Y6.8427 I-0.0108 J0.0103
X3.5234 Y6.8576 I-0.0268 J-0.0079
X3.4907 Y6.7862 I0.0457 J-0.0641
X3.4936 Y6.7711 I0.0784 J0.0073 F50.
G2 X3.4901 Y6.7566 I-0.0143 J-0.0042
G1 X3.4826 Y6.7493 F60.
X3.4807 Y6.7474
X3.4761 Y6.7429
G2 X3.3108 Y6.8418 I-0.0518 J0.101
G3 X3.4054 Y6.9344 I-17.4999 J17.9758
G1 X3.412 Y6.9409
G2 X3.437 Y6.9294 I0.0101 J-0.0109
X3.4272 Y6.8987 I-0.0599 J0.0022
X3.341 Y6.846 I-0.0988 J0.0648
X3.3219 Y6.8455 I-0.0126 J0.1174 F50.
G3 X3.3111 Y6.8418 I-0.0008 J-0.0149
G1 X3.2961 Y6.8273 F60.
X3.2912 Y6.8225
X3.2873 Y6.8149
X3.284 Y6.807
X3.2812 Y6.7989
X3.2791 Y6.7907
X3.2775 Y6.7822
X3.2766 Y6.7737
X3.2763 Y6.7652
X3.2767 Y6.7566
X3.2776 Y6.7481
X3.2792 Y6.7397
X3.2814 Y6.7314
X3.2842 Y6.7234
X3.2875 Y6.7155
X3.2915 Y6.7079
X3.2959 Y6.7006
X3.3009 Y6.6937
X3.3064 Y6.6871
X3.3124 Y6.681
X3.3188 Y6.6753
X3.3256 Y6.6701
X3.3327 Y6.6654
X3.3402 Y6.6612
X3.348 Y6.6576
X3.356 Y6.6546
X3.3642 Y6.6521
X3.3725 Y6.6503
X3.381 Y6.6491
X3.4761 Y6.7429
G3 X3.4649 Y6.7681 I-0.0108 J0.0103
X3.4276 Y6.754 I0.0016 J-0.0607
X3.3862 Y6.6794 I0.0756 J-0.0908
X3.3851 Y6.6602 I0.117 J-0.0161 F50.
G2 X3.381 Y6.6496 I-0.0149 J-0.0004
G1 X3.3635 Y6.6324 F60.
X3.3561 Y6.6288
X3.3484 Y6.6257
X3.3406 Y6.6232
X3.3326 Y6.6213
X3.3244 Y6.6199
X3.3162 Y6.6191
X3.308 Y6.6189
X3.2997 Y6.6193
X3.2915 Y6.6203
X3.2835 Y6.6218
X3.2755 Y6.624
X3.2677 Y6.6267
X3.2601 Y6.6299
X3.2528 Y6.6337
X3.2457 Y6.638
X3.239 Y6.6427
X3.2326 Y6.648
X3.2267 Y6.6536
X3.2211 Y6.6597
X3.216 Y6.6662
X3.2114 Y6.673
X3.2072 Y6.6802
X3.2036 Y6.6876
X3.2005 Y6.6952
X3.198 Y6.7031
X3.196 Y6.7111
X3.1946 Y6.7192
X3.1938 Y6.7274
G3 X3.2912 Y6.8225 I-13.2268 J13.6366
G2 X3.3123 Y6.8217 I0.0101 J-0.0109
X3.3158 Y6.7973 I-0.016 J-0.0148
X3.2243 Y6.7322 I-0.106 J0.0521
X3.2051 Y6.7314 I-0.0144 J0.1172 F50.
G3 X3.1944 Y6.7274 I-0.0006 J-0.0149
G1 X3.175 Y6.7083 F60.
X3.1713 Y6.7006
X3.1682 Y6.6927
X3.1656 Y6.6846
X3.1636 Y6.6764
X3.1623 Y6.668
X3.1615 Y6.6595
X3.1614 Y6.651
X3.1619 Y6.6426
X3.163 Y6.6341
X3.1647 Y6.6258
X3.167 Y6.6176
X3.1699 Y6.6097
X3.1734 Y6.6019
X3.1774 Y6.5944
X3.182 Y6.5873
X3.1871 Y6.5805
X3.1926 Y6.5741
X3.1987 Y6.5681
X3.2051 Y6.5625
X3.2119 Y6.5575
X3.2191 Y6.5529
X3.2266 Y6.5489
X3.2343 Y6.5454
X3.2423 Y6.5425
X3.2505 Y6.5402
X3.2588 Y6.5386
X3.2672 Y6.5375
X3.2941 Y6.5642
X3.2961 Y6.5661
X3.3635 Y6.6324
G3 X3.3523 Y6.6575 I-0.0108 J0.0103
X3.3169 Y6.6448 I0.0016 J-0.0602
X3.2724 Y6.5677 I0.0726 J-0.0932
X3.2714 Y6.5485 I0.117 J-0.0161 F50.
G2 X3.2673 Y6.5379 I-0.0149 J-0.0004
G1 X3.2499 Y6.5208 F60.
X3.2425 Y6.5171
X3.2349 Y6.5139
X3.227 Y6.5113
X3.219 Y6.5092
X3.2109 Y6.5077
X3.2026 Y6.5069
X3.1944 Y6.5066
X3.1861 Y6.5069
X3.1779 Y6.5078
X3.1697 Y6.5092
X3.1617 Y6.5113
X3.1539 Y6.5139
X3.1463 Y6.5171
X3.1389 Y6.5208
X3.1318 Y6.5251
X3.125 Y6.5298
X3.1186 Y6.535
X3.1125 Y6.5407
X3.1069 Y6.5468
X3.1018 Y6.5532
X3.0971 Y6.5601
X3.0929 Y6.5672
X3.0893 Y6.5746
X3.0862 Y6.5823
X3.0836 Y6.5902
X3.0816 Y6.5982
X3.0802 Y6.6063
X3.0794 Y6.6146
G2 X3.175 Y6.7083 I7.4129 J-7.4692
X3.1961 Y6.7074 I0.0101 J-0.011
X3.1995 Y6.6812 I-0.0168 J-0.0155
X3.1095 Y6.6193 I-0.1043 J0.0554
X3.0903 Y6.6185 I-0.0143 J0.1172 F50.
G3 X3.0796 Y6.6146 I-0.0006 J-0.0149
G1 X3.0754 Y6.6105 F60.
X3.0653 Y6.6007
X3.0585 Y6.594
G3 X3.1528 Y6.4256 I0.1089 J-0.0497
G1 X3.2499 Y6.5208
G3 X3.2493 Y6.5419 I-0.0108 J0.0103
X3.2266 Y6.5457 I-0.0143 J-0.015
X3.1583 Y6.4553 I0.0486 J-0.1077
X3.157 Y6.4362 I0.1168 J-0.0173 F50.
G2 X3.1528 Y6.4256 I-0.0149 J-0.0002
G1 X3.1348 Y6.4079 F60.
X3.1274 Y6.4043
X3.1197 Y6.4012
X3.1118 Y6.3986
X3.1038 Y6.3967
X3.0956 Y6.3953
X3.0874 Y6.3944
X3.0791 Y6.3942
X3.0708 Y6.3945
X3.0626 Y6.3955
X3.0545 Y6.397
X3.0465 Y6.3991
X3.0386 Y6.4017
X3.031 Y6.405
X3.0236 Y6.4087
X3.0165 Y6.4129
X3.0098 Y6.4177
X3.0033 Y6.4229
X2.9973 Y6.4286
X2.9917 Y6.4346
X2.9865 Y6.4411
X2.9818 Y6.4479
X2.9776 Y6.455
X2.9739 Y6.4624
X2.9708 Y6.4701
X2.9682 Y6.4779
X2.9661 Y6.486
X2.9647 Y6.4941
X2.9638 Y6.5023
G3 X3.0585 Y6.594 I-3.8848 J4.1084
G2 X3.073 Y6.5973 I0.0101 J-0.011
X3.0823 Y6.5861 I-0.0039 J-0.0126
X2.994 Y6.502 I-0.0785 J-0.0059
X2.9791 Y6.5054 I0.0097 J0.0781 F50.
G3 X2.9645 Y6.5024 I-0.0047 J-0.0141
G1 X2.948 Y6.4867 F60.
X2.944 Y6.4794
X2.9405 Y6.4718
X2.9376 Y6.464
X2.9352 Y6.456
X2.9335 Y6.4479
X2.9323 Y6.4397
X2.9317 Y6.4314
Y6.423
X2.9324 Y6.4147
X2.9336 Y6.4065
X2.9354 Y6.3984
X2.9378 Y6.3904
X2.9407 Y6.3826
X2.9443 Y6.3751
X2.9483 Y6.3678
X2.9529 Y6.3609
X2.9579 Y6.3542
X2.9635 Y6.348
X2.9694 Y6.3422
X2.9758 Y6.3368
X2.9825 Y6.3319
X2.9896 Y6.3276
X2.9969 Y6.3237
X3.0046 Y6.3204
X3.0124 Y6.3176
X3.0204 Y6.3154
X3.0286 Y6.3138
X3.0369 Y6.3128
G2 X3.1348 Y6.4079 I2.2431 J-2.2097
G3 X3.1236 Y6.4331 I-0.0108 J0.0103
X3.0861 Y6.4196 I0.0015 J-0.0631
X3.0421 Y6.3431 I0.073 J-0.0929
X3.041 Y6.3239 I0.117 J-0.0163 F50.
G2 X3.0369 Y6.3133 I-0.0149 J-0.0004
G1 X3.0191 Y6.2959 F60.
X3.0117 Y6.2923
X3.0041 Y6.2892
X2.9962 Y6.2867
X2.9882 Y6.2847
X2.9801 Y6.2833
X2.9719 Y6.2825
X2.9636 Y6.2823
X2.9554 Y6.2826
X2.9472 Y6.2836
X2.9391 Y6.2851
X2.9311 Y6.2872
X2.9233 Y6.2899
X2.9157 Y6.2931
X2.9084 Y6.2968
X2.9013 Y6.3011
X2.8946 Y6.3059
X2.8882 Y6.3111
X2.8822 Y6.3167
X2.8766 Y6.3228
X2.8715 Y6.3292
X2.8668 Y6.336
X2.8627 Y6.3432
X2.859 Y6.3505
X2.8559 Y6.3582
X2.8533 Y6.366
X2.8513 Y6.374
X2.8499 Y6.3821
X2.849 Y6.3903
G2 X2.948 Y6.4867 I12.0382 J-12.2714
X2.9728 Y6.4747 I0.0099 J-0.0111
X2.9622 Y6.4443 I-0.0586 J0.0034
X2.8796 Y6.395 I-0.0966 J0.068
X2.8604 Y6.3943 I-0.0139 J0.1173 F50.
G3 X2.8497 Y6.3904 I-0.0007 J-0.0149
G1 X2.8382 Y6.3792 F60.
X2.8345 Y6.3755
X2.8302 Y6.3712
X2.8265 Y6.3635
X2.8234 Y6.3556
X2.8208 Y6.3475
X2.8189 Y6.3393
X2.8176 Y6.3309
X2.8168 Y6.3224
X2.8167 Y6.314
X2.8173 Y6.3055
X2.8184 Y6.2971
X2.8201 Y6.2888
X2.8225 Y6.2806
X2.8254 Y6.2726
X2.8289 Y6.2649
X2.833 Y6.2575
X2.8376 Y6.2503
X2.8427 Y6.2435
X2.8483 Y6.2371
X2.8543 Y6.2312
X2.8607 Y6.2257
X2.8676 Y6.2206
X2.8747 Y6.2161
X2.8822 Y6.2121
X2.89 Y6.2087
X2.898 Y6.2058
X2.9062 Y6.2036
X2.9145 Y6.2019
X2.9229 Y6.2008
G2 X3.0191 Y6.2959 I10.1769 J-10.2081
G3 X3.0184 Y6.317 I-0.0109 J0.0102
X2.9904 Y6.3207 I-0.0167 J-0.0179
X2.9278 Y6.2311 I0.0546 J-0.1047
X2.9269 Y6.212 I0.1171 J-0.0151 F50.
G2 X2.9229 Y6.2013 I-0.0149 J-0.0005
G1 X2.9158 Y6.1941 F60.
X2.9061 Y6.1847
X2.8987 Y6.1809
X2.8911 Y6.1776
X2.8832 Y6.1749
X2.8752 Y6.1728
X2.867 Y6.1712
X2.8588 Y6.1702
X2.8505 Y6.1699
X2.8422 Y6.1701
X2.8339 Y6.1709
X2.8257 Y6.1723
X2.8177 Y6.1744
X2.8098 Y6.1769
X2.8021 Y6.1801
X2.7946 Y6.1838
X2.7875 Y6.188
X2.7806 Y6.1927
X2.7741 Y6.1979
X2.768 Y6.2035
X2.7624 Y6.2096
X2.7571 Y6.2161
X2.7524 Y6.2229
X2.7482 Y6.2301
X2.7445 Y6.2375
X2.7413 Y6.2452
X2.7387 Y6.2531
X2.7366 Y6.2611
X2.7352 Y6.2693
X2.7343 Y6.2776
X2.7884 Y6.3301
X2.7912 Y6.3329
X2.8302 Y6.3712
G2 X2.8402 Y6.3751 I0.0101 J-0.011
X2.8551 Y6.3595 I0. J-0.0149
X2.8406 Y6.3227 I-0.0607 J0.0027
X2.7648 Y6.2822 I-0.0898 J0.0768
X2.7456 Y6.2815 I-0.014 J0.1173 F50.
G3 X2.7349 Y6.2776 I-0.0007 J-0.0149
G1 X2.7148 Y6.2578 F60.
X2.7112 Y6.2502
X2.7082 Y6.2423
X2.7058 Y6.2342
X2.7039 Y6.2259
X2.7027 Y6.2175
X2.7021 Y6.2091
Y6.2007
X2.7027 Y6.1922
X2.7039 Y6.1839
X2.7057 Y6.1756
X2.7081 Y6.1675
X2.7111 Y6.1596
X2.7146 Y6.1519
X2.7187 Y6.1445
X2.7233 Y6.1374
X2.7284 Y6.1307
X2.734 Y6.1243
X2.74 Y6.1184
X2.7465 Y6.1129
X2.7533 Y6.108
X2.7605 Y6.1035
X2.7679 Y6.0995
X2.7757 Y6.0961
X2.7836 Y6.0933
X2.7918 Y6.091
X2.8001 Y6.0894
X2.8085 Y6.0883
G2 X2.9061 Y6.1847 I20.7753 J-20.9529
G3 X2.9056 Y6.2058 I-0.0108 J0.0103
X2.882 Y6.2098 I-0.0148 J-0.0155
X2.8137 Y6.1186 I0.0487 J-0.1076
X2.8126 Y6.0994 I0.117 J-0.0164 F50.
G2 X2.8085 Y6.0888 I-0.0149 J-0.0003
G1 X2.7884 Y6.0691 F60.
X2.7802 Y6.0658
X2.7718 Y6.0631
X2.7633 Y6.0609
X2.7546 Y6.0594
X2.7458 Y6.0585
X2.737 Y6.0583
X2.7282 Y6.0586
X2.7194 Y6.0596
X2.7107 Y6.0612
X2.7022 Y6.0634
X2.6938 Y6.0663
X2.6857 Y6.0697
X2.6778 Y6.0737
X2.6703 Y6.0782
X2.6631 Y6.0833
X2.6562 Y6.0888
X2.6498 Y6.0949
X2.6438 Y6.1013
X2.6383 Y6.1082
X2.6333 Y6.1155
X2.6288 Y6.1231
X2.6249 Y6.131
X2.6215 Y6.1392
X2.6188 Y6.1475
X2.6166 Y6.1561
X2.6151 Y6.1648
X2.6142 Y6.1735
X2.6139 Y6.1823
X2.6142 Y6.1912
X2.6152 Y6.1999
X2.6341 Y6.1995
X2.6499 Y6.1996
X2.6961 Y6.2394
X2.7148 Y6.2578
G2 X2.7248 Y6.2617 I0.0101 J-0.011
X2.7358 Y6.2569 I0. J-0.0149
X2.7214 Y6.1784 I-0.0369 J-0.0338
X2.6434 Y6.1825 I-0.0354 J0.0704
X2.6287 Y6.1948 I0.0426 J0.0662 F50.
G3 X2.6183 Y6.1995 I-0.0109 J-0.0102
G1 X2.6064 Y6.1994 F60.
X2.5999 Y6.1951
X2.5937 Y6.1904
X2.5878 Y6.1852
X2.5824 Y6.1795
X2.5774 Y6.1735
X2.5729 Y6.1671
X2.5688 Y6.1604
X2.5653 Y6.1534
X2.5623 Y6.1462
X2.5599 Y6.1387
X2.558 Y6.1311
X2.5567 Y6.1234
X2.556 Y6.1156
X2.5559 Y6.1078
X2.5564 Y6.1
X2.5574 Y6.0922
X2.559 Y6.0846
X2.5612 Y6.0771
X2.564 Y6.0697
X2.5673 Y6.0626
X2.5711 Y6.0558
X2.5755 Y6.0493
X2.5803 Y6.0431
X2.5855 Y6.0373
X2.5912 Y6.0319
X2.5972 Y6.027
X2.6037 Y6.0225
X2.6104 Y6.0185
X2.6174 Y6.015
G3 X2.7884 Y6.0691 I0.0464 J0.1505
X2.7918 Y6.0836 I-0.0109 J0.0102
X2.7654 Y6.1029 I-0.026 J-0.0079
X2.6372 Y6.0339 I0.0021 J-0.1575
X2.6292 Y6.0208 I0.1303 J-0.0884 F50.
G2 X2.6165 Y6.013 I-0.0131 J0.0071
G1 X2.568 Y6.0135 F60.
X2.5595 Y6.0157
X2.5511 Y6.0185
X2.5429 Y6.0219
X2.535 Y6.0258
X2.5274 Y6.0303
X2.5202 Y6.0354
X2.5133 Y6.0409
X2.5068 Y6.0469
X2.5008 Y6.0534
X2.4952 Y6.0603
X2.4902 Y6.0675
X2.4857 Y6.0751
X2.4817 Y6.083
X2.4783 Y6.0912
X2.4755 Y6.0995
X2.4733 Y6.1081
X2.4717 Y6.1168
X2.4707 Y6.1256
X2.4704 Y6.1344
X2.4706 Y6.1432
X2.4715 Y6.152
X2.4731 Y6.1607
X2.4752 Y6.1693
X2.478 Y6.1777
X2.4813 Y6.1858
X2.4852 Y6.1938
X2.4897 Y6.2014
X2.6052 Y6.1994
X2.6064
G2 X2.6191 Y6.1916 I-0.0005 J-0.0149
X2.6085 Y6.1583 I-0.0214 J-0.0115
X2.5121 Y6.1796 I-0.035 J0.0705
X2.5037 Y6.1925 I0.0615 J0.0492 F50.
G3 X2.4912 Y6.2004 I-0.0132 J-0.0069
G1 X2.4703 Y6.2006 F60.
G3 X2.4233 Y6.0148 I0.0334 J-0.1073
G1 X2.568 Y6.0135
G3 X2.5807 Y6.0212 I-0.0004 J0.0149
X2.5455 Y6.084 I-0.0373 J0.0203
X2.4442 Y6.0355 I-0.0058 J-0.118
X2.436 Y6.0226 I0.0955 J-0.0695 F50.
G2 X2.4233 Y6.0148 I-0.0131 J0.0071
G1 X2.3961 Y6.0151 F60.
X2.3882 Y6.0176
X2.3805 Y6.0207
X2.373 Y6.0243
X2.3658 Y6.0284
X2.3589 Y6.033
X2.3523 Y6.0382
X2.3462 Y6.0437
X2.3404 Y6.0497
X2.3351 Y6.0561
X2.3303 Y6.0628
X2.3259 Y6.0699
X2.3221 Y6.0773
X2.3188 Y6.0849
X2.316 Y6.0927
X2.3138 Y6.1008
X2.3122 Y6.1089
X2.3112 Y6.1171
X2.3107 Y6.1254
X2.3109 Y6.1337
X2.3116 Y6.142
X2.3129 Y6.1502
X2.3148 Y6.1583
X2.3173 Y6.1662
X2.3204 Y6.174
X2.3239 Y6.1815
X2.328 Y6.1887
X2.3326 Y6.1956
X2.3377 Y6.2022
X2.4703 Y6.2006
G2 X2.4829 Y6.1926 I-0.0007 J-0.0149
X2.4817 Y6.1808 I-0.0097 J-0.005
G1 X2.4799 Y6.1787
G2 X2.359 Y6.1811 I-0.0595 J0.0516
X2.3506 Y6.1939 I0.0615 J0.0492 F50.
G3 X2.3381 Y6.2019 I-0.0132 J-0.0069
G1 X2.3142 Y6.2021 F60.
X2.3063 Y6.1996
X2.2987 Y6.1965
X2.2912 Y6.1929
X2.2841 Y6.1887
X2.2773 Y6.1841
X2.2708 Y6.1789
X2.2647 Y6.1734
X2.2591 Y6.1674
X2.2538 Y6.161
X2.2491 Y6.1542
X2.2448 Y6.1472
X2.2411 Y6.1398
X2.2379 Y6.1322
X2.2352 Y6.1244
X2.2331 Y6.1164
X2.2316 Y6.1083
X2.2307 Y6.1001
X2.2303 Y6.0918
X2.2306 Y6.0836
X2.2314 Y6.0754
X2.2328 Y6.0673
X2.2348 Y6.0592
X2.2374 Y6.0514
X2.2405 Y6.0438
X2.2442 Y6.0364
X2.2484 Y6.0293
X2.2531 Y6.0225
X2.2582 Y6.016
X2.3961 Y6.0151
G3 X2.406 Y6.0408 I-0.0004 J0.0149
X2.3774 Y6.0555 I-0.0397 J-0.0418
X2.2834 Y6.0338 I-0.0227 J-0.1159
X2.269 Y6.021 I0.0713 J-0.0942 F50.
G2 X2.2586 Y6.0164 I-0.0108 J0.0103
G1 X2.2346 Y6.0166 F60.
X2.2267 Y6.0191
X2.2189 Y6.0222
X2.2115 Y6.0259
X2.2043 Y6.03
X2.1974 Y6.0347
X2.1909 Y6.0399
X2.1848 Y6.0455
X2.1791 Y6.0515
X2.1738 Y6.0579
X2.169 Y6.0647
X2.1647 Y6.0718
X2.161 Y6.0792
X2.1577 Y6.0869
X2.1551 Y6.0948
X2.153 Y6.1028
X2.1514 Y6.111
X2.1505 Y6.1192
X2.1502 Y6.1275
X2.1504 Y6.1358
X2.1513 Y6.1441
X2.1527 Y6.1523
X2.1548 Y6.1603
X2.1574 Y6.1682
X2.1605 Y6.1759
X2.1642 Y6.1833
X2.1684 Y6.1905
X2.1732 Y6.1973
X2.1784 Y6.2038
X2.3142 Y6.2021
G2 X2.3236 Y6.1762 I-0.0007 J-0.0149
X2.2905 Y6.161 I-0.0402 J0.044
X2.2033 Y6.1855 I-0.0142 J0.1173
X2.1892 Y6.1985 I0.0731 J0.0928 F50.
G3 X2.1789 Y6.2034 I-0.011 J-0.0101
G1 X2.1501 Y6.2036 F60.
G3 X2.0978 Y6.0179 I0.0411 J-0.1118
G1 X2.2346 Y6.0166
G3 X2.2491 Y6.0319 I-0.0004 J0.0149
X2.2347 Y6.0519 I-0.022 J-0.0006
X2.1225 Y6.0353 I-0.0409 J-0.1108
X2.1082 Y6.0225 I0.0713 J-0.0942 F50.
G2 X2.0978 Y6.0179 I-0.0108 J0.0103
G1 X2.073 Y6.0181 F60.
X2.0652 Y6.0207
X2.0575 Y6.0239
X2.0501 Y6.0276
X2.043 Y6.0318
X2.0362 Y6.0365
X2.0297 Y6.0417
X2.0237 Y6.0473
X2.018 Y6.0534
X2.0128 Y6.0598
X2.0081 Y6.0666
X2.0038 Y6.0737
X2.0001 Y6.0811
X1.9969 Y6.0888
X1.9943 Y6.0966
X1.9923 Y6.1046
X1.9908 Y6.1128
X1.9899 Y6.121
X1.9896 Y6.1293
X1.9898 Y6.1376
X1.9907 Y6.1458
X1.9922 Y6.154
X1.9942 Y6.162
X1.9968 Y6.1698
X2. Y6.1775
X2.0037 Y6.1849
X2.0079 Y6.192
X2.0126 Y6.1988
X2.0178 Y6.2053
X2.1501 Y6.2036
G2 X2.1627 Y6.1956 I-0.0007 J-0.0149
X2.1613 Y6.1831 I-0.0101 J-0.0053
G1 X2.1601 Y6.1816
G2 X2.0392 Y6.184 I-0.0594 J0.0517
X2.0308 Y6.1969 I0.0615 J0.0492 F50.
G3 X2.0183 Y6.2049 I-0.0132 J-0.0069
G1 X1.9911 Y6.2051 F60.
X1.9831 Y6.2023
X1.9753 Y6.1989
X1.9678 Y6.195
X1.9607 Y6.1905
X1.9538 Y6.1855
X1.9473 Y6.18
X1.9413 Y6.174
X1.9357 Y6.1677
X1.9306 Y6.1609
X1.9259 Y6.1538
X1.9218 Y6.1464
X1.9183 Y6.1387
X1.9153 Y6.1307
X1.913 Y6.1226
X1.9112 Y6.1143
X1.91 Y6.1059
X1.9094 Y6.0975
X1.9095 Y6.089
X1.9102 Y6.0805
X1.9114 Y6.0722
X1.9133 Y6.0639
X1.9158 Y6.0558
X1.9189 Y6.0479
X1.9225 Y6.0402
X1.9267 Y6.0329
X1.9314 Y6.0258
X1.9366 Y6.0191
X2.073 Y6.0181
G3 X2.0829 Y6.0438 I-0.0004 J0.0149
X2.0516 Y6.0593 I-0.0406 J-0.0427
X1.9617 Y6.0368 I-0.0186 J-0.1166
X1.9474 Y6.024 I0.0713 J-0.0942 F50.
G2 X1.9369 Y6.0194 I-0.0108 J0.0103
G1 X1.9115 Y6.0196 F60.
G2 X1.8388 Y6.1625 I0.0344 J0.1075
G1 X1.8654 Y6.1929
X1.8682 Y6.1941
X1.9115 Y6.2059
X1.9911 Y6.2051
G2 X2.0037 Y6.1971 I-0.0007 J-0.0149
G1 X2.0022 Y6.1917
X1.9943 Y6.187
G2 X1.8681 Y6.1639 I-0.0967 J0.1715
G1 X1.853 Y6.1668 F50.
G3 X1.8388 Y6.1625 I-0.0034 J-0.0145
X1.9114 Y6.0211 I0.0681 J-0.0544 F60.
G1 X1.914 Y6.0213
X1.9165 Y6.0219
X1.9188 Y6.023
X1.9209 Y6.0246
X1.9227 Y6.0265
X1.9241 Y6.0288
X1.9251 Y6.0313
X1.9256 Y6.034
Y6.0367
X1.925 Y6.0395
X1.924 Y6.042
X1.9225 Y6.0446 Z-0.1297
X1.9211 Y6.047 Z-0.1289
X1.9198 Y6.0492 Z-0.1275
X1.9187 Y6.0511 Z-0.1256
X1.9177 Y6.0527 Z-0.1234
X1.917 Y6.0539 Z-0.1208
X1.9166 Y6.0547 Z-0.118
X1.9164 Y6.0549 Z-0.1151
G0 Z0.4
X2.1146 Y4.3261
Z0.1
G3 X1.9853 Y4.2685 Z0.0608 I-0.0646 J-0.0288 F50.
X2.1146 Y4.3261 Z0.0216 I0.0646 J0.0288
X1.9853 Y4.2685 Z-0.0176 I-0.0646 J-0.0288
X2.1146 Y4.3261 Z-0.0568 I0.0646 J0.0288
X1.9853 Y4.2685 Z-0.096 I-0.0646 J-0.0288
X2.1207 Y4.2973 Z-0.13 I0.0646 J0.0288
X1.9792 I-0.0708 J0.
X2.1207 I0.0708 J0.
X2.1329 Y4.3252 I-0.0281 J0.0289 F60.
G1 X2.1299 Y4.3436
X2.1246 Y4.3794
X2.1212 Y4.3868
X2.1172 Y4.3938
X2.1127 Y4.4006
X2.1078 Y4.407
X2.1023 Y4.413
X2.0965 Y4.4186
X2.0902 Y4.4237
X2.0836 Y4.4284
X2.0766 Y4.4325
X2.0694 Y4.4362
X2.0619 Y4.4392
X2.0542 Y4.4418
X2.0463 Y4.4437
X2.0383 Y4.445
X2.0303 Y4.4458
X2.0222 Y4.4459
X2.0141 Y4.4454
X2.006 Y4.4444
X1.9981 Y4.4427
X1.9903 Y4.4405
X1.9827 Y4.4377
X1.9754 Y4.4343
X1.9683 Y4.4304
X1.9615 Y4.4259
X1.955 Y4.421
X1.949 Y4.4156
X1.9434 Y4.4098
X1.9382 Y4.4036
X1.9335 Y4.397
G2 X1.9606 Y4.2254 I-6.4237 J-1.1052
G3 X2.1548 Y4.1856 I0.1077 J0.0318
G1 X2.1519 Y4.2048
X2.145 Y4.251
X2.1329 Y4.3252
G3 X2.1231 Y4.3364 I-0.0146 J-0.0029
X2.0697 Y4.2927 I-0.0131 J-0.0385
X2.131 Y4.2039 I0.1171 J0.0153
X2.1449 Y4.1976 I0.0559 J0.1041 F50.
G2 X2.1543 Y4.186 I-0.0053 J-0.0139
G1 X2.1578 Y4.1585 F60.
G2 X2.0661 Y4.0684 I-0.1056 J0.0158
X1.9651 Y4.2241 I0.0158 J0.1209
G1 X1.9642 Y4.2262
X1.9638 Y4.2286
X1.9639 Y4.231
X1.9645 Y4.2334
X1.9657 Y4.2358
X1.9673 Y4.2379
X1.9694 Y4.2396
X1.9719 Y4.2409
X1.9747 Y4.2417
X1.9776 Y4.2419
X1.9806 Y4.2415
G2 X1.9701 Y4.2136 I-0.0053 J-0.0139
X1.9606 Y4.2259 I0.0053 J0.0139
G1 X1.9435 Y4.3765
G2 X1.9731 Y4.3799 I0.0148 J0.0017
X1.9467 Y4.3688 I-0.0148 J-0.0017
X1.9337 Y4.3968 I0.0483 J0.0394 F50.
G1 X1.9291 Y4.4277 F60.
G2 X2.1217 Y4.5047 I0.1169 J-0.013
G1 X2.1106 Y4.4824
X2.1162 Y4.4361
X2.1246 Y4.3794
G2 X2.1115 Y4.3629 I-0.0148 J-0.0017
X2.0615 Y4.3942 I-0.0053 J0.0471
X2.0941 Y4.4875 I0.0742 J0.0264
X2.1115 Y4.4955 I0.0415 J-0.0669 F50.
G3 X2.1202 Y4.5029 I-0.0046 J0.0142
G1 X2.1265 Y4.5164 F60.
G3 X1.956 Y4.5962 I-0.1096 J-0.012
X1.9629 Y4.5757 I0.0132 J-0.007
G1 X1.9689 Y4.5729
X2.0996 Y4.513
X2.1071 Y4.5096 F50.
G3 X2.1265 Y4.5164 I0.0062 J0.0135
G1 X2.1307 Y4.5229 F60.
X2.1343 Y4.5298
X2.1373 Y4.5369
X2.1398 Y4.5443
X2.1416 Y4.5518
X2.1429 Y4.5594
X2.1435 Y4.5672
Y4.5749
X2.1428 Y4.5826
X2.1416 Y4.5903
X2.1397 Y4.5978
X2.1373 Y4.6051
X2.1342 Y4.6123
X2.1306 Y4.6191
X2.1265 Y4.6257
X2.1218 Y4.6319
X2.1167 Y4.6376
X2.1111 Y4.643
X2.1051 Y4.6479
X2.0987 Y4.6523
X2.092 Y4.6562
X2.085 Y4.6595
X2.0777 Y4.6622
X2.0703 Y4.6643
X2.0627 Y4.6659
X2.055 Y4.6668
X2.0473 Y4.6671
X2.0395 Y4.6668
X2.0318 Y4.6658
X2.0242 Y4.6643
X2.0168 Y4.6621
X2.0096 Y4.6593
X2.0026 Y4.656
X1.9959 Y4.6521
X1.9895 Y4.6477
X1.9835 Y4.6428
X1.978 Y4.6374
X1.9729 Y4.6316
X1.9682 Y4.6254
X1.9641 Y4.6188
X1.9605 Y4.612
X1.9575 Y4.6048
X1.9551 Y4.5975
X1.9532 Y4.59
X1.952 Y4.5823
X1.9514 Y4.5746
G3 X1.9291 Y4.4277 I0.1449 J-0.0971
X1.9586 Y4.4321 I0.0147 J0.0022
X1.9291 Y4.4277 I-0.0147 J-0.0022
X1.9313 Y4.4219 I0.0147 J0.0022
G1 X2.1184 Y4.1257
G3 X2.1455 Y4.1302 I0.0126 J0.008
G2 X2.1578 Y4.1585 I0.0847 J-0.0201 F50.
X2.0661 Y4.0679 I-0.0894 J-0.0013 F60.
G1 X2.0634 Y4.068
X2.0607 Y4.0687
X2.0583 Y4.0697
X2.056 Y4.0712
X2.0541 Y4.073
X2.0526 Y4.0752
X2.051 Y4.0776 Z-0.1297
X2.0495 Y4.0799 Z-0.1289
X2.0481 Y4.0821 Z-0.1275
X2.0468 Y4.084 Z-0.1256
X2.0458 Y4.0856 Z-0.1234
X2.0451 Y4.0867 Z-0.1208
X2.0446 Y4.0874 Z-0.118
X2.0445 Y4.0877 Z-0.1151
G0 Z0.4
X-0.8991 Y2.229
Z-0.1002
G1 Z-0.1151 F50.
X-0.8992 Y2.2288 Z-0.118
X-0.8994 Y2.2279 Z-0.1208
X-0.8997 Y2.2266 Z-0.1234
X-0.9002 Y2.2248 Z-0.1256
X-0.9007 Y2.2226 Z-0.1275
X-0.9014 Y2.2201 Z-0.1289
X-0.9021 Y2.2174 Z-0.1297
X-0.9028 Y2.2146 Z-0.13
G3 X-0.9145 Y2.1335 I0.3685 J-0.0944
X-0.6989 Y2.0647 I0.1166 J-0.0066 F60.
X-0.727 Y2.3546 I-0.1042 J0.1362
G2 X-0.8828 Y2.7783 I0.7232 J0.5063
G3 X-1.162 Y2.9587 I-0.2069 J-0.014
X-1.2503 Y2.6615 I0.1099 J-0.1943
X-1.2189 Y2.5103 I0.5528 J0.0359
X-0.8952 Y1.9385 I0.9366 J0.1526
G1 X-0.8828 Y1.9345
X-0.8702 Y1.9311
X-0.8575 Y1.9284
X-0.8446 Y1.9262
X-0.8317 Y1.9247
X-0.8187 Y1.9238
X-0.8056 Y1.9235
X-0.7926 Y1.9238
X-0.7796 Y1.9248
X-0.7667 Y1.9264
X-0.7538 Y1.9286
X-0.7411 Y1.9315
X-0.7285 Y1.9349
X-0.7161 Y1.9389
X-0.7039 Y1.9436
X-0.692 Y1.9488
X-0.6803 Y1.9546
X-0.6689 Y1.9609
X-0.6578 Y1.9678
X-0.6471 Y1.9752
X-0.6368 Y1.9831
X-0.6268 Y1.9915
X-0.6172 Y2.0004
X-0.6081 Y2.0097
X-0.5995 Y2.0195
X-0.5913 Y2.0296
X-0.5836 Y2.0402
X-0.5765 Y2.051
X-0.5698 Y2.0623
X-0.5637 Y2.0738
X-0.5582 Y2.0856
X-0.5533 Y2.0977
X-0.5489 Y2.11
X-0.5452 Y2.1224
X-0.542 Y2.1351
X-0.5395 Y2.1479
X-0.5375 Y2.1608
X-0.5362 Y2.1737
X-0.5356 Y2.1868
X-0.5355 Y2.1998
X-0.5361 Y2.2128
X-0.5373 Y2.2258
X-0.5391 Y2.2387
X-0.5415 Y2.2515
X-0.5446 Y2.2642
X-0.5483 Y2.2767
X-0.5525 Y2.289
X-0.5574 Y2.3011
X-0.5628 Y2.313
X-0.5688 Y2.3246
X-0.5753 Y2.3358
X-0.5824 Y2.3468
X-0.59 Y2.3574
X-0.5981 Y2.3676
X-0.6067 Y2.3774
X-0.6157 Y2.3868
X-0.6252 Y2.3957
X-0.6351 Y2.4042
X-0.6454 Y2.4122
X-0.6561 Y2.4197
X-0.6671 Y2.4267
G2 X-0.7539 Y2.6535 I1.2732 J0.6173
X-0.8751 Y2.9338 I0.7039 J0.4706
G1 X-0.881 Y2.9446
X-0.8875 Y2.9551
X-0.8945 Y2.9653
X-0.902 Y2.9752
X-0.91 Y2.9846
X-0.9184 Y2.9937
X-0.9272 Y3.0023
X-0.9365 Y3.0105
X-0.9461 Y3.0183
X-0.9562 Y3.0255
X-0.9665 Y3.0323
X-0.9772 Y3.0385
X-0.9882 Y3.0442
X-0.9994 Y3.0494
X-1.0109 Y3.054
X-1.0226 Y3.058
X-1.0344 Y3.0615
X-1.0465 Y3.0643
X-1.0586 Y3.0666
X-1.0709 Y3.0683
X-1.0832 Y3.0694
X-1.0956 Y3.0698
X-1.1079 Y3.0697
X-1.1203 Y3.069
X-1.1326 Y3.0676
X-1.1448 Y3.0657
X-1.1569 Y3.0631
X-1.1688 Y3.06
X-1.1806 Y3.0563
X-1.1922 Y3.052
X-1.2036 Y3.0472
X-1.2147 Y3.0418
X-1.2256 Y3.0358
X-1.2361 Y3.0294
X-1.2463 Y3.0224
X-1.2562 Y3.015
X-1.2657 Y3.007
X-1.2748 Y2.9986
X-1.2834 Y2.9898
X-1.2916 Y2.9806
X-1.2994 Y2.9709
X-1.3067 Y2.961
X-1.3134 Y2.9506
X-1.3197 Y2.9399
X-1.3254 Y2.929
X-1.3306 Y2.9178
X-1.3353 Y2.9063
X-1.3214 Y2.551
G3 X-0.9893 Y1.8789 I1.1594 J0.1548
X-0.8854 Y1.8395 I0.1348 J0.1988
G1 X-0.7459
X-0.7319 Y1.8412
X-0.718 Y1.8435
X-0.7043 Y1.8464
X-0.6906 Y1.8499
X-0.6771 Y1.8539
X-0.6639 Y1.8586
X-0.6508 Y1.8637
X-0.6379 Y1.8695
X-0.6253 Y1.8757
X-0.613 Y1.8825
X-0.601 Y1.8898
X-0.5893 Y1.8976
X-0.5779 Y1.9059
X-0.5669 Y1.9147
X-0.5563 Y1.9239
X-0.5461 Y1.9336
X-0.5363 Y1.9437
X-0.5269 Y1.9541
X-0.518 Y1.965
X-0.5095 Y1.9763
X-0.5016 Y1.9879
X-0.4941 Y1.9998
X-0.4872 Y2.012
X-0.4807 Y2.0245
X-0.4748 Y2.0373
X-0.4695 Y2.0503
X-0.4647 Y2.0636
X-0.4645 Y2.2735
G3 X-0.5095 Y2.4033 I-0.235 J-0.0087
G1 X-0.512 Y2.4047
X-0.5147 Y2.4055
X-0.5175 Y2.4058
X-0.5203 Y2.4056
X-0.5231 Y2.4048
X-0.5256 Y2.4036
X-0.5279 Y2.4018
X-0.5298 Y2.3997
X-0.5312 Y2.3973
X-0.5322 Y2.3947
X-0.5327 Y2.3919
G3 X-0.532 Y2.3861 I0.0149 J-0.0011
G1 X-0.4935 Y2.2694
G3 X-0.487 Y2.2612 I0.0142 J0.0047
X-0.4645 Y2.2735 I0.0077 J0.0128 F50.
X-0.4677 Y2.3717 I-0.1519 J0.0441 F60.
G2 X-0.7539 Y2.6535 I0.4762 J0.7698
G3 X-0.7689 Y2.6599 I-0.0124 J-0.0082
G1 X-0.7823 Y2.6576
X-1.2993 Y2.5676
X-1.309 Y2.5659 F50.
G3 X-1.3214 Y2.551 I0.0026 J-0.0147
G1 X-1.3056 Y2.2041 F60.
G3 X-1.0828 Y1.8395 I0.7466 J0.2059
G1 X-0.8854
G3 X-0.8728 Y1.8474 I-0.0005 J0.0149
X-0.8747 Y1.8668 I-0.0155 J0.0083
X-1.0621 Y1.8604 I-0.0913 J-0.075
X-1.0702 Y1.8474 I0.0962 J-0.0686 F50.
G2 X-1.0828 Y1.8395 I-0.0131 J0.007
G1 X-1.1515 F60.
G2 X-1.2939 Y1.9455 I0.051 J0.2173
G1 X-1.3056 Y2.2041
G2 X-1.2769 Y2.2098 I0.0149 J0.0002
G1 X-1.139 Y1.8621
X-1.1381 Y1.8599 F50.
G2 X-1.1515 Y1.8395 I-0.0139 J-0.0055
G1 X-1.2659 F60.
X-1.2719 Y1.8398
X-1.2727 Y1.8399
X-1.2819 Y1.8417
X-1.2826 Y1.8419
G2 X-1.2939 Y1.9455 I0.1228 J0.0658
X-1.2642 Y1.9477 I0.0149 J0.0002
G1 X-1.2524 Y1.8624
X-1.2516 Y1.8564 F50.
G2 X-1.2659 Y1.8395 I-0.0148 J-0.002
G1 X-1.2702 F60.
X-1.2709 Y1.8396
X-1.2727 Y1.8399
G2 X-1.2836 Y1.8501 I0.0033 J0.0145
X-1.2703 Y1.9102 I0.0596 J0.0184
X-0.766 Y1.8607 I0.2338 J-0.211
G1 X-0.7585 Y1.8474 F50.
G3 X-0.7459 Y1.8395 I0.0131 J0.007
G1 X-0.5714 F60.
G3 X-0.4645 Y1.893 I0.0087 J0.1161
X-0.4851 Y1.9062 I-0.0149 J-0.0005
G1 X-0.4871 Y1.9054
G3 X-0.5836 Y1.862 I0.0001 J-0.1294
X-0.5714 Y1.8395 I0.0128 J-0.0077 F50.
X-0.4714 Y1.8421 I0.0438 J0.2426 F60.
G1 X-0.4693 Y1.8435
X-0.4685 Y1.8442
X-0.4669 Y1.8467
X-0.4645 Y1.8587
Y1.8601
Y2.0635
G3 X-0.487 Y2.0758 I-0.0149 J-0.0005
G1 X-0.4895 Y2.0743 Z-0.1297
X-0.4919 Y2.0728 Z-0.1289
X-0.4941 Y2.0715 Z-0.1275
X-0.4961 Y2.0703 Z-0.1256
X-0.4977 Y2.0694 Z-0.1234
X-0.4989 Y2.0687 Z-0.1208
X-0.4996 Y2.0683 Z-0.118
X-0.4998 Y2.0681 Z-0.1151
G0 Z0.4
X-0.8791 Y2.8884
Z-0.1002
G1 Z-0.1151 F50.
X-0.879 Y2.8887 Z-0.118
X-0.8788 Y2.8895 Z-0.1208
X-0.8784 Y2.8909 Z-0.1234
X-0.878 Y2.8927 Z-0.1256
X-0.8774 Y2.8949 Z-0.1275
X-0.8767 Y2.8973 Z-0.1289
X-0.876 Y2.9 Z-0.1297
X-0.8753 Y2.9029 Z-0.13
G3 X-0.8751 Y2.9338 I-0.0603 J0.0159
G1 X-0.878 Y2.9442 F60.
X-0.8829 Y2.9673
X-0.893 Y3.0367
G3 X-1.2425 Y3.1201 I-0.2072 J-0.094
X-1.3443 Y3.0568 I-0.0094 J-0.0983
G1 X-1.3376 Y2.9072
G3 X-1.3291 Y2.8949 I0.0149 J0.0012
X-1.2688 Y2.9304 I0.0182 J0.0381
X-1.3225 Y3.0371 I-0.1179 J0.0075
X-1.3359 Y3.0445 I-0.0642 J-0.0992 F50.
G2 X-1.3443 Y3.0568 I0.0064 J0.0135
G1 X-1.3466 Y3.1061 F60.
G2 X-1.0221 Y3.2441 I0.2275 J-0.0844
X-0.8993 Y3.1986 I0.0316 J-0.103
G3 X-0.893 Y3.0367 I0.6959 J-0.0537
G2 X-0.899 Y3.0231 I-0.0148 J-0.0016
X-0.9826 Y3.0568 I-0.0314 J0.0427
X-0.9226 Y3.1806 I0.1164 J0.02
X-0.9087 Y3.187 I0.0564 J-0.1037 F50.
G3 X-0.8993 Y3.1986 I-0.0054 J0.0139
G1 X-0.8965 Y3.2217 F60.
X-0.8956 Y3.2287
G3 X-1.1622 Y3.3422 I-0.1831 J-0.0603
X-1.355 Y3.2693 I-0.0126 J-0.258
G1 X-1.3466 Y3.1061
G3 X-1.3381 Y3.0938 I0.0149 J0.0012
X-1.2818 Y3.1203 I0.0173 J0.0364
X-1.3321 Y3.2485 I-0.1145 J0.0291
X-1.3455 Y3.256 I-0.0642 J-0.0992 F50.
G2 X-1.3539 Y3.2682 I0.0064 J0.0135
G1 X-1.3558 Y3.3095 F60.
G2 X-1.1059 Y3.4478 I0.201 J-0.0683
G1 X-1.1039 Y3.4507
X-0.8953 Y3.3327
G2 X-0.8877 Y3.2911 I-0.0135 J-0.024
G1 X-0.8956 Y3.2287
G2 X-0.913 Y3.2164 I-0.0147 J0.0024
G1 X-0.9201 Y3.2178
X-1.3324 Y3.294
X-1.3437 Y3.2961 F50.
G2 X-1.3558 Y3.3095 I0.0027 J0.0147
G1 X-1.3598 Y3.3963 F60.
G2 X-1.2364 Y3.5258 I0.1521 J-0.0214
G1 X-1.1039 Y3.4507
G2 X-1.0968 Y3.4376 I-0.0078 J-0.0127
X-1.1539 Y3.3995 I-0.042 J0.0011
X-1.2287 Y3.4974 I0.0427 J0.1101
X-1.2293 Y3.5127 I0.1175 J0.0123 F50.
G3 X-1.2364 Y3.5258 I-0.0149 J0.0004
G1 X-1.2713 Y3.5455 F60.
G3 X-1.3674 Y3.5385 I-0.0429 J-0.0754
G1 X-1.367 Y3.5355
X-1.3661 Y3.5326
X-1.3647 Y3.53
X-1.3628 Y3.5277
X-1.3605 Y3.5259
X-1.358 Y3.5245
X-1.3552 Y3.5236
X-1.3524 Y3.5233
X-1.3426 Y3.5225
G3 X-1.2717 Y3.5198 I0.0388 J0.0851
X-1.2713 Y3.5455 I-0.0074 J0.013 F50.
G1 X-1.3453 Y3.5874 F60.
X-1.346 Y3.5877
X-1.352 Y3.5898
X-1.3559 Y3.5912
X-1.3565 Y3.5913
X-1.3594 Y3.5912
X-1.3624 Y3.5901
X-1.3648 Y3.588
G3 X-1.3678 Y3.5736 I0.0183 J-0.0114
G1 X-1.3598 Y3.3963
G3 X-1.3509 Y3.3839 I0.0149 J0.0012
G1 X-1.3489 Y3.3834 Z-0.1298
X-1.3468 Y3.383 Z-0.1294
X-1.3449 Y3.3826 Z-0.1287
X-1.3429 Y3.3831 Z-0.1275
X-1.3411 Y3.3835 Z-0.1261
X-1.3396 Y3.3838 Z-0.1243
X-1.3383 Y3.3841 Z-0.1224
X-1.3374 Y3.3847 Z-0.1201
X-1.3369 Y3.385 Z-0.1176
X-1.3367 Y3.3851 Z-0.1151
G0 Z0.4
X-1.0516 Y4.2588
Z0.1
G3 X-1.1808 Y4.2011 Z0.0608 I-0.0646 J-0.0288 F50.
X-1.0516 Y4.2588 Z0.0216 I0.0646 J0.0288
X-1.1808 Y4.2011 Z-0.0176 I-0.0646 J-0.0288
X-1.0516 Y4.2588 Z-0.0568 I0.0646 J0.0288
X-1.1808 Y4.2011 Z-0.096 I-0.0646 J-0.0288
X-1.0454 Y4.23 Z-0.13 I0.0646 J0.0288
X-1.187 I-0.0708 J0.
X-1.0454 I0.0708 J0.
X-1.0234 Y4.3053 I-0.0453 J0.0541 F60.
G1 X-1.053 Y4.3318
X-1.0694 Y4.3491
G3 X-1.1736 Y4.3679 I-0.0671 J-0.0731
G1 X-1.1748 Y4.3653
X-1.1754 Y4.3625
X-1.1755 Y4.3596
X-1.1751 Y4.3568
X-1.1742 Y4.3541
X-1.1728 Y4.3516
X-1.171 Y4.3495
X-1.1688 Y4.3477
X-1.1664 Y4.3463
X-1.1638 Y4.3455
X-1.1599 Y4.3445
X-1.0846 Y4.3252
X-1.0814 Y4.3247
X-1.0782 Y4.325
G3 X-1.0694 Y4.3491 I-0.0027 J0.0146 F50.
X-1.1351 Y4.418 I-0.1069 J-0.0362 F60.
G1 X-1.1359
X-1.1387 Y4.4178
G3 X-1.15 Y4.4069 I0.0099 J-0.0215
G1 X-1.2407 Y4.2509
G3 X-1.2471 Y4.1684 I0.057 J-0.0459
X-1.2256 Y4.1787 I0.0069 J0.0132
G1 X-1.225 Y4.182
X-1.2135 Y4.24
G3 X-1.215 Y4.2501 I-0.0146 J0.0029
X-1.2407 Y4.2509 I-0.013 J-0.0072 F50.
X-1.2721 Y4.1873 I0.0299 J-0.0543 F60.
X-1.1324 Y4.1035 I0.2202 J0.2089
X-0.9414 Y4.2393 I0.0402 J0.1456
G1 X-0.977 Y4.2643
X-0.9885 Y4.274
X-1.0234 Y4.3053
G3 X-1.0381 Y4.3079 I-0.0096 J-0.0114
X-1.0507 Y4.2582 I0.0106 J-0.0291
X-0.9706 Y4.2346 I0.059 J0.0522
X-0.9563 Y4.2401 I-0.0212 J0.0758 F50.
G2 X-0.9414 Y4.2393 I0.0067 J-0.0133
G1 X-0.9247 Y4.2275 F60.
G2 X-0.9964 Y4.0265 I-0.1116 J-0.0734
G1 X-1.1324 Y4.1035
G2 X-1.1395 Y4.1166 I0.0078 J0.0127
X-1.0853 Y4.155 I0.0415 J-0.0011
X-1.0041 Y4.0549 I-0.0363 J-0.1124
X-1.0035 Y4.0396 I-0.1175 J-0.0123 F50.
G3 X-0.9964 Y4.0265 I0.0149 J-0.0004
G1 X-0.9697 Y4.0114 F60.
X-0.961 Y4.0098
X-0.9522 Y4.0088
X-0.9433 Y4.0083
X-0.9344 Y4.0085
X-0.9256 Y4.0093
X-0.9168 Y4.0106
X-0.9082 Y4.0126
X-0.8997 Y4.0151
X-0.8913 Y4.0182
X-0.8833 Y4.0219
X-0.8754 Y4.0261
X-0.8679 Y4.0308
X-0.8607 Y4.036
X-0.8539 Y4.0417
X-0.8475 Y4.0478
X-0.8415 Y4.0544
X-0.836 Y4.0613
X-0.8309 Y4.0686
X-0.8264 Y4.0762
X-0.8223 Y4.0841
X-0.8188 Y4.0923
X-0.8159 Y4.1007
X-0.8136 Y4.1092
X-0.8118 Y4.1179
X-0.8106 Y4.1267
X-0.81 Y4.1356
Y4.1444
X-0.8106 Y4.1533
X-0.8118 Y4.1621
G2 X-0.9247 Y4.2275 I0.2788 J0.6112
G3 X-0.9395 Y4.2283 I-0.0082 J-0.0125
X-0.9505 Y4.2042 I0.0095 J-0.0188
X-0.8407 Y4.1524 I0.0763 J0.0195
X-0.8276 Y4.1603 I-0.0335 J0.0713 F50.
G2 X-0.8128 Y4.1619 I0.0088 J-0.012
G1 X-0.7921 Y4.152 F60.
G2 X-0.8469 Y3.9422 I-0.0905 J-0.0884
G1 X-0.9697 Y4.0114
G2 X-0.9768 Y4.0245 I0.0078 J0.0127
X-0.9131 Y4.0603 I0.0425 J-0.0011
X-0.8544 Y3.9701 I-0.0588 J-0.1025
X-0.8538 Y3.9548 I-0.1175 J-0.0123 F50.
G3 X-0.8467 Y3.9418 I0.0149 J-0.0004
G1 X-0.8204 Y3.9269 F60.
G3 X-0.677 Y4.0183 I0.0266 J0.1164
G1 X-0.6758 Y4.0267
X-0.6752 Y4.035
X-0.6753 Y4.0434
X-0.676 Y4.0518
X-0.6773 Y4.0601
X-0.6792 Y4.0683
X-0.6817 Y4.0763
X-0.6848 Y4.0841
X-0.6885 Y4.0916
X-0.6927 Y4.0989
X-0.6975 Y4.1058
X-0.7027 Y4.1124
X-0.7084 Y4.1185
X-0.7146 Y4.1242
X-0.7212 Y4.1294
X-0.7281 Y4.1341
X-0.7354 Y4.1383
X-0.743 Y4.142
X-0.7508 Y4.145
X-0.7588 Y4.1475
X-0.767 Y4.1494
X-0.7753 Y4.1506
X-0.7837 Y4.1513
X-0.7921
X-0.7946 Y4.1521
X-0.7972 Y4.1523
X-0.7999 Y4.1521
X-0.8025 Y4.1514
X-0.8049 Y4.1503
X-0.8071 Y4.1487
X-0.809 Y4.1467
X-0.8104 Y4.1444
X-0.8115 Y4.1418
X-0.812 Y4.1391
X-0.8123 Y4.1356
X-0.8263 Y3.9552
X-0.8275 Y3.9407 F50.
G3 X-0.8204 Y3.9269 I0.0149 J-0.0012
G1 X-0.7595 Y3.8924 F60.
G3 X-0.6511 Y3.9107 I0.0421 J0.081
G1 X-0.652 Y3.9135
X-0.6533 Y3.9161
X-0.655 Y3.9184
X-0.6572 Y3.9203
X-0.6596 Y3.9218
X-0.6622 Y3.9228
X-0.6649 Y3.9233
X-0.6676
X-0.6784 Y3.9228
G3 X-0.7591 Y3.9181 I-0.033 J-0.1257
X-0.7595 Y3.8924 I0.0074 J-0.013 F50.
G1 X-0.6876 Y3.8517 F60.
G3 X-0.6391 Y3.853 I0.0238 J0.0192
X-0.6804 Y3.8821 I-0.038 J-0.0101
X-0.6898 Y3.8782 I0.0014 J-0.0164
X-0.6876 Y3.8517 I0.0107 J-0.0125 F50.
X-0.6395 Y3.8363 I0.0284 J0.0058 F60.
X-0.6388 Y3.8519 I-0.0199 J0.0086
G1 X-0.677 Y4.0183
G3 X-0.6879 Y4.029 I-0.0144 J-0.0038
G1 X-0.6897 Y4.0292 Z-0.1299
X-0.6914 Y4.0294 Z-0.1296
X-0.6938 Y4.0289 Z-0.1287
X-0.696 Y4.0283 Z-0.1275
X-0.698 Y4.0279 Z-0.1259
X-0.6996 Y4.0268 Z-0.1236
X-0.7007 Y4.0259 Z-0.121
X-0.7015 Y4.0254 Z-0.1181
X-0.7017 Y4.0253 Z-0.1151
G0 Z0.4
X0.0646 Y0.0288
Z0.1
G3 X-0.0646 Y-0.0288 Z0.0608 I-0.0646 J-0.0288 F50.
X0.0646 Y0.0288 Z0.0216 I0.0646 J0.0288
X-0.0646 Y-0.0288 Z-0.0176 I-0.0646 J-0.0288
X0.0646 Y0.0288 Z-0.0568 I0.0646 J0.0288
X-0.0646 Y-0.0288 Z-0.096 I-0.0646 J-0.0288
X0.0708 Y0. Z-0.13 I0.0646 J0.0288
X-0.0708 I-0.0708 J0.
X0.0708 I0.0708 J0.
X-0.08 Y0.123 I-0.0771 J0.0593 F60.
X0.0738 Y-0.1405 I0.0769 J-0.1318
X0.1376 Y-0.0678 I-0.0769 J0.1318
X-0.16 Y0.1797 I-0.1491 J0.1234
X-0.1124 Y-0.2227 I0.1417 J-0.1873
X0.101 Y0.3156 I0.1067 J0.2691
X-0.0206 Y0.3356 I-0.1067 J-0.2692
X-0.1165 Y-0.3248 I0.0103 J-0.3386
X0.0962 Y0.4222 I0.1063 J0.3735
X-0.271 Y0.3363 I-0.1063 J-0.3735
X-0.443 Y0.0281 I0.2157 J-0.3225
X0.444 Y-0.0847 I0.4476 J-0.0244
X0.2324 Y0.4631 I-0.4162 J0.154
X-0.263 Y-0.4731 I-0.2477 J-0.4681
X0.0442 Y-0.5312 I0.2477 J0.4681
X0.5573 Y0.1787 I-0.0538 J0.5792
X-0.2149 Y0.5922 I-0.5668 J-0.1307
X0.1996 Y-0.6041 I0.2091 J-0.5975
X-0.0717 Y0.7262 I-0.214 J0.6492
X-0.2467 Y-0.6933 I0.0662 J-0.7287
X0.5987 Y0.5271 I0.2405 J0.7364
X-0.8289 Y0.0125 I-0.6239 J-0.5068
X0.5936 Y-0.5851 I0.8279 J-0.0211
X0.1367 Y0.9106 I-0.6019 J0.6338
G1 X-0.1219 Y0.9105
G3 X-0.9089 Y0.2023 I0.0881 J-0.8894
G1 X-0.9105 Y-0.1548
G3 X-0.2063 Y-0.9089 I0.8853 J0.121
G1 X0.1554 Y-0.9105
G3 X0.9084 Y-0.2647 I-0.1343 J0.9185
G1 X0.9105 Y0.3077
G3 X0.4386 Y0.9087 I-0.8222 J-0.1598
G1 X0.1367 Y0.9105
G3 X0.124 Y0.9026 I0.0005 J-0.0149
X0.1406 Y0.8337 I0.0471 J-0.0251
X0.4191 Y0.8894 I0.1125 J0.1615
G1 X0.4269 Y0.9026 F50.
G2 X0.4395 Y0.9105 I0.0131 J-0.007
G1 X0.561 F60.
G2 X0.9084 Y0.5964 I-0.1805 J-0.5487
G1 X0.9105 Y0.3077
G2 X0.9026 Y0.2951 I-0.0149 J0.0005
X0.8203 Y0.3208 I-0.0285 J0.0535
X0.8894 Y0.577 I0.175 J0.0902
G1 X0.9026 Y0.5847 F50.
G3 X0.9105 Y0.5973 I-0.007 J0.0131
G1 Y0.7009 F60.
G3 X0.7753 Y0.9105 I-0.3278 J-0.063
G1 X0.561
G3 X0.5484 Y0.9026 I0.0005 J-0.0149
X0.5818 Y0.8249 I0.0478 J-0.0255
X0.7549 Y0.8895 I0.042 J0.1518
X0.7627 Y0.9026 I-0.1311 J0.0872 F50.
G2 X0.7753 Y0.9105 I0.0131 J-0.007
G1 X0.8257 F60.
X0.8372 Y0.9111
G2 X0.9181 Y0.8775 I0.0213 J-0.0628
G3 X0.9105 Y0.7009 I0.5202 J-0.1108
G2 X0.8813 Y0.6972 I-0.0149 J0.0005
G1 X0.8255 Y0.8877
X0.8242 Y0.8921 F50.
G2 X0.8372 Y0.9111 I0.0143 J0.0042
G3 X0.9001 Y0.9259 I-0.0059 J0.166 F60.
G1 X0.9056 Y0.9284
X0.912 Y0.9303
X0.9189 Y0.9312
X0.9262 Y0.931
X0.9305 Y0.9303
X0.9339 Y0.9289
X0.9363 Y0.926
X0.937 Y0.9223
X0.936 Y0.9187
X0.9304 Y0.909
X0.927 Y0.9026
G2 X0.9142 Y0.8952 I-0.0129 J0.0074
G1 X0.9141
G2 X0.9083 Y0.9083 I0. J0.0078
X0.9123 Y0.9106 I0.0058 J-0.0053 F50.
X0.9229 Y0.9117 I0.0092 J-0.0383
G3 X0.936 Y0.9187 I0.0005 J0.0149
G1 X0.9412 Y0.9277 F60.
X0.9439 Y0.9331
X0.9443 Y0.9365
X0.9437 Y0.9408
X0.9408 Y0.944
X0.9367 Y0.9453
X0.9326 Y0.9442
G3 X0.9267 Y0.9396 I0.0211 J-0.0332
X0.9259 Y0.9387 I0.0065 J-0.0069
X0.9277 Y0.9251 I0.0073 J-0.006 F50.
X0.9412 Y0.9277 I0.0055 J0.0077
G1 X0.9438 Y0.9321 F60.
X0.9503 Y0.9425
X0.9532 Y0.9478
X0.9521 Y0.9514
X0.9488 Y0.9532
X0.9451 Y0.9522
G3 X0.9419 Y0.9493 I0.0249 J-0.0305 F50.
X0.9424 Y0.9414 I0.0038 J-0.0038
X0.9503 Y0.9425 I0.0034 J0.0042
G1 X0.9509 Y0.9436 F60.
X0.9565 Y0.95
X0.9583 Y0.9524
X0.9584 Y0.9554
X0.9565 Y0.9578
X0.9536 Y0.9585
X0.9508 Y0.9571
G2 X0.9001 Y0.9259 I-0.2109 J0.2862
G3 X0.8983 Y0.919 I0.0025 J-0.0044
X0.9053 Y0.9174 I0.0043 J0.0026
G1 X0.9179 Y0.9254
X0.9305 Y0.9333
X0.9555 Y0.9492 F50.
X0.9565 Y0.95
X0.961 Y0.9553 F60.
X0.962 Y0.9562
X0.9641 Y0.9583
X0.964 Y0.9614
X0.962 Y0.9637
X0.959 Y0.9643
X0.9563 Y0.9629
X0.9558 Y0.9623 F50.
X0.962 Y0.9562
X0.9643 Y0.9583 F60.
X0.9671 Y0.9607
X0.9693 Y0.9627
X0.9696 Y0.9661
X0.9676 Y0.9689
X0.9643 Y0.9697
X0.9612 Y0.9682
X0.9606 Y0.9674 F50.
X0.9671 Y0.9607
X0.9736 Y0.9661 F60.
X0.9758 Y0.9682
X0.976 Y0.972
X0.9736 Y0.9751
X0.9698 Y0.9759
X0.9664 Y0.9739
X0.9661 Y0.9735 F50.
G3 X0.9736 Y0.9661 I0.0042 J-0.0032
G1 X0.9807 Y0.9721 F60.
X0.9829 Y0.9741
X0.9833 Y0.9777
X0.9817 Y0.9809
X0.9787 Y0.9828
X0.9751 Y0.9827
X0.9721 Y0.9807
G3 X0.9725 Y0.9741 I0.0039 J-0.0031 F50.
G1 X0.9741 Y0.9725
G3 X0.9807 Y0.9721 I0.0035 J0.0036
G1 X0.9874 Y0.9777 F60.
X0.9918 Y0.9818
X0.9921 Y0.9859
X0.9901 Y0.9894
X0.9866 Y0.9915
X0.9825 Y0.9913
X0.9791 Y0.989
X0.9776 Y0.987 F50.
G3 X0.9874 Y0.9777 I0.0056 J-0.0039
G1 X0.9967 Y0.9856 F60.
X1.0011 Y0.9897
X1.0033 Y0.9953
Y0.9961
X1.0019 Y1.0006
X0.9982 Y1.0035
X0.9935 Y1.0038
X0.9895 Y1.0013
G3 X0.9854 Y0.995 I0.0308 J-0.0245 F50.
X0.9967 Y0.9856 I0.0067 J-0.0035
G1 X1.0067 Y0.9941 F60.
X1.0071 Y0.9945
X1.0083 Y0.9969
X1.0086 Y0.9975
X1.0089 Y1.0002
Y1.0006
X1.0082 Y1.0035
X1.008 Y1.0039
X1.0067 Y1.0058
G3 X0.9701 Y0.9784 I-0.0118 J-0.0224
G1 X0.9695 Y0.9768 Z-0.1297
X0.969 Y0.9754 Z-0.1289
X0.9685 Y0.9743 Z-0.1277
X0.9682 Y0.9736 Z-0.1262
X0.9681 Y0.9734 Z-0.1245
G0 Z0.4
X-0.0794 Y0.8942
Z-0.1002
G1 Z-0.1151 F50.
X-0.0797 Y0.8943 Z-0.118
X-0.0804 Y0.8948 Z-0.1208
X-0.0816 Y0.8955 Z-0.1234
X-0.0832 Y0.8964 Z-0.1256
X-0.0851 Y0.8976 Z-0.1275
X-0.0873 Y0.8989 Z-0.1289
X-0.0897 Y0.9003 Z-0.1297
X-0.0922 Y0.9018 Z-0.13
G3 X-0.1219 Y0.9105 I-0.0318 J-0.0536
G1 X-0.4223 F60.
G3 X-0.9086 Y0.4804 I0.2355 J-0.7562
G1 X-0.9105 Y0.2026
G3 X-0.9026 Y0.19 I0.0149 J0.0005
X-0.8117 Y0.2238 I0.0305 J0.0572
X-0.8894 Y0.4609 I-0.1836 J0.0711
G1 X-0.9026 Y0.4686 F50.
G2 X-0.9105 Y0.4812 I0.007 J0.0131
G1 Y0.6084 F60.
G2 X-0.6607 Y0.9093 I0.5052 J-0.1651
G1 X-0.4223 Y0.9105
G2 X-0.4097 Y0.9026 I-0.0005 J-0.0149
X-0.4251 Y0.8439 I-0.0394 J-0.021
X-0.6409 Y0.8895 I-0.0846 J0.1328
X-0.6487 Y0.9026 I0.1311 J0.0872 F50.
G3 X-0.6614 Y0.9105 I-0.0131 J-0.007
G1 X-0.7459 F60.
G3 X-0.9105 Y0.8133 I0.0296 J-0.2381
G1 Y0.6084
G3 X-0.8824 Y0.602 I0.0149 J0.0005
G1 X-0.7336 Y0.8879
X-0.7332 Y0.8887 F50.
G3 X-0.7459 Y0.9105 I-0.0132 J0.0069
G1 X-0.8152 F60.
X-0.8383 Y0.9112
X-0.8614 Y0.9152
G3 X-0.9255 Y0.9021 I-0.0264 J-0.034
G1 X-0.9246 Y0.898
G2 X-0.9105 Y0.8133 I-0.2667 J-0.0879
G3 X-0.8816 Y0.8088 I0.0149 J0.0005
G1 X-0.8526 Y0.8903
X-0.8507 Y0.8957 F50.
G3 X-0.8614 Y0.9152 I-0.014 J0.005
G2 X-0.9151 Y0.934 I0.01 J0.1148 F60.
G1 X-0.9205 Y0.9367
X-0.9263 Y0.9382
X-0.9322 Y0.9387
X-0.9346 Y0.9385
X-0.9382 Y0.9372
X-0.9408 Y0.9343
X-0.9417 Y0.9306
X-0.9407 Y0.9268
G3 X-0.9274 Y0.9138 I0.0334 J0.0209
X-0.9218 Y0.9122 I0.006 J0.0101
X-0.9096 Y0.9239 I0.0005 J0.0118 F50.
X-0.9151 Y0.9339 I-0.0118 J0.
G1 X-0.9308 Y0.943 F60.
X-0.9378 Y0.9471
X-0.9431 Y0.9499
X-0.9466 Y0.9494
X-0.9492 Y0.9471
X-0.9502 Y0.9437
X-0.9492 Y0.9403
G3 X-0.9464 Y0.9369 I0.0321 J0.0228 F50.
X-0.9363 Y0.937 I0.005 J0.0045
X-0.9378 Y0.9471 I-0.0051 J0.0044
G1 X-0.9395 Y0.9482 F60.
X-0.9472 Y0.9538
X-0.9522 Y0.9572
X-0.9555 Y0.9561
X-0.9571 Y0.953
X-0.956 Y0.9497
G3 X-0.9528 Y0.9468 I0.0281 J0.0276 F50.
G1 X-0.9455 Y0.9503
X-0.9472 Y0.9538
X-0.9491 Y0.9553 F60.
X-0.9539 Y0.9596
X-0.9547 Y0.9606
X-0.9568 Y0.9627
X-0.9597
X-0.962 Y0.9607
X-0.9625 Y0.9578
X-0.961 Y0.9553
G3 X-0.9583 Y0.9538 I0.0036 J0.0035 F50.
G1 X-0.9571 Y0.9546
X-0.9564 Y0.9552
X-0.9557 Y0.9546
X-0.9562 Y0.9539
X-0.9579 Y0.9538
X-0.9596 Y0.9542
X-0.961 Y0.9553
X-0.9658 Y0.9594 F60.
X-0.968 Y0.9615
X-0.9683 Y0.9648
X-0.9663 Y0.9676
X-0.963 Y0.9683
X-0.96 Y0.9667
G2 X-0.9589 Y0.9638 I-0.0039 J-0.0031 F50.
G1 X-0.9598 Y0.9627
X-0.9605 Y0.9621
X-0.9599 Y0.9613
X-0.9592 Y0.9617
X-0.9589 Y0.9634
X-0.9591 Y0.9652
X-0.96 Y0.9667
X-0.9642 Y0.9716 F60.
X-0.9663 Y0.9737
X-0.9701 Y0.9743
X-0.9733 Y0.9721
X-0.9742 Y0.9684
X-0.9724 Y0.965
X-0.9713 Y0.9642 F50.
G3 X-0.9642 Y0.9716 I0.0031 J0.0041
G1 X-0.9701 Y0.9784 F60.
X-0.9722 Y0.9806
X-0.9756 Y0.9811
X-0.9788 Y0.9796
X-0.9806 Y0.9767
Y0.9733
X-0.9787 Y0.9704
X-0.9783 Y0.9701 F50.
G3 X-0.9701 Y0.9784 I0.0036 J0.0047
G1 X-0.9758 Y0.9852 F60.
X-0.9799 Y0.9896
X-0.9838 Y0.9897
X-0.9873 Y0.9878
X-0.9892 Y0.9844
X-0.989 Y0.9804
X-0.9868 Y0.9772
X-0.9847 Y0.9757 F50.
G3 X-0.9758 Y0.9852 I0.0037 J0.0054
G1 X-0.984 Y0.9948 F60.
X-0.9881 Y0.9991
X-0.9901 Y0.9998
X-0.9944 Y1.
X-0.9981 Y0.998
X-1.0002 Y0.9943
X-1.0001 Y0.99
X-0.9977 Y0.9864
G3 X-0.9938 Y0.9837 I0.0244 J0.0309 F50.
X-0.984 Y0.9948 I0.0039 J0.0064
G1 X-0.9941 Y1.0067 F60.
X-0.9949 Y1.0073
X-0.9968 Y1.0083
X-0.9975 Y1.0086
X-1.0001 Y1.0089
X-1.0006
X-1.0033 Y1.0083
X-1.0039 Y1.0081
X-1.006 Y1.0066
X-1.0065 Y1.0061
X-1.0081 Y1.0038
X-1.0083 Y1.0031
X-1.0089 Y1.0007
Y1.0003
X-1.0086 Y0.9974
X-1.0084 Y0.997
X-1.0071 Y0.9945
X-1.0066 Y0.994
X-1.0037 Y0.9916
X-1.0017 Y0.9907 Z-0.1298
X-0.9998 Y0.9898 Z-0.1291
X-0.9981 Y0.989 Z-0.1281
X-0.9969 Y0.9889 Z-0.1272
X-0.9959 Y0.9888 Z-0.1261
X-0.9945 Y0.989 Z-0.124
X-0.9936 Y0.9891 Z-0.1216
X-0.9933 Z-0.119
G0 Z0.4
X-0.8942 Y-0.1124
Z-0.1002
G1 Z-0.1151 F50.
X-0.8943 Y-0.1126 Z-0.118
X-0.8948 Y-0.1133 Z-0.1208
X-0.8955 Y-0.1145 Z-0.1234
X-0.8964 Y-0.1161 Z-0.1256
X-0.8976 Y-0.1181 Z-0.1275
X-0.8989 Y-0.1203 Z-0.1289
X-0.9003 Y-0.1227 Z-0.1297
X-0.9018 Y-0.1252 Z-0.13
G3 X-0.9105 Y-0.1548 I0.0536 J-0.0318
G1 Y-0.4324 F60.
G3 X-0.4837 Y-0.9087 I0.7527 J0.245
G1 X-0.2066 Y-0.9105
G3 X-0.1923 Y-0.8951 I-0.0005 J0.0149
X-0.2348 Y-0.8402 I-0.0593 J-0.0021
X-0.4605 Y-0.8923 I-0.0666 J-0.2266
G1 X-0.4742 Y-0.9058 F50.
G2 X-0.4846 Y-0.9105 I-0.0109 J0.0102
G1 X-0.6072 F60.
G2 X-0.9093 Y-0.6659 I0.1465 J0.4897
G1 X-0.9105 Y-0.4324
G2 X-0.9026 Y-0.4197 I0.0149 J-0.0005
X-0.839 Y-0.4385 I0.0222 J-0.0417
X-0.8895 Y-0.6461 I-0.1377 J-0.0765
X-0.9026 Y-0.6539 I-0.0872 J0.1311 F50.
G3 X-0.9105 Y-0.6666 I0.007 J-0.0131
G1 Y-0.7561 F60.
G3 X-0.8164 Y-0.9105 I0.2297 J0.0341
G1 X-0.8152
X-0.6072
G3 X-0.6012 Y-0.8822 I-0.0005 J0.0149
G1 X-0.8879 Y-0.7438
X-0.8891 Y-0.7432 F50.
G3 X-0.9105 Y-0.7561 I-0.0065 J-0.0134
G2 X-0.9171 Y-0.8718 I-0.3554 J-0.0379 F60.
G3 X-0.8993 Y-0.9253 I0.0242 J-0.0217
G2 X-0.8164 Y-0.9105 I0.0782 J-0.1985
G3 X-0.8139 Y-0.8812 I-0.001 J0.0149
G1 X-0.8918 Y-0.8625
X-0.8991 Y-0.8607 F50.
G3 X-0.9171 Y-0.8718 I-0.0035 J-0.0145
G2 X-0.9357 Y-0.9179 I-0.1074 J0.0166 F60.
G1 X-0.9384 Y-0.9233
X-0.9396 Y-0.9292
X-0.9397 Y-0.9352
X-0.9396 Y-0.9357
X-0.9382 Y-0.9392
X-0.9353 Y-0.9416
X-0.9316 Y-0.9424
X-0.9279 Y-0.9413
G3 X-0.9167 Y-0.9307 I-0.0209 J0.0334
X-0.9147 Y-0.9257 I-0.0093 J0.0066
X-0.9356 Y-0.918 I-0.0113 J0.0016 F50.
G1 X-0.9479 Y-0.9389 F60.
X-0.9507 Y-0.9442
X-0.9502 Y-0.9474
X-0.9481 Y-0.9498
X-0.9451 Y-0.9507
X-0.942 Y-0.9498
G3 X-0.9385 Y-0.9472 I-0.0217 J0.0329 F50.
X-0.9362 Y-0.9423 I-0.0041 J0.0049
X-0.9479 Y-0.9389 I-0.0063 J0.
G1 X-0.9492 Y-0.9412 F60.
X-0.9539 Y-0.9474
X-0.9547 Y-0.9483
X-0.9566 Y-0.9506
X-0.9565 Y-0.9536
X-0.9546 Y-0.9559
X-0.9518 Y-0.9566
X-0.949 Y-0.9556
X-0.9483 Y-0.9549 F50.
X-0.9514 Y-0.9469
X-0.9547 Y-0.9483
X-0.9597 Y-0.9536 F60.
X-0.9616 Y-0.9559
Y-0.9588
X-0.9599 Y-0.961
X-0.9571 Y-0.9616
X-0.9545 Y-0.9603
G3 X-0.9533 Y-0.9575 I-0.0038 J0.0033 F50.
G1 X-0.9542 Y-0.9564
X-0.9548 Y-0.9557
X-0.9543 Y-0.955
X-0.9535 Y-0.9554
X-0.9533 Y-0.9571
X-0.9536 Y-0.9588
X-0.9545 Y-0.9603
X-0.9583 Y-0.9643 F60.
X-0.9591 Y-0.9653
X-0.9612 Y-0.9675
X-0.9644
X-0.9668 Y-0.9654
X-0.9674 Y-0.9623
X-0.9658 Y-0.9595
G2 X-0.9629 Y-0.9584 I0.0031 J-0.0039 F50.
G1 X-0.9619 Y-0.9594
X-0.9612 Y-0.96
X-0.9605 Y-0.9595
X-0.9609 Y-0.9588
X-0.9626 Y-0.9584
X-0.9643 Y-0.9587
X-0.9658 Y-0.9595
X-0.9714 Y-0.9643 F60.
X-0.9736 Y-0.9663
X-0.9738 Y-0.97
X-0.9715 Y-0.973
X-0.9679 Y-0.9737
X-0.9647 Y-0.9719
X-0.9642 Y-0.9713 F50.
G3 X-0.9714 Y-0.9643 I-0.004 J0.0031
G1 X-0.978 Y-0.9698 F60.
X-0.9802 Y-0.9718
X-0.9806 Y-0.9752
X-0.9792 Y-0.9783
X-0.9763 Y-0.9802
X-0.9728 Y-0.9801
X-0.97 Y-0.9782
X-0.9698 Y-0.9779 F50.
G3 X-0.978 Y-0.9698 I-0.0046 J0.0035
G1 X-0.9844 Y-0.9752 F60.
X-0.9888 Y-0.9793
X-0.989 Y-0.9832
X-0.9871 Y-0.9866
X-0.9838 Y-0.9885
X-0.9799 Y-0.9884
X-0.9767 Y-0.9862
X-0.975 Y-0.9839 F50.
G3 X-0.9844 Y-0.9752 I-0.0054 J0.0036
G1 X-0.9939 Y-0.9833 F60.
X-0.9983 Y-0.9874
X-0.9989 Y-0.989
X-0.9991 Y-0.9932
X-0.997 Y-0.997
X-0.9933 Y-0.9991
X-0.989 Y-0.9989
X-0.9855 Y-0.9966
G3 X-0.983 Y-0.9931 I-0.0309 J0.0244 F50.
X-0.9939 Y-0.9833 I-0.0063 J0.004
G1 X-1.0049 Y-0.9925 F60.
X-1.0068 Y-0.9942
X-1.0072 Y-0.9949
X-1.0083 Y-0.9968
X-1.0086 Y-0.9974
X-1.0089 Y-1.
Y-1.0006
X-1.0083 Y-1.0032
X-1.0081 Y-1.0038
X-1.0067 Y-1.0058
X-1.006 Y-1.0066
X-1.0036 Y-1.0082
X-1.0006 Y-1.0089
X-1.0001
X-0.9973 Y-1.0085
X-0.9945 Y-1.0071
X-0.9941 Y-1.0066
X-0.9889 Y-1.0006
G3 X-0.9871 Y-0.9977 I-0.0093 J0.0079
G2 X-0.9857 Y-0.9953 I0.0136 J-0.0061
G1 X-0.9716 Y-0.975
X-0.9588 Y-0.9564
X-0.9571 Y-0.9544
G2 X-0.9506 Y-0.9506 I0.0106 J-0.0105 F50.
G3 X-0.929 Y-0.942 I-0.029 J0.1037
G1 X-0.9076 Y-0.9296 F60.
X-0.8993 Y-0.9253
G3 X-0.8987 Y-0.8997 I-0.0073 J0.013
G1 X-0.9011 Y-0.8982 Z-0.1297
X-0.9035 Y-0.8967 Z-0.1289
X-0.9057 Y-0.8953 Z-0.1275
X-0.9076 Y-0.8941 Z-0.1256
X-0.9092 Y-0.8931 Z-0.1234
X-0.9103 Y-0.8924 Z-0.1208
X-0.9111 Y-0.892 Z-0.118
X-0.9113 Y-0.8918 Z-0.1151
G0 Z-0.1002
X0.113 Y-0.8942
G1 Z-0.1151 F50.
X0.1132 Y-0.8943 Z-0.118
X0.1139 Y-0.8948 Z-0.1208
X0.1151 Y-0.8955 Z-0.1234
X0.1167 Y-0.8964 Z-0.1256
X0.1187 Y-0.8976 Z-0.1275
X0.1209 Y-0.8989 Z-0.1289
X0.1233 Y-0.9003 Z-0.1297
X0.1258 Y-0.9018 Z-0.13
G3 X0.1554 Y-0.9105 I0.0318 J0.0536
G1 X0.4328 F60.
G3 X0.9075 Y-0.499 I-0.2509 J0.769
G1 X0.9105 Y-0.4991
Y-0.2654
G3 X0.9026 Y-0.2527 I-0.0149 J-0.0005
X0.8385 Y-0.2719 I-0.0224 J-0.042
X0.8895 Y-0.4786 I0.1382 J-0.0756
X0.9026 Y-0.4864 I0.0872 J0.1311 F50.
G2 X0.9105 Y-0.4991 I-0.007 J-0.0131
G1 Y-0.607 F60.
G2 X0.6666 Y-0.909 I-0.4717 J0.1314
G1 X0.4328 Y-0.9105
G2 X0.4201 Y-0.9026 I0.0005 J0.0149
X0.4386 Y-0.8394 I0.0415 J0.0221
X0.6469 Y-0.8895 I0.0772 J-0.1373
X0.6548 Y-0.9026 I-0.1311 J-0.0872 F50.
G3 X0.6674 Y-0.9105 I0.0131 J0.007
G1 X0.7563 F60.
G3 X0.9105 Y-0.8193 I-0.0302 J0.2271
G1 Y-0.607
G3 X0.8822 Y-0.601 I-0.0149 J-0.0005
G1 X0.744 Y-0.8879
X0.7434 Y-0.8891 F50.
G3 X0.7563 Y-0.9105 I0.0134 J-0.0065
G2 X0.8719 Y-0.9171 I0.0378 J-0.3551 F60.
G3 X0.9258 Y-0.8998 I0.0222 J0.0236
X0.8645 Y-0.8912 I-0.034 J-0.0198
X0.8632 Y-0.8927 I0.0105 J-0.011
X0.8719 Y-0.9171 I0.0119 J-0.0095 F50.
G2 X0.9181 Y-0.9357 I-0.0148 J-0.1036 F60.
G1 X0.9234 Y-0.9384
X0.9293 Y-0.9397
X0.9353 Y-0.9399
X0.9357 Y-0.9398
X0.9393 Y-0.9384
X0.9417 Y-0.9354
X0.9425 Y-0.9317
X0.9414 Y-0.928
G3 X0.9304 Y-0.9168 I-0.0331 J-0.0213
X0.9259 Y-0.915 I-0.0063 J-0.0093
X0.9181 Y-0.9357 I-0.0018 J-0.0111 F50.
G1 X0.9276 Y-0.9412 F60.
X0.9385 Y-0.9476
X0.9438 Y-0.9504
X0.9472 Y-0.9499
X0.9497 Y-0.9476
X0.9504 Y-0.9443
X0.9492 Y-0.9412
G3 X0.9471 Y-0.9381 I-0.0331 J-0.0213 F50.
X0.9369 Y-0.9462 I-0.0051 J-0.004
X0.9385 Y-0.9476 I0.0051 J0.004
G1 X0.9412 Y-0.9493 F60.
X0.9446 Y-0.9516
X0.9481 Y-0.9545
X0.9505 Y-0.9563
X0.9534 Y-0.9562
X0.9556 Y-0.9544
X0.9564 Y-0.9516
X0.9554 Y-0.9489
X0.9546 Y-0.948 F50.
X0.9465 Y-0.9511
X0.9481 Y-0.9545
X0.9514 Y-0.9573 F60.
X0.9535 Y-0.9594
X0.9557 Y-0.9614
X0.9586 Y-0.9615
X0.9608 Y-0.9597
X0.9615 Y-0.9569
X0.9602 Y-0.9543
G2 X0.9105 Y-0.8193 I0.14 J0.1282
G3 X0.8807 Y-0.8203 I-0.0149 J-0.0005
X0.8825 Y-0.8268 I0.0149 J0.0005
G1 X0.9386 Y-0.9324
X0.9513 Y-0.9563 F50.
X0.9523 Y-0.9579
X0.9535 Y-0.9594
X0.9583 Y-0.9643 F60.
X0.9593 Y-0.9655
X0.9603 Y-0.9666
X0.9635 Y-0.9667
X0.966 Y-0.9648
X0.9666 Y-0.9617
X0.965 Y-0.9589
G3 X0.9622 Y-0.9578 I-0.0031 J-0.0039 F50.
G1 X0.9599 Y-0.9587
G3 X0.9593 Y-0.9655 I0.0034 J-0.0037
G1 X0.9635 Y-0.9704 F60.
X0.9655 Y-0.9726
X0.9691 Y-0.9727
X0.9719 Y-0.9704
X0.9726 Y-0.9669
X0.9708 Y-0.9638
X0.9704 Y-0.9634 F50.
X0.9635 Y-0.9704
X0.9684 Y-0.9763 F60.
X0.9704 Y-0.9785
X0.9737 Y-0.9791
X0.9768 Y-0.9778
X0.9787 Y-0.975
Y-0.9716
X0.9768 Y-0.9688
X0.9762 Y-0.9683 F50.
G3 X0.9684 Y-0.9763 I-0.0034 J-0.0045
G1 X0.9739 Y-0.9829 F60.
X0.978 Y-0.9873
X0.9818 Y-0.9874
X0.9851 Y-0.9856
X0.9869 Y-0.9823
X0.9868 Y-0.9785
X0.9846 Y-0.9754
X0.9824 Y-0.9737 F50.
G3 X0.9739 Y-0.9829 I-0.0035 J-0.0052
G1 X0.9818 Y-0.9922 F60.
X0.9859 Y-0.9966
X0.9866 Y-0.9968
X0.9908 Y-0.997
X0.9946 Y-0.995
X0.9967 Y-0.9912
X0.9965 Y-0.987
X0.9941 Y-0.9834
X0.9916 Y-0.9816 F50.
G3 X0.9818 Y-0.9922 I-0.0041 J-0.0061
G1 X0.9906 Y-1.0026 F60.
X0.9914 Y-1.0035
X0.9922 Y-1.0044
X0.994 Y-1.0063
X0.9946 Y-1.0069
X0.9952 Y-1.0074
X0.9959 Y-1.0078
G3 X1.0074 Y-0.9996 I0.0035 J0.0071
X1.0055 Y-0.9955 I-0.0079 J-0.0011 F50.
G1 X1.0044 Y-0.9942
G3 X0.9922 Y-1.0044 I-0.006 J-0.0052
G1 X0.9939 Y-1.0065 F60.
X0.9946 Y-1.0071
X0.9965 Y-1.0081
X0.9973 Y-1.0085
X1.0004 Y-1.009
X1.0012 Y-1.0088
X1.0033 Y-1.0083
X1.0039 Y-1.008
X1.0059 Y-1.0066
X1.0064 Y-1.0062
X1.0079 Y-1.004
X1.0082 Y-1.0036
X1.0089 Y-1.0006
Y-1.0002
X1.0086 Y-0.9974
X1.0084 Y-0.9969
X1.0071 Y-0.9945
X1.0067 Y-0.9941
X0.9988 Y-0.9874
X0.9969 Y-0.9865 Z-0.1298
X0.995 Y-0.9857 Z-0.1291
X0.9933 Y-0.985 Z-0.1279
X0.9923 Y-0.9849 Z-0.127
X0.9914 Y-0.9848 Z-0.126
X0.9903 Y-0.9849 Z-0.1241
X0.9896 Y-0.985 Z-0.1221
X0.9894 Z-0.12
G0 Z0.4
X0.5182 Y4.1868
Z-0.1002
G1 Z-0.1151 F50.
X0.518 Y4.1866 Z-0.118
X0.5174 Y4.1859 Z-0.1208
X0.5165 Y4.1849 Z-0.1234
X0.5153 Y4.1835 Z-0.1256
X0.5138 Y4.1818 Z-0.1275
X0.5122 Y4.1799 Z-0.1289
X0.5103 Y4.1777 Z-0.1297
X0.5084 Y4.1755 Z-0.13
G3 X0.4617 Y4.1082 I0.2874 J-0.2492
X0.7017 Y3.9712 I0.1366 J-0.0393 F60.
G1 X0.7103 Y3.9768
X0.7185 Y3.9829
X0.7264 Y3.9895
X0.7339 Y3.9965
X0.741 Y4.004
X0.7477 Y4.0118
X0.7538 Y4.02
X0.7595 Y4.0286
X0.7647 Y4.0375
X0.7693 Y4.0467
X0.7734 Y4.0561
X0.7769 Y4.0657
X0.7799 Y4.0756
X0.7823 Y4.0855
X0.7841 Y4.0957
X0.7853 Y4.1059
X0.7859 Y4.1161
Y4.1264
X0.7854 Y4.1366
X0.7842 Y4.1468
X0.7824 Y4.157
X0.78 Y4.167
X0.7771 Y4.1768
X0.7736 Y4.1865
X0.7695 Y4.1959
X0.7649 Y4.2051
X0.7598 Y4.214
X0.7542 Y4.2225
X0.748 Y4.2308
X0.7414 Y4.2387
X0.7344 Y4.2461
X0.7269 Y4.2532
X0.719 Y4.2598
X0.7108 Y4.2659
X0.7022 Y4.2715
X0.6933 Y4.2766
X0.6841 Y4.2812
X0.6799 Y4.2915
X0.675 Y4.3014
X0.6697 Y4.3111
X0.6638 Y4.3205
X0.6574 Y4.3295
X0.6505 Y4.3382
X0.6431 Y4.3464
X0.6353 Y4.3543
X0.6271 Y4.3617
X0.6185 Y4.3686
X0.6095 Y4.3751
X0.6002 Y4.381
X0.5905 Y4.3864
X0.5806 Y4.3913
X0.5704 Y4.3957
X0.56 Y4.3994
X0.5494 Y4.4026
X0.5387 Y4.4052
X0.5278 Y4.4072
X0.5168 Y4.4086
X0.5058 Y4.4094
X0.4947 Y4.4095
X0.4837 Y4.4091
X0.4726 Y4.408
X0.4617 Y4.4064
X0.4509 Y4.4041
X0.4402 Y4.4013
X0.4297 Y4.3978
X0.4194 Y4.3938
X0.4093 Y4.3892
X0.3995 Y4.3841
X0.39 Y4.3785
X0.3808 Y4.3723
X0.372 Y4.3656
X0.3635 Y4.3585
X0.3555 Y4.3509
X0.3479 Y4.3428
X0.3408 Y4.3344
X0.3341 Y4.3256
X0.3279 Y4.3164
X0.3223 Y4.3069
X0.3171 Y4.2971
X0.3126 Y4.287
X0.3086 Y4.2767
X0.3051 Y4.2662
X0.3023 Y4.2555
X0.3 Y4.2447
X0.2984 Y4.2337
X0.2973 Y4.2227
X0.2969 Y4.2117
X0.297 Y4.2006
X0.2978 Y4.1896
X0.2992 Y4.1786
X0.3012 Y4.1677
X0.3038 Y4.157
G3 X0.3839 Y3.9598 I2.7168 J0.9889
G1 X0.3851 Y3.9587
X0.3866 Y3.9579
G2 X0.5252 Y3.8743 I-0.3095 J-0.6701
G1 X0.5366 Y3.8693
X0.5482 Y3.8649
X0.56 Y3.8611
X0.572 Y3.8579
X0.5842 Y3.8552
X0.5964 Y3.8532
X0.6087 Y3.8518
X0.6211 Y3.851
X0.6336 Y3.8508
X0.646 Y3.8512
X0.6583 Y3.8522
X0.6707 Y3.8539
X0.6829 Y3.8561
X0.695 Y3.859
X0.7069 Y3.8625
X0.7186 Y3.8665
X0.7301 Y3.8711
X0.7414 Y3.8763
X0.7524 Y3.8821
X0.7632 Y3.8884
X0.7735 Y3.8952
X0.7836 Y3.9025
X0.7932 Y3.9103
X0.8025 Y3.9186
X0.8113 Y3.9273
X0.8197 Y3.9365
X0.8277 Y3.946
X0.8351 Y3.956
X0.842 Y3.9662
X0.8485 Y3.9769
X0.8544 Y3.9878
X0.8597 Y3.999
X0.8645 Y4.0105
X0.8687 Y4.0222
X0.8723 Y4.0341
X0.8753 Y4.0461
X0.8777 Y4.0583
X0.8795 Y4.0706
X0.8807 Y4.0829
X0.8813 Y4.0953
Y4.1077
X0.8807 Y4.1201
X0.8794 Y4.1325
X0.8775 Y4.1448
X0.875 Y4.1569
X0.872 Y4.169
X0.8683 Y4.1808
X0.864 Y4.1925
X0.6084 Y4.4474
G3 X0.3041 Y4.4362 I-0.1457 J-0.1804
X0.3171 Y4.4132 I0.0125 J-0.0081
G1 X0.598 Y4.4223
X0.6013 Y4.4228
G3 X0.6084 Y4.4474 I-0.0037 J0.0144 F50.
G1 X0.5077 Y4.5467 F60.
G3 X0.3878 Y4.5763 I-0.0873 J-0.0961
G1 X0.3866 Y4.5733
X0.386 Y4.5703
Y4.5672
X0.3866 Y4.5642
X0.3878 Y4.5614
X0.3895 Y4.5589
X0.3917 Y4.5568
X0.3942 Y4.5552
X0.3969 Y4.5541
X0.4023 Y4.5523
G3 X0.5006 Y4.522 I0.087 J0.1076
X0.5077 Y4.5467 I-0.0037 J0.0144 F50.
X0.4111 Y4.6124 I-0.1181 J-0.0698 F60.
G2 X0.271 Y4.3939 I-1.0519 J0.5208
G3 X0.2144 Y4.2876 I0.0784 J-0.11
X0.2417 Y4.284 I0.0144 J0.0038
G1 X0.2946 Y4.3762
G3 X0.296 Y4.388 I-0.0129 J0.0074
X0.271 Y4.3939 I-0.0142 J-0.0044 F50.
X0.2087 Y4.3202 I0.0476 J-0.1034 F60.
G1 X0.2095 Y4.3087
X0.2732 Y4.0312
G3 X0.32 Y3.9854 I0.0457 J0.
G1 X0.3772 Y3.9618
X0.3866 Y3.9579
G3 X0.3966 Y3.9575 I0.0057 J0.0138
G2 X0.4082 Y3.9563 I0.0044 J-0.0142
G1 X0.4158 Y3.9522
X0.4999 Y3.9061
X0.5026 Y3.9042
X0.5048 Y3.9017
X0.5064 Y3.8988
G3 X0.5252 Y3.8743 I0.0573 J0.0245 F50.
G1 X0.5714 Y3.8406 F60.
X0.591 Y3.823
X0.6156 Y3.7999
G3 X0.9325 Y3.959 I0.0935 J0.2089
X0.9717 Y4.0893 I-0.1115 J0.1045
G1 X0.8719 Y4.1877
G3 X0.8469 Y4.1761 I-0.0101 J-0.011
X0.8543 Y4.1512 I0.0533 J0.0022
X0.9418 Y4.094 I0.1017 J0.06
X0.9609 Y4.0932 I0.0142 J0.1173 F50.
G2 X0.9717 Y4.0893 I0.0006 J-0.0149
G1 X1.0072 Y4.0543 F60.
G2 X0.8596 Y3.7352 I-0.2269 J-0.0887
X0.7215 Y3.683 I-0.121 J0.1113
G3 X0.6156 Y3.7999 I-0.6112 J-0.4476
G2 X0.6118 Y3.8143 I0.0106 J0.0105
X0.692 Y3.8386 I0.0477 J-0.0129
X0.7263 Y3.7121 I-0.0776 J-0.089
X0.7205 Y3.6979 I-0.112 J0.0375 F50.
G3 X0.7215 Y3.683 I0.0134 J-0.0065
G1 X0.7332 Y3.6669 F60.
X0.7369 Y3.6611
X0.7453 Y3.6552
X0.754 Y3.6497
X0.763 Y3.6448
X0.7722 Y3.6404
X0.7818 Y3.6366
X0.7915 Y3.6333
X0.8014 Y3.6307
X0.8114 Y3.6286
X0.8216 Y3.6272
X0.8318 Y3.6263
X0.842 Y3.6261
X0.8523 Y3.6265
X0.8625 Y3.6274
X0.8726 Y3.629
X0.8826 Y3.6312
X0.8925 Y3.634
X0.9022 Y3.6374
X0.9117 Y3.6413
X0.9209 Y3.6458
X0.9298 Y3.6509
X0.9384 Y3.6564
X0.9467 Y3.6625
X0.9545 Y3.669
X0.962 Y3.676
X0.9691 Y3.6835
X0.9757 Y3.6913
X0.9818 Y3.6995
X0.9874 Y3.7081
X0.9925 Y3.717
G3 X1.1229 Y3.9417 I-0.1819 J0.2558
G1 X1.0072 Y4.0543
G3 X0.9926 Y4.0575 I-0.0101 J-0.011
X0.9697 Y3.9979 I0.0122 J-0.0389
X1.0917 Y3.9415 I0.1017 J0.06
X1.1066 Y3.9451 I-0.0203 J0.1163 F50.
G2 X1.1212 Y3.9419 I0.0044 J-0.0142
G1 X1.1479 Y3.9155 F60.
X1.1525 Y3.9053
X1.1565 Y3.8949
X1.16 Y3.8843
X1.1628 Y3.8735
X1.1651 Y3.8626
X1.1668 Y3.8516
X1.1679 Y3.8405
X1.1684 Y3.8293
X1.1683 Y3.8182
X1.1676 Y3.807
X1.1663 Y3.7959
X1.1643 Y3.7849
X1.1618 Y3.7741
X1.1587 Y3.7634
X1.155 Y3.7528
X1.1508 Y3.7425
X1.146 Y3.7324
X1.1407 Y3.7226
X1.1348 Y3.7131
X1.1285 Y3.7039
X1.1216 Y3.6951
X1.1143 Y3.6867
X1.1066 Y3.6787
X1.0984 Y3.6711
X1.0898 Y3.664
X1.0808 Y3.6573
X1.0715 Y3.6511
X1.0619 Y3.6455
X1.052 Y3.6404
X1.0437 Y3.6302
X1.0349 Y3.6205
X1.0256 Y3.6111
X1.016 Y3.6022
X1.0059 Y3.5938
X0.9955 Y3.5858
X0.9847 Y3.5783
X0.9736 Y3.5714
X0.9621 Y3.5649
X0.9504 Y3.559
X0.9384 Y3.5537
X0.9262 Y3.5489
X0.9138 Y3.5446
X0.9012 Y3.541
X0.8884 Y3.5379
X0.8755 Y3.5355
X0.8625 Y3.5336
X0.8494 Y3.5323
X0.8363 Y3.5317
X0.8232 Y3.5316
X0.8101 Y3.5322
X0.7939 Y3.5686
X0.7815 Y3.5917
X0.7369 Y3.6611
G2 X0.7368 Y3.676 I0.0128 J0.0076
X0.8208 Y3.6753 I0.0418 J-0.0234
X0.8201 Y3.5624 I-0.1041 J-0.0559
X0.8119 Y3.5495 I-0.1034 J0.057 F50.
G3 X0.8102 Y3.5347 I0.012 J-0.0088
G1 X0.8214 Y3.5115 F60.
G3 X0.8567 Y3.4778 I0.0499 J0.017
X0.8671 Y3.5021 I-0.0011 J0.0149
G1 X0.8465 Y3.527
G3 X0.8364 Y3.5323 I-0.0115 J-0.0095
X0.8214 Y3.5115 I-0.0014 J-0.0148 F50.
X0.8719 Y3.4784 I0.0352 J-0.0013 F60.
G1 X0.9643 Y3.4844
G3 X1.2645 Y3.8024 I-0.0921 J0.3876
G1 X1.1479 Y3.9155
G3 X1.1334 Y3.9188 I-0.0101 J-0.011
X1.1103 Y3.8596 I0.0121 J-0.0388
X1.2328 Y3.8024 I0.1022 J0.0592
X1.2477 Y3.806 I-0.0203 J0.1163 F50.
G2 X1.2623 Y3.8028 I0.0044 J-0.0142
G1 X1.2879 Y3.7775 F60.
G2 X1.1939 Y3.5034 I-0.1912 J-0.0876
G1 X1.1941 Y3.4994
X0.9643 Y3.4844
G2 X0.9512 Y3.4915 I-0.0004 J0.0149
X0.9684 Y3.5599 I0.0418 J0.0259
X1.1722 Y3.519 I0.0786 J-0.1364
X1.1809 Y3.5064 I-0.1252 J-0.0956 F50.
G3 X1.1941 Y3.4994 I0.0127 J0.0078
G1 X1.2648 Y3.504 F60.
G3 X1.3998 Y3.6671 I-0.0451 J0.1749
G1 X1.2879 Y3.7775
G3 X1.2733 Y3.7808 I-0.0101 J-0.011
X1.251 Y3.7189 I0.0123 J-0.0394
X1.3704 Y3.6668 I0.0991 J0.0642
X1.3853 Y3.6704 I-0.0203 J0.1163 F50.
G2 X1.3998 Y3.6671 I0.0044 J-0.0142
G1 X1.4265 Y3.6408 F60.
G2 X1.4244 Y3.5133 I-0.0838 J-0.0624
G1 X1.2648 Y3.504
G2 X1.2555 Y3.5309 I-0.0004 J0.0149
G1 X1.3992 Y3.6357
X1.4077 Y3.6419 F50.
G2 X1.4265 Y3.6408 I0.0088 J-0.012
G1 X1.4817 Y3.5864 F60.
G2 X1.4983 Y3.5192 I-0.0197 J-0.0405
G1 X1.4232 Y3.5143
G2 X1.4101 Y3.5213 I-0.0004 J0.0149
X1.4396 Y3.5605 I0.0224 J0.0139
X1.4759 Y3.5384 I-0.0214 J-0.0758
X1.4852 Y3.5262 I-0.0576 J-0.0536 F50.
G3 X1.4983 Y3.5192 I0.0127 J0.0078
G1 X1.5132 Y3.5201 F60.
X1.5146 Y3.5202
X1.5154 Y3.5204
X1.5211 Y3.5222
X1.5265 Y3.5249
X1.5278 Y3.5258
X1.5299 Y3.528
X1.5311 Y3.5309
X1.531 Y3.5339
X1.5282 Y3.537
X1.5242 Y3.5365 F50.
X1.5121 Y3.5285
X1.5154 Y3.5204
X1.5264 Y3.5233 F60.
X1.5269 Y3.5236
X1.5289 Y3.5251
X1.5293 Y3.5255
X1.5309 Y3.5281
X1.5315 Y3.531
G3 X1.4817 Y3.5864 I-0.0727 J-0.0152
X1.4668 Y3.5896 I-0.0101 J-0.011
G1 X1.4648 Y3.5883 Z-0.1298
X1.4629 Y3.5871 Z-0.1293
X1.461 Y3.586 Z-0.1284
X1.4599 Y3.5842 Z-0.127
X1.4589 Y3.5826 Z-0.1253
X1.4581 Y3.5813 Z-0.1234
X1.4575 Y3.5802 Z-0.1212
X1.4573 Y3.5796 Z-0.1192
X1.4572 Y3.5791 Z-0.1172
X1.4571 Y3.579 Z-0.1151
G0 Z0.4
X0.9025 Y2.2401
Z-0.1002
G1 Z-0.1151 F50.
X0.9027 Y2.2399 Z-0.118
X0.9033 Y2.2393 Z-0.1208
X0.9043 Y2.2384 Z-0.1234
X0.9057 Y2.2371 Z-0.1256
X0.9074 Y2.2356 Z-0.1275
X0.9093 Y2.2339 Z-0.1289
X0.9113 Y2.232 Z-0.1297
X0.9135 Y2.2301 Z-0.13
G3 X0.9796 Y2.1817 I0.2562 J0.2812
X1.1308 Y2.2322 I0.054 J0.09 F60.
G2 X1.3655 Y2.508 I0.7165 J-0.3718
G3 X1.228 Y2.8756 I-0.0688 J0.1838
X1.1433 Y2.8142 I0.0688 J-0.1838
X0.8405 Y2.4809 I0.2948 J-0.5721
G2 X0.6678 Y2.3122 I-0.5354 J0.3755
G1 X0.6527 Y2.2926
X0.6472 Y2.2833
X0.6422 Y2.2737
X0.6378 Y2.2638
X0.634 Y2.2536
X0.6307 Y2.2433
X0.6281 Y2.2328
X0.6261 Y2.2222
X0.6247 Y2.2114
X0.6239 Y2.2006
X0.6237 Y2.1898
X0.6241 Y2.179
X0.6252 Y2.1682
X0.6268 Y2.1575
X0.6291 Y2.1469
X0.632 Y2.1365
X0.6355 Y2.1262
X0.6396 Y2.1162
X0.6442 Y2.1064
X0.6494 Y2.0969
X0.6551 Y2.0877
X0.6614 Y2.0789
X0.6681 Y2.0704
X0.6753 Y2.0623
X0.683 Y2.0547
X0.6911 Y2.0475
X0.6995 Y2.0407
X0.7084 Y2.0345
X0.7176 Y2.0288
X0.7271 Y2.0236
X0.7369 Y2.019
X0.747 Y2.015
X0.7572 Y2.0115
X0.7677 Y2.0086
X0.7783 Y2.0064
X0.789 Y2.0047
X0.7997 Y2.0037
X0.8106 Y2.0033
X0.8214 Y2.0035
X0.8322 Y2.0043
X0.8429 Y2.0057
X0.8535 Y2.0078
X0.864 Y2.0104
X0.8744 Y2.0137
X0.8845 Y2.0175
X0.8944 Y2.022
X0.904 Y2.0269
X0.9133 Y2.0324
X0.9223 Y2.0385
G3 X1.3172 Y2.3389 I-0.0531 J0.4797
X1.4552 Y2.4517 I-1.4032 J1.8575
G1 X1.5571 Y2.6435
G3 X1.416 Y2.9586 I-0.2253 J0.0882
G1 X1.2185 Y2.9458
G3 X0.7815 Y2.5591 I0.1288 J-0.5859
X0.5687 Y2.3378 I1.7136 J-1.8615
X0.9693 Y1.9537 I0.2459 J-0.1445
X1.2469 Y2.0763 I-0.0427 J0.4725
X1.266 Y2.0954 I-0.0365 J0.0555
G1 X1.4552 Y2.4517
G3 X1.4542 Y2.4665 I-0.0134 J0.0065
X1.4319 Y2.4766 I-0.0194 J-0.0131
X1.2568 Y2.1232 I0.0289 J-0.2344
G1 X1.2649 Y2.1102 F50.
G2 X1.266 Y2.0954 I-0.0124 J-0.0083
G1 X1.1954 Y1.9626 F60.
G2 X0.9672 Y1.8395 I-0.3409 J0.3589
G1 X0.7332
G2 X0.4645 Y2.0413 I0.0306 J0.3206
G1 Y2.2966
G2 X0.4938 Y2.3919 I0.1194 J0.0154
G3 X0.8349 Y2.8054 I-0.4918 J0.7531
G2 X0.9444 Y2.9283 I0.2655 J-0.1262
G1 X1.2185 Y2.9458
G2 X1.2194 Y2.916 I0.0004 J-0.0149
X1.2041 Y2.9305 I-0.0004 J0.0149
X1.2186 Y2.9458 I0.0149 J0.0004
G1 X1.395 Y2.9506
G2 X1.3958 Y2.9208 I0.0004 J-0.0149
X1.387 Y2.948 I-0.0004 J0.0149
X1.416 Y2.9586 I0.0353 J-0.0514 F50.
G1 X1.4959 Y2.9638 F60.
G2 X1.6543 Y2.8265 I-0.0147 J-0.177
G1 X1.5571 Y2.6435
G2 X1.5368 Y2.6381 I-0.0129 J0.0074
X1.5297 Y2.6488 I0.0071 J0.0124
X1.6271 Y2.8134 I0.1564 J0.0187
X1.6453 Y2.8195 I0.059 J-0.146 F50.
G3 X1.6543 Y2.8265 I-0.0039 J0.0144
G1 X1.6738 Y2.8632 F60.
G3 X1.6572 Y2.9755 I-0.0891 J0.0442
G1 X1.6544 Y2.9751
X1.6518 Y2.9742
X1.6493 Y2.9728
X1.6472 Y2.9711
X1.6454 Y2.969
X1.644 Y2.9667
X1.643 Y2.9641
X1.6425 Y2.9615
Y2.9588
X1.6429 Y2.9504
G3 X1.6482 Y2.863 I0.129 J-0.036
X1.6738 Y2.8632 I0.0128 J0.0077 F50.
G1 X1.7168 Y2.9442 F60.
X1.723 Y2.9557
X1.7263 Y2.9659
X1.7265 Y2.9666
X1.7263 Y2.9695
X1.7262 Y2.97
X1.7252 Y2.9725
X1.7246 Y2.9732
X1.7231 Y2.9747
X1.7226 Y2.9752
X1.7201 Y2.9764
X1.7088 Y2.9777
X1.4959 Y2.9638
G3 X1.4851 Y2.9405 I0.0015 J-0.0148
G1 X1.4867 Y2.9382 Z-0.1297
X1.4883 Y2.9359 Z-0.1289
X1.4898 Y2.9337 Z-0.1275
X1.4911 Y2.9319 Z-0.1256
X1.4921 Y2.9303 Z-0.1234
X1.4929 Y2.9292 Z-0.1208
X1.4934 Y2.9285 Z-0.118
X1.4936 Y2.9283 Z-0.1151
G0 Z-0.1002
X0.8315 Y2.76
G1 Z-0.1151 F50.
X0.8314 Y2.7603 Z-0.118
Y2.7612 Z-0.1208
X0.8312 Y2.7625 Z-0.1234
X0.8311 Y2.7644 Z-0.1256
X0.8308 Y2.7666 Z-0.1275
X0.8306 Y2.7692 Z-0.1289
X0.8303 Y2.772 Z-0.1297
X0.8301 Y2.7749 Z-0.13
G2 X0.8349 Y2.8054 I0.062 J0.0058
X0.8756 Y2.9204 I0.3208 J-0.0489 F60.
X0.9446 Y2.928 I0.0493 J-0.1299
X0.9579 Y2.9207 I0.0004 J-0.0149
G1 X0.9594 Y2.9182 Z-0.1297
X0.9608 Y2.9158 Z-0.1289
X0.9621 Y2.9135 Z-0.1275
X0.9632 Y2.9116 Z-0.1256
X0.9642 Y2.91 Z-0.1234
X0.9649 Y2.9088 Z-0.1208
X0.9653 Y2.9081 Z-0.118
X0.9655 Y2.9078 Z-0.1151
G0 Z-0.1002
X1.2009 Y2.0078
G1 Z-0.1151 F50.
Y2.0075 Z-0.118
X1.201 Y2.0066 Z-0.1208
Y2.0053 Z-0.1234
X1.2011 Y2.0034 Z-0.1256
X1.2012 Y2.0012 Z-0.1275
X1.2014 Y1.9986 Z-0.1289
X1.2015 Y1.9958 Z-0.1297
X1.2016 Y1.9929 Z-0.13
G2 X1.1954 Y1.9626 I-0.0622 J-0.003
G1 X1.1368 Y1.8523 F60.
G2 X1.1153 Y1.8396 I-0.0192 J0.0079
G1 X0.9672 Y1.8395
G2 X0.962 Y1.8684 I0. J0.0149
G3 X0.9621 Y1.8962 I-0.0052 J0.014
G1 X0.4914 Y2.0772
G3 X0.4732 Y2.0709 I-0.0053 J-0.0139
X0.4645 Y2.0413 I0.0536 J-0.0318 F50.
G1 Y1.937 F60.
G3 X0.5077 Y1.8393 I0.1437 J0.0052
G1 X0.5102 Y1.8395
G3 X0.5237 Y1.8596 I-0.0005 J0.0149
G1 X0.5227 Y1.8621
X0.4934 Y1.9416
G3 X0.487 Y1.9493 I-0.014 J-0.0052
X0.4645 Y1.937 I-0.0077 J-0.0128 F50.
X0.4687 Y1.8441 I0.1669 J-0.0391 F60.
X0.484 Y1.8395 I0.0134 J0.0171
G1 X0.7332
G3 X0.7458 Y1.8474 I-0.0005 J0.0149
X0.7542 Y1.9028 I-0.074 J0.0394
X0.4858 Y2.2766 I-0.541 J-0.1052
G1 X0.4724 Y2.284 F50.
G2 X0.4645 Y2.2966 I0.007 J0.0131
X0.4938 Y2.3919 I0.0561 J0.0349 F60.
G1 X0.4964 Y2.3928 Z-0.1299
X0.4988 Y2.3936 Z-0.1294
X0.5012 Y2.3943 Z-0.1284
X0.5032 Y2.3939 Z-0.127
X0.505 Y2.3935 Z-0.1254
X0.5065 Y2.3932 Z-0.1234
X0.5077 Y2.393 Z-0.1212
X0.5085 Y2.3928 Z-0.1189
X0.5089 Y2.3927 Z-0.117
X0.509 Y2.3926 Z-0.1151
G0 Z0.4
X2.0344 Y4.5136
Z-0.1002
G1 Z-0.1151 F50.
X2.0346 Y4.5134 Z-0.118
X2.0352 Y4.5128 Z-0.1208
X2.0363 Y4.5119 Z-0.1234
X2.0376 Y4.5106 Z-0.1256
X2.0393 Y4.5091 Z-0.1275
X2.0412 Y4.5074 Z-0.1289
X2.0433 Y4.5055 Z-0.1297
X2.0454 Y4.5035 Z-0.13
G3 X2.1116 Y4.4552 I0.2562 J0.2812
X2.1346 Y4.7249 I-0.0157 J0.1372 F60.
G1 X2.125 Y4.73
X2.1152 Y4.7346
X2.105 Y4.7386
X2.0947 Y4.742
X2.0842 Y4.7449
X2.0736 Y4.7471
X2.0628 Y4.7487
X2.052 Y4.7497
X2.0411 Y4.7501
X2.0302 Y4.7499
X2.0194 Y4.749
X2.0086 Y4.7476
X1.9979 Y4.7455
X1.9874 Y4.7428
X1.977 Y4.7395
X1.9669 Y4.7356
X1.9569 Y4.7311
X1.9473 Y4.7261
X1.9379 Y4.7206
X1.9289 Y4.7145
X1.9203 Y4.7079
X1.912 Y4.7008
X1.9041 Y4.6933
X1.8967 Y4.6853
X1.8898 Y4.6769
X1.8834 Y4.6682
X1.8774 Y4.659
X1.872 Y4.6496
X1.8672 Y4.6399
X1.8629 Y4.6299
X1.8592 Y4.6197
X1.856 Y4.6092
X1.8535 Y4.5987
X1.8516 Y4.588
X1.8503 Y4.5772
X1.8496 Y4.5663
G3 X1.8534 Y4.2638 I0.5885 J-0.144
X1.9888 Y3.993 I0.2764 J-0.031
G1 X1.9989 Y3.9893
X2.0093 Y3.9862
X2.0198 Y3.9836
X2.0304 Y3.9817
X2.0412 Y3.9803
X2.052 Y3.9795
X2.0628 Y3.9794
X2.0736 Y3.9798
X2.0843 Y3.9809
X2.095 Y3.9825
X2.1056 Y3.9848
X2.116 Y3.9876
X2.1263 Y3.991
X2.1363 Y3.995
X2.1462 Y3.9995
X2.1557 Y4.0046
X2.1649 Y4.0102
X2.1739 Y4.0163
X2.1824 Y4.0229
X2.1906 Y4.03
X2.1984 Y4.0375
X2.2057 Y4.0454
X2.2126 Y4.0537
X2.2191 Y4.0624
X2.225 Y4.0715
X2.2304 Y4.0808
X2.2353 Y4.0905
X2.2396 Y4.1004
X2.2434 Y4.1105
X2.2466 Y4.1209
X2.2492 Y4.1314
X2.2512 Y4.142
X2.2526 Y4.1527
X2.2535 Y4.1635
X2.2537 Y4.1743
X2.2533 Y4.1851
X2.2523 Y4.1958
X2.2507 Y4.2065
X2.2486 Y4.2171
X2.2458 Y4.2276
X2.2425 Y4.2379
X2.2386 Y4.2479
X2.2341 Y4.2578
X2.2385 Y4.2922
X2.2319 Y4.3376
X2.2378 Y4.3675
G3 X1.8514 Y4.7729 I-0.1932 J0.2027
X1.7721 Y4.6346 I0.1932 J-0.2027
X1.7508 Y4.2751 I0.5189 J-0.2112
X1.8097 Y4.0411 I0.5592 J0.0162
G1 X1.901 Y3.951
X1.9102 Y3.9428
X1.9199 Y3.9351
X1.9299 Y3.9279
X1.9403 Y3.9211
X1.951 Y3.9149
X1.9619 Y3.9091
X1.9732 Y3.904
X1.9846 Y3.8994
X1.9963 Y3.8953
X2.0082 Y3.8918
X2.0202 Y3.889
X2.0324 Y3.8867
X2.0446 Y3.885
X2.057 Y3.8839
X2.0693 Y3.8834
X2.0817 Y3.8835
X2.0941 Y3.8842
X2.1064 Y3.8855
X2.1186 Y3.8875
X2.1307 Y3.89
X2.1427 Y3.8931
X2.1545 Y3.8968
X2.1661 Y3.901
X2.1775 Y3.9059
X2.1886 Y3.9112
X2.1995 Y3.9172
X2.21 Y3.9236
X2.2203 Y3.9305
X2.2301 Y3.938
X2.2397 Y3.9459
X2.2488 Y3.9543
X2.2574 Y3.9631
X2.3127 Y4.0658
G3 X2.3427 Y4.3202 I-0.5706 J0.1964
X2.3391 Y4.8082 I-0.3392 J0.2415
G1 X2.3287 Y4.8198
X2.3179 Y4.8309
X2.3067 Y4.8416
X2.2951 Y4.8519
X2.283 Y4.8617
X2.2706 Y4.871
X2.2578 Y4.8797
X2.2446 Y4.888
X2.2312 Y4.8957
X2.2174 Y4.9029
X2.2034 Y4.9095
X2.1891 Y4.9156
X2.1746 Y4.9211
X2.1599 Y4.926
X2.1449 Y4.9303
X2.1299 Y4.934
X2.1147 Y4.937
X2.0993 Y4.9395
X2.0839 Y4.9414
X2.0685 Y4.9426
X2.053 Y4.9433
X2.0374
X2.0219 Y4.9426
X2.0065 Y4.9414
X1.991 Y4.9395
X1.9757 Y4.937
X1.9605 Y4.9339
X1.9454 Y4.9302
X1.9305 Y4.9259
X1.9158 Y4.9211
X1.9013 Y4.9156
X1.887 Y4.9095
X1.873 Y4.9029
X1.8592 Y4.8957
X1.8458 Y4.888
X1.8326 Y4.8797
X1.8198 Y4.8709
X1.8074 Y4.8616
X1.7953 Y4.8519
X1.7837 Y4.8416
X1.7725 Y4.8309
X1.7617 Y4.8197
X1.7513 Y4.8082
X1.7415 Y4.7962
X1.7321 Y4.7838
X1.7232 Y4.7711
X1.7149 Y4.758
X1.7071 Y4.7446
X1.6998 Y4.7309
X1.6931 Y4.7169
X1.6869 Y4.7026
X1.6813 Y4.6882
X1.6763 Y4.6735
X1.6719 Y4.6586
X1.6681 Y4.6435
X1.665 Y4.6283
X1.6624 Y4.613
G3 X1.6455 Y4.3109 I0.5557 J-0.1825
X1.6659 Y4.1828 I0.292 J-0.0193
G1 X1.8097 Y4.0411
G3 X1.8242 Y4.0378 I0.0101 J0.011
X1.832 Y4.0467 I-0.0034 J0.0108
G1 X1.8325 Y4.0496
G3 X1.6953 Y4.1832 I-0.1168 J0.0173
X1.6804 Y4.1796 I0.0203 J-0.1163 F50.
G2 X1.6659 Y4.1828 I-0.0044 J0.0142
G1 X1.5985 Y4.2493 F60.
G2 X1.5787 Y4.6991 I0.4426 J0.2447
X1.6101 Y4.7654 I0.1844 J-0.0467
G3 X1.6729 Y4.8516 I-0.3305 J0.3069
G2 X2.4552 Y4.3425 I0.377 J-0.2762
G1 X2.3127 Y4.0658
G2 X2.2864 Y4.0798 I-0.0132 J0.007
X2.307 Y4.0857 I0.0132 J-0.007
X2.3122 Y4.0649 I-0.0074 J-0.0129
G1 X2.2619 Y3.9844
G2 X2.2366 Y4.0001 I-0.0126 J0.0079
X2.2641 Y3.993 I0.0126 J-0.0079
X2.2579 Y3.9627 I-0.0622 J-0.003 F50.
G1 X2.2083 Y3.8693 F60.
G2 X2.0602 Y3.7929 I-0.1355 J0.0809
G1 X1.901 Y3.951
G2 X1.9161 Y3.9756 I0.0108 J0.0102
G1 X2.1943 Y3.8915
X2.1992 Y3.8901 F50.
G2 X2.2083 Y3.8693 I-0.0043 J-0.0143
G1 X2.153 Y3.7652 F60.
G2 X2.1202 Y3.7365 I-0.0302 J0.0014
G1 X2.1152 Y3.7399
X2.0603 Y3.7939
G2 X2.0775 Y3.8176 I0.0108 J0.0102
G1 X2.1393 Y3.7883
X2.146 Y3.7852 F50.
G2 X2.153 Y3.7652 I-0.0064 J-0.0135
X2.1202 Y3.7365 I-0.0207 J-0.0094 F60.
X2.1141 Y3.7504 I0.0087 J0.0121
G1 X2.1145 Y3.7533 Z-0.1297
X2.1148 Y3.7561 Z-0.1289
X2.1151 Y3.7586 Z-0.1275
X2.1154 Y3.7609 Z-0.1256
X2.1156 Y3.7627 Z-0.1234
X2.1158 Y3.7641 Z-0.1208
X2.1159 Y3.7649 Z-0.118
Y3.7652 Z-0.1151
G0 Z-0.1002
X2.4243 Y4.3107
G1 Z-0.1151 F50.
X2.4245 Y4.3108 Z-0.118
X2.4252 Y4.3113 Z-0.1208
X2.4264 Y4.312 Z-0.1234
X2.428 Y4.313 Z-0.1256
X2.4299 Y4.3141 Z-0.1275
X2.4321 Y4.3155 Z-0.1289
X2.4345 Y4.3169 Z-0.1297
X2.437 Y4.3184 Z-0.13
G3 X2.4586 Y4.3405 I-0.0324 J0.0532
G1 X2.5821 Y4.573 F60.
G3 X2.5376 Y4.8572 I-0.3319 J0.0937
X2.5164 Y4.8417 I-0.0065 J-0.0134
G1 X2.5544 Y4.5783
X2.5551 Y4.5754
X2.5564 Y4.5727
G3 X2.5821 Y4.573 I0.0128 J0.0077 F50.
G1 X2.6505 Y4.7018 F60.
G3 X2.659 Y4.7927 I-0.0697 J0.0524
X2.6379 Y4.7824 I-0.0065 J-0.0134
G1 X2.6371 Y4.7786
X2.623 Y4.7124
G3 X2.6249 Y4.7016 I0.0146 J-0.0031
X2.6505 Y4.7018 I0.0128 J0.0077 F50.
X2.6842 Y4.7744 I-0.0496 J0.0671 F60.
X2.6728 Y4.7854 I-0.0199 J-0.0092
G1 X2.0621 Y5.1098
G3 X1.7741 Y5.0649 I-0.0949 J-0.3373
G2 X1.6731 Y4.8515 I-0.7302 J0.215
G1 X1.6717 Y4.8493
X1.6708 Y4.8469
X1.6703 Y4.8444
X1.6702 Y4.8418
G2 X1.6687 Y4.8341 I-0.0149 J-0.0011
G1 X1.6631 Y4.8228
X1.6462 Y4.7886
G2 X1.6369 Y4.7809 I-0.0134 J0.0066
G3 X1.6101 Y4.7654 I0.0169 J-0.06 F50.
G2 X1.5084 Y4.664 I-0.4227 J0.3223 F60.
G3 X1.4437 Y4.4018 I0.2629 J-0.2039
G1 X1.5985 Y4.2493
G3 X1.613 Y4.246 I0.0101 J0.011
X1.6443 Y4.3222 I-0.0159 J0.0511
X1.4731 Y4.4024 I-0.139 J-0.0739
X1.4583 Y4.3986 I0.0321 J-0.1542 F50.
G2 X1.4437 Y4.4018 I-0.0044 J0.0142
G1 X1.3975 Y4.4474 F60.
G2 X1.3639 Y4.5639 I0.0837 J0.0872
G1 X1.4265 Y4.6003
X1.4392 Y4.6093
X1.5084 Y4.664
G2 X1.5302 Y4.6446 I0.0088 J-0.012
G1 X1.4226 Y4.4546
X1.4205 Y4.4511 F50.
G2 X1.3975 Y4.4474 I-0.013 J0.0073
X1.3196 Y4.5277 I0.1604 J0.2337 F60.
X1.3639 Y4.5639 I0.0379 J-0.0012
X1.3791 Y4.5633 I0.007 J-0.0131
G1 X1.3815 Y4.5617 Z-0.1297
X1.3838 Y4.5602 Z-0.1289
X1.386 Y4.5588 Z-0.1275
X1.3879 Y4.5575 Z-0.1256
X1.3895 Y4.5565 Z-0.1234
X1.3906 Y4.5558 Z-0.1208
X1.3913 Y4.5553 Z-0.118
X1.3916 Y4.5552 Z-0.1151
G0 Z0.4
X1.7756 Y5.0194
Z-0.1002
G1 Z-0.1151 F50.
X1.7755 Y5.0197 Z-0.118
X1.7753 Y5.0205 Z-0.1208
X1.7751 Y5.0219 Z-0.1234
X1.7747 Y5.0237 Z-0.1256
X1.7742 Y5.0259 Z-0.1275
X1.7737 Y5.0284 Z-0.1289
X1.7732 Y5.0312 Z-0.1297
X1.7726 Y5.034 Z-0.13
G2 X1.7741 Y5.0649 I0.061 J0.0125
G1 X1.7846 Y5.095 F60.
X1.7904 Y5.1181
G2 X1.886 Y5.2043 I0.1259 J-0.0435
G1 X2.0621 Y5.1098
G2 X2.0535 Y5.0821 I-0.0074 J-0.0129
G1 X1.8093 Y5.0997
X1.8039 Y5.1001 F50.
G2 X1.7904 Y5.1181 I0.0011 J0.0149
G1 X1.8085 Y5.2106 F60.
G2 X1.8193 Y5.2339 I0.0255 J0.0024
X1.8862 Y5.2032 I0.0065 J-0.0743
X1.8745 Y5.1761 I-0.0074 J-0.0129
G1 X1.8267 Y5.1905
X1.8187 Y5.1929 F50.
G2 X1.8085 Y5.2106 I0.0043 J0.0143
X1.8193 Y5.2339 I0.022 J0.004 F60.
G1 X1.8209 Y5.2327 Z-0.1292
X1.8207 Y5.2317 Z-0.1267
G0 Z0.4
X2.7004 Y6.1187
Z-0.1002
G1 Z-0.1151 F50.
X2.7006 Y6.1185 Z-0.118
X2.7012 Y6.1179 Z-0.1208
X2.7022 Y6.117 Z-0.1234
X2.7036 Y6.1158 Z-0.1256
X2.7053 Y6.1142 Z-0.1275
X2.7072 Y6.1125 Z-0.1289
X2.7092 Y6.1106 Z-0.1297
X2.7114 Y6.1087 Z-0.13
G3 X2.7775 Y6.0603 I0.2562 J0.2811
X2.9373 Y6.085 I0.0688 J0.0842 F60.
X3.3136 Y6.4432 I-5.2858 J5.9294
G1 X3.6626 Y6.7858
G3 X3.4598 Y7.121 I-0.1014 J0.1676
X3.3857 Y7.0403 I0.1014 J-0.1676
G1 X3.3547 Y7.0237
X3.3326 Y7.0026
X3.0704 Y6.746
X2.8081 Y6.4897
X2.6554 Y6.3397
G2 X2.3737 Y6.3017 I-0.2091 J0.4859
G3 X1.8851 Y6.2979 I-0.2233 J-2.7317
X1.7291 Y6.1145 I0.0403 J-0.1923
X1.9934 Y5.9273 I0.2091 J0.0151
X2.1786 Y5.9171 I0.1523 J1.0842
G1 X2.3926 Y5.9151
X2.6066 Y5.9131
G3 X3.0155 Y6.015 I0.0078 J0.8403
G1 X3.1552 Y6.1498
X3.2945 Y6.285
X3.4334 Y6.4206
X3.6951 Y6.6776
G3 X3.7063 Y6.6893 I-0.0238 J0.034
G1 X3.8238 Y6.9105
X3.8275 Y6.9222
X3.8306 Y6.934
X3.8332 Y6.946
X3.8352 Y6.9581
X3.8365 Y6.9703
X3.8373 Y6.9826
X3.8375 Y6.9949
X3.837 Y7.0071
X3.836 Y7.0193
X3.8344 Y7.0315
X3.8321 Y7.0436
X3.8293 Y7.0555
X3.8259 Y7.0673
X3.822 Y7.0789
X3.8174 Y7.0903
X3.8123 Y7.1015
X3.8067 Y7.1124
X3.8006 Y7.123
X3.7939 Y7.1333
X3.7867 Y7.1433
X3.7791 Y7.1529
X3.771 Y7.1621
X3.7624 Y7.1709
X3.7535 Y7.1793
X3.7441 Y7.1872
X3.7344 Y7.1946
X3.7243 Y7.2016
X3.7138 Y7.2081
X3.7031 Y7.214
X3.6921 Y7.2194
X3.6808 Y7.2243
X3.6693 Y7.2286
X3.6577 Y7.2324
X3.6458 Y7.2355
X3.6338 Y7.2381
X3.6217 Y7.2401
X3.6095 Y7.2415
X3.5973 Y7.2423
X3.585 Y7.2425
X3.5727 Y7.2421
X3.5605 Y7.2411
X3.3563 Y7.1386
G3 X2.5993 Y6.4287 I6.2033 J-7.3734
G2 X1.9613 Y6.4093 I-0.3879 J2.2574
G3 X1.8984 Y6.3984 I-0.0023 J-0.1737
G1 X1.7616 Y6.329
X1.751 Y6.3224
X1.7407 Y6.3154
X1.7308 Y6.3078
X1.7212 Y6.2998
X1.7121 Y6.2913
X1.7033 Y6.2824
X1.695 Y6.2731
X1.6872 Y6.2634
X1.6799 Y6.2533
X1.6731 Y6.2429
X1.6667 Y6.2321
X1.661 Y6.2211
X1.6557 Y6.2097
X1.651 Y6.1982
X1.6469 Y6.1864
X1.6434 Y6.1744
X1.6404 Y6.1623
X1.6381 Y6.1501
X1.6364 Y6.1377
X1.6352 Y6.1253
X1.6347 Y6.1128
Y6.1003
X1.6354 Y6.0879
X1.6367 Y6.0755
X1.6386 Y6.0631
X1.6411 Y6.0509
X1.6442 Y6.0388
X1.6479 Y6.0269
X1.6521 Y6.0152
X1.6569 Y6.0037
X1.6623 Y5.9924
X1.6682 Y5.9814
X1.6747 Y5.9708
X1.6816 Y5.9604
X1.6891 Y5.9504
X1.697 Y5.9408
X1.7054 Y5.9316
X1.7142 Y5.9228
X1.8342 Y5.8582
G3 X2.3484 Y5.8155 I0.3839 J1.5063
G1 X2.5624 Y5.8135
X2.5849 Y5.8123
X2.6073 Y5.8117
X2.6298
X2.6523 Y5.8123
X2.6748 Y5.8135
X2.6972 Y5.8153
X2.7196 Y5.8177
X2.7418 Y5.8207
X2.764 Y5.8243
X2.7861 Y5.8285
X2.8081 Y5.8333
X2.83 Y5.8387
X2.8516 Y5.8447
X2.8732 Y5.8512
X2.8945 Y5.8583
X2.9156 Y5.866
X2.9365 Y5.8743
X2.9572 Y5.8831
X2.9777 Y5.8924
X2.9979 Y5.9024
X3.0178 Y5.9128
X3.0374 Y5.9238
X3.0567 Y5.9353
X3.0757 Y5.9473
X3.0944 Y5.9598
X3.1127 Y5.9729
X3.1307 Y5.9864
X3.1483 Y6.0004
X3.1655 Y6.0148
X3.1824 Y6.0297
X3.1988 Y6.0451
X3.2148 Y6.0609
X3.2304 Y6.0771
X3.2455 Y6.0937
X3.2602 Y6.1108
X3.2744 Y6.1282
X3.2882 Y6.146
X3.3014 Y6.1641
G3 X3.5501 Y6.3954 I-2.1413 J2.552
G1 X3.5505 Y6.3961
X3.7063 Y6.6893
G3 X3.7052 Y6.7041 I-0.0134 J0.0065
X3.6799 Y6.715 I-0.0211 J-0.0142
X3.5414 Y6.424 I0.0329 J-0.1941
G1 X3.5495 Y6.4109 F50.
G2 X3.5505 Y6.3961 I-0.0124 J-0.0083
G1 X3.4245 Y6.1588 F60.
X3.411 Y6.1385
X3.397 Y6.1184
X3.3825 Y6.0988
X3.3675 Y6.0795
X3.352 Y6.0605
X3.3361 Y6.042
X3.3197 Y6.0239
X3.3028 Y6.0062
X3.2855 Y5.9889
X3.2678 Y5.9721
X3.2497 Y5.9557
X3.2312 Y5.9398
X3.2122 Y5.9243
X3.1929 Y5.9093
X3.1732 Y5.8948
X3.1532 Y5.8808
X3.1328 Y5.8673
X3.1121 Y5.8544
X3.0911 Y5.8419
X3.0698 Y5.83
X3.0481 Y5.8186
X3.0262 Y5.8078
X3.004 Y5.7975
X2.9816 Y5.7878
X2.959 Y5.7786
X2.9361 Y5.77
X2.913 Y5.762
X2.8897 Y5.7546
X2.8663 Y5.7478
X2.8426 Y5.7415
X2.8189 Y5.7359
X2.795 Y5.7308
X2.7709 Y5.7263
X2.7468 Y5.7225
X2.7226 Y5.7192
X2.6983 Y5.7166
X2.6739 Y5.7145
X2.6495 Y5.7131
X2.6251 Y5.7123
X2.6007 Y5.7121
X2.5762 Y5.7125
X2.5518 Y5.7135
X2.5274 Y5.7152
X2.5031 Y5.7174
X2.4788 Y5.7203
G2 X2.0952 Y5.7196 I-0.2 J4.3042
G1 X1.8342 Y5.8582
G2 X1.8416 Y5.886 I0.0074 J0.0129
G1 X1.8441 Y5.8858
G2 X1.8392 Y5.8564 I-0.0025 J-0.0147
X1.8339 Y5.8584 I0.0025 J0.0147
G1 X1.7355 Y5.9181
G2 X1.751 Y5.9436 I0.0077 J0.0127
X1.744 Y5.916 I-0.0077 J-0.0127
X1.7137 Y5.9222 I-0.003 J0.0622 F50.
G1 X1.6165 Y5.9738 F60.
G2 X1.5619 Y6.2276 I0.1416 J0.1632
G1 X1.7616 Y6.329
G2 X1.7751 Y6.3024 I0.0067 J-0.0133
X1.7549 Y6.3093 I-0.0067 J0.0133
X1.7623 Y6.3293 I0.0135 J0.0064
G1 X1.8824 Y6.3829
G2 X1.8946 Y6.3556 I0.0061 J-0.0136
X1.8759 Y6.3772 I-0.0061 J0.0136
X1.8984 Y6.3984 I0.0526 J-0.0333 F50.
G1 X2.039 Y6.4698 F60.
G2 X2.4922 Y6.5015 I0.3259 J-1.4014
G3 X2.8615 Y6.821 I-0.8604 J1.3675
G2 X3.0028 Y6.9591 I0.4044 J-0.2725
G1 X3.3563 Y7.1386
G2 X3.3698 Y7.112 I0.0067 J-0.0133
X3.3496 Y7.1188 I-0.0067 J0.0133
X3.3567 Y7.1388 I0.0134 J0.0065
G1 X3.5442 Y7.2266
G2 X3.5568 Y7.1996 I0.0063 J-0.0135
X3.5379 Y7.221 I-0.0063 J0.0135
X3.5604 Y7.2422 I0.0526 J-0.0333 F50.
G1 X3.6451 Y7.2853 F60.
G2 X3.9188 Y7.0893 I0.0295 J-0.2479
G1 X3.8238 Y6.9105
G2 X3.7965 Y6.914 I-0.0129 J0.0074
X3.7939 Y6.9463 I0.0862 J0.0231
X3.8915 Y7.0763 I0.1567 J-0.016
X3.9097 Y7.0824 I0.059 J-0.146 F50.
G3 X3.9188 Y7.0893 I-0.0039 J0.0144
G1 X3.9405 Y7.1302 F60.
G3 X3.7977 Y7.3627 I-0.1957 J0.04
G1 X3.6451 Y7.2853
G3 X3.6375 Y7.2725 I0.0072 J-0.013
X3.6763 Y7.2343 I0.0375 J-0.0007
X3.7887 Y7.3347 I-0.0044 J0.118
X3.79 Y7.35 I-0.1168 J0.0176 F50.
G2 X3.7977 Y7.3627 I0.0149 J-0.0003
G1 X3.8359 Y7.3821 F60.
G2 X4.0181 Y7.2764 I0.0313 J-0.156
G1 X3.9405 Y7.1302
G2 X3.9276 Y7.1227 I-0.0129 J0.0074
X3.8885 Y7.1678 I-0.0001 J0.0394
X3.99 Y7.2679 I0.1169 J-0.017
X4.0053 Y7.2689 I0.0155 J-0.1171 F50.
G3 X4.0181 Y7.2764 I0. J0.0149
G1 X4.0357 Y7.3094 F60.
X4.0378 Y7.3173
X4.0394 Y7.3253
X4.0404 Y7.3334
X4.0408 Y7.3416
X4.0407 Y7.3497
X4.0399 Y7.3579
X4.0386 Y7.3659
X4.0368 Y7.3739
X4.0343 Y7.3817
X4.0314 Y7.3893
X4.0279 Y7.3967
X4.0238 Y7.4038
X4.0193 Y7.4106
X4.0144 Y7.4171
X4.0089 Y7.4232
X4.0031 Y7.429
X3.9969 Y7.4343
