%
(971-23-P-0158_BAG MOTOR PLATE_1537)
(T1  D=0.1537 CR=0. - ZMIN=-0.245 - FLAT END MILL)
G90 G94 G17 G91.1
G64 P0.001 Q0.001
G20
G53 G0 Z0.
(.3 CIRCLUAR THROUGH HOLE 2)
M9
T1 M6
S22000 M3
G4 P10.
G54
M7
G0 X1.3856 Y-1.3875
G43 Z0.6 H1
G0 Z0.13
G1 Z0.0654 F40.
G19 G3 Y-1.3721 Z0.05 J0.0154 K0.
G1 Y-1.3644
G17 G3 X1.375 Y-1.3539 I-0.0106 J0.
Y-1.3961 Z0.0327 I0. J-0.0211
Y-1.3539 Z0.0154 I0. J0.0211
Y-1.3961 Z-0.0018 I0. J-0.0211
Y-1.3539 Z-0.0191 I0. J0.0211
Y-1.3961 Z-0.0364 I0. J-0.0211
Y-1.3539 Z-0.0537 I0. J0.0211
Y-1.3961 Z-0.071 I0. J-0.0211
Y-1.3539 Z-0.0882 I0. J0.0211
Y-1.3961 Z-0.1055 I0. J-0.0211
Y-1.3539 Z-0.1228 I0. J0.0211
Y-1.3961 Z-0.1401 I0. J-0.0211
Y-1.3539 Z-0.1574 I0. J0.0211
Y-1.3961 Z-0.1746 I0. J-0.0211
Y-1.3538 Z-0.1919 I0. J0.0211
Y-1.3961 Z-0.2092 I0. J-0.0211
Y-1.3538 Z-0.2265 I0. J0.0211
X1.354 Y-1.3774 Z-0.2357 I0. J-0.0211
X1.3797 Y-1.3956 Z-0.245 I0.021 J0.0024
X1.3703 Y-1.3544 I-0.0047 J0.0206
X1.3797 Y-1.3956 I0.0047 J-0.0206
X1.3877 Y-1.3829 I-0.0024 J0.0103
G1 X1.386 Y-1.3755
X1.3853 Y-1.3725 Z-0.2447
X1.3846 Y-1.3697 Z-0.2438
X1.384 Y-1.3671 Z-0.2424
X1.3835 Y-1.3649 Z-0.2405
X1.3831 Y-1.363 Z-0.2382
X1.3828 Y-1.3616 Z-0.2355
X1.3826 Y-1.3608 Z-0.2326
X1.3825 Y-1.3605 Z-0.2296
G0 Z0.4
X-1.3644 Y-1.3875
Z0.13
G1 Z0.0654 F40.
G19 G3 Y-1.3721 Z0.05 J0.0154 K0.
G1 Y-1.3644
G17 G3 X-1.375 Y-1.3539 I-0.0106 J0.
Y-1.3961 Z0.0327 I0. J-0.0211
Y-1.3539 Z0.0154 I0. J0.0211
Y-1.3961 Z-0.0018 I0. J-0.0211
Y-1.3539 Z-0.0191 I0. J0.0211
Y-1.3961 Z-0.0364 I0. J-0.0211
Y-1.3539 Z-0.0537 I0. J0.0211
Y-1.3961 Z-0.071 I0. J-0.0211
Y-1.3539 Z-0.0882 I0. J0.0211
Y-1.3961 Z-0.1055 I0. J-0.0211
Y-1.3539 Z-0.1228 I0. J0.0211
Y-1.3961 Z-0.1401 I0. J-0.0211
Y-1.3539 Z-0.1574 I0. J0.0211
Y-1.3961 Z-0.1746 I0. J-0.0211
Y-1.3539 Z-0.1919 I0. J0.0211
Y-1.3961 Z-0.2092 I0. J-0.0211
Y-1.3539 Z-0.2265 I0. J0.0211
X-1.396 Y-1.3774 Z-0.2357 I0. J-0.0211
X-1.3703 Y-1.3956 Z-0.245 I0.021 J0.0024
X-1.3797 Y-1.3544 I-0.0047 J0.0206
X-1.3703 Y-1.3956 I0.0047 J-0.0206
X-1.3623 Y-1.3829 I-0.0024 J0.0103
G1 X-1.364 Y-1.3755
X-1.3647 Y-1.3725 Z-0.2447
X-1.3654 Y-1.3697 Z-0.2438
X-1.366 Y-1.3671 Z-0.2424
X-1.3665 Y-1.3649 Z-0.2405
X-1.3669 Y-1.363 Z-0.2382
X-1.3672 Y-1.3616 Z-0.2355
X-1.3674 Y-1.3608 Z-0.2326
X-1.3675 Y-1.3605 Z-0.2296
G0 Z0.4
X-1.5937 Y4.0398
Z0.13
G1 Z0.0654 F40.
G19 G3 Y4.0552 Z0.05 J0.0154 K0.
G1 Y4.0629
G17 G3 X-1.6043 Y4.0735 I-0.0106 J0.
Y4.0312 Z0.0327 I0. J-0.0211
Y4.0735 Z0.0154 I0. J0.0211
Y4.0312 Z-0.0018 I0. J-0.0211
Y4.0735 Z-0.0191 I0. J0.0211
Y4.0312 Z-0.0364 I0. J-0.0211
Y4.0735 Z-0.0537 I0. J0.0211
Y4.0312 Z-0.071 I0. J-0.0211
Y4.0735 Z-0.0882 I0. J0.0212
Y4.0312 Z-0.1055 I0. J-0.0212
Y4.0735 Z-0.1228 I0. J0.0212
Y4.0312 Z-0.1401 I0. J-0.0212
Y4.0735 Z-0.1574 I0. J0.0212
Y4.0312 Z-0.1746 I0. J-0.0212
Y4.0735 Z-0.1919 I0. J0.0212
Y4.0312 Z-0.2092 I0. J-0.0212
Y4.0735 Z-0.2265 I0. J0.0212
X-1.6253 Y4.0499 Z-0.2357 I0. J-0.0212
X-1.5995 Y4.0317 Z-0.245 I0.021 J0.0024
X-1.609 Y4.0729 I-0.0047 J0.0206
X-1.5995 Y4.0317 I0.0047 J-0.0206
X-1.5916 Y4.0444 I-0.0024 J0.0103
G1 X-1.5933 Y4.0519
X-1.594 Y4.0548 Z-0.2447
X-1.5946 Y4.0576 Z-0.2438
X-1.5952 Y4.0602 Z-0.2424
X-1.5957 Y4.0624 Z-0.2405
X-1.5962 Y4.0643 Z-0.2382
X-1.5965 Y4.0657 Z-0.2355
X-1.5967 Y4.0665 Z-0.2326
Y4.0668 Z-0.2296
G0 Z0.4
X-1.3644 Y1.3625
Z0.13
G1 Z0.0654 F40.
G19 G3 Y1.3779 Z0.05 J0.0154 K0.
G1 Y1.3856
G17 G3 X-1.375 Y1.3962 I-0.0106 J0.
Y1.3538 Z0.0327 I0. J-0.0212
Y1.3962 Z0.0154 I0. J0.0212
Y1.3538 Z-0.0018 I0. J-0.0212
Y1.3962 Z-0.0191 I0. J0.0212
Y1.3538 Z-0.0364 I0. J-0.0212
Y1.3962 Z-0.0537 I0. J0.0212
Y1.3538 Z-0.071 I0. J-0.0212
Y1.3961 Z-0.0882 I0. J0.0212
Y1.3538 Z-0.1055 I0. J-0.0212
Y1.3961 Z-0.1228 I0. J0.0212
Y1.3538 Z-0.1401 I0. J-0.0212
Y1.3961 Z-0.1574 I0. J0.0211
Y1.3538 Z-0.1746 I0. J-0.0211
Y1.3961 Z-0.1919 I0. J0.0211
Y1.3539 Z-0.2092 I0. J-0.0211
Y1.3961 Z-0.2265 I0. J0.0211
X-1.396 Y1.3726 Z-0.2357 I0. J-0.0211
X-1.3703 Y1.3544 Z-0.245 I0.021 J0.0024
X-1.3797 Y1.3956 I-0.0047 J0.0206
X-1.3703 Y1.3544 I0.0047 J-0.0206
X-1.3623 Y1.3671 I-0.0024 J0.0103
G1 X-1.364 Y1.3745
X-1.3647 Y1.3775 Z-0.2447
X-1.3654 Y1.3803 Z-0.2438
X-1.366 Y1.3829 Z-0.2424
X-1.3665 Y1.3851 Z-0.2405
X-1.3669 Y1.387 Z-0.2382
X-1.3672 Y1.3884 Z-0.2355
X-1.3674 Y1.3892 Z-0.2326
X-1.3675 Y1.3895 Z-0.2296
G0 Z0.4
X1.3856 Y1.3625
Z0.13
G1 Z0.0654 F40.
G19 G3 Y1.3779 Z0.05 J0.0154 K0.
G1 Y1.3856
G17 G3 X1.375 Y1.3962 I-0.0106 J0.
Y1.3538 Z0.0327 I0. J-0.0212
Y1.3962 Z0.0154 I0. J0.0212
Y1.3538 Z-0.0018 I0. J-0.0212
Y1.3962 Z-0.0191 I0. J0.0212
Y1.3538 Z-0.0364 I0. J-0.0212
Y1.3962 Z-0.0537 I0. J0.0212
Y1.3538 Z-0.071 I0. J-0.0212
Y1.3962 Z-0.0882 I0. J0.0212
Y1.3538 Z-0.1055 I0. J-0.0212
Y1.3961 Z-0.1228 I0. J0.0212
Y1.3538 Z-0.1401 I0. J-0.0212
Y1.3961 Z-0.1574 I0. J0.0212
Y1.3538 Z-0.1746 I0. J-0.0212
Y1.3961 Z-0.1919 I0. J0.0212
Y1.3538 Z-0.2092 I0. J-0.0211
Y1.3961 Z-0.2265 I0. J0.0211
X1.354 Y1.3726 Z-0.2357 I0. J-0.0211
X1.3797 Y1.3544 Z-0.245 I0.021 J0.0024
X1.3703 Y1.3956 I-0.0047 J0.0206
X1.3797 Y1.3544 I0.0047 J-0.0206
X1.3877 Y1.3671 I-0.0024 J0.0103
G1 X1.386 Y1.3745
X1.3853 Y1.3775 Z-0.2447
X1.3846 Y1.3803 Z-0.2438
X1.384 Y1.3829 Z-0.2424
X1.3835 Y1.3851 Z-0.2405
X1.3831 Y1.387 Z-0.2382
X1.3828 Y1.3884 Z-0.2355
X1.3826 Y1.3892 Z-0.2326
X1.3825 Y1.3895 Z-0.2296
G0 Z0.4
X2.1081 Y3.2681
Z0.13
G1 Z0.0654 F40.
G19 G3 Y3.2835 Z0.05 J0.0154 K0.
G1 Y3.2911
G17 G3 X2.0975 Y3.3017 I-0.0106 J0.
Y3.2594 Z0.0327 I0. J-0.0212
Y3.3017 Z0.0154 I0. J0.0212
Y3.2594 Z-0.0018 I0. J-0.0212
Y3.3017 Z-0.0191 I0. J0.0212
Y3.2594 Z-0.0364 I0. J-0.0212
Y3.3017 Z-0.0537 I0. J0.0212
Y3.2594 Z-0.071 I0. J-0.0212
Y3.3017 Z-0.0882 I0. J0.0212
Y3.2594 Z-0.1055 I0. J-0.0212
Y3.3017 Z-0.1228 I0. J0.0212
Y3.2594 Z-0.1401 I0. J-0.0212
Y3.3017 Z-0.1574 I0. J0.0211
Y3.2594 Z-0.1746 I0. J-0.0211
Y3.3017 Z-0.1919 I0. J0.0211
Y3.2594 Z-0.2092 I0. J-0.0211
Y3.3017 Z-0.2265 I0. J0.0211
X2.0765 Y3.2782 Z-0.2357 I0. J-0.0211
X2.1022 Y3.2599 Z-0.245 I0.021 J0.0024
X2.0928 Y3.3012 I-0.0047 J0.0206
X2.1022 Y3.2599 I0.0047 J-0.0206
X2.1102 Y3.2726 I-0.0024 J0.0103
G1 X2.1084 Y3.2801
X2.1078 Y3.283 Z-0.2447
X2.1071 Y3.2858 Z-0.2438
X2.1065 Y3.2884 Z-0.2424
X2.106 Y3.2907 Z-0.2405
X2.1056 Y3.2926 Z-0.2382
X2.1053 Y3.294 Z-0.2355
X2.1051 Y3.2948 Z-0.2326
X2.105 Y3.2951 Z-0.2296
G0 Z0.4
X1.0646 Y4.8557
Z0.1146
G1 Z0.05 F40.
Y4.8634
G3 X1.0607 Y4.8673 I-0.0039 J0.
Y4.8517 Z0.0351 I0. J-0.0078
Y4.8673 Z0.0201 I0. J0.0078
Y4.8517 Z0.0052 I0. J-0.0078
Y4.8673 Z-0.0097 I0. J0.0078
Y4.8517 Z-0.0246 I0. J-0.0078
Y4.8673 Z-0.0396 I0. J0.0078
Y4.8517 Z-0.0545 I0. J-0.0078
Y4.8673 Z-0.0694 I0. J0.0078
Y4.8517 Z-0.0843 I0. J-0.0078
Y4.8673 Z-0.0993 I0. J0.0078
Y4.8517 Z-0.1142 I0. J-0.0078
Y4.8673 Z-0.1291 I0. J0.0078
Y4.8517 Z-0.144 I0. J-0.0078
Y4.8673 Z-0.159 I0. J0.0078
Y4.8517 Z-0.1739 I0. J-0.0078
Y4.8673 Z-0.1888 I0. J0.0078
Y4.8517 Z-0.2037 I0. J-0.0078
Y4.8673 Z-0.2187 I0. J0.0078
Y4.8517 Z-0.2336 I0. J-0.0078
X1.0659 Y4.8653 Z-0.245 I0. J0.0078
X1.0555 Y4.8537 I-0.0052 J-0.0058
X1.0659 Y4.8653 I0.0052 J0.0058
X1.0604 Y4.865 I-0.0026 J-0.0029
G1 X1.0553 Y4.8593
G0 Z0.4
X0.8015 Y5.8138
Z0.1146
G1 Z0.05 F40.
Y5.8062
G3 X0.8054 Y5.8023 I0.0039 J0.
Y5.8179 Z0.0351 I0. J0.0078
Y5.8023 Z0.0201 I0. J-0.0078
Y5.8179 Z0.0052 I0. J0.0078
Y5.8023 Z-0.0097 I0. J-0.0078
Y5.8179 Z-0.0246 I0. J0.0078
Y5.8023 Z-0.0396 I0. J-0.0078
Y5.8179 Z-0.0545 I0. J0.0078
Y5.8023 Z-0.0694 I0. J-0.0078
Y5.8179 Z-0.0843 I0. J0.0078
Y5.8023 Z-0.0993 I0. J-0.0078
Y5.8179 Z-0.1142 I0. J0.0078
Y5.8023 Z-0.1291 I0. J-0.0078
Y5.8179 Z-0.144 I0. J0.0078
Y5.8023 Z-0.159 I0. J-0.0078
Y5.8179 Z-0.1739 I0. J0.0078
Y5.8023 Z-0.1888 I0. J-0.0078
Y5.8179 Z-0.2037 I0. J0.0078
Y5.8023 Z-0.2187 I0. J-0.0078
Y5.8179 Z-0.2336 I0. J0.0078
X0.8002 Y5.8043 Z-0.245 I0. J-0.0078
X0.8107 Y5.8158 I0.0052 J0.0058
X0.8002 Y5.8043 I-0.0052 J-0.0058
X0.8057 Y5.8046 I0.0026 J0.0029
G1 X0.8109 Y5.8102
G0 Z0.4
X4.9763 Y8.3241
Z0.13
G1 Z0.0654 F40.
G19 G3 Y8.3395 Z0.05 J0.0154 K0.
G1 Y8.3471
G17 G3 X4.9657 Y8.3577 I-0.0106 J0.
Y8.3154 Z0.0327 I0. J-0.0212
Y8.3577 Z0.0154 I0. J0.0212
Y8.3154 Z-0.0018 I0. J-0.0212
Y8.3577 Z-0.0191 I0. J0.0212
Y8.3154 Z-0.0364 I0. J-0.0212
Y8.3577 Z-0.0537 I0. J0.0212
Y8.3154 Z-0.071 I0. J-0.0212
Y8.3577 Z-0.0882 I0. J0.0212
Y8.3154 Z-0.1055 I0. J-0.0212
Y8.3577 Z-0.1228 I0. J0.0212
Y8.3154 Z-0.1401 I0. J-0.0212
Y8.3577 Z-0.1574 I0. J0.0212
Y8.3154 Z-0.1746 I0. J-0.0212
Y8.3577 Z-0.1919 I0. J0.0212
Y8.3154 Z-0.2092 I0. J-0.0212
Y8.3577 Z-0.2265 I0. J0.0212
X4.9447 Y8.3342 Z-0.2357 I0. J-0.0212
X4.9705 Y8.3159 Z-0.245 I0.021 J0.0024
X4.961 Y8.3572 I-0.0047 J0.0206
X4.9705 Y8.3159 I0.0047 J-0.0206
X4.9784 Y8.3286 I-0.0024 J0.0103
G1 X4.9767 Y8.3361
X4.976 Y8.339 Z-0.2447
X4.9754 Y8.3418 Z-0.2438
X4.9748 Y8.3444 Z-0.2424
X4.9743 Y8.3467 Z-0.2405
X4.9738 Y8.3486 Z-0.2382
X4.9735 Y8.35 Z-0.2355
X4.9733 Y8.3508 Z-0.2326
Y8.3511 Z-0.2296
G0 Z0.6
(.3 CIRCULAR THROUGH HOLE)
M7
G0 X-0.3702 Y4.9652
Z0.6
Z0.2
G1 Z0.1148 F13.333
G3 X-0.37 Y4.9638 Z0.1084 I0.0445 J0.0064 F55.
X-0.3691 Y4.9598 Z0.1031 I0.0443 J0.0079
X-0.3672 Y4.9543 Z0.1 I0.0434 J0.0118
X-0.2842 Y4.989 Z0.0621 I0.0415 J0.0174
X-0.3672 Y4.9543 Z0.0242 I-0.0415 J-0.0174
X-0.2842 Y4.989 Z-0.0136 I0.0415 J0.0174
X-0.3672 Y4.9543 Z-0.0515 I-0.0415 J-0.0174
X-0.2842 Y4.989 Z-0.0894 I0.0415 J0.0174
X-0.3707 Y4.9717 Z-0.1225 I-0.0415 J-0.0174
X-0.3674 I0.0016 J0. F60.
X-0.4707 I-0.0516 J0.
X-0.2674 I0.1016 J0.
X-0.5707 I-0.1516 J0.
X-0.1674 I0.2016 J0.
X-0.6707 I-0.2516 J0.
X-0.1674 I0.2516 J0.
G2 X-0.1261 Y5.0394 I0.0763 J0.
G3 X-0.0998 Y5.1144 I-0.0265 J0.0513
X-0.7687 Y4.9717 I-0.3192 J-0.1427
X-0.0694 I0.3496 J0.
X-0.0998 Y5.1144 I-0.3496 J0.
X-0.1101 Y5.1182 I-0.007 J-0.0031
G1 X-0.2746 Y5.0404
G3 X-0.2791 Y5.0355 I0.0029 J-0.0071
G1 X-0.3053 Y4.9489
G3 X-0.2923 Y4.9415 I0.0074 J-0.0022
X-0.3591 Y5.0018 Z-0.1604 I-0.0334 J0.0302 F55.
X-0.2923 Y4.9415 Z-0.1983 I0.0334 J-0.0302
X-0.3591 Y5.0018 Z-0.2361 I-0.0334 J0.0302
X-0.3707 Y4.9717 Z-0.245 I0.0334 J-0.0302
X-0.3674 I0.0016 J0. F60.
X-0.4707 I-0.0516 J0.
X-0.2674 I0.1016 J0.
X-0.5707 I-0.1516 J0.
X-0.1674 I0.2016 J0.
X-0.6707 I-0.2516 J0.
X-0.1674 I0.2516 J0.
G2 X-0.1261 Y5.0394 I0.0763 J0.
G3 X-0.0998 Y5.1144 I-0.0265 J0.0513
X-0.7687 Y4.9717 I-0.3192 J-0.1427
X-0.0694 I0.3496 J0.
X-0.0998 Y5.1144 I-0.3496 J0.
G2 X-0.0984 Y5.1232 I0.0074 J0.0033
G3 X-0.0971 Y5.132 I-0.0058 J0.0053
X-0.7787 Y4.9717 I-0.3219 J-0.1604
X-0.0594 I0.3596 J0.
X-0.0971 Y5.132 I-0.3596 J0.
X-0.1007 Y5.1366 Z-0.2438 I-0.0138 J-0.0069
X-0.1049 Y5.1393 Z-0.2405 I-0.0102 J-0.0115
X-0.108 Y5.1403 Z-0.2355 I-0.006 J-0.0141
X-0.1092 Y5.1404 Z-0.2296 I-0.0028 J-0.0151
G0 Z0.4
X0.9793 Y5.3412
Z0.2
G1 Z0.1148 F13.333
G3 X0.979 Y5.3426 Z0.1084 I-0.0445 J-0.0064 F55.
X0.9781 Y5.3466 Z0.1031 I-0.0443 J-0.0079
X0.9762 Y5.3521 Z0.1 I-0.0434 J-0.0118
X0.8932 Y5.3174 Z0.0621 I-0.0415 J-0.0174
X0.9762 Y5.3521 Z0.0242 I0.0415 J0.0174
X0.8932 Y5.3174 Z-0.0136 I-0.0415 J-0.0174
X0.9762 Y5.3521 Z-0.0515 I0.0415 J0.0174
X0.8932 Y5.3174 Z-0.0894 I-0.0415 J-0.0174
X0.9797 Y5.3348 Z-0.1225 I0.0415 J0.0174
X0.8864 I-0.0466 J0. F60.
X1.0797 I0.0967 J0.
X0.7864 I-0.1466 J0.
X1.0797 I0.1466 J0.
X1.0713 Y5.3424 I-0.0077 J0.
G1 X0.9844 Y5.3339
G2 X0.981 Y5.3346 I-0.0001 J0.0077
G1 X0.9102 Y5.3668
G3 X0.9013 Y5.3649 I-0.0032 J-0.007
X0.9681 Y5.3046 Z-0.1604 I0.0334 J-0.0302 F55.
X0.9013 Y5.3649 Z-0.1983 I-0.0334 J0.0302
X0.9681 Y5.3046 Z-0.2361 I0.0334 J-0.0302
X0.9797 Y5.3348 Z-0.245 I-0.0334 J0.0302
X0.8864 I-0.0466 J0. F60.
X1.0797 I0.0967 J0.
X0.7864 I-0.1466 J0.
X1.0897 I0.1516 J0.
X0.7764 I-0.1567 J0.
X1.0897 I0.1567 J0.
X1.0893 Y5.3371 Z-0.2445 I-0.0063 J0.
X1.0882 Y5.3388 Z-0.2432 I-0.0058 J-0.0023
X1.0872 Y5.3398 Z-0.2411 I-0.0048 J-0.0041
X1.0868 Y5.34 Z-0.2387 I-0.0038 J-0.005
G0 Z0.4
X0.0492 Y3.1505
Z0.2
G1 Z0.1148 F13.333
G3 X0.049 Y3.152 Z0.1084 I-0.0445 J-0.0064 F55.
X0.0481 Y3.1559 Z0.1031 I-0.0443 J-0.0079
X0.0462 Y3.1615 Z0.1 I-0.0434 J-0.0118
X-0.0369 Y3.1267 Z0.0621 I-0.0415 J-0.0174
X0.0462 Y3.1615 Z0.0242 I0.0415 J0.0174
X-0.0369 Y3.1267 Z-0.0136 I-0.0415 J-0.0174
X0.0462 Y3.1615 Z-0.0515 I0.0415 J0.0174
X-0.0369 Y3.1267 Z-0.0894 I-0.0415 J-0.0174
X0.0496 Y3.1441 Z-0.1225 I0.0415 J0.0174
X-0.0496 I-0.0496 J0. F60.
X0.1497 I0.0996 J0.
X-0.1497 I-0.1497 J0.
X0.2497 I0.1997 J0.
X-0.2497 I-0.2497 J0.
X0.3497 I0.2997 J0.
X-0.3497 I-0.3497 J0.
X0.3497 I0.3497 J0.
X0.3414 Y3.1518 I-0.0077 J0.
G1 X0.2762 Y3.1467
X-0.0128 Y3.1674
X-0.0248 Y3.1748
G3 X-0.0287 Y3.1743 I-0.0017 J-0.0026
X0.038 Y3.1139 Z-0.1604 I0.0334 J-0.0302 F55.
X-0.0287 Y3.1743 Z-0.1983 I-0.0334 J0.0302
X0.038 Y3.1139 Z-0.2361 I0.0334 J-0.0302
X0.0496 Y3.1441 Z-0.245 I-0.0334 J0.0302
X-0.0496 I-0.0496 J0. F60.
X0.1497 I0.0996 J0.
X-0.1497 I-0.1497 J0.
X0.2497 I0.1997 J0.
X-0.2497 I-0.2497 J0.
X0.3497 I0.2997 J0.
X-0.3497 I-0.3497 J0.
X0.3596 I0.3547 J0.
X-0.3596 I-0.3596 J0.
X0.3596 I0.3596 J0.
X0.3592 Y3.1464 Z-0.2445 I-0.0063 J0.
X0.3581 Y3.1482 Z-0.2432 I-0.0058 J-0.0023
X0.3572 Y3.1491 Z-0.2411 I-0.0048 J-0.0041
X0.3568 Y3.1494 Z-0.2387 I-0.0038 J-0.005
G0 Z0.6
(SHAPE THROUGH HOLE)
M7
G0 X-0.8118 Y2.2608
Z0.6
Z0.1
G3 X-0.8928 Y2.1393 Z0.0596 I-0.0405 J-0.0608 F50.
X-0.8118 Y2.2608 Z0.0191 I0.0405 J0.0608
X-0.8928 Y2.1393 Z-0.0213 I-0.0405 J-0.0608
X-0.8118 Y2.2608 Z-0.0618 I0.0405 J0.0608
X-0.8928 Y2.1393 Z-0.1022 I-0.0405 J-0.0608
X-0.7793 Y2.2001 Z-0.13 I0.0405 J0.0608
X-0.9253 I-0.073 J0.
X-0.7795 Y2.1942 I0.073 J0.
G1 X-0.7793 Y2.2001
G3 X-0.7635 Y2.274 I-0.0462 J0.0485 F60.
G1 X-0.8054 Y2.292
X-0.8099 Y2.2938
X-0.8318 Y2.3132
G3 X-1.008 Y2.2084 I-0.059 J-0.1014
X-0.8159 Y2.0952 I0.2076 J0.1327
G1 X-0.8084 Y2.0946
X-0.8008 Y2.0945
X-0.7932 Y2.0951
X-0.7857 Y2.0963
X-0.7783 Y2.0981
X-0.7711 Y2.1005
X-0.7641 Y2.1034
X-0.7573 Y2.1069
X-0.7509 Y2.111
X-0.7448 Y2.1155
X-0.7391 Y2.1205
X-0.7338 Y2.126
X-0.729 Y2.1318
X-0.7247 Y2.1381
X-0.7209 Y2.1447
X-0.7176 Y2.1515
X-0.7149 Y2.1586
X-0.7127 Y2.1659
X-0.7112 Y2.1733
X-0.7103 Y2.1809
X-0.7099 Y2.1884
X-0.7102 Y2.196
X-0.7111 Y2.2036
X-0.7126 Y2.211
X-0.7147 Y2.2183
X-0.7174 Y2.2254
X-0.7207 Y2.2323
X-0.7244 Y2.2389
X-0.7287 Y2.2451
X-0.7335 Y2.251
X-0.7388 Y2.2565
X-0.7445 Y2.2616
X-0.7505 Y2.2661
X-0.7569 Y2.2702
X-0.7637 Y2.2737
X-0.766 Y2.2746
X-0.7685 Y2.2751
X-0.7711
X-0.7736 Y2.2747
G2 X-0.7791 Y2.2742 I-0.004 J0.0148
G1 X-0.7941 Y2.2756
X-0.8022 Y2.2764
G2 X-0.8154 Y2.287 I0.0014 J0.0153
G3 X-0.8318 Y2.3132 I-0.0594 J-0.0189 F50.
G1 X-0.8523 Y2.3314 F60.
X-0.856 Y2.3406
X-0.8611 Y2.3535
G3 X-1.0554 Y2.323 I-0.088 J-0.0738
X-1.008 Y2.2084 I1.5827 J0.5869
X-0.9952 Y2.1999 I0.0138 J0.0068
X-0.9778 Y2.2118 I0.0011 J0.0171
X-1.0286 Y2.3105 I-0.0751 J0.0238
X-1.043 Y2.3137 I-0.0243 J-0.0749 F50.
G2 X-1.0553 Y2.323 I0.0019 J0.0153
G1 X-1.062 Y2.3406 F60.
X-1.0648 Y2.3477
G2 X-0.9055 Y2.4743 I0.1181 J0.0149
G3 X-0.8611 Y2.3535 I1.228 J0.3833
G2 X-0.8639 Y2.3384 I-0.0145 J-0.0051
X-0.8863 Y2.3338 I-0.0142 J0.0122
X-0.9184 Y2.4466 I0.0345 J0.0708
X-0.9093 Y2.4583 I0.0666 J-0.042 F50.
G3 X-0.9059 Y2.4733 I-0.0112 J0.0105
G1 X-0.9086 Y2.4812 F60.
X-0.9127 Y2.4941
G3 X-1.1103 Y2.482 I-0.0948 J-0.0709
G1 X-1.0955 Y2.4343
X-1.0804 Y2.3875
X-1.0648 Y2.3477
G3 X-1.0525 Y2.3386 I0.0141 J0.0061
X-1.0091 Y2.3906 I0.0047 J0.0402
X-1.0844 Y2.468 I-0.1129 J-0.0345
X-1.0988 Y2.4718 I-0.0376 J-0.112 F50.
G2 X-1.1103 Y2.482 I0.003 J0.0151
G1 X-1.1194 Y2.5124 F60.
X-1.1188 Y2.5211
X-1.1176 Y2.5298
X-1.1157 Y2.5384
X-1.1133 Y2.5468
X-1.1102 Y2.555
X-1.1066 Y2.5629
X-1.1024 Y2.5706
X-1.0976 Y2.578
X-1.0924 Y2.585
X-1.0866 Y2.5916
X-1.0804 Y2.5978
X-1.0738 Y2.6035
X-1.0667 Y2.6087
X-1.0593 Y2.6134
X-1.0516 Y2.6176
X-1.0437 Y2.6212
X-1.0354 Y2.6242
X-1.027 Y2.6267
X-1.0185 Y2.6285
X-1.0098 Y2.6297
X-1.001 Y2.6302
X-0.9923
X-0.9835 Y2.6295
X-0.9749 Y2.6282
X-0.9663 Y2.6263
X-0.958 Y2.6237
X-0.9498 Y2.6206
X-0.9376 Y2.5749
X-0.9235 Y2.5281
X-0.9127 Y2.4941
G2 X-0.9165 Y2.4792 I-0.0148 J-0.0041
X-0.9325 Y2.4762 I-0.0101 J0.0099
X-0.9642 Y2.5931 I0.0327 J0.0716
X-0.9546 Y2.6044 I0.0644 J-0.0452 F50.
G3 X-0.9504 Y2.6191 I-0.0107 J0.011
G1 X-0.9512 Y2.6218 F60.
X-0.9569 Y2.644
G3 X-1.1537 Y2.6429 I-0.0981 J-0.0653
G1 X-1.1528 Y2.6401
X-1.1514 Y2.6374
X-1.1495 Y2.6351
X-1.1472 Y2.6332
X-1.1446 Y2.6318
X-1.1417 Y2.6309
X-1.1388 Y2.6306
X-1.1283 Y2.6302
X-0.9753 Y2.6254
X-0.9724 Y2.6253 F50.
G3 X-0.9569 Y2.644 I0.0005 J0.0154
X-1.0243 Y2.752 I-0.1145 J0.0036 F60.
X-1.1322 Y2.5804 I-0.0349 J-0.0978
G1 X-1.1241 Y2.5281
X-1.1194 Y2.5124
G3 X-1.0942 Y2.5062 I0.0146 J0.0049
G1 X-1.092 Y2.5083 Z-0.1297
X-1.09 Y2.5103 Z-0.1288
X-1.088 Y2.5122 Z-0.1274
X-1.0864 Y2.5138 Z-0.1255
X-1.085 Y2.5151 Z-0.1232
X-1.084 Y2.5161 Z-0.1205
X-1.0833 Y2.5167 Z-0.1176
X-1.0831 Y2.5169 Z-0.1146
G0 Z0.4
X0.5485 Y4.2287
Z0.1
G3 X0.4676 Y4.1072 Z0.0596 I-0.0405 J-0.0608 F50.
X0.5485 Y4.2287 Z0.0191 I0.0405 J0.0608
X0.4676 Y4.1072 Z-0.0213 I-0.0405 J-0.0608
X0.5485 Y4.2287 Z-0.0618 I0.0405 J0.0608
X0.4676 Y4.1072 Z-0.1022 I-0.0405 J-0.0608
X0.5811 Y4.168 Z-0.13 I0.0405 J0.0608
X0.435 I-0.073 J0.
X0.5808 Y4.1621 I0.073 J0.
G1 X0.5811 Y4.168
G3 X0.5991 Y4.2321 I-0.0397 J0.0458 F60.
G1 X0.5948 Y4.2388
X0.5899 Y4.245
X0.5846 Y4.2509
X0.5788 Y4.2563
X0.5726 Y4.2613
X0.5661 Y4.2657
X0.5592 Y4.2696
X0.552 Y4.273
X0.5446 Y4.2758
X0.537 Y4.2779
X0.5292 Y4.2795
X0.5214 Y4.2804
X0.5135 Y4.2808
X0.5056 Y4.2805
X0.4977 Y4.2795
X0.4899 Y4.278
X0.4823 Y4.2758
X0.4749 Y4.273
X0.4677 Y4.2697
X0.4608 Y4.2658
X0.4542 Y4.2614
X0.4481 Y4.2564
X0.4423 Y4.251
X0.4369 Y4.2452
X0.4321 Y4.2389
X0.4277 Y4.2323
X0.4239 Y4.2254
X0.4207 Y4.2181
X0.418 Y4.2107
X0.416 Y4.203
X0.4145 Y4.1953
X0.4137 Y4.1874
X0.4135 Y4.1795
X0.4139 Y4.1716
X0.415 Y4.1637
X0.4166 Y4.156
X0.4189 Y4.1484
X0.4218 Y4.141
X0.4252 Y4.1339
X0.4292 Y4.1271
X0.4338 Y4.1206
X0.4388 Y4.1144
X0.4443 Y4.1087
X0.4502 Y4.1035
X0.4565 Y4.0987
X0.4632 Y4.0945
X0.4702 Y4.0908
X0.4775 Y4.0877
X0.485 Y4.0851
X0.4927 Y4.0832
X0.5005 Y4.0818
X0.5084 Y4.0811
G3 X0.5991 Y4.2321 I0.028 J0.0859
X0.5745 Y4.2238 I-0.0097 J-0.012
G1 X0.5738 Y4.2209 Z-0.1297
X0.5731 Y4.2181 Z-0.1288
X0.5725 Y4.2155 Z-0.1274
X0.572 Y4.2132 Z-0.1255
X0.5715 Y4.2114 Z-0.1232
X0.5712 Y4.21 Z-0.1205
X0.571 Y4.2092 Z-0.1176
X0.5709 Y4.2089 Z-0.1146
G0 Z0.4
X1.346 Y2.7762
Z0.1
G3 X1.265 Y2.6547 Z0.0596 I-0.0405 J-0.0608 F50.
X1.346 Y2.7762 Z0.0191 I0.0405 J0.0608
X1.265 Y2.6547 Z-0.0213 I-0.0405 J-0.0608
X1.346 Y2.7762 Z-0.0618 I0.0405 J0.0608
X1.265 Y2.6547 Z-0.1022 I-0.0405 J-0.0608
X1.3785 Y2.7155 Z-0.13 I0.0405 J0.0608
X1.2325 I-0.073 J0.
X1.3782 Y2.7096 I0.073 J0.
G1 X1.3785 Y2.7155
G3 X1.3859 Y2.745 I-0.0215 J0.021 F60.
X1.2031 Y2.7508 I-0.0941 J-0.0826
G1 X1.1976 Y2.7449
X1.1927 Y2.7386
X1.1881 Y2.732
X1.1841 Y2.7251
X1.1806 Y2.7179
X1.1777 Y2.7105
X1.1753 Y2.7028
X1.1735 Y2.695
X1.1722 Y2.6871
X1.1716 Y2.6791
X1.1715 Y2.6711
X1.172 Y2.6632
X1.1731 Y2.6552
X1.1748 Y2.6474
X1.1771 Y2.6397
X1.1799 Y2.6322
X1.1832 Y2.625
X1.1871 Y2.618
X1.1915 Y2.6113
X1.1964 Y2.6049
X1.2017 Y2.599
X1.2075 Y2.5934
X1.2136 Y2.5883
X1.2201 Y2.5836
X1.227 Y2.5794
X1.2341 Y2.5758
X1.2414 Y2.5727
X1.249 Y2.5701
X1.2568 Y2.5681
X1.2646 Y2.5667
X1.2726 Y2.5658
G3 X1.4002 Y2.7155 I-0.0469 J0.1692
G1 X1.3993 Y2.7196
X1.3859 Y2.745
G3 X1.3726 Y2.7527 I-0.0133 J-0.0077
G1 X1.3577
X1.2335 Y2.7531
G3 X1.2031 Y2.7508 I-0.0123 J-0.0412 F50.
G1 X1.1507 Y2.7155 F60.
X1.1416 Y2.7095
G3 X1.1969 Y2.5032 I0.0917 J-0.086
G2 X1.2726 Y2.566 I0.1335 J-0.0841
G3 X1.2788 Y2.58 I-0.0091 J0.0124
X1.2049 Y2.5977 I-0.0401 J-0.0044
X1.1943 Y2.5357 I0.0659 J-0.0431
X1.1992 Y2.5217 I0.0764 J0.0189 F50.
G2 X1.1978 Y2.5064 I-0.014 J-0.0064
G1 X1.1878 Y2.4932 F60.
X1.1801 Y2.4898
X1.1723 Y2.4869
X1.1642 Y2.4847
X1.156 Y2.483
X1.1476 Y2.482
X1.1393 Y2.4816
X1.1309 Y2.4818
X1.1225 Y2.4827
X1.1143 Y2.4842
X1.1061 Y2.4862
X1.0982 Y2.4889
X1.0905 Y2.4922
X1.083 Y2.496
X1.0759 Y2.5004
X1.0691 Y2.5053
X1.0626 Y2.5107
X1.0566 Y2.5166
X1.0511 Y2.5229
X1.046 Y2.5296
X1.0415 Y2.5366
X1.0375 Y2.544
X1.0341 Y2.5516
X1.0312 Y2.5595
X1.0289 Y2.5676
X1.0273 Y2.5758
X1.0262 Y2.5841
X1.0258 Y2.5925
X1.026 Y2.6009
G2 X1.1416 Y2.7095 I0.2669 J-0.1682
X1.157 Y2.7099 I0.008 J-0.0131
X1.1651 Y2.6744 I-0.0116 J-0.0213
X1.0523 Y2.6094 I-0.128 J0.0918
X1.0375 Y2.6087 I-0.0152 J0.1567 F50.
G3 X1.0242 Y2.601 I0. J-0.0154
G1 X1.0101 Y2.5749 F60.
X1.0009 Y2.5593
G3 X1.1289 Y2.3944 I0.1223 J-0.0372
G2 X1.1878 Y2.4932 I0.6606 J-0.3269
G3 X1.1892 Y2.5085 I-0.0126 J0.0089
X1.1515 Y2.5192 I-0.0234 J-0.0108
X1.1217 Y2.4253 I0.0437 J-0.0655
X1.1283 Y2.4121 I0.0735 J0.0284 F50.
G2 X1.1288 Y2.3967 I-0.013 J-0.0081
G1 X1.1235 Y2.3875 F60.
X1.1179 Y2.3781
G2 X0.9292 Y2.4387 I-0.076 J0.0874
G3 X1.0009 Y2.5593 I-4.2127 J2.5859
G2 X1.0221 Y2.5641 I0.013 J-0.0082
X1.0341 Y2.535 I-0.0145 J-0.023
X0.9577 Y2.4498 I-0.1151 J0.0263
X0.9395 Y2.4451 I-0.0387 J0.1116 F50.
G3 X0.9295 Y2.4387 I0.0027 J-0.0151
G1 X0.9164 Y2.4187 F60.
G3 X1.046 Y2.2657 I0.1118 J-0.0368
G1 X1.0646 Y2.2938
X1.0948 Y2.3406
X1.1179 Y2.3781
G3 X1.1118 Y2.399 I-0.0135 J0.0074
X1.0908 Y2.3974 I-0.0093 J-0.0168
X1.0452 Y2.2965 I0.0723 J-0.0934
X1.0479 Y2.2779 I0.1179 J0.0075 F50.
G2 X1.0459 Y2.2663 I-0.015 J-0.0034
G1 X1.0327 Y2.2469 F60.
X1.0301 Y2.2432
G2 X0.8385 Y2.3125 I-0.074 J0.095
G3 X0.9164 Y2.4187 I-0.5775 J0.5057
G2 X0.9304 Y2.4252 I0.0126 J-0.0089
X0.9479 Y2.4093 I-0.0018 J-0.0195
X0.869 Y2.3159 I-0.0774 J-0.0147
X0.8543 Y2.3176 I0.0015 J0.0787 F50.
G3 X0.8397 Y2.3128 I-0.0032 J-0.015
G1 X0.8364 Y2.3089 F60.
X0.8295 Y2.3047
G3 X0.9263 Y2.1363 I0.0948 J-0.0575
G1 X0.9285 Y2.1375
X0.9304 Y2.1391
X0.9321 Y2.141
X0.9334 Y2.1433
X0.9344 Y2.1457
X0.9348 Y2.1483
Y2.151
X0.9343 Y2.1537
X0.9333 Y2.1563
X0.9306 Y2.1608
X0.8538 Y2.2929
X0.8503 Y2.299 F50.
G3 X0.8295 Y2.3047 I-0.0133 J-0.0077
G1 X0.8113 Y2.2938 F60.
X0.7895 Y2.2846
X0.7706 Y2.2651
G3 X0.7746 Y2.1335 I0.0962 J-0.0629
X0.8004 Y2.1454 I0.0104 J0.0113
G1 X0.7966 Y2.2546
X0.7963 Y2.2568
X0.7958 Y2.2589
G3 X0.7706 Y2.2651 I-0.0146 J-0.0049 F50.
X0.8824 Y2.1185 I0.0645 J-0.0668 F60.
X1.0301 Y2.2432 I-0.0787 J0.243
X1.0193 Y2.2668 I-0.0129 J0.0084
G1 X1.0163 Y2.2672 Z-0.1297
X1.0135 Y2.2676 Z-0.1288
X1.0108 Y2.268 Z-0.1274
X1.0085 Y2.2683 Z-0.1255
X1.0066 Y2.2686 Z-0.1232
X1.0052 Y2.2688 Z-0.1205
X1.0044 Y2.2689 Z-0.1176
X1.0041 Z-0.1146
G0 Z0.4
X2.6594 Y6.1497
Z0.1
G3 X2.5784 Y6.0282 Z0.0596 I-0.0405 J-0.0608 F50.
X2.6594 Y6.1497 Z0.0191 I0.0405 J0.0608
X2.5784 Y6.0282 Z-0.0213 I-0.0405 J-0.0608
X2.6594 Y6.1497 Z-0.0618 I0.0405 J0.0608
X2.5784 Y6.0282 Z-0.1022 I-0.0405 J-0.0608
X2.6919 Y6.089 Z-0.13 I0.0405 J0.0608
X2.5459 I-0.073 J0.
X2.6917 Y6.0831 I0.073 J0.
G1 X2.6919 Y6.089
G3 X2.6673 Y6.2146 I-0.052 J0.055 F60.
G1 X2.6658 Y6.2131
X2.6189 Y6.2022
X2.572 Y6.2025
G3 X2.4864 Y6.01 I0.0098 J-0.1196
G1 X2.6658 Y6.0095
X2.7022 Y6.0186
G3 X2.7311 Y6.2789 I-0.0473 J0.137
G1 X2.7127 Y6.2592
X2.6813 Y6.2282
X2.6673 Y6.2146
G3 X2.6636 Y6.1997 I0.0111 J-0.0107
X2.7123 Y6.1911 I0.0265 J0.0076
X2.7271 Y6.2446 I-0.0636 J0.0464
X2.7244 Y6.2592 I-0.0784 J-0.0072 F50.
G2 X2.7281 Y6.2741 I0.0148 J0.0042
G1 X2.7305 Y6.2764 F60.
X2.7417 Y6.2875
X2.7497 Y6.2897
X2.7578 Y6.2913
X2.766 Y6.2923
X2.7743 Y6.2926
X2.7826 Y6.2923
X2.7908 Y6.2914
X2.7989 Y6.2899
X2.8069 Y6.2878
X2.8147 Y6.2851
X2.8223 Y6.2818
X2.8297 Y6.278
X2.8367 Y6.2736
X2.8434 Y6.2687
X2.8496 Y6.2633
X2.8555 Y6.2575
X2.8609 Y6.2512
X2.8658 Y6.2446
X2.8703 Y6.2376
X2.8741 Y6.2302
X2.8774 Y6.2227
X2.8802 Y6.2149
X2.8823 Y6.2069
X2.8839 Y6.1987
X2.8848 Y6.1905
X2.8851 Y6.1822
X2.8848 Y6.174
X2.8838 Y6.1657
X2.8823 Y6.1576
G2 X2.7022 Y6.0186 I-0.375 J0.2997
X2.6995 Y6.0183 I-0.0032 J0.015
G1 X2.6713 Y6.0173
X2.5188 Y6.0122
X2.4879 Y6.0112 F50.
X2.4601 Y6.0114 F60.
G2 X2.4189 Y6.2042 I0.0394 J0.1092
G1 X2.572 Y6.2025
G2 X2.5849 Y6.1943 I-0.0007 J-0.0154
X2.5537 Y6.1334 I-0.0372 J-0.0194
X2.4398 Y6.183 I-0.0169 J0.1169
X2.4321 Y6.1957 I0.0971 J0.0673 F50.
G3 X2.4192 Y6.2039 I-0.0136 J-0.0071
G1 X2.3918 Y6.2042 F60.
G3 X2.3309 Y6.0119 I0.0298 J-0.1152
G1 X2.4601 Y6.0114
G3 X2.4732 Y6.0194 I-0.0004 J0.0154
X2.4709 Y6.0372 I-0.0134 J0.0073
X2.353 Y6.0329 I-0.057 J-0.0543
X2.3447 Y6.0206 I0.0609 J-0.05 F50.
G2 X2.3316 Y6.0126 I-0.0135 J0.0074
G1 X2.3042 Y6.0128 F60.
G2 X2.2557 Y6.206 I0.0386 J0.1124
G1 X2.3918 Y6.2042
G2 X2.4015 Y6.1775 I-0.0007 J-0.0154
X2.3726 Y6.1635 I-0.0377 J0.0411
X2.2808 Y6.1876 I-0.0184 J0.1167
X2.2671 Y6.2004 I0.0733 J0.0926 F50.
G3 X2.2564 Y6.2054 I-0.0113 J-0.0104
G1 X2.2307 Y6.2057 F60.
G3 X2.1733 Y6.0135 I0.0315 J-0.1141
G1 X2.3042 Y6.0128
G3 X2.3173 Y6.0209 I-0.0004 J0.0154
X2.3157 Y6.0358 I-0.0116 J0.0063
X2.1953 Y6.0343 I-0.0596 J-0.0515
X2.187 Y6.0221 I0.0609 J-0.05 F50.
G2 X2.1739 Y6.014 I-0.0135 J0.0074
G1 X2.1498 Y6.0143 F60.
G2 X2.0964 Y6.2073 I0.0324 J0.1129
G1 X2.2307 Y6.2057
G2 X2.2404 Y6.179 I-0.0007 J-0.0154
X2.2088 Y6.1644 I-0.0385 J0.0421
X2.1213 Y6.1891 I-0.0142 J0.1173
X2.1075 Y6.2019 I0.0733 J0.0926 F50.
G3 X2.0968 Y6.2069 I-0.0113 J-0.0104
G1 X2.0696 Y6.2071 F60.
G3 X2.0148 Y6.0149 I0.0346 J-0.1138
G1 X2.1498 Y6.0143
G3 X2.16 Y6.0408 I-0.0004 J0.0154
X2.1292 Y6.0558 I-0.0391 J-0.0412
X2.0403 Y6.0328 I-0.0173 J-0.1168
X2.0263 Y6.0203 I0.0716 J-0.0939 F50.
G2 X2.0155 Y6.0155 I-0.0111 J0.0106
G1 X1.9868 Y6.0157 F60.
G2 X1.9369 Y6.2091 I0.039 J0.1132
G1 X2.0696 Y6.2071
G2 X2.0825 Y6.1989 I-0.0007 J-0.0154
X2.0812 Y6.1864 I-0.0101 J-0.0052
G1 X2.0802 Y6.1852
G2 X1.9587 Y6.1876 I-0.0598 J0.0513
X1.9507 Y6.2001 I0.0618 J0.0489 F50.
G3 X1.9377 Y6.2083 I-0.0136 J-0.0071
G1 X1.9153 Y6.2085 F60.
X1.893 Y6.2022
G3 X1.8335 Y6.0722 I0.0543 J-0.1035
X1.8595 Y6.0735 I0.0125 J0.0089
G1 X1.8599 Y6.0744
X1.9106 Y6.1806
X1.9113 Y6.1824
X1.9118 Y6.1842
G3 X1.893 Y6.2022 I-0.0151 J0.003 F50.
X1.8359 Y6.0629 I0.0326 J-0.0948 F60.
X1.9813 Y6.024 I0.0898 J0.0445
G1 X1.9825 Y6.0228
X1.9841 Y6.0217
X1.9859 Y6.021
X1.9879 Y6.0206
X1.99
X1.9922 Y6.021
X1.9943 Y6.0219
X1.9962 Y6.0233
X1.998 Y6.025
X1.9993 Y6.0272
X2.0003 Y6.0297
X2.0008 Y6.0324
Y6.0352
X2.0002 Y6.038
X1.9988 Y6.0407 Z-0.1297
X1.9975 Y6.0433 Z-0.1288
X1.9963 Y6.0457 Z-0.1274
X1.9953 Y6.0477 Z-0.1255
X1.9944 Y6.0494 Z-0.1232
X1.9938 Y6.0507 Z-0.1205
X1.9934 Y6.0515 Z-0.1176
X1.9933 Y6.0518 Z-0.1146
G0 Z0.4
X2.7229 Y6.2456
Z-0.0993
G1 Z-0.1146 F50.
X2.723 Y6.2459 Z-0.1176
X2.7232 Y6.2467 Z-0.1205
X2.7235 Y6.2481 Z-0.1232
X2.724 Y6.2499 Z-0.1255
X2.7246 Y6.2522 Z-0.1274
X2.7253 Y6.2548 Z-0.1288
X2.726 Y6.2575 Z-0.1297
X2.7267 Y6.2604 Z-0.13
G2 X2.7417 Y6.2875 I0.0603 J-0.0156
G1 X2.7596 Y6.3053 F60.
X2.7782 Y6.3233
G2 X2.9591 Y6.2306 I0.0605 J-0.1048
G3 X2.8834 Y6.1574 I3.4728 J-3.6659
G2 X2.8684 Y6.154 I-0.0104 J0.0113
X2.8537 Y6.1956 I0.0082 J0.0263
X2.9283 Y6.2302 I0.0656 J-0.0436
X2.9428 Y6.2271 I-0.0091 J-0.0782 F50.
G3 X2.9578 Y6.2305 I0.0046 J0.0147
G1 X2.9765 Y6.2488 F60.
G3 X2.8762 Y6.4206 I-0.108 J0.0521
G2 X2.7782 Y6.3233 I-4.343 J4.2735
G3 X2.7789 Y6.3015 I0.0112 J-0.0105
X2.8033 Y6.2976 I0.0152 J0.0161
X2.871 Y6.3896 I-0.0494 J0.1073
X2.8719 Y6.4084 I-0.1171 J0.0152 F50.
G2 X2.8761 Y6.4194 I0.0154 J0.0005
G1 X2.8951 Y6.4383 F60.
G2 X3.0693 Y6.339 I0.0552 J-0.1056
G1 X3.0046 Y6.2764
X2.9844 Y6.2566
X2.9765 Y6.2488
G2 X2.9615 Y6.2454 I-0.0104 J0.0113
X2.951 Y6.2595 I0.0045 J0.0143
X3.0388 Y6.3388 I0.0787 J0.001
X3.0533 Y6.3357 I-0.0091 J-0.0782 F50.
G3 X3.0683 Y6.339 I0.0046 J0.0147
G1 X3.088 Y6.3583 F60.
G3 X2.9898 Y6.5322 I-0.1058 J0.055
G2 X2.8951 Y6.4383 I-3.9472 J3.884
G3 X2.8916 Y6.4234 I0.0112 J-0.0105
X2.9007 Y6.4156 I0.0105 J0.0032
G1 X2.9029 Y6.4154
G3 X2.9891 Y6.5017 I0.0079 J0.0783
X2.9862 Y6.5163 I-0.0783 J-0.008 F50.
G2 X2.9898 Y6.5312 I0.0147 J0.0044
G1 X2.9942 Y6.5356 F60.
X3.0089 Y6.5499
G2 X3.1823 Y6.4501 I0.0548 J-0.1054
G1 X3.088 Y6.3583
G2 X3.073 Y6.355 I-0.0104 J0.0113
X3.0643 Y6.366 I0.0038 J0.0119
G1 X3.0641 Y6.3716
G2 X3.1519 Y6.4498 I0.0787 J0.
X3.1664 Y6.4467 I-0.0091 J-0.0782 F50.
G3 X3.1814 Y6.4501 I0.0046 J0.0147
G1 X3.2005 Y6.4688 F60.
G3 X3.1034 Y6.6435 I-0.1045 J0.0563
G2 X3.0089 Y6.5499 I-12.8473 J12.8735
G3 X3.0093 Y6.5281 I0.0111 J-0.0106
X3.0357 Y6.5244 I0.0158 J0.0165
X3.098 Y6.6129 I-0.0547 J0.1047
X3.0991 Y6.6317 I-0.117 J0.0162 F50.
G2 X3.1033 Y6.6427 I0.0154 J0.0003
G1 X3.1121 Y6.6512 F60.
X3.1235 Y6.6625
G2 X3.2958 Y6.5614 I0.0529 J-0.1072
G1 X3.2005 Y6.4688
G2 X3.1855 Y6.4654 I-0.0104 J0.0113
X3.1778 Y6.4748 I0.0033 J0.0105
G1 X3.1777 Y6.4768
G2 X3.2652 Y6.5611 I0.0785 J0.006
X3.2797 Y6.558 I-0.0091 J-0.0782 F50.
G3 X3.2947 Y6.5613 I0.0046 J0.0147
G1 X3.3133 Y6.5796 F60.
G3 X3.2169 Y6.755 I-0.1038 J0.0572
G2 X3.1235 Y6.6625 I-5.4618 J5.4211
G3 X3.12 Y6.6476 I0.0112 J-0.0105
X3.1306 Y6.6383 I0.0126 J0.0038
G1 X3.1375 Y6.638
X3.1445 Y6.6383
X3.1513 Y6.6392
X3.1581 Y6.6406
X3.1647 Y6.6427
X3.1712 Y6.6454
X3.1773 Y6.6486
X3.1832 Y6.6523
X3.1887 Y6.6566
X3.1938 Y6.6613
X3.1984 Y6.6664
X3.2026 Y6.672
X3.2063 Y6.6779
X3.2095 Y6.684
X3.2121 Y6.6905
X3.2141 Y6.6971
X3.2155 Y6.7039
X3.2164 Y6.7108
X3.2166 Y6.7178
X3.2162 Y6.7247
G3 X3.2133 Y6.7392 I-0.0783 J-0.008 F50.
G2 X3.2168 Y6.7542 I0.0147 J0.0044
G1 X3.2287 Y6.7659 F60.
X3.236 Y6.773
G2 X3.4089 Y6.6727 I0.0542 J-0.1057
G3 X3.3133 Y6.5796 I4.1394 J-4.3473
G2 X3.2875 Y6.5916 I-0.0104 J0.0113
X3.3003 Y6.6252 I0.0571 J-0.0025
X3.3781 Y6.6679 I0.0916 J-0.0746
X3.397 Y6.6686 I0.0138 J-0.1173 F50.
G3 X3.408 Y6.6726 I0.0007 J0.0154
G1 X3.426 Y6.6903 F60.
G3 X3.3302 Y6.8662 I-0.1028 J0.058
G2 X3.236 Y6.773 I-8.3874 J8.3817
G3 X3.2324 Y6.7581 I0.0111 J-0.0106
X3.2416 Y6.7503 I0.0105 J0.0031
G1 X3.2436 Y6.7501
G3 X3.3293 Y6.836 I0.0073 J0.0784
X3.3265 Y6.8506 I-0.0784 J-0.0076 F50.
G2 X3.3301 Y6.8655 I0.0148 J0.0043
G1 X3.3506 Y6.8855 F60.
G2 X3.5225 Y6.7841 I0.0524 J-0.1076
G3 X3.426 Y6.6903 I4.5441 J-4.7741
G2 X3.4003 Y6.7024 I-0.0104 J0.0114
X3.4139 Y6.7374 I0.059 J-0.0027
X3.4915 Y6.7794 I0.0909 J-0.0754
X3.5103 Y6.78 I0.0133 J-0.1174 F50.
G3 X3.5214 Y6.784 I0.0007 J0.0154
G1 X3.5294 Y6.7918 F60.
X3.5425 Y6.8048
G3 X3.4437 Y6.9782 I-0.1078 J0.0535
G2 X3.3506 Y6.8855 I-3.6916 J3.6164
G3 X3.347 Y6.8706 I0.0112 J-0.0105
X3.3577 Y6.8615 I0.0124 J0.0037
X3.4429 Y6.9475 I0.0068 J0.0784
X3.44 Y6.9621 I-0.0784 J-0.0076 F50.
G2 X3.4437 Y6.977 I0.0147 J0.0043
G1 X3.4459 Y6.9792 F60.
X3.4632 Y6.9959
X3.4709 Y6.9995
X3.4787 Y7.0025
X3.4868 Y7.005
X3.495 Y7.0069
X3.5033 Y7.0081
X3.5117 Y7.0088
X3.5201 Y7.0089
X3.5285 Y7.0084
X3.5369 Y7.0073
X3.5451 Y7.0056
X3.5532 Y7.0033
X3.5611 Y7.0005
X3.5688 Y6.9971
X3.5763 Y6.9931
X3.5834 Y6.9887
X3.5902 Y6.9837
X3.5966 Y6.9783
X3.6026 Y6.9724
X3.6082 Y6.9661
X3.6134 Y6.9594
X3.618 Y6.9524
X3.6221 Y6.945
X3.6257 Y6.9374
X3.6288 Y6.9296
X3.6312 Y6.9215
X3.6331 Y6.9133
X3.6344 Y6.905
G2 X3.5425 Y6.8048 I-0.6516 J0.5052
X3.5275 Y6.8014 I-0.0104 J0.0113
X3.5127 Y6.8396 I0.0078 J0.025
X3.6057 Y6.8978 I0.102 J-0.0596
X3.6205 Y6.898 I0.009 J-0.1178 F50.
G3 X3.6342 Y6.905 I0.0008 J0.0154
G1 X3.6379 Y6.9115 F60.
X3.6412 Y6.9184
X3.6439 Y6.9255
X3.646 Y6.9327
X3.6475 Y6.9401
X3.6484 Y6.9477
X3.6487 Y6.9552
X3.6484 Y6.9628
X3.6475 Y6.9703
X3.6461 Y6.9777
X3.644 Y6.985
X3.6413 Y6.9921
X3.6381 Y6.9989
X3.6343 Y7.0055
X3.6301 Y7.0118
X3.6253 Y7.0177
X3.6201 Y7.0231
X3.6145 Y7.0282
X3.6085 Y7.0328
X3.6021 Y7.0369
X3.5954 Y7.0404
X3.5885 Y7.0435
X3.5813 Y7.0459
X3.574 Y7.0478
X3.5665 Y7.0491
X3.559 Y7.0498
X3.5514
X3.5439 Y7.0493
X3.5364 Y7.0482
X3.529 Y7.0464
X3.5218 Y7.0441
X3.5148 Y7.0412
X3.5081 Y7.0378
X3.5016 Y7.0338
X3.4955 Y7.0294
X3.4898 Y7.0244
X3.4845 Y7.0191
X3.4796 Y7.0133
X3.4752 Y7.0071
X3.4713 Y7.0006
X3.468 Y6.9938
G0 X3.4632 Y6.9959 Z0.4
X2.0496 Y4.5567
Z0.1
G3 X1.9686 Y4.4352 Z0.0596 I-0.0405 J-0.0608 F50.
X2.0496 Y4.5567 Z0.0191 I0.0405 J0.0608
X1.9686 Y4.4352 Z-0.0213 I-0.0405 J-0.0608
X2.0496 Y4.5567 Z-0.0618 I0.0405 J0.0608
X1.9686 Y4.4352 Z-0.1022 I-0.0405 J-0.0608
X2.0821 Y4.4959 Z-0.13 I0.0405 J0.0608
X1.9361 I-0.073 J0.
X2.0819 Y4.49 I0.073 J0.
G1 X2.0821 Y4.4959
G3 X2.0471 Y4.6355 I-0.0638 J0.0582 F60.
X1.9256 Y4.4501 I0.0041 J-0.1352
G1 X1.9276 Y4.4186
X1.9307 Y4.4109
X1.9343 Y4.4035
X1.9385 Y4.3964
X1.9432 Y4.3897
X1.9484 Y4.3833
X1.954 Y4.3773
X1.96 Y4.3717
X1.9665 Y4.3666
X1.9733 Y4.362
X1.9805 Y4.3579
X1.9879 Y4.3543
X1.9955 Y4.3513
X2.0034 Y4.3489
X2.0114 Y4.347
X2.0196 Y4.3458
X2.0278 Y4.3452
X2.036 Y4.3451
X2.0442 Y4.3457
X2.0524 Y4.3469
X2.0604 Y4.3487
X2.0683 Y4.3511
X2.076 Y4.3541
X2.0834 Y4.3576
X2.0906 Y4.3616
X2.0974 Y4.3662
X2.1039 Y4.3713
X2.11 Y4.3768
X2.1156 Y4.3828
X2.1208 Y4.3892
X2.1256 Y4.3959
X2.1173 Y4.4491
X2.1163 Y4.4959
G3 X2.0473 Y4.6362 I-0.0852 J0.0452
G1 X2.0444 Y4.6358
X2.0418 Y4.6349
X2.0393 Y4.6335
X2.0372 Y4.6318
X2.0354 Y4.6297
X2.034 Y4.6273
X2.0272 Y4.6143
X1.9394 Y4.4467
G3 X1.9276 Y4.4186 I0.0288 J-0.0286 F50.
G1 X1.939 Y4.3425 F60.
X1.9425 Y4.3346
X1.9466 Y4.3269
X1.9512 Y4.3195
X1.9563 Y4.3125
X1.9618 Y4.3058
X1.9678 Y4.2995
X1.9742 Y4.2937
X1.981 Y4.2883
X1.9881 Y4.2834
X1.9956 Y4.2789
X2.0034 Y4.275
X2.0114 Y4.2717
X2.0196 Y4.2689
X2.028 Y4.2666
X2.0365 Y4.265
X2.0451 Y4.2639
X2.0538 Y4.2634
X2.0624 Y4.2636
X2.0711 Y4.2643
X2.0797 Y4.2656
X2.0881 Y4.2675
X2.0964 Y4.2699
X2.1046 Y4.273
X2.1125 Y4.2765
X2.1201 Y4.2807
X2.1275 Y4.2853
X2.1345 Y4.2904
X2.1411 Y4.296
X2.1313 Y4.3554
X2.1253 Y4.3961
G3 X2.1153 Y4.4078 I-0.0151 J-0.0028
X2.0778 Y4.3803 I-0.0094 J-0.0264
X2.1165 Y4.3154 I0.0787 J0.0029
X2.1299 Y4.3091 I0.04 J0.0678 F50.
G2 X2.1399 Y4.2974 I-0.0052 J-0.0145
G1 X2.1434 Y4.2735 F60.
G2 X1.9594 Y4.2031 I-0.1152 J0.0253
G3 X1.939 Y4.3425 I-19.1684 J-2.7284
G2 X1.9451 Y4.3566 I0.0153 J0.0017
X2.0095 Y4.3305 I0.0242 J-0.0327
X1.9766 Y4.2276 I-0.1165 J-0.0195
X1.9655 Y4.2178 I-0.0836 J0.0835 F50.
G3 X1.9597 Y4.2036 I0.0094 J-0.0121
G1 X1.9642 Y4.1774 F60.
G3 X2.1513 Y4.1375 I0.1085 J0.0503
X2.14 Y4.1559 I-0.015 J0.0035
G1 X2.1332 Y4.1575
X1.984 Y4.1942
X1.9831 Y4.1944 F50.
G3 X1.9642 Y4.1774 I-0.0037 J-0.0149
X2.1605 Y4.167 I0.0981 J-0.0052 F60.
X2.1512 Y4.2142 I-0.0981 J0.0052
G1 X2.1451 Y4.2617
X2.1434 Y4.2735
X2.1512 Y4.2772
X2.1588 Y4.2813
X2.1661 Y4.286
X2.173 Y4.2912
X2.1795 Y4.2969
X2.1856 Y4.303
X2.1913 Y4.3096
X2.1964 Y4.3165
X2.2011 Y4.3238
X2.2052 Y4.3314
X2.2088 Y4.3393
X2.2118 Y4.3474
X2.2142 Y4.3557
X2.216 Y4.3642
X2.2172 Y4.3727
X2.2178 Y4.3813
Y4.39
X2.2171 Y4.3986
X2.2159 Y4.4072
X2.214 Y4.4156
X2.2115 Y4.4239
X2.216 Y4.4345
X2.2199 Y4.4452
X2.2231 Y4.4562
X2.2258 Y4.4673
X2.2279 Y4.4786
X2.2294 Y4.4899
X2.2303 Y4.5013
X2.2305 Y4.5128
X2.2302 Y4.5242
X2.2292 Y4.5356
X2.2276 Y4.5469
X2.2255 Y4.5582
X2.2227 Y4.5693
X2.2193 Y4.5802
X2.2153 Y4.5909
X2.2108 Y4.6014
X2.2057 Y4.6117
X2.2001 Y4.6216
X2.1939 Y4.6313
X2.1872 Y4.6406
X2.1801 Y4.6495
X2.1725 Y4.658
X2.1644 Y4.6661
X2.1559 Y4.6738
X2.147 Y4.681
X2.1377 Y4.6877
X2.1281 Y4.6939
X2.1182 Y4.6996
X2.108 Y4.7047
X2.0975 Y4.7093
X2.0868 Y4.7133
X2.0758 Y4.7167
X2.0648 Y4.7195
X2.0535 Y4.7218
X2.0422 Y4.7234
X2.0308 Y4.7244
X2.0194 Y4.7248
X2.008 Y4.7246
X1.9966 Y4.7238
X1.9852 Y4.7224
X1.974 Y4.7203
X1.9628 Y4.7177
X1.9519 Y4.7144
X1.9409 Y4.7058
X1.9302 Y4.6967
X1.92 Y4.6871
X1.9102 Y4.6771
X1.9008 Y4.6668
X1.8919 Y4.656
X1.8834 Y4.6448
X1.8755 Y4.6333
X1.868 Y4.6215
X1.861 Y4.6094
X1.8546 Y4.5969
X1.8487 Y4.5842
X1.8434 Y4.5713
X1.8386 Y4.5582
X1.8343 Y4.5448
X1.8307 Y4.5313
X1.8276 Y4.5177
X1.8251 Y4.5039
X1.8232 Y4.49
X1.8219 Y4.4761
X1.8212 Y4.4621
X1.8211 Y4.4482
X1.8216 Y4.4342
X1.8226 Y4.4202
X1.8243 Y4.4063
X1.8266 Y4.3925
X1.8294 Y4.3788
X1.8329 Y4.3653
X1.8369 Y4.3519
X1.8415 Y4.3386
X1.8466 Y4.3256
X1.8523 Y4.3128
G3 X1.9842 Y4.0015 I0.3021 J-0.0556
X2.248 Y4.1867 I0.0771 J0.1707
X2.295 Y4.3017 I-1.1683 J0.5439
X2.2274 Y4.7395 I-0.4027 J0.1619
G1 X2.2172 Y4.7483
X2.2067 Y4.7566
X2.1958 Y4.7644
X2.1846 Y4.7717
X2.173 Y4.7785
X2.1612 Y4.7848
X2.149 Y4.7905
X2.1367 Y4.7956
X2.1241 Y4.8002
X2.1113 Y4.8042
X2.0983 Y4.8077
X2.0852 Y4.8105
X2.072 Y4.8127
X2.0587 Y4.8143
X2.0453 Y4.8153
X2.0319 Y4.8157
X2.0185 Y4.8155
X2.0051 Y4.8147
X1.9918 Y4.8132
X1.9785 Y4.8112
X1.9654 Y4.8086
X1.9524 Y4.8053
X1.9395 Y4.8015
X1.9269 Y4.7971
X1.9144 Y4.7921
X1.9022 Y4.7865
X1.8903 Y4.7805
X1.8786 Y4.7738
X1.8673 Y4.7667
X1.8563 Y4.759
X1.8457 Y4.7508
X1.8354 Y4.7422
X1.8256 Y4.7331
X1.8162 Y4.7236
X1.8072 Y4.7136
X1.7987 Y4.7032
X1.7906 Y4.6925
X1.7831 Y4.6814
X1.7761 Y4.67
X1.7696 Y4.6583
X1.7637 Y4.6463
X1.7583 Y4.634
X1.7534 Y4.6215
X1.7492 Y4.6088
X1.7455 Y4.5959
X1.7424 Y4.5828
X1.7399 Y4.5697
X1.7381 Y4.5564
X1.7368 Y4.543
X1.7361 Y4.5297
Y4.5162
X1.7366 Y4.5029
X1.7378 Y4.4895
G3 X1.8078 Y4.0441 I0.9652 J-0.0765
G1 X1.9036 Y3.9518
X1.9133 Y3.944
X1.9234 Y3.9367
X1.9339 Y3.9299
X1.9447 Y3.9235
X1.9558 Y3.9178
X1.9671 Y3.9125
X1.9787 Y3.9079
X1.9905 Y3.9037
X2.0025 Y3.9002
X2.0146 Y3.8972
X2.0269 Y3.8949
X2.0392 Y3.8931
X2.0517 Y3.8919
X2.0642 Y3.8914
X2.0766
X2.0891 Y3.8921
X2.1015 Y3.8933
X2.1139 Y3.8952
X2.1261 Y3.8976
X2.1383 Y3.9006
X2.1502 Y3.9042
X2.162 Y3.9084
X2.1735 Y3.9132
X2.1848 Y3.9185
X2.1959 Y3.9243
X2.2066 Y3.9307
X2.217 Y3.9376
X2.2271 Y3.945
X2.2368 Y3.9528
X2.2461 Y3.9612
X2.255 Y3.9699
X2.2635 Y3.9791
X2.3144 Y4.074
G3 X2.3807 Y4.704 I-0.7365 J0.396
X1.6403 Y4.4746 I-0.3476 J-0.1877
X1.6539 Y4.2272 I0.8915 J-0.0749
X1.662 Y4.19 I0.0457 J-0.0096
G1 X1.8093 Y4.0447
G3 X1.831 Y4.0456 I0.0104 J0.0113
X1.8344 Y4.0576 I-0.0102 J0.0094
X1.6919 Y4.1856 I-0.1548 J-0.029
X1.673 Y4.1859 I-0.0122 J-0.157 F50.
G2 X1.662 Y4.19 I-0.0006 J0.0154
G1 X1.5987 Y4.2524 F60.
G2 X1.5822 Y4.704 I0.4178 J0.2413
X1.6159 Y4.7685 I0.3698 J-0.1522
G1 X1.6221 Y4.776
X1.6456 Y4.809
G2 X2.5079 Y4.449 I0.3893 J-0.2804
G1 X2.3144 Y4.074
G2 X2.2872 Y4.0884 I-0.0136 J0.0072
X2.3085 Y4.0945 I0.0136 J-0.0072
X2.3138 Y4.073 I-0.0077 J-0.0133
G1 X2.2677 Y4.0002
G2 X2.2417 Y4.0166 I-0.013 J0.0082
X2.27 Y4.0091 I0.013 J-0.0082
X2.2638 Y3.9788 I-0.0622 J-0.003 F50.
G1 X2.2086 Y3.875 F60.
G2 X2.0544 Y3.8017 I-0.138 J0.0914
G1 X1.9036 Y3.9518
G2 X1.919 Y3.9771 I0.0112 J0.0106
G1 X2.1951 Y3.8976
X2.1991 Y3.8965 F50.
G2 X2.2086 Y3.875 I-0.0043 J-0.0148
G1 X2.1554 Y3.7748 F60.
G2 X2.1139 Y3.7444 I-0.0325 J0.0008
G1 X2.0545 Y3.8029
G2 X2.0717 Y3.8277 I0.0112 J0.0106
G1 X2.1421 Y3.798
X2.1476 Y3.7957 F50.
G2 X2.1554 Y3.7748 I-0.006 J-0.0142
X2.1279 Y3.735 I-0.0298 J-0.0088 F60.
X2.1139 Y3.7444 I0.0129 J0.0342
X2.1107 Y3.7606 I0.0112 J0.0106
G1 X2.1118 Y3.7634 Z-0.1297
X2.1129 Y3.7661 Z-0.1288
X2.1138 Y3.7685 Z-0.1274
X2.1147 Y3.7707 Z-0.1255
X2.1154 Y3.7725 Z-0.1232
X2.1159 Y3.7738 Z-0.1205
X2.1162 Y3.7746 Z-0.1176
X2.1163 Y3.7749 Z-0.1146
G0 Z-0.0993
X2.4783 Y4.418
G1 Z-0.1146 F50.
X2.4786 Y4.4182 Z-0.1176
X2.4793 Y4.4186 Z-0.1205
X2.4806 Y4.4194 Z-0.1232
X2.4822 Y4.4204 Z-0.1255
X2.4842 Y4.4216 Z-0.1274
X2.4864 Y4.423 Z-0.1288
X2.4889 Y4.4244 Z-0.1297
X2.4915 Y4.426 Z-0.13
G3 X2.5131 Y4.4481 I-0.0324 J0.0532
G1 X2.5694 Y4.5541 F60.
G3 X2.4843 Y4.8829 I-0.3617 J0.0818
G1 X2.1147 Y5.0792
G3 X1.7675 Y5.0388 I-0.1297 J-0.3975
G2 X1.6456 Y4.809 I-0.7216 J0.2356
G3 X1.6706 Y4.7912 I0.0125 J-0.0089
X1.6654 Y4.8136 I-0.0125 J0.0089
X1.6438 Y4.8058 I-0.0073 J-0.0135
G1 X1.6324 Y4.777
G3 X1.661 Y4.7657 I0.0143 J-0.0057
X1.6415 Y4.7858 I-0.0143 J0.0057
X1.6159 Y4.7685 I0.0209 J-0.0587 F50.
G2 X1.5048 Y4.6582 I-0.4511 J0.343 F60.
G3 X1.4432 Y4.4056 I0.2549 J-0.1959
G1 X1.5987 Y4.2524
G3 X1.6136 Y4.249 I0.0104 J0.0113
X1.645 Y4.3243 I-0.0159 J0.0508
X1.4726 Y4.406 I-0.1399 J-0.0724
X1.4582 Y4.4023 I0.0326 J-0.1541 F50.
G2 X1.4432 Y4.4056 I-0.0046 J0.0147
G1 X1.3993 Y4.4489 F60.
G2 X1.3668 Y4.5628 I0.079 J0.0841
G3 X1.5048 Y4.6582 I-0.2814 J0.555
G2 X1.5273 Y4.6383 I0.0091 J-0.0124
G1 X1.4247 Y4.4555
X1.4231 Y4.4527 F50.
G2 X1.3993 Y4.4489 I-0.0134 J0.0075
G1 X1.3283 Y4.519 F60.
X1.3222 Y4.5278
X1.3218 Y4.5285
G2 X1.3668 Y4.5628 I0.0376 J-0.0027
X1.3832 Y4.5617 I0.0073 J-0.0135
G1 X1.3856 Y4.5599 Z-0.1297
X1.388 Y4.5582 Z-0.1288
X1.3901 Y4.5566 Z-0.1274
X1.392 Y4.5552 Z-0.1255
X1.3935 Y4.554 Z-0.1232
X1.3946 Y4.5532 Z-0.1205
X1.3954 Y4.5527 Z-0.1176
X1.3956 Y4.5525 Z-0.1146
G0 Z0.4
X1.7691 Y4.9929
Z-0.0993
G1 Z-0.1146 F50.
X1.769 Y4.9932 Z-0.1176
X1.7688 Y4.994 Z-0.1205
X1.7685 Y4.9954 Z-0.1232
X1.7682 Y4.9973 Z-0.1255
X1.7677 Y4.9996 Z-0.1274
X1.7672 Y5.0022 Z-0.1288
X1.7666 Y5.005 Z-0.1297
X1.766 Y5.0079 Z-0.13
G2 X1.7675 Y5.0388 I0.061 J0.0125
G1 X1.7863 Y5.0928 F60.
G2 X1.9147 Y5.1855 I0.1476 J-0.0692
G1 X2.1147 Y5.0792
G2 X2.1059 Y5.0506 I-0.0077 J-0.0133
G1 X1.8031 Y5.0727
X1.7998 Y5.0729 F50.
G2 X1.7863 Y5.0928 I0.0011 J0.0153
G1 X1.7924 Y5.1162 F60.
X1.8062 Y5.1864
G2 X1.8382 Y5.2261 I0.0321 J0.0068
G1 X1.9147 Y5.1855
G2 X1.9049 Y5.1569 I-0.0077 J-0.0133
G1 X1.8257 Y5.1679
X1.8193 Y5.1688 F50.
G2 X1.8062 Y5.1864 I0.0021 J0.0152
X1.822 Y5.2319 I0.0243 J0.017 F60.
X1.8382 Y5.2261 I-0.0062 J-0.0431
X1.8458 Y5.2115 I-0.0077 J-0.0133
G1 X1.8456 Y5.2086 Z-0.1297
X1.8453 Y5.2057 Z-0.1288
X1.8451 Y5.203 Z-0.1274
X1.8449 Y5.2007 Z-0.1255
X1.8448 Y5.1988 Z-0.1232
X1.8446 Y5.1974 Z-0.1205
Y5.1965 Z-0.1176
X1.8445 Y5.1962 Z-0.1146
G0 Z-0.0993
X2.5346 Y4.524
G1 Z-0.1146 F50.
X2.5349 Y4.5242 Z-0.1176
X2.5356 Y4.5246 Z-0.1205
X2.5369 Y4.5254 Z-0.1232
X2.5385 Y4.5264 Z-0.1255
X2.5405 Y4.5276 Z-0.1274
X2.5428 Y4.529 Z-0.1288
X2.5452 Y4.5305 Z-0.1297
X2.5478 Y4.532 Z-0.13
G3 X2.5694 Y4.5541 I-0.0324 J0.0532
G1 X2.6307 Y4.6695 F60.
G3 X2.6335 Y4.8036 I-0.1235 J0.0697
X2.6114 Y4.7911 I-0.0067 J-0.0138
G1 Y4.79
X2.602 Y4.6784
G3 X2.6047 Y4.6684 I0.0153 J-0.0013
X2.6307 Y4.6695 I0.0126 J0.0088 F50.
G1 X2.6788 Y4.76 F60.
X2.6822 Y4.7713
X2.682 Y4.7734
X2.6819 Y4.7738
G3 X2.6709 Y4.7837 I-0.0182 J-0.0091
G1 X2.4843 Y4.8829
G3 X2.4622 Y4.8693 I-0.0067 J-0.0138
G1 Y4.8663 Z-0.1297
X2.4621 Y4.8634 Z-0.1288
Y4.8607 Z-0.1274
Y4.8584 Z-0.1255
X2.462 Y4.8565 Z-0.1232
Y4.8551 Z-0.1205
Y4.8542 Z-0.1176
Y4.8539 Z-0.1146
G0 Z0.4
X-0.8986 Y2.228
Z-0.0993
G1 Z-0.1146 F50.
X-0.8987 Y2.2277 Z-0.1176
X-0.8989 Y2.2269 Z-0.1205
X-0.8993 Y2.2255 Z-0.1232
X-0.8998 Y2.2236 Z-0.1255
X-0.9003 Y2.2214 Z-0.1274
X-0.901 Y2.2188 Z-0.1288
X-0.9017 Y2.216 Z-0.1297
X-0.9025 Y2.2131 Z-0.13
G3 X-0.9145 Y2.1294 I0.3801 J-0.0974
X-0.6805 Y2.0704 I0.1246 J0.0008 F60.
G1 X-0.6731 Y2.0775
X-0.6662 Y2.085
X-0.6597 Y2.0928
X-0.6538 Y2.1011
X-0.6482 Y2.1096
X-0.6433 Y2.1185
X-0.6388 Y2.1277
X-0.6349 Y2.1371
X-0.6315 Y2.1467
X-0.6287 Y2.1565
X-0.6265 Y2.1664
X-0.6249 Y2.1765
X-0.6238 Y2.1866
X-0.6234 Y2.1968
X-0.6235 Y2.2069
X-0.6243 Y2.2171
X-0.6256 Y2.2272
X-0.6275 Y2.2372
X-0.6301 Y2.2471
X-0.6331 Y2.2568
X-0.6368 Y2.2663
X-0.641 Y2.2755
X-0.6457 Y2.2846
X-0.651 Y2.2933
X-0.6567 Y2.3017
X-0.6629 Y2.3097
X-0.6696 Y2.3174
X-0.6768 Y2.3247
X-0.6843 Y2.3315
X-0.6922 Y2.3379
X-0.7005 Y2.3438
X-0.7092 Y2.3492
X-0.7181 Y2.3541
X-0.7273 Y2.3585
X-0.7367 Y2.3623
X-0.7464 Y2.3655
G2 X-0.9042 Y2.7693 I5.3411 J2.3208
G1 X-0.9107 Y2.778
X-0.9176 Y2.7863
X-0.925 Y2.7943
X-0.9329 Y2.8018
X-0.9412 Y2.8088
X-0.9498 Y2.8153
X-0.9589 Y2.8214
X-0.9682 Y2.8269
X-0.9779 Y2.8319
X-0.9878 Y2.8363
X-0.9979 Y2.8401
X-1.0083 Y2.8433
X-1.0188 Y2.846
X-1.0295 Y2.848
X-1.0403 Y2.8495
X-1.0511 Y2.8503
X-1.062 Y2.8505
X-1.0728 Y2.85
X-1.0836 Y2.849
X-1.0943 Y2.8473
X-1.105 Y2.845
X-1.1154 Y2.8421
X-1.1257 Y2.8387
X-1.1358 Y2.8346
X-1.1456 Y2.83
X-1.1551 Y2.8248
X-1.1644 Y2.8191
X-1.1732 Y2.8128
X-1.1818 Y2.8061
X-1.1899 Y2.7989
X-1.1976 Y2.7912
X-1.2048 Y2.7831
X-1.2116 Y2.7746
X-1.2178 Y2.7657
X-1.2236 Y2.7565
X-1.2288 Y2.747
X-1.2334 Y2.7372
X-1.2375 Y2.7271
X-1.241 Y2.7168
X-1.2439 Y2.7064
X-1.2462 Y2.6958
X-1.2479 Y2.6851
X-1.249 Y2.6743
X-1.2495 Y2.6634
X-1.2493 Y2.6526
X-1.2485 Y2.6417
X-1.2471 Y2.631
X-1.2451 Y2.6203
X-1.2425 Y2.6097
X-1.2393 Y2.5994
X-1.2355 Y2.5892
X-1.2311 Y2.5793
G3 X-1.1555 Y2.3103 I0.9573 J0.124
G1 X-1.1485 Y2.2895
X-1.1409 Y2.2688
X-1.1327 Y2.2483
X-1.124 Y2.2281
X-1.1147 Y2.2081
X-1.1049 Y2.1884
X-1.0945 Y2.169
X-1.0835 Y2.1499
X-1.072 Y2.1311
X-1.06 Y2.1126
X-1.0475 Y2.0945
X-1.0345 Y2.0768
X-1.021 Y2.0594
X-1.007 Y2.0424
X-0.9925 Y2.0258
X-0.9775 Y2.0096
X-0.9622 Y1.9938
X-0.9463 Y1.9785
X-0.9301 Y1.9636
X-0.9134 Y1.9492
X-0.8964 Y1.9353
X-0.8841 Y1.9311
X-0.8716 Y1.9275
X-0.8589 Y1.9245
X-0.8461 Y1.922
X-0.8332 Y1.9202
X-0.8203 Y1.9191
X-0.8073 Y1.9185
X-0.7943
X-0.7813 Y1.9192
X-0.7683 Y1.9205
X-0.7554 Y1.9224
X-0.7427 Y1.9249
X-0.73 Y1.928
X-0.7176 Y1.9317
X-0.7053 Y1.936
X-0.6932 Y1.9409
X-0.6814 Y1.9463
X-0.6699 Y1.9523
X-0.6586 Y1.9589
X-0.6477 Y1.966
X-0.6371 Y1.9735
X-0.6269 Y1.9816
X-0.6171 Y1.9902
X-0.6077 Y1.9992
X-0.5987 Y2.0086
X-0.5902 Y2.0185
X-0.5822 Y2.0287
X-0.5747 Y2.0393
X-0.5677 Y2.0503
X-0.5612 Y2.0616
X-0.5553 Y2.0732
X-0.5499 Y2.085
X-0.5451 Y2.0971
X-0.5409 Y2.1094
X-0.5372 Y2.1219
X-0.5342 Y2.1346
X-0.5318 Y2.1473
X-0.5299 Y2.1602
X-0.5287 Y2.1732
X-0.5281 Y2.1862
Y2.1992
X-0.5288 Y2.2122
X-0.53 Y2.2251
X-0.5319 Y2.238
X-0.5344 Y2.2508
X-0.5375 Y2.2634
X-0.5412 Y2.2759
X-0.5454 Y2.2882
X-0.5503 Y2.3003
X-0.5557 Y2.3121
X-0.5617 Y2.3237
X-0.5682 Y2.3349
X-0.5752 Y2.3459
X-0.5828 Y2.3565
X-0.5909 Y2.3667
X-0.5994 Y2.3765
X-0.6084 Y2.3859
X-0.6178 Y2.3949
X-0.6276 Y2.4034
X-0.6379 Y2.4114
X-0.6485 Y2.419
X-0.6594 Y2.426
G2 X-0.7452 Y2.6347 I1.1189 J0.5817
X-0.8407 Y2.8163 I0.6425 J0.4538
G1 X-0.8475 Y2.8271
X-0.8549 Y2.8376
X-0.8627 Y2.8477
X-0.871 Y2.8575
X-0.8798 Y2.8668
X-0.889 Y2.8756
X-0.8986 Y2.8841
X-0.9087 Y2.892
X-0.9191 Y2.8995
X-0.9298 Y2.9064
X-0.9409 Y2.9128
X-0.9522 Y2.9187
X-0.9639 Y2.924
X-0.9757 Y2.9288
X-0.9878 Y2.933
X-1.0001 Y2.9366
X-1.0126 Y2.9396
X-1.0251 Y2.942
X-1.0378 Y2.9437
X-1.0505 Y2.9449
X-1.0633 Y2.9455
X-1.0761 Y2.9454
X-1.0889 Y2.9448
X-1.1016 Y2.9435
X-1.1143 Y2.9416
X-1.1268 Y2.9391
X-1.1392 Y2.936
X-1.1515 Y2.9323
X-1.1635 Y2.928
X-1.1754 Y2.9231
X-1.1869 Y2.9177
X-1.1983 Y2.9117
X-1.2093 Y2.9052
X-1.2199 Y2.8982
X-1.2303 Y2.8906
X-1.2402 Y2.8826
X-1.2498 Y2.8741
X-1.2589 Y2.8652
X-1.2676 Y2.8558
X-1.2759 Y2.846
X-1.2836 Y2.8358
X-1.2909 Y2.8253
X-1.2976 Y2.8144
X-1.3038 Y2.8032
X-1.3095 Y2.7917
X-1.3146 Y2.78
X-1.3191 Y2.768
X-1.3231 Y2.7559
X-1.3264 Y2.7435
X-1.3185 Y2.5401
G3 X-0.9728 Y1.8668 I1.074 J0.1262
X-0.9004 Y1.8418 I0.1036 J0.183
G1 X-0.7234
G3 X-0.4669 Y2.0392 I-0.0443 J0.3229
X-0.4908 Y2.052 I-0.0154 J0.
G1 X-0.7537 Y1.8766
G3 X-0.7531 Y1.8506 I0.0085 J-0.0128
X-0.7234 Y1.8418 I0.0318 J0.0536 F50.
G1 X-0.5592 F60.
G3 X-0.4669 Y1.8863 I-0.0032 J0.1249
X-0.4876 Y1.9001 I-0.0154 J-0.0005
G1 X-0.4893 Y1.8995
X-0.564 Y1.8716
G3 X-0.5723 Y1.8643 I0.0054 J-0.0144
X-0.5592 Y1.8418 I0.0137 J-0.007 F50.
G1 X-0.484 Y1.8419 F60.
X-0.4725 Y1.8441
X-0.471 Y1.8451
X-0.4703 Y1.8459
G3 X-0.4669 Y1.8592 I-0.0181 J0.0118
G1 Y2.2825
G3 X-0.4993 Y2.3931 I-0.1341 J0.0207
X-0.5226 Y2.3763 I-0.0084 J-0.0128
G1 X-0.4971 Y2.2791
G3 X-0.4893 Y2.2693 I0.0149 J0.0039
X-0.4669 Y2.2825 I0.007 J0.0137 F50.
X-0.47 Y2.3707 I-0.082 J0.0412 F60.
G2 X-0.7452 Y2.6347 I0.4929 J0.789
G3 X-0.7604 Y2.6414 I-0.0128 J-0.0085
G1 X-0.7736 Y2.6393
X-1.2967 Y2.5568
X-1.3056 Y2.5554 F50.
G3 X-1.3185 Y2.5401 I0.0024 J-0.0152
G1 X-1.3026 Y2.1888 F60.
G3 X-1.0851 Y1.8418 I0.7239 J0.2121
G1 X-0.9004
G3 X-0.8873 Y1.85 I-0.0005 J0.0154
X-0.8954 Y1.8876 I-0.0264 J0.0141
X-1.0643 Y1.8626 I-0.0725 J-0.0932
X-1.0721 Y1.85 I0.0964 J-0.0682 F50.
G2 X-1.0851 Y1.8418 I-0.0136 J0.0072
G1 X-1.1456 F60.
G2 X-1.2914 Y1.9421 I0.0351 J0.2072
G1 X-1.3026 Y2.1888
G2 X-1.2731 Y2.195 I0.0154 J0.0002
G1 X-1.1324 Y1.8643
X-1.132 Y1.8632 F50.
G2 X-1.1456 Y1.8418 I-0.0141 J-0.006
G1 X-1.2629 F60.
X-1.2726 Y1.8423
X-1.2736 Y1.8425
X-1.281 Y1.8439
X-1.2816 Y1.8441
X-1.2833 Y1.8452
X-1.2838 Y1.8458
X-1.2848 Y1.8471
X-1.285 Y1.8476
X-1.2876 Y1.8585
X-1.2914 Y1.9421
G2 X-1.2608 Y1.9445 I0.0154 J0.0002
G1 X-1.2489 Y1.8645
X-1.2482 Y1.8595 F50.
G2 X-1.2629 Y1.8418 I-0.0152 J-0.0023
G1 X-1.2702 F60.
X-1.2736 Y1.8425
G2 X-1.2755 Y1.8431 I0.0034 J0.015
G1 X-1.2774 Y1.8444 Z-0.1298
X-1.2794 Y1.8456 Z-0.1293
X-1.2812 Y1.8468 Z-0.1284
X-1.2823 Y1.8486 Z-0.127
X-1.2833 Y1.8502 Z-0.1254
X-1.2841 Y1.8516 Z-0.1235
X-1.2847 Y1.8527 Z-0.1213
X-1.285 Y1.8535 Z-0.1192
X-1.2851 Y1.854 Z-0.1169
Y1.8542 Z-0.1146
G0 Z0.4
X-1.3093 Y2.7018
Z-0.0993
G1 Z-0.1146 F50.
X-1.3095 Y2.702 Z-0.1176
X-1.3099 Y2.7028 Z-0.1205
X-1.3107 Y2.7039 Z-0.1232
X-1.3118 Y2.7055 Z-0.1255
X-1.313 Y2.7075 Z-0.1274
X-1.3145 Y2.7097 Z-0.1288
X-1.3161 Y2.7121 Z-0.1297
X-1.3177 Y2.7146 Z-0.13
G2 X-1.3278 Y2.7439 I0.0521 J0.0342
G1 X-1.3324 Y2.8445 F60.
G2 X-1.0016 Y3.028 I0.2452 J-0.0522
X-0.8898 Y2.9951 I0.0095 J-0.1739
G1 X-0.8889 Y2.992
G3 X-0.8407 Y2.8163 I0.6717 J0.0899
G2 X-0.8429 Y2.8011 I-0.0143 J-0.0057
X-0.9056 Y2.7963 I-0.0336 J0.0264
X-0.9064 Y2.9684 I0.0805 J0.0865
X-0.8951 Y2.9779 I0.0813 J-0.0857 F50.
G3 X-0.8889 Y2.992 I-0.0091 J0.0124
G1 X-0.8946 Y3.0319 F60.
X-0.901 Y3.0418
X-0.9079 Y3.0514
X-0.9152 Y3.0606
X-0.923 Y3.0695
X-0.9313 Y3.0779
X-0.94 Y3.0859
X-0.9491 Y3.0934
X-0.9586 Y3.1004
X-0.9685 Y3.1069
X-0.9786 Y3.1128
X-0.9891 Y3.1183
X-0.9998 Y3.1232
X-1.0108 Y3.1275
X-1.022 Y3.1312
X-1.0334 Y3.1344
X-1.0449 Y3.1369
X-1.0566 Y3.1388
X-1.0683 Y3.1402
X-1.0801 Y3.1409
X-1.0919 Y3.141
X-1.1036 Y3.1405
X-1.1154 Y3.1393
X-1.1271 Y3.1376
X-1.1386 Y3.1352
X-1.15 Y3.1322
X-1.1613 Y3.1287
X-1.1723 Y3.1245
X-1.1832 Y3.1198
X-1.1937 Y3.1146
X-1.204 Y3.1087
X-1.2139 Y3.1024
X-1.2235 Y3.0955
G3 X-1.3407 Y3.0278 I-0.0064 J-0.1241
G1 X-1.3324 Y2.8445
G3 X-1.3236 Y2.8319 I0.0153 J0.0012
X-1.2849 Y2.8424 I0.0132 J0.0278
X-1.319 Y3.008 I-0.0979 J0.0661
X-1.332 Y3.0152 I-0.0637 J-0.0994 F50.
G2 X-1.3407 Y3.0278 I0.0066 J0.0139
G1 X-1.3425 Y3.0682 F60.
G2 X-1.0255 Y3.217 I0.2282 J-0.0739
X-0.9025 Y3.1818 I0.0177 J-0.1706
G1 X-0.9018 Y3.1782
G3 X-0.8943 Y3.0319 I0.6008 J-0.0426
G1 Y3.0288
X-0.8949 Y3.0258
X-0.8961 Y3.023
X-0.8978 Y3.0205
X-0.9 Y3.0183
X-0.9025 Y3.0167
X-0.9053 Y3.0155
X-0.9083 Y3.0149
G2 X-0.9305 Y3.0268 I-0.0024 J0.0222
X-0.9193 Y3.1535 I0.1048 J0.0546
X-0.9066 Y3.1675 I0.0935 J-0.0721 F50.
G3 X-0.9018 Y3.1782 I-0.0105 J0.0112
G1 X-0.9019 Y3.1958 F60.
X-0.9011 Y3.2029
X-0.9042 Y3.2127
X-0.9079 Y3.2224
X-0.9122 Y3.2318
X-0.917 Y3.2409
X-0.9223 Y3.2498
X-0.9282 Y3.2583
X-0.9345 Y3.2664
X-0.9413 Y3.2742
X-0.9486 Y3.2816
X-0.9562 Y3.2885
X-0.9643 Y3.295
X-0.9727 Y3.3009
X-0.9815 Y3.3064
X-0.9905 Y3.3114
X-0.9999 Y3.3158
X-1.0095 Y3.3197
X-1.0192 Y3.323
X-1.0292 Y3.3257
X-1.0393 Y3.3278
X-1.0495 Y3.3294
X-1.0598 Y3.3303
X-1.0701 Y3.3307
X-1.0805 Y3.3304
X-1.0908 Y3.3295
X-1.101 Y3.3281
X-1.1111 Y3.326
X-1.1211 Y3.3233
X-1.1309 Y3.3201
X-1.1405 Y3.3163
X-1.1499 Y3.312
G3 X-1.3514 Y3.2351 I-0.0131 J-0.2683
G1 X-1.3425 Y3.0682
G3 X-1.3338 Y3.0555 I0.0153 J0.0012
X-1.2793 Y3.0794 I0.0169 J0.0355
X-1.3283 Y3.2139 I-0.1128 J0.0351
X-1.3413 Y3.2211 I-0.0637 J-0.0994 F50.
G2 X-1.35 Y3.2337 I0.0066 J0.0139
G1 X-1.3518 Y3.2731 F60.
G2 X-1.0527 Y3.4139 I0.2229 J-0.0855
G1 X-1.0501 Y3.4176
X-0.8971 Y3.3309
G2 X-0.8903 Y3.2895 I-0.0124 J-0.0233
G1 X-0.8992 Y3.2192
X-0.9011 Y3.2029
G2 X-0.9106 Y3.1909 I-0.0152 J0.0023
X-0.9213 Y3.1916 I-0.0046 J0.0116
G1 X-0.9246 Y3.1934
G2 X-1.0426 Y3.3892 I0.118 J0.2046
G1 X-1.0427 Y3.4041 F50.
G3 X-1.0501 Y3.4176 I-0.0154 J0.0004
G1 X-1.1456 Y3.4716 F60.
G3 X-1.3602 Y3.4308 I-0.077 J-0.1799
G1 X-1.3518 Y3.2731
G3 X-1.3431 Y3.2605 I0.0153 J0.0012
X-1.2844 Y3.2913 I0.0178 J0.0374
X-1.3372 Y3.4096 I-0.1166 J0.0189
X-1.3502 Y3.4168 I-0.0637 J-0.0994 F50.
G2 X-1.3589 Y3.4295 I0.0066 J0.0139
G1 X-1.3606 Y3.4663 F60.
G2 X-1.2908 Y3.5555 I0.099 J-0.0055
G1 X-1.1456 Y3.4716
G2 X-1.1543 Y3.4432 I-0.008 J-0.0131
G1 X-1.3373 Y3.4518
X-1.346 Y3.4522 F50.
G2 X-1.3606 Y3.4663 I0.0007 J0.0154
G1 X-1.3643 Y3.5471 F60.
G2 X-1.3433 Y3.5836 I0.021 J0.0122
G1 X-1.2901 Y3.5535
G2 X-1.3006 Y3.5252 I-0.008 J-0.0131
G1 X-1.341 Y3.5315
X-1.3513 Y3.5331 F50.
G2 X-1.3643 Y3.5471 I0.0024 J0.0152
X-1.3567 Y3.5889 I0.0121 J0.0194 F60.
G1 X-1.3472 Y3.5856
X-1.3464 Y3.5853
X-1.3433 Y3.5836
G2 X-1.3417 Y3.5824 I-0.008 J-0.0131
G1 X-1.3402 Y3.5806 Z-0.1298
X-1.3388 Y3.5788 Z-0.1293
X-1.3375 Y3.577 Z-0.1284
X-1.337 Y3.575 Z-0.1271
X-1.3366 Y3.5732 Z-0.1255
X-1.3363 Y3.5717 Z-0.1237
X-1.336 Y3.5705 Z-0.1216
Y3.5696 Z-0.1194
X-1.3361 Y3.569 Z-0.117
Y3.5688 Z-0.1146
G0 Z0.4
X-1.0758 Y4.2908
Z0.1
G3 X-1.1567 Y4.1693 Z0.0596 I-0.0405 J-0.0608 F50.
X-1.0758 Y4.2908 Z0.0191 I0.0405 J0.0608
X-1.1567 Y4.1693 Z-0.0213 I-0.0405 J-0.0608
X-1.0758 Y4.2908 Z-0.0618 I0.0405 J0.0608
X-1.1567 Y4.1693 Z-0.1022 I-0.0405 J-0.0608
X-1.0433 Y4.23 Z-0.13 I0.0405 J0.0608
X-1.1893 I-0.073 J0.
X-1.0435 Y4.2241 I0.073 J0.
G1 X-1.0433 Y4.23
G3 X-1.0246 Y4.3032 I-0.0602 J0.0543 F60.
G1 X-1.0518 Y4.3276
X-1.0675 Y4.3433
X-1.0728 Y4.3487
X-1.0786 Y4.3536
X-1.0847 Y4.358
X-1.0912 Y4.362
X-1.0979 Y4.3654
X-1.1049 Y4.3682
X-1.1121 Y4.3705
X-1.1194 Y4.3722
X-1.1269 Y4.3733
X-1.1344 Y4.3739
X-1.142 Y4.3738
X-1.1495 Y4.3731
X-1.157 Y4.3718
X-1.1643 Y4.37
X-1.1714 Y4.3675
X-1.1726 Y4.3648
X-1.1733 Y4.362
X-1.1735 Y4.3591
X-1.1732 Y4.3562
X-1.1723 Y4.3534
X-1.171 Y4.3509
X-1.1692 Y4.3486
X-1.1671 Y4.3468
X-1.1647 Y4.3453
X-1.1621 Y4.3443
X-1.1583 Y4.3431
G3 X-1.0756 Y4.3187 I0.0727 J0.094
X-1.0675 Y4.3433 I-0.0038 J0.0149 F50.
X-1.1352 Y4.4155 I-0.1107 J-0.036 F60.
G1 X-1.1358 Y4.4156
X-1.1381 Y4.4155
X-1.1398 Y4.4146
G3 X-1.2394 Y4.2484 I0.3377 J-0.3152
X-1.246 Y4.1705 I0.0472 J-0.0432
X-1.2239 Y4.1808 I0.0071 J0.0136
G1 X-1.2233 Y4.1835
X-1.2114 Y4.2369
G3 X-1.2134 Y4.2485 I-0.015 J0.0033
X-1.2394 Y4.2484 I-0.013 J-0.0083 F50.
X-1.2697 Y4.1878 I0.0298 J-0.0528 F60.
X-1.1291 Y4.1043 I0.233 J0.2325
G1 X-1.1203 Y4.1018
X-1.1113 Y4.0998
X-1.1022 Y4.0985
X-1.0931 Y4.0977
X-1.0839 Y4.0975
X-1.0747 Y4.0979
X-1.0656 Y4.0989
X-1.0565 Y4.1005
X-1.0476 Y4.1027
X-1.0388 Y4.1055
X-1.0302 Y4.1088
X-1.0219 Y4.1127
X-1.0138 Y4.1171
X-1.0061 Y4.122
X-0.9987 Y4.1274
X-0.9916 Y4.1333
X-0.9849 Y4.1396
X-0.9787 Y4.1463
X-0.9729 Y4.1535
X-0.9676 Y4.161
X-0.9628 Y4.1688
X-0.9585 Y4.1769
X-0.9547 Y4.1853
X-0.9515 Y4.1939
X-0.9489 Y4.2027
X-0.9468 Y4.2117
X-0.9453 Y4.2207
X-0.9444 Y4.2299
X-0.9441 Y4.2391
G2 X-1.0246 Y4.3032 I0.2162 J0.3538
G3 X-1.0398 Y4.3059 I-0.0099 J-0.0118
X-1.0509 Y4.2538 I0.0108 J-0.0295
X-0.9744 Y4.2345 I0.0549 J0.0564
X-0.9606 Y4.2399 I-0.0216 J0.0757 F50.
G2 X-0.9452 Y4.2391 I0.0069 J-0.0137
G1 X-0.9271 Y4.2263 F60.
X-0.9223 Y4.2189
X-0.918 Y4.2113
X-0.9143 Y4.2034
X-0.9111 Y4.1952
X-0.9085 Y4.1869
X-0.9065 Y4.1784
X-0.905 Y4.1698
X-0.9041 Y4.1611
X-0.9038 Y4.1524
X-0.9041 Y4.1436
X-0.905 Y4.1349
X-0.9065 Y4.1263
X-0.9086 Y4.1179
X-0.9113 Y4.1095
X-0.9145 Y4.1014
X-0.9182 Y4.0935
X-0.9225 Y4.0859
X-0.9273 Y4.0786
X-0.9326 Y4.0716
X-0.9383 Y4.065
X-0.9445 Y4.0588
X-0.951 Y4.0531
X-0.958 Y4.0478
X-0.9653 Y4.043
X-0.9729 Y4.0387
X-0.9808 Y4.0349
X-0.9889 Y4.0317
X-0.9972 Y4.029
X-1.1291 Y4.1043
G2 X-1.1364 Y4.1178 I0.008 J0.0131
X-1.0786 Y4.1558 I0.0421 J-0.0011
X-1.0053 Y4.0581 I-0.0443 J-0.1095
X-1.0048 Y4.0433 I-0.1175 J-0.0118 F50.
G3 X-0.9974 Y4.0298 I0.0154 J-0.0004
G1 X-0.9722 Y4.0155 F60.
G3 X-0.818 Y4.1627 I0.0295 J0.1234
G2 X-0.9271 Y4.2263 I0.2221 J0.5064
G3 X-0.9424 Y4.2271 I-0.0084 J-0.0129
X-0.9525 Y4.2027 I0.0091 J-0.0181
X-0.8475 Y4.1546 I0.0748 J0.0247
X-0.8344 Y4.1616 I-0.0303 J0.0727 F50.
G2 X-0.8191 Y4.1625 I0.0085 J-0.0128
G1 X-0.8071 Y4.156 F60.
X-0.7998 Y4.1528
X-0.7939 Y4.1466
X-0.7885 Y4.14
X-0.7835 Y4.133
X-0.7791 Y4.1258
X-0.7751 Y4.1182
X-0.7717 Y4.1104
X-0.7689 Y4.1024
X-0.7666 Y4.0941
X-0.7649 Y4.0858
X-0.7637 Y4.0773
X-0.7632 Y4.0688
X-0.7633 Y4.0603
X-0.7639 Y4.0518
X-0.7652 Y4.0434
X-0.767 Y4.035
X-0.7694 Y4.0268
X-0.7723 Y4.0188
X-0.7759 Y4.0111
X-0.7799 Y4.0036
X-0.7844 Y3.9964
X-0.7895 Y3.9895
X-0.795 Y3.983
X-0.801 Y3.9769
X-0.8073 Y3.9712
X-0.8141 Y3.966
X-0.8211 Y3.9612
X-0.8285 Y3.957
X-0.8362 Y3.9533
X-0.8441 Y3.9501
X-0.8522 Y3.9475
X-0.9722 Y4.0155
G2 X-0.9772 Y4.0366 I0.008 J0.0131
X-0.9563 Y4.0463 I0.0178 J-0.0109
X-0.865 Y3.975 I-0.0178 J-0.1168
X-0.8592 Y3.9571 I-0.109 J-0.0454 F50.
G3 X-0.8523 Y3.9476 I0.0149 J0.0036
G1 X-0.8289 Y3.9344 F60.
G3 X-0.6835 Y4.0323 I0.0319 J0.1097
X-0.7039 Y4.1126 I-0.093 J0.019
X-0.7998 Y4.1528 I-0.3533 J-0.7078
X-0.815 Y4.1506 I-0.0057 J-0.0143
X-0.8167 Y4.1424 I0.004 J-0.0051
G1 X-0.814 Y4.1373
G3 X-0.7076 Y4.0475 I0.172 J0.0958
G1 X-0.6934 Y4.0431 F50.
G2 X-0.6826 Y4.0322 I-0.004 J-0.0148
G1 X-0.668 Y3.9686 F60.
G2 X-0.7194 Y3.8703 I-0.0936 J-0.0137
G1 X-0.8289 Y3.9344
G2 X-0.8228 Y3.9627 I0.008 J0.0131
G1 X-0.6936 Y3.9788
X-0.6848 Y3.9799 F50.
G2 X-0.668 Y3.9686 I0.0019 J-0.0153
G1 X-0.6503 Y3.8913 F60.
G2 X-0.6688 Y3.8437 I-0.0203 J-0.0195
G1 X-0.7208 Y3.8732
G2 X-0.7281 Y3.8867 I0.008 J0.0131
X-0.7175 Y3.8976 I0.0112 J-0.0003
X-0.6786 Y3.8718 I0.002 J-0.0393
X-0.6762 Y3.8572 I-0.037 J-0.0136 F50.
G3 X-0.6688 Y3.8437 I0.0154 J-0.0004
G1 X-0.6589 Y3.8381 F60.
X-0.653 Y3.8361
X-0.6485 Y3.8346
X-0.6477 Y3.8344
X-0.6454 Y3.8346
X-0.6434 Y3.8356
G3 X-0.6503 Y3.8913 I-0.0333 J0.0242
X-0.6606 Y3.902 I-0.0149 J-0.004
G1 X-0.6629 Y3.9024 Z-0.1298
X-0.6651 Y3.9027 Z-0.1293
X-0.6676 Y3.9021 Z-0.1282
X-0.6699 Y3.9016 Z-0.1267
X-0.6718 Y3.9012 Z-0.1248
X-0.6732 Y3.9003 Z-0.1226
X-0.6742 Y3.8996 Z-0.1201
X-0.6748 Y3.8992 Z-0.1174
X-0.6751 Y3.8991 Z-0.1146
G0 Z0.4
X0.0405 Y0.0607
Z0.1
G3 X-0.0405 Y-0.0608 Z0.0596 I-0.0405 J-0.0608 F50.
X0.0405 Y0.0607 Z0.0191 I0.0405 J0.0608
X-0.0405 Y-0.0608 Z-0.0213 I-0.0405 J-0.0608
X0.0405 Y0.0607 Z-0.0618 I0.0405 J0.0608
X-0.0405 Y-0.0608 Z-0.1022 I-0.0405 J-0.0608
X0.073 Y0. Z-0.13 I0.0405 J0.0608
X-0.073 I-0.073 J0.
X0.0728 Y-0.0059 I0.073 J0.
G1 X0.073 Y0.
G3 X-0.0834 Y0.123 I-0.0818 J0.0568 F60.
X0.0803 Y-0.139 I0.0818 J-0.131
X0.1486 Y-0.0442 I-0.0818 J0.131
X-0.1493 Y0.1881 I-0.1593 J0.1029
X-0.1195 Y-0.2191 I0.1303 J-0.1952
X0.2628 Y-0.0614 I0.1152 J0.2628
X0.0906 Y0.3146 I-0.267 J0.1051
X-0.1232 Y-0.3193 I-0.1065 J-0.3171
X0.3593 Y-0.0742 I0.1189 J0.3635
X0.1137 Y0.408 I-0.3636 J0.1185
X-0.4394 Y0.0343 I-0.136 J-0.3949
X0.4374 Y-0.1008 I0.4435 J-0.0341
X0.2359 Y0.4583 I-0.4144 J0.1665
X-0.2684 Y-0.4691 I-0.2521 J-0.4637
X0.039 Y-0.5303 I0.2521 J0.4637
X0.5556 Y0.1739 I-0.049 J0.5776
X-0.2119 Y0.5906 I-0.5656 J-0.1266
X0.1963 Y-0.6035 I0.2053 J-0.5966
X-0.0715 Y0.7232 I-0.2114 J0.6477
X-0.2462 Y-0.6915 I0.0646 J-0.7261
X0.5946 Y0.5252 I0.2406 J0.7326
X-0.827 Y0.0098 I-0.6214 J-0.5042
X0.5937 Y-0.5826 I0.826 J-0.0189
X0.13 Y0.9084 I-0.6039 J0.6298
G1 X-0.1136 Y0.9082
G3 X-0.9068 Y0.2029 I0.0779 J-0.8864
G1 X-0.9082 Y-0.1531
G3 X-0.2075 Y-0.9067 I0.8816 J0.1172
G1 X0.1444 Y-0.9082
G3 X0.9059 Y-0.2621 I-0.1149 J0.9072
G1 X0.9082 Y0.2918
G3 X0.4343 Y0.9061 I-0.8147 J-0.1385
G1 X0.1299 Y0.9082
G3 X0.1169 Y0.9 I0.0005 J-0.0154
X0.1319 Y0.834 I0.0457 J-0.0243
X0.4147 Y0.8872 I0.1165 J0.1586
G1 X0.4222 Y0.9 F50.
G2 X0.4352 Y0.9082 I0.0136 J-0.0072
G1 X0.5561 F60.
G2 X0.9062 Y0.5915 I-0.1795 J-0.5503
G1 X0.9082 Y0.2918
G2 X0.9 Y0.2788 I-0.0154 J0.0005
X0.8285 Y0.2969 I-0.0258 J0.0484
X0.8872 Y0.5719 I0.1641 J0.1087
G1 X0.9 Y0.5793 F50.
G3 X0.9082 Y0.5923 I-0.0072 J0.0136
G1 Y0.6899 F60.
G3 X0.7698 Y0.9082 I-0.3344 J-0.059
G1 X0.5561
G3 X0.543 Y0.9 I0.0005 J-0.0154
X0.5768 Y0.8221 I0.0479 J-0.0255
X0.7492 Y0.8873 I0.041 J0.152
X0.7568 Y0.9 I-0.1314 J0.0868 F50.
G2 X0.7698 Y0.9082 I0.0136 J-0.0072
G1 X0.8246 F60.
X0.8364 Y0.9086
G2 X0.9146 Y0.8716 I0.02 J-0.0589
G3 X0.9082 Y0.6899 I0.5816 J-0.1117
G2 X0.878 Y0.6864 I-0.0154 J0.0005
G1 X0.8237 Y0.8855
X0.8227 Y0.8893 F50.
G2 X0.8364 Y0.9086 I0.0148 J0.004
G3 X0.8992 Y0.9226 I-0.0097 J0.1922 F60.
G1 X0.9048 Y0.9248
X0.9111 Y0.9259
X0.9179 Y0.9262
X0.921 Y0.9259
X0.9257 Y0.9242
X0.9291 Y0.9205
X0.9302 Y0.9156
X0.9289 Y0.9108
X0.9258 Y0.9052
G2 X0.9155 Y0.8982 I-0.0131 J0.008
X0.9123 Y0.8979 I-0.0029 J0.0151 F50.
G1 X0.9122 Y0.9034
X0.9154
G3 X0.9289 Y0.9108 I0.0004 J0.0154
G1 X0.935 Y0.9217 F60.
X0.9377 Y0.927
X0.937 Y0.9321
X0.9337 Y0.936
X0.9288 Y0.9376
X0.9238 Y0.9363
G3 X0.921 Y0.9343 I0.0209 J-0.033
X0.919 Y0.9323 I0.0058 J-0.0076
X0.9215 Y0.9187 I0.0078 J-0.0056 F50.
X0.935 Y0.9217 I0.0053 J0.008
G1 X0.9364 Y0.9241 F60.
X0.9419 Y0.9336
X0.9427 Y0.9349
X0.9458 Y0.9401
X0.9447 Y0.9435
X0.9416 Y0.9453
X0.9382 Y0.9447
G3 X0.9349 Y0.9424 I0.0211 J-0.0332 F50.
X0.9345 Y0.9341 I0.0034 J-0.0043
X0.9427 Y0.9349 I0.0038 J0.004
G1 X0.9486 Y0.944 F60.
X0.9501 Y0.9465
X0.9495 Y0.9488
X0.9475 Y0.9499
X0.9453 Y0.9493
X0.9439 Y0.9482 F50.
X0.946 Y0.9426
X0.9486 Y0.944
X0.951 Y0.9476 F60.
X0.9517 Y0.9484
X0.9526 Y0.9496
X0.9524 Y0.9515
X0.9508 Y0.9526
X0.9489 Y0.9521
X0.9484 Y0.9516 F50.
X0.95 Y0.9477
X0.9517 Y0.9484
X0.9542 Y0.9514 F60.
X0.9551 Y0.9526
X0.9549 Y0.9543
X0.9534 Y0.9552
X0.9518 Y0.9547
X0.9513 Y0.9542 F50.
X0.9527 Y0.9508
X0.9542 Y0.9514
X0.9554 Y0.9528 F60.
X0.9563 Y0.9536
X0.9573 Y0.9547
X0.9572 Y0.9564
X0.9559 Y0.9573
X0.9543 Y0.9569
G3 X0.9528 Y0.954 I0.0036 J-0.0038 F50.
G1 X0.9536 Y0.9528
X0.9542 Y0.952
X0.9535 Y0.9513
X0.9528 Y0.9518
X0.9527 Y0.9536
X0.9532 Y0.9554
X0.9543 Y0.9569
X0.9554 Y0.9578 F60.
X0.9563 Y0.9588
X0.9573 Y0.9599
X0.959 Y0.9596
X0.9599 Y0.9581
X0.9592 Y0.9565
G2 X0.9563 Y0.9552 I-0.0035 J0.004 F50.
G1 X0.9551 Y0.9561
X0.9544 Y0.9568
X0.9536 Y0.9562
X0.9541 Y0.9554
X0.9559 Y0.9551
X0.9577 Y0.9555
X0.9592 Y0.9565
X0.9624 Y0.9595 F60.
X0.9634 Y0.9605
X0.9629 Y0.9624
X0.9612 Y0.9632
X0.9595 Y0.9624
X0.9594 Y0.9623 F50.
X0.9624 Y0.9595
X0.9654 Y0.9623 F60.
X0.9665 Y0.9633
X0.966 Y0.9654
X0.9642 Y0.9664
X0.9623 Y0.9655
X0.9622 F50.
X0.9654 Y0.9623
X0.9679 Y0.9644 F60.
X0.969 Y0.9654
X0.9689 Y0.9678
X0.967 Y0.9692
X0.9647 Y0.9683
X0.9644 Y0.9679 F50.
X0.9679 Y0.9644
X0.9712 Y0.9672 F60.
X0.9723 Y0.9682
X0.9722 Y0.9709
X0.9699 Y0.9724
X0.9673 Y0.9714
X0.9672 Y0.9712 F50.
X0.9712 Y0.9672
X0.9743 Y0.9698 F60.
X0.9765 Y0.9718
Y0.9742
X0.975 Y0.976
X0.9726 Y0.9764
X0.9706 Y0.9753
X0.9698 Y0.9742 F50.
X0.9743 Y0.9698
X0.9789 Y0.9736 F60.
X0.9811 Y0.9757
Y0.9784
X0.9793 Y0.9805
X0.9766 Y0.981
X0.9742 Y0.9796
X0.9736 Y0.9788 F50.
X0.9789 Y0.9736
X0.9845 Y0.9783 F60.
X0.9867 Y0.9803
X0.9865 Y0.9835
X0.9844 Y0.9859
X0.9813 Y0.9864
X0.9786 Y0.9848
X0.9783 Y0.9844 F50.
X0.9776 Y0.9832
X0.9774 Y0.9818
X0.9845 Y0.9783
X0.9902 Y0.9831 F60.
X0.9923 Y0.9852
Y0.9888
X0.99 Y0.9915
X0.9864 Y0.9922
X0.9833 Y0.9904
X0.9831 Y0.9901 F50.
G3 X0.9902 Y0.9831 I0.004 J-0.0031
G1 X0.9964 Y0.9884 F60.
X0.9986 Y0.9905
X0.9987 Y0.9946
X0.9961 Y0.9978
X0.9921 Y0.9985
X0.9885 Y0.9965
X0.9884 Y0.9964 F50.
G3 X0.9964 Y0.9884 I0.0045 J-0.0035
G1 X1.0034 Y0.9944 F60.
X1.0043 Y0.9951
X1.005 Y0.9958
X1.0053 Y0.9962
X1.0059 Y0.9974
X1.0063 Y0.9987
X1.0065 Y1.
X1.0024 Y1.0007 F50.
X1.0016 Y0.998
X1.005 Y0.9958
X1.0054 Y0.9964 F60.
X1.0062 Y0.9978
X1.0063 Y0.9985
X1.0066 Y1.0002
X1.0065 Y1.0006
X1.006 Y1.0027
X1.0049 Y1.0043
X1.0042 Y1.005
X1.003 Y1.0058
X1.0024 Y1.0061
X1.0007 Y1.0065
X1.
X0.9981 Y1.0063
X0.9974 Y1.006
X0.9961 Y1.0053
X0.9955 Y1.0047
X0.9924 Y1.0011
X0.9917 Y0.9995 Z-0.1297
X0.9911 Y0.9982 Z-0.1289
X0.9907 Y0.9971 Z-0.1277
X0.9904 Y0.9964 Z-0.1262
X0.9903 Y0.9961 Z-0.1246
G0 Z0.4
X-0.0707 Y0.8916
Z-0.0993
G1 Z-0.1146 F50.
X-0.0709 Y0.8917 Z-0.1176
X-0.0717 Y0.8922 Z-0.1205
X-0.0729 Y0.8929 Z-0.1232
X-0.0746 Y0.8939 Z-0.1255
X-0.0766 Y0.8951 Z-0.1274
X-0.0788 Y0.8964 Z-0.1288
X-0.0813 Y0.8979 Z-0.1297
X-0.0839 Y0.8994 Z-0.13
G3 X-0.1136 Y0.9082 I-0.0318 J-0.0536
G1 X-0.4185 F60.
G3 X-0.9065 Y0.4798 I0.2272 J-0.7509
G1 X-0.9082 Y0.2032
G3 X-0.8815 Y0.1933 I0.0154 J0.0005
X-0.8471 Y0.3896 I-0.1337 J0.1247
X-0.89 Y0.4564 I-0.2173 J-0.0926
G1 X-0.9033 Y0.4698 F50.
G2 X-0.9082 Y0.4805 I0.0105 J0.0112
G1 Y0.5963 F60.
G2 X-0.6583 Y0.9068 I0.4807 J-0.1309
G1 X-0.4185 Y0.9082
G2 X-0.4055 Y0.9 I-0.0005 J-0.0154
X-0.4199 Y0.8429 I-0.0387 J-0.0206
X-0.6384 Y0.8873 I-0.0871 J0.1312
X-0.6459 Y0.9 I0.1314 J0.0868 F50.
G3 X-0.659 Y0.9082 I-0.0136 J-0.0072
G1 X-0.7469 F60.
G3 X-0.9082 Y0.8098 I0.0318 J-0.2336
G1 Y0.5963
G3 X-0.879 Y0.59 I0.0154 J0.0005
G1 X-0.7337 Y0.8857
X-0.7336 Y0.886 F50.
G3 X-0.7469 Y0.9082 I-0.0138 J0.0068
G1 X-0.8172 F60.
X-0.8407 Y0.9092
X-0.8641 Y0.9133
G3 X-0.9203 Y0.8934 I-0.0217 J-0.028
X-0.8546 Y0.8834 I0.0361 J0.0158
X-0.8512 Y0.8892 I-0.0139 J0.0121
X-0.8641 Y0.9133 I-0.0173 J0.0063 F50.
G2 X-0.911 Y0.9289 I0.0089 J0.1055 F60.
G1 X-0.9164 Y0.9316
X-0.9222 Y0.933
X-0.9236
X-0.9288 Y0.9318
X-0.9327 Y0.9282
X-0.9341 Y0.923
X-0.9328 Y0.9179
G3 X-0.9259 Y0.9094 I0.0336 J0.0205
X-0.9167 Y0.9062 I0.0083 J0.009
X-0.911 Y0.9289 I-0.0009 J0.0123 F50.
G1 X-0.9295 Y0.9395 F60.
X-0.9348 Y0.9422
X-0.9385 Y0.9417
X-0.9413 Y0.9393
X-0.9424 Y0.9357
X-0.9414 Y0.9322
G3 X-0.9388 Y0.9287 I0.0327 J0.0219 F50.
X-0.9278 Y0.9286 I0.0055 J0.0047
X-0.9295 Y0.9395 I-0.0055 J0.0047
G1 X-0.9345 Y0.9424 F60.
X-0.9403 Y0.9459
X-0.9455 Y0.9488
X-0.9478 Y0.948
X-0.9489 Y0.9458
X-0.9484 Y0.9435
G3 X-0.9457 Y0.9398 I0.0327 J0.0219 F50.
G1 X-0.9384 Y0.9425
X-0.9403 Y0.9459
X-0.9429 Y0.9476 F60.
X-0.9476 Y0.9511
X-0.9501 Y0.9527
X-0.9518 Y0.9522
X-0.9527 Y0.9506
X-0.9521 Y0.9488
X-0.9508 Y0.9475 F50.
X-0.9467 Y0.9492
X-0.9476 Y0.9511
X-0.9488 Y0.952 F60.
X-0.9516 Y0.9545
X-0.9527 Y0.9555
X-0.9545 Y0.9552
X-0.9554 Y0.9537
X-0.9549 Y0.952
X-0.9545 Y0.9517 F50.
X-0.951 Y0.9531
X-0.9516 Y0.9545
X-0.9543 Y0.957 F60.
X-0.9554 Y0.958
X-0.957 Y0.9577
X-0.9578 Y0.9564
X-0.9574 Y0.9549
X-0.9569 Y0.9544 F50.
X-0.9537 Y0.9557
X-0.9543 Y0.957
X-0.9568 Y0.9594 F60.
X-0.9579 Y0.9603
X-0.9596 Y0.96
X-0.9603 Y0.9585
X-0.9597 Y0.957
X-0.9583 Y0.9563
X-0.9337 Y0.9403
G2 X-0.9597 Y0.957 I0.0644 J0.1283 F50.
G1 X-0.9625 Y0.9595 F60.
X-0.9636 Y0.9605
X-0.9632 Y0.9624
X-0.9615 Y0.9632
X-0.9597 Y0.9625
X-0.9591 Y0.9606 Z-0.1297
X-0.9585 Y0.959 Z-0.1287
X-0.9588 Y0.9576 Z-0.1273
X-0.959 Y0.9568 Z-0.1256
Y0.9565 Z-0.1237
G0 Z0.4
X-0.9431 Y0.9364
Z-0.0359
G1 Z-0.13 F50.
G3 X-0.9597 Y0.9625 I-0.1287 J-0.0635
G1 X-0.9619 Y0.965 F60.
X-0.9629 Y0.9661
X-0.9651 Y0.9659
X-0.9663 Y0.9641
X-0.9654 Y0.962
X-0.9651 Y0.9618 F50.
X-0.9619 Y0.965
X-0.9649 Y0.9686 F60.
X-0.966 Y0.9697
X-0.9684 Y0.9693
X-0.9697 Y0.9672
X-0.9687 Y0.9649
Y0.9648 F50.
X-0.9649 Y0.9686
X-0.9677 Y0.9718 F60.
X-0.9687 Y0.9729
X-0.9716 Y0.9728
X-0.9731 Y0.9704
X-0.9721 Y0.9678
X-0.9719 Y0.9677 F50.
X-0.9677 Y0.9718
X-0.9711 Y0.9759 F60.
X-0.9722 Y0.977
X-0.9746 Y0.9771
X-0.9766 Y0.9756
X-0.977 Y0.9732
X-0.9758 Y0.9711
G3 X-0.9731 Y0.97 I0.0033 J0.0042 F50.
G1 X-0.97 Y0.9728
G3 X-0.9711 Y0.9759 I-0.0053 J-0.0002
G1 X-0.9743 Y0.9797 F60.
X-0.9764 Y0.9819
X-0.9792
X-0.9813 Y0.98
X-0.9818 Y0.9773
X-0.9804 Y0.9749
X-0.9796 Y0.9743 F50.
X-0.9743 Y0.9797
X-0.9788 Y0.985 F60.
X-0.9808 Y0.9872
X-0.984
X-0.9865 Y0.9851
X-0.987 Y0.9819
X-0.9854 Y0.9791
X-0.9849 Y0.9788 F50.
X-0.9788 Y0.985
X-0.9841 Y0.9914 F60.
X-0.9862 Y0.9935
X-0.9898 Y0.9934
X-0.9926 Y0.991
X-0.9932 Y0.9873
X-0.9913 Y0.9842
G3 X-0.9841 Y0.9914 I0.0032 J0.004 F50.
G1 X-0.9895 Y0.9976 F60.
X-0.9915 Y0.9998
X-0.9957 Y0.9999
X-0.9989 Y0.9972
X-0.9997 Y0.9931
X-0.9976 Y0.9895
G3 X-0.9895 Y0.9976 I0.0036 J0.0046 F50.
G1 X-0.9947 Y1.0038 F60.
X-0.9958 Y1.005
X-0.9963 Y1.0054
X-0.9975 Y1.006
X-0.998 Y1.0063
X-1.0003 Y1.0066
X-1.0024 Y1.0061
X-1.0031 Y1.0057
X-1.0043 Y1.0049
X-1.0049 Y1.0044
X-1.006 Y1.0027
X-1.0065 Y1.0005
Y1.
X-1.0063 Y0.9984
X-1.0062 Y0.9978
X-1.0053 Y0.9962
X-1.0049 Y0.9956
X-1.0034 Y0.9944
X-0.979 Y0.9754
X-0.9274 Y0.935
G2 X-0.9247 Y0.9279 I-0.0046 J-0.0059
G3 X-0.9218 Y0.8971 I0.0615 J-0.0098 F50.
G2 X-0.9082 Y0.8098 I-0.2628 J-0.0858 F60.
G3 X-0.8857 Y0.7967 I0.0154 J0.0006
G1 X-0.8831 Y0.7981 Z-0.1297
X-0.8805 Y0.7994 Z-0.1288
X-0.8781 Y0.8006 Z-0.1274
X-0.8761 Y0.8017 Z-0.1255
X-0.8744 Y0.8026 Z-0.1232
X-0.8731 Y0.8033 Z-0.1205
X-0.8723 Y0.8037 Z-0.1176
X-0.8721 Y0.8038 Z-0.1146
G0 Z-0.0993
X-0.165 Y-0.8916
G1 Z-0.1146 F50.
X-0.1652 Y-0.8917 Z-0.1176
X-0.166 Y-0.8922 Z-0.1205
X-0.1672 Y-0.8929 Z-0.1232
X-0.1688 Y-0.8939 Z-0.1255
X-0.1708 Y-0.8951 Z-0.1274
X-0.1731 Y-0.8964 Z-0.1288
X-0.1756 Y-0.8979 Z-0.1297
X-0.1782 Y-0.8994 Z-0.13
G2 X-0.2079 Y-0.9082 I-0.0318 J0.0536
G1 X-0.4185 F60.
G2 X-0.8893 Y-0.5066 I0.1851 J0.6939
X-0.9082 Y-0.4835 I0.0084 J0.026
G1 Y-0.1531
G2 X-0.9 Y-0.1401 I0.0154 J-0.0005
X-0.8698 Y-0.1429 I0.013 J-0.0244
X-0.8872 Y-0.463 I-0.1228 J-0.1538
G1 X-0.9 Y-0.4705 F50.
G3 X-0.9082 Y-0.4835 I0.0072 J-0.0136
G1 Y-0.5981 F60.
G3 X-0.6643 Y-0.907 I0.4729 J0.1227
G1 X-0.4185 Y-0.9082
G3 X-0.4055 Y-0.9 I-0.0005 J0.0154
X-0.4161 Y-0.8499 I-0.0351 J0.0187
X-0.6443 Y-0.8873 I-0.0968 J-0.1242
X-0.6519 Y-0.9 I0.1314 J-0.0868 F50.
G2 X-0.6649 Y-0.9082 I-0.0136 J0.0072
G1 X-0.7469 F60.
G2 X-0.9082 Y-0.8132 I0.0228 J0.2232
G1 Y-0.8089
Y-0.5981
G2 X-0.879 Y-0.5918 I0.0154 J-0.0005
G1 X-0.7337 Y-0.8857
X-0.7336 Y-0.886 F50.
G2 X-0.7469 Y-0.9082 I-0.0138 J-0.0068
G1 X-0.8172 F60.
X-0.8407 Y-0.9092
X-0.8641 Y-0.9133
G2 X-0.9207 Y-0.8944 I-0.0231 J0.0249
G3 X-0.9082 Y-0.8132 I-0.273 J0.0835
G2 X-0.8781 Y-0.8094 I0.0154 J-0.0006
G1 X-0.8542 Y-0.8886
X-0.8526 Y-0.8938 F50.
G2 X-0.8641 Y-0.9133 I-0.0147 J-0.0044
G3 X-0.911 Y-0.9289 I0.0088 J-0.1052 F60.
G1 X-0.9164 Y-0.9316
X-0.9222 Y-0.9331
X-0.9234 Y-0.9332
X-0.9287 Y-0.932
X-0.9327 Y-0.9284
X-0.9342 Y-0.9232
X-0.9329 Y-0.918
X-0.9241 Y-0.9026
X-0.9207 Y-0.8944
G2 X-0.9081 Y-0.8856 I0.0139 J-0.0065
X-0.9025 Y-0.9074 I0.001 J-0.0114
G1 X-0.9048 Y-0.9083
G2 X-0.9194 Y-0.9107 I-0.0135 J0.037 F50.
G3 X-0.9329 Y-0.918 I-0.0004 J-0.0154
G1 X-0.9375 Y-0.926 F60.
X-0.9398 Y-0.9295
X-0.9427 Y-0.9347
X-0.9421 Y-0.9384
X-0.9396 Y-0.9411
X-0.9361 Y-0.9422
X-0.9326 Y-0.9413
G3 X-0.9296 Y-0.9392 I-0.0209 J0.0334 F50.
X-0.9382 Y-0.9279 I-0.0043 J0.0057
X-0.9398 Y-0.9295 I0.0043 J-0.0057
G1 X-0.9461 Y-0.9394 F60.
X-0.949 Y-0.9446
X-0.9482 Y-0.9472
X-0.9459 Y-0.9485
X-0.9432 Y-0.948
G3 X-0.9396 Y-0.9452 I-0.0223 J0.0325 F50.
G1 X-0.9425 Y-0.9376
X-0.9461 Y-0.9394
X-0.9517 Y-0.9482 F60.
X-0.9524 Y-0.9495
X-0.9519 Y-0.9513
X-0.9503 Y-0.9523
X-0.9484 Y-0.9517
X-0.9481 Y-0.9514 F50.
X-0.9497 Y-0.9472
X-0.9517 Y-0.9482
X-0.9524 Y-0.9494 F60.
X-0.9541 Y-0.9513
X-0.9551 Y-0.9524
X-0.9547 Y-0.9541
X-0.9533 Y-0.955
X-0.9516 Y-0.9544
X-0.9512 Y-0.954 F50.
X-0.9541 Y-0.9513
X-0.9571 Y-0.9546 F60.
X-0.9581 Y-0.9558
X-0.9576 Y-0.9572
X-0.9562 Y-0.9579
X-0.9548 Y-0.9574
X-0.9545 Y-0.9571 F50.
X-0.9571 Y-0.9546
X-0.9579 Y-0.9555 F60.
X-0.9598 Y-0.9571
X-0.9609 Y-0.9582
X-0.9606 Y-0.9598
X-0.9591 Y-0.9606
X-0.9576 Y-0.9601
X-0.9574 Y-0.9598 F50.
X-0.9598 Y-0.9571
X-0.9631 Y-0.96 F60.
X-0.9642 Y-0.961
X-0.9637 Y-0.9629
X-0.9619 Y-0.9638
X-0.9601 Y-0.963
Y-0.9629 F50.
X-0.9631 Y-0.96
X-0.9657 Y-0.9622 F60.
X-0.9668 Y-0.9633
X-0.9666 Y-0.9655
X-0.9646 Y-0.9667
X-0.9626 Y-0.9658
X-0.9623 Y-0.9655 F50.
X-0.9657 Y-0.9622
X-0.9687 Y-0.9648 F60.
X-0.9697 Y-0.9658
X-0.9696 Y-0.9684
X-0.9675 Y-0.9698
X-0.9651 Y-0.9688
X-0.9649 Y-0.9685 F50.
X-0.9687 Y-0.9648
X-0.9721 Y-0.9678 F60.
X-0.9732 Y-0.9688
X-0.973 Y-0.9717
X-0.9706 Y-0.9732
X-0.968 Y-0.9721
X-0.9678 Y-0.972 F50.
X-0.9721 Y-0.9678
X-0.9756 Y-0.9708 F60.
X-0.9777 Y-0.9728
X-0.9776 Y-0.9753
X-0.976 Y-0.9772
X-0.9736 Y-0.9775
X-0.9715 Y-0.9763
X-0.9707 Y-0.9754 F50.
X-0.9756 Y-0.9708
X-0.9779 Y-0.9728 F60.
X-0.9807 Y-0.9751
X-0.9818 Y-0.9762
X-0.982 Y-0.979
X-0.9803 Y-0.9813
X-0.9775 Y-0.9819
X-0.975 Y-0.9805
G3 X-0.9739 Y-0.9771 I-0.0042 J0.0033 F50.
G1 X-0.9763 Y-0.9741
G3 X-0.9807 Y-0.9751 I-0.0011 J-0.0052
G1 X-0.9851 Y-0.9789 F60.
X-0.9873 Y-0.9809
Y-0.9841
X-0.9852 Y-0.9866
X-0.982 Y-0.9872
X-0.9792 Y-0.9855
X-0.9788 Y-0.985 F50.
X-0.9782 Y-0.9838
X-0.9779 Y-0.9824
X-0.9851 Y-0.9789
X-0.9904 Y-0.9834 F60.
X-0.9926 Y-0.9854
X-0.9929 Y-0.9891
X-0.9906 Y-0.992
X-0.987 Y-0.9928
X-0.9838 Y-0.991
X-0.9833 Y-0.9904 F50.
G3 X-0.9904 Y-0.9834 I-0.004 J0.003
G1 X-0.9964 Y-0.9884 F60.
X-0.9985 Y-0.9904
X-0.9991 Y-0.9937
X-0.9977 Y-0.9968
X-0.9949 Y-0.9986
X-0.9916
X-0.9888 Y-0.9968
X-0.9883 Y-0.9963 F50.
G3 X-0.9964 Y-0.9884 I-0.0045 J0.0034
G1 X-1.0026 Y-0.9937 F60.
X-1.0039 Y-0.9948
X-1.0049 Y-0.9956
X-1.0056 Y-0.9967
X-1.0058 Y-0.997
X-0.9992 Y-1.0029 F50.
X-1.0019 Y-0.9945
G3 X-1.0049 Y-0.9956 I0.0002 J-0.0052
G1 X-1.0053 Y-0.9962 F60.
X-1.0059 Y-0.9973
X-1.0062 Y-0.9978
X-1.0063 Y-0.9983
X-1.0066 Y-1.0003
X-1.0061 Y-1.0023
X-1.0059 Y-1.0028
X-1.0049 Y-1.0044
X-1.0043 Y-1.0049
X-1.0028 Y-1.0059
X-1.0023 Y-1.0061
X-1.0007 Y-1.0065
X-1.0002 Y-1.0066
X-0.9981 Y-1.0063
X-0.9976 Y-1.0061
X-0.996 Y-1.0052
X-0.9954 Y-1.0046
X-0.9942 Y-1.0032
X-0.9936 Y-1.0018 Z-0.1298
X-0.9931 Y-1.0005 Z-0.1292
X-0.9926 Y-0.9994 Z-0.1282
X-0.9922 Y-0.9985 Z-0.127
X-0.992 Y-0.998 Z-0.1255
Y-0.9978 Z-0.1241
G0 Z0.4
X0.1016 Y-0.8916
Z-0.0993
G1 Z-0.1146 F50.
X0.1018 Y-0.8917 Z-0.1176
X0.1026 Y-0.8922 Z-0.1205
X0.1038 Y-0.8929 Z-0.1232
X0.1054 Y-0.8939 Z-0.1255
X0.1074 Y-0.8951 Z-0.1274
X0.1097 Y-0.8964 Z-0.1288
X0.1122 Y-0.8979 Z-0.1297
X0.1148 Y-0.8994 Z-0.13
G3 X0.1444 Y-0.9082 I0.0318 J0.0536
G1 X0.4259 F60.
G3 X0.9051 Y-0.4976 I-0.2278 J0.7508
G1 X0.9082 Y-0.4973
Y-0.2627
G3 X0.9 Y-0.2497 I-0.0154 J-0.0005
X0.8367 Y-0.2683 I-0.0222 J-0.0416
X0.8873 Y-0.4766 I0.1374 J-0.077
X0.9 Y-0.4842 I0.0868 J0.1314 F50.
G2 X0.9082 Y-0.4973 I-0.0072 J-0.0136
G1 Y-0.5981 F60.
G2 X0.6651 Y-0.9067 I-0.4567 J0.1097
G1 X0.4259 Y-0.9082
G2 X0.4129 Y-0.9 I0.0005 J0.0154
X0.4277 Y-0.8423 I0.039 J0.0208
X0.6452 Y-0.8873 I0.0861 J-0.1318
X0.6528 Y-0.9 I-0.1314 J-0.0868 F50.
G3 X0.6658 Y-0.9082 I0.0136 J0.0072
G1 X0.7543 F60.
G3 X0.9082 Y-0.8161 I-0.0287 J0.2226
G1 Y-0.8089
Y-0.5981
G3 X0.8789 Y-0.5921 I-0.0154 J-0.0005
G1 X0.7411 Y-0.8857
X0.7409 Y-0.8863 F50.
G3 X0.7543 Y-0.9082 I0.0139 J-0.0065
G2 X0.861 Y-0.9128 I0.039 J-0.3342 F60.
G3 X0.921 Y-0.895 I0.0249 J0.0262
X0.9083 Y-0.886 I-0.014 J-0.0063
G1 X0.8938 Y-0.8848
X0.8655 Y-0.8824
G3 X0.852 Y-0.8884 I-0.0013 J-0.0153
X0.861 Y-0.9128 I0.0122 J-0.0093 F50.
G2 X0.9129 Y-0.9299 I-0.0081 J-0.1116 F60.
G1 X0.9182 Y-0.9327
X0.9241 Y-0.9339
X0.9243
X0.9295 Y-0.9325
X0.9332 Y-0.9288
X0.9346 Y-0.9237
X0.9333 Y-0.9186
G3 X0.9276 Y-0.9114 I-0.0335 J-0.0207
X0.9194 Y-0.9079 I-0.0084 J-0.0084
X0.9129 Y-0.9299 I-0.0002 J-0.0119 F50.
G1 X0.9185 Y-0.9331 F60.
X0.9302 Y-0.94
X0.9355 Y-0.9428
X0.9389 Y-0.9423
X0.9416 Y-0.9401
X0.9426 Y-0.9368
X0.9418 Y-0.9334
G3 X0.9393 Y-0.9299 I-0.0334 J-0.0209 F50.
X0.9285 Y-0.9385 I-0.0054 J-0.0043
X0.9302 Y-0.94 I0.0054 J0.0043
G1 X0.9409 Y-0.9463 F60.
X0.9436 Y-0.9477
X0.9464 Y-0.947
X0.9479 Y-0.9446
X0.9473 Y-0.9418
X0.9463 Y-0.9404 F50.
X0.9391 Y-0.9429
X0.9409 Y-0.9463
X0.9419 Y-0.9469 F60.
X0.9455 Y-0.9494
X0.9465 Y-0.9503
X0.9477 Y-0.9512
X0.9499 Y-0.951
X0.9512 Y-0.9492
X0.9508 Y-0.947
X0.9505 Y-0.9466 F50.
X0.9456 Y-0.9483
X0.9465 Y-0.9503
X0.9502 Y-0.9534 F60.
X0.9513 Y-0.9544
X0.9532 Y-0.954
X0.9541 Y-0.9525
X0.9536 Y-0.9507
X0.9532 Y-0.9503 F50.
X0.9495 Y-0.9518
X0.9502 Y-0.9534
X0.9528 Y-0.9557 F60.
X0.954 Y-0.9566
X0.9556 Y-0.9564
X0.9565 Y-0.9551
X0.956 Y-0.9535
X0.9555 Y-0.9529 F50.
X0.9522 Y-0.9543
X0.9528 Y-0.9557
X0.9553 Y-0.9579 F60.
X0.9565 Y-0.9588
X0.958 Y-0.9585
X0.9588 Y-0.9571
X0.9583 Y-0.9556
G3 X0.9553 Y-0.9544 I-0.0035 J-0.004 F50.
G1 X0.9541 Y-0.9553
X0.9534 Y-0.956
X0.9526 Y-0.9554
X0.9531 Y-0.9546
X0.9549 Y-0.9543
X0.9567 Y-0.9547
X0.9583 Y-0.9556
X0.9604 Y-0.9577 F60.
X0.9615 Y-0.9587
X0.9612 Y-0.9605
X0.9596 Y-0.9613
X0.958 Y-0.9606
X0.9591 Y-0.9586 Z-0.1287
X0.9598 Z-0.1266
G0 Z0.4
X0.9342 Y-0.921
Z-0.0993
G1 Z-0.1146 F50.
X0.9343 Y-0.9213 Z-0.1176
X0.9347 Y-0.9221 Z-0.1205
X0.9353 Y-0.9233 Z-0.1232
X0.9362 Y-0.925 Z-0.1255
X0.9373 Y-0.9271 Z-0.1274
X0.9385 Y-0.9295 Z-0.1288
X0.9398 Y-0.9321 Z-0.1297
X0.9411 Y-0.9347 Z-0.13
G3 X0.958 Y-0.9606 I0.128 J0.065
G1 X0.9602 Y-0.9632 F60.
X0.9613 Y-0.9643
X0.9632 Y-0.964
X0.9642 Y-0.9623
X0.9635 Y-0.9605
X0.9632 Y-0.9603 F50.
X0.9602 Y-0.9632
X0.9624 Y-0.9656 F60.
X0.9634 Y-0.9667
X0.9656 Y-0.9666
X0.9668 Y-0.9648
X0.966 Y-0.9628
X0.9655 Y-0.9624 F50.
X0.9624 Y-0.9656
X0.9654 Y-0.969 F60.
X0.9664 Y-0.9701
X0.9688 Y-0.9698
X0.9701 Y-0.9677
X0.9691 Y-0.9654
X0.969 F50.
X0.9654 Y-0.969
X0.9685 Y-0.9728 F60.
X0.9696 Y-0.9739
X0.9724 Y-0.9736
X0.9739 Y-0.9711
X0.9727 Y-0.9685
G3 X0.9705 Y-0.9674 I-0.0033 J-0.0042 F50.
G1 X0.9675 Y-0.9703
G3 X0.9685 Y-0.9728 I0.0052 J0.0007
G1 X0.9713 Y-0.9761 F60.
X0.9733 Y-0.9783
X0.9758 Y-0.9782
X0.9777 Y-0.9766
X0.9782 Y-0.9741
X0.9769 Y-0.972
X0.9759 Y-0.9712 F50.
X0.9713 Y-0.9761
X0.9753 Y-0.9808 F60.
X0.9773 Y-0.983
X0.9802
X0.9824 Y-0.9811
X0.9829 Y-0.9783
X0.9815 Y-0.9758
X0.9807 Y-0.9752 F50.
X0.9753 Y-0.9808
X0.9797 Y-0.9862 F60.
X0.9818 Y-0.9884
X0.9851
X0.9877 Y-0.9862
X0.9882 Y-0.983
X0.9866 Y-0.9801
X0.9861 Y-0.9797 F50.
X0.9797 Y-0.9862
X0.9845 Y-0.9918 F60.
X0.9866 Y-0.994
X0.9903 Y-0.9941
X0.9933 Y-0.9918
X0.994 Y-0.9881
X0.9922 Y-0.9848
X0.9917 Y-0.9845 F50.
G3 X0.9845 Y-0.9918 I-0.0032 J-0.0041
G1 X0.99 Y-0.9982 F60.
X0.992 Y-1.0004
X0.9954 Y-1.0008
X0.9985 Y-0.9993
X1.0003 Y-0.9964
X1.0002 Y-0.993
X0.9984 Y-0.9901
X0.9982 Y-0.99 F50.
G3 X0.99 Y-0.9982 I-0.0036 J-0.0046
G1 X0.9954 Y-1.0046 F60.
X0.996 Y-1.0052
X0.9977 Y-1.0061
X0.9982 Y-1.0063
X1. Y-1.0065
X1.0006
X1.0027 Y-1.006
X1.0045 Y-1.0048
X1.005 Y-1.0042
X1.0058 Y-1.003
X1.0061 Y-1.0023
X1.0066 Y-1.0004
X1.0063 Y-0.998
X1.0053 Y-0.9962
X1.0049 Y-0.9957
X1.0043 Y-0.9952
X1.0026 Y-0.9944 Z-0.1297
X1.0011 Y-0.9938 Z-0.1289
X0.9999 Y-0.9933 Z-0.1276
X0.9991 Y-0.9929 Z-0.126
X0.9988 Z-0.1249
X0.9987 Z-0.1239
G0 Z0.4
X0.8162 Y-0.8137
Z-0.0993
G1 Z-0.1146 F50.
X0.8163 Y-0.814 Z-0.1176
X0.8166 Y-0.8148 Z-0.1205
X0.8171 Y-0.8161 Z-0.1232
X0.8178 Y-0.8179 Z-0.1255
X0.8186 Y-0.8201 Z-0.1274
X0.8195 Y-0.8226 Z-0.1288
X0.8205 Y-0.8253 Z-0.1297
X0.8215 Y-0.8281 Z-0.13
G3 X0.9228 Y-0.8992 I0.1019 J0.0376
G2 X0.9082 Y-0.8161 I0.2594 J0.0882 F60.
G3 X0.9004 Y-0.8034 I-0.0154 J-0.0006
G1 X0.8982 Y-0.8027 Z-0.1298
X0.896 Y-0.802 Z-0.1293
X0.8939 Y-0.8014 Z-0.1284
X0.8928 Z-0.1278
X0.8906 Y-0.8019 Z-0.126
X0.8886 Y-0.8023 Z-0.1238
X0.8872 Y-0.8027 Z-0.1213
X0.8862 Y-0.8029 Z-0.1186
X0.8858 Y-0.8031 Z-0.1166
X0.8857 Z-0.1146
G0 Z0.4
X0.5178 Y4.1838
Z-0.0993
G1 Z-0.1146 F50.
X0.5176 Y4.1836 Z-0.1176
X0.517 Y4.1829 Z-0.1205
X0.5161 Y4.1818 Z-0.1232
X0.5149 Y4.1804 Z-0.1255
X0.5134 Y4.1786 Z-0.1274
X0.5117 Y4.1766 Z-0.1288
X0.5098 Y4.1744 Z-0.1297
X0.5079 Y4.1721 Z-0.13
G3 X0.4604 Y4.1021 I0.2991 J-0.2539
X0.6102 Y4.0195 I0.0866 J-0.0202 F60.
G1 X0.6194 Y4.0245
X0.6284 Y4.0301
X0.637 Y4.0362
X0.6453 Y4.0428
X0.6532 Y4.0498
X0.6607 Y4.0573
X0.6677 Y4.0651
X0.6742 Y4.0734
X0.6803 Y4.0821
X0.6859 Y4.091
X0.6909 Y4.1003
X0.6954 Y4.1099
X0.6994 Y4.1197
X0.7027 Y4.1297
X0.7055 Y4.1399
X0.7077 Y4.1502
X0.7094 Y4.1606
X0.7104 Y4.1711
X0.7108 Y4.1817
X0.7106 Y4.1922
X0.7098 Y4.2028
X0.7083 Y4.2132
X0.7063 Y4.2236
X0.7037 Y4.2338
X0.7005 Y4.2439
X0.6968 Y4.2538
X0.6924 Y4.2634
X0.6876 Y4.2728
X0.6822 Y4.2818
X0.6763 Y4.2906
X0.6699 Y4.299
X0.663 Y4.307
X0.6557 Y4.3146
X0.6479 Y4.3218
X0.6398 Y4.3285
X0.6313 Y4.3347
X0.6224 Y4.3405
X0.6132 Y4.3457
X0.6038 Y4.3504
X0.594 Y4.3545
X0.5841 Y4.3581
X0.574 Y4.3611
X0.5637 Y4.3635
X0.5533 Y4.3653
X0.5428 Y4.3665
X0.5323 Y4.3671
X0.5217
X0.5112 Y4.3665
X0.5007 Y4.3653
X0.4903 Y4.3635
X0.48 Y4.361
X0.4699 Y4.3581
X0.4599 Y4.3545
G3 X0.3458 Y4.085 I0.0464 J-0.1786
G1 X0.3488 Y4.0735
X0.3524 Y4.0621
X0.3565 Y4.0509
X0.3613 Y4.0399
X0.3666 Y4.0293
X0.3725 Y4.0189
X0.3789 Y4.0088
X0.3858 Y3.999
X0.3932 Y3.9897
X0.4011 Y3.9807
X0.4094 Y3.9722
X0.4182 Y3.9641
X0.4274 Y3.9565
X0.4369 Y3.9493
X0.4469 Y3.9427
X0.4571 Y3.9366
X0.4677 Y3.931
X0.4785 Y3.926
X0.4896 Y3.9216
X0.5009 Y3.9178
X0.5124 Y3.9145
X0.524 Y3.9119
X0.5358 Y3.9098
X0.5477 Y3.9084
X0.5596 Y3.9076
X0.5715 Y3.9074
X0.5834 Y3.9078
X0.5953 Y3.9089
X0.6071 Y3.9106
X0.6188 Y3.9129
X0.6304 Y3.9158
X0.6418 Y3.9192
X0.6531 Y3.9233
X0.664 Y3.928
X0.6748 Y3.9332
X0.6852 Y3.939
X0.6953 Y3.9453
X0.7051 Y3.9522
X0.7145 Y3.9595
X0.7236 Y3.9673
X0.7322 Y3.9756
X0.7403 Y3.9843
X0.748 Y3.9934
X0.7552 Y4.0029
X0.7619 Y4.0128
X0.7681 Y4.023
X0.7737 Y4.0335
X0.7788 Y4.0443
X0.7833 Y4.0554
X0.7873 Y4.0666
X0.7906 Y4.0781
X0.7934 Y4.0897
X0.7955 Y4.1015
X0.797 Y4.1133
X0.7979 Y4.1252
X0.7982 Y4.1371
X0.7978 Y4.1491
X0.7969 Y4.1609
G3 X0.7873 Y4.2677 I-0.0998 J0.0449
G1 X0.6499 Y4.4032
X0.6399 Y4.4107
X0.6296 Y4.4176
X0.6189 Y4.4241
X0.6079 Y4.43
X0.5967 Y4.4354
X0.5852 Y4.4403
X0.5735 Y4.4446
X0.5616 Y4.4483
X0.5495 Y4.4514
X0.5373 Y4.4539
X0.525 Y4.4558
X0.5126 Y4.4572
X0.5002 Y4.4579
X0.4877 Y4.458
X0.4752 Y4.4575
X0.4628 Y4.4564
X0.4505 Y4.4548
X0.4382 Y4.4525
X0.4261 Y4.4496
X0.4141 Y4.4461
X0.4023 Y4.4421
X0.3907 Y4.4374
X0.3794 Y4.4323
X0.3683 Y4.4266
X0.3575 Y4.4203
X0.347 Y4.4135
X0.3369 Y4.4063
X0.3272 Y4.3985
X0.3178 Y4.3903
X0.3088 Y4.3816
X0.3003 Y4.3725
X0.2922 Y4.3631
X0.2846 Y4.3532
X0.2775 Y4.3429
X0.2709 Y4.3324
X0.2648 Y4.3215
X0.2592 Y4.3103
X0.2542 Y4.2989
X0.2498 Y4.2873
X0.2459 Y4.2754
X0.2426 Y4.2634
X0.2399 Y4.2512
X0.2378 Y4.239
X0.2363 Y4.2266
X0.2353 Y4.2142
X0.2792 Y4.0155
G3 X0.3086 Y3.9921 I0.0282 J0.0052
G2 X0.5527 Y3.8572 I-0.287 J-0.8078
G1 X0.5648 Y3.8538
X0.577 Y3.8509
X0.5894 Y3.8486
X0.6019 Y3.847
X0.6145 Y3.8459
X0.6271 Y3.8455
X0.6396 Y3.8457
X0.6522 Y3.8465
X0.6647 Y3.848
X0.6771 Y3.85
X0.6895 Y3.8526
X0.7016 Y3.8559
X0.7136 Y3.8597
X0.7254 Y3.8641
X0.737 Y3.8691
X0.7483 Y3.8747
X0.7593 Y3.8808
X0.77 Y3.8874
X0.7804 Y3.8946
X0.7904 Y3.9022
X0.8 Y3.9104
X0.8092 Y3.919
X0.8179 Y3.928
X0.8263 Y3.9375
X0.8341 Y3.9473
X0.8415 Y3.9575
X0.8483 Y3.9681
X0.8546 Y3.979
X0.8604 Y3.9902
X0.8656 Y4.0017
X0.8703 Y4.0134
X0.8743 Y4.0253
X0.8778 Y4.0374
X0.8807 Y4.0496
X0.883 Y4.062
X0.8846 Y4.0745
X0.8857 Y4.087
X0.8861 Y4.0996
G3 X0.8984 Y4.1583 I-0.0236 J0.0355
G1 X0.7873 Y4.2677
G3 X0.7723 Y4.2711 I-0.0104 J-0.0113
X0.7503 Y4.2082 I0.0124 J-0.0396
X0.869 Y4.1581 I0.0978 J0.0662
X0.8834 Y4.1616 I-0.0208 J0.1163 F50.
G2 X0.8984 Y4.1583 I0.0046 J-0.0147
G1 X0.934 Y4.1231 F60.
G2 X0.7693 Y3.7878 I-0.2331 J-0.0936
X0.6715 Y3.7479 I-0.0877 J0.075
G1 X0.6689 Y3.7501
G3 X0.5526 Y3.8572 I-0.6031 J-0.5382
G2 X0.5603 Y3.8845 I0.0095 J0.0121
X0.6333 Y3.8588 I0.0104 J-0.0867
X0.6667 Y3.7803 I-0.0846 J-0.0824
X0.6658 Y3.7615 I-0.118 J-0.0039 F50.
G3 X0.6689 Y3.7501 I0.0152 J-0.0019
G1 X0.6887 Y3.7263 F60.
G3 X0.9617 Y3.8252 I0.0925 J0.1709
X1.0508 Y4.0098 I-0.1636 J0.1927
G1 X0.934 Y4.1231
G3 X0.919 Y4.1264 I-0.0104 J-0.0113
X0.8959 Y4.0678 I0.0121 J-0.0387
X1.0195 Y4.0097 I0.1028 J0.0581
X1.0339 Y4.0132 I-0.0208 J0.1163 F50.
G2 X1.0489 Y4.0098 I0.0046 J-0.0147
G1 X1.0756 Y3.9835 F60.
G2 X0.9632 Y3.6912 I-0.1968 J-0.0921
G1 X0.9553 Y3.6822
X0.947 Y3.6735
X0.9383 Y3.6653
X0.9291 Y3.6576
X0.9195 Y3.6504
X0.9096 Y3.6436
X0.8994 Y3.6374
X0.8888 Y3.6317
X0.878 Y3.6265
X0.8669 Y3.622
X0.8556 Y3.618
X0.8441 Y3.6146
X0.8324 Y3.6118
X0.8206 Y3.6096
X0.8087 Y3.608
X0.7968 Y3.6071
X0.7848 Y3.6067
X0.7728 Y3.607
X0.7308 Y3.675
X0.7209 Y3.6876
X0.6887 Y3.7263
G2 X0.6866 Y3.7415 I0.0122 J0.0094
X0.7662 Y3.7506 I0.0422 J-0.0172
X0.7791 Y3.6382 I-0.0965 J-0.0681
X0.7727 Y3.6248 I-0.1095 J0.0443 F50.
G3 X0.7729 Y3.6095 I0.0134 J-0.0075
G1 X0.7829 Y3.5939 F60.
X0.7864 Y3.5875
X0.7946 Y3.5813
X0.8032 Y3.5755
X0.8121 Y3.5703
X0.8213 Y3.5656
X0.8307 Y3.5614
X0.8404 Y3.5579
X0.8503 Y3.5548
X0.8603 Y3.5524
X0.8705 Y3.5506
X0.8807 Y3.5493
X0.891 Y3.5487
X0.9013 Y3.5486
X0.9116 Y3.5492
X0.9219 Y3.5503
X0.932 Y3.5521
X0.9421 Y3.5544
X0.952 Y3.5574
X0.9617 Y3.5609
X0.9712 Y3.5649
X0.9804 Y3.5696
X0.9894 Y3.5747
X0.998 Y3.5804
X1.0063 Y3.5865
X1.0142 Y3.5932
X1.0217 Y3.6002
X1.0288 Y3.6077
X1.0354 Y3.6157
X1.0415 Y3.6239
X1.0472 Y3.6326
X1.0523 Y3.6415
G3 X1.1918 Y3.871 I-0.173 J0.2623
G1 X1.0756 Y3.9835
G3 X1.0606 Y3.9869 I-0.0104 J-0.0113
X1.0376 Y3.9272 I0.0122 J-0.0389
X1.1601 Y3.8711 I0.1016 J0.0602
X1.1745 Y3.8746 I-0.0208 J0.1163 F50.
G2 X1.1895 Y3.8712 I0.0046 J-0.0147
G1 X1.2171 Y3.844 F60.
G2 X1.102 Y3.5565 I-0.2037 J-0.0852
X1.0179 Y3.4903 I-0.1167 J0.0617
X0.8426 Y3.4804 I-0.1181 J0.5358
X0.7864 Y3.5875 I0.1992 J0.173
X0.7873 Y3.6028 I0.0137 J0.0069
X0.799 Y3.6093 I0.012 J-0.0079
X0.9962 Y3.5099 I0.0046 J-0.2362
G1 X1.0044 Y3.4975 F50.
G3 X1.0179 Y3.4903 I0.0131 J0.0081
G1 X1.1296 Y3.4975 F60.
G3 X1.3277 Y3.735 I-0.0699 J0.2597
G1 X1.2171 Y3.844
G3 X1.2021 Y3.8474 I-0.0104 J-0.0113
X1.1803 Y3.784 I0.0124 J-0.0397
X1.2983 Y3.7348 I0.0972 J0.0671
X1.3127 Y3.7384 I-0.0208 J0.1163 F50.
G2 X1.3277 Y3.735 I0.0046 J-0.0147
G1 X1.352 Y3.711 F60.
G2 X1.3215 Y3.51 I-0.1288 J-0.0833
G1 X1.1296 Y3.4975
G2 X1.116 Y3.5048 I-0.0005 J0.0154
X1.1182 Y3.5323 I0.0198 J0.0123
X1.2994 Y3.5294 I0.0894 J-0.0772
X1.308 Y3.5173 I-0.0918 J-0.0743 F50.
G3 X1.3215 Y3.51 I0.0131 J0.0081
G1 X1.3641 Y3.5128 F60.
G3 X1.4565 Y3.61 I-0.0151 J0.1069
G1 X1.4543 Y3.6119
X1.4518 Y3.6134
X1.4491 Y3.6144
X1.4463 Y3.6149
X1.4434 Y3.615
X1.4407 Y3.6145
X1.4381 Y3.6135
X1.4357 Y3.6122
X1.4336 Y3.6105
X1.4274 Y3.6049
X1.3535 Y3.5397
X1.3512 Y3.5372
X1.3495 Y3.5343
G3 X1.3641 Y3.5128 I0.0141 J-0.0061 F50.
G1 X1.4474 Y3.5182 F60.
G3 X1.5051 Y3.5601 I0.013 J0.0428
X1.4901 Y3.5634 I-0.0104 J-0.0113
G1 X1.476 Y3.5589
X1.4423 Y3.5482
G3 X1.4328 Y3.5397 I0.0047 J-0.0146
X1.4474 Y3.5182 I0.0141 J-0.0061 F50.
G1 X1.5143 Y3.5226 F60.
X1.5235 Y3.5249
X1.5253 Y3.5254
X1.5259 Y3.5258
X1.5271 Y3.5267
X1.5275 Y3.527
X1.5287 Y3.529
X1.5291 Y3.5313
G3 X1.5219 Y3.5435 I-0.0209 J-0.0041
G1 X1.352 Y3.711
G0 Z0.4
X0.6688 Y4.3613
Z-0.0993
G1 Z-0.1146 F50.
X0.6687 Y4.3616 Z-0.1176
X0.6685 Y4.3624 Z-0.1205
X0.6681 Y4.3638 Z-0.1232
X0.6677 Y4.3657 Z-0.1255
X0.6671 Y4.3679 Z-0.1274
X0.6664 Y4.3705 Z-0.1288
X0.6657 Y4.3733 Z-0.1297
X0.6649 Y4.3762 Z-0.13
G3 X0.6499 Y4.4032 I-0.0603 J-0.0158
G1 X0.5443 Y4.5073 F60.
G3 X0.3633 Y4.5217 I-0.102 J-0.1371
X0.3754 Y4.4998 I0.0139 J-0.0066
G1 X0.3771 Y4.4996
X0.5314 Y4.4815
X0.5347 Y4.4814
X0.5379 Y4.4821
G3 X0.5443 Y4.5073 I-0.0048 J0.0146 F50.
X0.4494 Y4.5915 I-0.2833 J-0.2237 F60.
X0.4056 Y4.6019 I-0.0271 J-0.0168
X0.41 Y4.5811 I0.013 J-0.0081
G1 X0.4161 Y4.5769
X0.4319 Y4.5663
G3 X0.448 Y4.5656 I0.0086 J0.0127
X0.4494 Y4.5915 I-0.0076 J0.0134 F50.
X0.4024 Y4.5971 I-0.024 J-0.0021 F60.
G2 X0.2101 Y4.3209 I-0.9011 J0.4226
G1 X0.2147 Y4.2965
X0.2336 Y4.2142
G3 X0.2439 Y4.2035 I0.0149 J0.004
G1 X0.2462 Y4.2032 Z-0.1298
X0.2485 Y4.2028 Z-0.1293
X0.2509 Y4.2034 Z-0.1282
X0.2532 Y4.2039 Z-0.1267
X0.2551 Y4.2044 Z-0.1248
X0.2565 Y4.2053 Z-0.1226
X0.2575 Y4.2059 Z-0.1201
X0.2582 Y4.2063 Z-0.1174
X0.2584 Y4.2065 Z-0.1146
G0 Z0.4
X0.8825 Y2.2187
Z-0.0993
G1 Z-0.1146 F50.
X0.8824 Y2.2189 Z-0.1176
X0.8819 Y2.2197 Z-0.1205
X0.8813 Y2.2209 Z-0.1232
X0.8804 Y2.2226 Z-0.1255
X0.8792 Y2.2247 Z-0.1274
X0.878 Y2.227 Z-0.1288
X0.8766 Y2.2295 Z-0.1297
X0.8752 Y2.2322 Z-0.13
G3 X0.8271 Y2.3017 I-0.3449 J-0.1872
X0.6522 Y2.222 I-0.0717 J-0.0743 F60.
X0.9894 Y2.0667 I0.1966 J-0.0169
G1 X1.0052 Y2.077
X1.0207 Y2.0878
X1.0357 Y2.0991
X1.0504 Y2.1109
X1.0647 Y2.1232
X1.0786 Y2.1359
X1.0921 Y2.1491
X1.1051 Y2.1627
X1.1177 Y2.1767
X1.1298 Y2.1911
X1.1414 Y2.206
X1.1525 Y2.2212
X1.1631 Y2.2367
X1.1732 Y2.2526
X1.1828 Y2.2688
X1.1919 Y2.2853
X1.2004 Y2.3022
X1.2083 Y2.3192
X1.2157 Y2.3366
X1.2225 Y2.3541
X1.2287 Y2.3719
G3 X1.4259 Y2.5439 I-7.7261 J9.0591
X1.2058 Y2.8659 I-0.1253 J0.1506
G1 X1.1866 Y2.8561
X1.1677 Y2.8457
X1.1491 Y2.8348
X1.1308 Y2.8234
X1.1128 Y2.8115
X1.0951 Y2.7991
X1.0778 Y2.7862
X1.0609 Y2.7728
X1.0443 Y2.759
X1.0282 Y2.7447
X1.0124 Y2.7299
X0.9971 Y2.7148
X0.9822 Y2.6992
X0.9677 Y2.6832
X0.9537 Y2.6668
X0.9401 Y2.65
X0.927 Y2.6328
X0.9144 Y2.6153
X0.9023 Y2.5975
X0.8907 Y2.5793
X0.8796 Y2.5608
X0.869 Y2.542
X0.8589 Y2.5229
X0.8494 Y2.5035
X0.8404 Y2.4839
X0.832 Y2.464
G3 X0.557 Y2.2071 I0.0066 J-0.2827
X1.0732 Y2.0089 I0.2973 J0.003
X1.2763 Y2.2404 I-0.4109 J0.5655
G2 X1.4378 Y2.4238 I0.4894 J-0.2679
G1 X1.5617 Y2.6572
G3 X1.4233 Y2.9568 I-0.2262 J0.0772
G1 X1.1999 Y2.9422
G3 X0.782 Y2.5691 I0.1505 J-0.5891
X0.6108 Y2.4808 I0.2918 J-0.7757
G1 X0.5731 Y2.4464
G3 X0.4667 Y2.2521 I0.2174 J-0.2453
G1 X0.4672 Y2.249
X0.4682 Y2.2461
X0.4698 Y2.2435
X0.4719 Y2.2412
X0.4744 Y2.2393
X0.4772 Y2.2381
X0.4802 Y2.2374
X0.4833 Y2.2373
X0.4864 Y2.2378
X0.4893 Y2.239
G3 X0.4957 Y2.2452 I-0.007 J0.0137
G1 X0.5964 Y2.4271
G3 X0.5978 Y2.4384 I-0.0134 J0.0074
X0.5731 Y2.4464 I-0.0149 J-0.0039 F50.
X0.4685 Y2.368 I0.1599 J-0.3225 F60.
G1 X0.4676 Y2.3629
X0.4669 Y2.3527
Y2.1654
G3 X0.7195 Y1.8419 I0.3592 J0.0201
G1 X0.9185 Y1.8418
G3 X1.2046 Y1.9849 I-0.0368 J0.4313
X1.191 Y2.007 I-0.0138 J0.0067
G1 X1.188 Z-0.1297
X1.1851 Y2.0071 Z-0.1288
X1.1824 Z-0.1274
X1.1801 Z-0.1255
X1.1782 Y2.0072 Z-0.1232
X1.1768 Z-0.1205
X1.1759 Z-0.1176
X1.1756 Z-0.1146
G0 Z-0.0993
X0.8756 Y1.8584
G1 Z-0.1146 F50.
X0.8758 Y1.8583 Z-0.1176
X0.8766 Y1.8578 Z-0.1205
X0.8778 Y1.8571 Z-0.1232
X0.8794 Y1.8561 Z-0.1255
X0.8814 Y1.8549 Z-0.1274
X0.8837 Y1.8536 Z-0.1288
X0.8862 Y1.8521 Z-0.1297
X0.8888 Y1.8506 Z-0.13
G3 X0.9185 Y1.8418 I0.0318 J0.0536
X1.1266 Y1.8441 I0.0985 J0.5127 F60.
G1 X1.1281 Y1.845
X1.1348 Y1.8534
X1.4378 Y2.4238
G3 X1.4395 Y2.431 I-0.0136 J0.0072
X1.4371 Y2.4543 I-0.7642 J-0.0678
G1 X1.3876 Y2.9319
G2 X1.3942 Y2.9461 I0.0153 J0.0016
X1.4233 Y2.9568 I0.0353 J-0.0514 F50.
G1 X1.4979 Y2.9616 F60.
G2 X1.6524 Y2.8278 I-0.0131 J-0.1712
G1 X1.5617 Y2.6572
G2 X1.5484 Y2.6495 I-0.0133 J0.0077
X1.5271 Y2.6648 I0. J0.0224
X1.6243 Y2.8192 I0.1121 J0.0372
X1.6391 Y2.8201 I0.015 J-0.1172 F50.
G3 X1.6524 Y2.8278 I0. J0.0154
G1 X1.6737 Y2.8679 F60.
G3 X1.6536 Y2.9732 I-0.0883 J0.0377
G1 X1.6505 Y2.9727
X1.6476 Y2.9718
X1.645 Y2.9703
X1.6427 Y2.9684
X1.6408 Y2.9661
X1.6394 Y2.9635
X1.6385 Y2.9607
X1.6381 Y2.9579
X1.6382 Y2.955
X1.6388 Y2.9481
G3 X1.6477 Y2.8669 I0.1174 J-0.0282
X1.6737 Y2.8679 I0.0126 J0.0088 F50.
G1 X1.711 Y2.9382 F60.
G3 X1.7095 Y2.9753 I-0.0128 J0.0181
X1.7006 Y2.9686 I-0.0007 J-0.0084
G1 X1.6969 Y2.951
X1.6954 Y2.9442 F50.
G3 X1.711 Y2.9382 I0.0083 J-0.0018
G1 X1.7209 Y2.9567 F60.
X1.7241 Y2.9669
X1.724 Y2.9688
X1.7239 Y2.9695
X1.7233 Y2.971
X1.723 Y2.9714
X1.7216 Y2.9729
G3 X1.7086 Y2.9753 I-0.0099 J-0.0175
G1 X1.4979 Y2.9616
G3 X1.4862 Y2.9384 I0.0015 J-0.0153
G1 X1.4878 Y2.9358 Z-0.1297
X1.4893 Y2.9334 Z-0.1288
X1.4906 Y2.9311 Z-0.1274
X1.4918 Y2.9291 Z-0.1255
X1.4928 Y2.9274 Z-0.1232
X1.4936 Y2.9262 Z-0.1205
X1.494 Y2.9255 Z-0.1176
X1.4942 Y2.9252 Z-0.1146
G0 Z-0.0993
X0.5903 Y2.4396
G1 Z-0.1146 F50.
X0.5904 Y2.4399 Z-0.1176
X0.5906 Y2.4407 Z-0.1205
X0.591 Y2.4421 Z-0.1232
X0.5916 Y2.4439 Z-0.1255
X0.5923 Y2.4462 Z-0.1274
X0.593 Y2.4487 Z-0.1288
X0.5939 Y2.4515 Z-0.1297
X0.5947 Y2.4543 Z-0.13
G2 X0.6108 Y2.4808 I0.0596 J-0.0181
G3 X0.8389 Y2.8106 I-0.5771 J0.6428 F60.
G2 X0.9411 Y2.9254 I0.2379 J-0.1089
G1 X1.1999 Y2.9422
G2 X1.2065 Y2.9127 I0.0005 J-0.0154
G1 X0.8574 Y2.7681
G2 X0.8364 Y2.7797 I-0.0059 J0.0142
X0.8389 Y2.8106 I0.0614 J0.0106 F50.
X0.8775 Y2.9189 I0.1593 J0.0042 F60.
X0.9411 Y2.9254 I0.046 J-0.1362
X0.9553 Y2.917 I0.0005 J-0.0154
G1 X0.9566 Y2.9143 Z-0.1297
X0.9579 Y2.9118 Z-0.1288
X0.9591 Y2.9094 Z-0.1274
X0.9602 Y2.9073 Z-0.1255
X0.9611 Y2.9056 Z-0.1232
X0.9617 Y2.9043 Z-0.1205
X0.9621 Y2.9036 Z-0.1176
X0.9622 Y2.9033 Z-0.1146
G0 Z-0.0993
X0.4834 Y2.2082
G1 Z-0.1146 F50.
X0.4833 Y2.208 Z-0.1176
X0.4828 Y2.2072 Z-0.1205
X0.4821 Y2.206 Z-0.1232
X0.4811 Y2.2044 Z-0.1255
X0.4799 Y2.2024 Z-0.1274
X0.4786 Y2.2001 Z-0.1288
X0.4771 Y2.1976 Z-0.1297
X0.4756 Y2.195 Z-0.13
G3 X0.4669 Y2.1654 I0.0536 J-0.0318
G1 Y1.978 F60.
G3 X0.5366 Y1.8407 I0.1806 J0.0054
G1 X0.5396 Y1.841
X0.5425 Y1.8419
X0.5451 Y1.8433
X0.5475 Y1.8451
X0.5494 Y1.8472
X0.551 Y1.8497
X0.552 Y1.8524
X0.5525 Y1.8553
Y1.8581
X0.552 Y1.8609
X0.5509 Y1.8636
X0.5506 Y1.8643
X0.4962 Y1.9838
G3 X0.4893 Y1.9911 I-0.014 J-0.0064
X0.4669 Y1.978 I-0.007 J-0.0137 F50.
X0.4694 Y1.8472 I0.3099 J-0.0595 F60.
G1 X0.4703 Y1.8458
X0.4707 Y1.8454
G3 X0.4845 Y1.8418 I0.0115 J0.0165
G1 X0.7194
G3 X0.7322 Y1.8495 I-0.0005 J0.0154
G1 X0.7329 Y1.8518 Z-0.1298
X0.7336 Y1.854 Z-0.1293
X0.7342 Y1.8561 Z-0.1284
X0.7343 Y1.8572 Z-0.1277
X0.7337 Y1.8595 Z-0.1259
X0.7333 Y1.8615 Z-0.1236
X0.733 Y1.863 Z-0.121
X0.7327 Y1.8639 Z-0.1181
X0.7326 Y1.8642 Z-0.1164
Y1.8643 Z-0.1146
G0 Z0.4
X2.704 Y6.0925
Z-0.0993
G1 Z-0.1146 F50.
X2.7038 Y6.0923 Z-0.1176
X2.7032 Y6.0916 Z-0.1205
X2.7022 Y6.0906 Z-0.1232
X2.701 Y6.0892 Z-0.1255
X2.6994 Y6.0874 Z-0.1274
X2.6976 Y6.0855 Z-0.1288
X2.6956 Y6.0833 Z-0.1297
X2.6936 Y6.0811 Z-0.13
G3 X2.6437 Y6.0129 I0.29 J-0.2643
G1 X2.6456 Y6.0058 F60.
X2.648 Y5.9988
X2.651 Y5.9921
X2.6545 Y5.9856
X2.6586 Y5.9795
X2.6632 Y5.9737
X2.6682 Y5.9684
X2.6737 Y5.9635
X2.6795 Y5.959
X2.6857 Y5.955
X2.6922 Y5.9516
X2.699 Y5.9488
X2.706 Y5.9465
X2.7132 Y5.9448
X2.7204 Y5.9437
X2.7278 Y5.9432
X2.7351 Y5.9433
X2.7424 Y5.9441
X2.7497 Y5.9454
X2.7568 Y5.9474
X2.7637 Y5.9499
X2.7703 Y5.953
X2.7767 Y5.9567
X2.7828 Y5.9608
X2.7885 Y5.9655
X2.7938 Y5.9706
G3 X3.0563 Y6.1871 I-0.488 J0.8592
G1 X3.1668 Y6.2956
X3.5645 Y6.6862
G3 X3.7393 Y6.9212 I-0.2465 J0.3657
X3.4451 Y7.1009 I-0.1845 J0.0286
X3.1937 Y6.8716 I1.4603 J-1.8532
G1 X2.9948 Y6.6763
G2 X2.6022 Y6.3078 I-4.5382 J4.4415
X2.288 Y6.3052 I-0.2069 J6.0236
G1 X1.9783 Y6.308
G3 X1.7918 Y6.2478 I-0.0289 J-0.2294
G1 X1.7843 Y6.2401
X1.7772 Y6.2321
X1.7706 Y6.2236
X1.7645 Y6.2148
X1.7589 Y6.2056
X1.7539 Y6.1962
X1.7494 Y6.1864
X1.7454 Y6.1764
X1.742 Y6.1663
X1.7392 Y6.1559
X1.737 Y6.1454
X1.7354 Y6.1348
X1.7344 Y6.1241
X1.734 Y6.1134
X1.7342 Y6.1026
X1.7351 Y6.0919
X1.7365 Y6.0813
X1.7386 Y6.0708
X1.7412 Y6.0604
X1.7444 Y6.0501
X1.7482 Y6.0401
X1.7526 Y6.0303
X1.7575 Y6.0208
X1.7629 Y6.0115
X1.7689 Y6.0026
X1.7754 Y5.994
X1.7823 Y5.9858
X1.7897 Y5.9781
X1.7975 Y5.9707
X1.8057 Y5.9638
X1.8143 Y5.9574
X1.8233 Y5.9515
X1.8326 Y5.9461
X1.8421 Y5.9413
X1.852 Y5.937
X1.862 Y5.9332
X1.8723 Y5.9301
X1.8827 Y5.9275
X1.8932 Y5.9255
X1.9039 Y5.9241
X1.9146 Y5.9234
X1.9253 Y5.9232
X1.936 Y5.9237
X1.9467 Y5.9247
X1.9573 Y5.9264
G3 X2.2062 Y5.9138 I0.2066 J1.6166
G1 X2.5314 Y5.9108
G3 X3.0215 Y6.0256 I0.1853 J0.3127
X3.2943 Y6.2806 I-1.6759 J2.066
G1 X3.6699 Y6.6496
G3 X3.6973 Y6.6774 I-0.054 J0.0804
G1 X3.8135 Y6.896
X3.8168 Y6.908
X3.8196 Y6.9202
X3.8218 Y6.9324
X3.8234 Y6.9448
X3.8244 Y6.9572
X3.8248 Y6.9696
X3.8246 Y6.982
X3.8238 Y6.9945
X3.8224 Y7.0068
X3.8204 Y7.0191
X3.8178 Y7.0313
X3.8146 Y7.0433
X3.8109 Y7.0552
X3.8066 Y7.0669
X3.8017 Y7.0783
X3.7963 Y7.0895
X3.7903 Y7.1004
X3.7838 Y7.1111
X3.7768 Y7.1214
X3.7694 Y7.1313
X3.7614 Y7.1409
X3.753 Y7.1501
X3.7442 Y7.1589
X3.7349 Y7.1672
X3.7253 Y7.1751
X3.7153 Y7.1825
X3.705 Y7.1894
X3.6943 Y7.1958
X3.6833 Y7.2017
X3.6721 Y7.207
X3.6606 Y7.2118
X3.6489 Y7.216
X3.637 Y7.2197
X3.6249 Y7.2228
X3.6127 Y7.2253
X3.6004 Y7.2272
X3.5881 Y7.2285
X3.5756 Y7.2292
X3.5632 Y7.2293
X3.5508 Y7.2288
X3.5384 Y7.2278
X3.345 Y7.1302
G3 X3.0439 Y6.8647 I1.1018 J-1.5524
G1 X2.6241 Y6.4524
G2 X2.3246 Y6.4052 I-0.2309 J0.4912
G1 X2.2936 Y6.4053
X2.2317 Y6.4057
X2.0149 Y6.4076
G3 X1.9089 Y6.4011 I-0.0405 J-0.2061
G1 X1.7628 Y6.3269
X1.7521 Y6.3203
X1.7417 Y6.3131
X1.7317 Y6.3054
X1.722 Y6.2972
X1.7128 Y6.2885
X1.7041 Y6.2794
X1.6958 Y6.2699
X1.6879 Y6.26
X1.6806 Y6.2497
X1.6738 Y6.239
X1.6676 Y6.228
X1.6619 Y6.2168
X1.6567 Y6.2052
X1.6522 Y6.1934
X1.6482 Y6.1814
X1.6448 Y6.1692
X1.6421 Y6.1569
X1.64 Y6.1444
X1.6384 Y6.1319
X1.6376 Y6.1193
X1.6373 Y6.1067
X1.6377 Y6.094
X1.6387 Y6.0814
X1.6403 Y6.0689
X1.6425 Y6.0564
X1.6454 Y6.0441
X1.6488 Y6.032
X1.6529 Y6.02
X1.6576 Y6.0083
X1.6628 Y5.9968
X1.6686 Y5.9855
X1.6749 Y5.9746
X1.6818 Y5.964
X1.6892 Y5.9538
X1.6971 Y5.9439
X1.7055 Y5.9344
X1.7143 Y5.9254
X1.8332 Y5.8614
G3 X2.2602 Y5.8133 I0.3403 J1.1025
G1 X2.289 Y5.8139
X2.3178 Y5.814
X2.3466 Y5.8134
X2.3754 Y5.8123
X2.4041 Y5.8105
X2.4328 Y5.8082
X2.4615 Y5.8053
X2.4901 Y5.8017
X2.5186 Y5.7976
X2.547 Y5.7929
X2.5753 Y5.7876
X2.6035 Y5.7818
X2.6316 Y5.7753
X2.6595 Y5.7683
X2.6873 Y5.7606
G3 X3.1633 Y6.0128 I-0.029 J0.6301
X3.3185 Y6.1642 I-15.8107 J16.3539
G1 X3.5394 Y6.3812
X3.5401 Y6.382
X3.5407 Y6.3828
X3.5413 Y6.3837
X3.6973 Y6.6774
G3 X3.6962 Y6.6927 I-0.0138 J0.0067
X3.6719 Y6.7033 I-0.0204 J-0.0138
X3.5324 Y6.4116 I0.0316 J-0.1943
G1 X3.5402 Y6.399 F50.
G2 X3.5413 Y6.3837 I-0.0127 J-0.0086
G1 X3.4154 Y6.1466 F60.
G2 X2.8546 Y5.6728 I-1.2059 J0.8584
X2.4262 Y5.7185 I-0.1078 J1.0199
X2.1054 Y5.7168 I-0.1775 J3.1201
G1 X1.8332 Y5.8614
G2 X1.8486 Y5.888 I0.0077 J0.0133
X1.8541 Y5.8669 I-0.0077 J-0.0133
X1.8329 Y5.8616 I-0.0132 J0.0078
G1 X1.7353 Y5.9208
G2 X1.7513 Y5.9471 I0.008 J0.0131
X1.7441 Y5.9186 I-0.008 J-0.0131
X1.7138 Y5.9248 I-0.003 J0.0622 F50.
G1 X1.6221 Y5.9735 F60.
G2 X1.5659 Y6.2269 I0.1411 J0.1643
G1 X1.7628 Y6.3269
G2 X1.7758 Y6.2991 I0.0065 J-0.0139
X1.7553 Y6.3066 I-0.0065 J0.0139
X1.763 Y6.327 I0.014 J0.0064
G1 X1.893 Y6.3857
G2 X1.9057 Y6.3576 I0.0063 J-0.014
X1.8864 Y6.3799 I-0.0063 J0.014
X1.9089 Y6.4011 I0.0526 J-0.0333 F50.
G1 X2.0535 Y6.4745 F60.
G2 X2.5086 Y6.514 I0.4128 J-2.1127
G3 X2.767 Y6.7329 I-0.617 J0.9903
G1 X2.9851 Y6.947
X2.9858 Y6.9477
X2.9867 Y6.9483
X2.9876 Y6.9488
X3.345 Y7.1302
G2 X3.3626 Y7.1057 I0.0065 J-0.0139
G3 X3.3842 Y7.0839 I0.0111 J-0.0106
G1 X3.5133 Y7.2042
X3.5146 Y7.2056
X3.5158 Y7.2072
G2 X3.5383 Y7.2284 I0.0526 J-0.0333 F50.
G1 X3.6158 Y7.2677 F60.
G2 X3.9049 Y7.0682 I0.0458 J-0.2429
G1 X3.8135 Y6.896
G2 X3.8002 Y6.8884 I-0.0133 J0.0077
G1 X3.8001
G2 X3.7809 Y6.9018 I0. J0.0205
X3.8768 Y7.0596 I0.1109 J0.0406
X3.8916 Y7.0605 I0.015 J-0.1172 F50.
G3 X3.9049 Y7.0682 I0. J0.0154
G1 X3.9288 Y7.1133 F60.
G3 X3.777 Y7.3496 I-0.2099 J0.032
G1 X3.6158 Y7.2677
G3 X3.6079 Y7.2546 I0.0074 J-0.0135
X3.6365 Y7.2216 I0.0326 J-0.0007
X3.7678 Y7.3216 I0.0145 J0.1172
X3.769 Y7.3364 I-0.1169 J0.0171 F50.
G2 X3.777 Y7.3496 I0.0154 J-0.0003
G1 X3.8176 Y7.3702 F60.
G2 X4.0041 Y7.255 I0.0286 J-0.1623
G1 X3.9288 Y7.1133
G2 X3.9156 Y7.1056 I-0.0133 J0.0077
X3.8758 Y7.1552 I-0.0001 J0.0407
X3.976 Y7.2464 I0.1152 J-0.026
X3.9909 Y7.2473 I0.015 J-0.1172 F50.
G3 X4.0041 Y7.255 I0. J0.0154
G1 X4.0203 Y7.2853 F60.
G3 X3.9476 Y7.4374 I-0.1132 J0.0393
G1 X3.8176 Y7.3702
G3 X3.8116 Y7.3493 I0.0074 J-0.0135
X3.8249 Y7.3413 I0.0135 J0.0075
X3.9331 Y7.4091 I0.0013 J0.1181
X3.9397 Y7.4267 I-0.1068 J0.0503 F50.
G2 X3.947 Y7.4359 I0.0148 J-0.0043
G1 X3.974 Y7.4496 F60.
G2 X4.0843 Y7.4027 I0.0298 J-0.0831
G1 X4.0203 Y7.2853
G2 X4.007 Y7.2777 I-0.0133 J0.0077
G1 X4.0069
G2 X3.9963 Y7.2848 I0. J0.0116
G1 X3.9958 Y7.2859
G2 X4.054 Y7.3926 I0.0731 J0.0293
X4.0688 Y7.394 I0.0149 J-0.0773 F50.
G3 X4.082 Y7.4017 I0. J0.0154
G1 X4.0934 Y7.423 F60.
G3 X4.0685 Y7.4995 I-0.0539 J0.0248
G1 X4.0657 Y7.4979
X4.0632 Y7.4958
X4.0613 Y7.4933
X4.0599 Y7.4905
X4.0591 Y7.4876
X4.0588 Y7.4846
X4.0591 Y7.4817
X4.0605 Y7.4689
G3 X4.0674 Y7.4219 I0.0726 J-0.0133
X4.0934 Y7.423 I0.0126 J0.0088 F50.
G1 X4.1217 Y7.4763 F60.
G3 X4.1107 Y7.519 I-0.015 J0.019
X4.0904 Y7.4847 I0.019 J-0.0345
X4.0952 Y7.4729 I0.0168 J0.
X4.1217 Y7.4763 I0.012 J0.0117 F50.
G1 X4.1408 Y7.5123 F60.
X4.1422 Y7.5167
X4.1441 Y7.5225
Y7.5232
X4.144 Y7.5247
X4.1438 Y7.5254
X4.1432 Y7.5269
X4.1426 Y7.5276
X4.1413 Y7.529
X4.1394 Y7.5299
X4.1388 Y7.53
G3 X3.974 Y7.4496 I0.086 J-0.3853
X3.9724 Y7.4237 I0.0074 J-0.0135
G1 X3.9748 Y7.4219 Z-0.1297
X3.9772 Y7.4202 Z-0.1288
X3.9793 Y7.4187 Z-0.1274
X3.9812 Y7.4173 Z-0.1255
X3.9828 Y7.4162 Z-0.1232
X3.9839 Y7.4154 Z-0.1205
X3.9846 Y7.4149 Z-0.1176
X3.9849 Y7.4147 Z-0.1146
G0 Z-0.0993
X3.0333 Y6.9534
G1 Z-0.1146 F50.
X3.033 Z-0.1176
X3.0322 Y6.9535 Z-0.1205
X3.0307 Y6.9536 Z-0.1232
X3.0288 Y6.9537 Z-0.1255
X3.0265 Y6.9539 Z-0.1274
X3.0239 Y6.9541 Z-0.1288
X3.021 Y6.9542 Z-0.1297
X3.018 Y6.9544 Z-0.13
G3 X2.9876 Y6.9488 I-0.0041 J-0.0622
G1 X2.7479 Y6.8271 F60.
X2.6138 Y6.7239
X2.4795 Y6.621
G2 X2.3098 Y6.6047 I-0.6484 J5.8476
G1 X2.0535 Y6.4745
G3 X2.0455 Y6.4614 I0.0074 J-0.0135
X2.108 Y6.3986 I0.0615 J-0.0012
X2.301 Y6.5767 I-0.0029 J0.1968
G1 X2.3019 Y6.5915 F50.
G2 X2.3098 Y6.6047 I0.0154 J-0.0003
G1 X2.7479 Y6.8271 F60.
G2 X2.7643 Y6.825 I0.0065 J-0.0139
G1 X2.7666 Y6.8231 Z-0.1297
X2.7688 Y6.8212 Z-0.1288
X2.7708 Y6.8195 Z-0.1274
X2.7726 Y6.818 Z-0.1255
X2.7741 Y6.8168 Z-0.1232
X2.7752 Y6.8159 Z-0.1205
X2.7758 Y6.8153 Z-0.1176
X2.7761 Y6.8151 Z-0.1146
G0 Z-0.0993
X3.4208 Y6.1923
G1 Z-0.1146 F50.
X3.4209 Y6.192 Z-0.1176
Y6.1911 Z-0.1205
X3.421 Y6.1897 Z-0.1232
X3.4211 Y6.1878 Z-0.1255
X3.4212 Y6.1854 Z-0.1274
X3.4213 Y6.1828 Z-0.1288
X3.4214 Y6.1799 Z-0.1297
X3.4216 Y6.1769 Z-0.13
G2 X3.4154 Y6.1466 I-0.0622 J-0.003
G1 X3.2661 Y5.8656 F60.
G2 X2.4748 Y5.6086 I-0.5585 J0.3729
X2.3001 Y5.6134 I-0.0471 J1.4673
G1 X2.1054 Y5.7168
G2 X2.0978 Y5.7301 I0.0077 J0.0133
X2.1581 Y5.7822 I0.0526 J0.0001
X2.2917 Y5.6415 I-0.0232 J-0.1558
X2.2924 Y5.6266 I-0.1568 J-0.015 F50.
G3 X2.3001 Y5.6134 I0.0154 J0.
G1 X2.4665 Y5.525 F60.
X2.4852 Y5.5171
X2.5041 Y5.5099
X2.5232 Y5.5032
X2.5425 Y5.4971
X2.562 Y5.4916
X2.5817 Y5.4867
X2.6015 Y5.4824
X2.6214 Y5.4787
X2.6414 Y5.4756
X2.6615 Y5.4731
X2.6817 Y5.4712
X2.7019 Y5.4699
X2.7221 Y5.4693
X2.7424
X2.7626 Y5.4699
X2.7829 Y5.4711
X2.803 Y5.4729
X2.8232 Y5.4753
X2.8432 Y5.4783
X2.8631 Y5.482
X2.8829 Y5.4863
X2.9026 Y5.4911
X2.9221 Y5.4966
X2.9414 Y5.5026
X2.9606 Y5.5092
X2.9795 Y5.5164
X2.9982 Y5.5242
X3.0167 Y5.5326
X3.0349 Y5.5415
X3.0528 Y5.5509
X3.0704 Y5.5609
X3.0877 Y5.5714
X3.1047 Y5.5825
X3.1213 Y5.5941
X3.2661 Y5.8656
G3 X3.265 Y5.8809 I-0.0138 J0.0067
X3.2032 Y5.8986 I-0.0413 J-0.0278
X3.1127 Y5.6216 I0.0806 J-0.1796
G1 X3.1205 Y5.609 F50.
G2 X3.1216 Y5.5937 I-0.0127 J-0.0086
G1 X3.0712 Y5.4988 F60.
G2 X2.7524 Y5.3731 I-0.301 J0.2962
G1 X2.4665 Y5.525
G2 X2.4588 Y5.5383 I0.0077 J0.0133
X2.4825 Y5.5718 I0.0355 J0.0001
X2.7441 Y5.4012 I0.0654 J-0.1857
G1 X2.7447 Y5.3864 F50.
G3 X2.7524 Y5.3731 I0.0154 J0.
G1 X2.8393 Y5.327 F60.
G3 X2.9784 Y5.3242 I0.0724 J0.1354
